site/assets/luts/natron-haldclut--polaroid-px-680--a4b679b0b.cube
# LUTr-Project: LUTr — LUTrepository
# LUTr-Schema-Version: 1
# LUTr-ID: natron-haldclut--polaroid-px-680--a4b679b0b
# LUTr-Title: polaroid px-680
# LUTr-Collection: Natron HaldCLUT
# LUTr-Collection-ID: natron-haldclut-presets
# LUTr-Source: https://github.com/NatronGitHub/clut
# LUTr-Source-File: submissions/natron-haldclut-presets/instant_consumer/polaroid_px-680.png
# LUTr-Source-Format: PNG
# LUTr-Source-SHA256: 2f41b5725fa0897071fa70e7e3b49aa1cb04a6d00522715bfecf14a74b30ec18
# LUTr-License: CC-BY-SA-4.0
# LUTr-License-URL: https://github.com/NatronGitHub/clut#license
# LUTr-Tags: creative, film, film-emulation, hald-clut, natron, png, cube
# LUTr-Transform-Class: film-emulation
# LUTr-Input-Color-Space: srgb
# LUTr-Output-Color-Space: srgb
# LUTr-Color-Space-Confidence: assumed-display-referred
# LUTr-Conversion-Method: PNG LUT image decoded at 16-bit and sampled to 25x25x25 3D CUBE
# LUTr-Conversion-Date: 2026-07-27
# LUTr-Conversion-Tool: LUTr scripts/convert-all-to-cube.mjs
# LUTr-Conversion-Grid: 25x25x25
# LUTr-Note: Preserve this metadata and the upstream license notices when redistributing.
TITLE "polaroid px-680"
LUT_3D_SIZE 25
DOMAIN_MIN 0 0 0
DOMAIN_MAX 1 1 1
0.019607843 0.18431373 0.20392157
0.019607843 0.18431373 0.20392157
0.019607843 0.18333333 0.20392157
0.019607843 0.18039216 0.20392157
0.023529412 0.18039216 0.20392157
0.043627451 0.18039216 0.20392157
0.053921569 0.18039216 0.20392157
0.10147059 0.18039216 0.20392157
0.14901961 0.18039216 0.20392157
0.22598039 0.18284314 0.20392157
0.32745098 0.18823529 0.20294118
0.42647059 0.19166667 0.2
0.5254902 0.19411765 0.19803922
0.5995098 0.2 0.19558824
0.67156863 0.20392157 0.18921569
0.74362745 0.20784314 0.18431373
0.78431373 0.24313725 0.19215686
0.81911765 0.29215686 0.20637255
0.85392157 0.34215686 0.22058824
0.88872549 0.39754902 0.23088235
0.92352941 0.44705882 0.24509804
0.94166667 0.47941176 0.25539216
0.95588235 0.50294118 0.2627451
0.97009804 0.52843137 0.27205882
0.98431373 0.55294118 0.27843137
0.019607843 0.18676471 0.20392157
0.019607843 0.18676471 0.20392157
0.019607843 0.18676471 0.20392157
0.021752451 0.18676471 0.20392157
0.040196078 0.18676471 0.20637255
0.056372549 0.18645833 0.20392157
0.069607843 0.18431373 0.20392157
0.11813725 0.18676471 0.20392157
0.16960784 0.18676471 0.20392157
0.24356618 0.19068627 0.20392157
0.33566176 0.19007353 0.20294118
0.43284314 0.19166667 0.2
0.52867647 0.19289216 0.19681373
0.60588235 0.20030637 0.19558824
0.6754902 0.20759804 0.19105392
0.74123775 0.22653186 0.18823529
0.79215686 0.25588235 0.19215686
0.8254902 0.30189951 0.20245098
0.86029412 0.35245098 0.21666667
0.89246324 0.4 0.23057598
0.92352941 0.44828431 0.24264706
0.94166667 0.47941176 0.25539216
0.95526961 0.50392157 0.26176471
0.96672794 0.52990196 0.27205882
0.97794118 0.55294118 0.27843137
0.015686275 0.19215686 0.20784314
0.019240196 0.19031863 0.20784314
0.021568627 0.19215686 0.20784314
0.035294118 0.19215686 0.20784314
0.054411765 0.19215686 0.20784314
0.072181373 0.19215686 0.20784314
0.093137255 0.18921569 0.20392157
0.13811275 0.19215686 0.20392157
0.19411765 0.19313725 0.20392157
0.26960784 0.20098039 0.20428922
0.35906863 0.2002451 0.20392157
0.44852941 0.19705882 0.2
0.53676471 0.19264706 0.19803922
0.61213235 0.20208333 0.19571078
0.67647059 0.22647059 0.19215686
0.73823529 0.25232843 0.19215686
0.79313725 0.27745098 0.19215686
0.83639706 0.31666667 0.19852941
0.87034314 0.3627451 0.21176471
0.89669118 0.41029412 0.22561275
0.92156863 0.45196078 0.23627451
0.9377451 0.4807598 0.2504902
0.95171569 0.50784314 0.26176471
0.96372549 0.53272059 0.26997549
0.97647059 0.55294118 0.27843137
0.012254902 0.19558824 0.20784314
0.015686275 0.19558824 0.20784314
0.027941176 0.19607843 0.20784314
0.041727941 0.19607843 0.20784314
0.064215686 0.19607843 0.20784314
0.086764706 0.19607843 0.20784314
0.11372549 0.19571078 0.20477941
0.15343137 0.19607843 0.20392157
0.21862745 0.20343137 0.20392157
0.29460784 0.20998775 0.20410539
0.37696078 0.21470588 0.20306373
0.4622549 0.21084559 0.2
0.54485294 0.21053922 0.19607843
0.61813725 0.22310049 0.19264706
0.67990196 0.25061275 0.19264706
0.7403799 0.27647059 0.19215686
0.7995098 0.30098039 0.19215686
0.85 0.33216912 0.19460784
0.87254902 0.37561275 0.20147059
0.89705882 0.41715686 0.21176471
0.91789216 0.45686275 0.22426471
0.9338848 0.48682598 0.24068627
0.94840686 0.51164216 0.25698529
0.96372549 0.53756127 0.26813725
0.97254902 0.55686275 0.2745098
0.0078431373 0.2 0.20784314
0.014215686 0.20122549 0.20784314
0.024509804 0.20196078 0.20784314
0.036764706 0.20196078 0.20784314
0.056862745 0.20392157 0.20784314
0.08627451 0.20367647 0.20759804
0.12647059 0.20196078 0.20392157
0.16372549 0.20073529 0.20392157
0.2372549 0.21176471 0.20392157
0.31446078 0.22598039 0.20392157
0.39166667 0.22990196 0.1995098
0.47254902 0.23137255 0.19436275
0.55 0.23333333 0.19215686
0.62107843 0.25196078 0.19215686
0.68823529 0.27254902 0.19068627
0.74534314 0.29705882 0.18946078
0.8 0.32156863 0.18823529
0.84460784 0.35245098 0.19142157
0.87107843 0.3877451 0.19460784
0.89656863 0.42745098 0.20147059
0.91666667 0.4627451 0.21372549
0.93039216 0.49142157 0.23235294
0.94705882 0.51764706 0.2495098
0.9629902 0.54362745 0.26421569
0.97254902 0.56078431 0.2745098
0.0039215686 0.20441176 0.20784314
0.010294118 0.20833333 0.20784314
0.019240196 0.20833333 0.20784314
0.026531863 0.20833333 0.20741422
0.044362745 0.20833333 0.20735294
0.079901961 0.20882353 0.20392157
0.12414216 0.21311275 0.20392157
0.17420343 0.21911765 0.20343137
0.24803922 0.23676471 0.2
0.32775735 0.25067402 0.1995098
0.40477941 0.24840686 0.19595588
0.48284314 0.24761029 0.19172794
0.55539216 0.25588235 0.1877451
0.62303922 0.27647059 0.1877451
0.68823529 0.29705882 0.18517157
0.75030637 0.31501225 0.18253676
0.80392157 0.34166667 0.18382353
0.83823529 0.37334559 0.18676471
0.86556373 0.40784314 0.19215686
0.89307598 0.43921569 0.19215686
0.91372549 0.46960784 0.20612745
0.92990196 0.5004902 0.22843137
0.94411765 0.53088235 0.24901961
0.9596201 0.55422794 0.26421569
0.96813725 0.56911765 0.27058824
0.0039215686 0.2245098 0.20784314
0.0084558824 0.2245098 0.20784314
0.015931373 0.22156863 0.20784314
0.020465686 0.21813725 0.20404412
0.026960784 0.21470588 0.20392157
0.073039216 0.22634804 0.20392157
0.12671569 0.24289216 0.20098039
0.18933824 0.25343137 0.19889706
0.26176471 0.26764706 0.19313725
0.34019608 0.27610294 0.19313725
0.41764706 0.27622549 0.19142157
0.49362745 0.2745098 0.18566176
0.56372549 0.28284314 0.18431373
0.62683824 0.30392157 0.18394608
0.69117647 0.32156863 0.18039216
0.75183824 0.33786765 0.17647059
0.80098039 0.36176471 0.17647059
0.83125 0.39754902 0.18676471
0.85882353 0.43235294 0.19289216
0.88884804 0.46617647 0.19901961
0.91029412 0.49558824 0.21617647
0.92647059 0.52058824 0.23223039
0.94313725 0.54436275 0.24901961
0.95833333 0.56666667 0.26237745
0.96470588 0.57647059 0.26764706
0.0039215686 0.26078431 0.20784314
0.0078431373 0.26078431 0.20784314
0.014583333 0.25686275 0.20784314
0.01942402 0.25294118 0.20392157
0.022794118 0.25759804 0.20392157
0.049019608 0.26697304 0.2
0.10698529 0.27941176 0.2
0.18529412 0.29362745 0.19607843
0.27058824 0.30147059 0.19215686
0.35196078 0.31084559 0.18823529
0.42683824 0.31997549 0.18786765
0.5 0.325 0.18431373
0.57205882 0.33480392 0.18161765
0.64381127 0.34540441 0.18431373
0.70245098 0.36286765 0.17928922
0.75637255 0.38229167 0.17647059
0.79852941 0.39558824 0.18039216
0.82604167 0.42352941 0.19068627
0.85355392 0.45686275 0.19705882
0.87990196 0.4877451 0.20735294
0.90441176 0.51862745 0.22622549
0.92469363 0.54509804 0.24117647
0.94019608 0.56568627 0.25147059
0.95588235 0.58180147 0.26176471
0.96078431 0.5872549 0.26813725
0.0039215686 0.30196078 0.20784314
0.0078431373 0.30196078 0.20784314
0.012745098 0.29803922 0.20392157
0.015686275 0.30147059 0.20392157
0.01372549 0.30196078 0.20196078
0.017156863 0.30637255 0.2
0.07745098 0.31960784 0.19607843
0.1754902 0.33480392 0.19607843
0.2745098 0.34901961 0.19607843
0.36078431 0.35931373 0.18970588
0.43431373 0.36960784 0.18431373
0.51029412 0.37990196 0.18039216
0.58235294 0.39019608 0.17647059
0.65343137 0.39705882 0.17990196
0.70490196 0.41764706 0.17647059
0.75245098 0.42892157 0.18039216
0.79607843 0.43921569 0.18431373
0.82303922 0.45588235 0.19068627
0.84901961 0.48039216 0.19705882
0.87352941 0.50833333 0.20735294
0.89803922 0.53921569 0.23137255
0.92205882 0.56911765 0.24754902
0.93627451 0.58235294 0.25490196
0.95196078 0.59754902 0.26813725
0.96078431 0.60392157 0.27843137
0.0039215686 0.33921569 0.20539216
0.0078431373 0.34074755 0.20447304
0.0078431373 0.34375 0.20392157
0.0078431373 0.34705882 0.20177696
0.0046568627 0.3495098 0.2
0.00030637255 0.3495098 0.19607843
0.064828431 0.36139706 0.19607843
0.16813725 0.37898284 0.19607843
0.26568627 0.39019608 0.19607843
0.35196078 0.39957108 0.190625
0.42953431 0.41176471 0.18431373
0.51764706 0.43106618 0.17696078
0.59656863 0.44485294 0.17132353
0.65735294 0.45588235 0.17254902
0.70306373 0.46617647 0.17647059
0.74944853 0.47555147 0.18339461
0.79215686 0.48284314 0.18823529
0.82058824 0.49215686 0.18970588
0.84546569 0.50490196 0.18970588
0.86960784 0.52892157 0.19834559
0.89411765 0.55539216 0.21862745
0.91439951 0.57598039 0.2377451
0.9317402 0.59546569 0.25723039
0.94895833 0.61268382 0.27297794
0.96078431 0.6245098 0.28480392
0.0039215686 0.38431373 0.20392157
0.0057598039 0.38431373 0.20392157
0.006127451 0.38848039 0.20294118
0.0039215686 0.39301471 0.2
0.0039215686 0.39705882 0.2
0.0052696078 0.40147059 0.2
0.042401961 0.4125 0.19779412
0.13811275 0.42107843 0.19607843
0.24019608 0.42745098 0.19215686
0.3310049 0.43737745 0.18823529
0.42352941 0.45686275 0.18357843
0.51617647 0.47745098 0.17781863
0.60490196 0.49705882 0.16813725
0.65686275 0.50637255 0.17389706
0.7002451 0.51446078 0.18039216
0.74460784 0.52303922 0.18823529
0.78823529 0.53039216 0.19215686
0.81666667 0.53431373 0.18970588
0.84191176 0.53406863 0.18333333
0.86568627 0.54620098 0.18284314
0.88921569 0.56960784 0.20294118
0.90686275 0.58982843 0.22757353
0.92647059 0.60784314 0.25196078
0.94411765 0.62634804 0.27144608
0.9627451 0.64313725 0.28921569
0.0039215686 0.42892157 0.2
0.0039215686 0.42941176 0.2
0.0039215686 0.43419118 0.2
0.0069240196 0.44025735 0.20343137
0.0075980392 0.44509804 0.20343137
0.0039215686 0.44944853 0.2
0.0015931373 0.45294118 0.19607843
0.1122549 0.4622549 0.1995098
0.22352941 0.46862745 0.19607843
0.32892157 0.475 0.19558824
0.41666667 0.4932598 0.1942402
0.50631127 0.51127451 0.18817402
0.5872549 0.52598039 0.18357843
0.64607843 0.54068627 0.1872549
0.69362745 0.55441176 0.19031863
0.74099265 0.56813725 0.19185049
0.78823529 0.57794118 0.19215686
0.8153799 0.57843137 0.19215686
0.83737745 0.57487745 0.18676471
0.86219363 0.57107843 0.18247549
0.88259804 0.58553922 0.19803922
0.90294118 0.60435049 0.22150735
0.92009804 0.6245098 0.24509804
0.93676471 0.63988971 0.2622549
0.94607843 0.64656863 0.275
0 0.4745098 0.19607843
0.0039215686 0.47573529 0.2
0.006372549 0.47843137 0.20441176
0.011519608 0.48235294 0.20759804
0.015686275 0.48627451 0.20784314
0.018137255 0.49019608 0.20563725
0.025 0.49166667 0.20392157
0.092892157 0.49754902 0.20269608
0.22156863 0.50784314 0.20588235
0.33455882 0.51617647 0.20980392
0.41323529 0.525 0.20539216
0.49779412 0.54215686 0.2002451
0.57156863 0.55588235 0.2
0.62990196 0.57132353 0.20220588
0.67941176 0.58823529 0.20392157
0.73357843 0.60343137 0.20196078
0.78823529 0.61568627 0.2
0.81078431 0.61372549 0.20392157
0.83137255 0.60882353 0.20539216
0.85392157 0.60588235 0.20759804
0.87647059 0.61470588 0.21568627
0.89705882 0.62598039 0.22401961
0.91470588 0.63676471 0.23578431
0.92230392 0.64387255 0.2504902
0.92941176 0.65098039 0.26078431
0.0078431373 0.51568627 0.20441176
0.0039215686 0.51568627 0.20441176
0.0078431373 0.51960784 0.20833333
0.0078431373 0.52352941 0.21219363
0.013235294 0.52745098 0.2122549
0.019240196 0.52745098 0.21133578
0.031127451 0.52745098 0.20833333
0.11078431 0.53284314 0.2122549
0.2245098 0.54313725 0.21617647
0.33682598 0.553125 0.22009804
0.41470588 0.55931373 0.21617647
0.490625 0.57261029 0.2122549
0.55637255 0.58553922 0.21421569
0.61372549 0.60153186 0.22009804
0.66519608 0.61568627 0.22009804
0.71795343 0.62990196 0.22058824
0.76764706 0.64019608 0.22058824
0.8004902 0.64197304 0.2245098
0.825 0.64068627 0.22843137
0.84601716 0.64068627 0.23235294
0.86838235 0.64681373 0.24044118
0.89074755 0.65594363 0.24509804
0.90882353 0.66017157 0.25232843
0.91390931 0.66029412 0.25373775
0.91421569 0.66029412 0.25637255
0.014705882 0.55294118 0.21470588
0.0078431373 0.55294118 0.21470588
0.0078431373 0.55710784 0.21495098
0.0078431373 0.56433824 0.2182598
0.0078431373 0.56862745 0.21862745
0.0098039216 0.56470588 0.21568627
0.054166667 0.56789216 0.21789216
0.15085784 0.57401961 0.22254902
0.24901961 0.58039216 0.22647059
0.3372549 0.5877451 0.22855392
0.41470588 0.59240196 0.22647059
0.48676471 0.6004902 0.22254902
0.54607843 0.61470588 0.22647059
0.5995098 0.62634804 0.2307598
0.65490196 0.63995098 0.23651961
0.70306373 0.6504902 0.24117647
0.75 0.66372549 0.24117647
0.79264706 0.67046569 0.2439951
0.81789216 0.67156863 0.2497549
0.83921569 0.67536765 0.25637255
0.86372549 0.67941176 0.26617647
0.8872549 0.68382353 0.27291667
0.90490196 0.6872549 0.27941176
0.91764706 0.6872549 0.28480392
0.92058824 0.69117647 0.2872549
0.019607843 0.59411765 0.225
0.0078431373 0.59411765 0.225
0.0068627451 0.59411765 0.22352941
0.0060661765 0.59785539 0.22352941
0.01127451 0.60441176 0.225
0.016176471 0.60196078 0.22126225
0.085661765 0.60441176 0.22610294
0.18229167 0.60980392 0.23131127
0.27647059 0.61617647 0.23676471
0.34613971 0.62009804 0.23676471
0.41617647 0.62401961 0.23468137
0.48333333 0.63137255 0.2341299
0.54117647 0.64093137 0.24142157
0.60030637 0.6504902 0.25
0.65428922 0.6622549 0.2557598
0.7 0.675 0.25876225
0.74509804 0.68529412 0.26176471
0.78535539 0.69558824 0.26268382
0.8122549 0.70134804 0.27267157
0.83645833 0.70618873 0.28627451
0.8620098 0.7122549 0.29656863
0.88333333 0.71599265 0.30294118
0.90061275 0.71813725 0.30931373
0.91966912 0.71960784 0.31868873
0.92696078 0.72205882 0.32352941
0.015686275 0.63137255 0.23529412
0.0078431373 0.63137255 0.23137255
0.01372549 0.63137255 0.23137255
0 0.63137255 0.22745098
0.047058824 0.63529412 0.23333333
0.1245098 0.63921569 0.23921569
0.18235294 0.63921569 0.24313725
0.24558824 0.64068627 0.24460784
0.31372549 0.64313725 0.24705882
0.37794118 0.64705882 0.24705882
0.44117647 0.65098039 0.24803922
0.49558824 0.65833333 0.25441176
0.54705882 0.66470588 0.25882353
0.60294118 0.675 0.26715686
0.65784314 0.68529412 0.27352941
0.7 0.69558824 0.27843137
0.74117647 0.70588235 0.28235294
0.77843137 0.71617647 0.29264706
0.80588235 0.72254902 0.30294118
0.82990196 0.73284314 0.31323529
0.85686275 0.74313725 0.3254902
0.88284314 0.74901961 0.33382353
0.9 0.74901961 0.34019608
0.91666667 0.7504902 0.3504902
0.9372549 0.75686275 0.36078431
0.053921569 0.67009804 0.24656863
0.045281863 0.67009804 0.24503676
0.083088235 0.66617647 0.24803922
0.11458333 0.66832108 0.24656863
0.14436275 0.66617647 0.24877451
0.20196078 0.66764706 0.25343137
0.25257353 0.66764706 0.25735294
0.29466912 0.66764706 0.25735294
0.35490196 0.67009804 0.26127451
0.41176471 0.67310049 0.26525735
0.46470588 0.67830882 0.27156863
0.5127451 0.68314951 0.275
0.55980392 0.68921569 0.27867647
0.60900735 0.69803922 0.28382353
0.6560049 0.70980392 0.29019608
0.69699755 0.71709559 0.3004902
0.73480392 0.72647059 0.31078431
0.76960784 0.73676471 0.32199755
0.79620098 0.74313725 0.33137255
0.82224265 0.75128676 0.34166667
0.84852941 0.75857843 0.35122549
0.87303922 0.76354167 0.35833333
0.89252451 0.76568627 0.36715686
0.91029412 0.77107843 0.375
0.92696078 0.77745098 0.38529412
0.21176471 0.70784314 0.26960784
0.18602941 0.70134804 0.27144608
0.20367647 0.70098039 0.27254902
0.24473039 0.70098039 0.27340686
0.26029412 0.69852941 0.27303922
0.27843137 0.69571078 0.27218137
0.30220588 0.69313725 0.26960784
0.3370098 0.69313725 0.27156863
0.38823529 0.69705882 0.27647059
0.44264706 0.70098039 0.28676471
0.48602941 0.70563725 0.29240196
0.53333333 0.71139706 0.29607843
0.57843137 0.71568627 0.3
0.62205882 0.72352941 0.30539216
0.65514706 0.73039216 0.31568627
0.69068627 0.73676471 0.32598039
0.7254902 0.74705882 0.33921569
0.76213235 0.7567402 0.3495098
0.78946078 0.7627451 0.35980392
0.81372549 0.7692402 0.36715686
0.83823529 0.77352941 0.375
0.8627451 0.77794118 0.38284314
0.88333333 0.78455882 0.39313725
0.90392157 0.79166667 0.40441176
0.91666667 0.79901961 0.41470588
0.29411765 0.73235294 0.29656863
0.29381127 0.73186275 0.29705882
0.29607843 0.72794118 0.3004902
0.31372549 0.7283701 0.30392157
0.33014706 0.72794118 0.30441176
0.35055147 0.72401961 0.3004902
0.375 0.72401961 0.30012255
0.3973652 0.72401961 0.3
0.43284314 0.7245098 0.30441176
0.48088235 0.72824755 0.31127451
0.52254902 0.73198529 0.31666667
0.55435049 0.73535539 0.32052696
0.59534314 0.73823529 0.32622549
0.63927696 0.74460784 0.33878676
0.66409314 0.75183824 0.34301471
0.69411765 0.76109069 0.35686275
0.7254902 0.76764706 0.36372549
0.75422794 0.77420343 0.37401961
0.78370098 0.78333333 0.38419118
0.80735294 0.7872549 0.3911152
0.83161765 0.79117647 0.40073529
0.8528799 0.79515931 0.40735294
0.87696078 0.80196078 0.42022059
0.89969363 0.8158701 0.43314951
0.91372549 0.82598039 0.44558824
0.37254902 0.75882353 0.32352941
0.37254902 0.75759804 0.3254902
0.37892157 0.75490196 0.32843137
0.38970588 0.75857843 0.33480392
0.40098039 0.75882353 0.3372549
0.42230392 0.75490196 0.33529412
0.44117647 0.75490196 0.33333333
0.46372549 0.75490196 0.33529412
0.48627451 0.75490196 0.33529412
0.52352941 0.75808824 0.33921569
0.55539216 0.75882353 0.34362745
0.58137255 0.76053922 0.34705882
0.61078431 0.76372549 0.35294118
0.64656863 0.76911765 0.36127451
0.6745098 0.77598039 0.37352941
0.70294118 0.78308824 0.38382353
0.72745098 0.79019608 0.39411765
0.75318627 0.79534314 0.40122549
0.77892157 0.80098039 0.40833333
0.80294118 0.80735294 0.41519608
0.8254902 0.80980392 0.4254902
0.84607843 0.81617647 0.4377451
0.87009804 0.8245098 0.44803922
0.89117647 0.83676471 0.4629902
0.90588235 0.84705882 0.47647059
0.45882353 0.78578431 0.3504902
0.45833333 0.78578431 0.35294118
0.45931373 0.78578431 0.35931373
0.46568627 0.78578431 0.36568627
0.47205882 0.78946078 0.37034314
0.48621324 0.78621324 0.37058824
0.50637255 0.78578431 0.37058824
0.52696078 0.78578431 0.37040441
0.54362745 0.78578431 0.36666667
0.56194853 0.78578431 0.36881127
0.5877451 0.78590686 0.37536765
0.6122549 0.78970588 0.38186275
0.63676471 0.79166667 0.38627451
0.65772059 0.79411765 0.39454657
0.68394608 0.80134804 0.40441176
0.71292892 0.80900735 0.41488971
0.7377451 0.81323529 0.425
0.75833333 0.81930147 0.43155637
0.77892157 0.82193627 0.43419118
0.79908088 0.82800245 0.44019608
0.81960784 0.83431373 0.45441176
0.83970588 0.84068627 0.46519608
0.86029412 0.84754902 0.47892157
0.87941176 0.85735294 0.49283088
0.89313725 0.86764706 0.50294118
0.52058824 0.81666667 0.38823529
0.52414216 0.81666667 0.39068627
0.52745098 0.81666667 0.39387255
0.5310049 0.81666667 0.4
0.5372549 0.81862745 0.40490196
0.54362745 0.82058824 0.40784314
0.55563725 0.82058824 0.40784314
0.5745098 0.81960784 0.40784314
0.59117647 0.81666667 0.40490196
0.6002451 0.81666667 0.40784314
0.61960784 0.82058824 0.41642157
0.64571078 0.82058824 0.42303922
0.66470588 0.8245098 0.42745098
0.68137255 0.82843137 0.43529412
0.69877451 0.83137255 0.43921569
0.72107843 0.83664216 0.4495098
0.74803922 0.84411765 0.45980392
0.76862745 0.84803922 0.46666667
0.78848039 0.85196078 0.47058824
0.80245098 0.84901961 0.47156863
0.81764706 0.85539216 0.48333333
0.83627451 0.86519608 0.49865196
0.85392157 0.87230392 0.50980392
0.87058824 0.88186275 0.52401961
0.88333333 0.88823529 0.53431373
0.58137255 0.84754902 0.42941176
0.58382353 0.84754902 0.43333333
0.58590686 0.84754902 0.4372549
0.5877451 0.84754902 0.43970588
0.59166667 0.84754902 0.43970588
0.5995098 0.84785539 0.44019608
0.60637255 0.85147059 0.44362745
0.61966912 0.85147059 0.44362745
0.63333333 0.85147059 0.44509804
0.64117647 0.84754902 0.44509804
0.6495098 0.84852941 0.4495098
0.67224265 0.85520833 0.4627451
0.68921569 0.85808824 0.46862745
0.70539216 0.85980392 0.47518382
0.71813725 0.86176471 0.475
0.73290441 0.86323529 0.48039216
0.75441176 0.87107843 0.49460784
0.77892157 0.87745098 0.5033701
0.79460784 0.87745098 0.50392157
0.80704657 0.87371324 0.50245098
0.82034314 0.8747549 0.50686275
0.83578431 0.88578431 0.52285539
0.85 0.89607843 0.54215686
0.86568627 0.90637255 0.55637255
0.87843137 0.91421569 0.56666667
0.63137255 0.8745098 0.46666667
0.63529412 0.8745098 0.47058824
0.63137255 0.87058824 0.46666667
0.63137255 0.87058824 0.46666667
0.63333333 0.87058824 0.46666667
0.63970588 0.87058824 0.46666667
0.65 0.8745098 0.46960784
0.66176471 0.87990196 0.47598039
0.66666667 0.87843137 0.47843137
0.67303922 0.8745098 0.47843137
0.67647059 0.87156863 0.47647059
0.69362745 0.87843137 0.48970588
0.70980392 0.88627451 0.50392157
0.72156863 0.88578431 0.50539216
0.72843137 0.87843137 0.49803922
0.74264706 0.87990196 0.4995098
0.76470588 0.89019608 0.51764706
0.78676471 0.90343137 0.53480392
0.79705882 0.89803922 0.53333333
0.81127451 0.89460784 0.52941176
0.82156863 0.89019608 0.52941176
0.83627451 0.89901961 0.54215686
0.85 0.9127451 0.5627451
0.86421569 0.92696078 0.58333333
0.87843137 0.94117647 0.60392157
0.023529412 0.18431373 0.20784314
0.023529412 0.18431373 0.20784314
0.023529412 0.18431373 0.20637255
0.02567402 0.18431373 0.20765931
0.03504902 0.18357843 0.20784314
0.05 0.1841299 0.20784314
0.065073529 0.18039216 0.2067402
0.11176471 0.18039216 0.20784314
0.16568627 0.18039216 0.20637255
0.24019608 0.18039216 0.20484069
0.33382353 0.18247549 0.20392157
0.43333333 0.18792892 0.20030637
0.53063725 0.19215686 0.19803922
0.60980392 0.2 0.19589461
0.67794118 0.2057598 0.19460784
0.74515931 0.22199755 0.19944853
0.78823529 0.25343137 0.20490196
0.82156863 0.29852941 0.2127451
0.85453431 0.34791667 0.22058824
0.88872549 0.39754902 0.23088235
0.92352941 0.44705882 0.24509804
0.94215686 0.47941176 0.25539216
0.95588235 0.5057598 0.26752451
0.97009804 0.53627451 0.28235294
0.98039216 0.55931373 0.29509804
0.020526961 0.18768382 0.20784314
0.020526961 0.18676471 0.20784314
0.022426471 0.18676471 0.20784314
0.026478248 0.18676471 0.20784314
0.041666667 0.18676471 0.20784314
0.05948989 0.18676471 0.20784314
0.075980392 0.18469669 0.2067402
0.12563572 0.18465839 0.20784314
0.17990196 0.18676471 0.20784314
0.25140931 0.18676471 0.20749847
0.34313725 0.18690257 0.20392157
0.43633578 0.1881204 0.20030637
0.52990196 0.19139093 0.19730392
0.60949755 0.19785539 0.19589461
0.67679228 0.21115196 0.19575674
0.74215686 0.23529412 0.19852941
0.79215686 0.26709559 0.20153186
0.82886029 0.30861673 0.2091682
0.86029412 0.35428922 0.21810662
0.89257813 0.40037531 0.23076746
0.92429534 0.44828431 0.24387255
0.94178156 0.47983303 0.25539216
0.95565257 0.50724571 0.26752451
0.96856618 0.53684896 0.28422947
0.98039216 0.55931373 0.29509804
0.018627451 0.19215686 0.20784314
0.019607843 0.19215686 0.20784314
0.022947304 0.19215686 0.20784314
0.035294118 0.19215686 0.20837929
0.056372549 0.19215686 0.20814951
0.076945466 0.19215686 0.20784314
0.097671569 0.19105392 0.2067402
0.14227941 0.19215686 0.20692402
0.2004902 0.19313725 0.20784314
0.27398897 0.19705882 0.20784314
0.35952819 0.19705882 0.2057598
0.44767157 0.19371936 0.2004902
0.53284314 0.19264706 0.19748775
0.61078431 0.20047488 0.19594056
0.67585784 0.22708333 0.19497549
0.73823529 0.25611213 0.19791667
0.79705882 0.28284314 0.19644608
0.84008885 0.3205576 0.20059743
0.87034314 0.36568627 0.21292892
0.89692096 0.41078431 0.22598039
0.92248775 0.45343137 0.23627451
0.93811275 0.48345588 0.25137868
0.95196078 0.51139706 0.27009804
0.96617647 0.54042586 0.28590686
0.97647059 0.56323529 0.29509804
0.012254902 0.19589461 0.20784314
0.015992647 0.1960095 0.20784314
