site/assets/luts/natron-haldclut--kodak-e-100-gx-ektachrome-100--593c99698.cube
# LUTr-Project: LUTr — LUTrepository
# LUTr-Schema-Version: 1
# LUTr-ID: natron-haldclut--kodak-e-100-gx-ektachrome-100--593c99698
# LUTr-Title: kodak e-100 gx ektachrome 100
# LUTr-Collection: Natron HaldCLUT
# LUTr-Collection-ID: natron-haldclut-presets
# LUTr-Source: https://github.com/NatronGitHub/clut
# LUTr-Source-File: submissions/natron-haldclut-presets/colorslide/kodak_e-100_gx_ektachrome_100.png
# LUTr-Source-Format: PNG
# LUTr-Source-SHA256: 8401ec9ed8aeda3ddb5eb62a489b7a4711f8a836dd07d06fd158ef18131f09bd
# LUTr-License: CC-BY-SA-4.0
# LUTr-License-URL: https://github.com/NatronGitHub/clut#license
# LUTr-Tags: creative, film, film-emulation, hald-clut, natron, png, cube
# LUTr-Transform-Class: film-emulation
# LUTr-Input-Color-Space: srgb
# LUTr-Output-Color-Space: srgb
# LUTr-Color-Space-Confidence: assumed-display-referred
# LUTr-Conversion-Method: PNG LUT image decoded at 16-bit and sampled to 25x25x25 3D CUBE
# LUTr-Conversion-Date: 2026-07-27
# LUTr-Conversion-Tool: LUTr scripts/convert-all-to-cube.mjs
# LUTr-Conversion-Grid: 25x25x25
# LUTr-Note: Preserve this metadata and the upstream license notices when redistributing.
TITLE "kodak e-100 gx ektachrome 100"
LUT_3D_SIZE 25
DOMAIN_MIN 0 0 0
DOMAIN_MAX 1 1 1
0.054901961 0.0078431373 0.011764706
0.054901961 0.0078431373 0.011764706
0.054901961 0.0039215686 0.0068627451
0.065196078 0.0034313725 0.0034313725
0.1 0.0078431373 0.011764706
0.13088235 0.0034313725 0.0073529412
0.16470588 0.0029411765 0.0039215686
0.20196078 0.0078431373 0.0078431373
0.23921569 0.011764706 0.011764706
0.27647059 0.011764706 0.0093137255
0.3127451 0.0078431373 0.0068627451
0.34705882 0.0044117647 0.0039215686
0.39019608 0.0039215686 0.0039215686
0.4372549 0.0078431373 0.0078431373
0.47843137 0.0078431373 0.0078431373
0.51960784 0.0078431373 0.0078431373
0.55686275 0.0039215686 0.0039215686
0.59558824 0 0.0039215686
0.63137255 0.0039215686 0.0078431373
0.66519608 0.0039215686 0.011764706
0.7 0.0058823529 0.017647059
0.73480392 0.0078431373 0.019607843
0.76568627 0.0078431373 0.019607843
0.79656863 0.0078431373 0.019607843
0.81568627 0.0078431373 0.019607843
0.06127451 0.030882353 0.019607843
0.06372549 0.030882353 0.018137255
0.065808824 0.030882353 0.013602941
0.081862745 0.030882353 0.01372549
0.1127451 0.032843137 0.018872549
0.14117647 0.025183824 0.010294118
0.1745098 0.022671569 0.013848039
0.21170343 0.025428922 0.019056373
0.2495098 0.028431373 0.022058824
0.28431373 0.028431373 0.021139706
0.31973039 0.028063725 0.018137255
0.35606618 0.021078431 0.014522059
0.39852941 0.015441176 0.014215686
0.43970588 0.014215686 0.014215686
0.48235294 0.012377451 0.012377451
0.51960784 0.0078431373 0.0078431373
0.55686275 0.0039215686 0.0039215686
0.59558824 0 0.003002451
0.63039216 0.0039215686 0.0078431373
0.66519608 0.0039215686 0.011764706
0.7 0.0071078431 0.015686275
0.73480392 0.0078431373 0.019607843
0.7692402 0.0078431373 0.019607843
0.79810049 0.0078431373 0.019607843
0.81323529 0.0078431373 0.019607843
0.075490196 0.061764706 0.024509804
0.075490196 0.057843137 0.021691176
0.076470588 0.057843137 0.015686275
0.09754902 0.060416667 0.019607843
0.12892157 0.061764706 0.024019608
0.15931373 0.061764706 0.024632353
0.19117647 0.058088235 0.031372549
0.225 0.053921569 0.036642157
0.25980392 0.053921569 0.041176471
0.29522059 0.053921569 0.038357843
0.33039216 0.049754902 0.035539216
0.36764706 0.041666667 0.028921569
0.40490196 0.031372549 0.028921569
0.44901961 0.025490196 0.029289216
0.4872549 0.021568627 0.021568627
0.52414216 0.015196078 0.014215686
0.56078431 0.0049019608 0.0039215686
0.59620098 0 0.0018382353
0.63063725 0.0039215686 0.0071078431
0.66605392 0.0074754902 0.011642157
0.70294118 0.0083333333 0.015686275
0.73970588 0.011764706 0.019607843
0.77352941 0.011764706 0.019607843
0.79693627 0.0078431373 0.019607843
0.81176471 0.0078431373 0.023529412
0.089705882 0.096078431 0.034803922
0.089705882 0.092340686 0.032169118
0.090563725 0.088602941 0.026348039
0.11519608 0.08872549 0.02689951
0.14607843 0.094362745 0.034558824
0.17352941 0.096507353 0.03872549
0.20784314 0.092647059 0.04252451
0.23921569 0.087254902 0.051960784
0.27352941 0.081372549 0.057843137
0.30735294 0.080882353 0.057843137
0.3432598 0.073406863 0.049509804
0.3783701 0.065686275 0.039215686
0.41691176 0.055637255 0.035294118
0.45637255 0.049080882 0.034803922
0.49460784 0.041789216 0.027573529
0.53088235 0.032843137 0.018137255
0.56813725 0.022058824 0.0078431373
0.60294118 0.0086397059 0.0037377451
0.63786765 0.0078431373 0.0049019608
0.67297794 0.01127451 0.01127451
0.70955882 0.011764706 0.013970588
0.74607843 0.011764706 0.015686275
0.77438725 0.011764706 0.016176471
0.79509804 0.01127451 0.019607843
0.81176471 0.0078431373 0.023529412
0.10196078 0.13333333 0.054901961
0.10196078 0.13333333 0.054901961
0.11176471 0.13235294 0.050490196
0.13406863 0.12941176 0.047058824
0.16078431 0.13039216 0.046078431
0.1879902 0.13112745 0.045588235
0.22205882 0.12598039 0.05245098
0.25416667 0.12083333 0.064215686
0.28627451 0.11372549 0.07254902
0.31838235 0.10784314 0.073284314
0.35441176 0.099509804 0.058823529
0.39215686 0.092647059 0.03995098
0.42941176 0.082352941 0.031372549
0.46666667 0.075980392 0.028921569
0.50392157 0.067647059 0.022058824
0.54117647 0.059313725 0.018872549
0.57843137 0.049019608 0.01372549
0.61323529 0.036764706 0.0125
0.64803922 0.02254902 0.0098039216
0.68235294 0.017647059 0.0095588235
0.71666667 0.014705882 0.010784314
0.7504902 0.011764706 0.011764706
0.77843137 0.011764706 0.01372549
0.79509804 0.011764706 0.018382353
0.81176471 0.011764706 0.025490196
0.11372549 0.1745098 0.075490196
0.11666667 0.1745098 0.075183824
0.13235294 0.17316176 0.071446078
0.15594363 0.17015931 0.067218137
0.17745098 0.16642157 0.057843137
0.20196078 0.16574755 0.054963235
0.23590686 0.1627451 0.062254902
0.26813725 0.15882353 0.072365196
0.29901961 0.15490196 0.078431373
0.33363971 0.14491422 0.078431373
0.3682598 0.13431373 0.065196078
0.40637255 0.12359069 0.044607843
0.44362745 0.10931373 0.029166667
0.48039216 0.10294118 0.024019608
0.51556373 0.095588235 0.024019608
0.55392157 0.08627451 0.023835784
0.58872549 0.075980392 0.020098039
0.62598039 0.065379902 0.019607843
0.65833333 0.047426471 0.016053922
0.68921569 0.029411765 0.01182598
0.72352941 0.015931373 0.0075980392
0.75484069 0.011764706 0.0078431373
0.77843137 0.011764706 0.010784314
0.79509804 0.012254902 0.017156863
0.81176471 0.015686275 0.026960784
0.12058824 0.21568627 0.092156863
0.13051471 0.21568627 0.092156863
0.15 0.21176471 0.089705882
0.17058824 0.20833333 0.087377451
0.19117647 0.20784314 0.083333333
0.21911765 0.20772059 0.078063725
0.25 0.20392157 0.089215686
0.28186275 0.2 0.075612745
0.3127451 0.19607843 0.078431373
0.34938725 0.18823529 0.081372549
0.38553922 0.18161765 0.078431373
0.42095588 0.16813725 0.064338235
0.45735294 0.15686275 0.049509804
0.49375 0.1432598 0.039828431
0.52916667 0.13039216 0.037254902
0.56421569 0.11715686 0.032843137
0.60196078 0.10392157 0.026470588
0.63627451 0.090808824 0.023529412
0.66862745 0.073529412 0.02254902
0.6995098 0.053063725 0.019117647
0.73039216 0.026960784 0.0088235294
0.76090686 0.011764706 0.0039215686
0.78137255 0.013970588 0.010784314
0.79865196 0.015686275 0.017156863
0.81764706 0.015686275 0.023529412
0.13088235 0.26078431 0.10882353
0.14417892 0.25925245 0.10974265
0.16323529 0.25686275 0.11911765
0.18088235 0.25686275 0.12745098
0.20808824 0.25833333 0.12156863
0.23970588 0.25655637 0.10980392
0.26764706 0.2504902 0.099509804
0.29362745 0.24417892 0.085294118
0.32843137 0.23872549 0.090686275
0.36660539 0.23480392 0.091666667
0.40085784 0.22843137 0.091666667
0.43658088 0.21960784 0.087071078
0.47352941 0.21078431 0.080882353
0.51029412 0.19852941 0.070588235
0.54509804 0.18125 0.060294118
0.57990196 0.16127451 0.049448529
0.61470588 0.14068627 0.038235294
0.6471201 0.12401961 0.034313725
0.67892157 0.11017157 0.038235294
0.70980392 0.090992647 0.034803922
0.74068627 0.06495098 0.025980392
0.76715686 0.041176471 0.017463235
0.79166667 0.024387255 0.015808824
0.8122549 0.020526961 0.01807598
0.83039216 0.019607843 0.019607843
0.15294118 0.30980392 0.12941176
0.16568627 0.30588235 0.13970588
0.17843137 0.30588235 0.15
0.19509804 0.30588235 0.16421569
0.2254902 0.30980392 0.15490196
0.25637255 0.30539216 0.14068627
0.2872549 0.30196078 0.12647059
0.31568627 0.29656863 0.11617647
0.34901961 0.29019608 0.10980392
0.38382353 0.28382353 0.10490196
0.41862745 0.27745098 0.10196078
0.45343137 0.27107843 0.10588235
0.49019608 0.26470588 0.10784314
0.52696078 0.25392157 0.09754902
0.56176471 0.2372549 0.087254902
0.59803922 0.21666667 0.075490196
0.63137255 0.2 0.066666667
0.6622549 0.18333333 0.058823529
0.69313725 0.1627451 0.062745098
0.72401961 0.14607843 0.062745098
0.75098039 0.1254902 0.058823529
0.77745098 0.1 0.050490196
0.80196078 0.065686275 0.039215686
0.82401961 0.034803922 0.026960784
0.84313725 0.019607843 0.019607843
0.19019608 0.35735294 0.15784314
0.20441176 0.35735294 0.16813725
0.21470588 0.35735294 0.17414216
0.22628676 0.35735294 0.17873775
0.24730392 0.35735294 0.17818627
0.2745098 0.35735294 0.16893382
0.30392157 0.35343137 0.15735294
0.33872549 0.34803922 0.14705882
0.37352941 0.34166667 0.13676471
0.40441176 0.33382353 0.12647059
0.43921569 0.32892157 0.12144608
0.47401961 0.32254902 0.12628676
0.50882353 0.31813725 0.12647059
0.54381127 0.30931373 0.12205882
0.57953431 0.29227941 0.11176471
0.615625 0.27843137 0.10392157
0.6495098 0.26568627 0.095098039
0.67947304 0.24901961 0.087254902
0.70919118 0.22806373 0.087867647
0.73676471 0.20392157 0.091176471
0.76323529 0.18210784 0.091666667
0.78805147 0.15196078 0.081066176
0.8122549 0.11776961 0.064215686
0.83584559 0.076960784 0.043627451
0.85490196 0.041666667 0.025490196
0.20980392 0.40392157 0.16470588
0.22401961 0.40392157 0.175
0.23995098 0.40392157 0.18063725
0.25723039 0.40490196 0.18517157
0.275 0.40637255 0.18921569
0.29313725 0.40796569 0.19019608
0.32058824 0.40563725 0.18406863
0.35686275 0.3995098 0.17696078
0.39411765 0.39313725 0.16372549
0.425 0.38676471 0.15625
0.45906863 0.38210784 0.15588235
0.49411765 0.37794118 0.15245098
0.52696078 0.37009804 0.1495098
0.56029412 0.36127451 0.14264706
0.59485294 0.34803922 0.13627451
0.6310049 0.34166667 0.13088235
0.66470588 0.32843137 0.1245098
0.69558824 0.31470588 0.11360294
0.72622549 0.29411765 0.10784314
0.75257353 0.26973039 0.11164216
0.77794118 0.24313725 0.11323529
0.80208333 0.2122549 0.10698529
0.82647059 0.17916667 0.090931373
0.84669118 0.14889706 0.073039216
0.85882353 0.13039216 0.067647059
0.22990196 0.44901961 0.17156863
0.24460784 0.44901961 0.17843137
0.26372549 0.44901961 0.18860294
0.2838848 0.44901961 0.19552696
0.30073529 0.44901961 0.20294118
0.31758578 0.45294118 0.20686275
0.34497549 0.45294118 0.20686275
0.37990196 0.45098039 0.20275735
0.41470588 0.44460784 0.19460784
0.44558824 0.44068627 0.18823529
0.47659314 0.43676471 0.18676471
0.51170343 0.43241422 0.18333333
0.54607843 0.42303922 0.17696078
0.58088235 0.4127451 0.16758578
0.61470588 0.40625 0.16458333
0.64834559 0.4 0.16176471
0.68137255 0.38970588 0.15147059
0.71243873 0.37647059 0.13903186
0.74313725 0.35588235 0.12757353
0.77009804 0.33529412 0.12800245
0.79338235 0.30686275 0.125
0.81960784 0.27794118 0.12408088
0.84362745 0.25085784 0.11421569
0.86011029 0.22598039 0.10520833
0.86911765 0.2127451 0.10147059
0.26470588 0.48823529 0.19607843
0.27107843 0.48627451 0.19852941
0.2877451 0.48676471 0.20490196
0.30514706 0.49019608 0.21348039
0.3245098 0.49019608 0.21960784
0.34411765 0.49411765 0.22132353
0.37009804 0.49803922 0.21960784
0.40318627 0.49803922 0.22034314
0.43529412 0.49803922 0.22156863
0.46421569 0.49362745 0.21838235
0.49362745 0.49117647 0.21715686
0.52965686 0.48480392 0.2120098
0.56470588 0.4745098 0.20490196
0.59803922 0.46421569 0.19583333
0.63235294 0.45784314 0.19215686
0.66715686 0.45416667 0.19142157
0.69803922 0.44509804 0.18235294
0.72892157 0.43235294 0.16691176
0.75784314 0.41617647 0.14754902
0.78504902 0.39338235 0.14313725
0.80882353 0.36960784 0.14215686
0.83455882 0.34362745 0.14068627
0.86029412 0.31666667 0.13333333
0.88602941 0.29044118 0.12401961
0.90392157 0.26862745 0.11372549
0.2995098 0.53137255 0.22107843
0.30588235 0.52794118 0.22107843
0.31617647 0.52794118 0.2245098
0.33039216 0.53137255 0.22843137
0.3504902 0.53357843 0.23186275
0.37107843 0.53921569 0.23186275
0.39509804 0.54227941 0.23186275
0.425 0.54313725 0.23204657
0.45588235 0.54313725 0.23578431
0.48284314 0.54313725 0.24019608
0.51066176 0.53970588 0.2432598
0.54761029 0.53535539 0.23719363
0.58308824 0.5254902 0.23063725
0.61770833 0.51525735 0.22401961
0.64901961 0.50796569 0.21678922
0.68333333 0.50294118 0.21666667
0.71421569 0.49264706 0.20490196
0.74136029 0.48284314 0.18854167
0.77120098 0.47254902 0.17561275
0.79558824 0.45147059 0.16966912
0.82205882 0.42622549 0.16789216
0.84859069 0.40104167 0.16519608
0.87598039 0.37708333 0.15539216
0.90165441 0.353125 0.14509804
0.92598039 0.33676471 0.13872549
0.33431373 0.5754902 0.24901961
0.34068627 0.57254902 0.24803922
0.3502451 0.57254902 0.24803922
0.36127451 0.57254902 0.24522059
0.37745098 0.57647059 0.24607843
0.39803922 0.58088235 0.24607843
0.41936275 0.58651961 0.24607843
0.44803922 0.58823529 0.24607843
0.47647059 0.58823529 0.25
0.50343137 0.58431373 0.25747549
0.53039216 0.58431373 0.26102941
0.56519608 0.57953431 0.26078431
0.59852941 0.57058824 0.25490196
0.63223039 0.56323529 0.24767157
0.66642157 0.55588235 0.24117647
0.69718137 0.55085784 0.23578431
0.7245098 0.54509804 0.2254902
0.75539216 0.53958333 0.21127451
0.78455882 0.53112745 0.19926471
0.80968137 0.51017157 0.19411765
0.83431373 0.48284314 0.19019608
0.85931373 0.45980392 0.18627451
0.8870098 0.44142157 0.18235294
0.91507353 0.42487745 0.17598039
0.93627451 0.4127451 0.16960784
0.36911765 0.62303922 0.275
0.37395833 0.62156863 0.275
0.38333333 0.61911765 0.27291667
0.39607843 0.61911765 0.26746324
0.41029412 0.62156863 0.2625
0.425 0.62567402 0.25784314
0.44448529 0.63235294 0.2567402
0.46917892 0.63333333 0.25931373
0.49705882 0.62941176 0.26568627
0.5254902 0.6254902 0.27506127
0.55490196 0.6254902 0.28137255
0.58578431 0.62175245 0.28137255
0.61666667 0.61568627 0.2754902
0.65147059 0.60931373 0.26911765
0.68125 0.60196078 0.2627451
0.71084559 0.59503676 0.25245098
0.73872549 0.59019608 0.24215686
0.76960784 0.59019608 0.23039216
0.79987745 0.58713235 0.21764706
0.82401961 0.56844363 0.21470588
0.84926471 0.54754902 0.21470588
0.87481618 0.52745098 0.21207108
0.90441176 0.51323529 0.20784314
0.93137255 0.49754902 0.20147059
0.95196078 0.48872549 0.19656863
0.4 0.67058824 0.30196078
0.40637255 0.67058824 0.30196078
0.41666667 0.66666667 0.29803922
0.43088235 0.66666667 0.29411765
0.44313725 0.66666667 0.29019608
0.45588235 0.67058824 0.28627451
0.47254902 0.6745098 0.28235294
0.49313725 0.67303922 0.28235294
0.51764706 0.67058824 0.28627451
0.54852941 0.66666667 0.29264706
0.5754902 0.66666667 0.29901961
0.60637255 0.66666667 0.30196078
0.6372549 0.65882353 0.29607843
0.66813725 0.65098039 0.28970588
0.69901961 0.64411765 0.27941176
0.72598039 0.6377451 0.26911765
0.75294118 0.63137255 0.25882353
0.78382353 0.63137255 0.25098039
0.81078431 0.63137255 0.24705882
0.83823529 0.62401961 0.24705882
0.8627451 0.60980392 0.24313725
0.8877451 0.59558824 0.23921569
0.91862745 0.58137255 0.23235294
0.9495098 0.56715686 0.22205882
0.96862745 0.55686275 0.21960784
0.43480392 0.71960784 0.32892157
0.44117647 0.71568627 0.32892157
0.45147059 0.71176471 0.32794118
0.46176471 0.71047794 0.325
0.47205882 0.70784314 0.32230392
0.48645833 0.71176471 0.31930147
0.50343137 0.71176471 0.31605392
0.52064951 0.70876225 0.31323529
0.54460784 0.70784314 0.31078431
0.56911765 0.70784314 0.31470588
0.59607843 0.71176471 0.31960784
0.62696078 0.71047794 0.32254902
0.65784314 0.70318627 0.31666667
0.68627451 0.69558824 0.31029412
0.71568627 0.68529412 0.3
0.74264706 0.67892157 0.290625
0.76960784 0.675 0.28333333
0.79803922 0.67254902 0.27941176
0.82463235 0.67254902 0.27855392
0.85067402 0.67126225 0.28186275
0.875 0.66127451 0.27720588
0.90196078 0.65098039 0.27352941
0.93284314 0.64068627 0.26568627
0.96280637 0.62647059 0.25447304
0.97892157 0.62009804 0.24656863
0.46960784 0.75588235 0.35882353
0.47598039 0.75588235 0.35943627
0.48308824 0.75514706 0.35980392
0.49264706 0.75294118 0.35980392
0.50294118 0.75294118 0.35686275
0.51715686 0.75294118 0.35551471
0.53431373 0.75 0.3497549
0.55098039 0.74901961 0.34473039
0.57156863 0.74901961 0.34411765
0.59607843 0.75147059 0.34411765
0.61740196 0.75318627 0.34338235
0.64362745 0.75428922 0.34705882
0.6745098 0.74705882 0.3377451
0.70404412 0.73676471 0.3310049
0.73161765 0.72965686 0.3245098
0.75894608 0.72218137 0.31948529
0.78627451 0.71764706 0.31666667
0.81262255 0.71470588 0.3127451
0.83848039 0.71470588 0.3125
0.86360294 0.71764706 0.31262255
0.88970588 0.71176471 0.30686275
0.91580882 0.70245098 0.30098039
0.94240196 0.69215686 0.29877451
0.96801471 0.68394608 0.28872549
0.98431373 0.67941176 0.28137255
0.50784314 0.78676471 0.38676471
0.51207108 0.79050245 0.38676471
0.51973039 0.79068627 0.38811275
0.52702206 0.79411765 0.39068627
0.53382353 0.79779412 0.39068627
0.54803922 0.7971201 0.38976716
0.56519608 0.79117647 0.38370098
0.58400735 0.79019608 0.37892157
0.60245098 0.79019608 0.37843137
0.62334559 0.79050245 0.375
0.64411765 0.7942402 0.37107843
0.66470588 0.79460784 0.36807598
0.69117647 0.78823529 0.36519608
0.71856618 0.78143382 0.35931373
0.74644608 0.77156863 0.35539216
0.77469363 0.76648284 0.35147059
0.80294118 0.7627451 0.34754902
0.82775735 0.75882353 0.34362745
0.85330882 0.75882353 0.33884804
0.87996324 0.76268382 0.33627451
0.90514706 0.7622549 0.33210784
0.92947304 0.75392157 0.33186275
0.95343137 0.74362745 0.32892157
0.97892157 0.7372549 0.31862745
0.99166667 0.73431373 0.3122549
0.54509804 0.82156863 0.41372549
0.54828431 0.82279412 0.41691176
0.55539216 0.8254902 0.41764706
0.5625 0.82916667 0.41764706
0.57058824 0.83333333 0.41960784
0.58112745 0.83504902 0.41936275
0.59656863 0.83186275 0.41421569
0.61593137 0.82745098 0.40980392
0.63333333 0.82745098 0.40588235
0.65392157 0.82745098 0.40269608
0.67401961 0.82941176 0.39754902
0.69117647 0.82941176 0.39436275
0.7127451 0.8254902 0.39215686
0.73872549 0.81911765 0.38970588
0.76568627 0.8127451 0.38627451
0.79264706 0.80784314 0.38161765
0.81960784 0.80392157 0.37843137
0.84411765 0.80392157 0.37205882
0.86911765 0.80392157 0.36666667
0.89485294 0.80735294 0.3627451
0.91862745 0.81078431 0.35588235
0.94019608 0.80343137 0.3627451
0.96372549 0.79509804 0.35980392
0.99068627 0.78872549 0.34093137
0.99803922 0.78627451 0.33921569
0.58235294 0.85637255 0.44460784
0.58627451 0.85667892 0.44460784
0.59375 0.86041667 0.44816176
0.60147059 0.86421569 0.44810049
0.60784314 0.86813725 0.44803922
0.61856618 0.86862745 0.44454657
0.63235294 0.86813725 0.44068627
0.65018382 0.86421569 0.43658088
0.66813725 0.86078431 0.43284314
0.68449755 0.86047794 0.4286152
0.70012255 0.86029412 0.4245098
0.71464461 0.86029412 0.42107843
0.73480392 0.86078431 0.41887255
0.75931373 0.85686275 0.41709559
0.78639706 0.85294118 0.41323529
0.81323529 0.84901961 0.40931373
0.83627451 0.84558824 0.40931373
0.86029412 0.84509804 0.40324755
0.88223039 0.84522059 0.39791667
0.90582108 0.84901961 0.39362745
0.92990196 0.84901961 0.38970588
0.94656863 0.84509804 0.39362745
0.97095588 0.83823529 0.3877451
0.99362745 0.83363971 0.37665441
1 0.83333333 0.3745098
0.62352941 0.89117647 0.4754902
0.62598039 0.89117647 0.4754902
0.63161765 0.89509804 0.4754902
0.63884804 0.89767157 0.47291667
0.64754902 0.9004902 0.47254902
0.65637255 0.90294118 0.47120098
0.67034314 0.90220588 0.46789216
0.68480392 0.89901961 0.46262255
0.69901961 0.89803922 0.45686275
0.71213235 0.89509804 0.45404412
0.7252451 0.89411765 0.44901961
0.74129902 0.89509804 0.44803922
0.76029412 0.89803922 0.44656863
0.78247549 0.89767157 0.44411765
0.80784314 0.89411765 0.44191176
0.83235294 0.89019608 0.44019608
0.85294118 0.8872549 0.43627451
0.87414216 0.88872549 0.43627451
0.89583333 0.89019608 0.43137255
0.91960784 0.89019608 0.425
0.94019608 0.88823529 0.42058824
0.95686275 0.88627451 0.4245098
0.97745098 0.88308824 0.42156863
0.99362745 0.87843137 0.41237745
0.99607843 0.87745098 0.41176471
0.66078431 0.92598039 0.50490196
0.66323529 0.92598039 0.50490196
0.66715686 0.92598039 0.50245098
0.6745098 0.92990196 0.49883578
0.68480392 0.93382353 0.49705882
0.69264706 0.9377451 0.49675245
0.70539216 0.9377451 0.49313725
0.71660539 0.93382353 0.48829657
0.72843137 0.92990196 0.48284314
0.73872549 0.92745098 0.47892157
0.75110294 0.92634804 0.47683824
0.76813725 0.92990196 0.47371324
0.78602941 0.93259804 0.47352941
0.80569853 0.93529412 0.47107843
0.83137255 0.93529412 0.47107843
0.85238971 0.93290441 0.46868873
0.86813725 0.92205882 0.46323529
0.88780637 0.92542892 0.46176471
0.91139706 0.9317402 0.46286765
0.93529412 0.93284314 0.45588235
0.95245098 0.93137255 0.45539216
0.96666667 0.92745098 0.45410539
0.98382353 0.92745098 0.45539216
0.99607843 0.92444853 0.45055147
0.99607843 0.92352941 0.44754902
0.68627451 0.94901961 0.5254902
0.69019608 0.94901961 0.5254902
0.69117647 0.95 0.5245098
0.70147059 0.95294118 0.51813725
0.71176471 0.95882353 0.51764706
0.72205882 0.96470588 0.51715686
0.73235294 0.96568627 0.51372549
0.74117647 0.96078431 0.50833333
0.74901961 0.95686275 0.50196078
0.75931373 0.95294118 0.49803922
0.77352941 0.95294118 0.49705882
0.7877451 0.95686275 0.49411765
0.80784314 0.96078431 0.49411765
0.82843137 0.96911765 0.49460784
0.85 0.97352941 0.49509804
0.86421569 0.96323529 0.49019608
0.8745098 0.94509804 0.48235294
0.89754902 0.95 0.48235294
0.9245098 0.96568627 0.48333333
0.95147059 0.97598039 0.48627451
0.9627451 0.96666667 0.48039216
0.97352941 0.96078431 0.47843137
0.99117647 0.96372549 0.47843137
1 0.96323529 0.47843137
1 0.96078431 0.4745098
0.044607843 0.0078431373 0.028431373
0.044607843 0.0078431373 0.025980392
0.051960784 0.010294118 0.026960784
0.069117647 0.011580882 0.030392157
0.1 0.018137255 0.035539216
0.13088235 0.0098039216 0.027941176
0.16470588 0.006372549 0.023039216
0.20196078 0.010845588 0.020588235
0.23921569 0.011764706 0.016666667
0.27493873 0.010232843 0.011764706
0.30882353 0.0072303922 0.0068627451
0.34332108 0.0039215686 0.00049019608
0.38823529 0.0039215686 0.0039215686
0.43351716 0.0078431373 0.0081495098
0.47843137 0.0078431373 0.011397059
0.51868873 0.0078431373 0.011213235
0.55686275 0.0039215686 0.0078431373
0.59466912 0 0.006372549
0.63137255 0.0039215686 0.010661765
0.66519608 0.0039215686 0.015196078
0.7 0.0039215686 0.017647059
0.73480392 0.0078431373 0.019607843
0.76960784 0.0078431373 0.019607843
0.79656863 0.0078431373 0.019607843
0.81568627 0.0053921569 0.019607843
0.053982843 0.030882353 0.034803922
0.055859375 0.030882353 0.034803922
0.062254902 0.033333333 0.034574142
0.080637255 0.034620098 0.03549326
0.11075368 0.036305147 0.040226716
0.1395144 0.027581189 0.031686581
0.17251838 0.023039216 0.029641544
0.21020987 0.026960784 0.027879902
0.24859069 0.028431373 0.027879902
0.28431373 0.028431373 0.024280025
0.31911765 0.026348039 0.01997549
0.35373775 0.021078431 0.015862439
0.39488358 0.014215686 0.016207108
0.43970588 0.014215686 0.017585784
0.48143382 0.013526348 0.017447917
0.51960784 0.0078431373 0.011213235
0.55686275 0.0039215686 0.006372549
0.59558824 0 0.0057981005
0.63114277 0.00098039216 0.0084558824
0.66519608 0.0039215686 0.013909314
0.7 0.0054227941 0.017647059
0.7349954 0.0078431373 0.019607843
0.76960784 0.0078431373 0.019607843
0.79901961 0.0078431373 0.019607843
0.81568627 0.0078431373 0.019607843
0.069730392 0.062377451 0.043627451
0.069730392 0.061764706 0.042095588
0.075091912 0.061397059 0.039705882
0.095940564 0.06171875 0.040670956
0.12487745 0.061764706 0.043014706
0.1557598 0.061397059 0.043995098
0.18808211 0.057843137 0.041452206
0.22316176 0.053921569 0.042647059
0.25980392 0.053921569 0.043014706
