site/assets/luts/natron-haldclut--kodak-tmax-3200--c6d62dc23.cube
# LUTr-Project: LUTr — LUTrepository
# LUTr-Schema-Version: 1
# LUTr-ID: natron-haldclut--kodak-tmax-3200--c6d62dc23
# LUTr-Title: kodak tmax 3200 ++
# LUTr-Collection: Natron HaldCLUT
# LUTr-Collection-ID: natron-haldclut-presets
# LUTr-Source: https://github.com/NatronGitHub/clut
# LUTr-Source-File: submissions/natron-haldclut-presets/negative_new/kodak_tmax_3200_++.png
# LUTr-Source-Format: PNG
# LUTr-Source-SHA256: ef0fd1aa35fbf81fffe7f9a64e19371c91102ae80d2f4e4ee7f41df27090dc1e
# LUTr-License: CC-BY-SA-4.0
# LUTr-License-URL: https://github.com/NatronGitHub/clut#license
# LUTr-Tags: creative, film, film-emulation, hald-clut, natron, png, cube
# LUTr-Transform-Class: film-emulation
# LUTr-Input-Color-Space: srgb
# LUTr-Output-Color-Space: srgb
# LUTr-Color-Space-Confidence: assumed-display-referred
# LUTr-Conversion-Method: PNG LUT image decoded at 16-bit and sampled to 25x25x25 3D CUBE
# LUTr-Conversion-Date: 2026-07-27
# LUTr-Conversion-Tool: LUTr scripts/convert-all-to-cube.mjs
# LUTr-Conversion-Grid: 25x25x25
# LUTr-Note: Preserve this metadata and the upstream license notices when redistributing.
TITLE "kodak tmax 3200 ++"
LUT_3D_SIZE 9
DOMAIN_MIN 0 0 0
DOMAIN_MAX 1 1 1
0.29411765 0.29411765 0.29411765
0.29803922 0.29803922 0.29803922
0.29803922 0.29803922 0.29803922
0.30588235 0.30588235 0.30588235
0.31764706 0.31764706 0.31764706
0.32941176 0.32941176 0.32941176
0.34117647 0.34117647 0.34117647
0.35294118 0.35294118 0.35294118
0.35686275 0.35686275 0.35686275
0.29754902 0.29754902 0.29754902
0.30539216 0.30539216 0.30539216
0.30931373 0.30931373 0.30931373
0.3158701 0.3158701 0.3158701
0.3252451 0.3252451 0.3252451
0.33805147 0.33805147 0.33805147
0.35637255 0.35637255 0.35637255
0.37990196 0.37990196 0.37990196
0.39509804 0.39509804 0.39509804
0.32843137 0.32843137 0.32843137
0.33198529 0.33198529 0.33198529
0.33235294 0.33235294 0.33235294
0.33909314 0.33909314 0.33909314
0.35686275 0.35686275 0.35686275
0.38382353 0.38382353 0.38382353
0.39828431 0.39828431 0.39828431
0.41911765 0.41911765 0.41911765
0.45588235 0.45588235 0.45588235
0.36176471 0.36176471 0.36176471
0.35588235 0.35588235 0.35588235
0.36176471 0.36176471 0.36176471
0.37653186 0.37653186 0.37653186
0.40686275 0.40686275 0.40686275
0.4377451 0.4377451 0.4377451
0.47352941 0.47352941 0.47352941
0.52058824 0.52058824 0.52058824
0.55735294 0.55735294 0.55735294
0.41568627 0.41568627 0.41568627
0.41911765 0.41911765 0.41911765
0.42745098 0.42745098 0.42745098
0.44313725 0.44313725 0.44313725
0.46470588 0.46470588 0.46470588
0.50759804 0.50759804 0.50759804
0.57303922 0.57303922 0.57303922
0.64240196 0.64240196 0.64240196
0.71568627 0.71568627 0.71568627
0.50539216 0.50539216 0.50539216
0.50784314 0.50784314 0.50784314
0.50784314 0.50784314 0.50784314
0.5245098 0.5245098 0.5245098
0.56862745 0.56862745 0.56862745
0.60042892 0.60042892 0.60042892
0.6622549 0.6622549 0.6622549
0.72696078 0.72696078 0.72696078
0.7872549 0.7872549 0.7872549
0.64803922 0.64803922 0.64803922
0.6557598 0.6557598 0.6557598
0.65588235 0.65588235 0.65588235
0.66164216 0.66164216 0.66164216
0.68627451 0.68627451 0.68627451
0.71127451 0.71127451 0.71127451
0.75392157 0.75392157 0.75392157
0.80784314 0.80784314 0.80784314
0.86176471 0.86176471 0.86176471
0.78676471 0.78676471 0.78676471
0.79019608 0.79019608 0.79019608
0.79411765 0.79411765 0.79411765
0.79803922 0.79803922 0.79803922
0.80588235 0.80588235 0.80588235
0.81893382 0.81893382 0.81893382
0.84068627 0.84068627 0.84068627
0.87647059 0.87647059 0.87647059
0.90637255 0.90637255 0.90637255
0.91372549 0.91372549 0.91372549
0.89068627 0.89068627 0.89068627
0.87941176 0.87941176 0.87941176
0.89264706 0.89264706 0.89264706
0.90980392 0.90980392 0.90980392
0.90980392 0.90980392 0.90980392
0.91764706 0.91764706 0.91764706
0.94166667 0.94166667 0.94166667
0.94901961 0.94901961 0.94901961
0.29803922 0.29803922 0.29803922
0.30196078 0.30196078 0.30196078
0.30196078 0.30196078 0.30196078
0.30980392 0.30980392 0.30980392
0.31960784 0.31960784 0.31960784
0.33088235 0.33088235 0.33088235
0.34509804 0.34509804 0.34509804
0.35735294 0.35735294 0.35735294
0.36470588 0.36470588 0.36470588
0.30539216 0.30539216 0.30539216
0.30968903 0.30968903 0.30968903
0.31355699 0.31355699 0.31355699
0.32107843 0.32107843 0.32107843
0.32892157 0.32892157 0.32892157
0.33676471 0.33676471 0.33676471
0.35735294 0.35735294 0.35735294
0.38039216 0.38039216 0.38039216
0.39558824 0.39558824 0.39558824
0.32843137 0.32843137 0.32843137
0.33310355 0.33310355 0.33310355
0.33915441 0.33915441 0.33915441
0.34626225 0.34626225 0.34626225
0.35931373 0.35931373 0.35931373
0.38056066 0.38056066 0.38056066
0.39610907 0.39610907 0.39610907
0.42242647 0.42242647 0.42242647
0.45232843 0.45232843 0.45232843
0.35931373 0.35931373 0.35931373
0.35931373 0.35931373 0.35931373
0.37049632 0.37049632 0.37049632
0.38511029 0.38511029 0.38511029
0.40768995 0.40768995 0.40768995
0.4377451 0.4377451 0.4377451
0.47892157 0.47892157 0.47892157
0.52955729 0.52955729 0.52955729
0.57794118 0.57794118 0.57794118
0.42132353 0.42132353 0.42132353
0.42867647 0.42867647 0.42867647
0.43308824 0.43308824 0.43308824
0.44044118 0.44044118 0.44044118
0.47230392 0.47230392 0.47230392
0.5120098 0.5120098 0.5120098
0.575 0.575 0.575
0.64387255 0.64387255 0.64387255
0.70980392 0.70980392 0.70980392
0.51176471 0.51176471 0.51176471
0.51568627 0.51568627 0.51568627
0.52696078 0.52696078 0.52696078
0.54117647 0.54117647 0.54117647
0.57362132 0.57362132 0.57362132
0.5995098 0.5995098 0.5995098
0.6615962 0.6615962 0.6615962
0.73318781 0.73318781 0.73318781
0.79871324 0.79871324 0.79871324
0.65453431 0.65453431 0.65453431
0.65588235 0.65588235 0.65588235
0.66173407 0.66173407 0.66173407
0.67009804 0.67009804 0.67009804
0.69166667 0.69166667 0.69166667
0.71519608 0.71519608 0.71519608
0.75848652 0.75848652 0.75848652
0.81401654 0.81401654 0.81401654
0.86078431 0.86078431 0.86078431
0.79454657 0.79454657 0.79454657
0.79754902 0.79754902 0.79754902
0.79684436 0.79684436 0.79684436
0.79803922 0.79803922 0.79803922
0.80784314 0.80784314 0.80784314
0.82630974 0.82630974 0.82630974
0.85729167 0.85729167 0.85729167
0.87984835 0.87984835 0.87984835
0.91072304 0.91072304 0.91072304
0.89411765 0.89411765 0.89411765
0.89761029 0.89761029 0.89761029
0.88615196 0.88615196 0.88615196
0.89785539 0.89785539 0.89785539
0.91789216 0.91789216 0.91789216
0.91734069 0.91734069 0.91734069
0.92892157 0.92892157 0.92892157
0.9372549 0.9372549 0.9372549
0.95637255 0.95637255 0.95637255
0.29803922 0.29803922 0.29803922
0.30196078 0.30196078 0.30196078
0.30882353 0.30882353 0.30882353
0.31372549 0.31372549 0.31372549
0.32352941 0.32352941 0.32352941
0.33333333 0.33333333 0.33333333
0.34509804 0.34509804 0.34509804
0.36078431 0.36078431 0.36078431
0.36862745 0.36862745 0.36862745
0.30931373 0.30931373 0.30931373
0.31597733 0.31597733 0.31597733
0.32022059 0.32022059 0.32022059
0.32467831 0.32467831 0.32467831
0.33284314 0.33284314 0.33284314
0.34246324 0.34246324 0.34246324
0.36164216 0.36164216 0.36164216
0.3842065 0.3842065 0.3842065
0.39558824 0.39558824 0.39558824
0.32843137 0.32843137 0.32843137
0.33627451 0.33627451 0.33627451
0.34411765 0.34411765 0.34411765
0.35076593 0.35076593 0.35076593
0.36323529 0.36323529 0.36323529
0.37598039 0.37598039 0.37598039
0.39859069 0.39859069 0.39859069
0.42202819 0.42202819 0.42202819
0.43406863 0.43406863 0.43406863
0.36568627 0.36568627 0.36568627
0.36948529 0.36948529 0.36948529
0.38121936 0.38121936 0.38121936
0.39561887 0.39561887 0.39561887
0.4122549 0.4122549 0.4122549
0.4435049 0.4435049 0.4435049
0.47674632 0.47674632 0.47674632
0.5254902 0.5254902 0.5254902
0.56727941 0.56727941 0.56727941
0.44215686 0.44215686 0.44215686
0.44828431 0.44828431 0.44828431
0.44901961 0.44901961 0.44901961
0.46029412 0.46029412 0.46029412
0.49313725 0.49313725 0.49313725
0.53259804 0.53259804 0.53259804
0.59117647 0.59117647 0.59117647
0.65238971 0.65238971 0.65238971
0.69901961 0.69901961 0.69901961
0.5372549 0.5372549 0.5372549
0.54211091 0.54211091 0.54211091
0.55 0.55 0.55
0.55484069 0.55484069 0.55484069
0.58670343 0.58670343 0.58670343
0.61551777 0.61551777 0.61551777
0.66973039 0.66973039 0.66973039
0.74624694 0.74624694 0.74624694
0.81078431 0.81078431 0.81078431
0.66960784 0.66960784 0.66960784
0.67316176 0.67316176 0.67316176
0.67745098 0.67745098 0.67745098
0.68198529 0.68198529 0.68198529
0.70294118 0.70294118 0.70294118
0.72962623 0.72962623 0.72962623
0.76041667 0.76041667 0.76041667
0.81565564 0.81565564 0.81565564
0.86470588 0.86470588 0.86470588
0.80502451 0.80502451 0.80502451
0.80502451 0.80502451 0.80502451
0.80588235 0.80588235 0.80588235
0.80196078 0.80196078 0.80196078
0.82083333 0.82083333 0.82083333
0.83984375 0.83984375 0.83984375
0.86507353 0.86507353 0.86507353
0.88382353 0.88382353 0.88382353
0.91078431 0.91078431 0.91078431
0.90980392 0.90980392 0.90980392
0.9127451 0.9127451 0.9127451
0.90784314 0.90784314 0.90784314
0.91911765 0.91911765 0.91911765
0.90686275 0.90686275 0.90686275
0.91973039 0.91973039 0.91973039
0.93014706 0.93014706 0.93014706
0.93333333 0.93333333 0.93333333
0.95294118 0.95294118 0.95294118
0.29411765 0.29411765 0.29411765
0.30539216 0.30539216 0.30539216
0.31335784 0.31335784 0.31335784
0.31917892 0.31917892 0.31917892
0.32941176 0.32941176 0.32941176
0.33817402 0.33817402 0.33817402
0.34571078 0.34571078 0.34571078
0.36109069 0.36109069 0.36109069
0.36862745 0.36862745 0.36862745
0.31323529 0.31323529 0.31323529
0.31742494 0.31742494 0.31742494
0.32467831 0.32467831 0.32467831
0.33284314 0.33284314 0.33284314
0.33547794 0.33547794 0.33547794
0.34257813 0.34257813 0.34257813
0.36519608 0.36519608 0.36519608
0.38560049 0.38560049 0.38560049
0.39558824 0.39558824 0.39558824
0.33235294 0.33235294 0.33235294
0.3388174 0.3388174 0.3388174
0.34803922 0.34803922 0.34803922
0.35588235 0.35588235 0.35588235
0.37034314 0.37034314 0.37034314
0.38258272 0.38258272 0.38258272
0.40266544 0.40266544 0.40266544
0.4207261 0.4207261 0.4207261
0.42830882 0.42830882 0.42830882
0.37205882 0.37205882 0.37205882
0.3805913 0.3805913 0.3805913
0.39146752 0.39146752 0.39146752
0.41498928 0.41498928 0.41498928
0.43826593 0.43826593 0.43826593
0.4540671 0.4540671 0.4540671
0.47984069 0.47984069 0.47984069
0.50980392 0.50980392 0.50980392
0.55582108 0.55582108 0.55582108
0.46470588 0.46470588 0.46470588
0.46078431 0.46078431 0.46078431
0.45833333 0.45833333 0.45833333
0.49166667 0.49166667 0.49166667
0.52083333 0.52083333 0.52083333
0.56329657 0.56329657 0.56329657
0.60490196 0.60490196 0.60490196
0.64280025 0.64280025 0.64280025
0.69093137 0.69093137 0.69093137
0.57058824 0.57058824 0.57058824
0.57303922 0.57303922 0.57303922
0.58088235 0.58088235 0.58088235
0.58872549 0.58872549 0.58872549
0.61666667 0.61666667 0.61666667
0.64754902 0.64754902 0.64754902
0.69039522 0.69039522 0.69039522
0.75294118 0.75294118 0.75294118
0.80441176 0.80441176 0.80441176
0.7004902 0.7004902 0.7004902
0.7004902 0.7004902 0.7004902
0.70833333 0.70833333 0.70833333
0.7122549 0.7122549 0.7122549
0.72536765 0.72536765 0.72536765
0.74947917 0.74947917 0.74947917
0.77536765 0.77536765 0.77536765
0.82254902 0.82254902 0.82254902
0.86470588 0.86470588 0.86470588
0.82156863 0.82156863 0.82156863
0.82111673 0.82111673 0.82111673
0.82467831 0.82467831 0.82467831
0.825 0.825 0.825
0.83088235 0.83088235 0.83088235
0.84933364 0.84933364 0.84933364
0.86461397 0.86461397 0.86461397
0.88807445 0.88807445 0.88807445
0.91844363 0.91844363 0.91844363
0.90833333 0.90833333 0.90833333
0.90980392 0.90980392 0.90980392
0.91372549 0.91372549 0.91372549
0.90980392 0.90980392 0.90980392
0.9129902 0.9129902 0.9129902
0.92248775 0.92248775 0.92248775
0.93872549 0.93872549 0.93872549
0.94509804 0.94509804 0.94509804
0.95686275 0.95686275 0.95686275
0.30588235 0.30588235 0.30588235
0.30980392 0.30980392 0.30980392
0.31372549 0.31372549 0.31372549
0.3247549 0.3247549 0.3247549
0.34117647 0.34117647 0.34117647
0.35490196 0.35490196 0.35490196
0.36470588 0.36470588 0.36470588
0.37254902 0.37254902 0.37254902
0.3745098 0.3745098 0.3745098
0.31372549 0.31372549 0.31372549
0.31911765 0.31911765 0.31911765
0.32910539 0.32910539 0.32910539
0.33691789 0.33691789 0.33691789
0.34681373 0.34681373 0.34681373
0.36617647 0.36617647 0.36617647
0.37401961 0.37401961 0.37401961
0.3879902 0.3879902 0.3879902
0.39362745 0.39362745 0.39362745
0.34215686 0.34215686 0.34215686
0.34411765 0.34411765 0.34411765
0.35502451 0.35502451 0.35502451
0.37334559 0.37334559 0.37334559
0.38578431 0.38578431 0.38578431
0.39607843 0.39607843 0.39607843
0.41470588 0.41470588 0.41470588
0.43425245 0.43425245 0.43425245
0.44509804 0.44509804 0.44509804
0.37107843 0.37107843 0.37107843
0.38308824 0.38308824 0.38308824
0.4 0.4 0.4
0.425 0.425 0.425
0.45539216 0.45539216 0.45539216
0.46868873 0.46868873 0.46868873
0.48400735 0.48400735 0.48400735
0.50931373 0.50931373 0.50931373
0.52377451 0.52377451 0.52377451
0.44705882 0.44705882 0.44705882
0.45477941 0.45477941 0.45477941
0.46568627 0.46568627 0.46568627
0.50637255 0.50637255 0.50637255
0.54656863 0.54656863 0.54656863
0.56838235 0.56838235 0.56838235
0.6004902 0.6004902 0.6004902
0.62867647 0.62867647 0.62867647
0.64803922 0.64803922 0.64803922
0.57401961 0.57401961 0.57401961
0.5841299 0.5841299 0.5841299
0.59852941 0.59852941 0.59852941
0.61660539 0.61660539 0.61660539
0.64362745 0.64362745 0.64362745
0.6745098 0.6745098 0.6745098
0.71905637 0.71905637 0.71905637
0.75686275 0.75686275 0.75686275
0.79289216 0.79289216 0.79289216
0.71372549 0.71372549 0.71372549
0.71764706 0.71764706 0.71764706
0.73161765 0.73161765 0.73161765
0.74215686 0.74215686 0.74215686
0.74166667 0.74166667 0.74166667
0.77107843 0.77107843 0.77107843
0.79742647 0.79742647 0.79742647
0.83229167 0.83229167 0.83229167
0.87598039 0.87598039 0.87598039
0.82892157 0.82892157 0.82892157
0.82892157 0.82892157 0.82892157
0.83284314 0.83284314 0.83284314
0.83480392 0.83480392 0.83480392
0.84166667 0.84166667 0.84166667
0.8609375 0.8609375 0.8609375
0.87248775 0.87248775 0.87248775
0.89139093 0.89139093 0.89139093
0.91813725 0.91813725 0.91813725
0.91764706 0.91764706 0.91764706
0.92107843 0.92107843 0.92107843
0.90637255 0.90637255 0.90637255
0.9129902 0.9129902 0.9129902
0.92745098 0.92745098 0.92745098
0.92083333 0.92083333 0.92083333
0.92843137 0.92843137 0.92843137
0.94509804 0.94509804 0.94509804
0.95686275 0.95686275 0.95686275
0.31372549 0.31372549 0.31372549
0.31893382 0.31893382 0.31893382
0.32303922 0.32303922 0.32303922
0.34025735 0.34025735 0.34025735
0.36029412 0.36029412 0.36029412
0.37401961 0.37401961 0.37401961
0.3807598 0.3807598 0.3807598
0.39773284 0.39773284 0.39773284
0.40294118 0.40294118 0.40294118
0.325 0.325 0.325
0.32677696 0.32677696 0.32677696
0.33429841 0.33429841 0.33429841
0.34784007 0.34784007 0.34784007
0.36780025 0.36780025 0.36780025
0.39852941 0.39852941 0.39852941
0.41029412 0.41029412 0.41029412
0.41312806 0.41312806 0.41312806
0.41452206 0.41452206 0.41452206
0.35196078 0.35196078 0.35196078
0.35343137 0.35343137 0.35343137
0.36666667 0.36666667 0.36666667
0.38540135 0.38540135 0.38540135
0.40569853 0.40569853 0.40569853
0.43272059 0.43272059 0.43272059
0.44518995 0.44518995 0.44518995
0.45491728 0.45491728 0.45491728
0.46164216 0.46164216 0.46164216
0.38039216 0.38039216 0.38039216
0.38645833 0.38645833 0.38645833
0.40447304 0.40447304 0.40447304
0.43535539 0.43535539 0.43535539
0.47622549 0.47622549 0.47622549
0.5004902 0.5004902 0.5004902
0.51816789 0.51816789 0.51816789
0.52910539 0.52910539 0.52910539
0.54215686 0.54215686 0.54215686
0.4372549 0.4372549 0.4372549
0.44754902 0.44754902 0.44754902
0.46795343 0.46795343 0.46795343
0.50098039 0.50098039 0.50098039
0.56544118 0.56544118 0.56544118
0.59390319 0.59390319 0.59390319
0.6088848 0.6088848 0.6088848
0.63627451 0.63627451 0.63627451
0.64852941 0.64852941 0.64852941
0.5495098 0.5495098 0.5495098
0.56403186 0.56403186 0.56403186
0.59183517 0.59183517 0.59183517
0.62009804 0.62009804 0.62009804
0.65808824 0.65808824 0.65808824
0.70167739 0.70167739 0.70167739
0.73235294 0.73235294 0.73235294
0.74846814 0.74846814 0.74846814
0.77935049 0.77935049 0.77935049
0.69644608 0.69644608 0.69644608
0.72130821 0.72130821 0.72130821
0.73333333 0.73333333 0.73333333
0.74716605 0.74716605 0.74716605
0.76495098 0.76495098 0.76495098
0.79241728 0.79241728 0.79241728
0.81706495 0.81706495 0.81706495
0.84655331 0.84655331 0.84655331
0.88333333 0.88333333 0.88333333
0.8254902 0.8254902 0.8254902
0.82941176 0.82941176 0.82941176
0.84082414 0.84082414 0.84082414
0.84852941 0.84852941 0.84852941
0.85882353 0.85882353 0.85882353
0.87414982 0.87414982 0.87414982
0.88541667 0.88541667 0.88541667
0.90063572 0.90063572 0.90063572
0.91991422 0.91991422 0.91991422
0.91764706 0.91764706 0.91764706
0.92696078 0.92696078 0.92696078
0.91127451 0.91127451 0.91127451
0.92156863 0.92156863 0.92156863
0.92745098 0.92745098 0.92745098
0.9254902 0.9254902 0.9254902
0.93186275 0.93186275 0.93186275
0.95441176 0.95441176 0.95441176
0.95441176 0.95441176 0.95441176
0.31764706 0.31764706 0.31764706
0.32904412 0.32904412 0.32904412
0.3372549 0.3372549 0.3372549
0.35539216 0.35539216 0.35539216
0.3872549 0.3872549 0.3872549
0.41421569 0.41421569 0.41421569
0.44117647 0.44117647 0.44117647
0.44117647 0.44117647 0.44117647
0.44411765 0.44411765 0.44411765
0.33419118 0.33419118 0.33419118
0.3407935 0.3407935 0.3407935
0.34797794 0.34797794 0.34797794
0.36386336 0.36386336 0.36386336
0.39332108 0.39332108 0.39332108
0.43564645 0.43564645 0.43564645
0.46421569 0.46421569 0.46421569
0.460769 0.460769 0.460769
0.46776961 0.46776961 0.46776961
0.36372549 0.36372549 0.36372549
0.36727941 0.36727941 0.36727941
0.3754902 0.3754902 0.3754902
0.39436275 0.39436275 0.39436275
0.43039216 0.43039216 0.43039216
0.47117034 0.47117034 0.47117034
0.49454657 0.49454657 0.49454657
0.50992647 0.50992647 0.50992647
0.52328431 0.52328431 0.52328431
0.39460784 0.39460784 0.39460784
0.40338542 0.40338542 0.40338542
0.42362132 0.42362132 0.42362132
0.45502451 0.45502451 0.45502451
0.50373775 0.50373775 0.50373775
0.54765625 0.54765625 0.54765625
0.58057598 0.58057598 0.58057598
0.58123468 0.58123468 0.58123468
0.58431373 0.58431373 0.58431373
0.42794118 0.42794118 0.42794118
0.45012255 0.45012255 0.45012255
0.47009804 0.47009804 0.47009804
0.51678922 0.51678922 0.51678922
0.57794118 0.57794118 0.57794118
0.63186275 0.63186275 0.63186275
0.66115196 0.66115196 0.66115196
0.66231618 0.66231618 0.66231618
0.66617647 0.66617647 0.66617647
0.53713235 0.53713235 0.53713235
0.55556066 0.55556066 0.55556066
0.57463235 0.57463235 0.57463235
0.59558824 0.59558824 0.59558824
0.65147059 0.65147059 0.65147059
0.72107843 0.72107843 0.72107843
0.7504902 0.7504902 0.7504902
0.75870098 0.75870098 0.75870098
0.77022059 0.77022059 0.77022059
0.68235294 0.68235294 0.68235294
0.70554534 0.70554534 0.70554534
0.71427696 0.71427696 0.71427696
0.73578431 0.73578431 0.73578431
0.77781863 0.77781863 0.77781863
0.80514706 0.80514706 0.80514706
0.83602941 0.83602941 0.83602941
0.85428922 0.85428922 0.85428922
0.86764706 0.86764706 0.86764706
0.82058824 0.82058824 0.82058824
0.83316483 0.83316483 0.83316483
0.84831495 0.84831495 0.84831495
0.86011029 0.86011029 0.86011029
0.86464461 0.86464461 0.86464461
0.88154105 0.88154105 0.88154105
0.90073529 0.90073529 0.90073529
0.91481311 0.91481311 0.91481311
0.92205882 0.92205882 0.92205882
0.92156863 0.92156863 0.92156863
0.91997549 0.91997549 0.91997549
0.92647059 0.92647059 0.92647059
0.93541667 0.93541667 0.93541667
0.93382353 0.93382353 0.93382353
0.93762255 0.93762255 0.93762255
0.94509804 0.94509804 0.94509804
0.94264706 0.94264706 0.94264706
0.96862745 0.96862745 0.96862745
0.32990196 0.32990196 0.32990196
0.34074755 0.34074755 0.34074755
0.34509804 0.34509804 0.34509804
0.37371324 0.37371324 0.37371324
0.41421569 0.41421569 0.41421569
0.45459559 0.45459559 0.45459559
0.51372549 0.51372549 0.51372549
0.55238971 0.55238971 0.55238971
0.55539216 0.55539216 0.55539216
0.34901961 0.34901961 0.34901961
0.35680147 0.35680147 0.35680147
0.36502757 0.36502757 0.36502757
0.38719363 0.38719363 0.38719363
0.42794118 0.42794118 0.42794118
0.48578431 0.48578431 0.48578431
0.55110294 0.55110294 0.55110294
0.57843137 0.57843137 0.57843137
0.57843137 0.57843137 0.57843137
0.38382353 0.38382353 0.38382353
0.38772978 0.38772978 0.38772978
0.39166667 0.39166667 0.39166667
0.41764706 0.41764706 0.41764706
0.46139706 0.46139706 0.46139706
0.51827512 0.51827512 0.51827512
0.59509804 0.59509804 0.59509804
0.6194087 0.6194087 0.6194087
0.60882353 0.60882353 0.60882353
0.42254902 0.42254902 0.42254902
0.43020833 0.43020833 0.43020833
0.44986213 0.44986213 0.44986213
0.47843137 0.47843137 0.47843137
0.52567402 0.52567402 0.52567402
0.59155178 0.59155178 0.59155178
0.64920343 0.64920343 0.64920343
0.67771906 0.67771906 0.67771906
0.66960784 0.66960784 0.66960784
0.45514706 0.45514706 0.45514706
0.47674632 0.47674632 0.47674632
0.50153186 0.50153186 0.50153186
0.53382353 0.53382353 0.53382353
0.59963235 0.59963235 0.59963235
0.66568627 0.66568627 0.66568627
0.71139706 0.71139706 0.71139706
0.73630515 0.73630515 0.73630515
0.725 0.725 0.725
0.50882353 0.50882353 0.50882353
0.5228171 0.5228171 0.5228171
0.54050245 0.54050245 0.54050245
0.57286305 0.57286305 0.57286305
0.66216299 0.66216299 0.66216299
0.73658854 0.73658854 0.73658854
0.77696078 0.77696078 0.77696078
0.79738817 0.79738817 0.79738817
0.81372549 0.81372549 0.81372549
0.67120098 0.67120098 0.67120098
0.67936581 0.67936581 0.67936581
0.68382353 0.68382353 0.68382353
0.69693627 0.69693627 0.69693627
0.75177696 0.75177696 0.75177696
0.81262255 0.81262255 0.81262255
0.84721201 0.84721201 0.84721201
0.87663909 0.87663909 0.87663909
0.88186275 0.88186275 0.88186275
0.81715686 0.81715686 0.81715686
0.81764706 0.81764706 0.81764706
0.83331801 0.83331801 0.83331801
0.84487592 0.84487592 0.84487592
0.8620098 0.8620098 0.8620098
0.88919271 0.88919271 0.88919271
0.90784314 0.90784314 0.90784314
0.92598805 0.92598805 0.92598805
0.93082108 0.93082108 0.93082108
0.91764706 0.91764706 0.91764706
0.91764706 0.91764706 0.91764706
0.92156863 0.92156863 0.92156863
0.9276348 0.9276348 0.9276348
0.93333333 0.93333333 0.93333333
0.94901961 0.94901961 0.94901961
0.95980392 0.95980392 0.95980392
0.96127451 0.96127451 0.96127451
0.96127451 0.96127451 0.96127451
0.3372549 0.3372549 0.3372549
0.34509804 0.34509804 0.34509804
0.34901961 0.34901961 0.34901961
0.37745098 0.37745098 0.37745098
0.42156863 0.42156863 0.42156863
0.47647059 0.47647059 0.47647059
0.62352941 0.62352941 0.62352941
0.71372549 0.71372549 0.71372549
0.70588235 0.70588235 0.70588235
0.36813725 0.36813725 0.36813725
0.37598039 0.37598039 0.37598039
0.37598039 0.37598039 0.37598039
0.39834559 0.39834559 0.39834559
0.45784314 0.45784314 0.45784314
0.53302696 0.53302696 0.53302696
0.64227941 0.64227941 0.64227941
0.70343137 0.70343137 0.70343137
0.73676471 0.73676471 0.73676471
0.40686275 0.40686275 0.40686275
0.40992647 0.40992647 0.40992647
0.41078431 0.41078431 0.41078431
0.43247549 0.43247549 0.43247549
0.50980392 0.50980392 0.50980392
0.58529412 0.58529412 0.58529412
0.64901961 0.64901961 0.64901961
0.75710784 0.75710784 0.75710784
0.70980392 0.70980392 0.70980392
0.45196078 0.45196078 0.45196078
0.45716912 0.45716912 0.45716912
0.47340686 0.47340686 0.47340686
0.51176471 0.51176471 0.51176471
0.56813725 0.56813725 0.56813725
0.64221814 0.64221814 0.64221814
0.70245098 0.70245098 0.70245098
0.76354167 0.76354167 0.76354167
0.79166667 0.79166667 0.79166667
0.48627451 0.48627451 0.48627451
0.52279412 0.52279412 0.52279412
0.54264706 0.54264706 0.54264706
0.58210784 0.58210784 0.58210784
0.63529412 0.63529412 0.63529412
0.69779412 0.69779412 0.69779412
0.75098039 0.75098039 0.75098039
0.8004902 0.8004902 0.8004902
0.82941176 0.82941176 0.82941176
0.49852941 0.49852941 0.49852941
0.51145833 0.51145833 0.51145833
0.54166667 0.54166667 0.54166667
0.62696078 0.62696078 0.62696078
0.68627451 0.68627451 0.68627451
0.75435049 0.75435049 0.75435049
0.80392157 0.80392157 0.80392157
0.84264706 0.84264706 0.84264706
0.87205882 0.87205882 0.87205882
0.65686275 0.65686275 0.65686275
0.6504902 0.6504902 0.6504902
0.64632353 0.64632353 0.64632353
0.64963235 0.64963235 0.64963235
0.7127451 0.7127451 0.7127451
0.8127451 0.8127451 0.8127451
0.85710784 0.85710784 0.85710784
0.89571078 0.89571078 0.89571078
0.91862745 0.91862745 0.91862745
0.82107843 0.82107843 0.82107843
0.81323529 0.81323529 0.81323529
0.83284314 0.83284314 0.83284314
0.84068627 0.84068627 0.84068627
0.85808824 0.85808824 0.85808824
0.88480392 0.88480392 0.88480392
0.91176471 0.91176471 0.91176471
0.93431373 0.93431373 0.93431373
0.94558824 0.94558824 0.94558824
0.92941176 0.92941176 0.92941176
0.91323529 0.91323529 0.91323529
0.93039216 0.93039216 0.93039216
0.92009804 0.92009804 0.92009804
0.93333333 0.93333333 0.93333333
0.94656863 0.94656863 0.94656863
0.95686275 0.95686275 0.95686275
0.96078431 0.96078431 0.96078431
0.97254902 0.97254902 0.97254902
