site/assets/luts/natron-haldclut--kodak-portra-400-vc---057ab3e58.cube
# LUTr-Project: LUTr — LUTrepository
# LUTr-Schema-Version: 1
# LUTr-ID: natron-haldclut--kodak-portra-400-vc---057ab3e58
# LUTr-Title: kodak portra 400 vc -
# LUTr-Collection: Natron HaldCLUT
# LUTr-Collection-ID: natron-haldclut-presets
# LUTr-Source: https://github.com/NatronGitHub/clut
# LUTr-Source-File: submissions/natron-haldclut-presets/negative_old/kodak_portra_400_vc_-.png
# LUTr-Source-Format: PNG
# LUTr-Source-SHA256: c50908cbe6d457459c00091ee50c8479a853161d7641ee91fd333f8dab2c71e7
# LUTr-License: CC-BY-SA-4.0
# LUTr-License-URL: https://github.com/NatronGitHub/clut#license
# LUTr-Tags: creative, film, film-emulation, hald-clut, natron, png, cube
# LUTr-Transform-Class: film-emulation
# LUTr-Input-Color-Space: srgb
# LUTr-Output-Color-Space: srgb
# LUTr-Color-Space-Confidence: assumed-display-referred
# LUTr-Conversion-Method: PNG LUT image decoded at 16-bit and sampled to 25x25x25 3D CUBE
# LUTr-Conversion-Date: 2026-07-27
# LUTr-Conversion-Tool: LUTr scripts/convert-all-to-cube.mjs
# LUTr-Conversion-Grid: 25x25x25
# LUTr-Note: Preserve this metadata and the upstream license notices when redistributing.
TITLE "kodak portra 400 vc -"
LUT_3D_SIZE 9
DOMAIN_MIN 0 0 0
DOMAIN_MAX 1 1 1
0.0039215686 0.019607843 0.0078431373
0.053921569 0.00049019608 0.0078431373
0.1872549 0.011764706 0.02745098
0.35980392 0.041666667 0.0053921569
0.53529412 0.0098039216 0
0.68431373 0.019607843 0
0.80294118 0.045098039 0
0.90343137 0.11519608 0
1 0.17647059 0
0 0.075980392 0.025980392
0.049080882 0.08872549 0.039215686
0.20245098 0.10784314 0.017647059
0.38302696 0.12401961 0.0078431373
0.55661765 0.10539216 0.0039215686
0.69969363 0.11568627 0.0078431373
0.81433824 0.13235294 0.0068627451
0.91470588 0.16862745 0.0039215686
0.98823529 0.21470588 0
0 0.19509804 0.040196078
0.00098039216 0.21164216 0.039583333
0.15098039 0.24019608 0.0098039216
0.38186275 0.27855392 0.0049019608
0.59019608 0.24901961 0.006372549
0.7192402 0.24669118 0.0039215686
0.82647059 0.24803922 0.0029411765
0.92303922 0.27107843 0.0039215686
0.99901961 0.29803922 0
0 0.35343137 0.12647059
0.0078431373 0.36078431 0.12892157
0.033210784 0.38137255 0.11482843
0.33719363 0.41617647 0.059803922
0.58112745 0.44142157 0.0031862745
0.72444853 0.41476716 0.010294118
0.8307598 0.38872549 0.014583333
0.92677696 0.3841299 0.01127451
0.98823529 0.39558824 0.0039215686
0 0.49411765 0.20588235
0.0019607843 0.49019608 0.22132353
0.0068627451 0.49803922 0.21421569
0.275 0.51887255 0.17990196
0.51862745 0.55294118 0.15294118
0.6995098 0.57132353 0.026960784
0.81960784 0.54607843 0.011764706
0.93137255 0.51519608 0.0075980392
0.98823529 0.5 0
0.0053921569 0.60980392 0.29068627
0 0.61029412 0.29068627
0.14080882 0.60980392 0.30036765
0.28970588 0.6122549 0.30098039
0.45539216 0.63308824 0.27058824
0.61317402 0.65686275 0.2088848
0.77340686 0.675 0.11372549
0.90851716 0.66979167 0.030208333
0.98186275 0.64656863 0.0078431373
0.11176471 0.71666667 0.37254902
0.19718137 0.72058824 0.38590686
0.27181373 0.71372549 0.38333333
0.36029412 0.71666667 0.38823529
0.45882353 0.72696078 0.37352941
0.59448529 0.74411765 0.35147059
0.7252451 0.75980392 0.31348039
0.85502451 0.77463235 0.27254902
0.97156863 0.77352941 0.21078431
0.37205882 0.81372549 0.49313725
0.38682598 0.81715686 0.49705882
0.4245098 0.81323529 0.50085784
0.49185049 0.8158701 0.51617647
0.55465686 0.82107843 0.51813725
0.61862745 0.83069853 0.49166667
0.71666667 0.84154412 0.47598039
0.82898284 0.85686275 0.46176471
0.92107843 0.87205882 0.45441176
0.57254902 0.91372549 0.65882353
0.57990196 0.91372549 0.65882353
0.60686275 0.91764706 0.66666667
0.62598039 0.90588235 0.66127451
0.66666667 0.91568627 0.67647059
0.71519608 0.92156863 0.66911765
0.77058824 0.93039216 0.65882353
0.84460784 0.94558824 0.65490196
0.89019608 0.95686275 0.64705882
0.011764706 0.019607843 0.11176471
0.056862745 0.011764706 0.096078431
0.19203431 0.0073529412 0.068995098
0.35735294 0.024019608 0.073039216
0.52941176 0.013235294 0.058333333
0.68823529 0.0014705882 0.022732843
0.80036765 0.028063725 0.0025735294
0.8995098 0.11127451 0.0073529412
0.99215686 0.17254902 0
0.0078431373 0.1 0.11960784
0.050436581 0.099624694 0.10343137
0.20931373 0.1066636 0.088235294
0.38253676 0.08660386 0.076470588
0.55416667 0.099509804 0.046078431
0.69650735 0.10800398 0.036458333
0.81089154 0.13279718 0.022809436
0.91127451 0.16508119 0
0.98872549 0.21470588 0.0064338235
0.0039215686 0.23382353 0.15306373
0.01127451 0.23000919 0.15294118
0.16608456 0.24396446 0.13394608
0.41139706 0.26176471 0.074647672
0.59197304 0.24852941 0.035294118
0.72112439 0.24600184 0.025628064
0.82552083 0.24641544 0
0.92205882 0.27103248 0.0047794118
0.98921569 0.29509804 0.0039215686
0.0041053922 0.37824755 0.20784314
0.0060661765 0.38355545 0.21127451
0.11626838 0.39131434 0.19990809
0.35980392 0.41391697 0.1504902
0.58382353 0.42892157 0.089215686
0.73669577 0.39810049 0.018252145
0.8370864 0.38872549 0.014797794
0.93069853 0.38235294 0.0054764093
0.98952206 0.39411765 0.0039215686
0.0039215686 0.50955882 0.26740196
0.00021446078 0.51280637 0.26568627
0.096446078 0.50710784 0.26544118
0.2995098 0.52598039 0.25122549
0.52046569 0.55588235 0.2004902
0.69010417 0.56436887 0.14396446
0.82806373 0.54246324 0.033946078
0.92916667 0.51911765 0.014981618
0.98014706 0.50392157 0.011764706
0.0086397059 0.61979167 0.3254902
0.053063725 0.62167586 0.33137255
0.1872549 0.6158701 0.32758885
0.31471354 0.61617647 0.32333793
0.46029412 0.63382353 0.29666054
0.62922794 0.66323529 0.26329657
0.78662684 0.68431373 0.20784314
0.90588235 0.66960784 0.12877604
0.98823529 0.64705882 0.014154412
0.20490196 0.7245098 0.41764706
0.23895527 0.72069547 0.40202206
0.30343137 0.71666667 0.40857843
0.38596814 0.71666667 0.41029412
0.48290441 0.7245098 0.39681373
0.59214154 0.74166667 0.38198529
0.71954657 0.75943627 0.34705882
0.86634498 0.78321078 0.31666667
0.98737745 0.78443627 0.25784314
0.39852941 0.81758578 0.51519608
0.41335018 0.81727175 0.51563266
0.44090074 0.81715686 0.51960784
0.50147059 0.81764706 0.52794118
0.55098039 0.81936275 0.52748162
0.62156863 0.83069853 0.51816023
0.71361826 0.8439185 0.49607843
0.82506127 0.86029412 0.48088235
0.93670343 0.87205882 0.46176471
0.58872549 0.91813725 0.67058824
0.59601716 0.91813725 0.67401961
0.60343137 0.91372549 0.66666667
0.6372549 0.91501225 0.67794118
0.67254902 0.91740196 0.68382353
0.71881127 0.92420343 0.67696078
0.77365196 0.92855392 0.65833333
0.84895833 0.94607843 0.66323529
0.91666667 0.96029412 0.65441176
0.0039215686 0.026470588 0.24607843
0.042647059 0.022058824 0.24080882
0.20612745 0.017401961 0.24534314
0.36973039 0.012377451 0.22696078
0.54852941 0.016176471 0.21862745
0.6872549 0.0039215686 0.20036765
0.78823529 0.1122549 0.18553922
0.88909314 0.14117647 0.1622549
0.98823529 0.19509804 0.13823529
0.0078431373 0.12303922 0.25784314
0.01997549 0.11997549 0.25359988
0.19485294 0.11675858 0.24607843
0.38921569 0.083210784 0.22892157
0.5622549 0.060232843 0.21409314
0.69852941 0.067018995 0.19718137
0.7966299 0.16038603 0.18602941
0.90036765 0.1948223 0.14725797
0.98137255 0.22941176 0.13823529
0.0039215686 0.26397059 0.27745098
0.01841299 0.26470588 0.28026961
0.22279412 0.27181373 0.27665441
0.4254902 0.27254902 0.26234681
0.5872549 0.26862745 0.24276961
0.70410539 0.26553309 0.2182598
0.81004902 0.27022059 0.19178922
0.90735294 0.28676471 0.16063113
0.98529412 0.30980392 0.13063725
0.021936275 0.42352941 0.31862745
0.11623775 0.42303922 0.32602635
0.2390625 0.42058824 0.31544118
0.40660233 0.42359069 0.30490196
0.58848039 0.42064951 0.26188725
0.72058824 0.40980392 0.22401961
0.82536765 0.39347426 0.1924326
0.91951593 0.39313725 0.16421569
0.99044118 0.40526961 0.12855392
0.093137255 0.53627451 0.35784314
0.16127451 0.53823529 0.36666667
0.24681373 0.53039216 0.36127451
0.37720588 0.53621324 0.35171569
0.54142157 0.55686275 0.32205882
0.70343137 0.56703431 0.2778799
0.82205882 0.53529412 0.20980392
0.92567402 0.51930147 0.15882353
0.98235294 0.51470588 0.13137255
0.1627451 0.63480392 0.40294118
0.21507353 0.63125 0.39791667
0.29053309 0.62696078 0.39852941
0.38633578 0.62401961 0.40392157
0.49773284 0.6377451 0.38186275
0.64731924 0.66231618 0.35594363
0.78949142 0.67901348 0.32273284
0.91029412 0.66556373 0.26070772
0.96458333 0.65232843 0.20061275
0.275 0.72843137 0.4627451
0.3176777 0.72460172 0.45808824
0.36145833 0.72352941 0.45790441
0.43235294 0.7245098 0.46400123
0.50392157 0.72683824 0.45428922
0.60735294 0.74157475 0.43480392
0.73547794 0.76372549 0.4192402
0.8661152 0.77941176 0.40039828
0.98063725 0.78431373 0.35367647
0.44105392 0.825 0.55428922
0.44450061 0.82112439 0.55306373
0.47300858 0.82022059 0.55428922
0.51594669 0.81925551 0.55994179
0.56917892 0.82107843 0.56176471
0.63296569 0.82892157 0.55343137
0.73026961 0.84485294 0.5411152
0.82804841 0.86073836 0.52642463
0.94313725 0.88247549 0.51875
0.60294118 0.91764706 0.68921569
0.60294118 0.91409314 0.68529412
0.6254902 0.92058824 0.69289216
0.6495098 0.91764706 0.69411765
0.68333333 0.91764706 0.70098039
0.72806373 0.9254902 0.70343137
0.78235294 0.93039216 0.68627451
0.85196078 0.94767157 0.68431373
0.90294118 0.92647059 0.62156863
0.0014705882 0.043137255 0.39803922
0.0039215686 0.039522059 0.39656863
0.1622549 0.047058824 0.39411765
0.36525735 0.035294118 0.39264706
0.56519608 0.014460784 0.38921569
0.71476716 0.0088235294 0.35196078
0.81715686 0.019117647 0.31262255
0.91323529 0.0059436275 0.28302696
0.99068627 0.16617647 0.28039216
0.0039215686 0.14313725 0.40441176
0.0017769608 0.13082108 0.40414369
0.19234069 0.14522059 0.40441176
0.40006127 0.15324755 0.40686275
0.57288603 0.13235294 0.39280025
0.70960478 0.10606618 0.35441176
0.82144608 0.047610294 0.31168811
0.90851716 0.12865349 0.30055147
0.98841912 0.2439951 0.30147059
0 0.27745098 0.40943627
0.0073529412 0.282981 0.41920956
0.21164216 0.29322917 0.42512255
0.42640931 0.30343137 0.42696078
0.58523284 0.29908088 0.4096201
0.71329657 0.28125 0.37843137
0.81078431 0.2588848 0.34117647
0.9089614 0.27737439 0.30945159
0.98431373 0.32463235 0.30637255
0.0078431373 0.42401961 0.42457108
0.049149816 0.43878676 0.43939951
0.27401961 0.44117647 0.44716605
0.44965533 0.44213388 0.4466299
0.59019608 0.43504902 0.42224265
0.71233915 0.42289369 0.39117647
0.81862745 0.39803922 0.35983456
0.91115962 0.40226716 0.33444393
0.98823529 0.42248775 0.31421569
0.15931373 0.55808824 0.46813725
0.25471814 0.56210172 0.47205882
0.35931373 0.55735294 0.47058824
0.45707721 0.55389093 0.47205882
0.57279412 0.56470588 0.45183824
0.70150123 0.56519608 0.42496936
0.81550245 0.53768382 0.38817402
0.91519608 0.5245098 0.35073529
0.98112745 0.51960784 0.32083333
0.36372549 0.65692402 0.51170343
0.38393076 0.65784314 0.50998009
0.40536152 0.65 0.49901961
0.45294118 0.64236366 0.49117647
0.5323223 0.64954044 0.48164828
0.66842065 0.67165288 0.46709559
0.79713542 0.67977941 0.44446998
0.90980392 0.66036305 0.39674479
0.98915441 0.6372549 0.34460784
0.42352941 0.74656863 0.55404412
0.44090074 0.74595588 0.55602022
0.45327819 0.73992034 0.54310662
0.48852635 0.73419118 0.5377451
0.54834559 0.73235294 0.53235294
0.63065257 0.74811581 0.52336091
0.74837623 0.76764706 0.50818015
0.87936581 0.78717831 0.48909314
0.98578431 0.77855392 0.44620098
0.48137255 0.83137255 0.60245098
0.50637255 0.83137255 0.61383272
0.52446385 0.82892157 0.61292892
0.55184589 0.82359835 0.61036305
0.59549632 0.82352941 0.61243873
0.66127451 0.82958793 0.60900735
0.73762255 0.8442402 0.5967065
0.83327206 0.86013327 0.58703278
0.9408701 0.87745098 0.5754902
0.60784314 0.91764706 0.70833333
0.61176471 0.91403186 0.70471814
0.63676471 0.92401961 0.71801471
0.64074755 0.90067402 0.6971201
0.69411765 0.92083333 0.72598039
0.73572304 0.92156863 0.72493873
0.79019608 0.93186275 0.71862745
0.85588235 0.93431373 0.69313725
0.93088235 0.95980392 0.70343137
0 0.084313725 0.5372549
0.0017156863 0.11151961 0.53333333
0.14852941 0.13235294 0.53627451
0.37794118 0.10539216 0.54117647
0.56862745 0.098039216 0.54215686
0.70906863 0.12254902 0.52916667
0.825 0.14852941 0.48921569
0.92303922 0.14460784 0.45637255
0.99411765 0.092156863 0.40980392
0 0.16053922 0.5372549
0.0039215686 0.17454044 0.54292279
0.17034314 0.18480392 0.54656863
0.40481005 0.20784314 0.55637255
0.58198529 0.20968137 0.55171569
0.70784314 0.21372549 0.52598039
0.83082108 0.24044118 0.49877451
0.91957721 0.20735294 0.45395221
0.99019608 0.16985294 0.4120098
0.0039215686 0.29901961 0.54509804
0.011335784 0.31078431 0.55686275
0.19705882 0.31286765 0.56078431
0.42702206 0.32414216 0.56470588
0.58970588 0.34142157 0.5622549
0.71960784 0.34313725 0.53578431
0.82254902 0.33026961 0.50085784
0.91127451 0.31029412 0.45698529
0.97696078 0.29558824 0.43088235
0.0078431373 0.44240196 0.55416667
0.034191176 0.44509804 0.55793505
0.25839461 0.44117647 0.56795343
0.44411765 0.44846814 0.57012868
0.58823529 0.45784314 0.57022059
0.71222426 0.4495098 0.54681373
0.81078431 0.42696078 0.51078431
0.90735294 0.43014706 0.47876838
0.99289216 0.4254902 0.44828431
0.15392157 0.57352941 0.56862745
0.22083333 0.57254902 0.56862745
0.36568627 0.57254902 0.57352941
0.47781863 0.57377451 0.5754902
0.59362745 0.57843137 0.57990196
0.69926471 0.57144608 0.56715686
0.80490196 0.54240196 0.525
0.89742647 0.5372549 0.49264706
0.97254902 0.53627451 0.46568627
0.35759804 0.67892157 0.59681373
0.38939951 0.6770527 0.59558824
0.44509804 0.67230392 0.59797794
0.5041973 0.67156863 0.59632353
0.58296569 0.67132353 0.59031863
0.68284314 0.6708027 0.57889093
0.79944853 0.66954657 0.55716912
0.89705882 0.66029412 0.52509191
0.97058824 0.64828431 0.48578431
0.47745098 0.76127451 0.63676471
0.49264706 0.76176471 0.63872549
0.52647059 0.75735294 0.63688725
0.55998775 0.75539216 0.63431373
0.59877451 0.7497549 0.62696078
0.66072304 0.75042892 0.61531863
0.76176471 0.76470588 0.60330882
0.88333333 0.77726716 0.5877451
0.975 0.77254902 0.55490196
0.56176471 0.84460784 0.69093137
0.57135417 0.84828431 0.69509804
0.58333333 0.84117647 0.68768382
0.59721201 0.83651961 0.675
0.63639706 0.83406863 0.67781863
0.67588848 0.83128064 0.67328431
0.74981618 0.8442402 0.66942402
0.84485294 0.86053922 0.66029412
0.9504902 0.87794118 0.64460784
0.64117647 0.92156863 0.74901961
0.64509804 0.9254902 0.75098039
0.65588235 0.92156863 0.75098039
0.67769608 0.93014706 0.75294118
0.70980392 0.9254902 0.75490196
0.73602941 0.91176471 0.74509804
0.79362745 0.92254902 0.74509804
0.86593137 0.95073529 0.75220588
0.9372549 0.92352941 0.69607843
0 0.13627451 0.66470588
0.00018382353 0.16127451 0.66862745
0.11531863 0.16911765 0.66960784
0.38186275 0.18670343 0.66954657
0.55882353 0.20637255 0.66862745
0.70784314 0.22696078 0.66954657
0.82463235 0.26029412 0.6495098
0.91519608 0.30802696 0.62126225
0.99754902 0.34509804 0.60882353
0.0014705882 0.21746324 0.66862745
0 0.22790288 0.67647059
0.16893382 0.22899816 0.67117034
0.39969363 0.2495098 0.67488511
0.57824755 0.27352941 0.67754289
0.70673254 0.27243413 0.66470588
0.82624081 0.28751532 0.65343137
0.90969669 0.33638174 0.62489277
0.99001225 0.36078431 0.60441176
0 0.33026961 0.67438725
0.0086397059 0.33088235 0.67884498
0.21047794 0.33872549 0.67892157
0.42840074 0.35369179 0.68039216
0.58339461 0.37273284 0.68321078
0.7105239 0.38223039 0.6754136
0.81960784 0.3875 0.65652574
0.90735294 0.41977635 0.63422181
0.98382353 0.42843137 0.61519608
0.0039215686 0.45533088 0.66470588
0.094929534 0.45980392 0.6716299
0.27408088 0.45110294 0.675
0.44213388 0.45890778 0.67892157
0.58431373 0.47233456 0.68207721
0.70392157 0.4872549 0.68410692
0.80791973 0.49002757 0.65980392
0.89620864 0.48988971 0.63431373
0.95741422 0.47205882 0.60827206
0.084803922 0.56470588 0.66715686
0.19126838 0.56862745 0.67107843
0.32009804 0.57346814 0.67181373
0.47303922 0.57647059 0.675
0.59473039 0.5807598 0.68615196
0.70245098 0.59166667 0.68431373
0.79705882 0.57622549 0.66127451
0.89151348 0.56470588 0.6346201
0.97303922 0.54926471 0.60857843
0.31415441 0.67254902 0.68431373
0.35998775 0.67774203 0.68284314
0.43529412 0.67892157 0.68823529
0.52702206 0.68341759 0.69103094
0.61099877 0.68676471 0.69292279
0.69607843 0.68527114 0.6906633
0.79509804 0.68071385 0.67696078
0.87990196 0.66078431 0.64472273
0.97009804 0.65147059 0.61764706
0.47058824 0.77058824 0.70588235
0.48370098 0.77156863 0.70620404
0.53722426 0.77647059 0.71510417
0.59186581 0.77156863 0.71703431
0.6495098 0.76875 0.71519608
0.71384804 0.76875 0.7129902
0.78863358 0.76764706 0.70343137
0.88965993 0.77953431 0.68333333
0.96519608 0.76323529 0.65796569
0.57971814 0.85245098 0.74724265
0.59117647 0.85606618 0.75089614
0.61567096 0.85431985 0.75637255
0.64589461 0.85 0.7526348
0.67564338 0.84445466 0.74485294
0.71943168 0.8414905 0.7419807
0.78382353 0.85047488 0.74246324
0.86187194 0.86470588 0.73445925
0.96666667 0.8877451 0.72303922
0.67843137 0.93333333 0.80539216
0.68382353 0.93694853 0.80508578
0.68529412 0.92696078 0.79901961
0.70196078 0.93333333 0.79901961
0.73137255 0.93651961 0.79754902
0.76672794 0.93033088 0.79754902
0.80735294 0.92757353 0.79117647
0.86942402 0.95079657 0.79509804
0.9372549 0.96715686 0.79362745
0.0088235294 0.21862745 0.77156863
0.013235294 0.22892157 0.77634804
0.19926471 0.22965686 0.78333333
0.40931373 0.25355392 0.77254902
0.56372549 0.27401961 0.77990196
0.70110294 0.31421569 0.77218137
0.82156863 0.34019608 0.76764706
0.91127451 0.35845588 0.75343137
0.95588235 0.38529412 0.7372549
0.0039215686 0.27144608 0.77254902
0.01127451 0.27547488 0.78252145
0.2375 0.28409926 0.78198529
0.41960784 0.3037837 0.7782935
0.57671569 0.32671569 0.77941176
0.70392157 0.35111826 0.7754902
0.81871936 0.3609375 0.7705576
0.90223652 0.39669118 0.75369179
0.97303922 0.43088235 0.7372549
0.014460784 0.36176471 0.77941176
0.046078431 0.35968137 0.78333333
0.26488971 0.37506127 0.77941176
0.44068627 0.38952206 0.77941176
0.58394608 0.40441176 0.77941176
0.70392157 0.42585784 0.77941176
0.81470588 0.43602941 0.77714461
0.89938725 0.45833333 0.76449142
0.97083333 0.48823529 0.74485294
0.19387255 0.48639706 0.77365196
0.23151042 0.4807598 0.7754902
0.3385723 0.475 0.77696078
0.45258885 0.47653186 0.77604167
0.58431373 0.49234069 0.7754902
0.7 0.51830576 0.77941176
0.80294118 0.52598039 0.77904412
0.89920343 0.53431373 0.76862745
0.97977941 0.57058824 0.75588235
0.092647059 0.56764706 0.75980392
0.20367647 0.57303922 0.76323529
0.33284314 0.5745098 0.76764706
0.45306373 0.5754902 0.76960784
0.58455882 0.58676471 0.7754902
0.69607843 0.60122549 0.77941176
0.79509804 0.61433824 0.78333333
0.89148284 0.61390931 0.76813725
0.96911765 0.6245098 0.75343137
0.28933824 0.67536765 0.76764706
0.32303922 0.675 0.76703431
0.39292279 0.67300858 0.76847426
0.49558824 0.67869179 0.77487745
0.58284314 0.67610294 0.77126225
0.69071691 0.68768382 0.77728248
0.79509804 0.7002451 0.78296569
0.88382353 0.69051777 0.76813725
0.95588235 0.68088235 0.74509804
0.46004902 0.77843137 0.78014706
0.45784314 0.7754902 0.77867647
0.49528186 0.77156863 0.78314951
0.55808824 0.7754902 0.7864277
0.62879902 0.77156863 0.7872549
0.71056985 0.77156863 0.79019608
0.79957108 0.77628676 0.7872549
0.88026961 0.77634804 0.77990196
0.95269608 0.7620098 0.75269608
0.56556373 0.85735294 0.80686275
0.58492647 0.86384804 0.80669424
0.60870098 0.86115196 0.80943627
0.64986213 0.85992647 0.81029412
0.70716912 0.86464461 0.81421569
0.74803922 0.85735294 0.81029412
0.80333946 0.8611826 0.81029412
0.87777267 0.87218137 0.80637255
0.94595588 0.8754902 0.79901961
0.6745098 0.94117647 0.84803922
0.68492647 0.94252451 0.84901961
0.69803922 0.94117647 0.8497549
0.72794118 0.94509804 0.85196078
0.75588235 0.94607843 0.85098039
0.78615196 0.94509804 0.84901961
0.82647059 0.94215686 0.84901961
0.8872549 0.9495098 0.84497549
0.95784314 0.97352941 0.84509804
0.082352941 0.30833333 0.8754902
0.16813725 0.33094363 0.86813725
0.31862745 0.33578431 0.87156863
0.453125 0.34558824 0.86421569
0.58872549 0.37034314 0.86397059
0.70686275 0.40098039 0.8560049
0.81090686 0.4372549 0.86421569
0.91121324 0.44509804 0.86372549
0.95735294 0.45686275 0.85245098
0.13823529 0.34607843 0.87199755
0.2263557 0.35838695 0.87506127
0.34226409 0.37374387 0.86980699
0.47244179 0.37401961 0.86813725
0.59215686 0.39852941 0.86421569
0.71047794 0.43088235 0.85814951
0.81438419 0.46035539 0.86421569
0.90735294 0.47205882 0.85975031
0.97297794 0.47205882 0.85637255
0.21029412 0.42598039 0.87205882
0.26323529 0.43109681 0.87195159
0.3580576 0.43517157 0.86813725
0.47882966 0.44420956 0.86711091
0.6004902 0.46813725 0.86421569
0.71470588 0.49117647 0.86421569
0.81277574 0.51323529 0.86421569
0.90300245 0.52904412 0.86012561
0.97610294 0.54068627 0.85245098
0.26960784 0.50882353 0.86421569
0.31927849 0.51105239 0.86813725
0.39362745 0.51435355 0.86813725
0.49039522 0.51744792 0.86813725
0.59754902 0.53553922 0.86421569
0.70913756 0.55490196 0.86421569
0.80735294 0.57539828 0.86421569
0.90294118 0.5911152 0.86421569
0.96501225 0.60833333 0.85294118
0.29460784 0.60490196 0.85441176
0.34096201 0.60686275 0.85658701
0.41139706 0.60275735 0.86029412
0.49852941 0.60245098 0.8620098
0.59276961 0.60367647 0.86409314
0.71161152 0.62965686 0.86813725
0.80343137 0.6463848 0.86764706
0.89558824 0.66351103 0.86810662
0.96078431 0.67303922 0.85441176
0.31011029 0.69117647 0.85214461
0.3377068 0.6872549 0.85245098
0.38376225 0.68284314 0.85245098
0.46960784 0.68186275 0.85490196
0.58471201 0.69044118 0.85459559
0.69410999 0.69993873 0.86176471
0.79914216 0.71421569 0.86813725
0.88805147 0.72506127 0.86942402
0.9377451 0.73284314 0.86813725
0.43566176 0.78247549 0.86029412
0.43953738 0.7807598 0.85981924
0.48354779 0.77598039 0.85723039
0.5377451 0.78043811 0.86015625
0.60980392 0.77444853 0.86078431
0.68529412 0.7717065 0.85824142
0.79852941 0.78734681 0.8689951
0.89123775 0.79940257 0.87529105
0.95784314 0.78982843 0.86066176
0.53529412 0.86464461 0.8716299
0.57401961 0.87640931 0.87640931
0.59410233 0.87184436 0.86937806
0.63378523 0.86856618 0.8723269
0.69068627 0.87205882 0.88333333
0.74852941 0.8716299 0.87974112
0.81475184 0.87205882 0.88360907
0.89918811 0.87598039 0.88033088
0.96078431 0.86905637 0.86954657
0.65833333 0.94558824 0.89558824
0.67003676 0.94901961 0.89859069
0.69473039 0.95159314 0.90159314
0.71697304 0.9504902 0.90294118
0.74289216 0.95098039 0.90661765
0.79166667 0.9504902 0.90294118
0.84522059 0.95306373 0.90686275
0.91078431 0.96127451 0.90729167
0.97205882 0.97941176 0.90637255
0.36078431 0.43529412 0.94117647
0.42303922 0.45882353 0.95294118
0.48431373 0.46666667 0.95686275
0.55784314 0.4745098 0.94509804
0.65098039 0.49019608 0.94509804
0.74313725 0.52058824 0.9504902
0.8254902 0.54215686 0.94117647
0.91078431 0.57647059 0.94117647
0.99607843 0.60784314 0.95294118
0.40833333 0.47401961 0.95686275
0.43480392 0.47794118 0.95386029
0.48688725 0.48578431 0.95637255
0.56207108 0.48970588 0.94901961
0.65318627 0.51348039 0.95343137
0.7377451 0.53039216 0.94117647
0.82647059 0.5622549 0.94215686
0.91127451 0.59215686 0.94025735
0.97205882 0.58676471 0.92892157
0.43137255 0.52352941 0.95784314
0.45306373 0.52438725 0.95392157
0.48823529 0.52352941 0.94901961
0.5692402 0.53137255 0.94840686
0.65294118 0.5495098 0.94509804
0.74227941 0.56862745 0.94068627
0.82647059 0.59534314 0.93823529
0.91519608 0.62659314 0.94473039
0.98529412 0.63235294 0.94607843
0.4377451 0.58382353 0.94509804
0.46862745 0.58921569 0.94901961
0.50637255 0.5877451 0.95539216
0.57506127 0.59313725 0.94993873
0.64901961 0.5997549 0.93602941
0.7377451 0.61813725 0.93817402
0.82941176 0.64509804 0.94473039
0.91127451 0.66158088 0.94117647
0.99068627 0.68186275 0.95539216
0.47058824 0.66470588 0.95098039
0.47647059 0.65906863 0.94509804
0.52156863 0.66078431 0.9504902
0.57352941 0.65367647 0.94509804
0.64509804 0.65294118 0.93431373
0.74166667 0.6752451 0.94901961
0.82254902 0.69068627 0.94117647
0.91421569 0.71372549 0.94828431
0.96078431 0.7 0.91372549
0.42794118 0.72696078 0.94607843
0.42040441 0.71734069 0.92628676
0.49705882 0.7245098 0.93431373
0.5627451 0.72303922 0.93915441
0.6377451 0.7245098 0.9372549
0.71813725 0.72598039 0.93872549
0.82352941 0.74301471 0.95147059
0.90294118 0.75618873 0.94099265
0.97254902 0.77156863 0.94901961
0.45392157 0.79901961 0.92156863
0.46176471 0.79914216 0.92659314
0.48823529 0.7875 0.91470588
0.55588235 0.79509804 0.93284314
0.61372549 0.80637255 0.95588235
0.71029412 0.79742647 0.94497549
0.80294118 0.79509804 0.92352941
0.90306373 0.8189951 0.95772059
0.98431373 0.83333333 0.96372549
0.5504902 0.87990196 0.91813725
0.56568627 0.89509804 0.95686275
0.58872549 0.89166667 0.95294118
0.62175245 0.89901961 0.96452206
0.66960784 0.88382353 0.95514706
0.7254902 0.88988971 0.96292892
0.79901961 0.87990196 0.96813725
0.8995098 0.88817402 0.95686275
0.9872549 0.89901961 0.97205882
0.64313725 0.98039216 0.97647059
0.63872549 0.95343137 0.95343137
0.65784314 0.96372549 0.96372549
0.68235294 0.96078431 0.96470588
0.7254902 0.97058824 0.97058824
0.78872549 0.96862745 0.95539216
0.85294118 0.96078431 0.94509804
0.92205882 0.97598039 0.96421569
0.94901961 0.94901961 0.9372549
