site/assets/luts/natron-haldclut--polaroid-px-680-cold---56747663b.cube
# LUTr-Project: LUTr — LUTrepository
# LUTr-Schema-Version: 1
# LUTr-ID: natron-haldclut--polaroid-px-680-cold---56747663b
# LUTr-Title: polaroid px-680 cold -
# LUTr-Collection: Natron HaldCLUT
# LUTr-Collection-ID: natron-haldclut-presets
# LUTr-Source: https://github.com/NatronGitHub/clut
# LUTr-Source-File: submissions/natron-haldclut-presets/instant_consumer/polaroid_px-680_cold_-.png
# LUTr-Source-Format: PNG
# LUTr-Source-SHA256: 0d67b6eb02c681121ac0c3a8f603dfa6eb745b0b02d4c9471ad9744170290532
# LUTr-License: CC-BY-SA-4.0
# LUTr-License-URL: https://github.com/NatronGitHub/clut#license
# LUTr-Tags: creative, film, film-emulation, hald-clut, natron, png, cool, cube
# LUTr-Transform-Class: film-emulation
# LUTr-Input-Color-Space: srgb
# LUTr-Output-Color-Space: srgb
# LUTr-Color-Space-Confidence: assumed-display-referred
# LUTr-Conversion-Method: PNG LUT image decoded at 16-bit and sampled to 25x25x25 3D CUBE
# LUTr-Conversion-Date: 2026-07-27
# LUTr-Conversion-Tool: LUTr scripts/convert-all-to-cube.mjs
# LUTr-Conversion-Grid: 25x25x25
# LUTr-Note: Preserve this metadata and the upstream license notices when redistributing.
TITLE "polaroid px-680 cold -"
LUT_3D_SIZE 5
DOMAIN_MIN 0 0 0
DOMAIN_MAX 1 1 1
0.0039215686 0.10196078 0.15686275
0.13333333 0.10588235 0.15686275
0.51372549 0.14901961 0.16862745
0.83137255 0.29607843 0.19607843
0.96862745 0.49019608 0.29803922
0.0039215686 0.20392157 0.17254902
0.12058824 0.21568627 0.1747549
0.53921569 0.26911765 0.17254902
0.82818627 0.3872549 0.19705882
0.96078431 0.52843137 0.29901961
0 0.46666667 0.2
0.0078431373 0.48578431 0.20735294
0.47745098 0.55294118 0.18823529
0.7877451 0.57254902 0.1995098
0.94509804 0.62745098 0.27647059
0.0078431373 0.68529412 0.27647059
0.018872549 0.69926471 0.29117647
0.41078431 0.71813725 0.31862745
0.71666667 0.75906863 0.34509804
0.89803922 0.79901961 0.39901961
0.47058824 0.88627451 0.48235294
0.51470588 0.89019608 0.49313725
0.60196078 0.88627451 0.50196078
0.75490196 0.90980392 0.54509804
0.85490196 0.9254902 0.57647059
0.012745098 0.12058824 0.22156863
0.13627451 0.13210784 0.23014706
0.5254902 0.090196078 0.26568627
0.83039216 0.32941176 0.34411765
0.94607843 0.54803922 0.42843137
0.00098039216 0.21666667 0.24583333
0.18057598 0.23878676 0.26666667
0.57977941 0.32843137 0.30637255
0.82591912 0.46078431 0.35392157
0.94681373 0.59019608 0.4254902
0.0053921569 0.49215686 0.30490196
0.047303922 0.51421569 0.29509804
0.53333333 0.56862745 0.3127451
0.7932598 0.58370098 0.3182598
0.93284314 0.65686275 0.39607843
0.011029412 0.69926471 0.34730392
0.10471814 0.70490196 0.35122549
0.46372549 0.72242647 0.38223039
0.73063725 0.76691176 0.41905637
0.90098039 0.80367647 0.45490196
0.47941176 0.89019608 0.50098039
0.51519608 0.88627451 0.50196078
0.61176471 0.8877451 0.5245098
0.74681373 0.89215686 0.53995098
0.8754902 0.93333333 0.61176471
0.033333333 0.15294118 0.43921569
0.31568627 0.20098039 0.45392157
0.58235294 0.35980392 0.47843137
0.80931373 0.36519608 0.50441176
0.94705882 0.56470588 0.54509804
0.019607843 0.29754902 0.46715686
0.31176471 0.33946078 0.47990196
0.60196078 0.46862745 0.49289216
0.80343137 0.49448529 0.52230392
0.92794118 0.64656863 0.56813725
0.0078431373 0.51372549 0.45294118
0.27794118 0.53627451 0.46519608
0.59607843 0.59362745 0.50686275
0.79338235 0.66029412 0.53578431
0.91470588 0.71960784 0.56862745
0.29215686 0.69460784 0.47254902
0.42120098 0.70980392 0.48517157
0.55514706 0.73235294 0.49803922
0.75257353 0.77156863 0.53431373
0.89803922 0.80588235 0.54656863
0.52352941 0.88823529 0.55490196
0.53921569 0.88333333 0.5495098
0.63039216 0.89607843 0.56862745
0.75539216 0.90098039 0.59705882
0.84313725 0.9254902 0.63137255
0.4245098 0.35686275 0.6372549
0.53651961 0.42156863 0.64117647
0.70784314 0.55686275 0.64509804
0.8129902 0.67745098 0.65294118
0.86666667 0.63921569 0.64901961
0.41666667 0.4502451 0.63897059
0.53627451 0.49019608 0.64117647
0.71715686 0.61813725 0.64558824
0.81544118 0.70098039 0.65465686
0.89705882 0.69215686 0.66470588
0.20637255 0.57598039 0.60833333
0.41188725 0.59129902 0.61531863
0.66470588 0.66617647 0.63946078
0.81262255 0.74730392 0.66470588
0.90539216 0.75980392 0.68186275
0.28995098 0.70490196 0.57769608
0.39558824 0.71642157 0.58866422
0.57561275 0.73419118 0.60588235
0.79675245 0.80067402 0.66231618
0.89803922 0.8372549 0.6875
0.40784314 0.87058824 0.61176471
0.4872549 0.8872549 0.62156863
0.61715686 0.89509804 0.63872549
0.7627451 0.91372549 0.67647059
0.88529412 0.93235294 0.7254902
0.70196078 0.66666667 0.8
0.73627451 0.68529412 0.79215686
0.80980392 0.7372549 0.79411765
0.86764706 0.81176471 0.78823529
0.90196078 0.84705882 0.79607843
0.68627451 0.68529412 0.79607843
0.72941176 0.70588235 0.79705882
0.79705882 0.73823529 0.7754902
0.87083333 0.8245098 0.79313725
0.89411765 0.85490196 0.79215686
0.62941176 0.73137255 0.79215686
0.66666667 0.73529412 0.79901961
0.76666667 0.77058824 0.79215686
0.85735294 0.83431373 0.78872549
0.89411765 0.86862745 0.8
0.48235294 0.81372549 0.78921569
0.51176471 0.81593137 0.79730392
0.63431373 0.81911765 0.79656863
0.80465686 0.86372549 0.80784314
0.89117647 0.90294118 0.82058824
0.50196078 0.93333333 0.80784314
0.53333333 0.93431373 0.80882353
0.60392157 0.90784314 0.79607843
0.74509804 0.93921569 0.82745098
0.90588235 0.95686275 0.8627451
