site/assets/luts/natron-haldclut--goldfx-hot-summer-heat--03ae0182b.cube
# LUTr-Project: LUTr — LUTrepository
# LUTr-Schema-Version: 1
# LUTr-ID: natron-haldclut--goldfx-hot-summer-heat--03ae0182b
# LUTr-Title: goldfx hot summer heat
# LUTr-Collection: Natron HaldCLUT
# LUTr-Collection-ID: natron-haldclut-presets
# LUTr-Source: https://github.com/NatronGitHub/clut
# LUTr-Source-File: submissions/natron-haldclut-presets/picturefx/goldfx_hot_summer_heat.png
# LUTr-Source-Format: PNG
# LUTr-Source-SHA256: 57143695f93ab9c5b56f0c3b9f75a35d9d9c7d00fd9e8bd449d85cddf1d1c699
# LUTr-License: CC-BY-SA-4.0
# LUTr-License-URL: https://github.com/NatronGitHub/clut#license
# LUTr-Tags: creative, film, film-emulation, hald-clut, natron, png, cube
# LUTr-Transform-Class: film-emulation
# LUTr-Input-Color-Space: srgb
# LUTr-Output-Color-Space: srgb
# LUTr-Color-Space-Confidence: assumed-display-referred
# LUTr-Conversion-Method: PNG LUT image decoded at 16-bit and sampled to 25x25x25 3D CUBE
# LUTr-Conversion-Date: 2026-07-27
# LUTr-Conversion-Tool: LUTr scripts/convert-all-to-cube.mjs
# LUTr-Conversion-Grid: 25x25x25
# LUTr-Note: Preserve this metadata and the upstream license notices when redistributing.
TITLE "goldfx hot summer heat"
LUT_3D_SIZE 5
DOMAIN_MIN 0 0 0
DOMAIN_MAX 1 1 1
0 0.0039215686 0.0039215686
0.13039216 0.024509804 0.024509804
0.54509804 0.0098039216 0.064705882
0.9245098 0.25686275 0.050980392
0.99607843 0.53333333 0.14509804
0 0.15392157 0.078431373
0.12254902 0.18333333 0.070588235
0.58382353 0.18039216 0.040196078
0.91593137 0.3872549 0.0039215686
0.99607843 0.5745098 0.1372549
0 0.55294118 0.1
0 0.56372549 0.079411765
0.6127451 0.58921569 0.014705882
0.89117647 0.61078431 0.0078431373
0.99607843 0.67843137 0.031372549
0.40294118 0.81764706 0.25098039
0.44387255 0.81078431 0.25392157
0.66764706 0.81862745 0.2627451
0.86078431 0.82254902 0.22156863
0.9872549 0.8372549 0.25784314
0.78039216 0.96862745 0.56470588
0.76078431 0.95686275 0.54117647
0.81568627 0.95882353 0.56078431
0.89509804 0.95588235 0.55098039
0.99215686 0.97647059 0.59607843
0.0078431373 0.042156863 0.15784314
0.14509804 0.073529412 0.15098039
0.58921569 0.0039215686 0.18137255
0.92156863 0.33333333 0.20490196
0.99607843 0.56764706 0.25882353
0.0039215686 0.22156863 0.18431373
0.15802696 0.18780637 0.17506127
0.62745098 0.15857843 0.16127451
0.9245098 0.3807598 0.14313725
0.99607843 0.58431373 0.2379902
0.013235294 0.57794118 0.14117647
0.032598039 0.57193627 0.13517157
0.61470588 0.5875 0.065441176
0.9004902 0.60723039 0.019607843
0.99607843 0.67598039 0.11470588
0.39681373 0.81470588 0.25882353
0.41292892 0.81636029 0.25857843
0.65183824 0.81801471 0.26862745
0.86991422 0.82493873 0.2276348
0.98823529 0.83259804 0.24338235
0.76470588 0.96078431 0.55196078
0.72843137 0.94338235 0.50882353
0.80931373 0.9627451 0.57009804
0.89117647 0.96078431 0.56102941
0.97647059 0.97156863 0.58333333
0.12352941 0.11960784 0.38039216
0.34019608 0.15588235 0.38431373
0.65098039 0.33235294 0.39509804
0.91078431 0.33137255 0.43333333
0.99215686 0.58235294 0.46666667
0.12892157 0.24362745 0.4
0.25845588 0.2254902 0.3995098
0.67867647 0.37009804 0.40661765
0.93651961 0.3432598 0.42279412
0.99411765 0.62107843 0.47058824
0.24901961 0.59411765 0.41176471
0.23357843 0.58406863 0.41102941
0.68627451 0.61666667 0.4254902
0.92720588 0.6129902 0.36911765
0.99607843 0.69509804 0.40392157
0.60294118 0.82647059 0.42843137
0.60245098 0.82647059 0.42953431
0.65171569 0.8247549 0.4127451
0.87303922 0.83333333 0.38039216
0.99607843 0.82254902 0.35196078
0.77843137 0.96666667 0.58235294
0.76519608 0.95833333 0.56862745
0.79901961 0.96862745 0.59215686
0.88823529 0.96568627 0.60735294
0.99411765 0.98235294 0.63137255
0.52352941 0.35490196 0.63039216
0.61666667 0.38823529 0.62352941
0.80686275 0.56715686 0.62254902
0.91176471 0.7 0.63431373
0.99215686 0.69313725 0.65392157
0.52254902 0.42647059 0.63112745
0.58216912 0.41979167 0.62647059
0.78529412 0.56862745 0.62254902
0.90520833 0.69191176 0.63137255
0.99117647 0.69215686 0.65
0.46960784 0.61960784 0.61960784
0.48382353 0.6 0.61948529
0.69068627 0.63357843 0.63602941
0.91139706 0.7622549 0.65098039
0.99117647 0.71421569 0.63921569
0.60686275 0.81862745 0.62745098
0.61470588 0.82493873 0.62818627
0.62046569 0.81973039 0.62806373
0.88848039 0.84491422 0.66011029
0.99509804 0.82794118 0.61936275
0.80392157 0.96078431 0.7127451
0.79901961 0.96151961 0.70784314
0.80637255 0.96470588 0.70245098
0.87156863 0.97156863 0.70392157
0.98431373 0.9754902 0.72058824
0.78039216 0.70588235 0.85882353
0.80980392 0.73039216 0.86470588
0.87254902 0.75882353 0.83529412
0.95 0.84803922 0.85392157
0.99607843 0.88627451 0.8745098
0.78039216 0.71764706 0.85882353
0.78970588 0.72303922 0.8620098
0.86911765 0.76911765 0.85147059
0.94215686 0.8372549 0.84338235
0.99607843 0.88529412 0.87352941
0.74117647 0.75294118 0.84509804
0.75245098 0.74705882 0.85588235
0.82058824 0.77843137 0.86470588
0.93431373 0.84803922 0.86470588
0.99607843 0.89019608 0.87647059
0.68137255 0.84509804 0.85980392
0.62181373 0.83431373 0.83627451
0.66176471 0.82647059 0.84901961
0.8629902 0.84803922 0.85980392
0.97745098 0.90686275 0.87156863
0.76862745 0.97254902 0.91372549
0.76470588 0.96960784 0.91078431
0.77843137 0.98235294 0.92352941
0.81372549 0.97156863 0.91372549
0.98823529 0.96470588 0.91372549
