site/assets/luts/natron-haldclut--fuji-fp-100c-cool---a14af4b24.cube
# LUTr-Project: LUTr — LUTrepository
# LUTr-Schema-Version: 1
# LUTr-ID: natron-haldclut--fuji-fp-100c-cool---a14af4b24
# LUTr-Title: fuji fp-100c cool --
# LUTr-Collection: Natron HaldCLUT
# LUTr-Collection-ID: natron-haldclut-presets
# LUTr-Source: https://github.com/NatronGitHub/clut
# LUTr-Source-File: submissions/natron-haldclut-presets/instant_pro/fuji_fp-100c_cool_--.png
# LUTr-Source-Format: PNG
# LUTr-Source-SHA256: e597532dcdc6c179ccdf8391b640507aa4ebcfbce0b0c71a791f39800f04c70f
# LUTr-License: CC-BY-SA-4.0
# LUTr-License-URL: https://github.com/NatronGitHub/clut#license
# LUTr-Tags: creative, film, film-emulation, hald-clut, natron, png, cool, cube
# LUTr-Transform-Class: film-emulation
# LUTr-Input-Color-Space: srgb
# LUTr-Output-Color-Space: srgb
# LUTr-Color-Space-Confidence: assumed-display-referred
# LUTr-Conversion-Method: PNG LUT image decoded at 16-bit and sampled to 25x25x25 3D CUBE
# LUTr-Conversion-Date: 2026-07-27
# LUTr-Conversion-Tool: LUTr scripts/convert-all-to-cube.mjs
# LUTr-Conversion-Grid: 25x25x25
# LUTr-Note: Preserve this metadata and the upstream license notices when redistributing.
TITLE "fuji fp-100c cool --"
LUT_3D_SIZE 25
DOMAIN_MIN 0 0 0
DOMAIN_MAX 1 1 1
0 0 0
0.018137255 0.006372549 0.006372549
0.037254902 0.0078431373 0.010784314
0.054411765 0.011764706 0.0078431373
0.078431373 0.011764706 0.0039215686
0.12352941 0.011764706 0.0078431373
0.16862745 0.0088235294 0.011764706
0.2127451 0.0039215686 0.013235294
0.27843137 0.0039215686 0.023529412
0.34264706 0.0078431373 0.033823529
0.40196078 0.0068627451 0.048039216
0.46372549 0.0039215686 0.040196078
0.5254902 0.0039215686 0.025490196
0.58676471 0 0.01127451
0.63823529 0 0.010784314
0.68970588 0 0.019607843
0.7372549 0 0.02745098
0.78235294 0 0.031372549
0.82352941 0.0039215686 0.035294118
0.86127451 0.0039215686 0.035784314
0.89607843 0.0078431373 0.025490196
0.92696078 0.0078431373 0.015686275
0.95784314 0.0078431373 0.0088235294
0.98578431 0.028431373 0.0039215686
0.99607843 0.082352941 0
0.0039215686 0.024509804 0.0078431373
0.015134804 0.020588235 0.013296569
0.033333333 0.020955882 0.014215686
0.053921569 0.024203431 0.010294118
0.082352941 0.026960784 0.006372549
0.12775735 0.024509804 0.014215686
0.17438725 0.024509804 0.01752451
0.22156863 0.016666667 0.011764706
0.28088235 0.011764706 0.014705882
0.34411765 0.011764706 0.024448529
0.41115196 0.0074754902 0.033823529
0.47401961 0.0039215686 0.033333333
0.53578431 0.0039215686 0.021568627
0.59313725 0.0060661765 0.011580882
0.64460784 0.0028186275 0.011397059
0.69515931 0 0.016237745
0.74362745 0 0.021078431
0.78627451 0.0039215686 0.026531863
0.82708333 0.0039215686 0.028921569
0.86341912 0.0039215686 0.025490196
0.89607843 0.0066176471 0.019117647
0.92959559 0.0039215686 0.013051471
0.96176471 0.0020833333 0.006004902
0.98970588 0.01807598 0
0.99852941 0.08627451 0
0.0039215686 0.049019608 0.011764706
0.014215686 0.042647059 0.019117647
0.028431373 0.038235294 0.024264706
0.054289216 0.048529412 0.019730392
0.08872549 0.051470588 0.016176471
0.1314951 0.045710784 0.019607843
0.18039216 0.040196078 0.017401961
0.23296569 0.032843137 0.014215686
0.2872549 0.021568627 0.0078431373
0.35147059 0.014215686 0.013235294
0.42181373 0.010784314 0.024509804
0.48431373 0.0087009804 0.023897059
0.54607843 0.012745098 0.017647059
0.60245098 0.011397059 0.014705882
0.65098039 0.0080882353 0.011519608
0.70208333 0.0024509804 0.011764706
0.75 0 0.014705882
0.79117647 0.0039215686 0.018627451
0.82818627 0.0071078431 0.018627451
0.86605392 0.0039215686 0.015196078
0.9 0.0039215686 0.010784314
0.93088235 0.0089460784 0.006495098
0.96470588 0.015196078 0.0039215686
0.98970588 0.053063725 0
1 0.13235294 0
0.0039215686 0.073039216 0.011764706
0.012071078 0.066973039 0.022058824
0.025490196 0.06875 0.023039216
0.05 0.076470588 0.012745098
0.086764706 0.080882353 0.012254902
0.13529412 0.084742647 0.020036765
0.18982843 0.087745098 0.019607843
0.24215686 0.076960784 0.014215686
0.29754902 0.06372549 0.0078431373
0.36519608 0.057352941 0.014031863
0.43235294 0.042156863 0.024387255
0.4911152 0.029840686 0.023529412
0.55269608 0.023039216 0.01372549
0.60980392 0.015625 0.0044117647
0.65870098 0.012622549 0.0069852941
0.70882353 0.0045955882 0.0078431373
0.75637255 0 0.0083333333
0.79558824 0.0026348039 0.0083333333
0.83125 0.010416667 0.010906863
0.86862745 0.0039215686 0.0049019608
0.90392157 0.0019607843 0.0022058824
0.93480392 0.035232843 0.0039215686
0.96568627 0.079044118 0.0013480392
0.98578431 0.13106618 0
0.99264706 0.16421569 0
0 0.094117647 0.0058823529
0.010294118 0.10563725 0.026470588
0.023039216 0.10931373 0.026470588
0.040196078 0.10416667 0.0029411765
0.088235294 0.11568627 0.0098039216
0.14191176 0.12598039 0.020098039
0.19656863 0.12941176 0.020588235
0.25245098 0.12598039 0.011029412
0.31176471 0.11568627 0.0058823529
0.37990196 0.11764706 0.014215686
0.4495098 0.10882353 0.024509804
0.51127451 0.093137255 0.024019608
0.56764706 0.066666667 0.01372549
0.62009804 0.038970588 0
0.66764706 0.037254902 0.0019607843
0.71323529 0.032598039 0.0058823529
0.7627451 0.025490196 0.0098039216
0.79803922 0.032598039 0.0078431373
0.83333333 0.038235294 0.0068627451
0.87254902 0.041176471 0.0039215686
0.90784314 0.055882353 0
0.94093137 0.10196078 0.0017156863
0.9754902 0.14166667 0
0.98431373 0.16887255 0.00073529412
0.98823529 0.18431373 0.0039215686
0 0.14362745 0.0083333333
0.006372549 0.15214461 0.020098039
0.020098039 0.15539216 0.017279412
0.026470588 0.15153186 0.0083333333
0.063235294 0.16078431 0.01372549
0.12261029 0.17064951 0.020036765
0.18517157 0.17107843 0.016544118
0.25245098 0.17107843 0.006372549
0.32156863 0.17107843 0.0039215686
0.39362745 0.17530637 0.0099877451
0.4622549 0.1754902 0.01875
0.53131127 0.16813725 0.019117647
0.5872549 0.14460784 0.0098039216
0.63382353 0.125 0.0039215686
0.67806373 0.11764706 0.0039215686
0.72941176 0.11764706 0.0026348039
0.77647059 0.11764706 0.00049019608
0.81127451 0.11764706 0.0044117647
0.84227941 0.11764706 0.0078431373
0.87738971 0.125 0.0078431373
0.91176471 0.13921569 0.0039215686
0.94264706 0.17738971 0.0039828431
0.97058824 0.20098039 0.0074754902
0.98431373 0.21617647 0.0039215686
0.98431373 0.22205882 0.0039215686
0.0039215686 0.19607843 0.011764706
0.006372549 0.20183824 0.015686275
0.012009804 0.20392157 0.015441176
0.0098039216 0.20294118 0.014705882
0.025490196 0.20588235 0.015686275
0.091789216 0.21531863 0.016666667
0.16421569 0.22352941 0.013970588
0.23688725 0.22585784 0.006372549
0.31764706 0.22941176 0.0039215686
0.39252451 0.23333333 0.006372549
0.46960784 0.23406863 0.0078431373
0.5442402 0.2307598 0.0058823529
0.60441176 0.21813725 0.0044117647
0.64803922 0.20735294 0.0039215686
0.69142157 0.19705882 0.0039215686
0.73713235 0.19607843 0.0050245098
0.77647059 0.19313725 0.0068627451
0.81482843 0.19607843 0.017156863
0.84901961 0.19779412 0.013970588
0.88345588 0.20343137 0.0078431373
0.91470588 0.22009804 0.0039215686
0.94227941 0.24178922 0.01127451
0.96666667 0.25906863 0.015686275
0.98186275 0.27610294 0.0093137255
0.99117647 0.28431373 0.0039215686
0 0.24509804 0.011764706
0.0024509804 0.2504902 0.013296569
0 0.25723039 0.018504902
0 0.25459559 0.014215686
0.0071078431 0.25392157 0.015686275
0.069607843 0.26666667 0.015686275
0.14460784 0.27585784 0.011764706
0.22598039 0.28241422 0.0078431373
0.30833333 0.2872549 0.0039215686
0.38731618 0.28970588 0.0039215686
0.46421569 0.28909314 0.0039215686
0.53841912 0.28578431 0.00030637255
0.60563725 0.28259804 0
0.6557598 0.27959559 0.0039215686
0.70747549 0.27512255 0.0039215686
0.75098039 0.27303922 0.0039215686
0.78431373 0.27058824 0.0093137255
0.81819853 0.27156863 0.018137255
0.85392157 0.27303922 0.02254902
0.88872549 0.27677696 0.0088235294
0.91764706 0.28529412 0.0073529412
0.93854167 0.29822304 0.017647059
0.96127451 0.31335784 0.020588235
0.97941176 0.33094363 0.011764706
0.99607843 0.34460784 0.0039215686
0 0.30196078 0.0078431373
0 0.30588235 0.0078431373
0 0.30980392 0.0078431373
0 0.30980392 0.01127451
0.0058823529 0.30980392 0.015686275
0.033823529 0.31421569 0.015196078
0.10490196 0.32156863 0.0078431373
0.20294118 0.33088235 0.0039215686
0.29803922 0.3372549 0.0039215686
0.38431373 0.34509804 0
0.45686275 0.34117647 0
0.52205882 0.3377451 0
0.58823529 0.3372549 0
0.64607843 0.3372549 0.0034313725
0.70784314 0.34117647 0
0.75735294 0.34117647 0.0014705882
0.78823529 0.3372549 0.011764706
0.81911765 0.3372549 0.018137255
0.85490196 0.3372549 0.021568627
0.88872549 0.34117647 0.011764706
0.91568627 0.34509804 0.017647059
0.94215686 0.35392157 0.031372549
0.9627451 0.37058824 0.031372549
0.97941176 0.38186275 0.020588235
0.99215686 0.39215686 0.0078431373
0 0.36372549 0.0014705882
0 0.36427696 0.0014705882
0 0.36519608 0.0020833333
0.0034313725 0.3627451 0.0078431373
0.0039215686 0.36127451 0.0093137255
0.00625 0.36127451 0.0053921569
0.057352941 0.36568627 0.0020833333
0.16476716 0.37205882 0.0039215686
0.26960784 0.38235294 0.0014705882
0.36464461 0.38719363 0
0.44080882 0.38982843 0
0.50833333 0.38658088 0
0.57598039 0.38480392 0
0.63578431 0.38627451 0
0.69571078 0.38872549 0
0.74460784 0.39264706 0.0014705882
0.78431373 0.39264706 0.0053921569
0.81911765 0.39264706 0.012683824
0.85392157 0.39901961 0.015686275
0.88480392 0.4004902 0.021752451
0.91568627 0.40490196 0.029166667
0.94234069 0.4127451 0.038112745
0.9627451 0.41911765 0.033823529
0.97941176 0.42941176 0.021139706
0.99215686 0.43578431 0.0078431373
0 0.41568627 0
0 0.41384804 0
0 0.41176471 0.0041666667
0 0.40784314 0.0074754902
0.0019607843 0.40441176 0.0058823529
0.0040441176 0.40392157 0.0034313725
0.032352941 0.40686275 0.00073529412
0.1372549 0.41323529 0.0020833333
0.24117647 0.41960784 0.0039215686
0.33431373 0.42598039 0
0.41666667 0.42818627 0
0.49264706 0.43137255 0
0.56568627 0.43382353 0
0.62892157 0.43627451 0
0.68039216 0.43921569 0
0.73186275 0.44129902 0
0.77941176 0.44411765 0
0.81813725 0.44803922 0.006372549
0.84901961 0.45269608 0.016666667
0.8807598 0.45490196 0.026102941
0.91470588 0.45931373 0.034313725
0.94227941 0.46421569 0.026470588
0.9629902 0.47132353 0.023529412
0.98002451 0.47757353 0.013235294
0.99607843 0.4872549 0.0039215686
0 0.45686275 0
0 0.45686275 0.0058823529
0 0.45588235 0.01127451
0 0.4495098 0.01127451
0.0039215686 0.44877451 0.0075980392
0.0082720588 0.44852941 0.0039215686
0.026102941 0.44926471 0.0039215686
0.096875 0.45098039 0.00049019608
0.20980392 0.46078431 0
0.30343137 0.46470588 0
0.38933824 0.46862745 0
0.47156863 0.47254902 0
0.54803922 0.47843137 0
0.61127451 0.48039216 0
0.6627451 0.48345588 0
0.71060049 0.48431373 0
0.76176471 0.48823529 0
0.80655637 0.49215686 0.0026348039
0.84215686 0.49607843 0.0093137255
0.87352941 0.49908088 0.019607843
0.90808824 0.50588235 0.020588235
0.93964461 0.51525735 0.016605392
0.96666667 0.51948529 0.012254902
0.98333333 0.52843137 0.0065563725
0.99607843 0.53529412 0.0034313725
0 0.49607843 0.0058823529
0 0.49926471 0.012254902
0 0.49803922 0.017156863
0 0.49436275 0.012254902
0.0039215686 0.49019608 0.0098039216
0.0039215686 0.49019608 0.0056372549
0.00049019608 0.48627451 0.00098039216
0.060784314 0.48970588 0
0.17843137 0.49607843 0
0.27769608 0.50318627 0
0.36470588 0.51029412 0
0.44534314 0.51372549 0
0.51862745 0.51764706 0
0.58504902 0.51593137 0
0.63823529 0.52107843 0
0.6870098 0.52426471 0
0.7372549 0.52745098 0
0.7872549 0.53186275 0
0.83676471 0.53382353 0.0029411765
0.87107843 0.54068627 0.0093137255
0.90196078 0.54901961 0.0098039216
0.93676471 0.55735294 0.0078431373
0.96764706 0.56421569 0.0073529412
0.98578431 0.57254902 0.012990196
0.99607843 0.57647059 0.011764706
0 0.54313725 0.016666667
0 0.54313725 0.020098039
0 0.54178922 0.01997549
0 0.53572304 0.012254902
0.0041666667 0.53137255 0.0095588235
0.0079044118 0.52745098 0.0039215686
0.015196078 0.52708333 0.0039215686
0.048345588 0.52696078 0
0.14754902 0.53088235 0
0.25177696 0.53743873 0
0.33982843 0.54669118 0
0.41911765 0.5504902 0
0.49117647 0.55269608 0
0.55790441 0.55140931 0
0.61237745 0.55747549 0
0.66697304 0.56011029 0
0.71666667 0.56617647 0
0.76862745 0.56881127 0
0.82352941 0.57022059 0
0.86464461 0.57745098 0.0034313725
0.89558824 0.58406863 0.0098039216
0.92647059 0.59068627 0.012254902
0.95441176 0.60355392 0.015686275
0.98431373 0.61341912 0.010294118
1 0.61764706 0.01127451
0 0.58431373 0.030392157
0 0.58431373 0.028553922
0 0.57720588 0.02254902
0 0.57267157 0.0096813725
0.0044117647 0.56862745 0.0078431373
0.011887255 0.56556373 0.0039215686
0.016421569 0.5625 0.0039215686
0.023161765 0.55784314 0
0.1127451 0.56470588 0
0.21960784 0.57205882 0
0.31887255 0.57843137 0
0.39460784 0.58137255 0
0.46715686 0.58529412 0
0.53125 0.58566176 0
0.58823529 0.59142157 0
0.64963235 0.59644608 0
0.70294118 0.60098039 0
0.75502451 0.60098039 0
0.80686275 0.60490196 0
0.85098039 0.60870098 0.0034313725
0.88529412 0.61666667 0.0098039216
0.91617647 0.625 0.015686275
0.94632353 0.63529412 0.015686275
0.97696078 0.64558824 0.011397059
0.99607843 0.65196078 0.011764706
0 0.62156863 0.035294118
0 0.62064951 0.032843137
0 0.61666667 0.018627451
0 0.61029412 0.0083333333
0.0039215686 0.60588235 0.0039215686
0.0081495098 0.60177696 0.0039215686
0.010294118 0.59803922 0
0.014767157 0.59411765 0
0.1004902 0.59803922 0
0.20827206 0.60349265 0
0.30882353 0.60931373 0
0.37726716 0.6122549 0
0.44632353 0.61617647 0
0.51127451 0.62028186 0
0.57303922 0.62512255 0
0.63480392 0.63033088 0
0.69117647 0.63186275 0
0.74019608 0.63578431 0
0.79166667 0.63786765 0
0.83952206 0.64313725 0
0.87573529 0.6495098 0.0071078431
0.90735294 0.65588235 0.012254902
0.93823529 0.66617647 0.015686275
0.96911765 0.67647059 0.013296569
0.99068627 0.68284314 0.011764706
0 0.65490196 0.035294118
0 0.65490196 0.031372549
0 0.65490196 0.018627451
0 0.65098039 0.0044117647
0.0039215686 0.64509804 0
0.0078431373 0.63921569 0.0039215686
0.0049019608 0.63529412 0.00098039216
0.0024509804 0.63137255 0
0.090196078 0.63137255 0
0.20490196 0.63529412 0.0014705882
0.30490196 0.64313725 0
0.37352941 0.64656863 0
0.43921569 0.65098039 0
0.50490196 0.65490196 0.0034313725
0.5627451 0.65882353 0
0.61911765 0.6627451 0
0.6745098 0.66666667 0
0.72598039 0.66666667 0
0.77745098 0.67058824 0
0.82892157 0.6745098 0
0.86862745 0.68039216 0.0039215686
0.9 0.68676471 0.0083333333
0.93431373 0.69705882 0.011764706
0.96519608 0.70735294 0.011764706
0.98823529 0.71372549 0.011764706
0 0.68970588 0.028921569
0 0.68970588 0.025
0 0.68970588 0.018627451
0 0.68823529 0.0047181373
0.0058823529 0.68308824 0.0031862745
0.012254902 0.67990196 0.0078431373
0.015686275 0.67463235 0.0078431373
0.012683824 0.6716299 0.0024509804
0.10441176 0.67009804 0.0039215686
0.21372549 0.67254902 0.0039215686
0.30453431 0.67463235 0.0018382353
0.36727941 0.68008578 0
0.43014706 0.68382353 0
0.49430147 0.68970588 0.0012867647
0.55061275 0.69264706 0
0.60545343 0.69509804 0
0.65784314 0.69754902 0
0.71176471 0.70147059 0
0.76323529 0.70428922 0
0.81256127 0.7091299 0
0.85784314 0.71568627 0.00073529412
0.89705882 0.7213848 0.0041053922
0.93039216 0.72855392 0.0078431373
0.96127451 0.73823529 0.010232843
0.98431373 0.74460784 0.011764706
0 0.7245098 0.014705882
0 0.7245098 0.017156863
0 0.7254902 0.019607843
0 0.72463235 0.012254902
0.0039215686 0.72156863 0.012745098
0.0073529412 0.71764706 0.0039215686
0.014705882 0.71446078 0.0068627451
0.018382353 0.70980392 0.0037990196
0.14313725 0.70882353 0.0049019608
0.23615196 0.70943627 0.0050245098
0.3120098 0.7127451 0.0078431373
0.3745098 0.71629902 0.0039215686
0.43039216 0.71764706 0.0039215686
0.48578431 0.72071078 0
0.54019608 0.7245098 0.00073529412
0.59595588 0.72879902 0.00098039216
0.65098039 0.73333333 0.00098039216
0.69963235 0.7372549 0.00036764706
0.74901961 0.74117647 0
0.79963235 0.74852941 0
0.84215686 0.75294118 0
0.88333333 0.75992647 0.0039215686
0.9247549 0.76446078 0.0039215686
0.96127451 0.77193627 0.0072303922
0.98431373 0.77941176 0.0078431373
0 0.75931373 0.00098039216
0 0.75931373 0.014215686
0 0.75931373 0.01875
0 0.75974265 0.015686275
0.0039215686 0.75882353 0.029901961
0.0034313725 0.75833333 0.017218137
0.011151961 0.75490196 0.010784314
0.065012255 0.753125 0.022671569
0.17009804 0.74705882 0.017647059
0.25931373 0.74705882 0.021262255
0.32647059 0.75098039 0.017279412
0.38480392 0.75140931 0.0014093137
0.44436275 0.75490196 0
0.49957108 0.75931373 0.0039215686
0.54840686 0.7627451 0.0073529412
0.5995098 0.76685049 0.0073529412
0.65098039 0.77058824 0.0073529412
0.69607843 0.77696078 0.0036151961
0.74215686 0.78235294 0
0.78676471 0.78627451 0
0.82794118 0.79240196 0
0.87303922 0.79810049 0.00049019608
0.91813725 0.80232843 0.0039215686
0.9591299 0.80765931 0.0039215686
0.98823529 0.81372549 0.0039215686
0 0.8 0.066666667
0.0039215686 0.80122549 0.071813725
0.0039215686 0.80196078 0.064215686
0.006127451 0.80196078 0.066176471
0.0098039216 0.80392157 0.088235294
0.0078431373 0.8 0.075735294
0.019607843 0.79656863 0.062745098
0.1 0.79460784 0.059068627
0.22156863 0.79019608 0.066666667
0.29436275 0.78823529 0.054411765
0.35196078 0.78823529 0.043627451
0.40735294 0.78823529 0.018872549
0.45882353 0.79411765 0.0098039216
0.51029412 0.8002451 0.0080882353
0.56176471 0.80392157 0.011764706
0.60857843 0.80784314 0.0098039216
0.65490196 0.81176471 0.0098039216
0.69803922 0.81568627 0.0098039216
0.74313725 0.82058824 0.0053921569
0.78431373 0.8252451 0.0039215686
0.82647059 0.83039216 0.0019607843
0.87058824 0.83553922 0.0019607843
0.91372549 0.84068627 0.00049019608
0.95490196 0.84387255 0
0.99411765 0.84901961 0
0 0.84509804 0.12843137
0.0090073529 0.84540441 0.13805147
0.011397059 0.84546569 0.13615196
0.01004902 0.84515931 0.13682598
0.019362745 0.84509804 0.13848039
0.015502451 0.84509804 0.12990196
0.10992647 0.84129902 0.12941176
0.19834559 0.8377451 0.12892157
0.28578431 0.83382353 0.12990196
0.35098039 0.83333333 0.14411765
0.40477941 0.83333333 0.14767157
0.45539216 0.83333333 0.11660539
0.49411765 0.8372549 0.075490196
0.52984069 0.84074755 0.047487745
0.57352941 0.84375 0.023897059
0.61568627 0.8463848 0.012745098
0.65931373 0.84901961 0.016176471
0.70704657 0.85539216 0.024203431
0.74914216 0.86041667 0.0098039216
0.79068627 0.86421569 0.0077818627
0.83186275 0.86838235 0.012254902
0.87647059 0.87205882 0.0078431373
0.91421569 0.87634804 0.0039215686
0.95490196 0.88008578 0.0017769608
0.9877451 0.88382353 0.0083333333
0.05 0.88627451 0.20196078
0.050612745 0.89019608 0.21066176
0.054411765 0.88995098 0.20661765
0.082598039 0.88933824 0.21017157
0.11911765 0.88627451 0.21666667
0.1682598 0.88627451 0.22254902
0.23504902 0.88553922 0.21936275
0.30220588 0.88235294 0.21041667
0.35686275 0.88137255 0.21862745
0.41384804 0.87781863 0.23529412
0.46102941 0.87745098 0.24117647
0.50294118 0.8745098 0.21948529
0.53872549 0.87843137 0.18333333
0.57009804 0.87843137 0.15588235
0.60416667 0.88235294 0.12205882
0.64007353 0.88627451 0.095955882
0.67941176 0.89019608 0.066666667
0.71862745 0.89411765 0.03872549
0.75906863 0.89901961 0.013970588
0.80098039 0.90196078 0.016176471
0.84068627 0.90637255 0.020588235
0.88296569 0.9067402 0.014705882
0.92058824 0.9129902 0.0039215686
0.95845588 0.91470588 0.0039215686
0.98137255 0.91470588 0.014705882
0.22745098 0.93137255 0.30735294
0.24865196 0.93529412 0.31427696
0.26605392 0.93382353 0.30833333
0.28762255 0.93351716 0.31488971
0.3002451 0.93137255 0.31666667
0.31519608 0.92892157 0.31697304
0.3689951 0.92745098 0.31666667
0.40588235 0.92745098 0.31666667
0.44068627 0.92352941 0.32058824
0.48284314 0.92015931 0.32849265
0.52009804 0.91960784 0.33051471
0.55441176 0.91960784 0.32892157
0.58504902 0.91838235 0.29656863
0.61145833 0.91960784 0.28370098
0.64546569 0.92352941 0.26568627
0.67696078 0.92745098 0.24564951
0.71029412 0.93137255 0.22107843
0.74509804 0.93290441 0.19895833
0.77941176 0.93590686 0.17389706
0.81666667 0.93921569 0.14754902
0.85196078 0.94436275 0.078431373
0.88939951 0.93939951 0.056801471
0.92696078 0.94669118 0.020343137
0.9627451 0.9495098 0.0025735294
0.98578431 0.95098039 0.017156863
0.4 0.97254902 0.40392157
0.41029412 0.97254902 0.41176471
0.41568627 0.97254902 0.40784314
0.42696078 0.97254902 0.41176471
0.41960784 0.96666667 0.4
0.44558824 0.96911765 0.40490196
0.46568627 0.96568627 0.40098039
0.48284314 0.96078431 0.39901961
0.5254902 0.96862745 0.41960784
0.54215686 0.96078431 0.40931373
0.56666667 0.95686275 0.40784314
0.60196078 0.96029412 0.41862745
0.62941176 0.95882353 0.40588235
0.65245098 0.95686275 0.39264706
0.68627451 0.96372549 0.39607843
0.71666667 0.96715686 0.4004902
0.74117647 0.96470588 0.36862745
0.77352941 0.97009804 0.36568627
0.80294118 0.96960784 0.33823529
0.8377451 0.97647059 0.34215686
0.87254902 0.97843137 0.31568627
0.90294118 0.97647059 0.2622549
0.9372549 0.97941176 0.24411765
0.96715686 0.98137255 0.16813725
0.99215686 0.98431373 0.1372549
0.0039215686 0.010294118 0.028431373
0.019669118 0.0078431373 0.025428922
0.037254902 0.0078431373 0.024509804
0.057843137 0.01127451 0.024509804
0.08872549 0.01372549 0.025735294
0.12990196 0.018137255 0.026654412
0.17144608 0.01127451 0.023406863
0.21427696 0.003002451 0.019669118
0.27843137 0.006372549 0.029901961
0.34203431 0.0078431373 0.042034314
0.40196078 0.0039215686 0.052818627
0.46372549 0.0039215686 0.043627451
0.5254902 0.00073529412 0.028676471
0.58284314 0 0.013419118
0.63762255 0 0.013235294
0.68823529 0 0.023529412
0.7372549 0 0.031372549
0.78235294 0 0.034742647
0.82352941 0 0.03627451
0.86127451 0.0039215686 0.035784314
0.89485294 0.0078431373 0.026715686
0.92696078 0.012071078 0.021568627
0.95539216 0.021813725 0.015196078
0.97996324 0.043688725 0.0054534314
0.99852941 0.072058824 0
0.009375 0.020588235 0.025428922
0.015134804 0.021507353 0.024509804
0.031632966 0.022058824 0.023360907
0.057582721 0.024318321 0.024509804
0.08995098 0.024509804 0.024509804
0.13008578 0.027090993 0.022173713
0.17438725 0.023039216 0.022564338
0.22606464 0.017241115 0.023958333
0.28235294 0.010845588 0.027512255
0.34714308 0.011190257 0.034972426
0.4100337 0.0050245098 0.041605392
0.47401961 0.0023897059 0.035784314
0.53501838 0.003002451 0.022487745
0.59313725 0.0060661765 0.014031863
0.64460784 0.001439951 0.018275123
0.69307598 0 0.024486826
0.74117647 0.0039215686 0.029901961
0.78592984 0.0039215686 0.030453431
0.82670037 0.0039215686 0.032061887
0.86207874 0.0039215686 0.029227941
0.89607843 0.0078431373 0.023529412
0.92941176 0.010294118 0.0207644
0.96084559 0.011213235 0.014828431
0.98452053 0.03717065 0.010700061
0.99699755 0.087806373 0.0039828431
0.014215686 0.043014706 0.025980392
0.015134804 0.038403799 0.02265625
0.025030637 0.035232843 0.024417892
0.057889093 0.044653799 0.025980392
0.095343137 0.046629902 0.025245098
0.13203125 0.041789216 0.021829044
0.18223039 0.039215686 0.022058824
0.23823529 0.035064338 0.024509804
0.28970588 0.024019608 0.023039216
0.35238971 0.014215686 0.025061275
0.41801471 0.0044117647 0.028400735
0.47977941 0.0023284314 0.023897059
0.54215686 0.010477941 0.019791667
0.60018382 0.011397059 0.015548407
0.65098039 0.0057291667 0.02310049
0.70208333 0.0023590686 0.028431373
0.74901961 0.0039215686 0.02745098
0.7907935 0.0072916667 0.025229779
0.82818627 0.0078431373 0.023835784
0.86519608 0.0042279412 0.021078431
0.90030637 0.0083333333 0.017769608
0.93154105 0.016421569 0.016590074
0.96495098 0.021936275 0.013020833
0.98909314 0.056510417 0.013112745
0.99607843 0.12193627 0.014828431
0.010477941 0.069301471 0.028125
0.012185968 0.069408701 0.029411765
0.02333027 0.06875 0.028615196
0.055415135 0.07600337 0.024693627
0.093811275 0.080392157 0.025827206
0.14136029 0.08404565 0.025513174
0.19313725 0.084635417 0.025490196
0.24852941 0.078622855 0.026845895
0.3036152 0.066666667 0.023039216
0.36637561 0.052205882 0.020894608
0.42700674 0.032444853 0.023529412
0.49035692 0.02355239 0.023368566
0.55245098 0.022794118 0.016268382
0.61372549 0.01752451 0.0071691176
0.66127451 0.011856618 0.017784926
0.70901501 0.0068704044 0.024816176
0.75637255 0.0060661765 0.024509804
