site/assets/luts/natron-haldclut--kodak2383-constlmap--ac96ee693.cube
# LUTr-Project: LUTr — LUTrepository
# LUTr-Schema-Version: 1
# LUTr-ID: natron-haldclut--kodak2383-constlmap--ac96ee693
# LUTr-Title: kodak2383 constlmap
# LUTr-Collection: Natron HaldCLUT
# LUTr-Collection-ID: natron-haldclut-presets
# LUTr-Source: https://github.com/NatronGitHub/clut
# LUTr-Source-File: submissions/natron-haldclut-presets/print/kodak2383_constlmap.png
# LUTr-Source-Format: PNG
# LUTr-Source-SHA256: f96b51f3f3410494b9ba55d18625b1967180354a08a2bc75aefa8a392848847a
# LUTr-License: CC-BY-SA-4.0
# LUTr-License-URL: https://github.com/NatronGitHub/clut#license
# LUTr-Tags: creative, film, film-emulation, hald-clut, natron, png, cube
# LUTr-Transform-Class: film-emulation
# LUTr-Input-Color-Space: srgb
# LUTr-Output-Color-Space: srgb
# LUTr-Color-Space-Confidence: assumed-display-referred
# LUTr-Conversion-Method: PNG LUT image decoded at 16-bit and sampled to 25x25x25 3D CUBE
# LUTr-Conversion-Date: 2026-07-27
# LUTr-Conversion-Tool: LUTr scripts/convert-all-to-cube.mjs
# LUTr-Conversion-Grid: 25x25x25
# LUTr-Note: Preserve this metadata and the upstream license notices when redistributing.
TITLE "kodak2383 constlmap"
LUT_3D_SIZE 5
DOMAIN_MIN 0 0 0
DOMAIN_MAX 1 1 1
0.011764706 0.0039215686 0.0078431373
0.081372549 0.035294118 0.019607843
0.33529412 0.092156863 0.0098039216
0.52843137 0.13333333 0.00098039216
0.6 0.14509804 0.019607843
0.014705882 0.07254902 0.049019608
0.08627451 0.10220588 0.042156863
0.42303922 0.17745098 0.02745098
0.63921569 0.20269608 0.016666667
0.67941176 0.22745098 0.026470588
0.019607843 0.25882353 0.13921569
0.0014705882 0.32598039 0.094117647
0.56764706 0.47254902 0.011764706
0.82009804 0.53823529 0.028921569
0.85294118 0.55490196 0.0098039216
0.035294118 0.40882353 0.20392157
0.020343137 0.51666667 0.14191176
0.66323529 0.725 0.0078431373
0.92352941 0.79117647 0.095343137
0.96568627 0.81372549 0.10196078
0 0.45882353 0.21960784
0.14607843 0.63039216 0.065686275
0.70392157 0.78039216 0.031372549
0.95882353 0.85490196 0.099019608
0.99215686 0.85882353 0.10980392
0.0078431373 0.030392157 0.076470588
0.087990196 0.042892157 0.095833333
0.37058824 0.04754902 0.082843137
0.58210784 0.046813725 0.071323529
0.63921569 0.055882353 0.095098039
0.026715686 0.088235294 0.1
0.098223039 0.10906863 0.1122549
0.45171569 0.16470588 0.11887255
0.70128676 0.13357843 0.066666667
0.76764706 0.11397059 0.024754902
0.046568627 0.2877451 0.20245098
0.14411765 0.34509804 0.20588235
0.59019608 0.50808824 0.19877451
0.85625 0.55012255 0.12941176
0.92009804 0.58431373 0.0088235294
0.025490196 0.43455882 0.27181373
0.082598039 0.54681373 0.26158088
0.65980392 0.75784314 0.17377451
0.93682598 0.82395833 0.25667892
0.99901961 0.83946078 0.11593137
0.015686275 0.52941176 0.37058824
0.02745098 0.66813725 0.36053922
0.69362745 0.83627451 0.28235294
0.97745098 0.88455882 0.25588235
1 0.88921569 0.37941176
0.015686275 0.11568627 0.23333333
0.075490196 0.017156863 0.31862745
0.38039216 0.031372549 0.36568627
0.60931373 0.024509804 0.38284314
0.65882353 0.047058824 0.39607843
0.032843137 0.16911765 0.27941176
0.049509804 0.15098039 0.35134804
0.47352941 0.18504902 0.44313725
0.73235294 0.12745098 0.45661765
0.78627451 0.11764706 0.47745098
0.052941176 0.36960784 0.41862745
0.20514706 0.43921569 0.4747549
0.5872549 0.56960784 0.57745098
0.89901961 0.5995098 0.57671569
0.95196078 0.6372549 0.58823529
0.0083333333 0.52058824 0.51813725
0.10955882 0.62254902 0.58235294
0.60441176 0.8504902 0.63946078
0.96066176 0.90232843 0.65257353
1 0.91666667 0.67843137
0.0039215686 0.6 0.60392157
0.029411765 0.72401961 0.68382353
0.6254902 0.90098039 0.72352941
0.96470588 0.95882353 0.73529412
1 0.9627451 0.77647059
0 0.16960784 0.34215686
0.0046568627 0.10588235 0.46666667
0.39411765 0.03627451 0.55147059
0.63455882 0.062745098 0.58431373
0.6754902 0.044117647 0.58627451
0.0039215686 0.24142157 0.42254902
0.035232843 0.23419118 0.49822304
0.48480392 0.14963235 0.68333333
0.73370098 0.16764706 0.69093137
0.80269608 0.11348039 0.72843137
0.015196078 0.43137255 0.57401961
0.12732843 0.49227941 0.65379902
0.55465686 0.59583333 0.85661765
0.8877451 0.62941176 0.86544118
0.94509804 0.66519608 0.88578431
0.0017156863 0.59313725 0.67941176
0.15710784 0.68848039 0.76207108
0.55343137 0.88333333 0.91335784
0.94338235 0.94785539 0.93792892
0.99607843 0.96176471 0.93529412
0.019607843 0.65588235 0.73823529
0.066666667 0.76666667 0.83357843
0.56372549 0.92598039 0.93872549
0.93455882 0.98210784 0.95392157
0.99607843 0.99117647 0.95784314
0 0.17647059 0.36470588
0.034313725 0.10588235 0.52058824
0.43921569 0.039215686 0.65294118
0.67156863 0.070588235 0.65882353
0.75294118 0.078431373 0.70980392
0 0.26176471 0.45784314
0.0031862745 0.26544118 0.54509804
0.49901961 0.17303922 0.76372549
0.77941176 0.15588235 0.79534314
0.83431373 0.18627451 0.81176471
0 0.45294118 0.60980392
0.0039215686 0.50686275 0.6995098
0.53627451 0.61666667 0.90686275
0.88284314 0.63627451 0.92794118
0.94313725 0.68039216 0.93921569
0.019607843 0.60098039 0.70294118
0.0046568627 0.68995098 0.7870098
0.50245098 0.89215686 0.96666667
0.93553922 0.94632353 0.98823529
0.99313725 0.9627451 0.99313725
0.0039215686 0.69019608 0.78039216
0.0068627451 0.77352941 0.85980392
0.52941176 0.92941176 0.9745098
0.93823529 0.99215686 1
1 1 1
