site/assets/luts/natron-haldclut--zilverfx-infrared--e6c764718.cube
# LUTr-Project: LUTr — LUTrepository
# LUTr-Schema-Version: 1
# LUTr-ID: natron-haldclut--zilverfx-infrared--e6c764718
# LUTr-Title: zilverfx infrared
# LUTr-Collection: Natron HaldCLUT
# LUTr-Collection-ID: natron-haldclut-presets
# LUTr-Source: https://github.com/NatronGitHub/clut
# LUTr-Source-File: submissions/natron-haldclut-presets/picturefx/zilverfx_infrared.png
# LUTr-Source-Format: PNG
# LUTr-Source-SHA256: 7f66fec3ffadd607d8af04d9f2fef9a64fc5202aecdf813b6dde7d92842272f9
# LUTr-License: CC-BY-SA-4.0
# LUTr-License-URL: https://github.com/NatronGitHub/clut#license
# LUTr-Tags: creative, film, film-emulation, hald-clut, natron, png, cube
# LUTr-Transform-Class: film-emulation
# LUTr-Input-Color-Space: srgb
# LUTr-Output-Color-Space: srgb
# LUTr-Color-Space-Confidence: assumed-display-referred
# LUTr-Conversion-Method: PNG LUT image decoded at 16-bit and sampled to 25x25x25 3D CUBE
# LUTr-Conversion-Date: 2026-07-27
# LUTr-Conversion-Tool: LUTr scripts/convert-all-to-cube.mjs
# LUTr-Conversion-Grid: 25x25x25
# LUTr-Note: Preserve this metadata and the upstream license notices when redistributing.
TITLE "zilverfx infrared"
LUT_3D_SIZE 5
DOMAIN_MIN 0 0 0
DOMAIN_MAX 1 1 1
0.058823529 0.058823529 0.058823529
0.084313725 0.084313725 0.084313725
0.16470588 0.16470588 0.16470588
0.35784314 0.35784314 0.35784314
0.4 0.4 0.4
0.24607843 0.24607843 0.24607843
0.29509804 0.29509804 0.29509804
0.37647059 0.37647059 0.37647059
0.38627451 0.38627451 0.38627451
0.39019608 0.39019608 0.39019608
0.98823529 0.98039216 0.98823529
0.95539216 0.95294118 0.95539216
0.95980392 0.95882353 0.95980392
0.98823529 0.98382353 0.98823529
0.97647059 0.97254902 0.97647059
0.98431373 0.98431373 0.98431373
0.96470588 0.9625 0.96470588
0.97254902 0.96862745 0.97254902
0.98039216 0.97941176 0.98039216
0.97156863 0.96862745 0.97156863
0.97647059 0.97254902 0.97647059
0.98039216 0.98039216 0.98039216
0.98039216 0.98039216 0.98039216
0.97254902 0.96862745 0.97254902
0.96470588 0.96078431 0.96470588
0.030392157 0.030392157 0.030392157
0.030392157 0.030392157 0.030392157
0.05245098 0.05245098 0.05245098
0.2745098 0.2745098 0.2745098
0.31372549 0.31372549 0.31372549
0.080392157 0.080392157 0.080392157
0.13008578 0.13008578 0.13008578
0.16446078 0.16446078 0.16446078
0.29895833 0.29895833 0.29895833
0.3370098 0.3370098 0.3370098
0.97843137 0.97009804 0.97843137
0.9872549 0.97671569 0.9872549
0.9879902 0.98112745 0.9879902
0.98026961 0.97634804 0.98026961
0.9754902 0.97009804 0.9754902
0.96004902 0.95686275 0.96004902
0.9591299 0.95729167 0.9591299
0.97254902 0.97254902 0.97254902
0.96525735 0.96170343 0.96525735
0.94828431 0.94583333 0.94901961
0.96862745 0.96862745 0.96862745
0.98431373 0.98431373 0.98431373
0.98039216 0.98039216 0.98039216
0.95612745 0.95367647 0.95612745
0.94117647 0.9372549 0.94117647
0.047058824 0.049019608 0.047058824
0.047058824 0.047058824 0.047058824
0.038235294 0.038235294 0.038235294
0.025980392 0.025980392 0.025980392
0.0039215686 0.0078431373 0.0078431373
0.033823529 0.033823529 0.033823529
0.045343137 0.045710784 0.045343137
0.039215686 0.039215686 0.039215686
0.020588235 0.020588235 0.020588235
0.012745098 0.012745098 0.012745098
0.45098039 0.45098039 0.45098039
0.4747549 0.4747549 0.4747549
0.56960784 0.56960784 0.56960784
0.55416667 0.55416667 0.55416667
0.66666667 0.66666667 0.66666667
0.9754902 0.96421569 0.9754902
0.95821078 0.95428922 0.95821078
0.98553922 0.97696078 0.98553922
0.95367647 0.94705882 0.95404412
0.9495098 0.94215686 0.9495098
0.96862745 0.96666667 0.96862745
0.97647059 0.9745098 0.97647059
0.96764706 0.96470588 0.96764706
0.96470588 0.95833333 0.96470588
0.95490196 0.94901961 0.95490196
0.054901961 0.054901961 0.054901961
0.062009804 0.062745098 0.062745098
0.058823529 0.058823529 0.058823529
0.03504902 0.03504902 0.03504902
0.015686275 0.015686275 0.015686275
0.042401961 0.042401961 0.042401961
0.051593137 0.051593137 0.051593137
0.054044118 0.054044118 0.054044118
0.0087622549 0.0087622549 0.0087622549
0.0078431373 0.0078431373 0.0078431373
0.018627451 0.018627451 0.018627451
0.028553922 0.028553922 0.028553922
0.02254902 0.02254902 0.02254902
0.010784314 0.010784314 0.010784314
0.022058824 0.022058824 0.022058824
0.74093137 0.74093137 0.74093137
0.69895833 0.6971201 0.69895833
0.72573529 0.72426471 0.72573529
0.91292892 0.91102941 0.91292892
0.82401961 0.82328431 0.82401961
0.98431373 0.98431373 0.98431373
0.97254902 0.97254902 0.97254902
0.97352941 0.97352941 0.97352941
0.96862745 0.96470588 0.96936275
0.96862745 0.96078431 0.96862745
0.054901961 0.054901961 0.054901961
0.058823529 0.058823529 0.058823529
0.039215686 0.039215686 0.039215686
0.014705882 0.014705882 0.014705882
0 0 0
0.050980392 0.050980392 0.050980392
0.050980392 0.050980392 0.050980392
0.037254902 0.037254902 0.037254902
0.010784314 0.010784314 0.010784314
0.011764706 0.011764706 0.011764706
0.041176471 0.041176471 0.041176471
0.03872549 0.03872549 0.03872549
0.024509804 0.024509804 0.024509804
0.0073529412 0.0073529412 0.0073529412
0.015686275 0.015686275 0.015686275
0.42941176 0.42941176 0.42941176
0.33259804 0.33259804 0.33259804
0.062745098 0.062745098 0.062745098
0.024019608 0.024019608 0.024019608
0.0068627451 0.0068627451 0.0068627451
0.75294118 0.75294118 0.75294118
0.75294118 0.75294118 0.75294118
0.74901961 0.74901961 0.74901961
0.80784314 0.80784314 0.80784314
0.98431373 0.98431373 0.98431373
