site/assets/luts/natron-haldclut--rollei-retro-80s--829266177.cube
# LUTr-Project: LUTr — LUTrepository
# LUTr-Schema-Version: 1
# LUTr-ID: natron-haldclut--rollei-retro-80s--829266177
# LUTr-Title: rollei retro 80s
# LUTr-Collection: Natron HaldCLUT
# LUTr-Collection-ID: natron-haldclut-presets
# LUTr-Source: https://github.com/NatronGitHub/clut
# LUTr-Source-File: submissions/natron-haldclut-presets/bw/rollei_retro_80s.png
# LUTr-Source-Format: PNG
# LUTr-Source-SHA256: 5607fbe36346030c6503d164d9e15eed668f19d86276bdfba65627206b895a7f
# LUTr-License: CC-BY-SA-4.0
# LUTr-License-URL: https://github.com/NatronGitHub/clut#license
# LUTr-Tags: creative, film, film-emulation, hald-clut, natron, png, vintage, cube
# LUTr-Transform-Class: film-emulation
# LUTr-Input-Color-Space: srgb
# LUTr-Output-Color-Space: srgb
# LUTr-Color-Space-Confidence: assumed-display-referred
# LUTr-Conversion-Method: PNG LUT image decoded at 16-bit and sampled to 25x25x25 3D CUBE
# LUTr-Conversion-Date: 2026-07-27
# LUTr-Conversion-Tool: LUTr scripts/convert-all-to-cube.mjs
# LUTr-Conversion-Grid: 25x25x25
# LUTr-Note: Preserve this metadata and the upstream license notices when redistributing.
TITLE "rollei retro 80s"
LUT_3D_SIZE 25
DOMAIN_MIN 0 0 0
DOMAIN_MAX 1 1 1
0.0039215686 0.0039215686 0.0039215686
0.0039215686 0.0039215686 0.0039215686
0.0088235294 0.0088235294 0.0088235294
0.015686275 0.015686275 0.015686275
0.023529412 0.023529412 0.023529412
0.03627451 0.03627451 0.03627451
0.052941176 0.052941176 0.052941176
0.065686275 0.065686275 0.065686275
0.078431373 0.078431373 0.078431373
0.095098039 0.095098039 0.095098039
0.11176471 0.11176471 0.11176471
0.13235294 0.13235294 0.13235294
0.16862745 0.16862745 0.16862745
0.20539216 0.20539216 0.20539216
0.24019608 0.24019608 0.24019608
0.27107843 0.27107843 0.27107843
0.31764706 0.31764706 0.31764706
0.3872549 0.3872549 0.3872549
0.45686275 0.45686275 0.45686275
0.52254902 0.52254902 0.52254902
0.58823529 0.58823529 0.58823529
0.65 0.65 0.65
0.70882353 0.70882353 0.70882353
0.76421569 0.76421569 0.76421569
0.81176471 0.81176471 0.81176471
0.010294118 0.010294118 0.010294118
0.010294118 0.010294118 0.010294118
0.012745098 0.012745098 0.012745098
0.021752451 0.021752451 0.021752451
0.027941176 0.027941176 0.027941176
0.039705882 0.039705882 0.039705882
0.053921569 0.053921569 0.053921569
0.068137255 0.068137255 0.068137255
0.080882353 0.080882353 0.080882353
0.096017157 0.096017157 0.096017157
0.11078431 0.11078431 0.11078431
0.12843137 0.12843137 0.12843137
0.16544118 0.16544118 0.16544118
0.20588235 0.20588235 0.20588235
0.24375 0.24375 0.24375
0.27892157 0.27892157 0.27892157
0.33039216 0.33039216 0.33039216
0.39362745 0.39362745 0.39362745
0.45968137 0.45968137 0.45968137
0.525 0.525 0.525
0.59068627 0.59068627 0.59068627
0.65392157 0.65392157 0.65392157
0.71237745 0.71237745 0.71237745
0.76721814 0.76721814 0.76721814
0.80539216 0.80539216 0.80539216
0.015686275 0.015686275 0.015686275
0.015686275 0.015686275 0.015686275
0.017647059 0.017647059 0.017647059
0.027083333 0.027083333 0.027083333
0.034313725 0.034313725 0.034313725
0.043627451 0.043627451 0.043627451
0.053921569 0.053921569 0.053921569
0.068137255 0.068137255 0.068137255
0.082352941 0.082352941 0.082352941
0.097181373 0.097181373 0.097181373
0.1125 0.1125 0.1125
0.12683824 0.12683824 0.12683824
0.16862745 0.16862745 0.16862745
0.20980392 0.20980392 0.20980392
0.24779412 0.24779412 0.24779412
0.29105392 0.29105392 0.29105392
0.34705882 0.34705882 0.34705882
0.40821078 0.40821078 0.40821078
0.46960784 0.46960784 0.46960784
0.53492647 0.53492647 0.53492647
0.59901961 0.59901961 0.59901961
0.6627451 0.6627451 0.6627451
0.72156863 0.72156863 0.72156863
0.76875 0.76875 0.76875
0.80392157 0.80392157 0.80392157
0.019607843 0.019607843 0.019607843
0.019117647 0.019117647 0.019117647
0.024019608 0.024019608 0.024019608
0.031311275 0.031311275 0.031311275
0.040931373 0.040931373 0.040931373
0.04754902 0.04754902 0.04754902
0.054779412 0.054779412 0.054779412
0.06439951 0.06439951 0.06439951
0.082352941 0.082352941 0.082352941
0.10245098 0.10245098 0.10245098
0.11911765 0.11911765 0.11911765
0.14270833 0.14270833 0.14270833
0.17205882 0.17205882 0.17205882
0.20980392 0.20980392 0.20980392
0.24963235 0.24963235 0.24963235
0.30490196 0.30490196 0.30490196
0.36372549 0.36372549 0.36372549
0.42205882 0.42205882 0.42205882
0.48382353 0.48382353 0.48382353
0.54558824 0.54558824 0.54558824
0.61102941 0.61102941 0.61102941
0.67303922 0.67303922 0.67303922
0.72928922 0.72928922 0.72928922
0.76930147 0.76930147 0.76930147
0.8004902 0.8004902 0.8004902
0.025490196 0.025490196 0.025490196
0.025490196 0.025490196 0.025490196
0.030392157 0.030392157 0.030392157
0.038970588 0.038970588 0.038970588
0.047058824 0.047058824 0.047058824
0.053431373 0.053431373 0.053431373
0.060784314 0.060784314 0.060784314
0.066176471 0.066176471 0.066176471
0.088235294 0.088235294 0.088235294
0.11127451 0.11127451 0.11127451
0.13333333 0.13333333 0.13333333
0.15563725 0.15563725 0.15563725
0.17843137 0.17843137 0.17843137
0.20980392 0.20980392 0.20980392
0.25980392 0.25980392 0.25980392
0.31666667 0.31666667 0.31666667
0.37647059 0.37647059 0.37647059
0.4370098 0.4370098 0.4370098
0.49803922 0.49803922 0.49803922
0.55980392 0.55980392 0.55980392
0.62156863 0.62156863 0.62156863
0.68308824 0.68308824 0.68308824
0.73382353 0.73382353 0.73382353
0.76053922 0.76053922 0.76053922
0.78627451 0.78627451 0.78627451
0.035784314 0.035784314 0.035784314
0.035784314 0.035784314 0.035784314
0.039705882 0.039705882 0.039705882
0.047058824 0.047058824 0.047058824
0.057107843 0.057107843 0.057107843
0.063664216 0.063664216 0.063664216
0.070098039 0.070098039 0.070098039
0.080085784 0.080085784 0.080085784
0.098529412 0.098529412 0.098529412
0.12126225 0.12126225 0.12126225
0.14362745 0.14362745 0.14362745
0.16421569 0.16421569 0.16421569
0.18872549 0.18872549 0.18872549
0.21819853 0.21819853 0.21819853
0.27009804 0.27009804 0.27009804
0.32910539 0.32910539 0.32910539
0.38872549 0.38872549 0.38872549
0.44785539 0.44785539 0.44785539
0.50833333 0.50833333 0.50833333
0.56960784 0.56960784 0.56960784
0.62769608 0.62769608 0.62769608
0.68572304 0.68572304 0.68572304
0.73431373 0.73431373 0.73431373
0.76568627 0.76568627 0.76568627
0.78480392 0.78480392 0.78480392
0.043137255 0.043137255 0.043137255
0.04497549 0.04497549 0.04497549
0.047058824 0.047058824 0.047058824
0.054779412 0.054779412 0.054779412
0.06372549 0.06372549 0.06372549
0.070955882 0.070955882 0.070955882
0.078186275 0.078186275 0.078186275
0.088235294 0.088235294 0.088235294
0.10882353 0.10882353 0.10882353
0.12941176 0.12941176 0.12941176
0.15098039 0.15098039 0.15098039
0.17414216 0.17414216 0.17414216
0.2 0.2 0.2
0.23272059 0.23272059 0.23272059
0.28333333 0.28333333 0.28333333
0.33909314 0.33909314 0.33909314
0.39607843 0.39607843 0.39607843
0.45686275 0.45686275 0.45686275
0.51470588 0.51470588 0.51470588
0.57389706 0.57389706 0.57389706
0.63284314 0.63284314 0.63284314
0.68909314 0.68909314 0.68909314
0.73651961 0.73651961 0.73651961
0.77058824 0.77058824 0.77058824
0.80196078 0.80196078 0.80196078
0.05245098 0.05245098 0.05245098
0.05245098 0.05245098 0.05245098
0.055269608 0.055269608 0.055269608
0.06372549 0.06372549 0.06372549
0.070098039 0.070098039 0.070098039
0.076470588 0.076470588 0.076470588
0.085294118 0.085294118 0.085294118
0.097058824 0.097058824 0.097058824
0.11519608 0.11519608 0.11519608
0.13578431 0.13578431 0.13578431
0.15637255 0.15637255 0.15637255
0.18069853 0.18069853 0.18069853
0.21519608 0.21519608 0.21519608
0.24852941 0.24852941 0.24852941
0.3 0.3 0.3
0.35447304 0.35447304 0.35447304
0.40686275 0.40686275 0.40686275
0.46323529 0.46323529 0.46323529
0.52107843 0.52107843 0.52107843
0.58137255 0.58137255 0.58137255
0.64068627 0.64068627 0.64068627
0.69803922 0.69803922 0.69803922
0.73970588 0.73970588 0.73970588
0.78045343 0.78045343 0.78045343
0.81715686 0.81715686 0.81715686
0.058823529 0.058823529 0.058823529
0.058823529 0.058823529 0.058823529
0.06372549 0.06372549 0.06372549
0.070098039 0.070098039 0.070098039
0.078431373 0.078431373 0.078431373
0.082843137 0.082843137 0.082843137
0.089215686 0.089215686 0.089215686
0.10098039 0.10098039 0.10098039
0.12156863 0.12156863 0.12156863
0.14215686 0.14215686 0.14215686
0.1627451 0.1627451 0.1627451
0.19068627 0.19068627 0.19068627
0.2254902 0.2254902 0.2254902
0.26519608 0.26519608 0.26519608
0.31666667 0.31666667 0.31666667
0.36813725 0.36813725 0.36813725
0.41960784 0.41960784 0.41960784
0.47107843 0.47107843 0.47107843
0.53039216 0.53039216 0.53039216
0.58921569 0.58921569 0.58921569
0.64705882 0.64705882 0.64705882
0.70833333 0.70833333 0.70833333
0.74901961 0.74901961 0.74901961
0.79019608 0.79019608 0.79019608
0.82745098 0.82745098 0.82745098
0.066666667 0.066666667 0.066666667
0.066666667 0.066666667 0.066666667
0.070098039 0.070098039 0.070098039
0.076654412 0.076654412 0.076654412
0.087990196 0.087990196 0.087990196
0.093137255 0.093137255 0.093137255
0.099509804 0.099509804 0.099509804
0.11372549 0.11372549 0.11372549
0.13186275 0.13186275 0.13186275
0.15 0.15 0.15
0.17009804 0.17009804 0.17009804
0.20098039 0.20098039 0.20098039
0.23382353 0.23382353 0.23382353
0.27579657 0.27579657 0.27579657
0.33088235 0.33088235 0.33088235
0.38235294 0.38235294 0.38235294
0.43382353 0.43382353 0.43382353
0.48529412 0.48529412 0.48529412
0.53958333 0.53958333 0.53958333
0.59577206 0.59577206 0.59577206
0.65294118 0.65294118 0.65294118
0.71078431 0.71078431 0.71078431
0.7557598 0.7557598 0.7557598
0.79411765 0.79411765 0.79411765
0.82990196 0.82990196 0.82990196
0.076470588 0.076470588 0.076470588
0.076470588 0.076470588 0.076470588
0.07745098 0.07745098 0.07745098
0.087745098 0.087745098 0.087745098
0.098039216 0.098039216 0.098039216
0.10735294 0.10735294 0.10735294
0.11544118 0.11544118 0.11544118
0.13002451 0.13002451 0.13002451
0.14705882 0.14705882 0.14705882
0.16482843 0.16482843 0.16482843
0.18529412 0.18529412 0.18529412
0.21875 0.21875 0.21875
0.25098039 0.25098039 0.25098039
0.29068627 0.29068627 0.29068627
0.34117647 0.34117647 0.34117647
0.39264706 0.39264706 0.39264706
0.44411765 0.44411765 0.44411765
0.49840686 0.49840686 0.49840686
0.55490196 0.55490196 0.55490196
0.60257353 0.60257353 0.60257353
0.65539216 0.65539216 0.65539216
0.71360294 0.71360294 0.71360294
0.76470588 0.76470588 0.76470588
0.79865196 0.79865196 0.79865196
0.83137255 0.83137255 0.83137255
0.093627451 0.093627451 0.093627451
0.095772059 0.095772059 0.095772059
0.097181373 0.097181373 0.097181373
0.10441176 0.10441176 0.10441176
0.11470588 0.11470588 0.11470588
0.12457108 0.12457108 0.12457108
0.13186275 0.13186275 0.13186275
0.1473652 0.1473652 0.1473652
0.16372549 0.16372549 0.16372549
0.18088235 0.18088235 0.18088235
0.20588235 0.20588235 0.20588235
0.23676471 0.23676471 0.23676471
0.27156863 0.27156863 0.27156863
0.31078431 0.31078431 0.31078431
0.35502451 0.35502451 0.35502451
0.40655637 0.40655637 0.40655637
0.46176471 0.46176471 0.46176471
0.51715686 0.51715686 0.51715686
0.57254902 0.57254902 0.57254902
0.62015931 0.62015931 0.62015931
0.66593137 0.66593137 0.66593137
0.71966912 0.71966912 0.71966912
0.77205882 0.77205882 0.77205882
0.80784314 0.80784314 0.80784314
0.83872549 0.83872549 0.83872549
0.11372549 0.11372549 0.11372549
0.11764706 0.11764706 0.11764706
0.11764706 0.11764706 0.11764706
0.125 0.125 0.125
0.13137255 0.13137255 0.13137255
0.14166667 0.14166667 0.14166667
0.15196078 0.15196078 0.15196078
0.1629902 0.1629902 0.1629902
0.17843137 0.17843137 0.17843137
0.2002451 0.2002451 0.2002451
0.22647059 0.22647059 0.22647059
0.25735294 0.25735294 0.25735294
0.28823529 0.28823529 0.28823529
0.32573529 0.32573529 0.32573529
0.37205882 0.37205882 0.37205882
0.42696078 0.42696078 0.42696078
0.48235294 0.48235294 0.48235294
0.5377451 0.5377451 0.5377451
0.59313725 0.59313725 0.59313725
0.64068627 0.64068627 0.64068627
0.68235294 0.68235294 0.68235294
0.72990196 0.72990196 0.72990196
0.77990196 0.77990196 0.77990196
0.81960784 0.81960784 0.81960784
0.84901961 0.84901961 0.84901961
0.13823529 0.13823529 0.13823529
0.13823529 0.13823529 0.13823529
0.13823529 0.13823529 0.13823529
0.14215686 0.14215686 0.14215686
0.15171569 0.15171569 0.15171569
0.15833333 0.15833333 0.15833333
0.16862745 0.16862745 0.16862745
0.17892157 0.17892157 0.17892157
0.19313725 0.19313725 0.19313725
0.22009804 0.22009804 0.22009804
0.25098039 0.25098039 0.25098039
0.27843137 0.27843137 0.27843137
0.30931373 0.30931373 0.30931373
0.34503676 0.34503676 0.34503676
0.39264706 0.39264706 0.39264706
0.44754902 0.44754902 0.44754902
0.50294118 0.50294118 0.50294118
0.55863971 0.55863971 0.55863971
0.61372549 0.61372549 0.61372549
0.66176471 0.66176471 0.66176471
0.70294118 0.70294118 0.70294118
0.74368873 0.74368873 0.74368873
0.78872549 0.78872549 0.78872549
0.82990196 0.82990196 0.82990196
0.85980392 0.85980392 0.85980392
0.15588235 0.15588235 0.15588235
0.15588235 0.15588235 0.15588235
0.15882353 0.15882353 0.15882353
0.1622549 0.1622549 0.1622549
0.16911765 0.16911765 0.16911765
0.17892157 0.17892157 0.17892157
0.18921569 0.18921569 0.18921569
0.1995098 0.1995098 0.1995098
0.2127451 0.2127451 0.2127451
0.24362745 0.24362745 0.24362745
0.2745098 0.2745098 0.2745098
0.30281863 0.30281863 0.30281863
0.33480392 0.33480392 0.33480392
0.3754902 0.3754902 0.3754902
0.41960784 0.41960784 0.41960784
0.47107843 0.47107843 0.47107843
0.52352941 0.52352941 0.52352941
0.57892157 0.57892157 0.57892157
0.63431373 0.63431373 0.63431373
0.68235294 0.68235294 0.68235294
0.72352941 0.72352941 0.72352941
0.76078431 0.76078431 0.76078431
0.80269608 0.80269608 0.80269608
0.84019608 0.84019608 0.84019608
0.87352941 0.87352941 0.87352941
0.1754902 0.1754902 0.1754902
0.1754902 0.1754902 0.1754902
0.17647059 0.17647059 0.17647059
0.18284314 0.18284314 0.18284314
0.18921569 0.18921569 0.18921569
0.19558824 0.19558824 0.19558824
0.20698529 0.20698529 0.20698529
0.22457108 0.22457108 0.22457108
0.24362745 0.24362745 0.24362745
0.26813725 0.26813725 0.26813725
0.29754902 0.29754902 0.29754902
0.32843137 0.32843137 0.32843137
0.36593137 0.36593137 0.36593137
0.40637255 0.40637255 0.40637255
0.45147059 0.45147059 0.45147059
0.50196078 0.50196078 0.50196078
0.55343137 0.55343137 0.55343137
0.60343137 0.60343137 0.60343137
0.65490196 0.65490196 0.65490196
0.70294118 0.70294118 0.70294118
0.74411765 0.74411765 0.74411765
0.77959559 0.77959559 0.77959559
0.81421569 0.81421569 0.81421569
0.84901961 0.84901961 0.84901961
0.87843137 0.87843137 0.87843137
0.19607843 0.19607843 0.19607843
0.19607843 0.19607843 0.19607843
0.19705882 0.19705882 0.19705882
0.20343137 0.20343137 0.20343137
0.21372549 0.21372549 0.21372549
0.22009804 0.22009804 0.22009804
0.23333333 0.23333333 0.23333333
0.25392157 0.25392157 0.25392157
0.2745098 0.2745098 0.2745098
0.29754902 0.29754902 0.29754902
0.3245098 0.3245098 0.3245098
0.35931373 0.35931373 0.35931373
0.4 0.4 0.4
0.44117647 0.44117647 0.44117647
0.48235294 0.48235294 0.48235294
0.53284314 0.53284314 0.53284314
0.58039216 0.58039216 0.58039216
0.62941176 0.62941176 0.62941176
0.6754902 0.6754902 0.6754902
0.72303922 0.72303922 0.72303922
0.75882353 0.75882353 0.75882353
0.79362745 0.79362745 0.79362745
0.8245098 0.8245098 0.8245098
0.85931373 0.85931373 0.85931373
0.89019608 0.89019608 0.89019608
0.22696078 0.22696078 0.22696078
0.22696078 0.22696078 0.22696078
0.22696078 0.22696078 0.22696078
0.23431373 0.23431373 0.23431373
0.24068627 0.24068627 0.24068627
0.25098039 0.25098039 0.25098039
0.26237745 0.26237745 0.26237745
0.28088235 0.28088235 0.28088235
0.30539216 0.30539216 0.30539216
0.32935049 0.32935049 0.32935049
0.35821078 0.35821078 0.35821078
0.39607843 0.39607843 0.39607843
0.43480392 0.43480392 0.43480392
0.47156863 0.47156863 0.47156863
0.50931373 0.50931373 0.50931373
0.5588848 0.5588848 0.5588848
0.60490196 0.60490196 0.60490196
0.65 0.65 0.65
0.6932598 0.6932598 0.6932598
0.73627451 0.73627451 0.73627451
0.77230392 0.77230392 0.77230392
0.80422794 0.80422794 0.80422794
0.83872549 0.83872549 0.83872549
0.87052696 0.87052696 0.87052696
0.90294118 0.90294118 0.90294118
0.25784314 0.25784314 0.25784314
0.25784314 0.25784314 0.25784314
0.25784314 0.25784314 0.25784314
0.26519608 0.26519608 0.26519608
0.27401961 0.27401961 0.27401961
0.28186275 0.28186275 0.28186275
0.29215686 0.29215686 0.29215686
0.31213235 0.31213235 0.31213235
0.34019608 0.34019608 0.34019608
0.36531863 0.36531863 0.36531863
0.39583333 0.39583333 0.39583333
0.43370098 0.43370098 0.43370098
0.47009804 0.47009804 0.47009804
0.50637255 0.50637255 0.50637255
0.5379902 0.5379902 0.5379902
0.5807598 0.5807598 0.5807598
0.6254902 0.6254902 0.6254902
0.66948529 0.66948529 0.66948529
0.71176471 0.71176471 0.71176471
0.7495098 0.7495098 0.7495098
0.78578431 0.78578431 0.78578431
0.81911765 0.81911765 0.81911765
0.85294118 0.85294118 0.85294118
0.88443627 0.88443627 0.88443627
0.90686275 0.90686275 0.90686275
0.28872549 0.28872549 0.28872549
0.28498775 0.28498775 0.28498775
0.28615196 0.28615196 0.28615196
0.29607843 0.29607843 0.29607843
0.30637255 0.30637255 0.30637255
0.31617647 0.31617647 0.31617647
0.32941176 0.32941176 0.32941176
0.35 0.35 0.35
0.3745098 0.3745098 0.3745098
0.39932598 0.39932598 0.39932598
0.42990196 0.42990196 0.42990196
0.47064951 0.47064951 0.47064951
0.50612745 0.50612745 0.50612745
0.54074755 0.54074755 0.54074755
0.57463235 0.57463235 0.57463235
0.60833333 0.60833333 0.60833333
0.65 0.65 0.65
0.69117647 0.69117647 0.69117647
0.73235294 0.73235294 0.73235294
0.77009804 0.77009804 0.77009804
0.80122549 0.80122549 0.80122549
0.83578431 0.83578431 0.83578431
0.86715686 0.86715686 0.86715686
0.89656863 0.89656863 0.89656863
0.91323529 0.91323529 0.91323529
0.32156863 0.32156863 0.32156863
0.32156863 0.32156863 0.32156863
0.32647059 0.32647059 0.32647059
0.33676471 0.33676471 0.33676471
0.34901961 0.34901961 0.34901961
0.35931373 0.35931373 0.35931373
0.37107843 0.37107843 0.37107843
0.39117647 0.39117647 0.39117647
0.41176471 0.41176471 0.41176471
0.43235294 0.43235294 0.43235294
0.46470588 0.46470588 0.46470588
0.50196078 0.50196078 0.50196078
0.53921569 0.53921569 0.53921569
0.57598039 0.57598039 0.57598039
0.61029412 0.61029412 0.61029412
0.64044118 0.64044118 0.64044118
0.67647059 0.67647059 0.67647059
0.71568627 0.71568627 0.71568627
0.75588235 0.75588235 0.75588235
0.78676471 0.78676471 0.78676471
0.81862745 0.81862745 0.81862745
0.85245098 0.85245098 0.85245098
0.87990196 0.87990196 0.87990196
0.90294118 0.90294118 0.90294118
0.91960784 0.91960784 0.91960784
0.35931373 0.35931373 0.35931373
0.36305147 0.36305147 0.36305147
0.37205882 0.37205882 0.37205882
0.38535539 0.38535539 0.38535539
0.39264706 0.39264706 0.39264706
0.40294118 0.40294118 0.40294118
0.41960784 0.41960784 0.41960784
0.43676471 0.43676471 0.43676471
0.45735294 0.45735294 0.45735294
0.47745098 0.47745098 0.47745098
0.49987745 0.49987745 0.49987745
0.5372549 0.5372549 0.5372549
0.57426471 0.57426471 0.57426471
0.61084559 0.61084559 0.61084559
0.64558824 0.64558824 0.64558824
0.67254902 0.67254902 0.67254902
0.70343137 0.70343137 0.70343137
0.7377451 0.7377451 0.7377451
0.77647059 0.77647059 0.77647059
0.80735294 0.80735294 0.80735294
0.83823529 0.83823529 0.83823529
0.86427696 0.86427696 0.86427696
0.88872549 0.88872549 0.88872549
0.90931373 0.90931373 0.90931373
0.92598039 0.92598039 0.92598039
0.40392157 0.40392157 0.40392157
0.40968137 0.40968137 0.40968137
0.41960784 0.41960784 0.41960784
0.43088235 0.43088235 0.43088235
0.44068627 0.44068627 0.44068627
0.45061275 0.45061275 0.45061275
0.46764706 0.46764706 0.46764706
0.48529412 0.48529412 0.48529412
0.50588235 0.50588235 0.50588235
0.52009804 0.52009804 0.52009804
0.54019608 0.54019608 0.54019608
0.57463235 0.57463235 0.57463235
0.61176471 0.61176471 0.61176471
0.64852941 0.64852941 0.64852941
0.67720588 0.67720588 0.67720588
0.70343137 0.70343137 0.70343137
0.73039216 0.73039216 0.73039216
0.76017157 0.76017157 0.76017157
0.79411765 0.79411765 0.79411765
0.82794118 0.82794118 0.82794118
0.85392157 0.85392157 0.85392157
0.87757353 0.87757353 0.87757353
0.89901961 0.89901961 0.89901961
0.91960784 0.91960784 0.91960784
0.93627451 0.93627451 0.93627451
0.44901961 0.44901961 0.44901961
0.45539216 0.45539216 0.45539216
0.46568627 0.46568627 0.46568627
0.47745098 0.47745098 0.47745098
0.4877451 0.4877451 0.4877451
0.49675245 0.49675245 0.49675245
0.51372549 0.51372549 0.51372549
0.53431373 0.53431373 0.53431373
0.55098039 0.55098039 0.55098039
0.56372549 0.56372549 0.56372549
0.58039216 0.58039216 0.58039216
0.61176471 0.61176471 0.61176471
0.64828431 0.64828431 0.64828431
0.68382353 0.68382353 0.68382353
0.70833333 0.70833333 0.70833333
0.73284314 0.73284314 0.73284314
0.75735294 0.75735294 0.75735294
0.78339461 0.78339461 0.78339461
0.81372549 0.81372549 0.81372549
0.84332108 0.84332108 0.84332108
0.86495098 0.86495098 0.86495098
0.88872549 0.88872549 0.88872549
0.90931373 0.90931373 0.90931373
0.93229167 0.93229167 0.93229167
0.94803922 0.94803922 0.94803922
0.48235294 0.48235294 0.48235294
0.48872549 0.48872549 0.48872549
0.5 0.5 0.5
0.51666667 0.51666667 0.51666667
0.52745098 0.52745098 0.52745098
0.53382353 0.53382353 0.53382353
0.55098039 0.55098039 0.55098039
0.57303922 0.57303922 0.57303922
0.58823529 0.58823529 0.58823529
0.60098039 0.60098039 0.60098039
0.61862745 0.61862745 0.61862745
0.64558824 0.64558824 0.64558824
0.67843137 0.67843137 0.67843137
0.70735294 0.70735294 0.70735294
0.73137255 0.73137255 0.73137255
0.75588235 0.75588235 0.75588235
0.78039216 0.78039216 0.78039216
0.80490196 0.80490196 0.80490196
0.83333333 0.83333333 0.83333333
0.85392157 0.85392157 0.85392157
0.8745098 0.8745098 0.8745098
0.89509804 0.89509804 0.89509804
0.91960784 0.91960784 0.91960784
0.94019608 0.94019608 0.94019608
0.95686275 0.95686275 0.95686275
0.006372549 0.006372549 0.006372549
0.0039215686 0.0039215686 0.0039215686
0.0088235294 0.0088235294 0.0088235294
0.015686275 0.015686275 0.015686275
0.021568627 0.021568627 0.021568627
0.03627451 0.03627451 0.03627451
0.052941176 0.052941176 0.052941176
0.065686275 0.065686275 0.065686275
0.078431373 0.078431373 0.078431373
0.095098039 0.095098039 0.095098039
0.11421569 0.11421569 0.11421569
0.13841912 0.13841912 0.13841912
0.17622549 0.17622549 0.17622549
0.21194853 0.21194853 0.21194853
0.24656863 0.24656863 0.24656863
0.28529412 0.28529412 0.28529412
0.33039216 0.33039216 0.33039216
0.39362745 0.39362745 0.39362745
0.45968137 0.45968137 0.45968137
0.52469363 0.52469363 0.52469363
0.58946078 0.58946078 0.58946078
0.65392157 0.65392157 0.65392157
0.71519608 0.71519608 0.71519608
0.76721814 0.76721814 0.76721814
0.81813725 0.81813725 0.81813725
0.010294118 0.010294118 0.010294118
0.010294118 0.010294118 0.010294118
0.012745098 0.012745098 0.012745098
0.021752451 0.021752451 0.021752451
0.027941176 0.027941176 0.027941176
0.039223346 0.039223346 0.039223346
0.053783701 0.053783701 0.053783701
0.068137255 0.068137255 0.068137255
0.078431373 0.078431373 0.078431373
0.096017157 0.096017157 0.096017157
0.11421569 0.11421569 0.11421569
0.13823529 0.13823529 0.13823529
0.17622549 0.17622549 0.17622549
0.21194853 0.21194853 0.21194853
0.24882047 0.24882047 0.24882047
0.29070925 0.29070925 0.29070925
0.33823529 0.33823529 0.33823529
0.4 0.4 0.4
0.46346507 0.46346507 0.46346507
0.52793352 0.52793352 0.52793352
0.59264706 0.59264706 0.59264706
0.65729167 0.65729167 0.65729167
0.71836703 0.71836703 0.71836703
0.77058824 0.77058824 0.77058824
0.81084559 0.81084559 0.81084559
0.015686275 0.015686275 0.015686275
0.015686275 0.015686275 0.015686275
0.017647059 0.017647059 0.017647059
0.027083333 0.027083333 0.027083333
0.034313725 0.034313725 0.034313725
0.044561887 0.044561887 0.044561887
0.05591299 0.05591299 0.05591299
0.068137255 0.068137255 0.068137255
0.082352941 0.082352941 0.082352941
0.099770221 0.099770221 0.099770221
0.11786152 0.11786152 0.11786152
0.14105392 0.14105392 0.14105392
0.17653186 0.17653186 0.17653186
0.21354167 0.21354167 0.21354167
0.25416667 0.25416667 0.25416667
0.30136336 0.30136336 0.30136336
