site/assets/luts/natron-haldclut--color-rich--2e38c4755.cube
# LUTr-Project: LUTr — LUTrepository
# LUTr-Schema-Version: 1
# LUTr-ID: natron-haldclut--color-rich--2e38c4755
# LUTr-Title: color rich
# LUTr-Collection: Natron HaldCLUT
# LUTr-Collection-ID: natron-haldclut-presets
# LUTr-Source: https://github.com/NatronGitHub/clut
# LUTr-Source-File: submissions/natron-haldclut-presets/various/color_rich.png
# LUTr-Source-Format: PNG
# LUTr-Source-SHA256: 18e13038f05d9c24900ff98846b780dec46dc76dbdcee3aa68da53b4228eedc4
# LUTr-License: CC-BY-SA-4.0
# LUTr-License-URL: https://github.com/NatronGitHub/clut#license
# LUTr-Tags: creative, film, film-emulation, hald-clut, natron, png, cube
# LUTr-Transform-Class: film-emulation
# LUTr-Input-Color-Space: srgb
# LUTr-Output-Color-Space: srgb
# LUTr-Color-Space-Confidence: assumed-display-referred
# LUTr-Conversion-Method: PNG LUT image decoded at 16-bit and sampled to 25x25x25 3D CUBE
# LUTr-Conversion-Date: 2026-07-27
# LUTr-Conversion-Tool: LUTr scripts/convert-all-to-cube.mjs
# LUTr-Conversion-Grid: 25x25x25
# LUTr-Note: Preserve this metadata and the upstream license notices when redistributing.
TITLE "color rich"
LUT_3D_SIZE 9
DOMAIN_MIN 0 0 0
DOMAIN_MAX 1 1 1
0.019607843 0.011764706 0.098039216
0.11960784 0.026960784 0.082843137
0.22058824 0.012745098 0.051960784
0.35735294 0.011764706 0.050980392
0.50392157 0.01372549 0.064705882
0.67941176 0.0049019608 0.050490196
0.8245098 0.032352941 0.050980392
0.92990196 0.023039216 0.046568627
0.94509804 0.015686275 0.050980392
0.058333333 0.12352941 0.071078431
0.10398284 0.1245098 0.059803922
0.21960784 0.11617647 0.054901961
0.3495098 0.11568627 0.054901961
0.49607843 0.11397059 0.057107843
0.65226716 0.11176471 0.055392157
0.81764706 0.10392157 0.058823529
0.93039216 0.10484069 0.054901961
0.97598039 0.10392157 0.10147059
0.062745098 0.24705882 0.058823529
0.1 0.24313725 0.054901961
0.2125 0.23529412 0.042401961
0.34203431 0.23137255 0.050980392
0.49215686 0.23137255 0.054901961
0.64656863 0.2317402 0.050980392
0.81960784 0.22745098 0.051960784
0.91813725 0.22745098 0.054901961
0.96078431 0.22647059 0.050980392
0.036764706 0.3745098 0.045588235
0.096078431 0.37303922 0.046875
0.20784314 0.37058824 0.052818627
0.33137255 0.36574755 0.054901961
0.48431373 0.35882353 0.058823529
0.63780637 0.35490196 0.06127451
0.7942402 0.35490196 0.064583333
0.93204657 0.3536152 0.045772059
0.94117647 0.36127451 0.058823529
0.025490196 0.51568627 0.050980392
0.096568627 0.51372549 0.054901961
0.2 0.50833333 0.054901961
0.31421569 0.50465686 0.050245098
0.46470588 0.49313725 0.07254902
0.62181373 0.48823529 0.076470588
0.7877451 0.48823529 0.065686275
0.9247549 0.48995098 0.073284314
0.97058824 0.49411765 0.052941176
0.0078431373 0.64901961 0.056372549
0.079411765 0.6504902 0.067953431
0.19215686 0.64117647 0.054901961
0.31176471 0.64117647 0.057352941
0.44901961 0.6379902 0.055637255
0.61372549 0.6372549 0.046139706
0.77806373 0.63333333 0.052818627
0.92254902 0.62941176 0.05814951
0.97647059 0.63088235 0.060294118
0.015686275 0.78137255 0.099019608
0.081862745 0.77647059 0.071078431
0.18823529 0.76960784 0.050980392
0.30784314 0.75686275 0.07120098
0.44117647 0.76470588 0.052941176
0.59558824 0.76470588 0.055269608
0.76397059 0.76862745 0.048039216
0.91531863 0.76078431 0.073897059
0.98921569 0.76078431 0.046078431
0.015686275 0.89166667 0.081372549
0.092647059 0.89166667 0.063664216
0.18125 0.8877451 0.063357843
0.2995098 0.87616422 0.074509804
0.43308824 0.87598039 0.054901961
0.58351716 0.87647059 0.062745098
0.7504902 0.88039216 0.073161765
0.91862745 0.88339461 0.051409314
0.98431373 0.87598039 0.063235294
0 0.99607843 0.039215686
0.084803922 0.97696078 0.085294118
0.17254902 0.97647059 0.10588235
0.28578431 0.98431373 0.072058824
0.42745098 0.97647059 0.062745098
0.57205882 0.98186275 0.050980392
0.73039216 0.98431373 0.054901961
0.91715686 0.98872549 0.042647059
0.98823529 0.98431373 0.074509804
0.030882353 0.030882353 0.1627451
0.11617647 0.023958333 0.16709559
0.22058824 0.02254902 0.16666667
0.3495098 0.011764706 0.16666667
0.50612745 0.015441176 0.16495098
0.67530637 0.012071078 0.15882353
0.82843137 0.010416667 0.15147059
0.93039216 0.01182598 0.15104167
0.97598039 0.0083333333 0.15539216
0.024448529 0.12395833 0.1627451
0.11144301 0.12352941 0.16323529
0.21977635 0.11617647 0.1627451
0.34185049 0.11268382 0.1588848
0.49215686 0.10876225 0.15882353
0.65849418 0.10790441 0.15130974
0.81988358 0.10784314 0.15134804
0.92384344 0.10703891 0.14668352
0.99166667 0.1004902 0.14362745
0.020588235 0.24620098 0.1627451
0.10124081 0.23992034 0.15657169
0.21568627 0.23520221 0.15196078
0.33492647 0.23529412 0.14787071
0.48958333 0.22745098 0.14448529
0.6504902 0.22648591 0.13765319
0.8127451 0.22745098 0.14840686
0.929519 0.22745098 0.14056373
0.98394608 0.22254902 0.13970588
0.027941176 0.38480392 0.14724265
0.08861826 0.37730545 0.14705882
0.20428922 0.3691636 0.14705882
0.33045343 0.36666667 0.14362745
0.48121936 0.35808824 0.13970588
0.63627451 0.35098039 0.13647365
0.79852941 0.35343137 0.13314951
0.93033088 0.35377604 0.13204657
0.97334559 0.35490196 0.13970588
0.02745098 0.5120098 0.14754902
0.084803922 0.51593137 0.1401348
0.19607843 0.51029412 0.13970588
0.31675858 0.50073529 0.13970588
0.46176471 0.49411765 0.13161765
0.62362132 0.48823529 0.13137255
0.78370098 0.48627451 0.1283701
0.92331495 0.48630515 0.12745098
0.97009804 0.48627451 0.12598039
0.023223039 0.64509804 0.13952206
0.073345588 0.64901961 0.13196998
0.1855239 0.64901961 0.13172488
0.31029412 0.64276195 0.13511795
0.45147059 0.63602941 0.13578431
0.60461091 0.6361443 0.13052237
0.77414216 0.62696078 0.13578431
0.92673866 0.62567402 0.12794118
0.97873775 0.62175245 0.121875
0.017769608 0.78051471 0.12046569
0.085998775 0.77647059 0.12401961
0.18844975 0.77352941 0.13186275
0.30392157 0.7685815 0.13186275
0.4372549 0.76642157 0.13578431
0.5995098 0.76078431 0.1260723
0.76102941 0.76470588 0.12438725
0.91622243 0.75686275 0.11703431
0.95833333 0.75686275 0.12009804
0.019607843 0.89166667 0.12794118
0.092593444 0.88823529 0.12401961
0.18362439 0.88786765 0.12444853
0.29199602 0.88339461 0.13229167
0.43112745 0.88033088 0.12745098
0.5872549 0.88339461 0.11693474
0.75036765 0.8877451 0.1127451
0.91470588 0.87598039 0.11623775
0.9877451 0.88339461 0.10882353
0.015686275 0.97647059 0.13186275
0.084803922 0.97996324 0.1245098
0.16568627 0.98517157 0.11335784
0.2841299 0.98057598 0.11599265
0.41960784 0.97818627 0.12058824
0.56813725 0.98167892 0.11666667
0.73002451 0.98419118 0.11360294
0.9 0.97689951 0.12794118
0.96960784 0.97696078 0.12009804
0.0098039216 0.020588235 0.28333333
0.10919118 0.020955882 0.29019608
0.21862745 0.022303922 0.28627451
0.34705882 0.016176471 0.28235294
0.49852941 0.011764706 0.28627451
0.67254902 0.011397059 0.27696078
0.81960784 0.016666667 0.26960784
0.92647059 0.026470588 0.27058824
0.97745098 0.018627451 0.27058824
0.017034314 0.12365196 0.28235294
0.10801164 0.11966912 0.28235294
0.21185662 0.11862745 0.27843137
0.34217218 0.10776654 0.2723652
0.49221814 0.10955882 0.26758578
0.66230086 0.10968137 0.2627451
0.81568627 0.10404412 0.25894608
0.91954657 0.10784314 0.25926777
0.98394608 0.10698529 0.25625
0.011764706 0.24705882 0.2745098
0.096568627 0.24313725 0.27061887
0.21011029 0.23921569 0.27058824
0.33419118 0.23823529 0.26283701
0.48039216 0.23247549 0.25661765
0.64693627 0.22717525 0.25490196
0.82150735 0.22352941 0.25490196
0.91348039 0.21969975 0.25183824
0.98039216 0.21960784 0.24705882
0.0049019608 0.37732843 0.2627451
0.086351103 0.36962316 0.2627451
0.20009191 0.36666667 0.25554534
0.32653186 0.36953125 0.25111826
0.47071078 0.36256127 0.25098039
0.63627451 0.35490196 0.25098039
0.80428922 0.35098039 0.25352328
0.9292739 0.35098039 0.25098039
0.98137255 0.35061275 0.24313725
0.029411765 0.50588235 0.2627451
0.081311275 0.50588235 0.25625
0.19105392 0.50441176 0.24767157
0.31629902 0.50251225 0.24705882
0.45514706 0.49803922 0.2502451
0.62181373 0.49197304 0.24932598
0.7872549 0.48823529 0.24705882
0.92647059 0.48627451 0.24356618
0.97892157 0.48823529 0.23921569
0.022058824 0.63872549 0.25159314
0.080882353 0.64509804 0.25098039
0.18823529 0.64117647 0.24329044
0.30742953 0.63872549 0.24134498
0.44178922 0.63835784 0.24387255
0.59882047 0.63480392 0.2442402
0.77414216 0.62276348 0.24558824
0.92352941 0.62311581 0.24136029
0.9807598 0.6254902 0.23529412
0.0058823529 0.77965686 0.23995098
0.08872549 0.77622549 0.2393076
0.18455882 0.77254902 0.23602941
0.3 0.76862745 0.23210784
0.43517157 0.77254902 0.24007353
0.5885723 0.77181373 0.24313725
0.75808824 0.76789216 0.2375
0.91911765 0.76470588 0.23201593
0.99338235 0.76078431 0.23137255
0.016544118 0.89203431 0.23529412
0.092754289 0.89166667 0.23137255
0.18520221 0.8877451 0.22745098
0.29080882 0.88800551 0.22745098
0.4252451 0.88431373 0.23137255
0.58529412 0.88382353 0.23118873
0.75747549 0.88403799 0.23023897
0.91127451 0.87647059 0.22745098
0.97647059 0.87732843 0.22708333
0.0049019608 0.96862745 0.23529412
0.081372549 0.97598039 0.23137255
0.17352941 0.97867647 0.23137255
0.2872549 0.97647059 0.22745098
0.41617647 0.97254902 0.22352941
0.57990196 0.97647059 0.22352941
0.74607843 0.97745098 0.22352941
0.92022059 0.98970588 0.21568627
0.95196078 0.97647059 0.22352941
0.0093137255 0.02745098 0.40588235
0.10569853 0.020098039 0.40196078
0.21960784 0.021078431 0.39803922
0.3495098 0.019607843 0.40196078
0.50392157 0.0044117647 0.39803922
0.66764706 0.015686275 0.39957108
0.81568627 0.019607843 0.39411765
0.92432598 0.024816176 0.38805147
0.98823529 0.0053921569 0.39411765
0.024019608 0.12352941 0.39803922
0.10457261 0.12383578 0.39948683
0.20441176 0.11968444 0.39803922
0.33940717 0.11568627 0.39411765
0.48694853 0.11960784 0.39068627
0.65637255 0.11207108 0.38676471
0.81629902 0.10441176 0.38380821
0.92287837 0.10425092 0.37843137
0.9903799 0.10784314 0.38265931
0.015686275 0.24607843 0.3872549
0.10007659 0.24313725 0.38627451
0.20784314 0.23921569 0.39019608
0.33198529 0.23921569 0.38374694
0.47254902 0.23921569 0.37941176
0.64509804 0.23137255 0.3745098
0.8135723 0.22352941 0.37843137
0.92561275 0.22242647 0.37414216
0.98431373 0.21960784 0.37058824
0.018137255 0.3745098 0.38082108
0.090012255 0.36666667 0.37843137
0.19644608 0.36666667 0.37598039
0.31868873 0.37058824 0.3745098
0.4622549 0.36470588 0.37058824
0.63013174 0.36127451 0.37058824
0.80134804 0.35412071 0.3745098
0.93039216 0.34558824 0.37058824
0.97647059 0.34705882 0.36029412
0.031372549 0.50392157 0.37843137
0.080882353 0.50392157 0.37843137
0.18823529 0.50392157 0.37058824
0.30784314 0.50664828 0.36544118
0.44411765 0.50588235 0.36666667
0.61348039 0.50122549 0.36666667
0.7877451 0.49503676 0.36666667
0.91862745 0.48431373 0.36666667
0.96862745 0.48897059 0.35882353
0.050428922 0.64656863 0.37058824
0.07567402 0.64656863 0.37058824
0.1845435 0.6432598 0.36666667
0.30392157 0.64117647 0.3627451
0.43501838 0.64172794 0.36182598
0.5935432 0.64117647 0.36366422
0.77045037 0.63189338 0.36666667
0.91862745 0.62696078 0.36292892
0.97886029 0.63088235 0.3627451
0.040686275 0.78039216 0.3627451
0.08169424 0.77647059 0.35882353
0.18431373 0.77254902 0.35701593
0.30252757 0.77254902 0.35742953
0.43363971 0.77254902 0.35428922
0.58474265 0.76729473 0.35490196
0.7583027 0.75768995 0.35784314
0.91533395 0.76078431 0.35424326
0.97647059 0.76078431 0.35490196
0.015686275 0.88823529 0.35882353
0.08872549 0.88792892 0.35124847
0.17833946 0.89166667 0.35490196
0.29215686 0.88903952 0.35490196
0.42000613 0.88602941 0.3486826
0.58382353 0.88020067 0.34552696
0.7479473 0.88039216 0.35098039
0.90784314 0.87775735 0.34313725
0.97058824 0.87647059 0.34705882
0.013235294 0.97647059 0.34705882
0.084803922 0.96991422 0.35098039
0.16862745 0.98321078 0.35098039
0.28823529 0.97009804 0.35490196
0.4125 0.96862745 0.34583333
0.58045343 0.97254902 0.34705882
0.74252451 0.97647059 0.34215686
0.91384804 0.99117647 0.33529412
0.99362745 0.98970588 0.33529412
0.019607843 0.02745098 0.52156863
0.10441176 0.031372549 0.52377451
0.21960784 0.032352941 0.51764706
0.35612745 0.019607843 0.51519608
0.5 0.010784314 0.51764706
0.6754902 0.011764706 0.51764706
0.82598039 0.012254902 0.51372549
0.92622549 0.01004902 0.50980392
0.96666667 0.011764706 0.51764706
0.023284314 0.11789216 0.51985294
0.1 0.12009804 0.52156863
0.21176471 0.11960784 0.51770833
0.35343137 0.11372549 0.51372549
0.49313725 0.11176471 0.51372549
0.66259191 0.11568627 0.51265319
0.8245098 0.10392157 0.50625
0.93039216 0.10392157 0.50196078
0.97230392 0.10784314 0.50245098
0.023529412 0.23921569 0.50980392
0.096568627 0.2372549 0.50980392
0.20784314 0.23529412 0.50980392
0.34258578 0.23529412 0.50588235
0.48039216 0.23529412 0.50196078
0.64301471 0.23137255 0.50441176
0.80490196 0.22708333 0.50159314
0.92647059 0.22352941 0.49411765
0.9745098 0.22352941 0.49411765
0.018137255 0.36985294 0.49803922
0.092156863 0.36804534 0.50196078
0.19442402 0.36519608 0.50269608
0.32052696 0.36666667 0.50119485
0.46348039 0.36127451 0.4935049
0.62542892 0.36127451 0.49650735
0.79859069 0.35189951 0.49411765
0.92647059 0.34705882 0.48988971
0.97254902 0.34705882 0.48308824
0.035294118 0.50980392 0.49803922
0.084803922 0.50588235 0.50196078
0.18676471 0.50392157 0.49803922
0.30784314 0.50490196 0.49289216
0.44803922 0.50392157 0.48627451
0.61397059 0.50392157 0.48627451
0.7877451 0.49215686 0.48627451
0.91789216 0.48210784 0.48235294
0.98039216 0.48039216 0.4745098
0.043137255 0.64901961 0.49411765
0.080392157 0.646875 0.49411765
0.18511029 0.64136029 0.49264706
0.3046875 0.63995098 0.48627451
0.44044118 0.6372549 0.47732843
0.60119485 0.6372549 0.4745098
0.7752451 0.63051471 0.47843137
0.90808824 0.62303922 0.47843137
0.98039216 0.62303922 0.4745098
0.020588235 0.78186275 0.48627451
0.077879902 0.77604167 0.48235294
0.18247549 0.76862745 0.48235294
0.29754902 0.76470588 0.47843137
0.43235294 0.76642157 0.47058824
0.5901348 0.76470588 0.46666667
0.76213235 0.75686275 0.47242647
0.9245098 0.75900735 0.47334559
0.99362745 0.75294118 0.47058824
0.0098039216 0.89166667 0.48406863
0.081127451 0.88409926 0.47843137
0.17352941 0.88952206 0.47671569
0.28823529 0.88416054 0.4745098
0.41764706 0.88210784 0.46666667
0.57950368 0.87990196 0.46602328
0.74258578 0.87647059 0.46666667
0.89806985 0.87598039 0.46424632
0.96911765 0.87254902 0.4625
0.021568627 0.98235294 0.47058824
0.075 0.97843137 0.47058824
0.16960784 0.98186275 0.47058824
0.28039216 0.97916667 0.47058824
0.40980392 0.97254902 0.46666667
0.57083333 0.97647059 0.47058824
0.73039216 0.99264706 0.45784314
0.88063725 0.9745098 0.45490196
0.99411765 0.99019608 0.45490196
0.0068627451 0.010784314 0.64509804
0.10441176 0.0078431373 0.64264706
0.22291667 0.018627451 0.64117647
0.36127451 0.021997549 0.63333333
0.51446078 0.0125 0.63333333
0.68186275 0.011764706 0.6372549
0.82352941 0.016053922 0.6372549
0.92254902 0.020588235 0.63333333
0.96078431 0.011764706 0.63578431
0.024816176 0.11568627 0.64117647
0.1000383 0.11219363 0.6417739
0.21568627 0.1122549 0.6372549
0.35735294 0.1096201 0.63382353
0.50441176 0.10784314 0.63363971
0.66096814 0.11176471 0.63333333
0.82058824 0.10784314 0.62941176
0.92673866 0.10800398 0.6254902
0.96617647 0.10441176 0.62579657
0.023529412 0.23468137 0.63333333
0.08872549 0.23521752 0.63007047
0.21259191 0.23137255 0.63039216
0.34767157 0.23137255 0.62941176
0.48921569 0.2283701 0.62941176
0.64693627 0.22990196 0.6254902
0.80726103 0.22662377 0.62156863
0.92950368 0.22352941 0.62011336
0.97463235 0.22144608 0.61470588
0.010294118 0.3661152 0.61911765
0.092164522 0.36600031 0.62237286
0.19492953 0.3627451 0.62156863
0.32465533 0.36427696 0.62283241
0.46421569 0.36173407 0.62034314
0.62935049 0.35861673 0.61764706
0.79411765 0.35006127 0.61482843
0.92273284 0.35006127 0.60991881
0.96862745 0.35098039 0.60980392
0.024754902 0.50906863 0.61691176
0.086764706 0.50407475 0.6213848
0.18676471 0.50140931 0.62101716
0.30906863 0.49926471 0.61642157
0.44901961 0.49926471 0.61311275
0.61835172 0.4958027 0.60952819
0.78988971 0.48823529 0.60588235
0.91878064 0.48636642 0.60392157
0.97573529 0.48431373 0.6
0.022058824 0.64901961 0.62156863
0.080882353 0.64375766 0.61716452
0.18039216 0.6372549 0.61372549
0.29607843 0.63275888 0.61280637
0.44117647 0.63333333 0.60588235
0.60643382 0.63298866 0.6004902
0.77912071 0.62904412 0.59803922
0.91782322 0.6254902 0.59803922
0.975 0.62303922 0.59558824
0.014705882 0.77610294 0.6127451
0.077772672 0.77254902 0.60588235
0.17735907 0.76498162 0.60379902
0.29192708 0.76824449 0.60588235
0.42892157 0.76078431 0.59558824
0.58884804 0.75686275 0.59019608
0.76596201 0.75294118 0.59411765
0.90735294 0.75294118 0.59313725
0.96654412 0.75294118 0.59019608
0.015992647 0.88431373 0.60569853
0.081372549 0.88727788 0.59803922
0.16862745 0.88913909 0.59411765
0.28253676 0.88020067 0.59626225
0.42156863 0.87647059 0.5879902
0.57598039 0.87782629 0.58235294
0.74558824 0.87647059 0.58622855
0.90022212 0.8728171 0.58235294
0.95667892 0.87205882 0.58235294
0.029901961 0.98039216 0.59656863
0.076960784 0.98039216 0.59019608
0.16752451 0.98321078 0.58627451
0.28039216 0.98039216 0.58627451
0.41372549 0.97647059 0.58553922
0.56421569 0.98431373 0.58235294
0.72855392 0.98039216 0.57843137
0.90471814 0.9846201 0.57843137
0.94901961 0.97647059 0.5745098
0.040196078 0.02254902 0.77254902
0.10784314 0.016176471 0.76911765
0.22352941 0.028431373 0.76078431
0.35735294 0.023529412 0.75686275
0.50931373 0.013235294 0.75343137
0.67794118 0.011764706 0.75833333
0.81985294 0.011764706 0.76078431
0.92647059 0.01875 0.75686275
0.98921569 0.0029411765 0.75294118
0.027941176 0.12352941 0.76127451
0.09776348 0.11568627 0.76127451
0.21090686 0.11617647 0.75686275
0.35289522 0.11568627 0.75686275
0.50018382 0.10919118 0.75294118
0.65747549 0.10784314 0.75261949
0.82037377 0.10919118 0.75006127
0.9261489 0.11568627 0.74901961
0.97769608 0.11127451 0.7442402
0.0078431373 0.23921569 0.75661765
0.089705882 0.23529412 0.74901961
0.20710784 0.23529412 0.7466299
0.33967525 0.22745098 0.75174632
0.48529412 0.22352941 0.74938725
0.64849877 0.22352941 0.74509804
0.82530637 0.22328431 0.74436275
0.92267157 0.22227328 0.74108456
0.98897059 0.21568627 0.74117647
0.024509804 0.36666667 0.7372549
0.092647059 0.3627451 0.7432598
0.19770221 0.35882353 0.73890931
0.32791054 0.35882353 0.74379596
0.46617647 0.35582108 0.74117647
0.62584252 0.35343137 0.73702512
0.80162377 0.35490196 0.73664216
0.92254902 0.34889706 0.73333333
0.97254902 0.34313725 0.73333333
0.015686275 0.50833333 0.73333333
0.084803922 0.50196078 0.7372549
0.18823529 0.49803922 0.74019608
0.31495098 0.49270833 0.7372549
0.45588235 0.49019608 0.7372549
0.61544118 0.4911152 0.72941176
0.79166667 0.48627451 0.72536765
0.91862745 0.48431373 0.72156863
0.97401961 0.48431373 0.7254902
0.011764706 0.64546569 0.7372549
0.07567402 0.64264706 0.73186275
0.1810049 0.63541667 0.73333333
0.29944853 0.62696078 0.73258272
0.44117647 0.62677696 0.7276348
0.60435049 0.63088235 0.72424939
0.77552083 0.6263174 0.72156863
0.91875 0.623269 0.71764706
0.97892157 0.62156863 0.71764706
0.016666667 0.76470588 0.73308824
0.080882353 0.76862745 0.72576593
0.17328431 0.77254902 0.7245098
0.28823529 0.76470588 0.72141544
0.43014706 0.76176471 0.71727941
0.59166667 0.75686275 0.71372549
0.76439951 0.75294118 0.71666667
0.91222426 0.75294118 0.71265319
0.95588235 0.74901961 0.70980392
0.012745098 0.87647059 0.72414216
0.081096814 0.88506434 0.71753983
0.16525735 0.88823529 0.70968137
0.28039216 0.88431373 0.70980392
0.41629902 0.88039216 0.70588235
0.57567402 0.87647059 0.70588235
0.7504902 0.87647059 0.70588235
0.91127451 0.87647059 0.70196078
0.94117647 0.87340686 0.70196078
0.0049019608 0.98529412 0.71470588
0.081004902 0.97647059 0.71372549
0.16544118 0.98529412 0.70588235
0.28039216 0.98284314 0.70588235
0.41127451 0.98431373 0.70392157
0.56029412 0.97941176 0.70196078
0.72745098 0.98431373 0.69803922
0.88382353 0.97242647 0.69803922
0.95784314 0.96862745 0.69803922
0.034803922 0.011764706 0.86813725
0.10441176 0.023958333 0.87156863
0.21960784 0.017034314 0.87463235
0.34558824 0.017830882 0.86942402
0.49411765 0.017647059 0.86421569
0.66979167 0.01060049 0.87959559
0.81666667 0.015686275 0.87107843
0.93039216 0.015686275 0.86029412
0.96470588 0.019607843 0.85637255
0.023529412 0.12009804 0.85637255
0.096568627 0.11960784 0.86077665
0.20404412 0.1162837 0.87156863
0.34117647 0.11219363 0.86568627
0.49019608 0.11133578 0.86421569
0.658678 0.1004902 0.87616422
0.81666667 0.11220895 0.86948529
0.93039216 0.11525735 0.86813725
0.98382353 0.10833333 0.86464461
0.037745098 0.23921569 0.84852941
0.092647059 0.23529412 0.85588235
0.20456495 0.23137255 0.86115196
0.33137255 0.22745098 0.86475184
0.48039216 0.22352941 0.86078431
0.6410386 0.22352941 0.85111826
0.81246936 0.22352941 0.85744485
0.92659314 0.21960784 0.86164216
0.98296569 0.21568627 0.85784314
0.043627451 0.36930147 0.85882353
0.092647059 0.3653799 0.85980392
0.20208333 0.35882353 0.85
0.32352941 0.35490196 0.85214461
0.46470588 0.353125 0.84852941
0.62150735 0.35343137 0.85164675
0.79742647 0.34866728 0.84460784
0.91497396 0.34297641 0.84875153
0.98118873 0.34185049 0.85030637
0.0039215686 0.50784314 0.86519608
0.08872549 0.50220588 0.85640319
0.18676471 0.49411765 0.84313725
0.3129902 0.49019608 0.84338235
0.45294118 0.48627451 0.84460784
0.60799632 0.48832721 0.85009191
0.77965686 0.48382353 0.84068627
0.91819853 0.48039216 0.84117647
0.96470588 0.48431373 0.84093137
0.011764706 0.64479167 0.85245098
0.080453431 0.63856464 0.84852941
0.17740502 0.6314951 0.84595588
0.29944853 0.62776501 0.84871324
0.44347426 0.62726716 0.84871324
0.5995098 0.62910539 0.84068627
0.76458333 0.62095588 0.84068627
0.92254902 0.61893382 0.83707108
0.97058824 0.61764706 0.8372549
0.024877451 0.76862745 0.84460784
0.077282475 0.76864277 0.83982843
0.17279412 0.76862745 0.83918505
0.28984375 0.7669424 0.84117647
0.42867647 0.76470588 0.8372549
0.58884804 0.75686275 0.8372549
0.7627451 0.75333946 0.83590686
0.91862745 0.75257353 0.82941176
0.97585784 0.74509804 0.82941176
0.030882353 0.88382353 0.83676471
0.069607843 0.89204963 0.83714001
0.16830576 0.88786765 0.82849265
0.28039216 0.88006281 0.8254902
0.41348039 0.87647059 0.8254902
0.57205882 0.87254902 0.82941176
0.74656863 0.87640931 0.82774203
0.92174479 0.87990196 0.8254902
0.94607843 0.87254902 0.82156863
0.00098039216 0.99166667 0.8372549
0.076960784 0.94564951 0.82941176
0.16470588 0.97647059 0.82512255
0.28039216 0.98854167 0.82941176
0.40784314 0.97647059 0.8254902
0.56421569 0.97254902 0.82530637
0.72745098 0.9817402 0.82156863
0.88431373 0.9533701 0.81764706
0.98872549 0.98872549 0.82156863
0.011764706 0.0078431373 0.91764706
0.10784314 0.031372549 0.9254902
0.2127451 0.012745098 0.94117647
0.34558824 0.011764706 0.94117647
0.49803922 0.011764706 0.9372549
0.66078431 0.013235294 0.93970588
0.8254902 0.010784314 0.94509804
0.93088235 0.0078431373 0.9254902
0.94901961 0.011764706 0.92156863
0.0083333333 0.12352941 0.93284314
0.089154412 0.12352941 0.93719363
0.20404412 0.11703431 0.94362745
0.3377451 0.10569853 0.94460784
0.49215686 0.1004902 0.94117647
0.65833333 0.1004902 0.94509804
0.81752451 0.10796569 0.92107843
0.93039216 0.10741422 0.91029412
0.97990196 0.10441176 0.92156863
0.029411765 0.24607843 0.91568627
0.08872549 0.23921569 0.92254902
0.20318627 0.23602941 0.93406863
0.32990196 0.22352941 0.90931373
0.48039216 0.22352941 0.9372549
0.64473039 0.21960784 0.93186275
0.80980392 0.21960784 0.9245098
0.92745098 0.21960784 0.91409314
0.98333333 0.21960784 0.92941176
0.0078431373 0.37696078 0.93088235
0.096568627 0.37089461 0.92530637
0.20110294 0.3627451 0.93394608
0.33137255 0.35490196 0.9254902
0.4622549 0.35098039 0.92892157
0.62058824 0.3495098 0.91519608
0.79068627 0.34669118 0.93026961
0.90735294 0.34705882 0.93186275
0.97156863 0.3495098 0.93480392
0.01372549 0.51372549 0.90196078
0.086764706 0.50245098 0.92916667
0.18872549 0.49656863 0.92205882
0.31176471 0.49019608 0.92818627
0.45294118 0.48627451 0.91960784
0.60343137 0.48627451 0.90906863
0.775 0.48431373 0.92892157
0.91715686 0.48039216 0.92720588
0.97254902 0.48627451 0.93529412
0.016666667 0.64117647 0.93480392
0.072732843 0.63511029 0.9341299
0.17708333 0.6314951 0.92193627
0.29944853 0.63088235 0.93241422
0.44117647 0.63088235 0.92230392
0.5995098 0.62640931 0.93088235
0.76237745 0.62267157 0.93088235
0.90980392 0.61893382 0.9254902
0.96470588 0.61911765 0.93088235
0.033333333 0.76960784 0.93333333
0.073039216 0.77254902 0.93676471
0.17647059 0.76862745 0.93504902
0.29068627 0.76764706 0.92941176
0.42892157 0.76764706 0.9254902
0.58713235 0.7557598 0.9254902
0.75857843 0.75686275 0.9379902
0.90441176 0.75686275 0.93333333
0.9754902 0.74901961 0.94019608
0.019607843 0.89117647 0.94460784
0.077389706 0.89123775 0.89215686
0.17254902 0.88382353 0.93198529
0.28431373 0.8841299 0.94362745
0.41936275 0.87598039 0.92352941
0.56942402 0.86991422 0.92303922
0.74178922 0.87254902 0.92928922
0.91121324 0.87947304 0.93241422
0.96519608 0.87254902 0.93382353
0.047058824 0.97647059 0.94117647
0.069607843 0.98039216 0.9377451
0.16470588 0.97352941 0.92254902
0.27647059 0.94019608 0.88235294
0.40392157 0.97647059 0.91176471
0.56176471 0.96862745 0.9254902
0.73137255 0.96960784 0.91862745
0.88088235 0.95637255 0.93333333
0.97647059 0.92156863 0.93333333
