site/assets/luts/natron-haldclut--fuji-superia-100---d75d7cddd.cube
# LUTr-Project: LUTr — LUTrepository
# LUTr-Schema-Version: 1
# LUTr-ID: natron-haldclut--fuji-superia-100---d75d7cddd
# LUTr-Title: fuji superia 100 -
# LUTr-Collection: Natron HaldCLUT
# LUTr-Collection-ID: natron-haldclut-presets
# LUTr-Source: https://github.com/NatronGitHub/clut
# LUTr-Source-File: submissions/natron-haldclut-presets/negative_old/fuji_superia_100_-.png
# LUTr-Source-Format: PNG
# LUTr-Source-SHA256: e09e80ef1f935e33d8083902b5a318a59e211977b9084651405007411faa4ccb
# LUTr-License: CC-BY-SA-4.0
# LUTr-License-URL: https://github.com/NatronGitHub/clut#license
# LUTr-Tags: creative, film, film-emulation, hald-clut, natron, png, cube
# LUTr-Transform-Class: film-emulation
# LUTr-Input-Color-Space: srgb
# LUTr-Output-Color-Space: srgb
# LUTr-Color-Space-Confidence: assumed-display-referred
# LUTr-Conversion-Method: PNG LUT image decoded at 16-bit and sampled to 25x25x25 3D CUBE
# LUTr-Conversion-Date: 2026-07-27
# LUTr-Conversion-Tool: LUTr scripts/convert-all-to-cube.mjs
# LUTr-Conversion-Grid: 25x25x25
# LUTr-Note: Preserve this metadata and the upstream license notices when redistributing.
TITLE "fuji superia 100 -"
LUT_3D_SIZE 9
DOMAIN_MIN 0 0 0
DOMAIN_MAX 1 1 1
0.0039215686 0.0039215686 0
0.07745098 0.019607843 0.0039215686
0.19411765 0.019607843 0.0068627451
0.36127451 0.034803922 0.0039215686
0.50980392 0.074509804 0
0.64509804 0.087745098 0.0053921569
0.75980392 0.13823529 0.011764706
0.86813725 0.16519608 0
0.96862745 0.18823529 0
0 0.075490196 0.0073529412
0.039644608 0.11127451 0.012193627
0.20588235 0.12352941 0.026102941
0.37303922 0.14117647 0.0053921569
0.52916667 0.15514706 0.013480392
0.65900735 0.17647059 0.0039215686
0.77120098 0.19987745 0.0069852941
0.87555147 0.21862745 0.0039215686
0.98039216 0.25 0
0 0.25686275 0.019607843
0 0.26078431 0.032352941
0.18553922 0.27352941 0.013480392
0.38615196 0.29166667 0.020710784
0.55441176 0.29313725 0.019607843
0.67941176 0.30306373 0.0057598039
0.78651961 0.30588235 0.0031862745
0.88382353 0.30343137 0.0039215686
0.98137255 0.33431373 0.010784314
0.0039215686 0.43823529 0.14166667
0.0039215686 0.43970588 0.12794118
0.094485294 0.44607843 0.11556373
0.36856618 0.4372549 0.057414216
0.55490196 0.44117647 0.0066176471
0.67886029 0.43878676 0.017218137
0.79607843 0.43125 0.0039215686
0.90214461 0.43186275 0.0078431373
0.98431373 0.44117647 0.011764706
0 0.59803922 0.2372549
0.0039215686 0.60588235 0.25661765
0.025 0.60196078 0.24754902
0.31813725 0.58504902 0.23995098
0.50980392 0.57647059 0.1745098
0.64852941 0.57107843 0.11666667
0.79019608 0.56568627 0.057843137
0.91176471 0.56470588 0.038235294
0.98823529 0.56862745 0.0078431373
0.0039215686 0.73382353 0.36519608
0.0078431373 0.73792892 0.37089461
0.030882353 0.73529412 0.3622549
0.27738971 0.72444853 0.34160539
0.46519608 0.71176471 0.31764706
0.62009804 0.69123775 0.27647059
0.75637255 0.68321078 0.23676471
0.89589461 0.69607843 0.19656863
0.97892157 0.7 0.17352941
0 0.84705882 0.46568627
0.050490196 0.84742647 0.46666667
0.13553922 0.84313725 0.46666667
0.32107843 0.84031863 0.4745098
0.47009804 0.83872549 0.45294118
0.59166667 0.8310049 0.41617647
0.72941176 0.81568627 0.37647059
0.86384804 0.81213235 0.34963235
0.98529412 0.82352941 0.3372549
0.33333333 0.9377451 0.59068627
0.34803922 0.92996324 0.59803922
0.39313725 0.93431373 0.59448529
0.45882353 0.93645833 0.60196078
0.52916667 0.93480392 0.59632353
0.625 0.93088235 0.58284314
0.72107843 0.92647059 0.55833333
0.84209559 0.9151348 0.52009804
0.95588235 0.91078431 0.50882353
0.57647059 0.98823529 0.7254902
0.58039216 0.98823529 0.7254902
0.58823529 0.98823529 0.72156863
0.61960784 0.98823529 0.7254902
0.66470588 0.99215686 0.73529412
0.7127451 0.99215686 0.73333333
0.77352941 0.99215686 0.72352941
0.84460784 0.99166667 0.7127451
0.92156863 0.98823529 0.69803922
0.0039215686 0.030882353 0.1
0.072610294 0.046568627 0.092585784
0.20637255 0.017647059 0.072671569
0.36734069 0.0078431373 0.072058824
0.51960784 0.033333333 0.048529412
0.64754902 0.074019608 0.036948529
0.76078431 0.1317402 0.025490196
0.86905637 0.16568627 0.020710784
0.99166667 0.18823529 0
0.0039215686 0.087745098 0.1161152
0.057467831 0.095098039 0.10000766
0.21813725 0.10306373 0.076256127
0.38039216 0.11803002 0.067378983
0.53284314 0.13753064 0.051470588
0.6591682 0.16470588 0.044117647
0.76882659 0.18823529 0.028875613
0.87647059 0.21433058 0.017647059
0.96954657 0.23829657 0.0038602941
0.0078431373 0.26556373 0.14509804
0.011167279 0.265625 0.13861826
0.18848039 0.27328431 0.12083333
0.40294118 0.28439032 0.079993873
0.55833333 0.29099265 0.055269608
0.67830882 0.29394914 0.044469975
0.78627451 0.29718137 0.038664216
0.89166667 0.30375306 0.025321691
0.9872549 0.32647059 0.06372549
0.020098039 0.43609069 0.22530637
0.0075367647 0.44362745 0.22595741
0.13962929 0.44607843 0.21764706
0.38119638 0.44129136 0.18099724
0.55637255 0.43587623 0.11936275
0.68400735 0.43333333 0.088235294
0.79986213 0.42754289 0.069791667
0.90245098 0.42998621 0.068321078
0.98480392 0.4372549 0.054289216
0.0039215686 0.59436275 0.31642157
0.014767157 0.60563725 0.31862745
0.082352941 0.6004902 0.30667892
0.33912377 0.58440564 0.27852328
0.50943627 0.57169118 0.23884804
0.65637255 0.56798407 0.20971201
0.79001225 0.56029412 0.16084559
0.91106005 0.5629902 0.13311887
0.98823529 0.56887255 0.14460784
0.0078431373 0.73529412 0.3995098
0.0089690564 0.73529412 0.39983915
0.101394 0.73223039 0.40261949
0.32254902 0.7202742 0.39405637
0.47484681 0.70784314 0.36387868
0.61856618 0.68915441 0.31568627
0.75592831 0.68463542 0.27806373
0.89068627 0.6963848 0.2627451
0.99362745 0.70392157 0.23419118
0.10085784 0.84963235 0.48921569
0.14526654 0.84607843 0.49587929
0.23357843 0.84301471 0.50036765
0.36689645 0.84082414 0.49915748
0.4783701 0.84050245 0.47990196
0.60625 0.82598039 0.45
0.73333333 0.81176471 0.42169118
0.86700368 0.81090686 0.3714614
0.97696078 0.82254902 0.37156863
0.35637255 0.92346814 0.61323529
0.39014246 0.92647059 0.61715686
0.42382047 0.92728248 0.61023284
0.47444853 0.93039216 0.61719516
0.54880515 0.93409926 0.61740196
0.6276731 0.93431373 0.59264706
0.72619485 0.92571998 0.56960784
0.84541973 0.91170343 0.53921569
0.96758578 0.92205882 0.51666667
0.59215686 0.99215686 0.7372549
0.6 0.99215686 0.74068627
0.62340686 0.99301471 0.74509804
0.63903186 0.98823529 0.74148284
0.67401961 0.99215686 0.75441176
0.72028186 0.99215686 0.74479167
0.77401961 0.98431373 0.71617647
0.84460784 0.98480392 0.71023284
0.92205882 0.98872549 0.71029412
0.016666667 0.021568627 0.25686275
0.067401961 0.010171569 0.26470588
0.22328431 0.0098039216 0.25
0.38088235 0.0039215686 0.2372549
0.5372549 0.010784314 0.22352941
0.65477941 0.0098039216 0.19473039
0.75612745 0.030147059 0.19411765
0.86470588 0.12071078 0.1872549
0.97156863 0.16176471 0.17941176
0.014338235 0.091666667 0.26470588
0.050643382 0.091176471 0.26470588
0.22588848 0.098468137 0.25294118
0.39125306 0.091789216 0.23694853
0.54767157 0.060171569 0.22126225
0.65931373 0.095955882 0.20868566
0.76335784 0.14978554 0.19764093
0.87205882 0.17400429 0.19460784
0.98088235 0.21531863 0.19460784
0.011029412 0.26495098 0.28210784
0.049264706 0.27245711 0.27720588
0.24846814 0.27573529 0.27493873
0.4036152 0.27601103 0.26590074
0.55784314 0.27843137 0.25686275
0.67527574 0.27352941 0.23140319
0.77628676 0.27977941 0.21936275
0.88419118 0.2877451 0.21151961
0.97745098 0.31568627 0.20294118
0.1127451 0.43431373 0.34019608
0.1963848 0.4435049 0.34344363
0.25392157 0.44754902 0.33602941
0.40772059 0.44048713 0.30902267
0.5627451 0.43676471 0.28186275
0.68284314 0.42794118 0.26012561
0.79188113 0.41963848 0.24142157
0.89986213 0.42610294 0.23284314
0.95992647 0.43002451 0.22990196
0.20735294 0.59411765 0.41715686
0.21709559 0.59460784 0.4120098
0.26764706 0.59264706 0.39558824
0.38786765 0.58627451 0.37892157
0.52794118 0.56985294 0.34779412
0.6651348 0.56127451 0.3122549
0.79019608 0.55931373 0.29362745
0.90214461 0.56280637 0.27359069
0.98529412 0.56666667 0.26323529
0.21470588 0.72843137 0.47843137
0.24330576 0.72745098 0.47077206
0.28455882 0.72745098 0.46565564
0.39002757 0.71960784 0.46527267
0.50343137 0.7091299 0.43357843
0.62987132 0.69215686 0.39667586
0.76688113 0.69607843 0.37257966
0.89549632 0.7 0.33916973
0.98431373 0.70392157 0.33480392
0.28946078 0.84215686 0.54240196
0.31519608 0.84249387 0.55
0.35196078 0.83995098 0.54926471
0.41485907 0.84705882 0.55
0.50980392 0.83884804 0.53933824
0.6245098 0.82536765 0.50903799
0.74093137 0.81176471 0.4721201
0.87156863 0.81568627 0.44859069
0.98529412 0.82254902 0.42843137
0.45453431 0.92291667 0.65196078
0.45539216 0.92696078 0.65061275
0.48425245 0.9301777 0.65098039
0.52780331 0.92691483 0.65453431
0.57254902 0.93829657 0.65453431
0.65249694 0.92647059 0.63102022
0.74362745 0.91835172 0.60441176
0.85294118 0.91400123 0.58051471
0.96715686 0.92303922 0.55061275
0.63039216 0.99215686 0.76078431
0.62941176 0.99117647 0.75980392
0.64411765 0.99044118 0.7620098
0.65968137 0.98823529 0.75980392
0.69117647 0.99068627 0.76911765
0.73370098 0.98602941 0.75710784
0.78921569 0.99215686 0.75416667
0.85588235 0.99215686 0.74509804
0.93039216 0.98921569 0.73137255
0.0053921569 0.0039215686 0.43431373
0.085110294 0.0078431373 0.43578431
0.26360294 0 0.43578431
0.40686275 0.0053921569 0.42009804
0.55343137 0.0039215686 0.40171569
0.67015931 0.045465686 0.36764706
0.77438725 0.024877451 0.34068627
0.87469363 0.018566176 0.32156863
0.97892157 0.026960784 0.30392157
0.0053921569 0.091973039 0.42824755
0.034451593 0.093543199 0.43766085
0.25623468 0.094653799 0.43468137
0.41862745 0.10546109 0.42493873
0.55995711 0.12156863 0.40162377
0.67800245 0.10857843 0.36998315
0.77610294 0.096446078 0.33658088
0.88020833 0.058517157 0.31357996
0.9841299 0.15894608 0.32058824
0.0053921569 0.26507353 0.43431373
0.012806373 0.26776961 0.44344363
0.24742647 0.27965686 0.43988971
0.42647059 0.28137255 0.43255208
0.56862745 0.28039216 0.41421569
0.67892157 0.26467525 0.38558517
0.77438725 0.26862745 0.36124387
0.87958027 0.25709252 0.33463542
0.98088235 0.27892157 0.33186275
0.042156863 0.43731618 0.440625
0.16194853 0.44001225 0.45539216
0.30873162 0.4394761 0.45562194
0.44238664 0.43578431 0.44339767
0.56740196 0.43109681 0.4252451
0.68131127 0.42644761 0.40663297
0.78071385 0.40957414 0.37990196
0.88892463 0.40991881 0.35863971
0.97622549 0.42365196 0.35343137
0.28946078 0.58823529 0.49901961
0.31127451 0.58823529 0.50603554
0.38835784 0.58088235 0.49822304
0.44828431 0.57478554 0.48823529
0.55122549 0.56568627 0.46176471
0.66470588 0.55640319 0.43259804
0.79093137 0.55153186 0.40759804
0.89960172 0.55275735 0.38897059
0.99019608 0.55955882 0.38186275
0.38180147 0.70931373 0.56078431
0.41678922 0.71715686 0.56696538
0.42765012 0.71453738 0.55623468
0.45743719 0.71715686 0.54152114
0.54411765 0.70885417 0.52699142
0.64754902 0.69307598 0.49601716
0.77130821 0.68860294 0.46875
0.89933364 0.7 0.44521293
0.98186275 0.69454657 0.42506127
0.45441176 0.83247549 0.63284314
0.45767463 0.83543199 0.63288909
0.46893382 0.83777574 0.62417279
0.48803615 0.84146752 0.61121324
0.55704657 0.84295343 0.6151348
0.64931066 0.81960784 0.5865962
0.75085784 0.81531863 0.54693627
0.87844669 0.81862745 0.51997549
0.95232843 0.81678922 0.50551471
0.55018382 0.91911765 0.70833333
0.55757506 0.92244179 0.7096201
0.55632659 0.93186275 0.70067402
0.58892463 0.92696078 0.70533088
0.62867647 0.9268076 0.70441176
0.68529412 0.92432598 0.6877451
0.7569087 0.92659314 0.66470588
0.86076134 0.91476716 0.6403799
0.96488971 0.91960784 0.60275735
0.67156863 0.98431373 0.79313725
0.67910539 0.98823529 0.79460784
0.67708333 0.98259804 0.78970588
0.69993873 0.98823529 0.79705882
0.71887255 0.98578431 0.79215686
0.7622549 0.98823529 0.79460784
0.80551471 0.98823529 0.78529412
0.86372549 0.98854167 0.77745098
0.9372549 0.98970588 0.76078431
0 0.0039215686 0.59019608
0.059558824 0.019852941 0.58235294
0.26470588 0 0.58039216
0.42671569 0.0039215686 0.58431373
0.57156863 0.0019607843 0.57352941
0.69264706 0.039460784 0.53823529
0.78529412 0.14901961 0.50294118
0.88210784 0.13651961 0.47990196
0.98039216 0.094117647 0.4627451
0.0039215686 0.075735294 0.58235294
0.030085784 0.074571078 0.59019608
0.26470588 0.090196078 0.58431373
0.42794118 0.11029412 0.58431373
0.57634804 0.13419118 0.57647059
0.68676471 0.16470588 0.54166667
0.78400735 0.22408088 0.50686275
0.89145221 0.19172794 0.48186275
0.9745098 0.15171569 0.45882353
0.0058823529 0.25784314 0.5877451
0.034865196 0.2682598 0.59613971
0.27156863 0.28002451 0.58431373
0.43517157 0.28921569 0.58039216
0.575 0.29730392 0.57401961
0.69068627 0.29650735 0.54540441
0.78345588 0.32120098 0.51078431
0.88670343 0.28841912 0.48186275
0.98137255 0.25637255 0.45686275
0.016911765 0.42990196 0.5870098
0.078002451 0.43121936 0.59215686
0.30667892 0.43186275 0.58823529
0.4419424 0.43970588 0.58039216
0.57009804 0.43848039 0.57022059
0.68161765 0.43036152 0.54905025
0.78155637 0.41397059 0.51109069
0.88587623 0.40358456 0.4877451
0.97916667 0.39460784 0.4745098
0.20980392 0.57352941 0.58823529
0.27977941 0.58125 0.59215686
0.375 0.57696078 0.58651961
0.46691176 0.57058824 0.59019608
0.56666667 0.56568627 0.57794118
0.6682598 0.55220588 0.54816176
0.77990196 0.54289216 0.51862745
0.88909314 0.53039216 0.49877451
0.97843137 0.52352941 0.48431373
0.39656863 0.70269608 0.61936275
0.41838235 0.71029412 0.62647059
0.46599265 0.7088848 0.63431373
0.51176471 0.71053922 0.62573529
0.59583333 0.70330882 0.6192402
0.66911765 0.69307598 0.5995098
0.78069853 0.68560049 0.56501225
0.9015625 0.68489583 0.5393076
0.98063725 0.67598039 0.525
0.51127451 0.83039216 0.69215686
0.52279412 0.82518382 0.69442402
0.56029412 0.82647059 0.7
0.58425245 0.825 0.68860294
0.62303922 0.82794118 0.68578431
0.68578431 0.82352941 0.67371324
0.78137255 0.81556373 0.63529412
0.88204657 0.80974265 0.60606618
0.98186275 0.81176471 0.58676471
0.62107843 0.91519608 0.76568627
0.63697917 0.9221201 0.76960784
0.64852941 0.92261029 0.76973039
0.6645527 0.92083333 0.76617647
0.68578431 0.91911765 0.76017157
0.72760417 0.92647059 0.75646446
0.78872549 0.92169118 0.73363971
0.86685049 0.91862745 0.6995098
0.97965686 0.92254902 0.67254902
0.7254902 0.98039216 0.83333333
0.72696078 0.98014706 0.83284314
0.73970588 0.98431373 0.8377451
0.74313725 0.98161765 0.83333333
0.75686275 0.97941176 0.82843137
0.7877451 0.98161765 0.8252451
0.83039216 0.98431373 0.8254902
0.88137255 0.98823529 0.81691176
0.94117647 0.98823529 0.80196078
0 0 0.72352941
0.062745098 0.0039215686 0.71697304
0.27683824 0.0014705882 0.71776961
0.42794118 0.006372549 0.71231618
0.56862745 0.022303922 0.71176471
0.7 0.071017157 0.69215686
0.8122549 0.14411765 0.66519608
0.90520833 0.23909314 0.64215686
0.99068627 0.23823529 0.61764706
0.0052083333 0.086458333 0.72696078
0.060761336 0.096836703 0.72352941
0.27264093 0.097640931 0.7192402
0.42530637 0.11647518 0.71568627
0.56593137 0.15891544 0.70965074
0.69908088 0.18780637 0.69478401
0.80183824 0.23578431 0.66519608
0.9036152 0.28551624 0.64215686
0.96176471 0.30569853 0.63088235
0.011764706 0.27107843 0.72058824
0.09932598 0.27352941 0.72095588
0.28578431 0.28284314 0.71666667
0.43296569 0.29313725 0.707981
0.57132353 0.30735294 0.70392157
0.69607843 0.31980699 0.69068627
0.79718137 0.34142157 0.66271446
0.89969363 0.35637255 0.64607843
0.99276961 0.36470588 0.62303922
0.01752451 0.41764706 0.71568627
0.11776961 0.421875 0.7122549
0.30735294 0.42512255 0.70784314
0.44362745 0.43670343 0.70392157
0.57570466 0.44509804 0.70193015
0.69552696 0.45441176 0.68789063
0.8004902 0.44987745 0.66127451
0.89797794 0.44449295 0.63835018
0.98186275 0.44705882 0.61911765
0.15073529 0.56666667 0.70196078
0.23250613 0.56666667 0.71087623
0.34344363 0.57058824 0.7060049
0.45955882 0.56789216 0.70392157
0.57058824 0.56862745 0.69411765
0.68504902 0.57086397 0.68262868
0.79117647 0.56127451 0.66127451
0.89166667 0.55401348 0.63685662
0.98039216 0.5252451 0.60735294
0.34221814 0.70055147 0.70637255
0.38118107 0.7 0.71164982
0.42996324 0.70392157 0.71415441
0.52851562 0.69812347 0.71738664
0.59411765 0.69215686 0.70738358
0.69192708 0.6966299 0.70539216
0.78933824 0.69257047 0.68480392
0.89577206 0.67470895 0.64688266
0.98155637 0.6471201 0.61911765
0.50183824 0.82352941 0.75
0.5196538 0.81960784 0.75392157
0.55955882 0.82463235 0.75392157
0.61268382 0.82254902 0.75784314
0.66415441 0.81960784 0.75784314
0.72216605 0.82352941 0.75281863
0.79856005 0.81470588 0.72650123
0.89505208 0.8 0.68823529
0.98823529 0.80392157 0.67696078
0.64920343 0.91519608 0.81813725
0.66051624 0.92604167 0.81832108
0.67941176 0.9207261 0.81813725
0.71243873 0.92126225 0.82205882
0.74960172 0.92647059 0.82352941
0.78131127 0.92765012 0.82217371
0.81654412 0.9260723 0.80490196
0.88921569 0.90980392 0.76881127
0.96617647 0.90949755 0.75490196
0.77647059 0.98284314 0.87990196
0.77261029 0.9817402 0.87732843
0.77977941 0.98039216 0.87598039
0.80294118 0.98431373 0.88229167
0.80808824 0.98039216 0.87598039
0.82371324 0.97671569 0.86930147
0.85735294 0.98541667 0.86960784
0.89607843 0.98560049 0.86127451
0.91617647 0.98039216 0.84607843
0.0078431373 0.0039215686 0.83529412
0.10784314 0.0039215686 0.83921569
0.27352941 0 0.83823529
0.42512255 0.01875 0.83431373
0.56078431 0.044607843 0.83088235
0.69215686 0.13480392 0.81813725
0.81397059 0.18823529 0.80465686
0.91666667 0.23970588 0.78137255
0.99215686 0.3 0.76470588
0 0.10821078 0.84571078
0.11913297 0.1033701 0.84345895
0.28223039 0.12150735 0.83826593
0.42794118 0.14655331 0.83431373
0.5629902 0.17653186 0.83137255
0.69007353 0.21666667 0.81531863
0.82153799 0.25588235 0.80848652
0.91852022 0.2823989 0.78350184
0.99215686 0.34411765 0.76862745
0.059558824 0.28063725 0.83235294
0.16531863 0.28455882 0.83844975
0.29705882 0.28995098 0.83455882
0.43909314 0.29987745 0.83039216
0.56862745 0.31568627 0.82745098
0.69607843 0.33158701 0.81568627
0.8158701 0.35582108 0.80784314
0.92113971 0.37352941 0.78808211
0.97647059 0.39705882 0.76960784
0.085906863 0.41875 0.83137255
0.20845588 0.42922794 0.83468137
0.33002451 0.42941176 0.82901348
0.45 0.43670343 0.82647059
0.57254902 0.44901961 0.81960784
0.7 0.46470588 0.81568627
0.81286765 0.4689951 0.80330882
0.91164216 0.47896752 0.78426777
0.99117647 0.49754902 0.76568627
0.090686275 0.54705882 0.82303922
0.20269608 0.55220588 0.82689951
0.34080882 0.55796569 0.825
0.45 0.56078431 0.82303922
0.57647059 0.57230392 0.81936275
0.69607843 0.57892157 0.81495098
0.80588235 0.58137255 0.80294118
0.90196078 0.5872549 0.78125
0.99215686 0.58627451 0.76470588
0.28186275 0.69718137 0.81470588
0.31813725 0.69546569 0.8191636
0.3942402 0.69491422 0.81878064
0.48627451 0.69587929 0.81862745
0.57738971 0.69215686 0.81360294
0.69109988 0.69894301 0.81715686
0.79126838 0.70015319 0.79901961
0.89571078 0.69523591 0.77610294
0.98088235 0.66188725 0.74558824
0.45808824 0.82352941 0.83039216
0.46933211 0.81547181 0.8333027
0.52254902 0.81789216 0.83137255
0.57573529 0.81862745 0.83458946
0.64215686 0.81948529 0.8189951
0.72401961 0.81960784 0.82254902
0.81139706 0.81642157 0.81623775
0.8995098 0.80744485 0.79592525
0.98039216 0.79681373 0.77745098
0.65661765 0.92303922 0.85870098
0.64891238 0.92179841 0.86508885
0.6859375 0.92484681 0.86433824
0.70355392 0.91862745 0.86556373
0.75085784 0.92303922 0.87077206
0.80597426 0.92285539 0.87241115
0.8450674 0.92092525 0.86397059
0.90698529 0.9134038 0.84473039
0.97169118 0.91176471 0.82610294
0.77745098 0.98039216 0.90686275
0.78431373 0.98039216 0.90686275
0.79436275 0.98039216 0.90980392
0.80637255 0.975 0.90931373
0.84509804 0.98431373 0.91715686
0.8754902 0.98431373 0.92144608
0.89142157 0.97965686 0.91151961
0.92303922 0.97242647 0.89460784
0.95882353 0.96764706 0.87156863
0.049019608 0.0073529412 0.93872549
0.16372549 0.032904412 0.93431373
0.29056373 0.017279412 0.93872549
0.4254902 0.070588235 0.93480392
0.55686275 0.13088235 0.93480392
0.68382353 0.1908701 0.9254902
0.80392157 0.2627451 0.93039216
0.91519608 0.28823529 0.90735294
0.97647059 0.31568627 0.9
0.075980392 0.12794118 0.93780637
0.17375919 0.14270833 0.93867188
0.29938725 0.15490196 0.93705576
0.42922794 0.18024663 0.93841912
0.56072304 0.22012868 0.93480392
0.68747702 0.24822304 0.92930453
0.8105239 0.29972426 0.92352941
0.90729933 0.32995558 0.90772825
0.99515931 0.35300245 0.90692402
0.13627451 0.28529412 0.93480392
0.22135417 0.29718137 0.93432904
0.32573529 0.29840686 0.93238358
0.44446998 0.31531863 0.93051471
0.57156863 0.33186275 0.93094363
0.69203431 0.35882353 0.9196538
0.80784314 0.38915441 0.91911765
0.91470588 0.40980392 0.90724571
0.98823529 0.42156863 0.9004902
0.20980392 0.42794118 0.93431373
0.26648284 0.43202359 0.93216912
0.35404412 0.43639706 0.9270527
0.46470588 0.44558824 0.92303922
0.58039216 0.45523897 0.92867647
0.69970129 0.47333027 0.92126225
0.81164216 0.49473039 0.91911765
0.9156633 0.50196078 0.90735294
0.99215686 0.50637255 0.90165441
0.20784314 0.54901961 0.92303922
0.2745098 0.55340074 0.92674632
0.35030637 0.55294118 0.92604167
0.46773897 0.56332721 0.92647059
0.57867647 0.57377451 0.92647059
0.69607843 0.58921569 0.9145527
0.81041667 0.59810049 0.91488971
0.9129902 0.61029412 0.91035539
0.98431373 0.60857843 0.89607843
0.26617647 0.67383578 0.92156863
0.28400735 0.6687883 0.91942402
0.37140012 0.66827512 0.91773897
0.44496783 0.67591912 0.91642157
0.5745098 0.6875 0.91902574
0.69160539 0.7 0.91464461
0.80428922 0.70905331 0.91127451
0.90965839 0.71617647 0.90340839
0.98008578 0.71470588 0.8939951
0.41286765 0.81531863 0.91384804
0.42772672 0.79618566 0.9221201
0.47303922 0.80248162 0.91875
0.54411765 0.80401348 0.91256127
0.6254902 0.80514706 0.9088848
0.70543811 0.81041667 0.91519608
0.80719975 0.81865809 0.91127451
0.90461091 0.82233456 0.90021446
0.98382353 0.81176471 0.88431373
0.609375 0.92254902 0.92303922
0.60325521 0.91911765 0.92303922
0.63316483 0.91482843 0.92561275
0.67557445 0.91909467 0.92320006
0.73137255 0.91519608 0.92303922
0.79215686 0.92126225 0.92297794
0.85359988 0.91035539 0.92336091
0.92303922 0.91170343 0.91476716
0.98039216 0.91176471 0.90435049
0.76813725 0.98431373 0.94558824
0.77591912 0.98431373 0.94558824
0.78639706 0.97990196 0.94301471
0.82401961 0.98449755 0.94558824
0.85441176 0.98602941 0.94779412
0.87224265 0.98039216 0.9495098
0.91470588 0.98296569 0.95735294
0.9504902 0.97696078 0.94215686
0.98039216 0.96911765 0.92254902
0.14509804 0.066666667 1
0.21470588 0.10196078 0.99264706
0.31372549 0.1245098 0.99607843
0.42941176 0.15784314 0.98823529
0.55490196 0.19411765 0.98627451
0.675 0.25539216 0.98823529
0.78823529 0.31470588 0.99607843
0.89607843 0.35784314 0.98823529
0.99607843 0.40784314 0.99607843
0.17941176 0.18235294 0.99607843
0.21372549 0.16666667 0.97647059
0.32598039 0.19926471 0.99656863
0.42892157 0.21127451 0.9786152
0.56029412 0.24558824 0.98602941
0.6786152 0.29558824 0.98449755
0.79203431 0.34264706 0.98872549
0.8995098 0.39209559 0.99166667
0.97990196 0.41862745 0.97647059
0.23627451 0.30980392 0.98823529
0.27512255 0.31629902 0.99509804
0.34607843 0.32156863 0.98039216
0.45588235 0.33688725 0.98492647
0.57254902 0.35196078 0.9754902
0.68615196 0.38578431 0.98933824
0.79901961 0.41691176 0.98431373
0.9 0.45992647 0.99080882
0.99607843 0.4872549 0.9872549
0.27009804 0.43186275 0.97892157
0.29607843 0.44117647 0.9745098
0.37561275 0.44509804 0.98284314
0.47647059 0.45931373 0.98584559
0.58161765 0.47132353 0.99019608
0.69460784 0.49117647 0.97794118
0.79963235 0.52169118 0.98823529
0.90343137 0.54068627 0.97775735
0.98186275 0.55147059 0.96372549
0.2745098 0.55098039 0.98039216
0.29926471 0.55465686 0.96078431
0.39264706 0.56029412 0.98921569
0.4877451 0.57377451 0.98578431
0.58921569 0.58039216 0.99705882
0.69607843 0.59485294 0.97794118
0.80294118 0.62205882 0.98480392
0.90343137 0.64117647 0.97892157
0.99411765 0.66666667 0.99215686
0.2622549 0.66078431 0.95686275
0.27242647 0.66078431 0.96617647
0.38039216 0.66323529 0.97941176
0.49123775 0.67745098 0.98823529
0.59803922 0.69068627 0.99558824
0.70245098 0.70300245 0.99068627
0.80330882 0.72242647 0.97647059
0.90294118 0.74558824 0.99381127
0.95392157 0.74558824 0.96078431
0.4127451 0.79607843 0.98921569
0.42156863 0.78566176 0.97659314
0.46348039 0.78112745 0.98823529
0.52291667 0.78823529 0.97941176
0.59852941 0.79166667 0.98823529
0.71127451 0.80833333 0.98492647
0.81470588 0.81960784 0.98014706
0.90821078 0.83860294 0.98406863
0.98235294 0.85 0.98235294
0.5872549 0.91568627 0.96421569
0.60202206 0.91911765 0.96813725
0.63321078 0.91482843 0.97781863
0.66372549 0.91470588 0.99430147
0.72132353 0.91102941 0.98431373
0.77352941 0.90343137 0.98382353
0.84252451 0.90735294 0.99080882
0.92303922 0.915625 0.98045343
0.98872549 0.93088235 0.98872549
0.74509804 0.98823529 0.98431373
0.73872549 0.98088235 0.98823529
0.73431373 0.96470588 0.97745098
0.80392157 0.98039216 0.96323529
0.8254902 0.98627451 0.98627451
0.87598039 0.98431373 0.97009804
0.90784314 0.9872549 0.9872549
0.95735294 0.98431373 0.97647059
0.99607843 0.99607843 0.99215686
