site/assets/luts/natron-haldclut--fuji-superia-200-xpro--920036f3e.cube
# LUTr-Project: LUTr — LUTrepository
# LUTr-Schema-Version: 1
# LUTr-ID: natron-haldclut--fuji-superia-200-xpro--920036f3e
# LUTr-Title: fuji superia 200 xpro
# LUTr-Collection: Natron HaldCLUT
# LUTr-Collection-ID: natron-haldclut-presets
# LUTr-Source: https://github.com/NatronGitHub/clut
# LUTr-Source-File: submissions/natron-haldclut-presets/colorslide/fuji_superia_200_xpro.png
# LUTr-Source-Format: PNG
# LUTr-Source-SHA256: ac9d8a82e0d625c0b3795c45f9dbacb6f14e32999a6b7e227585c9581a19f8f9
# LUTr-License: CC-BY-SA-4.0
# LUTr-License-URL: https://github.com/NatronGitHub/clut#license
# LUTr-Tags: creative, film, film-emulation, hald-clut, natron, png, cube
# LUTr-Transform-Class: film-emulation
# LUTr-Input-Color-Space: srgb
# LUTr-Output-Color-Space: srgb
# LUTr-Color-Space-Confidence: assumed-display-referred
# LUTr-Conversion-Method: PNG LUT image decoded at 16-bit and sampled to 25x25x25 3D CUBE
# LUTr-Conversion-Date: 2026-07-27
# LUTr-Conversion-Tool: LUTr scripts/convert-all-to-cube.mjs
# LUTr-Conversion-Grid: 25x25x25
# LUTr-Note: Preserve this metadata and the upstream license notices when redistributing.
TITLE "fuji superia 200 xpro"
LUT_3D_SIZE 25
DOMAIN_MIN 0 0 0
DOMAIN_MAX 1 1 1
0 0 0.019607843
0.0024509804 0.014215686 0.066176471
0.0039215686 0.019607843 0.076470588
0.00049019608 0.016176471 0.083333333
0 0.0039215686 0.056862745
0 0.0039215686 0.067156863
0 0.0039215686 0.07745098
0 0.013235294 0.11176471
0 0.011764706 0.1254902
0.0024509804 0.024509804 0.15098039
0 0.017647059 0.15392157
0.0073529412 0.023039216 0.16764706
0.011764706 0.021568627 0.16862745
0.032352941 0.03627451 0.19362745
0.056862745 0.056862745 0.21764706
0.085294118 0.075980392 0.23676471
0.094117647 0.058823529 0.24705882
0.10147059 0.036764706 0.24754902
0.13137255 0.02254902 0.22058824
0.1627451 0.014705882 0.20637255
0.2 0.033333333 0.23137255
0.24068627 0.051960784 0.25637255
0.28137255 0.058823529 0.25686275
0.32352941 0.060294118 0.2495098
0.36470588 0.062745098 0.24313725
0.0024509804 0.050490196 0.12843137
0.003370098 0.049571078 0.1283701
0.0039215686 0.047916667 0.11875
0.00018382353 0.052757353 0.16243873
0 0.054166667 0.17230392
0 0.055698529 0.19031863
0.0024509804 0.059313725 0.19362745
0.0039215686 0.064705882 0.20073529
0.006372549 0.067156863 0.19803922
0.010294118 0.07689951 0.21519608
0.01372549 0.07745098 0.22401961
0.024019608 0.07745098 0.22150735
0.030392157 0.07745098 0.22279412
0.042647059 0.075 0.228125
0.065073529 0.076470588 0.23443627
0.090134804 0.079963235 0.23645833
0.10686275 0.074019608 0.24313725
0.12352941 0.066176471 0.24803922
0.14620098 0.055882353 0.23872549
0.17352941 0.049019608 0.23854167
0.21029412 0.056372549 0.24926471
0.24754902 0.07254902 0.26881127
0.28872549 0.079411765 0.27193627
0.32990196 0.084252451 0.27064951
0.36078431 0.089705882 0.27401961
0.0039215686 0.090196078 0.15196078
0.0011029412 0.090196078 0.17303922
0 0.091176471 0.17941176
0 0.098529412 0.21029412
0.0024509804 0.10490196 0.23382353
0.0039215686 0.10735294 0.23615196
0.0046568627 0.11078431 0.23161765
0.0082107843 0.11617647 0.23161765
0.012745098 0.12254902 0.24901961
0.019117647 0.12830882 0.27083333
0.029411765 0.13504902 0.27745098
0.042279412 0.1372549 0.26666667
0.052941176 0.13333333 0.26470588
0.060661765 0.12892157 0.27365196
0.076715686 0.12230392 0.27377451
0.094117647 0.11556373 0.27022059
0.11862745 0.10980392 0.26666667
0.14019608 0.10343137 0.27144608
0.16151961 0.093137255 0.26960784
0.18872549 0.089338235 0.26960784
0.22107843 0.089705882 0.27941176
0.25784314 0.097916667 0.29007353
0.29828431 0.10784314 0.29681373
0.33590686 0.11421569 0.3
0.36568627 0.11960784 0.30098039
0.0039215686 0.13529412 0.22058824
0 0.13529412 0.23106618
0 0.13884804 0.23529412
0.003002451 0.14613971 0.2627451
0.0039215686 0.15269608 0.28161765
0.0039215686 0.15839461 0.28768382
0.0068627451 0.1622549 0.28468137
0.0093137255 0.1627451 0.28823529
0.015686275 0.16666667 0.29558824
0.02567402 0.17089461 0.30900735
0.035906863 0.17463235 0.31090686
0.046568627 0.175 0.30741422
0.056862745 0.17083333 0.30392157
0.067156863 0.16623775 0.30790441
0.08002451 0.15894608 0.30833333
0.097058824 0.1536152 0.30655637
0.1254902 0.14705882 0.3004902
0.15557598 0.14099265 0.3004902
0.17879902 0.1317402 0.29693627
0.20588235 0.12745098 0.30006127
0.23627451 0.12745098 0.31029412
0.26813725 0.12843137 0.31666667
0.30551471 0.13492647 0.32058824
0.34509804 0.14148284 0.3245098
0.37205882 0.14754902 0.3245098
0.0039215686 0.18431373 0.28627451
0.0019607843 0.18431373 0.28823529
0.0039215686 0.1872549 0.29166667
0.0039215686 0.19387255 0.31642157
0.0039215686 0.20098039 0.33627451
0.0058823529 0.20416667 0.34093137
0.0078431373 0.20784314 0.34264706
0.0078431373 0.20784314 0.35441176
0.015686275 0.20980392 0.35882353
0.029901961 0.21176471 0.35563725
0.042156863 0.21176471 0.34656863
0.05245098 0.21176471 0.34485294
0.062745098 0.20686275 0.34117647
0.073039216 0.20171569 0.33921569
0.084803922 0.19656863 0.33921569
0.10171569 0.18823529 0.34387255
0.13333333 0.18431373 0.32941176
0.16617647 0.17598039 0.3254902
0.19509804 0.16813725 0.32303922
0.22401961 0.1627451 0.3252451
0.25294118 0.1627451 0.33529412
0.28186275 0.1627451 0.34142157
0.31960784 0.16421569 0.34313725
0.35808824 0.16936275 0.34509804
0.38823529 0.1745098 0.34509804
0.0039215686 0.23382353 0.34803922
0.0039215686 0.23382353 0.34117647
0.0040441176 0.23468137 0.34448529
0.0078431373 0.24074755 0.36041667
0.0078431373 0.24534314 0.36985294
0.0078431373 0.24901961 0.37401961
0.0078431373 0.24901961 0.3872549
0.0098039216 0.24901961 0.39313725
0.019607843 0.24901961 0.39313725
0.034129902 0.24901961 0.38676471
0.048161765 0.24852941 0.37659314
0.059252451 0.24552696 0.36966912
0.070833333 0.24117647 0.36960784
0.078921569 0.2372549 0.36960784
0.089215686 0.23296569 0.36568627
0.10686275 0.2254902 0.36292892
0.14166667 0.22107843 0.35441176
0.1786152 0.21078431 0.35018382
0.21127451 0.20147059 0.34595588
0.24215686 0.19754902 0.34601716
0.26936275 0.19558824 0.35563725
0.29607843 0.19362745 0.3622549
0.32990196 0.19362745 0.36568627
0.37107843 0.19754902 0.36176471
0.40490196 0.20098039 0.36176471
0.0039215686 0.28235294 0.39607843
0.0039215686 0.28235294 0.39252451
0.0071078431 0.28235294 0.38897059
0.0078431373 0.28492647 0.38529412
0.011764706 0.28676471 0.39215686
0.011764706 0.29019608 0.39460784
0.011764706 0.29019608 0.40490196
0.018627451 0.29019608 0.40833333
0.026470588 0.29019608 0.41078431
0.039583333 0.29019608 0.40588235
0.051960784 0.28627451 0.39803922
0.060661765 0.28541667 0.3932598
0.069607843 0.28186275 0.39411765
0.080269608 0.27794118 0.39276961
0.095343137 0.26862745 0.3872549
0.11531863 0.26335784 0.38296569
0.15196078 0.25588235 0.37843137
0.18676471 0.24669118 0.375
0.2254902 0.23529412 0.36568627
0.25637255 0.22843137 0.36360294
0.28333333 0.22647059 0.37254902
0.31017157 0.22414216 0.38284314
0.34338235 0.22132353 0.38627451
0.38529412 0.22487745 0.38235294
0.41862745 0.22843137 0.37843137
0.0039215686 0.33284314 0.42254902
0.0039215686 0.33137255 0.42009804
0.0078431373 0.33137255 0.41973039
0.01127451 0.32922794 0.41617647
0.011764706 0.32892157 0.41348039
0.015686275 0.32745098 0.41341912
0.018995098 0.33137255 0.41862745
0.024080882 0.33192402 0.42401961
0.031372549 0.33529412 0.42647059
0.038664216 0.33529412 0.42647059
0.04620098 0.33284314 0.42401961
0.045894608 0.33284314 0.42794118
0.053921569 0.32696078 0.42867647
0.074019608 0.31911765 0.41960784
0.098529412 0.30588235 0.40931373
0.125 0.29944853 0.40294118
0.1622549 0.29215686 0.40294118
0.1995098 0.28578431 0.39803922
0.23676471 0.27156863 0.39166667
0.27579657 0.26470588 0.38480392
0.30563725 0.26078431 0.38921569
0.33351716 0.25900735 0.39803922
0.36409314 0.25539216 0.40147059
0.3995098 0.25447304 0.39754902
0.43039216 0.25539216 0.39362745
0 0.38039216 0.44705882
0.0039215686 0.38039216 0.44705882
0.0078431373 0.38039216 0.44705882
0.01127451 0.38039216 0.44705882
0.011764706 0.38039216 0.44313725
0.015686275 0.38382353 0.44313725
0.015686275 0.37745098 0.44313725
0.021078431 0.38039216 0.44705882
0.02745098 0.38039216 0.45098039
0.031372549 0.38039216 0.45098039
0.035294118 0.38039216 0.45490196
0.031862745 0.38039216 0.45882353
0.031372549 0.3745098 0.4627451
0.056372549 0.36421569 0.45441176
0.093137255 0.35392157 0.44117647
0.13529412 0.33970588 0.43382353
0.17254902 0.33333333 0.43137255
0.21127451 0.32696078 0.42745098
0.25196078 0.31666667 0.41862745
0.29264706 0.30637255 0.41176471
0.32745098 0.29803922 0.41176471
0.35833333 0.29411765 0.4122549
0.38921569 0.29019608 0.4127451
0.42401961 0.28480392 0.41029412
0.45490196 0.28235294 0.40784314
0 0.42794118 0.47401961
0.0039215686 0.42947304 0.47401961
0.006004902 0.43468137 0.47794118
0.0078431373 0.43792892 0.47794118
0.011764706 0.44093137 0.47794118
0.013541667 0.44166667 0.47775735
0.015686275 0.43468137 0.47401961
0.015686275 0.42947304 0.47457108
0.017156863 0.42794118 0.47794118
0.022610294 0.43186275 0.48094363
0.025 0.43186275 0.48284314
0.019791667 0.42794118 0.48939951
0.017647059 0.42205882 0.49436275
0.049509804 0.41568627 0.48872549
0.1004902 0.40539216 0.475
0.14166667 0.3872549 0.46954657
0.18284314 0.3745098 0.4622549
0.22401961 0.36666667 0.45588235
0.26801471 0.35784314 0.44705882
0.30900735 0.34754902 0.43676471
0.34411765 0.33921569 0.43480392
0.37677696 0.33265931 0.43235294
0.41090686 0.32745098 0.43051471
0.44460784 0.31960784 0.42696078
0.47303922 0.31323529 0.42058824
0 0.48529412 0.50588235
0.0024509804 0.48823529 0.50772059
0.0046568627 0.49215686 0.50882353
0.0078431373 0.49607843 0.50980392
0.01127451 0.5 0.5127451
0.011764706 0.49987745 0.50968137
0.014705882 0.49313725 0.50661765
0.011764706 0.48676471 0.50490196
0.011764706 0.48333333 0.50490196
0.014705882 0.48333333 0.50845588
0.015686275 0.48431373 0.5120098
0.015686275 0.48345588 0.51654412
0.027941176 0.47745098 0.51960784
0.063112745 0.46666667 0.51531863
0.11078431 0.45220588 0.50661765
0.15085784 0.43333333 0.50490196
0.19019608 0.41666667 0.49705882
0.23884804 0.40931373 0.48394608
0.28529412 0.4 0.47156863
0.32598039 0.39264706 0.46213235
0.36078431 0.38235294 0.45931373
0.39460784 0.37120098 0.45637255
0.42647059 0.36397059 0.45294118
0.46066176 0.35539216 0.44754902
0.48823529 0.34803922 0.44117647
0.0034313725 0.55735294 0.54313725
0.00030637255 0.55735294 0.54362745
0.0039215686 0.55747549 0.54362745
0.0074142157 0.55784314 0.54362745
0.0080882353 0.56176471 0.54362745
0.011764706 0.56127451 0.54362745
0.011764706 0.55490196 0.54056373
0.011764706 0.54852941 0.53921569
0.011764706 0.54215686 0.53578431
0.0078431373 0.53872549 0.53578431
0.0083333333 0.54215686 0.53982843
0.011335784 0.54215686 0.54362745
0.038480392 0.53259804 0.54215686
0.083333333 0.51813725 0.53927696
0.12745098 0.50147059 0.53590686
0.17303922 0.48823529 0.53088235
0.21470588 0.47156863 0.52058824
0.2596201 0.45569853 0.50765931
0.30588235 0.44497549 0.49558824
0.34656863 0.43425245 0.48578431
0.37745098 0.42156863 0.48137255
0.40839461 0.40931373 0.47745098
0.44227941 0.39938725 0.47352941
0.47794118 0.38921569 0.46813725
0.50490196 0.38284314 0.46176471
0.0039215686 0.6254902 0.57843137
0.0039215686 0.62745098 0.58039216
0.0039215686 0.62745098 0.58039216
0.0039215686 0.62745098 0.58039216
0.0078431373 0.62843137 0.57941176
0.01004902 0.6252451 0.57818627
0.011764706 0.61813725 0.575
0.011764706 0.61372549 0.57254902
0.0098039216 0.60980392 0.57058824
0.0078431373 0.60588235 0.57058824
0.0029411765 0.60392157 0.57058824
0.012254902 0.6004902 0.57279412
0.055882353 0.5872549 0.56764706
0.10416667 0.5754902 0.5625
0.15392157 0.56176471 0.55931373
0.2 0.54754902 0.55416667
0.24313725 0.52941176 0.54313725
0.28627451 0.51078431 0.53088235
0.32941176 0.49460784 0.51862745
0.36323529 0.47916667 0.51029412
0.39411765 0.4627451 0.50392157
0.425 0.44656863 0.49803922
0.45735294 0.43627451 0.49411765
0.49607843 0.42401961 0.48553922
0.5254902 0.41568627 0.48039216
0.0078431373 0.69362745 0.61323529
0.0039215686 0.6973652 0.6158701
0 0.69754902 0.61715686
0.0038602941 0.69803922 0.61715686
0.0056372549 0.69754902 0.61372549
0.0078431373 0.69313725 0.61323529
0.010416667 0.68970588 0.60943627
0.011764706 0.68431373 0.60802696
0.011764706 0.68186275 0.60539216
0.011764706 0.67579657 0.60196078
0.0078431373 0.67389706 0.60147059
0.029901961 0.66317402 0.60104167
0.07745098 0.6502451 0.59362745
0.12892157 0.6377451 0.58921569
0.18039216 0.62487745 0.58541667
0.22696078 0.61176471 0.57990196
0.27156863 0.59117647 0.56617647
0.3127451 0.57009804 0.55539216
0.35306373 0.5495098 0.54509804
0.3877451 0.52892157 0.53529412
0.41862745 0.5125 0.52867647
0.4495098 0.49650735 0.52254902
0.48088235 0.48198529 0.51568627
0.52089461 0.4713848 0.50716912
0.55 0.46127451 0.50294118
0.0078431373 0.75882353 0.64803922
0.0050245098 0.76568627 0.64987745
0 0.76960784 0.65196078
0 0.77352941 0.65196078
0.0039215686 0.76960784 0.65098039
0.0078431373 0.76519608 0.64791667
0.0078431373 0.76176471 0.64411765
0.0088235294 0.75747549 0.64313725
0.011764706 0.75392157 0.64019608
0.011764706 0.75 0.63737745
0.011029412 0.74509804 0.63455882
0.046568627 0.73137255 0.62892157
0.098039216 0.71715686 0.62254902
0.14987745 0.70245098 0.61666667
0.20392157 0.68921569 0.6127451
0.25392157 0.67745098 0.60735294
0.29509804 0.65294118 0.59313725
0.33333333 0.62659314 0.58284314
0.3745098 0.60490196 0.57254902
0.41213235 0.58688725 0.5622549
0.44607843 0.56911765 0.55441176
0.47696078 0.55404412 0.5495098
0.51176471 0.53431373 0.53848039
0.54865196 0.52156863 0.52990196
0.57745098 0.50882353 0.52352941
0.0093137255 0.8245098 0.675
0.0083946078 0.83088235 0.68137255
0.0050245098 0.83872549 0.68676471
0 0.84540441 0.68823529
0.0039215686 0.84166667 0.68676471
0.0039215686 0.8377451 0.68284314
0.0045343137 0.83480392 0.67928922
0.0069240196 0.83082108 0.67800245
0.011764706 0.82745098 0.675
0.014767157 0.82444853 0.67254902
0.025490196 0.81715686 0.6682598
0.068933824 0.80471814 0.66341912
0.12254902 0.78946078 0.65612745
0.17401961 0.7745098 0.65098039
0.2254902 0.76066176 0.6439951
0.27604167 0.74705882 0.63731618
0.32058824 0.71617647 0.62401961
0.35931373 0.69166667 0.61127451
0.40294118 0.66960784 0.60012255
0.44166667 0.64901961 0.59295343
0.47377451 0.63112745 0.58284314
0.50802696 0.61176471 0.57469363
0.54264706 0.58970588 0.56078431
0.57745098 0.57058824 0.5504902
0.60441176 0.56029412 0.54411765
0.011764706 0.89019608 0.70588235
0.011764706 0.89411765 0.70980392
0.010784314 0.90294118 0.71470588
0.011764706 0.90931373 0.72156863
0.0078431373 0.91372549 0.72156863
0.00049019608 0.91372549 0.71764706
0.0039215686 0.90980392 0.71372549
0.0053921569 0.90833333 0.71372549
0.011764706 0.90196078 0.70980392
0.019607843 0.8995098 0.70735294
0.044117647 0.89215686 0.70490196
0.099509804 0.8754902 0.69852941
0.14313725 0.86666667 0.69019608
0.19460784 0.8504902 0.68235294
0.25 0.8372549 0.67843137
0.29754902 0.82058824 0.66911765
0.34509804 0.79607843 0.65882353
0.38872549 0.76519608 0.64460784
0.43137255 0.73921569 0.63039216
0.47254902 0.71862745 0.62009804
0.50784314 0.69803922 0.60980392
0.54264706 0.67303922 0.59901961
0.57647059 0.64509804 0.58529412
0.6122549 0.62205882 0.57107843
0.63921569 0.61176471 0.56470588
0.0078431373 0.95980392 0.73676471
0.011764706 0.96133578 0.73921569
0.02254902 0.96029412 0.74558824
0.038235294 0.95735294 0.75196078
0.037254902 0.96397059 0.75367647
0.012928922 0.97745098 0.75196078
0.0036764706 0.98394608 0.74852941
0.015747549 0.97941176 0.74705882
0.025490196 0.9754902 0.74460784
0.026960784 0.97156863 0.74313725
0.06372549 0.96176471 0.73860294
0.13020833 0.94724265 0.73314951
0.17009804 0.94583333 0.72622549
0.21568627 0.93627451 0.71930147
0.27414216 0.91960784 0.71568627
0.32058824 0.89901961 0.70637255
0.36813725 0.87205882 0.69607843
0.41568627 0.84454657 0.68241422
0.4622549 0.81421569 0.66666667
0.50392157 0.78854167 0.65098039
0.53872549 0.7629902 0.64068627
0.57352941 0.73480392 0.62616422
0.60833333 0.70747549 0.61041667
0.64460784 0.68088235 0.5971201
0.67892157 0.66323529 0.58529412
0.092156863 0.99705882 0.76764706
0.098161765 0.99607843 0.77046569
0.10465686 0.99534314 0.77647059
0.10980392 0.99313725 0.78296569
0.1122549 0.99705882 0.7872549
0.14068627 0.99963235 0.78419118
0.16176471 0.99607843 0.78333333
0.17205882 0.99460784 0.78333333
0.18627451 0.99215686 0.78431373
0.19791667 0.98921569 0.78431373
0.21764706 0.98529412 0.78039216
0.24240196 0.98235294 0.77696078
0.27009804 0.98921569 0.76764706
0.27990196 0.98823529 0.76127451
0.31078431 0.98921569 0.75465686
0.35502451 0.97181373 0.74571078
0.4 0.94705882 0.7372549
0.44656863 0.92107843 0.72512255
0.4995098 0.88529412 0.70784314
0.53480392 0.85882353 0.6872549
0.56715686 0.83676471 0.67401961
0.60098039 0.80931373 0.65821078
0.63823529 0.77843137 0.64338235
0.67941176 0.74754902 0.62745098
0.71078431 0.7245098 0.61568627
0.28823529 1 0.80245098
0.29822304 1 0.80459559
0.30355392 0.9995098 0.81029412
0.29705882 1 0.81721814
0.30220588 1 0.82156863
0.32990196 1 0.81813725
0.35441176 0.99963235 0.81421569
0.35637255 0.99607843 0.81783088
0.36470588 0.99607843 0.82156863
0.3966299 0.9995098 0.8254902
0.4004902 0.99901961 0.82156863
0.40526961 0.9995098 0.81813725
0.41715686 0.99754902 0.81740196
0.41372549 0.99215686 0.8088848
0.43137255 0.99215686 0.80245098
0.45245098 0.99068627 0.79234069
0.47352941 0.9872549 0.78235294
0.50042892 0.97536765 0.76960784
0.53872549 0.95147059 0.74901961
0.56568627 0.93780637 0.72542892
0.59656863 0.91593137 0.70808824
0.63229167 0.88094363 0.69215686
0.67647059 0.84656863 0.67757353
0.71145833 0.81715686 0.66323529
0.72843137 0.8004902 0.65686275
0.48431373 1 0.8372549
0.49460784 1 0.83848039
0.4872549 1 0.84411765
0.47696078 1 0.85073529
0.48333333 1 0.85490196
0.50269608 1 0.85465686
0.51176471 1 0.85098039
0.5004902 1 0.85563725
0.5 1 0.85882353
0.51102941 1 0.85955882
0.51617647 1 0.85882353
0.51960784 1 0.85882353
0.53431373 1 0.86078431
0.54730392 0.99607843 0.86053922
0.56078431 0.99460784 0.85392157
0.57401961 0.99215686 0.83970588
0.58627451 0.98823529 0.82745098
0.59852941 0.9870098 0.81078431
0.61078431 0.98235294 0.79019608
0.62279412 0.98431373 0.76740196
0.6372549 0.98137255 0.74705882
0.67254902 0.9495098 0.72867647
0.71421569 0.91862745 0.71127451
0.74754902 0.8872549 0.69387255
0.76862745 0.86862745 0.68235294
0.60588235 1 0.87647059
0.60931373 1 0.87647059
0.61323529 1 0.88125
0.61758578 1 0.88817402
0.62916667 1 0.89558824
0.63382353 1 0.89215686
0.6372549 1 0.88909314
0.62665441 1 0.89215686
0.61764706 1 0.89607843
0.62371324 1 0.89344363
0.62904412 1 0.89301471
0.63676471 1 0.89908088
0.65637255 1 0.90588235
0.67751225 1 0.91574755
0.6877451 0.99620098 0.90588235
0.68872549 0.99479167 0.88676471
0.69509804 0.99215686 0.87254902
0.70116422 0.99001225 0.85618873
0.70784314 0.98872549 0.83713235
0.71421569 0.99215686 0.81960784
0.72401961 0.98848039 0.79877451
0.73474265 0.99307598 0.77058824
0.75612745 0.98504902 0.74571078
0.79509804 0.95067402 0.72273284
0.82647059 0.92843137 0.69901961
0.72941176 1 0.91764706
0.72941176 1 0.91470588
0.73039216 1 0.91862745
0.7377451 1 0.92512255
0.74803922 1 0.92794118
0.75441176 1 0.92941176
0.7629902 1 0.92941176
0.75330882 1 0.92977941
0.74509804 1 0.93039216
0.74178922 1 0.92941176
0.74901961 1 0.92965686
0.75637255 1 0.93382353
0.77205882 1 0.94019608
0.79031863 1 0.94705882
0.78823529 1 0.93946078
0.78835784 0.99607843 0.925
0.79411765 0.99509804 0.91372549
0.79865196 0.99215686 0.90821078
0.80612745 0.99215686 0.89803922
0.81066176 0.99215686 0.88137255
0.81666667 0.99215686 0.86372549
0.82696078 0.99607843 0.83872549
0.83431373 0.99166667 0.80196078
0.85625 0.97365196 0.77107843
0.86764706 0.9627451 0.75
0.85686275 1 0.95490196
0.85386029 1 0.95490196
0.85110294 1 0.95735294
0.8536152 1 0.95735294
0.8620098 1 0.96127451
0.87156863 1 0.96127451
0.88835784 1 0.96519608
0.88376225 1 0.9661152
0.86323529 1 0.9627451
0.86323529 1 0.96427696
0.87291667 1 0.96519608
0.8786152 1 0.96881127
0.89142157 1 0.97303922
0.90392157 1 0.97824755
0.89117647 1 0.96617647
0.88137255 0.99607843 0.95588235
0.8877451 0.99607843 0.95098039
0.89411765 0.99607843 0.95098039
0.9004902 0.99607843 0.95245098
0.90490196 0.99607843 0.94136029
0.91985294 0.99607843 0.93504902
0.93167892 0.99607843 0.91531863
0.92193627 0.99252451 0.86470588
0.92751225 0.98970588 0.82199755
0.93627451 0.9872549 0.79656863
0.96078431 1 0.98823529
0.94803922 1 0.98431373
0.93235294 1 0.98039216
0.93676471 1 0.98039216
0.95686275 1 0.98627451
0.97647059 1 0.99215686
0.97254902 1 0.98823529
0.97107843 1 0.98970588
0.96470588 1 0.99215686
0.96960784 1 0.99215686
0.99313725 1 0.99901961
0.97303922 1 0.99607843
0.9745098 1 0.99607843
0.98333333 1 0.9995098
0.96176471 1 0.98921569
0.95833333 1 0.98431373
0.96470588 1 0.98431373
0.96715686 1 0.98431373
0.97745098 1 0.98921569
0.99852941 1 0.9995098
0.99019608 1 0.98235294
0.98676471 1 0.95784314
0.96960784 0.99607843 0.89901961
0.9754902 0.99754902 0.85294118
1 1 0.81960784
0 0.0078431373 0.15490196
0 0.010845588 0.15729167
0.0014705882 0.024142157 0.16458333
0 0.023835784 0.19871324
0 0.020833333 0.2125
0 0.025796569 0.18982843
0 0.025612745 0.19497549
0 0.025980392 0.18884804
0 0.032352941 0.19754902
0.0039215686 0.046568627 0.22395833
0.0039215686 0.041544118 0.22757353
0.0039215686 0.023835784 0.2223652
0.017401961 0.046323529 0.24044118
0.022058824 0.035784314 0.23125
0.045955882 0.050490196 0.25208333
0.062316176 0.053921569 0.25980392
0.067156863 0.038235294 0.26127451
0.080882353 0.025 0.26427696
0.11544118 0.029656863 0.26495098
0.15061275 0.032781863 0.26580882
0.1875 0.03627451 0.26544118
0.22696078 0.04754902 0.27175245
0.27144608 0.056004902 0.27193627
0.31323529 0.070036765 0.27794118
0.33382353 0.070588235 0.27401961
0 0.036335784 0.21115196
0 0.047411152 0.20281097
0.00055147059 0.056004902 0.18913909
0 0.054220282 0.22573529
0 0.053921569 0.24583333
0 0.058333333 0.23633578
0 0.061764706 0.24106924
0.0033471201 0.068627451 0.24960938
0.0039215686 0.071997549 0.23872549
0.0084175858 0.082904412 0.25480239
0.010523897 0.078492647 0.25997243
0.018757659 0.07745098 0.26494332
0.028125 0.080484069 0.2635723
0.03549326 0.075 0.25638021
0.056495098 0.076470588 0.26752451
0.072058824 0.074019608 0.27015931
0.083272059 0.065257353 0.27107843
0.10259651 0.058333333 0.27534467
0.13033088 0.058624387 0.28082108
0.15974265 0.055032169 0.28222273
0.19583333 0.058547794 0.28284314
0.2372549 0.067654718 0.28775276
0.27843137 0.077098652 0.28938419
0.31903339 0.08782935 0.29181219
0.33958333 0.089705882 0.29160539
0 0.078308824 0.26078431
0 0.091237745 0.24918811
0 0.10073529 0.24132966
0 0.10526961 0.25828738
0.00018382353 0.10949755 0.28094363
0.0020833333 0.11167279 0.27352941
0.0039215686 0.11654412 0.26835172
0.0044730392 0.11862745 0.27493873
0.0082107843 0.12254902 0.28676471
0.013434436 0.1285386 0.29889706
0.024877451 0.1314951 0.30389093
0.033333333 0.13088235 0.29647672
0.041176471 0.12775735 0.29264706
0.053921569 0.12513787 0.29603248
0.067156863 0.11847426 0.29656863
0.086443015 0.11280637 0.2907935
0.1064951 0.10698529 0.29166667
0.12455576 0.098590686 0.29650735
0.14883578 0.093229167 0.2995098
0.17696078 0.088112745 0.2998315
0.21004902 0.089889706 0.3026348
0.25009191 0.09754902 0.3084712
0.28933824 0.10784314 0.31259191
0.32622549 0.11459865 0.31311275
0.34803922 0.11875 0.31703431
0 0.13333333 0.28921569
0 0.14106158 0.27971048
0 0.14644608 0.28455882
0 0.15449602 0.30449602
0.0037683824 0.15980392 0.31936275
0.0039215686 0.16472886 0.31862745
0.0039215686 0.16617647 0.31844363
0.0044730392 0.16636029 0.31793811
0.011458333 0.17058824 0.32941176
0.019492953 0.17432598 0.33602941
0.029764093 0.1723652 0.33247549
0.040196078 0.17209712 0.32734375
0.05 0.16871936 0.32481618
0.060294118 0.16263787 0.32530637
0.073651961 0.15602022 0.32584252
0.094232537 0.15109528 0.31972273
0.11862745 0.14491422 0.31715686
0.14382659 0.13794424 0.31757813
0.16723346 0.13039216 0.32143076
0.19509804 0.12412684 0.32156863
