site/assets/luts/natron-haldclut--warm-yellow--b4fc5258a.cube
# LUTr-Project: LUTr — LUTrepository
# LUTr-Schema-Version: 1
# LUTr-ID: natron-haldclut--warm-yellow--b4fc5258a
# LUTr-Title: warm yellow
# LUTr-Collection: Natron HaldCLUT
# LUTr-Collection-ID: natron-haldclut-presets
# LUTr-Source: https://github.com/NatronGitHub/clut
# LUTr-Source-File: submissions/natron-haldclut-presets/various/warm_yellow.png
# LUTr-Source-Format: PNG
# LUTr-Source-SHA256: 6527bb271af3febd0a8d3197b5474d12b699eaa471d04dea1414b4eb19b29076
# LUTr-License: CC-BY-SA-4.0
# LUTr-License-URL: https://github.com/NatronGitHub/clut#license
# LUTr-Tags: creative, film, film-emulation, hald-clut, natron, png, warm, cube
# LUTr-Transform-Class: film-emulation
# LUTr-Input-Color-Space: srgb
# LUTr-Output-Color-Space: srgb
# LUTr-Color-Space-Confidence: assumed-display-referred
# LUTr-Conversion-Method: PNG LUT image decoded at 16-bit and sampled to 25x25x25 3D CUBE
# LUTr-Conversion-Date: 2026-07-27
# LUTr-Conversion-Tool: LUTr scripts/convert-all-to-cube.mjs
# LUTr-Conversion-Grid: 25x25x25
# LUTr-Note: Preserve this metadata and the upstream license notices when redistributing.
TITLE "warm yellow"
LUT_3D_SIZE 25
DOMAIN_MIN 0 0 0
DOMAIN_MAX 1 1 1
0.047058824 0.019607843 0.0078431373
0.094607843 0.0093137255 0.0039215686
0.15196078 0.0039215686 0
0.21666667 0.0039215686 0.0039215686
0.28431373 0.0019607843 0
0.34362745 0 0
0.39901961 0 0
0.45588235 0.0039215686 0
0.51372549 0 0
0.57303922 0 0
0.61470588 0 0
0.65294118 0 0
0.69019608 0.0039215686 0
0.72745098 0.0073529412 0
0.76176471 0.0039215686 0
0.79656863 0.0039215686 0
0.82352941 0.0039215686 0
0.85196078 0.0039215686 0
0.88039216 0 0
0.90490196 0 0
0.92156863 0.0058823529 0.0039215686
0.94166667 0.011764706 0.0078431373
0.95882353 0.0088235294 0.0049019608
0.97794118 0.0039215686 0.0039215686
0.99607843 0 0
0.048039216 0.026960784 0.0078431373
0.10006127 0.028063725 0.0053921569
0.15735294 0.024142157 0.0039215686
0.22058824 0.022058824 0.0039215686
0.28553922 0.011519608 0.0019607843
0.34411765 0.0049019608 0
0.40085784 0.006372549 0
0.45588235 0.006372549 0
0.51617647 0.0039215686 0
0.57457108 0 0
0.61568627 0 0
0.65294118 0.0037377451 0
0.69019608 0.0071078431 0
0.73088235 0.0078431373 0
0.76360294 0.0067401961 0
0.79748775 0.0039215686 0
0.82745098 0.0039215686 0
0.85441176 0.0079044118 0.0024509804
0.8807598 0.013112745 0.006372549
0.90490196 0.016360294 0.010294118
0.92156863 0.016666667 0.006372549
0.94166667 0.01439951 0.0078431373
0.95882353 0.014215686 0.0049019608
0.97794118 0.012745098 0.0039215686
0.99215686 0.006372549 0
0.081372549 0.052941176 0.0078431373
0.10735294 0.052941176 0.0078431373
0.16568627 0.049754902 0.0078431373
0.2245098 0.045220588 0.0044117647
0.28676471 0.042156863 0.0044117647
0.34767157 0.037745098 0.0039215686
0.40294118 0.030392157 0.00024509804
0.45870098 0.028308824 0
0.51764706 0.02254902 0
0.57487745 0.018627451 0
0.61568627 0.015441176 0
0.65428922 0.014705882 0
0.69411765 0.015196078 0
0.73137255 0.012867647 0
0.76568627 0.012745098 0
0.8004902 0.0088235294 0
0.83137255 0.0088235294 0
0.85588235 0.023039216 0
0.88137255 0.0375 0
0.90490196 0.04129902 0.0029411765
0.92156863 0.03872549 0.0039215686
0.94166667 0.033210784 0.0039215686
0.95882353 0.026470588 0.0039215686
0.9754902 0.019117647 0.0035539216
0.99215686 0.012745098 0
0.11617647 0.07745098 0.0078431373
0.1192402 0.07745098 0.0078431373
0.16654412 0.076102941 0.0044117647
0.2283701 0.073039216 0.0069240196
0.29019608 0.073039216 0.0078431373
0.34803922 0.068627451 0.0073529412
0.4067402 0.058333333 0.0039215686
0.46354167 0.05 0
0.51715686 0.053431373 0.00049019608
0.57303922 0.056862745 0
0.61568627 0.055882353 0
0.65686275 0.049509804 0
0.69803922 0.039705882 0
0.73480392 0.041605392 0
0.7682598 0.042034314 0
0.8004902 0.037254902 0
0.83137255 0.037254902 0
0.85588235 0.050183824 0
0.88137255 0.065808824 0
0.90490196 0.069607843 0
0.92328431 0.065196078 0.0019607843
0.94215686 0.064276961 0.0039215686
0.95882353 0.057843137 0.0039215686
0.9754902 0.04932598 0.0037377451
0.98480392 0.045098039 0.0034313725
0.15882353 0.11176471 0.021568627
0.15637255 0.10661765 0.015931373
0.17254902 0.10637255 0.006372549
0.23431373 0.10980392 0.0098039216
0.29411765 0.10980392 0.011764706
0.35196078 0.10147059 0.0078431373
0.40980392 0.091176471 0.0039215686
0.46617647 0.081862745 0
0.51764706 0.094117647 0.0039215686
0.57230392 0.098039216 0.00073529412
0.61960784 0.097058824 0
0.65906863 0.090686275 0
0.69803922 0.087254902 0
0.7370098 0.088480392 0
0.76960784 0.086764706 0
0.8004902 0.079656863 0
0.83137255 0.078431373 0
0.85588235 0.091911765 0
0.88137255 0.10294118 0
0.90490196 0.10416667 0
0.9245098 0.097058824 0
0.94215686 0.090931373 0.0036764706
0.9627451 0.098039216 0.0019607843
0.97401961 0.090196078 0.0026960784
0.97647059 0.090196078 0.0039215686
0.18529412 0.14705882 0.031862745
0.19932598 0.14705882 0.031066176
0.20330882 0.14742647 0.016911765
0.23682598 0.15098039 0.011335784
0.29191176 0.14877451 0.0078431373
0.35196078 0.14270833 0.0078431373
0.40980392 0.13970588 0.0078431373
0.46617647 0.13627451 0.0044117647
0.52156863 0.13970588 0.0039215686
0.57303922 0.13939951 0.0017769608
0.62401961 0.13835784 0
0.66170343 0.13529412 0
0.70220588 0.13357843 0
0.74270833 0.13572304 0
0.77365196 0.1314951 0
0.8004902 0.12616422 0
0.82745098 0.12794118 0
0.85588235 0.13431373 0
0.88039216 0.14313725 0
0.90140931 0.14270833 0
0.92156863 0.13529412 0
0.94215686 0.13480392 0
0.9627451 0.13517157 0
0.97254902 0.13351716 0
0.97254902 0.13088235 0
0.2127451 0.19509804 0.042156863
0.21911765 0.19509804 0.031862745
0.22647059 0.19215686 0.018627451
0.23455882 0.19215686 0.0056372549
0.29313725 0.19117647 0.0078431373
0.35196078 0.19411765 0.0082107843
0.4129902 0.19436275 0.011029412
0.46617647 0.19411765 0.010784314
0.52156863 0.19411765 0.0078431373
0.57303922 0.19117647 0.0039215686
0.62352941 0.18946078 0
0.66384804 0.18161765 0
0.70539216 0.18186275 0
0.74914216 0.18296569 0
0.7745098 0.17573529 0
0.8004902 0.17254902 0
0.82745098 0.1754902 0
0.85588235 0.18186275 0
0.88039216 0.1872549 0
0.90098039 0.18088235 0
0.92156863 0.17647059 0
0.94215686 0.16960784 0
0.9627451 0.17181373 0
0.97647059 0.16629902 0
0.97647059 0.16568627 0
0.23970588 0.24656863 0.05245098
0.24607843 0.24656863 0.042156863
0.25245098 0.24656863 0.027941176
0.2627451 0.24785539 0.014215686
0.30269608 0.24803922 0.011764706
0.35949755 0.2504902 0.011764706
0.41470588 0.25159314 0.012867647
0.46856618 0.25196078 0.014215686
0.52156863 0.24803922 0.0078431373
0.57303922 0.2471201 0.0039215686
0.61960784 0.24558824 0
0.66078431 0.23890931 0
0.70588235 0.23553922 0
0.74528186 0.23449755 0
0.7745098 0.22904412 0
0.80294118 0.22696078 0
0.83137255 0.22843137 0
0.85833333 0.2338848 0
0.88039216 0.23443627 0
0.90098039 0.22598039 0
0.92156863 0.21176471 0
0.94215686 0.20606618 0
0.96164216 0.21421569 0
0.97794118 0.2033701 0
0.98578431 0.21666667 0
0.26666667 0.30588235 0.062745098
0.27303922 0.30343137 0.05245098
0.28235294 0.30196078 0.037254902
0.28970588 0.30588235 0.020588235
0.30784314 0.30588235 0.0078431373
0.36323529 0.30637255 0.012254902
0.41862745 0.30980392 0.018627451
0.47009804 0.31372549 0.014215686
0.52156863 0.31372549 0.0078431373
0.57058824 0.30735294 0.0014705882
0.61568627 0.30196078 0
0.66078431 0.29803922 0
0.70196078 0.29019608 0
0.74264706 0.28627451 0
0.77352941 0.28921569 0
0.80294118 0.28627451 0
0.83137255 0.29019608 0
0.85980392 0.29411765 0
0.88039216 0.28431373 0
0.90098039 0.26764706 0
0.92156863 0.25882353 0
0.94215686 0.2622549 0
0.95882353 0.26568627 0
0.97941176 0.27598039 0
0.99215686 0.28627451 0
0.29362745 0.36764706 0.076960784
0.3 0.37009804 0.062745098
0.30637255 0.37009804 0.04754902
0.31666667 0.37009804 0.033026961
0.32696078 0.37009804 0.017401961
0.36979167 0.36764706 0.018321078
0.4192402 0.37156863 0.019607843
0.47009804 0.3754902 0.012683824
0.52156863 0.37794118 0.0053921569
0.56911765 0.37303922 0
0.61384804 0.36311275 0
0.66029412 0.35606618 0
0.70318627 0.34681373 0
0.73872549 0.34460784 0
0.76960784 0.35098039 0
0.8004902 0.35680147 0
0.83284314 0.35441176 0
0.86372549 0.35526961 0
0.88039216 0.34166667 0
0.90098039 0.33137255 0
0.92156863 0.32941176 0
0.94215686 0.33351716 0
0.95882353 0.3307598 0
0.9754902 0.33045343 0
0.9872549 0.34803922 0
0.32058824 0.4372549 0.087254902
0.32745098 0.43615196 0.074509804
0.32916667 0.44215686 0.054656863
0.34301471 0.43835784 0.044117647
0.36029412 0.43627451 0.033333333
0.38468137 0.43823529 0.023406863
0.42916667 0.43823529 0.019607843
0.475 0.43933824 0.012377451
0.52254902 0.44215686 0.0039215686
0.56911765 0.43872549 0
0.61593137 0.42843137 0
0.66164216 0.4189951 0
0.70392157 0.4122549 0
0.73872549 0.41115196 0
0.76960784 0.41764706 0
0.8004902 0.42794118 0
0.83137255 0.42647059 0
0.85943627 0.41703431 0
0.88039216 0.41053922 0
0.90098039 0.4060049 0
0.92156863 0.40735294 0
0.94215686 0.41237745 0
0.95980392 0.41593137 0
0.96764706 0.39877451 0
0.97156863 0.41078431 0
0.35098039 0.50294118 0.10098039
0.35882353 0.50294118 0.088235294
0.35882353 0.50784314 0.067647059
0.36966912 0.50735294 0.057414216
0.37916667 0.50857843 0.034803922
0.39797794 0.51329657 0.019607843
0.44264706 0.50735294 0.019607843
0.48400735 0.50655637 0.015502451
0.52892157 0.50686275 0.01127451
0.56911765 0.50441176 0.0039215686
0.61666667 0.49754902 0.0034313725
0.66421569 0.4872549 0.0034313725
0.70563725 0.48284314 0
0.73872549 0.48327206 0
0.76960784 0.48970588 0
0.8026348 0.49479167 0
0.83137255 0.4872549 0
0.85459559 0.48039216 0
0.88039216 0.4754902 0
0.90098039 0.47892157 0
0.92156863 0.48259804 0
0.94215686 0.4877451 0
0.95943627 0.48970588 0
0.96421569 0.47843137 0
0.96764706 0.47892157 0
0.39215686 0.56862745 0.11960784
0.4 0.56715686 0.11004902
0.39656863 0.56911765 0.090686275
0.39362745 0.57254902 0.063480392
0.40098039 0.57647059 0.041176471
0.41348039 0.57818627 0.025245098
0.44901961 0.57352941 0.023529412
0.49019608 0.57181373 0.020833333
0.52941176 0.56862745 0.01372549
0.57058824 0.56936275 0.0085784314
0.61666667 0.56568627 0.0078431373
0.66421569 0.55906863 0.0041666667
0.70588235 0.55490196 0.00098039216
0.73872549 0.55514706 0
0.77303922 0.55882353 0
0.80441176 0.55808824 0
0.83137255 0.54901961 0
0.85514706 0.54387255 0.0019607843
0.87745098 0.54313725 0
0.90098039 0.54877451 0
0.92352941 0.55980392 0
0.94583333 0.56985294 0
0.9627451 0.55441176 0
0.97598039 0.53186275 0
0.98235294 0.56078431 0
0.43676471 0.63039216 0.13823529
0.44099265 0.63088235 0.13578431
0.42696078 0.63051471 0.10281863
0.41623775 0.63431373 0.068137255
0.4245098 0.63602941 0.052941176
0.43768382 0.63731618 0.038786765
0.46041667 0.63431373 0.027573529
0.4963848 0.63431373 0.023529412
0.53382353 0.63039216 0.015686275
0.57058824 0.63431373 0.011764706
0.6127451 0.63345588 0.0078431373
0.66072304 0.63082108 0.0044117647
0.70563725 0.62696078 0.0022058824
0.74264706 0.62346814 0
0.77352941 0.62647059 0
0.80441176 0.62285539 0
0.83137255 0.61519608 0
0.85588235 0.60735294 0
0.87781863 0.61090686 0
0.90098039 0.61427696 0
0.9254902 0.62058824 0
0.94601716 0.62598039 0
0.9627451 0.62340686 0
0.97941176 0.62941176 0
0.99558824 0.64509804 0
0.46078431 0.69215686 0.14509804
0.46813725 0.69497549 0.14901961
0.45686275 0.69607843 0.11642157
0.43161765 0.69607843 0.068995098
0.44803922 0.69607843 0.059803922
0.46433824 0.69607843 0.049509804
0.47916667 0.69313725 0.035294118
0.50183824 0.69276961 0.022058824
0.5372549 0.69215686 0.015686275
0.57205882 0.69607843 0.011764706
0.61176471 0.69901961 0.0078431373
0.65772059 0.69901961 0.0044117647
0.70392157 0.69705882 0.0039215686
0.74264706 0.69215686 0
0.77352941 0.69215686 0
0.80294118 0.68823529 0
0.83137255 0.68333333 0
0.85943627 0.67585784 0
0.88039216 0.67720588 0
0.90355392 0.68296569 0
0.9254902 0.6872549 0
0.94558824 0.68394608 0
0.9627451 0.68063725 0
0.97941176 0.68235294 0
0.98823529 0.68627451 0
0.47745098 0.75 0.14901961
0.47990196 0.75153186 0.14656863
0.48419118 0.75392157 0.1375
0.46734069 0.75245098 0.094607843
0.475 0.75245098 0.079411765
0.49215686 0.75245098 0.067463235
0.50392157 0.75245098 0.046568627
0.5151348 0.75 0.022977941
0.54264706 0.75 0.011764706
0.57745098 0.75637255 0.011764706
0.61323529 0.75919118 0.0093137255
0.65655637 0.7627451 0.0093137255
0.70196078 0.76029412 0.0053921569
0.74509804 0.75490196 0.0014705882
0.77352941 0.75306373 0.0014705882
0.80202206 0.75098039 0.0014705882
0.83137255 0.74460784 0
0.85980392 0.74068627 0
0.88039216 0.73676471 0
0.90441176 0.73676471 0
0.9254902 0.73529412 0
0.94607843 0.73265931 0
0.9627451 0.72781863 0
0.97647059 0.72591912 0
0.98039216 0.72892157 0
0.50196078 0.8 0.16470588
0.50196078 0.80245098 0.15588235
0.50098039 0.80784314 0.13529412
0.49803922 0.80441176 0.11421569
0.49803922 0.80588235 0.088235294
0.50686275 0.80784314 0.066176471
0.52058824 0.80392157 0.051960784
0.53480392 0.8 0.032352941
0.55294118 0.8 0.019607843
0.59019608 0.80392157 0.022058824
0.62647059 0.80392157 0.02254902
0.66078431 0.80784314 0.016176471
0.70392157 0.80588235 0.01372549
0.73921569 0.79607843 0.0078431373
0.77058824 0.8 0.0078431373
0.8004902 0.79607843 0.0039215686
0.83137255 0.79215686 0
0.85980392 0.78823529 0
0.88039216 0.78431373 0
0.90098039 0.78088235 0
0.9254902 0.77843137 0
0.94558824 0.77647059 0
0.9627451 0.77352941 0
0.97647059 0.77647059 0
0.98039216 0.77647059 0
0.53921569 0.83872549 0.20196078
0.53768382 0.84754902 0.18578431
0.52512255 0.85477941 0.14852941
0.51862745 0.84705882 0.12481618
0.51862745 0.85098039 0.094607843
0.52696078 0.85392157 0.071262255
0.54117647 0.84362745 0.062254902
0.55686275 0.83817402 0.050490196
0.57745098 0.84117647 0.042647059
0.60833333 0.84417892 0.040196078
0.63860294 0.84509804 0.033823529
0.66764706 0.85030637 0.026470588
0.70073529 0.84460784 0.018872549
0.73658088 0.8372549 0.014215686
0.76960784 0.83835784 0.011764706
0.80349265 0.840625 0.006372549
0.83529412 0.8372549 0
0.85980392 0.83333333 0
0.88039216 0.82941176 0
0.90098039 0.8254902 0
0.9254902 0.82156863 0
0.94215686 0.82009804 0
0.9627451 0.82120098 0
0.97886029 0.82794118 0
0.98823529 0.82794118 0
0.57156863 0.87352941 0.23431373
0.56421569 0.87745098 0.21029412
0.55073529 0.87745098 0.17083333
0.53419118 0.87745098 0.12769608
0.54852941 0.88137255 0.12156863
0.54754902 0.88125 0.086764706
0.55784314 0.8745098 0.069607843
0.57745098 0.87352941 0.062745098
0.60098039 0.87745098 0.059803922
0.62340686 0.87745098 0.051838235
0.64681373 0.87745098 0.037254902
0.67316176 0.87745098 0.027818627
0.70098039 0.87745098 0.024019608
0.73480392 0.87365196 0.019240196
0.76960784 0.87671569 0.013480392
0.80441176 0.87745098 0.0067401961
0.83823529 0.87647059 0
0.85980392 0.87352941 0
0.88039216 0.87034314 0
0.90098039 0.86666667 0
0.9254902 0.8627451 0
0.94558824 0.8627451 0
0.95980392 0.86568627 0
0.97806373 0.87071078 0
0.99313725 0.8754902 0
0.59117647 0.90441176 0.25784314
0.58480392 0.90441176 0.22745098
0.5810049 0.90490196 0.20159314
0.56813725 0.90833333 0.15098039
0.56813725 0.90882353 0.13014706
0.56813725 0.90833333 0.099571078
0.5745098 0.90453431 0.07254902
0.59068627 0.90441176 0.066666667
0.61127451 0.90490196 0.059313725
0.62824755 0.90490196 0.041360294
0.65257353 0.90490196 0.027818627
0.68039216 0.90490196 0.02745098
0.70759804 0.90441176 0.02745098
0.73829657 0.90441176 0.023468137
0.76960784 0.90441176 0.016666667
0.80441176 0.90098039 0.010294118
0.83186275 0.89705882 0.0039215686
0.85588235 0.8995098 0.0036151961
0.87696078 0.9004902 0.0034313725
0.90098039 0.9004902 0
0.92377451 0.90220588 0
0.94601716 0.90392157 0
0.96237745 0.90392157 0
0.97303922 0.9 0
0.98284314 0.9 0
0.61764706 0.9254902 0.29411765
0.60735294 0.92941176 0.25367647
0.59607843 0.93137255 0.20686275
0.60269608 0.93137255 0.20098039
0.60490196 0.93235294 0.1754902
0.59166667 0.93284314 0.11397059
0.59607843 0.92941176 0.091666667
0.6120098 0.92941176 0.089460784
0.62156863 0.92941176 0.060784314
0.63382353 0.93063725 0.031372549
0.65735294 0.93088235 0.025980392
0.68504902 0.92941176 0.02745098
0.7127451 0.92843137 0.029411765
0.74068627 0.92745098 0.026960784
0.76960784 0.9254902 0.020098039
0.7997549 0.92401961 0.011764706
0.82745098 0.92156863 0.0078431373
0.85122549 0.92009804 0.0066176471
0.875 0.92156863 0.0053921569
0.89705882 0.925 0.0039215686
0.92156863 0.92647059 0.0029411765
0.94411765 0.92941176 0
0.9627451 0.92745098 0
0.97941176 0.92745098 0
0.99215686 0.92745098 0
0.64852941 0.95 0.33529412
0.64264706 0.95 0.3122549
0.63394608 0.95 0.27034314
0.61115196 0.95 0.18547794
0.63161765 0.95 0.21617647
0.61372549 0.95 0.13651961
0.62144608 0.95 0.12022059
0.62708333 0.95 0.093872549
0.6377451 0.95 0.075490196
0.65226716 0.9473652 0.059007353
0.66568627 0.9495098 0.036519608
0.68970588 0.9495098 0.032352941
0.71617647 0.9495098 0.031862745
0.74307598 0.9495098 0.027389706
0.76973039 0.94607843 0.020465686
0.79656863 0.94215686 0.01372549
0.82352941 0.94166667 0.0078431373
0.84803922 0.93823529 0.0083333333
0.87254902 0.94215686 0.0078431373
0.89656863 0.94215686 0.0078431373
0.91936275 0.94558824 0.0019607843
0.94166667 0.94558824 0
0.95882353 0.94558824 0
0.97352941 0.94430147 0
0.98382353 0.94215686 0
0.67647059 0.96764706 0.37058824
0.67107843 0.96764706 0.3560049
0.65686275 0.96764706 0.29877451
0.63627451 0.96764706 0.225
0.62794118 0.96764706 0.18088235
0.64142157 0.96752451 0.17671569
0.64289216 0.96691176 0.14142157
0.65012255 0.96703431 0.11544118
0.65 0.96764706 0.074509804
0.66715686 0.96372549 0.06875
0.68308824 0.9627451 0.056617647
0.70294118 0.9627451 0.049019608
0.7245098 0.9627451 0.03872549
0.74607843 0.96372549 0.024019608
0.77058824 0.9629902 0.01372549
0.79901961 0.95943627 0.0084558824
0.82352941 0.95882353 0.0078431373
0.84693627 0.95882353 0.011764706
0.86887255 0.95906863 0.0085784314
0.89313725 0.95980392 0.0044117647
0.91764706 0.95980392 0.0019607843
0.93823529 0.95980392 0
0.95882353 0.9620098 0
0.97512255 0.9627451 0
0.9872549 0.9627451 0
0.69166667 0.97794118 0.39264706
0.68529412 0.98094363 0.36421569
0.67046569 0.98186275 0.30539216
0.65582108 0.98186275 0.24540441
0.65245098 0.97598039 0.21960784
0.65030637 0.97432598 0.1846201
0.65281863 0.97647059 0.14448529
0.65539216 0.97886029 0.1028799
0.67352941 0.98186275 0.099509804
0.68627451 0.97941176 0.085294118
0.70257353 0.97794118 0.072794118
0.71813725 0.9754902 0.061948529
0.73284314 0.97794118 0.039215686
0.75128676 0.978125 0.02254902
0.77352941 0.97941176 0.0073529412
0.79901961 0.97886029 0.0039215686
0.82352941 0.97794118 0.006372549
0.84564951 0.9754902 0.0078431373
0.86862745 0.9754902 0.0074754902
0.89264706 0.9776348 0.0039215686
0.91372549 0.9754902 0
0.93431373 0.9754902 0
0.95490196 0.97794118 0
0.9754902 0.97849265 0
0.99362745 0.97941176 0
0.70980392 0.98823529 0.41960784
0.69558824 0.99215686 0.37205882
0.68137255 0.99313725 0.31078431
0.6745098 0.98872549 0.26813725
0.66666667 0.98235294 0.2372549
0.66666667 0.98039216 0.22058824
0.65980392 0.98039216 0.15882353
0.66568627 0.98186275 0.12009804
0.68627451 0.99215686 0.10980392
0.7004902 0.99215686 0.093137255
0.71470588 0.98823529 0.076470588
0.72843137 0.98823529 0.059803922
0.74313725 0.98823529 0.039215686
0.75784314 0.99215686 0.02254902
0.7745098 0.99509804 0.0019607843
0.79901961 0.99215686 0.0014705882
0.82352941 0.98823529 0.0039215686
0.84411765 0.98823529 0.0039215686
0.86862745 0.98823529 0.0039215686
0.88921569 0.98823529 0.00049019608
0.91372549 0.98823529 0
0.93431373 0.98431373 0
0.95490196 0.98431373 0
0.9754902 0.98431373 0
0.99215686 0.98431373 0
0.063235294 0.017156863 0.011764706
0.094607843 0.01685049 0.01182598
0.15490196 0.01875 0.014215686
0.22009804 0.022365196 0.014522059
0.28431373 0.0083333333 0.0075980392
0.34411765 0.0024509804 0.0049019608
0.39901961 0.0024509804 0.0024509804
0.45588235 0.0039215686 0.0039215686
0.51372549 0.0024509804 0.0024509804
0.57457108 0 0
0.61568627 0 0
0.65294118 0.0021446078 0
0.69019608 0.0039215686 0
0.73088235 0.0073529412 0.0024509804
0.76470588 0.0039215686 0
0.79748775 0.0039215686 0
0.82990196 0.0014705882 0
0.85741422 0 0.0015318627
0.88321078 0 0.0073529412
0.90490196 0.0037377451 0.012438725
0.92352941 0.0039215686 0.014215686
0.94215686 0.009620098 0.012745098
0.95882353 0.006372549 0.013848039
0.97794118 0.0039215686 0.010294118
0.98970588 0.0039215686 0.010294118
0.055208333 0.029411765 0.012745098
0.098590686 0.030882353 0.014215686
0.15735294 0.028293505 0.014215686
0.22058824 0.023223039 0.01205576
0.28553922 0.013235294 0.0075980392
0.34492187 0.0073529412 0.0049019608
0.39970895 0.0079044118 0.0042126225
0.4564568 0.0073299632 0.0034083946
0.51764706 0.0039215686 0.0024509804
0.57640931 0 0
0.61821385 0 0
0.65336244 0.0037377451 0
0.69264706 0.0071078431 0
0.73107384 0.0078431373 0
0.76554841 0.0045343137 0
0.80014553 0.0039215686 0
0.83082108 0.0014705882 0
0.85856311 0.0044960172 0.0021063113
0.88431373 0.0082720588 0.0082720588
0.90490196 0.014031863 0.014905025
0.92352941 0.015900735 0.014215686
0.94197304 0.01428462 0.011213235
0.95813419 0.011994485 0.010294118
0.97422641 0.0087622549 0.0084175858
0.98547794 0.0087622549 0.0057598039
0.086029412 0.057598039 0.016421569
0.10779718 0.055147059 0.014215686
0.16320466 0.051378676 0.014215686
0.2245098 0.046446078 0.013250613
0.28664216 0.042463235 0.01060049
0.34759498 0.037745098 0.006372549
0.40367647 0.030392157 0.0040747549
0.45893076 0.028998162 0.0024509804
0.51764706 0.02254902 0
0.57659314 0.017478554 0
0.61862745 0.014981618 0
0.65686275 0.013771446 0
0.69693627 0.012438725 0
0.73480392 0.010294118 0
0.76642157 0.0094669118 0
0.80154718 0.0058210784 0
0.83529412 0.0049019608 0
0.85939032 0.016666667 0
0.88370098 0.02778799 0.0042585784
0.90490196 0.034727328 0.0093137255
0.92334559 0.033272059 0.0093137255
0.94197304 0.028446691 0.0074754902
0.95882353 0.02276348 0.0057598039
0.97794118 0.016896446 0.0035539216
0.99276961 0.012132353 0
0.10686275 0.080882353 0.021568627
0.12338388 0.080078125 0.018711703
0.16881127 0.077328431 0.016666667
0.22843137 0.076960784 0.016398591
0.29019608 0.076715686 0.0140625
0.34803922 0.068627451 0.0097196691
0.40931373 0.058333333 0.0039215686
0.46568627 0.05134038 0
0.51715686 0.051286765 0.00049019608
0.57041207 0.054718137 0
0.61591605 0.052542892 0
0.65686275 0.043604473 0
0.70018382 0.033333333 0
0.73698683 0.031533395 0
0.76956189 0.035033701 0
0.80349265 0.034512868 0
0.83529412 0.033333333 0
0.85932138 0.043275123 0
0.8807598 0.049739583 0.00084252451
0.90490196 0.052757353 0.0026348039
0.92352941 0.051470588 0.0039215686
0.94215686 0.052267157 0.0039215686
0.95882353 0.048391544 0.0039215686
0.97794118 0.043872549 0.0028186275
0.98854167 0.042463235 0
0.16029412 0.11176471 0.031862745
0.16948529 0.11130515 0.030667892
0.18860294 0.10925245 0.021752451
0.23921569 0.11102941 0.018229167
0.29411765 0.10980392 0.015686275
0.35196078 0.10147059 0.0125
0.41047794 0.090257353 0.0047181373
0.47009804 0.081403186 0
0.51764706 0.089705882 0.0019607843
0.56911765 0.091666667 0.0022671569
0.61868873 0.089767157 0.0021446078
0.66078431 0.083425245 0
0.7004902 0.076715686 0
0.73872549 0.076715686 0
0.76960784 0.078492647 0
0.80321691 0.075980392 0
0.83137255 0.075245098 0
0.85833333 0.079136029 0
0.8807598 0.082414216 0
0.90490196 0.083333333 0
0.92230392 0.079779412 0.0022058824
0.94215686 0.07901348 0.0039215686
0.96035539 0.082414216 0.0039215686
0.97389706 0.080147059 0.0041973039
0.98284314 0.07622549 0.0014705882
0.18872549 0.14705882 0.041666667
0.20251225 0.14754902 0.037928922
0.21738664 0.14742647 0.027956495
0.24154412 0.14705882 0.018627451
0.29730392 0.14534314 0.018137255
0.35426624 0.14317555 0.01394761
0.41276042 0.13970588 0.0086856618
0.46880362 0.13615962 0.0044117647
0.52156863 0.13333333 0.0039215686
0.57303922 0.12958793 0.0039215686
0.62107843 0.12596507 0.0024509804
0.66051624 0.12254902 0.00030637255
0.70196078 0.12254902 0
0.74264706 0.12254902 0
0.77352941 0.1191636 0
0.8004902 0.11433058 0
0.83118873 0.11047794 0
0.85741422 0.11352635 0
0.88039216 0.11868873 0
0.90098039 0.11644455 0
0.92156863 0.1143076 0
