site/assets/luts/natron-haldclut--polaroid-672--65f0bd30f.cube
# LUTr-Project: LUTr — LUTrepository
# LUTr-Schema-Version: 1
# LUTr-ID: natron-haldclut--polaroid-672--65f0bd30f
# LUTr-Title: polaroid 672
# LUTr-Collection: Natron HaldCLUT
# LUTr-Collection-ID: natron-haldclut-presets
# LUTr-Source: https://github.com/NatronGitHub/clut
# LUTr-Source-File: submissions/natron-haldclut-presets/bw/polaroid_672.png
# LUTr-Source-Format: PNG
# LUTr-Source-SHA256: e213e96072181911033c691b1ccd2ab475eaddf0a7ce05606f41c861ab8fb2c9
# LUTr-License: CC-BY-SA-4.0
# LUTr-License-URL: https://github.com/NatronGitHub/clut#license
# LUTr-Tags: creative, film, film-emulation, hald-clut, natron, png, cube
# LUTr-Transform-Class: film-emulation
# LUTr-Input-Color-Space: srgb
# LUTr-Output-Color-Space: srgb
# LUTr-Color-Space-Confidence: assumed-display-referred
# LUTr-Conversion-Method: PNG LUT image decoded at 16-bit and sampled to 25x25x25 3D CUBE
# LUTr-Conversion-Date: 2026-07-27
# LUTr-Conversion-Tool: LUTr scripts/convert-all-to-cube.mjs
# LUTr-Conversion-Grid: 25x25x25
# LUTr-Note: Preserve this metadata and the upstream license notices when redistributing.
TITLE "polaroid 672"
LUT_3D_SIZE 9
DOMAIN_MIN 0 0 0
DOMAIN_MAX 1 1 1
0.011764706 0.011764706 0.011764706
0.019607843 0.019607843 0.019607843
0.02745098 0.02745098 0.02745098
0.080882353 0.080882353 0.080882353
0.13529412 0.13529412 0.13529412
0.20196078 0.20196078 0.20196078
0.32156863 0.32156863 0.32156863
0.44117647 0.44117647 0.44117647
0.55294118 0.55294118 0.55294118
0.053921569 0.053921569 0.053921569
0.062193627 0.062193627 0.062193627
0.081372549 0.081372549 0.081372549
0.11421569 0.11421569 0.11421569
0.17352941 0.17352941 0.17352941
0.24264706 0.24264706 0.24264706
0.33676471 0.33676471 0.33676471
0.45637255 0.45637255 0.45637255
0.56078431 0.56078431 0.56078431
0.1 0.1 0.1
0.11139706 0.11139706 0.11139706
0.13602941 0.13602941 0.13602941
0.15772059 0.15772059 0.15772059
0.21568627 0.21568627 0.21568627
0.29509804 0.29509804 0.29509804
0.37279412 0.37279412 0.37279412
0.4754902 0.4754902 0.4754902
0.58333333 0.58333333 0.58333333
0.15784314 0.15784314 0.15784314
0.1591299 0.1591299 0.1591299
0.18431373 0.18431373 0.18431373
0.22303922 0.22303922 0.22303922
0.27794118 0.27794118 0.27794118
0.34564951 0.34564951 0.34564951
0.42254902 0.42254902 0.42254902
0.51636029 0.51636029 0.51636029
0.61029412 0.61029412 0.61029412
0.2254902 0.2254902 0.2254902
0.22941176 0.22941176 0.22941176
0.25735294 0.25735294 0.25735294
0.29264706 0.29264706 0.29264706
0.34705882 0.34705882 0.34705882
0.4002451 0.4002451 0.4002451
0.47892157 0.47892157 0.47892157
0.56421569 0.56421569 0.56421569
0.64117647 0.64117647 0.64117647
0.32352941 0.32352941 0.32352941
0.32567402 0.32567402 0.32567402
0.36029412 0.36029412 0.36029412
0.39454657 0.39454657 0.39454657
0.43897059 0.43897059 0.43897059
0.48523284 0.48523284 0.48523284
0.53860294 0.53860294 0.53860294
0.61568627 0.61568627 0.61568627
0.68137255 0.68137255 0.68137255
0.44705882 0.44705882 0.44705882
0.44791667 0.44791667 0.44791667
0.47254902 0.47254902 0.47254902
0.49595588 0.49595588 0.49595588
0.52009804 0.52009804 0.52009804
0.56458333 0.56458333 0.56458333
0.61568627 0.61568627 0.61568627
0.67352941 0.67352941 0.67352941
0.72647059 0.72647059 0.72647059
0.56666667 0.56666667 0.56666667
0.57401961 0.57401961 0.57401961
0.58529412 0.58529412 0.58529412
0.60177696 0.60177696 0.60177696
0.61127451 0.61127451 0.61127451
0.64607843 0.64607843 0.64607843
0.68958333 0.68958333 0.68958333
0.73872549 0.73872549 0.73872549
0.78529412 0.78529412 0.78529412
0.67843137 0.67843137 0.67843137
0.67843137 0.67843137 0.67843137
0.68529412 0.68529412 0.68529412
0.69019608 0.69019608 0.69019608
0.69019608 0.69019608 0.69019608
0.71911765 0.71911765 0.71911765
0.76568627 0.76568627 0.76568627
0.8004902 0.8004902 0.8004902
0.85098039 0.85098039 0.85098039
0.019607843 0.019607843 0.019607843
0.031311275 0.031311275 0.031311275
0.065196078 0.065196078 0.065196078
0.090379902 0.090379902 0.090379902
0.15882353 0.15882353 0.15882353
0.24019608 0.24019608 0.24019608
0.34117647 0.34117647 0.34117647
0.45637255 0.45637255 0.45637255
0.55294118 0.55294118 0.55294118
0.054411765 0.054411765 0.054411765
0.068688725 0.068688725 0.068688725
0.096078431 0.096078431 0.096078431
0.12910539 0.12910539 0.12910539
0.18921569 0.18921569 0.18921569
0.25866268 0.25866268 0.25866268
0.35882353 0.35882353 0.35882353
0.46845895 0.46845895 0.46845895
0.56421569 0.56421569 0.56421569
0.10343137 0.10343137 0.10343137
0.11127451 0.11127451 0.11127451
0.14301471 0.14301471 0.14301471
0.16960784 0.16960784 0.16960784
0.23026961 0.23026961 0.23026961
0.3027114 0.3027114 0.3027114
0.38578431 0.38578431 0.38578431
0.49068627 0.49068627 0.49068627
0.5872549 0.5872549 0.5872549
0.16176471 0.16176471 0.16176471
0.16835938 0.16835938 0.16835938
0.2 0.2 0.2
0.23039216 0.23039216 0.23039216
0.2872549 0.2872549 0.2872549
0.35644148 0.35644148 0.35644148
0.43233762 0.43233762 0.43233762
0.52532935 0.52532935 0.52532935
0.61390931 0.61390931 0.61390931
0.2372549 0.2372549 0.2372549
0.24436275 0.24436275 0.24436275
0.27132353 0.27132353 0.27132353
0.3002451 0.3002451 0.3002451
0.35159314 0.35159314 0.35159314
0.42034314 0.42034314 0.42034314
0.48651961 0.48651961 0.48651961
0.56571691 0.56571691 0.56571691
0.64509804 0.64509804 0.64509804
0.32696078 0.32696078 0.32696078
0.33488817 0.33488817 0.33488817
0.36711091 0.36711091 0.36711091
0.39724265 0.39724265 0.39724265
0.43897059 0.43897059 0.43897059
0.48903952 0.48903952 0.48903952
0.5495098 0.5495098 0.5495098
0.61917892 0.61917892 0.61917892
0.68743873 0.68743873 0.68743873
0.4504902 0.4504902 0.4504902
0.45398284 0.45398284 0.45398284
0.47417279 0.47417279 0.47417279
0.49535846 0.49535846 0.49535846
0.52224265 0.52224265 0.52224265
0.56458333 0.56458333 0.56458333
0.6192402 0.6192402 0.6192402
0.6761489 0.6761489 0.6761489
0.72745098 0.72745098 0.72745098
0.57058824 0.57058824 0.57058824
0.57439491 0.57439491 0.57439491
0.58529412 0.58529412 0.58529412
0.60196078 0.60196078 0.60196078
0.61124387 0.61124387 0.61124387
0.6473652 0.6473652 0.6473652
0.68958333 0.68958333 0.68958333
0.73529412 0.73529412 0.73529412
0.78137255 0.78137255 0.78137255
0.67107843 0.67107843 0.67107843
0.6810049 0.6810049 0.6810049
0.67585784 0.67585784 0.67585784
0.69381127 0.69381127 0.69381127
0.69191176 0.69191176 0.69191176
0.72273284 0.72273284 0.72273284
0.75392157 0.75392157 0.75392157
0.79313725 0.79313725 0.79313725
0.83970588 0.83970588 0.83970588
0.023529412 0.023529412 0.023529412
0.046568627 0.046568627 0.046568627
0.075735294 0.075735294 0.075735294
0.12696078 0.12696078 0.12696078
0.18480392 0.18480392 0.18480392
0.25441176 0.25441176 0.25441176
0.36372549 0.36372549 0.36372549
0.4754902 0.4754902 0.4754902
0.56764706 0.56764706 0.56764706
0.07254902 0.07254902 0.07254902
0.085171569 0.085171569 0.085171569
0.11519608 0.11519608 0.11519608
0.15765931 0.15765931 0.15765931
0.21421569 0.21421569 0.21421569
0.2817402 0.2817402 0.2817402
0.38357843 0.38357843 0.38357843
0.48633578 0.48633578 0.48633578
0.57941176 0.57941176 0.57941176
0.13137255 0.13137255 0.13137255
0.13394608 0.13394608 0.13394608
0.16096814 0.16096814 0.16096814
0.20232843 0.20232843 0.20232843
0.25588235 0.25588235 0.25588235
0.31617647 0.31617647 0.31617647
0.4127451 0.4127451 0.4127451
0.51323529 0.51323529 0.51323529
0.5997549 0.5997549 0.5997549
0.18823529 0.18823529 0.18823529
0.1995098 0.1995098 0.1995098
0.2234375 0.2234375 0.2234375
0.26127451 0.26127451 0.26127451
0.31280637 0.31280637 0.31280637
0.37254902 0.37254902 0.37254902
0.44816176 0.44816176 0.44816176
0.54411765 0.54411765 0.54411765
0.62205882 0.62205882 0.62205882
0.25686275 0.25686275 0.25686275
0.27328431 0.27328431 0.27328431
0.28921569 0.28921569 0.28921569
0.32745098 0.32745098 0.32745098
0.37745098 0.37745098 0.37745098
0.4377451 0.4377451 0.4377451
0.50073529 0.50073529 0.50073529
0.58504902 0.58504902 0.58504902
0.65637255 0.65637255 0.65637255
0.36029412 0.36029412 0.36029412
0.36711091 0.36711091 0.36711091
0.38756127 0.38756127 0.38756127
0.41764706 0.41764706 0.41764706
0.45667892 0.45667892 0.45667892
0.50617341 0.50617341 0.50617341
0.56470588 0.56470588 0.56470588
0.62990196 0.62990196 0.62990196
0.68088235 0.68088235 0.68088235
0.47034314 0.47034314 0.47034314
0.4734375 0.4734375 0.4734375
0.48449755 0.48449755 0.48449755
0.51038603 0.51038603 0.51038603
0.54215686 0.54215686 0.54215686
0.57708333 0.57708333 0.57708333
0.63039216 0.63039216 0.63039216
0.68002451 0.68002451 0.68002451
0.72745098 0.72745098 0.72745098
0.58137255 0.58137255 0.58137255
0.58851103 0.58851103 0.58851103
0.59604779 0.59604779 0.59604779
0.61213235 0.61213235 0.61213235
0.63627451 0.63627451 0.63627451
0.65784314 0.65784314 0.65784314
0.69708946 0.69708946 0.69708946
0.73910846 0.73910846 0.73910846
0.78137255 0.78137255 0.78137255
0.68137255 0.68137255 0.68137255
0.69264706 0.69264706 0.69264706
0.69313725 0.69313725 0.69313725
0.71164216 0.71164216 0.71164216
0.71715686 0.71715686 0.71715686
0.73480392 0.73480392 0.73480392
0.75784314 0.75784314 0.75784314
0.79656863 0.79656863 0.79656863
0.81666667 0.81666667 0.81666667
0.032352941 0.032352941 0.032352941
0.068627451 0.068627451 0.068627451
0.1067402 0.1067402 0.1067402
0.16421569 0.16421569 0.16421569
0.21421569 0.21421569 0.21421569
0.28529412 0.28529412 0.28529412
0.39068627 0.39068627 0.39068627
0.50196078 0.50196078 0.50196078
0.59607843 0.59607843 0.59607843
0.099509804 0.099509804 0.099509804
0.10762102 0.10762102 0.10762102
0.14215686 0.14215686 0.14215686
0.1872549 0.1872549 0.1872549
0.24117647 0.24117647 0.24117647
0.30833333 0.30833333 0.30833333
0.40721507 0.40721507 0.40721507
0.5093367 0.5093367 0.5093367
0.60735294 0.60735294 0.60735294
0.1622549 0.1622549 0.1622549
0.16127451 0.16127451 0.16127451
0.19083946 0.19083946 0.19083946
0.2310049 0.2310049 0.2310049
0.28284314 0.28284314 0.28284314
0.34669118 0.34669118 0.34669118
0.43186275 0.43186275 0.43186275
0.53051471 0.53051471 0.53051471
0.61531863 0.61531863 0.61531863
0.21911765 0.21911765 0.21911765
0.23039216 0.23039216 0.23039216
0.25519301 0.25519301 0.25519301
0.28823529 0.28823529 0.28823529
0.33676471 0.33676471 0.33676471
0.39699755 0.39699755 0.39699755
0.47242647 0.47242647 0.47242647
0.55931373 0.55931373 0.55931373
0.6377451 0.6377451 0.6377451
0.29313725 0.29313725 0.29313725
0.30980392 0.30980392 0.30980392
0.32922794 0.32922794 0.32922794
0.35710784 0.35710784 0.35710784
0.40416667 0.40416667 0.40416667
0.46029412 0.46029412 0.46029412
0.52506127 0.52506127 0.52506127
0.6015625 0.6015625 0.6015625
0.65637255 0.65637255 0.65637255
0.39117647 0.39117647 0.39117647
0.39982384 0.39982384 0.39982384
0.41764706 0.41764706 0.41764706
0.44068627 0.44068627 0.44068627
0.48063725 0.48063725 0.48063725
0.52898284 0.52898284 0.52898284
0.58382353 0.58382353 0.58382353
0.642356 0.642356 0.642356
0.66813725 0.66813725 0.66813725
0.49656863 0.49656863 0.49656863
0.5004902 0.5004902 0.5004902
0.51127451 0.51127451 0.51127451
0.52941176 0.52941176 0.52941176
0.55968137 0.55968137 0.55968137
0.60274203 0.60274203 0.60274203
0.65116422 0.65116422 0.65116422
0.696875 0.696875 0.696875
0.73088235 0.73088235 0.73088235
0.60833333 0.60833333 0.60833333
0.6122549 0.6122549 0.6122549
0.61314338 0.61314338 0.61314338
0.62863051 0.62863051 0.62863051
0.64886642 0.64886642 0.64886642
0.67971048 0.67971048 0.67971048
0.71832108 0.71832108 0.71832108
0.75498621 0.75498621 0.75498621
0.80343137 0.80343137 0.80343137
0.70588235 0.70588235 0.70588235
0.71011029 0.71011029 0.71011029
0.70379902 0.70379902 0.70379902
0.71617647 0.71617647 0.71617647
0.71004902 0.71004902 0.71004902
0.75686275 0.75686275 0.75686275
0.77990196 0.77990196 0.77990196
0.81470588 0.81470588 0.81470588
0.81421569 0.81421569 0.81421569
0.07254902 0.07254902 0.07254902
0.099509804 0.099509804 0.099509804
0.12745098 0.12745098 0.12745098
0.19117647 0.19117647 0.19117647
0.2372549 0.2372549 0.2372549
0.32009804 0.32009804 0.32009804
0.42058824 0.42058824 0.42058824
0.525 0.525 0.525
0.60784314 0.60784314 0.60784314
0.13039216 0.13039216 0.13039216
0.14558824 0.14558824 0.14558824
0.17665441 0.17665441 0.17665441
0.21568627 0.21568627 0.21568627
0.27181373 0.27181373 0.27181373
0.33921569 0.33921569 0.33921569
0.43192402 0.43192402 0.43192402
0.53262868 0.53262868 0.53262868
0.61372549 0.61372549 0.61372549
0.18872549 0.18872549 0.18872549
0.19558824 0.19558824 0.19558824
0.22683824 0.22683824 0.22683824
0.26280637 0.26280637 0.26280637
0.31936275 0.31936275 0.31936275
0.38578431 0.38578431 0.38578431
0.46262255 0.46262255 0.46262255
0.54957108 0.54957108 0.54957108
0.63480392 0.63480392 0.63480392
0.24926471 0.24926471 0.24926471
0.25965074 0.25965074 0.25965074
0.2908701 0.2908701 0.2908701
0.31519608 0.31519608 0.31519608
0.37034314 0.37034314 0.37034314
0.43526348 0.43526348 0.43526348
0.50808824 0.50808824 0.50808824
0.58627451 0.58627451 0.58627451
0.66004902 0.66004902 0.66004902
0.33823529 0.33823529 0.33823529
0.34852941 0.34852941 0.34852941
0.36887255 0.36887255 0.36887255
0.39264706 0.39264706 0.39264706
0.43284314 0.43284314 0.43284314
0.48333333 0.48333333 0.48333333
0.54730392 0.54730392 0.54730392
0.62058824 0.62058824 0.62058824
0.67843137 0.67843137 0.67843137
0.42794118 0.42794118 0.42794118
0.4377451 0.4377451 0.4377451
0.45343137 0.45343137 0.45343137
0.47503064 0.47503064 0.47503064
0.51151961 0.51151961 0.51151961
0.55462623 0.55462623 0.55462623
0.60153186 0.60153186 0.60153186
0.6620098 0.6620098 0.6620098
0.70539216 0.70539216 0.70539216
0.52892157 0.52892157 0.52892157
0.5341299 0.5341299 0.5341299
0.54509804 0.54509804 0.54509804
0.56158088 0.56158088 0.56158088
0.5872549 0.5872549 0.5872549
0.62653186 0.62653186 0.62653186
0.67009804 0.67009804 0.67009804
0.71378676 0.71378676 0.71378676
0.75294118 0.75294118 0.75294118
0.63088235 0.63088235 0.63088235
0.63480392 0.63480392 0.63480392
0.63872549 0.63872549 0.63872549
0.6504902 0.6504902 0.6504902
0.67071078 0.67071078 0.67071078
0.70137868 0.70137868 0.70137868
0.73529412 0.73529412 0.73529412
0.77205882 0.77205882 0.77205882
0.80490196 0.80490196 0.80490196
0.71960784 0.71960784 0.71960784
0.72328431 0.72328431 0.72328431
0.72745098 0.72745098 0.72745098
0.72745098 0.72745098 0.72745098
0.74901961 0.74901961 0.74901961
0.76617647 0.76617647 0.76617647
0.78676471 0.78676471 0.78676471
0.83014706 0.83014706 0.83014706
0.88431373 0.88431373 0.88431373
0.095588235 0.095588235 0.095588235
0.14185049 0.14185049 0.14185049
0.17843137 0.17843137 0.17843137
0.22261029 0.22261029 0.22261029
0.27745098 0.27745098 0.27745098
0.35098039 0.35098039 0.35098039
0.44460784 0.44460784 0.44460784
0.54803922 0.54803922 0.54803922
0.625 0.625 0.625
0.16666667 0.16666667 0.16666667
0.18605239 0.18605239 0.18605239
0.22418811 0.22418811 0.22418811
0.26305913 0.26305913 0.26305913
0.31583946 0.31583946 0.31583946
0.38068321 0.38068321 0.38068321
0.4627451 0.4627451 0.4627451
0.55931373 0.55931373 0.55931373
0.63498775 0.63498775 0.63498775
0.23627451 0.23627451 0.23627451
0.24362745 0.24362745 0.24362745
0.2745098 0.2745098 0.2745098
0.307981 0.307981 0.307981
0.36182598 0.36182598 0.36182598
0.42889093 0.42889093 0.42889093
0.50422794 0.50422794 0.50422794
0.58627451 0.58627451 0.58627451
0.65392157 0.65392157 0.65392157
0.29803922 0.29803922 0.29803922
0.30539216 0.30539216 0.30539216
0.33235294 0.33235294 0.33235294
0.36323529 0.36323529 0.36323529
0.40738358 0.40738358 0.40738358
0.46960784 0.46960784 0.46960784
0.5399663 0.5399663 0.5399663
0.61666667 0.61666667 0.61666667
0.67751225 0.67751225 0.67751225
0.38137255 0.38137255 0.38137255
0.38529412 0.38529412 0.38529412
0.40545343 0.40545343 0.40545343
0.43210784 0.43210784 0.43210784
0.47414216 0.47414216 0.47414216
0.52205882 0.52205882 0.52205882
0.57616422 0.57616422 0.57616422
0.64362745 0.64362745 0.64362745
0.70784314 0.70784314 0.70784314
0.47401961 0.47401961 0.47401961
0.48008578 0.48008578 0.48008578
0.49546569 0.49546569 0.49546569
0.51456036 0.51456036 0.51456036
0.54362745 0.54362745 0.54362745
0.58235294 0.58235294 0.58235294
0.62598039 0.62598039 0.62598039
0.68627451 0.68627451 0.68627451
0.74019608 0.74019608 0.74019608
0.56666667 0.56666667 0.56666667
0.57273284 0.57273284 0.57273284
0.58409926 0.58409926 0.58409926
0.59840686 0.59840686 0.59840686
0.61715686 0.61715686 0.61715686
0.65232843 0.65232843 0.65232843
0.69212623 0.69212623 0.69212623
0.73596814 0.73596814 0.73596814
0.78382353 0.78382353 0.78382353
0.65784314 0.65784314 0.65784314
0.66176471 0.66176471 0.66176471
0.67348346 0.67348346 0.67348346
0.68491881 0.68491881 0.68491881
0.69901961 0.69901961 0.69901961
0.7254902 0.7254902 0.7254902
0.76113664 0.76113664 0.76113664
0.79509804 0.79509804 0.79509804
0.828125 0.828125 0.828125
0.74656863 0.74656863 0.74656863
0.74295343 0.74295343 0.74295343
0.75477941 0.75477941 0.75477941
0.75833333 0.75833333 0.75833333
0.77254902 0.77254902 0.77254902
0.79025735 0.79025735 0.79025735
0.81776961 0.81776961 0.81776961
0.84411765 0.84411765 0.84411765
0.88088235 0.88088235 0.88088235
0.1754902 0.1754902 0.1754902
0.19754902 0.19754902 0.19754902
0.24019608 0.24019608 0.24019608
0.28737745 0.28737745 0.28737745
0.34705882 0.34705882 0.34705882
0.41090686 0.41090686 0.41090686
0.49019608 0.49019608 0.49019608
0.57107843 0.57107843 0.57107843
0.64705882 0.64705882 0.64705882
0.2254902 0.2254902 0.2254902
0.24362745 0.24362745 0.24362745
0.28235294 0.28235294 0.28235294
0.32530637 0.32530637 0.32530637
0.37794118 0.37794118 0.37794118
0.43970588 0.43970588 0.43970588
0.51678922 0.51678922 0.51678922
0.5897212 0.5897212 0.5897212
0.6557598 0.6557598 0.6557598
0.29779412 0.29779412 0.29779412
0.30539216 0.30539216 0.30539216
0.33627451 0.33627451 0.33627451
0.36859681 0.36859681 0.36859681
0.41286765 0.41286765 0.41286765
0.47561275 0.47561275 0.47561275
0.54938725 0.54938725 0.54938725
0.62058824 0.62058824 0.62058824
0.67377451 0.67377451 0.67377451
0.36372549 0.36372549 0.36372549
0.36746324 0.36746324 0.36746324
0.39093137 0.39093137 0.39093137
0.42107843 0.42107843 0.42107843
0.45447304 0.45447304 0.45447304
0.50833333 0.50833333 0.50833333
0.57711397 0.57711397 0.57711397
0.64754902 0.64754902 0.64754902
0.69754902 0.69754902 0.69754902
0.44313725 0.44313725 0.44313725
0.446875 0.446875 0.446875
0.4622549 0.4622549 0.4622549
0.48676471 0.48676471 0.48676471
0.51911765 0.51911765 0.51911765
0.56053922 0.56053922 0.56053922
0.61164216 0.61164216 0.61164216
0.67843137 0.67843137 0.67843137
0.72843137 0.72843137 0.72843137
0.52794118 0.52794118 0.52794118
0.53181679 0.53181679 0.53181679
0.54099265 0.54099265 0.54099265
0.55747549 0.55747549 0.55747549
0.57941176 0.57941176 0.57941176
0.61813725 0.61813725 0.61813725
0.66124387 0.66124387 0.66124387
0.70919118 0.70919118 0.70919118
0.75931373 0.75931373 0.75931373
0.61495098 0.61495098 0.61495098
0.61642157 0.61642157 0.61642157
0.61936275 0.61936275 0.61936275
0.63137255 0.63137255 0.63137255
0.64803922 0.64803922 0.64803922
0.68284314 0.68284314 0.68284314
0.71666667 0.71666667 0.71666667
0.75484069 0.75484069 0.75484069
0.79803922 0.79803922 0.79803922
0.7004902 0.7004902 0.7004902
0.7004902 0.7004902 0.7004902
0.69635417 0.69635417 0.69635417
0.71439951 0.71439951 0.71439951
0.72371324 0.72371324 0.72371324
0.75245098 0.75245098 0.75245098
0.77941176 0.77941176 0.77941176
0.81421569 0.81421569 0.81421569
0.84375 0.84375 0.84375
0.77745098 0.77745098 0.77745098
0.77009804 0.77009804 0.77009804
0.76176471 0.76176471 0.76176471
0.78137255 0.78137255 0.78137255
0.78235294 0.78235294 0.78235294
0.80147059 0.80147059 0.80147059
0.83333333 0.83333333 0.83333333
0.85245098 0.85245098 0.85245098
0.87941176 0.87941176 0.87941176
0.26421569 0.26421569 0.26421569
0.26721814 0.26721814 0.26721814
0.30490196 0.30490196 0.30490196
0.34852941 0.34852941 0.34852941
0.40098039 0.40098039 0.40098039
0.47205882 0.47205882 0.47205882
0.54007353 0.54007353 0.54007353
0.60539216 0.60539216 0.60539216
0.675 0.675 0.675
0.30637255 0.30637255 0.30637255
0.31721814 0.31721814 0.31721814
0.3448223 0.3448223 0.3448223
0.38939951 0.38939951 0.38939951
0.43946078 0.43946078 0.43946078
0.50116422 0.50116422 0.50116422
0.56703431 0.56703431 0.56703431
0.62854626 0.62854626 0.62854626
0.68284314 0.68284314 0.68284314
0.36372549 0.36372549 0.36372549
0.37199755 0.37199755 0.37199755
0.3986826 0.3986826 0.3986826
0.43742341 0.43742341 0.43742341
0.48106618 0.48106618 0.48106618
0.53449755 0.53449755 0.53449755
0.59362745 0.59362745 0.59362745
0.65147059 0.65147059 0.65147059
0.70147059 0.70147059 0.70147059
0.43204657 0.43204657 0.43204657
0.43551624 0.43551624 0.43551624
0.45618873 0.45618873 0.45618873
0.48794424 0.48794424 0.48794424
0.52156863 0.52156863 0.52156863
0.55832567 0.55832567 0.55832567
0.61897978 0.61897978 0.61897978
0.67794118 0.67794118 0.67794118
0.7245098 0.7245098 0.7245098
0.5129902 0.5129902 0.5129902
0.51666667 0.51666667 0.51666667
0.528125 0.528125 0.528125
0.54852941 0.54852941 0.54852941
0.5754902 0.5754902 0.5754902
0.60637255 0.60637255 0.60637255
0.65171569 0.65171569 0.65171569
0.70882353 0.70882353 0.70882353
0.75539216 0.75539216 0.75539216
0.58382353 0.58382353 0.58382353
0.58382353 0.58382353 0.58382353
0.59080882 0.59080882 0.59080882
0.61077665 0.61077665 0.61077665
0.6372549 0.6372549 0.6372549
0.66421569 0.66421569 0.66421569
0.69724265 0.69724265 0.69724265
0.73972886 0.73972886 0.73972886
0.78235294 0.78235294 0.78235294
0.6504902 0.6504902 0.6504902
0.65274203 0.65274203 0.65274203
0.65 0.65 0.65
0.67784926 0.67784926 0.67784926
0.69901961 0.69901961 0.69901961
0.72009804 0.72009804 0.72009804
0.74362745 0.74362745 0.74362745
0.7801011 0.7801011 0.7801011
0.82107843 0.82107843 0.82107843
0.73529412 0.73529412 0.73529412
0.73878676 0.73878676 0.73878676
0.72046569 0.72046569 0.72046569
0.74901961 0.74901961 0.74901961
0.76424632 0.76424632 0.76424632
0.78333333 0.78333333 0.78333333
0.80637255 0.80637255 0.80637255
0.8372549 0.8372549 0.8372549
0.87156863 0.87156863 0.87156863
0.80833333 0.80833333 0.80833333
0.80839461 0.80839461 0.80839461
0.78872549 0.78872549 0.78872549
0.81470588 0.81470588 0.81470588
0.80686275 0.80686275 0.80686275
0.8372549 0.8372549 0.8372549
0.85637255 0.85637255 0.85637255
0.88333333 0.88333333 0.88333333
0.90343137 0.90343137 0.90343137
0.33333333 0.33333333 0.33333333
0.32941176 0.32941176 0.32941176
0.35882353 0.35882353 0.35882353
0.40637255 0.40637255 0.40637255
0.44117647 0.44117647 0.44117647
0.52696078 0.52696078 0.52696078
0.5745098 0.5745098 0.5745098
0.64019608 0.64019608 0.64019608
0.70980392 0.70980392 0.70980392
0.37990196 0.37990196 0.37990196
0.37984069 0.37984069 0.37984069
0.40110294 0.40110294 0.40110294
0.44852941 0.44852941 0.44852941
0.49509804 0.49509804 0.49509804
0.54626225 0.54626225 0.54626225
0.60061275 0.60061275 0.60061275
0.65980392 0.65980392 0.65980392
0.71372549 0.71372549 0.71372549
0.43431373 0.43431373 0.43431373
0.43419118 0.43419118 0.43419118
0.44509804 0.44509804 0.44509804
0.49166667 0.49166667 0.49166667
0.53627451 0.53627451 0.53627451
0.57696078 0.57696078 0.57696078
0.6252451 0.6252451 0.6252451
0.68186275 0.68186275 0.68186275
0.71960784 0.71960784 0.71960784
0.49901961 0.49901961 0.49901961
0.49362745 0.49362745 0.49362745
0.50833333 0.50833333 0.50833333
0.54160539 0.54160539 0.54160539
0.57426471 0.57426471 0.57426471
0.60386029 0.60386029 0.60386029
0.65833333 0.65833333 0.65833333
0.70539216 0.70539216 0.70539216
0.75539216 0.75539216 0.75539216
0.56862745 0.56862745 0.56862745
0.57426471 0.57426471 0.57426471
0.58382353 0.58382353 0.58382353
0.59852941 0.59852941 0.59852941
0.6245098 0.6245098 0.6245098
0.65318627 0.65318627 0.65318627
0.69411765 0.69411765 0.69411765
0.73970588 0.73970588 0.73970588
0.78627451 0.78627451 0.78627451
0.62107843 0.62107843 0.62107843
0.62126225 0.62126225 0.62126225
0.63394608 0.63394608 0.63394608
0.66029412 0.66029412 0.66029412
0.67867647 0.67867647 0.67867647
0.69852941 0.69852941 0.69852941
0.73186275 0.73186275 0.73186275
0.76715686 0.76715686 0.76715686
0.80931373 0.80931373 0.80931373
0.68431373 0.68431373 0.68431373
0.68137255 0.68137255 0.68137255
0.69901961 0.69901961 0.69901961
0.71813725 0.71813725 0.71813725
0.73529412 0.73529412 0.73529412
0.74852941 0.74852941 0.74852941
0.7752451 0.7752451 0.7752451
0.80551471 0.80551471 0.80551471
0.84411765 0.84411765 0.84411765
0.76617647 0.76617647 0.76617647
0.76666667 0.76666667 0.76666667
0.74007353 0.74007353 0.74007353
0.78235294 0.78235294 0.78235294
0.80318627 0.80318627 0.80318627
0.8127451 0.8127451 0.8127451
0.82941176 0.82941176 0.82941176
0.85637255 0.85637255 0.85637255
0.88333333 0.88333333 0.88333333
0.84705882 0.84705882 0.84705882
0.85833333 0.85833333 0.85833333
0.81666667 0.81666667 0.81666667
0.84803922 0.84803922 0.84803922
0.8627451 0.8627451 0.8627451
0.85490196 0.85490196 0.85490196
0.86470588 0.86470588 0.86470588
0.92254902 0.92254902 0.92254902
0.98431373 0.98431373 0.98431373
