site/assets/luts/natron-haldclut--fuji-ilford-hp5--0eae85f4d.cube
# LUTr-Project: LUTr — LUTrepository
# LUTr-Schema-Version: 1
# LUTr-ID: natron-haldclut--fuji-ilford-hp5--0eae85f4d
# LUTr-Title: fuji ilford hp5 +
# LUTr-Collection: Natron HaldCLUT
# LUTr-Collection-ID: natron-haldclut-presets
# LUTr-Source: https://github.com/NatronGitHub/clut
# LUTr-Source-File: submissions/natron-haldclut-presets/negative_new/fuji_ilford_hp5_+.png
# LUTr-Source-Format: PNG
# LUTr-Source-SHA256: 303dcfee90c3b9bb6d1194b9e9aa3b77a81e5dc8defbc35c50623a5ce189ac88
# LUTr-License: CC-BY-SA-4.0
# LUTr-License-URL: https://github.com/NatronGitHub/clut#license
# LUTr-Tags: creative, film, film-emulation, hald-clut, natron, png, cube
# LUTr-Transform-Class: film-emulation
# LUTr-Input-Color-Space: srgb
# LUTr-Output-Color-Space: srgb
# LUTr-Color-Space-Confidence: assumed-display-referred
# LUTr-Conversion-Method: PNG LUT image decoded at 16-bit and sampled to 25x25x25 3D CUBE
# LUTr-Conversion-Date: 2026-07-27
# LUTr-Conversion-Tool: LUTr scripts/convert-all-to-cube.mjs
# LUTr-Conversion-Grid: 25x25x25
# LUTr-Note: Preserve this metadata and the upstream license notices when redistributing.
TITLE "fuji ilford hp5 +"
LUT_3D_SIZE 25
DOMAIN_MIN 0 0 0
DOMAIN_MAX 1 1 1
0.15294118 0.15294118 0.15294118
0.15294118 0.15294118 0.15294118
0.15294118 0.15294118 0.15294118
0.15637255 0.15637255 0.15637255
0.17058824 0.17058824 0.17058824
0.18137255 0.18137255 0.18137255
0.19509804 0.19509804 0.19509804
0.20539216 0.20539216 0.20539216
0.21568627 0.21568627 0.21568627
0.22843137 0.22843137 0.22843137
0.25294118 0.25294118 0.25294118
0.27745098 0.27745098 0.27745098
0.30196078 0.30196078 0.30196078
0.32647059 0.32647059 0.32647059
0.34705882 0.34705882 0.34705882
0.37156863 0.37156863 0.37156863
0.39215686 0.39215686 0.39215686
0.4127451 0.4127451 0.4127451
0.43333333 0.43333333 0.43333333
0.45784314 0.45784314 0.45784314
0.48235294 0.48235294 0.48235294
0.51911765 0.51911765 0.51911765
0.55392157 0.55392157 0.55392157
0.59264706 0.59264706 0.59264706
0.62745098 0.62745098 0.62745098
0.15686275 0.15686275 0.15686275
0.15686275 0.15686275 0.15686275
0.15747549 0.15747549 0.15747549
0.16421569 0.16421569 0.16421569
0.1745098 0.1745098 0.1745098
0.18480392 0.18480392 0.18480392
0.19509804 0.19509804 0.19509804
0.20484069 0.20484069 0.20484069
0.21176471 0.21176471 0.21176471
0.22751225 0.22751225 0.22751225
0.25294118 0.25294118 0.25294118
0.27745098 0.27745098 0.27745098
0.30196078 0.30196078 0.30196078
0.32647059 0.32647059 0.32647059
0.34889706 0.34889706 0.34889706
0.37156863 0.37156863 0.37156863
0.39460784 0.39460784 0.39460784
0.41666667 0.41666667 0.41666667
0.43970588 0.43970588 0.43970588
0.46421569 0.46421569 0.46421569
0.49191176 0.49191176 0.49191176
0.52598039 0.52598039 0.52598039
0.56323529 0.56323529 0.56323529
0.6004902 0.6004902 0.6004902
0.62990196 0.62990196 0.62990196
0.16176471 0.16176471 0.16176471
0.16078431 0.16078431 0.16078431
0.1625 0.1625 0.1625
0.17205882 0.17205882 0.17205882
0.18284314 0.18284314 0.18284314
0.19362745 0.19362745 0.19362745
0.20392157 0.20392157 0.20392157
0.21029412 0.21029412 0.21029412
0.22058824 0.22058824 0.22058824
0.23468137 0.23468137 0.23468137
0.25808824 0.25808824 0.25808824
0.28235294 0.28235294 0.28235294
0.30686275 0.30686275 0.30686275
0.33051471 0.33051471 0.33051471
0.35196078 0.35196078 0.35196078
0.37647059 0.37647059 0.37647059
0.40098039 0.40098039 0.40098039
0.4254902 0.4254902 0.4254902
0.45098039 0.45098039 0.45098039
0.4745098 0.4745098 0.4745098
0.50490196 0.50490196 0.50490196
0.53970588 0.53970588 0.53970588
0.5752451 0.5752451 0.5752451
0.61041667 0.61041667 0.61041667
0.63627451 0.63627451 0.63627451
0.16470588 0.16470588 0.16470588
0.16470588 0.16470588 0.16470588
0.16568627 0.16568627 0.16568627
0.17598039 0.17598039 0.17598039
0.18970588 0.18970588 0.18970588
0.20392157 0.20392157 0.20392157
0.21421569 0.21421569 0.21421569
0.2245098 0.2245098 0.2245098
0.23823529 0.23823529 0.23823529
0.25882353 0.25882353 0.25882353
0.27806373 0.27806373 0.27806373
0.29656863 0.29656863 0.29656863
0.31715686 0.31715686 0.31715686
0.34117647 0.34117647 0.34117647
0.3622549 0.3622549 0.3622549
0.38676471 0.38676471 0.38676471
0.41127451 0.41127451 0.41127451
0.43609069 0.43609069 0.43609069
0.46127451 0.46127451 0.46127451
0.48523284 0.48523284 0.48523284
0.51519608 0.51519608 0.51519608
0.5504902 0.5504902 0.5504902
0.5877451 0.5877451 0.5877451
0.61960784 0.61960784 0.61960784
0.64313725 0.64313725 0.64313725
0.1745098 0.1745098 0.1745098
0.17058824 0.17058824 0.17058824
0.17009804 0.17009804 0.17009804
0.18553922 0.18553922 0.18553922
0.20196078 0.20196078 0.20196078
0.21421569 0.21421569 0.21421569
0.22598039 0.22598039 0.22598039
0.24215686 0.24215686 0.24215686
0.2627451 0.2627451 0.2627451
0.27941176 0.27941176 0.27941176
0.3 0.3 0.3
0.31887255 0.31887255 0.31887255
0.3372549 0.3372549 0.3372549
0.35784314 0.35784314 0.35784314
0.37843137 0.37843137 0.37843137
0.3997549 0.3997549 0.3997549
0.42352941 0.42352941 0.42352941
0.44730392 0.44730392 0.44730392
0.47058824 0.47058824 0.47058824
0.49509804 0.49509804 0.49509804
0.5254902 0.5254902 0.5254902
0.56078431 0.56078431 0.56078431
0.59803922 0.59803922 0.59803922
0.62990196 0.62990196 0.62990196
0.65490196 0.65490196 0.65490196
0.19705882 0.19705882 0.19705882
0.19362745 0.19362745 0.19362745
0.19448529 0.19448529 0.19448529
0.20098039 0.20098039 0.20098039
0.21421569 0.21421569 0.21421569
0.22843137 0.22843137 0.22843137
0.24215686 0.24215686 0.24215686
0.2627451 0.2627451 0.2627451
0.28333333 0.28333333 0.28333333
0.30392157 0.30392157 0.30392157
0.32058824 0.32058824 0.32058824
0.34117647 0.34117647 0.34117647
0.35808824 0.35808824 0.35808824
0.37843137 0.37843137 0.37843137
0.39901961 0.39901961 0.39901961
0.42009804 0.42009804 0.42009804
0.44411765 0.44411765 0.44411765
0.46501225 0.46501225 0.46501225
0.48578431 0.48578431 0.48578431
0.50637255 0.50637255 0.50637255
0.5379902 0.5379902 0.5379902
0.575 0.575 0.575
0.60980392 0.60980392 0.60980392
0.64460784 0.64460784 0.64460784
0.67107843 0.67107843 0.67107843
0.21764706 0.21764706 0.21764706
0.22058824 0.22058824 0.22058824
0.2245098 0.2245098 0.2245098
0.22843137 0.22843137 0.22843137
0.23284314 0.23284314 0.23284314
0.24215686 0.24215686 0.24215686
0.2627451 0.2627451 0.2627451
0.28223039 0.28223039 0.28223039
0.30392157 0.30392157 0.30392157
0.3245098 0.3245098 0.3245098
0.34117647 0.34117647 0.34117647
0.36176471 0.36176471 0.36176471
0.38235294 0.38235294 0.38235294
0.40196078 0.40196078 0.40196078
0.42328431 0.42328431 0.42328431
0.44411765 0.44411765 0.44411765
0.46764706 0.46764706 0.46764706
0.49105392 0.49105392 0.49105392
0.5127451 0.5127451 0.5127451
0.53419118 0.53419118 0.53419118
0.56078431 0.56078431 0.56078431
0.59558824 0.59558824 0.59558824
0.62965686 0.62965686 0.62965686
0.66335784 0.66335784 0.66335784
0.68823529 0.68823529 0.68823529
0.23823529 0.23823529 0.23823529
0.24515931 0.24515931 0.24515931
0.25036765 0.25036765 0.25036765
0.25520833 0.25520833 0.25520833
0.25857843 0.25857843 0.25857843
0.26617647 0.26617647 0.26617647
0.28333333 0.28333333 0.28333333
0.30091912 0.30091912 0.30091912
0.32058824 0.32058824 0.32058824
0.34117647 0.34117647 0.34117647
0.36470588 0.36470588 0.36470588
0.38235294 0.38235294 0.38235294
0.40294118 0.40294118 0.40294118
0.42371324 0.42371324 0.42371324
0.44742647 0.44742647 0.44742647
0.46917892 0.46917892 0.46917892
0.49313725 0.49313725 0.49313725
0.51672794 0.51672794 0.51672794
0.53970588 0.53970588 0.53970588
0.5627451 0.5627451 0.5627451
0.5879902 0.5879902 0.5879902
0.61617647 0.61617647 0.61617647
0.65 0.65 0.65
0.68186275 0.68186275 0.68186275
0.70490196 0.70490196 0.70490196
0.27058824 0.27058824 0.27058824
0.27303922 0.27303922 0.27303922
0.27843137 0.27843137 0.27843137
0.28235294 0.28235294 0.28235294
0.28627451 0.28627451 0.28627451
0.29460784 0.29460784 0.29460784
0.30490196 0.30490196 0.30490196
0.3245098 0.3245098 0.3245098
0.34509804 0.34509804 0.34509804
0.36568627 0.36568627 0.36568627
0.38627451 0.38627451 0.38627451
0.40343137 0.40343137 0.40343137
0.42745098 0.42745098 0.42745098
0.44803922 0.44803922 0.44803922
0.47254902 0.47254902 0.47254902
0.49460784 0.49460784 0.49460784
0.51764706 0.51764706 0.51764706
0.54215686 0.54215686 0.54215686
0.56666667 0.56666667 0.56666667
0.5872549 0.5872549 0.5872549
0.61372549 0.61372549 0.61372549
0.64068627 0.64068627 0.64068627
0.67156863 0.67156863 0.67156863
0.70245098 0.70245098 0.70245098
0.72156863 0.72156863 0.72156863
0.30392157 0.30392157 0.30392157
0.30539216 0.30539216 0.30539216
0.30931373 0.30931373 0.30931373
0.3127451 0.3127451 0.3127451
0.31715686 0.31715686 0.31715686
0.32156863 0.32156863 0.32156863
0.33186275 0.33186275 0.33186275
0.3466299 0.3466299 0.3466299
0.36568627 0.36568627 0.36568627
0.38627451 0.38627451 0.38627451
0.40686275 0.40686275 0.40686275
0.42745098 0.42745098 0.42745098
0.44926471 0.44926471 0.44926471
0.47285539 0.47285539 0.47285539
0.49669118 0.49669118 0.49669118
0.52064951 0.52064951 0.52064951
0.54215686 0.54215686 0.54215686
0.56666667 0.56666667 0.56666667
0.59007353 0.59007353 0.59007353
0.61390931 0.61390931 0.61390931
0.63823529 0.63823529 0.63823529
0.66501225 0.66501225 0.66501225
0.69215686 0.69215686 0.69215686
0.72303922 0.72303922 0.72303922
0.74215686 0.74215686 0.74215686
0.33627451 0.33627451 0.33627451
0.33627451 0.33627451 0.33627451
0.34019608 0.34019608 0.34019608
0.34276961 0.34276961 0.34276961
0.34607843 0.34607843 0.34607843
0.35110294 0.35110294 0.35110294
0.35882353 0.35882353 0.35882353
0.37022059 0.37022059 0.37022059
0.38627451 0.38627451 0.38627451
0.40686275 0.40686275 0.40686275
0.42745098 0.42745098 0.42745098
0.44889706 0.44889706 0.44889706
0.47303922 0.47303922 0.47303922
0.49718137 0.49718137 0.49718137
0.52156863 0.52156863 0.52156863
0.5442402 0.5442402 0.5442402
0.56666667 0.56666667 0.56666667
0.59117647 0.59117647 0.59117647
0.61348039 0.61348039 0.61348039
0.63627451 0.63627451 0.63627451
0.6627451 0.6627451 0.6627451
0.68933824 0.68933824 0.68933824
0.71666667 0.71666667 0.71666667
0.74215686 0.74215686 0.74215686
0.75882353 0.75882353 0.75882353
0.36715686 0.36715686 0.36715686
0.37089461 0.37089461 0.37089461
0.37107843 0.37107843 0.37107843
0.37107843 0.37107843 0.37107843
0.375 0.375 0.375
0.37898284 0.37898284 0.37898284
0.38578431 0.38578431 0.38578431
0.39607843 0.39607843 0.39607843
0.40686275 0.40686275 0.40686275
0.42745098 0.42745098 0.42745098
0.44889706 0.44889706 0.44889706
0.47254902 0.47254902 0.47254902
0.49705882 0.49705882 0.49705882
0.52156863 0.52156863 0.52156863
0.54595588 0.54595588 0.54595588
0.56666667 0.56666667 0.56666667
0.59117647 0.59117647 0.59117647
0.61390931 0.61390931 0.61390931
0.63627451 0.63627451 0.63627451
0.66072304 0.66072304 0.66072304
0.68529412 0.68529412 0.68529412
0.71329657 0.71329657 0.71329657
0.73823529 0.73823529 0.73823529
0.7627451 0.7627451 0.7627451
0.77941176 0.77941176 0.77941176
0.40196078 0.40196078 0.40196078
0.40196078 0.40196078 0.40196078
0.40588235 0.40588235 0.40588235
0.40588235 0.40588235 0.40588235
0.40588235 0.40588235 0.40588235
0.40588235 0.40588235 0.40588235
0.40931373 0.40931373 0.40931373
0.41911765 0.41911765 0.41911765
0.43137255 0.43137255 0.43137255
0.44926471 0.44926471 0.44926471
0.47303922 0.47303922 0.47303922
0.49705882 0.49705882 0.49705882
0.52156863 0.52156863 0.52156863
0.54607843 0.54607843 0.54607843
0.56813725 0.56813725 0.56813725
0.59117647 0.59117647 0.59117647
0.61176471 0.61176471 0.61176471
0.63627451 0.63627451 0.63627451
0.66078431 0.66078431 0.66078431
0.68308824 0.68308824 0.68308824
0.70882353 0.70882353 0.70882353
0.73480392 0.73480392 0.73480392
0.75882353 0.75882353 0.75882353
0.78259804 0.78259804 0.78259804
0.79607843 0.79607843 0.79607843
0.43333333 0.43333333 0.43333333
0.43676471 0.43676471 0.43676471
0.43811275 0.43811275 0.43811275
0.44068627 0.44068627 0.44068627
0.44068627 0.44068627 0.44068627
0.43719363 0.43719363 0.43719363
0.43382353 0.43382353 0.43382353
0.44362745 0.44362745 0.44362745
0.46029412 0.46029412 0.46029412
0.47714461 0.47714461 0.47714461
0.50110294 0.50110294 0.50110294
0.52205882 0.52205882 0.52205882
0.54656863 0.54656863 0.54656863
0.57107843 0.57107843 0.57107843
0.59117647 0.59117647 0.59117647
0.61176471 0.61176471 0.61176471
0.63235294 0.63235294 0.63235294
0.65686275 0.65686275 0.65686275
0.68137255 0.68137255 0.68137255
0.70539216 0.70539216 0.70539216
0.73039216 0.73039216 0.73039216
0.75490196 0.75490196 0.75490196
0.77928922 0.77928922 0.77928922
0.8 0.8 0.8
0.81617647 0.81617647 0.81617647
0.47058824 0.47058824 0.47058824
0.47120098 0.47120098 0.47120098
0.4745098 0.4745098 0.4745098
0.4754902 0.4754902 0.4754902
0.47843137 0.47843137 0.47843137
0.4745098 0.4745098 0.4745098
0.47377451 0.47377451 0.47377451
0.47634804 0.47634804 0.47634804
0.49411765 0.49411765 0.49411765
0.51176471 0.51176471 0.51176471
0.53161765 0.53161765 0.53161765
0.55294118 0.55294118 0.55294118
0.57598039 0.57598039 0.57598039
0.59803922 0.59803922 0.59803922
0.61495098 0.61495098 0.61495098
0.63235294 0.63235294 0.63235294
0.65294118 0.65294118 0.65294118
0.67745098 0.67745098 0.67745098
0.70196078 0.70196078 0.70196078
0.72598039 0.72598039 0.72598039
0.75098039 0.75098039 0.75098039
0.7754902 0.7754902 0.7754902
0.79607843 0.79607843 0.79607843
0.81666667 0.81666667 0.81666667
0.83333333 0.83333333 0.83333333
0.50784314 0.50784314 0.50784314
0.51176471 0.51176471 0.51176471
0.51568627 0.51568627 0.51568627
0.51911765 0.51911765 0.51911765
0.51960784 0.51960784 0.51960784
0.51930147 0.51930147 0.51930147
0.51568627 0.51568627 0.51568627
0.51268382 0.51268382 0.51268382
0.52598039 0.52598039 0.52598039
0.54264706 0.54264706 0.54264706
0.56323529 0.56323529 0.56323529
0.58253676 0.58253676 0.58253676
0.60294118 0.60294118 0.60294118
0.62322304 0.62322304 0.62322304
0.63835784 0.63835784 0.63835784
0.65594363 0.65594363 0.65594363
0.67352941 0.67352941 0.67352941
0.69748775 0.69748775 0.69748775
0.71960784 0.71960784 0.71960784
0.74528186 0.74528186 0.74528186
0.76887255 0.76887255 0.76887255
0.79215686 0.79215686 0.79215686
0.81519608 0.81519608 0.81519608
0.8348652 0.8348652 0.8348652
0.85 0.85 0.85
0.55294118 0.55294118 0.55294118
0.55294118 0.55294118 0.55294118
0.55686275 0.55686275 0.55686275
0.56029412 0.56029412 0.56029412
0.56078431 0.56078431 0.56078431
0.56029412 0.56029412 0.56029412
0.55686275 0.55686275 0.55686275
0.55294118 0.55294118 0.55294118
0.55294118 0.55294118 0.55294118
0.57352941 0.57352941 0.57352941
0.59313725 0.59313725 0.59313725
0.61078431 0.61078431 0.61078431
0.63137255 0.63137255 0.63137255
0.64803922 0.64803922 0.64803922
0.66470588 0.66470588 0.66470588
0.67990196 0.67990196 0.67990196
0.69411765 0.69411765 0.69411765
0.71470588 0.71470588 0.71470588
0.73921569 0.73921569 0.73921569
0.76372549 0.76372549 0.76372549
0.78627451 0.78627451 0.78627451
0.80882353 0.80882353 0.80882353
0.83333333 0.83333333 0.83333333
0.85245098 0.85245098 0.85245098
0.86666667 0.86666667 0.86666667
0.59803922 0.59803922 0.59803922
0.59803922 0.59803922 0.59803922
0.59865196 0.59865196 0.59865196
0.60196078 0.60196078 0.60196078
0.60196078 0.60196078 0.60196078
0.59932598 0.59932598 0.59932598
0.59448529 0.59448529 0.59448529
0.59019608 0.59019608 0.59019608
0.59411765 0.59411765 0.59411765
0.60925245 0.60925245 0.60925245
0.62463235 0.62463235 0.62463235
0.63823529 0.63823529 0.63823529
0.65514706 0.65514706 0.65514706
0.6723652 0.6723652 0.6723652
0.68811275 0.68811275 0.68811275
0.70349265 0.70349265 0.70349265
0.71862745 0.71862745 0.71862745
0.73529412 0.73529412 0.73529412
0.75735294 0.75735294 0.75735294
0.78039216 0.78039216 0.78039216
0.80245098 0.80245098 0.80245098
0.8254902 0.8254902 0.8254902
0.84754902 0.84754902 0.84754902
0.86758578 0.86758578 0.86758578
0.88088235 0.88088235 0.88088235
0.64019608 0.64019608 0.64019608
0.64313725 0.64313725 0.64313725
0.64313725 0.64313725 0.64313725
0.64313725 0.64313725 0.64313725
0.64313725 0.64313725 0.64313725
0.63921569 0.63921569 0.63921569
0.6370098 0.6370098 0.6370098
0.63627451 0.63627451 0.63627451
0.64019608 0.64019608 0.64019608
0.65343137 0.65343137 0.65343137
0.66372549 0.66372549 0.66372549
0.67401961 0.67401961 0.67401961
0.68333333 0.68333333 0.68333333
0.70061275 0.70061275 0.70061275
0.71568627 0.71568627 0.71568627
0.73137255 0.73137255 0.73137255
0.74803922 0.74803922 0.74803922
0.76188725 0.76188725 0.76188725
0.77647059 0.77647059 0.77647059
0.79607843 0.79607843 0.79607843
0.81666667 0.81666667 0.81666667
0.8372549 0.8372549 0.8372549
0.85882353 0.85882353 0.85882353
0.87843137 0.87843137 0.87843137
0.89117647 0.89117647 0.89117647
0.68431373 0.68431373 0.68431373
0.68805147 0.68805147 0.68805147
0.68823529 0.68823529 0.68823529
0.68823529 0.68823529 0.68823529
0.68602941 0.68602941 0.68602941
0.68425245 0.68425245 0.68425245
0.68382353 0.68382353 0.68382353
0.68382353 0.68382353 0.68382353
0.68823529 0.68823529 0.68823529
0.69834559 0.69834559 0.69834559
0.70490196 0.70490196 0.70490196
0.71176471 0.71176471 0.71176471
0.71813725 0.71813725 0.71813725
0.72892157 0.72892157 0.72892157
0.74656863 0.74656863 0.74656863
0.7622549 0.7622549 0.7622549
0.7754902 0.7754902 0.7754902
0.78921569 0.78921569 0.78921569
0.80085784 0.80085784 0.80085784
0.81415441 0.81415441 0.81415441
0.83088235 0.83088235 0.83088235
0.85147059 0.85147059 0.85147059
0.87205882 0.87205882 0.87205882
0.89117647 0.89117647 0.89117647
0.90147059 0.90147059 0.90147059
0.72941176 0.72941176 0.72941176
0.72941176 0.72941176 0.72941176
0.73137255 0.73137255 0.73137255
0.72965686 0.72965686 0.72965686
0.72941176 0.72941176 0.72941176
0.72916667 0.72916667 0.72916667
0.72745098 0.72745098 0.72745098
0.72941176 0.72941176 0.72941176
0.73333333 0.73333333 0.73333333
0.73970588 0.73970588 0.73970588
0.74607843 0.74607843 0.74607843
0.75073529 0.75073529 0.75073529
0.75392157 0.75392157 0.75392157
0.76323529 0.76323529 0.76323529
0.77745098 0.77745098 0.77745098
0.79240196 0.79240196 0.79240196
0.80588235 0.80588235 0.80588235
0.81813725 0.81813725 0.81813725
0.83039216 0.83039216 0.83039216
0.84068627 0.84068627 0.84068627
0.85294118 0.85294118 0.85294118
0.86764706 0.86764706 0.86764706
0.88676471 0.88676471 0.88676471
0.90343137 0.90343137 0.90343137
0.91176471 0.91176471 0.91176471
0.77058824 0.77058824 0.77058824
0.77303922 0.77303922 0.77303922
0.7745098 0.7745098 0.7745098
0.77107843 0.77107843 0.77107843
0.77058824 0.77058824 0.77058824
0.77058824 0.77058824 0.77058824
0.77058824 0.77058824 0.77058824
0.7723652 0.7723652 0.7723652
0.7745098 0.7745098 0.7745098
0.78088235 0.78088235 0.78088235
0.78627451 0.78627451 0.78627451
0.78927696 0.78927696 0.78927696
0.79191176 0.79191176 0.79191176
0.79846814 0.79846814 0.79846814
0.80833333 0.80833333 0.80833333
0.82254902 0.82254902 0.82254902
0.83627451 0.83627451 0.83627451
0.84705882 0.84705882 0.84705882
0.85735294 0.85735294 0.85735294
0.86764706 0.86764706 0.86764706
0.88137255 0.88137255 0.88137255
0.89166667 0.89166667 0.89166667
0.90453431 0.90453431 0.90453431
0.91568627 0.91568627 0.91568627
0.92205882 0.92205882 0.92205882
0.81176471 0.81176471 0.81176471
0.81176471 0.81176471 0.81176471
0.8127451 0.8127451 0.8127451
0.81176471 0.81176471 0.81176471
0.81176471 0.81176471 0.81176471
0.81176471 0.81176471 0.81176471
0.81176471 0.81176471 0.81176471
0.81568627 0.81568627 0.81568627
0.81568627 0.81568627 0.81568627
0.82022059 0.82022059 0.82022059
0.82377451 0.82377451 0.82377451
0.82708333 0.82708333 0.82708333
0.82794118 0.82794118 0.82794118
0.83284314 0.83284314 0.83284314
0.84215686 0.84215686 0.84215686
0.85098039 0.85098039 0.85098039
0.86372549 0.86372549 0.86372549
0.875 0.875 0.875
0.88529412 0.88529412 0.88529412
0.89558824 0.89558824 0.89558824
0.90588235 0.90588235 0.90588235
0.91311275 0.91311275 0.91311275
0.92034314 0.92034314 0.92034314
0.92953431 0.92953431 0.92953431
0.93235294 0.93235294 0.93235294
0.84754902 0.84754902 0.84754902
0.84846814 0.84846814 0.84846814
0.84865196 0.84865196 0.84865196
0.84754902 0.84754902 0.84754902
0.84754902 0.84754902 0.84754902
0.84754902 0.84754902 0.84754902
0.8504902 0.8504902 0.8504902
0.85202206 0.85202206 0.85202206
0.85539216 0.85539216 0.85539216
0.85839461 0.85839461 0.85839461
0.85931373 0.85931373 0.85931373
0.85931373 0.85931373 0.85931373
0.85931373 0.85931373 0.85931373
0.86715686 0.86715686 0.86715686
0.87401961 0.87401961 0.87401961
0.88039216 0.88039216 0.88039216
0.89313725 0.89313725 0.89313725
0.90343137 0.90343137 0.90343137
0.91090686 0.91090686 0.91090686
0.91881127 0.91881127 0.91881127
0.92377451 0.92377451 0.92377451
0.93106618 0.93106618 0.93106618
0.93590686 0.93590686 0.93590686
0.94264706 0.94264706 0.94264706
0.94264706 0.94264706 0.94264706
0.87058824 0.87058824 0.87058824
0.8745098 0.8745098 0.8745098
0.8745098 0.8745098 0.8745098
0.87107843 0.87107843 0.87107843
0.87058824 0.87058824 0.87058824
0.87107843 0.87107843 0.87107843
0.8745098 0.8745098 0.8745098
0.87843137 0.87843137 0.87843137
0.88235294 0.88235294 0.88235294
0.88627451 0.88627451 0.88627451
0.88627451 0.88627451 0.88627451
0.88235294 0.88235294 0.88235294
0.88627451 0.88627451 0.88627451
0.89068627 0.89068627 0.89068627
0.89705882 0.89705882 0.89705882
0.90735294 0.90735294 0.90735294
0.91764706 0.91764706 0.91764706
0.92401961 0.92401961 0.92401961
0.92647059 0.92647059 0.92647059
0.92941176 0.92941176 0.92941176
0.93529412 0.93529412 0.93529412
0.94117647 0.94117647 0.94117647
0.94803922 0.94803922 0.94803922
0.94901961 0.94901961 0.94901961
0.94901961 0.94901961 0.94901961
0.15294118 0.15294118 0.15294118
0.15294118 0.15294118 0.15294118
0.15294118 0.15294118 0.15294118
0.15637255 0.15637255 0.15637255
0.17058824 0.17058824 0.17058824
0.18351716 0.18351716 0.18351716
0.19509804 0.19509804 0.19509804
0.20784314 0.20784314 0.20784314
0.22205882 0.22205882 0.22205882
0.23872549 0.23872549 0.23872549
0.25686275 0.25686275 0.25686275
0.27959559 0.27959559 0.27959559
0.30196078 0.30196078 0.30196078
0.32647059 0.32647059 0.32647059
0.34705882 0.34705882 0.34705882
0.37156863 0.37156863 0.37156863
0.39215686 0.39215686 0.39215686
0.4127451 0.4127451 0.4127451
0.43615196 0.43615196 0.43615196
0.45784314 0.45784314 0.45784314
0.48676471 0.48676471 0.48676471
0.51960784 0.51960784 0.51960784
0.55747549 0.55747549 0.55747549
0.59411765 0.59411765 0.59411765
0.61960784 0.61960784 0.61960784
0.15686275 0.15686275 0.15686275
0.15686275 0.15686275 0.15686275
0.15747549 0.15747549 0.15747549
0.1627451 0.1627451 0.1627451
0.1745098 0.1745098 0.1745098
0.1872549 0.1872549 0.1872549
0.19846814 0.19846814 0.19846814
0.20841759 0.20841759 0.20841759
0.22205882 0.22205882 0.22205882
0.23514859 0.23514859 0.23514859
0.2557598 0.2557598 0.2557598
0.28039982 0.28039982 0.28039982
0.30272672 0.30272672 0.30272672
0.32647059 0.32647059 0.32647059
0.34889706 0.34889706 0.34889706
0.37156863 0.37156863 0.37156863
0.39460784 0.39460784 0.39460784
0.41666667 0.41666667 0.41666667
0.43993566 0.43993566 0.43993566
0.46421569 0.46421569 0.46421569
0.49460784 0.49460784 0.49460784
0.52678462 0.52678462 0.52678462
0.56398591 0.56398591 0.56398591
0.60014553 0.60014553 0.60014553
0.62352941 0.62352941 0.62352941
0.16360294 0.16360294 0.16360294
0.16360294 0.16360294 0.16360294
0.16541054 0.16541054 0.16541054
0.17299326 0.17299326 0.17299326
0.18333333 0.18333333 0.18333333
0.19607843 0.19607843 0.19607843
0.20637255 0.20637255 0.20637255
0.21666667 0.21666667 0.21666667
0.22696078 0.22696078 0.22696078
0.24068627 0.24068627 0.24068627
0.26237745 0.26237745 0.26237745
0.28457414 0.28457414 0.28457414
0.30686275 0.30686275 0.30686275
0.33039216 0.33039216 0.33039216
0.35196078 0.35196078 0.35196078
0.37647059 0.37647059 0.37647059
0.40098039 0.40098039 0.40098039
0.4254902 0.4254902 0.4254902
0.45098039 0.45098039 0.45098039
0.47794118 0.47794118 0.47794118
0.50551471 0.50551471 0.50551471
0.53970588 0.53970588 0.53970588
0.5745098 0.5745098 0.5745098
0.60631127 0.60631127 0.60631127
0.62598039 0.62598039 0.62598039
