site/assets/luts/natron-haldclut--fuji-fp-100c-negative--841b05f08.cube
# LUTr-Project: LUTr — LUTrepository
# LUTr-Schema-Version: 1
# LUTr-ID: natron-haldclut--fuji-fp-100c-negative--841b05f08
# LUTr-Title: fuji fp-100c negative +
# LUTr-Collection: Natron HaldCLUT
# LUTr-Collection-ID: natron-haldclut-presets
# LUTr-Source: https://github.com/NatronGitHub/clut
# LUTr-Source-File: submissions/natron-haldclut-presets/instant_pro/fuji_fp-100c_negative_+.png
# LUTr-Source-Format: PNG
# LUTr-Source-SHA256: 8ea6aad0f775ab20303ff17ed481ac8d3c105fc1edad951ed39a289252ad7528
# LUTr-License: CC-BY-SA-4.0
# LUTr-License-URL: https://github.com/NatronGitHub/clut#license
# LUTr-Tags: creative, film, film-emulation, hald-clut, natron, png, cube
# LUTr-Transform-Class: film-emulation
# LUTr-Input-Color-Space: srgb
# LUTr-Output-Color-Space: srgb
# LUTr-Color-Space-Confidence: assumed-display-referred
# LUTr-Conversion-Method: PNG LUT image decoded at 16-bit and sampled to 25x25x25 3D CUBE
# LUTr-Conversion-Date: 2026-07-27
# LUTr-Conversion-Tool: LUTr scripts/convert-all-to-cube.mjs
# LUTr-Conversion-Grid: 25x25x25
# LUTr-Note: Preserve this metadata and the upstream license notices when redistributing.
TITLE "fuji fp-100c negative +"
LUT_3D_SIZE 5
DOMAIN_MIN 0 0 0
DOMAIN_MAX 1 1 1
0.0078431373 0.090196078 0.2
0.064705882 0.090196078 0.19607843
0.44901961 0.021568627 0.2
0.80784314 0.066666667 0.18823529
1 0.41176471 0.2
0.0078431373 0.16960784 0.20784314
0.10784314 0.16764706 0.2
0.49705882 0.1877451 0.18676471
0.81666667 0.29289216 0.17181373
0.99509804 0.49313725 0.22156863
0.0078431373 0.40588235 0.24901961
0.19215686 0.41715686 0.25294118
0.53039216 0.53823529 0.19019608
0.83088235 0.59705882 0.15343137
0.99607843 0.65686275 0.3
0.32058824 0.69411765 0.42058824
0.42058824 0.69803922 0.45
0.58137255 0.73431373 0.46715686
0.81495098 0.79926471 0.43235294
0.99607843 0.83431373 0.48235294
0.74509804 0.90588235 0.69019608
0.77941176 0.90588235 0.69803922
0.84901961 0.91372549 0.71372549
0.91960784 0.9254902 0.71078431
0.99607843 0.94117647 0.72156863
0.0049019608 0.090196078 0.22745098
0.10490196 0.08627451 0.22328431
0.5 0.006372549 0.24607843
0.83333333 0.093382353 0.28112745
0.99607843 0.39411765 0.34313725
0.0039215686 0.14705882 0.24215686
0.16568627 0.17101716 0.25392157
0.53529412 0.20257353 0.26703431
0.82910539 0.33057598 0.29485294
0.99534314 0.51544118 0.37941176
0.18333333 0.43872549 0.33431373
0.28676471 0.45490196 0.33970588
0.56740196 0.55073529 0.31568627
0.82463235 0.59803922 0.32414216
0.99019608 0.6627451 0.43186275
0.36960784 0.70416667 0.48529412
0.44785539 0.70955882 0.50220588
0.60232843 0.73872549 0.53039216
0.82107843 0.8 0.50765931
0.99117647 0.83039216 0.54509804
0.75686275 0.91078431 0.70196078
0.78161765 0.90980392 0.70416667
0.8495098 0.91029412 0.72156863
0.92941176 0.93137255 0.72745098
0.99509804 0.94019608 0.7245098
0.18039216 0.041176471 0.42156863
0.36323529 0.011764706 0.45539216
0.63823529 0.16862745 0.49607843
0.89901961 0.32058824 0.57696078
1 0.48627451 0.60784314
0.021568627 0.13823529 0.46666667
0.33002451 0.16813725 0.48872549
0.64485294 0.35563725 0.53431373
0.88039216 0.45772059 0.59264706
0.99607843 0.55784314 0.61862745
0.078431373 0.43235294 0.48823529
0.29117647 0.4745098 0.51348039
0.61911765 0.57696078 0.57205882
0.83529412 0.62745098 0.59215686
0.99607843 0.6872549 0.63039216
0.45 0.71323529 0.60784314
0.52254902 0.7245098 0.62071078
0.65441176 0.75171569 0.6370098
0.84620098 0.80588235 0.64105392
0.99215686 0.82794118 0.65931373
0.7627451 0.90588235 0.72352941
0.78627451 0.91029412 0.7254902
0.85294118 0.91372549 0.73627451
0.94117647 0.92794118 0.75882353
0.99411765 0.93921569 0.7627451
0.51568627 0 0.70196078
0.62941176 0.0039215686 0.70882353
0.82843137 0.2377451 0.72843137
0.92941176 0.55882353 0.72745098
0.99607843 0.65 0.73921569
0.42843137 0.070588235 0.70490196
0.58204657 0.12892157 0.71568627
0.80919118 0.39840686 0.73529412
0.92640931 0.63431373 0.73529412
1 0.70588235 0.74901961
0.024019608 0.36519608 0.6872549
0.044852941 0.39129902 0.69497549
0.69093137 0.55882353 0.7245098
0.92218137 0.7377451 0.74791667
1 0.79117647 0.76568627
0.25784314 0.68235294 0.68431373
0.34393382 0.69344363 0.69117647
0.59791667 0.73296569 0.71090686
0.89172794 0.82573529 0.75116422
0.99607843 0.84681373 0.76691176
0.67647059 0.91372549 0.76470588
0.71348039 0.90980392 0.76544118
0.83872549 0.91764706 0.77696078
0.95392157 0.92941176 0.80196078
1 0.9372549 0.82058824
0.83921569 0.19607843 0.87843137
0.86960784 0.28235294 0.8745098
0.94509804 0.48823529 0.86470588
0.99607843 0.70490196 0.85098039
0.99607843 0.79607843 0.83529412
0.79019608 0.31764706 0.87058824
0.82916667 0.38431373 0.87058824
0.93333333 0.56470588 0.8745098
0.99705882 0.74803922 0.86470588
1 0.83529412 0.8627451
0.57647059 0.42352941 0.87647059
0.66911765 0.48039216 0.8745098
0.84901961 0.62843137 0.87254902
0.99852941 0.78823529 0.87254902
1 0.86470588 0.87058824
0.017647059 0.69803922 0.85
0.019607843 0.67720588 0.84509804
0.10196078 0.67598039 0.86813725
0.9002451 0.80686275 0.87941176
0.99607843 0.90686275 0.87941176
0.59607843 0.90588235 0.89019608
0.59411765 0.90196078 0.85
0.73137255 0.91372549 0.88823529
0.88823529 0.92156863 0.89411765
1 0.94117647 0.89411765
