site/assets/luts/natron-haldclut--rollei-retro-80s--829266177.cube
# LUTr-Project: LUTr — LUTrepository
# LUTr-Schema-Version: 1
# LUTr-ID: natron-haldclut--rollei-retro-80s--829266177
# LUTr-Title: rollei retro 80s
# LUTr-Collection: Natron HaldCLUT
# LUTr-Collection-ID: natron-haldclut-presets
# LUTr-Source: https://github.com/NatronGitHub/clut
# LUTr-Source-File: submissions/natron-haldclut-presets/bw/rollei_retro_80s.png
# LUTr-Source-Format: PNG
# LUTr-Source-SHA256: 5607fbe36346030c6503d164d9e15eed668f19d86276bdfba65627206b895a7f
# LUTr-License: CC-BY-SA-4.0
# LUTr-License-URL: https://github.com/NatronGitHub/clut#license
# LUTr-Tags: creative, film, film-emulation, hald-clut, natron, png, vintage, cube
# LUTr-Transform-Class: film-emulation
# LUTr-Input-Color-Space: srgb
# LUTr-Output-Color-Space: srgb
# LUTr-Color-Space-Confidence: assumed-display-referred
# LUTr-Conversion-Method: PNG LUT image decoded at 16-bit and sampled to 25x25x25 3D CUBE
# LUTr-Conversion-Date: 2026-07-27
# LUTr-Conversion-Tool: LUTr scripts/convert-all-to-cube.mjs
# LUTr-Conversion-Grid: 25x25x25
# LUTr-Note: Preserve this metadata and the upstream license notices when redistributing.
TITLE "rollei retro 80s"
LUT_3D_SIZE 5
DOMAIN_MIN 0 0 0
DOMAIN_MAX 1 1 1
0.0039215686 0.0039215686 0.0039215686
0.052941176 0.052941176 0.052941176
0.16862745 0.16862745 0.16862745
0.45686275 0.45686275 0.45686275
0.81176471 0.81176471 0.81176471
0.043137255 0.043137255 0.043137255
0.078186275 0.078186275 0.078186275
0.2 0.2 0.2
0.51470588 0.51470588 0.51470588
0.80196078 0.80196078 0.80196078
0.11372549 0.11372549 0.11372549
0.15196078 0.15196078 0.15196078
0.28823529 0.28823529 0.28823529
0.59313725 0.59313725 0.59313725
0.84901961 0.84901961 0.84901961
0.25784314 0.25784314 0.25784314
0.29215686 0.29215686 0.29215686
0.47009804 0.47009804 0.47009804
0.71176471 0.71176471 0.71176471
0.90686275 0.90686275 0.90686275
0.48235294 0.48235294 0.48235294
0.55098039 0.55098039 0.55098039
0.67843137 0.67843137 0.67843137
0.83333333 0.83333333 0.83333333
0.95686275 0.95686275 0.95686275
0.018627451 0.018627451 0.018627451
0.079656863 0.079656863 0.079656863
0.21078431 0.21078431 0.21078431
0.52720588 0.52720588 0.52720588
0.82745098 0.82745098 0.82745098
0.071568627 0.071568627 0.071568627
0.11862745 0.11862745 0.11862745
0.25257353 0.25257353 0.25257353
0.54901961 0.54901961 0.54901961
0.80980392 0.80980392 0.80980392
0.15196078 0.15196078 0.15196078
0.19803922 0.19803922 0.19803922
0.34509804 0.34509804 0.34509804
0.6314951 0.6314951 0.6314951
0.87205882 0.87205882 0.87205882
0.29509804 0.29509804 0.29509804
0.34846814 0.34846814 0.34846814
0.51654412 0.51654412 0.51654412
0.73688725 0.73688725 0.73688725
0.91764706 0.91764706 0.91764706
0.54901961 0.54901961 0.54901961
0.58897059 0.58897059 0.58897059
0.71078431 0.71078431 0.71078431
0.84583333 0.84583333 0.84583333
0.95294118 0.95294118 0.95294118
0.043137255 0.043137255 0.043137255
0.13823529 0.13823529 0.13823529
0.29019608 0.29019608 0.29019608
0.59754902 0.59754902 0.59754902
0.86470588 0.86470588 0.86470588
0.12647059 0.12647059 0.12647059
0.18137255 0.18137255 0.18137255
0.33995098 0.33995098 0.33995098
0.62745098 0.62745098 0.62745098
0.86960784 0.86960784 0.86960784
0.23529412 0.23529412 0.23529412
0.28431373 0.28431373 0.28431373
0.45294118 0.45294118 0.45294118
0.70955882 0.70955882 0.70955882
0.89509804 0.89509804 0.89509804
0.41960784 0.41960784 0.41960784
0.47107843 0.47107843 0.47107843
0.61740196 0.61740196 0.61740196
0.79620098 0.79620098 0.79620098
0.92058824 0.92058824 0.92058824
0.6745098 0.6745098 0.6745098
0.6872549 0.6872549 0.6872549
0.7745098 0.7745098 0.7745098
0.87647059 0.87647059 0.87647059
0.96470588 0.96470588 0.96470588
0.13039216 0.13039216 0.13039216
0.24117647 0.24117647 0.24117647
0.41617647 0.41617647 0.41617647
0.7 0.7 0.7
0.89117647 0.89117647 0.89117647
0.24632353 0.24632353 0.24632353
0.32058824 0.32058824 0.32058824
0.48872549 0.48872549 0.48872549
0.73651961 0.73651961 0.73651961
0.90514706 0.90514706 0.90514706
0.40735294 0.40735294 0.40735294
0.45416667 0.45416667 0.45416667
0.6127451 0.6127451 0.6127451
0.79056373 0.79056373 0.79056373
0.92941176 0.92941176 0.92941176
0.59509804 0.59509804 0.59509804
0.64019608 0.64019608 0.64019608
0.74117647 0.74117647 0.74117647
0.8627451 0.8627451 0.8627451
0.95318627 0.95318627 0.95318627
0.78627451 0.78627451 0.78627451
0.80416667 0.80416667 0.80416667
0.85490196 0.85490196 0.85490196
0.92745098 0.92745098 0.92745098
0.97254902 0.97254902 0.97254902
0.34117647 0.34117647 0.34117647
0.44607843 0.44607843 0.44607843
0.63137255 0.63137255 0.63137255
0.79509804 0.79509804 0.79509804
0.9372549 0.9372549 0.9372549
0.46568627 0.46568627 0.46568627
0.53333333 0.53333333 0.53333333
0.68431373 0.68431373 0.68431373
0.8245098 0.8245098 0.8245098
0.94019608 0.94019608 0.94019608
0.65490196 0.65490196 0.65490196
0.68872549 0.68872549 0.68872549
0.7754902 0.7754902 0.7754902
0.87598039 0.87598039 0.87598039
0.94901961 0.94901961 0.94901961
0.79803922 0.79803922 0.79803922
0.81372549 0.81372549 0.81372549
0.85882353 0.85882353 0.85882353
0.91960784 0.91960784 0.91960784
0.96078431 0.96078431 0.96078431
0.91372549 0.91372549 0.91372549
0.88921569 0.88921569 0.88921569
0.94509804 0.94509804 0.94509804
0.96078431 0.96078431 0.96078431
0.97647059 0.97647059 0.97647059
