site/assets/luts/natron-haldclut--polaroid-px-70-cold--13111e09a.cube
# LUTr-Project: LUTr — LUTrepository
# LUTr-Schema-Version: 1
# LUTr-ID: natron-haldclut--polaroid-px-70-cold--13111e09a
# LUTr-Title: polaroid px-70 cold ++
# LUTr-Collection: Natron HaldCLUT
# LUTr-Collection-ID: natron-haldclut-presets
# LUTr-Source: https://github.com/NatronGitHub/clut
# LUTr-Source-File: submissions/natron-haldclut-presets/instant_consumer/polaroid_px-70_cold_++.png
# LUTr-Source-Format: PNG
# LUTr-Source-SHA256: 6fac71da1cbd8a6bf393694ffac921de63ee513b9347d1bc89afcb0588c66dfa
# LUTr-License: CC-BY-SA-4.0
# LUTr-License-URL: https://github.com/NatronGitHub/clut#license
# LUTr-Tags: creative, film, film-emulation, hald-clut, natron, png, cool, cube
# LUTr-Transform-Class: film-emulation
# LUTr-Input-Color-Space: srgb
# LUTr-Output-Color-Space: srgb
# LUTr-Color-Space-Confidence: assumed-display-referred
# LUTr-Conversion-Method: PNG LUT image decoded at 16-bit and sampled to 25x25x25 3D CUBE
# LUTr-Conversion-Date: 2026-07-27
# LUTr-Conversion-Tool: LUTr scripts/convert-all-to-cube.mjs
# LUTr-Conversion-Grid: 25x25x25
# LUTr-Note: Preserve this metadata and the upstream license notices when redistributing.
TITLE "polaroid px-70 cold ++"
LUT_3D_SIZE 9
DOMAIN_MIN 0 0 0
DOMAIN_MAX 1 1 1
0 0.38039216 0.44313725
0.0039215686 0.38039216 0.44313725
0.0078431373 0.38039216 0.44313725
0.05 0.38284314 0.44313725
0.24313725 0.39019608 0.44705882
0.4245098 0.40392157 0.44852941
0.60588235 0.43333333 0.45098039
0.78186275 0.48382353 0.45490196
0.8627451 0.55294118 0.46666667
0.0039215686 0.38823529 0.44656863
0.0039215686 0.3877451 0.44313725
0.0078431373 0.3877451 0.44313725
0.08627451 0.3903799 0.44313725
0.25637255 0.39558824 0.44705882
0.43186275 0.41145833 0.44705882
0.61335784 0.44852941 0.45098039
0.78235294 0.51421569 0.45490196
0.88235294 0.57990196 0.46666667
0.0039215686 0.39901961 0.44313725
0.00012254902 0.39901961 0.44313725
0 0.39534314 0.44313725
0.11568627 0.40539216 0.44313725
0.28382353 0.42009804 0.44313725
0.45134804 0.43909314 0.44313725
0.63308824 0.4870098 0.44705882
0.78321078 0.54803922 0.45490196
0.8872549 0.61470588 0.46764706
0 0.44509804 0.44705882
0.0039215686 0.45018382 0.44705882
0.006372549 0.44803922 0.44705882
0.14509804 0.45980392 0.44313725
0.31544118 0.48063725 0.44313725
0.48339461 0.50294118 0.44313725
0.63921569 0.53529412 0.43921569
0.77058824 0.59430147 0.44754902
0.87058824 0.6495098 0.4627451
0 0.54509804 0.45882353
0.0039215686 0.54338235 0.45686275
0.00049019608 0.5377451 0.45098039
0.1125 0.54240196 0.44705882
0.33431373 0.56470588 0.44607843
0.50735294 0.59166667 0.44313725
0.65098039 0.6245098 0.44313725
0.76666667 0.65955882 0.44705882
0.86666667 0.69411765 0.46078431
0 0.66078431 0.47205882
0.0039215686 0.65686275 0.47058824
0.014093137 0.65355392 0.46666667
0.17267157 0.65931373 0.46813725
0.35563725 0.67058824 0.4627451
0.51715686 0.69607843 0.46029412
0.66311275 0.71875 0.46029412
0.76979167 0.73645833 0.46813725
0.82205882 0.75588235 0.47843137
0 0.7754902 0.4872549
0.032720588 0.76776961 0.4872549
0.070833333 0.76764706 0.48431373
0.26078431 0.77218137 0.49117647
0.41421569 0.77941176 0.49117647
0.54056373 0.79264706 0.49509804
0.67058824 0.80196078 0.49901961
0.77107843 0.81029412 0.50392157
0.8245098 0.82058824 0.50686275
0.35441176 0.86372549 0.52598039
0.37401961 0.86029412 0.52990196
0.40784314 0.85294118 0.52990196
0.46354167 0.85588235 0.53039216
0.54215686 0.85196078 0.53210784
0.64197304 0.85980392 0.53823529
0.70637255 0.85980392 0.54166667
0.78621324 0.85931373 0.54607843
0.84754902 0.86323529 0.5495098
0.69019608 0.90196078 0.57647059
0.67009804 0.89803922 0.57254902
0.68333333 0.89803922 0.57254902
0.69019608 0.89558824 0.57254902
0.71764706 0.89607843 0.57254902
0.76617647 0.89656863 0.57647059
0.79705882 0.89411765 0.57647059
0.83186275 0.89411765 0.58039216
0.8745098 0.90196078 0.59215686
0 0.38039216 0.44313725
0.0039215686 0.38039216 0.44313725
0.0078431373 0.38431373 0.44656863
0.075980392 0.38431373 0.44705882
0.24338235 0.38823529 0.44705882
0.43186275 0.40931373 0.45098039
0.62144608 0.44889706 0.45968137
0.77892157 0.50729167 0.4627451
0.89019608 0.58039216 0.47401961
0.0034313725 0.38823529 0.44613971
0.0039215686 0.38474265 0.44619332
0.00070465686 0.38039216 0.44313725
0.096262255 0.3845818 0.44340533
0.25245098 0.39215686 0.44705882
0.43344056 0.41682751 0.45098039
0.62772672 0.45637255 0.45490196
0.78632813 0.51813725 0.45882353
0.88284314 0.58039216 0.47401961
0.00085784314 0.39987745 0.44669118
0.0039215686 0.39901961 0.44705882
0.006127451 0.40487132 0.44705882
0.12329963 0.40943627 0.44701287
0.28939951 0.41838235 0.44705882
0.45968137 0.44754902 0.4504902
0.63915441 0.49074755 0.45098039
0.78627451 0.54938725 0.45882353
0.8942402 0.61862745 0.47414216
0 0.44656863 0.44920343
0.0039215686 0.45022212 0.45079657
0.010416667 0.45196078 0.45079657
0.15349265 0.45980392 0.44675245
0.31985294 0.4745098 0.446875
0.48094363 0.49882813 0.44656863
0.64411765 0.54011949 0.445144
0.78654259 0.59932598 0.45490196
0.85569853 0.64099265 0.46813725
0 0.54509804 0.45882353
0.0039215686 0.54684436 0.45857843
0.0022058824 0.53921569 0.45686275
0.15082721 0.54803922 0.45490196
0.34803922 0.57046569 0.45490196
0.51112132 0.59558824 0.4520527
0.65735294 0.62518382 0.44920343
0.7796875 0.6666973 0.46078431
0.85882353 0.69583333 0.4745098
0.0012867647 0.65686275 0.47205882
0.0039215686 0.65686275 0.47058824
0.0092677696 0.65294118 0.47028186
0.1786152 0.65912224 0.47156863
0.3640625 0.6736826 0.46813725
0.5245098 0.69699755 0.46806832
0.66648284 0.72299326 0.46475184
0.76991422 0.7403799 0.47608762
0.84509804 0.75588235 0.48382353
0.0019607843 0.7754902 0.49117647
0.025229779 0.77636336 0.49057904
0.14996936 0.78244485 0.49460784
0.28895527 0.78333333 0.49883578
0.42156863 0.7872549 0.49901961
0.551731 0.79509804 0.49901961
0.67414216 0.80196078 0.49672181
0.77009804 0.81361826 0.50392157
0.82708333 0.82156863 0.50772059
0.37653186 0.86372549 0.53339461
0.38480392 0.85979626 0.52990196
0.41732537 0.8511489 0.532644
0.47469363 0.86323529 0.53425245
0.55710784 0.85539216 0.5377451
0.64411765 0.85980392 0.53823529
0.71764706 0.85980392 0.54290748
0.80066636 0.86328891 0.5495098
0.85447304 0.87107843 0.55343137
0.6877451 0.90245098 0.57647059
0.67408088 0.89803922 0.57254902
0.68296569 0.89803922 0.57267157
0.69589461 0.89803922 0.57254902
0.73431373 0.89803922 0.58014706
0.74681373 0.89160539 0.57395833
0.80453431 0.89803922 0.58125
0.83572304 0.89362745 0.58033088
0.85539216 0.88235294 0.56911765
0 0.3872549 0.45882353
0.0039215686 0.3872549 0.45392157
0.0039215686 0.38431373 0.45
0.075980392 0.38431373 0.45098039
0.23921569 0.38627451 0.45098039
0.43382353 0.39754902 0.45821078
0.63259804 0.45 0.47377451
0.79362745 0.51776961 0.48578431
0.88529412 0.59117647 0.50490196
0 0.39558824 0.45882353
0.0066636029 0.39166667 0.45490196
0.014705882 0.38431373 0.4502451
0.08716299 0.38645833 0.44705882
0.26078431 0.39430147 0.45392157
0.44376532 0.40623468 0.4560049
0.64117647 0.45266544 0.46960784
0.79394914 0.53060662 0.48529412
0.89362745 0.60343137 0.50490196
0.00098039216 0.40759804 0.46176471
0.0039215686 0.41004902 0.45882353
0.014276961 0.40686275 0.45490196
0.13890931 0.40747549 0.45465686
0.30196078 0.42303922 0.45784314
0.47077206 0.45242034 0.4627451
0.64803922 0.50435049 0.47279412
0.79074755 0.56473652 0.48443627
0.88259804 0.63333333 0.50171569
0.0039215686 0.45441176 0.46629902
0.0039215686 0.4504902 0.46242341
0.007689951 0.4510723 0.45882353
0.16519608 0.46473652 0.45882353
0.34068627 0.48823529 0.46176471
0.49915748 0.5157935 0.46568627
0.65395221 0.55808824 0.46960784
0.78596814 0.61311275 0.48186275
0.86911765 0.66127451 0.49705882
0.0039215686 0.55490196 0.47401961
0.0047794118 0.55294118 0.47352941
0.011887255 0.54852941 0.47205882
0.18192402 0.55955882 0.47352941
0.36593137 0.57990196 0.47352941
0.52003676 0.60147059 0.47156863
0.66470588 0.63431373 0.47352941
0.77965686 0.65931373 0.47487745
0.86715686 0.70196078 0.49705882
0.0078431373 0.66433824 0.48737745
0.0078431373 0.66470588 0.48579963
0.042830882 0.65906863 0.48722426
0.21901042 0.67218137 0.49336703
0.38694853 0.68504902 0.49240196
0.53284314 0.70392157 0.48676471
0.66893382 0.72616422 0.48676471
0.77316176 0.73823529 0.49468444
0.85343137 0.75980392 0.50245098
0.067647059 0.77941176 0.50588235
0.10821078 0.77941176 0.50906863
0.20349265 0.77941176 0.50980392
0.34034926 0.78615196 0.5129902
0.43958333 0.79117647 0.5129902
0.56063113 0.79901961 0.51372549
0.67530637 0.80759804 0.51397059
0.77401961 0.81764706 0.52156863
0.84240196 0.8254902 0.52941176
0.39987745 0.85931373 0.5377451
0.41470588 0.85631127 0.5377451
0.4638174 0.85539216 0.54166667
0.50686275 0.85539216 0.54203431
0.57628676 0.85196078 0.54558824
0.64434743 0.86715686 0.54595588
0.72184436 0.86323529 0.5495098
0.78982843 0.86715686 0.55347733
0.85490196 0.87107843 0.56127451
0.67352941 0.89803922 0.57254902
0.68186275 0.89803922 0.57647059
0.69705882 0.89803922 0.57647059
0.70085784 0.89411765 0.57647059
0.72892157 0.89411765 0.57990196
0.76335784 0.8935049 0.57977941
0.79803922 0.89411765 0.58039216
0.83529412 0.89362745 0.58419118
0.86568627 0.88921569 0.57941176
0.0039215686 0.39215686 0.47843137
0.0039215686 0.39215686 0.46930147
0.0078431373 0.39068627 0.46335784
0.088664216 0.39215686 0.46127451
0.23014706 0.39460784 0.46911765
0.42598039 0.39215686 0.47935049
0.63823529 0.42303922 0.49656863
0.8122549 0.47892157 0.51403186
0.88382353 0.57696078 0.53578431
0 0.39981618 0.47432598
0 0.39558824 0.47058824
0.018321078 0.39100797 0.46519608
0.10833333 0.39541207 0.46470588
0.25490196 0.39852941 0.47172181
0.44656863 0.41219363 0.48480392
0.65703125 0.43529412 0.49754902
0.80087316 0.51045496 0.51666667
0.89019608 0.61636029 0.54099265
0 0.41862745 0.47696078
0 0.41374081 0.47473958
0.021415441 0.40686275 0.47022059
0.1654565 0.42408088 0.47372855
0.30514706 0.43988971 0.48235294
0.49656863 0.44901961 0.49203431
0.66991422 0.50278799 0.5106924
0.79762561 0.57893689 0.52665441
0.88688725 0.6745098 0.54754902
0.0024509804 0.46470588 0.4838848
0.0039215686 0.46145067 0.48333333
0.036764706 0.46580882 0.48480392
0.19846814 0.48016238 0.49025735
0.35542279 0.50147059 0.49656863
0.51903339 0.53278186 0.50464154
0.68111213 0.57732843 0.51548713
0.7926394 0.62684589 0.52273284
0.86574755 0.68872549 0.53823529
0.0039215686 0.56593137 0.49730392
0.010876225 0.56078431 0.49852941
0.10955882 0.55833333 0.5004902
0.24411765 0.57254902 0.50245098
0.39105392 0.59276961 0.50833333
0.5372549 0.61519608 0.51151961
0.67965686 0.6471201 0.5122549
0.78952206 0.67662377 0.51568627
0.86519608 0.7252451 0.53186275
0.076960784 0.67647059 0.51672794
0.1547258 0.68284314 0.51898744
0.18731618 0.67647059 0.51525735
0.29307598 0.68134957 0.51764706
0.41737132 0.69776348 0.52009804
0.55790441 0.71398591 0.52214308
0.68212316 0.73051471 0.51917892
0.78712469 0.74178156 0.51764706
0.85882353 0.76617647 0.52941176
0.24791667 0.79509804 0.53284314
0.2243413 0.78748468 0.52892157
0.2870098 0.7872549 0.52892157
0.38026961 0.79007353 0.53223039
0.47794118 0.79209559 0.53596814
0.58394608 0.80588235 0.53676471
0.70085784 0.81372549 0.53661152
0.7823989 0.82124694 0.53854167
0.85772059 0.83235294 0.54607843
0.45833333 0.86323529 0.55196078
0.46323529 0.85238971 0.55192249
0.49425551 0.84803922 0.55343137
0.53970588 0.85539216 0.55324755
0.60686275 0.85539216 0.55735294
0.66537224 0.86814491 0.56127451
0.73319547 0.87017463 0.56372549
0.80157782 0.8658701 0.56764706
0.84448529 0.86715686 0.57156863
0.70343137 0.89803922 0.58039216
0.70539216 0.89803922 0.58039216
0.71139706 0.89803922 0.58333333
0.72009804 0.89411765 0.58039216
0.75931373 0.89803922 0.58553922
0.78633578 0.89859069 0.58823529
0.80943627 0.89656863 0.58823529
0.84607843 0.89803922 0.59215686
0.87598039 0.89803922 0.59754902
0.0039215686 0.4 0.51372549
0.0039215686 0.39803922 0.50416667
0.058333333 0.3995098 0.49803922
0.1877451 0.40514706 0.49877451
0.28039216 0.41568627 0.49803922
0.42009804 0.42622549 0.51323529
0.61911765 0.45098039 0.53235294
0.79656863 0.49485294 0.55122549
0.8745098 0.54509804 0.56078431
0.0078431373 0.40735294 0.50980392
0.0060968137 0.40193015 0.50220588
0.065196078 0.40189951 0.49803922
0.20147059 0.4127451 0.5
0.31335784 0.43517157 0.50477941
0.44708946 0.43553922 0.52009804
0.64234069 0.47285539 0.53946078
0.81176471 0.50637255 0.55689338
0.90931373 0.5875 0.56666667
0.0039215686 0.42696078 0.50980392
0 0.41911765 0.50545343
0.094362745 0.42340686 0.50735294
0.23504902 0.44859069 0.5127451
0.34828431 0.46519608 0.51911765
0.49166667 0.4817402 0.52965686
0.66580882 0.50735294 0.54779412
0.80569853 0.56979167 0.55931373
0.88627451 0.65490196 0.57058824
0.0039215686 0.47990196 0.51372549
0.007689951 0.47990196 0.51675858
0.043872549 0.48676471 0.52352941
0.26519608 0.50070466 0.53109681
0.39583333 0.52647059 0.53492647
0.53529412 0.55707721 0.54313725
0.68480392 0.58688725 0.55379902
0.8135723 0.6372549 0.5627451
0.87794118 0.70245098 0.57058824
0.0039215686 0.57058824 0.52745098
0.0018382353 0.56776961 0.52928922
0.1127451 0.56862745 0.53235294
0.27622549 0.57696078 0.53590686
0.43039216 0.60245098 0.54705882
0.56151961 0.63419118 0.55036765
0.70171569 0.66911765 0.55490196
0.80134804 0.70073529 0.55490196
0.8627451 0.74313725 0.56372549
0.12720588 0.68627451 0.54460784
0.14641544 0.68431373 0.54387255
0.24552696 0.68039216 0.54313725
0.35367647 0.68722426 0.54583333
0.46752451 0.70477941 0.55098039
0.58262868 0.72306985 0.55143995
0.70104167 0.74656863 0.55490196
0.79641544 0.76185662 0.55171569
0.8627451 0.77990196 0.55686275
0.33970588 0.80588235 0.55882353
0.36029412 0.80196078 0.55539216
0.38088235 0.79301471 0.55379902
0.43903186 0.79270833 0.55490196
0.52647059 0.80098039 0.55882353
0.60643382 0.81078431 0.55931373
0.70392157 0.81433824 0.55931373
0.79332108 0.82941176 0.56127451
0.85637255 0.83627451 0.56470588
0.51911765 0.86323529 0.56887255
0.53939951 0.85196078 0.56887255
0.55122549 0.85147059 0.57040441
0.58489583 0.85569853 0.57083333
0.63566176 0.85931373 0.57279412
0.69528186 0.86715686 0.57303922
0.75196078 0.87064951 0.57542892
0.81127451 0.87086397 0.57496936
0.85539216 0.875 0.57867647
0.72941176 0.9 0.58627451
0.71470588 0.89583333 0.58431373
0.72352941 0.89411765 0.58578431
0.74362745 0.89803922 0.58823529
0.77745098 0.90196078 0.59215686
0.7870098 0.89681373 0.59019608
0.82303922 0.89803922 0.59607843
0.85343137 0.89803922 0.59607843
0.85882353 0.89411765 0.59607843
0.0078431373 0.40931373 0.55980392
0.009129902 0.40539216 0.55226716
0.11911765 0.41176471 0.55196078
0.3122549 0.43229167 0.55196078
0.41715686 0.47401961 0.55196078
0.52395833 0.48584559 0.56372549
0.63394608 0.50882353 0.57438725
0.79019608 0.52794118 0.59362745
0.89264706 0.58970588 0.59607843
0.011764706 0.41323529 0.55802696
0.03459712 0.41256127 0.55196078
0.18480392 0.41953125 0.55588235
0.32126991 0.44195772 0.55588235
0.42843137 0.4870098 0.55563725
0.53823529 0.51403952 0.56452972
0.65068934 0.52512255 0.57884498
0.77712163 0.56383272 0.58970588
0.87089461 0.60735294 0.59215686
0.0078431373 0.43872549 0.5627451
0.021262255 0.43970588 0.55980392
0.19822304 0.4513174 0.56372549
0.34564951 0.47339154 0.56764706
0.47034314 0.51862745 0.57156863
0.57507659 0.54940257 0.57363664
0.67585784 0.5692402 0.57892157
0.79272365 0.60058211 0.59215686
0.88125 0.65723039 0.59362745
0.011764706 0.51133578 0.56764706
0.019002757 0.51078431 0.56606158
0.17696078 0.5122549 0.57064951
0.35147059 0.53970588 0.57310049
0.49142157 0.5745098 0.57794118
0.59126072 0.62681526 0.57551317
0.70729167 0.63806679 0.58468137
0.80300245 0.66686581 0.58970588
0.87696078 0.71954657 0.58970588
0.0078431373 0.60098039 0.56887255
0.014705882 0.59558824 0.57009804
0.1004902 0.59558824 0.56979167
0.32398897 0.6078125 0.57401961
0.47683824 0.63296569 0.57794118
0.6004902 0.68262868 0.58094363
0.72205882 0.71151961 0.58578431
0.80916054 0.73030025 0.5870098
0.87328431 0.77352941 0.5870098
0.087745098 0.69852941 0.57401961
0.14797028 0.69314491 0.57009804
0.25196078 0.69676777 0.57009804
0.37346814 0.70449602 0.57401961
0.49460784 0.71522672 0.57870711
0.60510876 0.74126072 0.57794118
0.72058824 0.76801471 0.5799326
0.80667892 0.78271293 0.58186275
0.8627451 0.80686275 0.58186275
0.33909314 0.79901961 0.57647059
0.37388174 0.80257353 0.5740962
0.39926471 0.79803922 0.57401961
0.48111213 0.79901961 0.57647059
0.57622549 0.80655637 0.57855392
0.64682904 0.81649816 0.58039216
0.73088235 0.82757353 0.58039216
0.80886949 0.8334712 0.58186275
0.85882353 0.84227941 0.58186275
0.54852941 0.86323529 0.58216912
0.55615043 0.85931373 0.5810432
0.5745098 0.85543811 0.58057598
0.61427696 0.8585095 0.58216912
0.66780025 0.86715686 0.58449755
0.71960784 0.86715686 0.58560815
0.76519608 0.87107843 0.58512561
0.82673866 0.87516085 0.58796722
0.85900735 0.87892157 0.58449755
0.74901961 0.9004902 0.59215686
0.73939951 0.89803922 0.59215686
0.75073529 0.89803922 0.59215686
0.76023284 0.8971201 0.59607843
0.7752451 0.89411765 0.59607843
0.80392157 0.89656863 0.59846814
0.83345588 0.89803922 0.6
0.85882353 0.89803922 0.6
0.86029412 0.88627451 0.58823529
0.073529412 0.43039216 0.6127451
0.15539216 0.43235294 0.60980392
0.30980392 0.45269608 0.60588235
0.46066176 0.47107843 0.60980392
0.5745098 0.525 0.60882353
0.66617647 0.60735294 0.60784314
0.74117647 0.64730392 0.60490196
0.81372549 0.65232843 0.60784314
0.87843137 0.66568627 0.61176471
0.15453431 0.44754902 0.61017157
0.2279565 0.44734988 0.60969669
0.34166667 0.45741422 0.60882353
0.46162684 0.49693627 0.60882353
0.57996324 0.55441176 0.60882353
0.67633272 0.61951593 0.60882353
0.73397672 0.66553309 0.60134804
0.78333333 0.65215993 0.60392157
0.85796569 0.68088235 0.60526961
0.17132353 0.48259804 0.6127451
0.24145221 0.48627451 0.6127451
0.34963235 0.50661765 0.6127451
0.47564338 0.5333027 0.6127451
0.58884804 0.59227941 0.60882353
0.67729779 0.64757966 0.60490196
0.74920343 0.69803922 0.60079657
0.79301471 0.68103554 0.60401348
0.85294118 0.70367647 0.60710784
0.1504902 0.55686275 0.61666667
0.22457108 0.5596201 0.61666667
0.32503064 0.56556373 0.61136642
0.46793811 0.59154412 0.60957414
0.59454657 0.64050245 0.60882353
0.68854167 0.70289522 0.60490196
0.75487132 0.73088235 0.60392157
0.80546875 0.72977941 0.60490196
0.86776961 0.75196078 0.60428922
0.013235294 0.64215686 0.60833333
0.045281863 0.63480392 0.60753676
0.21458333 0.63835784 0.60686275
0.4057598 0.64901961 0.60882353
0.55784314 0.68872549 0.60833333
0.67714461 0.74099265 0.60281863
0.74485294 0.77365196 0.60098039
0.81145833 0.77230392 0.60098039
0.86666667 0.79901961 0.6004902
0.15441176 0.72303922 0.59705882
0.18445159 0.72156863 0.60061275
0.27781863 0.72303922 0.59889706
0.38068321 0.72696078 0.60098039
0.52647059 0.73921569 0.60061275
0.66689645 0.76973039 0.60061275
0.74828431 0.80343137 0.6
0.81757047 0.81470588 0.59705882
0.86666667 0.82990196 0.59705882
0.36151961 0.80612745 0.59534314
0.37797181 0.80612745 0.59313725
0.41568627 0.80667892 0.59215686
0.4939951 0.80980392 0.59313725
0.58137255 0.81176471 0.59644608
0.67166054 0.82613358 0.59607843
0.76623775 0.84252451 0.59705882
0.82156863 0.84837623 0.59705882
0.86666667 0.85588235 0.59705882
0.55735294 0.87107843 0.59313725
0.56427696 0.87075674 0.59215686
0.58713235 0.86715686 0.59215686
0.62794118 0.86715686 0.5935049
0.68823529 0.86715686 0.59607843
0.74652267 0.87241115 0.59607843
0.79865196 0.87585784 0.59705882
0.84546569 0.87892157 0.6
0.87071078 0.88247549 0.6
0.74509804 0.89803922 0.59607843
0.74803922 0.89840686 0.59705882
0.75220588 0.89803922 0.6
0.76678922 0.89803922 0.6
0.79117647 0.89607843 0.6
0.77990196 0.88480392 0.6
0.84411765 0.89803922 0.60490196
0.85931373 0.89154412 0.60392157
0.87941176 0.89509804 0.60392157
0.38431373 0.53970588 0.63921569
0.42598039 0.53578431 0.63921569
0.51286765 0.52696078 0.64742647
0.59724265 0.56942402 0.63707108
0.6875 0.63357843 0.63529412
0.75863971 0.71813725 0.62352941
0.80147059 0.78419118 0.61470588
0.83235294 0.7783701 0.6122549
0.8627451 0.7622549 0.61568627
0.42640931 0.52444853 0.6504902
0.4493413 0.53530178 0.64356618
0.51634498 0.54629289 0.64437806
0.60931373 0.59871324 0.63921569
0.68946078 0.64019608 0.63532475
0.74714308 0.71421569 0.61991422
0.80189951 0.78982843 0.61176471
0.82892157 0.77739737 0.61176471
0.85490196 0.77352941 0.6122549
0.4192402 0.56127451 0.64448529
0.44538909 0.56875 0.64313725
0.51470588 0.58746936 0.64120711
0.60908395 0.62477022 0.636106
0.68927696 0.68627451 0.62879902
0.75294118 0.74197304 0.61991422
0.80474877 0.80183824 0.61176471
0.83507966 0.80006127 0.61176471
0.84840686 0.78872549 0.61176471
0.39705882 0.62843137 0.63707108
0.41768536 0.62485447 0.63937653
0.49509804 0.63636642 0.63760723
0.58241422 0.66538756 0.63137255
0.68440564 0.72132353 0.62371324
0.7537454 0.75784314 0.62078738
0.80159314 0.80574449 0.61482843
0.84078585 0.825 0.61176471
0.85882353 0.81666667 0.61176471
0.34338235 0.70098039 0.63161765
0.3301777 0.70122549 0.62769608
0.44859069 0.70098039 0.62965686
0.55073529 0.71724877 0.62573529
0.65821078 0.74522059 0.62389706
0.74004289 0.7861826 0.61715686
0.80196078 0.82089461 0.61176471
0.84261642 0.82843137 0.61176471
0.86666667 0.83039216 0.61176471
0.26960784 0.75814951 0.62224265
0.27696078 0.75637255 0.62009804
0.33178615 0.7493413 0.61991422
0.46831342 0.76194087 0.61960784
0.59019608 0.77671569 0.61896446
0.70258119 0.80606618 0.6122549
0.8 0.84215686 0.61176471
0.84540441 0.85294118 0.60833333
0.86844363 0.85686275 0.60833333
0.42696078 0.82205882 0.61213235
0.42647059 0.82473958 0.61213235
0.45637255 0.82193627 0.61112132
0.52663909 0.82156863 0.61176471
0.6 0.82199755 0.61133578
0.67455576 0.83382353 0.60833333
0.80045956 0.86449142 0.60833333
0.85185355 0.87081801 0.60833333
0.87107843 0.8745098 0.60833333
0.58425245 0.87892157 0.60398284
0.59650735 0.87108609 0.60784314
0.61530331 0.86640625 0.60784314
0.65811121 0.87473192 0.60441176
0.70465686 0.86786152 0.60833333
0.75359222 0.87081036 0.60833333
0.82679228 0.88295037 0.61176471
0.86323529 0.88627451 0.61176471
0.87843137 0.88676471 0.60876225
0.75686275 0.90539216 0.60441176
0.75643382 0.90196078 0.60784314
0.76862745 0.90196078 0.60796569
0.78676471 0.90196078 0.60784314
0.80588235 0.89803922 0.60833333
0.80735294 0.89050245 0.61047794
0.85968137 0.90147059 0.6122549
0.87150735 0.89503676 0.6122549
0.89362745 0.90196078 0.61568627
0.60392157 0.66666667 0.65098039
0.62696078 0.67843137 0.65098039
0.64901961 0.68039216 0.64705882
0.69656863 0.70833333 0.64313725
0.7627451 0.7627451 0.63529412
0.80686275 0.80147059 0.62745098
0.83235294 0.82058824 0.61960784
0.86666667 0.85490196 0.61960784
0.86666667 0.84705882 0.61960784
0.61176471 0.68186275 0.65098039
0.63915441 0.69362745 0.65098039
0.66164216 0.70085784 0.64705882
0.69509804 0.7122549 0.64068627
0.75882353 0.76421569 0.63529412
0.81078431 0.80931373 0.62745098
0.84338235 0.83897059 0.61948529
0.86715686 0.85796569 0.61960784
0.87401961 0.85833333 0.61960784
0.62352941 0.70882353 0.64705882
0.6435049 0.72095588 0.64705882
0.66495098 0.72745098 0.64338235
0.71617647 0.75539216 0.63921569
0.7627451 0.78578431 0.63382353
0.81568627 0.82536765 0.62745098
0.83137255 0.83210784 0.61960784
0.85245098 0.84754902 0.61568627
0.8745098 0.86666667 0.61960784
0.61323529 0.74362745 0.64313725
0.62273284 0.74362745 0.64313725
0.66507353 0.75833333 0.63958333
0.70833333 0.77107843 0.63529412
0.76666667 0.80441176 0.63137255
0.80147059 0.82107843 0.62444853
0.83235294 0.84203431 0.61960784
0.85520833 0.85520833 0.61568627
0.8627451 0.85882353 0.61568627
0.58627451 0.7745098 0.63921569
0.59754902 0.7752451 0.63921569
0.61519608 0.77352941 0.6377451
0.66666667 0.78235294 0.63406863
0.74803922 0.81372549 0.63137255
0.81078431 0.84264706 0.62352941
0.84411765 0.85931373 0.61960784
0.8745098 0.87794118 0.61960784
0.87058824 0.87058824 0.61568627
0.49166667 0.8 0.63529412
0.52567402 0.80294118 0.63529412
0.5872549 0.80931373 0.63529412
0.64515931 0.81231618 0.63229167
0.71813725 0.82818627 0.62745098
0.7848652 0.84761029 0.62352941
0.83125 0.85980392 0.61568627
0.86452206 0.87077206 0.61568627
0.87058824 0.86421569 0.61176471
0.57843137 0.85196078 0.62647059
0.5685049 0.84411765 0.62745098
0.55686275 0.83627451 0.62352941
0.5995098 0.8372549 0.62352941
0.70637255 0.84803922 0.62352941
0.7754902 0.85882353 0.62352941
0.8252451 0.87083333 0.61960784
0.87904412 0.88639706 0.61960784
0.88235294 0.88627451 0.61666667
0.64852941 0.87892157 0.61568627
0.67990196 0.87892157 0.61960784
0.70686275 0.88321078 0.61960784
0.72009804 0.88235294 0.61960784
0.74436275 0.87892157 0.61960784
0.78560049 0.87628676 0.61960784
0.84056373 0.88627451 0.61960784
0.87542892 0.89411765 0.61960784
0.87843137 0.89019608 0.61568627
0.78823529 0.90196078 0.61960784
0.80245098 0.90490196 0.61911765
0.78529412 0.90196078 0.61960784
0.81127451 0.90441176 0.61960784
0.81372549 0.89803922 0.61960784
0.84068627 0.90196078 0.61960784
0.85980392 0.89803922 0.61960784
0.88627451 0.90539216 0.62352941
0.88235294 0.89803922 0.61960784
