site/assets/luts/natron-haldclut--polaroid-672--65f0bd30f.cube
# LUTr-Project: LUTr — LUTrepository
# LUTr-Schema-Version: 1
# LUTr-ID: natron-haldclut--polaroid-672--65f0bd30f
# LUTr-Title: polaroid 672
# LUTr-Collection: Natron HaldCLUT
# LUTr-Collection-ID: natron-haldclut-presets
# LUTr-Source: https://github.com/NatronGitHub/clut
# LUTr-Source-File: submissions/natron-haldclut-presets/bw/polaroid_672.png
# LUTr-Source-Format: PNG
# LUTr-Source-SHA256: e213e96072181911033c691b1ccd2ab475eaddf0a7ce05606f41c861ab8fb2c9
# LUTr-License: CC-BY-SA-4.0
# LUTr-License-URL: https://github.com/NatronGitHub/clut#license
# LUTr-Tags: creative, film, film-emulation, hald-clut, natron, png, cube
# LUTr-Transform-Class: film-emulation
# LUTr-Input-Color-Space: srgb
# LUTr-Output-Color-Space: srgb
# LUTr-Color-Space-Confidence: assumed-display-referred
# LUTr-Conversion-Method: PNG LUT image decoded at 16-bit and sampled to 25x25x25 3D CUBE
# LUTr-Conversion-Date: 2026-07-27
# LUTr-Conversion-Tool: LUTr scripts/convert-all-to-cube.mjs
# LUTr-Conversion-Grid: 25x25x25
# LUTr-Note: Preserve this metadata and the upstream license notices when redistributing.
TITLE "polaroid 672"
LUT_3D_SIZE 25
DOMAIN_MIN 0 0 0
DOMAIN_MAX 1 1 1
0.011764706 0.011764706 0.011764706
0.011764706 0.011764706 0.011764706
0.012745098 0.012745098 0.012745098
0.019607843 0.019607843 0.019607843
0.02745098 0.02745098 0.02745098
0.02745098 0.02745098 0.02745098
0.02745098 0.02745098 0.02745098
0.038235294 0.038235294 0.038235294
0.062745098 0.062745098 0.062745098
0.080882353 0.080882353 0.080882353
0.1 0.1 0.1
0.11715686 0.11715686 0.11715686
0.13529412 0.13529412 0.13529412
0.15 0.15 0.15
0.16372549 0.16372549 0.16372549
0.20196078 0.20196078 0.20196078
0.24313725 0.24313725 0.24313725
0.28186275 0.28186275 0.28186275
0.32156863 0.32156863 0.32156863
0.35931373 0.35931373 0.35931373
0.4 0.4 0.4
0.44117647 0.44117647 0.44117647
0.47941176 0.47941176 0.47941176
0.51960784 0.51960784 0.51960784
0.55294118 0.55294118 0.55294118
0.024509804 0.024509804 0.024509804
0.024509804 0.024509804 0.024509804
0.025490196 0.025490196 0.025490196
0.033333333 0.033333333 0.033333333
0.038970588 0.038970588 0.038970588
0.041666667 0.041666667 0.041666667
0.044117647 0.044117647 0.044117647
0.053982843 0.053982843 0.053982843
0.071568627 0.071568627 0.071568627
0.089705882 0.089705882 0.089705882
0.10992647 0.10992647 0.10992647
0.12696078 0.12696078 0.12696078
0.14362745 0.14362745 0.14362745
0.16029412 0.16029412 0.16029412
0.18235294 0.18235294 0.18235294
0.21078431 0.21078431 0.21078431
0.24705882 0.24705882 0.24705882
0.28676471 0.28676471 0.28676471
0.32512255 0.32512255 0.32512255
0.36305147 0.36305147 0.36305147
0.40318627 0.40318627 0.40318627
0.44117647 0.44117647 0.44117647
0.48235294 0.48235294 0.48235294
0.52113971 0.52113971 0.52113971
0.55539216 0.55539216 0.55539216
0.037254902 0.037254902 0.037254902
0.037254902 0.037254902 0.037254902
0.041911765 0.041911765 0.041911765
0.048529412 0.048529412 0.048529412
0.054411765 0.054411765 0.054411765
0.057230392 0.057230392 0.057230392
0.06372549 0.06372549 0.06372549
0.070098039 0.070098039 0.070098039
0.084313725 0.084313725 0.084313725
0.10208333 0.10208333 0.10208333
0.12058824 0.12058824 0.12058824
0.13860294 0.13860294 0.13860294
0.15637255 0.15637255 0.15637255
0.1754902 0.1754902 0.1754902
0.1997549 0.1997549 0.1997549
0.22561275 0.22561275 0.22561275
0.25588235 0.25588235 0.25588235
0.29252451 0.29252451 0.29252451
0.33014706 0.33014706 0.33014706
0.37058824 0.37058824 0.37058824
0.40882353 0.40882353 0.40882353
0.44865196 0.44865196 0.44865196
0.4872549 0.4872549 0.4872549
0.5245098 0.5245098 0.5245098
0.56078431 0.56078431 0.56078431
0.053921569 0.053921569 0.053921569
0.053921569 0.053921569 0.053921569
0.055392157 0.055392157 0.055392157
0.062193627 0.062193627 0.062193627
0.069852941 0.069852941 0.069852941
0.074019608 0.074019608 0.074019608
0.081372549 0.081372549 0.081372549
0.090686275 0.090686275 0.090686275
0.10098039 0.10098039 0.10098039
0.11421569 0.11421569 0.11421569
0.13088235 0.13088235 0.13088235
0.15147059 0.15147059 0.15147059
0.17352941 0.17352941 0.17352941
0.19221814 0.19221814 0.19221814
0.21666667 0.21666667 0.21666667
0.24264706 0.24264706 0.24264706
0.26960784 0.26960784 0.26960784
0.30098039 0.30098039 0.30098039
0.33676471 0.33676471 0.33676471
0.3745098 0.3745098 0.3745098
0.41519608 0.41519608 0.41519608
0.45637255 0.45637255 0.45637255
0.49375 0.49375 0.49375
0.53351716 0.53351716 0.53351716
0.56078431 0.56078431 0.56078431
0.068627451 0.068627451 0.068627451
0.068627451 0.068627451 0.068627451
0.071078431 0.071078431 0.071078431
0.078186275 0.078186275 0.078186275
0.085294118 0.085294118 0.085294118
0.092401961 0.092401961 0.092401961
0.10098039 0.10098039 0.10098039
0.10735294 0.10735294 0.10735294
0.11568627 0.11568627 0.11568627
0.12598039 0.12598039 0.12598039
0.14117647 0.14117647 0.14117647
0.16176471 0.16176471 0.16176471
0.18333333 0.18333333 0.18333333
0.20882353 0.20882353 0.20882353
0.23333333 0.23333333 0.23333333
0.25857843 0.25857843 0.25857843
0.28431373 0.28431373 0.28431373
0.31127451 0.31127451 0.31127451
0.34313725 0.34313725 0.34313725
0.38259804 0.38259804 0.38259804
0.42156863 0.42156863 0.42156863
0.4627451 0.4627451 0.4627451
0.50196078 0.50196078 0.50196078
0.53848039 0.53848039 0.53848039
0.56666667 0.56666667 0.56666667
0.083333333 0.083333333 0.083333333
0.083333333 0.083333333 0.083333333
0.088112745 0.088112745 0.088112745
0.094607843 0.094607843 0.094607843
0.10269608 0.10269608 0.10269608
0.11127451 0.11127451 0.11127451
0.11764706 0.11764706 0.11764706
0.12616422 0.12616422 0.12616422
0.13382353 0.13382353 0.13382353
0.14068627 0.14068627 0.14068627
0.15441176 0.15441176 0.15441176
0.17205882 0.17205882 0.17205882
0.19877451 0.19877451 0.19877451
0.22506127 0.22506127 0.22506127
0.25 0.25 0.25
0.27579657 0.27579657 0.27579657
0.30245098 0.30245098 0.30245098
0.32726716 0.32726716 0.32726716
0.35637255 0.35637255 0.35637255
0.39068627 0.39068627 0.39068627
0.42965686 0.42965686 0.42965686
0.46905637 0.46905637 0.46905637
0.50723039 0.50723039 0.50723039
0.54577206 0.54577206 0.54577206
0.57303922 0.57303922 0.57303922
0.1 0.1 0.1
0.10098039 0.10098039 0.10098039
0.10490196 0.10490196 0.10490196
0.11139706 0.11139706 0.11139706
0.12009804 0.12009804 0.12009804
0.12794118 0.12794118 0.12794118
0.13602941 0.13602941 0.13602941
0.1435049 0.1435049 0.1435049
0.15098039 0.15098039 0.15098039
0.15772059 0.15772059 0.15772059
0.16470588 0.16470588 0.16470588
0.18872549 0.18872549 0.18872549
0.21568627 0.21568627 0.21568627
0.24264706 0.24264706 0.24264706
0.26960784 0.26960784 0.26960784
0.29509804 0.29509804 0.29509804
0.31960784 0.31960784 0.31960784
0.34473039 0.34473039 0.34473039
0.37279412 0.37279412 0.37279412
0.40147059 0.40147059 0.40147059
0.43823529 0.43823529 0.43823529
0.4754902 0.4754902 0.4754902
0.51372549 0.51372549 0.51372549
0.55281863 0.55281863 0.55281863
0.58333333 0.58333333 0.58333333
0.12058824 0.12058824 0.12058824
0.12058824 0.12058824 0.12058824
0.1245098 0.1245098 0.1245098
0.12824755 0.12824755 0.12824755
0.13553922 0.13553922 0.13553922
0.14313725 0.14313725 0.14313725
0.15159314 0.15159314 0.15159314
0.16072304 0.16072304 0.16072304
0.16764706 0.16764706 0.16764706
0.17794118 0.17794118 0.17794118
0.18860294 0.18860294 0.18860294
0.20735294 0.20735294 0.20735294
0.23431373 0.23431373 0.23431373
0.25931373 0.25931373 0.25931373
0.28627451 0.28627451 0.28627451
0.31084559 0.31084559 0.31084559
0.33627451 0.33627451 0.33627451
0.36231618 0.36231618 0.36231618
0.38811275 0.38811275 0.38811275
0.4158701 0.4158701 0.4158701
0.44852941 0.44852941 0.44852941
0.48578431 0.48578431 0.48578431
0.52340686 0.52340686 0.52340686
0.559375 0.559375 0.559375
0.59362745 0.59362745 0.59362745
0.1372549 0.1372549 0.1372549
0.14117647 0.14117647 0.14117647
0.14117647 0.14117647 0.14117647
0.14460784 0.14460784 0.14460784
0.15098039 0.15098039 0.15098039
0.15735294 0.15735294 0.15735294
0.16764706 0.16764706 0.16764706
0.17794118 0.17794118 0.17794118
0.18823529 0.18823529 0.18823529
0.19852941 0.19852941 0.19852941
0.2127451 0.2127451 0.2127451
0.23382353 0.23382353 0.23382353
0.25490196 0.25490196 0.25490196
0.27941176 0.27941176 0.27941176
0.30392157 0.30392157 0.30392157
0.32843137 0.32843137 0.32843137
0.35294118 0.35294118 0.35294118
0.37745098 0.37745098 0.37745098
0.40294118 0.40294118 0.40294118
0.43039216 0.43039216 0.43039216
0.4627451 0.4627451 0.4627451
0.5 0.5 0.5
0.5372549 0.5372549 0.5372549
0.5745098 0.5745098 0.5745098
0.6 0.6 0.6
0.15784314 0.15784314 0.15784314
0.15784314 0.15784314 0.15784314
0.15784314 0.15784314 0.15784314
0.1591299 0.1591299 0.1591299
0.16519608 0.16519608 0.16519608
0.17401961 0.17401961 0.17401961
0.18431373 0.18431373 0.18431373
0.19852941 0.19852941 0.19852941
0.21127451 0.21127451 0.21127451
0.22303922 0.22303922 0.22303922
0.23615196 0.23615196 0.23615196
0.25490196 0.25490196 0.25490196
0.27794118 0.27794118 0.27794118
0.3 0.3 0.3
0.32169118 0.32169118 0.32169118
0.34564951 0.34564951 0.34564951
0.36960784 0.36960784 0.36960784
0.39503676 0.39503676 0.39503676
0.42254902 0.42254902 0.42254902
0.4504902 0.4504902 0.4504902
0.47892157 0.47892157 0.47892157
0.51636029 0.51636029 0.51636029
0.55392157 0.55392157 0.55392157
0.5872549 0.5872549 0.5872549
0.61029412 0.61029412 0.61029412
0.17745098 0.17745098 0.17745098
0.17561275 0.17561275 0.17561275
0.1745098 0.1745098 0.1745098
0.1745098 0.1745098 0.1745098
0.17990196 0.17990196 0.17990196
0.19068627 0.19068627 0.19068627
0.20392157 0.20392157 0.20392157
0.21911765 0.21911765 0.21911765
0.22941176 0.22941176 0.22941176
0.24362745 0.24362745 0.24362745
0.25784314 0.25784314 0.25784314
0.27892157 0.27892157 0.27892157
0.3 0.3 0.3
0.32058824 0.32058824 0.32058824
0.34117647 0.34117647 0.34117647
0.36286765 0.36286765 0.36286765
0.38627451 0.38627451 0.38627451
0.41323529 0.41323529 0.41323529
0.44019608 0.44019608 0.44019608
0.47022059 0.47022059 0.47022059
0.49803922 0.49803922 0.49803922
0.53198529 0.53198529 0.53198529
0.56740196 0.56740196 0.56740196
0.59816176 0.59816176 0.59816176
0.62058824 0.62058824 0.62058824
0.19509804 0.19509804 0.19509804
0.19509804 0.19509804 0.19509804
0.19509804 0.19509804 0.19509804
0.19852941 0.19852941 0.19852941
0.2004902 0.2004902 0.2004902
0.21470588 0.21470588 0.21470588
0.2254902 0.2254902 0.2254902
0.23970588 0.23970588 0.23970588
0.25343137 0.25343137 0.25343137
0.26421569 0.26421569 0.26421569
0.27843137 0.27843137 0.27843137
0.2995098 0.2995098 0.2995098
0.32058824 0.32058824 0.32058824
0.34117647 0.34117647 0.34117647
0.36176471 0.36176471 0.36176471
0.3786152 0.3786152 0.3786152
0.40294118 0.40294118 0.40294118
0.43008578 0.43008578 0.43008578
0.46078431 0.46078431 0.46078431
0.48823529 0.48823529 0.48823529
0.51862745 0.51862745 0.51862745
0.54957108 0.54957108 0.54957108
0.58088235 0.58088235 0.58088235
0.61029412 0.61029412 0.61029412
0.63088235 0.63088235 0.63088235
0.2254902 0.2254902 0.2254902
0.2254902 0.2254902 0.2254902
0.22598039 0.22598039 0.22598039
0.22941176 0.22941176 0.22941176
0.23529412 0.23529412 0.23529412
0.24558824 0.24558824 0.24558824
0.25735294 0.25735294 0.25735294
0.27009804 0.27009804 0.27009804
0.28039216 0.28039216 0.28039216
0.29264706 0.29264706 0.29264706
0.30539216 0.30539216 0.30539216
0.3245098 0.3245098 0.3245098
0.34705882 0.34705882 0.34705882
0.36764706 0.36764706 0.36764706
0.38431373 0.38431373 0.38431373
0.4002451 0.4002451 0.4002451
0.41960784 0.41960784 0.41960784
0.4504902 0.4504902 0.4504902
0.47892157 0.47892157 0.47892157
0.50661765 0.50661765 0.50661765
0.53529412 0.53529412 0.53529412
0.56421569 0.56421569 0.56421569
0.59362745 0.59362745 0.59362745
0.62132353 0.62132353 0.62132353
0.64117647 0.64117647 0.64117647
0.26029412 0.26029412 0.26029412
0.26029412 0.26029412 0.26029412
0.26029412 0.26029412 0.26029412
0.26029412 0.26029412 0.26029412
0.26666667 0.26666667 0.26666667
0.28039216 0.28039216 0.28039216
0.29105392 0.29105392 0.29105392
0.30490196 0.30490196 0.30490196
0.31568627 0.31568627 0.31568627
0.32941176 0.32941176 0.32941176
0.34375 0.34375 0.34375
0.35827206 0.35827206 0.35827206
0.37794118 0.37794118 0.37794118
0.39852941 0.39852941 0.39852941
0.41519608 0.41519608 0.41519608
0.43039216 0.43039216 0.43039216
0.44460784 0.44460784 0.44460784
0.46893382 0.46893382 0.46893382
0.49705882 0.49705882 0.49705882
0.52457108 0.52457108 0.52457108
0.55171569 0.55171569 0.55171569
0.57886029 0.57886029 0.57886029
0.6067402 0.6067402 0.6067402
0.63480392 0.63480392 0.63480392
0.65539216 0.65539216 0.65539216
0.29117647 0.29117647 0.29117647
0.29117647 0.29117647 0.29117647
0.29117647 0.29117647 0.29117647
0.29117647 0.29117647 0.29117647
0.30098039 0.30098039 0.30098039
0.31421569 0.31421569 0.31421569
0.3254902 0.3254902 0.3254902
0.33909314 0.33909314 0.33909314
0.35 0.35 0.35
0.36421569 0.36421569 0.36421569
0.37769608 0.37769608 0.37769608
0.39264706 0.39264706 0.39264706
0.41127451 0.41127451 0.41127451
0.42904412 0.42904412 0.42904412
0.44313725 0.44313725 0.44313725
0.45772059 0.45772059 0.45772059
0.4754902 0.4754902 0.4754902
0.49313725 0.49313725 0.49313725
0.51764706 0.51764706 0.51764706
0.54178922 0.54178922 0.54178922
0.56862745 0.56862745 0.56862745
0.59558824 0.59558824 0.59558824
0.62279412 0.62279412 0.62279412
0.64840686 0.64840686 0.64840686
0.66862745 0.66862745 0.66862745
0.32352941 0.32352941 0.32352941
0.32352941 0.32352941 0.32352941
0.32352941 0.32352941 0.32352941
0.32567402 0.32567402 0.32567402
0.33578431 0.33578431 0.33578431
0.34754902 0.34754902 0.34754902
0.36029412 0.36029412 0.36029412
0.37058824 0.37058824 0.37058824
0.38088235 0.38088235 0.38088235
0.39454657 0.39454657 0.39454657
0.40637255 0.40637255 0.40637255
0.42303922 0.42303922 0.42303922
0.43897059 0.43897059 0.43897059
0.45459559 0.45459559 0.45459559
0.46973039 0.46973039 0.46973039
0.48523284 0.48523284 0.48523284
0.50098039 0.50098039 0.50098039
0.51911765 0.51911765 0.51911765
0.53860294 0.53860294 0.53860294
0.5627451 0.5627451 0.5627451
0.58921569 0.58921569 0.58921569
0.61568627 0.61568627 0.61568627
0.63982843 0.63982843 0.63982843
0.66470588 0.66470588 0.66470588
0.68137255 0.68137255 0.68137255
0.36470588 0.36470588 0.36470588
0.36470588 0.36470588 0.36470588
0.36470588 0.36470588 0.36470588
0.36470588 0.36470588 0.36470588
0.3745098 0.3745098 0.3745098
0.38480392 0.38480392 0.38480392
0.39509804 0.39509804 0.39509804
0.40539216 0.40539216 0.40539216
0.41568627 0.41568627 0.41568627
0.42205882 0.42205882 0.42205882
0.43333333 0.43333333 0.43333333
0.45 0.45 0.45
0.46470588 0.46470588 0.46470588
0.47941176 0.47941176 0.47941176
0.49607843 0.49607843 0.49607843
0.51127451 0.51127451 0.51127451
0.52941176 0.52941176 0.52941176
0.54607843 0.54607843 0.54607843
0.5627451 0.5627451 0.5627451
0.58676471 0.58676471 0.58676471
0.60980392 0.60980392 0.60980392
0.63627451 0.63627451 0.63627451
0.65980392 0.65980392 0.65980392
0.68137255 0.68137255 0.68137255
0.69411765 0.69411765 0.69411765
0.40588235 0.40588235 0.40588235
0.40588235 0.40588235 0.40588235
0.40588235 0.40588235 0.40588235
0.40588235 0.40588235 0.40588235
0.41176471 0.41176471 0.41176471
0.42205882 0.42205882 0.42205882
0.43235294 0.43235294 0.43235294
0.44264706 0.44264706 0.44264706
0.45294118 0.45294118 0.45294118
0.45931373 0.45931373 0.45931373
0.46568627 0.46568627 0.46568627
0.47745098 0.47745098 0.47745098
0.49166667 0.49166667 0.49166667
0.50765931 0.50765931 0.50765931
0.52340686 0.52340686 0.52340686
0.53670343 0.53670343 0.53670343
0.55392157 0.55392157 0.55392157
0.57150735 0.57150735 0.57150735
0.58970588 0.58970588 0.58970588
0.60814951 0.60814951 0.60814951
0.63235294 0.63235294 0.63235294
0.65471814 0.65471814 0.65471814
0.67745098 0.67745098 0.67745098
0.69503676 0.69503676 0.69503676
0.71078431 0.71078431 0.71078431
0.44705882 0.44705882 0.44705882
0.44705882 0.44705882 0.44705882
0.44705882 0.44705882 0.44705882
0.44791667 0.44791667 0.44791667
0.45294118 0.45294118 0.45294118
0.46311275 0.46311275 0.46311275
0.47254902 0.47254902 0.47254902
0.47990196 0.47990196 0.47990196
0.49019608 0.49019608 0.49019608
0.49595588 0.49595588 0.49595588
0.50122549 0.50122549 0.50122549
0.50833333 0.50833333 0.50833333
0.52009804 0.52009804 0.52009804
0.53333333 0.53333333 0.53333333
0.54926471 0.54926471 0.54926471
0.56458333 0.56458333 0.56458333
0.57941176 0.57941176 0.57941176
0.59718137 0.59718137 0.59718137
0.61568627 0.61568627 0.61568627
0.63333333 0.63333333 0.63333333
0.65343137 0.65343137 0.65343137
0.67352941 0.67352941 0.67352941
0.69411765 0.69411765 0.69411765
0.71078431 0.71078431 0.71078431
0.72647059 0.72647059 0.72647059
0.48823529 0.48823529 0.48823529
0.48823529 0.48823529 0.48823529
0.48823529 0.48823529 0.48823529
0.49166667 0.49166667 0.49166667
0.49411765 0.49411765 0.49411765
0.5004902 0.5004902 0.5004902
0.51078431 0.51078431 0.51078431
0.51764706 0.51764706 0.51764706
0.52745098 0.52745098 0.52745098
0.53167892 0.53167892 0.53167892
0.53578431 0.53578431 0.53578431
0.53964461 0.53964461 0.53964461
0.5495098 0.5495098 0.5495098
0.56372549 0.56372549 0.56372549
0.57708333 0.57708333 0.57708333
0.59215686 0.59215686 0.59215686
0.60637255 0.60637255 0.60637255
0.62322304 0.62322304 0.62322304
0.64007353 0.64007353 0.64007353
0.65729167 0.65729167 0.65729167
0.67745098 0.67745098 0.67745098
0.69411765 0.69411765 0.69411765
0.71176471 0.71176471 0.71176471
0.72990196 0.72990196 0.72990196
0.74411765 0.74411765 0.74411765
0.52941176 0.52941176 0.52941176
0.52941176 0.52941176 0.52941176
0.52941176 0.52941176 0.52941176
0.53284314 0.53284314 0.53284314
0.53627451 0.53627451 0.53627451
0.54142157 0.54142157 0.54142157
0.54803922 0.54803922 0.54803922
0.55563725 0.55563725 0.55563725
0.5627451 0.5627451 0.5627451
0.56666667 0.56666667 0.56666667
0.57058824 0.57058824 0.57058824
0.57230392 0.57230392 0.57230392
0.58039216 0.58039216 0.58039216
0.59068627 0.59068627 0.59068627
0.60490196 0.60490196 0.60490196
0.61911765 0.61911765 0.61911765
0.63333333 0.63333333 0.63333333
0.64877451 0.64877451 0.64877451
0.66470588 0.66470588 0.66470588
0.68161765 0.68161765 0.68161765
0.7 0.7 0.7
0.71470588 0.71470588 0.71470588
0.73137255 0.73137255 0.73137255
0.74803922 0.74803922 0.74803922
0.76470588 0.76470588 0.76470588
0.56666667 0.56666667 0.56666667
0.56881127 0.56881127 0.56881127
0.57058824 0.57058824 0.57058824
0.57401961 0.57401961 0.57401961
0.57622549 0.57622549 0.57622549
0.57886029 0.57886029 0.57886029
0.58529412 0.58529412 0.58529412
0.59381127 0.59381127 0.59381127
0.59803922 0.59803922 0.59803922
0.60177696 0.60177696 0.60177696
0.60539216 0.60539216 0.60539216
0.60582108 0.60582108 0.60582108
0.61127451 0.61127451 0.61127451
0.62156863 0.62156863 0.62156863
0.63186275 0.63186275 0.63186275
0.64607843 0.64607843 0.64607843
0.66029412 0.66029412 0.66029412
0.67432598 0.67432598 0.67432598
0.68958333 0.68958333 0.68958333
0.70680147 0.70680147 0.70680147
0.72279412 0.72279412 0.72279412
0.73872549 0.73872549 0.73872549
0.75294118 0.75294118 0.75294118
0.77107843 0.77107843 0.77107843
0.78529412 0.78529412 0.78529412
0.60784314 0.60784314 0.60784314
0.60784314 0.60784314 0.60784314
0.61176471 0.61176471 0.61176471
0.61262255 0.61262255 0.61262255
0.61568627 0.61568627 0.61568627
0.61703431 0.61703431 0.61703431
0.62279412 0.62279412 0.62279412
0.62953431 0.62953431 0.62953431
0.63529412 0.63529412 0.63529412
0.63627451 0.63627451 0.63627451
0.6370098 0.6370098 0.6370098
0.64019608 0.64019608 0.64019608
0.64411765 0.64411765 0.64411765
0.65208333 0.65208333 0.65208333
0.6620098 0.6620098 0.6620098
0.67340686 0.67340686 0.67340686
0.6872549 0.6872549 0.6872549
0.70036765 0.70036765 0.70036765
0.71593137 0.71593137 0.71593137
0.7307598 0.7307598 0.7307598
0.74509804 0.74509804 0.74509804
0.75931373 0.75931373 0.75931373
0.77573529 0.77573529 0.77573529
0.79276961 0.79276961 0.79276961
0.80588235 0.80588235 0.80588235
0.64509804 0.64509804 0.64509804
0.64846814 0.64846814 0.64846814
0.64963235 0.64963235 0.64963235
0.65147059 0.65147059 0.65147059
0.6502451 0.6502451 0.6502451
0.65196078 0.65196078 0.65196078
0.65833333 0.65833333 0.65833333
0.665625 0.665625 0.665625
0.66715686 0.66715686 0.66715686
0.66715686 0.66715686 0.66715686
0.66715686 0.66715686 0.66715686
0.66715686 0.66715686 0.66715686
0.67034314 0.67034314 0.67034314
0.67794118 0.67794118 0.67794118
0.68823529 0.68823529 0.68823529
0.69908088 0.69908088 0.69908088
0.7127451 0.7127451 0.7127451
0.72696078 0.72696078 0.72696078
0.74154412 0.74154412 0.74154412
0.75539216 0.75539216 0.75539216
0.76960784 0.76960784 0.76960784
0.78008578 0.78008578 0.78008578
0.79705882 0.79705882 0.79705882
0.81464461 0.81464461 0.81464461
0.83039216 0.83039216 0.83039216
0.67843137 0.67843137 0.67843137
0.68088235 0.68088235 0.68088235
0.68137255 0.68137255 0.68137255
0.67843137 0.67843137 0.67843137
0.6745098 0.6745098 0.6745098
0.67892157 0.67892157 0.67892157
0.68529412 0.68529412 0.68529412
0.69166667 0.69166667 0.69166667
0.69411765 0.69411765 0.69411765
0.69019608 0.69019608 0.69019608
0.68627451 0.68627451 0.68627451
0.68627451 0.68627451 0.68627451
0.69019608 0.69019608 0.69019608
0.69460784 0.69460784 0.69460784
0.70490196 0.70490196 0.70490196
0.71911765 0.71911765 0.71911765
0.72941176 0.72941176 0.72941176
0.74607843 0.74607843 0.74607843
0.76568627 0.76568627 0.76568627
0.77598039 0.77598039 0.77598039
0.78627451 0.78627451 0.78627451
0.8004902 0.8004902 0.8004902
0.81372549 0.81372549 0.81372549
0.83431373 0.83431373 0.83431373
0.85098039 0.85098039 0.85098039
0.011764706 0.011764706 0.011764706
0.011764706 0.011764706 0.011764706
0.0088235294 0.0088235294 0.0088235294
0.019117647 0.019117647 0.019117647
0.028676471 0.028676471 0.028676471
0.033823529 0.033823529 0.033823529
0.039583333 0.039583333 0.039583333
0.049509804 0.049509804 0.049509804
0.062745098 0.062745098 0.062745098
0.080882353 0.080882353 0.080882353
0.1 0.1 0.1
0.11930147 0.11930147 0.11930147
0.13970588 0.13970588 0.13970588
0.1591299 0.1591299 0.1591299
0.18627451 0.18627451 0.18627451
0.21378676 0.21378676 0.21378676
0.2495098 0.2495098 0.2495098
0.28676471 0.28676471 0.28676471
0.3254902 0.3254902 0.3254902
0.36519608 0.36519608 0.36519608
0.40637255 0.40637255 0.40637255
0.44509804 0.44509804 0.44509804
0.48480392 0.48480392 0.48480392
0.52297794 0.52297794 0.52297794
0.5504902 0.5504902 0.5504902
0.024509804 0.024509804 0.024509804
0.022058824 0.022058824 0.022058824
0.025490196 0.025490196 0.025490196
0.033333333 0.033333333 0.033333333
0.040931373 0.040931373 0.040931373
0.045036765 0.045036765 0.045036765
0.049877451 0.049877451 0.049877451
0.060010723 0.060010723 0.060010723
0.074571078 0.074571078 0.074571078
0.090280331 0.090280331 0.090280331
0.10969669 0.10969669 0.10969669
0.12696078 0.12696078 0.12696078
0.14727328 0.14727328 0.14727328
0.16911765 0.16911765 0.16911765
0.19172794 0.19172794 0.19172794
0.22015931 0.22015931 0.22015931
0.25588235 0.25588235 0.25588235
0.29217984 0.29217984 0.29217984
0.33000919 0.33000919 0.33000919
0.36923254 0.36923254 0.36923254
0.4080576 0.4080576 0.4080576
0.44743413 0.44743413 0.44743413
0.48665748 0.48665748 0.48665748
0.52506127 0.52506127 0.52506127
0.55294118 0.55294118 0.55294118
0.037254902 0.037254902 0.037254902
0.037254902 0.037254902 0.037254902
0.041636029 0.041636029 0.041636029
0.048529412 0.048529412 0.048529412
0.055147059 0.055147059 0.055147059
0.058961397 0.058961397 0.058961397
0.065716912 0.065716912 0.065716912
0.075857843 0.075857843 0.075857843
0.087867647 0.087867647 0.087867647
0.10346201 0.10346201 0.10346201
0.12058824 0.12058824 0.12058824
0.14117647 0.14117647 0.14117647
0.16066176 0.16066176 0.16066176
0.18132659 0.18132659 0.18132659
0.20520833 0.20520833 0.20520833
0.23137255 0.23137255 0.23137255
0.2622549 0.2622549 0.2622549
0.29774816 0.29774816 0.29774816
0.33560049 0.33560049 0.33560049
0.37415748 0.37415748 0.37415748
0.41458333 0.41458333 0.41458333
0.45333946 0.45333946 0.45333946
0.49136029 0.49136029 0.49136029
