site/assets/luts/natron-haldclut--alien-green--394a73e87.cube
# LUTr-Project: LUTr — LUTrepository
# LUTr-Schema-Version: 1
# LUTr-ID: natron-haldclut--alien-green--394a73e87
# LUTr-Title: alien green
# LUTr-Collection: Natron HaldCLUT
# LUTr-Collection-ID: natron-haldclut-presets
# LUTr-Source: https://github.com/NatronGitHub/clut
# LUTr-Source-File: submissions/natron-haldclut-presets/various/alien_green.png
# LUTr-Source-Format: PNG
# LUTr-Source-SHA256: 6cb450d33381e1280802de54a76aa373abadbad93e26b557ed067dfb8ad0da9c
# LUTr-License: CC-BY-SA-4.0
# LUTr-License-URL: https://github.com/NatronGitHub/clut#license
# LUTr-Tags: creative, film, film-emulation, hald-clut, natron, png, cube
# LUTr-Transform-Class: film-emulation
# LUTr-Input-Color-Space: srgb
# LUTr-Output-Color-Space: srgb
# LUTr-Color-Space-Confidence: assumed-display-referred
# LUTr-Conversion-Method: PNG LUT image decoded at 16-bit and sampled to 25x25x25 3D CUBE
# LUTr-Conversion-Date: 2026-07-27
# LUTr-Conversion-Tool: LUTr scripts/convert-all-to-cube.mjs
# LUTr-Conversion-Grid: 25x25x25
# LUTr-Note: Preserve this metadata and the upstream license notices when redistributing.
TITLE "alien green"
LUT_3D_SIZE 5
DOMAIN_MIN 0 0 0
DOMAIN_MAX 1 1 1
0.031372549 0.011764706 0.039215686
0.14215686 0.18137255 0.010784314
0.34705882 0.35882353 0.0039215686
0.56372549 0.55980392 0.00098039216
0.74509804 0.75294118 0.19215686
0.25 0.041176471 0.041176471
0.12720588 0.125 0.25661765
0.099509804 0.41960784 0.23480392
0.1129902 0.59019608 0.10808824
0.34803922 0.75588235 0.19803922
0.49411765 0.019607843 0.011764706
0.48480392 0.11960784 0.48431373
0.23921569 0.25196078 0.5
0.19852941 0.65735294 0.66421569
0.25882353 0.82156863 0.54313725
0.74019608 0.015686275 0.011764706
0.74411765 0.11764706 0.52745098
0.57990196 0.23529412 0.74362745
0.35882353 0.3627451 0.76078431
0.35392157 0.7754902 0.90294118
0.98823529 0 0
0.97745098 0.12058824 0.54411765
0.94901961 0.23137255 0.9627451
0.67745098 0.32352941 0.99117647
0.43529412 0.42745098 0.96078431
0.0088235294 0.11960784 0.24705882
0.25784314 0.042892157 0.16176471
0.41666667 0.12598039 0.0078431373
0.59240196 0.30661765 0.012254902
0.74117647 0.50392157 0.10294118
0.011764706 0.25220588 0.23382353
0.24178922 0.24564951 0.2401348
0.41335784 0.42205882 0.14558824
0.6096201 0.6122549 0.24417892
0.78259804 0.78308824 0.37132353
0.24068627 0.49411765 0.0078431373
0.49301471 0.26458333 0.26715686
0.36078431 0.3745098 0.50196078
0.33529412 0.66078431 0.48639706
0.41519608 0.82254902 0.41176471
0.70343137 0.69485294 0.01495098
0.73743873 0.25514706 0.25441176
0.71838235 0.36078431 0.71948529
0.48137255 0.49626225 0.75214461
0.48921569 0.88995098 0.90367647
0.9745098 0.73529412 0.012745098
0.96862745 0.26813725 0.25612745
0.96911765 0.36470588 0.78480392
0.81348039 0.46666667 0.97647059
0.56666667 0.60196078 0.97647059
0.019607843 0.25686275 0.49411765
0.22254902 0.042647059 0.49411765
0.50392157 0.02254902 0.26470588
0.66372549 0.037745098 0.034313725
0.83529412 0.28235294 0.082352941
0.030392157 0.3745098 0.49264706
0.24583333 0.36911765 0.50183824
0.49362745 0.23970588 0.38602941
0.66752451 0.33762255 0.23627451
0.82009804 0.56078431 0.31568627
0.010784314 0.50686275 0.46078431
0.25098039 0.49828431 0.47401961
0.49901961 0.49705882 0.49852941
0.67254902 0.67205882 0.48921569
0.84901961 0.84509804 0.57745098
0.011764706 0.74068627 0.019117647
0.5004902 0.73921569 0.25784314
0.73357843 0.5122549 0.50808824
0.625 0.64301471 0.75428922
0.63627451 0.90294118 0.78137255
0.4745098 0.98627451 0.0098039216
0.9627451 0.96470588 0.24656863
0.96960784 0.49705882 0.49705882
0.95490196 0.60588235 0.95686275
0.68823529 0.72352941 0.95098039
0.0039215686 0.36960784 0.74117647
0.10980392 0.034313725 0.73504902
0.59068627 0.033333333 0.73872549
0.7504902 0.030392157 0.40294118
0.88823529 0.079411765 0.20686275
0.038480392 0.50098039 0.74019608
0.23566176 0.47254902 0.74509804
0.48872549 0.24705882 0.74313725
0.7497549 0.24742647 0.50569853
0.90686275 0.30318627 0.30294118
0.023039216 0.61666667 0.73235294
0.24252451 0.61372549 0.73333333
0.48161765 0.59166667 0.7375
0.74754902 0.49803922 0.63958333
0.87009804 0.57794118 0.51764706
0.034068627 0.75392157 0.69313725
0.24724265 0.74387255 0.73866422
0.49595588 0.74901961 0.70821078
0.75098039 0.73265931 0.74607843
0.86789216 0.87745098 0.75294118
0.015686275 0.98137255 0.24117647
0.25661765 0.97745098 0.26691176
0.73921569 0.97843137 0.49803922
0.97181373 0.74754902 0.74240196
0.85294118 0.8745098 0.97941176
0.0039215686 0.50196078 0.98823529
0.021568627 0.011764706 0.96862745
0.47254902 0.025490196 0.95686275
0.99509804 0.0049019608 0.98039216
0.99215686 0 0.49803922
0.00098039216 0.62745098 0.98235294
0.24068627 0.60735294 0.98946078
0.3754902 0.24705882 0.97254902
0.85980392 0.25098039 0.98308824
0.97745098 0.24705882 0.60098039
0.025490196 0.75098039 0.98039216
0.25098039 0.7372549 0.97107843
0.49411765 0.73529412 0.9872549
0.75343137 0.49803922 0.96911765
0.99019608 0.49803922 0.73529412
0.017647059 0.86960784 0.9745098
0.24313725 0.84117647 0.94705882
0.49019608 0.86372549 0.97892157
0.73946078 0.84803922 0.97254902
0.97058824 0.74215686 0.86862745
0 0.99215686 0.99215686
0.24215686 0.98137255 0.96568627
0.5 0.98039216 0.96078431
0.74117647 0.95588235 0.94901961
0.98431373 0.98431373 0.99607843
