site/assets/luts/natron-haldclut--golden-mono--7bed6c03a.cube
# LUTr-Project: LUTr — LUTrepository
# LUTr-Schema-Version: 1
# LUTr-ID: natron-haldclut--golden-mono--7bed6c03a
# LUTr-Title: golden mono
# LUTr-Collection: Natron HaldCLUT
# LUTr-Collection-ID: natron-haldclut-presets
# LUTr-Source: https://github.com/NatronGitHub/clut
# LUTr-Source-File: submissions/natron-haldclut-presets/various/golden_mono.png
# LUTr-Source-Format: PNG
# LUTr-Source-SHA256: c628dbc3183a27152235865cff8da5d18e8e7d5416f97fb02fa1f63270fb48a8
# LUTr-License: CC-BY-SA-4.0
# LUTr-License-URL: https://github.com/NatronGitHub/clut#license
# LUTr-Tags: creative, film, film-emulation, hald-clut, natron, png, black-and-white, cube
# LUTr-Transform-Class: film-emulation
# LUTr-Input-Color-Space: srgb
# LUTr-Output-Color-Space: srgb
# LUTr-Color-Space-Confidence: assumed-display-referred
# LUTr-Conversion-Method: PNG LUT image decoded at 16-bit and sampled to 25x25x25 3D CUBE
# LUTr-Conversion-Date: 2026-07-27
# LUTr-Conversion-Tool: LUTr scripts/convert-all-to-cube.mjs
# LUTr-Conversion-Grid: 25x25x25
# LUTr-Note: Preserve this metadata and the upstream license notices when redistributing.
TITLE "golden mono"
LUT_3D_SIZE 5
DOMAIN_MIN 0 0 0
DOMAIN_MAX 1 1 1
0 0 0
0.088235294 0.065686275 0.030392157
0.21960784 0.15490196 0.084313725
0.34019608 0.2372549 0.13039216
0.45098039 0.31372549 0.17647059
0.11960784 0.081372549 0.042156863
0.13848039 0.093872549 0.050735294
0.21813725 0.15294118 0.084313725
0.35392157 0.24411765 0.1379902
0.4754902 0.33039216 0.18529412
0.28823529 0.2 0.11176471
0.29460784 0.20539216 0.11617647
0.3 0.20784314 0.1127451
0.34803922 0.24705882 0.13431373
0.47058824 0.3254902 0.18431373
0.48529412 0.33921569 0.18627451
0.49607843 0.34926471 0.19534314
0.50098039 0.34607843 0.19362745
0.49411765 0.34705882 0.19313725
0.50294118 0.35196078 0.19411765
0.69411765 0.49019608 0.26666667
0.71568627 0.49901961 0.2754902
0.66666667 0.4627451 0.2627451
0.7254902 0.50588235 0.28627451
0.71764706 0.50588235 0.27843137
0.19901961 0.13823529 0.080392157
0.20784314 0.14534314 0.081372549
0.21862745 0.15245098 0.082352941
0.34313725 0.24019608 0.13333333
0.43823529 0.30588235 0.17156863
0.19901961 0.14583333 0.080392157
0.32573529 0.22702206 0.12647059
0.4 0.27512255 0.15723039
0.54430147 0.37941176 0.21176471
0.70588235 0.49289216 0.27745098
0.30784314 0.21519608 0.11911765
0.42267157 0.29852941 0.16568627
0.57230392 0.3997549 0.22205882
0.64865196 0.45183824 0.25453431
0.82745098 0.57205882 0.31960784
0.48529412 0.33995098 0.18921569
0.64583333 0.44803922 0.25563725
0.78921569 0.54669118 0.30821078
0.82083333 0.56838235 0.32040441
0.84215686 0.5875 0.32843137
0.7372549 0.50980392 0.28235294
0.87745098 0.59901961 0.33627451
0.975 0.71029412 0.40147059
0.98039216 0.72156863 0.40196078
0.99215686 0.72941176 0.40588235
0.49215686 0.34705882 0.19607843
0.50588235 0.35441176 0.19852941
0.50882353 0.35490196 0.19705882
0.4995098 0.34705882 0.19215686
0.48431373 0.33921569 0.19019608
0.48382353 0.34460784 0.19166667
0.63553922 0.4442402 0.24607843
0.70416667 0.49117647 0.27352941
0.69460784 0.48431373 0.27144608
0.6995098 0.48578431 0.26862745
0.49803922 0.35 0.19411765
0.64779412 0.45294118 0.25392157
0.82843137 0.5745098 0.31960784
0.93382353 0.64607843 0.36372549
0.93235294 0.65588235 0.37058824
0.50588235 0.35245098 0.19362745
0.65723039 0.4620098 0.25588235
0.84779412 0.58995098 0.33039216
0.97977941 0.70943627 0.39938725
0.99607843 0.79313725 0.44705882
0.69607843 0.48431373 0.26862745
0.86568627 0.6 0.33382353
0.98823529 0.71176471 0.39803922
0.99460784 0.83137255 0.46764706
0.99607843 0.94117647 0.52156863
0.84019608 0.58431373 0.32745098
0.81004902 0.56960784 0.32058824
0.84754902 0.58872549 0.32401961
0.82058824 0.57328431 0.31642157
0.80490196 0.57647059 0.3245098
0.83039216 0.57818627 0.32377451
0.98302696 0.69215686 0.38602941
0.99080882 0.73039216 0.40808824
0.98841912 0.72965686 0.40490196
0.99142157 0.73039216 0.40882353
0.83039216 0.57696078 0.3245098
0.97965686 0.69607843 0.38921569
0.99289216 0.79852941 0.4502451
0.99215686 0.86188725 0.48382353
0.99607843 0.87058824 0.48823529
0.84730392 0.58823529 0.33063725
0.98008578 0.69044118 0.38921569
0.99264706 0.8 0.44816176
0.99215686 0.90447304 0.50490196
0.99926471 0.99215686 0.5627451
0.8372549 0.58823529 0.3245098
0.95980392 0.68431373 0.38529412
0.98921569 0.80294118 0.45
1 0.91470588 0.5127451
1 0.9745098 0.54607843
0.99215686 0.81960784 0.45490196
0.99607843 0.8 0.45098039
0.99215686 0.75882353 0.42156863
0.99607843 0.80490196 0.45196078
1 0.79607843 0.45098039
0.99607843 0.78039216 0.4372549
0.99607843 0.89411765 0.49705882
0.99607843 0.94460784 0.52254902
1 0.94019608 0.52377451
0.99607843 0.92745098 0.52058824
0.99607843 0.77058824 0.43333333
0.99215686 0.90196078 0.50490196
0.99607843 0.97941176 0.54803922
0.99607843 0.99607843 0.56666667
1 0.99803922 0.55882353
1 0.79803922 0.44901961
0.99607843 0.90490196 0.50882353
0.99852941 0.98284314 0.55343137
0.99607843 0.99607843 0.60490196
0.99607843 0.99607843 0.63333333
0.99607843 0.80784314 0.45098039
0.99215686 0.9127451 0.51078431
0.99607843 0.98039216 0.5627451
1 0.99705882 0.60098039
0.99607843 0.99607843 0.61960784
