site/assets/luts/natron-haldclut--purple--8884c890c.cube
# LUTr-Project: LUTr — LUTrepository
# LUTr-Schema-Version: 1
# LUTr-ID: natron-haldclut--purple--8884c890c
# LUTr-Title: purple
# LUTr-Collection: Natron HaldCLUT
# LUTr-Collection-ID: natron-haldclut-presets
# LUTr-Source: https://github.com/NatronGitHub/clut
# LUTr-Source-File: submissions/natron-haldclut-presets/various/purple.png
# LUTr-Source-Format: PNG
# LUTr-Source-SHA256: d90ee70eb6599a69afe78a63a3b48cb0cca96ef77cf3157469fb320cdcb12845
# LUTr-License: CC-BY-SA-4.0
# LUTr-License-URL: https://github.com/NatronGitHub/clut#license
# LUTr-Tags: creative, film, film-emulation, hald-clut, natron, png, cube
# LUTr-Transform-Class: film-emulation
# LUTr-Input-Color-Space: srgb
# LUTr-Output-Color-Space: srgb
# LUTr-Color-Space-Confidence: assumed-display-referred
# LUTr-Conversion-Method: PNG LUT image decoded at 16-bit and sampled to 25x25x25 3D CUBE
# LUTr-Conversion-Date: 2026-07-27
# LUTr-Conversion-Tool: LUTr scripts/convert-all-to-cube.mjs
# LUTr-Conversion-Grid: 25x25x25
# LUTr-Note: Preserve this metadata and the upstream license notices when redistributing.
TITLE "purple"
LUT_3D_SIZE 5
DOMAIN_MIN 0 0 0
DOMAIN_MAX 1 1 1
0.031372549 0.031372549 0.49411765
0.39901961 0.0029411765 0.49803922
0.68823529 0.025490196 0.49803922
0.88039216 0.015686275 0.49803922
0.99215686 0.0039215686 0.49411765
0.026470588 0.16568627 0.49803922
0.37156863 0.17352941 0.49803922
0.69803922 0.16617647 0.49803922
0.87181373 0.16568627 0.50196078
0.95784314 0.17352941 0.49803922
0.025490196 0.38039216 0.49803922
0.39215686 0.37254902 0.49411765
0.68039216 0.36960784 0.49803922
0.86470588 0.37303922 0.50196078
0.93529412 0.38823529 0.50196078
0.024509804 0.65588235 0.50196078
0.39411765 0.64901961 0.49803922
0.69019608 0.65 0.49754902
0.86568627 0.65906863 0.49803922
0.97745098 0.65882353 0.49803922
0.0039215686 0.98039216 0.50196078
0.39411765 0.96568627 0.50196078
0.68627451 0.95882353 0.50196078
0.86960784 0.95686275 0.49803922
0.98823529 0.97254902 0.50196078
0.02254902 0.034313725 0.49411765
0.35882353 0.028186275 0.49803922
0.69019608 0.016176471 0.49803922
0.87352941 0.011764706 0.49803922
0.96470588 0.019607843 0.49803922
0.031617647 0.16960784 0.50098039
0.37689951 0.16960784 0.49803922
0.69411765 0.17279412 0.49803922
0.87352941 0.17352941 0.50196078
0.95514706 0.17745098 0.49803922
0.035294118 0.36470588 0.49803922
0.38627451 0.37647059 0.49803922
0.68137255 0.37647059 0.49803922
0.86862745 0.37426471 0.50196078
0.9754902 0.37892157 0.49803922
0.024509804 0.65196078 0.50098039
0.38235294 0.65196078 0.49803922
0.67892157 0.65563725 0.50196078
0.86703431 0.65196078 0.50196078
0.96960784 0.65269608 0.49411765
0.014705882 0.93823529 0.49803922
0.39191176 0.96446078 0.50196078
0.68039216 0.95490196 0.49803922
0.86960784 0.95808824 0.49803922
0.97254902 0.95196078 0.50196078
0.017647059 0.0058823529 0.49803922
0.38480392 0.031372549 0.49803922
0.69313725 0.016666667 0.49803922
0.86862745 0.019607843 0.49803922
0.9745098 0.011764706 0.50196078
0.016666667 0.16568627 0.49803922
0.39411765 0.16421569 0.49803922
0.69215686 0.16666667 0.50196078
0.87254902 0.16568627 0.50196078
0.97205882 0.18137255 0.50196078
0.031372549 0.37254902 0.50196078
0.39411765 0.37647059 0.50196078
0.68627451 0.37254902 0.50196078
0.86960784 0.36470588 0.50196078
0.97156863 0.36862745 0.50196078
0.022058824 0.64803922 0.49411765
0.40477941 0.64558824 0.49803922
0.67254902 0.64215686 0.50196078
0.86715686 0.64448529 0.5057598
0.97941176 0.64411765 0.50196078
0.029411765 0.97058824 0.50196078
0.38333333 0.93039216 0.50196078
0.6745098 0.92352941 0.50196078
0.87254902 0.96029412 0.50196078
0.98431373 0.96862745 0.50392157
0.012745098 0.0049019608 0.49803922
0.39019608 0.023529412 0.50196078
0.69411765 0.056862745 0.50588235
0.87254902 0.016911765 0.49803922
0.96372549 0.044117647 0.50196078
0.012745098 0.16666667 0.50196078
0.39436275 0.16740196 0.50196078
0.69019608 0.16568627 0.50588235
0.86960784 0.16176471 0.50196078
0.97230392 0.18137255 0.50196078
0.018627451 0.36862745 0.50196078
0.38664216 0.37254902 0.50588235
0.68333333 0.37254902 0.50588235
0.86605392 0.36029412 0.50196078
0.96078431 0.36666667 0.50196078
0.042401961 0.64705882 0.50196078
0.38069853 0.65030637 0.50588235
0.68431373 0.64656863 0.50588235
0.87254902 0.64044118 0.50588235
0.97647059 0.65220588 0.50588235
0.032352941 0.95882353 0.50196078
0.39411765 0.96078431 0.50196078
0.69019608 0.96764706 0.50588235
0.87254902 0.95906863 0.50196078
0.98921569 0.97843137 0.50588235
0.031372549 0.039215686 0.49803922
0.38235294 0.061764706 0.50196078
0.69411765 0.015686275 0.50196078
0.86176471 0.028431373 0.50196078
0.95686275 0.050980392 0.50196078
0.032352941 0.17352941 0.50196078
0.39705882 0.16960784 0.50196078
0.68823529 0.16617647 0.50588235
0.86078431 0.16568627 0.50196078
0.95294118 0.16960784 0.50196078
0.017647059 0.36862745 0.50392157
0.39019608 0.38382353 0.50392157
0.68823529 0.38431373 0.50588235
0.86568627 0.36421569 0.50343137
0.97058824 0.38039216 0.50196078
0.032352941 0.64803922 0.50588235
0.38651961 0.65196078 0.50588235
0.68431373 0.64803922 0.50588235
0.86960784 0.63235294 0.50980392
0.98333333 0.66372549 0.50196078
0.0078431373 0.94117647 0.50588235
0.37941176 0.95 0.50588235
0.67843137 0.94313725 0.50588235
0.86960784 0.92843137 0.50196078
0.98039216 0.94509804 0.50588235
