site/assets/luts/natron-haldclut--faded-analog--44dbb4563.cube
# LUTr-Project: LUTr — LUTrepository
# LUTr-Schema-Version: 1
# LUTr-ID: natron-haldclut--faded-analog--44dbb4563
# LUTr-Title: faded analog
# LUTr-Collection: Natron HaldCLUT
# LUTr-Collection-ID: natron-haldclut-presets
# LUTr-Source: https://github.com/NatronGitHub/clut
# LUTr-Source-File: submissions/natron-haldclut-presets/various/faded_analog.png
# LUTr-Source-Format: PNG
# LUTr-Source-SHA256: e7b6990d39b47572db74544b87adf772f1b555083f9fd6d859a8c99cc7f1b76c
# LUTr-License: CC-BY-SA-4.0
# LUTr-License-URL: https://github.com/NatronGitHub/clut#license
# LUTr-Tags: creative, film, film-emulation, hald-clut, natron, png, vintage, cube
# LUTr-Transform-Class: film-emulation
# LUTr-Input-Color-Space: srgb
# LUTr-Output-Color-Space: srgb
# LUTr-Color-Space-Confidence: assumed-display-referred
# LUTr-Conversion-Method: PNG LUT image decoded at 16-bit and sampled to 25x25x25 3D CUBE
# LUTr-Conversion-Date: 2026-07-27
# LUTr-Conversion-Tool: LUTr scripts/convert-all-to-cube.mjs
# LUTr-Conversion-Grid: 25x25x25
# LUTr-Note: Preserve this metadata and the upstream license notices when redistributing.
TITLE "faded analog"
LUT_3D_SIZE 5
DOMAIN_MIN 0 0 0
DOMAIN_MAX 1 1 1
0.090196078 0.08627451 0.2627451
0.18529412 0.090196078 0.2754902
0.46470588 0.084313725 0.25686275
0.71176471 0.087254902 0.29019608
0.79215686 0.094117647 0.2745098
0.087254902 0.23921569 0.26666667
0.18921569 0.24019608 0.27843137
0.45686275 0.23578431 0.26666667
0.70784314 0.24019608 0.26053922
0.81666667 0.23921569 0.26568627
0.090196078 0.47647059 0.27058824
0.17254902 0.47058824 0.26862745
0.46078431 0.47058824 0.26078431
0.70882353 0.475 0.2627451
0.81176471 0.4627451 0.2627451
0.090196078 0.68529412 0.26666667
0.17941176 0.68161765 0.26348039
0.46078431 0.68137255 0.2745098
0.70882353 0.68431373 0.26740196
0.81176471 0.68431373 0.26960784
0.08627451 0.80392157 0.26666667
0.18921569 0.80392157 0.2627451
0.46078431 0.78235294 0.2627451
0.71176471 0.8 0.27941176
0.81176471 0.79607843 0.30588235
0.098039216 0.082352941 0.38137255
0.18210784 0.08627451 0.37843137
0.46470588 0.084313725 0.38235294
0.71176471 0.08627451 0.38235294
0.81176471 0.094117647 0.38235294
0.082598039 0.23235294 0.37843137
0.18431373 0.23921569 0.38229167
0.46397059 0.23737745 0.38627451
0.71176471 0.23921569 0.38627451
0.80392157 0.24705882 0.38235294
0.08627451 0.47058824 0.3745098
0.17647059 0.47843137 0.38235294
0.46078431 0.47058824 0.38627451
0.71568627 0.4807598 0.38235294
0.8 0.46666667 0.38235294
0.090196078 0.68529412 0.38921569
0.18529412 0.68529412 0.38627451
0.47254902 0.69117647 0.38627451
0.70563725 0.68602941 0.38235294
0.79681373 0.69215686 0.38235294
0.08627451 0.80784314 0.38627451
0.17058824 0.81004902 0.38235294
0.45980392 0.79607843 0.38627451
0.70392157 0.79117647 0.38235294
0.79313725 0.79215686 0.37843137
0.090196078 0.084313725 0.51372549
0.17745098 0.1127451 0.50980392
0.46078431 0.08627451 0.51372549
0.70784314 0.091176471 0.51372549
0.79215686 0.094117647 0.50980392
0.090196078 0.24313725 0.50588235
0.19301471 0.23982843 0.50980392
0.46078431 0.23946078 0.50588235
0.70882353 0.23946078 0.50637255
0.80784314 0.24019608 0.51372549
0.08627451 0.47058824 0.50980392
0.17745098 0.47303922 0.51372549
0.45833333 0.4745098 0.5122549
0.71102941 0.47058824 0.51372549
0.8 0.47058824 0.50588235
0.090196078 0.68627451 0.5122549
0.18615196 0.68872549 0.50980392
0.46446078 0.68210784 0.51372549
0.71568627 0.69166667 0.52120098
0.80343137 0.68676471 0.50980392
0.090196078 0.80980392 0.51764706
0.18627451 0.80098039 0.50980392
0.47254902 0.79901961 0.50980392
0.71372549 0.80784314 0.51764706
0.80784314 0.80784314 0.51372549
0.090196078 0.090196078 0.62058824
0.17279412 0.086519608 0.62058824
0.46862745 0.08627451 0.61666667
0.71568627 0.094117647 0.62058824
0.81176471 0.08627451 0.6245098
0.08627451 0.24803922 0.61372549
0.17800245 0.24411765 0.61372549
0.47254902 0.23627451 0.61053922
0.70098039 0.23235294 0.61372549
0.79117647 0.23529412 0.61764706
0.08627451 0.47058824 0.61911765
0.17990196 0.47058824 0.61764706
0.45686275 0.46666667 0.61666667
0.70882353 0.4627451 0.61764706
0.79264706 0.475 0.61666667
0.098039216 0.68137255 0.62377451
0.17352941 0.68253676 0.62156863
0.45686275 0.6817402 0.62058824
0.70392157 0.67818627 0.61819853
0.81004902 0.68137255 0.62058824
0.098039216 0.80294118 0.6245098
0.19926471 0.8 0.62156863
0.47254902 0.80392157 0.61666667
0.71740196 0.80784314 0.6254902
0.79705882 0.77254902 0.62156863
0.08627451 0.08627451 0.70588235
0.17745098 0.08627451 0.70588235
0.4627451 0.082352941 0.70392157
0.70882353 0.090196078 0.67843137
0.80392157 0.08627451 0.70588235
0.090196078 0.24019608 0.70686275
0.17843137 0.23921569 0.70122549
0.46862745 0.23627451 0.69411765
0.7127451 0.23529412 0.69828431
0.81568627 0.23529412 0.70588235
0.090196078 0.47058824 0.66862745
0.18823529 0.4745098 0.70196078
0.46568627 0.46666667 0.70980392
0.70784314 0.47058824 0.70245098
0.80392157 0.47058824 0.70980392
0.08627451 0.68921569 0.70980392
0.17279412 0.69019608 0.71764706
0.46078431 0.67941176 0.70539216
0.70490196 0.68627451 0.70686275
0.8127451 0.69705882 0.71862745
0.08627451 0.81176471 0.71764706
0.16764706 0.80490196 0.71078431
0.46862745 0.81372549 0.71568627
0.71960784 0.81078431 0.71666667
0.81568627 0.81176471 0.71372549
