site/assets/luts/natron-haldclut--polaroid-px-680-cold---a0ca9c0b3.cube
# LUTr-Project: LUTr — LUTrepository
# LUTr-Schema-Version: 1
# LUTr-ID: natron-haldclut--polaroid-px-680-cold---a0ca9c0b3
# LUTr-Title: polaroid px-680 cold --
# LUTr-Collection: Natron HaldCLUT
# LUTr-Collection-ID: natron-haldclut-presets
# LUTr-Source: https://github.com/NatronGitHub/clut
# LUTr-Source-File: submissions/natron-haldclut-presets/instant_consumer/polaroid_px-680_cold_--.png
# LUTr-Source-Format: PNG
# LUTr-Source-SHA256: 1d77e9920931c953a6e63cc6223581fe42ce9730c8f369e914955277c82e012f
# LUTr-License: CC-BY-SA-4.0
# LUTr-License-URL: https://github.com/NatronGitHub/clut#license
# LUTr-Tags: creative, film, film-emulation, hald-clut, natron, png, cool, cube
# LUTr-Transform-Class: film-emulation
# LUTr-Input-Color-Space: srgb
# LUTr-Output-Color-Space: srgb
# LUTr-Color-Space-Confidence: assumed-display-referred
# LUTr-Conversion-Method: PNG LUT image decoded at 16-bit and sampled to 25x25x25 3D CUBE
# LUTr-Conversion-Date: 2026-07-27
# LUTr-Conversion-Tool: LUTr scripts/convert-all-to-cube.mjs
# LUTr-Conversion-Grid: 25x25x25
# LUTr-Note: Preserve this metadata and the upstream license notices when redistributing.
TITLE "polaroid px-680 cold --"
LUT_3D_SIZE 5
DOMAIN_MIN 0 0 0
DOMAIN_MAX 1 1 1
0 0 0
0.17058824 0.042156863 0.025490196
0.58039216 0.076470588 0.078431373
0.83823529 0.30490196 0.20490196
1 0.49411765 0.31764706
0.0039215686 0.21078431 0.095098039
0.11764706 0.2372549 0.07254902
0.58039216 0.27058824 0.067156863
0.82647059 0.38431373 0.19019608
0.98823529 0.53627451 0.31372549
0 0.49607843 0.22352941
0.00098039216 0.50539216 0.21568627
0.50294118 0.55686275 0.21960784
0.78235294 0.58039216 0.20784314
0.97647059 0.62352941 0.28039216
0.0039215686 0.70882353 0.29607843
0.0078431373 0.70122549 0.30294118
0.4127451 0.72647059 0.32254902
0.70661765 0.76691176 0.31862745
0.95098039 0.81862745 0.34215686
0.36862745 0.94117647 0.42745098
0.42647059 0.94117647 0.43137255
0.56666667 0.95098039 0.45686275
0.74803922 0.95784314 0.46666667
0.94901961 0.98431373 0.49803922
0 0.045098039 0.24215686
0.20490196 0.093382353 0.2625
0.58088235 0.14068627 0.30392157
0.82254902 0.3754902 0.37156863
0.99117647 0.55490196 0.4254902
0.0031862745 0.26789216 0.29313725
0.20808824 0.27886029 0.30269608
0.58529412 0.3432598 0.32267157
0.81862745 0.46176471 0.37095588
0.9872549 0.58137255 0.41666667
0.0034313725 0.51323529 0.32892157
0.13051471 0.51960784 0.33088235
0.52426471 0.56372549 0.33627451
0.78884804 0.59019608 0.33443627
0.97303922 0.64705882 0.37254902
0.0066176471 0.70098039 0.35196078
0.16789216 0.70490196 0.35686275
0.44460784 0.72855392 0.37156863
0.72469363 0.77230392 0.38039216
0.96151961 0.81862745 0.38921569
0.37254902 0.9372549 0.43921569
0.43235294 0.93651961 0.44632353
0.56960784 0.93921569 0.47156863
0.75098039 0.9502451 0.48063725
0.90588235 0.96470588 0.50196078
0.10196078 0.18823529 0.47254902
0.3745098 0.26960784 0.47058824
0.59607843 0.39509804 0.47647059
0.8 0.4004902 0.49411765
0.98627451 0.55294118 0.51764706
0.11960784 0.34117647 0.4745098
0.38431373 0.38529412 0.47843137
0.60833333 0.48823529 0.48627451
0.80931373 0.49558824 0.50245098
0.98137255 0.625 0.53970588
0.15294118 0.52156863 0.44607843
0.34019608 0.54117647 0.46495098
0.60490196 0.59656863 0.4877451
0.80686275 0.64656863 0.50245098
0.98235294 0.71078431 0.52941176
0.30784314 0.69117647 0.45147059
0.39963235 0.7067402 0.46066176
0.54044118 0.73504902 0.47058824
0.75330882 0.7814951 0.48627451
0.97058824 0.81470588 0.49509804
0.43529412 0.9254902 0.50392157
0.46470588 0.93186275 0.50147059
0.57843137 0.94019608 0.51470588
0.75833333 0.95539216 0.54754902
0.9372549 0.9745098 0.58431373
0.46372549 0.40392157 0.61862745
0.56568627 0.4497549 0.62254902
0.73088235 0.56666667 0.62254902
0.83259804 0.63823529 0.62622549
0.95196078 0.65686275 0.65392157
0.44803922 0.47156863 0.61470588
0.55257353 0.50459559 0.61764706
0.72855392 0.61237745 0.63026961
0.83805147 0.67665441 0.63823529
0.96372549 0.68627451 0.66151961
0.28921569 0.58333333 0.58088235
0.44019608 0.59938725 0.59816176
0.67303922 0.65612745 0.62107843
0.84607843 0.75784314 0.66176471
0.97598039 0.74901961 0.675
0.27720588 0.70098039 0.55
0.33786765 0.70471814 0.55098039
0.55943627 0.73406863 0.57634804
0.80294118 0.80686275 0.64411765
0.99117647 0.85980392 0.69607843
0.31666667 0.93137255 0.5872549
0.39117647 0.92622549 0.59313725
0.56666667 0.92598039 0.60588235
0.77254902 0.95416667 0.65098039
0.97647059 0.96960784 0.7254902
0.69019608 0.66666667 0.85098039
0.72058824 0.6745098 0.83627451
0.81960784 0.7372549 0.84901961
0.91862745 0.82156863 0.85490196
0.96470588 0.85882353 0.8627451
0.67941176 0.68921569 0.85882353
0.71593137 0.70171569 0.85392157
0.81176471 0.75245098 0.8504902
0.91470588 0.82941176 0.85196078
0.9754902 0.87352941 0.88137255
0.61372549 0.74117647 0.86862745
0.64313725 0.74215686 0.85833333
0.77156863 0.7754902 0.8627451
0.90686275 0.85245098 0.86617647
0.96078431 0.9 0.88431373
0.3754902 0.8254902 0.85882353
0.44019608 0.83284314 0.87132353
0.58039216 0.82941176 0.8872549
0.86151961 0.87647059 0.89803922
0.98137255 0.94313725 0.93235294
0.30980392 0.98039216 0.90980392
0.36666667 0.97745098 0.91176471
0.51176471 0.9745098 0.91372549
0.73235294 0.95392157 0.92156863
0.99215686 0.99215686 0.98823529
