site/assets/luts/natron-haldclut--kodak-tmax-3200--c6d62dc23.cube
# LUTr-Project: LUTr — LUTrepository
# LUTr-Schema-Version: 1
# LUTr-ID: natron-haldclut--kodak-tmax-3200--c6d62dc23
# LUTr-Title: kodak tmax 3200 ++
# LUTr-Collection: Natron HaldCLUT
# LUTr-Collection-ID: natron-haldclut-presets
# LUTr-Source: https://github.com/NatronGitHub/clut
# LUTr-Source-File: submissions/natron-haldclut-presets/negative_new/kodak_tmax_3200_++.png
# LUTr-Source-Format: PNG
# LUTr-Source-SHA256: ef0fd1aa35fbf81fffe7f9a64e19371c91102ae80d2f4e4ee7f41df27090dc1e
# LUTr-License: CC-BY-SA-4.0
# LUTr-License-URL: https://github.com/NatronGitHub/clut#license
# LUTr-Tags: creative, film, film-emulation, hald-clut, natron, png, cube
# LUTr-Transform-Class: film-emulation
# LUTr-Input-Color-Space: srgb
# LUTr-Output-Color-Space: srgb
# LUTr-Color-Space-Confidence: assumed-display-referred
# LUTr-Conversion-Method: PNG LUT image decoded at 16-bit and sampled to 25x25x25 3D CUBE
# LUTr-Conversion-Date: 2026-07-27
# LUTr-Conversion-Tool: LUTr scripts/convert-all-to-cube.mjs
# LUTr-Conversion-Grid: 25x25x25
# LUTr-Note: Preserve this metadata and the upstream license notices when redistributing.
TITLE "kodak tmax 3200 ++"
LUT_3D_SIZE 25
DOMAIN_MIN 0 0 0
DOMAIN_MAX 1 1 1
0.29411765 0.29411765 0.29411765
0.29411765 0.29411765 0.29411765
0.29803922 0.29803922 0.29803922
0.29803922 0.29803922 0.29803922
0.29803922 0.29803922 0.29803922
0.29803922 0.29803922 0.29803922
0.29803922 0.29803922 0.29803922
0.29803922 0.29803922 0.29803922
0.30196078 0.30196078 0.30196078
0.30588235 0.30588235 0.30588235
0.30980392 0.30980392 0.30980392
0.31372549 0.31372549 0.31372549
0.31764706 0.31764706 0.31764706
0.32156863 0.32156863 0.32156863
0.3254902 0.3254902 0.3254902
0.32941176 0.32941176 0.32941176
0.33333333 0.33333333 0.33333333
0.3372549 0.3372549 0.3372549
0.34117647 0.34117647 0.34117647
0.34509804 0.34509804 0.34509804
0.34901961 0.34901961 0.34901961
0.35294118 0.35294118 0.35294118
0.35588235 0.35588235 0.35588235
0.35686275 0.35686275 0.35686275
0.35686275 0.35686275 0.35686275
0.29411765 0.29411765 0.29411765
0.29411765 0.29411765 0.29411765
0.29803922 0.29803922 0.29803922
0.29803922 0.29803922 0.29803922
0.29803922 0.29803922 0.29803922
0.29803922 0.29803922 0.29803922
0.29803922 0.29803922 0.29803922
0.29803922 0.29803922 0.29803922
0.30196078 0.30196078 0.30196078
0.30588235 0.30588235 0.30588235
0.30980392 0.30980392 0.30980392
0.31372549 0.31372549 0.31372549
0.31764706 0.31764706 0.31764706
0.32156863 0.32156863 0.32156863
0.3254902 0.3254902 0.3254902
0.32941176 0.32941176 0.32941176
0.33333333 0.33333333 0.33333333
0.3372549 0.3372549 0.3372549
0.34215686 0.34215686 0.34215686
0.34724265 0.34724265 0.34724265
0.35220588 0.35220588 0.35220588
0.35980392 0.35980392 0.35980392
0.36507353 0.36507353 0.36507353
0.36715686 0.36715686 0.36715686
0.36715686 0.36715686 0.36715686
0.29411765 0.29411765 0.29411765
0.29473039 0.29473039 0.29473039
0.29803922 0.29803922 0.29803922
0.29901961 0.29901961 0.29901961
0.29901961 0.29901961 0.29901961
0.29901961 0.29901961 0.29901961
0.29901961 0.29901961 0.29901961
0.29901961 0.29901961 0.29901961
0.30294118 0.30294118 0.30294118
0.30870098 0.30870098 0.30870098
0.31372549 0.31372549 0.31372549
0.31727941 0.31727941 0.31727941
0.32009804 0.32009804 0.32009804
0.32291667 0.32291667 0.32291667
0.32622549 0.32622549 0.32622549
0.33088235 0.33088235 0.33088235
0.33431373 0.33431373 0.33431373
0.34068627 0.34068627 0.34068627
0.34705882 0.34705882 0.34705882
0.35343137 0.35343137 0.35343137
0.35980392 0.35980392 0.35980392
0.36960784 0.36960784 0.36960784
0.37647059 0.37647059 0.37647059
0.37843137 0.37843137 0.37843137
0.38137255 0.38137255 0.38137255
0.29754902 0.29754902 0.29754902
0.30018382 0.30018382 0.30018382
0.30281863 0.30281863 0.30281863
0.30539216 0.30539216 0.30539216
0.30588235 0.30588235 0.30588235
0.30931373 0.30931373 0.30931373
0.30931373 0.30931373 0.30931373
0.30931373 0.30931373 0.30931373
0.31323529 0.31323529 0.31323529
0.3158701 0.3158701 0.3158701
0.3185049 0.3185049 0.3185049
0.32150735 0.32150735 0.32150735
0.3252451 0.3252451 0.3252451
0.32898284 0.32898284 0.32898284
0.33284314 0.33284314 0.33284314
0.33805147 0.33805147 0.33805147
0.34460784 0.34460784 0.34460784
0.34852941 0.34852941 0.34852941
0.35637255 0.35637255 0.35637255
0.36372549 0.36372549 0.36372549
0.37009804 0.37009804 0.37009804
0.37990196 0.37990196 0.37990196
0.38676471 0.38676471 0.38676471
0.39166667 0.39166667 0.39166667
0.39509804 0.39509804 0.39509804
0.30784314 0.30784314 0.30784314
0.30784314 0.30784314 0.30784314
0.31176471 0.31176471 0.31176471
0.31348039 0.31348039 0.31348039
0.31568627 0.31568627 0.31568627
0.31568627 0.31568627 0.31568627
0.31568627 0.31568627 0.31568627
0.31838235 0.31838235 0.31838235
0.31960784 0.31960784 0.31960784
0.32352941 0.32352941 0.32352941
0.32745098 0.32745098 0.32745098
0.33112745 0.33112745 0.33112745
0.33431373 0.33431373 0.33431373
0.33921569 0.33921569 0.33921569
0.34313725 0.34313725 0.34313725
0.3504902 0.3504902 0.3504902
0.35686275 0.35686275 0.35686275
0.3620098 0.3620098 0.3620098
0.36764706 0.36764706 0.36764706
0.37426471 0.37426471 0.37426471
0.38431373 0.38431373 0.38431373
0.39068627 0.39068627 0.39068627
0.39754902 0.39754902 0.39754902
0.40661765 0.40661765 0.40661765
0.40784314 0.40784314 0.40784314
0.31813725 0.31813725 0.31813725
0.31813725 0.31813725 0.31813725
0.31911765 0.31911765 0.31911765
0.32205882 0.32205882 0.32205882
0.32377451 0.32377451 0.32377451
0.32555147 0.32555147 0.32555147
0.32598039 0.32598039 0.32598039
0.32598039 0.32598039 0.32598039
0.32941176 0.32941176 0.32941176
0.33204657 0.33204657 0.33204657
0.33468137 0.33468137 0.33468137
0.3377451 0.3377451 0.3377451
0.34362745 0.34362745 0.34362745
0.35 0.35 0.35
0.35686275 0.35686275 0.35686275
0.36697304 0.36697304 0.36697304
0.37303922 0.37303922 0.37303922
0.37726716 0.37726716 0.37726716
0.38223039 0.38223039 0.38223039
0.38829657 0.38829657 0.38829657
0.39509804 0.39509804 0.39509804
0.40490196 0.40490196 0.40490196
0.41262255 0.41262255 0.41262255
0.42224265 0.42224265 0.42224265
0.42892157 0.42892157 0.42892157
0.32843137 0.32843137 0.32843137
0.32843137 0.32843137 0.32843137
0.32843137 0.32843137 0.32843137
0.33198529 0.33198529 0.33198529
0.33235294 0.33235294 0.33235294
0.33235294 0.33235294 0.33235294
0.33235294 0.33235294 0.33235294
0.33333333 0.33333333 0.33333333
0.33627451 0.33627451 0.33627451
0.33909314 0.33909314 0.33909314
0.34411765 0.34411765 0.34411765
0.34803922 0.34803922 0.34803922
0.35686275 0.35686275 0.35686275
0.36421569 0.36421569 0.36421569
0.37377451 0.37377451 0.37377451
0.38382353 0.38382353 0.38382353
0.39019608 0.39019608 0.39019608
0.39301471 0.39301471 0.39301471
0.39828431 0.39828431 0.39828431
0.40281863 0.40281863 0.40281863
0.40882353 0.40882353 0.40882353
0.41911765 0.41911765 0.41911765
0.43161765 0.43161765 0.43161765
0.44767157 0.44767157 0.44767157
0.45588235 0.45588235 0.45588235
0.33872549 0.33872549 0.33872549
0.33872549 0.33872549 0.33872549
0.33872549 0.33872549 0.33872549
0.33872549 0.33872549 0.33872549
0.33872549 0.33872549 0.33872549
0.33903186 0.33903186 0.33903186
0.34117647 0.34117647 0.34117647
0.34172794 0.34172794 0.34172794
0.34264706 0.34264706 0.34264706
0.34656863 0.34656863 0.34656863
0.35477941 0.35477941 0.35477941
0.36194853 0.36194853 0.36194853
0.37205882 0.37205882 0.37205882
0.38235294 0.38235294 0.38235294
0.39019608 0.39019608 0.39019608
0.39993873 0.39993873 0.39993873
0.40686275 0.40686275 0.40686275
0.41078431 0.41078431 0.41078431
0.41568627 0.41568627 0.41568627
0.42205882 0.42205882 0.42205882
0.42720588 0.42720588 0.42720588
0.44019608 0.44019608 0.44019608
0.45625 0.45625 0.45625
0.47346814 0.47346814 0.47346814
0.48529412 0.48529412 0.48529412
0.34901961 0.34901961 0.34901961
0.34901961 0.34901961 0.34901961
0.34901961 0.34901961 0.34901961
0.34901961 0.34901961 0.34901961
0.34901961 0.34901961 0.34901961
0.34901961 0.34901961 0.34901961
0.34901961 0.34901961 0.34901961
0.34901961 0.34901961 0.34901961
0.35294118 0.35294118 0.35294118
0.35931373 0.35931373 0.35931373
0.36960784 0.36960784 0.36960784
0.37990196 0.37990196 0.37990196
0.39019608 0.39019608 0.39019608
0.4004902 0.4004902 0.4004902
0.41078431 0.41078431 0.41078431
0.41715686 0.41715686 0.41715686
0.42745098 0.42745098 0.42745098
0.43382353 0.43382353 0.43382353
0.44019608 0.44019608 0.44019608
0.4504902 0.4504902 0.4504902
0.4627451 0.4627451 0.4627451
0.47941176 0.47941176 0.47941176
0.49313725 0.49313725 0.49313725
0.50343137 0.50343137 0.50343137
0.51372549 0.51372549 0.51372549
0.36176471 0.36176471 0.36176471
0.35931373 0.35931373 0.35931373
0.35931373 0.35931373 0.35931373
0.35588235 0.35588235 0.35588235
0.35931373 0.35931373 0.35931373
0.3596201 0.3596201 0.3596201
0.36176471 0.36176471 0.36176471
0.36323529 0.36323529 0.36323529
0.36960784 0.36960784 0.36960784
0.37653186 0.37653186 0.37653186
0.38627451 0.38627451 0.38627451
0.39656863 0.39656863 0.39656863
0.40686275 0.40686275 0.40686275
0.41715686 0.41715686 0.41715686
0.42745098 0.42745098 0.42745098
0.4377451 0.4377451 0.4377451
0.44803922 0.44803922 0.44803922
0.46078431 0.46078431 0.46078431
0.47352941 0.47352941 0.47352941
0.48743873 0.48743873 0.48743873
0.50073529 0.50073529 0.50073529
0.52058824 0.52058824 0.52058824
0.54007353 0.54007353 0.54007353
0.55098039 0.55098039 0.55098039
0.55735294 0.55735294 0.55735294
0.37843137 0.37843137 0.37843137
0.37843137 0.37843137 0.37843137
0.3745098 0.3745098 0.3745098
0.3745098 0.3745098 0.3745098
0.37843137 0.37843137 0.37843137
0.37855392 0.37855392 0.37855392
0.38235294 0.38235294 0.38235294
0.38627451 0.38627451 0.38627451
0.39019608 0.39019608 0.39019608
0.39865196 0.39865196 0.39865196
0.40686275 0.40686275 0.40686275
0.41715686 0.41715686 0.41715686
0.42696078 0.42696078 0.42696078
0.43676471 0.43676471 0.43676471
0.44411765 0.44411765 0.44411765
0.45833333 0.45833333 0.45833333
0.47352941 0.47352941 0.47352941
0.49411765 0.49411765 0.49411765
0.51151961 0.51151961 0.51151961
0.525 0.525 0.525
0.53921569 0.53921569 0.53921569
0.56176471 0.56176471 0.56176471
0.58529412 0.58529412 0.58529412
0.60281863 0.60281863 0.60281863
0.6127451 0.6127451 0.6127451
0.39901961 0.39901961 0.39901961
0.39528186 0.39528186 0.39528186
0.39509804 0.39509804 0.39509804
0.39509804 0.39509804 0.39509804
0.39901961 0.39901961 0.39901961
0.40251225 0.40251225 0.40251225
0.40551471 0.40551471 0.40551471
0.40833333 0.40833333 0.40833333
0.41470588 0.41470588 0.41470588
0.42107843 0.42107843 0.42107843
0.42745098 0.42745098 0.42745098
0.4377451 0.4377451 0.4377451
0.44411765 0.44411765 0.44411765
0.45441176 0.45441176 0.45441176
0.46470588 0.46470588 0.46470588
0.48039216 0.48039216 0.48039216
0.50098039 0.50098039 0.50098039
0.525 0.525 0.525
0.54558824 0.54558824 0.54558824
0.56268382 0.56268382 0.56268382
0.57843137 0.57843137 0.57843137
0.59993873 0.59993873 0.59993873
0.62732843 0.62732843 0.62732843
0.65196078 0.65196078 0.65196078
0.66421569 0.66421569 0.66421569
0.41568627 0.41568627 0.41568627
0.41568627 0.41568627 0.41568627
0.41568627 0.41568627 0.41568627
0.41911765 0.41911765 0.41911765
0.41960784 0.41960784 0.41960784
0.42352941 0.42352941 0.42352941
0.42745098 0.42745098 0.42745098
0.43137255 0.43137255 0.43137255
0.43529412 0.43529412 0.43529412
0.44313725 0.44313725 0.44313725
0.45196078 0.45196078 0.45196078
0.45833333 0.45833333 0.45833333
0.46470588 0.46470588 0.46470588
0.46911765 0.46911765 0.46911765
0.48431373 0.48431373 0.48431373
0.50759804 0.50759804 0.50759804
0.53137255 0.53137255 0.53137255
0.55196078 0.55196078 0.55196078
0.57303922 0.57303922 0.57303922
0.59705882 0.59705882 0.59705882
0.61862745 0.61862745 0.61862745
0.64240196 0.64240196 0.64240196
0.66813725 0.66813725 0.66813725
0.69583333 0.69583333 0.69583333
0.71568627 0.71568627 0.71568627
0.43627451 0.43627451 0.43627451
0.43627451 0.43627451 0.43627451
0.43762255 0.43762255 0.43762255
0.440625 0.440625 0.440625
0.44411765 0.44411765 0.44411765
0.44503676 0.44503676 0.44503676
0.44803922 0.44803922 0.44803922
0.45343137 0.45343137 0.45343137
0.45980392 0.45980392 0.45980392
0.46617647 0.46617647 0.46617647
0.47561275 0.47561275 0.47561275
0.48333333 0.48333333 0.48333333
0.48970588 0.48970588 0.48970588
0.49656863 0.49656863 0.49656863
0.51323529 0.51323529 0.51323529
0.5377451 0.5377451 0.5377451
0.55833333 0.55833333 0.55833333
0.58284314 0.58284314 0.58284314
0.60343137 0.60343137 0.60343137
0.62702206 0.62702206 0.62702206
0.64852941 0.64852941 0.64852941
0.67303922 0.67303922 0.67303922
0.7004902 0.7004902 0.7004902
0.72959559 0.72959559 0.72959559
0.75 0.75 0.75
0.4627451 0.4627451 0.4627451
0.46335784 0.46335784 0.46335784
0.46397059 0.46397059 0.46397059
0.46764706 0.46764706 0.46764706
0.47156863 0.47156863 0.47156863
0.47156863 0.47156863 0.47156863
0.47230392 0.47230392 0.47230392
0.47585784 0.47585784 0.47585784
0.48039216 0.48039216 0.48039216
0.48970588 0.48970588 0.48970588
0.50392157 0.50392157 0.50392157
0.51678922 0.51678922 0.51678922
0.52745098 0.52745098 0.52745098
0.5377451 0.5377451 0.5377451
0.54877451 0.54877451 0.54877451
0.56862745 0.56862745 0.56862745
0.58921569 0.58921569 0.58921569
0.61041667 0.61041667 0.61041667
0.63431373 0.63431373 0.63431373
0.65490196 0.65490196 0.65490196
0.6754902 0.6754902 0.6754902
0.70012255 0.70012255 0.70012255
0.72745098 0.72745098 0.72745098
0.75392157 0.75392157 0.75392157
0.76764706 0.76764706 0.76764706
0.50539216 0.50539216 0.50539216
0.50539216 0.50539216 0.50539216
0.50539216 0.50539216 0.50539216
0.50784314 0.50784314 0.50784314
0.50784314 0.50784314 0.50784314
0.50784314 0.50784314 0.50784314
0.50784314 0.50784314 0.50784314
0.51023284 0.51023284 0.51023284
0.51323529 0.51323529 0.51323529
0.5245098 0.5245098 0.5245098
0.53909314 0.53909314 0.53909314
0.55422794 0.55422794 0.55422794
0.56862745 0.56862745 0.56862745
0.57892157 0.57892157 0.57892157
0.58921569 0.58921569 0.58921569
0.60042892 0.60042892 0.60042892
0.62009804 0.62009804 0.62009804
0.64068627 0.64068627 0.64068627
0.6622549 0.6622549 0.6622549
0.68578431 0.68578431 0.68578431
0.70637255 0.70637255 0.70637255
0.72696078 0.72696078 0.72696078
0.75 0.75 0.75
0.77058824 0.77058824 0.77058824
0.7872549 0.7872549 0.7872549
0.55294118 0.55294118 0.55294118
0.55294118 0.55294118 0.55294118
0.55294118 0.55294118 0.55294118
0.55686275 0.55686275 0.55686275
0.55686275 0.55686275 0.55686275
0.55686275 0.55686275 0.55686275
0.55686275 0.55686275 0.55686275
0.55833333 0.55833333 0.55833333
0.56078431 0.56078431 0.56078431
0.56715686 0.56715686 0.56715686
0.57843137 0.57843137 0.57843137
0.59166667 0.59166667 0.59166667
0.60588235 0.60588235 0.60588235
0.62009804 0.62009804 0.62009804
0.62647059 0.62647059 0.62647059
0.63676471 0.63676471 0.63676471
0.65098039 0.65098039 0.65098039
0.67156863 0.67156863 0.67156863
0.69313725 0.69313725 0.69313725
0.71666667 0.71666667 0.71666667
0.73529412 0.73529412 0.73529412
0.75392157 0.75392157 0.75392157
0.7745098 0.7745098 0.7745098
0.79362745 0.79362745 0.79362745
0.80784314 0.80784314 0.80784314
0.6004902 0.6004902 0.6004902
0.6004902 0.6004902 0.6004902
0.60257353 0.60257353 0.60257353
0.60441176 0.60441176 0.60441176
0.60710784 0.60710784 0.60710784
0.60833333 0.60833333 0.60833333
0.60833333 0.60833333 0.60833333
0.60833333 0.60833333 0.60833333
0.60980392 0.60980392 0.60980392
0.61317402 0.61317402 0.61317402
0.62144608 0.62144608 0.62144608
0.63284314 0.63284314 0.63284314
0.64705882 0.64705882 0.64705882
0.65735294 0.65735294 0.65735294
0.66580882 0.66580882 0.66580882
0.67401961 0.67401961 0.67401961
0.68578431 0.68578431 0.68578431
0.70245098 0.70245098 0.70245098
0.72696078 0.72696078 0.72696078
0.74381127 0.74381127 0.74381127
0.76421569 0.76421569 0.76421569
0.78088235 0.78088235 0.78088235
0.79963235 0.79963235 0.79963235
0.81813725 0.81813725 0.81813725
0.83480392 0.83480392 0.83480392
0.64803922 0.64803922 0.64803922
0.64803922 0.64803922 0.64803922
0.65196078 0.65196078 0.65196078
0.6557598 0.6557598 0.6557598
0.65588235 0.65588235 0.65588235
0.65588235 0.65588235 0.65588235
0.65588235 0.65588235 0.65588235
0.65588235 0.65588235 0.65588235
0.65980392 0.65980392 0.65980392
0.66164216 0.66164216 0.66164216
0.66691176 0.66691176 0.66691176
0.67401961 0.67401961 0.67401961
0.68627451 0.68627451 0.68627451
0.69803922 0.69803922 0.69803922
0.70490196 0.70490196 0.70490196
0.71127451 0.71127451 0.71127451
0.72156863 0.72156863 0.72156863
0.7372549 0.7372549 0.7372549
0.75392157 0.75392157 0.75392157
0.7745098 0.7745098 0.7745098
0.79117647 0.79117647 0.79117647
0.80784314 0.80784314 0.80784314
0.82745098 0.82745098 0.82745098
0.84473039 0.84473039 0.84473039
0.86176471 0.86176471 0.86176471
0.69558824 0.69558824 0.69558824
0.69822304 0.69822304 0.69822304
0.7 0.7 0.7
0.70343137 0.70343137 0.70343137
0.70343137 0.70343137 0.70343137
0.70343137 0.70343137 0.70343137
0.70343137 0.70343137 0.70343137
0.7036152 0.7036152 0.7036152
0.70735294 0.70735294 0.70735294
0.71127451 0.71127451 0.71127451
0.71176471 0.71176471 0.71176471
0.71911765 0.71911765 0.71911765
0.7254902 0.7254902 0.7254902
0.73578431 0.73578431 0.73578431
0.74227941 0.74227941 0.74227941
0.74883578 0.74883578 0.74883578
0.75882353 0.75882353 0.75882353
0.77175245 0.77175245 0.77175245
0.78480392 0.78480392 0.78480392
0.80153186 0.80153186 0.80153186
0.81666667 0.81666667 0.81666667
0.834375 0.834375 0.834375
0.84901961 0.84901961 0.84901961
0.86734069 0.86734069 0.86734069
0.87794118 0.87794118 0.87794118
0.74117647 0.74117647 0.74117647
0.74313725 0.74313725 0.74313725
0.74509804 0.74509804 0.74509804
0.74705882 0.74705882 0.74705882
0.74901961 0.74901961 0.74901961
0.74901961 0.74901961 0.74901961
0.74901961 0.74901961 0.74901961
0.7497549 0.7497549 0.7497549
0.75294118 0.75294118 0.75294118
0.75612745 0.75612745 0.75612745
0.75686275 0.75686275 0.75686275
0.76029412 0.76029412 0.76029412
0.76666667 0.76666667 0.76666667
0.7747549 0.7747549 0.7747549
0.77990196 0.77990196 0.77990196
0.78382353 0.78382353 0.78382353
0.79411765 0.79411765 0.79411765
0.80441176 0.80441176 0.80441176
0.8122549 0.8122549 0.8122549
0.82303922 0.82303922 0.82303922
0.83921569 0.83921569 0.83921569
0.85539216 0.85539216 0.85539216
0.86960784 0.86960784 0.86960784
0.88455882 0.88455882 0.88455882
0.89215686 0.89215686 0.89215686
0.78676471 0.78676471 0.78676471
0.78890931 0.78890931 0.78890931
0.79019608 0.79019608 0.79019608
0.79019608 0.79019608 0.79019608
0.79019608 0.79019608 0.79019608
0.7911152 0.7911152 0.7911152
0.79411765 0.79411765 0.79411765
0.79430147 0.79430147 0.79430147
0.79803922 0.79803922 0.79803922
0.79803922 0.79803922 0.79803922
0.79803922 0.79803922 0.79803922
0.80196078 0.80196078 0.80196078
0.80588235 0.80588235 0.80588235
0.81023284 0.81023284 0.81023284
0.81372549 0.81372549 0.81372549
0.81893382 0.81893382 0.81893382
0.8254902 0.8254902 0.8254902
0.83529412 0.83529412 0.83529412
0.84068627 0.84068627 0.84068627
0.84761029 0.84761029 0.84761029
0.86004902 0.86004902 0.86004902
0.87647059 0.87647059 0.87647059
0.89019608 0.89019608 0.89019608
0.9026348 0.9026348 0.9026348
0.90637255 0.90637255 0.90637255
0.83137255 0.83137255 0.83137255
0.83137255 0.83137255 0.83137255
0.83137255 0.83137255 0.83137255
0.83137255 0.83137255 0.83137255
0.83333333 0.83333333 0.83333333
0.83566176 0.83566176 0.83566176
0.83823529 0.83823529 0.83823529
0.83921569 0.83921569 0.83921569
0.83921569 0.83921569 0.83921569
0.83921569 0.83921569 0.83921569
0.83921569 0.83921569 0.83921569
0.84007353 0.84007353 0.84007353
0.84362745 0.84362745 0.84362745
0.84803922 0.84803922 0.84803922
0.84803922 0.84803922 0.84803922
0.85343137 0.85343137 0.85343137
0.85980392 0.85980392 0.85980392
0.86764706 0.86764706 0.86764706
0.86862745 0.86862745 0.86862745
0.875 0.875 0.875
0.88382353 0.88382353 0.88382353
0.89705882 0.89705882 0.89705882
0.91372549 0.91372549 0.91372549
0.91997549 0.91997549 0.91997549
0.92058824 0.92058824 0.92058824
0.87254902 0.87254902 0.87254902
0.87254902 0.87254902 0.87254902
0.87107843 0.87107843 0.87107843
0.87107843 0.87107843 0.87107843
0.87107843 0.87107843 0.87107843
0.87383578 0.87383578 0.87383578
0.87818627 0.87818627 0.87818627
0.87745098 0.87745098 0.87745098
0.875 0.875 0.875
0.875 0.875 0.875
0.87536765 0.87536765 0.87536765
0.87892157 0.87892157 0.87892157
0.88039216 0.88039216 0.88039216
0.88284314 0.88284314 0.88284314
0.88284314 0.88284314 0.88284314
0.88431373 0.88431373 0.88431373
0.89313725 0.89313725 0.89313725
0.89460784 0.89460784 0.89460784
0.89522059 0.89522059 0.89522059
0.90196078 0.90196078 0.90196078
0.91078431 0.91078431 0.91078431
0.92107843 0.92107843 0.92107843
0.93529412 0.93529412 0.93529412
0.93872549 0.93872549 0.93872549
0.93627451 0.93627451 0.93627451
0.91372549 0.91372549 0.91372549
0.90343137 0.90343137 0.90343137
0.89705882 0.89705882 0.89705882
0.89068627 0.89068627 0.89068627
0.88627451 0.88627451 0.88627451
0.88235294 0.88235294 0.88235294
0.87941176 0.87941176 0.87941176
0.88235294 0.88235294 0.88235294
0.88627451 0.88627451 0.88627451
0.89264706 0.89264706 0.89264706
0.89901961 0.89901961 0.89901961
0.90588235 0.90588235 0.90588235
0.90980392 0.90980392 0.90980392
0.90588235 0.90588235 0.90588235
0.90588235 0.90588235 0.90588235
0.90980392 0.90980392 0.90980392
0.91764706 0.91764706 0.91764706
0.91764706 0.91764706 0.91764706
0.91764706 0.91764706 0.91764706
0.92156863 0.92156863 0.92156863
0.93137255 0.93137255 0.93137255
0.94166667 0.94166667 0.94166667
0.95294118 0.95294118 0.95294118
0.94901961 0.94901961 0.94901961
0.94901961 0.94901961 0.94901961
0.29411765 0.29411765 0.29411765
0.29803922 0.29803922 0.29803922
0.29803922 0.29803922 0.29803922
0.29803922 0.29803922 0.29803922
0.29803922 0.29803922 0.29803922
0.29803922 0.29803922 0.29803922
0.29803922 0.29803922 0.29803922
0.30104167 0.30104167 0.30104167
0.30196078 0.30196078 0.30196078
0.30588235 0.30588235 0.30588235
0.30980392 0.30980392 0.30980392
0.31372549 0.31372549 0.31372549
0.31764706 0.31764706 0.31764706
0.32156863 0.32156863 0.32156863
0.3254902 0.3254902 0.3254902
0.32941176 0.32941176 0.32941176
0.33333333 0.33333333 0.33333333
0.3372549 0.3372549 0.3372549
0.34178922 0.34178922 0.34178922
0.34509804 0.34509804 0.34509804
0.34901961 0.34901961 0.34901961
0.35343137 0.35343137 0.35343137
0.35870098 0.35870098 0.35870098
0.3598652 0.3598652 0.3598652
0.36078431 0.36078431 0.36078431
0.29411765 0.29411765 0.29411765
0.29803922 0.29803922 0.29803922
0.29803922 0.29803922 0.29803922
0.29803922 0.29803922 0.29803922
0.29803922 0.29803922 0.29803922
0.29803922 0.29803922 0.29803922
0.29803922 0.29803922 0.29803922
0.30104167 0.30104167 0.30104167
0.30196078 0.30196078 0.30196078
0.30588235 0.30588235 0.30588235
0.31018689 0.31018689 0.31018689
0.31372549 0.31372549 0.31372549
0.31764706 0.31764706 0.31764706
0.32156863 0.32156863 0.32156863
0.3254902 0.3254902 0.3254902
0.32941176 0.32941176 0.32941176
0.33333333 0.33333333 0.33333333
0.3372549 0.3372549 0.3372549
0.34215686 0.34215686 0.34215686
0.34804687 0.34804687 0.34804687
0.35389093 0.35389093 0.35389093
0.35980392 0.35980392 0.35980392
0.36617647 0.36617647 0.36617647
0.36715686 0.36715686 0.36715686
0.36960784 0.36960784 0.36960784
0.29473039 0.29473039 0.29473039
0.29803922 0.29803922 0.29803922
0.29874387 0.29874387 0.29874387
0.30182292 0.30182292 0.30182292
0.30196078 0.30196078 0.30196078
0.30257353 0.30257353 0.30257353
0.30257353 0.30257353 0.30257353
0.3027114 0.3027114 0.3027114
0.3064951 0.3064951 0.3064951
0.30977328 0.30977328 0.30977328
0.31387868 0.31387868 0.31387868
0.31727941 0.31727941 0.31727941
0.32009804 0.32009804 0.32009804
0.32291667 0.32291667 0.32291667
0.32622549 0.32622549 0.32622549
0.32977941 0.32977941 0.32977941
0.33431373 0.33431373 0.33431373
0.34068627 0.34068627 0.34068627
0.34705882 0.34705882 0.34705882
0.35379902 0.35379902 0.35379902
0.36158088 0.36158088 0.36158088
0.36983762 0.36983762 0.36983762
0.37647059 0.37647059 0.37647059
0.38137255 0.38137255 0.38137255
0.38137255 0.38137255 0.38137255
