site/assets/luts/natron-haldclut--kodak-tmax-3200--82e5cfc21.cube
# LUTr-Project: LUTr — LUTrepository
# LUTr-Schema-Version: 1
# LUTr-ID: natron-haldclut--kodak-tmax-3200--82e5cfc21
# LUTr-Title: kodak tmax 3200 +
# LUTr-Collection: Natron HaldCLUT
# LUTr-Collection-ID: natron-haldclut-presets
# LUTr-Source: https://github.com/NatronGitHub/clut
# LUTr-Source-File: submissions/natron-haldclut-presets/negative_new/kodak_tmax_3200_+.png
# LUTr-Source-Format: PNG
# LUTr-Source-SHA256: 46de86d37a368d2267e25f525d769b105e97f29d3c4b14ecbc751f723bd61273
# LUTr-License: CC-BY-SA-4.0
# LUTr-License-URL: https://github.com/NatronGitHub/clut#license
# LUTr-Tags: creative, film, film-emulation, hald-clut, natron, png, cube
# LUTr-Transform-Class: film-emulation
# LUTr-Input-Color-Space: srgb
# LUTr-Output-Color-Space: srgb
# LUTr-Color-Space-Confidence: assumed-display-referred
# LUTr-Conversion-Method: PNG LUT image decoded at 16-bit and sampled to 25x25x25 3D CUBE
# LUTr-Conversion-Date: 2026-07-27
# LUTr-Conversion-Tool: LUTr scripts/convert-all-to-cube.mjs
# LUTr-Conversion-Grid: 25x25x25
# LUTr-Note: Preserve this metadata and the upstream license notices when redistributing.
TITLE "kodak tmax 3200 +"
LUT_3D_SIZE 25
DOMAIN_MIN 0 0 0
DOMAIN_MAX 1 1 1
0.22352941 0.22352941 0.22352941
0.22352941 0.22352941 0.22352941
0.22352941 0.22352941 0.22352941
0.22352941 0.22352941 0.22352941
0.22352941 0.22352941 0.22352941
0.21960784 0.21960784 0.21960784
0.21960784 0.21960784 0.21960784
0.225 0.225 0.225
0.22745098 0.22745098 0.22745098
0.23137255 0.23137255 0.23137255
0.23529412 0.23529412 0.23529412
0.23921569 0.23921569 0.23921569
0.24313725 0.24313725 0.24313725
0.24705882 0.24705882 0.24705882
0.25 0.25 0.25
0.26029412 0.26029412 0.26029412
0.27058824 0.27058824 0.27058824
0.28088235 0.28088235 0.28088235
0.29117647 0.29117647 0.29117647
0.29803922 0.29803922 0.29803922
0.30784314 0.30784314 0.30784314
0.31764706 0.31764706 0.31764706
0.32156863 0.32156863 0.32156863
0.32156863 0.32156863 0.32156863
0.32156863 0.32156863 0.32156863
0.22352941 0.22352941 0.22352941
0.22352941 0.22352941 0.22352941
0.22352941 0.22352941 0.22352941
0.22352941 0.22352941 0.22352941
0.22352941 0.22352941 0.22352941
0.21960784 0.21960784 0.21960784
0.22144608 0.22144608 0.22144608
0.22653186 0.22653186 0.22653186
0.23137255 0.23137255 0.23137255
0.23474265 0.23474265 0.23474265
0.23982843 0.23982843 0.23982843
0.24509804 0.24509804 0.24509804
0.24828431 0.24828431 0.24828431
0.25343137 0.25343137 0.25343137
0.25735294 0.25735294 0.25735294
0.2627451 0.2627451 0.2627451
0.27058824 0.27058824 0.27058824
0.28088235 0.28088235 0.28088235
0.29117647 0.29117647 0.29117647
0.30147059 0.30147059 0.30147059
0.30784314 0.30784314 0.30784314
0.31795343 0.31795343 0.31795343
0.32156863 0.32156863 0.32156863
0.32156863 0.32156863 0.32156863
0.32156863 0.32156863 0.32156863
0.22352941 0.22352941 0.22352941
0.22352941 0.22352941 0.22352941
0.2245098 0.2245098 0.2245098
0.22745098 0.22745098 0.22745098
0.22745098 0.22745098 0.22745098
0.22843137 0.22843137 0.22843137
0.22843137 0.22843137 0.22843137
0.23382353 0.23382353 0.23382353
0.24019608 0.24019608 0.24019608
0.24375 0.24375 0.24375
0.24803922 0.24803922 0.24803922
0.25196078 0.25196078 0.25196078
0.25784314 0.25784314 0.25784314
0.26372549 0.26372549 0.26372549
0.26666667 0.26666667 0.26666667
0.27156863 0.27156863 0.27156863
0.27941176 0.27941176 0.27941176
0.28872549 0.28872549 0.28872549
0.29901961 0.29901961 0.29901961
0.30637255 0.30637255 0.30637255
0.31078431 0.31078431 0.31078431
0.31813725 0.31813725 0.31813725
0.32156863 0.32156863 0.32156863
0.32254902 0.32254902 0.32254902
0.3254902 0.3254902 0.3254902
0.22352941 0.22352941 0.22352941
0.22567402 0.22567402 0.22567402
0.22830882 0.22830882 0.22830882
0.23131127 0.23131127 0.23131127
0.23480392 0.23480392 0.23480392
0.23572304 0.23572304 0.23572304
0.23872549 0.23872549 0.23872549
0.24411765 0.24411765 0.24411765
0.24656863 0.24656863 0.24656863
0.25294118 0.25294118 0.25294118
0.25833333 0.25833333 0.25833333
0.2622549 0.2622549 0.2622549
0.26813725 0.26813725 0.26813725
0.27401961 0.27401961 0.27401961
0.27696078 0.27696078 0.27696078
0.28314951 0.28314951 0.28314951
0.28970588 0.28970588 0.28970588
0.29607843 0.29607843 0.29607843
0.30637255 0.30637255 0.30637255
0.31666667 0.31666667 0.31666667
0.32107843 0.32107843 0.32107843
0.32585784 0.32585784 0.32585784
0.33492647 0.33492647 0.33492647
0.33970588 0.33970588 0.33970588
0.34019608 0.34019608 0.34019608
0.22941176 0.22941176 0.22941176
0.23333333 0.23333333 0.23333333
0.2372549 0.2372549 0.2372549
0.24093137 0.24093137 0.24093137
0.24411765 0.24411765 0.24411765
0.24558824 0.24558824 0.24558824
0.24901961 0.24901961 0.24901961
0.25441176 0.25441176 0.25441176
0.25686275 0.25686275 0.25686275
0.26323529 0.26323529 0.26323529
0.26862745 0.26862745 0.26862745
0.27254902 0.27254902 0.27254902
0.27843137 0.27843137 0.27843137
0.28431373 0.28431373 0.28431373
0.28970588 0.28970588 0.28970588
0.29681373 0.29681373 0.29681373
0.30392157 0.30392157 0.30392157
0.30710784 0.30710784 0.30710784
0.31666667 0.31666667 0.31666667
0.32696078 0.32696078 0.32696078
0.33823529 0.33823529 0.33823529
0.35171569 0.35171569 0.35171569
0.36568627 0.36568627 0.36568627
0.36936275 0.36936275 0.36936275
0.37058824 0.37058824 0.37058824
0.24362745 0.24362745 0.24362745
0.24362745 0.24362745 0.24362745
0.24754902 0.24754902 0.24754902
0.25098039 0.25098039 0.25098039
0.25318627 0.25318627 0.25318627
0.25539216 0.25539216 0.25539216
0.25931373 0.25931373 0.25931373
0.26470588 0.26470588 0.26470588
0.26764706 0.26764706 0.26764706
0.27371324 0.27371324 0.27371324
0.27904412 0.27904412 0.27904412
0.28284314 0.28284314 0.28284314
0.28848039 0.28848039 0.28848039
0.29466912 0.29466912 0.29466912
0.30196078 0.30196078 0.30196078
0.3122549 0.3122549 0.3122549
0.31862745 0.31862745 0.31862745
0.32254902 0.32254902 0.32254902
0.32610294 0.32610294 0.32610294
0.33376225 0.33376225 0.33376225
0.35416667 0.35416667 0.35416667
0.37843137 0.37843137 0.37843137
0.39558824 0.39558824 0.39558824
0.40165441 0.40165441 0.40165441
0.40196078 0.40196078 0.40196078
0.25392157 0.25392157 0.25392157
0.25392157 0.25392157 0.25392157
0.25784314 0.25784314 0.25784314
0.26127451 0.26127451 0.26127451
0.26176471 0.26176471 0.26176471
0.26568627 0.26568627 0.26568627
0.26960784 0.26960784 0.26960784
0.275 0.275 0.275
0.28137255 0.28137255 0.28137255
0.28713235 0.28713235 0.28713235
0.29240196 0.29240196 0.29240196
0.29693627 0.29693627 0.29693627
0.30196078 0.30196078 0.30196078
0.31139706 0.31139706 0.31139706
0.3247549 0.3247549 0.3247549
0.33468137 0.33468137 0.33468137
0.34215686 0.34215686 0.34215686
0.34497549 0.34497549 0.34497549
0.35073529 0.35073529 0.35073529
0.36678922 0.36678922 0.36678922
0.38431373 0.38431373 0.38431373
0.40465686 0.40465686 0.40465686
0.42573529 0.42573529 0.42573529
0.43737745 0.43737745 0.43737745
0.43921569 0.43921569 0.43921569
0.26176471 0.26176471 0.26176471
0.2651348 0.2651348 0.2651348
0.2685049 0.2685049 0.2685049
0.27205882 0.27205882 0.27205882
0.2747549 0.2747549 0.2747549
0.27775735 0.27775735 0.27775735
0.28321078 0.28321078 0.28321078
0.28921569 0.28921569 0.28921569
0.29558824 0.29558824 0.29558824
0.30251225 0.30251225 0.30251225
0.30882353 0.30882353 0.30882353
0.31617647 0.31617647 0.31617647
0.3252451 0.3252451 0.3252451
0.33854167 0.33854167 0.33854167
0.35245098 0.35245098 0.35245098
0.3627451 0.3627451 0.3627451
0.36911765 0.36911765 0.36911765
0.3754902 0.3754902 0.3754902
0.38823529 0.38823529 0.38823529
0.40882353 0.40882353 0.40882353
0.42696078 0.42696078 0.42696078
0.44577206 0.44577206 0.44577206
0.46311275 0.46311275 0.46311275
0.48033088 0.48033088 0.48033088
0.48578431 0.48578431 0.48578431
0.28235294 0.28235294 0.28235294
0.28235294 0.28235294 0.28235294
0.28627451 0.28627451 0.28627451
0.29019608 0.29019608 0.29019608
0.29215686 0.29215686 0.29215686
0.29411765 0.29411765 0.29411765
0.29705882 0.29705882 0.29705882
0.30343137 0.30343137 0.30343137
0.30980392 0.30980392 0.30980392
0.32009804 0.32009804 0.32009804
0.32647059 0.32647059 0.32647059
0.33676471 0.33676471 0.33676471
0.35098039 0.35098039 0.35098039
0.36568627 0.36568627 0.36568627
0.38235294 0.38235294 0.38235294
0.39362745 0.39362745 0.39362745
0.4 0.4 0.4
0.41029412 0.41029412 0.41029412
0.42941176 0.42941176 0.42941176
0.45 0.45 0.45
0.47058824 0.47058824 0.47058824
0.49117647 0.49117647 0.49117647
0.51176471 0.51176471 0.51176471
0.52843137 0.52843137 0.52843137
0.5372549 0.5372549 0.5372549
0.30539216 0.30539216 0.30539216
0.30294118 0.30294118 0.30294118
0.30686275 0.30686275 0.30686275
0.30814951 0.30814951 0.30814951
0.31078431 0.31078431 0.31078431
0.31341912 0.31341912 0.31341912
0.31470588 0.31470588 0.31470588
0.32009804 0.32009804 0.32009804
0.33039216 0.33039216 0.33039216
0.33731618 0.33731618 0.33731618
0.3495098 0.3495098 0.3495098
0.36127451 0.36127451 0.36127451
0.37671569 0.37671569 0.37671569
0.39234069 0.39234069 0.39234069
0.40931373 0.40931373 0.40931373
0.42297794 0.42297794 0.42297794
0.4372549 0.4372549 0.4372549
0.45055147 0.45055147 0.45055147
0.46666667 0.46666667 0.46666667
0.4872549 0.4872549 0.4872549
0.51176471 0.51176471 0.51176471
0.53284314 0.53284314 0.53284314
0.55686275 0.55686275 0.55686275
0.57598039 0.57598039 0.57598039
0.58872549 0.58872549 0.58872549
0.32745098 0.32745098 0.32745098
0.32745098 0.32745098 0.32745098
0.32745098 0.32745098 0.32745098
0.32745098 0.32745098 0.32745098
0.33088235 0.33088235 0.33088235
0.33186275 0.33186275 0.33186275
0.33848039 0.33848039 0.33848039
0.34558824 0.34558824 0.34558824
0.35490196 0.35490196 0.35490196
0.3622549 0.3622549 0.3622549
0.3754902 0.3754902 0.3754902
0.38676471 0.38676471 0.38676471
0.40245098 0.40245098 0.40245098
0.4182598 0.4182598 0.4182598
0.43627451 0.43627451 0.43627451
0.4557598 0.4557598 0.4557598
0.47352941 0.47352941 0.47352941
0.48872549 0.48872549 0.48872549
0.50784314 0.50784314 0.50784314
0.52843137 0.52843137 0.52843137
0.55294118 0.55294118 0.55294118
0.57745098 0.57745098 0.57745098
0.59803922 0.59803922 0.59803922
0.61862745 0.61862745 0.61862745
0.63627451 0.63627451 0.63627451
0.34803922 0.34803922 0.34803922
0.34803922 0.34803922 0.34803922
0.34803922 0.34803922 0.34803922
0.34803922 0.34803922 0.34803922
0.35 0.35 0.35
0.359375 0.359375 0.359375
0.36617647 0.36617647 0.36617647
0.37254902 0.37254902 0.37254902
0.38284314 0.38284314 0.38284314
0.39313725 0.39313725 0.39313725
0.40343137 0.40343137 0.40343137
0.41372549 0.41372549 0.41372549
0.42818627 0.42818627 0.42818627
0.44656863 0.44656863 0.44656863
0.46372549 0.46372549 0.46372549
0.48431373 0.48431373 0.48431373
0.50441176 0.50441176 0.50441176
0.525 0.525 0.525
0.54901961 0.54901961 0.54901961
0.56960784 0.56960784 0.56960784
0.59240196 0.59240196 0.59240196
0.61476716 0.61476716 0.61476716
0.63578431 0.63578431 0.63578431
0.65637255 0.65637255 0.65637255
0.67303922 0.67303922 0.67303922
0.38431373 0.38431373 0.38431373
0.38431373 0.38431373 0.38431373
0.38039216 0.38039216 0.38039216
0.38039216 0.38039216 0.38039216
0.38235294 0.38235294 0.38235294
0.38676471 0.38676471 0.38676471
0.39313725 0.39313725 0.39313725
0.3995098 0.3995098 0.3995098
0.40980392 0.40980392 0.40980392
0.42279412 0.42279412 0.42279412
0.43039216 0.43039216 0.43039216
0.44068627 0.44068627 0.44068627
0.45392157 0.45392157 0.45392157
0.47352941 0.47352941 0.47352941
0.49411765 0.49411765 0.49411765
0.51470588 0.51470588 0.51470588
0.53333333 0.53333333 0.53333333
0.55196078 0.55196078 0.55196078
0.57892157 0.57892157 0.57892157
0.60490196 0.60490196 0.60490196
0.62941176 0.62941176 0.62941176
0.65 0.65 0.65
0.67058824 0.67058824 0.67058824
0.69117647 0.69117647 0.69117647
0.70784314 0.70784314 0.70784314
0.425 0.425 0.425
0.42285539 0.42285539 0.42285539
0.42144608 0.42144608 0.42144608
0.41807598 0.41807598 0.41807598
0.42156863 0.42156863 0.42156863
0.42150735 0.42150735 0.42150735
0.41985294 0.41985294 0.41985294
0.43039216 0.43039216 0.43039216
0.44117647 0.44117647 0.44117647
0.45275735 0.45275735 0.45275735
0.46127451 0.46127451 0.46127451
0.46770833 0.46770833 0.46770833
0.47941176 0.47941176 0.47941176
0.5004902 0.5004902 0.5004902
0.52107843 0.52107843 0.52107843
0.54166667 0.54166667 0.54166667
0.55833333 0.55833333 0.55833333
0.57843137 0.57843137 0.57843137
0.60441176 0.60441176 0.60441176
0.63480392 0.63480392 0.63480392
0.66029412 0.66029412 0.66029412
0.684375 0.684375 0.684375
0.70539216 0.70539216 0.70539216
0.72616422 0.72616422 0.72616422
0.74313725 0.74313725 0.74313725
0.4627451 0.4627451 0.4627451
0.4627451 0.4627451 0.4627451
0.45882353 0.45882353 0.45882353
0.45502451 0.45502451 0.45502451
0.46078431 0.46078431 0.46078431
0.46262255 0.46262255 0.46262255
0.46176471 0.46176471 0.46176471
0.46813725 0.46813725 0.46813725
0.47843137 0.47843137 0.47843137
0.48970588 0.48970588 0.48970588
0.49828431 0.49828431 0.49828431
0.50539216 0.50539216 0.50539216
0.51568627 0.51568627 0.51568627
0.53137255 0.53137255 0.53137255
0.55196078 0.55196078 0.55196078
0.56862745 0.56862745 0.56862745
0.58529412 0.58529412 0.58529412
0.60294118 0.60294118 0.60294118
0.63063725 0.63063725 0.63063725
0.65931373 0.65931373 0.65931373
0.68578431 0.68578431 0.68578431
0.71176471 0.71176471 0.71176471
0.73553922 0.73553922 0.73553922
0.75784314 0.75784314 0.75784314
0.77745098 0.77745098 0.77745098
0.50147059 0.50147059 0.50147059
0.50539216 0.50539216 0.50539216
0.50539216 0.50539216 0.50539216
0.50539216 0.50539216 0.50539216
0.50661765 0.50661765 0.50661765
0.50931373 0.50931373 0.50931373
0.50931373 0.50931373 0.50931373
0.51176471 0.51176471 0.51176471
0.51960784 0.51960784 0.51960784
0.52689951 0.52689951 0.52689951
0.5377451 0.5377451 0.5377451
0.5504902 0.5504902 0.5504902
0.56078431 0.56078431 0.56078431
0.57107843 0.57107843 0.57107843
0.58529412 0.58529412 0.58529412
0.59859069 0.59859069 0.59859069
0.6122549 0.6122549 0.6122549
0.62892157 0.62892157 0.62892157
0.65441176 0.65441176 0.65441176
0.68382353 0.68382353 0.68382353
0.71078431 0.71078431 0.71078431
0.73511029 0.73511029 0.73511029
0.76115196 0.76115196 0.76115196
0.78235294 0.78235294 0.78235294
0.79509804 0.79509804 0.79509804
0.55294118 0.55294118 0.55294118
0.55539216 0.55539216 0.55539216
0.55686275 0.55686275 0.55686275
0.55686275 0.55686275 0.55686275
0.55686275 0.55686275 0.55686275
0.55686275 0.55686275 0.55686275
0.55686275 0.55686275 0.55686275
0.55686275 0.55686275 0.55686275
0.55686275 0.55686275 0.55686275
0.56715686 0.56715686 0.56715686
0.58137255 0.58137255 0.58137255
0.59166667 0.59166667 0.59166667
0.60196078 0.60196078 0.60196078
0.6122549 0.6122549 0.6122549
0.62254902 0.62254902 0.62254902
0.63676471 0.63676471 0.63676471
0.64705882 0.64705882 0.64705882
0.65980392 0.65980392 0.65980392
0.68137255 0.68137255 0.68137255
0.70833333 0.70833333 0.70833333
0.73529412 0.73529412 0.73529412
0.76176471 0.76176471 0.76176471
0.78627451 0.78627451 0.78627451
0.80539216 0.80539216 0.80539216
0.81568627 0.81568627 0.81568627
0.60441176 0.60441176 0.60441176
0.60441176 0.60441176 0.60441176
0.60833333 0.60833333 0.60833333
0.60618873 0.60618873 0.60618873
0.60441176 0.60441176 0.60441176
0.60410539 0.60410539 0.60410539
0.60085784 0.60085784 0.60085784
0.6004902 0.6004902 0.6004902
0.60441176 0.60441176 0.60441176
0.6122549 0.6122549 0.6122549
0.62254902 0.62254902 0.62254902
0.63284314 0.63284314 0.63284314
0.64313725 0.64313725 0.64313725
0.65343137 0.65343137 0.65343137
0.66372549 0.66372549 0.66372549
0.67401961 0.67401961 0.67401961
0.68431373 0.68431373 0.68431373
0.69852941 0.69852941 0.69852941
0.71519608 0.71519608 0.71519608
0.73578431 0.73578431 0.73578431
0.7622549 0.7622549 0.7622549
0.78658088 0.78658088 0.78658088
0.80747549 0.80747549 0.80747549
0.82598039 0.82598039 0.82598039
0.83235294 0.83235294 0.83235294
0.65980392 0.65980392 0.65980392
0.65588235 0.65588235 0.65588235
0.65588235 0.65588235 0.65588235
0.65588235 0.65588235 0.65588235
0.65343137 0.65343137 0.65343137
0.65098039 0.65098039 0.65098039
0.64803922 0.64803922 0.64803922
0.64914216 0.64914216 0.64914216
0.65490196 0.65490196 0.65490196
0.65943627 0.65943627 0.65943627
0.66862745 0.66862745 0.66862745
0.67806373 0.67806373 0.67806373
0.68480392 0.68480392 0.68480392
0.69460784 0.69460784 0.69460784
0.70416667 0.70416667 0.70416667
0.71127451 0.71127451 0.71127451
0.7254902 0.7254902 0.7254902
0.73970588 0.73970588 0.73970588
0.75490196 0.75490196 0.75490196
0.77156863 0.77156863 0.77156863
0.79117647 0.79117647 0.79117647
0.81176471 0.81176471 0.81176471
0.83161765 0.83161765 0.83161765
0.84656863 0.84656863 0.84656863
0.85294118 0.85294118 0.85294118
0.70784314 0.70784314 0.70784314
0.70735294 0.70735294 0.70735294
0.70392157 0.70392157 0.70392157
0.70392157 0.70392157 0.70392157
0.70171569 0.70171569 0.70171569
0.6995098 0.6995098 0.6995098
0.69607843 0.69607843 0.69607843
0.6995098 0.6995098 0.6995098
0.70343137 0.70343137 0.70343137
0.70765931 0.70765931 0.70765931
0.71531863 0.71531863 0.71531863
0.72303922 0.72303922 0.72303922
0.72916667 0.72916667 0.72916667
0.73578431 0.73578431 0.73578431
0.74313725 0.74313725 0.74313725
0.75245098 0.75245098 0.75245098
0.76666667 0.76666667 0.76666667
0.78088235 0.78088235 0.78088235
0.79509804 0.79509804 0.79509804
0.80931373 0.80931373 0.80931373
0.82401961 0.82401961 0.82401961
0.83872549 0.83872549 0.83872549
0.85294118 0.85294118 0.85294118
0.86323529 0.86323529 0.86323529
0.86960784 0.86960784 0.86960784
0.75294118 0.75294118 0.75294118
0.75098039 0.75098039 0.75098039
0.74901961 0.74901961 0.74901961
0.74901961 0.74901961 0.74901961
0.74509804 0.74509804 0.74509804
0.74509804 0.74509804 0.74509804
0.74509804 0.74509804 0.74509804
0.74779412 0.74779412 0.74779412
0.75098039 0.75098039 0.75098039
0.75294118 0.75294118 0.75294118
0.75686275 0.75686275 0.75686275
0.7625 0.7625 0.7625
0.76862745 0.76862745 0.76862745
0.77696078 0.77696078 0.77696078
0.7872549 0.7872549 0.7872549
0.79754902 0.79754902 0.79754902
0.80784314 0.80784314 0.80784314
0.81813725 0.81813725 0.81813725
0.83039216 0.83039216 0.83039216
0.84068627 0.84068627 0.84068627
0.85 0.85 0.85
0.85931373 0.85931373 0.85931373
0.87352941 0.87352941 0.87352941
0.88235294 0.88235294 0.88235294
0.88627451 0.88627451 0.88627451
0.79803922 0.79803922 0.79803922
0.79460784 0.79460784 0.79460784
0.79411765 0.79411765 0.79411765
0.79019608 0.79019608 0.79019608
0.78627451 0.78627451 0.78627451
0.78627451 0.78627451 0.78627451
0.78664216 0.78664216 0.78664216
0.7903799 0.7903799 0.7903799
0.79411765 0.79411765 0.79411765
0.79442402 0.79442402 0.79442402
0.79803922 0.79803922 0.79803922
0.80147059 0.80147059 0.80147059
0.80759804 0.80759804 0.80759804
0.81421569 0.81421569 0.81421569
0.8245098 0.8245098 0.8245098
0.8341299 0.8341299 0.8341299
0.84068627 0.84068627 0.84068627
0.84834559 0.84834559 0.84834559
0.85735294 0.85735294 0.85735294
0.86764706 0.86764706 0.86764706
0.8754902 0.8754902 0.8754902
0.87990196 0.87990196 0.87990196
0.89019608 0.89019608 0.89019608
0.89901961 0.89901961 0.89901961
0.90245098 0.90245098 0.90245098
0.84215686 0.84215686 0.84215686
0.83921569 0.83921569 0.83921569
0.83455882 0.83455882 0.83455882
0.83137255 0.83137255 0.83137255
0.82745098 0.82745098 0.82745098
0.82781863 0.82781863 0.82781863
0.83137255 0.83137255 0.83137255
0.83468137 0.83468137 0.83468137
0.83529412 0.83529412 0.83529412
0.83921569 0.83921569 0.83921569
0.83921569 0.83921569 0.83921569
0.84007353 0.84007353 0.84007353
0.84509804 0.84509804 0.84509804
0.85147059 0.85147059 0.85147059
0.85882353 0.85882353 0.85882353
0.86372549 0.86372549 0.86372549
0.86862745 0.86862745 0.86862745
0.87794118 0.87794118 0.87794118
0.88823529 0.88823529 0.88823529
0.89473039 0.89473039 0.89473039
0.89754902 0.89754902 0.89754902
0.90392157 0.90392157 0.90392157
0.91078431 0.91078431 0.91078431
0.91605392 0.91605392 0.91605392
0.91666667 0.91666667 0.91666667
0.86813725 0.86813725 0.86813725
0.86960784 0.86960784 0.86960784
0.8689951 0.8689951 0.8689951
0.86715686 0.86715686 0.86715686
0.86862745 0.86862745 0.86862745
0.87126225 0.87126225 0.87126225
0.87365196 0.87365196 0.87365196
0.87647059 0.87647059 0.87647059
0.87647059 0.87647059 0.87647059
0.87555147 0.87555147 0.87555147
0.87647059 0.87647059 0.87647059
0.87892157 0.87892157 0.87892157
0.88357843 0.88357843 0.88357843
0.88854167 0.88854167 0.88854167
0.8939951 0.8939951 0.8939951
0.89460784 0.89460784 0.89460784
0.89852941 0.89852941 0.89852941
0.90735294 0.90735294 0.90735294
0.91372549 0.91372549 0.91372549
0.91666667 0.91666667 0.91666667
0.91862745 0.91862745 0.91862745
0.9245098 0.9245098 0.9245098
0.93026961 0.93026961 0.93026961
0.93235294 0.93235294 0.93235294
0.93235294 0.93235294 0.93235294
0.87843137 0.87843137 0.87843137
0.87843137 0.87843137 0.87843137
0.88333333 0.88333333 0.88333333
0.88970588 0.88970588 0.88970588
0.89607843 0.89607843 0.89607843
0.90245098 0.90245098 0.90245098
0.91176471 0.91176471 0.91176471
0.9122549 0.9122549 0.9122549
0.90588235 0.90588235 0.90588235
0.90588235 0.90588235 0.90588235
0.90588235 0.90588235 0.90588235
0.90931373 0.90931373 0.90931373
0.91568627 0.91568627 0.91568627
0.925 0.925 0.925
0.92156863 0.92156863 0.92156863
0.92156863 0.92156863 0.92156863
0.9254902 0.9254902 0.9254902
0.92941176 0.92941176 0.92941176
0.93333333 0.93333333 0.93333333
0.93333333 0.93333333 0.93333333
0.93333333 0.93333333 0.93333333
0.94117647 0.94117647 0.94117647
0.94509804 0.94509804 0.94509804
0.94509804 0.94509804 0.94509804
0.94509804 0.94509804 0.94509804
0.22745098 0.22745098 0.22745098
0.22745098 0.22745098 0.22745098
0.22598039 0.22598039 0.22598039
0.22352941 0.22352941 0.22352941
0.22352941 0.22352941 0.22352941
0.22352941 0.22352941 0.22352941
0.22352941 0.22352941 0.22352941
0.22653186 0.22653186 0.22653186
0.22990196 0.22990196 0.22990196
0.23137255 0.23137255 0.23137255
0.23529412 0.23529412 0.23529412
0.23921569 0.23921569 0.23921569
0.24313725 0.24313725 0.24313725
0.24705882 0.24705882 0.24705882
0.25 0.25 0.25
0.26029412 0.26029412 0.26029412
0.27058824 0.27058824 0.27058824
0.28088235 0.28088235 0.28088235
0.29117647 0.29117647 0.29117647
0.30147059 0.30147059 0.30147059
0.30784314 0.30784314 0.30784314
0.31764706 0.31764706 0.31764706
0.32340686 0.32340686 0.32340686
0.3254902 0.3254902 0.3254902
0.3254902 0.3254902 0.3254902
0.22598039 0.22598039 0.22598039
0.22598039 0.22598039 0.22598039
0.22689951 0.22689951 0.22689951
0.22517616 0.22517616 0.22517616
0.22352941 0.22352941 0.22352941
0.22352941 0.22352941 0.22352941
0.22352941 0.22352941 0.22352941
0.22710631 0.22710631 0.22710631
0.23137255 0.23137255 0.23137255
0.23508732 0.23508732 0.23508732
0.23982843 0.23982843 0.23982843
0.24295343 0.24295343 0.24295343
0.24828431 0.24828431 0.24828431
0.25343137 0.25343137 0.25343137
0.2567402 0.2567402 0.2567402
0.26182598 0.26182598 0.26182598
0.27058824 0.27058824 0.27058824
0.28088235 0.28088235 0.28088235
0.29117647 0.29117647 0.29117647
0.30147059 0.30147059 0.30147059
0.30784314 0.30784314 0.30784314
0.31776195 0.31776195 0.31776195
0.32340686 0.32340686 0.32340686
0.3254902 0.3254902 0.3254902
0.3254902 0.3254902 0.3254902
0.22598039 0.22598039 0.22598039
0.22689951 0.22689951 0.22689951
0.22745098 0.22745098 0.22745098
0.22806373 0.22806373 0.22806373
0.22843137 0.22843137 0.22843137
0.22843137 0.22843137 0.22843137
0.23155637 0.23155637 0.23155637
0.23382353 0.23382353 0.23382353
0.24019608 0.24019608 0.24019608
0.24375 0.24375 0.24375
0.24803922 0.24803922 0.24803922
0.25196078 0.25196078 0.25196078
0.25784314 0.25784314 0.25784314
0.26372549 0.26372549 0.26372549
0.26666667 0.26666667 0.26666667
0.26973039 0.26973039 0.26973039
0.27585784 0.27585784 0.27585784
0.28803615 0.28803615 0.28803615
0.29607843 0.29607843 0.29607843
0.30551471 0.30551471 0.30551471
0.31078431 0.31078431 0.31078431
0.31813725 0.31813725 0.31813725
0.32521446 0.32521446 0.32521446
0.32892157 0.32892157 0.32892157
0.33039216 0.33039216 0.33039216
0.22726716 0.22726716 0.22726716
0.22879136 0.22879136 0.22879136
0.23123468 0.23123468 0.23123468
