site/assets/luts/natron-haldclut--golden-vibrant--7e892056e.cube
# LUTr-Project: LUTr — LUTrepository
# LUTr-Schema-Version: 1
# LUTr-ID: natron-haldclut--golden-vibrant--7e892056e
# LUTr-Title: golden vibrant
# LUTr-Collection: Natron HaldCLUT
# LUTr-Collection-ID: natron-haldclut-presets
# LUTr-Source: https://github.com/NatronGitHub/clut
# LUTr-Source-File: submissions/natron-haldclut-presets/various/golden_vibrant.png
# LUTr-Source-Format: PNG
# LUTr-Source-SHA256: 0eedaaafd5036cfce0dda00d22d3f9e80555e52aa30fed6f9e6685cb37cfa17b
# LUTr-License: CC-BY-SA-4.0
# LUTr-License-URL: https://github.com/NatronGitHub/clut#license
# LUTr-Tags: creative, film, film-emulation, hald-clut, natron, png, cube
# LUTr-Transform-Class: film-emulation
# LUTr-Input-Color-Space: srgb
# LUTr-Output-Color-Space: srgb
# LUTr-Color-Space-Confidence: assumed-display-referred
# LUTr-Conversion-Method: PNG LUT image decoded at 16-bit and sampled to 25x25x25 3D CUBE
# LUTr-Conversion-Date: 2026-07-27
# LUTr-Conversion-Tool: LUTr scripts/convert-all-to-cube.mjs
# LUTr-Conversion-Grid: 25x25x25
# LUTr-Note: Preserve this metadata and the upstream license notices when redistributing.
TITLE "golden vibrant"
LUT_3D_SIZE 25
DOMAIN_MIN 0 0 0
DOMAIN_MAX 1 1 1
0.0039215686 0.0078431373 0.078431373
0.030882353 0.014215686 0.092647059
0.053921569 0.016666667 0.10686275
0.07745098 0.015686275 0.11372549
0.10196078 0.011764706 0.11568627
0.13921569 0.024019608 0.10539216
0.18039216 0.041176471 0.095098039
0.22156863 0.05245098 0.084803922
0.27843137 0.047058824 0.094117647
0.34411765 0.040686275 0.11078431
0.40980392 0.021568627 0.12352941
0.47892157 0.0078431373 0.13676471
0.55098039 0.01372549 0.1372549
0.61911765 0.015686275 0.1245098
0.6872549 0.015686275 0.10686275
0.75784314 0.015686275 0.098039216
0.82745098 0.023529412 0.098039216
0.89705882 0.02745098 0.094117647
0.91862745 0.023529412 0.094117647
0.92892157 0.020098039 0.090686275
0.93921569 0.01372549 0.080392157
0.95 0.016176471 0.082843137
0.96372549 0.02254902 0.089215686
0.97794118 0.022058824 0.08627451
0.98823529 0.019607843 0.078431373
0.011764706 0.042647059 0.08872549
0.029963235 0.042095588 0.095098039
0.053921569 0.042647059 0.10686275
0.07745098 0.041360294 0.11341912
0.10514706 0.041176471 0.1125
0.14295343 0.042647059 0.10324755
0.18039216 0.045220588 0.091544118
0.21819853 0.054901961 0.081433824
0.27843137 0.050980392 0.090196078
0.34411765 0.048039216 0.10196078
0.40980392 0.047671569 0.10526961
0.47518382 0.03872549 0.1122549
0.54705882 0.042647059 0.11348039
0.61911765 0.042647059 0.11354167
0.69362745 0.042647059 0.10931373
0.76176471 0.042647059 0.099571078
0.83137255 0.042647059 0.098039216
0.89889706 0.037806373 0.093198529
0.91580882 0.03872549 0.096936275
0.925 0.039215686 0.096752451
0.9379902 0.037254902 0.082843137
0.94969363 0.037438725 0.086580882
0.96372549 0.042279412 0.093137255
0.97794118 0.034803922 0.085723039
0.99215686 0.029411765 0.076960784
0.015686275 0.07745098 0.094117647
0.032352941 0.074509804 0.096568627
0.052941176 0.073529412 0.10514706
0.07745098 0.073529412 0.10882353
0.10882353 0.075980392 0.10539216
0.14656863 0.074509804 0.09754902
0.18137255 0.071323529 0.090196078
0.21593137 0.065196078 0.077328431
0.27843137 0.066666667 0.08627451
0.34411765 0.073529412 0.096568627
0.40661765 0.073529412 0.092156863
0.47022059 0.069607843 0.087009804
0.54754902 0.073529412 0.099509804
0.62438725 0.07745098 0.11862745
0.69901961 0.078186275 0.11960784
0.76813725 0.07745098 0.10441176
0.83627451 0.07745098 0.097058824
0.88811275 0.073529412 0.096568627
0.90906863 0.074509804 0.10367647
0.92107843 0.07745098 0.10208333
0.93529412 0.078431373 0.093137255
0.9495098 0.078431373 0.090318627
0.9627451 0.07745098 0.094117647
0.97732843 0.070588235 0.091176471
0.98823529 0.070588235 0.091176471
0.015686275 0.10833333 0.086764706
0.031066176 0.10833333 0.092647059
0.052941176 0.10784314 0.10196078
0.076960784 0.10827206 0.10245098
0.11176471 0.11004902 0.098529412
0.14270833 0.11219363 0.094117647
0.17781863 0.11176471 0.087254902
0.21911765 0.10784314 0.083639706
0.27843137 0.10392157 0.090196078
0.34411765 0.10784314 0.094117647
0.40588235 0.10784314 0.093504902
0.47064951 0.10784314 0.08627451
0.54901961 0.10980392 0.095833333
0.62745098 0.11182598 0.10778186
0.70294118 0.1122549 0.11568627
0.77481618 0.1122549 0.103125
0.84313725 0.10833333 0.090196078
0.88333333 0.10833333 0.093137255
0.90036765 0.11176471 0.099509804
0.92058824 0.11219363 0.098958333
0.93529412 0.11397059 0.090441176
0.9495098 0.11568627 0.090257353
0.9627451 0.1122549 0.096691176
0.97420343 0.11176471 0.10637255
0.98431373 0.10784314 0.10539216
0.015686275 0.14705882 0.084313725
0.028431373 0.14705882 0.08995098
0.049019608 0.14313725 0.098039216
0.075245098 0.14485294 0.094607843
0.10784314 0.14901961 0.094117647
0.13872549 0.15098039 0.087745098
0.1745098 0.1495098 0.080882353
0.22303922 0.14901961 0.085784314
0.27843137 0.14509804 0.090196078
0.33946078 0.14313725 0.093382353
0.40833333 0.14509804 0.10980392
0.475 0.14901961 0.095833333
0.54705882 0.15294118 0.098039216
0.6252451 0.15294118 0.10245098
0.7004902 0.15294118 0.10588235
0.77426471 0.15147059 0.1004902
0.84313725 0.14901961 0.092156863
0.88529412 0.14828431 0.089460784
0.90196078 0.14901961 0.093627451
0.92058824 0.14901961 0.088480392
0.93529412 0.14705882 0.081372549
0.9495098 0.1495098 0.090441176
0.9627451 0.15294118 0.099019608
0.97671569 0.15220588 0.10392157
0.98431373 0.14901961 0.10196078
0.015686275 0.19852941 0.094607843
0.028431373 0.19852941 0.096752451
0.049019608 0.19460784 0.10110294
0.073039216 0.19460784 0.098039216
0.10367647 0.19460784 0.092156863
0.13523284 0.19411765 0.082352941
0.16948529 0.1877451 0.072058824
0.22303922 0.18658088 0.080208333
0.2745098 0.18235294 0.085784314
0.33216912 0.18216912 0.084620098
0.40294118 0.18370098 0.091666667
0.475 0.18976716 0.098468137
0.54509804 0.19411765 0.098039216
0.62261029 0.19460784 0.10147059
0.69767157 0.1942402 0.10453431
0.76715686 0.19411765 0.10588235
0.83921569 0.19411765 0.10196078
0.89166667 0.19068627 0.098039216
0.90821078 0.19068627 0.094117647
0.92107843 0.19068627 0.090686275
0.93529412 0.19460784 0.086764706
0.9495098 0.19454657 0.087193627
0.96372549 0.19411765 0.089828431
0.978125 0.19411765 0.089522059
0.98872549 0.19411765 0.089215686
0.015686275 0.25 0.10490196
0.028431373 0.25 0.10490196
0.049019608 0.24607843 0.10490196
0.069607843 0.24607843 0.095465686
0.1 0.24607843 0.092156863
0.13137255 0.24558824 0.086151961
0.17156863 0.24215686 0.084558824
0.22303922 0.23786765 0.085661765
0.27745098 0.23039216 0.08627451
0.33529412 0.22830882 0.085906863
0.40294118 0.23063725 0.09877451
0.475 0.23517157 0.10196078
0.54313725 0.2372549 0.096078431
0.6192402 0.23921569 0.091176471
0.69215686 0.23848039 0.098039216
0.76421569 0.23529412 0.10232843
0.84019608 0.23529412 0.10196078
0.90012255 0.23529412 0.098039216
0.91078431 0.23602941 0.098039216
0.92107843 0.23909314 0.097181373
0.93529412 0.24264706 0.093627451
0.9495098 0.24215686 0.092769608
0.96372549 0.23995098 0.087254902
0.97941176 0.23713235 0.08125
0.99509804 0.23529412 0.07254902
0.010294118 0.3 0.10588235
0.024509804 0.30147059 0.10588235
0.045098039 0.30147059 0.10343137
0.067830882 0.29901961 0.094607843
0.094607843 0.29828431 0.08872549
0.13137255 0.29754902 0.088051471
0.17585784 0.29362745 0.090196078
0.2245098 0.28970588 0.089276961
0.27990196 0.28333333 0.10539216
0.34166667 0.28333333 0.091115196
0.40796569 0.28394608 0.098039216
0.47518382 0.28578431 0.096752451
0.54705882 0.28578431 0.090686275
0.61911765 0.2872549 0.081678922
0.6872549 0.28578431 0.093137255
0.76023284 0.28578431 0.098590686
0.83529412 0.2872549 0.10196078
0.89460784 0.2872549 0.10042892
0.91078431 0.28578431 0.10196078
0.92107843 0.28921569 0.10196078
0.93529412 0.29289216 0.098039216
0.9495098 0.29185049 0.095404412
0.96372549 0.28639706 0.092279412
0.97794118 0.28578431 0.087745098
0.98823529 0.28578431 0.087745098
0.0039215686 0.34901961 0.10980392
0.023039216 0.35147059 0.10343137
0.045098039 0.35294118 0.097058824
0.065686275 0.35294118 0.090196078
0.090196078 0.35294118 0.082352941
0.13186275 0.34901961 0.086764706
0.17647059 0.34509804 0.087254902
0.22303922 0.34362745 0.082352941
0.28235294 0.3372549 0.090196078
0.34656863 0.3372549 0.092647059
0.41078431 0.34117647 0.098039216
0.47892157 0.34117647 0.094607843
0.54705882 0.34313725 0.096078431
0.61911765 0.34852941 0.10196078
0.6872549 0.34509804 0.098039216
0.75539216 0.34117647 0.098039216
0.82745098 0.34117647 0.10196078
0.88431373 0.34117647 0.099509804
0.90784314 0.34117647 0.098039216
0.92107843 0.34117647 0.098039216
0.93529412 0.34117647 0.098039216
0.9495098 0.34117647 0.098039216
0.95980392 0.34117647 0.098039216
0.97401961 0.34117647 0.098039216
0.98431373 0.34117647 0.098039216
0.0078431373 0.40441176 0.10980392
0.024509804 0.40441176 0.10588235
0.045098039 0.40441176 0.097671569
0.065686275 0.40441176 0.089215686
0.092647059 0.40441176 0.084803922
0.13560049 0.4004902 0.08627451
0.18002451 0.39656863 0.083333333
0.22156863 0.39656863 0.074509804
0.28235294 0.39509804 0.082352941
0.34957108 0.39509804 0.090196078
0.41372549 0.39656863 0.095098039
0.47892157 0.39901961 0.098039216
0.54705882 0.40294118 0.10514706
0.61648284 0.40686275 0.1122549
0.6872549 0.40392157 0.10931373
0.75539216 0.40147059 0.1004902
0.82107843 0.39656863 0.091666667
0.88284314 0.39656863 0.085294118
0.90686275 0.39656863 0.085906863
0.92058824 0.39656863 0.091482843
0.93333333 0.39656863 0.095588235
0.94822304 0.396875 0.098039216
0.95980392 0.39901961 0.099509804
0.97310049 0.39656863 0.10196078
0.98284314 0.39656863 0.10196078
0.011764706 0.45686275 0.10980392
0.028431373 0.45980392 0.10625
0.049019608 0.45588235 0.10098039
0.069240196 0.45588235 0.091544118
0.096568627 0.45588235 0.090196078
0.13921569 0.45196078 0.090196078
0.18137255 0.45196078 0.084068627
0.22365196 0.44901961 0.078431373
0.27843137 0.45196078 0.079411765
0.34375 0.45196078 0.08627451
0.40882353 0.45294118 0.093137255
0.47414216 0.45588235 0.096691176
0.54215686 0.45833333 0.10098039
0.61384804 0.46115196 0.10882353
0.68259804 0.46004902 0.10563725
0.7504902 0.45980392 0.099509804
0.81862745 0.45588235 0.089215686
0.88137255 0.45294118 0.073651961
0.90392157 0.45269608 0.079411765
0.91973039 0.45281863 0.085906863
0.93333333 0.45294118 0.090196078
0.9495098 0.4560049 0.093137255
0.9627451 0.45686275 0.093137255
0.975 0.4564951 0.093137255
0.98529412 0.45294118 0.093137255
0.015686275 0.51127451 0.11323529
0.028431373 0.51127451 0.10735294
0.049019608 0.51127451 0.10098039
0.072610294 0.51127451 0.094546569
0.10171569 0.51102941 0.094117647
0.14313725 0.50729167 0.093627451
0.18431373 0.50428922 0.087254902
0.2254902 0.50343137 0.082169118
0.27843137 0.50686275 0.082352941
0.34019608 0.50735294 0.08627451
0.40208333 0.51078431 0.090196078
0.46764706 0.51127451 0.087193627
0.53578431 0.51127451 0.087009804
0.60778186 0.51519608 0.091176471
0.67598039 0.51519608 0.091176471
0.74393382 0.51501225 0.094117647
0.81568627 0.51470588 0.097058824
0.88265931 0.51470588 0.093137255
0.90392157 0.51458333 0.096691176
0.91715686 0.51078431 0.093627451
0.93333333 0.51102941 0.093627451
0.9495098 0.51470588 0.093627451
0.96286765 0.51470588 0.090196078
0.97794118 0.51341912 0.08627451
0.99166667 0.51127451 0.079411765
0.019607843 0.5627451 0.10980392
0.029901961 0.56470588 0.10465686
0.049019608 0.56470588 0.099509804
0.075245098 0.56470588 0.098039216
0.10686275 0.56372549 0.098039216
0.14313725 0.5627451 0.094117647
0.18431373 0.56078431 0.090196078
0.22156863 0.55882353 0.082352941
0.2745098 0.56078431 0.082352941
0.33431373 0.56397059 0.0875
0.39803922 0.56666667 0.090196078
0.46348039 0.56666667 0.086519608
0.53137255 0.56666667 0.082352941
0.60343137 0.56323529 0.077205882
0.6754902 0.57009804 0.090686275
0.74828431 0.5752451 0.10073529
0.82156863 0.57647059 0.10196078
0.88627451 0.5745098 0.10122549
0.90539216 0.57647059 0.10637255
0.91887255 0.57279412 0.10416667
0.93431373 0.57254902 0.1
0.9495098 0.57058824 0.09754902
0.96372549 0.57058824 0.094117647
0.97794118 0.56666667 0.08872549
0.98627451 0.5627451 0.084313725
0.023529412 0.61813725 0.10539216
0.029901961 0.61813725 0.10165441
0.049019608 0.6182598 0.09754902
0.076960784 0.61862745 0.097977941
0.10808824 0.61813725 0.098039216
0.14313725 0.61813725 0.094117647
0.18137255 0.61556373 0.087254902
0.22156863 0.61421569 0.082169118
0.27058824 0.61421569 0.081862745
0.33235294 0.61844363 0.084497549
0.39509804 0.62218137 0.092156863
0.46323529 0.6221201 0.091176471
0.53137255 0.62205882 0.084558824
0.60343137 0.61905637 0.086764706
0.67941176 0.625 0.093259804
0.75539216 0.62990196 0.09932598
0.83186275 0.63382353 0.09754902
0.89528186 0.63382353 0.096078431
0.91078431 0.63284314 0.097671569
0.92150735 0.62990196 0.098039216
0.93529412 0.62573529 0.098039216
0.9495098 0.62199755 0.097977941
0.96372549 0.61813725 0.094117647
0.97401961 0.61636029 0.090196078
0.98382353 0.61421569 0.086764706
0.02745098 0.67254902 0.099019608
0.029901961 0.67316176 0.09620098
0.049019608 0.67352941 0.094117647
0.076960784 0.67352941 0.09497549
0.11176471 0.67352941 0.098039216
0.14656863 0.67218137 0.094117647
0.18137255 0.66960784 0.087254902
0.22156863 0.66752451 0.077328431
0.27058824 0.66568627 0.075490196
0.33235294 0.67205882 0.080882353
0.39803922 0.6745098 0.088235294
0.46372549 0.67745098 0.086764706
0.53333333 0.67352941 0.089705882
0.6064951 0.67352941 0.093259804
0.68161765 0.67647059 0.097794118
0.75686275 0.68137255 0.10098039
0.83529412 0.68235294 0.10098039
0.8939951 0.68235294 0.10392157
0.91078431 0.68137255 0.10416667
0.9245098 0.67757353 0.10490196
0.93676471 0.67401961 0.10196078
0.9495098 0.66960784 0.09754902
0.96372549 0.66740196 0.090441176
0.97401961 0.66568627 0.086887255
0.98039216 0.66568627 0.087254902
0.031372549 0.725 0.092647059
0.031372549 0.725 0.089276961
0.05 0.725 0.089093137
0.079595588 0.725 0.095404412
0.11029412 0.72352941 0.10514706
0.14509804 0.72322304 0.10502451
0.1810049 0.72107843 0.093014706
0.22156863 0.71868873 0.077879902
0.27058824 0.72107843 0.072058824
0.33627451 0.72261029 0.07935049
0.40196078 0.725 0.08627451
0.46734069 0.725 0.090196078
0.53529412 0.72426471 0.092892157
0.60753676 0.72371324 0.098223039
0.68333333 0.72683824 0.10526961
0.75539216 0.72892157 0.11127451
0.83137255 0.73137255 0.11666667
0.88970588 0.73137255 0.12058824
0.90784314 0.72855392 0.11911765
0.92322304 0.72530637 0.1153799
0.9372549 0.72230392 0.10931373
0.94969363 0.72089461 0.098835784
0.96372549 0.71715686 0.087254902
0.97493873 0.71715686 0.080882353
0.97647059 0.71323529 0.082352941
0.031372549 0.77254902 0.094117647
0.031372549 0.77254902 0.087745098
0.049019608 0.77254902 0.087254902
0.076960784 0.77254902 0.09754902
0.10980392 0.76862745 0.10196078
0.14313725 0.76862745 0.10196078
0.18039216 0.77156863 0.095098039
0.22156863 0.77254902 0.084803922
0.27058824 0.77254902 0.078431373
0.33480392 0.77254902 0.084803922
0.40196078 0.77254902 0.090196078
0.46764706 0.77254902 0.093627451
0.53921569 0.77254902 0.094117647
0.61127451 0.77254902 0.098529412
0.68333333 0.77254902 0.10588235
0.75539216 0.77647059 0.11127451
0.82745098 0.77647059 0.11764706
0.88970588 0.77647059 0.12156863
0.90784314 0.77254902 0.11764706
0.92107843 0.77254902 0.11372549
0.93529412 0.76862745 0.10784314
0.9495098 0.76862745 0.09754902
0.96372549 0.76862745 0.087254902
0.97647059 0.76862745 0.072058824
0.97647059 0.76470588 0.078431373
0.021078431 0.81617647 0.091666667
0.028982843 0.81372549 0.093198529
0.049632353 0.81372549 0.090196078
0.076960784 0.81011029 0.09754902
0.10661765 0.80980392 0.10196078
0.14283088 0.81011029 0.10147059
0.18039216 0.81372549 0.094485294
0.22156863 0.81911765 0.084803922
0.27058824 0.82303922 0.078431373
0.33535539 0.81819853 0.084803922
0.40196078 0.81764706 0.090196078
0.46893382 0.81519608 0.093627451
0.53921569 0.81764706 0.094117647
0.61127451 0.81636029 0.094301471
0.68333333 0.81764706 0.099142157
0.75392157 0.81764706 0.099509804
0.82352941 0.82009804 0.097058824
0.88676471 0.82009804 0.097058824
0.90784314 0.81764706 0.097058824
0.92107843 0.81636029 0.10165441
0.93529412 0.81372549 0.10269608
0.9495098 0.80980392 0.097855392
0.96372549 0.80980392 0.089705882
0.97738971 0.80980392 0.083333333
0.98039216 0.80980392 0.082352941
0.0068627451 0.85882353 0.081372549
0.028431373 0.85490196 0.085906863
0.050735294 0.85882353 0.085294118
0.076960784 0.85073529 0.10122549
0.10343137 0.85490196 0.093137255
0.14264706 0.85098039 0.096813725
0.18039216 0.85318627 0.095098039
0.22156863 0.85392157 0.095465686
0.27058824 0.85392157 0.092156863
0.33480392 0.85392157 0.089093137
0.39901961 0.85098039 0.090196078
0.46764706 0.85355392 0.090196078
0.53970588 0.85833333 0.090196078
0.61519608 0.85980392 0.089215686
0.6872549 0.8620098 0.092401961
0.75392157 0.8627451 0.093504902
0.81960784 0.8627451 0.090196078
0.88431373 0.8627451 0.08247549
0.90612745 0.86102941 0.088235294
0.92095588 0.85882353 0.097671569
0.93529412 0.85490196 0.10196078
0.94963235 0.85490196 0.10196078
0.96372549 0.85269608 0.098039216
0.97794118 0.85196078 0.08872549
0.98823529 0.85196078 0.082352941
0.01127451 0.88529412 0.085784314
0.031862745 0.88903186 0.08627451
0.052941176 0.89742647 0.081372549
0.073958333 0.88713235 0.10845588
0.10196078 0.89632353 0.088235294
0.14313725 0.89172794 0.098039216
0.18125 0.88835784 0.10796569
0.22156863 0.88823529 0.1127451
0.27401961 0.88823529 0.10539216
0.33627451 0.88872549 0.099938725
0.40196078 0.88823529 0.086764706
0.47107843 0.89172794 0.089767157
0.54289216 0.89436275 0.090196078
0.61868873 0.90091912 0.085845588
0.69080882 0.90392157 0.082843137
0.75392157 0.9026348 0.095098039
0.8122549 0.9 0.10490196
0.87028186 0.9 0.11439951
0.89656863 0.89656863 0.10833333
0.91715686 0.89656863 0.10533088
0.93529412 0.89803922 0.10367647
0.95300245 0.89908088 0.098468137
0.96629902 0.89607843 0.095465686
0.97794118 0.89607843 0.08872549
0.98872549 0.89264706 0.081862745
0.019607843 0.90980392 0.092156863
0.0375 0.9129902 0.094852941
0.056862745 0.92254902 0.092647059
0.077205882 0.91691176 0.11004902
0.10294118 0.92156863 0.095098039
0.14313725 0.92156863 0.11029412
0.18137255 0.92156863 0.12254902
0.22156863 0.92156863 0.12745098
0.27647059 0.92156863 0.11568627
0.33946078 0.9247549 0.093137255
0.40441176 0.92598039 0.080392157
0.47132353 0.92745098 0.085784314
0.54313725 0.92843137 0.08627451
0.61911765 0.92965686 0.086029412
0.69509804 0.93137255 0.092647059
0.75980392 0.93333333 0.098039216
0.8254902 0.93333333 0.096078431
0.88602941 0.93651961 0.088235294
0.90686275 0.93431373 0.099509804
0.92058824 0.92965686 0.11127451
0.93431373 0.93137255 0.1127451
0.95 0.93578431 0.099509804
0.96764706 0.93970588 0.090196078
0.9745098 0.92916667 0.093627451
0.98039216 0.91960784 0.096078431
0.023529412 0.93039216 0.094607843
0.040196078 0.93676471 0.10520833
0.056862745 0.94620098 0.11960784
0.077389706 0.94656863 0.12261029
0.10784314 0.94215686 0.10465686
0.14264706 0.94215686 0.11029412
0.18039216 0.94607843 0.12401961
0.22126225 0.95343137 0.13676471
0.2745098 0.95343137 0.12156863
0.34019608 0.95343137 0.097058824
0.40294118 0.95343137 0.082843137
0.47150735 0.95042892 0.090318627
0.54313725 0.94779412 0.091911765
0.61917892 0.94607843 0.091666667
0.69803922 0.94865196 0.10870098
0.77009804 0.95 0.12628676
0.83137255 0.95343137 0.11470588
0.8841299 0.95343137 0.10735294
0.90735294 0.95343137 0.099387255
0.9245098 0.95343137 0.10196078
0.9375 0.95392157 0.099509804
0.95386029 0.95735294 0.093198529
0.96470588 0.95735294 0.093137255
0.96862745 0.95245098 0.099509804
0.97205882 0.94607843 0.10196078
0.019607843 0.95098039 0.098039216
0.036642157 0.95735294 0.11139706
0.056617647 0.96372549 0.12745098
0.07745098 0.96372549 0.12696078
0.10784314 0.9627451 0.11372549
0.13884804 0.95894608 0.10294118
0.17647059 0.96348039 0.1129902
0.21911765 0.96666667 0.12352941
0.2745098 0.96666667 0.11862745
0.33333333 0.96666667 0.10061275
0.39901961 0.96593137 0.093137255
0.47107843 0.96629902 0.10171569
0.54656863 0.96666667 0.088235294
0.62218137 0.96629902 0.095098039
0.69901961 0.96372549 0.11642157
0.77058824 0.96372549 0.12303922
0.83529412 0.96764706 0.10784314
0.88970588 0.96764706 0.095220588
0.91151961 0.96764706 0.089705882
0.925 0.96764706 0.091176471
0.93921569 0.96764706 0.092647059
0.95343137 0.97071078 0.090196078
0.96397059 0.97083333 0.093137255
0.96862745 0.96764706 0.099509804
0.96862745 0.96372549 0.10196078
0.014215686 0.97156863 0.094117647
0.031801471 0.97702206 0.10686275
0.05502451 0.97401961 0.11470588
0.081066176 0.97401961 0.11127451
0.10857843 0.97794118 0.10490196
0.13872549 0.97941176 0.092463235
0.17254902 0.97941176 0.097426471
0.22303922 0.97886029 0.10294118
0.27598039 0.97941176 0.10294118
0.32990196 0.98186275 0.093198529
0.3939951 0.98125 0.08872549
0.47058824 0.978125 0.08872549
0.54901961 0.98039216 0.081127451
0.62126225 0.97647059 0.089215686
0.68970588 0.97291667 0.098406863
0.76084559 0.97254902 0.1004902
0.82745098 0.97254902 0.092647059
0.89313725 0.97647059 0.082904412
0.91470588 0.97647059 0.087254902
0.925 0.97794118 0.093627451
0.93848039 0.97916667 0.092156863
0.95214461 0.98204657 0.086090686
0.96372549 0.98223039 0.087745098
0.97101716 0.98186275 0.097120098
0.97254902 0.97941176 0.1004902
0.0039215686 0.99215686 0.08627451
0.030882353 0.98578431 0.094117647
0.056862745 0.98333333 0.098039216
0.084803922 0.98382353 0.094607843
0.11176471 0.98627451 0.090196078
0.13823529 0.99215686 0.081862745
0.17156863 0.99313725 0.080392157
0.22696078 0.99068627 0.091666667
0.27843137 0.98823529 0.094117647
0.32990196 0.99068627 0.08627451
0.39215686 0.98823529 0.083333333
0.47058824 0.98431373 0.089705882
0.54705882 0.98039216 0.084313725
0.61519608 0.97647059 0.086764706
0.6872549 0.97647059 0.093137255
0.75539216 0.97254902 0.096568627
0.82745098 0.97254902 0.090196078
0.89313725 0.97647059 0.08627451
0.91470588 0.97647059 0.090196078
0.925 0.98039216 0.093627451
0.9372549 0.98431373 0.090196078
0.95 0.98823529 0.08627451
0.96372549 0.99215686 0.085294118
0.97254902 0.99460784 0.090196078
0.97254902 0.99215686 0.094117647
0.011764706 0.018137255 0.11323529
0.031801471 0.021139706 0.11568627
0.056862745 0.021078431 0.12107843
0.07745098 0.014705882 0.11893382
0.098039216 0.0066176471 0.11764706
0.13921569 0.018137255 0.11470588
0.18039216 0.032965686 0.11323529
0.22457108 0.042156863 0.10931373
0.28235294 0.040686275 0.11568627
0.34411765 0.033394608 0.11862745
0.40735294 0.018627451 0.12647059
0.47285539 0.0056985294 0.13676471
0.54705882 0.01372549 0.1372549
0.62254902 0.019117647 0.13363971
0.69007353 0.012745098 0.11519608
0.75784314 0.013235294 0.10778186
0.82745098 0.019607843 0.11470588
0.88425245 0.025980392 0.11715686
0.90894608 0.02745098 0.11862745
0.92077206 0.023529412 0.11734069
0.93602941 0.022058824 0.1125
0.9495098 0.022242647 0.11323529
0.9627451 0.025367647 0.11715686
0.97457108 0.023529412 0.11323529
0.98578431 0.019607843 0.11176471
0.015134804 0.042647059 0.11323529
0.032352941 0.042647059 0.11568627
0.056173407 0.043336397 0.12107843
0.07745098 0.041360294 0.12248009
0.10346201 0.040716912 0.11862745
0.13921569 0.041360294 0.11470588
0.18039216 0.04375 0.11323529
0.2219133 0.046139706 0.10931373
0.27935049 0.046139706 0.11323529
0.34507506 0.045626532 0.12180607
0.40980392 0.041804534 0.12124694
0.47205116 0.035179228 0.11966146
0.54901961 0.040686275 0.12870711
0.62297028 0.042647059 0.13101256
0.69362745 0.042647059 0.12090993
0.76398591 0.042647059 0.11231618
0.83382353 0.042647059 0.11623775
0.89181219 0.03872549 0.11773131
0.91378676 0.041957721 0.12144608
0.92408088 0.042830882 0.11942402
0.93848039 0.041176471 0.11222426
0.9495098 0.041360294 0.11365656
0.96372549 0.043336397 0.12009804
0.97736673 0.037599571 0.11419271
0.98823529 0.033333333 0.10931373
0.019607843 0.07745098 0.1182598
0.035355392 0.076761642 0.1167739
0.053400735 0.074509804 0.11697304
0.07745098 0.073529412 0.1213848
0.10833333 0.07689951 0.1182598
0.14313725 0.077313113 0.11452206
