site/assets/luts/natron-haldclut--faded-alt--9fb87e177.cube
# LUTr-Project: LUTr — LUTrepository
# LUTr-Schema-Version: 1
# LUTr-ID: natron-haldclut--faded-alt--9fb87e177
# LUTr-Title: faded alt
# LUTr-Collection: Natron HaldCLUT
# LUTr-Collection-ID: natron-haldclut-presets
# LUTr-Source: https://github.com/NatronGitHub/clut
# LUTr-Source-File: submissions/natron-haldclut-presets/various/faded_alt.png
# LUTr-Source-Format: PNG
# LUTr-Source-SHA256: 1122e5f99de53e383388aa26f8e77e103a8f0224c3b38932ac20af9dc020a897
# LUTr-License: CC-BY-SA-4.0
# LUTr-License-URL: https://github.com/NatronGitHub/clut#license
# LUTr-Tags: creative, film, film-emulation, hald-clut, natron, png, vintage, cube
# LUTr-Transform-Class: film-emulation
# LUTr-Input-Color-Space: srgb
# LUTr-Output-Color-Space: srgb
# LUTr-Color-Space-Confidence: assumed-display-referred
# LUTr-Conversion-Method: PNG LUT image decoded at 16-bit and sampled to 25x25x25 3D CUBE
# LUTr-Conversion-Date: 2026-07-27
# LUTr-Conversion-Tool: LUTr scripts/convert-all-to-cube.mjs
# LUTr-Conversion-Grid: 25x25x25
# LUTr-Note: Preserve this metadata and the upstream license notices when redistributing.
TITLE "faded alt"
LUT_3D_SIZE 5
DOMAIN_MIN 0 0 0
DOMAIN_MAX 1 1 1
0.058823529 0.039215686 0.039215686
0.12058824 0.067647059 0.071568627
0.2254902 0.10588235 0.11960784
0.3 0.11470588 0.13823529
0.38431373 0.1372549 0.17254902
0.2245098 0.26372549 0.20882353
0.30098039 0.28553922 0.2370098
0.38921569 0.30980392 0.27352941
0.49142157 0.34607843 0.31960784
0.56568627 0.36960784 0.34705882
0.39411765 0.48431373 0.36470588
0.4745098 0.50343137 0.40098039
0.57352941 0.53627451 0.44411765
0.68431373 0.58921569 0.50980392
0.75882353 0.62156863 0.54509804
0.59607843 0.72156863 0.55196078
0.66862745 0.74117647 0.58333333
0.75784314 0.76666667 0.62401961
0.87058824 0.81960784 0.68627451
0.93039216 0.85294118 0.72745098
0.76470588 0.94509804 0.71372549
0.84901961 0.96470588 0.76078431
0.93333333 0.98039216 0.78823529
0.98333333 0.9754902 0.8245098
0.98823529 0.97647059 0.90588235
0.074509804 0.078431373 0.089215686
0.1620098 0.11960784 0.13602941
0.24117647 0.12843137 0.16372549
0.34534314 0.17181373 0.21470588
0.39313725 0.18921569 0.23529412
0.25588235 0.30490196 0.2627451
0.32377451 0.31666667 0.28627451
0.42745098 0.36029412 0.33921569
0.52671569 0.39589461 0.38504902
0.60392157 0.42647059 0.42279412
0.43333333 0.53088235 0.43235294
0.51409314 0.55196078 0.46666667
0.6247549 0.60294118 0.5245098
0.71066176 0.62671569 0.5560049
0.78970588 0.65784314 0.59656863
0.62181373 0.76372549 0.60980392
0.70741422 0.79730392 0.64859069
0.80588235 0.83026961 0.69411765
0.89393382 0.8627451 0.73866422
0.94705882 0.88921569 0.77132353
0.82843137 0.97941176 0.78431373
0.88039216 0.98921569 0.81078431
0.95637255 0.99362745 0.85147059
0.99607843 1 0.89901961
0.99607843 0.99313725 0.94509804
0.13137255 0.14313725 0.17058824
0.19852941 0.16029412 0.19901961
0.30490196 0.20490196 0.25294118
0.3872549 0.2254902 0.28676471
0.46862745 0.25686275 0.32745098
0.30098039 0.35588235 0.33431373
0.36960784 0.37132353 0.3627451
0.47034314 0.4120098 0.4127451
0.57071078 0.45294118 0.46029412
0.65392157 0.48039216 0.49901961
0.49607843 0.59019608 0.51176471
0.56446078 0.6129902 0.54411765
0.66911765 0.65735294 0.59803922
0.75441176 0.68088235 0.63480392
0.85588235 0.71960784 0.68627451
0.69656863 0.82941176 0.69509804
0.76335784 0.85784314 0.72904412
0.85588235 0.89068627 0.77401961
0.94056373 0.90882353 0.81482843
0.96617647 0.93921569 0.83921569
0.83921569 1 0.8372549
0.93578431 0.99411765 0.88970588
0.98039216 0.99607843 0.93333333
0.99705882 1 0.97156863
0.99607843 0.99607843 0.97647059
0.18039216 0.19705882 0.24411765
0.27034314 0.24803922 0.29901961
0.34313725 0.25539216 0.3254902
0.43431373 0.28504902 0.3627451
0.52745098 0.33529412 0.41372549
0.38235294 0.42058824 0.4254902
0.42352941 0.4370098 0.44810049
0.52156863 0.4754902 0.49154412
0.61544118 0.50631127 0.53235294
0.70392157 0.53823529 0.5745098
0.5377451 0.64558824 0.58333333
0.61482843 0.6745098 0.62291667
0.7127451 0.7120098 0.67205882
0.81348039 0.75012255 0.71727941
0.89509804 0.77745098 0.75588235
0.72941176 0.8745098 0.76176471
0.80196078 0.90741422 0.80294118
0.9 0.94056373 0.84742647
0.97175245 0.97015931 0.88627451
0.98921569 0.98063725 0.90490196
0.93431373 0.99607843 0.93529412
0.97965686 0.99926471 0.96176471
1 1 0.99215686
1 0.99607843 0.99607843
1 1 0.99215686
0.18431373 0.22352941 0.28235294
0.28431373 0.26960784 0.34509804
0.3745098 0.29411765 0.37254902
0.47647059 0.3372549 0.4245098
0.57254902 0.36470588 0.4745098
0.43627451 0.47843137 0.49215686
0.47745098 0.49730392 0.52156863
0.56960784 0.53529412 0.56764706
0.65759804 0.55784314 0.59877451
0.75686275 0.59607843 0.64803922
0.56862745 0.67647059 0.62352941
0.65882353 0.7245098 0.68284314
0.75980392 0.76862745 0.74509804
0.84607843 0.78823529 0.76323529
0.94901961 0.83137255 0.82745098
0.75588235 0.93333333 0.81862745
0.84509804 0.95490196 0.86078431
0.93186275 0.98529412 0.90588235
0.99534314 0.98921569 0.95514706
0.99607843 0.9745098 0.97058824
0.96078431 1 0.99215686
0.98039216 0.99607843 0.98823529
1 0.99607843 0.99215686
1 0.99607843 0.98529412
1 0.99607843 0.98823529
