site/assets/luts/natron-haldclut--fuji-ilford-hp5--0eae85f4d.cube
# LUTr-Project: LUTr — LUTrepository
# LUTr-Schema-Version: 1
# LUTr-ID: natron-haldclut--fuji-ilford-hp5--0eae85f4d
# LUTr-Title: fuji ilford hp5 +
# LUTr-Collection: Natron HaldCLUT
# LUTr-Collection-ID: natron-haldclut-presets
# LUTr-Source: https://github.com/NatronGitHub/clut
# LUTr-Source-File: submissions/natron-haldclut-presets/negative_new/fuji_ilford_hp5_+.png
# LUTr-Source-Format: PNG
# LUTr-Source-SHA256: 303dcfee90c3b9bb6d1194b9e9aa3b77a81e5dc8defbc35c50623a5ce189ac88
# LUTr-License: CC-BY-SA-4.0
# LUTr-License-URL: https://github.com/NatronGitHub/clut#license
# LUTr-Tags: creative, film, film-emulation, hald-clut, natron, png, cube
# LUTr-Transform-Class: film-emulation
# LUTr-Input-Color-Space: srgb
# LUTr-Output-Color-Space: srgb
# LUTr-Color-Space-Confidence: assumed-display-referred
# LUTr-Conversion-Method: PNG LUT image decoded at 16-bit and sampled to 25x25x25 3D CUBE
# LUTr-Conversion-Date: 2026-07-27
# LUTr-Conversion-Tool: LUTr scripts/convert-all-to-cube.mjs
# LUTr-Conversion-Grid: 25x25x25
# LUTr-Note: Preserve this metadata and the upstream license notices when redistributing.
TITLE "fuji ilford hp5 +"
LUT_3D_SIZE 9
DOMAIN_MIN 0 0 0
DOMAIN_MAX 1 1 1
0.15294118 0.15294118 0.15294118
0.15637255 0.15637255 0.15637255
0.19509804 0.19509804 0.19509804
0.22843137 0.22843137 0.22843137
0.30196078 0.30196078 0.30196078
0.37156863 0.37156863 0.37156863
0.43333333 0.43333333 0.43333333
0.51911765 0.51911765 0.51911765
0.62745098 0.62745098 0.62745098
0.16470588 0.16470588 0.16470588
0.17598039 0.17598039 0.17598039
0.21421569 0.21421569 0.21421569
0.25882353 0.25882353 0.25882353
0.31715686 0.31715686 0.31715686
0.38676471 0.38676471 0.38676471
0.46127451 0.46127451 0.46127451
0.5504902 0.5504902 0.5504902
0.64313725 0.64313725 0.64313725
0.21764706 0.21764706 0.21764706
0.22843137 0.22843137 0.22843137
0.2627451 0.2627451 0.2627451
0.3245098 0.3245098 0.3245098
0.38235294 0.38235294 0.38235294
0.44411765 0.44411765 0.44411765
0.5127451 0.5127451 0.5127451
0.59558824 0.59558824 0.59558824
0.68823529 0.68823529 0.68823529
0.30392157 0.30392157 0.30392157
0.3127451 0.3127451 0.3127451
0.33186275 0.33186275 0.33186275
0.38627451 0.38627451 0.38627451
0.44926471 0.44926471 0.44926471
0.52064951 0.52064951 0.52064951
0.59007353 0.59007353 0.59007353
0.66501225 0.66501225 0.66501225
0.74215686 0.74215686 0.74215686
0.40196078 0.40196078 0.40196078
0.40588235 0.40588235 0.40588235
0.40931373 0.40931373 0.40931373
0.44926471 0.44926471 0.44926471
0.52156863 0.52156863 0.52156863
0.59117647 0.59117647 0.59117647
0.66078431 0.66078431 0.66078431
0.73480392 0.73480392 0.73480392
0.79607843 0.79607843 0.79607843
0.50784314 0.50784314 0.50784314
0.51911765 0.51911765 0.51911765
0.51568627 0.51568627 0.51568627
0.54264706 0.54264706 0.54264706
0.60294118 0.60294118 0.60294118
0.65594363 0.65594363 0.65594363
0.71960784 0.71960784 0.71960784
0.79215686 0.79215686 0.79215686
0.85 0.85 0.85
0.64019608 0.64019608 0.64019608
0.64313725 0.64313725 0.64313725
0.6370098 0.6370098 0.6370098
0.65343137 0.65343137 0.65343137
0.68333333 0.68333333 0.68333333
0.73137255 0.73137255 0.73137255
0.77647059 0.77647059 0.77647059
0.8372549 0.8372549 0.8372549
0.89117647 0.89117647 0.89117647
0.77058824 0.77058824 0.77058824
0.77107843 0.77107843 0.77107843
0.77058824 0.77058824 0.77058824
0.78088235 0.78088235 0.78088235
0.79191176 0.79191176 0.79191176
0.82254902 0.82254902 0.82254902
0.85735294 0.85735294 0.85735294
0.89166667 0.89166667 0.89166667
0.92205882 0.92205882 0.92205882
0.87058824 0.87058824 0.87058824
0.87107843 0.87107843 0.87107843
0.8745098 0.8745098 0.8745098
0.88627451 0.88627451 0.88627451
0.88627451 0.88627451 0.88627451
0.90735294 0.90735294 0.90735294
0.92647059 0.92647059 0.92647059
0.94117647 0.94117647 0.94117647
0.94901961 0.94901961 0.94901961
0.16029412 0.16029412 0.16029412
0.15974265 0.15974265 0.15974265
0.21066176 0.21066176 0.21066176
0.25539216 0.25539216 0.25539216
0.30588235 0.30588235 0.30588235
0.37156863 0.37156863 0.37156863
0.44473039 0.44473039 0.44473039
0.52696078 0.52696078 0.52696078
0.60441176 0.60441176 0.60441176
0.19417892 0.19417892 0.19417892
0.20282629 0.20282629 0.20282629
0.22984069 0.22984069 0.22984069
0.26308977 0.26308977 0.26308977
0.32058824 0.32058824 0.32058824
0.38676471 0.38676471 0.38676471
0.46421569 0.46421569 0.46421569
0.55435049 0.55435049 0.55435049
0.64258578 0.64258578 0.64258578
0.24460784 0.24460784 0.24460784
0.25588235 0.25588235 0.25588235
0.28284314 0.28284314 0.28284314
0.32843137 0.32843137 0.32843137
0.38235294 0.38235294 0.38235294
0.44803922 0.44803922 0.44803922
0.52052696 0.52052696 0.52052696
0.60735294 0.60735294 0.60735294
0.68921569 0.68921569 0.68921569
0.32843137 0.32843137 0.32843137
0.33363971 0.33363971 0.33363971
0.34883578 0.34883578 0.34883578
0.39019608 0.39019608 0.39019608
0.45303309 0.45303309 0.45303309
0.52237286 0.52237286 0.52237286
0.59571078 0.59571078 0.59571078
0.67303922 0.67303922 0.67303922
0.74215686 0.74215686 0.74215686
0.41715686 0.41715686 0.41715686
0.42150735 0.42150735 0.42150735
0.42285539 0.42285539 0.42285539
0.45824142 0.45824142 0.45824142
0.5245098 0.5245098 0.5245098
0.59509804 0.59509804 0.59509804
0.66568627 0.66568627 0.66568627
0.73866422 0.73866422 0.73866422
0.80171569 0.80171569 0.80171569
0.51783088 0.51783088 0.51783088
0.52330729 0.52330729 0.52330729
0.52334559 0.52334559 0.52334559
0.54607843 0.54607843 0.54607843
0.60441176 0.60441176 0.60441176
0.66439951 0.66439951 0.66439951
0.72647059 0.72647059 0.72647059
0.79215686 0.79215686 0.79215686
0.85 0.85 0.85
0.64313725 0.64313725 0.64313725
0.64705882 0.64705882 0.64705882
0.64007353 0.64007353 0.64007353
0.65686275 0.65686275 0.65686275
0.68939951 0.68939951 0.68939951
0.73903186 0.73903186 0.73903186
0.78431373 0.78431373 0.78431373
0.84214154 0.84214154 0.84214154
0.89117647 0.89117647 0.89117647
0.7745098 0.7745098 0.7745098
0.7745098 0.7745098 0.7745098
0.77408088 0.77408088 0.77408088
0.78449755 0.78449755 0.78449755
0.79800858 0.79800858 0.79800858
0.82775735 0.82775735 0.82775735
0.86127451 0.86127451 0.86127451
0.88823529 0.88823529 0.88823529
0.92205882 0.92205882 0.92205882
0.88186275 0.88186275 0.88186275
0.88186275 0.88186275 0.88186275
0.88137255 0.88137255 0.88137255
0.89430147 0.89430147 0.89430147
0.89019608 0.89019608 0.89019608
0.90998775 0.90998775 0.90998775
0.9254902 0.9254902 0.9254902
0.94166667 0.94166667 0.94166667
0.95294118 0.95294118 0.95294118
0.21372549 0.21372549 0.21372549
0.225 0.225 0.225
0.25294118 0.25294118 0.25294118
0.27990196 0.27990196 0.27990196
0.33186275 0.33186275 0.33186275
0.3935049 0.3935049 0.3935049
0.45588235 0.45588235 0.45588235
0.53872549 0.53872549 0.53872549
0.61470588 0.61470588 0.61470588
0.2377451 0.2377451 0.2377451
0.24546569 0.24546569 0.24546569
0.26366422 0.26366422 0.26366422
0.29865196 0.29865196 0.29865196
0.34307598 0.34307598 0.34307598
0.3977788 0.3977788 0.3977788
0.45965074 0.45965074 0.45965074
0.54313725 0.54313725 0.54313725
0.61911765 0.61911765 0.61911765
0.27916667 0.27916667 0.27916667
0.28676471 0.28676471 0.28676471
0.31764706 0.31764706 0.31764706
0.35098039 0.35098039 0.35098039
0.39705882 0.39705882 0.39705882
0.45563725 0.45563725 0.45563725
0.52254902 0.52254902 0.52254902
0.60036765 0.60036765 0.60036765
0.67352941 0.67352941 0.67352941
0.36323529 0.36323529 0.36323529
0.36323529 0.36323529 0.36323529
0.38333333 0.38333333 0.38333333
0.41421569 0.41421569 0.41421569
0.46727941 0.46727941 0.46727941
0.52863051 0.52863051 0.52863051
0.59261642 0.59261642 0.59261642
0.67285539 0.67285539 0.67285539
0.73786765 0.73786765 0.73786765
0.45735294 0.45735294 0.45735294
0.45759804 0.45759804 0.45759804
0.45588235 0.45588235 0.45588235
0.48560049 0.48560049 0.48560049
0.53946078 0.53946078 0.53946078
0.60441176 0.60441176 0.60441176
0.66911765 0.66911765 0.66911765
0.74607843 0.74607843 0.74607843
0.80588235 0.80588235 0.80588235
0.55637255 0.55637255 0.55637255
0.56125919 0.56125919 0.56125919
0.55784314 0.55784314 0.55784314
0.57990196 0.57990196 0.57990196
0.61127451 0.61127451 0.61127451
0.66931679 0.66931679 0.66931679
0.73265931 0.73265931 0.73265931
0.79607843 0.79607843 0.79607843
0.84901961 0.84901961 0.84901961
0.67352941 0.67352941 0.67352941
0.67352941 0.67352941 0.67352941
0.67254902 0.67254902 0.67254902
0.6875 0.6875 0.6875
0.71372549 0.71372549 0.71372549
0.7495098 0.7495098 0.7495098
0.78823529 0.78823529 0.78823529
0.84117647 0.84117647 0.84117647
0.88897059 0.88897059 0.88897059
0.78921569 0.78921569 0.78921569
0.78616728 0.78616728 0.78616728
0.78921569 0.78921569 0.78921569
0.80352328 0.80352328 0.80352328
0.80906863 0.80906863 0.80906863
0.83823529 0.83823529 0.83823529
0.86078431 0.86078431 0.86078431
0.89198836 0.89198836 0.89198836
0.92598039 0.92598039 0.92598039
0.89901961 0.89901961 0.89901961
0.875 0.875 0.875
0.89019608 0.89019608 0.89019608
0.89019608 0.89019608 0.89019608
0.89411765 0.89411765 0.89411765
0.90735294 0.90735294 0.90735294
0.9247549 0.9247549 0.9247549
0.94558824 0.94558824 0.94558824
0.95686275 0.95686275 0.95686275
0.27156863 0.27156863 0.27156863
0.28284314 0.28284314 0.28284314
0.30870098 0.30870098 0.30870098
0.33529412 0.33529412 0.33529412
0.38284314 0.38284314 0.38284314
0.44313725 0.44313725 0.44313725
0.49705882 0.49705882 0.49705882
0.57107843 0.57107843 0.57107843
0.64411765 0.64411765 0.64411765
0.29460784 0.29460784 0.29460784
0.30588235 0.30588235 0.30588235
0.33137255 0.33137255 0.33137255
0.35833333 0.35833333 0.35833333
0.39469975 0.39469975 0.39469975
0.44668352 0.44668352 0.44668352
0.4980239 0.4980239 0.4980239
0.575 0.575 0.575
0.63756127 0.63756127 0.63756127
0.33333333 0.33333333 0.33333333
0.34117647 0.34117647 0.34117647
0.36727941 0.36727941 0.36727941
0.40036765 0.40036765 0.40036765
0.43161765 0.43161765 0.43161765
0.4807598 0.4807598 0.4807598
0.5325674 0.5325674 0.5325674
0.59362745 0.59362745 0.59362745
0.69276961 0.69276961 0.69276961
0.39748775 0.39748775 0.39748775
0.39411765 0.39411765 0.39411765
0.41799939 0.41799939 0.41799939
0.44901961 0.44901961 0.44901961
0.49335172 0.49335172 0.49335172
0.54158241 0.54158241 0.54158241
0.58748468 0.58748468 0.58748468
0.66196385 0.66196385 0.66196385
0.73039216 0.73039216 0.73039216
0.49460784 0.49460784 0.49460784
0.49445466 0.49445466 0.49445466
0.49552696 0.49552696 0.49552696
0.52135417 0.52135417 0.52135417
0.56495098 0.56495098 0.56495098
0.61985294 0.61985294 0.61985294
0.67346814 0.67346814 0.67346814
0.7370098 0.7370098 0.7370098
0.78897059 0.78897059 0.78897059
0.59117647 0.59117647 0.59117647
0.59117647 0.59117647 0.59117647
0.59771752 0.59771752 0.59771752
0.61170343 0.61170343 0.61170343
0.64310662 0.64310662 0.64310662
0.69068627 0.69068627 0.69068627
0.74699755 0.74699755 0.74699755
0.80606618 0.80606618 0.80606618
0.85392157 0.85392157 0.85392157
0.70441176 0.70441176 0.70441176
0.70441176 0.70441176 0.70441176
0.70523897 0.70523897 0.70523897
0.71801471 0.71801471 0.71801471
0.73553922 0.73553922 0.73553922
0.75845588 0.75845588 0.75845588
0.80539216 0.80539216 0.80539216
0.84981618 0.84981618 0.84981618
0.88063725 0.88063725 0.88063725
0.81176471 0.81176471 0.81176471
0.81194853 0.81194853 0.81194853
0.81515012 0.81515012 0.81515012
0.81715686 0.81715686 0.81715686
0.82729779 0.82729779 0.82729779
0.84215686 0.84215686 0.84215686
0.87068015 0.87068015 0.87068015
0.90343137 0.90343137 0.90343137
0.92598039 0.92598039 0.92598039
0.89411765 0.89411765 0.89411765
0.89803922 0.89803922 0.89803922
0.87843137 0.87843137 0.87843137
0.89748775 0.89748775 0.89748775
0.9004902 0.9004902 0.9004902
0.91464461 0.91464461 0.91464461
0.93002451 0.93002451 0.93002451
0.94509804 0.94509804 0.94509804
0.94901961 0.94901961 0.94901961
0.35882353 0.35882353 0.35882353
0.36053922 0.36053922 0.36053922
0.38921569 0.38921569 0.38921569
0.42009804 0.42009804 0.42009804
0.44705882 0.44705882 0.44705882
0.49705882 0.49705882 0.49705882
0.55490196 0.55490196 0.55490196
0.63235294 0.63235294 0.63235294
0.69411765 0.69411765 0.69411765
0.37794118 0.37794118 0.37794118
0.38578431 0.38578431 0.38578431
0.40839461 0.40839461 0.40839461
0.43553922 0.43553922 0.43553922
0.4622549 0.4622549 0.4622549
0.50064338 0.50064338 0.50064338
0.55490196 0.55490196 0.55490196
0.63434436 0.63434436 0.63434436
0.69779412 0.69779412 0.69779412
0.3995098 0.3995098 0.3995098
0.41642157 0.41642157 0.41642157
0.44068627 0.44068627 0.44068627
0.46390931 0.46390931 0.46390931
0.49313725 0.49313725 0.49313725
0.53137255 0.53137255 0.53137255
0.58676471 0.58676471 0.58676471
0.65839461 0.65839461 0.65839461
0.72941176 0.72941176 0.72941176
0.44068627 0.44068627 0.44068627
0.45621936 0.45621936 0.45621936
0.47990196 0.47990196 0.47990196
0.5120098 0.5120098 0.5120098
0.54411765 0.54411765 0.54411765
0.58235294 0.58235294 0.58235294
0.6314951 0.6314951 0.6314951
0.68970588 0.68970588 0.68970588
0.7495098 0.7495098 0.7495098
0.5254902 0.5254902 0.5254902
0.51764706 0.51764706 0.51764706
0.53112745 0.53112745 0.53112745
0.56286765 0.56286765 0.56286765
0.5995098 0.5995098 0.5995098
0.63480392 0.63480392 0.63480392
0.68553922 0.68553922 0.68553922
0.7372549 0.7372549 0.7372549
0.78823529 0.78823529 0.78823529
0.61568627 0.61568627 0.61568627
0.6129902 0.6129902 0.6129902
0.62408088 0.62408088 0.62408088
0.64803922 0.64803922 0.64803922
0.67781863 0.67781863 0.67781863
0.70833333 0.70833333 0.70833333
0.75784314 0.75784314 0.75784314
0.81145833 0.81145833 0.81145833
0.85784314 0.85784314 0.85784314
0.73088235 0.73088235 0.73088235
0.73045343 0.73045343 0.73045343
0.73125 0.73125 0.73125
0.74607843 0.74607843 0.74607843
0.76323529 0.76323529 0.76323529
0.77855392 0.77855392 0.77855392
0.81556373 0.81556373 0.81556373
0.86685049 0.86685049 0.86685049
0.90294118 0.90294118 0.90294118
0.825 0.825 0.825
0.82846201 0.82846201 0.82846201
0.83284314 0.83284314 0.83284314
0.83480392 0.83480392 0.83480392
0.84129902 0.84129902 0.84129902
0.85088848 0.85088848 0.85088848
0.87254902 0.87254902 0.87254902
0.91078431 0.91078431 0.91078431
0.92990196 0.92990196 0.92990196
0.90588235 0.90588235 0.90588235
0.90808824 0.90808824 0.90808824
0.9 0.9 0.9
0.9122549 0.9122549 0.9122549
0.9127451 0.9127451 0.9127451
0.91053922 0.91053922 0.91053922
0.92745098 0.92745098 0.92745098
0.95098039 0.95098039 0.95098039
0.94901961 0.94901961 0.94901961
0.47254902 0.47254902 0.47254902
0.47126225 0.47126225 0.47126225
0.48578431 0.48578431 0.48578431
0.51813725 0.51813725 0.51813725
0.54509804 0.54509804 0.54509804
0.5745098 0.5745098 0.5745098
0.60845588 0.60845588 0.60845588
0.68498775 0.68498775 0.68498775
0.7504902 0.7504902 0.7504902
0.4786152 0.4786152 0.4786152
0.47843137 0.47843137 0.47843137
0.49402574 0.49402574 0.49402574
0.52420343 0.52420343 0.52420343
0.55490196 0.55490196 0.55490196
0.57794118 0.57794118 0.57794118
0.60453431 0.60453431 0.60453431
0.68890931 0.68890931 0.68890931
0.76715686 0.76715686 0.76715686
0.50294118 0.50294118 0.50294118
0.50539216 0.50539216 0.50539216
0.52794118 0.52794118 0.52794118
0.55490196 0.55490196 0.55490196
0.58578431 0.58578431 0.58578431
0.6113511 0.6113511 0.6113511
0.64681373 0.64681373 0.64681373
0.7120864 0.7120864 0.7120864
0.78125 0.78125 0.78125
0.52506127 0.52506127 0.52506127
0.53235294 0.53235294 0.53235294
0.55134804 0.55134804 0.55134804
0.58731618 0.58731618 0.58731618
0.61666667 0.61666667 0.61666667
0.64734222 0.64734222 0.64734222
0.68869485 0.68869485 0.68869485
0.73431373 0.73431373 0.73431373
0.78394608 0.78394608 0.78394608
0.5754902 0.5754902 0.5754902
0.5754902 0.5754902 0.5754902
0.59019608 0.59019608 0.59019608
0.62545956 0.62545956 0.62545956
0.65992647 0.65992647 0.65992647
0.68630515 0.68630515 0.68630515
0.72824755 0.72824755 0.72824755
0.76896446 0.76896446 0.76896446
0.80931373 0.80931373 0.80931373
0.65533088 0.65533088 0.65533088
0.64675245 0.64675245 0.64675245
0.6584712 0.6584712 0.6584712
0.68915441 0.68915441 0.68915441
0.70906863 0.70906863 0.70906863
0.73921569 0.73921569 0.73921569
0.77424939 0.77424939 0.77424939
0.82096354 0.82096354 0.82096354
0.86084559 0.86084559 0.86084559
0.75306373 0.75306373 0.75306373
0.75366115 0.75366115 0.75366115
0.75661765 0.75661765 0.75661765
0.77617953 0.77617953 0.77617953
0.78964461 0.78964461 0.78964461
0.80098039 0.80098039 0.80098039
0.83259804 0.83259804 0.83259804
0.87414216 0.87414216 0.87414216
0.91139706 0.91139706 0.91139706
0.83676471 0.83676471 0.83676471
0.83789063 0.83789063 0.83789063
0.84557292 0.84557292 0.84557292
0.85214461 0.85214461 0.85214461
0.8625 0.8625 0.8625
0.86942402 0.86942402 0.86942402
0.88181679 0.88181679 0.88181679
0.9151348 0.9151348 0.9151348
0.93511029 0.93511029 0.93511029
0.91372549 0.91372549 0.91372549
0.91372549 0.91372549 0.91372549
0.91372549 0.91372549 0.91372549
0.91911765 0.91911765 0.91911765
0.92156863 0.92156863 0.92156863
0.9254902 0.9254902 0.9254902
0.93039216 0.93039216 0.93039216
0.94901961 0.94901961 0.94901961
0.95686275 0.95686275 0.95686275
0.59607843 0.59607843 0.59607843
0.59607843 0.59607843 0.59607843
0.60294118 0.60294118 0.60294118
0.63284314 0.63284314 0.63284314
0.65490196 0.65490196 0.65490196
0.67598039 0.67598039 0.67598039
0.70196078 0.70196078 0.70196078
0.74068627 0.74068627 0.74068627
0.78921569 0.78921569 0.78921569
0.59693627 0.59693627 0.59693627
0.59693627 0.59693627 0.59693627
0.60447304 0.60447304 0.60447304
0.63337929 0.63337929 0.63337929
0.66072304 0.66072304 0.66072304
0.68204657 0.68204657 0.68204657
0.70196078 0.70196078 0.70196078
0.74373468 0.74373468 0.74373468
0.79276961 0.79276961 0.79276961
0.61470588 0.61470588 0.61470588
0.61470588 0.61470588 0.61470588
0.62941176 0.62941176 0.62941176
0.65245098 0.65245098 0.65245098
0.68235294 0.68235294 0.68235294
0.70992647 0.70992647 0.70992647
0.72352941 0.72352941 0.72352941
0.75196078 0.75196078 0.75196078
0.82058824 0.82058824 0.82058824
0.62990196 0.62990196 0.62990196
0.6376685 0.6376685 0.6376685
0.65591299 0.65591299 0.65591299
0.67843137 0.67843137 0.67843137
0.71323529 0.71323529 0.71323529
0.73627451 0.73627451 0.73627451
0.7504902 0.7504902 0.7504902
0.77158395 0.77158395 0.77158395
0.79963235 0.79963235 0.79963235
0.64901961 0.64901961 0.64901961
0.66329657 0.66329657 0.66329657
0.67867647 0.67867647 0.67867647
0.70784314 0.70784314 0.70784314
0.74264706 0.74264706 0.74264706
0.76231618 0.76231618 0.76231618
0.78504902 0.78504902 0.78504902
0.80477941 0.80477941 0.80477941
0.84607843 0.84607843 0.84607843
0.70686275 0.70686275 0.70686275
0.71176471 0.71176471 0.71176471
0.71568627 0.71568627 0.71568627
0.73921569 0.73921569 0.73921569
0.77009804 0.77009804 0.77009804
0.78959865 0.78959865 0.78959865
0.8153799 0.8153799 0.8153799
0.84393382 0.84393382 0.84393382
0.88051471 0.88051471 0.88051471
0.76764706 0.76764706 0.76764706
0.77898284 0.77898284 0.77898284
0.77622549 0.77622549 0.77622549
0.78578431 0.78578431 0.78578431
0.81041667 0.81041667 0.81041667
0.82365196 0.82365196 0.82365196
0.85318627 0.85318627 0.85318627
0.8879902 0.8879902 0.8879902
0.90784314 0.90784314 0.90784314
0.84154412 0.84154412 0.84154412
0.84938725 0.84938725 0.84938725
0.85536152 0.85536152 0.85536152
0.86469056 0.86469056 0.86469056
0.87647059 0.87647059 0.87647059
0.8814951 0.8814951 0.8814951
0.89963235 0.89963235 0.89963235
0.91948529 0.91948529 0.91948529
0.94166667 0.94166667 0.94166667
0.9254902 0.9254902 0.9254902
0.92598039 0.92598039 0.92598039
0.9247549 0.9247549 0.9247549
0.9314951 0.9314951 0.9314951
0.9254902 0.9254902 0.9254902
0.92941176 0.92941176 0.92941176
0.9375 0.9375 0.9375
0.95294118 0.95294118 0.95294118
0.97156863 0.97156863 0.97156863
0.73137255 0.73137255 0.73137255
0.73137255 0.73137255 0.73137255
0.73529412 0.73529412 0.73529412
0.75098039 0.75098039 0.75098039
0.77230392 0.77230392 0.77230392
0.78596814 0.78596814 0.78596814
0.80637255 0.80637255 0.80637255
0.83333333 0.83333333 0.83333333
0.85196078 0.85196078 0.85196078
0.73137255 0.73137255 0.73137255
0.73186275 0.73186275 0.73186275
0.73803615 0.73803615 0.73803615
0.75343137 0.75343137 0.75343137
0.77622549 0.77622549 0.77622549
0.79144455 0.79144455 0.79144455
0.80637255 0.80637255 0.80637255
0.82935815 0.82935815 0.82935815
0.85196078 0.85196078 0.85196078
0.73921569 0.73921569 0.73921569
0.74303002 0.74303002 0.74303002
0.75392157 0.75392157 0.75392157
0.76845895 0.76845895 0.76845895
0.7875 0.7875 0.7875
0.80441176 0.80441176 0.80441176
0.81819853 0.81819853 0.81819853
0.82892157 0.82892157 0.82892157
0.85723039 0.85723039 0.85723039
0.75098039 0.75098039 0.75098039
0.75455729 0.75455729 0.75455729
0.77352941 0.77352941 0.77352941
0.7859758 0.7859758 0.7859758
0.80588235 0.80588235 0.80588235
0.82591912 0.82591912 0.82591912
0.84283088 0.84283088 0.84283088
0.84095435 0.84095435 0.84095435
0.85882353 0.85882353 0.85882353
0.76666667 0.76666667 0.76666667
0.77426471 0.77426471 0.77426471
0.78743873 0.78743873 0.78743873
0.80073529 0.80073529 0.80073529
0.825 0.825 0.825
0.84500613 0.84500613 0.84500613
0.85655637 0.85655637 0.85655637
0.86397059 0.86397059 0.86397059
0.88921569 0.88921569 0.88921569
0.79117647 0.79117647 0.79117647
0.79509804 0.79509804 0.79509804
0.80228248 0.80228248 0.80228248
0.81930147 0.81930147 0.81930147
0.84705882 0.84705882 0.84705882
0.86035539 0.86035539 0.86035539
0.87303922 0.87303922 0.87303922
0.87959559 0.87959559 0.87959559
0.8846201 0.8846201 0.8846201
0.82941176 0.82941176 0.82941176
0.83344056 0.83344056 0.83344056
0.83532475 0.83532475 0.83532475
0.83970588 0.83970588 0.83970588
0.8622549 0.8622549 0.8622549
0.87254902 0.87254902 0.87254902
0.88887868 0.88887868 0.88887868
0.90692402 0.90692402 0.90692402
0.91078431 0.91078431 0.91078431
0.86421569 0.86421569 0.86421569
0.86856618 0.86856618 0.86856618
0.87473958 0.87473958 0.87473958
0.88627451 0.88627451 0.88627451
0.9073223 0.9073223 0.9073223
0.90708487 0.90708487 0.90708487
0.92254902 0.92254902 0.92254902
0.93866422 0.93866422 0.93866422
0.94258578 0.94258578 0.94258578
0.92941176 0.92941176 0.92941176
0.93333333 0.93333333 0.93333333
0.93333333 0.93333333 0.93333333
0.9377451 0.9377451 0.9377451
0.9372549 0.9372549 0.9372549
0.94117647 0.94117647 0.94117647
0.94901961 0.94901961 0.94901961
0.95778186 0.95778186 0.95778186
0.96470588 0.96470588 0.96470588
0.84313725 0.84313725 0.84313725
0.84362745 0.84362745 0.84362745
0.83529412 0.83529412 0.83529412
0.8495098 0.8495098 0.8495098
0.87254902 0.87254902 0.87254902
0.87990196 0.87990196 0.87990196
0.89803922 0.89803922 0.89803922
0.90637255 0.90637255 0.90637255
0.91764706 0.91764706 0.91764706
0.85098039 0.85098039 0.85098039
0.85839461 0.85839461 0.85839461
0.84313725 0.84313725 0.84313725
0.85704657 0.85704657 0.85704657
0.88210784 0.88210784 0.88210784
0.89148284 0.89148284 0.89148284
0.91029412 0.91029412 0.91029412
0.91372549 0.91372549 0.91372549
0.91764706 0.91764706 0.91764706
0.85098039 0.85098039 0.85098039
0.86139706 0.86139706 0.86139706
0.85196078 0.85196078 0.85196078
0.86384804 0.86384804 0.86384804
0.88235294 0.88235294 0.88235294
0.88627451 0.88627451 0.88627451
0.88333333 0.88333333 0.88333333
0.90245098 0.90245098 0.90245098
0.9245098 0.9245098 0.9245098
0.86127451 0.86127451 0.86127451
0.86911765 0.86911765 0.86911765
0.87058824 0.87058824 0.87058824
0.87395833 0.87395833 0.87395833
0.88308824 0.88308824 0.88308824
0.89656863 0.89656863 0.89656863
0.88970588 0.88970588 0.88970588
0.91421569 0.91421569 0.91421569
0.92009804 0.92009804 0.92009804
0.87058824 0.87058824 0.87058824
0.87058824 0.87058824 0.87058824
0.87058824 0.87058824 0.87058824
0.88357843 0.88357843 0.88357843
0.89019608 0.89019608 0.89019608
0.90196078 0.90196078 0.90196078
0.92254902 0.92254902 0.92254902
0.92377451 0.92377451 0.92377451
0.93921569 0.93921569 0.93921569
0.87843137 0.87843137 0.87843137
0.878125 0.878125 0.878125
0.89056373 0.89056373 0.89056373
0.9004902 0.9004902 0.9004902
0.90588235 0.90588235 0.90588235
0.91219363 0.91219363 0.91219363
0.92254902 0.92254902 0.92254902
0.9372549 0.9372549 0.9372549
0.9372549 0.9372549 0.9372549
0.90294118 0.90294118 0.90294118
0.89411765 0.89411765 0.89411765
0.89901961 0.89901961 0.89901961
0.90588235 0.90588235 0.90588235
0.91078431 0.91078431 0.91078431
0.92365196 0.92365196 0.92365196
0.92965686 0.92965686 0.92965686
0.94117647 0.94117647 0.94117647
0.94117647 0.94117647 0.94117647
0.92205882 0.92205882 0.92205882
0.91813725 0.91813725 0.91813725
0.91813725 0.91813725 0.91813725
0.92598039 0.92598039 0.92598039
0.92990196 0.92990196 0.92990196
0.9372549 0.9372549 0.9372549
0.94644608 0.94644608 0.94644608
0.95343137 0.95343137 0.95343137
0.95294118 0.95294118 0.95294118
0.94509804 0.94509804 0.94509804
0.94901961 0.94901961 0.94901961
0.94019608 0.94019608 0.94019608
0.9504902 0.9504902 0.9504902
0.94117647 0.94117647 0.94117647
0.94264706 0.94264706 0.94264706
0.95294118 0.95294118 0.95294118
0.96078431 0.96078431 0.96078431
0.96078431 0.96078431 0.96078431
