site/assets/luts/natron-haldclut--polaroid-px-100uv-warm--e75184630.cube
# LUTr-Project: LUTr — LUTrepository
# LUTr-Schema-Version: 1
# LUTr-ID: natron-haldclut--polaroid-px-100uv-warm--e75184630
# LUTr-Title: polaroid px-100uv+ warm +++
# LUTr-Collection: Natron HaldCLUT
# LUTr-Collection-ID: natron-haldclut-presets
# LUTr-Source: https://github.com/NatronGitHub/clut
# LUTr-Source-File: submissions/natron-haldclut-presets/instant_consumer/polaroid_px-100uv+_warm_+++.png
# LUTr-Source-Format: PNG
# LUTr-Source-SHA256: 3bd898ca70ca7623d2f4d4311456ab10e4de8acc731f94b73a63bfe9f402483b
# LUTr-License: CC-BY-SA-4.0
# LUTr-License-URL: https://github.com/NatronGitHub/clut#license
# LUTr-Tags: creative, film, film-emulation, hald-clut, natron, png, warm, cube
# LUTr-Transform-Class: film-emulation
# LUTr-Input-Color-Space: srgb
# LUTr-Output-Color-Space: srgb
# LUTr-Color-Space-Confidence: assumed-display-referred
# LUTr-Conversion-Method: PNG LUT image decoded at 16-bit and sampled to 25x25x25 3D CUBE
# LUTr-Conversion-Date: 2026-07-27
# LUTr-Conversion-Tool: LUTr scripts/convert-all-to-cube.mjs
# LUTr-Conversion-Grid: 25x25x25
# LUTr-Note: Preserve this metadata and the upstream license notices when redistributing.
TITLE "polaroid px-100uv+ warm +++"
LUT_3D_SIZE 9
DOMAIN_MIN 0 0 0
DOMAIN_MAX 1 1 1
0.44313725 0.39607843 0.38431373
0.43921569 0.39607843 0.38431373
0.43921569 0.39607843 0.38431373
0.43921569 0.39607843 0.38431373
0.44901961 0.40784314 0.39411765
0.50343137 0.46176471 0.44215686
0.55 0.51176471 0.48333333
0.58872549 0.55343137 0.51421569
0.60784314 0.57254902 0.52941176
0.44313725 0.4 0.38431373
0.44313725 0.39957108 0.38431373
0.44313725 0.4 0.3877451
0.44705882 0.40373775 0.38823529
0.46029412 0.41715686 0.40196078
0.50343137 0.46176471 0.44068627
0.54607843 0.50698529 0.47941176
0.58480392 0.54558824 0.51029412
0.60392157 0.56470588 0.5254902
0.44313725 0.4 0.38431373
0.44313725 0.4 0.38431373
0.45073529 0.40759804 0.39215686
0.45882353 0.41568627 0.4
0.47598039 0.43284314 0.41568627
0.49987745 0.45845588 0.43884804
0.54607843 0.50392157 0.47647059
0.60085784 0.56421569 0.525
0.63431373 0.59901961 0.55196078
0.43921569 0.39607843 0.38039216
0.44656863 0.40343137 0.38645833
0.46066176 0.41752451 0.40183824
0.4721201 0.42898284 0.41176471
0.4875 0.44509804 0.42671569
0.5028799 0.45974265 0.4401348
0.54705882 0.50637255 0.47830882
0.60863971 0.56960784 0.53020833
0.65490196 0.61960784 0.57107843
0.47647059 0.43529412 0.41764706
0.47843137 0.4372549 0.41960784
0.48431373 0.44117647 0.42156863
0.48235294 0.43995098 0.42034314
0.50980392 0.46666667 0.44705882
0.53995098 0.4995098 0.47401961
0.56862745 0.53235294 0.49705882
0.61838235 0.58308824 0.53995098
0.65882353 0.62352941 0.57254902
0.51911765 0.47990196 0.45637255
0.52432598 0.48529412 0.46029412
0.52058824 0.48026961 0.45637255
0.52996324 0.48921569 0.46329657
0.54460784 0.50612745 0.47794118
0.57156863 0.53627451 0.50098039
0.60392157 0.56862745 0.52794118
0.6372549 0.60196078 0.55490196
0.66568627 0.63039216 0.5754902
0.57843137 0.54019608 0.50392157
0.5872549 0.55098039 0.51176471
0.58333333 0.54779412 0.50784314
0.59080882 0.55490196 0.51568627
0.59803922 0.56323529 0.52352941
0.62303922 0.5877451 0.54252451
0.65784314 0.62254902 0.57058824
0.69129902 0.6560049 0.59362745
0.71568627 0.68039216 0.61666667
0.65588235 0.61715686 0.56568627
0.66329657 0.62493873 0.56960784
0.66764706 0.6314951 0.57352941
0.66127451 0.62843137 0.57303922
0.66617647 0.63455882 0.57720588
0.69264706 0.65765931 0.59460784
0.71556373 0.68039216 0.6122549
0.73823529 0.7033701 0.62794118
0.75735294 0.72205882 0.63970588
0.72156863 0.68627451 0.61568627
0.72892157 0.69362745 0.62303922
0.73823529 0.70294118 0.62843137
0.69558824 0.66176471 0.59754902
0.72156863 0.68823529 0.61568627
0.75294118 0.71764706 0.63676471
0.76078431 0.7254902 0.64019608
0.77696078 0.74558824 0.65098039
0.79607843 0.76470588 0.6627451
0.43921569 0.39607843 0.38088235
0.43921569 0.39221814 0.38039216
0.43921569 0.39215686 0.38039216
0.44295343 0.39822304 0.38431373
0.47034314 0.42892157 0.41323529
0.51256127 0.47334559 0.44981618
0.55355392 0.51433824 0.48419118
0.6004902 0.56470588 0.5254902
0.64264706 0.60735294 0.55637255
0.44705882 0.40300245 0.38823529
0.44313725 0.39918811 0.38431373
0.44313725 0.39987745 0.38431373
0.45075827 0.40633425 0.39215686
0.47251838 0.43262868 0.41369485
0.51240043 0.47175245 0.44852941
0.54952512 0.51030944 0.48285846
0.59216452 0.55386029 0.51770067
0.61519608 0.57990196 0.53676471
0.44705882 0.40392157 0.38823529
0.44705882 0.40390625 0.38823529
0.45098039 0.40784314 0.39215686
0.45695466 0.4138174 0.39963235
0.48026961 0.4372549 0.41893382
0.51470588 0.47334559 0.45196078
0.5528799 0.51498162 0.48612132
0.60692402 0.56931679 0.5290288
0.63688725 0.60159314 0.55539216
0.45704657 0.41390931 0.39803922
0.46078431 0.4178079 0.40169271
0.46616115 0.42495404 0.40637255
0.47384344 0.43082108 0.4141008
0.49460784 0.45490196 0.43250613
0.52419577 0.48204657 0.45851716
0.56248468 0.52334559 0.49364277
0.61660539 0.58115043 0.53801317
0.6627451 0.62745098 0.57647059
0.4877451 0.44681373 0.42892157
0.48820466 0.44852941 0.42935049
0.49607843 0.45637255 0.43676471
0.50373775 0.46421569 0.44099265
0.5252451 0.48578431 0.46139706
0.5495098 0.51102941 0.48284314
0.58314951 0.54761029 0.5122549
0.62426471 0.58897059 0.54387255
0.66666667 0.63137255 0.57647059
0.53186275 0.49264706 0.46550245
0.52839308 0.48921569 0.46546415
0.53601409 0.49679841 0.47103248
0.53841912 0.49920343 0.47205882
0.55637255 0.51844363 0.48961397
0.5754902 0.54001225 0.50723805
0.60637255 0.57107843 0.53186275
0.64552696 0.61135876 0.56070006
0.67726716 0.64197304 0.58529412
0.59362745 0.55453431 0.51556373
0.59797794 0.55957414 0.51793811
0.59764093 0.55845588 0.51761642
0.59803922 0.55980392 0.5212163
0.60569853 0.57034314 0.53063725
0.62682292 0.5915288 0.54644608
0.65036765 0.61519608 0.56593137
0.68382353 0.64852941 0.58958333
0.71470588 0.67941176 0.6127451
0.66029412 0.62493873 0.56868873
0.67075674 0.63272825 0.57352941
0.6754902 0.63976716 0.57745098
0.67156863 0.63670343 0.57745098
0.67570466 0.640625 0.58458946
0.68929994 0.65400582 0.59442402
0.71176471 0.67679228 0.60931373
0.73474265 0.6995098 0.62401961
0.75343137 0.71862745 0.63578431
0.7254902 0.69019608 0.61568627
0.73284314 0.6971201 0.62303922
0.74117647 0.70588235 0.62745098
0.73658088 0.70128676 0.62696078
0.74534314 0.71004902 0.63504902
0.75294118 0.71764706 0.63921569
0.76433824 0.73026961 0.64313725
0.77653186 0.74509804 0.65098039
0.8004902 0.76911765 0.66323529
0.44705882 0.40294118 0.38823529
0.44313725 0.39901961 0.38431373
0.43848039 0.39289216 0.37965686
0.46029412 0.41715686 0.40147059
0.49215686 0.45245098 0.43235294
0.53026961 0.49105392 0.46421569
0.57647059 0.53823529 0.50367647
0.62438725 0.58823529 0.54595588
0.66960784 0.63823529 0.57941176
0.44705882 0.40392157 0.38823529
0.44705882 0.40272672 0.38823529
0.45064338 0.40646446 0.39108456
0.46398591 0.42107843 0.40341605
0.49215686 0.4528799 0.43235294
0.52990196 0.49105392 0.46421569
0.57352941 0.5372549 0.50220588
0.62352941 0.58823529 0.54460784
0.66176471 0.62941176 0.5754902
0.45318627 0.41004902 0.39436275
0.45710784 0.41397059 0.39828431
0.46102941 0.41789216 0.40220588
0.46504289 0.42190564 0.40539216
0.49558824 0.45588235 0.43333333
0.53170956 0.49460784 0.46715686
0.57352941 0.53805147 0.50330882
0.62735907 0.59215686 0.54564951
0.66862745 0.6372549 0.58014706
0.47598039 0.43284314 0.41421569
0.47967218 0.43762255 0.41806066
0.48382353 0.44387255 0.42316176
0.49125306 0.45006127 0.42892157
0.51715686 0.47794118 0.45238971
0.54411765 0.50882353 0.47820159
0.57579657 0.54059436 0.50612745
0.62443321 0.59018076 0.54473039
0.67352941 0.63921569 0.58333333
0.50735294 0.46764706 0.44803922
0.50931373 0.46985294 0.44803922
0.5182598 0.47941176 0.45551471
0.52708333 0.48988971 0.46372549
0.5504902 0.5127451 0.48382353
0.5713848 0.53578431 0.50220588
0.59816176 0.56286765 0.52401961
0.63400735 0.60018382 0.55098039
0.67794118 0.64264706 0.58431373
0.55490196 0.51568627 0.48492647
0.55704657 0.51942402 0.48676471
0.5627451 0.52598039 0.49234069
0.56519608 0.52731311 0.49483762
0.57892157 0.54362745 0.50863971
0.59656863 0.56127451 0.52391238
0.625 0.58970588 0.54491422
0.66115196 0.62585784 0.57058824
0.69558824 0.66213235 0.59718137
0.61666667 0.57916667 0.53137255
0.61666667 0.57745098 0.53112745
0.61893382 0.58137255 0.53431373
0.61666667 0.58137255 0.53504902
0.62647059 0.59117647 0.54485294
0.64019608 0.6051777 0.55811887
0.65759804 0.6245098 0.56979167
0.69460784 0.65934436 0.5955576
0.72647059 0.69117647 0.61887255
0.68235294 0.64411765 0.58039216
0.68235294 0.64705882 0.58125
0.68627451 0.64840686 0.58495711
0.68639706 0.65098039 0.58786765
0.68627451 0.65098039 0.59044118
0.69643076 0.66311275 0.59995404
0.71397059 0.68014706 0.60845588
0.73480392 0.7033701 0.6245098
0.76078431 0.7254902 0.63970588
0.73627451 0.70098039 0.62352941
0.74105392 0.7057598 0.62732843
0.74803922 0.7127451 0.63137255
0.74080882 0.70551471 0.62745098
0.74117647 0.70588235 0.62745098
0.76017157 0.72487745 0.64252451
0.76936275 0.73651961 0.64705882
0.78382353 0.75245098 0.65490196
0.76960784 0.73823529 0.64705882
0.46911765 0.42598039 0.41029412
0.47518382 0.43204657 0.41403186
0.48443627 0.44129902 0.42169118
0.49417892 0.45441176 0.43143382
0.51029412 0.47303922 0.44754902
0.54901961 0.51372549 0.48082108
0.59656863 0.56127451 0.52144608
0.64656863 0.61127451 0.56519608
0.69019608 0.65882353 0.59460784
0.46764706 0.4245098 0.40637255
0.47518382 0.43204657 0.41403186
0.48835784 0.44682904 0.42561275
0.49790901 0.45862439 0.43516391
0.5120098 0.475 0.45
0.55129442 0.51519608 0.48290441
0.59767157 0.56398591 0.52316176
0.64973192 0.61515778 0.56390931
0.69264706 0.66127451 0.59852941
0.4627451 0.42022059 0.40392157
0.48244485 0.43984375 0.42071078
0.49577206 0.45471814 0.4333027
0.5073223 0.46810662 0.4435049
0.52444853 0.48860294 0.46023284
0.55404412 0.51875 0.48627451
0.5995098 0.56495098 0.52316176
0.6504902 0.61616115 0.56390931
0.69656863 0.66519608 0.60245098
0.49901961 0.45980392 0.43627451
0.49509804 0.45588235 0.43393842
0.50404412 0.46444547 0.44129902
0.52892157 0.48970588 0.46259957
0.54849877 0.5127451 0.48137255
0.57442555 0.53970588 0.50349265
0.60693934 0.57244179 0.52892157
0.65411305 0.61911765 0.56684283
0.69656863 0.66127451 0.59852941
0.53382353 0.49460784 0.46789216
0.53259804 0.49338235 0.46715686
0.54025735 0.50343137 0.47328431
0.55315564 0.51712623 0.48602941
0.575 0.53970588 0.50539216
0.59803922 0.56320466 0.52352941
0.62518382 0.59270833 0.54485294
0.6620098 0.62843137 0.57156863
0.70245098 0.66911765 0.60245098
0.58186275 0.54264706 0.50827206
0.58792892 0.55030637 0.51028646
0.59362745 0.55833333 0.51764706
0.59754902 0.5622549 0.52003676
0.60857843 0.57328431 0.53137255
0.625 0.59215686 0.54564951
0.65196078 0.62058824 0.56568627
0.6868796 0.65458793 0.58964461
0.72064951 0.68627451 0.61268382
0.64362745 0.60833333 0.55453431
0.64705882 0.60833333 0.55453431
0.65147059 0.61617647 0.56029412
0.65147059 0.61556373 0.56029412
0.65459559 0.61960784 0.5651348
0.66285233 0.62973346 0.57444853
0.68284314 0.64754902 0.5885723
0.71711091 0.68235294 0.61168811
0.74571078 0.71041667 0.63137255
0.70539216 0.67009804 0.59920343
0.70686275 0.67009804 0.60079657
0.70931373 0.67401961 0.603125
0.70539216 0.67009804 0.60079657
0.70808824 0.67279412 0.60376838
0.715625 0.68234528 0.61145067
0.72686887 0.69376532 0.62009804
0.74838388 0.71454504 0.63422947
0.76519608 0.72990196 0.64344363
0.75539216 0.72009804 0.63529412
0.76060049 0.72530637 0.63921569
0.76078431 0.7254902 0.63921569
0.75386029 0.72009804 0.63529412
0.75686275 0.72156863 0.63848039
0.76770833 0.73333333 0.64613971
0.77647059 0.74178922 0.65098039
0.78431373 0.74901961 0.65490196
0.775 0.74117647 0.65098039
0.52156863 0.48235294 0.45686275
0.5254902 0.48627451 0.46053922
0.53480392 0.49411765 0.46813725
0.54436275 0.50710784 0.47769608
0.55882353 0.52352941 0.48921569
0.58063725 0.54730392 0.50808824
0.62647059 0.59215686 0.54460784
0.66715686 0.63210784 0.57892157
0.7 0.66862745 0.60392157
0.5254902 0.48406863 0.45882353
0.52892157 0.48927696 0.46271446
0.54001225 0.50098039 0.47205882
0.54901961 0.51289828 0.48161765
0.5627451 0.52745098 0.49313725
0.58382353 0.54852941 0.50931373
0.62647059 0.59117647 0.54411765
0.67303922 0.63820466 0.58262868
0.70588235 0.6745098 0.60784314
0.53333333 0.49411765 0.46666667
0.5372549 0.49803922 0.47052696
0.54509804 0.50588235 0.47757353
0.55594363 0.51856618 0.4870098
0.57205882 0.53676471 0.5004902
0.59313725 0.55784314 0.51666667
0.62732843 0.59215686 0.54448529
0.67671569 0.64209559 0.584375
0.71127451 0.67843137 0.61176471
0.54509804 0.50588235 0.47769608
0.54754902 0.50897672 0.47843137
0.55257353 0.51556373 0.48504902
0.57472426 0.53851103 0.50413603
0.58811275 0.55379902 0.51458333
0.60689338 0.57328431 0.52892157
0.6408701 0.60686275 0.55588235
0.68520221 0.65278799 0.59068627
0.71887255 0.68627451 0.61568627
0.56078431 0.52156863 0.49215686
0.56642157 0.52830882 0.49595588
0.5747549 0.5377451 0.50196078
0.59632353 0.5620098 0.52279412
0.61029412 0.57647059 0.53333333
0.62622549 0.59362745 0.54546569
0.65784314 0.6247549 0.56936275
0.69571078 0.66139706 0.59742647
0.72647059 0.69215686 0.61862745
0.60808824 0.56960784 0.52892157
0.61553309 0.57735907 0.53348652
0.6245098 0.58921569 0.54123775
0.62696078 0.59313725 0.54460784
0.64007353 0.6067402 0.5560049
0.65441176 0.62150735 0.5676777
0.67922794 0.64754902 0.58658088
0.71191789 0.67843137 0.60882353
0.73995098 0.70465686 0.62622549
0.66470588 0.62745098 0.57009804
0.66991422 0.63265931 0.57395833
0.67598039 0.64068627 0.57941176
0.67432598 0.63921569 0.57941176
0.68161765 0.64852941 0.58627451
0.68958333 0.65784314 0.59479167
0.70588235 0.6745098 0.60698529
0.73235294 0.70073529 0.62426471
0.75 0.71470588 0.63529412
0.72034314 0.68504902 0.61029412
0.7216299 0.68633578 0.6120098
0.72487745 0.69093137 0.61427696
0.72426471 0.68897059 0.6122549
0.72708333 0.69289216 0.61715686
0.73219975 0.6995098 0.62401961
0.73805147 0.70533088 0.62843137
0.75563725 0.72230392 0.63924632
0.7747549 0.73970588 0.64926471
0.76666667 0.73137255 0.64313725
0.76053922 0.7252451 0.63921569
0.76862745 0.73333333 0.64509804
0.76862745 0.73333333 0.64509804
0.77058824 0.73529412 0.64705882
0.77720588 0.74313725 0.65098039
0.78823529 0.75294118 0.65882353
0.78823529 0.75294118 0.65882353
0.79019608 0.75686275 0.65882353
0.58333333 0.54411765 0.51127451
0.58333333 0.54803922 0.5127451
0.5872549 0.55196078 0.5185049
0.60294118 0.56764706 0.52843137
0.61862745 0.58333333 0.53946078
0.63339461 0.59901961 0.5504902
0.65306373 0.61813725 0.56323529
0.68431373 0.65294118 0.59264706
0.71127451 0.67990196 0.61176471
0.5908701 0.55324755 0.51666667
0.59117647 0.55584406 0.5185432
0.59852941 0.560769 0.5245098
0.60686275 0.5713848 0.53168658
0.62230392 0.5870098 0.54313725
0.63952206 0.60441176 0.55496324
0.65877757 0.62352941 0.57100184
0.69215686 0.65713082 0.59769455
0.72677696 0.69381127 0.62089461
0.59901961 0.56311275 0.5245098
0.59901961 0.56372549 0.5245098
0.60569853 0.56847426 0.52843137
0.61323529 0.57794118 0.53572304
0.63235294 0.59705882 0.55073529
0.65 0.61580882 0.56349571
0.66804534 0.63275123 0.57775735
0.69813113 0.66341912 0.60159314
0.73480392 0.70343137 0.625
0.60778186 0.57156863 0.53235294
0.60686275 0.57156863 0.53235294
0.61300551 0.57732843 0.53613664
0.62015931 0.58601409 0.54209559
0.63992034 0.60490196 0.55591299
0.65910692 0.62555147 0.57064951
0.6794424 0.64466912 0.58639706
0.70784314 0.67408088 0.60802696
0.73872549 0.70735294 0.62745098
0.61666667 0.57941176 0.53872549
0.62156863 0.58504902 0.54329044
0.62254902 0.58848039 0.54411765
0.63452819 0.60147059 0.55367647
0.6502451 0.61691176 0.56397059
0.66688113 0.63477328 0.57717525
0.69068627 0.65735294 0.5942402
0.71960784 0.68538603 0.61289828
0.74583333 0.71127451 0.63137255
0.63431373 0.59901961 0.55196078
0.64215686 0.60734528 0.55802696
0.65068934 0.61801471 0.56556373
0.65749847 0.62534467 0.57067249
0.6700674 0.63823529 0.57941176
0.684375 0.65300245 0.5894761
0.70533088 0.67280944 0.60291054
0.734375 0.70091912 0.62248775
0.75833333 0.72303922 0.63921569
0.6814951 0.64656863 0.58566176
0.68739277 0.65382966 0.59050245
0.69353554 0.66099877 0.59460784
0.69869792 0.66557904 0.59852941
0.71004902 0.67726716 0.60618873
0.71617647 0.68480392 0.61236213
0.72892157 0.69718137 0.62040441
0.75476409 0.72054228 0.63587623
0.77107843 0.73578431 0.64705882
0.73431373 0.69901961 0.62156863
0.73562347 0.7026348 0.62214308
0.74126838 0.70655637 0.6254902
0.74657629 0.71195619 0.62941176
0.75098039 0.71599265 0.63333333
0.75128676 0.71880362 0.63578431
0.75890012 0.72648591 0.64002757
0.77461703 0.7396829 0.64910386
0.79019608 0.75490196 0.65882353
0.78578431 0.7504902 0.65490196
0.78039216 0.74509804 0.65116422
0.78431373 0.74901961 0.65490196
0.790625 0.75533088 0.65882353
0.78823529 0.75294118 0.65882353
0.790625 0.75686275 0.65882353
0.79607843 0.76078431 0.6627451
0.80147059 0.76617647 0.66421569
0.81176471 0.77647059 0.67058824
0.65294118 0.61470588 0.5627451
0.65294118 0.61764706 0.56568627
0.65686275 0.62156863 0.56666667
0.66470588 0.62941176 0.57414216
0.67647059 0.64313725 0.58382353
0.68823529 0.65294118 0.58958333
0.69289216 0.66078431 0.59705882
0.70735294 0.6754902 0.60919118
0.72156863 0.69019608 0.61960784
0.65772059 0.62242647 0.5692402
0.66041667 0.62512255 0.56960784
0.66461397 0.62931985 0.57417279
0.66862745 0.63333333 0.57830882
0.68033088 0.64509804 0.58572304
0.69523591 0.66070772 0.59675245
0.70839461 0.67533701 0.6057598
0.71873468 0.68682598 0.61666667
0.73811275 0.7067402 0.6310049
0.66470588 0.62941176 0.57426471
0.66789216 0.63259804 0.57671569
0.67254902 0.6372549 0.58008578
0.67647059 0.64117647 0.58235294
0.68921569 0.65404412 0.59276961
0.70474877 0.67000613 0.6044424
0.72015931 0.68504902 0.61593137
0.73051471 0.69613971 0.62297794
0.76004902 0.72867647 0.64019608
0.67254902 0.6372549 0.58137255
0.67254902 0.6372549 0.58137255
0.67647059 0.64117647 0.58235294
0.68039216 0.64509804 0.58488051
0.69411765 0.66078431 0.59454657
0.71153493 0.67895221 0.60882353
0.72717525 0.69289216 0.61948529
0.74126838 0.70693934 0.62843137
0.75784314 0.72647059 0.64019608
0.67892157 0.64509804 0.58529412
0.67665441 0.64313725 0.58529412
0.67990196 0.64509804 0.58529412
0.68523284 0.65294118 0.58921569
0.70171569 0.67009804 0.6002451
0.71807598 0.68541667 0.6127451
0.73210784 0.69926471 0.62095588
0.75006127 0.71501225 0.63235294
0.76911765 0.73382353 0.64411765
0.69154412 0.65686275 0.5935049
0.68933824 0.65632659 0.59313725
0.68541667 0.65404412 0.58958333
0.69463848 0.66211703 0.59613971
0.7120098 0.67867647 0.60759804
0.72394301 0.69154412 0.6151348
0.73694853 0.70392157 0.62405025
0.75975797 0.72611826 0.63933824
0.7807598 0.74607843 0.65196078
0.70465686 0.67328431 0.60588235
0.70784314 0.67647059 0.60808824
0.7125 0.68039216 0.60955882
0.71841299 0.68661152 0.61320466
0.73284314 0.7 0.62144608
0.74252451 0.70894608 0.62769608
0.75196078 0.72015931 0.63370098
0.77496936 0.74160539 0.64840686
0.79019608 0.75490196 0.65882353
0.74607843 0.71470588 0.63284314
0.74995404 0.71781556 0.63578431
0.75456495 0.72215074 0.63673407
0.75747549 0.72501532 0.63970588
0.76182598 0.72996324 0.64344363
0.77120098 0.73818934 0.64754902
0.78112745 0.74656863 0.65168505
0.79384191 0.75865502 0.65899203
0.80833333 0.77303922 0.66715686
0.79215686 0.76078431 0.6627451
0.79215686 0.75784314 0.65980392
0.79607843 0.76078431 0.6627451
0.79240196 0.75821078 0.66017157
0.79705882 0.76470588 0.6627451
0.80098039 0.76568627 0.66372549
0.80563725 0.77034314 0.66666667
0.81311275 0.77781863 0.67058824
0.82058824 0.78529412 0.6745098
0.72303922 0.6877451 0.6127451
0.72647059 0.69074755 0.61574755
0.72647059 0.69154412 0.61666667
0.73039216 0.69509804 0.61881127
0.73823529 0.70490196 0.62401961
0.74607843 0.71470588 0.62843137
0.75 0.71556373 0.63186275
0.75784314 0.72604167 0.63970588
0.75784314 0.72647059 0.63970588
0.73039216 0.69466912 0.61666667
0.73039216 0.69509804 0.61966912
0.73431373 0.69901961 0.62058824
0.73431373 0.69901961 0.62058824
0.74191176 0.70686275 0.62622549
0.75 0.71832108 0.63202359
0.75779718 0.72576593 0.63933824
0.76514246 0.73039216 0.64362745
0.76476716 0.73033088 0.64362745
0.73039216 0.69509804 0.61666667
0.73296569 0.69734988 0.61999081
0.7379902 0.70269608 0.62401961
0.74125306 0.70654105 0.6245098
0.74607843 0.71078431 0.62818627
0.75753676 0.72397365 0.6372549
0.76632966 0.73391544 0.64362745
0.77303922 0.73812806 0.64754902
0.78382353 0.74938725 0.65404412
0.73823529 0.70294118 0.62401961
0.73823529 0.70294118 0.62401961
0.73823529 0.70294118 0.62401961
0.74460784 0.71078431 0.62794118
0.7497549 0.71657475 0.63186275
0.76256893 0.73027727 0.64117647
0.77207414 0.73805147 0.64754902
0.78088235 0.74562653 0.65147059
0.79136029 0.75735294 0.65753676
0.74215686 0.70686275 0.62794118
0.74215686 0.70686275 0.62493873
0.73823529 0.70637255 0.62401961
0.74322917 0.71078431 0.62794118
0.75367647 0.72144608 0.63406863
0.76697304 0.73431373 0.64362745
0.77830882 0.74558824 0.65147059
0.78872549 0.75343137 0.65539216
0.79656863 0.76127451 0.65931373
0.74607843 0.71421569 0.63186275
0.74231771 0.71035539 0.62794118
0.74215686 0.70782782 0.62579657
0.74908088 0.71470588 0.63105852
0.7622549 0.72818627 0.63970588
0.77009038 0.7377451 0.64362745
0.7792739 0.74563419 0.65124081
0.79237898 0.75735294 0.65882353
0.8004902 0.76519608 0.66323529
0.75392157 0.72254902 0.63933824
0.75355392 0.71948529 0.63578431
0.75477941 0.72153799 0.6356924
0.76038603 0.72686887 0.63970588
0.77334559 0.7403799 0.64754902
0.78200061 0.7495098 0.65179228
0.78504902 0.75058211 0.65232843
0.79699755 0.76171875 0.65974265
0.80833333 0.77389706 0.66715686
0.77009804 0.73866422 0.64797794
0.76998315 0.73823529 0.64754902
0.77395833 0.74215686 0.64803922
0.7719133 0.74054075 0.64991575
0.78134191 0.7495098 0.6549326
0.79253983 0.75893076 0.6592065
0.80093444 0.76643689 0.66302083
0.80914522 0.77390472 0.66721048
0.81966912 0.784375 0.6745098
0.8 0.76519608 0.66323529
0.80392157 0.76905637 0.66666667
0.80428922 0.76911765 0.66666667
0.81047794 0.77647059 0.67058824
0.80833333 0.77647059 0.67058824
0.81176471 0.77647059 0.67058824
0.81568627 0.78039216 0.67058824
0.82052696 0.78523284 0.6745098
0.82745098 0.79215686 0.67843137
0.78823529 0.75294118 0.65882353
0.79558824 0.76029412 0.6627451
0.78823529 0.75294118 0.65882353
0.78431373 0.75294118 0.65490196
0.79215686 0.75882353 0.65882353
0.79607843 0.76470588 0.6627451
0.79705882 0.76470588 0.6627451
0.81911765 0.78382353 0.6745098
0.81176471 0.77647059 0.67058824
0.78823529 0.75294118 0.65882353
0.79172794 0.75643382 0.6622549
0.78823529 0.75343137 0.65882353
0.78823529 0.75294118 0.65882353
0.79411765 0.76078431 0.6627451
0.80343137 0.77077206 0.66666667
0.80355392 0.76862745 0.66629902
0.80827206 0.77598039 0.66709559
0.80784314 0.77254902 0.66666667
0.7872549 0.75196078 0.65490196
0.78382353 0.74852941 0.65441176
0.7872549 0.75196078 0.65563725
0.79607843 0.76078431 0.6627451
0.79607843 0.76078431 0.6627451
0.80036765 0.76862745 0.66666667
0.80392157 0.77254902 0.66666667
0.80833333 0.77647059 0.66666667
0.81470588 0.78039216 0.67058824
0.79607843 0.76078431 0.6627451
0.79264706 0.75735294 0.65882353
0.79178922 0.7564951 0.65882353
0.7966299 0.76378676 0.6627451
0.8 0.76862745 0.66593137
0.80392157 0.77107843 0.66666667
0.80392157 0.77254902 0.66666667
0.81176471 0.77677696 0.67058824
0.81960784 0.78431373 0.6745098
0.79215686 0.75686275 0.65882353
0.79215686 0.75686275 0.65882353
0.78823529 0.75441176 0.65882353
0.79215686 0.75931373 0.65882353
0.8 0.76862745 0.66470588
0.80392157 0.77254902 0.66666667
0.80392157 0.77058824 0.66666667
0.8122549 0.77696078 0.67058824
0.82352941 0.78823529 0.6745098
0.79215686 0.75686275 0.65882353
0.78823529 0.75441176 0.65539216
0.79154412 0.75686275 0.65882353
0.79908088 0.76470588 0.6627451
0.80784314 0.77254902 0.66666667
0.80539216 0.77254902 0.66666667
0.80784314 0.77463235 0.66703431
0.81568627 0.78088235 0.67107843
0.82598039 0.79215686 0.67843137
0.80098039 0.76960784 0.66666667
0.79607843 0.76213235 0.6627451
0.8 0.76470588 0.6627451
0.8067402 0.77144608 0.66666667
0.80735294 0.77254902 0.66666667
0.81176471 0.77647059 0.67058824
0.81348039 0.78039216 0.67058824
0.81960784 0.78443627 0.6745098
0.82745098 0.79215686 0.67843137
0.80784314 0.77647059 0.67058824
0.80441176 0.77254902 0.66666667
0.81176471 0.77647059 0.66973039
0.8091299 0.77401961 0.66666667
0.7995098 0.76470588 0.6627451
0.80753676 0.77254902 0.66666667
0.81568627 0.78137255 0.67156863
0.82745098 0.79215686 0.67843137
0.83186275 0.79656863 0.68235294
0.81960784 0.78431373 0.6745098
0.82352941 0.78823529 0.67843137
0.81568627 0.78039216 0.67058824
0.80784314 0.77254902 0.67058824
0.80784314 0.77254902 0.67058824
0.81176471 0.77647059 0.67058824
0.81666667 0.78137255 0.6745098
0.82745098 0.79215686 0.67843137
0.83529412 0.8 0.68235294
