site/assets/luts/natron-haldclut--fuji-160c--db6b89e12.cube
# LUTr-Project: LUTr — LUTrepository
# LUTr-Schema-Version: 1
# LUTr-ID: natron-haldclut--fuji-160c--db6b89e12
# LUTr-Title: fuji 160c ++
# LUTr-Collection: Natron HaldCLUT
# LUTr-Collection-ID: natron-haldclut-presets
# LUTr-Source: https://github.com/NatronGitHub/clut
# LUTr-Source-File: submissions/natron-haldclut-presets/negative_new/fuji_160c_++.png
# LUTr-Source-Format: PNG
# LUTr-Source-SHA256: 750230a6bad7433148dc63d0c062d9409db9bd426d6d0d5f5608721ee28dfcff
# LUTr-License: CC-BY-SA-4.0
# LUTr-License-URL: https://github.com/NatronGitHub/clut#license
# LUTr-Tags: creative, film, film-emulation, hald-clut, natron, png, cube
# LUTr-Transform-Class: film-emulation
# LUTr-Input-Color-Space: srgb
# LUTr-Output-Color-Space: srgb
# LUTr-Color-Space-Confidence: assumed-display-referred
# LUTr-Conversion-Method: PNG LUT image decoded at 16-bit and sampled to 25x25x25 3D CUBE
# LUTr-Conversion-Date: 2026-07-27
# LUTr-Conversion-Tool: LUTr scripts/convert-all-to-cube.mjs
# LUTr-Conversion-Grid: 25x25x25
# LUTr-Note: Preserve this metadata and the upstream license notices when redistributing.
TITLE "fuji 160c ++"
LUT_3D_SIZE 9
DOMAIN_MIN 0 0 0
DOMAIN_MAX 1 1 1
0.062745098 0.070588235 0.054901961
0.1245098 0.078431373 0.070588235
0.22058824 0.067647059 0.040196078
0.36911765 0.078921569 0.047058824
0.53137255 0.021568627 0.039215686
0.68431373 0.013235294 0.036764706
0.81372549 0.023529412 0.031372549
0.90343137 0.14313725 0.046568627
0.96862745 0.21176471 0.043137255
0.055392157 0.14362745 0.050980392
0.093137255 0.14019608 0.051041667
0.22352941 0.14068627 0.059803922
0.37156863 0.12530637 0.03560049
0.53529412 0.10980392 0.031862745
0.6846201 0.10226716 0.031372549
0.80392157 0.15159314 0.035294118
0.90343137 0.21617647 0.021078431
0.9877451 0.28480392 0.047058824
0.0088235294 0.24411765 0.071568627
0.040196078 0.24705882 0.047058824
0.18627451 0.24411765 0.028431373
0.36801471 0.25098039 0.016666667
0.53137255 0.24656863 0.019607843
0.68137255 0.25637255 0.022426471
0.79534314 0.28333333 0.020343137
0.89656863 0.31433824 0.012254902
0.98039216 0.36176471 0.03627451
0.0053921569 0.37058824 0.048529412
0 0.37058824 0.036764706
0.11862745 0.3745098 0.022058824
0.32598039 0.38480392 0.0072916667
0.51446078 0.39142157 0.025980392
0.66617647 0.3911152 0.0039215686
0.77977941 0.41433824 0.0078431373
0.87745098 0.42745098 0.0083333333
0.96617647 0.45441176 0.017156863
0 0.50392157 0.0058823529
0.0078431373 0.49803922 0.015686275
0.0049019608 0.49411765 0.0024509804
0.28308824 0.50122549 0.0026960784
0.47647059 0.50490196 0.01372549
0.63921569 0.52156863 0.0053921569
0.7622549 0.5372549 0.014215686
0.8622549 0.53946078 0.015686275
0.94313725 0.55098039 0.0078431373
0 0.61764706 0.0078431373
0.0039215686 0.61372549 0.023345588
0.0098039216 0.61372549 0.01875
0.24761029 0.61372549 0.020098039
0.44754902 0.61495098 0.010294118
0.6004902 0.62009804 0.011764706
0.72794118 0.63284314 0.0078431373
0.84068627 0.64754902 0.0076593137
0.91323529 0.65539216 0.010784314
0 0.7245098 0.082352941
0.0039215686 0.71666667 0.10098039
0.061764706 0.71666667 0.095098039
0.29509804 0.71335784 0.11875
0.45 0.71323529 0.10735294
0.58235294 0.71482843 0.10686275
0.70588235 0.72058824 0.1
0.81666667 0.73541667 0.11470588
0.90392157 0.75196078 0.13529412
0.075 0.82156863 0.22254902
0.13229167 0.81764706 0.21862745
0.25698529 0.81323529 0.22634804
0.36832108 0.80980392 0.22401961
0.48284314 0.81715686 0.25196078
0.59460784 0.81372549 0.24852941
0.70110294 0.81458333 0.25490196
0.80931373 0.8254902 0.27401961
0.90196078 0.84019608 0.29705882
0.3372549 0.92941176 0.39215686
0.35196078 0.9254902 0.39166667
0.39411765 0.91764706 0.39117647
0.45980392 0.91911765 0.40539216
0.53137255 0.91372549 0.40980392
0.61862745 0.90441176 0.40098039
0.71666667 0.93333333 0.44803922
0.81323529 0.92941176 0.45882353
0.90588235 0.94509804 0.49411765
0.081862745 0.093627451 0.10098039
0.12794118 0.078921569 0.096568627
0.22708333 0.075490196 0.1
0.38854167 0.079901961 0.10882353
0.54313725 0.040686275 0.11446078
0.69344363 0.019791667 0.11617647
0.81078431 0.07745098 0.12401961
0.90343137 0.18529412 0.13229167
0.9877451 0.25784314 0.14705882
0.066727941 0.13921569 0.10006127
0.12794118 0.14362745 0.10746783
0.23448223 0.14319853 0.1004902
0.38807445 0.14358915 0.10463388
0.54313725 0.13872549 0.10140931
0.69344363 0.13186275 0.109375
0.80816483 0.16813725 0.11498162
0.90643382 0.23872549 0.12090227
0.98382353 0.29613971 0.13970588
0.0087009804 0.2504902 0.1004902
0.064537377 0.254856 0.1057598
0.20392157 0.25490196 0.10474877
0.376394 0.25882353 0.089093137
0.53903186 0.25870098 0.089093137
0.68431373 0.26636029 0.089215686
0.79895833 0.29108456 0.093504902
0.89946385 0.32958027 0.1011489
0.97745098 0.37438725 0.12843137
0.0039215686 0.37665441 0.094117647
0.012400429 0.37824755 0.096568627
0.15522365 0.37504596 0.092830882
0.34528186 0.39012714 0.083157169
0.52205882 0.39402574 0.058088235
0.66617647 0.39166667 0.034313725
0.77977941 0.41372549 0.040686275
0.88137255 0.43351716 0.065908395
0.96862745 0.45833333 0.098529412
0.0039215686 0.51372549 0.077696078
0.0039215686 0.50759804 0.087316176
0.05 0.50563725 0.087990196
0.30490196 0.50588235 0.084313725
0.48590686 0.51066176 0.066666667
0.63985907 0.5254902 0.034895833
0.76047794 0.53333333 0.022794118
0.86593137 0.53578431 0.019148284
0.9375 0.54534314 0.033823529
0.0073529412 0.62156863 0.10539216
0.0039215686 0.61764706 0.10931373
0.024632353 0.62011336 0.10502451
0.27481618 0.61305913 0.11330423
0.45588235 0.61617647 0.10186887
0.60588235 0.6254902 0.091666667
0.73484988 0.63970588 0.068612132
0.83921569 0.64008885 0.064851409
0.92971814 0.64932598 0.048529412
0.0040441176 0.7245098 0.15208333
0.0053768382 0.7245098 0.16171875
0.13382353 0.71666667 0.1645527
0.30032169 0.7127451 0.17040441
0.45269608 0.7127451 0.17830882
0.58958333 0.71600797 0.17297794
0.70955882 0.72377451 0.16323529
0.82054228 0.73272059 0.17855392
0.91764706 0.74803922 0.1877451
0.11023284 0.81807598 0.26470588
0.16279871 0.82107843 0.26721814
0.27254902 0.81672794 0.2564185
0.37350643 0.80980392 0.27074908
0.48158701 0.80934436 0.28385417
0.59836857 0.81715686 0.29650735
0.7011489 0.81717218 0.29488358
0.80189951 0.825 0.29919577
0.90545343 0.84068627 0.31862745
0.33284314 0.92156863 0.40735294
0.35588235 0.9254902 0.41127451
0.39901961 0.92156863 0.41127451
0.4622549 0.92156863 0.42285539
0.53529412 0.91568627 0.43088235
0.62009804 0.91648284 0.44148284
0.71666667 0.92683824 0.45980392
0.81317402 0.94160539 0.48578431
0.88676471 0.93333333 0.48235294
0.12156863 0.10098039 0.19607843
0.14301471 0.097058824 0.19595588
0.25 0.097058824 0.20392157
0.3995098 0.081985294 0.20992647
0.55784314 0.019117647 0.20490196
0.70784314 0.014705882 0.21568627
0.82083333 0.094117647 0.22843137
0.90992647 0.22144608 0.24754902
0.96568627 0.28235294 0.2627451
0.097916667 0.16360294 0.20098039
0.14791667 0.15856311 0.20355392
0.26072304 0.16360294 0.21041667
0.40441176 0.14523591 0.20081189
0.55245098 0.13039216 0.20392157
0.70147059 0.15203738 0.22486213
0.81470588 0.20306373 0.23606005
0.90379902 0.27305453 0.24635417
0.96519608 0.31519608 0.26139706
0.054901961 0.26397059 0.20784314
0.11237745 0.26951593 0.21176471
0.24589461 0.26666667 0.21862745
0.39923407 0.26657475 0.21188725
0.54852941 0.26666667 0.2064951
0.6924326 0.28566176 0.22254902
0.8033701 0.30257353 0.22818627
0.90343137 0.34601716 0.23844975
0.98039216 0.39240196 0.26176471
0.016789216 0.40882353 0.22316176
0.045603554 0.40490196 0.21960784
0.21461397 0.39705882 0.22729779
0.38713235 0.40182292 0.22140012
0.54393382 0.40104167 0.20735294
0.67715993 0.40134804 0.20594363
0.78933824 0.41580882 0.21197917
0.88359375 0.44673713 0.22599571
0.95931373 0.47340686 0.24252451
0.0049019608 0.53235294 0.23039216
0.010171569 0.52867647 0.21807598
0.16482843 0.51948529 0.22401961
0.34803922 0.51764706 0.21770833
0.51666667 0.52181373 0.21078431
0.65 0.52156863 0.20710784
0.76605392 0.52647059 0.19705882
0.86813725 0.54356618 0.19264706
0.94901961 0.55490196 0.21421569
0.018627451 0.63578431 0.24215686
0.015364583 0.63480392 0.23547794
0.16176471 0.62775735 0.23284314
0.32702206 0.62401961 0.23468137
0.48382353 0.62340686 0.23676471
0.61948529 0.63186275 0.22578125
0.73946078 0.63578431 0.2122549
0.84355086 0.63578431 0.21372549
0.93970588 0.64754902 0.22254902
0.0053921569 0.73235294 0.26544118
0.061366422 0.72870711 0.26761642
0.19264706 0.72395833 0.26783088
0.35226716 0.71976103 0.26835172
0.47352941 0.71666667 0.27892157
0.6002451 0.72043505 0.27745098
0.71194853 0.7245098 0.2682598
0.81620711 0.72892157 0.2768076
0.91838235 0.74803922 0.29411765
0.17058824 0.81801471 0.32414216
0.22303922 0.82064951 0.33333333
0.30248162 0.81764706 0.33875613
0.39603248 0.81501225 0.34967831
0.48958333 0.80931373 0.33921569
0.59283088 0.81341912 0.35343137
0.70098039 0.81629902 0.36507353
0.79846814 0.82156863 0.37218137
0.90845588 0.84754902 0.39901961
0.3372549 0.91078431 0.43823529
0.36433824 0.92696078 0.45441176
0.40367647 0.91862745 0.45220588
0.4745098 0.92990196 0.46973039
0.54117647 0.92598039 0.48088235
0.62009804 0.92058824 0.48039216
0.7127451 0.92009804 0.48848039
0.80931373 0.91507353 0.4932598
0.91176471 0.95490196 0.54509804
0.11127451 0.10588235 0.31960784
0.17401961 0.10998775 0.32598039
0.28088235 0.11164216 0.33713235
0.41470588 0.1088848 0.34558824
0.56911765 0.049754902 0.3377451
0.71176471 0.021078431 0.34460784
0.82254902 0.06752451 0.35588235
0.91127451 0.20998775 0.3745098
0.97009804 0.32205882 0.41127451
0.14381127 0.15980392 0.32567402
0.17745098 0.16331955 0.3259421
0.28275123 0.17892157 0.34082414
0.41998315 0.1736443 0.34803922
0.56911765 0.1375 0.34773284
0.71042433 0.12653952 0.35294118
0.82415748 0.19019608 0.3627451
0.90996477 0.26405484 0.37608762
0.98707108 0.36421569 0.42040441
0.083946078 0.25245098 0.33921569
0.15903799 0.27028186 0.342019
0.28115809 0.2745098 0.3484375
0.42688419 0.28480392 0.35712316
0.5721201 0.26936275 0.35790441
0.70323223 0.29109988 0.36346507
0.81139706 0.31372549 0.37285539
0.89649203 0.36666667 0.39224877
0.96862745 0.41727941 0.40980392
0.030392157 0.40588235 0.35343137
0.095703125 0.4088848 0.35643382
0.27107843 0.40680147 0.36127451
0.42647059 0.40980392 0.36911765
0.56246936 0.41571691 0.36519608
0.69181219 0.43186275 0.3721201
0.7944087 0.44829963 0.38439032
0.88491881 0.46519608 0.39264706
0.96078431 0.48970588 0.3971201
0.0083333333 0.54632353 0.37573529
0.10557598 0.54656863 0.38348652
0.29258578 0.53333333 0.37996324
0.40974265 0.5323223 0.37576593
0.54693627 0.53713235 0.37365196
0.66639093 0.54558824 0.37303922
0.7752451 0.5495098 0.37285539
0.87009804 0.55441176 0.37107843
0.94387255 0.56985294 0.37230392
0.18419118 0.65392157 0.40104167
0.23590686 0.65006893 0.39980086
0.30925245 0.64607843 0.39140625
0.39601716 0.6348652 0.37935049
0.51890319 0.63458946 0.38311887
0.63431373 0.63936121 0.37508425
0.74546569 0.63578431 0.36836703
0.85098039 0.63970588 0.36121324
0.9372549 0.65147059 0.3651348
0.15772059 0.73811275 0.39154412
0.22090993 0.73921569 0.40232843
0.30772059 0.73673407 0.39865196
0.39578738 0.72751225 0.39250919
0.50067402 0.7245098 0.39509804
0.61081495 0.72242647 0.39117647
0.71583946 0.7245098 0.39607843
0.82054228 0.73053002 0.40088848
0.9245098 0.74914216 0.39754902
0.22126225 0.825 0.42401961
0.28543964 0.8271829 0.43796722
0.34375 0.82389706 0.43431373
0.41960784 0.82107843 0.43560049
0.50655637 0.81323529 0.43578431
0.60686275 0.81501225 0.44558824
0.7036152 0.81715686 0.44266238
0.80147059 0.82391238 0.45459559
0.90686275 0.8463848 0.47156863
0.31519608 0.88382353 0.47696078
0.36636029 0.91979167 0.50900735
0.40833333 0.9122549 0.50294118
0.45925245 0.9004902 0.49607843
0.54632353 0.92671569 0.53039216
0.62401961 0.91911765 0.53578431
0.7127451 0.91666667 0.53823529
0.80931373 0.91813725 0.54656863
0.88235294 0.94117647 0.57352941
0.16078431 0.12745098 0.45490196
0.22426471 0.15294118 0.46666667
0.31078431 0.15098039 0.46813725
0.44705882 0.1379902 0.48161765
0.59117647 0.11470588 0.48529412
0.71568627 0.064705882 0.48970588
0.82843137 0.067156863 0.48431373
0.91495098 0.1877451 0.49436275
0.9745098 0.27843137 0.50784314
0.17867647 0.1754902 0.46862745
0.21813725 0.17699142 0.46816789
0.31415441 0.18302696 0.47444853
0.44828431 0.19313725 0.4861826
0.59129902 0.17303922 0.49889706
0.71568627 0.17800245 0.5
0.82254902 0.19319853 0.49730392
0.91127451 0.25882353 0.49803922
0.96446078 0.30661765 0.50563725
0.1254902 0.25392157 0.46813725
0.20821078 0.26697304 0.4745098
0.31372549 0.27916667 0.4817402
0.44577206 0.28627451 0.49234069
0.5872549 0.29558824 0.50196078
0.70655637 0.30539216 0.50343137
0.81102941 0.32193627 0.49803922
0.90177696 0.35398284 0.50612745
0.97843137 0.41617647 0.525
0.064460784 0.38946078 0.48161765
0.15882353 0.39656863 0.48455882
0.30294118 0.39534314 0.48897059
0.44436275 0.4122549 0.5004902
0.58406863 0.43651961 0.51421569
0.7 0.44901961 0.51764706
0.80110294 0.45686275 0.51917892
0.88520221 0.48186275 0.52809436
0.95955882 0.50539216 0.53186275
0.028431373 0.54705882 0.5127451
0.12463235 0.54227941 0.51078431
0.30269608 0.53504902 0.51053922
0.44963235 0.54571078 0.52352941
0.56911765 0.55392157 0.52598039
0.68125 0.5627451 0.5254902
0.78137255 0.56887255 0.53235294
0.87009804 0.5814951 0.53529412
0.95490196 0.59411765 0.54509804
0.17622549 0.66862745 0.53333333
0.25091912 0.66323529 0.53333333
0.35588235 0.65931373 0.53333333
0.44684436 0.66053922 0.53379289
0.5495098 0.65343137 0.5245098
0.65615809 0.65147059 0.52156863
0.75490196 0.65220588 0.5125
0.85490196 0.64877451 0.50009191
0.94583333 0.65784314 0.5122549
0.30490196 0.75343137 0.54215686
0.34681373 0.74957108 0.54754902
0.3995098 0.74411765 0.5375
0.45588235 0.74019608 0.52941176
0.53333333 0.73970588 0.5254902
0.62996324 0.73167892 0.51764706
0.72561275 0.73541667 0.51764706
0.82818627 0.73627451 0.51470588
0.92843137 0.74411765 0.51519608
0.37916667 0.83284314 0.56691176
0.36547181 0.83869485 0.55392157
0.4129902 0.83676471 0.55392157
0.45765931 0.82916667 0.54451593
0.52965686 0.82205882 0.5377451
0.61902574 0.81323529 0.54004289
0.7127451 0.82377451 0.54466912
0.81348039 0.83134191 0.55196078
0.92181373 0.84877451 0.5620098
0.37843137 0.93529412 0.59411765
0.40931373 0.93333333 0.6
0.44558824 0.92941176 0.6
0.4879902 0.93333333 0.59803922
0.55098039 0.91960784 0.59215686
0.63112745 0.90980392 0.58823529
0.71666667 0.93431373 0.61323529
0.80931373 0.9254902 0.61985294
0.9 0.93333333 0.63333333
0.225 0.1372549 0.59558824
0.29344363 0.15931373 0.59803922
0.37218137 0.15588235 0.60196078
0.49754902 0.16617647 0.60980392
0.61323529 0.15906863 0.61764706
0.72444853 0.15882353 0.63033088
0.81568627 0.19362745 0.6254902
0.91372549 0.22058824 0.62107843
0.98676471 0.2877451 0.62156863
0.25735294 0.20784314 0.59411765
0.29577206 0.20833333 0.59803922
0.37388174 0.20833333 0.60588235
0.48982077 0.21998315 0.60925245
0.61715686 0.22386642 0.61871936
0.72444853 0.23302696 0.63854167
0.81911765 0.26213235 0.6372549
0.90716912 0.29607843 0.62156863
0.98106618 0.33253676 0.62156863
0.22683824 0.28480392 0.59411765
0.27660846 0.28249081 0.59803922
0.37098652 0.29402574 0.60490196
0.48394608 0.3042739 0.60925245
0.60588235 0.32598039 0.62745098
0.71527267 0.34803922 0.64232537
0.79791667 0.35 0.62576593
0.89558824 0.37084865 0.61732537
0.97892157 0.41237745 0.62512255
0.1721201 0.38296569 0.59019608
0.246875 0.39247089 0.59803922
0.34068627 0.3964614 0.60265012
0.47122396 0.41707261 0.61191023
0.6041973 0.44041054 0.62867647
0.70484069 0.4600337 0.64754902
0.79247855 0.46876532 0.63319547
0.88462776 0.48830423 0.63566942
0.96525735 0.50539216 0.63878676
0.17034314 0.51544118 0.60637255
0.21617647 0.5122549 0.60637255
0.32573529 0.51176471 0.61011029
0.45977328 0.53140319 0.62205882
0.57843137 0.54669118 0.63321078
0.68900123 0.56813725 0.64993873
0.78333333 0.58253676 0.6502451
0.87205882 0.59411765 0.65147059
0.95245098 0.59411765 0.64632353
0.24362745 0.64754902 0.63333333
0.28070619 0.65147059 0.6372549
0.35980392 0.6477788 0.63670343
0.46856618 0.65334712 0.64270833
0.5745098 0.66155025 0.64901961
0.67738971 0.66715686 0.6540671
0.76741728 0.67107843 0.64901961
0.85889246 0.66881893 0.64117647
0.94264706 0.67408088 0.64810049
0.33529412 0.76617647 0.66323529
0.35784314 0.76372549 0.65935968
0.41583946 0.75196078 0.65245098
0.49460784 0.75154718 0.6560049
0.56813725 0.75324755 0.65490196
0.65680147 0.74742647 0.64901961
0.74672181 0.75134804 0.64509804
0.83809743 0.75333946 0.64099265
0.93333333 0.75196078 0.6372549
0.39442402 0.84607843 0.67126225
0.41601563 0.85245098 0.67679994
0.46104473 0.84669118 0.67126225
0.50833333 0.84460784 0.66588542
0.56691176 0.84362745 0.66127451
0.6383655 0.82811734 0.6471201
0.7180913 0.82700674 0.64540441
0.81372549 0.83491115 0.6495481
0.90968137 0.84871324 0.65716912
0.42892157 0.93872549 0.69460784
0.46648284 0.94117647 0.70490196
0.47892157 0.93333333 0.69460784
0.51856618 0.93088235 0.68823529
0.57009804 0.93995098 0.68357843
0.64754902 0.92009804 0.675
0.72352941 0.89056373 0.66813725
0.81715686 0.93419118 0.69117647
0.8745098 0.90343137 0.68137255
0.35 0.18921569 0.71372549
0.39031863 0.18970588 0.71629902
0.44877451 0.19019608 0.71764706
0.54656863 0.20551471 0.7245098
0.64607843 0.22058824 0.73235294
0.74448529 0.25147059 0.73664216
0.82647059 0.28602941 0.74509804
0.90698529 0.30392157 0.74509804
0.97843137 0.33137255 0.73333333
0.35159314 0.23921569 0.70882353
0.38795956 0.24313725 0.71629902
0.4502451 0.24301471 0.71764706
0.54264706 0.2432598 0.7245098
0.64215686 0.26960784 0.73278186
0.74656863 0.30491728 0.74598652
0.82720588 0.34601716 0.74803922
0.89918811 0.354519 0.74117647
0.96029412 0.36875 0.7372549
0.34436275 0.3125 0.70882353
0.38045343 0.31197917 0.71372549
0.44448529 0.32254902 0.71666667
0.53480392 0.3328125 0.72147672
0.63921569 0.36433824 0.73480392
0.73452819 0.39227941 0.74592525
0.81605392 0.4151348 0.75196078
0.88431373 0.40719975 0.73333333
0.95171569 0.43039216 0.73627451
0.30343137 0.40441176 0.70735294
0.3480239 0.40833333 0.7127451
0.41151961 0.41685049 0.71666667
0.51127451 0.42693015 0.72058824
0.6223652 0.45343137 0.73431373
0.72045037 0.48431373 0.74803922
0.80640319 0.50245098 0.75196078
0.88345588 0.50245098 0.74005821
0.95441176 0.50637255 0.73627451
0.22941176 0.49754902 0.70343137
0.27199755 0.49699755 0.70471814
0.36666667 0.50588235 0.7127451
0.47720588 0.52273284 0.71948529
0.58946078 0.54068627 0.72843137
0.69534314 0.57794118 0.74485294
0.79117647 0.59693627 0.75588235
0.87205882 0.59803922 0.74846814
0.95294118 0.59803922 0.74411765
0.2627451 0.61727941 0.72389706
0.30873162 0.62156863 0.72205882
0.37843137 0.62686887 0.72178309
0.47078738 0.63111213 0.72976409
0.57181373 0.64019608 0.7317402
0.67545956 0.65980392 0.7439185
0.77594975 0.68201593 0.75980392
0.86421569 0.68737745 0.75588235
0.9504902 0.68382353 0.75257353
0.31862745 0.73921569 0.74338235
0.35821078 0.74402574 0.74117647
0.40784314 0.74283088 0.74117647
0.49460784 0.74865196 0.75039828
0.58713235 0.75551471 0.75551471
0.67892157 0.75588235 0.75934436
0.7713848 0.76446078 0.76691176
0.85637255 0.7627451 0.75551471
0.94191176 0.75906863 0.74803922
0.38431373 0.83982843 0.76286765
0.41616115 0.85513174 0.76318934
0.45744485 0.85661765 0.76764706
0.51680453 0.85341605 0.76813725
0.59754902 0.85245098 0.77156863
0.67486213 0.85306373 0.7689951
0.74767157 0.84852941 0.76470588
0.83429841 0.84595588 0.75772059
0.925 0.84889706 0.75723039
0.43529412 0.93333333 0.78235294
0.45747549 0.94473039 0.78333333
0.48921569 0.94436275 0.78651961
0.53970588 0.94166667 0.7872549
0.60588235 0.94019608 0.78333333
0.66776961 0.9372549 0.77941176
0.73529412 0.94142157 0.7754902
0.82512255 0.94117647 0.77941176
0.88431373 0.94215686 0.78235294
0.48039216 0.2495098 0.82892157
0.49166667 0.26078431 0.82591912
0.54068627 0.27659314 0.82414216
0.60980392 0.27303922 0.82910539
0.69093137 0.31568627 0.83308824
0.76813725 0.35 0.84068627
0.84558824 0.3877451 0.84460784
0.91470588 0.4098652 0.84509804
0.94215686 0.41372549 0.84852941
0.46519608 0.29466912 0.82107843
0.49204197 0.30213695 0.8254902
0.53688725 0.2877451 0.82892157
0.60441176 0.31976869 0.82530637
0.68550858 0.34411765 0.83504902
0.76207108 0.37242647 0.84070925
0.83785233 0.42167586 0.84068627
0.91078431 0.4363894 0.84810049
0.94172794 0.44068627 0.85196078
0.45784314 0.35159314 0.825
0.48480392 0.35882353 0.82624081
0.53318015 0.37098652 0.8254902
0.5989277 0.38765319 0.8276348
0.67959559 0.41060049 0.83676471
0.75837929 0.45098039 0.84460784
0.83011642 0.48137255 0.84451593
0.90070466 0.48583027 0.8412837
0.95208333 0.48884804 0.83811275
0.43480392 0.45196078 0.82156863
0.4531633 0.45196078 0.82156863
0.50632659 0.45580576 0.825
0.57990196 0.46568627 0.825
0.6627451 0.49010417 0.83088235
0.74538909 0.52440257 0.84068627
0.8239277 0.54411765 0.84460784
0.89509804 0.55882353 0.84303002
0.9463848 0.55753676 0.83676471
0.35784314 0.53431373 0.81764706
0.38823529 0.52840074 0.81764706
0.45661765 0.5372549 0.82542892
0.54886642 0.55214461 0.8254902
0.63112745 0.5692402 0.8254902
0.7245098 0.59607843 0.83838848
0.80876225 0.62064951 0.84546569
0.88161765 0.62625613 0.84852941
0.94877451 0.6245098 0.84093137
0.30177696 0.61011029 0.81715686
0.32900582 0.60980392 0.81323529
0.39411765 0.61171875 0.81629902
0.46175705 0.61390931 0.81372549
0.57613358 0.63382353 0.81871936
0.68988971 0.65980392 0.83203891
0.78742341 0.68765319 0.84852941
0.8716299 0.70248928 0.85606618
0.92028186 0.70294118 0.85245098
0.34669118 0.7254902 0.82990196
0.38507966 0.73376225 0.83039216
0.42009804 0.73005515 0.8252451
0.48272059 0.72536765 0.82855392
0.56629902 0.725 0.82855392
0.65749081 0.72928922 0.83293505
0.76323529 0.75551471 0.85208333
0.86845895 0.77855392 0.86029412
0.94252451 0.77892157 0.85772059
0.39405637 0.84117647 0.84859069
0.42401961 0.8488511 0.84852941
0.45893076 0.84606311 0.84901961
0.50735294 0.83838082 0.84901961
0.58042279 0.83875613 0.85223652
0.66334252 0.84074755 0.85294118
0.75643382 0.84595588 0.85761336
0.86072304 0.86421569 0.86502757
0.93321078 0.86421569 0.86421569
0.43921569 0.95245098 0.86764706
0.4504902 0.9533701 0.86856618
0.48529412 0.95281863 0.87193627
0.53431373 0.95079657 0.8754902
0.60367647 0.9495098 0.87205882
0.68137255 0.96109069 0.87598039
0.75588235 0.94522059 0.86813725
0.84852941 0.95245098 0.87156863
0.94509804 0.96372549 0.87205882
0.59215686 0.38431373 0.92941176
0.60392157 0.39215686 0.92941176
0.63039216 0.4 0.9254902
0.67696078 0.40539216 0.92843137
0.7372549 0.43921569 0.93921569
0.79509804 0.47205882 0.9254902
0.86078431 0.51078431 0.9254902
0.92647059 0.54068627 0.9254902
0.98823529 0.54117647 0.9372549
0.57696078 0.40735294 0.91813725
0.59993873 0.41470588 0.92892157
0.62781863 0.41911765 0.92634804
0.6754902 0.43645833 0.93498775
0.73088235 0.4497549 0.92867647
0.79117647 0.48088235 0.92910539
0.85735294 0.51776961 0.92855392
0.92254902 0.56078431 0.93682598
0.97303922 0.55245098 0.93333333
0.58431373 0.46470588 0.92941176
0.59656863 0.46862745 0.93333333
0.62034314 0.46642157 0.92794118
0.66875 0.48688725 0.93345588
0.72009804 0.49313725 0.91960784
0.7872549 0.525 0.92990196
0.84901961 0.54607843 0.92279412
0.91862745 0.58247549 0.93321078
0.98235294 0.58627451 0.94019608
0.57107843 0.53284314 0.93823529
0.56715686 0.52647059 0.9254902
0.60735294 0.53370098 0.93051471
0.65196078 0.53976716 0.92401961
0.71127451 0.55980392 0.92745098
0.77696078 0.57800245 0.92794118
0.84117647 0.59803922 0.9254902
0.91078431 0.62469363 0.92971814
0.94656863 0.63235294 0.93333333
0.52156863 0.59215686 0.93333333
0.5254902 0.58480392 0.92205882
0.57598039 0.59460784 0.92843137
0.62058824 0.60196078 0.92745098
0.68921569 0.61568627 0.92941176
0.76053922 0.63137255 0.93088235
0.83186275 0.65196078 0.93333333
0.89926471 0.66887255 0.93333333
0.9627451 0.68235294 0.93921569
0.41372549 0.63823529 0.91078431
0.45226716 0.64577206 0.93088235
0.50098039 0.64607843 0.92401961
0.55882353 0.65245098 0.93333333
0.65441176 0.6747549 0.93504902
0.72996324 0.68829657 0.92604167
0.81654412 0.70588235 0.93480392
0.89148284 0.7245098 0.93694853
0.95294118 0.73235294 0.92843137
0.4127451 0.7372549 0.92647059
0.43088235 0.74019608 0.93811275
0.46176471 0.73406863 0.90465686
0.51470588 0.73627451 0.93284314
0.58431373 0.73284314 0.90735294
0.67696078 0.74068627 0.93088235
0.78161765 0.76372549 0.93823529
0.88333333 0.78676471 0.94105392
0.95588235 0.80196078 0.9245098
0.43137255 0.84117647 0.94852941
0.44656863 0.84074755 0.94123775
0.47745098 0.84117647 0.94117647
0.52040441 0.84117647 0.93921569
0.58063725 0.84117647 0.92647059
0.65931373 0.84117647 0.9495098
0.75551471 0.83811275 0.94901961
0.85637255 0.8528799 0.94944853
0.96127451 0.87990196 0.94656863
0.43529412 0.96078431 0.96470588
0.45441176 0.94117647 0.94509804
0.48039216 0.95392157 0.96176471
0.53039216 0.94901961 0.95539216
0.59215686 0.9372549 0.95098039
0.66715686 0.92058824 0.94264706
0.75588235 0.94313725 0.94803922
0.85686275 0.90245098 0.92205882
0.96078431 0.90588235 0.95686275
