site/assets/luts/natron-haldclut--polaroid-665-negative--384c631d6.cube
# LUTr-Project: LUTr — LUTrepository
# LUTr-Schema-Version: 1
# LUTr-ID: natron-haldclut--polaroid-665-negative--384c631d6
# LUTr-Title: polaroid 665 negative
# LUTr-Collection: Natron HaldCLUT
# LUTr-Collection-ID: natron-haldclut-presets
# LUTr-Source: https://github.com/NatronGitHub/clut
# LUTr-Source-File: submissions/natron-haldclut-presets/instant_pro/polaroid_665_negative.png
# LUTr-Source-Format: PNG
# LUTr-Source-SHA256: 463c3ebf8e3985c8721f82ecf714523398b45e7eb24aded3817ef91abe675104
# LUTr-License: CC-BY-SA-4.0
# LUTr-License-URL: https://github.com/NatronGitHub/clut#license
# LUTr-Tags: creative, film, film-emulation, hald-clut, natron, png, cube
# LUTr-Transform-Class: film-emulation
# LUTr-Input-Color-Space: srgb
# LUTr-Output-Color-Space: srgb
# LUTr-Color-Space-Confidence: assumed-display-referred
# LUTr-Conversion-Method: PNG LUT image decoded at 16-bit and sampled to 25x25x25 3D CUBE
# LUTr-Conversion-Date: 2026-07-27
# LUTr-Conversion-Tool: LUTr scripts/convert-all-to-cube.mjs
# LUTr-Conversion-Grid: 25x25x25
# LUTr-Note: Preserve this metadata and the upstream license notices when redistributing.
TITLE "polaroid 665 negative"
LUT_3D_SIZE 5
DOMAIN_MIN 0 0 0
DOMAIN_MAX 1 1 1
0.074509804 0.074509804 0.074509804
0.10882353 0.10882353 0.10882353
0.21764706 0.21764706 0.21764706
0.37647059 0.37647059 0.37647059
0.57647059 0.57647059 0.57647059
0.14313725 0.14313725 0.14313725
0.18235294 0.18235294 0.18235294
0.28235294 0.28235294 0.28235294
0.42941176 0.42941176 0.42941176
0.59117647 0.59117647 0.59117647
0.37647059 0.37647059 0.37647059
0.36960784 0.36960784 0.36960784
0.40392157 0.40392157 0.40392157
0.52745098 0.52745098 0.52745098
0.68039216 0.68039216 0.68039216
0.64313725 0.64313725 0.64313725
0.62132353 0.62132353 0.62132353
0.62303922 0.62303922 0.62303922
0.66593137 0.66593137 0.66593137
0.77745098 0.77745098 0.77745098
0.85882353 0.85882353 0.85882353
0.85196078 0.85196078 0.85196078
0.84901961 0.84901961 0.84901961
0.85098039 0.85098039 0.85098039
0.89411765 0.89411765 0.89411765
0.17647059 0.17647059 0.17647059
0.18039216 0.18039216 0.18039216
0.28823529 0.28823529 0.28823529
0.43161765 0.43161765 0.43161765
0.61078431 0.61078431 0.61078431
0.24607843 0.24607843 0.24607843
0.27426471 0.27426471 0.27426471
0.36470588 0.36470588 0.36470588
0.48210784 0.48210784 0.48210784
0.61666667 0.61666667 0.61666667
0.46617647 0.46617647 0.46617647
0.45147059 0.45147059 0.45147059
0.47107843 0.47107843 0.47107843
0.56960784 0.56960784 0.56960784
0.70490196 0.70490196 0.70490196
0.67034314 0.67034314 0.67034314
0.66887255 0.66887255 0.66887255
0.66127451 0.66127451 0.66127451
0.69313725 0.69313725 0.69313725
0.78848039 0.78848039 0.78848039
0.86666667 0.86666667 0.86666667
0.87156863 0.87156863 0.87156863
0.85490196 0.85490196 0.85490196
0.87083333 0.87083333 0.87083333
0.88235294 0.88235294 0.88235294
0.41764706 0.41764706 0.41764706
0.43284314 0.43284314 0.43284314
0.45980392 0.45980392 0.45980392
0.55490196 0.55490196 0.55490196
0.68627451 0.68627451 0.68627451
0.45784314 0.45784314 0.45784314
0.47107843 0.47107843 0.47107843
0.50588235 0.50588235 0.50588235
0.58137255 0.58137255 0.58137255
0.70343137 0.70343137 0.70343137
0.56470588 0.56470588 0.56470588
0.57058824 0.57058824 0.57058824
0.58284314 0.58284314 0.58284314
0.6495098 0.6495098 0.6495098
0.73235294 0.73235294 0.73235294
0.75 0.75 0.75
0.74178922 0.74178922 0.74178922
0.725 0.725 0.725
0.73897059 0.73897059 0.73897059
0.82107843 0.82107843 0.82107843
0.9 0.9 0.9
0.9004902 0.9004902 0.9004902
0.88431373 0.88431373 0.88431373
0.88235294 0.88235294 0.88235294
0.89411765 0.89411765 0.89411765
0.6627451 0.6627451 0.6627451
0.69019608 0.69019608 0.69019608
0.71078431 0.71078431 0.71078431
0.72843137 0.72843137 0.72843137
0.75 0.75 0.75
0.69215686 0.69215686 0.69215686
0.69779412 0.69779412 0.69779412
0.71960784 0.71960784 0.71960784
0.71985294 0.71985294 0.71985294
0.74926471 0.74926471 0.74926471
0.7127451 0.7127451 0.7127451
0.72254902 0.72254902 0.72254902
0.74117647 0.74117647 0.74117647
0.76323529 0.76323529 0.76323529
0.80735294 0.80735294 0.80735294
0.78823529 0.78823529 0.78823529
0.7879902 0.7879902 0.7879902
0.81507353 0.81507353 0.81507353
0.8254902 0.8254902 0.8254902
0.84803922 0.84803922 0.84803922
0.91862745 0.91862745 0.91862745
0.93431373 0.93431373 0.93431373
0.92401961 0.92401961 0.92401961
0.92254902 0.92254902 0.92254902
0.93823529 0.93823529 0.93823529
0.88627451 0.88627451 0.88627451
0.87156863 0.87156863 0.87156863
0.88431373 0.88431373 0.88431373
0.90196078 0.90196078 0.90196078
0.90588235 0.90588235 0.90588235
0.88235294 0.88235294 0.88235294
0.83848039 0.83848039 0.83848039
0.88823529 0.88823529 0.88823529
0.90196078 0.90196078 0.90196078
0.9127451 0.9127451 0.9127451
0.88039216 0.88039216 0.88039216
0.89803922 0.89803922 0.89803922
0.89313725 0.89313725 0.89313725
0.91372549 0.91372549 0.91372549
0.91764706 0.91764706 0.91764706
0.90588235 0.90588235 0.90588235
0.90980392 0.90980392 0.90980392
0.92205882 0.92205882 0.92205882
0.92156863 0.92156863 0.92156863
0.94901961 0.94901961 0.94901961
0.96862745 0.96862745 0.96862745
0.94901961 0.94901961 0.94901961
0.96470588 0.96470588 0.96470588
0.94901961 0.94901961 0.94901961
0.97647059 0.97647059 0.97647059
