site/assets/luts/natron-haldclut--light-blown--0ef22462f.cube
# LUTr-Project: LUTr — LUTrepository
# LUTr-Schema-Version: 1
# LUTr-ID: natron-haldclut--light-blown--0ef22462f
# LUTr-Title: light blown
# LUTr-Collection: Natron HaldCLUT
# LUTr-Collection-ID: natron-haldclut-presets
# LUTr-Source: https://github.com/NatronGitHub/clut
# LUTr-Source-File: submissions/natron-haldclut-presets/various/light_blown.png
# LUTr-Source-Format: PNG
# LUTr-Source-SHA256: e2a7a821235cbf322de8bd958015b8b1a793df1f4d394bf173423f06ae124106
# LUTr-License: CC-BY-SA-4.0
# LUTr-License-URL: https://github.com/NatronGitHub/clut#license
# LUTr-Tags: creative, film, film-emulation, hald-clut, natron, png, cube
# LUTr-Transform-Class: film-emulation
# LUTr-Input-Color-Space: srgb
# LUTr-Output-Color-Space: srgb
# LUTr-Color-Space-Confidence: assumed-display-referred
# LUTr-Conversion-Method: PNG LUT image decoded at 16-bit and sampled to 25x25x25 3D CUBE
# LUTr-Conversion-Date: 2026-07-27
# LUTr-Conversion-Tool: LUTr scripts/convert-all-to-cube.mjs
# LUTr-Conversion-Grid: 25x25x25
# LUTr-Note: Preserve this metadata and the upstream license notices when redistributing.
TITLE "light blown"
LUT_3D_SIZE 5
DOMAIN_MIN 0 0 0
DOMAIN_MAX 1 1 1
0.019607843 0.050980392 0.0039215686
0.21960784 0.0088235294 0.035294118
0.50980392 0.041176471 0.12941176
0.6 0.031372549 0.1254902
0.59607843 0.031372549 0.11764706
0.16176471 0.28529412 0.12745098
0.29705882 0.26642157 0.14901961
0.55098039 0.24215686 0.19607843
0.70661765 0.2127451 0.22058824
0.66666667 0.13921569 0.18039216
0.39215686 0.63921569 0.31176471
0.41372549 0.59019608 0.2995098
0.65490196 0.56862745 0.34803922
0.90098039 0.56029412 0.40098039
0.89803922 0.50196078 0.37843137
0.61666667 1 0.50294118
0.60294118 0.93431373 0.48063725
0.77058824 0.91960784 0.51470588
0.99215686 0.89436275 0.55588235
0.99607843 0.86862745 0.5754902
0.6627451 1 0.53333333
0.65882353 0.99607843 0.5372549
0.79019608 1 0.58431373
0.99313725 1 0.68921569
0.99607843 1 0.83137255
0.056862745 0.10980392 0.15686275
0.26568627 0.088970588 0.18039216
0.55147059 0.11764706 0.25
0.63823529 0.10392157 0.23431373
0.63431373 0.091176471 0.21176471
0.18112745 0.32352941 0.22352941
0.3158701 0.30710784 0.2375
0.56237745 0.27242647 0.26703431
0.71372549 0.23572304 0.27591912
0.68259804 0.16691176 0.22352941
0.39313725 0.64411765 0.35392157
0.39767157 0.59509804 0.32634804
0.65098039 0.57303922 0.35955882
0.89338235 0.55686275 0.4182598
0.88480392 0.48431373 0.37058824
0.60294118 0.97083333 0.51862745
0.56452206 0.91838235 0.46862745
0.74448529 0.89411765 0.5
0.97843137 0.8745098 0.55496324
0.99142157 0.84926471 0.56544118
0.65490196 1 0.52941176
0.65784314 0.99607843 0.54901961
0.78627451 0.99215686 0.57058824
0.99607843 1 0.69240196
1 1 0.79313725
0.10196078 0.19411765 0.32941176
0.35 0.21470588 0.38872549
0.60490196 0.23039216 0.43431373
0.72745098 0.23921569 0.45392157
0.72352941 0.23921569 0.44509804
0.26176471 0.44166667 0.4254902
0.37352941 0.4125 0.42843137
0.61642157 0.37401961 0.45147059
0.78026961 0.33321078 0.46078431
0.75147059 0.27156863 0.41960784
0.46372549 0.75882353 0.54607843
0.4502451 0.69803922 0.50196078
0.69656863 0.66666667 0.53823529
0.92990196 0.62867647 0.55931373
0.93921569 0.57843137 0.52843137
0.66960784 0.99215686 0.67254902
0.61323529 0.98370098 0.61029412
0.77009804 0.95465686 0.61911765
0.98921569 0.92267157 0.64509804
0.99607843 0.88431373 0.64901961
0.71764706 1 0.67058824
0.70441176 1 0.64754902
0.77843137 1 0.63235294
0.99313725 1 0.73578431
1 1 0.86078431
0.1254902 0.22647059 0.37254902
0.3370098 0.24313725 0.43039216
0.61715686 0.27647059 0.50784314
0.76470588 0.30196078 0.54509804
0.75686275 0.29019608 0.54509804
0.28235294 0.47573529 0.51372549
0.40269608 0.45821078 0.52910539
0.64558824 0.44166667 0.57254902
0.83939951 0.42285539 0.60269608
0.80392157 0.35980392 0.56740196
0.51960784 0.85294118 0.71176471
0.54215686 0.80257353 0.6877451
0.74166667 0.76666667 0.70735294
0.96617647 0.73039216 0.73137255
0.97058824 0.67401961 0.71568627
0.76838235 1 0.89485294
0.69577206 0.99387255 0.8151348
0.83615196 0.99387255 0.81470588
0.98995098 0.98995098 0.84828431
1 0.94877451 0.84411765
0.88529412 1 0.97156863
0.86862745 1 0.9379902
0.93186275 1 0.91813725
1 1 0.99436275
1 1 0.99607843
0.10980392 0.20392157 0.36470588
0.32843137 0.23431373 0.4254902
0.59215686 0.2745098 0.50392157
0.76862745 0.30196078 0.55
0.76078431 0.29019608 0.54901961
0.27941176 0.47647059 0.51078431
0.38627451 0.44215686 0.51936275
0.62941176 0.4254902 0.56813725
0.80171569 0.39387255 0.59387255
0.80098039 0.35980392 0.58529412
0.51372549 0.84705882 0.70392157
0.48284314 0.78088235 0.67254902
0.73333333 0.76470588 0.72647059
0.96372549 0.73088235 0.76666667
0.98039216 0.69607843 0.76666667
0.80588235 0.99607843 0.91372549
0.71544118 0.99681373 0.87083333
0.86862745 0.99607843 0.90686275
1 0.99313725 0.96176471
1 1 0.99313725
0.96862745 0.99607843 1
0.96470588 1 0.99607843
0.99215686 1 0.99607843
1 1 0.99215686
1 1 0.98431373
