site/assets/luts/natron-haldclut--fuji-fp-3000b-negative---9ab5ef3ae.cube
# LUTr-Project: LUTr — LUTrepository
# LUTr-Schema-Version: 1
# LUTr-ID: natron-haldclut--fuji-fp-3000b-negative---9ab5ef3ae
# LUTr-Title: fuji fp-3000b negative --
# LUTr-Collection: Natron HaldCLUT
# LUTr-Collection-ID: natron-haldclut-presets
# LUTr-Source: https://github.com/NatronGitHub/clut
# LUTr-Source-File: submissions/natron-haldclut-presets/instant_pro/fuji_fp-3000b_negative_--.png
# LUTr-Source-Format: PNG
# LUTr-Source-SHA256: ae09a902c103873814f1ce1d70e55306decf23756a894f9b195dca45be3c832b
# LUTr-License: CC-BY-SA-4.0
# LUTr-License-URL: https://github.com/NatronGitHub/clut#license
# LUTr-Tags: creative, film, film-emulation, hald-clut, natron, png, cube
# LUTr-Transform-Class: film-emulation
# LUTr-Input-Color-Space: srgb
# LUTr-Output-Color-Space: srgb
# LUTr-Color-Space-Confidence: assumed-display-referred
# LUTr-Conversion-Method: PNG LUT image decoded at 16-bit and sampled to 25x25x25 3D CUBE
# LUTr-Conversion-Date: 2026-07-27
# LUTr-Conversion-Tool: LUTr scripts/convert-all-to-cube.mjs
# LUTr-Conversion-Grid: 25x25x25
# LUTr-Note: Preserve this metadata and the upstream license notices when redistributing.
TITLE "fuji fp-3000b negative --"
LUT_3D_SIZE 5
DOMAIN_MIN 0 0 0
DOMAIN_MAX 1 1 1
0.035294118 0.035294118 0.035294118
0.12254902 0.12254902 0.12254902
0.28823529 0.28823529 0.28823529
0.4745098 0.4745098 0.4745098
0.65882353 0.65882353 0.65882353
0.16372549 0.16372549 0.16372549
0.21470588 0.21470588 0.21470588
0.38039216 0.38039216 0.38039216
0.53529412 0.53529412 0.53529412
0.68921569 0.68921569 0.68921569
0.41176471 0.41176471 0.41176471
0.41127451 0.41127451 0.41127451
0.48627451 0.48627451 0.48627451
0.61421569 0.61421569 0.61421569
0.7627451 0.7627451 0.7627451
0.64313725 0.64313725 0.64313725
0.62352941 0.62352941 0.62352941
0.65980392 0.65980392 0.65980392
0.7254902 0.7254902 0.7254902
0.83627451 0.83627451 0.83627451
0.8627451 0.8627451 0.8627451
0.86666667 0.86666667 0.86666667
0.86470588 0.86470588 0.86470588
0.89411765 0.89411765 0.89411765
0.9372549 0.9372549 0.9372549
0.15784314 0.15784314 0.15784314
0.22965686 0.22965686 0.22965686
0.3627451 0.3627451 0.3627451
0.51568627 0.51568627 0.51568627
0.68921569 0.68921569 0.68921569
0.26176471 0.26176471 0.26176471
0.29607843 0.29607843 0.29607843
0.41764706 0.41764706 0.41764706
0.55428922 0.55428922 0.55428922
0.70588235 0.70588235 0.70588235
0.46519608 0.46519608 0.46519608
0.46127451 0.46127451 0.46127451
0.52058824 0.52058824 0.52058824
0.63529412 0.63529412 0.63529412
0.7745098 0.7745098 0.7745098
0.66470588 0.66470588 0.66470588
0.66789216 0.66789216 0.66789216
0.67144608 0.67144608 0.67144608
0.74093137 0.74093137 0.74093137
0.85196078 0.85196078 0.85196078
0.86960784 0.86960784 0.86960784
0.88161765 0.88161765 0.88161765
0.8627451 0.8627451 0.8627451
0.90294118 0.90294118 0.90294118
0.94117647 0.94117647 0.94117647
0.41176471 0.41176471 0.41176471
0.45 0.45 0.45
0.53039216 0.53039216 0.53039216
0.60245098 0.60245098 0.60245098
0.74705882 0.74705882 0.74705882
0.43235294 0.43235294 0.43235294
0.4745098 0.4745098 0.4745098
0.53529412 0.53529412 0.53529412
0.63431373 0.63431373 0.63431373
0.7622549 0.7622549 0.7622549
0.54509804 0.54509804 0.54509804
0.56666667 0.56666667 0.56666667
0.59117647 0.59117647 0.59117647
0.68823529 0.68823529 0.68823529
0.80196078 0.80196078 0.80196078
0.73431373 0.73431373 0.73431373
0.73786765 0.73786765 0.73786765
0.73897059 0.73897059 0.73897059
0.78137255 0.78137255 0.78137255
0.87205882 0.87205882 0.87205882
0.90196078 0.90196078 0.90196078
0.91078431 0.91078431 0.91078431
0.89313725 0.89313725 0.89313725
0.91421569 0.91421569 0.91421569
0.91568627 0.91568627 0.91568627
0.65098039 0.65098039 0.65098039
0.67745098 0.67745098 0.67745098
0.73431373 0.73431373 0.73431373
0.75906863 0.75906863 0.75906863
0.77941176 0.77941176 0.77941176
0.66666667 0.66666667 0.66666667
0.68627451 0.68627451 0.68627451
0.74203431 0.74203431 0.74203431
0.75906863 0.75906863 0.75906863
0.80980392 0.80980392 0.80980392
0.67745098 0.67745098 0.67745098
0.68860294 0.68860294 0.68860294
0.73823529 0.73823529 0.73823529
0.79019608 0.79019608 0.79019608
0.85784314 0.85784314 0.85784314
0.77941176 0.77941176 0.77941176
0.78069853 0.78069853 0.78069853
0.80294118 0.80294118 0.80294118
0.83431373 0.83431373 0.83431373
0.89387255 0.89387255 0.89387255
0.93431373 0.93431373 0.93431373
0.92352941 0.92352941 0.92352941
0.93921569 0.93921569 0.93921569
0.94215686 0.94215686 0.94215686
0.95784314 0.95784314 0.95784314
0.88627451 0.88627451 0.88627451
0.88235294 0.88235294 0.88235294
0.90784314 0.90784314 0.90784314
0.93039216 0.93039216 0.93039216
0.93333333 0.93333333 0.93333333
0.88235294 0.88235294 0.88235294
0.89901961 0.89901961 0.89901961
0.89607843 0.89607843 0.89607843
0.9372549 0.9372549 0.9372549
0.93431373 0.93431373 0.93431373
0.89411765 0.89411765 0.89411765
0.89852941 0.89852941 0.89852941
0.91862745 0.91862745 0.91862745
0.94166667 0.94166667 0.94166667
0.94313725 0.94313725 0.94313725
0.90686275 0.90686275 0.90686275
0.90294118 0.90294118 0.90294118
0.91519608 0.91519608 0.91519608
0.94289216 0.94289216 0.94289216
0.96862745 0.96862745 0.96862745
0.94901961 0.94901961 0.94901961
0.94509804 0.94509804 0.94509804
0.95294118 0.95294118 0.95294118
0.97254902 0.97254902 0.97254902
0.96470588 0.96470588 0.96470588
