site/assets/luts/natron-haldclut--fuji-fp-100c-cool--aa56227bd.cube
# LUTr-Project: LUTr — LUTrepository
# LUTr-Schema-Version: 1
# LUTr-ID: natron-haldclut--fuji-fp-100c-cool--aa56227bd
# LUTr-Title: fuji fp-100c cool +
# LUTr-Collection: Natron HaldCLUT
# LUTr-Collection-ID: natron-haldclut-presets
# LUTr-Source: https://github.com/NatronGitHub/clut
# LUTr-Source-File: submissions/natron-haldclut-presets/instant_pro/fuji_fp-100c_cool_+.png
# LUTr-Source-Format: PNG
# LUTr-Source-SHA256: e7ed79ddb45b73f2f05e98708b9fefa4d14a279cc872f5ba48eaee8eaa16c82c
# LUTr-License: CC-BY-SA-4.0
# LUTr-License-URL: https://github.com/NatronGitHub/clut#license
# LUTr-Tags: creative, film, film-emulation, hald-clut, natron, png, cool, cube
# LUTr-Transform-Class: film-emulation
# LUTr-Input-Color-Space: srgb
# LUTr-Output-Color-Space: srgb
# LUTr-Color-Space-Confidence: assumed-display-referred
# LUTr-Conversion-Method: PNG LUT image decoded at 16-bit and sampled to 25x25x25 3D CUBE
# LUTr-Conversion-Date: 2026-07-27
# LUTr-Conversion-Tool: LUTr scripts/convert-all-to-cube.mjs
# LUTr-Conversion-Grid: 25x25x25
# LUTr-Note: Preserve this metadata and the upstream license notices when redistributing.
TITLE "fuji fp-100c cool +"
LUT_3D_SIZE 9
DOMAIN_MIN 0 0 0
DOMAIN_MAX 1 1 1
0.094117647 0.054901961 0.12156863
0.1127451 0.050980392 0.12156863
0.19019608 0.043137255 0.12254902
0.31568627 0.02745098 0.12941176
0.45490196 0 0.14901961
0.61911765 0 0.14264706
0.77254902 0.00098039216 0.17254902
0.8877451 0.0053921569 0.18088235
0.98823529 0.11764706 0.18823529
0.090196078 0.089705882 0.12941176
0.12886029 0.089705882 0.12598039
0.21531863 0.093137255 0.14019608
0.33088235 0.082352941 0.14234069
0.4872549 0.064460784 0.15882353
0.64185049 0.027144608 0.15508578
0.78394608 0.027941176 0.1567402
0.89515931 0.096139706 0.17696078
0.99215686 0.19460784 0.17696078
0.079411765 0.18039216 0.15588235
0.14019608 0.17745098 0.15294118
0.22745098 0.1875 0.15
0.36703431 0.20355392 0.13786765
0.52892157 0.20931373 0.15343137
0.68296569 0.21372549 0.16507353
0.80294118 0.22745098 0.17352941
0.91029412 0.25698529 0.17512255
0.98235294 0.3 0.18921569
0.024019608 0.30784314 0.17254902
0.10588235 0.30765931 0.1723652
0.2189951 0.31078431 0.16360294
0.36666667 0.34411765 0.14901961
0.5372549 0.35931373 0.12254902
0.69754902 0.37843137 0.15104167
0.82205882 0.3932598 0.175
0.92126225 0.41488971 0.19246324
0.99068627 0.43186275 0.20784314
0.0039215686 0.44313725 0.19019608
0.034313725 0.45122549 0.19215686
0.19803922 0.44852941 0.18823529
0.32867647 0.4620098 0.16102941
0.5 0.48823529 0.11176471
0.66421569 0.50857843 0.063480392
0.80980392 0.52941176 0.12745098
0.91544118 0.55171569 0.19362745
0.97254902 0.56862745 0.24117647
0 0.5745098 0.19607843
0.0039215686 0.5745098 0.20392157
0.15882353 0.56727941 0.20490196
0.32598039 0.57604167 0.19754902
0.46862745 0.59926471 0.15906863
0.62156863 0.61856618 0.073039216
0.76776961 0.63786765 0.015686275
0.89019608 0.64803922 0.084620098
0.98823529 0.67647059 0.23382353
0.0078431373 0.69019608 0.23627451
0 0.69669118 0.22855392
0.18333333 0.69411765 0.24338235
0.34803922 0.69803922 0.23737745
0.46078431 0.70147059 0.1995098
0.60343137 0.72267157 0.16115196
0.74411765 0.7372549 0.05
0.86372549 0.75208333 0.023406863
0.97058824 0.76666667 0.1254902
0.13578431 0.81372549 0.32058824
0.19901961 0.81721814 0.30931373
0.29669118 0.81237745 0.31176471
0.41911765 0.80980392 0.30392157
0.52058824 0.81372549 0.2997549
0.63253676 0.82518382 0.27990196
0.74215686 0.84068627 0.22561275
0.86127451 0.84852941 0.13572304
0.95392157 0.85637255 0.016176471
0.4627451 0.92941176 0.50196078
0.47401961 0.9254902 0.50196078
0.51176471 0.9245098 0.50098039
0.58529412 0.92941176 0.52009804
0.64705882 0.91960784 0.50588235
0.72598039 0.92843137 0.50882353
0.81470588 0.94901961 0.51764706
0.89166667 0.94509804 0.44705882
0.94901961 0.95294118 0.43529412
0.090196078 0.058823529 0.16372549
0.11323529 0.050980392 0.16029412
0.17892157 0.050980392 0.16421569
0.30870098 0.011948529 0.16636029
0.46862745 0.0056372549 0.18333333
0.63823529 0 0.19117647
0.76862745 0.00098039216 0.19767157
0.88823529 0.014705882 0.1995098
0.98823529 0.12892157 0.21127451
0.086213235 0.08872549 0.16709559
0.13197763 0.089215686 0.17898284
0.21519608 0.1 0.17542892
0.3411152 0.085891544 0.18660386
0.49466912 0.055116422 0.19503676
0.65 0.024486826 0.19460784
0.78071385 0.045113358 0.20772059
0.89526654 0.10098039 0.20991881
0.98823529 0.19460784 0.21905637
0.075490196 0.19215686 0.19509804
0.13627451 0.18941483 0.19767157
0.23480392 0.19574142 0.19019608
0.37953431 0.21717218 0.19117647
0.54215686 0.21764706 0.20294118
0.6872549 0.22133885 0.20592831
0.80395221 0.23431373 0.21470588
0.91384804 0.26629902 0.21852022
0.98713235 0.30453431 0.22561275
0.038235294 0.3254902 0.21341912
0.10383732 0.32898284 0.22107843
0.23092831 0.33471201 0.21524203
0.37713695 0.35686275 0.19264706
0.55392157 0.3754902 0.18823529
0.7047258 0.39393382 0.20533088
0.82259498 0.4004902 0.2138174
0.91893382 0.4127451 0.23464308
0.98566176 0.43841912 0.24852941
0.011519608 0.46838235 0.23431373
0.030116422 0.47009804 0.23431373
0.20098039 0.46642157 0.22892157
0.34705882 0.47671569 0.21029412
0.51458333 0.50759804 0.17107843
0.671875 0.51893382 0.1375
0.81366422 0.53768382 0.18743873
0.91519608 0.5495098 0.23376225
0.98333333 0.57254902 0.28480392
0 0.59362745 0.24393382
0.0027956495 0.58970588 0.24001225
0.16064645 0.58586091 0.24215686
0.32990196 0.58381587 0.22971814
0.47441789 0.60621936 0.19852941
0.63021599 0.62537531 0.13934589
0.77977941 0.64068627 0.066911765
0.89411765 0.65582108 0.17333027
0.97892157 0.67892157 0.28186275
0.0078431373 0.70539216 0.2745098
0.015349265 0.70588235 0.26672794
0.18333333 0.69803922 0.26409314
0.34269301 0.6935815 0.26064645
0.47536765 0.70539216 0.24215686
0.60526961 0.72192096 0.19278493
0.74384191 0.74117647 0.12947304
0.87478554 0.7519761 0.011565564
0.96862745 0.76764706 0.18026961
0.11617647 0.82457108 0.34748775
0.19908088 0.82156863 0.35104167
0.30856311 0.81764706 0.3379902
0.43039216 0.81366422 0.34981618
0.5200674 0.81393995 0.3245098
0.6286152 0.82677696 0.30475643
0.74563419 0.84070159 0.26115196
0.8651348 0.85245098 0.20490196
0.95294118 0.85637255 0.077573529
0.47009804 0.93333333 0.52107843
0.49093137 0.93419118 0.52193627
0.525 0.9307598 0.52254902
0.58431373 0.92628676 0.52530637
0.65294118 0.92352941 0.53284314
0.72303922 0.92745098 0.52009804
0.81029412 0.94154412 0.51568627
0.89558824 0.95680147 0.50563725
0.95637255 0.95343137 0.45882353
0.075490196 0.054901961 0.24803922
0.12022059 0.043137255 0.25196078
0.24338235 0.025490196 0.28039216
0.31311275 0.045465686 0.26703431
0.45147059 0.049509804 0.275
0.62794118 0.0067401961 0.28664216
0.77254902 0.0046568627 0.28627451
0.8877451 0.0083333333 0.27904412
0.99117647 0.10196078 0.28039216
0.082965686 0.095710784 0.25539216
0.13541667 0.092647059 0.26988358
0.24742647 0.077083333 0.28627451
0.32958027 0.11409314 0.28186275
0.49215686 0.066421569 0.27542892
0.65183824 0.019301471 0.28088235
0.78039216 0.028921569 0.27941176
0.89601716 0.089705882 0.27909007
0.99215686 0.18333333 0.2872549
0.082352941 0.19509804 0.28529412
0.14362745 0.18897059 0.2833027
0.25128676 0.21317402 0.29632353
0.39460784 0.22858456 0.30416667
0.54571078 0.22843137 0.30098039
0.68664216 0.22239583 0.29509804
0.79846814 0.23039216 0.29509804
0.90735294 0.25882353 0.29053309
0.98112745 0.29803922 0.29436275
0.017156863 0.3627451 0.32303922
0.06885723 0.36613051 0.32696078
0.24264706 0.3666973 0.32202819
0.40735294 0.38238358 0.31352635
0.56783088 0.40055147 0.30637255
0.71098346 0.41188725 0.31556373
0.81752451 0.40833333 0.31433824
0.91519608 0.41488971 0.31323529
0.98480392 0.44117647 0.32046569
0.0078431373 0.50490196 0.32941176
0.014828431 0.50882353 0.32193627
0.20882353 0.50796569 0.32561275
0.37064951 0.50275735 0.31127451
0.52990196 0.52205882 0.28382353
0.6877451 0.5403799 0.27696078
0.82156863 0.55526961 0.31470588
0.91127451 0.56378676 0.34264706
0.99362745 0.58039216 0.36421569
0.0050245098 0.62634804 0.3372549
0.0077205882 0.62026654 0.32357537
0.17659314 0.61246936 0.32401961
0.34852941 0.60735294 0.3217065
0.49001225 0.61960784 0.29362745
0.64411765 0.64301471 0.26648284
0.78676471 0.65303309 0.24705882
0.89803922 0.66764706 0.29963235
0.97928922 0.69068627 0.38137255
0.00098039216 0.73161765 0.34142157
0.0092830882 0.72356005 0.33630515
0.19767157 0.71960784 0.33921569
0.35551471 0.71185662 0.33783701
0.48443627 0.71237745 0.32352941
0.61265319 0.73128064 0.2877451
0.74411765 0.74074755 0.24773284
0.87120098 0.75502451 0.19681373
0.96568627 0.7754902 0.30073529
0.11433824 0.82928922 0.4004902
0.19499081 0.82821691 0.39151348
0.31660539 0.82435662 0.39656863
0.41812194 0.81861213 0.40012255
0.52432598 0.81734069 0.38848039
0.63011642 0.8261489 0.37317708
0.74166667 0.84004289 0.34313725
0.85804228 0.85251225 0.29624694
0.95980392 0.86335784 0.21519608
0.43137255 0.9245098 0.53529412
0.475 0.92990196 0.54840686
0.51887255 0.92941176 0.55122549
0.5745098 0.92647059 0.55980392
0.63333333 0.91323529 0.54656863
0.72267157 0.92941176 0.56372549
0.80686275 0.94362745 0.55710784
0.89558824 0.9564951 0.54718137
0.95098039 0.96078431 0.52058824
0.034313725 0.048529412 0.35882353
0.11697304 0.025490196 0.37794118
0.28186275 0.0082107843 0.42022059
0.44522059 0.0039215686 0.43731618
0.49411765 0.048039216 0.40122549
0.59068627 0.071568627 0.39803922
0.74938725 0.0011029412 0.3995098
0.88382353 0.0014705882 0.39019608
0.97401961 0.019117647 0.37696078
0.038051471 0.097058824 0.36488971
0.12349112 0.092647059 0.3896829
0.27950368 0.049509804 0.42046569
0.44793199 0.026217831 0.45066636
0.50873162 0.095189951 0.41338848
0.61617647 0.12708333 0.40429688
0.76799939 0.050719975 0.39571078
0.89209559 0.013066789 0.37827053
0.98382353 0.1091299 0.37598039
0.053308824 0.19105392 0.36727941
0.1143076 0.20617341 0.40347733
0.26360294 0.20980392 0.42588848
0.48143382 0.20412071 0.47647059
0.53223039 0.25214461 0.44221814
0.66873468 0.24532782 0.42041973
0.79938725 0.20836397 0.40143995
0.89987745 0.229519 0.39122243
0.99178922 0.29411765 0.39742647
0.018627451 0.38088235 0.44509804
0.11300551 0.38033088 0.44717371
0.25723039 0.39989277 0.46023284
0.44812347 0.4216299 0.47777267
0.58406863 0.43158701 0.46764706
0.70545343 0.42107843 0.45057445
0.81401654 0.40931373 0.43186275
0.90815717 0.40441176 0.41880362
0.97794118 0.42696078 0.41764706
0.0039215686 0.54754902 0.48602941
0.021691176 0.55211397 0.47892157
0.23805147 0.55582108 0.4747549
0.41397059 0.55980392 0.47107843
0.55931373 0.55857843 0.44767157
0.71375613 0.57303922 0.4541973
0.82193627 0.57628676 0.4723652
0.90735294 0.57058824 0.46259191
0.96862745 0.57254902 0.45441176
0.041605392 0.66623775 0.48284314
0.12482384 0.66568627 0.47758885
0.24635417 0.65845588 0.46855086
0.3908318 0.64887408 0.45931373
0.51770833 0.64972426 0.43143382
0.66738664 0.66084559 0.40447304
0.79571078 0.66983762 0.41081495
0.89411765 0.68266697 0.4564951
0.97101716 0.7033701 0.50821078
0.0079656863 0.75490196 0.46078431
0.0087009804 0.75085784 0.44719669
0.22990196 0.74310662 0.44800858
0.37395833 0.73480392 0.44509804
0.50441176 0.73419118 0.4372549
0.62912071 0.74226409 0.41640625
0.75661765 0.75477941 0.38198529
0.87250306 0.7634038 0.3680913
0.96862745 0.78235294 0.43884804
0.15079657 0.84068627 0.49019608
0.21243873 0.83676471 0.48596814
0.30307904 0.83282782 0.47634804
0.42071844 0.83003217 0.47678462
0.52901348 0.825 0.48048407
0.64411765 0.83284314 0.47090227
0.74497549 0.84526654 0.44367341
0.85686275 0.85641085 0.404856
0.95667892 0.86452206 0.38039216
0.45637255 0.9372549 0.60882353
0.46421569 0.93351716 0.60116422
0.5060049 0.93370098 0.60061275
0.57015931 0.92941176 0.60882353
0.64534314 0.92818627 0.61691176
0.72506127 0.93333333 0.62113971
0.80796569 0.94620098 0.62181373
0.8872549 0.95147059 0.59509804
0.94901961 0.95686275 0.57107843
0.0039215686 0.02745098 0.50196078
0.11127451 0.019607843 0.51176471
0.27647059 0.0044117647 0.54705882
0.49803922 0 0.59313725
0.65882353 0.0098039216 0.60784314
0.67401961 0.019117647 0.54240196
0.7377451 0.15735294 0.5372549
0.85269608 0.17205882 0.53137255
0.95686275 0.1627451 0.53137255
0.0022058824 0.088970588 0.50955882
0.12254902 0.078982843 0.52129289
0.28431373 0.037990196 0.55533088
0.50588235 0.0037683824 0.60882353
0.67438725 0.020955882 0.625
0.67990196 0.084313725 0.55309436
0.73455882 0.22444853 0.54632353
0.85658701 0.21415441 0.53679534
0.95588235 0.19166667 0.52965686
0.0078431373 0.20392157 0.50098039
0.070588235 0.19957108 0.52892157
0.26519608 0.20355392 0.55588235
0.48756127 0.17849265 0.60790441
0.64803922 0.18014706 0.61862745
0.68743873 0.26550245 0.57720588
0.74901961 0.32598039 0.55882353
0.86985294 0.30196078 0.53872549
0.96813725 0.29411765 0.52205882
0.0071078431 0.34093137 0.5127451
0.079901961 0.35352328 0.52950368
0.24852941 0.37181373 0.55435049
0.44139093 0.39558824 0.59610907
0.64987745 0.42683824 0.64215686
0.68498775 0.45373775 0.59537377
0.78504902 0.44442402 0.57352941
0.89004289 0.40946691 0.53602941
0.97647059 0.41421569 0.52009804
0.041176471 0.53333333 0.58431373
0.12303922 0.53223039 0.58308824
0.27156863 0.54779412 0.59166667
0.44301471 0.57107843 0.60796569
0.60539216 0.60147059 0.63088235
0.71409314 0.60294118 0.61727941
0.80465686 0.58946078 0.59338235
0.89546569 0.56973039 0.57414216
0.97156863 0.57254902 0.55882353
0.027941176 0.68946078 0.6254902
0.11568627 0.68676471 0.62484681
0.28890931 0.69068627 0.62702206
0.44074755 0.6872549 0.61856618
0.56348039 0.68958333 0.60637255
0.68872549 0.69145221 0.5901348
0.80147059 0.69607843 0.60238971
0.88988971 0.71145833 0.6153799
0.95955882 0.71053922 0.61666667
0.20784314 0.77696078 0.62156863
0.24295343 0.77352941 0.61574755
0.33492647 0.77647059 0.60661765
0.42696078 0.76715686 0.59074755
0.53553922 0.7629902 0.58406863
0.64503676 0.75759804 0.56366422
0.76605392 0.77107843 0.54473039
0.87598039 0.77671569 0.53492647
0.95588235 0.79803922 0.59656863
0.29656863 0.85808824 0.63161765
0.31816789 0.85612745 0.61911765
0.35857843 0.85808824 0.60441176
0.44280025 0.85177696 0.59393382
0.53823529 0.84264706 0.58602941
0.64411765 0.84068627 0.57965686
0.7502451 0.84938725 0.56127451
0.8598652 0.86099877 0.53290441
0.95490196 0.86813725 0.5125
0.45686275 0.94117647 0.68431373
0.47205882 0.94485294 0.68039216
0.48284314 0.93921569 0.66862745
0.55294118 0.93651961 0.67107843
0.6372549 0.93529412 0.67843137
0.7125 0.92573529 0.66617647
0.80294118 0.94509804 0.68382353
0.88357843 0.9495098 0.66617647
0.95490196 0.9627451 0.65294118
0 0.0024509804 0.6372549
0.14577206 0.0078431373 0.65
0.30539216 0 0.6754902
0.49705882 0 0.7127451
0.72009804 0 0.76519608
0.80796569 0.0039215686 0.73829657
0.83333333 0.019852941 0.68590686
0.86372549 0.24166667 0.66862745
0.91764706 0.36421569 0.67401961
0.012745098 0.07254902 0.64479167
0.14166667 0.066030944 0.65590533
0.30428922 0.012928922 0.67933517
0.49019608 0.0039215686 0.71567862
0.71504289 0.0038296569 0.76519608
0.82537531 0.0011106005 0.75693168
0.83789828 0.1183364 0.69963235
0.86617647 0.28829657 0.67759651
0.91979167 0.37922794 0.67383578
0.0052696078 0.19068627 0.64656863
0.094378064 0.18823529 0.65667892
0.27809436 0.18495711 0.67941176
0.47696078 0.14738051 0.71597733
0.70343137 0.081311275 0.76409314
0.81928615 0.15824142 0.76303615
0.82745098 0.29791667 0.70686275
0.85672488 0.39633885 0.68382353
0.93235294 0.43811275 0.68370098
0 0.32352941 0.61127451
0.004932598 0.33283548 0.63210784
0.23480392 0.34414828 0.65343137
0.42794118 0.36259957 0.69460784
0.65367647 0.38599877 0.74166667
0.78492647 0.43192402 0.75790441
0.80585172 0.47487745 0.71757047
0.84742647 0.50667126 0.6877451
0.93186275 0.50098039 0.67647059
0.0019607843 0.47892157 0.63897059
0.06161152 0.48563113 0.64387255
0.22463235 0.49944853 0.64803922
0.38063725 0.51911765 0.66222426
0.58627451 0.56715686 0.71617647
0.7549326 0.60906863 0.7596201
0.78137255 0.61954657 0.72132353
0.86764706 0.59068627 0.69028799
0.95367647 0.56666667 0.6622549
0.15637255 0.64417892 0.69460784
0.22085631 0.64982384 0.69467678
0.30015319 0.66369485 0.70821078
0.44207261 0.67745098 0.71666667
0.57987132 0.70441176 0.73550858
0.71233915 0.72408088 0.74460784
0.80012255 0.72071078 0.73506434
0.8754902 0.70606618 0.72029718
0.94209559 0.69607843 0.70392157
0.25355392 0.80012255 0.75992647
0.2819087 0.79077819 0.74705882
0.3752451 0.78973652 0.74120711
0.47941176 0.79540441 0.74275429
0.58511029 0.7995098 0.73823529
0.69005821 0.79405637 0.72587316
0.78489583 0.79586397 0.71056985
0.87598039 0.80749081 0.72089461
0.93235294 0.81127451 0.72696078
0.35998775 0.87156863 0.75098039
0.38302696 0.8689568 0.74910386
0.43382353 0.86942402 0.74509804
0.50638021 0.86942402 0.73402267
0.57303922 0.86534926 0.72074142
0.67285539 0.85911458 0.71439951
0.75588235 0.85723039 0.69257047
0.85229013 0.86577053 0.67775735
0.94411765 0.87941176 0.66096814
0.4995098 0.9504902 0.78627451
0.51421569 0.94871324 0.78609069
0.5245098 0.94509804 0.77156863
0.57947304 0.94319853 0.77058824
0.60343137 0.91789216 0.73578431
0.69607843 0.92604167 0.73921569
0.79301471 0.94509804 0.75588235
0.86930147 0.9403799 0.7403799
0.91519608 0.95833333 0.74803922
0.15294118 0 0.77745098
0.22463235 0.0039215686 0.78431373
0.3502451 0.00098039216 0.79583333
0.50134804 0.0039215686 0.81470588
0.68137255 0.0039215686 0.84313725
0.87303922 0 0.87794118
0.94411765 0.0039215686 0.85710784
0.94889706 0.12463235 0.8127451
0.9627451 0.36372549 0.78431373
0.14215686 0.057230392 0.77745098
0.22156863 0.02689951 0.7847886
0.34341299 0.0039215686 0.79828431
0.49914216 0.0078431373 0.81470588
0.6786152 0.00098039216 0.84362745
0.86577819 0.0036917892 0.87305453
0.94411765 0.0052696078 0.86522672
0.94379596 0.20827206 0.81536458
0.95490196 0.39938725 0.78688725
0.053676471 0.18039216 0.77254902
0.1794424 0.18272059 0.77965686
0.31764706 0.15514706 0.79080882
0.4872549 0.14693627 0.81421569
0.66764706 0.10588235 0.83982843
0.85143995 0.083547794 0.87429534
0.92352941 0.21623775 0.85490196
0.92830882 0.36865809 0.81078431
0.94607843 0.48014706 0.79191176
0.014583333 0.31813725 0.74754902
0.050980392 0.32352941 0.75833333
0.24938725 0.325 0.77276348
0.43638174 0.33566176 0.79509804
0.63363971 0.35147059 0.82579657
0.79839154 0.39806985 0.85395221
0.90903799 0.45364583 0.86020221
0.90992647 0.5147212 0.81519608
0.92218137 0.5692402 0.80294118
0.0019607843 0.44852941 0.70490196
0.012745098 0.45686275 0.73008578
0.11482843 0.46176471 0.72892157
0.36354167 0.47990196 0.76078431
0.57107843 0.52303922 0.7995098
0.75539216 0.57401961 0.84534314
0.85661765 0.60943627 0.84754902
0.875 0.63823529 0.81556373
0.91568627 0.64558824 0.80686275
0.017647059 0.59816176 0.74215686
0.048958333 0.59852941 0.74460784
0.18397672 0.60428922 0.74852941
0.35594363 0.61407782 0.75637255
0.50183824 0.64166667 0.76844363
0.69457721 0.6995098 0.82189032
0.83397672 0.73909314 0.85291054
0.8536152 0.73872549 0.82414216
0.92205882 0.71470588 0.8
0.25833333 0.74411765 0.79117647
0.28088235 0.74117647 0.79117647
0.37401961 0.75116422 0.79430147
0.46323529 0.76191789 0.80340074
0.59068627 0.78039216 0.81580882
0.70318627 0.80490196 0.83532475
0.80251225 0.82101716 0.84136029
0.87539828 0.82190564 0.83921569
0.92058824 0.8125 0.83210784
0.40686275 0.8754902 0.85257353
0.42193627 0.87287071 0.84952512
0.46617647 0.87901348 0.84874387
0.54253983 0.87977941 0.85294118
0.62058824 0.87598039 0.83425245
0.70343137 0.88039216 0.83321078
0.77576593 0.87647059 0.81960784
0.85991115 0.88468137 0.82135417
0.93382353 0.89252451 0.81960784
0.52254902 0.95294118 0.87352941
0.52941176 0.9495098 0.87389706
0.55294118 0.94901961 0.86887255
0.60232843 0.95428922 0.86997549
0.65392157 0.95098039 0.85931373
0.71372549 0.95870098 0.84791667
0.77843137 0.92769608 0.82867647
0.86372549 0.94460784 0.82977941
0.94803922 0.96862745 0.83039216
0.30098039 0 0.89215686
0.35 0.0039215686 0.89607843
0.44117647 0.0068627451 0.8995098
0.56421569 0.006372549 0.90980392
0.69901961 0.0039215686 0.92671569
0.85226716 0.0039215686 0.94344363
0.98872549 0.0052696078 0.95477941
0.99607843 0.03817402 0.94215686
0.99656863 0.32156863 0.90784314
0.30441176 0.057781863 0.89558824
0.33872549 0.055767463 0.89515165
0.42696078 0.007153799 0.90257353
0.54810049 0.005859375 0.9098269
0.69751838 0.0078737745 0.92279412
0.8531633 0.0080269608 0.94028033
0.96801471 0.0082873775 0.95392157
0.99651501 0.11832108 0.94656863
0.99307598 0.37107843 0.90392157
0.26115196 0.19705882 0.88786765
0.30931373 0.20343137 0.88898591
0.40784314 0.18137255 0.89886642
0.53693321 0.16328125 0.90735294
0.67751225 0.11991422 0.91887255
0.83382353 0.12794118 0.93970588
0.96372549 0.13970588 0.95392157
0.99575674 0.32990196 0.94571078
0.98578431 0.46237745 0.91176471
0.14491422 0.33578431 0.87616422
0.21214767 0.33670343 0.87794118
0.33916973 0.33431373 0.88181679
0.49349724 0.34349724 0.89313725
0.64779412 0.35196078 0.90980392
0.79405637 0.37794884 0.92725184
0.93135723 0.42401961 0.94393382
0.99028033 0.49381127 0.94166667
0.98480392 0.56636029 0.90735294
0.011764706 0.46127451 0.84705882
0.023161765 0.46277574 0.85340074
0.16715686 0.4591299 0.85882353
0.38431373 0.47205882 0.87362132
0.57598039 0.50490196 0.8877451
0.75196078 0.5375 0.91568627
0.89166667 0.58988971 0.93848039
0.95245098 0.63379289 0.92696078
0.96151961 0.66470588 0.90343137
0.0078431373 0.60637255 0.84460784
0.0060661765 0.60275735 0.84348192
0.01528799 0.58676471 0.83288909
0.25287224 0.59038756 0.83571538
0.47931985 0.61534926 0.86127451
0.67892157 0.65876225 0.89521293
0.84117647 0.71176471 0.92352941
0.92922794 0.74607843 0.93049939
0.94019608 0.75214461 0.9036152
0.054779412 0.71764706 0.8495098
0.10862439 0.71807598 0.85341605
0.21308211 0.7185049 0.85343137
0.38186275 0.73386949 0.86078431
0.48596814 0.73033088 0.86084559
0.62397365 0.74963235 0.86996017
0.77693015 0.79656863 0.90382966
0.89336703 0.83039216 0.92297794
0.91066176 0.83860294 0.91519608
0.39068627 0.85245098 0.89650735
0.39767157 0.84907322 0.89607843
0.451731 0.84509804 0.89166667
0.50471814 0.85271906 0.89908088
0.61056985 0.86443015 0.89944853
0.69856771 0.87175245 0.90294118
0.79787071 0.88812806 0.914231
0.86802237 0.8995098 0.91819853
0.92647059 0.90686275 0.9151348
0.55 0.95294118 0.9377451
0.56078431 0.96421569 0.94515931
0.57843137 0.94803922 0.93676471
0.61715686 0.95165441 0.93431373
0.68186275 0.96593137 0.94338235
0.73284314 0.95294118 0.92628676
0.79375 0.95637255 0.91862745
0.87205882 0.96127451 0.91519608
0.94460784 0.97598039 0.91470588
0.50588235 0.16862745 0.99607843
0.51323529 0.14558824 0.98823529
0.56960784 0.1254902 0.99215686
0.64264706 0.040196078 0.99068627
0.75098039 0.033333333 0.99215686
0.875 0.0014705882 0.99607843
0.96764706 0.015686275 0.99215686
0.99264706 0.01127451 0.99607843
1 0.30196078 0.99607843
0.49803922 0.22205882 0.99166667
0.51795343 0.2189951 0.99252451
0.56433824 0.1942402 0.98970588
0.6504902 0.16568627 0.99215686
0.75318627 0.11642157 0.99632353
0.86734069 0.080882353 0.9963848
0.9754902 0.012377451 0.9995098
0.99957108 0.011948529 0.9995098
1 0.37892157 1
0.48529412 0.33137255 0.99313725
0.47573529 0.30318627 0.97732843
0.54803922 0.2997549 0.98529412
0.64031863 0.30612745 0.99276961
0.73431373 0.27843137 0.99068627
0.85 0.26348039 0.99215686
0.95367647 0.26862745 0.99607843
1 0.29093137 0.99607843
1 0.45490196 0.98431373
0.42254902 0.4372549 0.97794118
0.44540441 0.43921569 0.97843137
0.49840686 0.42303922 0.97254902
0.60006127 0.4254902 0.98131127
0.70220588 0.42230392 0.98112745
0.8245098 0.43425245 0.98970588
0.93835784 0.4560049 0.99607843
0.99656863 0.4745098 0.99264706
1 0.57107843 0.99362745
0.33529412 0.55294118 0.97254902
0.36078431 0.55441176 0.97034314
0.44166667 0.55441176 0.9745098
0.53357843 0.54901961 0.97254902
0.65098039 0.55392157 0.9754902
0.77867647 0.56764706 0.97867647
0.89754902 0.57745098 0.97647059
0.98921569 0.62230392 0.99068627
0.99803922 0.67843137 0.99411765
0.27205882 0.67696078 0.96078431
0.25367647 0.67113971 0.95526961
0.33125 0.66470588 0.9564951
0.44307598 0.66023284 0.96078431
0.57867647 0.66470588 0.96397059
0.72395833 0.68039216 0.96807598
0.8495098 0.6995098 0.97745098
0.95637255 0.73039216 0.98284314
0.98431373 0.74313725 0.98039216
0.30392157 0.77843137 0.95294118
0.33063725 0.77941176 0.95294118
0.38602941 0.78161765 0.95906863
0.4182598 0.76421569 0.93921569
0.48970588 0.74852941 0.92941176
0.64607843 0.7627451 0.94558824
0.79803922 0.79215686 0.97083333
0.92107843 0.82598039 0.97647059
0.99019608 0.85294118 0.9872549
0.45196078 0.86764706 0.95637255
0.48566176 0.88033088 0.96519608
0.50551471 0.8754902 0.96335784
0.52107843 0.85637255 0.94166667
0.59803922 0.87034314 0.95882353
0.675 0.8745098 0.96078431
0.74154412 0.86715686 0.95134804
0.87598039 0.89166667 0.97647059
0.94460784 0.91470588 0.97598039
0.62745098 0.96078431 0.98039216
0.61813725 0.95637255 0.97647059
0.61176471 0.94509804 0.96862745
0.63382353 0.94509804 0.9622549
0.68627451 0.94901961 0.95882353
0.7504902 0.95147059 0.97107843
0.79019608 0.93627451 0.96568627
0.87254902 0.96127451 0.96911765
0.91372549 0.97254902 0.97647059
