site/assets/luts/natron-haldclut--kodak-kodachrome-25--b62cfc98c.cube
# LUTr-Project: LUTr — LUTrepository
# LUTr-Schema-Version: 1
# LUTr-ID: natron-haldclut--kodak-kodachrome-25--b62cfc98c
# LUTr-Title: kodak kodachrome 25
# LUTr-Collection: Natron HaldCLUT
# LUTr-Collection-ID: natron-haldclut-presets
# LUTr-Source: https://github.com/NatronGitHub/clut
# LUTr-Source-File: submissions/natron-haldclut-presets/colorslide/kodak_kodachrome_25.png
# LUTr-Source-Format: PNG
# LUTr-Source-SHA256: 2058a23e6e887ab8613331bcff92fb3af10becb1f8dbf91e03c69dcff8e8f17d
# LUTr-License: CC-BY-SA-4.0
# LUTr-License-URL: https://github.com/NatronGitHub/clut#license
# LUTr-Tags: creative, film, film-emulation, hald-clut, natron, png, cube
# LUTr-Transform-Class: film-emulation
# LUTr-Input-Color-Space: srgb
# LUTr-Output-Color-Space: srgb
# LUTr-Color-Space-Confidence: assumed-display-referred
# LUTr-Conversion-Method: PNG LUT image decoded at 16-bit and sampled to 25x25x25 3D CUBE
# LUTr-Conversion-Date: 2026-07-27
# LUTr-Conversion-Tool: LUTr scripts/convert-all-to-cube.mjs
# LUTr-Conversion-Grid: 25x25x25
# LUTr-Note: Preserve this metadata and the upstream license notices when redistributing.
TITLE "kodak kodachrome 25"
LUT_3D_SIZE 9
DOMAIN_MIN 0 0 0
DOMAIN_MAX 1 1 1
0.02745098 0.043137255 0.019607843
0.050490196 0.016176471 0.023529412
0.10196078 0.0029411765 0.0029411765
0.19705882 0.0039215686 0.0039215686
0.39411765 0.0039215686 0.015686275
0.77990196 0 0.0024509804
0.99313725 0.023529412 0.0039215686
1 0.064215686 0.020588235
1 0.23529412 0.1372549
0.030392157 0.071568627 0.025980392
0.076960784 0.069117647 0.03872549
0.17536765 0.068627451 0.026470588
0.32794118 0.078431373 0.018137255
0.54166667 0.08627451 0.0093137255
0.80165441 0.10490196 0.016973039
0.96237745 0.16531863 0.039705882
0.98964461 0.29754902 0.10588235
1 0.38578431 0.1872549
0.085294118 0.23823529 0.11568627
0.13321078 0.24313725 0.11029412
0.24607843 0.23627451 0.11078431
0.39754902 0.24509804 0.10294118
0.6 0.26323529 0.095098039
0.76262255 0.30870098 0.12487745
0.87156863 0.36176471 0.14240196
0.95196078 0.4254902 0.17892157
0.99607843 0.48333333 0.22647059
0.17352941 0.44362745 0.21666667
0.23688725 0.45128676 0.21519608
0.35379902 0.44546569 0.20343137
0.4877451 0.45147059 0.19221814
0.60245098 0.45931373 0.19828431
0.72352941 0.48039216 0.20637255
0.82794118 0.50098039 0.19742647
0.9122549 0.53204657 0.21862745
0.98970588 0.56176471 0.24166667
0.44705882 0.58823529 0.27843137
0.45637255 0.59019608 0.27843137
0.5 0.58823529 0.27107843
0.56519608 0.58823529 0.26470588
0.64313725 0.59313725 0.26372549
0.72916667 0.60661765 0.25882353
0.81617647 0.61421569 0.25098039
0.90343137 0.6254902 0.24705882
0.99019608 0.64117647 0.26078431
0.57843137 0.69460784 0.32843137
0.58431373 0.69852941 0.32843137
0.6127451 0.69571078 0.3245098
0.65 0.69852941 0.32303922
0.69117647 0.69852941 0.31789216
0.76366422 0.70637255 0.3127451
0.83186275 0.71421569 0.30882353
0.91881127 0.71421569 0.30079657
0.98039216 0.72058824 0.29558824
0.67352941 0.79901961 0.38137255
0.68088235 0.79607843 0.37843137
0.69681373 0.79901961 0.3752451
0.7245098 0.79607843 0.37352941
0.75686275 0.79607843 0.36960784
0.80882353 0.80392157 0.36666667
0.86666667 0.80686275 0.3625
0.93970588 0.80784314 0.35490196
0.99705882 0.81176471 0.35098039
0.775 0.90392157 0.43235294
0.78627451 0.90392157 0.43235294
0.80110294 0.90784314 0.43235294
0.82530637 0.90753676 0.42843137
0.84313725 0.90784314 0.42843137
0.88137255 0.91145833 0.4245098
0.93137255 0.91176471 0.42058824
0.97003676 0.91917892 0.41666667
1 0.91960784 0.4127451
0.8745098 0.98431373 0.47058824
0.86323529 0.96911765 0.46323529
0.88137255 0.98039216 0.47058824
0.9004902 0.98431373 0.47058824
0.91568627 0.98431373 0.46666667
0.94656863 0.98431373 0.4627451
0.97352941 0.98529412 0.4627451
0.99215686 0.98823529 0.45490196
1 0.99215686 0.45098039
0.0083333333 0.0044117647 0.054411765
0.022610294 0.0043504902 0.060784314
0.089828431 0.011887255 0.065073529
0.16384804 0.0037377451 0.065196078
0.36176471 0 0.049509804
0.73284314 0.0073529412 0.032536765
0.98872549 0.02120098 0.021446078
1 0.052083333 0.090196078
1 0.29166667 0.26666667
0.035232843 0.068627451 0.076960784
0.061818321 0.068742341 0.077274816
0.15588235 0.071859681 0.07689951
0.31599265 0.065686275 0.064070159
0.53039216 0.084742647 0.064430147
0.80439645 0.089560355 0.051792279
0.93344056 0.15654105 0.10801164
0.99259344 0.29276195 0.20599724
1 0.39503676 0.30042892
0.088357843 0.2254902 0.13823529
0.13088235 0.22156863 0.1442402
0.23664216 0.23170956 0.14473039
0.38898591 0.23854167 0.13296569
0.59779412 0.24828431 0.13106618
0.75317096 0.30045956 0.15784314
0.85637255 0.34941789 0.19754902
0.94090074 0.42015931 0.24914216
0.99313725 0.47647059 0.31617647
0.15784314 0.44215686 0.22794118
0.21887255 0.44607843 0.2240579
0.35214461 0.44589461 0.22103248
0.48001685 0.45011489 0.2122549
0.60392157 0.45980392 0.20995711
0.71991422 0.47958793 0.21580116
0.81505821 0.4907935 0.23333333
0.90500919 0.52941176 0.26568627
0.98088235 0.5526348 0.30196078
0.43504902 0.59215686 0.28210784
0.45594363 0.59215686 0.28213848
0.50398284 0.59215686 0.27800245
0.56372549 0.59215686 0.26945466
0.64313725 0.59607843 0.26764706
0.73186275 0.60465686 0.25759804
0.81470588 0.61372549 0.26727941
0.90367647 0.62552083 0.26574755
0.98480392 0.6375 0.27401961
0.58872549 0.70245098 0.33088235
0.58841912 0.69852941 0.32843137
0.61095282 0.69963235 0.32688419
0.64944853 0.70245098 0.3245098
0.69770221 0.69852941 0.32432598
0.76519608 0.70245098 0.3161152
0.83480392 0.71029412 0.3067402
0.92058824 0.71470588 0.30098039
0.97205882 0.721875 0.2973652
0.67352941 0.8 0.38235294
0.68137255 0.8 0.38137255
0.69224877 0.80193015 0.37745098
0.72250306 0.79901961 0.37389706
0.75661765 0.8 0.37444853
0.80392157 0.79992341 0.36827512
0.86960784 0.80465686 0.3627451
0.94748775 0.81557904 0.36182598
0.98823529 0.82218137 0.35833333
0.77003676 0.90686275 0.43578431
0.78284314 0.90783548 0.43578431
0.80098039 0.91084559 0.43235294
0.82371324 0.90753676 0.42843137
0.83918505 0.90343137 0.4245098
0.87745098 0.90784314 0.4245098
0.9245098 0.91262255 0.42058824
0.98523284 0.9234758 0.42058824
0.99607843 0.92745098 0.42009804
0.85490196 0.96470588 0.4627451
0.87751225 0.98039216 0.47052696
0.88492647 0.98382353 0.47009804
0.89803922 0.98431373 0.46666667
0.90808824 0.97647059 0.4627451
0.94264706 0.98431373 0.46488971
0.97487745 0.98566176 0.45919118
0.99607843 0.99215686 0.45833333
1 0.99215686 0.45490196
0.0039215686 0.0039215686 0.16960784
0.011764706 0.015686275 0.16948529
0.043137255 0.0039215686 0.17647059
0.12720588 0 0.18247549
0.33823529 0 0.15637255
0.67291667 0.0024509804 0.1060049
0.99240196 0.012990196 0.093137255
1 0.061151961 0.16421569
1 0.28529412 0.32254902
0.015686275 0.062132353 0.18382353
0.031372549 0.058333333 0.18484988
0.12542892 0.057567402 0.17735907
0.29119179 0.056020221 0.1712163
0.47542892 0.069669118 0.18229167
0.77990196 0.08114277 0.16470588
0.93033088 0.15315564 0.20906863
0.97610294 0.27879902 0.303125
0.99656863 0.38823529 0.38186275
0.0625 0.20588235 0.22916667
0.09620098 0.21731005 0.24145221
0.19859069 0.21452206 0.22922794
0.37040441 0.23333333 0.23664216
0.58541667 0.2317402 0.22843137
0.73137255 0.29255515 0.25762868
0.83780637 0.34289216 0.3096201
0.91801471 0.4127451 0.3614277
0.99509804 0.4745098 0.41862745
0.10343137 0.43860294 0.3004902
0.17444853 0.43475797 0.29791667
0.31151961 0.4375 0.30186887
0.45533088 0.44373468 0.29163603
0.58382353 0.45410539 0.30343137
0.6995098 0.46862745 0.32058824
0.79672181 0.49240196 0.34607843
0.88480392 0.52046569 0.38088235
0.97009804 0.55 0.42071078
0.42205882 0.59215686 0.31078431
0.44503676 0.59209559 0.31066176
0.48958333 0.58823529 0.31188725
0.55416667 0.59160539 0.30526961
0.63970588 0.59264706 0.30490196
0.72009804 0.59816176 0.30839461
0.79803922 0.60980392 0.32843137
0.88676471 0.62169118 0.34264706
0.975 0.63382353 0.39656863
0.56666667 0.69460784 0.33480392
0.58186275 0.69460784 0.3350337
0.60735294 0.69460784 0.33026961
0.6495864 0.69875919 0.32856924
0.6995098 0.70245098 0.33198529
0.76404718 0.69852941 0.3245098
0.83167892 0.70637255 0.31596201
0.91666667 0.71260723 0.33561581
0.99252451 0.72205882 0.32928922
0.67279412 0.79607843 0.38235294
0.68394608 0.7989277 0.38213848
0.69479167 0.79901961 0.37843137
0.72742034 0.80183824 0.37745098
0.76115196 0.79901961 0.3745098
0.80490196 0.79901961 0.37141544
0.87132353 0.80704657 0.36960784
0.95098039 0.81642157 0.36590074
0.99289216 0.81960784 0.35784314
0.78933824 0.91433824 0.44019608
0.78664216 0.91519608 0.43975184
0.79705882 0.91176471 0.43299632
0.82401961 0.91095282 0.43235294
0.85735294 0.91164216 0.43235294
0.88823529 0.91564032 0.43235294
0.92757353 0.91519608 0.42708333
0.97740502 0.92303922 0.42058824
0.99607843 0.92745098 0.41752451
0.87843137 0.98431373 0.47058824
0.87892157 0.98431373 0.47058824
0.88627451 0.9879902 0.47058824
0.90379902 0.98823529 0.47058824
0.91862745 0.98333333 0.46666667
0.94656863 0.98823529 0.46666667
0.97352941 0.98210784 0.45882353
0.99215686 0.98823529 0.45833333
1 0.99607843 0.45490196
0 0.0039215686 0.25196078
0.009129902 0.0078431373 0.25949755
0.032965686 0.006004902 0.26017157
0.11133578 0.0039215686 0.2495098
0.32745098 0 0.22254902
0.69209559 0 0.17058824
0.98382353 0.0039215686 0.12732843
1 0.062990196 0.21360294
1 0.2877451 0.37107843
0.0075367647 0.042156863 0.27892157
0.011458333 0.044263174 0.28674173
0.08314951 0.05 0.28639706
0.24792433 0.03560049 0.26807598
0.45686275 0.050306373 0.26029412
0.75233609 0.066482843 0.23522518
0.92696078 0.1314185 0.26764706
0.97965686 0.26011029 0.35147059
0.99607843 0.37273284 0.42273284
0.04754902 0.18382353 0.35343137
0.075582108 0.19166667 0.35343137
0.14791667 0.20490196 0.35490196
0.32757353 0.20790441 0.34313725
0.55863971 0.21053922 0.3346201
0.70343137 0.26721814 0.36046262
0.82141544 0.33844975 0.39436275
0.91017157 0.39914216 0.43658088
0.98137255 0.46470588 0.47843137
0.049509804 0.43039216 0.45147059
0.091712623 0.42040441 0.44429381
0.25464154 0.41519608 0.43094363
0.40631127 0.43018536 0.44492953
0.54537377 0.43578431 0.43970588
0.66917892 0.45833333 0.44901961
0.76842831 0.48284314 0.46855086
0.86237745 0.51091452 0.49153646
0.95686275 0.54460784 0.51715686
0.37205882 0.58039216 0.44877451
0.39117647 0.58121936 0.44362745
0.44215686 0.57720588 0.44019608
0.51253064 0.5799326 0.45710784
0.59705882 0.58431373 0.46740196
0.67674632 0.59166667 0.484375
0.76378676 0.60104167 0.4846201
0.85392157 0.60998775 0.50621936
0.95563725 0.62941176 0.53602941
0.5466299 0.68915441 0.40484069
0.55893842 0.69075521 0.39607843
0.59166667 0.69497549 0.38252145
0.62457108 0.69123775 0.39846814
0.67405025 0.69096201 0.4129902
0.73676471 0.69460784 0.425
0.80166973 0.69954044 0.4372549
0.8859758 0.70795803 0.46029412
0.96764706 0.71329657 0.490625
0.67058824 0.79571078 0.38345588
0.67539828 0.79607843 0.38982843
0.6890625 0.79901961 0.38854167
0.7176777 0.79607843 0.38088235
0.7627451 0.8 0.38131127
0.80551471 0.80392157 0.38235294
0.86384804 0.80686275 0.39166667
0.94705882 0.81115196 0.35935968
0.9942402 0.81286765 0.3879902
0.79460784 0.91568627 0.44393382
0.79197304 0.91519608 0.44362745
0.79442402 0.91139706 0.43590686
0.8241345 0.91568627 0.43627451
0.85726103 0.91862745 0.43734681
0.89283088 0.91953891 0.43627451
0.92879902 0.91568627 0.42939645
0.98115043 0.91535692 0.42052696
0.99607843 0.9127451 0.4127451
0.88235294 0.98823529 0.4745098
0.88627451 0.98823529 0.4745098
0.88627451 0.98431373 0.47058824
0.90588235 0.99215686 0.4745098
0.92352941 0.99215686 0.47058824
0.94656863 0.99160539 0.46666667
0.97990196 0.99460784 0.46666667
0.98823529 0.98560049 0.45833333
0.99215686 0.97401961 0.44852941
0 0 0.30588235
0.00024509804 0.0039215686 0.30612745
0.018137255 0.0029411765 0.30539216
0.082843137 0 0.29485294
0.25588235 0 0.27352941
0.66764706 0 0.21397059
0.98529412 0.0039215686 0.15784314
1 0.03627451 0.23088235
1 0.2745098 0.40196078
0.0039215686 0.038480392 0.34411765
0.00042892157 0.027389706 0.34436275
0.04497549 0.030882353 0.34050245
0.20367647 0.024601716 0.32582721
0.43259804 0.028921569 0.30563725
0.72533701 0.045343137 0.28422181
0.9372549 0.091666667 0.29828431
0.98134191 0.23333333 0.38210784
1 0.37230392 0.46911765
0.024019608 0.15980392 0.41617647
0.040931373 0.16764706 0.41623775
0.12855392 0.17291667 0.4127451
0.29050245 0.18333333 0.40802696
0.52401961 0.18897059 0.39264706
0.71292892 0.23167892 0.4004902
0.82401961 0.30392157 0.43627451
0.90919118 0.38357843 0.48063725
0.98088235 0.45196078 0.52156863
0.0039215686 0.40318627 0.5372549
0.033088235 0.40686275 0.53832721
0.18302696 0.40343137 0.52598039
0.36807598 0.40885417 0.52184436
0.52745098 0.41139706 0.50931373
0.64852941 0.43697917 0.51862745
0.75612745 0.46599265 0.53511029
0.85147059 0.50343137 0.55548407
0.94656863 0.53676471 0.57034314
0.30588235 0.57058824 0.57647059
0.31911765 0.57144608 0.58897059
0.38578431 0.57279412 0.58946078
0.46875 0.5682598 0.58357843
0.55686275 0.57156863 0.58235294
0.64718137 0.5807598 0.58639706
0.7370098 0.59044118 0.59313725
0.82708333 0.60416667 0.59803922
0.93333333 0.62156863 0.60588235
0.49093137 0.68357843 0.58602941
0.49862132 0.68676471 0.57515319
0.52702206 0.6846201 0.5875
0.56596201 0.68161765 0.5950674
0.61936275 0.6810049 0.60085784
0.68872549 0.68599877 0.59877451
0.7598652 0.69068627 0.60631127
0.84696691 0.69745711 0.61617647
0.95955882 0.71029412 0.63455882
0.63480392 0.79411765 0.48529412
0.64019608 0.79215686 0.49234069
0.65919118 0.79607843 0.49411765
0.68137255 0.79466912 0.50569853
0.71960784 0.79289216 0.50318627
0.76764706 0.79577206 0.51985294
0.82156863 0.79644608 0.55392157
0.89840686 0.80018382 0.56734069
0.98431373 0.80686275 0.60196078
0.77916667 0.91176471 0.44754902
0.78042279 0.91176471 0.44408701
0.79454657 0.91268382 0.44583333
0.80572917 0.90539216 0.45269608
0.84117647 0.91568627 0.44411765
0.8754902 0.91283701 0.43431373
0.9245098 0.91550245 0.43192402
0.97423407 0.91369485 0.4325674
0.99607843 0.91593137 0.44142157
0.88627451 0.99215686 0.4745098
0.88627451 0.99240196 0.47843137
0.89117647 0.98970588 0.4745098
0.87990196 0.9747549 0.47843137
0.92156863 0.99215686 0.4745098
0.94656863 0.99607843 0.47058824
0.98137255 0.99656863 0.46666667
1 0.99583333 0.4627451
1 0.99803922 0.45490196
0 0.0039215686 0.35833333
0.0076593137 0.0078431373 0.35882353
0.015318627 0.0078431373 0.3622549
0.063235294 0 0.33480392
0.20196078 0 0.31715686
0.56764706 0 0.25435049
0.98480392 0.0028186275 0.18713235
0.9963848 0.03627451 0.26176471
1 0.22254902 0.40882353
0 0.030882353 0.39068627
0.0073529412 0.041888787 0.39426317
0.038541667 0.029289216 0.38716299
0.1631204 0.016666667 0.36855852
0.38259804 0.011427696 0.34093137
0.70049786 0.012806373 0.3122549
0.95323223 0.045481005 0.31507353
0.99028033 0.19826134 0.40081955
1 0.33872549 0.48988971
0.0039215686 0.1377451 0.46029412
0.0067248775 0.12602635 0.45310968
0.089215686 0.14439338 0.45370711
0.24803922 0.14558824 0.44497549
0.47984069 0.14803922 0.42401961
0.70686275 0.18509498 0.42287071
0.82977941 0.27365196 0.46755515
0.91372549 0.35200674 0.50700061
0.97745098 0.43088235 0.55245098
0.014215686 0.36715686 0.57598039
0.011956189 0.37578891 0.58235294
0.12715993 0.37052696 0.57303922
0.33772212 0.36717984 0.55752145
0.49733456 0.38823529 0.56029412
0.63985141 0.41436121 0.56176471
0.75136336 0.44373468 0.5745098
0.84674479 0.48732384 0.59498315
0.94264706 0.525 0.61421569
0.18676471 0.55931373 0.65588235
0.26740196 0.55897672 0.65588235
0.3372549 0.56004902 0.65710784
0.43697917 0.56050858 0.65
0.52990196 0.56078431 0.64669118
0.62990196 0.56770833 0.64653799
0.72181373 0.57653186 0.64871324
0.81755515 0.59068627 0.65514706
0.93186275 0.6122549 0.6629902
0.43333333 0.67199755 0.69068627
0.4513557 0.67591912 0.69215686
0.48126532 0.67522978 0.68823529
0.52604167 0.67591912 0.68710938
0.58970588 0.67647059 0.6950674
0.65688572 0.68039216 0.69703585
0.73235294 0.68036152 0.6939185
0.82629442 0.68676471 0.69596354
0.93817402 0.70245098 0.69852941
0.56176471 0.78431373 0.69754902
0.57231924 0.78223039 0.69546569
0.59607843 0.78431373 0.69448529
0.62352941 0.7872549 0.69566483
0.66151961 0.78523284 0.69773284
0.70992647 0.78500306 0.71176471
0.77824755 0.78630515 0.71210172
0.86092218 0.79215686 0.72241115
0.96017157 0.80294118 0.71715686
0.74430147 0.91176471 0.54767157
0.74591759 0.91063879 0.5439185
0.75742953 0.91153493 0.55232843
0.77457874 0.91341146 0.5589614
0.80814951 0.91038603 0.55214461
0.84515931 0.91126685 0.55280331
0.88192402 0.91181066 0.60148591
0.94536612 0.9122549 0.59482996
0.99479167 0.91599265 0.67910539
0.88088235 0.99460784 0.47696078
0.87647059 0.9903799 0.48235294
0.89117647 0.99644608 0.47843137
0.90196078 0.99215686 0.47598039
0.9254902 0.99803922 0.4745098
0.94356618 0.99215686 0.47058824
0.96127451 0.97561275 0.47794118
0.99607843 0.96960784 0.46029412
1 0.97941176 0.4627451
0 0.0039215686 0.39705882
0.0039215686 0.0073529412 0.39705882
0.0078431373 0.0078431373 0.39019608
0.025612745 0 0.37169118
0.16617647 0 0.35588235
0.48688725 0 0.3
0.98553922 0 0.23235294
1 0.012377451 0.2504902
1 0.20588235 0.44019608
0 0.019117647 0.43186275
0.00032169118 0.026853554 0.43186275
0.014705882 0.016176471 0.42423407
0.071170343 0.00096507353 0.41234681
0.31341912 0.0050857843 0.37892157
0.65330882 0.0073529412 0.33970588
0.94604779 0.023376225 0.3296875
0.99275429 0.13518689 0.40257353
1 0.31029412 0.5127451
0 0.096323529 0.49019608
0.0035845588 0.099877451 0.48872549
0.046078431 0.084313725 0.47591912
0.1955576 0.082628676 0.46099877
0.41764706 0.10196078 0.45098039
0.71081495 0.11286765 0.42855392
0.85827206 0.19724265 0.46372549
0.91948529 0.32310049 0.53186275
0.98455882 0.41470588 0.5870098
0.0039215686 0.32953431 0.61433824
0.013189338 0.32954963 0.61683517
0.063970588 0.33272059 0.60585172
0.27568934 0.33321078 0.59365809
0.48529412 0.33903186 0.58118873
0.6245098 0.38198529 0.59404105
0.74411765 0.41678922 0.60738358
0.84658395 0.4644761 0.628125
0.94656863 0.50833333 0.64901961
0.11813725 0.54019608 0.71127451
0.15661765 0.53829657 0.70802696
0.26115196 0.53627451 0.70343137
0.38468137 0.53676471 0.69840686
0.50147059 0.54509804 0.69730392
0.61053922 0.54852941 0.69362745
0.70490196 0.56115196 0.69791667
0.80741422 0.5786152 0.69926471
0.92009804 0.59803922 0.70392157
0.375 0.66078431 0.76029412
0.40588235 0.66465993 0.76176471
0.43869485 0.66654412 0.7567402
0.49437806 0.66654412 0.75568321
0.55882353 0.6682598 0.7557598
0.62935049 0.6682598 0.75392157
0.71295956 0.67107843 0.75355392
0.8106924 0.67806373 0.75183824
0.92990196 0.69007353 0.75392157
0.51666667 0.77647059 0.79607843
0.53063725 0.77282475 0.79142157
0.54705882 0.77254902 0.79828431
0.57990196 0.77647059 0.7958027
0.62377451 0.7747549 0.79926471
0.67941176 0.77647059 0.80196078
0.75196078 0.78039216 0.79926471
0.8448223 0.78737745 0.79595588
0.9379902 0.79436275 0.7875
0.67512255 0.90392157 0.78137255
0.67205882 0.90081189 0.78984375
0.68030025 0.90392157 0.80343137
0.69969363 0.90044424 0.80145527
0.73284314 0.90177696 0.80379902
0.775 0.90306373 0.80499387
0.82215074 0.90306373 0.81966912
0.89558824 0.90424326 0.7979473
0.96470588 0.90784314 0.81433824
0.86372549 0.99803922 0.55
0.86348039 0.99767157 0.5557598
0.86397059 0.99607843 0.58872549
0.86323529 0.98872549 0.59963235
0.89509804 0.99509804 0.57990196
0.91237745 0.99509804 0.60392157
0.94044118 0.99534314 0.6377451
0.96666667 0.98737745 0.6504902
1 1 0.70686275
0 0.0078431373 0.43186275
0.0034313725 0.0078431373 0.43970588
0.011764706 0.0078431373 0.43235294
0.021262255 0.0039215686 0.41636029
0.090441176 0 0.39509804
0.39197304 0 0.34528186
0.92046569 0 0.25159314
1 0.0044117647 0.22892157
1 0.10490196 0.40441176
0 0.02310049 0.4627451
0 0.02254902 0.46612286
0.012132353 0.012515319 0.45850184
0.027964154 0.0011259191 0.44332108
0.19295343 0 0.42009804
0.57628676 0 0.36158088
0.94394914 0.0042892157 0.32394301
1 0.044048713 0.38382353
1 0.26715686 0.5161152
0 0.041789216 0.50404412
0 0.039414828 0.50098039
0.020343137 0.050122549 0.49607843
0.10396752 0.050490196 0.49175858
0.35784314 0.050735294 0.46415441
0.66556373 0.062254902 0.43480392
0.88226103 0.11724877 0.45147059
0.95876225 0.24701287 0.52766544
0.99571078 0.37953431 0.59791667
0 0.25392157 0.621875
0.0073529412 0.25269608 0.62111673
0.037683824 0.25592831 0.61505821
0.20607384 0.25184589 0.60184589
0.46632966 0.25818015 0.58284314
0.62990196 0.30899969 0.59656863
0.74764093 0.37536765 0.62046569
0.85947457 0.41660539 0.64264706
0.95018382 0.48511029 0.67371324
0.016421569 0.5127451 0.75122549
0.055422794 0.51715686 0.74705882
0.15968137 0.50631127 0.73995098
0.32588848 0.50278799 0.72794118
0.47095588 0.50747549 0.72009804
0.58308824 0.52386642 0.72794118
0.69509804 0.5372549 0.72794118
0.80389093 0.55664828 0.73161765
0.91960784 0.57843137 0.73382353
0.31421569 0.65116422 0.81078431
0.34452359 0.65089614 0.80343137
0.37222733 0.6457261 0.80356924
0.45550705 0.64852941 0.80098039
0.52671569 0.64901961 0.7995098
0.60569853 0.65256587 0.80343137
0.69315257 0.65644914 0.79852941
0.79524357 0.66276808 0.79166667
0.91813725 0.6723652 0.79607843
0.46568627 0.76470588 0.86960784
0.48019301 0.75958946 0.86956189
0.50104167 0.76029412 0.86106005
0.53592218 0.76335784 0.86176471
0.58970588 0.76335784 0.86084559
0.64754902 0.76335784 0.86115196
0.72447917 0.76853554 0.85735294
0.81421569 0.77287071 0.85343137
0.91164216 0.77990196 0.8495098
0.61862745 0.89215686 0.90006127
0.60495558 0.88872549 0.91660539
0.62365196 0.89129902 0.90865502
0.65165441 0.89172794 0.91341912
0.68504902 0.89166667 0.90392157
0.72810202 0.89172794 0.91479013
0.7912837 0.89742647 0.91197917
0.8533701 0.89227175 0.91574755
0.94650735 0.9004902 0.90006127
0.75588235 0.9877451 0.90833333
0.75545343 0.98039216 0.90741422
0.75379902 0.97745098 0.9064951
0.77941176 0.98382353 0.90931373
0.79313725 0.98480392 0.91740196
0.82273284 0.98431373 0.91666667
0.85232843 0.9817402 0.92242647
0.89852941 0.9778799 0.94411765
0.99019608 0.99607843 0.94656863
0 0.011764706 0.46666667
0 0.0078431373 0.4745098
0.0039215686 0.0039215686 0.45588235
0 0 0.43284314
0.098039216 0 0.40588235
0.34362745 0 0.35784314
0.90686275 0 0.2627451
0.99264706 0 0.25882353
1 0.10980392 0.41568627
0 0.015196078 0.48186275
0 0.0078431373 0.47843137
0.0039215686 0.0078431373 0.47022059
0.0099877451 0 0.45588235
0.18039216 0 0.42720588
0.54577206 0 0.36942402
0.93480392 0.00085784314 0.31715686
0.99564951 0.035723039 0.38082108
1 0.24166667 0.5127451
0 0.034313725 0.5127451
0 0.028431373 0.50404412
0 0.021568627 0.50098039
0.10294118 0.034803922 0.49252451
0.33529412 0.024019608 0.46421569
0.65637255 0.044607843 0.43590686
0.91666667 0.060539216 0.42990196
0.95526961 0.22794118 0.52303922
0.98529412 0.35784314 0.59803922
0.0024509804 0.2377451 0.62009804
0.0039215686 0.23167892 0.61636029
0.024019608 0.24019608 0.61973039
0.17745098 0.22058824 0.59656863
0.43406863 0.25465686 0.59264706
0.62898284 0.29558824 0.59993873
0.76617647 0.34117647 0.61421569
0.86078431 0.40177696 0.64166667
0.9504902 0.47401961 0.6754902
0.011764706 0.49803922 0.75294118
0.0039215686 0.5 0.75882353
0.13186275 0.49509804 0.75196078
0.30637255 0.49019608 0.7379902
0.45784314 0.5 0.73235294
0.57965686 0.51642157 0.73137255
0.69313725 0.52990196 0.73137255
0.80759804 0.54142157 0.73333333
0.91960784 0.57058824 0.74509804
0.26421569 0.64117647 0.82254902
0.31421569 0.64117647 0.82254902
0.34656863 0.63970588 0.8192402
0.43039216 0.6372549 0.81170343
0.51348039 0.64117647 0.81470588
0.59803922 0.64993873 0.81415441
0.68921569 0.65147059 0.80796569
0.79803922 0.64932598 0.80422794
0.91372549 0.66323529 0.80294118
0.45882353 0.76078431 0.88431373
0.45931373 0.76078431 0.88039216
0.49142157 0.76078431 0.87647059
0.52487745 0.76078431 0.88039216
0.57843137 0.76078431 0.87647059
0.63235294 0.7564951 0.87254902
0.71372549 0.76078431 0.87352941
0.80637255 0.76470588 0.86948529
0.90294118 0.76862745 0.86568627
0.61078431 0.89215686 0.9377451
0.59509804 0.88823529 0.93823529
0.61127451 0.88480392 0.93431373
0.64834559 0.88872549 0.93676471
0.6627451 0.88210784 0.93382353
0.70245098 0.88400735 0.94166667
0.77561275 0.88566176 0.93517157
0.84908088 0.89264706 0.94215686
0.95 0.9 0.94264706
0.73333333 0.98431373 0.96862745
0.7372549 0.98431373 0.96862745
0.74117647 0.97745098 0.95784314
0.76078431 0.98431373 0.96862745
0.77254902 0.98039216 0.96470588
0.80147059 0.98039216 0.97401961
0.84117647 0.98529412 0.98039216
0.89558824 0.99215686 0.98823529
0.98039216 0.99607843 0.99607843
