site/assets/luts/natron-haldclut--fuji-ilford-hp5--2ab2e07fe.cube
# LUTr-Project: LUTr — LUTrepository
# LUTr-Schema-Version: 1
# LUTr-ID: natron-haldclut--fuji-ilford-hp5--2ab2e07fe
# LUTr-Title: fuji ilford hp5 ++
# LUTr-Collection: Natron HaldCLUT
# LUTr-Collection-ID: natron-haldclut-presets
# LUTr-Source: https://github.com/NatronGitHub/clut
# LUTr-Source-File: submissions/natron-haldclut-presets/negative_new/fuji_ilford_hp5_++.png
# LUTr-Source-Format: PNG
# LUTr-Source-SHA256: 36c8b0cb13a7bcfd272b4dc5e46442f2d3f17cb1fff5cebbefcbcedc55bba8af
# LUTr-License: CC-BY-SA-4.0
# LUTr-License-URL: https://github.com/NatronGitHub/clut#license
# LUTr-Tags: creative, film, film-emulation, hald-clut, natron, png, cube
# LUTr-Transform-Class: film-emulation
# LUTr-Input-Color-Space: srgb
# LUTr-Output-Color-Space: srgb
# LUTr-Color-Space-Confidence: assumed-display-referred
# LUTr-Conversion-Method: PNG LUT image decoded at 16-bit and sampled to 25x25x25 3D CUBE
# LUTr-Conversion-Date: 2026-07-27
# LUTr-Conversion-Tool: LUTr scripts/convert-all-to-cube.mjs
# LUTr-Conversion-Grid: 25x25x25
# LUTr-Note: Preserve this metadata and the upstream license notices when redistributing.
TITLE "fuji ilford hp5 ++"
LUT_3D_SIZE 25
DOMAIN_MIN 0 0 0
DOMAIN_MAX 1 1 1
0.19215686 0.19215686 0.19215686
0.19460784 0.19460784 0.19460784
0.20098039 0.20098039 0.20098039
0.20735294 0.20735294 0.20735294
0.20980392 0.20980392 0.20980392
0.21176471 0.21176471 0.21176471
0.21470588 0.21470588 0.21470588
0.21568627 0.21568627 0.21568627
0.22352941 0.22352941 0.22352941
0.24411765 0.24411765 0.24411765
0.26470588 0.26470588 0.26470588
0.2745098 0.2745098 0.2745098
0.28431373 0.28431373 0.28431373
0.29166667 0.29166667 0.29166667
0.31862745 0.31862745 0.31862745
0.34558824 0.34558824 0.34558824
0.37254902 0.37254902 0.37254902
0.39558824 0.39558824 0.39558824
0.43039216 0.43039216 0.43039216
0.46519608 0.46519608 0.46519608
0.50392157 0.50392157 0.50392157
0.53529412 0.53529412 0.53529412
0.56960784 0.56960784 0.56960784
0.60441176 0.60441176 0.60441176
0.63921569 0.63921569 0.63921569
0.19852941 0.19852941 0.19852941
0.20153186 0.20153186 0.20153186
0.20637255 0.20637255 0.20637255
0.21029412 0.21029412 0.21029412
0.21421569 0.21421569 0.21421569
0.21813725 0.21813725 0.21813725
0.2192402 0.2192402 0.2192402
0.22352941 0.22352941 0.22352941
0.23382353 0.23382353 0.23382353
0.24803922 0.24803922 0.24803922
0.26470588 0.26470588 0.26470588
0.28008578 0.28008578 0.28008578
0.29068627 0.29068627 0.29068627
0.30784314 0.30784314 0.30784314
0.32990196 0.32990196 0.32990196
0.35588235 0.35588235 0.35588235
0.37892157 0.37892157 0.37892157
0.40343137 0.40343137 0.40343137
0.43321078 0.43321078 0.43321078
0.46862745 0.46862745 0.46862745
0.50392157 0.50392157 0.50392157
0.53529412 0.53529412 0.53529412
0.56960784 0.56960784 0.56960784
0.60588235 0.60588235 0.60588235
0.63529412 0.63529412 0.63529412
0.20882353 0.20882353 0.20882353
0.20882353 0.20882353 0.20882353
0.2127451 0.2127451 0.2127451
0.21666667 0.21666667 0.21666667
0.22058824 0.22058824 0.22058824
0.2245098 0.2245098 0.2245098
0.22843137 0.22843137 0.22843137
0.2377451 0.2377451 0.2377451
0.24803922 0.24803922 0.24803922
0.25833333 0.25833333 0.25833333
0.26862745 0.26862745 0.26862745
0.2814951 0.2814951 0.2814951
0.29901961 0.29901961 0.29901961
0.32352941 0.32352941 0.32352941
0.34411765 0.34411765 0.34411765
0.36862745 0.36862745 0.36862745
0.38921569 0.38921569 0.38921569
0.41372549 0.41372549 0.41372549
0.43921569 0.43921569 0.43921569
0.47267157 0.47267157 0.47267157
0.50392157 0.50392157 0.50392157
0.53872549 0.53872549 0.53872549
0.57279412 0.57279412 0.57279412
0.61041667 0.61041667 0.61041667
0.63921569 0.63921569 0.63921569
0.21519608 0.21519608 0.21519608
0.21568627 0.21568627 0.21568627
0.2192402 0.2192402 0.2192402
0.22346814 0.22346814 0.22346814
0.22720588 0.22720588 0.22720588
0.23180147 0.23180147 0.23180147
0.24129902 0.24129902 0.24129902
0.25147059 0.25147059 0.25147059
0.2622549 0.2622549 0.2622549
0.27254902 0.27254902 0.27254902
0.27892157 0.27892157 0.27892157
0.28872549 0.28872549 0.28872549
0.3129902 0.3129902 0.3129902
0.3372549 0.3372549 0.3372549
0.35526961 0.35526961 0.35526961
0.37647059 0.37647059 0.37647059
0.40294118 0.40294118 0.40294118
0.42647059 0.42647059 0.42647059
0.44852941 0.44852941 0.44852941
0.47647059 0.47647059 0.47647059
0.50784314 0.50784314 0.50784314
0.54221814 0.54221814 0.54221814
0.57732843 0.57732843 0.57732843
0.6122549 0.6122549 0.6122549
0.63529412 0.63529412 0.63529412
0.2254902 0.2254902 0.2254902
0.2254902 0.2254902 0.2254902
0.22598039 0.22598039 0.22598039
0.22941176 0.22941176 0.22941176
0.23431373 0.23431373 0.23431373
0.24166667 0.24166667 0.24166667
0.25196078 0.25196078 0.25196078
0.2629902 0.2629902 0.2629902
0.2745098 0.2745098 0.2745098
0.28480392 0.28480392 0.28480392
0.29607843 0.29607843 0.29607843
0.3127451 0.3127451 0.3127451
0.33627451 0.33627451 0.33627451
0.35784314 0.35784314 0.35784314
0.3745098 0.3745098 0.3745098
0.39705882 0.39705882 0.39705882
0.41960784 0.41960784 0.41960784
0.44338235 0.44338235 0.44338235
0.46470588 0.46470588 0.46470588
0.48529412 0.48529412 0.48529412
0.51666667 0.51666667 0.51666667
0.55269608 0.55269608 0.55269608
0.58921569 0.58921569 0.58921569
0.62598039 0.62598039 0.62598039
0.64901961 0.64901961 0.64901961
0.23186275 0.23186275 0.23186275
0.23186275 0.23186275 0.23186275
0.23186275 0.23186275 0.23186275
0.23572304 0.23572304 0.23572304
0.24166667 0.24166667 0.24166667
0.25196078 0.25196078 0.25196078
0.26262255 0.26262255 0.26262255
0.27647059 0.27647059 0.27647059
0.2872549 0.2872549 0.2872549
0.30147059 0.30147059 0.30147059
0.31666667 0.31666667 0.31666667
0.3372549 0.3372549 0.3372549
0.35784314 0.35784314 0.35784314
0.37843137 0.37843137 0.37843137
0.39938725 0.39938725 0.39938725
0.42371324 0.42371324 0.42371324
0.44803922 0.44803922 0.44803922
0.46862745 0.46862745 0.46862745
0.48921569 0.48921569 0.48921569
0.51023284 0.51023284 0.51023284
0.54068627 0.54068627 0.54068627
0.575 0.575 0.575
0.60980392 0.60980392 0.60980392
0.64822304 0.64822304 0.64822304
0.6754902 0.6754902 0.6754902
0.24215686 0.24215686 0.24215686
0.24215686 0.24215686 0.24215686
0.24142157 0.24142157 0.24142157
0.24215686 0.24215686 0.24215686
0.2495098 0.2495098 0.2495098
0.26262255 0.26262255 0.26262255
0.27647059 0.27647059 0.27647059
0.29178922 0.29178922 0.29178922
0.30490196 0.30490196 0.30490196
0.32058824 0.32058824 0.32058824
0.3372549 0.3372549 0.3372549
0.35784314 0.35784314 0.35784314
0.37990196 0.37990196 0.37990196
0.40208333 0.40208333 0.40208333
0.42573529 0.42573529 0.42573529
0.44914216 0.44914216 0.44914216
0.47254902 0.47254902 0.47254902
0.49252451 0.49252451 0.49252451
0.5129902 0.5129902 0.5129902
0.53811275 0.53811275 0.53811275
0.56764706 0.56764706 0.56764706
0.59987745 0.59987745 0.59987745
0.63333333 0.63333333 0.63333333
0.6685049 0.6685049 0.6685049
0.69901961 0.69901961 0.69901961
0.25784314 0.25784314 0.25784314
0.25539216 0.25539216 0.25539216
0.25392157 0.25392157 0.25392157
0.25147059 0.25147059 0.25147059
0.26372549 0.26372549 0.26372549
0.27843137 0.27843137 0.27843137
0.29509804 0.29509804 0.29509804
0.31029412 0.31029412 0.31029412
0.3245098 0.3245098 0.3245098
0.33872549 0.33872549 0.33872549
0.35784314 0.35784314 0.35784314
0.37843137 0.37843137 0.37843137
0.40294118 0.40294118 0.40294118
0.42530637 0.42530637 0.42530637
0.44914216 0.44914216 0.44914216
0.47493873 0.47493873 0.47493873
0.49705882 0.49705882 0.49705882
0.51764706 0.51764706 0.51764706
0.54031863 0.54031863 0.54031863
0.56764706 0.56764706 0.56764706
0.59852941 0.59852941 0.59852941
0.62941176 0.62941176 0.62941176
0.66029412 0.66029412 0.66029412
0.69362745 0.69362745 0.69362745
0.72303922 0.72303922 0.72303922
0.28627451 0.28627451 0.28627451
0.28235294 0.28235294 0.28235294
0.28235294 0.28235294 0.28235294
0.28235294 0.28235294 0.28235294
0.28431373 0.28431373 0.28431373
0.29852941 0.29852941 0.29852941
0.3127451 0.3127451 0.3127451
0.32696078 0.32696078 0.32696078
0.34117647 0.34117647 0.34117647
0.35784314 0.35784314 0.35784314
0.37843137 0.37843137 0.37843137
0.40294118 0.40294118 0.40294118
0.4254902 0.4254902 0.4254902
0.44852941 0.44852941 0.44852941
0.4754902 0.4754902 0.4754902
0.50098039 0.50098039 0.50098039
0.52156863 0.52156863 0.52156863
0.54460784 0.54460784 0.54460784
0.56764706 0.56764706 0.56764706
0.59852941 0.59852941 0.59852941
0.62745098 0.62745098 0.62745098
0.65980392 0.65980392 0.65980392
0.6872549 0.6872549 0.6872549
0.71666667 0.71666667 0.71666667
0.73333333 0.73333333 0.73333333
0.31323529 0.31323529 0.31323529
0.31323529 0.31323529 0.31323529
0.31262255 0.31262255 0.31262255
0.30931373 0.30931373 0.30931373
0.3120098 0.3120098 0.3120098
0.32156863 0.32156863 0.32156863
0.33296569 0.33296569 0.33296569
0.34509804 0.34509804 0.34509804
0.36176471 0.36176471 0.36176471
0.38235294 0.38235294 0.38235294
0.40294118 0.40294118 0.40294118
0.42567402 0.42567402 0.42567402
0.44803922 0.44803922 0.44803922
0.47285539 0.47285539 0.47285539
0.49889706 0.49889706 0.49889706
0.52457108 0.52457108 0.52457108
0.54852941 0.54852941 0.54852941
0.57058824 0.57058824 0.57058824
0.59791667 0.59791667 0.59791667
0.6254902 0.6254902 0.6254902
0.65637255 0.65637255 0.65637255
0.68431373 0.68431373 0.68431373
0.70882353 0.70882353 0.70882353
0.73333333 0.73333333 0.73333333
0.75 0.75 0.75
0.34411765 0.34411765 0.34411765
0.34411765 0.34411765 0.34411765
0.34313725 0.34313725 0.34313725
0.34019608 0.34019608 0.34019608
0.34019608 0.34019608 0.34019608
0.34460784 0.34460784 0.34460784
0.35490196 0.35490196 0.35490196
0.36519608 0.36519608 0.36519608
0.38333333 0.38333333 0.38333333
0.40355392 0.40355392 0.40355392
0.42745098 0.42745098 0.42745098
0.44803922 0.44803922 0.44803922
0.46862745 0.46862745 0.46862745
0.49362745 0.49362745 0.49362745
0.52230392 0.52230392 0.52230392
0.55036765 0.55036765 0.55036765
0.5745098 0.5745098 0.5745098
0.59852941 0.59852941 0.59852941
0.6254902 0.6254902 0.6254902
0.65281863 0.65281863 0.65281863
0.68039216 0.68039216 0.68039216
0.70490196 0.70490196 0.70490196
0.72941176 0.72941176 0.72941176
0.75 0.75 0.75
0.76666667 0.76666667 0.76666667
0.37892157 0.37892157 0.37892157
0.375 0.375 0.375
0.37107843 0.37107843 0.37107843
0.37107843 0.37107843 0.37107843
0.36715686 0.36715686 0.36715686
0.37156863 0.37156863 0.37156863
0.38186275 0.38186275 0.38186275
0.39607843 0.39607843 0.39607843
0.41029412 0.41029412 0.41029412
0.42745098 0.42745098 0.42745098
0.44803922 0.44803922 0.44803922
0.46862745 0.46862745 0.46862745
0.48921569 0.48921569 0.48921569
0.51421569 0.51421569 0.51421569
0.54166667 0.54166667 0.54166667
0.57579657 0.57579657 0.57579657
0.59901961 0.59901961 0.59901961
0.62567402 0.62567402 0.62567402
0.65281863 0.65281863 0.65281863
0.67647059 0.67647059 0.67647059
0.70098039 0.70098039 0.70098039
0.7254902 0.7254902 0.7254902
0.74914216 0.74914216 0.74914216
0.77058824 0.77058824 0.77058824
0.7872549 0.7872549 0.7872549
0.40980392 0.40980392 0.40980392
0.40857843 0.40857843 0.40857843
0.40490196 0.40490196 0.40490196
0.40196078 0.40196078 0.40196078
0.40098039 0.40098039 0.40098039
0.40612745 0.40612745 0.40612745
0.41617647 0.41617647 0.41617647
0.42622549 0.42622549 0.42622549
0.4372549 0.4372549 0.4372549
0.45588235 0.45588235 0.45588235
0.47401961 0.47401961 0.47401961
0.49142157 0.49142157 0.49142157
0.50980392 0.50980392 0.50980392
0.53431373 0.53431373 0.53431373
0.56176471 0.56176471 0.56176471
0.59656863 0.59656863 0.59656863
0.6254902 0.6254902 0.6254902
0.65122549 0.65122549 0.65122549
0.67647059 0.67647059 0.67647059
0.7004902 0.7004902 0.7004902
0.72352941 0.72352941 0.72352941
0.74656863 0.74656863 0.74656863
0.77058824 0.77058824 0.77058824
0.79313725 0.79313725 0.79313725
0.80980392 0.80980392 0.80980392
0.44460784 0.44460784 0.44460784
0.44215686 0.44215686 0.44215686
0.4372549 0.4372549 0.4372549
0.4372549 0.4372549 0.4372549
0.43897059 0.43897059 0.43897059
0.44160539 0.44160539 0.44160539
0.44767157 0.44767157 0.44767157
0.45392157 0.45392157 0.45392157
0.46764706 0.46764706 0.46764706
0.48216912 0.48216912 0.48216912
0.50012255 0.50012255 0.50012255
0.51764706 0.51764706 0.51764706
0.53455882 0.53455882 0.53455882
0.55490196 0.55490196 0.55490196
0.57843137 0.57843137 0.57843137
0.61470588 0.61470588 0.61470588
0.64803922 0.64803922 0.64803922
0.67254902 0.67254902 0.67254902
0.69705882 0.69705882 0.69705882
0.72156863 0.72156863 0.72156863
0.74583333 0.74583333 0.74583333
0.77015931 0.77015931 0.77015931
0.79411765 0.79411765 0.79411765
0.81568627 0.81568627 0.81568627
0.83235294 0.83235294 0.83235294
0.47941176 0.47941176 0.47941176
0.4754902 0.4754902 0.4754902
0.4745098 0.4745098 0.4745098
0.4745098 0.4745098 0.4745098
0.47843137 0.47843137 0.47843137
0.48235294 0.48235294 0.48235294
0.48235294 0.48235294 0.48235294
0.48480392 0.48480392 0.48480392
0.49509804 0.49509804 0.49509804
0.50821078 0.50821078 0.50821078
0.5252451 0.5252451 0.5252451
0.54215686 0.54215686 0.54215686
0.56029412 0.56029412 0.56029412
0.57941176 0.57941176 0.57941176
0.6 0.6 0.6
0.62732843 0.62732843 0.62732843
0.66568627 0.66568627 0.66568627
0.69203431 0.69203431 0.69203431
0.71544118 0.71544118 0.71544118
0.73909314 0.73909314 0.73909314
0.76323529 0.76323529 0.76323529
0.78737745 0.78737745 0.78737745
0.81176471 0.81176471 0.81176471
0.83627451 0.83627451 0.83627451
0.85 0.85 0.85
0.51421569 0.51421569 0.51421569
0.51176471 0.51176471 0.51176471
0.51568627 0.51568627 0.51568627
0.51911765 0.51911765 0.51911765
0.51960784 0.51960784 0.51960784
0.51960784 0.51960784 0.51960784
0.51960784 0.51960784 0.51960784
0.51960784 0.51960784 0.51960784
0.52352941 0.52352941 0.52352941
0.5338848 0.5338848 0.5338848
0.55147059 0.55147059 0.55147059
0.56813725 0.56813725 0.56813725
0.58872549 0.58872549 0.58872549
0.60931373 0.60931373 0.60931373
0.62990196 0.62990196 0.62990196
0.64748775 0.64748775 0.64748775
0.67598039 0.67598039 0.67598039
0.70533088 0.70533088 0.70533088
0.73321078 0.73321078 0.73321078
0.75704657 0.75704657 0.75704657
0.78259804 0.78259804 0.78259804
0.80655637 0.80655637 0.80655637
0.83026961 0.83026961 0.83026961
0.85055147 0.85055147 0.85055147
0.86176471 0.86176471 0.86176471
0.55294118 0.55294118 0.55294118
0.55686275 0.55686275 0.55686275
0.55784314 0.55784314 0.55784314
0.56078431 0.56078431 0.56078431
0.56078431 0.56078431 0.56078431
0.56078431 0.56078431 0.56078431
0.56078431 0.56078431 0.56078431
0.56078431 0.56078431 0.56078431
0.56078431 0.56078431 0.56078431
0.56715686 0.56715686 0.56715686
0.58235294 0.58235294 0.58235294
0.5995098 0.5995098 0.5995098
0.61960784 0.61960784 0.61960784
0.64019608 0.64019608 0.64019608
0.66078431 0.66078431 0.66078431
0.67598039 0.67598039 0.67598039
0.69411765 0.69411765 0.69411765
0.72107843 0.72107843 0.72107843
0.74803922 0.74803922 0.74803922
0.775 0.775 0.775
0.8 0.8 0.8
0.8245098 0.8245098 0.8245098
0.84509804 0.84509804 0.84509804
0.86421569 0.86421569 0.86421569
0.8745098 0.8745098 0.8745098
0.6004902 0.6004902 0.6004902
0.60349265 0.60349265 0.60349265
0.60477941 0.60477941 0.60477941
0.60588235 0.60588235 0.60588235
0.60588235 0.60588235 0.60588235
0.60410539 0.60410539 0.60410539
0.60196078 0.60196078 0.60196078
0.60196078 0.60196078 0.60196078
0.60441176 0.60441176 0.60441176
0.60833333 0.60833333 0.60833333
0.61862745 0.61862745 0.61862745
0.6341299 0.6341299 0.6341299
0.65367647 0.65367647 0.65367647
0.67107843 0.67107843 0.67107843
0.69166667 0.69166667 0.69166667
0.70833333 0.70833333 0.70833333
0.725 0.725 0.725
0.74558824 0.74558824 0.74558824
0.76764706 0.76764706 0.76764706
0.79215686 0.79215686 0.79215686
0.81740196 0.81740196 0.81740196
0.84136029 0.84136029 0.84136029
0.86323529 0.86323529 0.86323529
0.87696078 0.87696078 0.87696078
0.88480392 0.88480392 0.88480392
0.64705882 0.64705882 0.64705882
0.64803922 0.64803922 0.64803922
0.65122549 0.65122549 0.65122549
0.65196078 0.65196078 0.65196078
0.65343137 0.65343137 0.65343137
0.65061275 0.65061275 0.65061275
0.64730392 0.64730392 0.64730392
0.64705882 0.64705882 0.64705882
0.64803922 0.64803922 0.64803922
0.65098039 0.65098039 0.65098039
0.65661765 0.65661765 0.65661765
0.67009804 0.67009804 0.67009804
0.68921569 0.68921569 0.68921569
0.70686275 0.70686275 0.70686275
0.72647059 0.72647059 0.72647059
0.74166667 0.74166667 0.74166667
0.75588235 0.75588235 0.75588235
0.77254902 0.77254902 0.77254902
0.78995098 0.78995098 0.78995098
0.8127451 0.8127451 0.8127451
0.8372549 0.8372549 0.8372549
0.86164216 0.86164216 0.86164216
0.87769608 0.87769608 0.87769608
0.88872549 0.88872549 0.88872549
0.89509804 0.89509804 0.89509804
0.69166667 0.69166667 0.69166667
0.69215686 0.69215686 0.69215686
0.69607843 0.69607843 0.69607843
0.6995098 0.6995098 0.6995098
0.7 0.7 0.7
0.69601716 0.69601716 0.69601716
0.69558824 0.69558824 0.69558824
0.69215686 0.69215686 0.69215686
0.69215686 0.69215686 0.69215686
0.69589461 0.69589461 0.69589461
0.70098039 0.70098039 0.70098039
0.71121324 0.71121324 0.71121324
0.72401961 0.72401961 0.72401961
0.74368873 0.74368873 0.74368873
0.76090686 0.76090686 0.76090686
0.77616422 0.77616422 0.77616422
0.79068627 0.79068627 0.79068627
0.80490196 0.80490196 0.80490196
0.81617647 0.81617647 0.81617647
0.83676471 0.83676471 0.83676471
0.85955882 0.85955882 0.85955882
0.87886029 0.87886029 0.87886029
0.89215686 0.89215686 0.89215686
0.89901961 0.89901961 0.89901961
0.90539216 0.90539216 0.90539216
0.73333333 0.73333333 0.73333333
0.73578431 0.73578431 0.73578431
0.74117647 0.74117647 0.74117647
0.74509804 0.74509804 0.74509804
0.74803922 0.74803922 0.74803922
0.74313725 0.74313725 0.74313725
0.74117647 0.74117647 0.74117647
0.73921569 0.73921569 0.73921569
0.73921569 0.73921569 0.73921569
0.74117647 0.74117647 0.74117647
0.74509804 0.74509804 0.74509804
0.75245098 0.75245098 0.75245098
0.7627451 0.7627451 0.7627451
0.77916667 0.77916667 0.77916667
0.79656863 0.79656863 0.79656863
0.81004902 0.81004902 0.81004902
0.82156863 0.82156863 0.82156863
0.83063725 0.83063725 0.83063725
0.84068627 0.84068627 0.84068627
0.85784314 0.85784314 0.85784314
0.88137255 0.88137255 0.88137255
0.89656863 0.89656863 0.89656863
0.90539216 0.90539216 0.90539216
0.9125 0.9125 0.9125
0.91960784 0.91960784 0.91960784
0.7745098 0.7745098 0.7745098
0.77843137 0.77843137 0.77843137
0.78333333 0.78333333 0.78333333
0.78970588 0.78970588 0.78970588
0.79068627 0.79068627 0.79068627
0.79019608 0.79019608 0.79019608
0.78676471 0.78676471 0.78676471
0.78676471 0.78676471 0.78676471
0.78627451 0.78627451 0.78627451
0.78382353 0.78382353 0.78382353
0.78713235 0.78713235 0.78713235
0.79362745 0.79362745 0.79362745
0.80392157 0.80392157 0.80392157
0.81770833 0.81770833 0.81770833
0.83063725 0.83063725 0.83063725
0.83823529 0.83823529 0.83823529
0.84803922 0.84803922 0.84803922
0.85490196 0.85490196 0.85490196
0.86519608 0.86519608 0.86519608
0.88235294 0.88235294 0.88235294
0.90098039 0.90098039 0.90098039
0.91127451 0.91127451 0.91127451
0.91813725 0.91813725 0.91813725
0.92352941 0.92352941 0.92352941
0.92990196 0.92990196 0.92990196
0.81568627 0.81568627 0.81568627
0.81960784 0.81960784 0.81960784
0.82352941 0.82352941 0.82352941
0.8245098 0.8245098 0.8245098
0.82892157 0.82892157 0.82892157
0.83137255 0.83137255 0.83137255
0.83357843 0.83357843 0.83357843
0.83321078 0.83321078 0.83321078
0.82745098 0.82745098 0.82745098
0.82352941 0.82352941 0.82352941
0.8245098 0.8245098 0.8245098
0.83186275 0.83186275 0.83186275
0.84215686 0.84215686 0.84215686
0.85245098 0.85245098 0.85245098
0.85882353 0.85882353 0.85882353
0.86580882 0.86580882 0.86580882
0.8754902 0.8754902 0.8754902
0.88186275 0.88186275 0.88186275
0.88921569 0.88921569 0.88921569
0.90588235 0.90588235 0.90588235
0.92156863 0.92156863 0.92156863
0.92757353 0.92757353 0.92757353
0.93210784 0.93210784 0.93210784
0.93737745 0.93737745 0.93737745
0.94313725 0.94313725 0.94313725
0.85539216 0.85539216 0.85539216
0.85594363 0.85594363 0.85594363
0.85502451 0.85502451 0.85502451
0.84656863 0.84656863 0.84656863
0.84803922 0.84803922 0.84803922
0.86243873 0.86243873 0.86243873
0.87009804 0.87009804 0.87009804
0.87107843 0.87107843 0.87107843
0.86862745 0.86862745 0.86862745
0.86470588 0.86470588 0.86470588
0.86470588 0.86470588 0.86470588
0.86685049 0.86685049 0.86685049
0.87303922 0.87303922 0.87303922
0.88284314 0.88284314 0.88284314
0.88676471 0.88676471 0.88676471
0.89552696 0.89552696 0.89552696
0.90098039 0.90098039 0.90098039
0.90735294 0.90735294 0.90735294
0.91519608 0.91519608 0.91519608
0.9276348 0.9276348 0.9276348
0.93553922 0.93553922 0.93553922
0.93921569 0.93921569 0.93921569
0.94375 0.94375 0.94375
0.94803922 0.94803922 0.94803922
0.95441176 0.95441176 0.95441176
0.88627451 0.88627451 0.88627451
0.88627451 0.88627451 0.88627451
0.87647059 0.87647059 0.87647059
0.85539216 0.85539216 0.85539216
0.86666667 0.86666667 0.86666667
0.88284314 0.88284314 0.88284314
0.89705882 0.89705882 0.89705882
0.89803922 0.89803922 0.89803922
0.89803922 0.89803922 0.89803922
0.89803922 0.89803922 0.89803922
0.89705882 0.89705882 0.89705882
0.89803922 0.89803922 0.89803922
0.90392157 0.90392157 0.90392157
0.90637255 0.90637255 0.90637255
0.9127451 0.9127451 0.9127451
0.91519608 0.91519608 0.91519608
0.92156863 0.92156863 0.92156863
0.92794118 0.92794118 0.92794118
0.93823529 0.93823529 0.93823529
0.94509804 0.94509804 0.94509804
0.94705882 0.94705882 0.94705882
0.94901961 0.94901961 0.94901961
0.95294118 0.95294118 0.95294118
0.95833333 0.95833333 0.95833333
0.96078431 0.96078431 0.96078431
0.18970588 0.18970588 0.18970588
0.19460784 0.19460784 0.19460784
0.20098039 0.20098039 0.20098039
0.20735294 0.20735294 0.20735294
0.21176471 0.21176471 0.21176471
0.21439951 0.21439951 0.21439951
0.21568627 0.21568627 0.21568627
0.21960784 0.21960784 0.21960784
0.22990196 0.22990196 0.22990196
0.24803922 0.24803922 0.24803922
0.26862745 0.26862745 0.26862745
0.28039216 0.28039216 0.28039216
0.29068627 0.29068627 0.29068627
0.30147059 0.30147059 0.30147059
0.32316176 0.32316176 0.32316176
0.34803922 0.34803922 0.34803922
0.37254902 0.37254902 0.37254902
0.39558824 0.39558824 0.39558824
0.43039216 0.43039216 0.43039216
0.46488971 0.46488971 0.46488971
0.50196078 0.50196078 0.50196078
0.53529412 0.53529412 0.53529412
0.57254902 0.57254902 0.57254902
0.60588235 0.60588235 0.60588235
0.63284314 0.63284314 0.63284314
0.19852941 0.19852941 0.19852941
0.20098039 0.20098039 0.20098039
0.20660233 0.20660233 0.20660233
0.21029412 0.21029412 0.21029412
0.21495098 0.21495098 0.21495098
0.21813725 0.21813725 0.21813725
0.22144608 0.22144608 0.22144608
0.22745098 0.22745098 0.22745098
0.2377451 0.2377451 0.2377451
0.25314798 0.25314798 0.25314798
0.26977635 0.26977635 0.26977635
0.28431373 0.28431373 0.28431373
0.29705882 0.29705882 0.29705882
0.31268382 0.31268382 0.31268382
0.33368566 0.33368566 0.33368566
0.35741422 0.35741422 0.35741422
0.37892157 0.37892157 0.37892157
0.40343137 0.40343137 0.40343137
0.43321078 0.43321078 0.43321078
0.46782322 0.46782322 0.46782322
0.50318627 0.50318627 0.50318627
0.53824295 0.53824295 0.53824295
0.57254902 0.57254902 0.57254902
0.60496324 0.60496324 0.60496324
0.62892157 0.62892157 0.62892157
0.20882353 0.20882353 0.20882353
0.20882353 0.20882353 0.20882353
0.21320466 0.21320466 0.21320466
0.21666667 0.21666667 0.21666667
0.22058824 0.22058824 0.22058824
0.22495404 0.22495404 0.22495404
0.23137255 0.23137255 0.23137255
0.24056373 0.24056373 0.24056373
0.25196078 0.25196078 0.25196078
0.2622549 0.2622549 0.2622549
0.27438725 0.27438725 0.27438725
0.28800551 0.28800551 0.28800551
0.30539216 0.30539216 0.30539216
0.32598039 0.32598039 0.32598039
0.34411765 0.34411765 0.34411765
0.36580882 0.36580882 0.36580882
0.38921569 0.38921569 0.38921569
0.41372549 0.41372549 0.41372549
0.43921569 0.43921569 0.43921569
0.47009804 0.47009804 0.47009804
0.50422794 0.50422794 0.50422794
0.53872549 0.53872549 0.53872549
0.57279412 0.57279412 0.57279412
0.60972733 0.60972733 0.60972733
0.63627451 0.63627451 0.63627451
0.21783088 0.21783088 0.21783088
0.21911765 0.21911765 0.21911765
