site/assets/luts/natron-haldclut--kodak-tmax-3200--2d64cfdbb.cube
# LUTr-Project: LUTr — LUTrepository
# LUTr-Schema-Version: 1
# LUTr-ID: natron-haldclut--kodak-tmax-3200--2d64cfdbb
# LUTr-Title: kodak tmax 3200
# LUTr-Collection: Natron HaldCLUT
# LUTr-Collection-ID: natron-haldclut-presets
# LUTr-Source: https://github.com/NatronGitHub/clut
# LUTr-Source-File: submissions/natron-haldclut-presets/negative_new/kodak_tmax_3200.png
# LUTr-Source-Format: PNG
# LUTr-Source-SHA256: 56ba859a43a8159cff82c4317889c1f4797d4dba887109de26264f88d44f1544
# LUTr-License: CC-BY-SA-4.0
# LUTr-License-URL: https://github.com/NatronGitHub/clut#license
# LUTr-Tags: creative, film, film-emulation, hald-clut, natron, png, cube
# LUTr-Transform-Class: film-emulation
# LUTr-Input-Color-Space: srgb
# LUTr-Output-Color-Space: srgb
# LUTr-Color-Space-Confidence: assumed-display-referred
# LUTr-Conversion-Method: PNG LUT image decoded at 16-bit and sampled to 25x25x25 3D CUBE
# LUTr-Conversion-Date: 2026-07-27
# LUTr-Conversion-Tool: LUTr scripts/convert-all-to-cube.mjs
# LUTr-Conversion-Grid: 25x25x25
# LUTr-Note: Preserve this metadata and the upstream license notices when redistributing.
TITLE "kodak tmax 3200"
LUT_3D_SIZE 25
DOMAIN_MIN 0 0 0
DOMAIN_MAX 1 1 1
0.11764706 0.11764706 0.11764706
0.12401961 0.12401961 0.12401961
0.1254902 0.1254902 0.1254902
0.1254902 0.1254902 0.1254902
0.12352941 0.12352941 0.12352941
0.12156863 0.12156863 0.12156863
0.1254902 0.1254902 0.1254902
0.1254902 0.1254902 0.1254902
0.12941176 0.12941176 0.12941176
0.13186275 0.13186275 0.13186275
0.14117647 0.14117647 0.14117647
0.14509804 0.14509804 0.14509804
0.14901961 0.14901961 0.14901961
0.16519608 0.16519608 0.16519608
0.18235294 0.18235294 0.18235294
0.19754902 0.19754902 0.19754902
0.21176471 0.21176471 0.21176471
0.22598039 0.22598039 0.22598039
0.24509804 0.24509804 0.24509804
0.26568627 0.26568627 0.26568627
0.28039216 0.28039216 0.28039216
0.29460784 0.29460784 0.29460784
0.30490196 0.30490196 0.30490196
0.31127451 0.31127451 0.31127451
0.31372549 0.31372549 0.31372549
0.12156863 0.12156863 0.12156863
0.1254902 0.1254902 0.1254902
0.12794118 0.12794118 0.12794118
0.1254902 0.1254902 0.1254902
0.12671569 0.12671569 0.12671569
0.12843137 0.12843137 0.12843137
0.13370098 0.13370098 0.13370098
0.13670343 0.13670343 0.13670343
0.14215686 0.14215686 0.14215686
0.14852941 0.14852941 0.14852941
0.15490196 0.15490196 0.15490196
0.16145833 0.16145833 0.16145833
0.16568627 0.16568627 0.16568627
0.17579657 0.17579657 0.17579657
0.19264706 0.19264706 0.19264706
0.20784314 0.20784314 0.20784314
0.22205882 0.22205882 0.22205882
0.23627451 0.23627451 0.23627451
0.24865196 0.24865196 0.24865196
0.26813725 0.26813725 0.26813725
0.28235294 0.28235294 0.28235294
0.29491422 0.29491422 0.29491422
0.31066176 0.31066176 0.31066176
0.32310049 0.32310049 0.32310049
0.32647059 0.32647059 0.32647059
0.1254902 0.1254902 0.1254902
0.1254902 0.1254902 0.1254902
0.12941176 0.12941176 0.12941176
0.13026961 0.13026961 0.13026961
0.13627451 0.13627451 0.13627451
0.14264706 0.14264706 0.14264706
0.14901961 0.14901961 0.14901961
0.15245098 0.15245098 0.15245098
0.15882353 0.15882353 0.15882353
0.16666667 0.16666667 0.16666667
0.17377451 0.17377451 0.17377451
0.17830882 0.17830882 0.17830882
0.18137255 0.18137255 0.18137255
0.18615196 0.18615196 0.18615196
0.20294118 0.20294118 0.20294118
0.21960784 0.21960784 0.21960784
0.23627451 0.23627451 0.23627451
0.24656863 0.24656863 0.24656863
0.25686275 0.25686275 0.25686275
0.27058824 0.27058824 0.27058824
0.28480392 0.28480392 0.28480392
0.30085784 0.30085784 0.30085784
0.31838235 0.31838235 0.31838235
0.33676471 0.33676471 0.33676471
0.34803922 0.34803922 0.34803922
0.1254902 0.1254902 0.1254902
0.12794118 0.12794118 0.12794118
0.13026961 0.13026961 0.13026961
0.14019608 0.14019608 0.14019608
0.15 0.15 0.15
0.15680147 0.15680147 0.15680147
0.16286765 0.16286765 0.16286765
0.16942402 0.16942402 0.16942402
0.17941176 0.17941176 0.17941176
0.18578431 0.18578431 0.18578431
0.19129902 0.19129902 0.19129902
0.19509804 0.19509804 0.19509804
0.19901961 0.19901961 0.19901961
0.20300245 0.20300245 0.20300245
0.21764706 0.21764706 0.21764706
0.23363971 0.23363971 0.23363971
0.25 0.25 0.25
0.26078431 0.26078431 0.26078431
0.27058824 0.27058824 0.27058824
0.2838848 0.2838848 0.2838848
0.30098039 0.30098039 0.30098039
0.32150735 0.32150735 0.32150735
0.34166667 0.34166667 0.34166667
0.36096814 0.36096814 0.36096814
0.375 0.375 0.375
0.13529412 0.13529412 0.13529412
0.13529412 0.13529412 0.13529412
0.14313725 0.14313725 0.14313725
0.15637255 0.15637255 0.15637255
0.16470588 0.16470588 0.16470588
0.17279412 0.17279412 0.17279412
0.17941176 0.17941176 0.17941176
0.1877451 0.1877451 0.1877451
0.19607843 0.19607843 0.19607843
0.20392157 0.20392157 0.20392157
0.20882353 0.20882353 0.20882353
0.21568627 0.21568627 0.21568627
0.22352941 0.22352941 0.22352941
0.2377451 0.2377451 0.2377451
0.24656863 0.24656863 0.24656863
0.25833333 0.25833333 0.25833333
0.26666667 0.26666667 0.26666667
0.27696078 0.27696078 0.27696078
0.28970588 0.28970588 0.28970588
0.30882353 0.30882353 0.30882353
0.32941176 0.32941176 0.32941176
0.3497549 0.3497549 0.3497549
0.36862745 0.36862745 0.36862745
0.38921569 0.38921569 0.38921569
0.40392157 0.40392157 0.40392157
0.16617647 0.16617647 0.16617647
0.16617647 0.16617647 0.16617647
0.16973039 0.16973039 0.16973039
0.17696078 0.17696078 0.17696078
0.18308824 0.18308824 0.18308824
0.18878676 0.18878676 0.18878676
0.19571078 0.19571078 0.19571078
0.20245098 0.20245098 0.20245098
0.2127451 0.2127451 0.2127451
0.22303922 0.22303922 0.22303922
0.23333333 0.23333333 0.23333333
0.24411765 0.24411765 0.24411765
0.25441176 0.25441176 0.25441176
0.26862745 0.26862745 0.26862745
0.27892157 0.27892157 0.27892157
0.28560049 0.28560049 0.28560049
0.29558824 0.29558824 0.29558824
0.30245098 0.30245098 0.30245098
0.31360294 0.31360294 0.31360294
0.33382353 0.33382353 0.33382353
0.35441176 0.35441176 0.35441176
0.37843137 0.37843137 0.37843137
0.39901961 0.39901961 0.39901961
0.41832108 0.41832108 0.41832108
0.43284314 0.43284314 0.43284314
0.19705882 0.19705882 0.19705882
0.19705882 0.19705882 0.19705882
0.19730392 0.19730392 0.19730392
0.20098039 0.20098039 0.20098039
0.20196078 0.20196078 0.20196078
0.20330882 0.20330882 0.20330882
0.21053922 0.21053922 0.21053922
0.22303922 0.22303922 0.22303922
0.23333333 0.23333333 0.23333333
0.24718137 0.24718137 0.24718137
0.26078431 0.26078431 0.26078431
0.27193627 0.27193627 0.27193627
0.28529412 0.28529412 0.28529412
0.2995098 0.2995098 0.2995098
0.30980392 0.30980392 0.30980392
0.31973039 0.31973039 0.31973039
0.32647059 0.32647059 0.32647059
0.33970588 0.33970588 0.33970588
0.35098039 0.35098039 0.35098039
0.36507353 0.36507353 0.36507353
0.38529412 0.38529412 0.38529412
0.40588235 0.40588235 0.40588235
0.42647059 0.42647059 0.42647059
0.44705882 0.44705882 0.44705882
0.46372549 0.46372549 0.46372549
0.22401961 0.22401961 0.22401961
0.22555147 0.22555147 0.22555147
0.22757353 0.22757353 0.22757353
0.22647059 0.22647059 0.22647059
0.22401961 0.22401961 0.22401961
0.22401961 0.22401961 0.22401961
0.23382353 0.23382353 0.23382353
0.24810049 0.24810049 0.24810049
0.26323529 0.26323529 0.26323529
0.27689951 0.27689951 0.27689951
0.29056373 0.29056373 0.29056373
0.30196078 0.30196078 0.30196078
0.31691176 0.31691176 0.31691176
0.33216912 0.33216912 0.33216912
0.34460784 0.34460784 0.34460784
0.3533701 0.3533701 0.3533701
0.36666667 0.36666667 0.36666667
0.38033088 0.38033088 0.38033088
0.39007353 0.39007353 0.39007353
0.40147059 0.40147059 0.40147059
0.41617647 0.41617647 0.41617647
0.43676471 0.43676471 0.43676471
0.45735294 0.45735294 0.45735294
0.48186275 0.48186275 0.48186275
0.5 0.5 0.5
0.25490196 0.25490196 0.25490196
0.25490196 0.25490196 0.25490196
0.25490196 0.25490196 0.25490196
0.25490196 0.25490196 0.25490196
0.25490196 0.25490196 0.25490196
0.25539216 0.25539216 0.25539216
0.26470588 0.26470588 0.26470588
0.27745098 0.27745098 0.27745098
0.29019608 0.29019608 0.29019608
0.30441176 0.30441176 0.30441176
0.31862745 0.31862745 0.31862745
0.33284314 0.33284314 0.33284314
0.34705882 0.34705882 0.34705882
0.36519608 0.36519608 0.36519608
0.37941176 0.37941176 0.37941176
0.39362745 0.39362745 0.39362745
0.40784314 0.40784314 0.40784314
0.42205882 0.42205882 0.42205882
0.43235294 0.43235294 0.43235294
0.44264706 0.44264706 0.44264706
0.45686275 0.45686275 0.45686275
0.47156863 0.47156863 0.47156863
0.49607843 0.49607843 0.49607843
0.52058824 0.52058824 0.52058824
0.54117647 0.54117647 0.54117647
0.28578431 0.28578431 0.28578431
0.28578431 0.28578431 0.28578431
0.28578431 0.28578431 0.28578431
0.28578431 0.28578431 0.28578431
0.28333333 0.28333333 0.28333333
0.28627451 0.28627451 0.28627451
0.29656863 0.29656863 0.29656863
0.3098652 0.3098652 0.3098652
0.32107843 0.32107843 0.32107843
0.33529412 0.33529412 0.33529412
0.34767157 0.34767157 0.34767157
0.35980392 0.35980392 0.35980392
0.37401961 0.37401961 0.37401961
0.39019608 0.39019608 0.39019608
0.41078431 0.41078431 0.41078431
0.43235294 0.43235294 0.43235294
0.4504902 0.4504902 0.4504902
0.46960784 0.46960784 0.46960784
0.48382353 0.48382353 0.48382353
0.49411765 0.49411765 0.49411765
0.50833333 0.50833333 0.50833333
0.52285539 0.52285539 0.52285539
0.53970588 0.53970588 0.53970588
0.56084559 0.56084559 0.56084559
0.58235294 0.58235294 0.58235294
0.3127451 0.3127451 0.3127451
0.3127451 0.3127451 0.3127451
0.31642157 0.31642157 0.31642157
0.3127451 0.3127451 0.3127451
0.3127451 0.3127451 0.3127451
0.31580882 0.31580882 0.31580882
0.32745098 0.32745098 0.32745098
0.33884804 0.33884804 0.33884804
0.35196078 0.35196078 0.35196078
0.3622549 0.3622549 0.3622549
0.37573529 0.37573529 0.37573529
0.38933824 0.38933824 0.38933824
0.40245098 0.40245098 0.40245098
0.41862745 0.41862745 0.41862745
0.43995098 0.43995098 0.43995098
0.46078431 0.46078431 0.46078431
0.48431373 0.48431373 0.48431373
0.50588235 0.50588235 0.50588235
0.52671569 0.52671569 0.52671569
0.54546569 0.54546569 0.54546569
0.56176471 0.56176471 0.56176471
0.57794118 0.57794118 0.57794118
0.59142157 0.59142157 0.59142157
0.60637255 0.60637255 0.60637255
0.6245098 0.6245098 0.6245098
0.34705882 0.34705882 0.34705882
0.34705882 0.34705882 0.34705882
0.34742647 0.34742647 0.34742647
0.34705882 0.34705882 0.34705882
0.34705882 0.34705882 0.34705882
0.34754902 0.34754902 0.34754902
0.35477941 0.35477941 0.35477941
0.36862745 0.36862745 0.36862745
0.37892157 0.37892157 0.37892157
0.38952206 0.38952206 0.38952206
0.40343137 0.40343137 0.40343137
0.41721814 0.41721814 0.41721814
0.43014706 0.43014706 0.43014706
0.44656863 0.44656863 0.44656863
0.46715686 0.46715686 0.46715686
0.4877451 0.4877451 0.4877451
0.50882353 0.50882353 0.50882353
0.53314951 0.53314951 0.53314951
0.55735294 0.55735294 0.55735294
0.58143382 0.58143382 0.58143382
0.60637255 0.60637255 0.60637255
0.62640931 0.62640931 0.62640931
0.64362745 0.64362745 0.64362745
0.65931373 0.65931373 0.65931373
0.67205882 0.67205882 0.67205882
0.38823529 0.38823529 0.38823529
0.38946078 0.38946078 0.38946078
0.39166667 0.39166667 0.39166667
0.38848039 0.38848039 0.38848039
0.38823529 0.38823529 0.38823529
0.39215686 0.39215686 0.39215686
0.39509804 0.39509804 0.39509804
0.40073529 0.40073529 0.40073529
0.40588235 0.40588235 0.40588235
0.41813725 0.41813725 0.41813725
0.43039216 0.43039216 0.43039216
0.44436275 0.44436275 0.44436275
0.45882353 0.45882353 0.45882353
0.47352941 0.47352941 0.47352941
0.49215686 0.49215686 0.49215686
0.51151961 0.51151961 0.51151961
0.53529412 0.53529412 0.53529412
0.55980392 0.55980392 0.55980392
0.58480392 0.58480392 0.58480392
0.60882353 0.60882353 0.60882353
0.63823529 0.63823529 0.63823529
0.66593137 0.66593137 0.66593137
0.69166667 0.69166667 0.69166667
0.71004902 0.71004902 0.71004902
0.72352941 0.72352941 0.72352941
0.43333333 0.43333333 0.43333333
0.43333333 0.43333333 0.43333333
0.43333333 0.43333333 0.43333333
0.43333333 0.43333333 0.43333333
0.43333333 0.43333333 0.43333333
0.43425245 0.43425245 0.43425245
0.4377451 0.4377451 0.4377451
0.44117647 0.44117647 0.44117647
0.44509804 0.44509804 0.44509804
0.44901961 0.44901961 0.44901961
0.45870098 0.45870098 0.45870098
0.47199755 0.47199755 0.47199755
0.4877451 0.4877451 0.4877451
0.50392157 0.50392157 0.50392157
0.51813725 0.51813725 0.51813725
0.5377451 0.5377451 0.5377451
0.5622549 0.5622549 0.5622549
0.58676471 0.58676471 0.58676471
0.6122549 0.6122549 0.6122549
0.63921569 0.63921569 0.63921569
0.66617647 0.66617647 0.66617647
0.69613971 0.69613971 0.69613971
0.72401961 0.72401961 0.72401961
0.75098039 0.75098039 0.75098039
0.77058824 0.77058824 0.77058824
0.47843137 0.47843137 0.47843137
0.47843137 0.47843137 0.47843137
0.47843137 0.47843137 0.47843137
0.47843137 0.47843137 0.47843137
0.47843137 0.47843137 0.47843137
0.4814951 0.4814951 0.4814951
0.48529412 0.48529412 0.48529412
0.48566176 0.48566176 0.48566176
0.48921569 0.48921569 0.48921569
0.49203431 0.49203431 0.49203431
0.49901961 0.49901961 0.49901961
0.5127451 0.5127451 0.5127451
0.525 0.525 0.525
0.5377451 0.5377451 0.5377451
0.55196078 0.55196078 0.55196078
0.56691176 0.56691176 0.56691176
0.58921569 0.58921569 0.58921569
0.61617647 0.61617647 0.61617647
0.64240196 0.64240196 0.64240196
0.66666667 0.66666667 0.66666667
0.69362745 0.69362745 0.69362745
0.72401961 0.72401961 0.72401961
0.75269608 0.75269608 0.75269608
0.78039216 0.78039216 0.78039216
0.79509804 0.79509804 0.79509804
0.52352941 0.52352941 0.52352941
0.52352941 0.52352941 0.52352941
0.52352941 0.52352941 0.52352941
0.525 0.525 0.525
0.52622549 0.52622549 0.52622549
0.52892157 0.52892157 0.52892157
0.53137255 0.53137255 0.53137255
0.53284314 0.53284314 0.53284314
0.53284314 0.53284314 0.53284314
0.53621324 0.53621324 0.53621324
0.54411765 0.54411765 0.54411765
0.55441176 0.55441176 0.55441176
0.56862745 0.56862745 0.56862745
0.57892157 0.57892157 0.57892157
0.59166667 0.59166667 0.59166667
0.60251225 0.60251225 0.60251225
0.62009804 0.62009804 0.62009804
0.64313725 0.64313725 0.64313725
0.66973039 0.66973039 0.66973039
0.69577206 0.69577206 0.69577206
0.72132353 0.72132353 0.72132353
0.75098039 0.75098039 0.75098039
0.77855392 0.77855392 0.77855392
0.8004902 0.8004902 0.8004902
0.81078431 0.81078431 0.81078431
0.56862745 0.56862745 0.56862745
0.56862745 0.56862745 0.56862745
0.56862745 0.56862745 0.56862745
0.57254902 0.57254902 0.57254902
0.5745098 0.5745098 0.5745098
0.57647059 0.57647059 0.57647059
0.58039216 0.58039216 0.58039216
0.58039216 0.58039216 0.58039216
0.58039216 0.58039216 0.58039216
0.58431373 0.58431373 0.58431373
0.58921569 0.58921569 0.58921569
0.5995098 0.5995098 0.5995098
0.60980392 0.60980392 0.60980392
0.62009804 0.62009804 0.62009804
0.63039216 0.63039216 0.63039216
0.64068627 0.64068627 0.64068627
0.65490196 0.65490196 0.65490196
0.6754902 0.6754902 0.6754902
0.69705882 0.69705882 0.69705882
0.72401961 0.72401961 0.72401961
0.74901961 0.74901961 0.74901961
0.77745098 0.77745098 0.77745098
0.80196078 0.80196078 0.80196078
0.81715686 0.81715686 0.81715686
0.82745098 0.82745098 0.82745098
0.6122549 0.6122549 0.6122549
0.61372549 0.61372549 0.61372549
0.61654412 0.61654412 0.61654412
0.62009804 0.62009804 0.62009804
0.62401961 0.62401961 0.62401961
0.6254902 0.6254902 0.6254902
0.62794118 0.62794118 0.62794118
0.6254902 0.6254902 0.6254902
0.62794118 0.62794118 0.62794118
0.63094363 0.63094363 0.63094363
0.63615196 0.63615196 0.63615196
0.64460784 0.64460784 0.64460784
0.65490196 0.65490196 0.65490196
0.66127451 0.66127451 0.66127451
0.66973039 0.66973039 0.66973039
0.67941176 0.67941176 0.67941176
0.69607843 0.69607843 0.69607843
0.71121324 0.71121324 0.71121324
0.72977941 0.72977941 0.72977941
0.75147059 0.75147059 0.75147059
0.77671569 0.77671569 0.77671569
0.80196078 0.80196078 0.80196078
0.81960784 0.81960784 0.81960784
0.83382353 0.83382353 0.83382353
0.84166667 0.84166667 0.84166667
0.65588235 0.65588235 0.65588235
0.6622549 0.6622549 0.6622549
0.66691176 0.66691176 0.66691176
0.67107843 0.67107843 0.67107843
0.67156863 0.67156863 0.67156863
0.6745098 0.6745098 0.6745098
0.6745098 0.6745098 0.6745098
0.6745098 0.6745098 0.6745098
0.6745098 0.6745098 0.6745098
0.67904412 0.67904412 0.67904412
0.68259804 0.68259804 0.68259804
0.68970588 0.68970588 0.68970588
0.69607843 0.69607843 0.69607843
0.70245098 0.70245098 0.70245098
0.70980392 0.70980392 0.70980392
0.72058824 0.72058824 0.72058824
0.7372549 0.7372549 0.7372549
0.75147059 0.75147059 0.75147059
0.76568627 0.76568627 0.76568627
0.78235294 0.78235294 0.78235294
0.80294118 0.80294118 0.80294118
0.82340686 0.82340686 0.82340686
0.84019608 0.84019608 0.84019608
0.8504902 0.8504902 0.8504902
0.85980392 0.85980392 0.85980392
0.70735294 0.70735294 0.70735294
0.71127451 0.71127451 0.71127451
0.71617647 0.71617647 0.71617647
0.71911765 0.71911765 0.71911765
0.71960784 0.71960784 0.71960784
0.71960784 0.71960784 0.71960784
0.71960784 0.71960784 0.71960784
0.71960784 0.71960784 0.71960784
0.72303922 0.72303922 0.72303922
0.72567402 0.72567402 0.72567402
0.72830882 0.72830882 0.72830882
0.73137255 0.73137255 0.73137255
0.7372549 0.7372549 0.7372549
0.74362745 0.74362745 0.74362745
0.75098039 0.75098039 0.75098039
0.76176471 0.76176471 0.76176471
0.77843137 0.77843137 0.77843137
0.79264706 0.79264706 0.79264706
0.80343137 0.80343137 0.80343137
0.81372549 0.81372549 0.81372549
0.83039216 0.83039216 0.83039216
0.84699755 0.84699755 0.84699755
0.86078431 0.86078431 0.86078431
0.86979167 0.86979167 0.86979167
0.87401961 0.87401961 0.87401961
0.75882353 0.75882353 0.75882353
0.7627451 0.7627451 0.7627451
0.76666667 0.76666667 0.76666667
0.76666667 0.76666667 0.76666667
0.76862745 0.76862745 0.76862745
0.76666667 0.76666667 0.76666667
0.76666667 0.76666667 0.76666667
0.76666667 0.76666667 0.76666667
0.76862745 0.76862745 0.76862745
0.77181373 0.77181373 0.77181373
0.77254902 0.77254902 0.77254902
0.77598039 0.77598039 0.77598039
0.78039216 0.78039216 0.78039216
0.78480392 0.78480392 0.78480392
0.79215686 0.79215686 0.79215686
0.80294118 0.80294118 0.80294118
0.81764706 0.81764706 0.81764706
0.82990196 0.82990196 0.82990196
0.83578431 0.83578431 0.83578431
0.84264706 0.84264706 0.84264706
0.85686275 0.85686275 0.85686275
0.87107843 0.87107843 0.87107843
0.87990196 0.87990196 0.87990196
0.8870098 0.8870098 0.8870098
0.89215686 0.89215686 0.89215686
0.80980392 0.80980392 0.80980392
0.81243873 0.81243873 0.81243873
0.81372549 0.81372549 0.81372549
0.81372549 0.81372549 0.81372549
0.81372549 0.81372549 0.81372549
0.81372549 0.81372549 0.81372549
0.81372549 0.81372549 0.81372549
0.81372549 0.81372549 0.81372549
0.81421569 0.81421569 0.81421569
0.81764706 0.81764706 0.81764706
0.81372549 0.81372549 0.81372549
0.81672794 0.81672794 0.81672794
0.82156863 0.82156863 0.82156863
0.82941176 0.82941176 0.82941176
0.83333333 0.83333333 0.83333333
0.84411765 0.84411765 0.84411765
0.85637255 0.85637255 0.85637255
0.86243873 0.86243873 0.86243873
0.86507353 0.86507353 0.86507353
0.87156863 0.87156863 0.87156863
0.88357843 0.88357843 0.88357843
0.89509804 0.89509804 0.89509804
0.89901961 0.89901961 0.89901961
0.90441176 0.90441176 0.90441176
0.91029412 0.91029412 0.91029412
0.84803922 0.84803922 0.84803922
0.85098039 0.85098039 0.85098039
0.85098039 0.85098039 0.85098039
0.85098039 0.85098039 0.85098039
0.85098039 0.85098039 0.85098039
0.85196078 0.85196078 0.85196078
0.85490196 0.85490196 0.85490196
0.85882353 0.85882353 0.85882353
0.85882353 0.85882353 0.85882353
0.85882353 0.85882353 0.85882353
0.85784314 0.85784314 0.85784314
0.85490196 0.85490196 0.85490196
0.85931373 0.85931373 0.85931373
0.86715686 0.86715686 0.86715686
0.87671569 0.87671569 0.87671569
0.88382353 0.88382353 0.88382353
0.8872549 0.8872549 0.8872549
0.89117647 0.89117647 0.89117647
0.89509804 0.89509804 0.89509804
0.89865196 0.89865196 0.89865196
0.90882353 0.90882353 0.90882353
0.91568627 0.91568627 0.91568627
0.91862745 0.91862745 0.91862745
0.92169118 0.92169118 0.92169118
0.92745098 0.92745098 0.92745098
0.88137255 0.88137255 0.88137255
0.88284314 0.88284314 0.88284314
0.88676471 0.88676471 0.88676471
0.88823529 0.88823529 0.88823529
0.88823529 0.88823529 0.88823529
0.89068627 0.89068627 0.89068627
0.89068627 0.89068627 0.89068627
0.89368873 0.89368873 0.89368873
0.89460784 0.89460784 0.89460784
0.89460784 0.89460784 0.89460784
0.89460784 0.89460784 0.89460784
0.89607843 0.89607843 0.89607843
0.89607843 0.89607843 0.89607843
0.90294118 0.90294118 0.90294118
0.90710784 0.90710784 0.90710784
0.90435049 0.90435049 0.90435049
0.91127451 0.91127451 0.91127451
0.91366422 0.91366422 0.91366422
0.92095588 0.92095588 0.92095588
0.92598039 0.92598039 0.92598039
0.93431373 0.93431373 0.93431373
0.93627451 0.93627451 0.93627451
0.93627451 0.93627451 0.93627451
0.93927696 0.93927696 0.93927696
0.94264706 0.94264706 0.94264706
0.89803922 0.89803922 0.89803922
0.90441176 0.90441176 0.90441176
0.91078431 0.91078431 0.91078431
0.92107843 0.92107843 0.92107843
0.91764706 0.91764706 0.91764706
0.91764706 0.91764706 0.91764706
0.91764706 0.91764706 0.91764706
0.91764706 0.91764706 0.91764706
0.91764706 0.91764706 0.91764706
0.92156863 0.92156863 0.92156863
0.92156863 0.92156863 0.92156863
0.925 0.925 0.925
0.92745098 0.92745098 0.92745098
0.92892157 0.92892157 0.92892157
0.91568627 0.91568627 0.91568627
0.90735294 0.90735294 0.90735294
0.91372549 0.91372549 0.91372549
0.92401961 0.92401961 0.92401961
0.93823529 0.93823529 0.93823529
0.95196078 0.95196078 0.95196078
0.95294118 0.95294118 0.95294118
0.94901961 0.94901961 0.94901961
0.94901961 0.94901961 0.94901961
0.95294118 0.95294118 0.95294118
0.95686275 0.95686275 0.95686275
0.11519608 0.11519608 0.11519608
0.12064951 0.12064951 0.12064951
0.12303922 0.12303922 0.12303922
0.12334559 0.12334559 0.12334559
0.12156863 0.12156863 0.12156863
0.12156863 0.12156863 0.12156863
0.12267157 0.12267157 0.12267157
0.1254902 0.1254902 0.1254902
0.1254902 0.1254902 0.1254902
0.13186275 0.13186275 0.13186275
0.1439951 0.1439951 0.1439951
0.15116422 0.15116422 0.15116422
0.15735294 0.15735294 0.15735294
0.16942402 0.16942402 0.16942402
0.18517157 0.18517157 0.18517157
0.20055147 0.20055147 0.20055147
0.21176471 0.21176471 0.21176471
0.2245098 0.2245098 0.2245098
0.24264706 0.24264706 0.24264706
0.26176471 0.26176471 0.26176471
0.28039216 0.28039216 0.28039216
0.29460784 0.29460784 0.29460784
0.30551471 0.30551471 0.30551471
0.31372549 0.31372549 0.31372549
0.31372549 0.31372549 0.31372549
0.12009804 0.12009804 0.12009804
0.12214308 0.12214308 0.12214308
0.1254902 0.1254902 0.1254902
0.1254902 0.1254902 0.1254902
0.1254902 0.1254902 0.1254902
0.12805607 0.12805607 0.12805607
0.13255208 0.13255208 0.13255208
0.13670343 0.13670343 0.13670343
0.14215686 0.14215686 0.14215686
0.14852941 0.14852941 0.14852941
0.1560049 0.1560049 0.1560049
0.16245404 0.16245404 0.16245404
0.16960784 0.16960784 0.16960784
0.18105852 0.18105852 0.18105852
0.19546569 0.19546569 0.19546569
0.20784314 0.20784314 0.20784314
0.22205882 0.22205882 0.22205882
0.23572304 0.23572304 0.23572304
0.24754902 0.24754902 0.24754902
0.26568627 0.26568627 0.26568627
0.28207721 0.28207721 0.28207721
0.29724265 0.29724265 0.29724265
0.31196385 0.31196385 0.31196385
0.32493873 0.32493873 0.32493873
0.32647059 0.32647059 0.32647059
0.12254902 0.12254902 0.12254902
0.1254902 0.1254902 0.1254902
0.12628676 0.12628676 0.12628676
0.13026961 0.13026961 0.13026961
0.13480392 0.13480392 0.13480392
0.14227941 0.14227941 0.14227941
0.14901961 0.14901961 0.14901961
0.15245098 0.15245098 0.15245098
0.15882353 0.15882353 0.15882353
0.16666667 0.16666667 0.16666667
0.17423407 0.17423407 0.17423407
0.17838542 0.17838542 0.17838542
0.18363971 0.18363971 0.18363971
0.19215686 0.19215686 0.19215686
0.2057598 0.2057598 0.2057598
0.21999081 0.21999081 0.21999081
0.23627451 0.23627451 0.23627451
0.24718137 0.24718137 0.24718137
0.25968137 0.25968137 0.25968137
0.27322304 0.27322304 0.27322304
0.28988971 0.28988971 0.28988971
0.30735294 0.30735294 0.30735294
0.32766544 0.32766544 0.32766544
0.34368873 0.34368873 0.34368873
0.35098039 0.35098039 0.35098039
