site/assets/luts/natron-haldclut--fuji-400h--f49570408.cube
# LUTr-Project: LUTr — LUTrepository
# LUTr-Schema-Version: 1
# LUTr-ID: natron-haldclut--fuji-400h--f49570408
# LUTr-Title: fuji 400h ++
# LUTr-Collection: Natron HaldCLUT
# LUTr-Collection-ID: natron-haldclut-presets
# LUTr-Source: https://github.com/NatronGitHub/clut
# LUTr-Source-File: submissions/natron-haldclut-presets/negative_new/fuji_400h_++.png
# LUTr-Source-Format: PNG
# LUTr-Source-SHA256: 821bcf23bea5891810b10d7925418bfc7130735fabe5e4850ead33031b52eb06
# LUTr-License: CC-BY-SA-4.0
# LUTr-License-URL: https://github.com/NatronGitHub/clut#license
# LUTr-Tags: creative, film, film-emulation, hald-clut, natron, png, cube
# LUTr-Transform-Class: film-emulation
# LUTr-Input-Color-Space: srgb
# LUTr-Output-Color-Space: srgb
# LUTr-Color-Space-Confidence: assumed-display-referred
# LUTr-Conversion-Method: PNG LUT image decoded at 16-bit and sampled to 25x25x25 3D CUBE
# LUTr-Conversion-Date: 2026-07-27
# LUTr-Conversion-Tool: LUTr scripts/convert-all-to-cube.mjs
# LUTr-Conversion-Grid: 25x25x25
# LUTr-Note: Preserve this metadata and the upstream license notices when redistributing.
TITLE "fuji 400h ++"
LUT_3D_SIZE 25
DOMAIN_MIN 0 0 0
DOMAIN_MAX 1 1 1
0.054901961 0.090196078 0.02745098
0.079411765 0.10441176 0.044117647
0.10098039 0.12254902 0.060784314
0.1245098 0.11470588 0.055392157
0.15098039 0.10196078 0.037254902
0.18676471 0.094117647 0.031862745
0.24117647 0.094117647 0.042156863
0.29362745 0.094117647 0.053921569
0.34901961 0.094117647 0.058823529
0.40686275 0.10833333 0.035784314
0.46470588 0.10392157 0.015686275
0.52254902 0.072058824 0.015686275
0.58431373 0.033333333 0.0078431373
0.64558824 0 0.00098039216
0.69705882 0.0068627451 0.014705882
0.74852941 0.011764706 0.018137255
0.79607843 0.0078431373 0.0039215686
0.83088235 0.034803922 0.0039215686
0.86568627 0.061764706 0.0068627451
0.9004902 0.092647059 0.00049019608
0.92941176 0.13137255 0
0.95784314 0.17009804 0
0.97156863 0.19117647 0
0.97647059 0.20539216 0
0.98039216 0.21568627 0
0.054901961 0.11323529 0.033823529
0.074571078 0.115625 0.042585784
0.098161765 0.12536765 0.060171569
0.121875 0.12058824 0.051960784
0.14583333 0.11470588 0.040441176
0.1846201 0.11452206 0.031372549
0.24117647 0.11078431 0.03247549
0.29454657 0.1098652 0.039705882
0.34901961 0.10833333 0.042156863
0.40533088 0.11470588 0.027941176
0.46372549 0.10747549 0.013235294
0.52254902 0.076286765 0.011948529
0.58431373 0.040931373 0.0066176471
0.64558824 0.012438725 0.00049019608
0.69705882 0.020588235 0.012254902
0.74852941 0.019117647 0.011764706
0.8 0.0078431373 0
0.83088235 0.044607843 0.003002451
0.86568627 0.081862745 0.0039215686
0.90018382 0.11942402 0.0026348039
0.92745098 0.1504902 0
0.95784314 0.1786152 0
0.97438725 0.19938725 0
0.97947304 0.21960784 0
0.98431373 0.23872549 0
0.05 0.13627451 0.035294118
0.065196078 0.13529412 0.041666667
0.092156863 0.13602941 0.056617647
0.11654412 0.13529412 0.058946078
0.14264706 0.13529412 0.043137255
0.18186275 0.13529412 0.030392157
0.2379902 0.13308824 0.030392157
0.29473039 0.12990196 0.027083333
0.34901961 0.12352941 0.02254902
0.40232843 0.12254902 0.016176471
0.46004902 0.1129902 0.010784314
0.52254902 0.09497549 0.010784314
0.58431373 0.078921569 0.0078431373
0.64166667 0.067647059 0.0052696078
0.69681373 0.070588235 0.014705882
0.74852941 0.066544118 0.010661765
0.79607843 0.064705882 0.00098039216
0.83088235 0.083210784 0.0006127451
0.86176471 0.11740196 0.0039215686
0.89644608 0.15404412 0.0039215686
0.92696078 0.18333333 0.0024509804
0.95441176 0.20686275 0
0.9752451 0.22745098 0
0.98578431 0.24901961 0.0039215686
0.99215686 0.26568627 0.0039215686
0.043627451 0.15980392 0.035294118
0.050306373 0.15980392 0.039522059
0.078431373 0.15588235 0.05245098
0.10882353 0.15545343 0.059313725
0.1375 0.15759804 0.043137255
0.17205882 0.15974265 0.02745098
0.2307598 0.15588235 0.024877451
0.28988971 0.15539216 0.022242647
0.34558824 0.15147059 0.015686275
0.39920343 0.14509804 0.0093137255
0.46041667 0.14215686 0.0078431373
0.52254902 0.13878676 0.01127451
0.58431373 0.12892157 0.011519608
0.64166667 0.11911765 0.011335784
0.69607843 0.12303922 0.014705882
0.74705882 0.12303922 0.010477941
0.79607843 0.12647059 0.0039215686
0.83088235 0.14099265 0.0024509804
0.86176471 0.16127451 0.0039215686
0.89264706 0.18915441 0.0039215686
0.92352941 0.21421569 0.0039215686
0.95392157 0.23480392 0.0034313725
0.97193627 0.25196078 0.0037990196
0.98578431 0.27598039 0.0039215686
0.99264706 0.28970588 0.0039215686
0.029411765 0.18627451 0.035294118
0.030637255 0.18431373 0.035294118
0.05245098 0.18235294 0.042156863
0.091911765 0.18235294 0.043382353
0.12745098 0.18137255 0.032352941
0.16151961 0.18235294 0.019607843
0.22009804 0.18235294 0.019607843
0.28137255 0.1870098 0.022303922
0.33921569 0.18627451 0.01372549
0.39901961 0.18431373 0.0085784314
0.46176471 0.18431373 0.0078431373
0.53039216 0.18259804 0.0095588235
0.59019608 0.17745098 0.011764706
0.64558824 0.17107843 0.011764706
0.69705882 0.1745098 0.011764706
0.74460784 0.17990196 0.0090686275
0.79607843 0.18627451 0.0039215686
0.83088235 0.19901961 0
0.86176471 0.21519608 0.0024509804
0.89264706 0.22867647 0.0039215686
0.92254902 0.24607843 0.0029411765
0.9502451 0.26176471 0
0.96960784 0.27892157 0.0029411765
0.97990196 0.29705882 0.0039215686
0.98823529 0.30980392 0.0039215686
0.01127451 0.2127451 0.031372549
0.01127451 0.20900735 0.030882353
0.025122549 0.20882353 0.030882353
0.06807598 0.20974265 0.031801471
0.10906863 0.20955882 0.022303922
0.14754902 0.20637255 0.012193627
0.21323529 0.21617647 0.014338235
0.275 0.22126225 0.013909314
0.33333333 0.22156863 0.011764706
0.39509804 0.225 0.009129902
0.46139706 0.22512255 0.0078431373
0.53382353 0.2254902 0.0074142157
0.59632353 0.22181373 0.0073529412
0.64901961 0.22205882 0.0082720588
0.69705882 0.22585784 0.011764706
0.74460784 0.23118873 0.0076593137
0.79215686 0.2372549 0.0034313725
0.83039216 0.24362745 0
0.86041667 0.25392157 0
0.88872549 0.26421569 0.0039215686
0.91911765 0.27794118 0.0019607843
0.94564951 0.29307598 0.00006127451
0.96629902 0.30943627 0.0039215686
0.97775735 0.32205882 0.0039215686
0.98431373 0.33431373 0.0039215686
0.00098039216 0.24313725 0.030392157
0 0.24068627 0.02745098
0.0026960784 0.23627451 0.026470588
0.043137255 0.24264706 0.03002451
0.088235294 0.24705882 0.028431373
0.1377451 0.25012255 0.022058824
0.20294118 0.25392157 0.01495098
0.26470588 0.25588235 0.010661765
0.32647059 0.25882353 0.0078431373
0.38823529 0.26164216 0.0078431373
0.45490196 0.2627451 0.0078431373
0.52696078 0.26360294 0.0040441176
0.59362745 0.26666667 0.0039215686
0.64522059 0.26973039 0.0052696078
0.69338235 0.27426471 0.0078431373
0.73958333 0.27781863 0.0039215686
0.78529412 0.28235294 0
0.82009804 0.28627451 0
0.85392157 0.29117647 0.00073529412
0.88480392 0.29889706 0.0039215686
0.9127451 0.3122549 0.0039215686
0.93921569 0.32696078 0.0039215686
0.9627451 0.34117647 0.0039215686
0.97794118 0.35539216 0.0039215686
0.98431373 0.36568627 0.0039215686
0.0014705882 0.28431373 0.031372549
0.00091911765 0.28431373 0.031372549
0.0039215686 0.28039216 0.035661765
0.022732843 0.28382353 0.040686275
0.068382353 0.2875 0.037254902
0.1254902 0.29215686 0.026960784
0.19056373 0.29215686 0.020588235
0.25294118 0.29607843 0.010845588
0.31470588 0.29607843 0.0078431373
0.37794118 0.3 0.006372549
0.44460784 0.30392157 0.0039215686
0.51305147 0.30392157 0.0039215686
0.58014706 0.31053922 0.0053921569
0.6377451 0.3158701 0.0078431373
0.6877451 0.3189951 0.0078431373
0.73382353 0.32352941 0.0039215686
0.775 0.325 0.0039215686
0.81280637 0.3283701 0.0039215686
0.84460784 0.33345588 0.0039215686
0.87910539 0.33921569 0.0039215686
0.90710784 0.34901961 0.0039215686
0.93302696 0.36194853 0.0039215686
0.95845588 0.37708333 0.0039215686
0.97794118 0.39074755 0.0039215686
0.98823529 0.4004902 0.0039215686
0.0039215686 0.32941176 0.035294118
0.0039215686 0.32696078 0.035294118
0.0039215686 0.3254902 0.043137255
0.0073529412 0.3254902 0.047058824
0.037254902 0.32745098 0.033333333
0.10147059 0.32990196 0.026960784
0.17352941 0.33627451 0.020588235
0.24019608 0.33872549 0.011764706
0.30196078 0.34117647 0.0078431373
0.36372549 0.34117647 0.0039215686
0.43039216 0.34509804 0.0039215686
0.49852941 0.34852941 0.0039215686
0.56666667 0.35294118 0.0078431373
0.62990196 0.36078431 0.0073529412
0.67745098 0.36372549 0.0039215686
0.725 0.36617647 0.0039215686
0.76862745 0.36862745 0.0039215686
0.80343137 0.37254902 0.0039215686
0.83823529 0.37647059 0.0039215686
0.86911765 0.38039216 0.0039215686
0.9 0.39019608 0.0039215686
0.92696078 0.4004902 0.0039215686
0.95490196 0.41372549 0.0039215686
0.97941176 0.42647059 0.0039215686
0.99215686 0.43529412 0.0039215686
0.0039215686 0.37303922 0.032843137
0.0039215686 0.37303922 0.034375
0.0039215686 0.37058824 0.033946078
0.0039215686 0.36911765 0.029105392
0.0088235294 0.36985294 0.025735294
0.075122549 0.37322304 0.020894608
0.1564951 0.37806373 0.016053922
0.22990196 0.38235294 0.010845588
0.29166667 0.38235294 0.0053921569
0.35343137 0.38235294 0
0.41911765 0.38627451 0.0039215686
0.48480392 0.38970588 0.0039215686
0.55318627 0.39411765 0.0039215686
0.61176471 0.39822304 0.0039215686
0.66078431 0.40196078 0.0039215686
0.71170343 0.4088848 0.0039215686
0.75588235 0.41372549 0.0039215686
0.79313725 0.41525735 0.0039215686
0.82794118 0.4182598 0.0045343137
0.8627451 0.425 0.0076593137
0.89362745 0.43259804 0.0071078431
0.92058824 0.44166667 0.0039215686
0.95147059 0.45196078 0.0039215686
0.98088235 0.46280637 0
0.99852941 0.47254902 0
0 0.42058824 0.02254902
0.0029411765 0.42058824 0.02254902
0 0.41666667 0.02254902
0 0.41666667 0.01997549
0.0058823529 0.41568627 0.018627451
0.048039216 0.41617647 0.014705882
0.13259804 0.41960784 0.011764706
0.21654412 0.42352941 0.006372549
0.28235294 0.4245098 0.0039215686
0.34767157 0.42745098 0.0039215686
0.41053922 0.42769608 0.0039215686
0.4745098 0.43137255 0.0030637255
0.53921569 0.43529412 0.0029411765
0.5939951 0.43970588 0.0039215686
0.64901961 0.44607843 0.0039215686
0.69901961 0.45134804 0.0039215686
0.74019608 0.45490196 0.0039215686
0.77855392 0.45882353 0.0039215686
0.81862745 0.4627451 0.0078431373
0.85588235 0.46629902 0.0078431373
0.8872549 0.47647059 0.0078431373
0.91519608 0.48284314 0.0078431373
0.94534314 0.49313725 0.0039215686
0.97696078 0.50245098 0.0024509804
0.99607843 0.50588235 0
0 0.46862745 0.012254902
0 0.46813725 0.015686275
0 0.46470588 0.016176471
0.003002451 0.46421569 0.015747549
0.0044117647 0.46053922 0.012009804
0.019240196 0.45686275 0.0082720588
0.095098039 0.46078431 0.0044117647
0.19246324 0.46470588 0.0078431373
0.275 0.46862745 0.0039215686
0.34068627 0.46862745 0.0039215686
0.40588235 0.47254902 0.0039215686
0.46764706 0.47254902 0.00006127451
0.52598039 0.475 0.0034313725
0.58382353 0.48431373 0.0039215686
0.64129902 0.48823529 0.0039215686
0.68872549 0.49362745 0.0039215686
0.72990196 0.4995098 0.0039215686
0.76715686 0.5 0.0060661765
0.80833333 0.50392157 0.0078431373
0.85251225 0.50441176 0.01127451
0.88088235 0.51372549 0.0078431373
0.90784314 0.52359069 0.0078431373
0.93872549 0.53051471 0.0047794118
0.96960784 0.53578431 0.0037377451
0.98872549 0.53970588 0
0 0.51372549 0.0098039216
0 0.51372549 0.011764706
0 0.51127451 0.011764706
0.0034313725 0.50980392 0.011764706
0.0039215686 0.50686275 0.0078431373
0.0046568627 0.50147059 0.0039215686
0.071078431 0.50147059 0.0058823529
0.16960784 0.50465686 0.0078431373
0.26470588 0.50588235 0.0078431373
0.33676471 0.50980392 0.0039215686
0.40196078 0.50980392 0.00098039216
0.46176471 0.50980392 0.0056372549
0.51862745 0.51176471 0.0078431373
0.57696078 0.52205882 0.0039215686
0.63382353 0.52892157 0.00098039216
0.67965686 0.5372549 0
0.71960784 0.54117647 0.0039215686
0.75686275 0.54117647 0.006372549
0.79803922 0.54509804 0.0078431373
0.83529412 0.54705882 0.0078431373
0.87058824 0.55196078 0.0078431373
0.90343137 0.55539216 0.0078431373
0.93431373 0.56176471 0.0049019608
0.96446078 0.56813725 0.0039215686
0.98823529 0.57254902 0
0 0.55490196 0.012254902
0 0.55490196 0.011948529
0 0.55490196 0.010784314
0.0034313725 0.55147059 0.0078431373
0.0080882353 0.55098039 0.0080882353
0.022120098 0.54356618 0.012745098
0.08002451 0.53933824 0.01752451
0.16795343 0.53921569 0.012071078
0.25882353 0.54264706 0.0078431373
0.32794118 0.54656863 0.0042279412
0.39313725 0.54656863 0.0052696078
0.45147059 0.54656863 0.011335784
0.50931373 0.54901961 0.011764706
0.56623775 0.55882353 0.0082720588
0.62193627 0.56654412 0.0040441176
0.67028186 0.57401961 0.0017769608
0.70931373 0.57794118 0.0039215686
0.74656863 0.57824755 0.0078431373
0.7877451 0.58186275 0.0079656863
0.82591912 0.58229167 0.011335784
0.86446078 0.58602941 0.0080882353
0.8995098 0.58976716 0.0078431373
0.93382353 0.5939951 0.0049019608
0.96372549 0.60147059 0.0039215686
0.98823529 0.60539216 0
0 0.59607843 0.015686275
0 0.59607843 0.013235294
0 0.59534314 0.011029412
0.0034313725 0.59215686 0.0078431373
0.0044117647 0.58872549 0.006372549
0.019117647 0.58431373 0.0093137255
0.092401961 0.58039216 0.02254902
0.1754902 0.57647059 0.016053922
0.25490196 0.57745098 0.0078431373
0.31764706 0.57745098 0.010784314
0.37941176 0.58063725 0.014705882
0.44117647 0.58394608 0.014705882
0.49705882 0.58676471 0.015686275
0.55294118 0.5935049 0.011764706
0.60857843 0.6 0.0085784314
0.65490196 0.60490196 0.0068627451
0.69901961 0.60882353 0.0078431373
0.73958333 0.61237745 0.0078431373
0.77745098 0.61348039 0.011764706
0.81862745 0.61666667 0.011764706
0.85588235 0.62058824 0.0098039216
0.89264706 0.62487745 0.0078431373
0.92745098 0.62843137 0.0049019608
0.96127451 0.63566176 0.0039215686
0.98823529 0.64019608 0
0 0.63333333 0.015686275
0 0.63333333 0.012316176
0 0.63125 0.0068627451
0.0021446078 0.628125 0.0060661765
0.0039215686 0.6254902 0.012990196
0.0086397059 0.6213848 0.0069852941
0.1 0.6182598 0.026593137
0.18578431 0.61470588 0.030392157
0.25392157 0.60980392 0.025490196
0.30790441 0.61133578 0.024019608
0.36519608 0.61262255 0.023161765
0.42696078 0.61746324 0.025
0.48602941 0.62083333 0.020343137
0.54264706 0.62579657 0.015686275
0.59754902 0.63186275 0.010294118
0.64362745 0.63633578 0.0093137255
0.68480392 0.63970588 0.0093137255
0.72990196 0.64362745 0.0078431373
0.77107843 0.64754902 0.0078431373
0.80833333 0.65098039 0.0078431373
0.84558824 0.65539216 0.0078431373
0.88235294 0.65949755 0.0078431373
0.91715686 0.66433824 0.006004902
0.95196078 0.66954657 0.0039215686
0.98137255 0.675 0
0 0.66666667 0.035294118
0 0.66666667 0.031372549
0 0.66568627 0.02254902
0.0073529412 0.6627451 0.026960784
0.0019607843 0.6627451 0.039215686
0.031372549 0.65882353 0.040196078
0.11764706 0.65588235 0.056862745
0.20147059 0.6495098 0.062745098
0.27058824 0.64705882 0.066666667
0.31568627 0.64705882 0.064215686
0.36568627 0.64705882 0.053921569
0.41715686 0.65098039 0.039705882
0.4745098 0.65490196 0.029411765
0.53578431 0.65931373 0.019117647
0.58823529 0.66568627 0.012745098
0.63333333 0.67058824 0.011764706
0.6745098 0.6745098 0.011764706
0.71813725 0.6745098 0.0078431373
0.76078431 0.67843137 0.0068627451
0.79803922 0.68235294 0.0078431373
0.83529412 0.69019608 0.0078431373
0.87205882 0.69460784 0.0078431373
0.90686275 0.69803922 0.0078431373
0.94166667 0.70343137 0.0039215686
0.96470588 0.70980392 0.0039215686
0.0039215686 0.70147059 0.074019608
0.0039215686 0.70055147 0.074080882
0.0039215686 0.69754902 0.075
0.0014705882 0.7 0.072732843
0.025 0.69754902 0.076470588
0.071568627 0.69362745 0.07567402
0.14803922 0.69031863 0.087254902
0.22665441 0.68731618 0.096629902
0.2872549 0.68431373 0.10392157
0.33235294 0.68186275 0.10784314
0.37953431 0.68247549 0.10147059
0.42745098 0.68792892 0.083823529
0.47892157 0.69093137 0.060784314
0.53057598 0.69393382 0.033517157
0.58186275 0.69754902 0.016421569
0.62303922 0.70147059 0.018137255
0.66421569 0.70539216 0.018137255
0.70539216 0.70784314 0.010232843
0.7495098 0.71029412 0.0039215686
0.7877451 0.71666667 0.0060661765
0.82303922 0.72303922 0.011029412
0.86176471 0.7276348 0.0078431373
0.89656863 0.73186275 0.0042892157
0.93137255 0.73768382 0.0054534314
0.95441176 0.74313725 0.0039215686
0.0039215686 0.73627451 0.1127451
0.0079656863 0.73333333 0.11372549
0.019117647 0.73235294 0.11372549
0.026838235 0.73321078 0.11458333
0.077941176 0.73235294 0.12107843
0.14301471 0.72941176 0.12512255
0.20612745 0.72867647 0.12769608
0.26580882 0.72340686 0.13382353
0.31176471 0.72156863 0.14019608
0.35355392 0.72058824 0.14754902
0.39803922 0.72058824 0.15220588
0.44301471 0.72144608 0.14019608
0.49166667 0.7245098 0.11813725
0.53921569 0.72843137 0.092156863
0.57745098 0.73235294 0.078431373
0.61666667 0.73627451 0.068137255
0.65784314 0.74019608 0.056862745
0.69718137 0.74019608 0.03627451
0.7370098 0.74411765 0.014460784
0.77487745 0.74889706 0.018259804
0.8127451 0.75588235 0.016666667
0.85147059 0.75980392 0.0073529412
0.88627451 0.76348039 0.0039215686
0.92683824 0.77303922 0.013357843
0.95294118 0.77941176 0.0039215686
0.0039215686 0.77107843 0.14754902
0.045772059 0.76844363 0.15471814
0.085539216 0.76715686 0.15968137
0.1122549 0.76715686 0.16568627
0.15686275 0.76691176 0.16642157
0.20778186 0.76666667 0.16366422
0.25661765 0.76666667 0.16568627
0.29724265 0.76145833 0.17205882
0.33627451 0.75882353 0.17843137
0.37745098 0.75667892 0.18498775
0.41862745 0.75539216 0.19154412
0.45980392 0.75539216 0.1971201
0.4997549 0.75906863 0.18480392
0.53921569 0.76280637 0.16078431
0.57732843 0.76580882 0.14693627
0.61372549 0.76844363 0.14019608
0.65490196 0.77107843 0.12598039
0.69393382 0.77481618 0.11096814
0.73247549 0.77855392 0.096078431
0.76758578 0.78278186 0.072487745
0.80441176 0.78676471 0.042892157
0.84117647 0.79068627 0.013357843
0.87892157 0.79362745 0.0029411765
0.9213848 0.80392157 0.028431373
0.96029412 0.81372549 0
0.14705882 0.80784314 0.20588235
0.16053922 0.80784314 0.20906863
0.17401961 0.80539216 0.21372549
0.19289216 0.80392157 0.21740196
0.23235294 0.80196078 0.21764706
0.26764706 0.7997549 0.21789216
0.29215686 0.79803922 0.22254902
0.3254902 0.79607843 0.22622549
0.3627451 0.79411765 0.23137255
0.4 0.79215686 0.23651961
0.43627451 0.79019608 0.23921569
0.47083333 0.79019608 0.23921569
0.50588235 0.79215686 0.23823529
0.54313725 0.79632353 0.22303922
0.57892157 0.79803922 0.2127451
0.61495098 0.80196078 0.20318627
0.65098039 0.80392157 0.2
0.68897059 0.80710784 0.19362745
0.72696078 0.81078431 0.17941176
0.7629902 0.81715686 0.15441176
0.79901961 0.81960784 0.11862745
0.83504902 0.82156863 0.082843137
0.87107843 0.825 0.066666667
0.91446078 0.83480392 0.08504902
0.95098039 0.84117647 0.058823529
0.22696078 0.84460784 0.27009804
0.23547794 0.84246324 0.27224265
0.25196078 0.84117647 0.27352941
0.26868873 0.84068627 0.27052696
0.28872549 0.83872549 0.27352941
0.30931373 0.83327206 0.27794118
0.33333333 0.83284314 0.28431373
0.35931373 0.83284314 0.29068627
0.39362745 0.82941176 0.29705882
0.42843137 0.82910539 0.30098039
0.45490196 0.825 0.29313725
0.48578431 0.825 0.28964461
0.51617647 0.82720588 0.28872549
0.54748775 0.83284314 0.28094363
0.58137255 0.83284314 0.27487745
0.61617647 0.83284314 0.27401961
0.65098039 0.83627451 0.27401961
0.68578431 0.83890931 0.27371324
0.72156863 0.84460784 0.26078431
0.75925245 0.84895833 0.2411152
0.79583333 0.85269608 0.21666667
0.83241422 0.85637255 0.19264706
0.86629902 0.8567402 0.17892157
0.90324755 0.86421569 0.17794118
0.92843137 0.86764706 0.16176471
0.29215686 0.8754902 0.33823529
0.29852941 0.87843137 0.34105392
0.3129902 0.8754902 0.34142157
0.32781863 0.8754902 0.33835784
0.33676471 0.87156863 0.3372549
0.35392157 0.87022059 0.3435049
0.3745098 0.86691176 0.34926471
0.39901961 0.86764706 0.3560049
0.4245098 0.87058824 0.36568627
0.45931373 0.86703431 0.36776961
0.47916667 0.85588235 0.35196078
0.50931373 0.86237745 0.35784314
0.53676471 0.86323529 0.35196078
0.55992647 0.86115196 0.34362745
0.58823529 0.86372549 0.34926471
0.62303922 0.86666667 0.34901961
0.65686275 0.86764706 0.34901961
0.68872549 0.87120098 0.34607843
0.72156863 0.87647059 0.34411765
0.75882353 0.88284314 0.33676471
0.79411765 0.8872549 0.31666667
0.82892157 0.89031863 0.29987745
0.86078431 0.89117647 0.28848039
0.89056373 0.89215686 0.27855392
0.90784314 0.89215686 0.26862745
0.35784314 0.91029412 0.40637255
0.36176471 0.91176471 0.40974265
0.37058824 0.91139706 0.40992647
0.37941176 0.90686275 0.40508578
0.38308824 0.9004902 0.39901961
0.39509804 0.89883578 0.40392157
0.41568627 0.90208333 0.41176471
0.44019608 0.90300245 0.42205882
0.46323529 0.90637255 0.43235294
0.49019608 0.90784314 0.4377451
0.50833333 0.89215686 0.41911765
0.53627451 0.90343137 0.43529412
0.55710784 0.89656863 0.42132353
0.57303922 0.89068627 0.40686275
0.60245098 0.89754902 0.42757353
0.63572304 0.90392157 0.43529412
0.66813725 0.90392157 0.43137255
0.69601716 0.90637255 0.4283701
0.72598039 0.91029412 0.42598039
0.75931373 0.91764706 0.42383578
0.79411765 0.92205882 0.41397059
0.8254902 0.92205882 0.40275735
0.85870098 0.92205882 0.39215686
0.87598039 0.92150735 0.38039216
0.89264706 0.92058824 0.37156863
0.40784314 0.9372549 0.4627451
0.41421569 0.94117647 0.46666667
0.41960784 0.94019608 0.46960784
0.41960784 0.93382353 0.45931373
0.42352941 0.92745098 0.45490196
0.43235294 0.92205882 0.45147059
0.45294118 0.9254902 0.46176471
0.47352941 0.92941176 0.47205882
0.49411765 0.93333333 0.48235294
0.51862745 0.93970588 0.49509804
0.53921569 0.9372549 0.49803922
0.56029412 0.93823529 0.50343137
0.5745098 0.92745098 0.48235294
0.59313725 0.92156863 0.475
0.61666667 0.92843137 0.48823529
0.64754902 0.93333333 0.50441176
0.6745098 0.93333333 0.49803922
0.70294118 0.93333333 0.49166667
0.73235294 0.9372549 0.49019608
0.76323529 0.94460784 0.49362745
0.79411765 0.95294118 0.50196078
0.8254902 0.95294118 0.49411765
0.84901961 0.94901961 0.47647059
0.86421569 0.94117647 0.45588235
0.88235294 0.9372549 0.44705882
0.062745098 0.1004902 0.051960784
0.080330882 0.10533088 0.054411765
0.10392157 0.12144608 0.066544118
0.12794118 0.11470588 0.061764706
0.15220588 0.10514706 0.051960784
0.18890931 0.10018382 0.048039216
0.23823529 0.094730392 0.049142157
0.29117647 0.094117647 0.056372549
0.34509804 0.094117647 0.062745098
0.40349265 0.097977941 0.043688725
0.46470588 0.083333333 0.03872549
0.52303922 0.057843137 0.034987745
0.58431373 0.029411765 0.028921569
0.64589461 0.006372549 0.023345588
0.6995098 0.0078431373 0.031372549
0.75098039 0.011764706 0.033333333
0.79607843 0.014215686 0.023039216
0.83425245 0.02935049 0.019117647
0.8685049 0.061764706 0.0087009804
0.90422794 0.090502451 0.00049019608
0.93137255 0.13137255 0
0.95814951 0.17401961 0
0.97254902 0.19301471 0
0.97647059 0.20784314 0
0.98039216 0.2245098 0.0024509804
0.062745098 0.11470588 0.051960784
0.077941176 0.115625 0.052879902
0.099310662 0.12536765 0.063036152
0.12198989 0.12384344 0.057912071
0.14901961 0.11590074 0.050459559
0.18921569 0.11470588 0.048039216
0.23823529 0.11176471 0.048039216
0.29362745 0.10952053 0.048016238
0.34810049 0.10686275 0.047610294
0.40571385 0.1064568 0.0401731
0.46470588 0.092953431 0.036963848
0.525 0.069477635 0.034872855
0.58676471 0.039001225 0.027696078
0.64596354 0.016980699 0.022234988
0.69964767 0.022058824 0.02768076
0.75153186 0.019462316 0.027879902
0.8 0.018198529 0.019117647
0.83425245 0.047610294 0.013871017
0.86643689 0.085186887 0.0093137255
0.9004902 0.11953891 0.001830576
0.9301777 0.1504902 0
0.95967371 0.1786152 0
0.9754902 0.19938725 0
0.98039216 0.22148438 0
0.98676471 0.24264706 0
0.06127451 0.13921569 0.051960784
0.073406863 0.13529412 0.052879902
0.092616422 0.13575368 0.058609069
0.11654412 0.13566176 0.061780025
0.14675245 0.13529412 0.051286765
0.18909314 0.13529412 0.046829044
0.23814338 0.13529412 0.044117647
0.29324449 0.13175551 0.042677696
0.34901961 0.12806373 0.039215686
0.40580576 0.12169118 0.035217525
0.46470588 0.11004902 0.034558824
0.52647059 0.09497549 0.030392157
0.58694853 0.079227941 0.021568627
0.64558824 0.068259804 0.016896446
0.69705882 0.070833333 0.023529412
