site/assets/luts/natron-haldclut--lomography-x-pro-slide-200--9cecdde40.cube
# LUTr-Project: LUTr — LUTrepository
# LUTr-Schema-Version: 1
# LUTr-ID: natron-haldclut--lomography-x-pro-slide-200--9cecdde40
# LUTr-Title: lomography x-pro slide 200
# LUTr-Collection: Natron HaldCLUT
# LUTr-Collection-ID: natron-haldclut-presets
# LUTr-Source: https://github.com/NatronGitHub/clut
# LUTr-Source-File: submissions/natron-haldclut-presets/colorslide/lomography_x-pro_slide_200.png
# LUTr-Source-Format: PNG
# LUTr-Source-SHA256: dd5bc2dc1d32b1b7d90c846f7c74dbb5926458a7f1933a5bdd4c7c3b42163fd6
# LUTr-License: CC-BY-SA-4.0
# LUTr-License-URL: https://github.com/NatronGitHub/clut#license
# LUTr-Tags: creative, film, film-emulation, hald-clut, natron, png, cube
# LUTr-Transform-Class: film-emulation
# LUTr-Input-Color-Space: srgb
# LUTr-Output-Color-Space: srgb
# LUTr-Color-Space-Confidence: assumed-display-referred
# LUTr-Conversion-Method: PNG LUT image decoded at 16-bit and sampled to 25x25x25 3D CUBE
# LUTr-Conversion-Date: 2026-07-27
# LUTr-Conversion-Tool: LUTr scripts/convert-all-to-cube.mjs
# LUTr-Conversion-Grid: 25x25x25
# LUTr-Note: Preserve this metadata and the upstream license notices when redistributing.
TITLE "lomography x-pro slide 200"
LUT_3D_SIZE 9
DOMAIN_MIN 0 0 0
DOMAIN_MAX 1 1 1
0.019607843 0.039215686 0.0078431373
0.085294118 0.032352941 0.011764706
0.16862745 0.014705882 0.014705882
0.27745098 0.012745098 0.0088235294
0.42745098 0.025490196 0.011764706
0.59705882 0.047058824 0.031372549
0.77647059 0.065686275 0.017647059
0.91176471 0.12598039 0.042156863
0.98431373 0.16078431 0.019607843
0.05 0.092647059 0.030882353
0.09307598 0.096568627 0.026960784
0.18786765 0.10833333 0.03872549
0.29822304 0.11832108 0.040686275
0.43897059 0.12573529 0.040686275
0.61256127 0.14852941 0.050980392
0.78137255 0.18333333 0.054411765
0.91084559 0.23431373 0.054901961
0.98480392 0.29607843 0.070098039
0.098039216 0.19607843 0.064705882
0.13382353 0.20355392 0.069607843
0.19289216 0.21078431 0.075490196
0.31470588 0.22598039 0.092769608
0.45784314 0.24117647 0.093137255
0.62806373 0.26090686 0.085294118
0.79215686 0.29509804 0.085294118
0.91127451 0.33002451 0.10134804
0.98823529 0.39607843 0.06372549
0.082352941 0.33382353 0.10441176
0.09252451 0.3377451 0.10392157
0.20784314 0.34497549 0.13088235
0.33474265 0.36035539 0.13670343
0.48284314 0.37696078 0.13186275
0.64748775 0.39656863 0.12401961
0.7939951 0.42107843 0.11617647
0.90784314 0.45606618 0.10410539
0.96470588 0.49852941 0.094117647
0.07254902 0.50980392 0.14313725
0.097303922 0.51740196 0.15465686
0.21715686 0.5127451 0.14705882
0.35147059 0.52401961 0.15612745
0.50588235 0.54019608 0.16078431
0.66421569 0.55955882 0.15735294
0.80931373 0.57941176 0.13921569
0.89730392 0.59901961 0.13480392
0.96666667 0.63921569 0.11764706
0.049509804 0.67941176 0.19901961
0.089031863 0.69185049 0.1877451
0.25098039 0.68137255 0.19264706
0.39852941 0.67984069 0.19264706
0.54215686 0.69926471 0.19681373
0.69270833 0.70091912 0.22616422
0.81470588 0.71568627 0.1995098
0.88756127 0.73167892 0.18284314
0.95686275 0.75098039 0.1504902
0.24803922 0.79901961 0.27745098
0.29607843 0.79607843 0.27745098
0.38823529 0.79509804 0.27843137
0.50490196 0.7942402 0.27892157
0.61960784 0.80539216 0.28970588
0.73002451 0.81372549 0.28529412
0.82156863 0.81764706 0.28014706
0.89117647 0.8189951 0.28566176
0.95294118 0.8254902 0.24607843
0.47401961 0.88333333 0.39460784
0.50882353 0.88033088 0.39117647
0.55269608 0.87941176 0.39056373
0.62107843 0.878125 0.39460784
0.70318627 0.87941176 0.39852941
0.78400735 0.87959559 0.41011029
0.84558824 0.88333333 0.40980392
0.90294118 0.8872549 0.39705882
0.95686275 0.89509804 0.35539216
0.65490196 0.94117647 0.54117647
0.66617647 0.93333333 0.50686275
0.69313725 0.93333333 0.50490196
0.73431373 0.94362745 0.52696078
0.78431373 0.94705882 0.5254902
0.82107843 0.94117647 0.52941176
0.86764706 0.94901961 0.5254902
0.91078431 0.94558824 0.51372549
0.95294118 0.95686275 0.50196078
0.0049019608 0.0049019608 0.057843137
0.080943627 0.016176471 0.065686275
0.16176471 0.0083333333 0.065686275
0.28823529 0.021384804 0.073835784
0.43333333 0.029656863 0.081372549
0.60098039 0.037745098 0.086580882
0.78137255 0.063112745 0.089215686
0.91219363 0.10980392 0.084803922
0.97254902 0.1622549 0.07745098
0.061764706 0.089154412 0.092647059
0.10397518 0.096139706 0.092647059
0.18861826 0.10306373 0.096568627
0.30692402 0.11617647 0.1004902
0.44656863 0.1254902 0.10441176
0.61852022 0.14525888 0.11011029
0.79221814 0.17608762 0.1122549
0.90305607 0.23431373 0.10827972
0.98829657 0.29270833 0.092647059
0.10098039 0.19313725 0.12352941
0.13272059 0.19607843 0.12352941
0.20879289 0.20784314 0.12745098
0.3185815 0.22158395 0.13137255
0.46029412 0.2372549 0.13529412
0.6356924 0.26066176 0.13555453
0.79280025 0.29509804 0.13921569
0.91219363 0.32991728 0.13066789
0.96813725 0.37340686 0.12009804
0.083823529 0.33020833 0.15441176
0.098529412 0.33378523 0.15441176
0.21568627 0.34276961 0.15441176
0.33736979 0.35815717 0.16096814
0.48357843 0.375 0.16960784
0.65349265 0.39184283 0.16629136
0.8 0.42144608 0.1622549
0.91078431 0.45784314 0.14830729
0.9786152 0.50637255 0.12873775
0.062990196 0.51372549 0.18529412
0.087530637 0.51372549 0.18633578
0.21893382 0.51568627 0.19681373
0.35916054 0.52190564 0.20284926
0.50196078 0.53811275 0.2057598
0.66878064 0.55563725 0.20499387
0.80392157 0.57898284 0.20269608
0.89926471 0.60073529 0.18431373
0.96127451 0.63382353 0.15147059
0.045098039 0.68333333 0.23314951
0.099655331 0.69204963 0.2411152
0.25441176 0.68832721 0.25655637
0.403125 0.68186275 0.26158854
0.54745711 0.69215686 0.26439951
0.70147059 0.69919577 0.26170343
0.81309743 0.71804534 0.25294118
0.89117647 0.73400735 0.24166667
0.94362745 0.74197304 0.21648284
0.24705882 0.79595588 0.32843137
0.27610294 0.79036458 0.3310049
0.38921569 0.79901961 0.33529412
0.50022978 0.79901961 0.33916973
0.63039216 0.80386029 0.34313725
0.74113051 0.81174939 0.34705882
0.82904412 0.81764706 0.33238358
0.8944087 0.82254902 0.31541054
0.94607843 0.82683824 0.30245098
0.47009804 0.87941176 0.44411765
0.50533088 0.87941176 0.43321844
0.56487439 0.879856 0.43224571
0.62483915 0.87941176 0.43578431
0.70343137 0.88333333 0.44191176
0.78952206 0.88698683 0.45196078
0.84901961 0.8872549 0.43933824
0.8995098 0.89117647 0.42402727
0.94852941 0.89117647 0.40490196
0.67794118 0.94852941 0.56029412
0.68186275 0.94460784 0.55153186
0.7057598 0.94509804 0.55196078
0.74577206 0.95116422 0.5622549
0.78039216 0.94681373 0.55637255
0.825 0.94509804 0.55441176
0.86764706 0.94509804 0.55453431
0.91029412 0.95202206 0.54754902
0.9372549 0.94117647 0.52843137
0.012745098 0.011764706 0.13529412
0.07745098 0.011887255 0.13529412
0.16593137 0.021568627 0.14362745
0.2810049 0.015686275 0.14313725
0.43529412 0.029901961 0.15098039
0.6127451 0.042769608 0.15992647
0.78137255 0.070833333 0.15882353
0.91164216 0.10747549 0.15098039
0.97156863 0.20196078 0.15098039
0.065686275 0.085294118 0.16127451
0.10392157 0.08872549 0.1622549
0.18223039 0.095925245 0.17009804
0.30343137 0.10723039 0.17682292
0.44485294 0.11642157 0.17696078
0.62058824 0.1372549 0.18186275
0.78921569 0.17169118 0.18186275
0.915625 0.21605392 0.17346814
0.98872549 0.28872549 0.15833333
0.087009804 0.19607843 0.19289216
0.12879902 0.1921875 0.19607843
0.2036152 0.20428922 0.20098039
0.32254902 0.21960784 0.2067402
0.46372549 0.22941176 0.2122549
0.63872549 0.25389093 0.21568627
0.79607843 0.28112745 0.21176471
0.90808824 0.33431373 0.2064951
0.9875 0.39215686 0.18823529
0.073039216 0.33382353 0.23333333
0.11323529 0.33596814 0.23480392
0.21421569 0.34522059 0.23480392
0.34036458 0.35343137 0.23872549
0.49460784 0.375 0.246875
0.65833333 0.39356618 0.2504902
0.79935662 0.41715686 0.2536152
0.91127451 0.45445772 0.24215686
0.98088235 0.50539216 0.21911765
0.026470588 0.50931373 0.27352941
0.10147059 0.50980392 0.27352941
0.22438725 0.51703431 0.27696078
0.36096814 0.5254902 0.28033088
0.51740196 0.53946078 0.28529412
0.68137255 0.55098039 0.2872549
0.80502451 0.57512255 0.28884804
0.89748775 0.59852941 0.27604167
0.96960784 0.64558824 0.25392157
0.066053922 0.67512255 0.3254902
0.093137255 0.69312194 0.32267157
0.24791667 0.69509804 0.3254902
0.3995098 0.68633578 0.34007353
0.54607843 0.6932598 0.34546569
0.69716605 0.7 0.34901961
0.81470588 0.71822917 0.34448529
0.89166667 0.73178615 0.33037684
0.92794118 0.74105392 0.32267157
0.25882353 0.80392157 0.39901961
0.30563725 0.80294118 0.40456495
0.39313725 0.80784314 0.40465686
0.5018076 0.80294118 0.41078431
0.62941176 0.80502451 0.41862745
0.74080882 0.80879289 0.42227328
0.82555147 0.81764706 0.42181373
0.89574142 0.82166054 0.40772059
0.93431373 0.82941176 0.39901961
0.47794118 0.88370098 0.50882353
0.50785846 0.88333333 0.50893076
0.55453431 0.88342525 0.50882353
0.63253676 0.88333333 0.50837929
0.70790441 0.88890931 0.51599265
0.7841299 0.89117647 0.51925551
0.84522059 0.89117647 0.50958946
0.90294118 0.89509804 0.50441176
0.9372549 0.89558824 0.49705882
0.6745098 0.94901961 0.61764706
0.68627451 0.9495098 0.62071078
0.70882353 0.95196078 0.6245098
0.73578431 0.94901961 0.62512255
0.77843137 0.95294118 0.62843137
0.82254902 0.95294118 0.62843137
0.86764706 0.95220588 0.6245098
0.91078431 0.95294118 0.62058824
0.94411765 0.95686275 0.61568627
0.033823529 0.0078431373 0.21911765
0.074509804 0.009497549 0.21636029
0.16176471 0.0099264706 0.2245098
0.28039216 0.0078431373 0.22696078
0.43333333 0.016911765 0.23480392
0.6127451 0.030453431 0.24117647
0.78529412 0.057352941 0.24656863
0.91911765 0.1004902 0.23872549
0.98039216 0.19362745 0.24117647
0.064705882 0.078737745 0.25
0.10437347 0.081066176 0.25389859
0.17745098 0.084803922 0.26528799
0.3 0.09564951 0.26911765
0.45116422 0.10621936 0.27068015
0.62843137 0.12929688 0.28137255
0.79647672 0.15980392 0.27745098
0.915625 0.21470588 0.27287837
0.98039216 0.27303922 0.26029412
0.082720588 0.18370098 0.29056373
0.12058824 0.1872549 0.29227941
0.19926471 0.19117647 0.29984681
0.32254902 0.21066176 0.3073223
0.46580882 0.22181373 0.31470588
0.63944547 0.24460784 0.31862745
0.80536152 0.27647059 0.31553309
0.91127451 0.33039216 0.30441176
0.98823529 0.38639706 0.29117647
0.056372549 0.32598039 0.33137255
0.1245098 0.332644 0.33682598
0.21919424 0.33820466 0.34143689
0.34201134 0.3495098 0.34466912
0.49292279 0.36246936 0.34996936
0.65925245 0.38269761 0.35847886
0.80723039 0.41323529 0.35735294
0.91127451 0.44981618 0.3495098
0.98186275 0.50245098 0.33535539
0.044852941 0.49558824 0.37843137
0.11583946 0.5104473 0.37720588
0.22745098 0.51372549 0.38290441
0.36004902 0.51418505 0.39093137
0.51764706 0.52745098 0.39803922
0.68382353 0.55199142 0.40588235
0.80686275 0.56764706 0.40251225
0.89911152 0.60294118 0.3879902
0.97303922 0.64828431 0.3745098
0.013480392 0.69209559 0.43235294
0.11042433 0.68578431 0.43235294
0.23849571 0.69229473 0.43737745
0.39746477 0.6872549 0.44411765
0.55245098 0.69754902 0.45588235
0.70294118 0.70539216 0.45798866
0.81078431 0.71568627 0.45865502
0.89117647 0.73179381 0.45196078
0.94117647 0.74411765 0.4471201
0.24473039 0.80686275 0.50796569
0.29679841 0.80124081 0.51188725
0.38538603 0.80392157 0.51553309
0.50844056 0.80294118 0.51787684
0.62346814 0.81078431 0.5276348
0.74264706 0.81470588 0.53016238
0.82181373 0.81960784 0.53066789
0.89117647 0.82647059 0.52507659
0.94607843 0.83431373 0.51433824
0.4995098 0.89117647 0.60343137
0.5122549 0.89117647 0.60490196
0.56550245 0.89117647 0.60490196
0.63353248 0.88988971 0.60882353
0.71485907 0.89329044 0.61740196
0.77997089 0.89509804 0.61457567
0.84523591 0.89148284 0.61139706
0.9026731 0.89509804 0.596875
0.94509804 0.90294118 0.59362745
0.67696078 0.95539216 0.69362745
0.68351716 0.95441176 0.69509804
0.70588235 0.95355392 0.69791667
0.73970588 0.95539216 0.70147059
0.77843137 0.95490196 0.69901961
0.82107843 0.95294118 0.69509804
0.86470588 0.95539216 0.69362745
0.91078431 0.95294118 0.68854167
0.96078431 0.96470588 0.69509804
0.019607843 0.0058823529 0.31568627
0.073529412 0.0078431373 0.31960784
0.16519608 0.025 0.34117647
0.28676471 0.018137255 0.34117647
0.43431373 0.014705882 0.34215686
0.61593137 0.032843137 0.3497549
0.79313725 0.046078431 0.35882353
0.92083333 0.091666667 0.35245098
0.99411765 0.15882353 0.33921569
0.05245098 0.067401961 0.35980392
0.10027574 0.071323529 0.36721814
0.17732843 0.077205882 0.37585784
0.3 0.084160539 0.37726716
0.45453431 0.099509804 0.3807598
0.62843137 0.12083333 0.39010417
0.79313725 0.14810049 0.39558824
0.92625613 0.19929534 0.39558824
0.99215686 0.27303922 0.38382353
0.085294118 0.16862745 0.40980392
0.12352941 0.17230392 0.40980392
0.20294118 0.18578431 0.41580882
0.3216299 0.19289216 0.41844363
0.46544118 0.20294118 0.43137255
0.63921569 0.22947304 0.43823529
0.80036765 0.26421569 0.43615196
0.91875 0.31317402 0.43903186
0.97009804 0.35686275 0.43137255
0.068137255 0.31421569 0.45343137
0.13489583 0.31216299 0.45333946
0.22261029 0.31868873 0.45980392
0.34754902 0.33382353 0.46911765
0.49166667 0.34718137 0.47303922
0.66078431 0.37178309 0.48333333
0.81268382 0.4091299 0.48210784
0.9111826 0.44632353 0.48498775
0.98112745 0.49656863 0.47107843
0.018627451 0.49803922 0.50196078
0.11911765 0.49301471 0.50196078
0.23137255 0.49411765 0.51127451
0.36323529 0.50379902 0.51531863
0.52156863 0.525 0.525
0.68186275 0.54779412 0.53039216
0.81176471 0.56446078 0.52990196
0.90392157 0.59681373 0.52720588
0.97058824 0.64509804 0.51862745
0.058333333 0.6754902 0.55980392
0.085171569 0.68596814 0.56087623
0.2661152 0.67867647 0.56887255
0.40882353 0.68777574 0.57625613
0.56348039 0.69607843 0.58210784
0.69362745 0.70300245 0.5872549
0.80955882 0.71666667 0.58455882
0.89117647 0.73783701 0.58318015
0.94754902 0.7495098 0.58014706
0.22990196 0.80686275 0.62843137
0.29264706 0.81029412 0.62751225
0.37487745 0.81384804 0.63088235
0.50140931 0.80686275 0.6372549
0.63382353 0.80931373 0.64313725
0.74025735 0.81678922 0.64509804
0.82328431 0.82181373 0.64705882
0.89172794 0.8307598 0.64785539
0.93578431 0.84117647 0.64460784
0.48161765 0.8872549 0.69730392
0.50833333 0.89117647 0.69264706
0.55729167 0.89117647 0.70098039
0.63676471 0.89117647 0.70147059
0.71078431 0.89509804 0.70098039
0.78382353 0.89509804 0.70490196
0.84166667 0.89509804 0.70839461
0.90294118 0.89901961 0.70098039
0.94926471 0.90686275 0.70294118
0.6627451 0.95294118 0.75686275
0.66985294 0.95073529 0.75294118
0.7 0.95637255 0.76029412
0.73651961 0.95563725 0.76348039
0.77156863 0.95490196 0.7627451
0.82107843 0.95686275 0.7627451
0.86470588 0.96078431 0.76715686
0.91470588 0.9627451 0.76446078
0.96862745 0.97254902 0.76666667
0.017156863 0.013235294 0.45441176
0.081066176 0.020098039 0.46403186
0.16323529 0.0093137255 0.46433824
0.28431373 0.010845588 0.46378676
0.4379902 0.0125 0.47009804
0.61421569 0.023529412 0.47886029
0.78590686 0.051348039 0.48578431
0.92303922 0.074203431 0.48186275
0.97892157 0.11470588 0.48186275
0.037928922 0.049509804 0.4872549
0.092218137 0.053699449 0.49166667
0.17647059 0.064215686 0.50039828
0.29509038 0.068941483 0.50863971
0.45637255 0.082107843 0.51648284
0.62843137 0.10752911 0.52127757
0.80053615 0.13699449 0.53216912
0.91519608 0.18363971 0.53039216
0.9903799 0.25128676 0.52824755
0.09129902 0.15294118 0.5432598
0.12535233 0.1532935 0.54117647
0.20294118 0.16351103 0.54353554
0.32352941 0.17522978 0.5583027
0.47175245 0.1875 0.56697304
0.64336703 0.21300551 0.57176777
0.80511642 0.24656863 0.57472426
0.91542586 0.29178922 0.5807598
0.95747549 0.32892157 0.58247549
0.072058824 0.29852941 0.58180147
0.13578431 0.29460784 0.5838848
0.22529105 0.30006127 0.59172794
0.34763327 0.31519608 0.60349265
0.50122549 0.33357843 0.60833333
0.66883425 0.36035539 0.61917892
0.82002145 0.382981 0.62438725
0.91881127 0.43265931 0.62702206
0.97984069 0.48045343 0.61917892
0.03995098 0.48431373 0.63088235
0.12092525 0.48235294 0.63578431
0.22591912 0.48694853 0.64172794
0.36862745 0.49779412 0.6455576
0.53039216 0.51752451 0.65257353
0.68897059 0.53109681 0.66666667
0.81623775 0.56354167 0.66574755
0.91210172 0.58765319 0.66593137
0.95686275 0.6247549 0.65637255
0.036948529 0.67738971 0.6848652
0.081548713 0.67960325 0.68431373
0.26049326 0.67241115 0.68762255
0.4125383 0.67981771 0.68970588
0.55784314 0.69803922 0.69681373
0.69993873 0.70484069 0.70447304
0.81787684 0.71781556 0.71199449
0.89754902 0.73547794 0.71212469
0.95202206 0.75098039 0.70686275
0.23921569 0.81029412 0.72757353
0.28921569 0.80693934 0.7314185
0.38207721 0.8129902 0.73541667
0.49866728 0.81263787 0.73480392
0.63762255 0.81023284 0.73872549
0.73970588 0.81470588 0.73872549
0.82573529 0.82172181 0.74938725
0.89509804 0.82953431 0.75441176
0.94901961 0.84117647 0.75110294
0.47028186 0.8872549 0.77254902
0.51911765 0.89148284 0.77947304
0.56043199 0.89528186 0.77990196
0.64049479 0.89509804 0.77598039
0.71191789 0.89558824 0.78121936
0.77940411 0.89558824 0.78020833
0.84131434 0.89558824 0.78818934
0.89901961 0.89901961 0.79328278
0.94509804 0.90294118 0.78823529
0.68088235 0.96323529 0.81862745
0.66421569 0.95275735 0.81292892
0.70245098 0.96078431 0.81470588
0.73333333 0.95686275 0.81470588
0.77990196 0.96470588 0.82254902
0.81862745 0.96078431 0.82254902
0.86372549 0.96286765 0.82254902
0.91078431 0.96292892 0.82628676
0.95686275 0.95147059 0.81862745
0.019607843 0.014705882 0.59117647
0.075980392 0.011764706 0.60257353
0.16176471 0.0078431373 0.60955882
0.27683824 0.006372549 0.5995098
0.4372549 0.0083333333 0.6122549
0.6127451 0.013235294 0.62598039
0.78137255 0.042156863 0.63602941
0.91960784 0.057843137 0.63235294
0.99705882 0.11372549 0.6245098
0.031372549 0.030882353 0.62781863
0.084849877 0.041666667 0.62696078
0.17588848 0.041727941 0.63746936
0.29425551 0.048651961 0.6463848
0.45220588 0.062745098 0.65790441
0.63154105 0.080484069 0.66973039
0.79672181 0.11360294 0.6739277
0.91138174 0.15914522 0.67095588
0.98431373 0.21715686 0.66973039
0.092156863 0.12867647 0.66936275
0.11960784 0.12843137 0.67025123
0.20710784 0.13946078 0.67745098
0.31908701 0.14849877 0.69142157
0.47352941 0.16372549 0.69644608
0.64678309 0.18480392 0.70637255
0.81102941 0.21960784 0.7127451
0.91127451 0.27104779 0.71666667
0.99313725 0.33504902 0.71960784
0.091176471 0.26617647 0.70379902
0.1410386 0.27401961 0.71374081
0.22990196 0.27401961 0.72193627
0.35441176 0.28431373 0.73088235
0.50637255 0.30269608 0.7276348
0.66663603 0.33284314 0.73872549
0.82208946 0.35989583 0.74044118
0.92158395 0.40980392 0.74754902
0.97193627 0.45196078 0.74473039
0.078431373 0.45392157 0.73627451
0.13131127 0.46740196 0.74215686
0.24117647 0.45992647 0.74607843
0.37769608 0.47083333 0.75392157
0.53578431 0.49338235 0.75882353
0.69166667 0.51029412 0.7713848
0.81862745 0.54509804 0.7745098
0.9127451 0.57469363 0.77591912
0.96519608 0.60980392 0.76568627
0.029779412 0.66776961 0.77267157
0.13151042 0.66332721 0.77303922
0.26403186 0.66302083 0.77386642
0.40625 0.67244179 0.78051471
0.56029412 0.68125 0.78069853
0.70147059 0.69019608 0.78904718
0.82254902 0.70465686 0.79620098
0.89754902 0.72728248 0.79817708
0.94791667 0.73713235 0.79264706
0.2245098 0.79117647 0.79901961
0.28284314 0.79509804 0.80159314
0.37714461 0.80686275 0.80686275
0.50784314 0.80376838 0.80686275
0.6314951 0.80085784 0.80833333
0.74264706 0.81078431 0.81470588
0.82328431 0.81470588 0.82254902
0.89509804 0.8254902 0.82647059
0.9497549 0.8372549 0.81960784
0.47058824 0.88382353 0.83296569
0.50355392 0.88737745 0.83284314
0.56326593 0.89166667 0.8375
0.63244485 0.89509804 0.83382353
0.71470588 0.89466912 0.83596814
0.77745098 0.89554228 0.84276961
0.84558824 0.89558824 0.8495098
0.90294118 0.89903493 0.85208333
0.95686275 0.90637255 0.85330882
0.65980392 0.95392157 0.85980392
0.66960784 0.95343137 0.86066176
0.70196078 0.96078431 0.86372549
0.73639706 0.96360294 0.86470588
0.77647059 0.96078431 0.86764706
0.81862745 0.96286765 0.86801471
0.86789216 0.97328431 0.87254902
0.91862745 0.96421569 0.87156863
0.96078431 0.95 0.86470588
0.011764706 0.00049019608 0.69607843
0.061703431 0.0039215686 0.71862745
0.15257353 0.0078431373 0.74264706
0.26029412 0 0.72696078
0.43088235 0.011764706 0.74901961
0.60882353 0.0078431373 0.76617647
0.78627451 0.010416667 0.77009804
0.91127451 0.051531863 0.7745098
0.99607843 0.12794118 0.78578431
0.058823529 0.015196078 0.74656863
0.08136489 0.014276961 0.75392157
0.15853248 0.01171875 0.76525735
0.28596814 0.026309743 0.76176471
0.44221814 0.035814951 0.77331495
0.62794118 0.054557292 0.786803
0.79313725 0.080943627 0.79705882
0.915625 0.11629136 0.79674479
0.99209559 0.18578431 0.80490196
0.085294118 0.098039216 0.77561275
0.11999081 0.098529412 0.77659314
0.19571078 0.098253676 0.78872549
0.31421569 0.1064951 0.79656863
0.46550245 0.12377451 0.8004902
0.64019608 0.1430913 0.81288297
0.81176471 0.16960784 0.82052696
0.91781556 0.22354473 0.82401961
0.96213235 0.26973039 0.82009804
0.11029412 0.23351716 0.7995098
0.14675245 0.22941176 0.7973652
0.23088235 0.2386489 0.80873162
0.34895833 0.25275735 0.81923254
0.50235907 0.26078431 0.8270527
0.66078431 0.28578431 0.83346354
0.82536765 0.31433824 0.84269301
0.92665441 0.36550245 0.84442402
0.9903799 0.42303922 0.84656863
0.097794118 0.42303922 0.82230392
0.15045956 0.42821691 0.82254902
0.25367647 0.42843137 0.82794118
0.38676471 0.43563113 0.83553922
0.5372549 0.45318627 0.84019608
0.69166667 0.47132353 0.84681373
0.82352941 0.50588235 0.85196078
0.9166973 0.5455576 0.85392157
0.97671569 0.58333333 0.85416667
0.059313725 0.62941176 0.8377451
0.11938572 0.63910846 0.83988971
0.2769761 0.63071385 0.84327512
0.4221201 0.64185049 0.84492187
0.56559436 0.65793505 0.85431985
0.70650276 0.66023284 0.85827206
0.82254902 0.68235294 0.86372549
0.90185355 0.71133578 0.86767004
0.95539216 0.72745098 0.86519608
0.22144608 0.7877451 0.85551471
0.26678922 0.79689032 0.85551471
0.36580882 0.79571078 0.85879289
0.50894608 0.79126838 0.86444547
0.62444853 0.78823529 0.86727941
0.73909314 0.80110294 0.87365196
0.82159926 0.81078431 0.88030025
0.89509804 0.8198223 0.88328738
0.95551471 0.83676471 0.88333333
0.47009804 0.8877451 0.87941176
0.48970588 0.8877451 0.87941176
0.55349265 0.8872549 0.88290441
0.63035386 0.89164369 0.88768382
0.70836397 0.88946078 0.88682598
0.77647059 0.89493719 0.89162837
0.84509804 0.89633885 0.89944853
0.90207567 0.89944853 0.89944853
0.9495098 0.8995098 0.89944853
0.67156863 0.96519608 0.90637255
0.67205882 0.96133578 0.90294118
0.70539216 0.96482843 0.90637255
0.73186275 0.96421569 0.91029412
0.7745098 0.96495098 0.91078431
0.82254902 0.97107843 0.91421569
0.86458333 0.96862745 0.91862745
0.91470588 0.96470588 0.91813725
0.97156863 0.9754902 0.92205882
0.0039215686 0.0039215686 0.80392157
0.050490196 0.0039215686 0.80343137
0.1372549 0.0039215686 0.81666667
0.25686275 0 0.82990196
0.41568627 0.0039215686 0.84313725
0.60882353 0.0039215686 0.85245098
0.79019608 0.0049019608 0.86666667
0.90735294 0.02745098 0.86666667
1 0.039215686 0.86666667
0.03872549 0.0039215686 0.81911765
0.081372549 0.0078431373 0.80637255
0.15735294 0.0078431373 0.8377451
0.27058824 0.0099877451 0.84656863
0.43112745 0.011029412 0.85686275
0.62028186 0.03057598 0.85098039
0.79705882 0.049509804 0.86115196
0.91819853 0.089705882 0.85925245
0.99166667 0.13578431 0.88578431
0.076470588 0.054901961 0.84313725
0.11482843 0.05502451 0.84963235
0.19436275 0.07745098 0.84019608
0.30477941 0.07254902 0.86421569
0.45784314 0.079901961 0.86862745
0.64313725 0.10147059 0.87745098
0.81176471 0.1379902 0.87156863
0.92291667 0.16617647 0.89669118
0.99509804 0.23921569 0.90098039
0.12794118 0.17156863 0.86666667
0.14607843 0.16960784 0.87077206
0.22879902 0.1682598 0.87781863
0.34895833 0.18823529 0.88143382
0.49779412 0.2245098 0.87254902
0.66862745 0.23039216 0.89411765
0.82205882 0.27598039 0.89264706
0.93057598 0.30343137 0.90980392
0.96764706 0.35490196 0.89803922
0.12941176 0.3745098 0.87647059
0.17156863 0.37254902 0.88210784
0.26568627 0.38186275 0.87941176
0.38823529 0.37598039 0.89264706
0.54019608 0.41176471 0.88627451
0.69754902 0.42352941 0.90465686
0.82696078 0.45637255 0.90441176
0.92254902 0.50245098 0.90784314
0.98823529 0.5372549 0.91764706
0.093627451 0.59460784 0.88382353
0.14901961 0.60245098 0.87696078
0.29056373 0.59852941 0.88566176
0.41764706 0.60490196 0.89166667
0.56960784 0.63431373 0.87132353
0.71568627 0.62352941 0.9028799
0.82647059 0.65196078 0.90980392
0.90539216 0.68088235 0.90667892
0.96862745 0.70686275 0.91372549
0.20882353 0.76960784 0.90196078
0.26764706 0.77254902 0.89117647
0.37058824 0.78112745 0.87867647
0.49693627 0.7745098 0.90441176
0.6254902 0.78039216 0.90392157
0.73688725 0.79362745 0.90012255
0.82720588 0.79901961 0.92254902
0.89901961 0.81078431 0.93468137
0.94313725 0.81862745 0.92941176
0.4622549 0.8872549 0.9254902
0.47003676 0.8872549 0.92248775
0.54129902 0.88382353 0.9060049
0.6223652 0.8877451 0.9127451
0.70147059 0.8877451 0.91593137
0.77647059 0.89166667 0.91519608
0.84166667 0.89166667 0.94509804
0.90300245 0.89558824 0.94166667
0.9495098 0.90294118 0.9495098
0.67843137 0.97254902 0.95686275
0.67009804 0.96421569 0.94509804
0.69411765 0.96078431 0.93431373
0.73431373 0.96862745 0.95539216
0.77254902 0.96470588 0.93529412
0.82107843 0.96862745 0.93088235
0.86372549 0.97647059 0.96666667
0.91078431 0.95637255 0.95637255
0.98823529 0.98823529 0.98823529
