site/assets/luts/natron-haldclut--fuji-160c---c3201a506.cube
# LUTr-Project: LUTr — LUTrepository
# LUTr-Schema-Version: 1
# LUTr-ID: natron-haldclut--fuji-160c---c3201a506
# LUTr-Title: fuji 160c -
# LUTr-Collection: Natron HaldCLUT
# LUTr-Collection-ID: natron-haldclut-presets
# LUTr-Source: https://github.com/NatronGitHub/clut
# LUTr-Source-File: submissions/natron-haldclut-presets/negative_new/fuji_160c_-.png
# LUTr-Source-Format: PNG
# LUTr-Source-SHA256: dc94fec0dff369a1575f77fd8dd80a3f0e41e19da0d5c3a275e6d57eb322ecfa
# LUTr-License: CC-BY-SA-4.0
# LUTr-License-URL: https://github.com/NatronGitHub/clut#license
# LUTr-Tags: creative, film, film-emulation, hald-clut, natron, png, cube
# LUTr-Transform-Class: film-emulation
# LUTr-Input-Color-Space: srgb
# LUTr-Output-Color-Space: srgb
# LUTr-Color-Space-Confidence: assumed-display-referred
# LUTr-Conversion-Method: PNG LUT image decoded at 16-bit and sampled to 25x25x25 3D CUBE
# LUTr-Conversion-Date: 2026-07-27
# LUTr-Conversion-Tool: LUTr scripts/convert-all-to-cube.mjs
# LUTr-Conversion-Grid: 25x25x25
# LUTr-Note: Preserve this metadata and the upstream license notices when redistributing.
TITLE "fuji 160c -"
LUT_3D_SIZE 9
DOMAIN_MIN 0 0 0
DOMAIN_MAX 1 1 1
0 0 0
0.11617647 0.011764706 0.023529412
0.29313725 0.0078431373 0.031372549
0.45931373 0.0024509804 0.02745098
0.60980392 0.0039215686 0.015686275
0.75098039 0.0024509804 0.011764706
0.85 0.0068627451 0.026470588
0.93431373 0.14068627 0.04754902
0.96470588 0.21568627 0.070588235
0.015686275 0.13137255 0.019607843
0.083823529 0.13480392 0.016176471
0.29362745 0.11580882 0.032720588
0.45196078 0.066666667 0.017463235
0.61813725 0.029656863 0.01004902
0.74362745 0.068933824 0.013909314
0.84522059 0.11323529 0.024509804
0.93878676 0.21519608 0.043137255
0.96813725 0.24509804 0.054901961
0.0039215686 0.26960784 0.015686275
0.022058824 0.27352941 0.0078431373
0.21960784 0.27745098 0.023529412
0.43970588 0.27193627 0.0099264706
0.60735294 0.25686275 0.0044117647
0.73590686 0.25294118 0.00098039216
0.83431373 0.2752451 0.0071078431
0.92389706 0.31948529 0.018137255
0.99705882 0.36176471 0.044117647
0 0.41372549 0.015686275
0.0034313725 0.41372549 0.018137255
0.13492647 0.42156863 0.010784314
0.40441176 0.42696078 0.0078431373
0.56887255 0.42794118 0
0.70147059 0.4122549 0
0.80723039 0.41372549 0.006004902
0.90098039 0.43382353 0.013235294
0.98823529 0.45833333 0.011764706
0 0.5372549 0.0078431373
0 0.53529412 0.050735294
0.076470588 0.52941176 0.04754902
0.34485294 0.52745098 0.036029412
0.50784314 0.52941176 0.0088235294
0.66544118 0.53529412 0.0058823529
0.77843137 0.52941176 0.0078431373
0.88186275 0.54362745 0.0080882353
0.97254902 0.5627451 0.0058823529
0.0039215686 0.64362745 0.10098039
0.00018382353 0.63578431 0.11127451
0.11752451 0.63186275 0.13345588
0.31366422 0.62794118 0.11960784
0.47647059 0.62401961 0.096568627
0.61525735 0.62886029 0.085294118
0.73823529 0.63970588 0.048651961
0.85539216 0.65716912 0.012561275
0.96078431 0.66715686 0.0078431373
0.0039215686 0.73627451 0.17058824
0.0040441176 0.73235294 0.1627451
0.12941176 0.72843137 0.17745098
0.30526961 0.72843137 0.18235294
0.46470588 0.7245098 0.17009804
0.58296569 0.72843137 0.17083333
0.70882353 0.72867647 0.14705882
0.83627451 0.74852941 0.11372549
0.95098039 0.77352941 0.12647059
0.045588235 0.84509804 0.24901961
0.1338848 0.84117647 0.24068627
0.2442402 0.83333333 0.26323529
0.36501225 0.82941176 0.26599265
0.4747549 0.83333333 0.2629902
0.59068627 0.8372549 0.24656863
0.70098039 0.83811275 0.24117647
0.81764706 0.84944853 0.24209559
0.93970588 0.87941176 0.2495098
0.20784314 0.96078431 0.35294118
0.23823529 0.96078431 0.35686275
0.31470588 0.96372549 0.35980392
0.40343137 0.94656863 0.36323529
0.5 0.95490196 0.38235294
0.59656863 0.92303922 0.35441176
0.70588235 0.94509804 0.36862745
0.81715686 0.96911765 0.39264706
0.92941176 0.98431373 0.41568627
0.050980392 0.034313725 0.11078431
0.14221814 0.023529412 0.12254902
0.30085784 0.032230392 0.11960784
0.47322304 0.0014705882 0.11991422
0.61936275 0.01372549 0.12328431
0.74136029 0.027757353 0.14264706
0.84522059 0.080392157 0.14791667
0.93431373 0.20398284 0.15931373
0.99166667 0.26960784 0.18627451
0.032352941 0.13480392 0.11911765
0.14172794 0.13480392 0.11519608
0.30098039 0.1238511 0.10741422
0.46554075 0.10998775 0.11133578
0.62132353 0.11393995 0.12892157
0.74166667 0.13876379 0.13480392
0.84215686 0.18843444 0.14276961
0.93093597 0.2491345 0.15850184
0.96813725 0.28039216 0.17009804
0.006495098 0.28872549 0.12303922
0.058455882 0.28223039 0.11487439
0.28244485 0.29114583 0.11213235
0.45943627 0.28921569 0.09229473
0.6122549 0.26911765 0.10318627
0.73419118 0.27794118 0.11960784
0.83137255 0.29917279 0.12720588
0.91637561 0.33523284 0.14068627
0.98566176 0.38088235 0.16372549
0.0039215686 0.43284314 0.1372549
0.015456495 0.42892157 0.12943474
0.21288297 0.4254902 0.13244485
0.41893382 0.43088235 0.10931373
0.57778799 0.42671569 0.095098039
0.70147059 0.41305913 0.093803615
0.80663297 0.41580882 0.093627451
0.90098039 0.4377451 0.10181526
0.98431373 0.47352941 0.13284314
0.0073529412 0.54705882 0.15245098
0.012990196 0.53964461 0.15269608
0.15122549 0.53529412 0.15220588
0.35490196 0.53121936 0.14886642
0.51948529 0.53112745 0.1254902
0.66470588 0.53529412 0.10058211
0.77843137 0.53333333 0.080085784
0.88186275 0.54727328 0.064460784
0.98063725 0.56617647 0.079656863
0.0039215686 0.63970588 0.18039216
0.014851409 0.63235294 0.18039216
0.16462929 0.6314951 0.18419118
0.32702206 0.62794118 0.18419884
0.48348652 0.62401961 0.18514093
0.61826746 0.62530637 0.16912531
0.74281556 0.6432598 0.15825674
0.85508578 0.65716912 0.12986366
0.95686275 0.66470588 0.098039216
0.0052696078 0.74019608 0.21960784
0.020404412 0.73235294 0.21666667
0.17377451 0.72843137 0.21951593
0.34162071 0.7245098 0.22634804
0.47273284 0.7245098 0.23621324
0.59411765 0.7245098 0.22696078
0.71338848 0.73235294 0.21348039
0.8245098 0.74718137 0.19961703
0.94852941 0.77254902 0.19264706
0.051960784 0.84509804 0.26709559
0.14117647 0.84117647 0.27892157
0.26325061 0.83301164 0.27988664
0.36893382 0.82990196 0.28959865
0.48042279 0.83333333 0.30683211
0.59250153 0.83333333 0.3062117
0.70196078 0.84215686 0.29529718
0.81329657 0.84901961 0.29564185
0.92107843 0.87205882 0.29901961
0.20833333 0.96127451 0.36421569
0.24307598 0.96127451 0.3716299
0.31556373 0.94901961 0.37512255
0.40735294 0.9596201 0.38627451
0.49607843 0.95710784 0.39754902
0.60196078 0.9622549 0.4036152
0.70980392 0.95735294 0.40343137
0.81764706 0.96170343 0.41133578
0.90539216 0.96029412 0.41078431
0.031372549 0.051960784 0.2627451
0.15784314 0.02745098 0.26176471
0.31176471 0.022303922 0.25784314
0.47855392 0 0.25098039
0.63137255 0.011764706 0.25686275
0.73958333 0.078431373 0.28051471
0.84289216 0.17647059 0.29411765
0.92696078 0.24656863 0.30147059
0.99215686 0.31568627 0.3245098
0.037254902 0.13333333 0.26519608
0.17184436 0.14603248 0.26960784
0.32696078 0.14522059 0.26568627
0.47892157 0.12677696 0.26230086
0.62745098 0.14583333 0.27401961
0.73811275 0.18342525 0.2877451
0.83823529 0.23912377 0.29402574
0.92696078 0.29313725 0.30507047
0.98529412 0.34411765 0.31409314
0.012745098 0.29828431 0.27671569
0.15989583 0.3 0.28137255
0.32916667 0.30784314 0.28137255
0.47665441 0.30563725 0.27745098
0.61605392 0.30061275 0.29117647
0.73072917 0.31703431 0.29359681
0.83020833 0.33823529 0.29074755
0.91681985 0.36519608 0.29439338
0.98921569 0.40171569 0.30269608
0.042647059 0.44803922 0.2877451
0.18926164 0.44327512 0.29375
0.30879289 0.43946078 0.28921569
0.44545037 0.4433364 0.2772212
0.58970588 0.42769608 0.27794118
0.70853248 0.42843137 0.27071078
0.80833333 0.43382353 0.26617647
0.90098039 0.45392157 0.27022059
0.9814951 0.48480392 0.28284314
0.095588235 0.55490196 0.29313725
0.14626225 0.55098039 0.29460784
0.27328431 0.55 0.29019608
0.39803922 0.54283088 0.28455882
0.54313725 0.53921569 0.27598039
0.67432598 0.53921569 0.26544118
0.7810049 0.54080882 0.25784314
0.88223039 0.55318627 0.25
0.97647059 0.5745098 0.24558824
0.017401961 0.64656863 0.29019608
0.1372549 0.64007353 0.29742647
0.25453431 0.6388174 0.29019608
0.37167586 0.63163297 0.29204963
0.50735294 0.62941176 0.29019608
0.63172488 0.63688725 0.28304228
0.74730392 0.64852941 0.27107843
0.85900735 0.65949755 0.257981
0.96213235 0.6692402 0.24215686
0.068627451 0.74117647 0.30686275
0.13992034 0.73636642 0.30772059
0.25765931 0.73235294 0.31397059
0.36960784 0.7252451 0.31568627
0.4877451 0.7245098 0.30784314
0.60563725 0.73137255 0.31259191
0.72113971 0.73982843 0.30765931
0.83235294 0.75588235 0.29705882
0.94803922 0.77181373 0.29632353
0.10196078 0.85245098 0.34019608
0.1754902 0.84149816 0.33901654
0.275 0.83992034 0.34313725
0.37904412 0.83321078 0.34379596
0.48584559 0.83039216 0.35079657
0.59675245 0.83448223 0.36029412
0.70588235 0.84215686 0.3481924
0.81764706 0.85283395 0.35281863
0.92156863 0.8682598 0.3685049
0.20392157 0.96372549 0.40980392
0.23737745 0.94852941 0.40625
0.31078431 0.95098039 0.4127451
0.3995098 0.9504902 0.42046569
0.49460784 0.95392157 0.43431373
0.6004902 0.95392157 0.43823529
0.70882353 0.97034314 0.4497549
0.81764706 0.975 0.46029412
0.91960784 0.9627451 0.45882353
0.06127451 0.039215686 0.40441176
0.20686275 0.059497549 0.40441176
0.33480392 0.067769608 0.41164216
0.49460784 0.022610294 0.42310049
0.62745098 0.033088235 0.40637255
0.74859069 0.026960784 0.39466912
0.8439951 0.15477941 0.40625
0.92273284 0.26176471 0.42745098
0.97941176 0.31813725 0.44803922
0.12254902 0.16519608 0.40588235
0.2223652 0.17303922 0.40980392
0.34977022 0.18056066 0.41674326
0.49080116 0.16470588 0.42321538
0.63137255 0.14476103 0.40284926
0.73866422 0.18402267 0.40668658
0.84313725 0.23534007 0.41341912
0.92712163 0.30778186 0.43092065
0.97873775 0.34099265 0.43382353
0.13235294 0.29375 0.40980392
0.21416973 0.28768382 0.41372549
0.3504902 0.31639093 0.41902574
0.48414522 0.32447917 0.42794118
0.62009804 0.32064951 0.43180147
0.73026961 0.32948836 0.4245098
0.83039216 0.35254289 0.42622549
0.91220895 0.38762255 0.43037684
0.98823529 0.41666667 0.43517157
0.063786765 0.44748775 0.42248775
0.20367647 0.4513557 0.43155637
0.34042586 0.45686275 0.42941176
0.48396906 0.45801164 0.43333333
0.60346201 0.45778186 0.44117647
0.70971967 0.45594363 0.43298866
0.81101409 0.46176471 0.4277114
0.90232077 0.48088235 0.43252911
0.98431373 0.50784314 0.43480392
0.16029412 0.57181373 0.4372549
0.25465686 0.5627451 0.4372549
0.33995098 0.5627451 0.43002451
0.45392157 0.56004902 0.42748162
0.575 0.55490196 0.42536765
0.6838848 0.55343137 0.4122549
0.78560049 0.55735294 0.41029412
0.89102328 0.5625 0.40245098
0.97965686 0.58431373 0.40318627
0.26905637 0.65931373 0.44356618
0.2919807 0.65883119 0.44117647
0.36078431 0.65323223 0.43261336
0.42943474 0.64250153 0.42122396
0.53403799 0.64215686 0.41737132
0.64699755 0.64397212 0.40833333
0.75723039 0.6522212 0.40196078
0.86704197 0.65617341 0.39293811
0.96697304 0.66715686 0.38235294
0.20625 0.75441176 0.42843137
0.23622855 0.74888174 0.42843137
0.31908701 0.74473039 0.4254902
0.40379902 0.73719363 0.41865809
0.50073529 0.73265931 0.41372549
0.61865809 0.74019608 0.42110907
0.7286152 0.74803922 0.41099877
0.83788297 0.75214461 0.40294118
0.95686275 0.7754902 0.39901961
0.14871324 0.85245098 0.42714461
0.2127451 0.85248928 0.43511029
0.30359988 0.85275735 0.44522059
0.39197304 0.84410999 0.43781403
0.49019608 0.84117647 0.43970588
0.5993796 0.8372549 0.43792892
0.70935968 0.84607843 0.43690257
0.81372549 0.85278033 0.44005055
0.94411765 0.87990196 0.44540441
0.18578431 0.93480392 0.46519608
0.23186275 0.95441176 0.4754902
0.31078431 0.95625 0.47941176
0.3995098 0.95686275 0.47941176
0.49607843 0.96715686 0.49558824
0.59656863 0.9283701 0.47738971
0.70526961 0.9567402 0.5
0.81764706 0.96470588 0.51078431
0.92843137 0.97696078 0.5254902
0.21176471 0.092156863 0.53921569
0.24926471 0.093627451 0.53333333
0.36666667 0.10882353 0.53333333
0.50196078 0.1254902 0.53848039
0.62843137 0.1372549 0.53921569
0.73651961 0.12352941 0.52867647
0.84215686 0.16029412 0.5254902
0.92598039 0.22230392 0.53529412
0.96470588 0.27254902 0.53921569
0.22941176 0.19215686 0.53333333
0.27840074 0.19191176 0.53333333
0.38235294 0.20410539 0.53719363
0.50980392 0.21191789 0.54304534
0.63345588 0.22009804 0.54117647
0.73382353 0.2229473 0.53897059
0.83431373 0.24589461 0.53069853
0.92647059 0.28406863 0.53333333
0.99215686 0.33063725 0.53921569
0.21764706 0.30441176 0.52745098
0.28578431 0.30637255 0.53137255
0.38676471 0.32340686 0.54068627
0.51102941 0.33939951 0.5502451
0.62794118 0.34926471 0.55367647
0.73026961 0.34068627 0.53817402
0.82892157 0.35196078 0.53713235
0.92328431 0.37702206 0.54270833
0.99215686 0.41617647 0.55490196
0.21176471 0.42279412 0.52745098
0.27328431 0.42974877 0.53636642
0.38143382 0.44460784 0.546875
0.49800858 0.45686275 0.55248162
0.61053922 0.46507353 0.55330882
0.71476716 0.46470588 0.55070466
0.81286765 0.47377451 0.5536152
0.91191789 0.48039216 0.54852941
0.99019608 0.51789216 0.56666667
0.21176471 0.55392157 0.54313725
0.28394608 0.55306373 0.54411765
0.37279412 0.56568627 0.55098039
0.48823529 0.56666667 0.55269608
0.59362745 0.57058824 0.55098039
0.69338235 0.56960784 0.55220588
0.79656863 0.57769608 0.55416667
0.89558824 0.58431373 0.54803922
0.98823529 0.59705882 0.54901961
0.28921569 0.66715686 0.55563725
0.31259191 0.67386642 0.55490196
0.38737745 0.66341912 0.55042892
0.48728554 0.66715686 0.55248162
0.57107843 0.66286765 0.54754902
0.66764706 0.66173407 0.5448223
0.77058824 0.6658701 0.53970588
0.87867647 0.66314338 0.52637868
0.9745098 0.67107843 0.52156863
0.31372549 0.76078431 0.55882353
0.33382353 0.76372549 0.55882353
0.39019608 0.76372549 0.55183824
0.45398284 0.75980392 0.54479167
0.53504902 0.75392157 0.5372549
0.6286152 0.74411765 0.52941176
0.73970588 0.75085784 0.52156863
0.85588235 0.76029412 0.51764706
0.96862745 0.77401961 0.51372549
0.30833333 0.86421569 0.56642157
0.31816789 0.86446078 0.56056985
0.33351716 0.86446078 0.54215686
0.40677083 0.85539216 0.53970588
0.50588235 0.84791667 0.54068627
0.60015319 0.84509804 0.53235294
0.71256127 0.85294118 0.53406863
0.82720588 0.85643382 0.53581495
0.93921569 0.87990196 0.54362745
0.21764706 0.96470588 0.56078431
0.23823529 0.95343137 0.55710784
0.30441176 0.9377451 0.55294118
0.3995098 0.95882353 0.5620098
0.49509804 0.95882353 0.56666667
0.59558824 0.95563725 0.56911765
0.70294118 0.96323529 0.57696078
0.81936275 0.96691176 0.58235294
0.9254902 0.97058824 0.59215686
0.29215686 0.14019608 0.64117647
0.33480392 0.15980392 0.64117647
0.42683824 0.16875 0.64509804
0.54068627 0.17702206 0.64901961
0.64656863 0.21666667 0.65294118
0.73921569 0.2348652 0.65294118
0.83137255 0.2307598 0.64901961
0.92677696 0.25067402 0.64509804
0.99460784 0.29313725 0.64362745
0.30392157 0.21960784 0.64117647
0.35067402 0.22346814 0.64117647
0.43872549 0.232981 0.64509804
0.54123775 0.24539675 0.64846814
0.65343137 0.27745098 0.65784314
0.73873315 0.28560049 0.65679381
0.82262561 0.28653493 0.64701287
0.92334559 0.29806219 0.64117647
0.99754902 0.30784314 0.64148284
0.29742647 0.30833333 0.63578431
0.35891544 0.32320772 0.64099265
0.44129902 0.33106618 0.64390319
0.53492647 0.34460784 0.6477788
0.64313725 0.37034314 0.65557598
0.73405331 0.375 0.65562194
0.81862745 0.37846201 0.6513174
0.91519608 0.39068627 0.64924939
0.99460784 0.40821078 0.65257353
0.28229167 0.41617647 0.62849265
0.33676471 0.42372855 0.63626685
0.40147059 0.42820159 0.63633578
0.51078431 0.44656863 0.6466299
0.61985294 0.47009804 0.65147059
0.72052696 0.47998621 0.65481771
0.81101409 0.48094363 0.65908395
0.90980392 0.4872549 0.65294118
0.98186275 0.50392157 0.65539216
0.27745098 0.53578431 0.63382353
0.31421569 0.53578431 0.63685662
0.38676471 0.53909314 0.63866422
0.49362745 0.54754902 0.64261642
0.60134804 0.56985294 0.64852941
0.70710784 0.58235294 0.65931373
0.80294118 0.58627451 0.66862745
0.90563725 0.58431373 0.65995711
0.96838235 0.59338235 0.65931373
0.29411765 0.65539216 0.64901961
0.32297794 0.65539216 0.65147059
0.39143689 0.66064645 0.65294118
0.48578431 0.66101409 0.64844516
0.57843137 0.65857843 0.64678309
0.68171722 0.66568627 0.65317096
0.78615196 0.67431066 0.65787377
0.89074755 0.67658548 0.65116422
0.96317402 0.68284314 0.65294118
0.31041667 0.76470588 0.65931373
0.33270527 0.76727941 0.65931373
0.39803922 0.76973039 0.66139706
0.47794118 0.76764706 0.65816483
0.56329657 0.76764706 0.65606618
0.65085784 0.75519301 0.64722733
0.75333946 0.75707721 0.64592525
0.86438419 0.76764706 0.64443934
0.97009804 0.77218137 0.63578431
0.32156863 0.87775735 0.66893382
0.33956036 0.87755821 0.67064951
0.39122243 0.87598039 0.66734069
0.46323529 0.87071844 0.66715686
0.54240196 0.86832108 0.6609375
0.625 0.85967371 0.64901961
0.72245711 0.85294118 0.63760723
0.83694853 0.85922947 0.64148284
0.96011029 0.87990196 0.64148284
0.35931373 0.96862745 0.69068627
0.37077206 0.97303922 0.68676471
0.41311275 0.97193627 0.68676471
0.42702206 0.96862745 0.66525735
0.52892157 0.96740196 0.66862745
0.60140931 0.97365196 0.65931373
0.70980392 0.96470588 0.66213235
0.825 0.96862745 0.67107843
0.92696078 0.9622549 0.67107843
0.42745098 0.20980392 0.74411765
0.44264706 0.20968137 0.74767157
0.50686275 0.23627451 0.75269608
0.58970588 0.2495098 0.75588235
0.67352941 0.27009804 0.75588235
0.7622549 0.30477941 0.75980392
0.84534314 0.31568627 0.76544118
0.92352941 0.32009804 0.75943627
0.98431373 0.33921569 0.74803922
0.43039216 0.26764706 0.75196078
0.4533701 0.26764706 0.75159314
0.51335784 0.27156863 0.75269608
0.58984375 0.28916973 0.75196078
0.67941176 0.31568627 0.75588235
0.76613051 0.34865196 0.76167279
0.83823529 0.35909926 0.75713848
0.92090993 0.3541973 0.75686275
0.99215686 0.36176471 0.75196078
0.40857843 0.34313725 0.74191176
0.44448529 0.34705882 0.74509804
0.50612745 0.35490196 0.74957108
0.57876838 0.36412377 0.74929534
0.66997549 0.38823529 0.75588235
0.75487132 0.41847426 0.76032475
0.83118873 0.42352941 0.76004902
0.91148897 0.42352941 0.75943627
0.99215686 0.42941176 0.75294118
0.36948529 0.42340686 0.7372549
0.40669424 0.43057598 0.74109988
0.47242647 0.44430147 0.74056373
0.55980392 0.46138174 0.74434743
0.6528799 0.48645833 0.7526348
0.74134498 0.50036765 0.75758272
0.82254902 0.51001838 0.76164216
0.8995098 0.50695466 0.75294118
0.99080882 0.50453431 0.75625
0.30294118 0.51470588 0.72058824
0.36323529 0.52310049 0.73351716
0.41960784 0.52340686 0.72928922
0.50974265 0.53578431 0.73658088
0.61372549 0.55882353 0.74436275
0.725 0.58112745 0.75735294
0.81519608 0.59129902 0.76936275
0.90343137 0.59509804 0.76354167
0.97352941 0.59803922 0.75637255
0.30232843 0.64019608 0.73566176
0.33639706 0.6372549 0.7399663
0.39411765 0.63318015 0.73737745
0.48616728 0.64080882 0.74166667
0.57769608 0.64019608 0.74019608
0.6915288 0.66078431 0.75301777
0.79917279 0.68336397 0.76789216
0.89900429 0.68788297 0.76959252
0.97794118 0.69558824 0.77303922
0.30588235 0.76078431 0.74901961
0.33348652 0.76335784 0.75196078
0.39356618 0.76789216 0.75686275
0.47650123 0.76188725 0.75294118
0.5627451 0.75245098 0.75012255
0.6739277 0.76801471 0.7622549
0.78633578 0.78333333 0.77530637
0.88431373 0.78066789 0.76862745
0.98039216 0.78014706 0.75808824
0.30061275 0.89215686 0.76813725
0.33284314 0.88071385 0.76421569
0.39387255 0.87904412 0.76764706
0.47401961 0.87602635 0.77156863
0.55925245 0.87604167 0.77156863
0.65441176 0.88125 0.77250306
0.74439338 0.8671875 0.7567402
0.85392157 0.86590074 0.75386029
0.96911765 0.87598039 0.75686275
0.33333333 0.98627451 0.78333333
0.35637255 0.97953431 0.7754902
0.40980392 0.97745098 0.77941176
0.46654412 0.97291667 0.77757353
0.55490196 0.97254902 0.7754902
0.63566176 0.96470588 0.76862745
0.72647059 0.97352941 0.76372549
0.83909314 0.97205882 0.76862745
0.94901961 0.9627451 0.77156863
0.53088235 0.30392157 0.84901961
0.54307598 0.30435049 0.85294118
0.59166667 0.31960784 0.85686275
0.64656863 0.3158701 0.86029412
0.71446078 0.35245098 0.85661765
0.78952206 0.38382353 0.86207108
0.86605392 0.4067402 0.86813725
0.94215686 0.41764706 0.86770833
0.98823529 0.40980392 0.85686275
0.5348652 0.3254902 0.85643382
0.55392157 0.33463542 0.85594363
0.59129902 0.33920037 0.86066176
0.64901961 0.35606618 0.85637255
0.71078431 0.37156863 0.85637255
0.78529412 0.40637255 0.86029412
0.86519608 0.44428615 0.86813725
0.93915441 0.44068627 0.86813725
0.99908088 0.42199755 0.85686275
0.51127451 0.39558824 0.84852941
0.53921569 0.40343137 0.85637255
0.57974877 0.40723039 0.85686275
0.64149816 0.42285539 0.85718444
0.70661765 0.4379902 0.85637255
0.77798713 0.45833333 0.85718444
0.85759804 0.49123775 0.86556373
0.9303462 0.4966299 0.86470588
0.97598039 0.48676471 0.86458333
0.4754902 0.46862745 0.84901961
0.49458487 0.47254902 0.85294118
0.55347733 0.48333333 0.84541973
0.61238511 0.4939185 0.84982384
0.6895527 0.50196078 0.85686275
0.76813725 0.52892157 0.86029412
0.84960172 0.55507047 0.86556373
0.92696078 0.56252298 0.86889553
0.99117647 0.54528186 0.87254902
0.40784314 0.54362745 0.84142157
0.42208946 0.53823529 0.84485294
0.4879902 0.55318627 0.84509804
0.55710784 0.55392157 0.84509804
0.65392157 0.57340686 0.85281863
0.75 0.59828431 0.86047794
0.8379902 0.62457108 0.86948529
0.91715686 0.63624387 0.86856618
0.98431373 0.63039216 0.86078431
0.31599265 0.62971814 0.83333333
0.34679075 0.62810202 0.8404182
0.42040441 0.62843137 0.83872549
0.49195772 0.62891391 0.84110754
0.59068627 0.63676471 0.8395527
0.70980392 0.67156863 0.85575214
0.81764706 0.6939951 0.86813725
0.90392157 0.70716912 0.86813725
0.98039216 0.71862745 0.86844363
0.30980392 0.74889706 0.84595588
0.32892157 0.74552696 0.84987745
0.39656863 0.74509804 0.84987745
0.45922181 0.74117647 0.84603248
0.56280637 0.74117647 0.84926471
0.65968137 0.74563419 0.84918811
0.77233456 0.76151961 0.85955882
0.8995098 0.79209559 0.87216605
0.99166667 0.79816176 0.87254902
0.29797794 0.86862745 0.86078431
0.3254902 0.86868107 0.86158854
0.37107843 0.86803002 0.86421569
0.47040441 0.86685049 0.86873468
0.56666667 0.87184436 0.87254902
0.66481311 0.87943474 0.87647059
0.76079963 0.86862745 0.86830576
0.89129136 0.89178156 0.88463542
0.97984069 0.8877451 0.86862745
0.29754902 0.97205882 0.87990196
0.34503676 0.99074755 0.87990196
0.40147059 0.97647059 0.87634804
0.47352941 0.98382353 0.88167892
0.56642157 0.95759804 0.87990196
0.67628676 0.98903186 0.88382353
0.75343137 0.96568627 0.87340686
0.87254902 0.96813725 0.88039216
0.97254902 0.94166667 0.87598039
0.61960784 0.42352941 0.96470588
0.63872549 0.42352941 0.96470588
0.66568627 0.42745098 0.96568627
0.7004902 0.43529412 0.95833333
0.75686275 0.45882353 0.96078431
0.82107843 0.46911765 0.95392157
0.88431373 0.48431373 0.93823529
0.95 0.52941176 0.96470588
0.99607843 0.5372549 0.97647059
0.62009804 0.43872549 0.96519608
0.63480392 0.44264706 0.96078431
0.66127451 0.45 0.96384804
0.7004902 0.45294118 0.95931373
0.75686275 0.47205882 0.96446078
0.81862745 0.49509804 0.95686275
0.88823529 0.52169118 0.9564951
0.95876225 0.55300245 0.96170343
0.98431373 0.55245098 0.96421569
0.60490196 0.47647059 0.95294118
0.61911765 0.48431373 0.95723039
0.64534314 0.48823529 0.95294118
0.69448529 0.5 0.96017157
0.75196078 0.51862745 0.96911765
0.81078431 0.52953431 0.95894608
0.88039216 0.55269608 0.95833333
0.94215686 0.57071078 0.95686275
0.99607843 0.57941176 0.96960784
0.58578431 0.53823529 0.96078431
0.59099265 0.54215686 0.96078431
0.62340686 0.54154412 0.95232843
0.67303922 0.55692402 0.95925245
0.73088235 0.56960784 0.96078431
0.79748775 0.584375 0.96323529
0.87071078 0.60588235 0.95784314
0.94215686 0.6245098 0.96685049
0.99852941 0.62843137 0.97107843
0.5254902 0.59411765 0.96470588
0.5254902 0.59411765 0.94705882
0.57843137 0.60392157 0.96078431
0.63235294 0.61176471 0.95612745
0.71078431 0.62745098 0.9627451
0.78088235 0.64068627 0.9622549
0.85735294 0.66372549 0.96421569
0.93823529 0.68627451 0.96666667
0.99215686 0.68627451 0.97058824
0.41176471 0.65294118 0.93235294
0.44901961 0.65539216 0.95784314
0.49595588 0.66213235 0.95428922
0.56102941 0.67040441 0.95404412
0.65245098 0.68137255 0.95147059
0.74957108 0.70006127 0.96715686
0.84460784 0.72340686 0.96470588
0.92518382 0.74442402 0.96292892
0.98823529 0.75588235 0.96470588
0.3754902 0.75980392 0.96078431
0.40245098 0.75686275 0.96433824
0.43946078 0.74877451 0.94534314
0.49901961 0.75196078 0.95845588
0.58039216 0.75539216 0.96519608
0.68958333 0.75919118 0.97058824
0.79509804 0.78333333 0.95661765
0.91384804 0.81029412 0.96470588
0.99705882 0.83431373 0.97745098
0.35147059 0.87254902 0.95637255
0.37205882 0.86813725 0.96470588
0.425 0.86862745 0.97512255
0.47941176 0.86470588 0.96029412
0.5627451 0.86446078 0.96078431
0.65931373 0.86470588 0.95343137
0.76470588 0.86164216 0.97610294
0.8995098 0.89209559 0.97738971
0.94901961 0.89558824 0.97254902
0.34117647 0.98039216 0.98039216
0.35980392 0.95980392 0.95980392
0.40294118 0.97352941 0.9627451
0.45980392 0.98284314 0.95931373
0.55686275 0.95686275 0.95882353
0.66323529 0.95539216 0.98039216
0.76470588 0.94509804 0.97647059
0.87254902 0.9495098 0.98039216
0.99215686 0.99215686 0.99215686
