site/assets/luts/natron-haldclut--expired-fade--0856268fd.cube
# LUTr-Project: LUTr — LUTrepository
# LUTr-Schema-Version: 1
# LUTr-ID: natron-haldclut--expired-fade--0856268fd
# LUTr-Title: expired fade
# LUTr-Collection: Natron HaldCLUT
# LUTr-Collection-ID: natron-haldclut-presets
# LUTr-Source: https://github.com/NatronGitHub/clut
# LUTr-Source-File: submissions/natron-haldclut-presets/various/expired_fade.png
# LUTr-Source-Format: PNG
# LUTr-Source-SHA256: 0f6def0a4f9d54186b46655c6c049b00219e1c6b18e4ae7e3483439e8e3bc675
# LUTr-License: CC-BY-SA-4.0
# LUTr-License-URL: https://github.com/NatronGitHub/clut#license
# LUTr-Tags: creative, film, film-emulation, hald-clut, natron, png, cube
# LUTr-Transform-Class: film-emulation
# LUTr-Input-Color-Space: srgb
# LUTr-Output-Color-Space: srgb
# LUTr-Color-Space-Confidence: assumed-display-referred
# LUTr-Conversion-Method: PNG LUT image decoded at 16-bit and sampled to 25x25x25 3D CUBE
# LUTr-Conversion-Date: 2026-07-27
# LUTr-Conversion-Tool: LUTr scripts/convert-all-to-cube.mjs
# LUTr-Conversion-Grid: 25x25x25
# LUTr-Note: Preserve this metadata and the upstream license notices when redistributing.
TITLE "expired fade"
LUT_3D_SIZE 9
DOMAIN_MIN 0 0 0
DOMAIN_MAX 1 1 1
0.22745098 0.11764706 0.02745098
0.26127451 0.12892157 0.034803922
0.33921569 0.16372549 0.050980392
0.42303922 0.17647059 0.062745098
0.54117647 0.24117647 0.11372549
0.66078431 0.30490196 0.16372549
0.7754902 0.35490196 0.20980392
0.83627451 0.40490196 0.23970588
0.89411765 0.45490196 0.26666667
0.22352941 0.14852941 0.031372549
0.27395833 0.16807598 0.039215686
0.33835784 0.1877451 0.050980392
0.42126225 0.21372549 0.069117647
0.5372549 0.26421569 0.11372549
0.66078431 0.32401961 0.1622549
0.76764706 0.37438725 0.20490196
0.84803922 0.42444853 0.23970588
0.90931373 0.46666667 0.27401961
0.26176471 0.22843137 0.05
0.29264706 0.22463235 0.05
0.33921569 0.2247549 0.047058824
0.4254902 0.2560049 0.073039216
0.54117647 0.30294118 0.11617647
0.65686275 0.35061275 0.1564951
0.76053922 0.39926471 0.19338235
0.85980392 0.44963235 0.23321078
0.92254902 0.49313725 0.2745098
0.29656863 0.30931373 0.066666667
0.33118873 0.30539216 0.069117647
0.36862745 0.3 0.068014706
0.4372549 0.31268382 0.076960784
0.54436275 0.35588235 0.11568627
0.66078431 0.40392157 0.14803922
0.76764706 0.45110294 0.18529412
0.84852941 0.49185049 0.221875
0.90980392 0.52647059 0.25637255
0.35294118 0.40784314 0.10980392
0.38357843 0.41151961 0.11348039
0.42009804 0.41176471 0.11568627
0.4754902 0.40784314 0.10392157
0.56176471 0.43137255 0.11176471
0.67573529 0.4747549 0.14460784
0.77156863 0.50784314 0.17401961
0.85220588 0.54558824 0.2122549
0.91372549 0.57647059 0.24313725
0.42254902 0.51813725 0.16764706
0.44197304 0.51960784 0.16636029
0.47254902 0.51813725 0.1622549
0.5254902 0.51568627 0.14803922
0.59313725 0.52083333 0.13161765
0.67984069 0.5377451 0.13817402
0.76764706 0.56470588 0.16237745
0.85637255 0.60343137 0.203125
0.91470588 0.62892157 0.22745098
0.48431373 0.62647059 0.21764706
0.4995098 0.61911765 0.21286765
0.53039216 0.61078431 0.20269608
0.5872549 0.62254902 0.19914216
0.64803922 0.62647059 0.18970588
0.71372549 0.62254902 0.1685049
0.77647059 0.62745098 0.1627451
0.8567402 0.66115196 0.19644608
0.87352941 0.66764706 0.20294118
0.5377451 0.70686275 0.25931373
0.55294118 0.69901961 0.24803922
0.58688725 0.70294118 0.24105392
0.63676471 0.70294118 0.23333333
0.69068627 0.70294118 0.22401961
0.75637255 0.70686275 0.2122549
0.81421569 0.71078431 0.20441176
0.86764706 0.71470588 0.2004902
0.8754902 0.71470588 0.20392157
0.58431373 0.77254902 0.29019608
0.5995098 0.76078431 0.27892157
0.63137255 0.76568627 0.2754902
0.66372549 0.75294118 0.25882353
0.72745098 0.76666667 0.24705882
0.77009804 0.73578431 0.22352941
0.8254902 0.7372549 0.21568627
0.88333333 0.75735294 0.21960784
0.90980392 0.76862745 0.21568627
0.22009804 0.12156863 0.039215686
0.26176471 0.12935049 0.05
0.33443627 0.1560049 0.066176471
0.42696078 0.20196078 0.092156863
0.54117647 0.23529412 0.12916667
0.66470588 0.29705882 0.1776348
0.77169118 0.35098039 0.22414216
0.84454657 0.4004902 0.2627451
0.90196078 0.43970588 0.29362745
0.23137255 0.16023284 0.050490196
0.27309283 0.1681296 0.054787071
0.3314185 0.18403799 0.066176471
0.4254902 0.22140778 0.092156863
0.5426777 0.26596201 0.13088235
0.66323529 0.32013634 0.1713848
0.76421569 0.37046569 0.21619179
0.85196078 0.4169807 0.25882353
0.88658088 0.44154412 0.27683824
0.25821078 0.2245098 0.065318627
0.28604473 0.22156863 0.066544118
0.34178922 0.22931985 0.07377451
0.42941176 0.25821078 0.096078431
0.54313725 0.30612745 0.1278799
0.66078431 0.35061275 0.16288297
0.76363358 0.39705882 0.20474877
0.85245098 0.44705882 0.25099571
0.91764706 0.48921569 0.28627451
0.29901961 0.3091299 0.092156863
0.32571232 0.30539216 0.092156863
0.36580882 0.30147059 0.092156863
0.43773744 0.31549479 0.090931373
0.54298407 0.35465686 0.11632966
0.66212469 0.40300245 0.15942862
0.77009804 0.44718137 0.20093444
0.85245098 0.48776808 0.24313725
0.91372549 0.52401961 0.27420343
0.35661765 0.40980392 0.13088235
0.3796875 0.40958946 0.12916667
0.41488971 0.40851716 0.12696078
0.4736826 0.40980392 0.11632966
0.55612745 0.42181373 0.11936275
0.6745098 0.46822917 0.1606924
0.77156863 0.50686275 0.19338235
0.85637255 0.54408701 0.23140319
0.90980392 0.57254902 0.25833333
0.42254902 0.51813725 0.17922794
0.44166667 0.51813725 0.17557445
0.46862745 0.51813725 0.16619179
0.52310049 0.51960784 0.15883119
0.603125 0.52647059 0.16053922
0.6951057 0.54627757 0.17175245
0.77414216 0.56470588 0.18872549
0.858678 0.60343137 0.22745098
0.90588235 0.62254902 0.24871324
0.48039216 0.62254902 0.22414216
0.4995098 0.62254902 0.22176777
0.52674632 0.61470588 0.21620711
0.58333333 0.62107843 0.20499387
0.64803922 0.62965686 0.19313725
0.71372549 0.62634804 0.18872549
0.78005515 0.63112745 0.18970588
0.85588235 0.65767463 0.2182598
0.88958333 0.67156863 0.22953431
0.53039216 0.70294118 0.26666667
0.54521293 0.69901961 0.2627451
0.57679228 0.6995098 0.25592831
0.62894455 0.69901961 0.24332108
0.68676471 0.69926471 0.23161765
0.75245098 0.7031633 0.22352941
0.81421569 0.70746017 0.21960784
0.87075674 0.71502757 0.22310049
0.89754902 0.72248775 0.22696078
0.56519608 0.75343137 0.29754902
0.58039216 0.75294118 0.29362745
0.61507353 0.75735294 0.28982843
0.65588235 0.74901961 0.271875
0.71764706 0.7495098 0.25661765
0.76764706 0.73676471 0.2372549
0.83333333 0.7495098 0.23480392
0.87291667 0.73302696 0.23088235
0.91372549 0.76470588 0.23480392
0.25784314 0.15196078 0.096078431
0.28480392 0.14803922 0.092156863
0.32696078 0.14289216 0.087990196
0.43088235 0.19276961 0.12205882
0.54313725 0.21960784 0.15147059
0.65686275 0.28345588 0.2004902
0.76862745 0.34240196 0.24730392
0.85196078 0.39264706 0.28590686
0.9245098 0.43235294 0.3245098
0.25392157 0.17892157 0.092156863
0.28131127 0.17892157 0.092156863
0.34178922 0.18753064 0.1028799
0.42941176 0.21372549 0.12696078
0.5463848 0.25814951 0.15784314
0.66470588 0.3122549 0.2004902
0.77156863 0.36617647 0.24313725
0.85245098 0.41613051 0.28186275
0.91421569 0.45441176 0.31666667
0.25465686 0.21470588 0.089215686
0.28504902 0.2221201 0.096354167
0.35098039 0.23780637 0.11268382
0.43354779 0.25539216 0.13170956
0.54901961 0.30098039 0.16139706
0.66470588 0.34623162 0.19656863
0.7713848 0.4 0.23529412
0.85588235 0.44669118 0.27414216
0.91372549 0.48529412 0.30808824
0.30294118 0.30931373 0.12303922
0.31845895 0.30546875 0.12303922
0.36519608 0.30539216 0.12696078
0.4433364 0.31862745 0.13026961
0.54901961 0.35392157 0.1536152
0.66862745 0.40392157 0.19226409
0.77245711 0.44509804 0.23137255
0.85980392 0.48386949 0.26956189
0.92254902 0.52291667 0.30490196
0.35735294 0.41176471 0.16323529
0.37383578 0.40594363 0.15980392
0.4060049 0.40588235 0.15784314
0.47279412 0.40784314 0.14969363
0.56102941 0.42671569 0.15686275
0.6723652 0.46390931 0.1877451
0.77156863 0.50183824 0.22316176
0.8560049 0.53823529 0.26617647
0.91715686 0.56911765 0.29313725
0.40686275 0.51421569 0.20441176
0.42719056 0.51176471 0.20203738
0.46050858 0.51029412 0.19610907
0.51764706 0.5151348 0.18872549
0.59859069 0.52598039 0.18872549
0.6877451 0.54172794 0.20003064
0.77322304 0.56470588 0.22306985
0.85588235 0.59558824 0.25833333
0.91666667 0.62254902 0.28382353
0.46151961 0.61862745 0.25098039
0.4877451 0.61862745 0.24803922
0.52647059 0.62254902 0.24154412
0.5754902 0.62254902 0.23235294
0.64068627 0.62107843 0.22745098
0.70842525 0.62601103 0.21960784
0.78235294 0.63449755 0.22352941
0.85588235 0.65735294 0.25045956
0.92230392 0.68039216 0.27328431
0.51862745 0.69901961 0.28970588
0.53737745 0.70294118 0.29362745
0.56853554 0.69911152 0.28186275
0.62107843 0.6995098 0.27009804
0.68284314 0.6995098 0.26219363
0.74460784 0.69901961 0.2504902
0.80637255 0.70101103 0.24558824
0.87205882 0.71862745 0.25876225
0.92120098 0.72647059 0.26568627
0.55784314 0.75686275 0.31666667
0.57205882 0.75686275 0.31666667
0.60686275 0.76053922 0.3127451
0.65196078 0.75686275 0.29852941
0.70980392 0.74901961 0.28137255
0.77156863 0.74901961 0.27352941
0.8372549 0.76102941 0.26960784
0.88676471 0.75625 0.2682598
0.92156863 0.76470588 0.26568627
0.28480392 0.18676471 0.16029412
0.32175245 0.18676471 0.16176471
0.36764706 0.18921569 0.16752451
0.4372549 0.19852941 0.17113971
0.5502451 0.22230392 0.20686275
0.66078431 0.27352941 0.25006127
0.76764706 0.33137255 0.29644608
0.84852941 0.37873775 0.33088235
0.92156863 0.41715686 0.36323529
0.28854167 0.20588235 0.16029412
0.32175245 0.20978094 0.16176471
0.37158395 0.20980392 0.16813725
0.4278799 0.1960095 0.16323529
0.54901961 0.24656863 0.20294118
0.66470588 0.30060509 0.24325214
0.76409314 0.35551471 0.28662684
0.85238971 0.40569853 0.3245481
0.91158088 0.43890931 0.35539216
0.29509804 0.25036765 0.16360294
0.31960784 0.25200674 0.16421569
0.36911765 0.25245098 0.16568627
0.43849571 0.25294118 0.17421875
0.54901961 0.29234069 0.20294118
0.66539522 0.33915441 0.2381587
0.76920956 0.39197304 0.28039216
0.85588235 0.43658088 0.31911765
0.90980392 0.46960784 0.34816176
0.31862745 0.32352941 0.18382353
0.33382353 0.31206342 0.17217371
0.35612745 0.30294118 0.16268382
0.44509804 0.31715686 0.17802543
0.55147059 0.35045956 0.2051777
0.66862745 0.39873621 0.24201134
0.76934743 0.4386489 0.28053002
0.85588235 0.47990196 0.31519608
0.90980392 0.51133578 0.34270833
0.34387255 0.41372549 0.21078431
0.36626838 0.40588235 0.20294118
0.40030637 0.40588235 0.19705882
0.47598039 0.41102941 0.19947917
0.56666667 0.43137255 0.21078431
0.67107843 0.46421569 0.24166667
0.76764706 0.49718137 0.27328431
0.85588235 0.5377451 0.30425858
0.91568627 0.56544118 0.33112745
0.39417892 0.51421569 0.24558824
0.41813725 0.50814951 0.2401348
0.45294118 0.50637255 0.2355239
0.51560202 0.51176471 0.23382353
0.58802083 0.51887255 0.22625613
0.67404259 0.53382353 0.23979013
0.76764706 0.56078431 0.26862745
0.8568704 0.59558824 0.29882047
0.92248775 0.62254902 0.32555147
0.45294118 0.61862745 0.28639706
0.47598039 0.61086091 0.28529412
0.51746324 0.61890319 0.27901348
0.56703431 0.6189951 0.27268689
0.63161765 0.61470588 0.26648284
0.70363051 0.61973039 0.26470588
0.77622549 0.63039216 0.27018995
0.8569087 0.65735294 0.29551164
0.9182598 0.67941176 0.31862745
0.52224265 0.70324755 0.33088235
0.52755821 0.70686275 0.33057598
0.56207108 0.70294118 0.3191636
0.61323529 0.69920343 0.30813419
0.68005515 0.70514706 0.30352328
0.74460784 0.70294118 0.2995098
0.80637255 0.70294118 0.29558824
0.86811428 0.71704963 0.30294118
0.92126225 0.7286152 0.3122549
0.54656863 0.75294118 0.35392157
0.56960784 0.76813725 0.3591299
0.60012255 0.76433824 0.35
0.64859069 0.76133578 0.33878676
0.71176471 0.76789216 0.33039216
0.77156863 0.75686275 0.32254902
0.82941176 0.74901961 0.31862745
0.87910539 0.753125 0.3122549
0.92156863 0.76617647 0.31078431
0.34509804 0.2254902 0.25294118
0.37205882 0.23137255 0.24901961
0.40980392 0.23137255 0.2504902
0.48848039 0.23529412 0.26593137
0.56960784 0.23137255 0.27647059
0.66397059 0.26176471 0.30490196
0.76617647 0.31960784 0.34852941
0.84852941 0.36519608 0.38088235
0.92745098 0.40196078 0.40588235
0.34117647 0.25441176 0.24509804
0.37034314 0.25073529 0.24705882
0.40980392 0.24871324 0.24901961
0.47941176 0.24656863 0.25701593
0.55710784 0.24877451 0.26580882
0.66078431 0.29166667 0.2995098
0.75980392 0.34264706 0.33854167
0.84849877 0.38848039 0.37303922
0.91372549 0.42328431 0.4
0.33382353 0.29068627 0.24901961
0.36985294 0.2911152 0.24901961
0.41372549 0.29117647 0.24901961
0.4754902 0.28694853 0.25294118
0.55 0.28578431 0.25980392
0.65931373 0.32622549 0.29240196
0.75980392 0.37647059 0.3317402
0.85245098 0.42322304 0.36917892
0.90980392 0.45392157 0.39607843
0.33333333 0.34803922 0.25490196
0.36617647 0.33848039 0.24647672
0.40741422 0.33682598 0.24865196
0.47279412 0.34142157 0.25447304
0.55355392 0.34963235 0.26397059
0.65977328 0.38676471 0.29558824
0.76170343 0.43039216 0.33069853
0.85196078 0.4729473 0.36519608
0.90588235 0.50294118 0.38823529
0.32647059 0.41470588 0.26078431
0.37083333 0.41176471 0.26078431
0.40686275 0.40808824 0.25906863
0.48284314 0.42083333 0.2692402
0.56764706 0.43186275 0.27696078
0.66654412 0.4567402 0.2995098
0.76372549 0.49117647 0.32941176
0.8502451 0.52990196 0.36029412
0.91176471 0.56078431 0.38431373
0.3872549 0.51813725 0.2995098
0.41764706 0.51314338 0.29705882
0.44901961 0.51029412 0.29558824
0.50741422 0.51467525 0.29558824
0.5814951 0.51813725 0.28970588
0.67107843 0.53290441 0.29803922
0.76764706 0.56078431 0.32181373
0.84852941 0.59166667 0.35073529
0.91764706 0.61862745 0.37965686
0.44705882 0.62254902 0.33921569
0.47205882 0.61470588 0.33872549
0.5067402 0.61372549 0.33431373
0.55165441 0.62254902 0.32947304
0.62107843 0.61862745 0.325
0.70030637 0.62193627 0.3192402
0.7754902 0.62965686 0.32107843
0.85680147 0.65735294 0.34295343
0.92156863 0.67647059 0.37205882
0.49877451 0.70294118 0.37696078
0.52181373 0.70686275 0.37892157
0.5528799 0.70300245 0.36985294
0.59788603 0.69901961 0.36397059
0.66642157 0.70294118 0.35821078
0.73961397 0.70294118 0.35735294
0.80882353 0.70428922 0.35042892
0.87156863 0.71841299 0.35664828
0.91691176 0.72598039 0.36470588
0.53333333 0.77058824 0.40588235
0.55245098 0.76053922 0.40196078
0.58872549 0.76470588 0.4004902
0.64411765 0.75759804 0.39215686
0.70392157 0.76176471 0.38431373
0.76372549 0.75220588 0.37647059
0.8254902 0.74166667 0.36862745
0.8754902 0.75122549 0.36838235
0.92352941 0.76666667 0.36470588
0.41862745 0.29313725 0.3495098
0.44558824 0.29705882 0.35343137
0.48762255 0.28921569 0.35735294
0.53094363 0.26960784 0.35735294
0.61323529 0.27205882 0.36519608
0.68284314 0.26813725 0.36819853
0.76764706 0.3057598 0.39607843
0.85196078 0.35588235 0.42941176
0.90833333 0.38676471 0.44852941
0.40686275 0.3122549 0.34705882
0.4377451 0.3122549 0.34967065
0.4754902 0.30837929 0.35343137
0.53333333 0.29957108 0.35343137
0.59852941 0.29126838 0.35278799
0.67285539 0.29264706 0.36238511
0.76861213 0.33435968 0.39607843
0.85212163 0.37258732 0.42696078
0.92126225 0.40735294 0.45392157
0.40294118 0.34705882 0.34558824
0.42990196 0.34313725 0.34558824
0.46835172 0.33921569 0.34595588
0.52046569 0.33229167 0.3495098
0.5870098 0.32034314 0.34411765
0.66862745 0.3227788 0.35735294
0.77349877 0.36951593 0.39607843
0.85588235 0.41090686 0.42696078
0.91764706 0.44215686 0.45
0.39509804 0.39460784 0.34558824
0.41949295 0.38609069 0.34166667
0.46055453 0.38039216 0.34166667
0.51617647 0.38304994 0.3495098
0.58820466 0.3796875 0.3495098
0.66862745 0.38768382 0.35882353
0.77041973 0.42624081 0.39252451
0.85293352 0.46341146 0.42292433
0.91127451 0.49209559 0.44215686
0.3872549 0.45784314 0.3495098
0.41029412 0.45122549 0.34754902
0.44993873 0.44871324 0.3495098
0.51271446 0.44852941 0.3495098
0.58578431 0.44852941 0.35196078
0.66715686 0.45021446 0.35903799
0.75980392 0.48333333 0.38609069
0.84852941 0.52205882 0.41519608
0.91764706 0.55294118 0.43823529
0.38223039 0.52745098 0.35980392
0.42665441 0.53070619 0.36588542
0.45363051 0.52352941 0.36127451
0.51372549 0.52052696 0.35882353
0.57962623 0.52251838 0.35435049
0.67128523 0.52990196 0.36276808
0.76049326 0.55087316 0.37872243
0.84822304 0.5877451 0.40765931
0.92101716 0.61470588 0.43584559
0.42941176 0.62745098 0.39497549
0.46309743 0.62032782 0.39497549
0.4989277 0.61862745 0.39215686
0.55490196 0.62647059 0.39215686
0.61715686 0.61660539 0.38529412
0.69558824 0.62254902 0.38509498
0.7745098 0.63112745 0.38541667
0.85226716 0.65343137 0.40686275
0.91041667 0.66862745 0.42647059
0.47794118 0.69509804 0.4254902
0.50964308 0.70294118 0.42693781
0.54483762 0.70294118 0.42696078
0.59019608 0.69901961 0.42303922
0.65759804 0.6995098 0.41878064
0.73284314 0.6995098 0.41512714
0.80134804 0.70415135 0.41127451
0.86421569 0.71501225 0.41519608
0.92175245 0.72647059 0.42647059
0.52009804 0.75686275 0.45
0.54460784 0.76078431 0.45214461
0.57904412 0.76470588 0.45281863
0.63235294 0.75686275 0.44607843
0.69656863 0.76470588 0.44142157
0.75980392 0.76323529 0.43431373
0.8254902 0.75294118 0.43039216
0.8754902 0.75686275 0.42647059
0.9254902 0.75147059 0.42647059
0.47254902 0.35490196 0.44607843
0.50245098 0.36176471 0.44252451
0.53259804 0.35588235 0.43823529
0.5872549 0.32892157 0.43786765
0.65245098 0.31715686 0.44362745
0.71433824 0.3057598 0.4439951
0.7754902 0.30784314 0.45
0.8560049 0.34166667 0.47990196
0.89019608 0.35980392 0.49215686
0.47254902 0.37009804 0.44607843
0.49852941 0.3692402 0.44509804
0.52950368 0.365625 0.44117647
0.58471201 0.34987745 0.43762255
0.6442402 0.33823529 0.43345588
0.71404718 0.33368566 0.44215686
0.78431373 0.33872549 0.4546875
0.85980392 0.37254902 0.48077512
0.90931373 0.39558824 0.49509804
0.46470588 0.40490196 0.44215686
0.48900123 0.40012255 0.44142157
0.52254902 0.39240196 0.43841912
0.56945466 0.37855392 0.42950368
0.63333333 0.36862745 0.42622549
0.71017157 0.36167279 0.43823529
0.78633578 0.36133578 0.45392157
0.85980392 0.40379902 0.47990196
0.92156863 0.43651961 0.49901961
0.45404412 0.44938725 0.44215686
0.47990196 0.44215686 0.43823529
0.5145527 0.43385417 0.43431373
0.55957414 0.42608762 0.43431373
0.63302696 0.42193627 0.43823529
0.70796569 0.42115502 0.4432598
0.78106618 0.4247549 0.45294118
0.85819547 0.4558364 0.47303922
0.91764706 0.48333333 0.49154412
0.44901961 0.50147059 0.44117647
0.4622549 0.50294118 0.44362745
0.50294118 0.49117647 0.43823529
0.55569853 0.48762255 0.44215686
0.62990196 0.4872549 0.44215686
0.70214461 0.48333333 0.44215686
0.77156863 0.4872549 0.44681373
0.84895833 0.51574755 0.46648284
0.91764706 0.54117647 0.48431373
0.43186275 0.56115196 0.43823529
0.45539216 0.56176471 0.44496017
0.49822304 0.55765931 0.44215686
0.55134804 0.55723039 0.4432598
0.62248775 0.55398284 0.4411152
0.70094975 0.55317096 0.44215686
0.77156863 0.55784314 0.44534314
0.85330882 0.5877451 0.46776961
0.91372549 0.60686275 0.48333333
0.42622549 0.62647059 0.44681373
0.46004902 0.62745098 0.45
0.49411765 0.63039216 0.45
0.56666667 0.63265931 0.45802696
0.6317402 0.62745098 0.45208333
0.71838235 0.6375 0.45392157
0.77867647 0.6317402 0.45294118
0.85245098 0.65343137 0.46862745
0.91789216 0.67254902 0.48431373
0.46629902 0.7 0.47561275
0.49716605 0.70294118 0.47608762
0.53284314 0.6995098 0.47696078
0.58970588 0.70382966 0.47856924
0.65539216 0.70496324 0.47432598
0.7286152 0.6993413 0.4689951
0.79525123 0.70294118 0.46902574
0.85637255 0.71078431 0.47259498
0.9185049 0.72254902 0.48419118
0.50882353 0.75686275 0.49607843
0.52892157 0.76078431 0.49901961
0.56666667 0.76764706 0.50294118
0.62058824 0.76470588 0.49938725
0.68627451 0.76519608 0.49558824
0.75196078 0.75686275 0.48823529
0.82254902 0.76495098 0.48823529
0.875 0.76029412 0.48431373
0.91764706 0.74509804 0.48039216
0.53039216 0.40490196 0.51470588
0.5495098 0.40441176 0.51084559
0.58296569 0.39656863 0.50686275
0.63155637 0.37696078 0.50539216
0.69460784 0.36127451 0.51838235
0.75245098 0.35343137 0.51862745
0.81029412 0.3504902 0.51862745
0.87156863 0.36084559 0.53082108
0.89803922 0.36127451 0.53431373
0.53039216 0.42009804 0.51470588
0.54901961 0.41305913 0.51127451
0.58039216 0.4055913 0.50735294
0.62892157 0.3942019 0.50686275
0.68682598 0.38238358 0.50778186
0.75245098 0.37258732 0.51470588
0.81254596 0.36793811 0.52222733
0.86764706 0.38779871 0.52990962
0.90238971 0.39558824 0.53382353
0.52267157 0.45441176 0.51470588
0.54166667 0.44356618 0.51127451
0.57647059 0.43480392 0.51078431
0.62133885 0.42642463 0.50704657
0.67892157 0.41495098 0.50330882
0.74852941 0.41064645 0.51416973
0.81421569 0.39656863 0.51577819
0.86807598 0.41917892 0.52647059
0.91372549 0.43737745 0.53688725
0.51470588 0.49313725 0.51470588
0.53529412 0.48589154 0.51470588
0.56832108 0.47833946 0.51360294
0.60804228 0.47212776 0.51341912
0.67573529 0.46832108 0.51470588
0.74441636 0.46433058 0.51782322
0.80784314 0.45637255 0.51862745
0.86764706 0.46045496 0.52647059
0.92156863 0.47696078 0.53823529
0.50686275 0.54387255 0.51078431
0.52181373 0.53823529 0.51078431
0.55465686 0.52990196 0.51078431
0.59803922 0.52598039 0.51470588
0.66715686 0.52205882 0.51556373
0.73740809 0.52205882 0.51862745
0.8033701 0.51813725 0.52089461
0.86593137 0.52401961 0.52604167
0.91789216 0.5370098 0.53431373
0.48578431 0.60343137 0.51648284
0.50851716 0.5995098 0.51116728
0.5442402 0.59313725 0.51216299
0.59234069 0.59509804 0.51862745
0.66323529 0.5877451 0.51862745
0.73645833 0.5877451 0.51709559
0.80277267 0.58743873 0.51862745
0.86791513 0.59515931 0.52254902
0.91764706 0.60686275 0.52990196
0.46323529 0.66164216 0.52254902
0.49448529 0.65735294 0.51862745
0.53590686 0.65343137 0.51470588
0.59448529 0.65343137 0.52117034
0.66495098 0.65686275 0.52218137
0.73676471 0.65735294 0.5196538
0.80245098 0.65340074 0.51862745
0.86421569 0.65778186 0.52254902
0.91507353 0.67169118 0.53039216
0.45980392 0.71078431 0.51856618
0.50153186 0.71127451 0.52303922
0.55121017 0.71438419 0.52689951
0.60490196 0.7151348 0.52647059
0.66516544 0.71124387 0.52647059
0.73672641 0.71035539 0.5228171
0.80364583 0.71089154 0.52254902
0.86421569 0.7151348 0.52297794
0.91323529 0.72205882 0.53039216
0.49803922 0.76862745 0.54166667
0.51715686 0.76421569 0.54209559
0.55588235 0.76078431 0.5377451
0.6122549 0.76078431 0.5377451
0.67843137 0.75514706 0.5377451
0.74803922 0.76078431 0.53431373
0.81862745 0.76470588 0.53382353
0.8754902 0.76078431 0.52990196
0.91421569 0.75686275 0.53039216
0.58431373 0.45098039 0.58039216
0.59558824 0.44313725 0.57254902
0.62647059 0.42745098 0.57156863
0.65833333 0.41029412 0.55245098
0.72745098 0.40196078 0.57843137
0.7754902 0.37647059 0.55686275
0.84411765 0.3754902 0.57647059
0.8872549 0.36470588 0.57647059
0.90980392 0.36470588 0.57647059
0.57647059 0.4627451 0.56862745
0.59258578 0.45441176 0.57254902
0.62561275 0.44276961 0.56862745
0.66372549 0.43480392 0.56452206
0.71764706 0.41715686 0.56078431
0.77892157 0.3995098 0.56047794
0.83370098 0.39166667 0.5622549
0.87984069 0.39558824 0.56862745
0.90588235 0.3995098 0.56519608
0.56568627 0.49215686 0.57156863
0.58872549 0.48186275 0.57647059
0.62254902 0.47279412 0.57034314
0.66519608 0.46323529 0.57254902
0.71421569 0.45539216 0.57205882
0.77193627 0.44117647 0.56470588
0.84019608 0.43039216 0.57867647
0.87892157 0.43431373 0.56813725
0.90980392 0.43823529 0.56078431
0.55294118 0.53186275 0.57794118
0.57352941 0.52401961 0.56862745
0.60294118 0.51115196 0.56139706
0.64859069 0.50833333 0.56862745
0.70269608 0.50098039 0.56397059
0.76764706 0.49417892 0.57107843
0.83088235 0.48051471 0.56617647
0.88284314 0.47677696 0.56470588
0.92156863 0.47696078 0.56078431
0.54509804 0.57843137 0.57254902
0.55661765 0.57696078 0.57279412
0.58529412 0.55882353 0.55882353
0.63823529 0.56151961 0.5752451
0.69705882 0.55294118 0.56862745
0.76372549 0.54901961 0.575
0.82941176 0.54117647 0.57058824
0.87941176 0.5370098 0.56642157
0.92156863 0.5372549 0.56078431
0.52009804 0.63039216 0.56715686
0.53921569 0.62677696 0.56715686
0.57156863 0.62401961 0.56617647
0.62696078 0.61862745 0.57254902
0.69019608 0.61470588 0.57058824
0.75496324 0.60686275 0.55594363
0.82610294 0.60294118 0.57144608
0.87941176 0.60294118 0.56813725
0.92156863 0.60833333 0.56078431
0.48235294 0.67941176 0.55686275
0.52009804 0.67561275 0.55686275
0.56666667 0.67647059 0.56862745
0.62058824 0.67647059 0.57254902
0.68235294 0.67254902 0.5627451
0.74803922 0.66470588 0.54901961
0.82156863 0.66151961 0.56568627
0.87941176 0.66519608 0.56862745
0.9254902 0.67254902 0.56176471
0.49460784 0.72205882 0.54509804
0.51715686 0.72555147 0.55680147
0.55833333 0.72254902 0.56384804
0.6127451 0.72628676 0.56844363
0.68014706 0.72622549 0.57058824
0.74803922 0.71470588 0.56078431
0.82156863 0.71948529 0.57254902
0.87892157 0.72205882 0.57248775
0.92156863 0.72205882 0.56862745
0.50196078 0.76470588 0.54509804
0.51715686 0.74166667 0.55294118
0.54803922 0.75980392 0.56764706
0.60343137 0.76470588 0.56862745
0.6745098 0.76470588 0.56862745
0.74803922 0.76715686 0.56862745
0.82156863 0.76568627 0.57352941
0.87892157 0.76029412 0.56470588
0.92941176 0.77254902 0.58039216
