site/assets/luts/natron-haldclut--zilverfx-vintage-b-w--dae33e626.cube
# LUTr-Project: LUTr — LUTrepository
# LUTr-Schema-Version: 1
# LUTr-ID: natron-haldclut--zilverfx-vintage-b-w--dae33e626
# LUTr-Title: zilverfx vintage b w
# LUTr-Collection: Natron HaldCLUT
# LUTr-Collection-ID: natron-haldclut-presets
# LUTr-Source: https://github.com/NatronGitHub/clut
# LUTr-Source-File: submissions/natron-haldclut-presets/picturefx/zilverfx_vintage_b_w.png
# LUTr-Source-Format: PNG
# LUTr-Source-SHA256: 8cd7eef88b6591cc1c60a560690600dffffdded84412bc1a403b14e2e2d7f28d
# LUTr-License: CC-BY-SA-4.0
# LUTr-License-URL: https://github.com/NatronGitHub/clut#license
# LUTr-Tags: creative, film, film-emulation, hald-clut, natron, png, vintage, cube
# LUTr-Transform-Class: film-emulation
# LUTr-Input-Color-Space: srgb
# LUTr-Output-Color-Space: srgb
# LUTr-Color-Space-Confidence: assumed-display-referred
# LUTr-Conversion-Method: PNG LUT image decoded at 16-bit and sampled to 25x25x25 3D CUBE
# LUTr-Conversion-Date: 2026-07-27
# LUTr-Conversion-Tool: LUTr scripts/convert-all-to-cube.mjs
# LUTr-Conversion-Grid: 25x25x25
# LUTr-Note: Preserve this metadata and the upstream license notices when redistributing.
TITLE "zilverfx vintage b w"
LUT_3D_SIZE 25
DOMAIN_MIN 0 0 0
DOMAIN_MAX 1 1 1
0.011764706 0.011764706 0.011764706
0.022058824 0.019607843 0.019607843
0.02254902 0.02254902 0.019607843
0.016176471 0.016176471 0.015686275
0.02745098 0.02745098 0.02745098
0.051960784 0.051960784 0.051960784
0.076470588 0.076470588 0.07254902
0.091666667 0.091666667 0.087745098
0.10588235 0.10588235 0.10196078
0.12254902 0.12009804 0.11617647
0.13823529 0.13431373 0.13039216
0.15882353 0.15147059 0.14754902
0.19411765 0.18627451 0.17843137
0.22892157 0.21715686 0.20539216
0.25686275 0.24411765 0.22941176
0.28676471 0.27107843 0.25539216
0.32941176 0.30980392 0.29019608
0.37696078 0.35490196 0.33137255
0.42647059 0.39901961 0.37156863
0.46127451 0.42990196 0.40245098
0.49215686 0.46078431 0.42941176
0.52254902 0.4872549 0.45196078
0.54313725 0.50490196 0.46960784
0.5622549 0.52303922 0.48382353
0.57647059 0.53333333 0.49411765
0.011764706 0.011764706 0.011764706
0.018688725 0.018137255 0.018137255
0.026593137 0.026593137 0.026593137
0.034497549 0.034497549 0.032169118
0.047303922 0.045343137 0.045343137
0.064705882 0.06439951 0.060784314
0.079534314 0.079534314 0.077818627
0.091666667 0.091666667 0.090196078
0.10441176 0.10441176 0.10196078
0.11917892 0.11862745 0.11470588
0.14509804 0.14166667 0.13664216
0.17224265 0.16470588 0.15833333
0.20122549 0.19019608 0.18235294
0.23265931 0.21930147 0.20882353
0.25980392 0.24509804 0.23296569
0.28676471 0.27107843 0.25539216
0.32941176 0.30980392 0.29019608
0.37696078 0.35343137 0.33137255
0.42352941 0.39546569 0.37156863
0.46078431 0.42990196 0.40245098
0.49215686 0.46078431 0.42941176
0.52285539 0.4872549 0.45196078
0.54558824 0.50784314 0.46960784
0.56372549 0.52303922 0.48382353
0.57647059 0.53333333 0.49411765
0.011764706 0.011764706 0.011764706
0.030392157 0.030392157 0.028553922
0.047058824 0.046323529 0.043872549
0.061151961 0.060294118 0.057230392
0.073039216 0.071078431 0.069117647
0.086151961 0.084926471 0.082230392
0.099019608 0.099019608 0.095098039
0.10931373 0.10931373 0.10539216
0.11666667 0.11568627 0.11176471
0.13235294 0.12941176 0.12487745
0.16176471 0.15612745 0.14901961
0.18529412 0.17659314 0.16875
0.20784314 0.19558824 0.1877451
0.2377451 0.22303922 0.21384804
0.26642157 0.25294118 0.23897059
0.29595588 0.27990196 0.26421569
0.33529412 0.31862745 0.29901961
0.38394608 0.36041667 0.33835784
0.42843137 0.4 0.37647059
0.46482843 0.43345588 0.40379902
0.49852941 0.46568627 0.43382353
0.53039216 0.49215686 0.45686275
0.54877451 0.50955882 0.47352941
0.56654412 0.52401961 0.4877451
0.58039216 0.5372549 0.49803922
0.052941176 0.052941176 0.049509804
0.059620098 0.055882353 0.055882353
0.074019608 0.070588235 0.070098039
0.084803922 0.084742647 0.080882353
0.09877451 0.096813725 0.094607843
0.1127451 0.10931373 0.10539216
0.12303922 0.11960784 0.11568627
0.13333333 0.12990196 0.12598039
0.14362745 0.14019608 0.13627451
0.15814951 0.15294118 0.14871324
0.18235294 0.17365196 0.16875
0.20588235 0.19411765 0.18633578
0.22843137 0.21470588 0.20686275
0.25539216 0.2401348 0.23137255
0.28247549 0.26801471 0.25502451
0.31470588 0.29754902 0.28186275
0.35588235 0.33284314 0.31323529
0.40128676 0.37745098 0.35392157
0.44129902 0.41029412 0.38578431
0.47254902 0.44117647 0.41072304
0.50392157 0.47205882 0.43897059
0.5338848 0.49509804 0.45980392
0.55183824 0.5127451 0.47732843
0.56636029 0.52696078 0.4877451
0.57647059 0.53333333 0.49411765
0.090196078 0.088235294 0.08627451
0.094117647 0.091421569 0.088235294
0.1004902 0.097058824 0.095098039
0.11102941 0.10906863 0.10539216
0.12352941 0.11960784 0.11568627
0.13578431 0.13382353 0.12990196
0.14803922 0.14411765 0.13872549
0.15759804 0.15245098 0.14656863
0.16666667 0.16078431 0.15490196
0.17892157 0.17230392 0.16446078
0.20196078 0.19264706 0.18431373
0.22622549 0.21470588 0.20490196
0.24803922 0.23529412 0.2254902
0.27205882 0.25808824 0.24632353
0.30245098 0.28529412 0.27156863
0.33651961 0.31813725 0.29852941
0.37647059 0.35294118 0.33333333
0.42083333 0.39289216 0.36936275
0.45196078 0.42058824 0.39607843
0.47916667 0.44779412 0.41838235
0.50980392 0.47647059 0.44215686
0.53602941 0.49901961 0.46348039
0.55 0.5127451 0.4754902
0.5622549 0.52303922 0.48504902
0.57254902 0.52941176 0.49215686
0.12745098 0.12352941 0.11960784
0.12745098 0.12696078 0.12303922
0.12830882 0.12696078 0.12303922
0.1338848 0.12996324 0.12604167
0.14828431 0.14436275 0.14044118
0.16366422 0.15931373 0.15490196
0.18002451 0.17303922 0.16519608
0.1877451 0.18204657 0.1754902
0.19754902 0.18970588 0.18186275
0.20655637 0.19656863 0.18823529
0.22303922 0.21421569 0.20343137
0.24362745 0.23186275 0.22352941
0.26372549 0.25196078 0.24019608
0.28823529 0.27297794 0.26078431
0.31997549 0.30392157 0.28823529
0.35980392 0.33890931 0.31911765
0.40098039 0.37401961 0.35392157
0.44215686 0.4122549 0.38480392
0.46580882 0.43529412 0.40686275
0.49362745 0.45882353 0.42745098
0.52034314 0.48504902 0.45171569
0.53872549 0.50294118 0.46721814
0.54852941 0.50943627 0.47401961
0.55833333 0.51911765 0.48020833
0.56862745 0.52941176 0.49019608
0.16470588 0.15784314 0.15392157
0.16470588 0.15784314 0.15392157
0.16176471 0.15784314 0.15392157
0.16470588 0.16041667 0.15392157
0.18088235 0.175 0.16960784
0.20061275 0.19276961 0.18578431
0.21470588 0.20759804 0.19607843
0.225 0.21421569 0.20637255
0.23235294 0.22352941 0.2127451
0.24558824 0.23382353 0.22303922
0.26004902 0.24607843 0.23431373
0.27757353 0.26311275 0.25134804
0.29264706 0.27745098 0.26568627
0.31139706 0.29522059 0.28088235
0.34632353 0.32671569 0.31176471
0.3872549 0.36262255 0.34362745
0.4254902 0.39803922 0.3745098
0.46568627 0.43468137 0.40539216
0.49093137 0.45882353 0.42745098
0.51470588 0.47941176 0.44803922
0.53627451 0.50098039 0.46568627
0.55539216 0.51715686 0.4817402
0.5627451 0.52426471 0.48823529
0.56703431 0.52781863 0.49215686
0.57156863 0.53235294 0.49313725
0.2004902 0.19264706 0.18480392
0.20140931 0.19356618 0.18480392
0.20294118 0.19509804 0.1872549
0.21078431 0.20294118 0.19362745
0.22352941 0.2125 0.20392157
0.23284314 0.2245098 0.2153799
0.24656863 0.2372549 0.22696078
0.25833333 0.24656863 0.2372549
0.27254902 0.25931373 0.24754902
0.28284314 0.27052696 0.25784314
0.29803922 0.28235294 0.2685049
0.31501225 0.29932598 0.28363971
0.33259804 0.31495098 0.29926471
0.35196078 0.33235294 0.31519608
0.37794118 0.35833333 0.33872549
0.41421569 0.38921569 0.36813725
0.45147059 0.42401961 0.39901961
0.49172794 0.45827206 0.42990196
0.51470588 0.47941176 0.44803922
0.53400735 0.49871324 0.46341912
0.55196078 0.51519608 0.47867647
0.57077206 0.53155637 0.49393382
0.58235294 0.54313725 0.50453431
0.58872549 0.54803922 0.50882353
0.59117647 0.55196078 0.5127451
0.23921569 0.22745098 0.21568627
0.23921569 0.22990196 0.21813725
0.24803922 0.23627451 0.2245098
0.25833333 0.24656863 0.23480392
0.26666667 0.25490196 0.24313725
0.27107843 0.25931373 0.24754902
0.28039216 0.26862745 0.25392157
0.29705882 0.28382353 0.26813725
0.30980392 0.29411765 0.28235294
0.32401961 0.30833333 0.29264706
0.33921569 0.31960784 0.30392157
0.35588235 0.33627451 0.31715686
0.37254902 0.35294118 0.33333333
0.39313725 0.36960784 0.35
0.41372549 0.39019608 0.36666667
0.44754902 0.42009804 0.39656863
0.48627451 0.45490196 0.42352941
0.51862745 0.48333333 0.45196078
0.53529412 0.49901961 0.46764706
0.55196078 0.51323529 0.48137255
0.56862745 0.52941176 0.49411765
0.58529412 0.54607843 0.51029412
0.59901961 0.55980392 0.52058824
0.60931373 0.56617647 0.52941176
0.61568627 0.57254902 0.53333333
0.27647059 0.26470588 0.2504902
0.28529412 0.27199755 0.25686275
0.29558824 0.28137255 0.26568627
0.30588235 0.29166667 0.27598039
0.31617647 0.3004902 0.28627451
0.32628676 0.31029412 0.29479167
0.33284314 0.31531863 0.29963235
0.34160539 0.325 0.30931373
0.35490196 0.33529412 0.31715686
0.36672794 0.34558824 0.32745098
0.38039216 0.35980392 0.34019608
0.39705882 0.37371324 0.35410539
0.41372549 0.39019608 0.36813725
0.43039216 0.40655637 0.38431373
0.45098039 0.42389706 0.40147059
0.48535539 0.45490196 0.42745098
0.52107843 0.48578431 0.45441176
0.54558824 0.50876225 0.47555147
0.56164216 0.52242647 0.48468137
0.57518382 0.53382353 0.49852941
0.59044118 0.55 0.51151961
0.60539216 0.5627451 0.52322304
0.61715686 0.57647059 0.53480392
0.62745098 0.58584559 0.54509804
0.63627451 0.59313725 0.55392157
0.33431373 0.31862745 0.29901961
0.3377451 0.32107843 0.30257353
0.34803922 0.33137255 0.31176471
0.36090686 0.34166667 0.32205882
0.37205882 0.35196078 0.33235294
0.38186275 0.36090686 0.34117647
0.38602941 0.36544118 0.34509804
0.39313725 0.37071078 0.3504902
0.40098039 0.37745098 0.35686275
0.41127451 0.3877451 0.36715686
0.4245098 0.40098039 0.37745098
0.43872549 0.41470588 0.39031863
0.45588235 0.42941176 0.40392157
0.47512255 0.44411765 0.42009804
0.49289216 0.46470588 0.43651961
0.52316176 0.49031863 0.46078431
0.55196078 0.51568627 0.48137255
0.57193627 0.53382353 0.49852941
0.5872549 0.54509804 0.50784314
0.59840686 0.55796569 0.51519608
0.61421569 0.57058824 0.52941176
0.62598039 0.58284314 0.54276961
0.63627451 0.59313725 0.55392157
0.64656863 0.60343137 0.56458333
0.65294118 0.61372549 0.5754902
0.39313725 0.37009804 0.3504902
0.39705882 0.37401961 0.35294118
0.40588235 0.38284314 0.35931373
0.41617647 0.39313725 0.36960784
0.42696078 0.40171569 0.37990196
0.43333333 0.40931373 0.38584559
0.43970588 0.41237745 0.38884804
0.44460784 0.41734069 0.39381127
0.44852941 0.425 0.39803922
0.45882353 0.43186275 0.40833333
0.47046569 0.44215686 0.41519608
0.48376225 0.45631127 0.42892157
0.50171569 0.47058824 0.44142157
0.51966912 0.48872549 0.45741422
0.5372549 0.50330882 0.47193627
0.55588235 0.52175245 0.48823529
0.57892157 0.54019608 0.50833333
0.5973652 0.55814951 0.52040441
0.61139706 0.56862745 0.52843137
0.62506127 0.57892157 0.53578431
0.63627451 0.59313725 0.54828431
0.64957108 0.60386029 0.56378676
0.65686275 0.61715686 0.57708333
0.66715686 0.62794118 0.59215686
0.67745098 0.63823529 0.60637255
0.45490196 0.4254902 0.40196078
0.45955882 0.43014706 0.40661765
0.46372549 0.43431373 0.41029412
0.47401961 0.44460784 0.41715686
0.48137255 0.45 0.42352941
0.48480392 0.45514706 0.42745098
0.49117647 0.45882353 0.43088235
0.49362745 0.46348039 0.43529412
0.5 0.47058824 0.44117647
0.51029412 0.47892157 0.4495098
0.52058824 0.48921569 0.45980392
0.53259804 0.50122549 0.47009804
0.54607843 0.51372549 0.48039216
0.56127451 0.52622549 0.49264706
0.57352941 0.53823529 0.50588235
0.58921569 0.55245098 0.51715686
0.60980392 0.57058824 0.53529412
0.62720588 0.58480392 0.54558824
0.63823529 0.59509804 0.55196078
0.65220588 0.60539216 0.5622549
0.6627451 0.61960784 0.57745098
0.67303922 0.63382353 0.59485294
0.68333333 0.64754902 0.61078431
0.69362745 0.65833333 0.62696078
0.7 0.66862745 0.63921569
0.51666667 0.48137255 0.45343137
0.51666667 0.48351716 0.45343137
0.5245098 0.48970588 0.45833333
0.53143382 0.49607843 0.4651348
0.53406863 0.49828431 0.46862745
0.53670343 0.50091912 0.46954657
0.54264706 0.50698529 0.47254902
0.54509804 0.5096201 0.47794118
0.55098039 0.51568627 0.48431373
0.55735294 0.52205882 0.49068627
0.56752451 0.53223039 0.49963235
0.57401961 0.54215686 0.50692402
0.58382353 0.54877451 0.51715686
0.59460784 0.5588848 0.52745098
0.60833333 0.57303922 0.5377451
0.62273284 0.58333333 0.54803922
0.64068627 0.60098039 0.5622549
0.65490196 0.61421569 0.57285539
0.66911765 0.62732843 0.5872549
0.68333333 0.64368873 0.60490196
0.69362745 0.65661765 0.61985294
0.70392157 0.66862745 0.63431373
0.71029412 0.67892157 0.64803922
0.72040441 0.68921569 0.6622549
0.72647059 0.6995098 0.67254902
0.57843137 0.53627451 0.50490196
0.58026961 0.53982843 0.50735294
0.58627451 0.54411765 0.50906863
0.58627451 0.54411765 0.50980392
0.5872549 0.54656863 0.51127451
0.58860294 0.54901961 0.51372549
0.59117647 0.55269608 0.51666667
0.59509804 0.55625 0.51911765
0.59607843 0.55686275 0.5254902
0.59705882 0.56139706 0.52830882
0.60196078 0.56666667 0.53504902
0.60833333 0.57340686 0.54166667
0.61470588 0.58333333 0.5495098
0.6254902 0.59362745 0.55833333
0.63921569 0.60392157 0.56862745
0.65490196 0.61568627 0.57892157
0.67156863 0.63137255 0.59313725
0.68578431 0.64620098 0.61029412
0.7 0.66397059 0.62941176
0.71421569 0.67879902 0.64607843
0.72794118 0.69460784 0.66421569
0.73480392 0.7060049 0.67806373
0.74117647 0.71372549 0.68921569
0.74644608 0.72193627 0.6995098
0.75098039 0.72745098 0.70980392
0.62254902 0.58088235 0.54558824
0.62401961 0.58241422 0.5471201
0.62683824 0.58480392 0.5495098
0.62794118 0.58480392 0.55098039
0.62990196 0.58872549 0.55220588
0.63186275 0.59050245 0.5536152
0.63186275 0.59264706 0.55490196
0.63186275 0.59264706 0.55790441
0.63186275 0.59411765 0.56127451
0.63186275 0.59656863 0.56427696
0.63468137 0.6004902 0.56948529
0.63921569 0.60441176 0.57647059
0.64558824 0.61421569 0.58357843
0.65637255 0.6245098 0.59313725
0.67009804 0.63480392 0.60343137
0.68578431 0.64957108 0.61666667
0.70637255 0.66862745 0.63480392
0.72058824 0.68529412 0.65539216
0.73296569 0.70098039 0.67169118
0.74509804 0.71519608 0.69117647
0.75931373 0.73063725 0.70661765
0.76697304 0.74215686 0.72009804
0.77303922 0.75 0.73039216
0.77696078 0.75582108 0.7401348
0.77696078 0.75735294 0.74166667
0.65098039 0.60784314 0.57254902
0.65098039 0.61176471 0.57647059
0.65490196 0.61568627 0.58039216
0.65490196 0.61568627 0.58431373
0.65882353 0.61960784 0.58823529
0.6627451 0.62352941 0.58823529
0.6627451 0.62352941 0.59215686
0.6627451 0.62745098 0.59215686
0.6627451 0.62745098 0.59607843
0.6627451 0.62745098 0.59852941
0.66372549 0.63137255 0.60392157
0.67009804 0.63872549 0.61127451
0.67647059 0.64509804 0.61764706
0.68676471 0.65539216 0.62794118
0.70098039 0.66960784 0.64117647
0.71666667 0.68529412 0.65784314
0.7372549 0.70588235 0.67843137
0.75392157 0.72647059 0.70294118
0.76568627 0.74215686 0.71960784
0.77647059 0.75245098 0.73284314
0.78823529 0.76666667 0.74705882
0.8 0.77696078 0.76127451
0.80392157 0.7872549 0.77156863
0.80637255 0.78823529 0.77647059
0.80392157 0.78823529 0.77254902
0.67794118 0.63872549 0.5995098
0.68094363 0.64264706 0.60588235
0.68186275 0.64546569 0.61127451
0.68314951 0.64656863 0.61519608
0.68651961 0.6504902 0.62034314
0.68970588 0.65441176 0.62334559
0.69301471 0.65735294 0.62659314
0.69362745 0.65833333 0.62941176
0.69117647 0.65833333 0.63088235
0.69117647 0.66078431 0.63425245
0.69362745 0.66323529 0.63578431
0.69754902 0.66960784 0.64479167
0.70539216 0.67916667 0.65490196
0.71764706 0.69019608 0.66519608
0.73088235 0.70343137 0.67879902
0.74754902 0.72254902 0.69901961
0.76813725 0.74313725 0.72352941
0.78627451 0.76427696 0.74748775
0.8004902 0.77977941 0.76433824
0.80735294 0.7877451 0.77401961
0.81715686 0.7995098 0.78504902
0.82745098 0.81176471 0.79852941
0.83235294 0.81813725 0.80698529
0.83180147 0.8161152 0.80435049
0.82843137 0.81519608 0.80343137
0.70784314 0.67058824 0.63823529
0.70882353 0.67352941 0.64105392
0.71176471 0.67745098 0.64607843
0.7127451 0.68088235 0.64963235
0.71617647 0.68137255 0.65441176
0.71703431 0.68529412 0.65882353
0.72058824 0.68921569 0.6625
0.72058824 0.68921569 0.66568627
0.72058824 0.69019608 0.66666667
0.72058824 0.69313725 0.6685049
0.72156863 0.69411765 0.67132353
0.72830882 0.70183824 0.68088235
0.73627451 0.71078431 0.69117647
0.74509804 0.72120098 0.70159314
0.76176471 0.73823529 0.71568627
0.78088235 0.75882353 0.74019608
0.79901961 0.77941176 0.76470588
0.81568627 0.8 0.78823529
0.83112745 0.81568627 0.80686275
0.83333333 0.81862745 0.80943627
0.84313725 0.82843137 0.81862745
0.85428922 0.84117647 0.83333333
0.85588235 0.84117647 0.83333333
0.85294118 0.84080882 0.82941176
0.85196078 0.8372549 0.82941176
0.73578431 0.70441176 0.67647059
0.73609069 0.70655637 0.67910539
0.73970588 0.70833333 0.6817402
0.73970588 0.71176471 0.68474265
0.74191176 0.7122549 0.68848039
0.74754902 0.71660539 0.69307598
0.75061275 0.72009804 0.69914216
0.75147059 0.72401961 0.70177696
0.75147059 0.72401961 0.70392157
0.75147059 0.72401961 0.70392157
0.75245098 0.72757353 0.70539216
0.75882353 0.73529412 0.71568627
0.76911765 0.74558824 0.72941176
0.77941176 0.75631127 0.73970588
0.7935049 0.77303922 0.75686275
0.8096201 0.79362745 0.77794118
0.82598039 0.81029412 0.79852941
0.83707108 0.82530637 0.81568627
0.84656863 0.83480392 0.82696078
0.84699755 0.83523284 0.82696078
0.85637255 0.84460784 0.83676471
0.86666667 0.85490196 0.84705882
0.86617647 0.85441176 0.84656863
0.86488971 0.85441176 0.84656863
0.8627451 0.85441176 0.84264706
0.7627451 0.73921569 0.71372549
0.76470588 0.73921569 0.71764706
0.76666667 0.73921569 0.71764706
0.76666667 0.73921569 0.71960784
0.76960784 0.74313725 0.72156863
0.7747549 0.74754902 0.72794118
0.77990196 0.75392157 0.73480392
0.78504902 0.75882353 0.74117647
0.78235294 0.75882353 0.74117647
0.78235294 0.75882353 0.73921569
0.78284314 0.75980392 0.74166667
0.78970588 0.76985294 0.7504902
0.80098039 0.78137255 0.76666667
0.8125 0.79485294 0.78137255
0.82303922 0.80882353 0.79656863
0.83088235 0.81642157 0.80465686
0.8372549 0.82352941 0.81372549
0.84166667 0.82990196 0.81960784
0.84705882 0.83529412 0.82745098
0.85098039 0.83921569 0.83137255
0.85686275 0.84509804 0.8372549
0.86470588 0.85490196 0.84705882
0.86470588 0.85490196 0.84705882
0.86666667 0.85637255 0.84705882
0.86862745 0.85882353 0.85098039
0.78039216 0.75686275 0.7372549
0.78431373 0.76078431 0.74148284
0.78480392 0.76127451 0.74166667
0.78480392 0.76127451 0.74166667
0.78848039 0.76323529 0.74362745
0.79313725 0.76960784 0.75343137
0.7995098 0.77598039 0.76029412
0.80392157 0.78039216 0.76470588
0.80392157 0.78039216 0.76519608
0.80392157 0.78039216 0.76470588
0.80404412 0.7817402 0.76605392
0.81127451 0.79166667 0.77598039
0.81911765 0.80147059 0.7877451
0.82653186 0.81084559 0.7995098
0.8307598 0.81519608 0.8060049
0.83480392 0.82058824 0.8091299
0.83872549 0.82352941 0.81519608
0.84136029 0.82990196 0.81960784
0.84669118 0.83529412 0.82708333
0.85091912 0.83921569 0.83137255
0.85661765 0.84534314 0.8372549
0.8627451 0.85140931 0.84356618
0.8627451 0.85477941 0.84693627
0.86403186 0.85490196 0.84705882
0.86666667 0.85833333 0.8504902
0.78431373 0.76078431 0.74117647
0.78615196 0.76323529 0.74362745
0.78897059 0.76789216 0.74901961
0.79215686 0.76862745 0.75159314
0.79362745 0.77009804 0.75392157
0.8 0.77647059 0.75992647
0.80392157 0.78039216 0.76446078
0.80392157 0.78039216 0.76470588
0.80392157 0.78039216 0.76862745
0.80392157 0.78431373 0.76862745
0.80392157 0.78431373 0.76862745
0.80477941 0.7877451 0.77254902
0.80490196 0.78872549 0.77696078
0.80637255 0.79068627 0.77892157
0.81568627 0.8002451 0.78921569
0.82205882 0.81029412 0.79852941
0.83137255 0.81666667 0.80882353
0.83811275 0.82598039 0.81629902
0.84338235 0.83235294 0.8245098
0.8504902 0.83884804 0.8310049
0.85490196 0.84558824 0.8372549
0.85882353 0.85098039 0.84313725
0.85980392 0.85171569 0.84387255
0.8627451 0.85490196 0.84705882
0.8627451 0.85490196 0.84705882
0.78431373 0.76078431 0.74117647
0.78676471 0.76378676 0.74509804
0.79215686 0.76862745 0.75
0.79577206 0.77254902 0.75422794
0.79877451 0.7752451 0.75759804
0.8 0.77696078 0.76078431
0.80392157 0.78039216 0.76372549
0.80392157 0.78039216 0.76470588
0.80392157 0.78039216 0.76470588
0.80392157 0.78431373 0.76862745
0.80392157 0.78431373 0.76960784
0.80392157 0.78431373 0.77254902
0.80392157 0.7875 0.77254902
0.80441176 0.78872549 0.77696078
0.81078431 0.79509804 0.78431373
0.81868873 0.80539216 0.79362745
0.82745098 0.81568627 0.80392157
0.83382353 0.82205882 0.81421569
0.84019608 0.83137255 0.82058824
0.84705882 0.83872549 0.82959559
0.85294118 0.84509804 0.8372549
0.85882353 0.85098039 0.84313725
0.85882353 0.85098039 0.84313725
0.85882353 0.85245098 0.84460784
0.8627451 0.85490196 0.84705882
0.78431373 0.76078431 0.74117647
0.78823529 0.76470588 0.74509804
0.79215686 0.76862745 0.75
0.79607843 0.77254902 0.75637255
0.8 0.78039216 0.76078431
0.8 0.77696078 0.76078431
0.80392157 0.78039216 0.76372549
0.80392157 0.78039216 0.76470588
0.80392157 0.78039216 0.76470588
0.80392157 0.78431373 0.76862745
0.80392157 0.78431373 0.76862745
0.80392157 0.78431373 0.77254902
0.80392157 0.78823529 0.77254902
0.80441176 0.78872549 0.77696078
0.81078431 0.79607843 0.78431373
0.81715686 0.80539216 0.79362745
0.82745098 0.81176471 0.80392157
0.83382353 0.82205882 0.81421569
0.84019608 0.82843137 0.82058824
0.84656863 0.83872549 0.82745098
0.85294118 0.84509804 0.8372549
0.85882353 0.85098039 0.84313725
0.85882353 0.85098039 0.84313725
0.86029412 0.85245098 0.84460784
0.8627451 0.85490196 0.84705882
0.013235294 0.013235294 0.011764706
0.018688725 0.017156863 0.017156863
0.017156863 0.016789216 0.016789216
0.011948529 0.011948529 0.011948529
0.025490196 0.025490196 0.024264706
0.051960784 0.051960784 0.05067402
0.076102941 0.075 0.07254902
0.092585784 0.092585784 0.089215686
0.10833333 0.10833333 0.10441176
0.125 0.12346814 0.11862745
0.13884804 0.13492647 0.1310049
0.16176471 0.15441176 0.1504902
0.19411765 0.18627451 0.17843137
0.22892157 0.21715686 0.20539216
0.25980392 0.24411765 0.23235294
0.29068627 0.275 0.25931373
0.33578431 0.31617647 0.29656863
0.38333333 0.36035539 0.3377451
0.42928922 0.39963235 0.3754902
0.46127451 0.43020833 0.40275735
0.49215686 0.46078431 0.42941176
0.52254902 0.4872549 0.45196078
0.54313725 0.50490196 0.4689951
0.56072304 0.51911765 0.48137255
0.57009804 0.52941176 0.49019608
0.014215686 0.013296569 0.013296569
0.020565257 0.020358456 0.018711703
0.025490196 0.025490196 0.02489277
0.032169118 0.031862745 0.031058517
0.045343137 0.045343137 0.043382353
0.064705882 0.064590993 0.061703431
0.083226103 0.082123162 0.08091299
0.096568627 0.096568627 0.09285386
0.10833333 0.10741422 0.10441176
0.12442555 0.12220435 0.11770833
0.14947917 0.14541973 0.14042586
0.17480852 0.16636795 0.16009498
0.20122549 0.19019608 0.18235294
0.23154871 0.21715686 0.20882353
0.25796569 0.24434743 0.23051471
0.29068627 0.275 0.25931373
0.33578431 0.31617647 0.29656863
0.38333333 0.35847886 0.3377451
0.42708333 0.39901961 0.3754902
0.46127451 0.42990196 0.40275735
0.49460784 0.46078431 0.42941176
0.52511489 0.4872549 0.45410539
0.54457721 0.5055913 0.46960784
0.56168045 0.51966912 0.48382353
0.57254902 0.53033088 0.49166667
0.025612745 0.025 0.025
0.037132353 0.03515625 0.034313725
0.04932598 0.048621324 0.046691176
0.06083027 0.059191176 0.057306985
0.073039216 0.071384804 0.069117647
0.08783701 0.08583027 0.083838848
0.10294118 0.10147059 0.098651961
0.11282169 0.11176471 0.10784314
0.12205882 0.12022059 0.11568627
0.13762255 0.13480392 0.13088235
0.16559436 0.16004902 0.153125
0.18944547 0.18003983 0.17242647
0.20980392 0.19803922 0.18982843
0.23806679 0.22303922 0.21384804
0.26596201 0.2518076 0.23897059
0.29748775 0.28180147 0.26588542
0.34105392 0.32144608 0.30183824
0.38962929 0.36548713 0.34301471
0.43391544 0.40438113 0.38002451
0.46617647 0.43480392 0.40703125
0.4997549 0.46568627 0.43382353
