site/assets/luts/natron-haldclut--kodak2393-constlclip--90604e797.cube
# LUTr-Project: LUTr — LUTrepository
# LUTr-Schema-Version: 1
# LUTr-ID: natron-haldclut--kodak2393-constlclip--90604e797
# LUTr-Title: kodak2393 constlclip
# LUTr-Collection: Natron HaldCLUT
# LUTr-Collection-ID: natron-haldclut-presets
# LUTr-Source: https://github.com/NatronGitHub/clut
# LUTr-Source-File: submissions/natron-haldclut-presets/print/kodak2393_constlclip.png
# LUTr-Source-Format: PNG
# LUTr-Source-SHA256: b39546b1c527754035450079293ce3433fbbfed70169f7bff06914b21b9aad8d
# LUTr-License: CC-BY-SA-4.0
# LUTr-License-URL: https://github.com/NatronGitHub/clut#license
# LUTr-Tags: creative, film, film-emulation, hald-clut, natron, png, cube
# LUTr-Transform-Class: film-emulation
# LUTr-Input-Color-Space: srgb
# LUTr-Output-Color-Space: srgb
# LUTr-Color-Space-Confidence: assumed-display-referred
# LUTr-Conversion-Method: PNG LUT image decoded at 16-bit and sampled to 25x25x25 3D CUBE
# LUTr-Conversion-Date: 2026-07-27
# LUTr-Conversion-Tool: LUTr scripts/convert-all-to-cube.mjs
# LUTr-Conversion-Grid: 25x25x25
# LUTr-Note: Preserve this metadata and the upstream license notices when redistributing.
TITLE "kodak2393 constlclip"
LUT_3D_SIZE 5
DOMAIN_MIN 0 0 0
DOMAIN_MAX 1 1 1
0.0078431373 0.015686275 0.019607843
0.061764706 0.031372549 0.011764706
0.27647059 0.080392157 0.0039215686
0.47254902 0.10588235 0.012745098
0.52156863 0.11372549 0.011764706
0.011764706 0.061764706 0.042156863
0.078676471 0.088970588 0.012009804
0.38970588 0.16421569 0.0088235294
0.58823529 0.19019608 0.0075980392
0.6372549 0.21372549 0.00098039216
0.011764706 0.20588235 0.10588235
0.018627451 0.30490196 0.062254902
0.55588235 0.46372549 0.0019607843
0.77254902 0.50980392 0.024019608
0.83137255 0.54705882 0.0098039216
0.015686275 0.35 0.16568627
0.015686275 0.48039216 0.10098039
0.65147059 0.69509804 0.0078431373
0.89926471 0.76568627 0.067647059
0.94215686 0.7745098 0.071568627
0 0.44313725 0.2
0.22352941 0.60098039 0.0049019608
0.69803922 0.74509804 0.0039215686
0.94607843 0.82352941 0.093137255
0.96862745 0.81960784 0.098039216
0.00098039216 0.031372549 0.053921569
0.059803922 0.024509804 0.079411765
0.32892157 0.010784314 0.064215686
0.52083333 0.042156863 0.075735294
0.57156863 0.031372549 0.085294118
0.015441176 0.076470588 0.081372549
0.052941176 0.099019608 0.10196078
0.44987745 0.12071078 0.066176471
0.68596814 0.018811275 0.0053308824
0.74460784 0.084313725 0.0044117647
0.018137255 0.25 0.17401961
0.013970588 0.34129902 0.1620098
0.6 0.49754902 0.011764706
0.86139706 0.52683824 0.0026960784
0.90784314 0.57058824 0.037745098
0.025735294 0.36666667 0.23897059
0.019607843 0.51783088 0.24050245
0.66973039 0.75208333 0.00073529412
0.96084559 0.80882353 0.022058824
0.99730392 0.82647059 0.012254902
0.0088235294 0.53235294 0.3872549
0.019117647 0.65514706 0.3747549
0.69117647 0.82254902 0.2995098
0.9870098 0.8745098 0.23308824
0.99901961 0.88529412 0.37745098
0.0078431373 0.094117647 0.17843137
0.040196078 0.010784314 0.27009804
0.36666667 0.0039215686 0.34215686
0.54705882 0.023529412 0.35
0.61764706 0.015686275 0.38627451
0 0.15686275 0.25098039
0.020955882 0.14264706 0.3435049
0.45931373 0.11911765 0.44705882
0.70833333 0.0099264706 0.45784314
0.75735294 0.10784314 0.48235294
0.02254902 0.33333333 0.38529412
0.020343137 0.42794118 0.47279412
0.56666667 0.57009804 0.575
0.8875 0.6 0.57426471
0.93627451 0.63431373 0.59313725
0 0.4754902 0.48382353
0.0039215686 0.62340686 0.58002451
0.58039216 0.83823529 0.6372549
0.95980392 0.89485294 0.63676471
1 0.90588235 0.66078431
0 0.59411765 0.60784314
0.012745098 0.72254902 0.68235294
0.61960784 0.88823529 0.73137255
0.9627451 0.94705882 0.74117647
1 0.95098039 0.75294118
0 0.14215686 0.27254902
0.0036764706 0.059313725 0.39019608
0.35539216 0.030392157 0.48431373
0.57941176 0.042401961 0.5245098
0.65490196 0.041176471 0.57058824
0 0.21862745 0.37083333
0.0094362745 0.20686275 0.47432598
0.46029412 0.10379902 0.67708333
0.72077206 0.0042892157 0.69295343
0.78137255 0.068872549 0.72058824
0.030392157 0.40098039 0.52843137
0.025122549 0.4872549 0.65147059
0.53651961 0.60588235 0.84240196
0.87647059 0.63137255 0.85686275
0.92647059 0.66176471 0.86862745
0.03627451 0.55392157 0.64019608
0.046078431 0.66905637 0.74466912
0.53627451 0.8875 0.91237745
0.93627451 0.94387255 0.92653186
0.99215686 0.9502451 0.92843137
0.032352941 0.65490196 0.73333333
0.0017156863 0.76887255 0.83259804
0.56764706 0.92352941 0.93529412
0.93112745 0.98137255 0.9502451
0.99607843 0.98823529 0.94313725
0 0.17254902 0.32941176
0.0029411765 0.18039216 0.39117647
0.38039216 0.02745098 0.55294118
0.64117647 0.02254902 0.63137255
0.69803922 0.043137255 0.65882353
0 0.24803922 0.4127451
0.0022058824 0.26568627 0.50906863
0.46960784 0.15490196 0.74803922
0.7502451 0.12867647 0.77892157
0.79803922 0.15490196 0.79313725
0.011764706 0.42745098 0.56862745
0.036764706 0.49852941 0.66617647
0.52745098 0.61666667 0.9
0.87647059 0.64411765 0.92107843
0.93333333 0.68235294 0.93529412
0.029411765 0.57647059 0.6745098
0.026715686 0.68210784 0.77941176
0.5 0.89166667 0.96470588
0.93137255 0.95098039 0.98823529
0.99607843 0.96862745 0.99215686
0.011764706 0.6627451 0.75294118
0.026470588 0.7627451 0.84509804
0.54509804 0.92745098 0.9745098
0.92843137 0.98431373 0.98921569
0.99607843 1 1
