site/assets/luts/natron-haldclut--fuji-superia-100---d75d7cddd.cube
# LUTr-Project: LUTr — LUTrepository
# LUTr-Schema-Version: 1
# LUTr-ID: natron-haldclut--fuji-superia-100---d75d7cddd
# LUTr-Title: fuji superia 100 -
# LUTr-Collection: Natron HaldCLUT
# LUTr-Collection-ID: natron-haldclut-presets
# LUTr-Source: https://github.com/NatronGitHub/clut
# LUTr-Source-File: submissions/natron-haldclut-presets/negative_old/fuji_superia_100_-.png
# LUTr-Source-Format: PNG
# LUTr-Source-SHA256: e09e80ef1f935e33d8083902b5a318a59e211977b9084651405007411faa4ccb
# LUTr-License: CC-BY-SA-4.0
# LUTr-License-URL: https://github.com/NatronGitHub/clut#license
# LUTr-Tags: creative, film, film-emulation, hald-clut, natron, png, cube
# LUTr-Transform-Class: film-emulation
# LUTr-Input-Color-Space: srgb
# LUTr-Output-Color-Space: srgb
# LUTr-Color-Space-Confidence: assumed-display-referred
# LUTr-Conversion-Method: PNG LUT image decoded at 16-bit and sampled to 25x25x25 3D CUBE
# LUTr-Conversion-Date: 2026-07-27
# LUTr-Conversion-Tool: LUTr scripts/convert-all-to-cube.mjs
# LUTr-Conversion-Grid: 25x25x25
# LUTr-Note: Preserve this metadata and the upstream license notices when redistributing.
TITLE "fuji superia 100 -"
LUT_3D_SIZE 25
DOMAIN_MIN 0 0 0
DOMAIN_MAX 1 1 1
0.0039215686 0.0039215686 0
0.026960784 0.010294118 0.0039215686
0.052941176 0.016666667 0.0039215686
0.07745098 0.019607843 0.0039215686
0.10196078 0.017647059 0.0019607843
0.12843137 0.015686275 0
0.19411765 0.019607843 0.0068627451
0.25441176 0.019607843 0.0078431373
0.30980392 0.015686275 0.0039215686
0.36127451 0.034803922 0.0039215686
0.4127451 0.056862745 0.0029411765
0.46421569 0.074019608 0
0.50980392 0.074509804 0
0.55882353 0.070588235 0
0.60392157 0.073529412 0
0.64509804 0.087745098 0.0053921569
0.68235294 0.10588235 0.0078431373
0.72107843 0.12254902 0.014215686
0.75980392 0.13823529 0.011764706
0.79803922 0.14852941 0.0044117647
0.83333333 0.15882353 0
0.86813725 0.16519608 0
0.90294118 0.1754902 0
0.93921569 0.18186275 0
0.96862745 0.18823529 0
0.0078431373 0.016666667 0.0039215686
0.028431373 0.024509804 0.0072916667
0.049387255 0.030514706 0.0078431373
0.074816176 0.035784314 0.0078431373
0.09754902 0.03872549 0.006372549
0.13235294 0.041176471 0.006372549
0.19411765 0.044485294 0.010294118
0.25533088 0.046568627 0.014215686
0.30980392 0.049019608 0.010294118
0.36372549 0.064767157 0.0053921569
0.41666667 0.084926471 0.0035539216
0.46685049 0.094914216 0.0039215686
0.51495098 0.098284314 0.0039215686
0.56305147 0.09754902 0.0039215686
0.60968137 0.099387255 0.0039215686
0.64846814 0.11078431 0.0053921569
0.68627451 0.12254902 0.0078431373
0.72444853 0.13676471 0.011764706
0.76078431 0.14705882 0.011764706
0.79834559 0.15520833 0.0078431373
0.83529412 0.16323529 0.0019607843
0.86813725 0.17156863 0
0.90294118 0.18186275 0
0.94074755 0.19460784 0
0.97254902 0.20490196 0
0.0029411765 0.028431373 0.0029411765
0.022916667 0.040686275 0.006372549
0.040196078 0.056617647 0.011764706
0.060784314 0.070098039 0.012622549
0.089705882 0.07745098 0.019607843
0.13639706 0.082352941 0.015808824
0.20269608 0.082352941 0.020343137
0.25931373 0.085661765 0.020588235
0.31372549 0.090196078 0.012745098
0.36911765 0.099509804 0.0039215686
0.42156863 0.1127451 0.0041666667
0.47303922 0.1192402 0.0078431373
0.52058824 0.12352941 0.0078431373
0.56813725 0.12855392 0.0088235294
0.6127451 0.13308824 0.0078431373
0.65355392 0.14375 0.0039215686
0.69117647 0.15588235 0.0078431373
0.72781863 0.1622549 0.0096813725
0.76544118 0.17254902 0.01004902
0.80196078 0.17928922 0.0044117647
0.83578431 0.18480392 0.0039215686
0.87218137 0.19154412 0.0013480392
0.90759804 0.20098039 0.00098039216
0.94411765 0.21556373 0
0.97647059 0.22647059 0
0 0.075490196 0.0073529412
0.010294118 0.086090686 0.013419118
0.021691176 0.10061275 0.011764706
0.039644608 0.11127451 0.012193627
0.079656863 0.11519608 0.026470588
0.13676471 0.12052696 0.020036765
0.20588235 0.12352941 0.026102941
0.26960784 0.12371324 0.027267157
0.32107843 0.13137255 0.019117647
0.37303922 0.14117647 0.0053921569
0.42794118 0.14411765 0.0074754902
0.47941176 0.14748775 0.01127451
0.52916667 0.15514706 0.013480392
0.57794118 0.15980392 0.025122549
0.61911765 0.16703431 0.0096813725
0.65900735 0.17647059 0.0039215686
0.69754902 0.18676471 0.0039215686
0.73480392 0.19313725 0.0044117647
0.77120098 0.19987745 0.0069852941
0.80545343 0.20637255 0.0039215686
0.83897059 0.2122549 0.0039215686
0.87555147 0.21862745 0.0039215686
0.91335784 0.2254902 0.0039215686
0.9504902 0.2372549 0
0.98039216 0.25 0
0 0.13529412 0.0058823529
0.0051470588 0.14558824 0.016911765
0.0098039216 0.15098039 0.020588235
0.01495098 0.15294118 0.0083333333
0.056862745 0.15784314 0.010784314
0.12916667 0.1629902 0.019852941
0.20490196 0.16666667 0.026470588
0.27352941 0.16740196 0.02745098
0.3254902 0.17647059 0.025490196
0.37818627 0.18872549 0.015196078
0.43823529 0.19362745 0.012254902
0.48970588 0.19387255 0.014215686
0.5372549 0.19901961 0.014705882
0.58235294 0.20220588 0.013480392
0.62352941 0.20392157 0.0049019608
0.6627451 0.21053922 0
0.70196078 0.21764706 0
0.73921569 0.22401961 0.0019607843
0.77745098 0.22941176 0.0019607843
0.81029412 0.23333333 0
0.84411765 0.23921569 0.0039215686
0.88014706 0.24558824 0.0039215686
0.91764706 0.25441176 0.0039215686
0.95490196 0.2622549 0.0012254902
0.99019608 0.27058824 0
0 0.19166667 0.0083333333
0 0.19901961 0.02254902
0 0.20281863 0.023039216
0 0.19859069 0.0093137255
0.042156863 0.20269608 0.0066176471
0.12101716 0.21470588 0.016176471
0.19656863 0.22120098 0.023039216
0.26568627 0.22383578 0.020894608
0.32156863 0.22990196 0.026960784
0.38596814 0.23645833 0.021078431
0.4495098 0.24558824 0.011764706
0.5004902 0.24558824 0.015196078
0.54754902 0.24558824 0.017892157
0.59068627 0.24601716 0.016115196
0.63186275 0.25208333 0.0093137255
0.67126225 0.25704657 0.0039215686
0.70637255 0.26078431 0.0039215686
0.74491422 0.26341912 0.0014705882
0.78333333 0.26470588 0
0.81421569 0.26427696 0.00049019608
0.84730392 0.26813725 0.0039215686
0.88082108 0.27555147 0.0039215686
0.91862745 0.28284314 0.0039215686
0.95735294 0.29313725 0.0041053922
0.9877451 0.3 0.0044117647
0 0.25686275 0.019607843
0 0.26078431 0.029289216
0 0.26078431 0.033333333
0 0.26078431 0.032352941
0.021568627 0.26421569 0.030882353
0.091544118 0.27267157 0.026102941
0.18553922 0.27352941 0.013480392
0.2564951 0.27745098 0.012745098
0.31764706 0.28529412 0.016666667
0.38615196 0.29166667 0.020710784
0.45367647 0.29705882 0.017892157
0.50735294 0.29448529 0.015686275
0.55441176 0.29313725 0.019607843
0.60098039 0.2932598 0.022181373
0.63995098 0.29779412 0.01495098
0.67941176 0.30306373 0.0057598039
0.71666667 0.30588235 0.0039215686
0.75208333 0.30588235 0
0.78651961 0.30588235 0.0031862745
0.81813725 0.30196078 0.0039215686
0.84901961 0.30196078 0.0039215686
0.88382353 0.30343137 0.0039215686
0.91862745 0.31372549 0.0075980392
0.9567402 0.32401961 0.0089460784
0.98137255 0.33431373 0.010784314
0 0.31862745 0.024509804
0 0.32015931 0.041237745
0.0014705882 0.32144608 0.054901961
0.0039215686 0.32254902 0.057843137
0.0051470588 0.32647059 0.050490196
0.041176471 0.33039216 0.038419118
0.1627451 0.32708333 0.014705882
0.24656863 0.33039216 0.0074142157
0.3122549 0.33676471 0.02254902
0.37886029 0.34068627 0.028002451
0.44509804 0.34460784 0.023529412
0.50686275 0.34460784 0.016176471
0.55686275 0.34191176 0.015686275
0.60196078 0.34460784 0.015502451
0.64313725 0.34644608 0.012377451
0.68578431 0.34761029 0.0054534314
0.72303922 0.35098039 0
0.75637255 0.34705882 0.00091911765
0.78933824 0.34607843 0.0039215686
0.82205882 0.34313725 0.0052083333
0.85441176 0.34191176 0.0046568627
0.88792892 0.34313725 0.0056985294
0.92193627 0.34889706 0.0089460784
0.95735294 0.36029412 0.011764706
0.98039216 0.36911765 0.011764706
0.0039215686 0.38039216 0.090196078
0.0039215686 0.38039216 0.08627451
0.0039215686 0.38039216 0.090196078
0.0039215686 0.38039216 0.086764706
0 0.38431373 0.07254902
0.0088235294 0.38823529 0.066666667
0.13235294 0.38529412 0.060784314
0.23137255 0.38823529 0.053431373
0.30588235 0.38823529 0.043137255
0.3754902 0.38823529 0.032843137
0.44117647 0.39215686 0.02745098
0.50294118 0.39215686 0.020098039
0.55686275 0.39215686 0.011764706
0.59803922 0.39607843 0.0078431373
0.64313725 0.39607843 0.0049019608
0.68578431 0.39460784 0.0039215686
0.7254902 0.39215686 0.0039215686
0.76029412 0.38823529 0.0039215686
0.79509804 0.38823529 0.0039215686
0.82598039 0.38431373 0.0073529412
0.86078431 0.38431373 0.0078431373
0.89558824 0.38480392 0.0078431373
0.93039216 0.38823529 0.010784314
0.96519608 0.39754902 0.011764706
0.98039216 0.40392157 0.011764706
0.0039215686 0.43823529 0.14166667
0.0039215686 0.43823529 0.13829657
0.0039215686 0.43860294 0.13529412
0.0039215686 0.43970588 0.12794118
0.0083333333 0.44215686 0.12205882
0.015563725 0.44375 0.12432598
0.094485294 0.44607843 0.11556373
0.21231618 0.44754902 0.10729167
0.28921569 0.44852941 0.11764706
0.36856618 0.4372549 0.057414216
0.43480392 0.43970588 0.047794118
0.49509804 0.44129902 0.035355392
0.55490196 0.44117647 0.0066176471
0.59803922 0.44362745 0.0042279412
0.63737745 0.44178922 0.0099264706
0.67886029 0.43878676 0.017218137
0.72303922 0.43578431 0.010294118
0.7627451 0.43333333 0.0039215686
0.79607843 0.43125 0.0039215686
0.82990196 0.42941176 0.0060661765
0.86715686 0.42941176 0.0046568627
0.90214461 0.43186275 0.0078431373
0.93786765 0.43333333 0.010784314
0.97156863 0.4372549 0.011764706
0.98431373 0.44117647 0.011764706
0.0039215686 0.49509804 0.18333333
0.0039215686 0.49571078 0.17941176
0.0039215686 0.49607843 0.1747549
0.0039215686 0.49901961 0.17254902
0.0034313725 0.4995098 0.16862745
0.0025735294 0.50343137 0.16470588
0.043627451 0.50392157 0.16102941
0.1872549 0.50085784 0.15392157
0.26960784 0.49509804 0.14705882
0.35098039 0.48872549 0.12708333
0.4245098 0.4872549 0.11470588
0.48627451 0.4872549 0.082965686
0.54509804 0.48872549 0.040196078
0.58921569 0.4872549 0.028431373
0.62965686 0.4872549 0.031372549
0.67156863 0.48627451 0.027941176
0.71666667 0.48333333 0.017647059
0.75882353 0.47941176 0.0053921569
0.79607843 0.47843137 0.0029411765
0.83345588 0.47585784 0.0039215686
0.8754902 0.4745098 0.0034313725
0.90870098 0.47585784 0.0044117647
0.94289216 0.47843137 0.010784314
0.97696078 0.48235294 0.0096813725
0.98431373 0.48235294 0.011764706
0.0039215686 0.54656863 0.21078431
0.0039215686 0.5504902 0.21029412
0.0039215686 0.55134804 0.21372549
0.0039215686 0.55392157 0.21372549
0 0.55441176 0.21151961
0.00085784314 0.55441176 0.20974265
0.033210784 0.55441176 0.20588235
0.14754902 0.5504902 0.20410539
0.24852941 0.54656863 0.20147059
0.3341299 0.53872549 0.19068627
0.41164216 0.53480392 0.18676471
0.47598039 0.53480392 0.15147059
0.52794118 0.53480392 0.1122549
0.575 0.53137255 0.08682598
0.61617647 0.53137255 0.080759804
0.6591299 0.52745098 0.066666667
0.70637255 0.52745098 0.045098039
0.75392157 0.52481618 0.015012255
0.79987745 0.52352941 0.0034313725
0.8372549 0.52310049 0.0073529412
0.88186275 0.51960784 0.0056372549
0.91470588 0.51960784 0.0074142157
0.94607843 0.52340686 0.0088235294
0.97941176 0.52481618 0.0078431373
0.9877451 0.52745098 0.0078431373
0 0.59803922 0.2372549
0 0.60196078 0.24558824
0.0024509804 0.60588235 0.25343137
0.0039215686 0.60588235 0.25661765
0.0039215686 0.60588235 0.25490196
0.0066176471 0.60367647 0.25269608
0.025 0.60196078 0.24754902
0.10882353 0.59730392 0.24705882
0.21372549 0.59215686 0.24509804
0.31813725 0.58504902 0.23995098
0.39901961 0.57990196 0.23529412
0.45808824 0.57671569 0.21151961
0.50980392 0.57647059 0.1745098
0.56078431 0.57598039 0.14828431
0.60588235 0.57254902 0.13431373
0.64852941 0.57107843 0.11666667
0.69607843 0.56862745 0.096078431
0.74240196 0.56470588 0.070833333
0.79019608 0.56568627 0.057843137
0.83137255 0.56862745 0.056862745
0.87254902 0.56470588 0.054901961
0.91176471 0.56470588 0.038235294
0.95294118 0.56666667 0.014215686
0.98455882 0.56862745 0.0058823529
0.98823529 0.56862745 0.0078431373
0.0039215686 0.64558824 0.28431373
0.0039215686 0.64932598 0.28823529
0.0039215686 0.65294118 0.29571078
0.0039215686 0.65294118 0.2995098
0.0039215686 0.65343137 0.29607843
0.0034926471 0.65294118 0.29215686
0 0.64914216 0.28529412
0.072058824 0.64381127 0.28382353
0.19901961 0.6377451 0.27990196
0.30343137 0.63137255 0.27352941
0.37696078 0.62598039 0.26311275
0.43572304 0.62248775 0.24901961
0.49509804 0.61985294 0.23333333
0.54705882 0.61764706 0.20588235
0.59460784 0.61372549 0.18909314
0.63823529 0.6096201 0.17224265
0.68578431 0.60588235 0.15196078
0.73088235 0.60196078 0.13400735
0.77696078 0.6067402 0.12340686
0.82542892 0.60980392 0.10931373
0.87009804 0.61004902 0.10245098
0.90778186 0.61029412 0.087745098
0.94852941 0.61029412 0.060784314
0.98498775 0.61029412 0.034803922
0.98823529 0.61372549 0.038235294
0.0039215686 0.69019608 0.3254902
0.0039215686 0.69411765 0.32941176
0.0068627451 0.69485294 0.33357843
0.0042892157 0.69803922 0.3372549
0.0039215686 0.69803922 0.3372549
0.0039215686 0.69754902 0.33296569
0.01127451 0.69411765 0.32647059
0.076348039 0.68982843 0.31764706
0.18529412 0.68627451 0.31078431
0.28247549 0.68137255 0.30441176
0.35073529 0.67426471 0.29387255
0.41470588 0.66973039 0.28284314
0.47598039 0.66617647 0.27254902
0.53284314 0.66139706 0.25821078
0.58431373 0.65563725 0.24313725
0.62794118 0.64767157 0.22745098
0.6754902 0.64313725 0.21078431
0.71911765 0.64019608 0.19595588
0.76887255 0.64485294 0.18063725
0.81813725 0.65061275 0.16727941
0.86519608 0.65490196 0.15245098
0.90355392 0.65490196 0.13970588
0.93897059 0.65490196 0.1247549
0.97365196 0.65490196 0.10539216
0.98431373 0.65490196 0.10392157
0.0039215686 0.73382353 0.36519608
0.0039215686 0.73529412 0.36819853
0.0067401961 0.73811275 0.37120098
0.0078431373 0.73792892 0.37089461
0.0058823529 0.7377451 0.37034314
0.015073529 0.73529412 0.36911765
0.030882353 0.73529412 0.3622549
0.1 0.73137255 0.35490196
0.20147059 0.72745098 0.35098039
0.27738971 0.72444853 0.34160539
0.33921569 0.71960784 0.33431373
0.40343137 0.71568627 0.3254902
0.46519608 0.71176471 0.31764706
0.52254902 0.70753676 0.30471814
0.57401961 0.70098039 0.28958333
0.62009804 0.69123775 0.27647059
0.66519608 0.68431373 0.2622549
0.70882353 0.67892157 0.25196078
0.75637255 0.68321078 0.23676471
0.80784314 0.68805147 0.21991422
0.85343137 0.69411765 0.20539216
0.89589461 0.69607843 0.19656863
0.93223039 0.7 0.18627451
0.96672794 0.69754902 0.17205882
0.97892157 0.7 0.17352941
0.0039215686 0.77254902 0.4
0.0039215686 0.77647059 0.40392157
0.0049019608 0.77647059 0.40392157
0.01127451 0.77647059 0.40392157
0.0058823529 0.77647059 0.4
0.0053921569 0.77647059 0.39607843
0.040196078 0.77647059 0.39313725
0.10637255 0.77254902 0.38823529
0.20784314 0.76470588 0.38823529
0.29558824 0.76078431 0.38578431
0.35 0.76078431 0.37941176
0.40147059 0.75735294 0.37254902
0.45686275 0.75686275 0.3627451
0.5122549 0.75294118 0.35196078
0.56372549 0.74607843 0.33529412
0.60980392 0.73578431 0.32401961
0.65490196 0.72941176 0.31372549
0.7 0.72303922 0.30098039
0.74607843 0.72156863 0.28431373
0.79362745 0.72892157 0.26764706
0.84117647 0.73333333 0.25490196
0.88431373 0.7372549 0.2504902
0.9254902 0.74019608 0.24411765
0.96127451 0.74117647 0.23382353
0.98431373 0.74117647 0.22745098
0.0039215686 0.80980392 0.43480392
0.0039215686 0.81372549 0.43480392
0.0020833333 0.81482843 0.43480392
0.01127451 0.81372549 0.43480392
0.014705882 0.81127451 0.43088235
0.016911765 0.81127451 0.42677696
0.066789216 0.81017157 0.42659314
0.13927696 0.80735294 0.42941176
0.22058824 0.80588235 0.42941176
0.30833333 0.80196078 0.42941176
0.36776961 0.79914216 0.4245098
0.41256127 0.79803922 0.41666667
0.45735294 0.79803922 0.40637255
0.50196078 0.79754902 0.39577206
0.55159314 0.79117647 0.38039216
0.59797794 0.78333333 0.36911765
0.64460784 0.77696078 0.35882353
0.69307598 0.77303922 0.34552696
0.73762255 0.7685049 0.32830882
0.78333333 0.76666667 0.3122549
0.82892157 0.77132353 0.30122549
0.87401961 0.7745098 0.29852941
0.91813725 0.77843137 0.29497549
0.95790441 0.78235294 0.2901348
0.98431373 0.78235294 0.28284314
0 0.84705882 0.46568627
0.011887255 0.85 0.46666667
0.016421569 0.85 0.46666667
0.050490196 0.84742647 0.46666667
0.083823529 0.84607843 0.46666667
0.10919118 0.84607843 0.46666667
0.13553922 0.84313725 0.46666667
0.19019608 0.84215686 0.47058824
0.25098039 0.84215686 0.47058824
0.32107843 0.84031863 0.4745098
0.3872549 0.83921569 0.47132353
0.43137255 0.83921569 0.46323529
0.47009804 0.83872549 0.45294118
0.50845588 0.83786765 0.43970588
0.54387255 0.83455882 0.4254902
0.59166667 0.8310049 0.41617647
0.63921569 0.82647059 0.40588235
0.68676471 0.82071078 0.39313725
0.72941176 0.81568627 0.37647059
0.77352941 0.81090686 0.35968137
0.81715686 0.80931373 0.35
0.86384804 0.81213235 0.34963235
0.90955882 0.81544118 0.34632353
0.95392157 0.82071078 0.34178922
0.98529412 0.82352941 0.3372549
0.10294118 0.88088235 0.50392157
0.11041667 0.87714461 0.50784314
0.12512255 0.87708333 0.51127451
0.1504902 0.88088235 0.51127451
0.18137255 0.88088235 0.50784314
0.20484069 0.88039216 0.50784314
0.23529412 0.87696078 0.50784314
0.26292892 0.87696078 0.51176471
0.2995098 0.87696078 0.51568627
0.34442402 0.88039216 0.51568627
0.40392157 0.87647059 0.51556373
0.44852941 0.87647059 0.50833333
0.48921569 0.8747549 0.49803922
0.52604167 0.87254902 0.48811275
0.56078431 0.86911765 0.48088235
0.59754902 0.86862745 0.4745098
0.63921569 0.86470588 0.46764706
0.6846201 0.85863971 0.45343137
0.72855392 0.85588235 0.43823529
0.76715686 0.8495098 0.42457108
0.81029412 0.84730392 0.41078431
0.85735294 0.84908088 0.40447304
0.90232843 0.85245098 0.40110294
0.94754902 0.85735294 0.39344363
0.98529412 0.85784314 0.38921569
0.2372549 0.91568627 0.54509804
0.2372549 0.90931373 0.54901961
0.23431373 0.90343137 0.55343137
0.25171569 0.90563725 0.55294118
0.27745098 0.9127451 0.55
0.30147059 0.91568627 0.54926471
0.32745098 0.91372549 0.55294118
0.35196078 0.91176471 0.55367647
0.3745098 0.91176471 0.55686275
0.39828431 0.91495098 0.55808824
0.42647059 0.91568627 0.56078431
0.46470588 0.9120098 0.55514706
0.50588235 0.90784314 0.54901961
0.54289216 0.90343137 0.54093137
0.57794118 0.9004902 0.53676471
0.6122549 0.9 0.53063725
0.64901961 0.9 0.52352941
0.68186275 0.89681373 0.51323529
0.71960784 0.89411765 0.50098039
0.75710784 0.89019608 0.4872549
0.80098039 0.88627451 0.47647059
0.84754902 0.88431373 0.46446078
0.89558824 0.88431373 0.45588235
0.94117647 0.88357843 0.44828431
0.97058824 0.88431373 0.44705882
0.33333333 0.9377451 0.59068627
0.33511029 0.93431373 0.59442402
0.33026961 0.92941176 0.59816176
0.34803922 0.92996324 0.59803922
0.36666667 0.93602941 0.59460784
0.37647059 0.93731618 0.59454657
0.39313725 0.93431373 0.59448529
0.41764706 0.93431373 0.59822304
0.43823529 0.93431373 0.60196078
0.45882353 0.93645833 0.60196078
0.47941176 0.93786765 0.60330882
0.50300245 0.93823529 0.60202206
0.52916667 0.93480392 0.59632353
0.5588848 0.9338848 0.59019608
0.59276961 0.93088235 0.58676471
0.625 0.93088235 0.58284314
0.65588235 0.93039216 0.57892157
0.69019608 0.93039216 0.56881127
0.72107843 0.92647059 0.55833333
0.75196078 0.92647059 0.54754902
0.79436275 0.92083333 0.53382353
0.84209559 0.9151348 0.52009804
0.89276961 0.91090686 0.51323529
0.92941176 0.90735294 0.50882353
0.95588235 0.91078431 0.50882353
0.41960784 0.95490196 0.63823529
0.42352941 0.95490196 0.64215686
0.42622549 0.95098039 0.64313725
0.43823529 0.95441176 0.64313725
0.44558824 0.95490196 0.64215686
0.45196078 0.95490196 0.64215686
0.45637255 0.95196078 0.63676471
0.47941176 0.95490196 0.64313725
0.50294118 0.95490196 0.64607843
0.51875 0.95490196 0.64607843
0.53823529 0.95490196 0.64779412
0.55796569 0.95490196 0.64742647
0.5754902 0.95735294 0.64264706
0.58909314 0.95882353 0.64117647
0.61348039 0.95882353 0.63823529
0.64558824 0.95490196 0.63615196
0.67647059 0.95490196 0.63431373
0.70735294 0.95098039 0.62512255
0.73504902 0.94705882 0.60882353
0.76262255 0.9432598 0.59178922
0.79901961 0.94313725 0.59068627
0.84509804 0.94178922 0.58480392
0.8879902 0.93455882 0.57156863
0.91911765 0.93431373 0.57058824
0.94215686 0.93529412 0.57352941
0.50588235 0.9754902 0.68578431
0.50980392 0.9754902 0.68915441
0.51372549 0.97156863 0.68970588
0.51979167 0.97401961 0.68970588
0.52352941 0.97279412 0.68970588
0.52794118 0.97371324 0.68952206
0.53088235 0.97156863 0.68578431
0.54564951 0.97303922 0.68878676
0.56568627 0.9754902 0.69215686
0.5745098 0.97156863 0.68823529
0.59362745 0.97438725 0.6942402
0.61078431 0.9754902 0.69362745
0.62745098 0.9754902 0.69681373
0.64558824 0.9754902 0.69754902
0.6627451 0.9754902 0.69571078
0.68278186 0.9754902 0.69215686
0.70245098 0.9754902 0.68578431
0.72794118 0.9754902 0.68333333
0.75453431 0.97058824 0.66568627
0.77843137 0.96764706 0.65214461
0.80343137 0.96764706 0.65122549
0.84509804 0.96734069 0.64901961
0.88186275 0.96127451 0.63541667
0.90882353 0.96127451 0.63627451
0.92794118 0.96127451 0.6377451
0.57647059 0.98823529 0.7254902
0.57892157 0.99068627 0.7254902
0.58431373 0.99117647 0.72941176
0.58039216 0.98823529 0.7254902
0.58431373 0.98823529 0.7254902
0.58823529 0.98823529 0.7254902
0.58823529 0.98823529 0.72156863
0.60833333 0.98970588 0.73088235
0.62352941 0.99215686 0.73333333
0.61960784 0.98823529 0.7254902
0.6372549 0.98823529 0.73039216
0.64705882 0.98823529 0.72990196
0.66470588 0.99215686 0.73529412
0.68333333 0.99264706 0.74558824
0.69705882 0.99313725 0.74215686
0.7127451 0.99215686 0.73333333
0.72941176 0.99215686 0.72941176
0.75 0.99460784 0.72941176
0.77352941 0.99215686 0.72352941
0.79117647 0.98823529 0.70637255
0.81568627 0.98823529 0.70588235
0.84460784 0.99166667 0.7127451
0.8754902 0.98529412 0.69509804
0.90245098 0.98578431 0.69558824
0.92156863 0.98823529 0.69803922
0 0.0024509804 0.0098039216
0.023590686 0.012745098 0.015196078
0.05 0.022058824 0.020098039
0.076960784 0.025980392 0.023039216
0.10196078 0.025980392 0.023039216
0.13694853 0.021752451 0.018627451
0.19411765 0.019607843 0.013357843
0.2504902 0.015686275 0.009375
0.30588235 0.0093137255 0.0039215686
0.35980392 0.028370098 0.0054534314
0.41335784 0.043137255 0.010294118
0.46452206 0.054411765 0.01060049
0.5129902 0.070833333 0.0044117647
0.55931373 0.070098039 0
0.60637255 0.069607843 0
0.64509804 0.085294118 0.0039215686
0.68235294 0.10343137 0.010294118
0.72107843 0.12254902 0.015134804
0.76078431 0.13823529 0.013602941
0.79803922 0.14852941 0.0044117647
0.83529412 0.15882353 0
0.86813725 0.16519608 0
0.90294118 0.1754902 0
0.94258578 0.18186275 0
0.97254902 0.18823529 0
0.0039215686 0.019669118 0.02310049
0.023590686 0.025428922 0.021568627
0.049249387 0.032950368 0.024341299
0.076156556 0.03627451 0.026041667
0.10272672 0.035998775 0.024724265
0.13835018 0.03560815 0.021377145
0.19587929 0.035661765 0.023039216
0.25383732 0.040540748 0.019117647
0.30833333 0.046017157 0.010294118
0.36372549 0.060232843 0.0060278799
0.41819853 0.075551471 0.0067401961
0.46813725 0.084313725 0.0073606005
0.51541054 0.092953431 0.0043811275
0.56457567 0.095029105 0.0024509804
0.61098346 0.096798407 0.0028645833
0.64881281 0.10798866 0.0051853554
0.68627451 0.12107843 0.010294118
0.72387408 0.13284314 0.012339154
0.76078431 0.1439185 0.013602941
0.79815411 0.15490196 0.0080346201
0.83529412 0.16173407 0.0012254902
0.86844363 0.17156863 0
0.90294118 0.18186275 0
0.94224112 0.19307598 0
0.97408088 0.20490196 0
0.0039215686 0.035784314 0.034313725
0.019837623 0.041237745 0.032322304
0.045189951 0.05245098 0.030974265
0.068121936 0.06372549 0.033210784
0.098039216 0.069607843 0.03682598
0.14322917 0.075980392 0.029289216
0.20294118 0.074601716 0.028247549
0.26000306 0.07377451 0.030269608
0.31470588 0.087745098 0.014583333
0.36996017 0.097257966 0.0033088235
0.42156863 0.10863971 0.0046262255
0.47303922 0.11363358 0.0078431373
0.52205882 0.11917892 0.0049019608
0.56801471 0.12532169 0.0056372549
0.6127451 0.13161765 0.0069240196
0.65355392 0.14203431 0.0039215686
0.69117647 0.15232843 0.0078431373
0.72843137 0.16072304 0.010784314
