site/assets/luts/natron-haldclut--kodak-portra-400-vc---057ab3e58.cube
# LUTr-Project: LUTr — LUTrepository
# LUTr-Schema-Version: 1
# LUTr-ID: natron-haldclut--kodak-portra-400-vc---057ab3e58
# LUTr-Title: kodak portra 400 vc -
# LUTr-Collection: Natron HaldCLUT
# LUTr-Collection-ID: natron-haldclut-presets
# LUTr-Source: https://github.com/NatronGitHub/clut
# LUTr-Source-File: submissions/natron-haldclut-presets/negative_old/kodak_portra_400_vc_-.png
# LUTr-Source-Format: PNG
# LUTr-Source-SHA256: c50908cbe6d457459c00091ee50c8479a853161d7641ee91fd333f8dab2c71e7
# LUTr-License: CC-BY-SA-4.0
# LUTr-License-URL: https://github.com/NatronGitHub/clut#license
# LUTr-Tags: creative, film, film-emulation, hald-clut, natron, png, cube
# LUTr-Transform-Class: film-emulation
# LUTr-Input-Color-Space: srgb
# LUTr-Output-Color-Space: srgb
# LUTr-Color-Space-Confidence: assumed-display-referred
# LUTr-Conversion-Method: PNG LUT image decoded at 16-bit and sampled to 25x25x25 3D CUBE
# LUTr-Conversion-Date: 2026-07-27
# LUTr-Conversion-Tool: LUTr scripts/convert-all-to-cube.mjs
# LUTr-Conversion-Grid: 25x25x25
# LUTr-Note: Preserve this metadata and the upstream license notices when redistributing.
TITLE "kodak portra 400 vc -"
LUT_3D_SIZE 25
DOMAIN_MIN 0 0 0
DOMAIN_MAX 1 1 1
0.0039215686 0.019607843 0.0078431373
0.018137255 0.015686275 0.011764706
0.03627451 0.010784314 0.010784314
0.053921569 0.00049019608 0.0078431373
0.096078431 0.0078431373 0.015686275
0.13970588 0.011764706 0.024019608
0.1872549 0.011764706 0.02745098
0.24656863 0.021078431 0.022058824
0.30588235 0.031372549 0.011764706
0.35980392 0.041666667 0.0053921569
0.41764706 0.038235294 0
0.47941176 0.020588235 0
0.53529412 0.0098039216 0
0.59068627 0.012254902 0
0.64215686 0.015686275 0
0.68431373 0.019607843 0
0.72941176 0.015686275 0
0.76813725 0.020588235 0
0.80294118 0.045098039 0
0.83382353 0.069117647 0
0.86862745 0.094117647 0
0.90343137 0.11519608 0
0.9372549 0.13921569 0
0.96911765 0.15980392 0
1 0.17647059 0
0.0039215686 0.019607843 0.0053921569
0.017218137 0.018137255 0.009375
0.034436275 0.020588235 0.014215686
0.053921569 0.023039216 0.016360294
0.098039216 0.028921569 0.020098039
0.14362745 0.034803922 0.026164216
0.19656863 0.036642157 0.025612745
0.25441176 0.044117647 0.018137255
0.3122549 0.054411765 0.0093137255
0.36764706 0.063786765 0.0039215686
0.42401961 0.060906863 0.0039215686
0.48333333 0.047058824 0.0039215686
0.54166667 0.034803922 0.0039215686
0.59491422 0.034803922 0.0039215686
0.64669118 0.03627451 0.0039215686
0.68823529 0.040196078 0.0039215686
0.73186275 0.045098039 0.0039215686
0.77150735 0.049938725 0.0039215686
0.80355392 0.063602941 0.0039215686
0.8377451 0.082352941 0.0039215686
0.87254902 0.10686275 0.0039215686
0.90606618 0.13137255 0.0039215686
0.93823529 0.15196078 0.0039215686
0.96911765 0.17254902 0
0.99362745 0.18676471 0
0 0.024509804 0.0019607843
0.015686275 0.037377451 0.015196078
0.031617647 0.050980392 0.025490196
0.056862745 0.05747549 0.028431373
0.098039216 0.059803922 0.029901961
0.14754902 0.066176471 0.03125
0.20367647 0.072794118 0.020588235
0.26470588 0.078921569 0.0096813725
0.32254902 0.088235294 0.0039215686
0.37585784 0.095588235 0.0045343137
0.43039216 0.096078431 0.0078431373
0.49129902 0.079411765 0.0078431373
0.55 0.064215686 0.0039215686
0.60330882 0.061764706 0.0039215686
0.6502451 0.066421569 0.0078431373
0.69313725 0.075612745 0.0078431373
0.7372549 0.081372549 0.0078431373
0.77487745 0.085906863 0.0078431373
0.80857843 0.095098039 0.0039215686
0.84252451 0.10833333 0.0039215686
0.87647059 0.12745098 0.0039215686
0.90833333 0.14803922 0.0039215686
0.94215686 0.16862745 0.0039215686
0.97193627 0.18884804 0
0.99117647 0.20098039 0
0 0.075980392 0.025980392
0.0029411765 0.076286765 0.028921569
0.017279412 0.085294118 0.039583333
0.049080882 0.08872549 0.039215686
0.098039216 0.090686275 0.035294118
0.14068627 0.10091912 0.030882353
0.20245098 0.10784314 0.017647059
0.27107843 0.10980392 0.0042279412
0.32892157 0.11617647 0.0039215686
0.38302696 0.12401961 0.0078431373
0.43982843 0.12794118 0.0078431373
0.49852941 0.11666667 0.0078431373
0.55661765 0.10539216 0.0039215686
0.609375 0.10349265 0.0039215686
0.65477941 0.10772059 0.0069852941
0.69969363 0.11568627 0.0078431373
0.74117647 0.11960784 0.01127451
0.77971814 0.12224265 0.011458333
0.81433824 0.13235294 0.0068627451
0.84859069 0.14307598 0.0039215686
0.88039216 0.15367647 0.0039215686
0.91470588 0.16862745 0.0039215686
0.94607843 0.18578431 0.0039215686
0.97647059 0.20588235 0
0.98823529 0.21470588 0
0.0039215686 0.12156863 0.045098039
0 0.12156863 0.044362745
0.00098039216 0.12156863 0.05
0.033088235 0.125 0.04754902
0.074509804 0.13137255 0.03627451
0.12009804 0.14166667 0.021078431
0.18529412 0.14901961 0.010784314
0.25735294 0.15245098 0.0039215686
0.32745098 0.16078431 0.0039215686
0.3872549 0.1627451 0.0078431373
0.44705882 0.16617647 0.0078431373
0.50539216 0.15931373 0.0078431373
0.56176471 0.15490196 0.0078431373
0.6120098 0.15490196 0.0039215686
0.66029412 0.15490196 0.0039215686
0.70588235 0.15686275 0.0046568627
0.74705882 0.15686275 0.0098039216
0.78504902 0.16078431 0.011764706
0.82058824 0.16960784 0.0073529412
0.85343137 0.17990196 0.0039215686
0.88529412 0.18823529 0.0039215686
0.91911765 0.19852941 0.0039215686
0.95 0.20882353 0.00049019608
0.98210784 0.225 0
0.99215686 0.22941176 0
0 0.15490196 0.035294118
0 0.15882353 0.041360294
0.0013480392 0.16286765 0.046568627
0.0069240196 0.16666667 0.043137255
0.039215686 0.17254902 0.033333333
0.10257353 0.18235294 0.014215686
0.16519608 0.18958333 0.0037990196
0.2408701 0.20569853 0.0041053922
0.31715686 0.21862745 0.0078431373
0.38560049 0.21991422 0.0078431373
0.45698529 0.21421569 0.0078431373
0.51568627 0.20686275 0.0078431373
0.57132353 0.20416667 0.0078431373
0.62254902 0.20245098 0.0069240196
0.67022059 0.20196078 0.0039215686
0.7122549 0.20196078 0.00049019608
0.75294118 0.20196078 0.0039215686
0.79019608 0.20196078 0.0039215686
0.82647059 0.20686275 0.0025735294
0.85735294 0.21672794 0
0.88823529 0.22352941 0
0.91960784 0.23333333 0.00049019608
0.95392157 0.24019608 0.00049019608
0.98284314 0.2504902 0
0.99264706 0.25686275 0
0 0.19509804 0.040196078
0 0.20183824 0.045098039
0.00098039216 0.20710784 0.044362745
0.00098039216 0.21164216 0.039583333
0.0024509804 0.21519608 0.029411765
0.073039216 0.22647059 0.025857843
0.15098039 0.24019608 0.0098039216
0.23026961 0.26078431 0.010784314
0.30980392 0.27647059 0.0078431373
0.38186275 0.27855392 0.0049019608
0.45955882 0.26764706 0.0053921569
0.52941176 0.25796569 0.0078431373
0.59019608 0.24901961 0.006372549
0.64313725 0.24705882 0.0039215686
0.68137255 0.24705882 0.0039215686
0.7192402 0.24669118 0.0039215686
0.75588235 0.24607843 0.0039215686
0.7935049 0.24497549 0.0050245098
0.82647059 0.24803922 0.0029411765
0.85735294 0.25441176 0.0029411765
0.89117647 0.26127451 0.0039215686
0.92303922 0.27107843 0.0039215686
0.9502451 0.27916667 0.0039215686
0.97585784 0.28835784 0.0024509804
0.99901961 0.29803922 0
0 0.2504902 0.073529412
0.0039215686 0.2504902 0.071078431
0.0039215686 0.25441176 0.070710784
0.0014705882 0.25814951 0.063541667
0.0066176471 0.26421569 0.060784314
0.042156863 0.27843137 0.059007353
0.11960784 0.29264706 0.048161765
0.21029412 0.3122549 0.032843137
0.30441176 0.32892157 0.010784314
0.38186275 0.33131127 0.0053921569
0.45453431 0.32438725 0.0078431373
0.52843137 0.31519608 0.0078431373
0.59803922 0.30490196 0.0051470588
0.65508578 0.29509804 0.0039215686
0.69117647 0.29509804 0.0039215686
0.72653186 0.29607843 0.0053921569
0.76078431 0.29215686 0.0078431373
0.79558824 0.29215686 0.0083946078
0.83039216 0.29362745 0.006004902
0.86127451 0.29577206 0.0078431373
0.89215686 0.30196078 0.0078431373
0.91911765 0.30833333 0.0078431373
0.94705882 0.31862745 0.0078431373
0.9754902 0.32653186 0.0039215686
0.99460784 0.32990196 0
0 0.30196078 0.10196078
0.0039215686 0.30196078 0.099509804
0.0039215686 0.30294118 0.097058824
0.0073529412 0.30931373 0.094117647
0.011764706 0.31960784 0.094117647
0.016666667 0.32598039 0.093627451
0.070588235 0.34019608 0.084313725
0.17156863 0.35833333 0.06372549
0.2745098 0.37254902 0.043137255
0.36470588 0.37892157 0.02254902
0.44607843 0.38431373 0.011764706
0.52205882 0.38039216 0.0044117647
0.59019608 0.37254902 0.0039215686
0.64117647 0.36470588 0.0044117647
0.68627451 0.35784314 0.0078431373
0.72990196 0.35147059 0.0078431373
0.76470588 0.34117647 0.0078431373
0.79803922 0.34117647 0.010294118
0.83039216 0.34117647 0.011764706
0.86127451 0.34117647 0.011764706
0.89411765 0.34117647 0.011764706
0.92254902 0.34901961 0.01127451
0.95 0.35588235 0.0078431373
0.9754902 0.36078431 0.0039215686
0.99215686 0.36078431 0.0039215686
0 0.35343137 0.12647059
0.0039215686 0.35343137 0.12555147
0.0049019608 0.35441176 0.125
0.0078431373 0.36078431 0.12892157
0.0066176471 0.36985294 0.12818627
0.0036151961 0.37481618 0.12481618
0.033210784 0.38137255 0.11482843
0.13976716 0.39313725 0.099448529
0.24362745 0.40588235 0.081862745
0.33719363 0.41617647 0.059803922
0.42463235 0.42855392 0.034681373
0.5122549 0.43939951 0.0098039216
0.58112745 0.44142157 0.0031862745
0.63382353 0.43382353 0.0078431373
0.68345588 0.42708333 0.0078431373
0.72444853 0.41476716 0.010294118
0.7622549 0.40294118 0.011764706
0.79558824 0.39356618 0.011764706
0.8307598 0.38872549 0.014583333
0.86519608 0.38658088 0.015686275
0.89607843 0.38235294 0.011764706
0.92677696 0.3841299 0.01127451
0.95281863 0.38958333 0.0078431373
0.97555147 0.39166667 0.0048406863
0.98823529 0.39558824 0.0039215686
0 0.40588235 0.15098039
0.0039215686 0.40526961 0.15196078
0.0039215686 0.40784314 0.15759804
0.0039215686 0.40784314 0.16421569
0.0039215686 0.41323529 0.16470588
0.0053921569 0.41568627 0.16066176
0.033333333 0.41960784 0.15073529
0.12414216 0.42892157 0.13370098
0.21862745 0.43921569 0.11666667
0.31139706 0.45134804 0.096078431
0.39901961 0.46446078 0.068627451
0.49166667 0.47696078 0.049019608
0.56617647 0.48823529 0.03627451
0.62941176 0.4942402 0.017892157
0.67843137 0.48823529 0.012745098
0.71752451 0.47401961 0.011764706
0.75588235 0.45980392 0.011764706
0.79129902 0.44803922 0.011764706
0.82720588 0.44313725 0.015686275
0.86384804 0.43676471 0.015686275
0.89803922 0.42647059 0.01372549
0.93088235 0.42352941 0.01127451
0.95955882 0.42573529 0.0071078431
0.98002451 0.42745098 0.0039215686
0.98823529 0.42745098 0.0039215686
0 0.45686275 0.175
0.00030637255 0.45294118 0.18155637
0.0039215686 0.44901961 0.19068627
0.0039215686 0.44901961 0.19503676
0.0041666667 0.45122549 0.19877451
0.0083333333 0.45386029 0.19411765
0.024387255 0.45980392 0.18382353
0.10833333 0.46666667 0.16813725
0.19705882 0.47647059 0.15098039
0.28970588 0.48707108 0.13302696
0.38186275 0.49754902 0.11715686
0.46764706 0.51084559 0.10692402
0.54068627 0.52205882 0.093382353
0.60876225 0.53186275 0.062254902
0.66666667 0.53492647 0.025367647
0.71207108 0.5254902 0.014215686
0.7495098 0.51127451 0.011764706
0.7877451 0.50098039 0.011764706
0.82352941 0.49460784 0.013112745
0.86084559 0.48780637 0.015686275
0.89803922 0.47426471 0.011764706
0.93480392 0.46470588 0.0078431373
0.96568627 0.46384804 0.0040441176
0.98578431 0.46470588 0.0026348039
0.98823529 0.46127451 0.00049019608
0 0.49411765 0.20588235
0 0.49289216 0.20710784
0 0.49019608 0.2127451
0.0019607843 0.49019608 0.22132353
0.0039215686 0.49019608 0.21960784
0.0039215686 0.49411765 0.21936275
0.0068627451 0.49803922 0.21421569
0.089705882 0.50465686 0.20245098
0.18235294 0.51176471 0.19019608
0.275 0.51887255 0.17990196
0.36911765 0.52843137 0.17009804
0.44754902 0.54264706 0.16862745
0.51862745 0.55294118 0.15294118
0.58333333 0.55931373 0.11323529
0.64313725 0.56617647 0.067156863
0.6995098 0.57132353 0.026960784
0.74509804 0.56666667 0.0078431373
0.78308824 0.55637255 0.0078431373
0.81960784 0.54607843 0.011764706
0.85710784 0.53578431 0.012254902
0.89411765 0.5254902 0.011764706
0.93137255 0.51519608 0.0075980392
0.97107843 0.50490196 0.0024509804
0.98823529 0.50196078 0
0.98823529 0.5 0
0 0.53137255 0.23676471
0 0.53137255 0.23676471
0 0.53137255 0.23762255
0 0.53137255 0.24362745
0.0019607843 0.53137255 0.24632353
0.0050245098 0.53186275 0.24460784
0.039705882 0.53480392 0.2442402
0.09442402 0.53658088 0.24068627
0.17696078 0.54264706 0.23333333
0.27303922 0.54901961 0.22352941
0.35931373 0.55931373 0.21764706
0.43088235 0.57303922 0.21329657
0.49485294 0.58161765 0.2
0.55790441 0.58927696 0.16421569
0.61629902 0.59656863 0.11311275
0.67432598 0.60294118 0.067156863
0.73186275 0.61323529 0.023039216
0.77530637 0.60863971 0.012132353
0.81433824 0.59754902 0.01752451
0.85251225 0.59068627 0.012254902
0.88970588 0.57720588 0.0095588235
0.92696078 0.56580882 0.0091911765
0.96384804 0.55637255 0.0079656863
0.98137255 0.54785539 0.0056985294
0.98039216 0.54754902 0.0078431373
0 0.56960784 0.26372549
0 0.57254902 0.2682598
0 0.57254902 0.26691176
0 0.57254902 0.26470588
0.0039215686 0.57254902 0.26862745
0.026470588 0.57340686 0.27254902
0.091176471 0.57254902 0.27156863
0.13970588 0.57254902 0.27156863
0.2 0.57352941 0.27156863
0.27414216 0.57990196 0.26813725
0.34803922 0.59019608 0.25808824
0.41078431 0.59754902 0.24754902
0.47254902 0.60735294 0.23431373
0.53382353 0.61421569 0.21004902
0.5870098 0.62352941 0.17352941
0.64375 0.63088235 0.13529412
0.70098039 0.64019608 0.10196078
0.75245098 0.64301471 0.073529412
0.79901961 0.64215686 0.05122549
0.84607843 0.64215686 0.013480392
0.88333333 0.63235294 0.0078431373
0.91666667 0.61813725 0.014705882
0.95098039 0.60784314 0.011764706
0.96715686 0.60147059 0.011764706
0.97745098 0.59509804 0.011764706
0.0053921569 0.60980392 0.29068627
0.0039215686 0.61317402 0.29613971
0.0011029412 0.61372549 0.29644608
0 0.61029412 0.29068627
0.0053921569 0.60980392 0.28921569
0.06685049 0.60980392 0.29362745
0.14080882 0.60980392 0.30036765
0.18676471 0.60833333 0.29797794
0.23333333 0.60980392 0.29852941
0.28970588 0.6122549 0.30098039
0.34031863 0.61715686 0.29509804
0.39969363 0.62401961 0.28351716
0.45539216 0.63308824 0.27058824
0.51292892 0.64019608 0.25214461
0.56078431 0.64938725 0.23284314
0.61317402 0.65686275 0.2088848
0.67009804 0.66568627 0.17892157
0.72156863 0.66960784 0.15196078
0.77340686 0.675 0.11372549
0.82598039 0.68106618 0.070098039
0.87034314 0.68161765 0.048529412
0.90851716 0.66979167 0.030208333
0.94571078 0.66262255 0.010661765
0.96280637 0.65386029 0.0093137255
0.98186275 0.64656863 0.0078431373
0.011764706 0.64705882 0.31764706
0.014215686 0.65098039 0.32009804
0.020588235 0.65098039 0.32156863
0.023529412 0.65098039 0.31813725
0.043137255 0.64705882 0.31764706
0.10490196 0.64705882 0.31813725
0.16764706 0.64411765 0.32156863
0.21764706 0.64313725 0.32156863
0.26666667 0.64313725 0.32156863
0.31176471 0.64705882 0.3254902
0.35294118 0.65098039 0.3245098
0.39754902 0.65490196 0.31813725
0.44901961 0.66078431 0.30784314
0.49656863 0.66715686 0.29754902
0.54803922 0.67745098 0.28039216
0.59803922 0.68382353 0.26127451
0.64705882 0.69411765 0.24313725
0.69460784 0.7004902 0.22647059
0.75 0.70588235 0.19607843
0.80490196 0.70980392 0.1622549
0.85098039 0.71372549 0.14313725
0.8877451 0.71372549 0.12843137
0.9254902 0.71078431 0.10784314
0.96127451 0.70441176 0.055392157
0.99215686 0.69411765 0.0078431373
0.018137255 0.68578431 0.33823529
0.051041667 0.68578431 0.34552696
0.084926471 0.68578431 0.35061275
0.10863971 0.68449755 0.35245098
0.13063725 0.68308824 0.35171569
0.16881127 0.68186275 0.35116422
0.21286765 0.68039216 0.34852941
0.25006127 0.67794118 0.34607843
0.29117647 0.68039216 0.34852941
0.33235294 0.68339461 0.35153186
0.36960784 0.68578431 0.35245098
0.40471814 0.68952206 0.34871324
0.4502451 0.69362745 0.34264706
0.50030637 0.70018382 0.33216912
0.54509804 0.70723039 0.32169118
0.59405637 0.71470588 0.30974265
0.64460784 0.72107843 0.29460784
0.68578431 0.72745098 0.28186275
0.73125 0.73284314 0.26372549
0.78088235 0.73645833 0.23823529
0.82647059 0.74142157 0.21911765
0.87205882 0.7463848 0.2
0.92058824 0.74852941 0.17156863
0.95582108 0.74166667 0.14019608
0.98186275 0.73137255 0.10294118
0.11176471 0.71666667 0.37254902
0.13382353 0.72058824 0.37794118
0.16593137 0.72058824 0.38259804
0.19718137 0.72058824 0.38590686
0.21666667 0.71666667 0.38529412
0.23517157 0.71666667 0.38333333
0.27181373 0.71372549 0.38333333
0.29914216 0.7127451 0.38370098
0.32647059 0.7127451 0.38529412
0.36029412 0.71666667 0.38823529
0.39411765 0.72058824 0.38651961
0.425 0.72401961 0.3807598
0.45882353 0.72696078 0.37352941
0.50134804 0.73235294 0.36715686
0.54583333 0.73921569 0.35784314
0.59448529 0.74411765 0.35147059
0.64313725 0.75098039 0.34215686
0.68431373 0.75551471 0.33186275
0.7252451 0.75980392 0.31348039
0.7627451 0.76237745 0.29607843
0.80686275 0.76715686 0.28284314
0.85502451 0.77463235 0.27254902
0.90318627 0.77941176 0.25196078
0.9439951 0.77941176 0.23235294
0.97156863 0.77352941 0.21078431
0.21470588 0.75098039 0.40980392
0.221875 0.75147059 0.41029412
0.24264706 0.75147059 0.41041667
0.26366422 0.75147059 0.41421569
0.27769608 0.75098039 0.41421569
0.29313725 0.75055147 0.41421569
0.32144608 0.74754902 0.41678922
0.3473652 0.74754902 0.42156863
0.37401961 0.74754902 0.42598039
0.40116422 0.74969363 0.42941176
0.42757353 0.75147059 0.4254902
0.45588235 0.75533088 0.42199755
0.48627451 0.75931373 0.41176471
0.51378676 0.76329657 0.40539216
0.55281863 0.76752451 0.40147059
0.59803922 0.77285539 0.39626225
0.64313725 0.77892157 0.38970588
0.68431373 0.78314951 0.37959559
0.72156863 0.78688725 0.36776961
0.7588848 0.79068627 0.35441176
0.79656863 0.79656863 0.34607843
0.84166667 0.80294118 0.34117647
0.88970588 0.80931373 0.32708333
0.93186275 0.81029412 0.31256127
0.96127451 0.81372549 0.30588235
0.30196078 0.78235294 0.44313725
0.30637255 0.78235294 0.44313725
0.31470588 0.78627451 0.44509804
0.325 0.78235294 0.44509804
0.33529412 0.78235294 0.44705882
0.35 0.78235294 0.44901961
0.36862745 0.78235294 0.45098039
0.39264706 0.78112745 0.45759804
0.41960784 0.78235294 0.46666667
0.44534314 0.78235294 0.47058824
0.46911765 0.78284314 0.47058824
0.49485294 0.78627451 0.46862745
0.52156863 0.79019608 0.46470588
0.54632353 0.79411765 0.46029412
0.57009804 0.79803922 0.45
0.60196078 0.80196078 0.44240196
0.64313725 0.80588235 0.43529412
0.68039216 0.81102941 0.42818627
0.71715686 0.81568627 0.42058824
0.75318627 0.81764706 0.4122549
0.79215686 0.82352941 0.40588235
0.83529412 0.82990196 0.40171569
0.87941176 0.83676471 0.39313725
0.92009804 0.84117647 0.38627451
0.94117647 0.84313725 0.38235294
0.37205882 0.81372549 0.49313725
0.37598039 0.81715686 0.496875
0.3807598 0.81715686 0.49705882
0.38682598 0.81715686 0.49705882
0.39730392 0.81372549 0.49877451
0.41127451 0.81323529 0.5004902
0.4245098 0.81323529 0.50085784
0.44117647 0.81323529 0.50459559
0.46519608 0.81323529 0.5122549
0.49185049 0.8158701 0.51617647
0.51372549 0.81715686 0.52009804
0.5338848 0.81715686 0.52009804
0.55465686 0.82107843 0.51813725
0.57892157 0.825 0.51176471
0.5995098 0.82892157 0.50196078
0.61862745 0.83069853 0.49166667
0.64411765 0.83284314 0.48529412
0.68057598 0.83890931 0.48106618
0.71666667 0.84154412 0.47598039
0.74754902 0.84460784 0.46617647
0.78431373 0.8504902 0.46176471
0.82898284 0.85686275 0.46176471
0.87316176 0.86715686 0.45919118
0.91011029 0.87205882 0.45814951
0.92107843 0.87205882 0.45441176
0.44411765 0.85098039 0.55490196
0.44767157 0.85098039 0.55490196
0.44828431 0.85098039 0.55490196
0.45539216 0.85098039 0.55490196
0.4627451 0.84803922 0.55490196
0.47303922 0.84803922 0.55502451
0.48627451 0.84803922 0.55808824
0.50294118 0.84803922 0.56090686
0.52352941 0.84803922 0.56666667
0.54117647 0.84803922 0.56948529
0.55710784 0.84877451 0.57230392
0.57205882 0.85183824 0.57536765
0.59215686 0.85539216 0.575
0.61372549 0.85894608 0.57009804
0.63357843 0.85980392 0.56053922
0.65098039 0.86372549 0.55343137
0.67156863 0.86764706 0.54705882
0.69669118 0.86948529 0.5442402
0.72647059 0.87156863 0.5372549
0.75735294 0.87536765 0.53051471
0.7872549 0.88137255 0.52647059
0.82855392 0.8877451 0.52745098
0.87058824 0.89803922 0.52965686
0.90379902 0.90294118 0.52708333
0.90686275 0.90294118 0.52352941
0.51617647 0.88431373 0.6127451
0.52009804 0.88676471 0.61519608
0.52009804 0.88492647 0.6127451
0.52598039 0.88676471 0.61488971
0.53112745 0.88676471 0.61397059
0.54019608 0.88645833 0.61666667
0.55232843 0.88615196 0.61666667
0.56715686 0.88431373 0.61911765
0.57843137 0.88284314 0.61911765
0.58872549 0.88284314 0.62248775
0.60110294 0.88284314 0.62585784
0.61666667 0.88284314 0.62696078
0.63333333 0.8875 0.63161765
0.65245098 0.8908701 0.63057598
0.66948529 0.89460784 0.62156863
0.68431373 0.89460784 0.61427696
0.70245098 0.89852941 0.60882353
0.72696078 0.90245098 0.6127451
0.75036765 0.90637255 0.60821078
0.7745098 0.90765931 0.60245098
0.80416667 0.9129902 0.59779412
0.83431373 0.91991422 0.59460784
0.87058824 0.92892157 0.59644608
0.89656863 0.93382353 0.59460784
0.89656863 0.93382353 0.59313725
0.57254902 0.91372549 0.65882353
0.57794118 0.91372549 0.66029412
0.57647059 0.91372549 0.65882353
0.57990196 0.91372549 0.65882353
0.58627451 0.91372549 0.65882353
0.59656863 0.91764706 0.66323529
0.60686275 0.91764706 0.66666667
0.60931373 0.9122549 0.66127451
0.61568627 0.90588235 0.65882353
0.62598039 0.90588235 0.66127451
0.63627451 0.90588235 0.66372549
0.6504902 0.90980392 0.66666667
0.66666667 0.91568627 0.67647059
0.69068627 0.925 0.68921569
0.70098039 0.92156863 0.6754902
0.71519608 0.92156863 0.66911765
0.73333333 0.9254902 0.66666667
0.75 0.92941176 0.6627451
0.77058824 0.93039216 0.65882353
0.79460784 0.93676471 0.6627451
0.81764706 0.94117647 0.65686275
0.84460784 0.94558824 0.65490196
0.8754902 0.95882353 0.65784314
0.89019608 0.96078431 0.65343137
0.89019608 0.95686275 0.64705882
0.0078431373 0.019607843 0.037254902
0.021507353 0.017156863 0.032352941
0.037254902 0.0078431373 0.019607843
0.053921569 0.00049019608 0.0081495098
0.096078431 0.0090686275 0.017647059
0.14185049 0.011764706 0.026164216
0.18823529 0.0078431373 0.02745098
0.24748775 0.017708333 0.022058824
0.30588235 0.028921569 0.018137255
0.35980392 0.036764706 0.022120098
0.41764706 0.031862745 0.015073529
0.47567402 0.017953431 0.0042279412
0.53406863 0.0066176471 0
0.58854167 0.011764706 0.00030637255
0.64215686 0.013235294 0.00098039216
0.68823529 0.014154412 0
0.72941176 0.013235294 0
0.76813725 0.023039216 0.00091911765
0.80294118 0.045098039 0.0006127451
0.8372549 0.066973039 0
0.86862745 0.087745098 0
0.90343137 0.11470588 0
0.93431373 0.13823529 0
0.96666667 0.15980392 0
0.99362745 0.17647059 0
0.0069240196 0.021139706 0.037254902
0.019056373 0.021139706 0.032758885
0.034436275 0.020450368 0.024739583
0.056066176 0.022372855 0.017777267
0.098039216 0.028921569 0.02254902
0.14362745 0.034497549 0.029901961
0.19656863 0.031801471 0.025612745
0.25441176 0.041321998 0.018688725
0.3122549 0.051960784 0.015686275
0.36464461 0.055882353 0.018887868
0.42156863 0.051960784 0.016835172
0.48204657 0.044125306 0.0058746936
0.53998162 0.032843137 0.0039215686
0.59491422 0.033272059 0.0039215686
0.64669118 0.032965686 0.0039215686
0.69103094 0.03627451 0.0039215686
0.73333333 0.042647059 0.006372549
0.77150735 0.051700368 0.0072916667
0.80644914 0.066053922 0.0039215686
0.8377451 0.082467831 0.0039215686
0.87208946 0.10321691 0.003002451
0.90595129 0.12842371 0.0039215686
0.93823529 0.15196078 0.0039215686
0.96911765 0.17197457 0
0.99215686 0.18584559 0
0.0039215686 0.039583333 0.039338235
0.012132353 0.044806985 0.037622549
0.030300245 0.053094363 0.03471201
0.059620098 0.05747549 0.030928309
0.098039216 0.060355392 0.031372549
0.14762561 0.065946691 0.032935049
0.20294118 0.06942402 0.023682598
0.26262255 0.075 0.011902574
0.31973039 0.082843137 0.0093137255
0.37401961 0.086764706 0.014583333
0.43039216 0.085876225 0.016053922
0.48961397 0.076148897 0.0081495098
0.5495098 0.06372549 0.0039215686
0.60277267 0.059298407 0.0039215686
0.65009191 0.06596201 0.0069546569
0.69607843 0.072748162 0.0095128676
0.7372549 0.078431373 0.012377451
0.77487745 0.084803922 0.011994485
