site/assets/luts/natron-haldclut--smooth-cromeish--effc18115.cube
# LUTr-Project: LUTr — LUTrepository
# LUTr-Schema-Version: 1
# LUTr-ID: natron-haldclut--smooth-cromeish--effc18115
# LUTr-Title: smooth cromeish
# LUTr-Collection: Natron HaldCLUT
# LUTr-Collection-ID: natron-haldclut-presets
# LUTr-Source: https://github.com/NatronGitHub/clut
# LUTr-Source-File: submissions/natron-haldclut-presets/various/smooth_cromeish.png
# LUTr-Source-Format: PNG
# LUTr-Source-SHA256: c654370d1072d27e1b8eda312393d5c3a692b9403305189a481ecde8975bb08b
# LUTr-License: CC-BY-SA-4.0
# LUTr-License-URL: https://github.com/NatronGitHub/clut#license
# LUTr-Tags: creative, film, film-emulation, hald-clut, natron, png, cube
# LUTr-Transform-Class: film-emulation
# LUTr-Input-Color-Space: srgb
# LUTr-Output-Color-Space: srgb
# LUTr-Color-Space-Confidence: assumed-display-referred
# LUTr-Conversion-Method: PNG LUT image decoded at 16-bit and sampled to 25x25x25 3D CUBE
# LUTr-Conversion-Date: 2026-07-27
# LUTr-Conversion-Tool: LUTr scripts/convert-all-to-cube.mjs
# LUTr-Conversion-Grid: 25x25x25
# LUTr-Note: Preserve this metadata and the upstream license notices when redistributing.
TITLE "smooth cromeish"
LUT_3D_SIZE 25
DOMAIN_MIN 0 0 0
DOMAIN_MAX 1 1 1
0.023529412 0.054901961 0.062745098
0.051960784 0.096568627 0.092156863
0.070588235 0.10196078 0.098039216
0.057843137 0.054901961 0.062745098
0.098039216 0.074509804 0.078431373
0.11029412 0.060784314 0.068627451
0.18627451 0.092156863 0.096078431
0.21862745 0.083333333 0.089705882
0.25490196 0.074509804 0.082352941
0.30931373 0.073529412 0.083823529
0.38137255 0.088235294 0.095098039
0.47058824 0.1127451 0.1122549
0.49803922 0.07254902 0.078431373
0.61764706 0.11911765 0.11960784
0.6627451 0.067647059 0.074509804
0.725 0.082352941 0.090196078
0.76470588 0.062745098 0.074509804
0.81617647 0.095098039 0.10539216
0.8627451 0.11372549 0.12254902
0.89264706 0.11029412 0.11862745
0.91372549 0.090196078 0.098039216
0.93480392 0.078921569 0.086764706
0.95882353 0.079411765 0.087254902
0.96715686 0.090686275 0.098529412
0.96078431 0.11764706 0.1254902
0.058333333 0.1372549 0.11813725
0.071507353 0.13805147 0.11648284
0.099509804 0.14522059 0.125
0.12303922 0.14117647 0.12794118
0.17328431 0.15490196 0.14534314
0.22818627 0.16917892 0.16409314
0.24632353 0.16004902 0.15306373
0.32113971 0.16985294 0.16348039
0.36568627 0.16470588 0.15980392
0.4122549 0.16164216 0.15974265
0.46348039 0.1622549 0.15539216
0.50870098 0.15723039 0.13792892
0.55906863 0.14068627 0.12598039
0.64791667 0.15655637 0.1403799
0.73431373 0.17107843 0.15686275
0.77751225 0.16862745 0.15441176
0.81862745 0.17401961 0.15980392
0.84656863 0.1745098 0.15539216
0.87487745 0.16875 0.15183824
0.90165441 0.16176471 0.14509804
0.92401961 0.1504902 0.13529412
0.94215686 0.12518382 0.11213235
0.9627451 0.12622549 0.11102941
0.97199755 0.16127451 0.14307598
0.97107843 0.17401961 0.15490196
0.062745098 0.15882353 0.12352941
0.084191176 0.15980392 0.12598039
0.13235294 0.20098039 0.16102941
0.14509804 0.18210784 0.15122549
0.15392157 0.15588235 0.13480392
0.19068627 0.15330882 0.13529412
0.22230392 0.15955882 0.13529412
0.27438725 0.15870098 0.13382353
0.32843137 0.15392157 0.13235294
0.40269608 0.1689951 0.14779412
0.4627451 0.17622549 0.14681373
0.52916667 0.19436275 0.15563725
0.5754902 0.17009804 0.1372549
0.62941176 0.14865196 0.12536765
0.69411765 0.14877451 0.1245098
0.74803922 0.14522059 0.12120098
0.79215686 0.15294118 0.1254902
0.83713235 0.17904412 0.14375
0.88210784 0.20294118 0.16151961
0.90294118 0.18026961 0.14007353
0.92892157 0.16372549 0.12254902
0.94473039 0.14522059 0.11335784
0.96642157 0.12867647 0.099509804
0.98382353 0.15710784 0.12071078
0.98529412 0.17254902 0.13235294
0.025490196 0.093137255 0.065686275
0.042953431 0.10716912 0.073651961
0.054534314 0.10845588 0.073161765
0.074264706 0.11997549 0.08560049
0.088970588 0.10955882 0.078921569
0.11819853 0.10398284 0.076960784
0.1495098 0.10171569 0.074387255
0.20245098 0.12677696 0.085784314
0.25 0.12647059 0.084313725
0.30919118 0.11476716 0.083026961
0.40857843 0.1625 0.10906863
0.44197304 0.14442402 0.091911765
0.52034314 0.14558824 0.096323529
0.58008578 0.11636029 0.082965686
0.65245098 0.12953431 0.089338235
0.71715686 0.1276348 0.088235294
0.76519608 0.12205882 0.087254902
0.81439951 0.14607843 0.099816176
0.84877451 0.11740196 0.083823529
0.88872549 0.14718137 0.091237745
0.92352941 0.15759804 0.090441176
0.94166667 0.13106618 0.086335784
0.96605392 0.13357843 0.085906863
0.99656863 0.12977941 0.075857843
0.99264706 0.14558824 0.084803922
0.062745098 0.20980392 0.1254902
0.089705882 0.2375 0.13823529
0.12205882 0.25490196 0.15147059
0.12892157 0.23602941 0.13602941
0.14607843 0.22647059 0.12941176
0.19313725 0.23848039 0.13823529
0.26029412 0.27009804 0.1627451
0.28063725 0.24803922 0.14215686
0.32156863 0.23137255 0.13137255
0.37647059 0.22647059 0.13039216
0.45 0.24509804 0.14068627
0.50367647 0.24730392 0.13946078
0.55784314 0.22647059 0.12745098
0.62696078 0.22426471 0.12990196
0.69362745 0.22941176 0.13186275
0.75098039 0.22720588 0.12990196
0.79019608 0.22352941 0.12745098
0.83088235 0.2252451 0.13161765
0.86568627 0.2004902 0.11764706
0.89852941 0.22769608 0.12696078
0.92745098 0.24509804 0.13431373
0.94411765 0.20073529 0.1122549
0.96470588 0.2254902 0.12598039
0.98235294 0.24656863 0.1379902
0.98235294 0.24313725 0.13529412
0.07254902 0.25833333 0.1377451
0.083517157 0.25949755 0.13676471
0.10796569 0.26348039 0.13995098
0.13627451 0.27647059 0.14509804
0.18210784 0.30637255 0.16078431
0.22800245 0.31973039 0.16862745
0.27254902 0.32401961 0.16875
0.31960784 0.32175245 0.16862745
0.37107843 0.31960784 0.16862745
0.42794118 0.32077206 0.16715686
0.44718137 0.2692402 0.1375
0.49209559 0.25882353 0.13082108
0.55857843 0.25857843 0.13308824
0.64944853 0.29307598 0.15539216
0.73186275 0.31838235 0.1692402
0.74497549 0.24828431 0.12113971
0.78529412 0.24656863 0.12205882
0.83057598 0.25477941 0.13351716
0.87830882 0.25147059 0.13578431
0.89301471 0.2536152 0.12328431
0.92867647 0.25465686 0.12328431
0.94558824 0.21856618 0.10533088
0.96397059 0.21678922 0.10808824
0.98890931 0.225 0.11029412
0.98921569 0.2122549 0.099019608
0.034313725 0.17843137 0.075490196
0.036642157 0.17181373 0.071446078
0.052941176 0.18137255 0.07622549
0.071936275 0.18125 0.076960784
0.093137255 0.18431373 0.07745098
0.12757353 0.19215686 0.082352941
0.15906863 0.1877451 0.081617647
0.20453431 0.1870098 0.080514706
0.25098039 0.18235294 0.079411765
0.30992647 0.1870098 0.080514706
0.37254902 0.19583333 0.082843137
0.44362745 0.22009804 0.091544118
0.5245098 0.21519608 0.097058824
0.57867647 0.18370098 0.081617647
0.66176471 0.2 0.090196078
0.71397059 0.20502451 0.082107843
0.76470588 0.22156863 0.093137255
0.81078431 0.21151961 0.091789216
0.85294118 0.22107843 0.099754902
0.88210784 0.225 0.090073529
0.92303922 0.21470588 0.081862745
0.94178922 0.21115196 0.09129902
0.96789216 0.23995098 0.10318627
0.99522059 0.2060049 0.075735294
0.99705882 0.20098039 0.07254902
0.07745098 0.33627451 0.1377451
0.076470588 0.30998775 0.12310049
0.10539216 0.33443627 0.13480392
0.13529412 0.34803922 0.14068627
0.15343137 0.33063725 0.13161765
0.19460784 0.34344363 0.14411765
0.22144608 0.32426471 0.12867647
0.28860294 0.35582108 0.14797794
0.34166667 0.35098039 0.14509804
0.40153186 0.35398284 0.14901961
0.44693627 0.33602941 0.13995098
0.50183824 0.32077206 0.13106618
0.57058824 0.31715686 0.13333333
0.64234069 0.34356618 0.14381127
0.69779412 0.32855392 0.13137255
0.75827206 0.34969363 0.14393382
0.82058824 0.38578431 0.16568627
0.8504902 0.37843137 0.16415441
0.88137255 0.3817402 0.16507353
0.90980392 0.39019608 0.16979167
0.92941176 0.34730392 0.14362745
0.94803922 0.32738971 0.13492647
0.97156863 0.38345588 0.1629902
0.98431373 0.33541667 0.12604167
0.98284314 0.33137255 0.11960784
0.098039216 0.44313725 0.16862745
0.094117647 0.38921569 0.14558824
0.10784314 0.37843137 0.13823529
0.13578431 0.39852941 0.14460784
0.18823529 0.43529412 0.1627451
0.21470588 0.41470588 0.15882353
0.28039216 0.44901961 0.17254902
0.29215686 0.38872549 0.14852941
0.35686275 0.41176471 0.15686275
0.43578431 0.43970588 0.16911765
0.50294118 0.45784314 0.17647059
0.55833333 0.45490196 0.17647059
0.59607843 0.41960784 0.15882353
0.63823529 0.38088235 0.1372549
0.69705882 0.38431373 0.1372549
0.74705882 0.35686275 0.12941176
0.79215686 0.36470588 0.12941176
0.83970588 0.36470588 0.13578431
0.87647059 0.38333333 0.14607843
0.90441176 0.38872549 0.14117647
0.92941176 0.35294118 0.13333333
0.95 0.34019608 0.11519608
0.97058824 0.37941176 0.13137255
0.98823529 0.35343137 0.1127451
0.98823529 0.34509804 0.10980392
0.031372549 0.27352941 0.073529412
0.041115196 0.27506127 0.075980392
0.056127451 0.27071078 0.074632353
0.068443627 0.27493873 0.07432598
0.093137255 0.28063725 0.076715686
0.12040441 0.27886029 0.078247549
0.16495098 0.28676471 0.083578431
0.20306373 0.27818627 0.080514706
0.25392157 0.27794118 0.080882353
0.32671569 0.30569853 0.092769608
0.38223039 0.30318627 0.092279412
0.44142157 0.29969363 0.090441176
0.50735294 0.29681373 0.086764706
0.5807598 0.30079657 0.088909314
0.66507353 0.30012255 0.08504902
0.71709559 0.29050245 0.085232843
0.76617647 0.30784314 0.089215686
0.81127451 0.30612745 0.092218137
0.85294118 0.34448529 0.10073529
0.88137255 0.32334559 0.082169118
0.92328431 0.32598039 0.084803922
0.95177696 0.3276348 0.085477941
0.97781863 0.33026961 0.084803922
0.99509804 0.31470588 0.07689951
0.99264706 0.32156863 0.083333333
0.075490196 0.45882353 0.13627451
0.093137255 0.475 0.14301471
0.093137255 0.42867647 0.12279412
0.14117647 0.4814951 0.14914216
0.16960784 0.4745098 0.14705882
0.19742647 0.4622549 0.14129902
0.25514706 0.49485294 0.15539216
0.29375 0.47990196 0.15012255
0.35098039 0.4745098 0.15294118
0.42267157 0.44791667 0.15588235
0.47696078 0.43946078 0.15269608
0.51727941 0.46446078 0.14779412
0.57254902 0.46421569 0.14264706
0.63051471 0.42879902 0.13051471
0.70367647 0.41764706 0.12598039
0.78480392 0.50526961 0.16654412
0.81960784 0.49901961 0.16176471
0.8497549 0.50392157 0.1625
0.87058824 0.46985294 0.14019608
0.90110294 0.46973039 0.13676471
0.93480392 0.50980392 0.16568627
0.95036765 0.48272059 0.14387255
0.97132353 0.51323529 0.16617647
0.97647059 0.49142157 0.14607843
0.97647059 0.49803922 0.15196078
0.090686275 0.56323529 0.15784314
0.10128676 0.56697304 0.15373775
0.1189951 0.54301471 0.15147059
0.1588848 0.56881127 0.16470588
0.17965686 0.53970588 0.15416667
0.21176471 0.52720588 0.14797794
0.2689951 0.58566176 0.16666667
0.30245098 0.56133578 0.15214461
0.3872549 0.59166667 0.17598039
0.403125 0.53308824 0.14117647
0.48014706 0.51004902 0.15526961
0.52291667 0.53180147 0.14797794
0.58186275 0.53431373 0.14460784
0.66470588 0.4973652 0.15238971
0.73676471 0.49681373 0.15196078
0.7786152 0.49479167 0.15343137
0.80098039 0.48088235 0.13529412
0.84834559 0.50281863 0.15392157
0.87316176 0.51960784 0.14485294
0.90147059 0.51703431 0.13621324
0.92426471 0.49362745 0.13529412
0.95 0.48982843 0.14215686
0.96678922 0.51801471 0.14644608
0.97775735 0.54644608 0.14534314
0.98382353 0.48284314 0.11715686
0.033333333 0.40980392 0.078431373
0.044852941 0.41715686 0.081617647
0.060294118 0.42794118 0.08627451
0.078676471 0.42132353 0.083578431
0.11176471 0.44117647 0.091176471
0.14044118 0.44215686 0.091911765
0.175 0.43627451 0.092647059
0.21446078 0.42794118 0.087009804
0.26666667 0.4254902 0.088235294
0.32058824 0.43137255 0.08627451
0.38333333 0.42303922 0.091666667
0.44607843 0.42990196 0.092156863
0.51372549 0.42941176 0.091176471
0.5879902 0.41495098 0.088970588
0.6745098 0.41470588 0.092156863
0.73333333 0.43284314 0.099264706
0.7745098 0.41372549 0.090196078
0.81715686 0.42352941 0.094362745
0.85 0.42941176 0.091666667
0.88039216 0.4495098 0.083088235
0.91764706 0.43137255 0.095098039
0.94730392 0.43676471 0.094117647
0.96666667 0.45294118 0.1004902
0.99730392 0.43259804 0.070833333
0.99607843 0.4372549 0.076470588
0.078921569 0.59558824 0.14215686
0.082414216 0.57248775 0.13566176
0.10833333 0.58492647 0.1432598
0.12830882 0.56844363 0.13670343
0.14803922 0.56740196 0.12818627
0.18370098 0.57003676 0.12984069
0.25330882 0.61151961 0.15392157
0.30533088 0.60863971 0.15202206
0.30931373 0.52941176 0.12009804
0.39050245 0.56813725 0.14050245
0.47401961 0.60588235 0.15661765
0.55318627 0.63988971 0.17316176
0.61004902 0.63039216 0.17083333
0.67616422 0.6307598 0.17126225
0.71004902 0.56801471 0.14240196
0.76482843 0.5846201 0.14981618
0.82843137 0.63529412 0.16960784
0.83829657 0.56715686 0.13535539
0.86580882 0.56531863 0.13394608
0.8966299 0.55753676 0.12751225
0.92794118 0.59362745 0.14460784
0.95091912 0.58713235 0.14356618
0.97144608 0.59718137 0.14963235
0.98235294 0.54981618 0.11893382
0.96911765 0.63137255 0.16666667
0.089215686 0.64313725 0.15196078
0.10220588 0.65343137 0.15784314
0.13946078 0.64632353 0.16495098
0.15857843 0.64338235 0.15968137
0.16617647 0.62647059 0.14411765
0.21115196 0.65539216 0.15686275
0.24509804 0.65098039 0.15098039
0.29546569 0.64522059 0.15171569
0.33921569 0.61960784 0.14117647
0.4375 0.67965686 0.17058824
0.48210784 0.66544118 0.16397059
0.55245098 0.69803922 0.1754902
0.60539216 0.66862745 0.16764706
0.6810049 0.68835784 0.17610294
0.71642157 0.63210784 0.1497549
0.76580882 0.62916667 0.14620098
0.83235294 0.69117647 0.17352941
0.84656863 0.64387255 0.15061275
0.88480392 0.68627451 0.17328431
0.89632353 0.63014706 0.1377451
0.93186275 0.66764706 0.16078431
0.95085784 0.61580882 0.13014706
0.96691176 0.61495098 0.1375
0.97757353 0.61629902 0.13247549
0.98333333 0.62156863 0.11568627
0.034313725 0.55 0.078431373
0.046139706 0.5560049 0.081433824
0.080759804 0.59963235 0.10514706
0.080943627 0.55894608 0.085845588
0.10220588 0.56029412 0.085294118
0.13897059 0.57781863 0.094240196
0.17757353 0.57610294 0.093137255
0.21164216 0.55968137 0.087745098
0.26421569 0.56519608 0.090686275
0.33045343 0.57610294 0.094178922
0.38517157 0.57144608 0.093504902
0.45931373 0.58823529 0.10098039
0.51960784 0.57622549 0.099509804
0.5997549 0.58247549 0.10006127
0.66715686 0.57843137 0.09754902
0.72843137 0.56960784 0.093627451
0.78333333 0.58333333 0.1004902
0.82254902 0.57751225 0.099080882
0.85281863 0.59448529 0.098161765
0.87628676 0.57310049 0.072794118
0.92009804 0.58406863 0.09754902
0.95 0.57738971 0.083455882
0.96666667 0.57573529 0.099754902
0.98333333 0.62291667 0.10465686
0.99852941 0.61519608 0.071078431
0.074509804 0.6627451 0.1254902
0.08627451 0.675 0.13235294
0.096078431 0.66176471 0.12254902
0.12745098 0.67696078 0.13578431
0.14705882 0.66862745 0.12745098
0.20098039 0.69803922 0.14362745
0.25882353 0.71470588 0.15392157
0.31617647 0.7245098 0.1622549
0.31764706 0.66666667 0.1254902
0.42107843 0.71617647 0.15833333
0.46470588 0.68627451 0.15196078
0.5377451 0.71568627 0.16029412
0.60980392 0.72941176 0.17058824
0.67254902 0.7245098 0.17156863
0.72058824 0.70980392 0.16078431
0.78088235 0.71715686 0.16176471
0.82352941 0.72156863 0.16470588
0.85539216 0.71862745 0.16176471
0.87156863 0.68627451 0.13823529
0.89656863 0.68088235 0.13578431
0.93333333 0.71176471 0.15882353
0.95 0.6622549 0.12156863
0.96666667 0.69411765 0.14411765
0.98039216 0.71029412 0.1495098
0.98431373 0.66666667 0.10588235
0.090686275 0.74901961 0.15343137
0.091605392 0.74405637 0.14607843
0.11127451 0.73235294 0.13823529
0.13921569 0.74705882 0.14411765
0.15759804 0.73161765 0.1372549
0.17794118 0.71617647 0.12401961
0.21911765 0.72401961 0.12745098
0.27107843 0.73088235 0.12745098
0.325 0.7372549 0.12745098
0.41685049 0.76286765 0.15692402
0.48811275 0.77034314 0.16764706
0.53609069 0.76256127 0.16078431
0.6125 0.77843137 0.1745098
0.65539216 0.74773284 0.15196078
0.69693627 0.7185049 0.13198529
0.75147059 0.71519608 0.12935049
0.79019608 0.71911765 0.12107843
0.83143382 0.71519608 0.12598039
0.86372549 0.71066176 0.12745098
0.89411765 0.71727941 0.13186275
0.92622549 0.71593137 0.12107843
0.95 0.70569853 0.10992647
0.97303922 0.73848039 0.13002451
0.98131127 0.73713235 0.12990196
0.97401961 0.69656863 0.11127451
0.046078431 0.73137255 0.096078431
0.045588235 0.72071078 0.090686275
0.056127451 0.69754902 0.080882353
0.081372549 0.73088235 0.093627451
0.10931373 0.71666667 0.095588235
0.12843137 0.69901961 0.083823529
0.16960784 0.71568627 0.087254902
0.21531863 0.71495098 0.087990196
0.26960784 0.71764706 0.091176471
0.33406863 0.71164216 0.098406863
0.40637255 0.72916667 0.11176471
0.45526961 0.71752451 0.099387255
0.52401961 0.72205882 0.10392157
0.59289216 0.7379902 0.10404412
0.67083333 0.71102941 0.095588235
0.72401961 0.70416667 0.090686275
0.75784314 0.71078431 0.07254902
0.80882353 0.70772059 0.089583333
0.84705882 0.7002451 0.095343137
0.88835784 0.73394608 0.11323529
0.92254902 0.71568627 0.084313725
0.95294118 0.72144608 0.078431373
0.97745098 0.75196078 0.096813725
0.97401961 0.73933824 0.099754902
0.9627451 0.70588235 0.096078431
0.10098039 0.81960784 0.1622549
0.092769608 0.80435049 0.14730392
0.068995098 0.74718137 0.094117647
0.11881127 0.77941176 0.12071078
0.1625 0.79289216 0.1377451
0.16862745 0.76868873 0.11531863
0.25404412 0.80772059 0.1504902
0.29178922 0.79895833 0.14356618
0.29460784 0.75588235 0.11078431
0.41568627 0.81176471 0.15392157
0.42303922 0.76446078 0.12120098
0.52971814 0.80661765 0.15330882
0.56421569 0.78063725 0.13382353
0.65012255 0.8036152 0.14920343
0.72132353 0.80392157 0.15428922
0.75594363 0.79093137 0.13210784
0.76421569 0.76617647 0.089705882
0.82928922 0.79356618 0.13210784
0.87328431 0.80147059 0.14240196
0.88921569 0.77879902 0.11507353
0.91617647 0.77132353 0.10245098
0.95 0.79319853 0.12702206
0.96801471 0.80612745 0.13615196
0.96501225 0.77775735 0.11783088
0.96764706 0.75735294 0.09754902
0.082352941 0.84117647 0.14117647
0.091421569 0.84436275 0.14583333
0.090686275 0.82352941 0.12156863
0.13284314 0.83455882 0.13627451
0.17352941 0.84509804 0.14901961
0.19730392 0.83872549 0.13848039
0.23823529 0.84215686 0.1372549
0.28578431 0.83921569 0.13921569
0.3372549 0.83529412 0.13921569
0.40857843 0.84362745 0.15147059
0.48578431 0.8495098 0.16421569
0.51446078 0.83970588 0.14607843
0.57941176 0.83627451 0.14607843
0.65098039 0.84901961 0.14436275
0.69656863 0.84754902 0.13137255
0.74019608 0.83553922 0.11911765
0.7627451 0.81568627 0.092156863
0.82401961 0.83651961 0.12647059
0.86127451 0.83333333 0.11764706
0.88333333 0.81813725 0.098529412
0.91568627 0.82843137 0.12156863
0.9504902 0.85245098 0.15245098
0.96764706 0.84852941 0.13872549
0.97794118 0.82916667 0.10343137
0.98235294 0.82156863 0.094117647
0.036764706 0.83921569 0.079411765
0.055208333 0.85079657 0.1004902
0.070465686 0.85539216 0.10343137
0.078676471 0.84810049 0.0875
0.12083333 0.85612745 0.10514706
0.15471814 0.85588235 0.10919118
0.17365196 0.84338235 0.088235294
0.22022059 0.84577206 0.090196078
0.27205882 0.84362745 0.092156863
0.36832108 0.86096814 0.13186275
0.40281863 0.85122549 0.10796569
0.46764706 0.85 0.1127451
0.53431373 0.85269608 0.1122549
0.62640931 0.87696078 0.12444853
0.6560049 0.87732843 0.087990196
0.70716912 0.86176471 0.082352941
0.75735294 0.85294118 0.083333333
0.81372549 0.85177696 0.10508578
0.84669118 0.85306373 0.077205882
0.88137255 0.85294118 0.089767157
0.91985294 0.85073529 0.11029412
0.95441176 0.84908088 0.077696078
0.97536765 0.86017157 0.072058824
0.99442402 0.87040441 0.073039216
0.99901961 0.87303922 0.073039216
0.067647059 0.89705882 0.12352941
0.081372549 0.90147059 0.13063725
0.1127451 0.91323529 0.14460784
0.12144608 0.91066176 0.12806373
0.15490196 0.90588235 0.12794118
0.20931373 0.91384804 0.14693627
0.22622549 0.90196078 0.12720588
0.28039216 0.90551471 0.13296569
0.34117647 0.91372549 0.14411765
0.40036765 0.9120098 0.14656863
0.41887255 0.89117647 0.11715686
0.48480392 0.88897059 0.12389706
0.5745098 0.90343137 0.13921569
0.66470588 0.91727941 0.15330882
0.70269608 0.91397059 0.13431373
0.74705882 0.90735294 0.12340686
0.78137255 0.90098039 0.12058824
0.825 0.89276961 0.1254902
0.86078431 0.90122549 0.12058824
0.89546569 0.90098039 0.12794118
0.925 0.89705882 0.13235294
0.95134804 0.90147059 0.12095588
0.96862745 0.91176471 0.12818627
0.97953431 0.91764706 0.13137255
0.98235294 0.92058824 0.12843137
0.098039216 0.9495098 0.15637255
0.10140931 0.9528799 0.14754902
0.11580882 0.95833333 0.14522059
0.14313725 0.96568627 0.14705882
0.18259804 0.96127451 0.14803922
0.21813725 0.96256127 0.15618873
0.25723039 0.95661765 0.15416667
0.30238971 0.95104167 0.16029412
0.3377451 0.96127451 0.14068627
0.4026348 0.96219363 0.14773284
0.4875 0.96004902 0.16421569
0.52965686 0.95655637 0.14987745
0.57377451 0.95490196 0.1372549
0.64344363 0.95753676 0.13952206
0.74056373 0.95992647 0.1682598
0.77990196 0.95882353 0.1622549
0.81617647 0.95245098 0.15980392
0.84803922 0.95392157 0.15833333
0.8810049 0.95453431 0.16470588
0.91133578 0.95294118 0.15894608
0.92328431 0.95171569 0.1370098
0.9504902 0.95508578 0.16446078
0.96654412 0.95882353 0.1685049
0.96917892 0.96182598 0.16213235
0.96911765 0.96519608 0.16470588
0.047058824 1 0.094117647
0.075490196 0.98970588 0.1122549
0.095098039 0.98921569 0.11666667
0.1122549 0.99607843 0.11715686
0.14509804 0.99411765 0.12156863
0.17009804 0.99607843 0.125
0.20098039 0.99509804 0.11176471
0.22598039 0.99852941 0.093137255
0.28627451 0.99215686 0.10196078
0.32892157 0.99460784 0.095588235
0.38921569 0.99607843 0.096078431
0.44705882 0.99656863 0.089215686
0.52156863 0.98823529 0.094117647
0.57843137 0.99656863 0.085294118
0.68921569 0.98627451 0.12647059
0.76078431 0.98186275 0.13627451
0.76078431 1 0.070588235
0.82254902 0.98333333 0.12205882
0.86764706 0.97843137 0.13235294
0.87794118 0.99901961 0.070098039
0.91176471 0.99215686 0.084313725
0.9504902 0.99264706 0.090196078
0.97156863 0.99313725 0.093137255
0.98578431 0.99362745 0.083333333
1 1 0.058823529
0.041666667 0.085784314 0.091176471
0.047977941 0.091053922 0.095955882
0.069852941 0.098039216 0.10208333
0.095710784 0.11256127 0.11286765
0.13946078 0.12156863 0.125
0.18468137 0.13321078 0.13743873
0.20392157 0.11372549 0.11936275
0.22671569 0.090502451 0.10232843
0.26568627 0.081372549 0.095588235
0.34613971 0.10306373 0.11819853
0.40110294 0.098651961 0.11580882
0.47622549 0.1120098 0.11997549
0.5247549 0.094117647 0.10563725
0.60833333 0.10294118 0.11666667
0.69742647 0.1127451 0.12401961
0.74313725 0.10925245 0.12346814
0.80735294 0.14411765 0.1495098
0.83308824 0.12745098 0.13498775
0.86458333 0.10735294 0.12156863
0.89528186 0.12438725 0.12928922
0.92083333 0.12843137 0.13357843
0.94068627 0.10735294 0.11715686
0.95882353 0.11029412 0.11715686
0.96470588 0.1098652 0.11770833
0.96078431 0.11127451 0.12156863
0.064705882 0.14601716 0.12935049
0.076470588 0.14801624 0.13022365
0.10113358 0.15206801 0.13622855
0.12554381 0.15684743 0.1432598
0.15971201 0.15137868 0.14678309
0.2116345 0.16409314 0.16102941
0.23707108 0.15617341 0.15033701
0.30279565 0.16703431 0.16006434
0.37561275 0.18204657 0.17714461
0.42205882 0.17359069 0.17318474
0.46050858 0.1611826 0.16014093
0.51049326 0.16017157 0.14853707
0.56060049 0.14405637 0.13299632
0.63480392 0.14688266 0.13922335
0.72322304 0.16243873 0.15283395
0.76828278 0.16280637 0.15098039
0.81133578 0.16764706 0.15735294
0.8471201 0.17073376 0.15894608
0.87518382 0.16089154 0.14814645
0.90294118 0.16422335 0.14933364
0.92794118 0.17034314 0.15520833
0.94686734 0.1522595 0.14001225
0.96335784 0.14564951 0.12898284
0.97107843 0.16879596 0.15189951
0.97107843 0.17248775 0.15735294
0.089583333 0.21495098 0.1685049
0.10280331 0.2037837 0.16211703
0.12009804 0.1973652 0.15943627
0.14574142 0.19292279 0.16343444
0.16194853 0.17469363 0.1528799
0.21700368 0.19538909 0.16688113
0.26292892 0.20658701 0.17117034
0.29056373 0.18409926 0.15640319
0.32279412 0.16629902 0.14080882
0.4002451 0.17622549 0.15594363
0.47193627 0.18973652 0.16332721
0.53532475 0.2049326 0.16953125
0.57052696 0.17297794 0.1411152
0.62627145 0.15796569 0.1292739
0.69494485 0.15851716 0.12864583
0.74189645 0.15537684 0.11973039
0.79129902 0.16397059 0.13002451
0.83898591 0.18443627 0.14931066
