site/assets/luts/natron-haldclut--kodak-e-100-gx-ektachrome-100--593c99698.cube
# LUTr-Project: LUTr — LUTrepository
# LUTr-Schema-Version: 1
# LUTr-ID: natron-haldclut--kodak-e-100-gx-ektachrome-100--593c99698
# LUTr-Title: kodak e-100 gx ektachrome 100
# LUTr-Collection: Natron HaldCLUT
# LUTr-Collection-ID: natron-haldclut-presets
# LUTr-Source: https://github.com/NatronGitHub/clut
# LUTr-Source-File: submissions/natron-haldclut-presets/colorslide/kodak_e-100_gx_ektachrome_100.png
# LUTr-Source-Format: PNG
# LUTr-Source-SHA256: 8401ec9ed8aeda3ddb5eb62a489b7a4711f8a836dd07d06fd158ef18131f09bd
# LUTr-License: CC-BY-SA-4.0
# LUTr-License-URL: https://github.com/NatronGitHub/clut#license
# LUTr-Tags: creative, film, film-emulation, hald-clut, natron, png, cube
# LUTr-Transform-Class: film-emulation
# LUTr-Input-Color-Space: srgb
# LUTr-Output-Color-Space: srgb
# LUTr-Color-Space-Confidence: assumed-display-referred
# LUTr-Conversion-Method: PNG LUT image decoded at 16-bit and sampled to 25x25x25 3D CUBE
# LUTr-Conversion-Date: 2026-07-27
# LUTr-Conversion-Tool: LUTr scripts/convert-all-to-cube.mjs
# LUTr-Conversion-Grid: 25x25x25
# LUTr-Note: Preserve this metadata and the upstream license notices when redistributing.
TITLE "kodak e-100 gx ektachrome 100"
LUT_3D_SIZE 9
DOMAIN_MIN 0 0 0
DOMAIN_MAX 1 1 1
0.054901961 0.0078431373 0.011764706
0.065196078 0.0034313725 0.0034313725
0.16470588 0.0029411765 0.0039215686
0.27647059 0.011764706 0.0093137255
0.39019608 0.0039215686 0.0039215686
0.51960784 0.0078431373 0.0078431373
0.63137255 0.0039215686 0.0078431373
0.73480392 0.0078431373 0.019607843
0.81568627 0.0078431373 0.019607843
0.089705882 0.096078431 0.034803922
0.11519608 0.08872549 0.02689951
0.20784314 0.092647059 0.04252451
0.30735294 0.080882353 0.057843137
0.41691176 0.055637255 0.035294118
0.53088235 0.032843137 0.018137255
0.63786765 0.0078431373 0.0049019608
0.74607843 0.011764706 0.015686275
0.81176471 0.0078431373 0.023529412
0.12058824 0.21568627 0.092156863
0.17058824 0.20833333 0.087377451
0.25 0.20392157 0.089215686
0.34938725 0.18823529 0.081372549
0.45735294 0.15686275 0.049509804
0.56421569 0.11715686 0.032843137
0.66862745 0.073529412 0.02254902
0.76090686 0.011764706 0.0039215686
0.81764706 0.015686275 0.023529412
0.19019608 0.35735294 0.15784314
0.22628676 0.35735294 0.17873775
0.30392157 0.35343137 0.15735294
0.40441176 0.33382353 0.12647059
0.50882353 0.31813725 0.12647059
0.615625 0.27843137 0.10392157
0.70919118 0.22806373 0.087867647
0.78805147 0.15196078 0.081066176
0.85490196 0.041666667 0.025490196
0.26470588 0.48823529 0.19607843
0.30514706 0.49019608 0.21348039
0.37009804 0.49803922 0.21960784
0.46421569 0.49362745 0.21838235
0.56470588 0.4745098 0.20490196
0.66715686 0.45416667 0.19142157
0.75784314 0.41617647 0.14754902
0.83455882 0.34362745 0.14068627
0.90392157 0.26862745 0.11372549
0.36911765 0.62303922 0.275
0.39607843 0.61911765 0.26746324
0.44448529 0.63235294 0.2567402
0.5254902 0.6254902 0.27506127
0.61666667 0.61568627 0.2754902
0.71084559 0.59503676 0.25245098
0.79987745 0.58713235 0.21764706
0.87481618 0.52745098 0.21207108
0.95196078 0.48872549 0.19656863
0.46960784 0.75588235 0.35882353
0.49264706 0.75294118 0.35980392
0.53431373 0.75 0.3497549
0.59607843 0.75147059 0.34411765
0.6745098 0.74705882 0.3377451
0.75894608 0.72218137 0.31948529
0.83848039 0.71470588 0.3125
0.91580882 0.70245098 0.30098039
0.98431373 0.67941176 0.28137255
0.58235294 0.85637255 0.44460784
0.60147059 0.86421569 0.44810049
0.63235294 0.86813725 0.44068627
0.68449755 0.86047794 0.4286152
0.73480392 0.86078431 0.41887255
0.81323529 0.84901961 0.40931373
0.88223039 0.84522059 0.39791667
0.94656863 0.84509804 0.39362745
1 0.83333333 0.3745098
0.68627451 0.94901961 0.5254902
0.70147059 0.95294118 0.51813725
0.73235294 0.96568627 0.51372549
0.75931373 0.95294118 0.49803922
0.80784314 0.96078431 0.49411765
0.86421569 0.96323529 0.49019608
0.9245098 0.96568627 0.48333333
0.97352941 0.96078431 0.47843137
1 0.96078431 0.4745098
0.012745098 0.0044117647 0.062254902
0.066115196 0.015686275 0.073529412
0.16078431 0.011764706 0.069607843
0.27273284 0.011764706 0.055392157
0.38602941 0.0073529412 0.036029412
0.50833333 0.0039215686 0.030882353
0.62781863 0.0039215686 0.034803922
0.73529412 0.0039215686 0.022610294
0.82352941 0.0039215686 0.015686275
0.066176471 0.10392157 0.10827206
0.10865502 0.10043658 0.10473346
0.1964614 0.091957721 0.10012255
0.29969363 0.073261336 0.082169118
0.41127451 0.040410539 0.063235294
0.52583487 0.0254519 0.059229473
0.63786765 0.011703431 0.049387255
0.73872549 0.0078431373 0.042156863
0.8161152 0.0078431373 0.030453431
0.10490196 0.22696078 0.16139706
0.15752145 0.21950061 0.15366115
0.24252451 0.21041667 0.1458027
0.34560355 0.19718137 0.13431373
0.4495098 0.16966912 0.12083333
0.56199449 0.12743566 0.1032935
0.66056985 0.07254902 0.082935049
0.74963235 0.0086550245 0.058057598
0.83786765 0.0042892157 0.03125
0.16862745 0.36096814 0.21176471
0.2122549 0.35471814 0.2
0.29754902 0.35471814 0.19217218
0.39394148 0.34313725 0.18658854
0.49623162 0.32009804 0.17328431
0.60804228 0.28462776 0.15882353
0.70343137 0.22389706 0.13982843
0.78627451 0.13805147 0.11672794
0.85165441 0.040502451 0.086580882
0.25686275 0.48823529 0.25392157
0.28924632 0.49019608 0.2541973
0.36176471 0.49540441 0.24981618
0.45441176 0.49313725 0.24344363
0.55330882 0.47830882 0.23517157
0.65563725 0.45539216 0.2135723
0.75220588 0.4098652 0.20251225
0.83826593 0.34926471 0.18722426
0.89166667 0.27083333 0.16764706
0.35520833 0.6254902 0.31960784
0.38841912 0.62491575 0.31930147
0.43020833 0.6254902 0.31600797
0.5162454 0.6254902 0.30813419
0.60931373 0.62009804 0.29877451
0.70883119 0.60477175 0.28915441
0.79375 0.58988971 0.27401961
0.87696078 0.53333333 0.26439951
0.94283088 0.48118873 0.24656863
0.46323529 0.75686275 0.38884804
0.48529412 0.75294118 0.38529412
0.52647059 0.75315564 0.38201593
0.5879136 0.75294118 0.37835478
0.66844363 0.75294118 0.37444853
0.75736826 0.73707108 0.36666667
0.83630515 0.72613358 0.35983456
0.91311275 0.70637255 0.34727328
0.98492647 0.67683824 0.32781863
0.58627451 0.86378676 0.46672794
0.60147059 0.86808364 0.45980392
0.62725184 0.86813725 0.45931373
0.67293199 0.8603171 0.45528493
0.73039216 0.86375613 0.45101103
0.80410539 0.85647978 0.44801624
0.87470895 0.85294118 0.44007353
0.94705882 0.84117647 0.43105852
0.99215686 0.82555147 0.42009804
0.69754902 0.96029412 0.53676471
0.7088848 0.96813725 0.54025735
0.72855392 0.96482843 0.53284314
0.75196078 0.94920343 0.525
0.79607843 0.95294118 0.5247549
0.85392157 0.96029412 0.525
0.91960784 0.96078431 0.51666667
0.98045343 0.9651348 0.51231618
0.99607843 0.95343137 0.50539216
0.012745098 0.019607843 0.15392157
0.051470588 0.013235294 0.15036765
0.14215686 0.010784314 0.14215686
0.26752451 0.015686275 0.14607843
0.39264706 0.019607843 0.13627451
0.49816176 0.0039215686 0.099019608
0.62279412 0.0039215686 0.095343137
0.73529412 0.0039215686 0.079901961
0.81372549 0.0039215686 0.054901961
0.057843137 0.11568627 0.19656863
0.1 0.10473346 0.1964614
0.17791054 0.092555147 0.18835784
0.29143689 0.074509804 0.17219669
0.40300245 0.047242647 0.15514706
0.51911765 0.026960784 0.14477635
0.63033088 0.014552696 0.12855392
0.73492647 0.010094975 0.11325061
0.80882353 0.0078431373 0.10110294
0.098039216 0.23529412 0.24313725
0.1395527 0.22398897 0.23835784
0.22665441 0.21550245 0.23137255
0.33541667 0.19754902 0.2189951
0.44019608 0.16666667 0.20502451
0.55061275 0.12585784 0.18615196
0.65 0.07254902 0.16838235
0.7379902 0.022181373 0.15551471
0.81887255 0.011764706 0.14093137
0.14129902 0.36666667 0.28933824
0.19497549 0.36127451 0.28377757
0.28431373 0.36127451 0.28039216
0.37977941 0.34290748 0.27562806
0.48063725 0.31740196 0.2627451
0.59192708 0.27921262 0.23970588
0.68918505 0.21703431 0.22156863
0.77605699 0.1435049 0.20877757
0.84166667 0.047058824 0.18627451
0.24215686 0.50147059 0.3377451
0.27156863 0.49803922 0.33817402
0.34705882 0.5 0.34215686
0.43780637 0.48841912 0.33431373
0.5377451 0.47647059 0.32254902
0.64289216 0.45931373 0.30833333
0.74068627 0.40980392 0.29448529
0.82977941 0.35392157 0.27671569
0.87941176 0.29117647 0.26470588
0.33982843 0.63517157 0.39607843
0.36665135 0.63037684 0.39822304
0.41875 0.6372549 0.4
0.50188419 0.62996324 0.39584865
0.59503676 0.62175245 0.38235294
0.69252451 0.61127451 0.37585784
0.78688725 0.59068627 0.36945466
0.87303922 0.54546569 0.3526348
0.92879902 0.50735294 0.3372549
0.44803922 0.75686275 0.45882353
0.465625 0.75294118 0.45591299
0.51102941 0.75606618 0.45729167
0.57928922 0.75686275 0.45110294
0.65196078 0.75490196 0.44669118
0.74181985 0.74708946 0.44215686
0.82745098 0.73235294 0.43651961
0.90441176 0.70281863 0.42208946
0.97352941 0.67941176 0.40710784
0.57156863 0.87205882 0.52843137
0.58579963 0.86818321 0.52487745
0.61329657 0.86727941 0.51770833
0.66269914 0.87205882 0.51703431
0.72279412 0.8685049 0.51973039
0.79031863 0.86452206 0.51168811
0.8671875 0.8567402 0.50039828
0.94039522 0.84499081 0.4919424
0.98823529 0.83026961 0.48186275
0.68627451 0.95686275 0.58627451
0.70245098 0.96556373 0.59019608
0.72671569 0.9745098 0.59240196
0.75110294 0.95980392 0.58811275
0.79607843 0.96078431 0.58627451
0.85098039 0.96470588 0.58235294
0.90955882 0.95612745 0.5745098
0.96960784 0.96078431 0.56666667
1 0.96372549 0.5627451
0.010784314 0.018627451 0.25343137
0.024816176 0.0056985294 0.24264706
0.11862745 0.010294118 0.2372549
0.23480392 0.0023897059 0.23480392
0.36151961 0.006372549 0.21446078
0.48823529 0.0039215686 0.20435049
0.61115196 0.0039215686 0.1995098
0.72322304 0.0039215686 0.18057598
0.78823529 0.0039215686 0.17058824
0.053921569 0.11832108 0.29528186
0.074509804 0.11176471 0.296875
0.15831801 0.10303309 0.29348958
0.27223499 0.093336397 0.27959559
0.39151348 0.058976716 0.26577819
0.5091299 0.034918811 0.24921875
0.6189951 0.011642157 0.23002451
0.72306219 0.0078048407 0.21655944
0.8 0.0039215686 0.20667892
0.090318627 0.23529412 0.34264706
0.11960784 0.23342525 0.33961397
0.20358456 0.22398897 0.33431373
0.31727941 0.20761336 0.32585784
0.42702206 0.18039216 0.31133578
0.54030331 0.13394608 0.29278493
0.64117647 0.081862745 0.27132353
0.73198529 0.025474877 0.260769
0.8 0.0039215686 0.25196078
0.1254902 0.37303922 0.39264706
0.16764706 0.37303922 0.38792126
0.2544424 0.36450674 0.38411458
0.35582108 0.35042892 0.3803079
0.46865809 0.32840074 0.36492034
0.58241422 0.28292739 0.34168964
0.68249081 0.24257047 0.32843137
0.77156097 0.16941636 0.31617647
0.82843137 0.075 0.29761029
0.18921569 0.50906863 0.44387255
0.25098039 0.50980392 0.44191176
0.32395833 0.50784314 0.4408701
0.4127451 0.50223652 0.43526348
0.52303922 0.48394608 0.42267157
0.63137255 0.46053922 0.40934436
0.73112745 0.42628676 0.39797794
0.82034314 0.36911765 0.38268995
0.87769608 0.29240196 0.36813725
0.32653186 0.64117647 0.49509804
0.34098499 0.64362745 0.49509804
0.40706189 0.6372549 0.49656863
0.48212316 0.6372549 0.49622396
0.57668505 0.62352941 0.47892157
0.67943474 0.61202512 0.47007506
0.77359069 0.59106924 0.46435355
0.8591299 0.55576746 0.446875
0.91421569 0.51954657 0.43382353
0.43468137 0.76715686 0.55012255
0.45387561 0.76341912 0.54656863
0.49901961 0.7573223 0.54656863
0.56188725 0.76078431 0.54656863
0.63676471 0.7591299 0.54019608
0.72535233 0.74963235 0.53088235
0.81323529 0.73651961 0.52696078
0.89689032 0.71029412 0.51309743
0.95539216 0.6872549 0.49558824
0.55226716 0.87598039 0.60802696
0.57420343 0.87265625 0.60441176
0.6009038 0.87205882 0.59811581
0.64717371 0.8738894 0.59803922
0.70579044 0.87337623 0.59549632
0.78039216 0.86733303 0.59031097
0.85874694 0.86078431 0.58872549
0.93262102 0.85089614 0.58041513
0.9908701 0.83333333 0.5653799
0.67058824 0.95931373 0.65588235
0.67598039 0.95128676 0.6504902
0.70245098 0.96078431 0.65588235
0.74509804 0.96617647 0.65980392
0.7875 0.96397059 0.65710784
0.83823529 0.95441176 0.64803922
0.90894608 0.97303922 0.65159314
0.96176471 0.95294118 0.63872549
0.99607843 0.95294118 0.63235294
0.0078431373 0.023529412 0.36470588
0.023039216 0.021568627 0.36078431
0.10539216 0.01372549 0.35490196
0.21960784 0.020343137 0.35294118
0.35098039 0.016666667 0.33333333
0.47058824 0 0.31568627
0.59754902 0.0039215686 0.31176471
0.70171569 0 0.30343137
0.79803922 0 0.28039216
0.032843137 0.12941176 0.40710784
0.048039216 0.13115809 0.41277574
0.13854167 0.11623775 0.40692402
0.25220588 0.1004902 0.39534314
0.37401961 0.081004902 0.37757353
0.49509804 0.04598652 0.35851716
0.60490196 0.012990196 0.34589461
0.70882353 0 0.3325674
0.80147059 0 0.31887255
0.054411765 0.25294118 0.45343137
0.083272059 0.25245098 0.45300245
0.16960784 0.24117647 0.45
0.28921569 0.22377451 0.44154412
0.40857843 0.19730392 0.4252451
0.52328431 0.15582108 0.40533088
0.63137255 0.096691176 0.38982843
0.72230392 0.036887255 0.37671569
0.79558824 0.023039216 0.36127451
0.085294118 0.38553922 0.50367647
0.1135723 0.38431373 0.49779412
0.21378676 0.37408088 0.49387255
0.33262868 0.36155025 0.4879902
0.45330882 0.34362745 0.47426471
0.56764706 0.31470588 0.46148897
0.67359069 0.26158088 0.44362745
0.76167279 0.18465074 0.42490809
0.82058824 0.084068627 0.40955882
0.13823529 0.52156863 0.54901961
0.20661765 0.51666667 0.54705882
0.29362745 0.50808824 0.54534314
0.39191176 0.50845588 0.53823529
0.50735294 0.49411765 0.52352941
0.61593137 0.47965686 0.51531863
0.71593137 0.44338235 0.50147059
0.80808824 0.37585784 0.48394608
0.8745098 0.29607843 0.47058824
0.28186275 0.65294118 0.59558824
0.30318627 0.65122549 0.59329044
0.38382353 0.64117647 0.59166667
0.46246936 0.64117647 0.58967525
0.55980392 0.63370098 0.5810049
0.66348039 0.62325368 0.57037377
0.75557598 0.60098039 0.56109069
0.85392157 0.55818015 0.54568015
0.90343137 0.51813725 0.53308824
0.40588235 0.7745098 0.64656863
0.43069853 0.77254902 0.6408701
0.4817402 0.76470588 0.63529412
0.54313725 0.76470588 0.63823529
0.6254902 0.76078431 0.63112745
0.71011029 0.75275735 0.62352941
0.79803922 0.74191176 0.6182598
0.88915441 0.70827206 0.60343137
0.94264706 0.69019608 0.58970588
0.53186275 0.88382353 0.69264706
0.55879289 0.88382353 0.68943015
0.58314951 0.88057598 0.68529412
0.63382353 0.87990196 0.68529412
0.6935049 0.87598039 0.68308824
0.7754902 0.86685049 0.67745098
0.84803922 0.86066176 0.67089461
0.92110907 0.85245098 0.66348039
0.97843137 0.83357843 0.65
0.66862745 0.97058824 0.7372549
0.66862745 0.95906863 0.72941176
0.69656863 0.96617647 0.73480392
0.71053922 0.94607843 0.72303922
0.77941176 0.96568627 0.73333333
0.8375 0.96666667 0.72745098
0.89215686 0.95686275 0.72156863
0.95392157 0.96078431 0.71960784
0.99411765 0.96078431 0.71372549
0.0039215686 0.02745098 0.48039216
0.0098039216 0.019914216 0.475
0.091789216 0.021568627 0.47205882
0.19166667 0.010784314 0.45778186
0.33382353 0.011764706 0.45686275
0.46770833 0.0039215686 0.44993873
0.58615196 0.0039215686 0.43235294
0.6841299 0.0014705882 0.42156863
0.775 0 0.39803922
0.019607843 0.14050245 0.52285539
0.025490196 0.14050245 0.52285539
0.11213235 0.1317402 0.51766238
0.23529412 0.11635263 0.50797335
0.35882353 0.08661152 0.48946078
0.47990196 0.044002757 0.47912071
0.59178922 0.013893995 0.46384804
0.6877451 0.00030637255 0.44852941
0.78823529 0 0.43676471
0.031004902 0.275 0.57144608
0.028125 0.2745098 0.56983762
0.1370098 0.25873162 0.56375613
0.27101716 0.24160539 0.55553002
0.39779412 0.2161152 0.53952206
0.51193321 0.1754902 0.52218137
0.62156863 0.12766544 0.50560662
0.71421569 0.030039828 0.48275123
0.75183824 0.010784314 0.47401961
0.033823529 0.40496324 0.61170343
0.045588235 0.40196078 0.61170343
0.16901042 0.39204963 0.60640319
0.3127451 0.38082108 0.59622396
0.4370098 0.3598652 0.58529412
0.55322457 0.33235294 0.57179841
0.66459865 0.28567708 0.55356924
0.75029105 0.19607843 0.53046109
0.81519608 0.088296569 0.5127451
0.075980392 0.53602941 0.65416667
0.13854167 0.53333333 0.65343137
0.25 0.52248775 0.64681373
0.37591912 0.51565564 0.6377451
0.48321078 0.50490196 0.62928922
0.59264706 0.48992034 0.6205576
0.70557598 0.46004902 0.60772059
0.79877451 0.39656863 0.59001225
0.8745098 0.31960784 0.57769608
0.22401961 0.66470588 0.69754902
0.2504902 0.66096814 0.69374234
0.34154412 0.65110294 0.68993566
0.44803922 0.64509804 0.68431373
0.54068627 0.64041054 0.67748162
0.63991268 0.6314568 0.66897212
0.73835784 0.61565564 0.66081495
0.83892463 0.57745864 0.64626225
0.90398284 0.52794118 0.63088235
0.36421569 0.78370098 0.73933824
0.38886336 0.78053002 0.73546262
0.44099265 0.77601103 0.73480392
0.51824449 0.77193627 0.73088235
0.60367647 0.77009804 0.72696078
0.69094669 0.76378676 0.71973039
0.77928922 0.74813113 0.70808824
0.8734375 0.72513787 0.69649203
0.93639706 0.6932598 0.68480392
0.51470588 0.88382353 0.77775735
0.53727788 0.88382353 0.77745098
0.56536458 0.88480392 0.77352941
0.61666667 0.87990196 0.77304688
0.68308824 0.87990196 0.76724877
0.75225184 0.87990196 0.76520374
0.82959559 0.86951593 0.75589767
0.91127451 0.86142004 0.7504902
0.97077206 0.8372549 0.73872549
0.64166667 0.96078431 0.8122549
0.64920343 0.96078431 0.8122549
0.67696078 0.96862745 0.81470588
0.7122549 0.96317402 0.80833333
0.77058824 0.97009804 0.81151961
0.81862745 0.96617647 0.80349265
0.88431373 0.96862745 0.8004902
0.94803922 0.96648284 0.79883578
0.96078431 0.94901961 0.79264706
0.0039215686 0.044117647 0.59509804
0.0039215686 0.037377451 0.58872549
0.054656863 0.023529412 0.58333333
0.16715686 0.014215686 0.56801471
0.31078431 0.024509804 0.56568627
0.44411765 0.006372549 0.55833333
0.56789216 0.00098039216 0.52941176
0.68431373 0.0039215686 0.52806373
0.75686275 0 0.51372549
0.011764706 0.16629902 0.63468137
0.02254902 0.16329657 0.6307598
0.086060049 0.14338235 0.62359069
0.20943627 0.13363971 0.61162684
0.34338235 0.10459559 0.60067402
0.46582414 0.063541667 0.58506434
0.57840074 0.018474265 0.56703431
0.6877451 0.00859375 0.55147059
0.76727941 0.0039215686 0.54362745
0.011764706 0.29901961 0.67622549
0.03158701 0.29359681 0.67291667
0.10667892 0.27806373 0.66783088
0.24261642 0.26749387 0.65404412
0.37647059 0.24215686 0.64301471
0.50085784 0.19313725 0.62950368
0.61243873 0.14001225 0.61348039
0.70245098 0.062101716 0.59047181
0.76078431 0.0068627451 0.58014706
0.0050245098 0.42647059 0.71090686
0.0044577206 0.41830576 0.70735294
0.092279412 0.41041667 0.70851716
0.27378983 0.40150123 0.69650735
0.41323529 0.37928922 0.68627451
0.53382353 0.3410386 0.67359069
0.6526348 0.30438113 0.65992647
0.74080882 0.20975797 0.63916973
0.8060049 0.11801471 0.62352941
0.0078431373 0.54509804 0.74754902
0.057965686 0.54865196 0.75
0.18247549 0.54289216 0.74607843
0.328125 0.53400735 0.73504902
0.45367647 0.51519608 0.72965686
0.57401961 0.49920343 0.71985294
0.69191176 0.4754902 0.70845588
0.78327206 0.42218137 0.6939951
0.85245098 0.34558824 0.6754902
0.15392157 0.67254902 0.78872549
0.19264706 0.66862745 0.78480392
0.28125 0.66752451 0.78480392
0.40571385 0.66115196 0.77866115
0.50588235 0.65330882 0.76985294
0.6176777 0.6444087 0.763894
0.72509191 0.62922794 0.75735294
0.82156863 0.59460784 0.74528186
0.90061275 0.53823529 0.72990196
0.3247549 0.78823529 0.82671569
0.34068627 0.7872549 0.82352941
0.39705882 0.78376225 0.82352941
0.48219975 0.77720588 0.81914828
0.57977941 0.77352941 0.81176471
0.67598039 0.77227328 0.8067402
0.76917892 0.75759804 0.79920343
0.85735294 0.73391544 0.78786765
0.94191176 0.70686275 0.78039216
0.49166667 0.8877451 0.8622549
0.50364583 0.8877451 0.8622549
0.54359681 0.88385417 0.85833333
0.59019608 0.88382353 0.85182292
0.65931373 0.8877451 0.85392157
0.73498775 0.88628983 0.84607843
0.81369485 0.87904412 0.84178922
0.89488358 0.86781556 0.83362439
0.95343137 0.84901961 0.82696078
0.63529412 0.96862745 0.89607843
0.64791667 0.97352941 0.89705882
0.65269608 0.96470588 0.88921569
0.70294118 0.97316176 0.88921569
0.74068627 0.96127451 0.88039216
0.79803922 0.95857843 0.87316176
0.86151961 0.95588235 0.87254902
0.94166667 0.97990196 0.8817402
0.96568627 0.95392157 0.87254902
0 0.048039216 0.69509804
0.0039215686 0.075490196 0.69509804
0.024019608 0.031495098 0.68431373
0.1408701 0.024693627 0.67224265
0.28455882 0.036764706 0.6625
0.42156863 0.0068627451 0.64430147
0.55245098 0.0039215686 0.63933824
0.66764706 0.0039215686 0.63290441
0.74901961 0 0.6372549
0.0039215686 0.18584559 0.72598039
0.0078354779 0.19368873 0.73468903
0.059803922 0.18414522 0.72625613
0.15680147 0.16312806 0.70817249
0.31124387 0.13140319 0.68893995
0.45198376 0.097855392 0.68529412
0.56835172 0.032643995 0.65151654
0.67941176 0.0078431373 0.64417126
0.75637255 0.003002451 0.64417892
0.0078431373 0.31372549 0.7495098
0.010845588 0.31395527 0.76122855
0.06004902 0.30744485 0.76127451
0.16564032 0.29215686 0.7529565
0.34693627 0.26488971 0.73498775
0.48321078 0.22633272 0.73235294
0.59702819 0.17009804 0.70931373
0.69390319 0.096032475 0.68965993
0.76372549 0.010294118 0.67843137
0.0039215686 0.4372549 0.78382353
0.0078431373 0.42941176 0.78801317
0.023514093 0.42990196 0.80160846
0.20655637 0.41923254 0.78431373
0.38406863 0.39935662 0.77328431
0.51813725 0.37205882 0.76373315
0.63716299 0.33489583 0.75900735
0.73360141 0.24871324 0.7437883
0.80245098 0.13854167 0.72579657
0.011764706 0.55318627 0.82279412
0.026991422 0.55686275 0.82843137
0.07622549 0.55686275 0.83921569
0.24932598 0.5479473 0.83057598
0.42107843 0.53639706 0.81544118
0.55814951 0.51927083 0.8002451
0.67512255 0.49509804 0.80073529
0.77401961 0.44564951 0.78290441
0.84313725 0.36691176 0.77377451
0.030514706 0.67647059 0.87481618
0.063541667 0.68066023 0.87741268
0.2 0.67942708 0.87242647
0.35490196 0.67273284 0.86881127
0.47696078 0.66470588 0.85759804
0.59676011 0.65471814 0.85281097
0.70796569 0.64250919 0.85
0.80425092 0.59852941 0.83335631
0.88627451 0.55392157 0.82598039
0.22941176 0.7872549 0.90784314
0.28307292 0.7872549 0.9069087
0.34705882 0.79117647 0.91204044
0.44215686 0.78860294 0.90441176
0.54883578 0.78431373 0.89656863
0.65307904 0.77838542 0.89136029
0.74987745 0.76498162 0.88367034
0.8495098 0.74552696 0.87389706
0.90821078 0.7254902 0.86482843
0.45735294 0.88382353 0.92696078
0.46121324 0.88382353 0.92958793
0.50281863 0.8877451 0.93480392
0.56746324 0.8877451 0.9321921
0.64286152 0.89166667 0.92279412
0.71415441 0.88752298 0.92647059
0.79558824 0.88071385 0.92308517
0.88431373 0.86856618 0.91482077
0.95386029 0.85686275 0.90196078
0.60343137 0.96470588 0.9495098
0.60386029 0.96470588 0.95
0.64620098 0.98051471 0.96973039
0.68069853 0.97647059 0.95931373
0.7247549 0.96617647 0.94191176
0.79068627 0.96813725 0.94822304
0.85294118 0.96911765 0.9504902
0.9216299 0.96801471 0.94944853
0.98823529 0.97254902 0.93333333
0 0.066666667 0.7372549
0.0078431373 0.10147059 0.7372549
0.010784314 0.048039216 0.7254902
0.12205882 0.033823529 0.71764706
0.27647059 0.045098039 0.71176471
0.42303922 0.028431373 0.70441176
0.54509804 0.0039215686 0.67352941
0.64901961 0.0039215686 0.68284314
0.74117647 0 0.69803922
0.0039215686 0.20931373 0.77205882
0.0039215686 0.21023284 0.77598039
0.044607843 0.19852941 0.76813725
0.14166667 0.17579657 0.75765931
0.30343137 0.14926471 0.7502451
0.44460784 0.10508578 0.72352941
0.56029412 0.04375 0.70441176
0.66464461 0.0069240196 0.70545343
0.74901961 0 0.69803922
0 0.32941176 0.82156863
0.0039215686 0.3254902 0.81078431
0.031127451 0.32254902 0.80686275
0.14056373 0.30232843 0.79620098
0.3245098 0.27598039 0.78137255
0.47941176 0.23737745 0.75943627
0.59019608 0.18137255 0.74705882
0.68762255 0.10294118 0.73970588
0.76372549 0.0078431373 0.72058824
0.006372549 0.43872549 0.84558824
0.014215686 0.4372549 0.83382353
0.028063725 0.43480392 0.83529412
0.16617647 0.42303922 0.82898284
0.35735294 0.40906863 0.81617647
0.51176471 0.38817402 0.80582108
0.62598039 0.34031863 0.79509804
0.7254902 0.25735294 0.7745098
0.79852941 0.15980392 0.75392157
0.011764706 0.55294118 0.87647059
0.011764706 0.55686275 0.8745098
0.034803922 0.56078431 0.88039216
0.20931373 0.55294118 0.87254902
0.40098039 0.54705882 0.86176471
0.54387255 0.53259804 0.85686275
0.66470588 0.50294118 0.83872549
0.77401961 0.45784314 0.83308824
0.85882353 0.38823529 0.81764706
0.0078431373 0.67647059 0.91666667
0.015686275 0.68186275 0.91911765
0.15085784 0.68039216 0.91127451
0.33039216 0.67647059 0.89650735
0.45784314 0.66862745 0.8995098
0.5877451 0.66323529 0.89258578
0.70245098 0.64803922 0.8692402
0.80686275 0.60900735 0.87205882
0.88382353 0.55392157 0.85784314
0.16862745 0.78333333 0.94117647
0.24313725 0.7872549 0.9254902
0.33161765 0.79117647 0.94191176
0.42696078 0.79117647 0.94215686
0.53921569 0.7877451 0.93627451
0.64068627 0.78039216 0.92928922
0.74509804 0.76862745 0.91960784
0.84558824 0.75159314 0.91470588
0.92156863 0.72156863 0.90294118
0.41127451 0.88382353 0.96127451
0.45294118 0.88382353 0.95692402
0.47990196 0.88382353 0.96127451
0.5504902 0.8877451 0.96911765
0.63872549 0.89166667 0.96519608
0.70980392 0.88756127 0.96127451
0.78909314 0.88419118 0.96127451
0.8838848 0.86421569 0.94117647
0.94558824 0.84901961 0.90588235
0.59607843 0.97647059 0.99215686
0.60392157 0.97647059 0.99215686
0.62647059 0.96862745 0.98333333
0.66764706 0.98039216 0.99607843
0.72352941 0.97843137 0.99411765
0.77156863 0.95686275 0.98431373
0.84901961 0.97352941 0.98921569
0.91862745 0.97254902 0.96813725
0.98039216 0.96470588 0.93333333
