site/assets/luts/natron-haldclut--expired-fade--0856268fd.cube
# LUTr-Project: LUTr — LUTrepository
# LUTr-Schema-Version: 1
# LUTr-ID: natron-haldclut--expired-fade--0856268fd
# LUTr-Title: expired fade
# LUTr-Collection: Natron HaldCLUT
# LUTr-Collection-ID: natron-haldclut-presets
# LUTr-Source: https://github.com/NatronGitHub/clut
# LUTr-Source-File: submissions/natron-haldclut-presets/various/expired_fade.png
# LUTr-Source-Format: PNG
# LUTr-Source-SHA256: 0f6def0a4f9d54186b46655c6c049b00219e1c6b18e4ae7e3483439e8e3bc675
# LUTr-License: CC-BY-SA-4.0
# LUTr-License-URL: https://github.com/NatronGitHub/clut#license
# LUTr-Tags: creative, film, film-emulation, hald-clut, natron, png, cube
# LUTr-Transform-Class: film-emulation
# LUTr-Input-Color-Space: srgb
# LUTr-Output-Color-Space: srgb
# LUTr-Color-Space-Confidence: assumed-display-referred
# LUTr-Conversion-Method: PNG LUT image decoded at 16-bit and sampled to 25x25x25 3D CUBE
# LUTr-Conversion-Date: 2026-07-27
# LUTr-Conversion-Tool: LUTr scripts/convert-all-to-cube.mjs
# LUTr-Conversion-Grid: 25x25x25
# LUTr-Note: Preserve this metadata and the upstream license notices when redistributing.
TITLE "expired fade"
LUT_3D_SIZE 5
DOMAIN_MIN 0 0 0
DOMAIN_MAX 1 1 1
0.22745098 0.11764706 0.02745098
0.33921569 0.16372549 0.050980392
0.54117647 0.24117647 0.11372549
0.7754902 0.35490196 0.20980392
0.89411765 0.45490196 0.26666667
0.26176471 0.22843137 0.05
0.33921569 0.2247549 0.047058824
0.54117647 0.30294118 0.11617647
0.76053922 0.39926471 0.19338235
0.92254902 0.49313725 0.2745098
0.35294118 0.40784314 0.10980392
0.42009804 0.41176471 0.11568627
0.56176471 0.43137255 0.11176471
0.77156863 0.50784314 0.17401961
0.91372549 0.57647059 0.24313725
0.48431373 0.62647059 0.21764706
0.53039216 0.61078431 0.20269608
0.64803922 0.62647059 0.18970588
0.77647059 0.62745098 0.1627451
0.87352941 0.66764706 0.20294118
0.58431373 0.77254902 0.29019608
0.63137255 0.76568627 0.2754902
0.72745098 0.76666667 0.24705882
0.8254902 0.7372549 0.21568627
0.90980392 0.76862745 0.21568627
0.25784314 0.15196078 0.096078431
0.32696078 0.14289216 0.087990196
0.54313725 0.21960784 0.15147059
0.76862745 0.34240196 0.24730392
0.9245098 0.43235294 0.3245098
0.25465686 0.21470588 0.089215686
0.35098039 0.23780637 0.11268382
0.54901961 0.30098039 0.16139706
0.7713848 0.4 0.23529412
0.91372549 0.48529412 0.30808824
0.35735294 0.41176471 0.16323529
0.4060049 0.40588235 0.15784314
0.56102941 0.42671569 0.15686275
0.77156863 0.50183824 0.22316176
0.91715686 0.56911765 0.29313725
0.46151961 0.61862745 0.25098039
0.52647059 0.62254902 0.24154412
0.64068627 0.62107843 0.22745098
0.78235294 0.63449755 0.22352941
0.92230392 0.68039216 0.27328431
0.55784314 0.75686275 0.31666667
0.60686275 0.76053922 0.3127451
0.70980392 0.74901961 0.28137255
0.8372549 0.76102941 0.26960784
0.92156863 0.76470588 0.26568627
0.34509804 0.2254902 0.25294118
0.40980392 0.23137255 0.2504902
0.56960784 0.23137255 0.27647059
0.76617647 0.31960784 0.34852941
0.92745098 0.40196078 0.40588235
0.33382353 0.29068627 0.24901961
0.41372549 0.29117647 0.24901961
0.55 0.28578431 0.25980392
0.75980392 0.37647059 0.3317402
0.90980392 0.45392157 0.39607843
0.32647059 0.41470588 0.26078431
0.40686275 0.40808824 0.25906863
0.56764706 0.43186275 0.27696078
0.76372549 0.49117647 0.32941176
0.91176471 0.56078431 0.38431373
0.44705882 0.62254902 0.33921569
0.5067402 0.61372549 0.33431373
0.62107843 0.61862745 0.325
0.7754902 0.62965686 0.32107843
0.92156863 0.67647059 0.37205882
0.53333333 0.77058824 0.40588235
0.58872549 0.76470588 0.4004902
0.70392157 0.76176471 0.38431373
0.8254902 0.74166667 0.36862745
0.92352941 0.76666667 0.36470588
0.47254902 0.35490196 0.44607843
0.53259804 0.35588235 0.43823529
0.65245098 0.31715686 0.44362745
0.7754902 0.30784314 0.45
0.89019608 0.35980392 0.49215686
0.46470588 0.40490196 0.44215686
0.52254902 0.39240196 0.43841912
0.63333333 0.36862745 0.42622549
0.78633578 0.36133578 0.45392157
0.92156863 0.43651961 0.49901961
0.44901961 0.50147059 0.44117647
0.50294118 0.49117647 0.43823529
0.62990196 0.4872549 0.44215686
0.77156863 0.4872549 0.44681373
0.91764706 0.54117647 0.48431373
0.42622549 0.62647059 0.44681373
0.49411765 0.63039216 0.45
0.6317402 0.62745098 0.45208333
0.77867647 0.6317402 0.45294118
0.91789216 0.67254902 0.48431373
0.50882353 0.75686275 0.49607843
0.56666667 0.76764706 0.50294118
0.68627451 0.76519608 0.49558824
0.82254902 0.76495098 0.48823529
0.91764706 0.74509804 0.48039216
0.58431373 0.45098039 0.58039216
0.62647059 0.42745098 0.57156863
0.72745098 0.40196078 0.57843137
0.84411765 0.3754902 0.57647059
0.90980392 0.36470588 0.57647059
0.56568627 0.49215686 0.57156863
0.62254902 0.47279412 0.57034314
0.71421569 0.45539216 0.57205882
0.84019608 0.43039216 0.57867647
0.90980392 0.43823529 0.56078431
0.54509804 0.57843137 0.57254902
0.58529412 0.55882353 0.55882353
0.69705882 0.55294118 0.56862745
0.82941176 0.54117647 0.57058824
0.92156863 0.5372549 0.56078431
0.48235294 0.67941176 0.55686275
0.56666667 0.67647059 0.56862745
0.68235294 0.67254902 0.5627451
0.82156863 0.66151961 0.56568627
0.9254902 0.67254902 0.56176471
0.50196078 0.76470588 0.54509804
0.54803922 0.75980392 0.56764706
0.6745098 0.76470588 0.56862745
0.82156863 0.76568627 0.57352941
0.92941176 0.77254902 0.58039216
