site/assets/luts/natron-haldclut--faded-analog--44dbb4563.cube
# LUTr-Project: LUTr — LUTrepository
# LUTr-Schema-Version: 1
# LUTr-ID: natron-haldclut--faded-analog--44dbb4563
# LUTr-Title: faded analog
# LUTr-Collection: Natron HaldCLUT
# LUTr-Collection-ID: natron-haldclut-presets
# LUTr-Source: https://github.com/NatronGitHub/clut
# LUTr-Source-File: submissions/natron-haldclut-presets/various/faded_analog.png
# LUTr-Source-Format: PNG
# LUTr-Source-SHA256: e7b6990d39b47572db74544b87adf772f1b555083f9fd6d859a8c99cc7f1b76c
# LUTr-License: CC-BY-SA-4.0
# LUTr-License-URL: https://github.com/NatronGitHub/clut#license
# LUTr-Tags: creative, film, film-emulation, hald-clut, natron, png, vintage, cube
# LUTr-Transform-Class: film-emulation
# LUTr-Input-Color-Space: srgb
# LUTr-Output-Color-Space: srgb
# LUTr-Color-Space-Confidence: assumed-display-referred
# LUTr-Conversion-Method: PNG LUT image decoded at 16-bit and sampled to 25x25x25 3D CUBE
# LUTr-Conversion-Date: 2026-07-27
# LUTr-Conversion-Tool: LUTr scripts/convert-all-to-cube.mjs
# LUTr-Conversion-Grid: 25x25x25
# LUTr-Note: Preserve this metadata and the upstream license notices when redistributing.
TITLE "faded analog"
LUT_3D_SIZE 9
DOMAIN_MIN 0 0 0
DOMAIN_MAX 1 1 1
0.090196078 0.08627451 0.2627451
0.10539216 0.090196078 0.28578431
0.18529412 0.090196078 0.2754902
0.30637255 0.083823529 0.2627451
0.46470588 0.084313725 0.25686275
0.60196078 0.082352941 0.27598039
0.71176471 0.087254902 0.29019608
0.78137255 0.082352941 0.26666667
0.79215686 0.094117647 0.2745098
0.089705882 0.13578431 0.2627451
0.11372549 0.15098039 0.2745098
0.19056373 0.13982843 0.27022059
0.30637255 0.13529412 0.26666667
0.46470588 0.13529412 0.2627451
0.60196078 0.13186275 0.27205882
0.70796569 0.13970588 0.28664216
0.77352941 0.15147059 0.2745098
0.80735294 0.15539216 0.27058824
0.087254902 0.23921569 0.26666667
0.096691176 0.24019608 0.26237745
0.18921569 0.24019608 0.27843137
0.30784314 0.23921569 0.26311275
0.45686275 0.23578431 0.26666667
0.59620098 0.23235294 0.2627451
0.70784314 0.24019608 0.26053922
0.77303922 0.24791667 0.27058824
0.81666667 0.23921569 0.26568627
0.08627451 0.35098039 0.25882353
0.10569853 0.35490196 0.27432598
0.17647059 0.35134804 0.29056373
0.30637255 0.34852941 0.2627451
0.46004902 0.34705882 0.2627451
0.60196078 0.34852941 0.2627451
0.70490196 0.35490196 0.2627451
0.77303922 0.35098039 0.26145833
0.80784314 0.34705882 0.2627451
0.090196078 0.47647059 0.27058824
0.11544118 0.4745098 0.26862745
0.17254902 0.47058824 0.26862745
0.30245098 0.46666667 0.27794118
0.46078431 0.47058824 0.26078431
0.59607843 0.4745098 0.26544118
0.70882353 0.475 0.2627451
0.76911765 0.47034314 0.26666667
0.81176471 0.4627451 0.2627451
0.082352941 0.59264706 0.2627451
0.10784314 0.59019608 0.26145833
0.17291667 0.58480392 0.26176471
0.30245098 0.58088235 0.28627451
0.4627451 0.58480392 0.26029412
0.59859069 0.58872549 0.26666667
0.71066176 0.58811275 0.26605392
0.77481618 0.58658088 0.27107843
0.81176471 0.5877451 0.27598039
0.090196078 0.68529412 0.26666667
0.098529412 0.68921569 0.25882353
0.17941176 0.68161765 0.26348039
0.30490196 0.68137255 0.2627451
0.46078431 0.68137255 0.2745098
0.61127451 0.68823529 0.2745098
0.70882353 0.68431373 0.26740196
0.77696078 0.68137255 0.26580882
0.81176471 0.68431373 0.26960784
0.08627451 0.76519608 0.26666667
0.11317402 0.76519608 0.26666667
0.16911765 0.76262255 0.26311275
0.30637255 0.75214461 0.27696078
0.46078431 0.7620098 0.2625
0.60735294 0.75392157 0.26666667
0.70490196 0.75 0.27892157
0.77702206 0.7504902 0.275
0.81176471 0.75735294 0.27156863
0.08627451 0.80392157 0.26666667
0.096568627 0.80833333 0.2627451
0.18921569 0.80392157 0.2627451
0.30245098 0.79754902 0.25882353
0.46078431 0.78235294 0.2627451
0.61372549 0.80931373 0.25882353
0.71176471 0.8 0.27941176
0.78088235 0.7995098 0.29460784
0.81176471 0.79607843 0.30588235
0.098039216 0.08627451 0.31666667
0.10196078 0.08627451 0.30882353
0.18431373 0.089338235 0.3127451
0.30508578 0.08627451 0.32058824
0.46862745 0.082352941 0.31666667
0.60588235 0.082352941 0.3127451
0.71176471 0.090196078 0.3127451
0.77352941 0.094117647 0.32107843
0.81519608 0.086764706 0.31323529
0.093688725 0.13578431 0.31666667
0.10190717 0.13933058 0.31666667
0.18137255 0.14411765 0.31666667
0.30245098 0.13574602 0.32058824
0.46495098 0.13186275 0.31666667
0.60234375 0.13341759 0.31664369
0.71176471 0.13921569 0.31666667
0.7734758 0.14019608 0.3245098
0.80876225 0.15980392 0.32058824
0.08627451 0.24411765 0.30894608
0.094806985 0.24313725 0.30926777
0.1768076 0.24411765 0.31666667
0.30245098 0.24019608 0.31643689
0.45686275 0.23529412 0.31495098
0.60165441 0.23737745 0.31666667
0.70784314 0.24019608 0.32058824
0.7661152 0.24313725 0.32060355
0.80490196 0.24411765 0.3245098
0.084803922 0.35490196 0.30863971
0.091888787 0.35098039 0.30753676
0.16960784 0.35482537 0.31484375
0.30245098 0.35098039 0.31648284
0.45686275 0.34705882 0.3127451
0.60196078 0.35098039 0.31537224
0.71176471 0.357981 0.31643689
0.76911765 0.35459559 0.32054994
0.79803922 0.35067402 0.31636029
0.090196078 0.47107843 0.31470588
0.10931373 0.47058824 0.30931373
0.16960784 0.4745098 0.3127451
0.30245098 0.47166054 0.32205882
0.45796569 0.47058824 0.3127451
0.59803922 0.47515319 0.31265319
0.7127451 0.47843137 0.3122549
0.76960784 0.47058824 0.3127451
0.80441176 0.4627451 0.3122549
0.090012255 0.58498775 0.31844363
0.10757506 0.58262102 0.31432292
0.17352941 0.58872549 0.31564032
0.30379136 0.58480392 0.32598039
0.46470588 0.58627451 0.3127451
0.60331648 0.58872549 0.31256127
0.70882353 0.59234069 0.3127451
0.77714461 0.58872549 0.3127451
0.80784314 0.58872549 0.31256127
0.08627451 0.68137255 0.32058824
0.097288603 0.68443627 0.31666667
0.18529412 0.68137255 0.32012868
0.30637255 0.68137255 0.32009804
0.46470588 0.68523284 0.32040441
0.60998775 0.68916973 0.3122549
0.70784314 0.68719363 0.31360294
0.77352941 0.68518689 0.31349571
0.80392157 0.68529412 0.3127451
0.089276961 0.75784314 0.3127451
0.11366422 0.75403646 0.31666667
0.18088235 0.75435049 0.32058824
0.30637255 0.75389859 0.32015931
0.46620711 0.7580576 0.31666667
0.60606618 0.75 0.31488971
0.70098039 0.75 0.32058824
0.77696078 0.75392157 0.31666667
0.80784314 0.75784314 0.3127451
0.090196078 0.7877451 0.31617647
0.1127451 0.80392157 0.32058824
0.18921569 0.80257353 0.31715686
0.30637255 0.79558824 0.31666667
0.45686275 0.78823529 0.31666667
0.60735294 0.80018382 0.31617647
0.70882353 0.79607843 0.31666667
0.78088235 0.79607843 0.31666667
0.81911765 0.8 0.30980392
0.098039216 0.082352941 0.38137255
0.097671569 0.083210784 0.38137255
0.18210784 0.08627451 0.37843137
0.3060049 0.08627451 0.38235294
0.46470588 0.084313725 0.38235294
0.60196078 0.084191176 0.38235294
0.71176471 0.08627451 0.38235294
0.77352941 0.089338235 0.38235294
0.81176471 0.094117647 0.38235294
0.094117647 0.13186275 0.38137255
0.09754902 0.13186275 0.37912071
0.18137255 0.13538603 0.38063725
0.30428922 0.13578431 0.38235294
0.46470588 0.13578431 0.38192402
0.59840686 0.13517157 0.38627451
0.71443015 0.13578431 0.38627451
0.77046569 0.13578431 0.38615196
0.80036765 0.14460784 0.38627451
0.082598039 0.23235294 0.37843137
0.092769608 0.23627451 0.38235294
0.18431373 0.23921569 0.38229167
0.30968137 0.23946078 0.38419118
0.46397059 0.23737745 0.38627451
0.60223652 0.23627451 0.38235294
0.71176471 0.23921569 0.38627451
0.76568627 0.23921569 0.38501838
0.80392157 0.24705882 0.38235294
0.082352941 0.34705882 0.3745098
0.096966912 0.35445772 0.37843137
0.17352941 0.35882353 0.38235294
0.30637255 0.35490196 0.38235294
0.45686275 0.35171569 0.38235294
0.60588235 0.35245098 0.38235294
0.71176471 0.35490196 0.38627451
0.76554841 0.35490196 0.38235294
0.80502451 0.35098039 0.38235294
0.08627451 0.47058824 0.3745098
0.10545343 0.47426471 0.37843137
0.17647059 0.47843137 0.38235294
0.31139706 0.4745098 0.38627451
0.46078431 0.47058824 0.38627451
0.59803922 0.47843137 0.38578431
0.71568627 0.4807598 0.38235294
0.77346814 0.47420343 0.37990196
0.8 0.46666667 0.38235294
0.089583333 0.58480392 0.37953431
0.11286765 0.58609069 0.37990196
0.17959559 0.58872549 0.38455882
0.31490502 0.58811275 0.39019608
0.46544118 0.58627451 0.38627451
0.60265012 0.58872549 0.38604473
0.70882353 0.59019608 0.38529412
0.77696078 0.58627451 0.38227635
0.8 0.58627451 0.38137255
0.090196078 0.68529412 0.38921569
0.10168505 0.68137255 0.38627451
0.18529412 0.68529412 0.38627451
0.31384804 0.68529412 0.38627451
0.47254902 0.69117647 0.38627451
0.60441176 0.69276961 0.38235294
0.70563725 0.68602941 0.38235294
0.77352941 0.69215686 0.38529412
0.79681373 0.69215686 0.38235294
0.090196078 0.75294118 0.38627451
0.10491728 0.75381434 0.38627451
0.18097426 0.75392157 0.38627451
0.31029412 0.75392157 0.38627451
0.47248775 0.75392157 0.38627451
0.60980392 0.75392157 0.38440564
0.70125613 0.75401348 0.38235294
0.77659314 0.76600797 0.38186275
0.78529412 0.76176471 0.38235294
0.08627451 0.80784314 0.38627451
0.10882353 0.80784314 0.38235294
0.17058824 0.81004902 0.38235294
0.30637255 0.80428922 0.38419118
0.45980392 0.79607843 0.38627451
0.60735294 0.79938725 0.38627451
0.70392157 0.79117647 0.38235294
0.77316176 0.78431373 0.38235294
0.79313725 0.79215686 0.37843137
0.094117647 0.082352941 0.45196078
0.090196078 0.086090686 0.44803922
0.18137255 0.092034314 0.44803922
0.30637255 0.092647059 0.44411765
0.4627451 0.082352941 0.44803922
0.60104167 0.089644608 0.44803922
0.71176471 0.090196078 0.44803922
0.76568627 0.093933824 0.44803922
0.80931373 0.08872549 0.44803922
0.090196078 0.13186275 0.44803922
0.093627451 0.13373928 0.44803922
0.18521752 0.13578431 0.44803922
0.31029412 0.13566942 0.44803922
0.4627451 0.13186275 0.44803922
0.59803922 0.13707874 0.44803922
0.71715686 0.14019608 0.45196078
0.76911765 0.13970588 0.45196078
0.80833333 0.13921569 0.44803922
0.08872549 0.23627451 0.44656863
0.10098039 0.23921569 0.44803922
0.19534314 0.23627451 0.44803922
0.31421569 0.23627451 0.44803922
0.46470588 0.23829657 0.44803922
0.601731 0.23627451 0.44803922
0.70784314 0.23627451 0.45196078
0.76550245 0.24019608 0.45196078
0.80392157 0.24313725 0.44803922
0.08627451 0.35006127 0.44803922
0.093627451 0.35226716 0.45184589
0.17814032 0.3560049 0.44803922
0.31251532 0.35545343 0.44803922
0.46078431 0.35490196 0.44880515
0.60196078 0.35490196 0.45196078
0.70807292 0.35490196 0.45533088
0.76953891 0.35098039 0.45098805
0.80392157 0.35098039 0.44803922
0.08627451 0.46666667 0.44411765
0.10147059 0.47401961 0.44803922
0.17892157 0.47843137 0.44901961
0.3176777 0.47601103 0.45196078
0.4627451 0.4745098 0.45196078
0.59558824 0.47769608 0.45588235
0.71568627 0.47328431 0.45551471
0.77417279 0.47058824 0.45196078
0.80392157 0.46666667 0.44926471
0.087745098 0.58235294 0.44411765
0.10931373 0.58872549 0.44411765
0.18541667 0.59264706 0.44803922
0.31960784 0.59019608 0.45196078
0.46470588 0.59019608 0.45196078
0.60588235 0.59019608 0.45588235
0.70784314 0.58688725 0.45588235
0.76960784 0.59019608 0.45196078
0.81029412 0.59019608 0.44803922
0.090196078 0.69019608 0.45588235
0.09754902 0.68529412 0.44803922
0.19525123 0.68529412 0.44803922
0.31960784 0.68506434 0.45196078
0.47254902 0.68890931 0.44987745
0.60588235 0.68898591 0.45588235
0.70784314 0.68893995 0.45579044
0.76960784 0.69215686 0.45196078
0.8 0.68921569 0.44803922
0.090196078 0.75392157 0.45588235
0.10383732 0.75327053 0.44803922
0.19301471 0.75945159 0.44803922
0.3033701 0.76390931 0.44803922
0.47539828 0.75784314 0.45196078
0.60899969 0.75214461 0.45588235
0.70784314 0.75424326 0.45588235
0.76960784 0.76176471 0.45018382
0.79430147 0.75784314 0.4504902
0.090196078 0.80637255 0.45196078
0.1127451 0.79577206 0.44803922
0.17708333 0.80784314 0.44803922
0.30490196 0.80784314 0.45196078
0.47254902 0.80710784 0.45196078
0.6088848 0.80245098 0.45441176
0.70882353 0.79791667 0.45196078
0.76911765 0.79215686 0.45196078
0.78823529 0.79215686 0.44803922
0.090196078 0.084313725 0.51372549
0.10343137 0.08627451 0.50980392
0.17745098 0.1127451 0.50980392
0.30637255 0.10735294 0.50980392
0.46078431 0.08627451 0.51372549
0.5995098 0.0875 0.51372549
0.70784314 0.091176471 0.51372549
0.78063725 0.10196078 0.51372549
0.79215686 0.094117647 0.50980392
0.090196078 0.13529412 0.51004902
0.10713848 0.13529412 0.5083027
0.17843137 0.13970588 0.50980392
0.30637255 0.13970588 0.50873162
0.46176471 0.13578431 0.50588235
0.60548407 0.14019608 0.50588235
0.70784314 0.14368873 0.50980392
0.77723652 0.14313725 0.51393995
0.7997549 0.14166667 0.51372549
0.090196078 0.24313725 0.50588235
0.10582108 0.24313725 0.50980392
0.19301471 0.23982843 0.50980392
0.30300245 0.23939951 0.50980392
0.46078431 0.23946078 0.50588235
0.60410539 0.24001225 0.50588235
0.70882353 0.23946078 0.50637255
0.77328431 0.24411765 0.50980392
0.80784314 0.24019608 0.51372549
0.090196078 0.35490196 0.5129902
0.096323529 0.35171569 0.51372549
0.17892157 0.35490196 0.51011029
0.31421569 0.35490196 0.50980392
0.46078431 0.35098039 0.50906863
0.59803922 0.35490196 0.50980392
0.70882353 0.35490196 0.50980392
0.77352941 0.35067402 0.50980392
0.8 0.34705882 0.50980392
0.08627451 0.47058824 0.50980392
0.095343137 0.47058824 0.5125
0.17745098 0.47303922 0.51372549
0.3129902 0.4754902 0.50980392
0.45833333 0.4745098 0.5122549
0.59742647 0.4745098 0.51409314
0.71102941 0.47058824 0.51372549
0.76960784 0.47401961 0.50980392
0.8 0.47058824 0.50588235
0.08627451 0.58235294 0.50588235
0.099264706 0.58841912 0.50716912
0.18284314 0.58872549 0.51194853
0.31148897 0.58627451 0.50980392
0.46470588 0.59019608 0.51372549
0.60511642 0.59264706 0.51764706
0.70269608 0.59019608 0.51764706
0.76568627 0.59019608 0.51161152
0.81372549 0.59019608 0.50980392
0.090196078 0.68627451 0.5122549
0.098223039 0.68921569 0.50980392
0.18615196 0.68872549 0.50980392
0.31102941 0.68731618 0.50980392
0.46446078 0.68210784 0.51372549
0.59466912 0.68584559 0.51764706
0.71568627 0.69166667 0.52120098
0.7661152 0.68921569 0.51372549
0.80343137 0.68676471 0.50980392
0.090196078 0.75392157 0.51372549
0.10582108 0.75386029 0.50980392
0.18915441 0.75520833 0.509375
0.31047794 0.75784314 0.50980392
0.46470588 0.75392157 0.5127451
0.60245098 0.75392157 0.51838235
0.7122549 0.75477941 0.52156863
0.76960784 0.75784314 0.51372549
0.8 0.75784314 0.51372549
0.090196078 0.80980392 0.51764706
0.11323529 0.79387255 0.50980392
0.18627451 0.80098039 0.50980392
0.31029412 0.80073529 0.50980392
0.47254902 0.79901961 0.50980392
0.60833333 0.80245098 0.51446078
0.71372549 0.80784314 0.51764706
0.76936275 0.80392157 0.51764706
0.80784314 0.80784314 0.51372549
0.090196078 0.08627451 0.57009804
0.11715686 0.089705882 0.56764706
0.17352941 0.099509804 0.56764706
0.30876225 0.090196078 0.56764706
0.46470588 0.08504902 0.57009804
0.61219363 0.090196078 0.56764706
0.7127451 0.090196078 0.57156863
0.77696078 0.090196078 0.57156863
0.80784314 0.08627451 0.57156863
0.090012255 0.13939951 0.56764706
0.12089461 0.13707108 0.56432292
0.17806373 0.13965993 0.56372549
0.31029412 0.13970588 0.56232384
0.46470588 0.1364277 0.56011029
0.61372549 0.13615962 0.56372549
0.7127451 0.13578431 0.56636029
0.77696078 0.13792892 0.57028186
0.81176471 0.13560049 0.57156863
0.090196078 0.2435049 0.56262255
0.11323529 0.2435049 0.56202512
0.18039216 0.24019608 0.56179534
0.31637561 0.23627451 0.55980392
0.46470588 0.24019608 0.55980392
0.60833333 0.24313725 0.55980392
0.70882353 0.23838848 0.55980392
0.77352941 0.23975184 0.56456801
0.81813725 0.23921569 0.57156863
0.082352941 0.35398284 0.56372549
0.10931373 0.35490196 0.56305913
0.18002451 0.35098039 0.56372549
0.31476716 0.34705882 0.5622549
0.45759804 0.35052083 0.55980392
0.60140931 0.35098039 0.55980392
0.70490196 0.34705882 0.55980392
0.76960784 0.35490196 0.56372549
0.8 0.35490196 0.56764706
0.08627451 0.4752451 0.56372549
0.10588235 0.4734375 0.56746324
0.17647059 0.47058824 0.56764706
0.31029412 0.46666667 0.5671875
0.45686275 0.46666667 0.56495098
0.60196078 0.46666667 0.56495098
0.70490196 0.46727941 0.56617647
0.76960784 0.4745098 0.56372549
0.79215686 0.47058824 0.56372549
0.08682598 0.58872549 0.57156863
0.093435968 0.58879442 0.56764706
0.17352941 0.58480392 0.57156863
0.30882353 0.5838848 0.57009804
0.46709559 0.58927696 0.57156863
0.60161612 0.58684896 0.57156863
0.70669424 0.58927696 0.57051164
0.76697304 0.58627451 0.56653646
0.80784314 0.58627451 0.56464461
0.098039216 0.6877451 0.57009804
0.097809436 0.69136029 0.57156863
0.18137255 0.68529412 0.56902574
0.30268076 0.68529412 0.56764706
0.46078431 0.68039216 0.5713848
0.59803922 0.67928922 0.57156863
0.70481005 0.6810049 0.57156863
0.76960784 0.68529412 0.56764706
0.8 0.68921569 0.56764706
0.098039216 0.75392157 0.57009804
0.10539216 0.75392157 0.57009804
0.19313725 0.75392157 0.56764706
0.30876225 0.75392157 0.56764706
0.45686275 0.75392157 0.56764706
0.61219363 0.76176471 0.57237286
0.69705882 0.75392157 0.57156863
0.76976869 0.75784314 0.57009804
0.79215686 0.76158088 0.57009804
0.095588235 0.80392157 0.57156863
0.10931373 0.8 0.56764706
0.19816176 0.80355392 0.56764706
0.30392157 0.80637255 0.56856618
0.46862745 0.79264706 0.56372549
0.61617647 0.81268382 0.56764706
0.70490196 0.79607843 0.57156863
0.77463235 0.79852941 0.57156863
0.80245098 0.79852941 0.57009804
0.090196078 0.090196078 0.62058824
0.10796569 0.08627451 0.62058824
0.17279412 0.086519608 0.62058824
0.31421569 0.08627451 0.61666667
0.46862745 0.08627451 0.61666667
0.61617647 0.087254902 0.62058824
0.71568627 0.094117647 0.62058824
0.77352941 0.087254902 0.6245098
0.81176471 0.08627451 0.6245098
0.08627451 0.14767157 0.62156863
0.10168505 0.140625 0.62156863
0.17619485 0.13921569 0.61865809
0.31942402 0.13578431 0.61505821
0.47254902 0.13578431 0.61666667
0.61617647 0.13534007 0.61764706
0.70919118 0.13713235 0.61865809
0.77352941 0.13970588 0.62156863
0.80392157 0.14068627 0.62156863
0.08627451 0.24803922 0.61372549
0.10796569 0.24705882 0.61436887
0.17800245 0.24411765 0.61372549
0.31813725 0.24047181 0.6129902
0.47254902 0.23627451 0.61053922
0.61305147 0.23373162 0.61007966
0.70098039 0.23235294 0.61372549
0.77708333 0.23627451 0.6166973
0.79117647 0.23529412 0.61764706
0.08627451 0.35245098 0.61335784
0.11801471 0.35245098 0.61328125
0.17279412 0.35098039 0.61639093
0.31029412 0.3498315 0.61297488
0.46115196 0.34705882 0.60980392
0.59803922 0.34290748 0.61164216
0.70882353 0.34313725 0.61372549
0.77250306 0.35098039 0.61666667
0.80784314 0.35882353 0.61764706
0.08627451 0.47058824 0.61911765
0.10784314 0.47352941 0.61783088
0.17990196 0.47058824 0.61764706
0.30514706 0.46666667 0.61372549
0.45686275 0.46666667 0.61666667
0.59785539 0.46397059 0.61666667
0.70882353 0.4627451 0.61764706
0.77352941 0.47058824 0.61764706
0.79264706 0.475 0.61666667
0.094485294 0.59558824 0.6254902
0.094117647 0.58872549 0.6254902
0.18137255 0.58480392 0.62058824
0.30258885 0.58235294 0.61703431
0.45686275 0.58480392 0.61966912
0.59980086 0.58627451 0.62058824
0.71228554 0.58627451 0.62058824
0.76960784 0.58622855 0.62035846
0.80894608 0.59019608 0.62058824
0.098039216 0.68137255 0.62377451
0.10183824 0.68529412 0.62156863
0.17352941 0.68253676 0.62156863
0.30637255 0.68137255 0.62058824
0.45686275 0.6817402 0.62058824
0.60012255 0.68529412 0.62058824
0.70392157 0.67818627 0.61819853
0.77303922 0.67647059 0.62058824
0.81004902 0.68137255 0.62058824
0.098039216 0.75 0.62156863
0.10539216 0.75392157 0.62156863
0.18507966 0.75392157 0.62156863
0.31029412 0.75392157 0.62058824
0.45778186 0.75637255 0.61764706
0.60196078 0.75784314 0.62058824
0.70404412 0.75 0.62071078
0.77052696 0.75392157 0.62156863
0.80098039 0.75784314 0.62193627
0.098039216 0.80294118 0.6245098
0.097916667 0.80686275 0.6254902
0.19926471 0.8 0.62156863
0.31029412 0.79705882 0.62058824
0.47254902 0.80392157 0.61666667
0.60772059 0.80183824 0.61875
0.71740196 0.80784314 0.6254902
0.77438725 0.79264706 0.62071078
0.79705882 0.77254902 0.62156863
0.090196078 0.090196078 0.66715686
0.10147059 0.090686275 0.66715686
0.17745098 0.093627451 0.66372549
0.31029412 0.089889706 0.65716912
0.47058824 0.092156863 0.66151961
0.60980392 0.10177696 0.66372549
0.72022059 0.08627451 0.66715686
0.77003676 0.090625 0.66715686
0.80784314 0.090196078 0.66764706
0.08627451 0.15140931 0.66715686
0.097120098 0.14809283 0.66764706
0.18137255 0.14068627 0.66383272
0.31399357 0.13578431 0.65716912
0.47254902 0.1377451 0.66323529
0.61613817 0.14158241 0.66372549
0.71188725 0.15196078 0.66334252
0.77346814 0.15189951 0.66715686
0.80784314 0.14454657 0.67107843
0.090196078 0.24411765 0.66458333
0.097886029 0.24803922 0.66335784
0.17671569 0.24402574 0.66323529
0.31416973 0.2393076 0.66323529
0.47254902 0.23627451 0.66323529
0.61617647 0.23235294 0.66162684
0.70499387 0.23235294 0.66323529
0.77738971 0.23627451 0.66383272
0.79656863 0.23529412 0.66764706
0.090196078 0.35098039 0.66323529
0.10520833 0.35245098 0.65980392
0.17389706 0.35490196 0.66323529
0.31421569 0.35256587 0.66354167
0.47254902 0.34990809 0.66372549
0.60373775 0.34325214 0.66372549
0.70882353 0.34318321 0.66372549
0.77303922 0.35100337 0.66603094
0.81029412 0.35618873 0.66764706
0.090196078 0.4627451 0.6629902
0.11645221 0.47015931 0.66351103
0.18137255 0.47058824 0.66323529
0.30637255 0.46936275 0.66372549
0.46078431 0.46948529 0.66715686
0.60196078 0.46666667 0.66715686
0.70833333 0.4627451 0.66715686
0.76960784 0.47058824 0.66715686
0.80392157 0.47843137 0.66764706
0.094117647 0.57873775 0.66715686
0.09754902 0.59215686 0.67064951
0.18137255 0.58480392 0.66715686
0.30245098 0.5792356 0.66372549
0.45686275 0.58088235 0.66715686
0.60196078 0.58235294 0.66715686
0.70039828 0.58235294 0.66715686
0.77307751 0.58872549 0.66760876
0.79607843 0.59264706 0.66764706
0.089338235 0.68137255 0.66764706
0.096308211 0.68529412 0.67107843
0.17352941 0.68235294 0.67107843
0.30637255 0.67745098 0.66715686
0.45410539 0.68137255 0.66544118
0.61337316 0.69031863 0.66764706
0.7010723 0.68921569 0.66715686
0.77303922 0.6817402 0.66715686
0.80784314 0.68566176 0.66764706
0.08627451 0.75343137 0.67107843
0.09754902 0.74564951 0.67107843
0.17389706 0.75 0.66764706
0.31047794 0.76176471 0.66764706
0.46078431 0.76176471 0.66372549
0.60196078 0.75833333 0.66715686
0.70526961 0.75784314 0.66715686
0.77395833 0.75784314 0.66715686
0.80343137 0.75392157 0.66715686
0.090196078 0.79607843 0.67107843
0.10496324 0.78823529 0.66807598
0.18517157 0.79607843 0.66764706
0.31029412 0.7995098 0.6658701
0.47254902 0.80441176 0.66715686
0.60588235 0.80214461 0.66764706
0.71531863 0.79656863 0.67107843
0.78431373 0.81127451 0.66758578
0.78872549 0.78823529 0.66372549
0.08627451 0.08627451 0.70588235
0.10539216 0.086764706 0.70931373
0.17745098 0.08627451 0.70588235
0.30637255 0.08627451 0.70196078
0.4627451 0.082352941 0.70392157
0.61127451 0.082352941 0.70980392
0.70882353 0.090196078 0.67843137
0.77696078 0.089705882 0.69460784
0.80392157 0.08627451 0.70588235
0.08627451 0.13970588 0.70980392
0.097977941 0.14803922 0.709375
0.18480392 0.13676471 0.70196078
0.30637255 0.13314951 0.69803922
0.46862745 0.13186275 0.69852941
0.61372549 0.13186275 0.70245098
0.7122549 0.14375 0.70183824
0.77745098 0.15196078 0.70153186
0.80784314 0.15539216 0.70196078
0.090196078 0.24019608 0.70686275
0.09754902 0.24313725 0.69546569
0.17843137 0.23921569 0.70122549
0.30637255 0.23529412 0.70343137
0.46862745 0.23627451 0.69411765
0.61556373 0.23529412 0.68627451
0.7127451 0.23529412 0.69828431
0.77708333 0.23627451 0.70196078
0.81568627 0.23529412 0.70588235
0.094117647 0.35490196 0.67598039
0.098039216 0.35490196 0.67843137
0.18039216 0.35490196 0.69313725
0.31029412 0.35245098 0.70441176
0.47254902 0.35098039 0.71372549
0.60980392 0.34705882 0.70441176
0.7127451 0.34705882 0.70294118
0.77322304 0.34852941 0.70588235
0.81176471 0.34705882 0.7122549
0.090196078 0.47058824 0.66862745
0.097794118 0.47622549 0.69558824
0.18823529 0.4745098 0.70196078
0.30784314 0.46862745 0.71102941
0.46568627 0.46666667 0.70980392
0.60588235 0.46813725 0.70392157
0.70784314 0.47058824 0.70245098
0.77328431 0.47426471 0.70637255
0.80392157 0.47058824 0.70980392
0.092647059 0.59411765 0.70980392
0.091482843 0.58872549 0.7158701
0.18823529 0.58480392 0.70698529
0.30637255 0.58327206 0.71372549
0.45686275 0.57573529 0.70735294
0.60435049 0.57751225 0.70588235
0.7 0.58235294 0.70196078
0.77401961 0.59264706 0.71372549
0.79362745 0.59656863 0.71372549
0.08627451 0.68921569 0.70980392
0.10490196 0.68921569 0.70980392
0.17279412 0.69019608 0.71764706
0.31029412 0.67781863 0.70306373
0.46078431 0.67941176 0.70539216
0.61164216 0.68921569 0.71335784
0.70490196 0.68627451 0.70686275
0.77610294 0.68921569 0.70980392
0.8127451 0.69705882 0.71862745
0.082843137 0.75784314 0.70588235
0.10496324 0.75343137 0.70980392
0.17254902 0.75392157 0.70980392
0.31421569 0.76390931 0.69019608
0.46470588 0.75784314 0.70220588
0.60196078 0.76354167 0.70980392
0.70882353 0.76470588 0.70723039
0.77303922 0.75784314 0.69754902
0.80784314 0.75735294 0.70588235
0.08627451 0.81176471 0.71764706
0.11666667 0.79607843 0.70980392
0.16764706 0.80490196 0.71078431
0.31813725 0.79215686 0.7004902
0.46862745 0.81372549 0.71568627
0.60588235 0.79215686 0.70980392
0.71960784 0.81078431 0.71666667
0.77696078 0.80392157 0.68627451
0.81568627 0.81176471 0.71372549
