site/assets/luts/natron-haldclut--kodak-portra-400-nc--77ddd7184.cube
# LUTr-Project: LUTr — LUTrepository
# LUTr-Schema-Version: 1
# LUTr-ID: natron-haldclut--kodak-portra-400-nc--77ddd7184
# LUTr-Title: kodak portra 400 nc
# LUTr-Collection: Natron HaldCLUT
# LUTr-Collection-ID: natron-haldclut-presets
# LUTr-Source: https://github.com/NatronGitHub/clut
# LUTr-Source-File: submissions/natron-haldclut-presets/negative_old/kodak_portra_400_nc.png
# LUTr-Source-Format: PNG
# LUTr-Source-SHA256: a427f57f330cc94f15144c141468d4f9e63912fa714724107d33a02884743141
# LUTr-License: CC-BY-SA-4.0
# LUTr-License-URL: https://github.com/NatronGitHub/clut#license
# LUTr-Tags: creative, film, film-emulation, hald-clut, natron, png, cube
# LUTr-Transform-Class: film-emulation
# LUTr-Input-Color-Space: srgb
# LUTr-Output-Color-Space: srgb
# LUTr-Color-Space-Confidence: assumed-display-referred
# LUTr-Conversion-Method: PNG LUT image decoded at 16-bit and sampled to 25x25x25 3D CUBE
# LUTr-Conversion-Date: 2026-07-27
# LUTr-Conversion-Tool: LUTr scripts/convert-all-to-cube.mjs
# LUTr-Conversion-Grid: 25x25x25
# LUTr-Note: Preserve this metadata and the upstream license notices when redistributing.
TITLE "kodak portra 400 nc"
LUT_3D_SIZE 9
DOMAIN_MIN 0 0 0
DOMAIN_MAX 1 1 1
0.035294118 0.047058824 0.050980392
0.092647059 0.066176471 0.050980392
0.1627451 0.06372549 0.047058824
0.3245098 0.054901961 0.036764706
0.51764706 0.041176471 0.017647059
0.67647059 0.036764706 0.013235294
0.8 0.071568627 0.0098039216
0.89558824 0.13039216 0.0078431373
0.98039216 0.18039216 0
0.023529412 0.09754902 0.058823529
0.081372549 0.10490196 0.058394608
0.18333333 0.11176471 0.039215686
0.34803922 0.11881127 0.036764706
0.54411765 0.12352941 0.021323529
0.69803922 0.12892157 0.0052083333
0.80379902 0.15147059 0.0068627451
0.89901961 0.18382353 0.0078431373
0.96078431 0.20735294 0
0.0039215686 0.17941176 0.071568627
0.054534314 0.20245098 0.085294118
0.18823529 0.22401961 0.029411765
0.3872549 0.25637255 0.012745098
0.59852941 0.25882353 0.019607843
0.7310049 0.25784314 0.0039215686
0.82941176 0.2629902 0.011764706
0.9189951 0.28370098 0.020588235
0.99509804 0.30980392 0
0 0.35343137 0.13431373
0.021384804 0.35539216 0.12677696
0.2004902 0.37696078 0.10134804
0.38033088 0.41170343 0.010232843
0.59044118 0.42401961 0.0078431373
0.73921569 0.41715686 0.0039215686
0.85061275 0.39656863 0.0014705882
0.93302696 0.40214461 0.0056985294
0.98578431 0.40980392 0.0039215686
0.0058823529 0.51372549 0.18823529
0.072303922 0.51789216 0.21348039
0.23431373 0.51764706 0.21764706
0.38823529 0.54240196 0.12990196
0.53529412 0.56666667 0.059803922
0.68504902 0.56593137 0.016911765
0.82352941 0.54705882 0.0039215686
0.92671569 0.53529412 0.0058823529
0.99215686 0.52352941 0.0039215686
0.18676471 0.63333333 0.29754902
0.25459559 0.64117647 0.33480392
0.31764706 0.63333333 0.31666667
0.40098039 0.64215686 0.29509804
0.51691176 0.65735294 0.23553922
0.64509804 0.67892157 0.096507353
0.77990196 0.68823529 0.02254902
0.90196078 0.67775735 0.0083333333
0.98284314 0.66470588 0.0078431373
0.39313725 0.74019608 0.44705882
0.40490196 0.73664216 0.43578431
0.44044118 0.73333333 0.43529412
0.49227941 0.73627451 0.425
0.54362745 0.74411765 0.3995098
0.63186275 0.75698529 0.34754902
0.73921569 0.76838235 0.27769608
0.86580882 0.78541667 0.15465686
0.95980392 0.77647059 0.15784314
0.54754902 0.825 0.57058824
0.55147059 0.82107843 0.57058824
0.57095588 0.82107843 0.57107843
0.59528186 0.82107843 0.57107843
0.62720588 0.82279412 0.56176471
0.67745098 0.8341299 0.53088235
0.74460784 0.84460784 0.50833333
0.84025735 0.85686275 0.45827206
0.92843137 0.87205882 0.41960784
0.69803922 0.90588235 0.71372549
0.69068627 0.89803922 0.70588235
0.70098039 0.89803922 0.70588235
0.72156863 0.90196078 0.71127451
0.73921569 0.9 0.70588235
0.77401961 0.91372549 0.70833333
0.80980392 0.91862745 0.68823529
0.85980392 0.93333333 0.6627451
0.89411765 0.94117647 0.65098039
0.024019608 0.074019608 0.093627451
0.081372549 0.059252451 0.097058824
0.17512255 0.05245098 0.1
0.32481618 0.020281863 0.093137255
0.51004902 0.018137255 0.08504902
0.6745098 0.0068627451 0.084497549
0.79509804 0.069485294 0.084313725
0.89558824 0.14074755 0.092647059
0.9495098 0.16862745 0.1004902
0.016605392 0.082720588 0.085784314
0.074019608 0.1004902 0.10098039
0.19492953 0.10833333 0.1
0.35851716 0.098039216 0.093443627
0.54436275 0.098560049 0.073284314
0.6995098 0.12344516 0.075
0.80379902 0.1411152 0.072564338
0.89596354 0.18736979 0.083938419
0.97205882 0.22598039 0.099509804
0.015686275 0.2189951 0.1495098
0.067938113 0.21813725 0.14134498
0.19537377 0.23327206 0.1239277
0.41470588 0.26444547 0.068627451
0.60398284 0.26280637 0.045220588
0.73284314 0.25747549 0.034145221
0.82598039 0.2627451 0.048376225
0.91541054 0.28382353 0.069990809
0.9877451 0.31470588 0.10735294
0.0078431373 0.38823529 0.20128676
0.065196078 0.38439798 0.19317555
0.21488971 0.38431373 0.18056066
0.40755208 0.41851256 0.11042433
0.61341912 0.44779412 0.010294118
0.75258885 0.41770833 0.0036151961
0.84420956 0.40712316 0.016498162
0.93069853 0.39589461 0.013357843
0.98431373 0.40735294 0.03939951
0.070343137 0.52941176 0.26519608
0.14751838 0.53284314 0.27132353
0.2620098 0.52892157 0.25974265
0.38587623 0.54362745 0.22058824
0.55220588 0.57242647 0.11666667
0.71485907 0.58841912 0.0098039216
0.83504902 0.55392157 0.0093137255
0.94016544 0.53115809 0.011734069
0.99632353 0.52720588 0.02254902
0.23627451 0.64099265 0.35030637
0.28937653 0.64724265 0.3582261
0.34318321 0.63970588 0.35404412
0.42408088 0.64754902 0.33578431
0.52720588 0.65931373 0.28244485
0.64368873 0.67800245 0.20581342
0.8004902 0.69537377 0.053967525
0.908678 0.68008578 0.048812806
0.9908701 0.66047794 0.07745098
0.39914216 0.74019608 0.45306373
0.41890319 0.73627451 0.46213235
0.45582108 0.73627451 0.46510417
0.5037837 0.73627451 0.45182292
0.55098039 0.74185049 0.42935049
0.62610294 0.75526961 0.38604473
0.74767157 0.77156863 0.32472426
0.86737132 0.77941176 0.25170037
0.96323529 0.77953431 0.23431373
0.55098039 0.82107843 0.58186275
0.55876991 0.82107843 0.58272825
0.58147978 0.82107843 0.58670343
0.60441176 0.82107843 0.58643536
0.63458946 0.82279412 0.57279412
0.68253676 0.8341299 0.55494026
0.74803922 0.84460784 0.52205882
0.84073989 0.85991881 0.47647059
0.93241422 0.8754902 0.42352941
0.69411765 0.90196078 0.71372549
0.69846814 0.90196078 0.71421569
0.71372549 0.90588235 0.72120098
0.72009804 0.89803922 0.71372549
0.75098039 0.90392157 0.7252451
0.77009804 0.91109069 0.7096201
0.8127451 0.92205882 0.70098039
0.86372549 0.94117647 0.6901348
0.88627451 0.9372549 0.65490196
0.0049019608 0.044117647 0.19705882
0.080882353 0.040073529 0.19595588
0.1872549 0.039215686 0.20588235
0.33921569 0.0078431373 0.20784314
0.52843137 0.0034313725 0.20686275
0.69938725 0.010784314 0.20539216
0.79828431 0.037990196 0.20882353
0.88382353 0.15686275 0.22745098
0.93823529 0.20196078 0.23431373
0.0079656863 0.11262255 0.22218137
0.041360294 0.11227022 0.2225337
0.20539216 0.10833333 0.22610294
0.38279718 0.075490196 0.22256434
0.55723039 0.037561275 0.21378676
0.69722733 0.054564951 0.21061581
0.79298407 0.14322917 0.22205882
0.88860294 0.19833027 0.22352941
0.97009804 0.25980392 0.24607843
0.0039215686 0.24607843 0.26004902
0.065931373 0.24800858 0.25750613
0.23841912 0.25882353 0.25704657
0.4260723 0.26063113 0.24491422
0.5935049 0.25551471 0.23014706
0.71240809 0.25551471 0.21792279
0.80814951 0.26966912 0.22555147
0.9004902 0.28970588 0.22647059
0.97426471 0.33039216 0.24632353
0.059068627 0.41727941 0.31654412
0.14437806 0.40998775 0.31283701
0.2859375 0.41675858 0.30220588
0.44522059 0.43895527 0.27559743
0.62352941 0.43235294 0.23431373
0.74163603 0.42009804 0.2176777
0.82708333 0.41210172 0.2143076
0.91796875 0.40539216 0.21996017
0.98382353 0.42487745 0.24215686
0.23529412 0.55735294 0.37794118
0.27303922 0.55894608 0.38057598
0.33137255 0.55012255 0.36764706
0.43186275 0.55275735 0.35165441
0.5747549 0.57426471 0.29411765
0.70214461 0.57604167 0.24754902
0.83590686 0.55392157 0.20821078
0.92395833 0.5370098 0.21917892
0.98676471 0.54117647 0.23088235
0.32634804 0.65441176 0.42647059
0.3620864 0.66188725 0.44010417
0.41243873 0.65303309 0.43737745
0.46531863 0.65147059 0.42438725
0.55588235 0.66219363 0.38872549
0.65814951 0.67984069 0.33198529
0.79469975 0.70027574 0.27077206
0.9022212 0.67990196 0.26862745
0.96176471 0.66654412 0.26164216
0.45686275 0.74803922 0.51470588
0.46461397 0.7502451 0.51078431
0.490625 0.74650735 0.51078431
0.53235294 0.74019608 0.51078431
0.5754902 0.7439951 0.49901961
0.64215686 0.75698529 0.45768995
0.76317402 0.7754902 0.40784314
0.87512255 0.79181985 0.35453431
0.95955882 0.7754902 0.34117647
0.57401961 0.825 0.6127451
0.57745098 0.825 0.6122549
0.59607843 0.82429534 0.6127451
0.62008272 0.82487745 0.61531863
0.64963235 0.82469363 0.6026348
0.69313725 0.83020833 0.58688725
0.75196078 0.84154412 0.56384804
0.85240502 0.85615809 0.51148897
0.92156863 0.86764706 0.47977941
0.70196078 0.90196078 0.72941176
0.70588235 0.90196078 0.72941176
0.71053922 0.8997549 0.72622549
0.73615196 0.90588235 0.73664216
0.74852941 0.89803922 0.72843137
0.77830882 0.91078431 0.73333333
0.81127451 0.91862745 0.71053922
0.86323529 0.93333333 0.69460784
0.88137255 0.92941176 0.67058824
0.0078431373 0.050980392 0.36764706
0.036090686 0.05557598 0.37696078
0.23860294 0.021691176 0.38333333
0.39705882 0.0069240196 0.38431373
0.58921569 0.0039215686 0.39166667
0.72990196 0.0039215686 0.36072304
0.82107843 0.0078431373 0.33492647
0.9036152 0.041973039 0.32726716
0.95931373 0.21323529 0.35637255
0.0053921569 0.11960784 0.38480392
0.022219669 0.11942402 0.38805147
0.22262561 0.12205882 0.39460784
0.42825521 0.090984988 0.4104856
0.60245098 0.062101716 0.39705882
0.72628676 0.062308517 0.36617647
0.82241115 0.083900123 0.34607843
0.89175092 0.21519608 0.36227788
0.96109069 0.30637255 0.3877451
0.0078431373 0.27107843 0.40845588
0.0082107843 0.26956189 0.41501225
0.22552083 0.27288603 0.42941176
0.46268382 0.27777267 0.44232537
0.60300245 0.27377451 0.41323529
0.71205576 0.273606 0.39859069
0.81715686 0.27120098 0.3685049
0.89154412 0.31764706 0.37242647
0.9557598 0.37647059 0.39754902
0.0063112745 0.43431373 0.43823529
0.089499081 0.44711244 0.45
0.29780944 0.43676471 0.45392157
0.47745098 0.44734222 0.45692402
0.61887255 0.44926471 0.44022672
0.7187117 0.42947304 0.41266085
0.80833333 0.42863051 0.39833027
0.89558824 0.43315717 0.39558058
0.96568627 0.45484069 0.39993873
0.31397059 0.5879902 0.49289216
0.35122549 0.58578431 0.49745711
0.41746324 0.57996324 0.49877451
0.49803922 0.56939338 0.49485294
0.59080882 0.57083333 0.46654412
0.70450368 0.57181373 0.43189338
0.82009804 0.56323529 0.41029412
0.90661765 0.55539216 0.4004902
0.9747549 0.55735294 0.40318627
0.42107843 0.67745098 0.53039216
0.4377451 0.68137255 0.54215686
0.47352941 0.67352941 0.53468137
0.52555147 0.66568627 0.52947304
0.58826593 0.66792279 0.51421569
0.66848192 0.68188572 0.47418811
0.79382659 0.68993566 0.44019608
0.90196078 0.67598039 0.42372855
0.96893382 0.66623775 0.41911765
0.51482843 0.76164216 0.58688725
0.52144608 0.76335784 0.58720895
0.53808211 0.75882353 0.58250613
0.57009804 0.75052083 0.57794118
0.61384804 0.75196078 0.57616422
0.66827512 0.75882353 0.54607843
0.76838235 0.7763174 0.51547181
0.87120098 0.78590686 0.47830882
0.96041667 0.7754902 0.46666667
0.60441176 0.83106618 0.65753676
0.61133578 0.82892157 0.65735294
0.62647059 0.83235294 0.65917586
0.64797794 0.83106618 0.65790441
0.67254902 0.82843137 0.6536152
0.70925245 0.83020833 0.64277727
0.76227022 0.83762255 0.61458333
0.8528799 0.8562117 0.59019608
0.95067402 0.87941176 0.55245098
0.70833333 0.90196078 0.74754902
0.70226716 0.89834559 0.74019608
0.7254902 0.90625 0.75183824
0.74215686 0.90833333 0.75539216
0.76078431 0.90710784 0.75343137
0.78186275 0.90588235 0.74754902
0.81372549 0.91176471 0.72720588
0.85863971 0.92432598 0.70784314
0.8995098 0.94117647 0.71372549
0.0039215686 0.070588235 0.53529412
0.0090686275 0.070343137 0.53897059
0.24705882 0.051960784 0.54068627
0.45784314 0.017892157 0.55735294
0.62352941 0.0078431373 0.5627451
0.74166667 0.010784314 0.53186275
0.83186275 0.1127451 0.49754902
0.9129902 0.2120098 0.49019608
0.96666667 0.28431373 0.49215686
0 0.1375 0.54264706
0.0037071078 0.1372549 0.54656863
0.24479167 0.1504902 0.5598652
0.46510417 0.14362745 0.5731924
0.61985294 0.11053922 0.5629902
0.74525123 0.15416667 0.54142157
0.84209559 0.24221814 0.51819853
0.91277574 0.28851103 0.50122549
0.97058824 0.32671569 0.49607843
0.0039215686 0.29068627 0.55882353
0.0082107843 0.28088235 0.56795343
0.24497549 0.29362745 0.57647059
0.46323529 0.30098039 0.57886029
0.61470588 0.3122549 0.56568627
0.73504902 0.33112745 0.54681373
0.8307598 0.35686275 0.53002451
0.90275735 0.38553922 0.51691176
0.96078431 0.41176471 0.51127451
0.016911765 0.44754902 0.5745098
0.038265931 0.44739583 0.5763174
0.27120098 0.44754902 0.57794118
0.46568627 0.45854779 0.58403799
0.61568627 0.46985294 0.58259804
0.72083333 0.46816789 0.5625
0.80533088 0.46930147 0.54901961
0.89136029 0.48210784 0.53547794
0.96078431 0.49558824 0.52671569
0.26372549 0.59117647 0.5872549
0.33014706 0.59313725 0.59607843
0.42573529 0.59338235 0.59779412
0.51642157 0.58529412 0.60098039
0.61029412 0.59068627 0.6004902
0.70931373 0.59534314 0.58223039
0.79436275 0.58284314 0.56470588
0.87401961 0.5745098 0.54509804
0.95686275 0.58235294 0.5372549
0.45857843 0.69583333 0.62303922
0.47720588 0.69681373 0.62564338
0.51862745 0.69368873 0.625
0.57132353 0.68284314 0.62454044
0.62267157 0.68480392 0.62303922
0.7004902 0.68875613 0.59607843
0.80067402 0.69007353 0.57310049
0.88382353 0.67956495 0.55824142
0.96348039 0.675 0.54901961
0.56372549 0.77647059 0.65980392
0.575 0.775 0.66415441
0.59473039 0.76948529 0.66372549
0.61813725 0.76519608 0.6588848
0.6504902 0.76127451 0.65269608
0.68676471 0.7627451 0.63259804
0.77512255 0.77941176 0.60294118
0.87107843 0.78651961 0.58431373
0.96862745 0.7754902 0.57647059
0.63823529 0.84019608 0.70686275
0.64650735 0.84019608 0.7127451
0.65833333 0.83848039 0.71102941
0.67383578 0.83651961 0.70906863
0.70306373 0.83455882 0.71078431
0.73520221 0.83520221 0.70196078
0.77720588 0.84283088 0.67892157
0.84806985 0.85615809 0.65762868
0.92941176 0.86789216 0.64240196
0.72745098 0.91372549 0.78235294
0.73333333 0.91372549 0.78284314
0.74509804 0.91421569 0.78480392
0.75490196 0.91053922 0.78627451
0.7745098 0.91176471 0.78627451
0.79362745 0.90735294 0.77843137
0.82892157 0.92254902 0.775
0.87132353 0.92965686 0.75269608
0.91176471 0.94117647 0.74313725
0.0039215686 0.10490196 0.67892157
0.0038602941 0.087254902 0.67254902
0.25453431 0.095098039 0.67892157
0.45784314 0.10729167 0.67892157
0.62671569 0.15073529 0.67769608
0.74613971 0.15637255 0.67254902
0.84215686 0.2122549 0.66127451
0.91501225 0.32420343 0.63707108
0.99313725 0.40539216 0.6254902
0.011458333 0.17401961 0.67254902
0.017624081 0.17228094 0.67832414
0.26458333 0.17855392 0.68223039
0.46568627 0.19558824 0.6841299
0.62843137 0.21862745 0.68284314
0.75435049 0.25030637 0.68664982
0.83823529 0.30147059 0.65980392
0.91357996 0.36045496 0.63721661
0.97401961 0.42107843 0.62941176
0.017401961 0.30490196 0.67647059
0.034604779 0.30093444 0.68676471
0.28030025 0.31859681 0.68676471
0.47748162 0.33664216 0.68823529
0.62941176 0.35526961 0.68786765
0.74840686 0.39093137 0.68284314
0.83112745 0.41265319 0.65980392
0.90589767 0.4462163 0.64497549
0.96862745 0.48088235 0.63333333
0.013786765 0.44810049 0.675
0.14588695 0.46020987 0.68119638
0.3185049 0.45709252 0.68284314
0.47681526 0.46897212 0.68676471
0.6208027 0.49019608 0.68826593
0.72745098 0.50328585 0.68676471
0.81617647 0.5222886 0.67356005
0.89136029 0.5372549 0.65589001
0.96170343 0.54417892 0.64454657
0.20710784 0.58431373 0.675
0.2768076 0.58244485 0.67892157
0.37922794 0.58431373 0.68210784
0.50465686 0.58673407 0.69068627
0.61531863 0.59865196 0.69068627
0.71421569 0.61246936 0.69414828
0.79534314 0.61519608 0.68204657
0.87068015 0.61397059 0.66700368
0.95098039 0.62107843 0.65539216
0.42303922 0.69607843 0.69460784
0.45882353 0.6986443 0.69852941
0.49865196 0.69604779 0.7
0.56101409 0.69518229 0.69852941
0.63088235 0.70153186 0.70153186
0.71329657 0.70545343 0.70302543
0.79411765 0.70686275 0.68679534
0.87646293 0.69215686 0.67457874
0.92941176 0.68768382 0.65686275
0.57254902 0.78333333 0.7254902
0.5897212 0.78627451 0.73026961
0.6171875 0.78691789 0.73370098
0.64754902 0.78333333 0.73333333
0.68284314 0.77751225 0.72941176
0.72604167 0.77621017 0.71787684
0.79212623 0.78627451 0.70735294
0.86747855 0.77299326 0.69166667
0.94007353 0.77879902 0.67990196
0.66813725 0.85196078 0.76844363
0.6714614 0.85196078 0.76844363
0.69077819 0.85196078 0.77250306
0.70998009 0.84962469 0.77254902
0.73112745 0.84813113 0.76642157
0.76126685 0.84430147 0.76078431
0.79607843 0.84546569 0.74509804
0.85765931 0.85680147 0.72930453
0.95128676 0.87156863 0.72156863
0.74901961 0.91764706 0.82107843
0.75294118 0.92156863 0.825
0.76372549 0.92156863 0.82254902
0.77401961 0.91764706 0.82107843
0.78504902 0.9125 0.81593137
0.80931373 0.91617647 0.81715686
0.83627451 0.92046569 0.81323529
0.87941176 0.92579657 0.79491422
0.93333333 0.94901961 0.79117647
0.0088235294 0.1745098 0.77156863
0.11470588 0.18333333 0.7754902
0.30318627 0.1747549 0.7754902
0.475 0.20281863 0.77647059
0.61911765 0.24803922 0.7754902
0.74558824 0.28811275 0.7754902
0.83823529 0.33602941 0.77156863
0.90294118 0.36752451 0.74852941
0.96078431 0.44215686 0.74019608
0.043504902 0.23137255 0.7754902
0.1627451 0.23529412 0.77941176
0.32405025 0.23492647 0.78333333
0.47941176 0.25753676 0.78333333
0.62150735 0.29558824 0.77916667
0.74474571 0.35366115 0.77933517
0.84215686 0.38186275 0.77916667
0.91470588 0.41813725 0.76017157
0.9627451 0.47732843 0.74448529
0.10220588 0.33921569 0.7754902
0.21164216 0.35088848 0.77622549
0.35318627 0.34779412 0.78204657
0.49586397 0.36663603 0.78333333
0.62879902 0.40784314 0.78333333
0.7419424 0.43489583 0.77941176
0.8348652 0.46593137 0.7754902
0.91102941 0.49402574 0.76663603
0.96764706 0.54632353 0.75196078
0.24865196 0.48137255 0.76875
0.30735294 0.48137255 0.77156863
0.38219975 0.47352941 0.7754902
0.50752145 0.48829657 0.77941176
0.6245098 0.5122549 0.77941176
0.73382353 0.53982843 0.77843137
0.82601103 0.55358456 0.77852328
0.89131434 0.57758885 0.76715686
0.95232843 0.59803922 0.75196078
0.25539216 0.58872549 0.75931373
0.29656863 0.58854167 0.75980392
0.39215686 0.59068627 0.76360294
0.50484069 0.59356618 0.77034314
0.61642157 0.60563725 0.7754902
0.72058824 0.63088235 0.77843137
0.81115196 0.64963235 0.78235294
0.87941176 0.65808824 0.76758578
0.94901961 0.67205882 0.76421569
0.39522059 0.69852941 0.76372549
0.41746324 0.69474571 0.76703431
0.46960784 0.69460784 0.77205882
0.52905944 0.69460784 0.76911765
0.62009804 0.70226716 0.77126225
0.71421569 0.71329657 0.78235294
0.7997549 0.72487745 0.78161765
0.87156863 0.72156863 0.77107843
0.93002451 0.72218137 0.76372549
0.54803922 0.78627451 0.7872549
0.56427696 0.7872549 0.79117647
0.59313725 0.79056373 0.79840686
0.63385417 0.7872549 0.79509804
0.68541667 0.7872549 0.79117647
0.74583333 0.78655025 0.79583333
0.79920343 0.79019608 0.79436275
0.87264093 0.79117647 0.78428309
0.92083333 0.7872549 0.7754902
0.66629902 0.85980392 0.82242647
0.67463235 0.85980392 0.82120098
0.70245098 0.8638174 0.82625613
0.7234375 0.86416973 0.8279565
0.75079657 0.86072304 0.82598039
0.79019608 0.85686275 0.82205882
0.82303922 0.85294118 0.81813725
0.88039216 0.86374081 0.80375306
0.94938725 0.86421569 0.79865196
0.75686275 0.9254902 0.86078431
0.76078431 0.9254902 0.86335784
0.76078431 0.91372549 0.85588235
0.77892157 0.91727941 0.85833333
0.80588235 0.92941176 0.86470588
0.8245098 0.91654412 0.85539216
0.84338235 0.9 0.84313725
0.88688725 0.92303922 0.84117647
0.91764706 0.94215686 0.84117647
0.24264706 0.26519608 0.86421569
0.31176471 0.27696078 0.86372549
0.39803922 0.29166667 0.86421569
0.52009804 0.31636029 0.86421569
0.63210784 0.35294118 0.85980392
0.73970588 0.41372549 0.85588235
0.83737745 0.46960784 0.85625
0.91476716 0.48480392 0.85245098
0.96911765 0.49264706 0.85637255
0.28137255 0.32689951 0.86329657
0.32690717 0.33393842 0.86372549
0.42250306 0.35036765 0.86420037
0.53235294 0.36701134 0.86764706
0.6377451 0.38728554 0.86029412
0.74716605 0.44313725 0.85998775
0.83727022 0.48480392 0.85980392
0.91862745 0.51868873 0.85637255
0.96819853 0.5495098 0.84503676
0.31433824 0.40637255 0.85980392
0.36911765 0.41458333 0.86383272
0.44016544 0.41862745 0.86764706
0.54011949 0.43965993 0.86453738
0.64558824 0.46672794 0.86072304
0.74558824 0.5064185 0.85623468
0.83431373 0.54145221 0.85637255
0.91465993 0.55245098 0.85631127
0.9495098 0.57965686 0.85208333
0.3658701 0.5122549 0.85373775
0.40739124 0.52220435 0.85637255
0.46109069 0.51974571 0.86029412
0.54558824 0.53020833 0.86292126
0.64558824 0.55229779 0.85980392
0.73921569 0.58333333 0.85245098
0.82784926 0.60531556 0.85588235
0.89528186 0.62001379 0.85185355
0.94558824 0.63511029 0.84460784
0.36323529 0.61470588 0.84656863
0.39730392 0.61424632 0.84656863
0.4588848 0.62205882 0.84852941
0.54436275 0.62711397 0.85235907
0.63186275 0.6252451 0.85723039
0.72803309 0.65294118 0.85612745
0.82028186 0.67598039 0.85851716
0.88403799 0.68746936 0.85242034
0.94730392 0.69877451 0.84852941
0.39901961 0.70637255 0.84460784
0.41429994 0.70245098 0.84460784
0.45814951 0.70280331 0.84437806
0.52156863 0.70287224 0.84442402
0.61804534 0.70603554 0.85220588
0.70979626 0.71463695 0.85373775
0.80677083 0.73639706 0.85980392
0.88612898 0.75229013 0.86045496
0.94901961 0.76403186 0.85765931
0.51384804 0.79031863 0.85208333
0.53676471 0.79117647 0.8560049
0.55597426 0.790625 0.85591299
0.60163909 0.79031863 0.86046262
0.65245098 0.79117647 0.85643382
0.72973346 0.79031863 0.85723039
0.79607843 0.79053309 0.86078431
0.88742341 0.81147365 0.8689951
0.95294118 0.81813725 0.86421569
0.64117647 0.86464461 0.87598039
0.6484758 0.86072304 0.86894148
0.67071078 0.86410846 0.87189032
0.69801624 0.86770833 0.87575827
0.73627451 0.86856618 0.87840074
0.780553 0.8682981 0.88024663
0.84019608 0.8754902 0.88757659
0.89117647 0.87630208 0.88027727
0.96078431 0.87598039 0.87248775
0.75637255 0.9372549 0.90686275
0.77156863 0.9372549 0.90637255
0.76556373 0.92303922 0.89865196
0.78284314 0.9245098 0.89724265
0.81323529 0.94117647 0.91029412
0.83235294 0.92058824 0.90508578
0.85980392 0.92169118 0.89901961
0.89859069 0.94509804 0.90294118
0.93382353 0.94117647 0.90294118
0.4627451 0.44313725 0.94117647
0.47794118 0.44313725 0.93382353
0.52647059 0.45392157 0.93333333
0.60343137 0.48088235 0.93872549
0.67647059 0.49411765 0.92352941
0.76764706 0.54264706 0.9254902
0.84509804 0.57843137 0.93039216
0.91862745 0.6 0.9254902
0.98823529 0.64313725 0.9372549
0.4627451 0.4627451 0.93382353
0.49264706 0.47395833 0.94068627
0.53627451 0.4814951 0.9372549
0.60490196 0.5 0.9372549
0.68431373 0.525 0.93529412
0.76764706 0.55998775 0.93676471
0.84215686 0.58627451 0.92561275
0.91519608 0.61525735 0.9254902
0.98431373 0.64656863 0.93333333
0.49215686 0.52254902 0.93627451
0.52046569 0.53872549 0.94546569
0.54730392 0.53627451 0.9372549
0.61127451 0.54840686 0.9372549
0.68480392 0.56960784 0.93382353
0.76127451 0.59056373 0.9254902
0.84142157 0.6245098 0.92720588
0.91029412 0.62941176 0.91629902
0.95882353 0.6372549 0.90882353
0.50196078 0.58921569 0.93333333
0.49515931 0.58125 0.91948529
0.55343137 0.59607843 0.93333333
0.60490196 0.59859069 0.9254902
0.68553922 0.62058824 0.92941176
0.75735294 0.6377451 0.92156863
0.83823529 0.66507353 0.92830882
0.90686275 0.68382353 0.928125
0.9622549 0.70196078 0.93333333
0.50784314 0.66666667 0.93333333
0.51936275 0.66666667 0.93308824
0.54705882 0.66470588 0.9254902
0.60416667 0.67303922 0.92941176
0.68039216 0.67941176 0.93137255
0.75465686 0.68897059 0.9254902
0.83137255 0.70735294 0.92058824
0.90318627 0.72745098 0.92377451
0.97647059 0.74901961 0.94313725
0.48382353 0.7377451 0.93480392
0.47156863 0.72714461 0.91795343
0.52340686 0.73345588 0.9247549
0.58382353 0.73235294 0.9254902
0.66127451 0.73627451 0.92745098
0.73927696 0.74166667 0.93480392
0.82892157 0.76041667 0.93296569
0.90471814 0.7754902 0.93480392
0.94411765 0.77303922 0.90882353
0.54019608 0.80196078 0.9254902
0.54901961 0.80686275 0.93039216
0.58161765 0.80612745 0.91887255
0.60723039 0.80686275 0.93039216
0.64264706 0.79901961 0.91519608
0.72990196 0.8064951 0.93541667
0.81053922 0.80980392 0.94509804
0.89816176 0.82977941 0.94117647
0.96862745 0.84117647 0.94901961
0.64460784 0.87941176 0.9372549
0.64852941 0.87941176 0.93382353
0.67193627 0.8872549 0.94080882
0.69019608 0.87941176 0.92922794
0.72083333 0.88357843 0.94313725
0.75931373 0.88382353 0.94889706
0.81029412 0.87843137 0.94840686
0.88731618 0.8877451 0.94509804
0.96078431 0.90294118 0.9495098
0.7372549 0.94901961 0.94901961
0.7377451 0.94607843 0.9495098
0.75588235 0.95588235 0.95980392
0.77892157 0.94117647 0.92696078
0.79411765 0.94313725 0.94313725
0.81176471 0.93823529 0.95294118
0.85784314 0.94705882 0.95784314
0.90637255 0.94460784 0.94411765
0.97254902 0.96862745 0.97254902
