site/assets/luts/natron-haldclut--zilverfx-vintage-b-w--dae33e626.cube
# LUTr-Project: LUTr — LUTrepository
# LUTr-Schema-Version: 1
# LUTr-ID: natron-haldclut--zilverfx-vintage-b-w--dae33e626
# LUTr-Title: zilverfx vintage b w
# LUTr-Collection: Natron HaldCLUT
# LUTr-Collection-ID: natron-haldclut-presets
# LUTr-Source: https://github.com/NatronGitHub/clut
# LUTr-Source-File: submissions/natron-haldclut-presets/picturefx/zilverfx_vintage_b_w.png
# LUTr-Source-Format: PNG
# LUTr-Source-SHA256: 8cd7eef88b6591cc1c60a560690600dffffdded84412bc1a403b14e2e2d7f28d
# LUTr-License: CC-BY-SA-4.0
# LUTr-License-URL: https://github.com/NatronGitHub/clut#license
# LUTr-Tags: creative, film, film-emulation, hald-clut, natron, png, vintage, cube
# LUTr-Transform-Class: film-emulation
# LUTr-Input-Color-Space: srgb
# LUTr-Output-Color-Space: srgb
# LUTr-Color-Space-Confidence: assumed-display-referred
# LUTr-Conversion-Method: PNG LUT image decoded at 16-bit and sampled to 25x25x25 3D CUBE
# LUTr-Conversion-Date: 2026-07-27
# LUTr-Conversion-Tool: LUTr scripts/convert-all-to-cube.mjs
# LUTr-Conversion-Grid: 25x25x25
# LUTr-Note: Preserve this metadata and the upstream license notices when redistributing.
TITLE "zilverfx vintage b w"
LUT_3D_SIZE 9
DOMAIN_MIN 0 0 0
DOMAIN_MAX 1 1 1
0.011764706 0.011764706 0.011764706
0.016176471 0.016176471 0.015686275
0.076470588 0.076470588 0.07254902
0.12254902 0.12009804 0.11617647
0.19411765 0.18627451 0.17843137
0.28676471 0.27107843 0.25539216
0.42647059 0.39901961 0.37156863
0.52254902 0.4872549 0.45196078
0.57647059 0.53333333 0.49411765
0.052941176 0.052941176 0.049509804
0.084803922 0.084742647 0.080882353
0.12303922 0.11960784 0.11568627
0.15814951 0.15294118 0.14871324
0.22843137 0.21470588 0.20686275
0.31470588 0.29754902 0.28186275
0.44129902 0.41029412 0.38578431
0.5338848 0.49509804 0.45980392
0.57647059 0.53333333 0.49411765
0.16470588 0.15784314 0.15392157
0.16470588 0.16041667 0.15392157
0.21470588 0.20759804 0.19607843
0.24558824 0.23382353 0.22303922
0.29264706 0.27745098 0.26568627
0.3872549 0.36262255 0.34362745
0.49093137 0.45882353 0.42745098
0.55539216 0.51715686 0.4817402
0.57156863 0.53235294 0.49313725
0.27647059 0.26470588 0.2504902
0.30588235 0.29166667 0.27598039
0.33284314 0.31531863 0.29963235
0.36672794 0.34558824 0.32745098
0.41372549 0.39019608 0.36813725
0.48535539 0.45490196 0.42745098
0.56164216 0.52242647 0.48468137
0.60539216 0.5627451 0.52322304
0.63627451 0.59313725 0.55392157
0.45490196 0.4254902 0.40196078
0.47401961 0.44460784 0.41715686
0.49117647 0.45882353 0.43088235
0.51029412 0.47892157 0.4495098
0.54607843 0.51372549 0.48039216
0.58921569 0.55245098 0.51715686
0.63823529 0.59509804 0.55196078
0.67303922 0.63382353 0.59485294
0.7 0.66862745 0.63921569
0.62254902 0.58088235 0.54558824
0.62794118 0.58480392 0.55098039
0.63186275 0.59264706 0.55490196
0.63186275 0.59656863 0.56427696
0.64558824 0.61421569 0.58357843
0.68578431 0.64957108 0.61666667
0.73296569 0.70098039 0.67169118
0.76697304 0.74215686 0.72009804
0.77696078 0.75735294 0.74166667
0.70784314 0.67058824 0.63823529
0.7127451 0.68088235 0.64963235
0.72058824 0.68921569 0.6625
0.72058824 0.69313725 0.6685049
0.73627451 0.71078431 0.69117647
0.78088235 0.75882353 0.74019608
0.83112745 0.81568627 0.80686275
0.85428922 0.84117647 0.83333333
0.85196078 0.8372549 0.82941176
0.78039216 0.75686275 0.7372549
0.78480392 0.76127451 0.74166667
0.7995098 0.77598039 0.76029412
0.80392157 0.78039216 0.76470588
0.81911765 0.80147059 0.7877451
0.83480392 0.82058824 0.8091299
0.84669118 0.83529412 0.82708333
0.8627451 0.85140931 0.84356618
0.86666667 0.85833333 0.8504902
0.78431373 0.76078431 0.74117647
0.79607843 0.77254902 0.75637255
0.80392157 0.78039216 0.76372549
0.80392157 0.78431373 0.76862745
0.80392157 0.78823529 0.77254902
0.81715686 0.80539216 0.79362745
0.84019608 0.82843137 0.82058824
0.85882353 0.85098039 0.84313725
0.8627451 0.85490196 0.84705882
0.0073529412 0.0073529412 0.0073529412
0.033823529 0.033823529 0.030392157
0.072671569 0.072671569 0.07254902
0.12665441 0.12273284 0.11881127
0.2 0.19191176 0.18039216
0.3091299 0.29166667 0.2745098
0.43529412 0.40686275 0.37941176
0.52555147 0.4872549 0.45196078
0.56470588 0.5254902 0.48627451
0.072120098 0.069056373 0.065196078
0.09564951 0.092585784 0.088664216
0.13137255 0.1278799 0.12363664
0.17254902 0.16846661 0.16035539
0.23823529 0.22647059 0.21470588
0.33382353 0.31308977 0.29491422
0.45643382 0.4254902 0.39750306
0.53039216 0.49417892 0.45931373
0.57254902 0.52941176 0.49411765
0.17254902 0.16568627 0.15784314
0.17990196 0.17325368 0.16792279
0.21544118 0.20759804 0.19635417
0.2506587 0.23739277 0.22781863
0.31041667 0.29460784 0.27990196
0.39430147 0.37084865 0.35110294
0.49803922 0.46372549 0.43235294
0.55281863 0.51323529 0.47794118
0.58639706 0.5432598 0.50404412
0.28480392 0.27040441 0.25471814
0.3098269 0.29414062 0.27990196
0.34165135 0.32254902 0.30686275
0.36764706 0.34773284 0.32990196
0.41559436 0.39264706 0.37107843
0.48069853 0.45153952 0.42439491
0.56367953 0.5245098 0.48823529
0.60539216 0.5622549 0.52303922
0.64019608 0.59705882 0.55637255
0.45882353 0.42941176 0.40196078
0.47622549 0.44509804 0.41936275
0.49203431 0.46029412 0.43137255
0.51528799 0.48391544 0.45343137
0.56262255 0.52818627 0.49387255
0.60079657 0.56158088 0.52564338
0.63823529 0.59503676 0.55318627
0.67129289 0.63039216 0.59289216
0.70367647 0.67230392 0.64289216
0.62745098 0.58449755 0.54558824
0.62949602 0.58841912 0.55079657
0.63792892 0.59656863 0.55735294
0.63658854 0.59656863 0.56127451
0.65122549 0.61813725 0.58921569
0.69355852 0.65802696 0.6245098
0.73667279 0.70845588 0.68247549
0.76519608 0.73952206 0.71644455
0.77941176 0.76127451 0.74558824
0.72046569 0.68137255 0.64963235
0.72058824 0.68883272 0.65859375
0.72429534 0.69007353 0.6627451
0.72843137 0.69313725 0.66479779
0.73995098 0.71421569 0.69203431
0.7819087 0.76262255 0.74661458
0.83431373 0.82034314 0.81240809
0.85773591 0.8459712 0.83553922
0.84901961 0.8372549 0.82585784
0.79172794 0.76519608 0.74558824
0.79227175 0.76917126 0.74961703
0.80119485 0.7801777 0.76090686
0.8004902 0.77696078 0.76127451
0.8171875 0.79803922 0.78584559
0.83265931 0.81726409 0.80886183
0.84669118 0.83529412 0.82708333
0.86704197 0.85576746 0.85055147
0.87843137 0.87058824 0.8627451
0.8 0.77647059 0.76029412
0.81084559 0.78817402 0.77248775
0.80784314 0.78517157 0.76862745
0.80784314 0.78823529 0.77254902
0.81176471 0.79607843 0.78431373
0.82745098 0.81323529 0.80392157
0.84791667 0.83627451 0.82830882
0.86709559 0.85925245 0.85140931
0.88578431 0.87794118 0.87009804
0.045098039 0.044117647 0.044117647
0.080759804 0.076960784 0.076838235
0.10784314 0.10465686 0.10392157
0.14509804 0.14117647 0.13480392
0.22058824 0.20882353 0.19754902
0.32352941 0.3057598 0.28676471
0.44313725 0.41397059 0.3872549
0.52634804 0.48713235 0.45453431
0.57254902 0.52941176 0.49411765
0.10392157 0.1 0.098651961
0.12303922 0.11911765 0.11519608
0.14705882 0.14313725 0.13826593
0.19117647 0.1814951 0.17215074
0.25557598 0.24129902 0.22818627
0.34630821 0.32518382 0.30588235
0.46090686 0.42981005 0.40202206
0.52647059 0.48950674 0.45528493
0.57254902 0.52941176 0.4932598
0.17352941 0.16936275 0.16176471
0.19960172 0.19185049 0.18403799
0.2254902 0.21544118 0.20667892
0.26973039 0.25487132 0.24264706
0.31862745 0.2995098 0.28382353
0.40530025 0.38002451 0.35857843
0.50122549 0.46905637 0.43768382
0.54852941 0.50931373 0.47267157
0.57352941 0.52818627 0.48897059
0.30539216 0.28970588 0.27438725
0.3245098 0.30635723 0.29117647
0.34963235 0.33039216 0.31424632
0.3816636 0.35919118 0.34068627
0.42267157 0.3995098 0.37745098
0.50159314 0.46953125 0.44166667
0.56191789 0.52352941 0.48823529
0.59857537 0.55712316 0.51845895
0.6372549 0.59558824 0.55637255
0.46617647 0.43676471 0.40931373
0.48792892 0.45655637 0.42867647
0.51004902 0.47745098 0.44803922
0.53302696 0.5 0.4685049
0.55490196 0.51960784 0.48627451
0.60294118 0.56176471 0.52254902
0.63823529 0.59436275 0.55196078
0.67328431 0.63431373 0.59901961
0.71519608 0.6872549 0.6622549
0.62990196 0.58529412 0.54607843
0.63517157 0.59407169 0.55770527
0.64246324 0.6004902 0.5620098
0.65085784 0.60602022 0.56482843
0.67224265 0.62928922 0.58915441
0.70784314 0.67143076 0.63589154
0.73872549 0.7127451 0.68958333
0.76862745 0.7432598 0.72348346
0.78872549 0.76911765 0.75453431
0.73235294 0.69387255 0.65882353
0.74019608 0.70778186 0.67821691
0.73627451 0.7002451 0.66960784
0.74276961 0.70637255 0.67582721
0.7627451 0.73333333 0.71041667
0.79889706 0.77806373 0.76302083
0.82818627 0.81329657 0.80490196
0.85330882 0.8421875 0.83443627
0.85661765 0.84803922 0.84019608
0.80477941 0.78125 0.76176471
0.80736826 0.78409926 0.76481311
0.81838235 0.79877451 0.78115809
0.81897978 0.79764093 0.78373162
0.83995098 0.82352941 0.8127451
0.84607843 0.83431373 0.82647059
0.85594363 0.84417892 0.83673407
0.88154105 0.87144608 0.86617647
0.90147059 0.89362745 0.88970588
0.81862745 0.79901961 0.78333333
0.83039216 0.81421569 0.79901961
0.83431373 0.81764706 0.80196078
0.83431373 0.81862745 0.80588235
0.83333333 0.81813725 0.80833333
0.83970588 0.82794118 0.82009804
0.8620098 0.85098039 0.84411765
0.88578431 0.87794118 0.87107843
0.91666667 0.90882353 0.90098039
0.1004902 0.096568627 0.096568627
0.11568627 0.11176471 0.10833333
0.13970588 0.13578431 0.13088235
0.17990196 0.17205882 0.16421569
0.24754902 0.23504902 0.22205882
0.33474265 0.31666667 0.29705882
0.44497549 0.41470588 0.3872549
0.53431373 0.49491422 0.45931373
0.57254902 0.53186275 0.49411765
0.14215686 0.1346201 0.13088235
0.14705882 0.13948376 0.13872549
0.18088235 0.17303922 0.16527267
0.22039675 0.209375 0.19772518
0.27818627 0.26078431 0.24852941
0.35294118 0.33186275 0.31243873
0.46680453 0.43639706 0.40543811
0.53431373 0.49491422 0.4595818
0.57892157 0.53578431 0.49803922
0.21801471 0.20833333 0.20012255
0.23439032 0.22267157 0.21213235
0.26326593 0.2495098 0.2377451
0.29806985 0.2810049 0.26568627
0.34460784 0.32444853 0.30618873
0.42953431 0.40098039 0.37745098
0.51571691 0.47904412 0.44705882
0.55252757 0.51020221 0.47305453
0.59007353 0.54693627 0.50588235
0.33235294 0.31421569 0.29852941
0.34773284 0.32872243 0.31158088
0.36852022 0.34852941 0.33039216
0.39993873 0.37661612 0.35492494
0.44166667 0.41522672 0.39215686
0.51338082 0.47843137 0.45006127
0.563894 0.52339154 0.48800551
0.5977405 0.55392923 0.51367953
0.63327206 0.58866422 0.54761029
0.47843137 0.44901961 0.42156863
0.5020527 0.46960784 0.44136029
0.525 0.49148284 0.46066176
0.54650735 0.5122549 0.47843137
0.56727941 0.53026961 0.49375
0.60885417 0.5676777 0.52846201
0.64534314 0.60324755 0.56568627
0.67711397 0.63921569 0.60784314
0.71691176 0.68676471 0.66004902
0.62996324 0.59019608 0.55098039
0.65245098 0.60973499 0.57040441
0.66138174 0.62101716 0.58549326
0.66903339 0.62681526 0.58895527
0.68526348 0.64258578 0.60245098
0.71534161 0.68431373 0.65253523
0.73180147 0.70882353 0.68621324
0.77653186 0.75392157 0.73431373
0.80386029 0.78480392 0.76911765
0.74375 0.70735294 0.67205882
0.75433517 0.72254902 0.68993566
0.75588235 0.72512255 0.69803922
0.76525735 0.73472733 0.71078431
0.78651961 0.76421569 0.74558824
0.81663603 0.80140931 0.78933824
0.8495098 0.83848039 0.82879902
0.88419118 0.87513787 0.86956189
0.88958333 0.8817402 0.87598039
0.8127451 0.78952206 0.77009804
0.82228094 0.79967065 0.7837163
0.83956801 0.82169118 0.80827206
0.85129442 0.83480392 0.8254902
0.86568627 0.85220588 0.84451593
0.88081342 0.86911765 0.86519608
0.8740962 0.86648284 0.8623315
0.90116422 0.89705882 0.89313725
0.93431373 0.92696078 0.92677696
0.85980392 0.84558824 0.83382353
0.86305147 0.8495098 0.83805147
0.87095588 0.85698529 0.84742647
0.87696078 0.86464461 0.85680147
0.88088235 0.86911765 0.86372549
0.87849265 0.86856618 0.86372549
0.88186275 0.87401961 0.87009804
0.90490196 0.90067402 0.89442402
0.94607843 0.94215686 0.93823529
0.15686275 0.14901961 0.14313725
0.17401961 0.16617647 0.15882353
0.19117647 0.18333333 0.17254902
0.24215686 0.22916667 0.21666667
0.29215686 0.27647059 0.25980392
0.37303922 0.35147059 0.32794118
0.46764706 0.43627451 0.40490196
0.5497549 0.50857843 0.47132353
0.58431373 0.54117647 0.50196078
0.19656863 0.18504902 0.17720588
0.21121324 0.20248162 0.19117647
0.23382353 0.22205882 0.21029412
0.26764706 0.25392157 0.23921569
0.32438725 0.30588235 0.28651961
0.3986826 0.3745098 0.34920343
0.49650735 0.46078431 0.42702206
0.55147059 0.51007966 0.47303922
0.58823529 0.54509804 0.50588235
0.28137255 0.26813725 0.25441176
0.27720588 0.26544118 0.24981618
0.31017157 0.29460784 0.27708333
0.3435049 0.3247549 0.30618873
0.3877451 0.36372549 0.34215686
0.46268382 0.43131127 0.403125
0.53026961 0.49068627 0.45539216
0.56813725 0.525 0.48560049
0.59901961 0.55441176 0.5127451
0.38823529 0.36862745 0.34583333
0.39754902 0.37420343 0.35226716
0.41072304 0.38743873 0.36495098
0.4377451 0.41253064 0.38823529
0.48382353 0.45245098 0.42377451
0.53183211 0.49411765 0.46078431
0.5745098 0.53088235 0.49240196
0.60759804 0.56265319 0.5231924
0.6375 0.59754902 0.55686275
0.51960784 0.48627451 0.45490196
0.52720588 0.49387255 0.46078431
0.54607843 0.51078431 0.47598039
0.5685049 0.53137255 0.49534314
0.59607843 0.55588235 0.51666667
0.62830882 0.58578431 0.54460784
0.65661765 0.61691176 0.57965686
0.67928922 0.64607843 0.61691176
0.72941176 0.70588235 0.68137255
0.64313725 0.60661765 0.57254902
0.66617647 0.62401961 0.58406863
0.68112745 0.63676471 0.59411765
0.69145221 0.64828431 0.60591299
0.70477941 0.66862745 0.63333333
0.72745098 0.69978554 0.67426471
0.76960784 0.74852941 0.72879902
0.80441176 0.78658088 0.77074142
0.82671569 0.81421569 0.8
0.75196078 0.7245098 0.69803922
0.76740196 0.73982843 0.71158088
0.77745098 0.74926471 0.72144608
0.79074755 0.76519608 0.74166667
0.81127451 0.79215686 0.77892157
0.84019608 0.83082108 0.82181373
0.89227941 0.88296569 0.87598039
0.92634804 0.91948529 0.91556373
0.92254902 0.91813725 0.91421569
0.83872549 0.82303922 0.80735294
0.85609681 0.840625 0.82493873
0.859375 0.84393382 0.83192402
0.88186275 0.87009804 0.8622549
0.89779412 0.88909314 0.88321078
0.91599265 0.90848652 0.90563725
0.91862745 0.91470588 0.91078431
0.94188113 0.93795956 0.9377451
0.9752451 0.975 0.97156863
0.90588235 0.89607843 0.88823529
0.90980392 0.90196078 0.89411765
0.91519608 0.90588235 0.90196078
0.92156863 0.91495098 0.9122549
0.92647059 0.92156863 0.91764706
0.92083333 0.91617647 0.9122549
0.92303922 0.91911765 0.91715686
0.94558824 0.94166667 0.93970588
0.99215686 0.99215686 0.99215686
0.24901961 0.2372549 0.22156863
0.28529412 0.26617647 0.25422794
0.28394608 0.2682598 0.25441176
0.31666667 0.2995098 0.28137255
0.37303922 0.35073529 0.32720588
0.44656863 0.4161152 0.38682598
0.51715686 0.48002451 0.44558824
0.56127451 0.52156863 0.48235294
0.58039216 0.5372549 0.49803922
0.28676471 0.27107843 0.25569853
0.31035539 0.29160539 0.27595741
0.32530637 0.30802696 0.28958333
0.34724265 0.3276348 0.30802696
0.39053309 0.36715686 0.34338235
0.47029718 0.43731618 0.40900735
0.53226103 0.49304534 0.45721507
0.57056526 0.52726716 0.48676471
0.59344363 0.54852941 0.50588235
0.37156863 0.35085784 0.33186275
0.37156863 0.35235907 0.33125
0.39068627 0.36927083 0.34773284
0.41574755 0.3912837 0.36813725
0.45980392 0.42843137 0.40238971
0.50939032 0.47447917 0.44117647
0.55502451 0.51409314 0.47515319
0.58391544 0.53884804 0.49718137
0.60392157 0.55625 0.51372549
0.45196078 0.4245098 0.40098039
0.46893382 0.44048713 0.41329657
0.47193627 0.44241728 0.41444547
0.49454657 0.46351869 0.43422947
0.53336397 0.49705882 0.46596201
0.56975337 0.52638634 0.49019608
0.59460784 0.54791667 0.5064951
0.62206648 0.57824755 0.53743873
0.64656863 0.60435049 0.56666667
0.54583333 0.51053922 0.47598039
0.56960784 0.53039216 0.49509804
0.58560049 0.54748775 0.51023284
0.59607843 0.55609681 0.51715686
0.61715686 0.57401961 0.53370098
0.64730392 0.60416667 0.56372549
0.67285539 0.63609069 0.60582108
0.70618873 0.67794118 0.65324755
0.74387255 0.72156863 0.70147059
0.67352941 0.62941176 0.5877451
0.68493413 0.64246324 0.60202206
0.69584865 0.65833333 0.62345282
0.69852941 0.66493566 0.63333333
0.71617647 0.68458946 0.65637255
0.74068627 0.718053 0.69803922
0.78319547 0.76372549 0.7495098
0.82892157 0.81441483 0.80313266
0.84803922 0.8377451 0.82990196
0.74607843 0.72647059 0.71078431
0.77654718 0.75415135 0.73439032
0.79702819 0.77742034 0.75735294
0.80392157 0.78578431 0.76715686
0.83762255 0.82132353 0.81109069
0.87947304 0.86793811 0.86046262
0.93713235 0.9294424 0.9260723
0.97401961 0.97005208 0.96678922
0.96066176 0.95490196 0.95453431
0.87334559 0.86568627 0.85784314
0.88540135 0.87589614 0.86439951
0.89276961 0.88321078 0.87267157
0.91862745 0.91323529 0.90557598
0.94828431 0.94249387 0.94240196
0.97634804 0.97352941 0.97346048
0.98475797 0.98051471 0.98249081
0.99215686 0.98823529 0.98997396
0.99215686 0.98823529 0.98823529
0.94509804 0.94117647 0.9372549
0.96421569 0.96029412 0.95637255
0.9747549 0.97083333 0.9689951
0.96421569 0.95784314 0.95784314
0.98848039 0.9872549 0.9872549
0.98278186 0.98186275 0.98186275
0.99068627 0.98786765 0.99068627
0.99577206 0.99185049 0.99344363
0.99215686 0.98823529 0.99215686
0.38823529 0.36764706 0.34411765
0.39411765 0.37058824 0.34705882
0.39191176 0.36666667 0.34705882
0.39362745 0.36948529 0.34595588
0.44901961 0.42107843 0.39166667
0.50477941 0.46911765 0.43382353
0.54313725 0.50318627 0.46470588
0.57267157 0.52941176 0.48762255
0.58137255 0.5372549 0.49509804
0.41029412 0.38578431 0.3622549
0.40539216 0.37886029 0.35833333
0.40845588 0.38186275 0.36072304
0.42107843 0.39554228 0.37032782
0.45998775 0.43125 0.40245098
0.50939032 0.4739277 0.43871017
0.55088848 0.51072304 0.47129289
0.58158701 0.53768382 0.49456189
0.59693627 0.54901961 0.50588235
0.44387255 0.41568627 0.39215686
0.44411765 0.41666667 0.39215686
0.44969363 0.42224265 0.39607843
0.46449142 0.43431373 0.40824142
0.50735294 0.47365196 0.44117647
0.54822304 0.51081495 0.47205882
0.57984069 0.53688725 0.49491422
0.59721201 0.55015319 0.50701593
0.62181373 0.5745098 0.53235294
0.48284314 0.45257353 0.42512255
0.5053462 0.47250306 0.44460784
0.5192402 0.48615196 0.45340074
0.5377451 0.49977022 0.46757047
0.56170343 0.52156863 0.48627451
0.59382659 0.54940257 0.50870098
0.6153799 0.56985294 0.52833946
0.63765319 0.59607843 0.55775123
0.68333333 0.64693627 0.62009804
0.57156863 0.53235294 0.49656863
0.58633578 0.54730392 0.5120098
0.60122549 0.5627451 0.52561275
0.61348039 0.57003676 0.52941176
0.64093137 0.59632353 0.55318627
0.6653799 0.62794118 0.59460784
0.68737745 0.65490196 0.62904412
0.71617647 0.69074755 0.67113971
0.74901961 0.72941176 0.71372549
0.66139706 0.63002451 0.60012255
0.68678002 0.64987745 0.61715686
0.70355392 0.67156863 0.64166667
0.71127451 0.68252145 0.65598958
0.74368873 0.71715686 0.69313725
0.77303922 0.75356924 0.73921569
0.80303309 0.78560049 0.7747549
0.84865196 0.83688725 0.82659314
0.88186275 0.87401961 0.86727941
0.77745098 0.75955882 0.74313725
0.79292279 0.77622549 0.75833333
0.81047794 0.79681373 0.78394608
0.83088235 0.81948529 0.80906863
0.86568627 0.85477941 0.84865196
0.91372549 0.90560662 0.90284926
0.95998775 0.95171569 0.95349265
0.98958333 0.9854473 0.98575368
0.99607843 0.99191176 0.99215686
0.89264706 0.88529412 0.87745098
0.90441176 0.89957108 0.89232537
0.91911765 0.91130515 0.90738358
0.9495098 0.94558824 0.94166667
0.98131127 0.98082108 0.98082108
0.9926011 0.99183517 0.99238664
0.99215686 0.9872549 0.99114583
0.99215686 0.98823529 0.99215686
0.99215686 0.98823529 0.99215686
0.96568627 0.96176471 0.95784314
0.97745098 0.97352941 0.96960784
0.98039216 0.97328431 0.97720588
0.99497549 0.98713235 0.99313725
0.99607843 0.99607843 0.99607843
0.99215686 0.99215686 0.99215686
0.99215686 0.9872549 0.98897059
0.99607843 0.99117647 0.99607843
0.99607843 0.98823529 0.99215686
0.45931373 0.42794118 0.4004902
0.45545343 0.4245098 0.4004902
0.45539216 0.42745098 0.4004902
0.45753676 0.42775735 0.4004902
0.48676471 0.45343137 0.42205882
0.53658088 0.4973652 0.46029412
0.56470588 0.52120098 0.47928922
0.57996324 0.53333333 0.49068627
0.59264706 0.54509804 0.50196078
0.45980392 0.43186275 0.40441176
0.46623775 0.4348652 0.40741422
0.46398591 0.4348652 0.40741422
0.46713388 0.43763787 0.41018689
0.49632353 0.46427696 0.43290441
0.54030331 0.49967065 0.46378676
0.56567096 0.52231924 0.48230699
0.58463542 0.53757659 0.49454657
0.59650735 0.54852941 0.50582108
0.46715686 0.43835784 0.40833333
0.4848652 0.45349265 0.42598039
0.4997549 0.46617647 0.43829657
0.50147059 0.46911765 0.4386489
0.5286152 0.49142157 0.45637255
0.56911765 0.52633272 0.48737745
0.59215686 0.54803922 0.50689338
0.60294118 0.55330882 0.51276042
0.62254902 0.57843137 0.53933824
0.51372549 0.47971814 0.44803922
0.52877604 0.49466912 0.46023284
0.5490962 0.51380208 0.47977941
0.56207108 0.52384344 0.48843444
0.57941176 0.5370098 0.49886642
0.60556832 0.56078431 0.51806832
0.62303922 0.57781863 0.53860294
0.64487592 0.60392157 0.57107843
0.66764706 0.63235294 0.60735294
0.59803922 0.55539216 0.51985294
0.609375 0.56666667 0.52941176
0.62261029 0.58382353 0.54509804
0.63088235 0.58667279 0.54672181
0.65490196 0.61703431 0.58272059
0.67794118 0.64460784 0.61323529
0.69877451 0.67156863 0.64803922
0.71789216 0.69632353 0.67913603
0.73186275 0.7125 0.70073529
0.68155637 0.64754902 0.61636029
0.69803922 0.66033241 0.62892157
0.70968137 0.6754902 0.64411765
0.73235294 0.70637255 0.6821538
0.76078431 0.74117647 0.72622549
0.79233303 0.77419577 0.76323529
0.81519608 0.80194547 0.79411765
0.83164063 0.82197457 0.81525735
0.88921569 0.87892157 0.875
0.76041667 0.74865196 0.73382353
0.7995098 0.78313419 0.76519608
0.81997549 0.80318627 0.78823529
0.8495098 0.8377451 0.82659314
0.88651961 0.87916667 0.87328431
0.94068627 0.93688725 0.93676471
0.97647059 0.96786152 0.97542892
0.97107843 0.96323529 0.96715686
0.99473039 0.9877451 0.99166667
0.89957108 0.89264706 0.88872549
0.92739737 0.92346814 0.91950061
0.94227941 0.93458946 0.93056066
0.96750153 0.96357996 0.96111366
0.99022672 0.98869485 0.98869485
0.98823529 0.98823529 0.98823529
0.99134498 0.98296569 0.98823529
0.98866422 0.98039216 0.98823529
0.99215686 0.98431373 0.99215686
0.97696078 0.97647059 0.97303922
0.99607843 0.99607843 0.99215686
1 0.99607843 0.99607843
0.99607843 0.99215686 0.99607843
0.99215686 0.99215686 0.99215686
0.98823529 0.98676471 0.98823529
0.98431373 0.97990196 0.98431373
0.99215686 0.98431373 0.99215686
0.99607843 0.98823529 0.99607843
0.46666667 0.43529412 0.40784314
0.46666667 0.43529412 0.40784314
0.46666667 0.43823529 0.40784314
0.47058824 0.43921569 0.41176471
0.5 0.46470588 0.43333333
0.53872549 0.49558824 0.46029412
0.55686275 0.51372549 0.4745098
0.57303922 0.52598039 0.48676471
0.59607843 0.54509804 0.50196078
0.47058824 0.43921569 0.41176471
0.47058824 0.43921569 0.41176471
0.47438725 0.44301471 0.41519608
0.48186275 0.44834559 0.41942402
0.50759804 0.47205882 0.43897059
0.54264706 0.50165441 0.46421569
0.56041667 0.51372549 0.4745098
0.57303922 0.52598039 0.48676471
0.6 0.54901961 0.50588235
0.48235294 0.45098039 0.42254902
0.49313725 0.46176471 0.43039216
0.50392157 0.47254902 0.43897059
0.52022059 0.48529412 0.45392157
0.53823529 0.50196078 0.46372549
0.57303922 0.52990196 0.49068627
0.59117647 0.54411765 0.50490196
0.5995098 0.54938725 0.50894608
0.62254902 0.57941176 0.54313725
0.52254902 0.48480392 0.45196078
0.53805147 0.50245098 0.46715686
0.5557598 0.5182598 0.48051471
0.57297794 0.53284314 0.49509804
0.58137255 0.53897059 0.49901961
0.61176471 0.56770833 0.52401961
0.62879902 0.58284314 0.54362745
0.64442402 0.60392157 0.56862745
0.67401961 0.64264706 0.61519608
0.60392157 0.5627451 0.52745098
0.61151961 0.56838235 0.52941176
0.62892157 0.58382353 0.54117647
0.64362745 0.6004902 0.56053922
0.65980392 0.62745098 0.59509804
0.68186275 0.6497549 0.61960784
0.70441176 0.6754902 0.64901961
0.7120098 0.69240196 0.675
0.77647059 0.7627451 0.75098039
0.68529412 0.64901961 0.61764706
0.69803922 0.65667892 0.625
0.71360294 0.67941176 0.65134804
0.73927696 0.71666667 0.69761029
0.76078431 0.74191176 0.72696078
0.79613971 0.78137255 0.76862745
0.81335784 0.8004902 0.79313725
0.8377451 0.82567402 0.81960784
0.86764706 0.85980392 0.85343137
0.76862745 0.75588235 0.74117647
0.79852941 0.77990196 0.76421569
0.82647059 0.80784314 0.79215686
0.85735294 0.84448529 0.83443627
0.89607843 0.88872549 0.88088235
0.95085784 0.94803922 0.94509804
0.97818627 0.96960784 0.9745098
0.98284314 0.97242647 0.98026961
0.99607843 0.98823529 0.99215686
0.90098039 0.89362745 0.88970588
0.93878676 0.93094363 0.92401961
0.94607843 0.93823529 0.93431373
0.96813725 0.96470588 0.96078431
0.98455882 0.98431373 0.98259804
0.98823529 0.98792892 0.98823529
0.98823529 0.98296569 0.98823529
0.98823529 0.97647059 0.98431373
0.99607843 0.98431373 0.99607843
1 0.99607843 0.99607843
1 0.99607843 0.99607843
1 0.99607843 0.99607843
0.99607843 0.99215686 0.99215686
0.99019608 0.98823529 0.98823529
0.98431373 0.98039216 0.98431373
0.98431373 0.97647059 0.98039216
0.98823529 0.98039216 0.98823529
1 0.98823529 1
