site/assets/luts/natron-haldclut--kodak2393-constlclip--90604e797.cube
# LUTr-Project: LUTr — LUTrepository
# LUTr-Schema-Version: 1
# LUTr-ID: natron-haldclut--kodak2393-constlclip--90604e797
# LUTr-Title: kodak2393 constlclip
# LUTr-Collection: Natron HaldCLUT
# LUTr-Collection-ID: natron-haldclut-presets
# LUTr-Source: https://github.com/NatronGitHub/clut
# LUTr-Source-File: submissions/natron-haldclut-presets/print/kodak2393_constlclip.png
# LUTr-Source-Format: PNG
# LUTr-Source-SHA256: b39546b1c527754035450079293ce3433fbbfed70169f7bff06914b21b9aad8d
# LUTr-License: CC-BY-SA-4.0
# LUTr-License-URL: https://github.com/NatronGitHub/clut#license
# LUTr-Tags: creative, film, film-emulation, hald-clut, natron, png, cube
# LUTr-Transform-Class: film-emulation
# LUTr-Input-Color-Space: srgb
# LUTr-Output-Color-Space: srgb
# LUTr-Color-Space-Confidence: assumed-display-referred
# LUTr-Conversion-Method: PNG LUT image decoded at 16-bit and sampled to 25x25x25 3D CUBE
# LUTr-Conversion-Date: 2026-07-27
# LUTr-Conversion-Tool: LUTr scripts/convert-all-to-cube.mjs
# LUTr-Conversion-Grid: 25x25x25
# LUTr-Note: Preserve this metadata and the upstream license notices when redistributing.
TITLE "kodak2393 constlclip"
LUT_3D_SIZE 9
DOMAIN_MIN 0 0 0
DOMAIN_MAX 1 1 1
0.0078431373 0.015686275 0.019607843
0.030882353 0.02745098 0.023529412
0.061764706 0.031372549 0.011764706
0.17058824 0.06127451 0.0039215686
0.27647059 0.080392157 0.0039215686
0.40686275 0.098039216 0.006372549
0.47254902 0.10588235 0.012745098
0.51372549 0.10980392 0.011764706
0.52156863 0.11372549 0.011764706
0.011764706 0.030882353 0.02745098
0.030882353 0.034803922 0.019607843
0.076102941 0.046936275 0.0093137255
0.17794118 0.07254902 0.0039215686
0.33259804 0.10343137 0.011764706
0.45459559 0.12469363 0.0060661765
0.52254902 0.13639706 0.0078431373
0.55594363 0.1411152 0.019178922
0.57156863 0.14852941 0.023529412
0.011764706 0.061764706 0.042156863
0.020465686 0.069485294 0.038235294
0.078676471 0.088970588 0.012009804
0.2127451 0.12438725 0.0024509804
0.38970588 0.16421569 0.0088235294
0.51727941 0.1817402 0.0093137255
0.58823529 0.19019608 0.0075980392
0.61813725 0.20232843 0.019607843
0.6372549 0.21372549 0.00098039216
0.0078431373 0.12107843 0.069117647
0 0.13106618 0.06372549
0.043259804 0.1807598 0.01372549
0.26329657 0.23333333 0.0039215686
0.47401961 0.29117647 0.0039215686
0.60784314 0.3151348 0.0039215686
0.67843137 0.32156863 0.012745098
0.71372549 0.34068627 0.020098039
0.73529412 0.36372549 0.0093137255
0.011764706 0.20588235 0.10588235
0.0058823529 0.24068627 0.10588235
0.018627451 0.30490196 0.062254902
0.31470588 0.4 0.017156863
0.55588235 0.46372549 0.0019607843
0.70563725 0.49754902 0.0098039216
0.77254902 0.50980392 0.024019608
0.81029412 0.52573529 0.025245098
0.83137255 0.54705882 0.0098039216
0.025980392 0.28676471 0.14264706
0.018137255 0.33529412 0.14656863
0.0094362745 0.41715686 0.099019608
0.34215686 0.52156863 0.018137255
0.61593137 0.61127451 0.0058823529
0.78284314 0.65980392 0.0035539216
0.86948529 0.68321078 0.0039215686
0.89362745 0.6908701 0.034620098
0.90490196 0.70392157 0.042156863
0.015686275 0.35 0.16568627
0.015686275 0.38872549 0.16213235
0.015686275 0.48039216 0.10098039
0.37843137 0.59901961 0.013602941
0.65147059 0.69509804 0.0078431373
0.82254902 0.74632353 0.043137255
0.89926471 0.76568627 0.067647059
0.93039216 0.76973039 0.074509804
0.94215686 0.7745098 0.071568627
0.0039215686 0.38872549 0.17647059
0.015257353 0.44221814 0.1651348
0.075367647 0.53125 0.064093137
0.40459559 0.63382353 0.006372549
0.66642157 0.72156863 0.014215686
0.83903186 0.77579657 0.052634804
0.91519608 0.80134804 0.078431373
0.94993873 0.80833333 0.08627451
0.96078431 0.80833333 0.08627451
0 0.44313725 0.2
0.030882353 0.53529412 0.1622549
0.22352941 0.60098039 0.0049019608
0.48382353 0.68186275 0.0078431373
0.69803922 0.74509804 0.0039215686
0.85294118 0.79117647 0.060294118
0.94607843 0.82352941 0.093137255
0.97254902 0.83088235 0.094117647
0.96862745 0.81960784 0.098039216
0.0078431373 0.015686275 0.026960784
0.030882353 0.026960784 0.034803922
0.076960784 0.035294118 0.02745098
0.17058824 0.036090686 0.00030637255
0.30343137 0.054166667 0.0083333333
0.41354167 0.091666667 0.019607843
0.50551471 0.10980392 0.026102941
0.52248775 0.094607843 0.00049019608
0.55637255 0.10294118 0.02745098
0.011764706 0.034803922 0.035232843
0.026960784 0.039100797 0.038296569
0.076470588 0.046568627 0.030897672
0.19166667 0.06127451 0.01149663
0.34123775 0.094117647 0.0075980392
0.47352941 0.10949755 0.011764706
0.53999694 0.1254902 0.019929534
0.57505362 0.12070313 0.0091988358
0.59068627 0.12297794 0.02745098
0.0078431373 0.073406863 0.05747549
0.012254902 0.076102941 0.050857843
0.078155637 0.092800245 0.034313725
0.23212316 0.12196691 0.010646446
0.40857843 0.15147059 0.012132353
0.54064032 0.16942402 0.015456495
0.60701593 0.17892157 0.0073529412
0.6372549 0.18627451 0.010094975
0.65502451 0.20833333 0.02745098
0 0.12892157 0.080392157
0.0071920956 0.14797794 0.075490196
0.044010417 0.18886336 0.034880515
0.27096354 0.23927696 0.012316176
0.49059436 0.29393382 0.01127451
0.63480392 0.31237745 0.00055147059
0.70441176 0.32803309 0.013311887
0.73241422 0.33710938 0.023835784
0.75018382 0.36323529 0.015686275
0.011764706 0.22083333 0.12696078
0.0058517157 0.25591299 0.125
0.024509804 0.32040441 0.081617647
0.31804534 0.41446078 0.0040134804
0.56813725 0.47401961 0.0037990196
0.72264093 0.50572917 0.0024509804
0.8033701 0.525 0.0052083333
0.83526348 0.53943015 0.0041973039
0.84852941 0.55686275 0.023039216
0.014215686 0.30900735 0.16207108
0.0082261029 0.34791667 0.1622549
0.032996324 0.42421875 0.12794118
0.32592678 0.54734988 0.010294118
0.62573529 0.63422181 0.0019607843
0.79668352 0.6761106 0.016176471
0.88431373 0.6988511 0.015073529
0.91096814 0.70735294 0.028408395
0.92009804 0.71519608 0.043627451
0.0083333333 0.35833333 0.18872549
0.0070772059 0.40321691 0.18469669
0.0035232843 0.4924326 0.13789828
0.37288603 0.6185049 0.021522672
0.6536152 0.70839461 0.010232843
0.83979779 0.76363358 0.04911152
0.91617647 0.77536765 0.068627451
0.94640012 0.78583027 0.075811887
0.95392157 0.78884804 0.078431373
0.015686275 0.39656863 0.21519608
0.037859988 0.44792433 0.20746783
0.0082107843 0.54227941 0.135769
0.38546262 0.65801164 0.02377451
0.67570466 0.74552696 0.009375
0.85030637 0.79144455 0.051202512
0.93909314 0.81568627 0.07979473
0.96911765 0.82352941 0.091168811
0.97996324 0.82401961 0.090625
0.015686275 0.47745098 0.27205882
0.035355392 0.53633578 0.25306373
0.0042892157 0.64362745 0.14252451
0.43560049 0.72254902 0.014338235
0.71519608 0.78921569 0.0019607843
0.88578431 0.82647059 0.013848039
0.97132353 0.83995098 0.022181373
0.99859069 0.84957108 0.010539216
0.9995098 0.8504902 0.20441176
0.00098039216 0.031372549 0.053921569
0.0035539216 0.031372549 0.073039216
0.059803922 0.024509804 0.079411765
0.18517157 0.018137255 0.065196078
0.32892157 0.010784314 0.064215686
0.45147059 0.035294118 0.067769608
0.52083333 0.042156863 0.075735294
0.56556373 0.048039216 0.07879902
0.57156863 0.031372549 0.085294118
0.0074754902 0.045710784 0.065196078
0.010952819 0.046568627 0.076470588
0.069362745 0.050490196 0.083302696
0.21171875 0.048345588 0.069745711
0.38045343 0.025857843 0.065318627
0.51678922 0.023268995 0.063097426
0.58219975 0.022395833 0.068504902
0.61763174 0.026822917 0.063250613
0.63284314 0.031740196 0.073406863
0.015441176 0.076470588 0.081372549
0.016053922 0.086795343 0.090716912
0.052941176 0.099019608 0.10196078
0.23526348 0.12245711 0.097058824
0.44987745 0.12071078 0.066176471
0.60689338 0.072303922 0.0055453431
0.68596814 0.018811275 0.0053308824
0.71810662 0.019546569 0.004442402
0.74460784 0.084313725 0.0044117647
0.013235294 0.14644608 0.12156863
0.011764706 0.15067402 0.11711091
0.015042892 0.19791667 0.11914828
0.28200061 0.25931373 0.092248775
0.52947304 0.29252451 0.028002451
0.70441176 0.3004136 0
0.78394608 0.30260417 0.00027573529
0.80992647 0.31753983 0.0064185049
0.83235294 0.34105392 0.00098039216
0.018137255 0.25 0.17401961
0.015747549 0.27408088 0.18131127
0.013970588 0.34129902 0.1620098
0.29546569 0.4370098 0.071139706
0.6 0.49754902 0.011764706
0.77867647 0.52530637 0.022610294
0.86139706 0.52683824 0.0026960784
0.89197304 0.54748775 0.022058824
0.90784314 0.57058824 0.037745098
0.019240196 0.33529412 0.22205882
0.0093137255 0.37158395 0.2222886
0.0084865196 0.45548407 0.20327819
0.3138174 0.59315257 0.019776348
0.65085784 0.67334559 0.0047794118
0.83321078 0.70094975 0.027328431
0.92778799 0.71878064 0.042034314
0.95422794 0.73046875 0.024019608
0.96568627 0.74007353 0.014093137
0.025735294 0.36666667 0.23897059
0.016176471 0.42720588 0.25977328
0.019607843 0.51783088 0.24050245
0.29157475 0.66397059 0.0076286765
0.66973039 0.75208333 0.00073529412
0.8754902 0.79381127 0.0038909314
0.96084559 0.80882353 0.022058824
0.99044118 0.81960784 0.01026348
0.99730392 0.82647059 0.012254902
0.0051470588 0.42169118 0.29693627
0.031449142 0.48399203 0.311106
0.055330882 0.56032475 0.3013174
0.30597426 0.70416667 0.17388174
0.67653186 0.78854167 0.10091912
0.89522059 0.83419118 0.021997549
0.99227941 0.85297181 0.025796569
0.99509804 0.85441176 0.15750613
0.99607843 0.85833333 0.22487745
0.0088235294 0.53235294 0.3872549
0.03002451 0.57965686 0.40171569
0.019117647 0.65514706 0.3747549
0.37610294 0.7560049 0.32990196
0.69117647 0.82254902 0.2995098
0.88823529 0.85968137 0.28161765
0.9870098 0.8745098 0.23308824
1 0.88431373 0.3370098
0.99901961 0.88529412 0.37745098
0.0078431373 0.06127451 0.1122549
0.0039215686 0.057352941 0.13039216
0.050122549 0.014093137 0.17254902
0.17303922 0.0039215686 0.18180147
0.34534314 0.010539216 0.20931373
0.48192402 0.03192402 0.22064951
0.53786765 0.035906863 0.22512255
0.57745098 0.026960784 0.23235294
0.58529412 0.014215686 0.23676471
0.011764706 0.075183824 0.1286152
0.0078431373 0.074731924 0.14260876
0.051348039 0.043704044 0.19497549
0.21084559 0.020879289 0.21912531
0.38235294 0.012928922 0.23063725
0.52935049 0.016176471 0.23382353
0.59840686 0.02879902 0.24448529
0.63023131 0.015418199 0.24623928
0.65539216 0.01060049 0.26488971
0.0014705882 0.10343137 0.15539216
0.0076133578 0.11421569 0.17990196
0.016819853 0.11213235 0.22745098
0.24428615 0.12833946 0.26418505
0.45612745 0.11875 0.26470588
0.61360294 0.083685662 0.267019
0.70211397 0.0024816176 0.26384804
0.73385417 0.032873775 0.28147978
0.75281863 0.093995098 0.28529412
0.0039215686 0.18241422 0.20839461
0.010110294 0.2026348 0.23001685
0.012224265 0.23186275 0.26931679
0.25377604 0.28627451 0.3088848
0.53480392 0.31642157 0.30637255
0.70827206 0.30833333 0.31413143
0.79105392 0.30948223 0.30966605
0.82666973 0.32009804 0.3091299
0.8504902 0.36078431 0.32009804
0.0078431373 0.28921569 0.27843137
0.0075367647 0.31783088 0.29886642
0.023897059 0.39430147 0.33370098
0.24041054 0.48011642 0.34828431
0.58958333 0.53835784 0.34166667
0.79632353 0.56397059 0.31317402
0.89129902 0.56819853 0.31832108
0.92386642 0.57466299 0.31397059
0.94068627 0.59852941 0.3
0.020159314 0.37647059 0.32107843
0.0031173407 0.41728707 0.34914982
0.026700368 0.49287684 0.3783701
0.18986673 0.63991268 0.37696844
0.62377451 0.71544118 0.32693015
0.85735294 0.75006127 0.2901731
0.96084559 0.76666667 0.31726409
0.9922258 0.77334559 0.32599571
0.99699755 0.78970588 0.33596814
0.0039215686 0.43480392 0.37254902
0.003783701 0.47904412 0.40075061
0.014859069 0.56240809 0.42117034
0.13385417 0.71548713 0.40511642
0.63057598 0.79957108 0.39675245
0.87794118 0.84486826 0.36366422
0.98063725 0.85949755 0.33694853
1 0.86678922 0.38357843
1 0.86617647 0.40392157
0.0021446078 0.47064951 0.42340686
0.012745098 0.53592984 0.45765931
0.00081188725 0.60767463 0.4792739
0.12688419 0.76109835 0.49009651
0.62882966 0.82965686 0.44901961
0.8776348 0.87653186 0.42677696
0.97205882 0.89276961 0.4154565
1 0.90098039 0.47608762
1 0.89705882 0.49117647
0 0.56960784 0.51960784
0 0.61599265 0.53216912
0.0078431373 0.68468137 0.53958333
0.27849265 0.79209559 0.56023284
0.65318627 0.85931373 0.55588235
0.8682598 0.89595588 0.53780637
0.97561275 0.91617647 0.55085784
1 0.91617647 0.54068627
1 0.92156863 0.58578431
0.0078431373 0.094117647 0.17843137
0.0039215686 0.096078431 0.19215686
0.040196078 0.010784314 0.27009804
0.1754902 0.0039215686 0.29705882
0.36666667 0.0039215686 0.34215686
0.49485294 0.015196078 0.35269608
0.54705882 0.023529412 0.35
0.58333333 0.028676471 0.36151961
0.61764706 0.015686275 0.38627451
0 0.11151961 0.19779412
0.0039215686 0.11348039 0.22818627
0.037193627 0.044362745 0.30680147
0.20955882 0.0083333333 0.36185662
0.39901961 0.0049019608 0.38014706
0.53848039 0.0039215686 0.3872549
0.60943627 0.025 0.39534314
0.64411765 0.026470588 0.40386029
0.66127451 0.006127451 0.41470588
0 0.15686275 0.25098039
0.0039215686 0.16464461 0.27395833
0.020955882 0.14264706 0.3435049
0.22996324 0.13014706 0.42843137
0.45931373 0.11911765 0.44705882
0.62726716 0.07120098 0.45802696
0.70833333 0.0099264706 0.45784314
0.74246324 0.0080269608 0.465625
0.75735294 0.10784314 0.48235294
0.0039215686 0.23406863 0.31789216
0.018137255 0.24908088 0.33970588
0.01439951 0.27843137 0.40539216
0.22671569 0.30802696 0.49093137
0.52573529 0.33713235 0.51862745
0.71443015 0.34586397 0.52892157
0.796875 0.32579657 0.52254902
0.83520221 0.34534314 0.53088235
0.84656863 0.36789216 0.54215686
0.02254902 0.33333333 0.38529412
0.021446078 0.36629902 0.4182598
0.020343137 0.42794118 0.47279412
0.14669118 0.51948529 0.55821078
0.56666667 0.57009804 0.575
0.79387255 0.59485294 0.57610294
0.8875 0.6 0.57426471
0.91997549 0.61580882 0.58235294
0.93627451 0.63431373 0.59313725
0.014215686 0.42843137 0.44534314
0.010386029 0.47205882 0.48079044
0.0025122549 0.55269608 0.5348652
0.086887255 0.68556985 0.60003064
0.59289216 0.76139706 0.60735294
0.83823529 0.79362745 0.6078125
0.94142157 0.79828431 0.60539216
0.97965686 0.81568627 0.60719975
0.98651961 0.82107843 0.61446078
0 0.4754902 0.48382353
0.0039215686 0.53186275 0.52775735
0.0039215686 0.62340686 0.58002451
0.10698529 0.75539216 0.63394608
0.58039216 0.83823529 0.6372549
0.85269608 0.88284314 0.63995098
0.95980392 0.89485294 0.63676471
0.99240196 0.90196078 0.64460784
1 0.90588235 0.66078431
0.0036764706 0.5495098 0.54803922
0.0037071078 0.58235294 0.57671569
0.00091911765 0.66501225 0.63039216
0.084497549 0.78982843 0.67953431
0.59767157 0.87083333 0.69117647
0.85670956 0.9158701 0.69289216
0.96403186 0.93400735 0.67953431
0.99610907 0.93921569 0.69708946
1 0.93921569 0.71078431
0 0.59411765 0.60784314
0 0.64877451 0.63970588
0.012745098 0.72254902 0.68235294
0.16029412 0.82769608 0.72990196
0.61960784 0.88823529 0.73137255
0.84656863 0.925 0.73259804
0.9627451 0.94705882 0.74117647
0.99656863 0.95294118 0.74534314
1 0.95098039 0.75294118
0.0039215686 0.12303922 0.23676471
0.0073529412 0.12303922 0.25214461
0.022426471 0.04754902 0.34056373
0.18333333 0.021078431 0.390625
0.35980392 0.014215686 0.43137255
0.48131127 0.028370098 0.43033088
0.57696078 0.035294118 0.46237745
0.60196078 0.031372549 0.46158088
0.61470588 0.048039216 0.46862745
0 0.15392157 0.27303922
0.0039215686 0.14957108 0.29558824
0.0015318627 0.14122243 0.34379596
0.19920343 0.0078431373 0.46758578
0.40563725 0.0098039216 0.49574142
0.5522595 0.013235294 0.50753676
0.62316176 0.036443015 0.50894608
0.65588235 0.031862745 0.52064951
0.68235294 0.0039215686 0.53988971
0 0.19558824 0.32438725
0 0.19558824 0.34558824
0.008057598 0.18492647 0.40713848
0.19970895 0.10686275 0.55208333
0.46366422 0.10104167 0.5877451
0.63053002 0.055713848 0.59463848
0.71614583 0.00082720588 0.59901961
0.75081189 0.0064185049 0.61438419
0.77169118 0.075122549 0.62855392
0.003002451 0.2754902 0.40091912
0.0039215686 0.28540901 0.42064951
0.0054534314 0.31153493 0.49558824
0.19109222 0.3221201 0.63480392
0.50686275 0.34191176 0.67552083
0.7125383 0.34154412 0.68474265
0.80441176 0.35317096 0.6901348
0.83676471 0.35226716 0.69244792
0.8528799 0.38584559 0.70098039
0.0078431373 0.39044118 0.48921569
0.004564951 0.40946691 0.51216299
0.02310049 0.46758578 0.58094363
0.12092525 0.55067402 0.71222426
0.5564951 0.59583333 0.74191176
0.78535539 0.6301777 0.75490196
0.88615196 0.6283701 0.75490196
0.91798407 0.63783701 0.75818015
0.9372549 0.66078431 0.76617647
0.0087622549 0.475 0.54705882
0.0080269608 0.51470588 0.58148744
0.0036917892 0.59362745 0.64630821
0.058210784 0.70827206 0.74581801
0.56127451 0.78229167 0.78259804
0.82751225 0.82058824 0.79466912
0.92791054 0.82359069 0.7948989
0.97273284 0.84184283 0.80049786
0.98186275 0.84411765 0.79705882
0 0.52683824 0.58823529
0.013602941 0.57107843 0.62273284
0.014246324 0.64911152 0.68324142
0.079090074 0.7821538 0.78137255
0.56170343 0.87101716 0.81004902
0.83789828 0.91516544 0.81917892
0.94721201 0.92362132 0.82009804
0.98849571 0.93198529 0.82305453
0.99607843 0.93468137 0.82794118
0.0039215686 0.55520833 0.61550245
0.012783395 0.6245098 0.66930147
0.016590074 0.70384498 0.7307598
0.066597733 0.81036305 0.81077665
0.56945466 0.89901961 0.84396446
0.825 0.94050245 0.85017616
0.95497855 0.95975797 0.85373775
0.99248621 0.96488971 0.85343137
1 0.96881127 0.85735294
0 0.64558824 0.69803922
0.014215686 0.68051471 0.72169118
0.0044117647 0.7567402 0.7877451
0.080330882 0.84558824 0.84607843
0.59411765 0.91127451 0.8620098
0.82303922 0.9504902 0.87107843
0.94742647 0.96678922 0.8692402
0.99264706 0.97432598 0.87414216
1 0.97401961 0.87254902
0 0.14215686 0.27254902
0.0077205882 0.14607843 0.29509804
0.0036764706 0.059313725 0.39019608
0.18811275 0.024509804 0.46384804
0.35539216 0.030392157 0.48431373
0.5 0.038480392 0.51262255
0.57941176 0.042401961 0.5245098
0.61176471 0.036151961 0.52683824
0.65490196 0.041176471 0.57058824
0 0.17696078 0.32254902
0.0039215686 0.17696078 0.3372549
0.0046875 0.17398897 0.38152574
0.20490196 0.0043198529 0.54381127
0.41525735 0.0078431373 0.57665441
0.56061581 0.0077052696 0.58088235
0.6333027 0.048682598 0.58872549
0.67352941 0.044546569 0.60085784
0.69571078 0.026348039 0.62181373
0 0.21862745 0.37083333
0 0.22720588 0.39515931
0.0094362745 0.20686275 0.47432598
0.20579044 0.10867034 0.63829657
0.46029412 0.10379902 0.67708333
0.64117647 0.027359069 0.68382353
0.72077206 0.0042892157 0.69295343
0.75833333 0.0042892157 0.70490196
0.78137255 0.068872549 0.72058824
0.010294118 0.30392157 0.45147059
0.0024509804 0.31262255 0.4745098
0.008057598 0.33336397 0.5604473
0.17784926 0.34237132 0.72274816
0.49393382 0.35882353 0.76691176
0.70840993 0.35983456 0.78186275
0.80677083 0.34987745 0.78630515
0.83921569 0.35526961 0.79068627
0.85441176 0.38566176 0.79963235
0.030392157 0.40098039 0.52843137
0.02310049 0.4370098 0.56930147
0.025122549 0.4872549 0.65147059
0.075367647 0.55790441 0.79252451
0.53651961 0.60588235 0.84240196
0.77009804 0.62794118 0.85686275
0.87647059 0.63137255 0.85686275
0.91243873 0.64993873 0.86501225
0.92647059 0.66176471 0.86862745
0.023529412 0.50208333 0.6
0.011887255 0.53765319 0.63694853
0.029779412 0.60539216 0.70621936
0.11277574 0.72493873 0.82817096
0.54987745 0.80759804 0.89185049
0.81075368 0.83619792 0.90539216
0.92205882 0.84972426 0.90931373
0.96083027 0.86374081 0.90857843
0.98186275 0.87144608 0.91568627
0.03627451 0.55392157 0.64019608
0.035079657 0.59705882 0.67941176
0.046078431 0.66905637 0.74466912
0.057261029 0.79653799 0.85683211
0.53627451 0.8875 0.91237745
0.81553309 0.9291973 0.92545956
0.93627451 0.94387255 0.92653186
0.98416054 0.95012255 0.92460172
0.99215686 0.9502451 0.92843137
0.014828431 0.57732843 0.66066176
0.026976103 0.64019608 0.71862745
0.0090992647 0.70934436 0.78026961
0.048468137 0.8254136 0.87688419
0.53063725 0.91378676 0.92720588
0.82250306 0.95736826 0.93570772
0.93921569 0.97647059 0.93958333
0.98871017 0.98051471 0.9401348
0.99607843 0.98431373 0.94607843
0.032352941 0.65490196 0.73333333
0.031862745 0.70147059 0.77303922
0.0017156863 0.76887255 0.83259804
0.091666667 0.86188725 0.91004902
0.56764706 0.92352941 0.93529412
0.81727941 0.9622549 0.94313725
0.93112745 0.98137255 0.9502451
0.98860294 0.98921569 0.95085784
0.99607843 0.98823529 0.94313725
0 0.16078431 0.31029412
0.0034313725 0.16378676 0.32316176
0.00049019608 0.15355392 0.35367647
0.18639706 0.026654412 0.49356618
0.37647059 0.023529412 0.53970588
0.5377451 0.054105392 0.58088235
0.59656863 0.058823529 0.57107843
0.61764706 0.051041667 0.55974265
0.67058824 0.062745098 0.62009804
0.0039215686 0.19601716 0.36072304
0.00037530637 0.19478401 0.37113205
0 0.19515931 0.40637255
0.20906863 0.0079886642 0.58504136
0.41957721 0.011795343 0.6245098
0.57401961 0.016973039 0.63216912
0.65243566 0.039154412 0.63872549
0.6901348 0.043252145 0.65098039
0.7127451 0.049571078 0.67352941
0 0.23468137 0.40208333
0 0.24541973 0.42804841
0 0.24656863 0.48072917
0.17087929 0.10931373 0.67181373
0.45906863 0.10514706 0.71960784
0.64459252 0.069944853 0.73448223
0.73550858 0.0049632353 0.74571078
0.76962316 0.0073682598 0.75430453
0.78272059 0.093137255 0.75968137
0.0037377451 0.30931373 0.47009804
0.0027956495 0.33545496 0.5127451
0.0073529412 0.35147059 0.59313725
0.17777267 0.34480699 0.77338388
0.51004902 0.36862745 0.80980392
0.70717678 0.3669807 0.82745098
0.80686275 0.35784314 0.82939645
0.83890931 0.36192555 0.83284314
0.85588235 0.39117647 0.84460784
0.01372549 0.42352941 0.56102941
0.011764706 0.45245098 0.5995098
0.012745098 0.4971201 0.66881127
0.082598039 0.56436887 0.82015931
0.53039216 0.60894608 0.88480392
0.76519608 0.63146446 0.89981618
0.87794118 0.63578431 0.90637255
0.91001838 0.64681373 0.90392157
0.92916667 0.67254902 0.91617647
0.0039215686 0.50508578 0.61893382
0.011764706 0.55100337 0.66341912
0.026332721 0.61323529 0.72941176
0.054940257 0.72745098 0.85938266
0.52959559 0.80670956 0.93324142
0.80644148 0.84271599 0.94986979
0.91870404 0.8504902 0.95098039
0.96617647 0.86470588 0.956947
0.97401961 0.87009804 0.95882353
0.0068627451 0.55772059 0.6557598
0.032414216 0.60784314 0.7019761
0.0053921569 0.67717525 0.76801471
0.017800245 0.79603248 0.88334865
0.51789216 0.89191176 0.95171569
0.81643689 0.93837316 0.96605392
0.94313725 0.94776348 0.97276348
0.98218444 0.95490196 0.97046569
0.99215686 0.95784314 0.97303922
0.0074142157 0.58480392 0.6754902
0.024188113 0.64700521 0.73333333
0.0052849265 0.71655944 0.80174632
0.058716299 0.83210784 0.90459559
0.55894608 0.92159926 0.95952819
0.81350337 0.9622549 0.97636336
0.93497243 0.97814032 0.97964154
0.98463542 0.98431373 0.97738971
0.99607843 0.98474265 0.98088235
0.031372549 0.64313725 0.73333333
0.0088235294 0.71176471 0.7911152
0.017892157 0.7627451 0.84117647
0.071078431 0.8622549 0.93057598
0.55759804 0.92745098 0.96470588
0.803125 0.96617647 0.97432598
0.94178922 0.98823529 0.98823529
0.98039216 0.99215686 0.98088235
0.99656863 0.99607843 0.98088235
0 0.17254902 0.32941176
0 0.16911765 0.34117647
0.0029411765 0.18039216 0.39117647
0.20784314 0.011764706 0.55
0.38039216 0.02745098 0.55294118
0.54705882 0.049509804 0.60147059
0.64117647 0.02254902 0.63137255
0.65490196 0.062745098 0.61568627
0.69803922 0.043137255 0.65882353
0 0.21127451 0.38333333
0 0.21170343 0.40147059
0.0034313725 0.19840686 0.46617647
0.22156863 0.028921569 0.64068627
0.44460784 0.01127451 0.68651961
0.60343137 0.009497549 0.68694853
0.67156863 0.021691176 0.67794118
0.72359069 0.010232843 0.70692402
0.75882353 0.0014705882 0.74215686
0 0.24803922 0.4127451
0 0.26323529 0.44803922
0.0022058824 0.26568627 0.50906863
0.21237745 0.17291667 0.71678922
0.46960784 0.15490196 0.74803922
0.65833333 0.1245098 0.77058824
0.7502451 0.12867647 0.77892157
0.78590686 0.12622549 0.78578431
0.79803922 0.15490196 0.79313725
0 0.32647059 0.48970588
0.0039215686 0.34834559 0.52843137
0.006372549 0.37242647 0.61372549
0.1620098 0.3721201 0.76697304
0.51348039 0.38431373 0.82892157
0.709375 0.38431373 0.84803922
0.8057598 0.36997549 0.84656863
0.84852941 0.39117647 0.85833333
0.87156863 0.43382353 0.87401961
0.011764706 0.42745098 0.56862745
0.019607843 0.46029412 0.61078431
0.036764706 0.49852941 0.66617647
0.075735294 0.57598039 0.83651961
0.52745098 0.61666667 0.9
0.76421569 0.64191176 0.91764706
0.87647059 0.64411765 0.92107843
0.91421569 0.65098039 0.92720588
0.93333333 0.68235294 0.93529412
0.035294118 0.5127451 0.62647059
0.010477941 0.55667892 0.67285539
0.018995098 0.62561275 0.74754902
0.018504902 0.72401961 0.865625
0.51715686 0.80637255 0.94534314
0.8033701 0.83235294 0.95833333
0.92107843 0.8504902 0.96617647
0.96256127 0.86470588 0.96617647
0.97254902 0.85686275 0.97009804
0.029411765 0.57647059 0.6745098
0.024509804 0.61176471 0.71237745
0.026715686 0.68210784 0.77941176
0.018014706 0.79901961 0.89375
0.5 0.89166667 0.96470588
0.7995098 0.93394608 0.98039216
0.93137255 0.95098039 0.98823529
0.98186275 0.95882353 0.98529412
0.99607843 0.96862745 0.99215686
0.0073529412 0.60343137 0.69754902
0.035784314 0.65490196 0.74509804
0.04877451 0.71666667 0.80294118
0.053002451 0.83363971 0.9122549
0.51715686 0.91789216 0.97083333
0.81519608 0.96256127 0.98216912
0.92941176 0.98443627 0.99313725
0.97696078 0.98431373 0.99258578
0.99607843 0.98431373 0.99607843
0.011764706 0.6627451 0.75294118
0.029901961 0.70539216 0.79166667
0.026470588 0.7627451 0.84509804
0.056372549 0.86372549 0.94117647
0.54509804 0.92745098 0.9745098
0.80588235 0.97009804 0.98823529
0.92843137 0.98431373 0.98921569
0.97303922 0.99215686 0.99607843
0.99607843 1 1
