site/assets/luts/natron-haldclut--kodak-t-max-400--5fe7ba013.cube
# LUTr-Project: LUTr — LUTrepository
# LUTr-Schema-Version: 1
# LUTr-ID: natron-haldclut--kodak-t-max-400--5fe7ba013
# LUTr-Title: kodak t-max 400
# LUTr-Collection: Natron HaldCLUT
# LUTr-Collection-ID: natron-haldclut-presets
# LUTr-Source: https://github.com/NatronGitHub/clut
# LUTr-Source-File: submissions/natron-haldclut-presets/bw/kodak_t-max_400.png
# LUTr-Source-Format: PNG
# LUTr-Source-SHA256: a0cfcb97477e58d152e3bfb59453ad2be4b13f409d79e87321219cec747d7148
# LUTr-License: CC-BY-SA-4.0
# LUTr-License-URL: https://github.com/NatronGitHub/clut#license
# LUTr-Tags: creative, film, film-emulation, hald-clut, natron, png, cube
# LUTr-Transform-Class: film-emulation
# LUTr-Input-Color-Space: srgb
# LUTr-Output-Color-Space: srgb
# LUTr-Color-Space-Confidence: assumed-display-referred
# LUTr-Conversion-Method: PNG LUT image decoded at 16-bit and sampled to 25x25x25 3D CUBE
# LUTr-Conversion-Date: 2026-07-27
# LUTr-Conversion-Tool: LUTr scripts/convert-all-to-cube.mjs
# LUTr-Conversion-Grid: 25x25x25
# LUTr-Note: Preserve this metadata and the upstream license notices when redistributing.
TITLE "kodak t-max 400"
LUT_3D_SIZE 9
DOMAIN_MIN 0 0 0
DOMAIN_MAX 1 1 1
0.031372549 0.031372549 0.031372549
0.027941176 0.027941176 0.027941176
0.024509804 0.024509804 0.024509804
0.019607843 0.019607843 0.019607843
0.01372549 0.01372549 0.01372549
0.02745098 0.02745098 0.02745098
0.031372549 0.031372549 0.031372549
0.031372549 0.031372549 0.031372549
0.02745098 0.02745098 0.02745098
0.041666667 0.041666667 0.041666667
0.057781863 0.057781863 0.057781863
0.06875 0.06875 0.06875
0.063235294 0.063235294 0.063235294
0.057352941 0.057352941 0.057352941
0.078431373 0.078431373 0.078431373
0.089215686 0.089215686 0.089215686
0.068688725 0.068688725 0.068688725
0.041176471 0.041176471 0.041176471
0.13431373 0.13431373 0.13431373
0.15257353 0.15257353 0.15257353
0.15686275 0.15686275 0.15686275
0.14056373 0.14056373 0.14056373
0.14754902 0.14754902 0.14754902
0.15428922 0.15428922 0.15428922
0.15882353 0.15882353 0.15882353
0.15698529 0.15698529 0.15698529
0.16470588 0.16470588 0.16470588
0.27254902 0.27254902 0.27254902
0.28020833 0.28020833 0.28020833
0.28431373 0.28431373 0.28431373
0.27647059 0.27647059 0.27647059
0.26862745 0.26862745 0.26862745
0.26862745 0.26862745 0.26862745
0.27316176 0.27316176 0.27316176
0.28302696 0.28302696 0.28302696
0.29215686 0.29215686 0.29215686
0.41764706 0.41764706 0.41764706
0.41568627 0.41568627 0.41568627
0.41813725 0.41813725 0.41813725
0.41176471 0.41176471 0.41176471
0.40686275 0.40686275 0.40686275
0.40196078 0.40196078 0.40196078
0.4122549 0.4122549 0.4122549
0.42965686 0.42965686 0.42965686
0.43137255 0.43137255 0.43137255
0.55882353 0.55882353 0.55882353
0.55490196 0.55490196 0.55490196
0.55490196 0.55490196 0.55490196
0.55245098 0.55245098 0.55245098
0.55245098 0.55245098 0.55245098
0.54852941 0.54852941 0.54852941
0.55637255 0.55637255 0.55637255
0.55882353 0.55882353 0.55882353
0.55490196 0.55490196 0.55490196
0.68235294 0.68235294 0.68235294
0.68235294 0.68235294 0.68235294
0.67916667 0.67916667 0.67916667
0.69019608 0.69019608 0.69019608
0.69411765 0.69411765 0.69411765
0.69019608 0.69019608 0.69019608
0.68627451 0.68627451 0.68627451
0.68333333 0.68333333 0.68333333
0.68333333 0.68333333 0.68333333
0.80147059 0.80147059 0.80147059
0.80196078 0.80196078 0.80196078
0.8057598 0.8057598 0.8057598
0.81372549 0.81372549 0.81372549
0.81764706 0.81764706 0.81764706
0.81372549 0.81372549 0.81372549
0.80588235 0.80588235 0.80588235
0.80588235 0.80588235 0.80588235
0.80588235 0.80588235 0.80588235
0.89411765 0.89411765 0.89411765
0.90196078 0.90196078 0.90196078
0.90980392 0.90980392 0.90980392
0.90588235 0.90588235 0.90588235
0.90588235 0.90588235 0.90588235
0.90588235 0.90588235 0.90588235
0.90588235 0.90588235 0.90588235
0.90196078 0.90196078 0.90196078
0.89803922 0.89803922 0.89803922
0.02745098 0.02745098 0.02745098
0.023529412 0.023529412 0.023529412
0.019730392 0.019730392 0.019730392
0.023039216 0.023039216 0.023039216
0.029166667 0.029166667 0.029166667
0.02745098 0.02745098 0.02745098
0.023529412 0.023529412 0.023529412
0.023529412 0.023529412 0.023529412
0.031372549 0.031372549 0.031372549
0.069546569 0.069546569 0.069546569
0.076470588 0.076470588 0.076470588
0.076531863 0.076531863 0.076531863
0.079266238 0.079266238 0.079266238
0.080882353 0.080882353 0.080882353
0.081372549 0.081372549 0.081372549
0.091789216 0.091789216 0.091789216
0.080392157 0.080392157 0.080392157
0.076960784 0.076960784 0.076960784
0.16127451 0.16127451 0.16127451
0.17184436 0.17184436 0.17184436
0.17601103 0.17601103 0.17601103
0.16813725 0.16813725 0.16813725
0.165625 0.165625 0.165625
0.17250306 0.17250306 0.17250306
0.1770527 0.1770527 0.1770527
0.18088235 0.18088235 0.18088235
0.17990196 0.17990196 0.17990196
0.28382353 0.28382353 0.28382353
0.29569547 0.29569547 0.29569547
0.29981618 0.29981618 0.29981618
0.29558824 0.29558824 0.29558824
0.28789828 0.28789828 0.28789828
0.2877451 0.2877451 0.2877451
0.29171262 0.29171262 0.29171262
0.30327053 0.30327053 0.30327053
0.30343137 0.30343137 0.30343137
0.42328431 0.42328431 0.42328431
0.43042279 0.43042279 0.43042279
0.4348652 0.4348652 0.4348652
0.43097426 0.43097426 0.43097426
0.42230392 0.42230392 0.42230392
0.41544118 0.41544118 0.41544118
0.42181373 0.42181373 0.42181373
0.4372549 0.4372549 0.4372549
0.43897059 0.43897059 0.43897059
0.56421569 0.56421569 0.56421569
0.5627451 0.5627451 0.5627451
0.56631434 0.56631434 0.56631434
0.56403186 0.56403186 0.56403186
0.55867034 0.55867034 0.55867034
0.55637255 0.55637255 0.55637255
0.5627451 0.5627451 0.5627451
0.56505055 0.56505055 0.56505055
0.5627451 0.5627451 0.5627451
0.69411765 0.69411765 0.69411765
0.69287684 0.69287684 0.69287684
0.69007353 0.69007353 0.69007353
0.69411765 0.69411765 0.69411765
0.69889706 0.69889706 0.69889706
0.69411765 0.69411765 0.69411765
0.68884804 0.68884804 0.68884804
0.68627451 0.68627451 0.68627451
0.68627451 0.68627451 0.68627451
0.80588235 0.80588235 0.80588235
0.80931373 0.80931373 0.80931373
0.80813419 0.80813419 0.80813419
0.8158701 0.8158701 0.8158701
0.82107843 0.82107843 0.82107843
0.81560202 0.81560202 0.81560202
0.8097886 0.8097886 0.8097886
0.80974265 0.80974265 0.80974265
0.80588235 0.80588235 0.80588235
0.89803922 0.89803922 0.89803922
0.90545343 0.90545343 0.90545343
0.90245098 0.90245098 0.90245098
0.90245098 0.90245098 0.90245098
0.90759804 0.90759804 0.90759804
0.90980392 0.90980392 0.90980392
0.91372549 0.91372549 0.91372549
0.90974265 0.90974265 0.90974265
0.89803922 0.89803922 0.89803922
0.02745098 0.02745098 0.02745098
0.023039216 0.023039216 0.023039216
0.025490196 0.025490196 0.025490196
0.035294118 0.035294118 0.035294118
0.039215686 0.039215686 0.039215686
0.039215686 0.039215686 0.039215686
0.022303922 0.022303922 0.022303922
0.030882353 0.030882353 0.030882353
0.042156863 0.042156863 0.042156863
0.096078431 0.096078431 0.096078431
0.099509804 0.099509804 0.099509804
0.10343137 0.10343137 0.10343137
0.10735294 0.10735294 0.10735294
0.10618873 0.10618873 0.10618873
0.099632353 0.099632353 0.099632353
0.093014706 0.093014706 0.093014706
0.10349265 0.10349265 0.10349265
0.11176471 0.11176471 0.11176471
0.19509804 0.19509804 0.19509804
0.2018076 0.2018076 0.2018076
0.19908088 0.19908088 0.19908088
0.19215686 0.19215686 0.19215686
0.19436275 0.19436275 0.19436275
0.19901961 0.19901961 0.19901961
0.20686275 0.20686275 0.20686275
0.20686275 0.20686275 0.20686275
0.20392157 0.20392157 0.20392157
0.31470588 0.31470588 0.31470588
0.32254902 0.32254902 0.32254902
0.32172181 0.32172181 0.32172181
0.31568627 0.31568627 0.31568627
0.31470588 0.31470588 0.31470588
0.31862745 0.31862745 0.31862745
0.32647059 0.32647059 0.32647059
0.3310049 0.3310049 0.3310049
0.33039216 0.33039216 0.33039216
0.43823529 0.43823529 0.43823529
0.44963235 0.44963235 0.44963235
0.4504902 0.4504902 0.4504902
0.44908088 0.44908088 0.44908088
0.44362745 0.44362745 0.44362745
0.44607843 0.44607843 0.44607843
0.45098039 0.45098039 0.45098039
0.46176471 0.46176471 0.46176471
0.45784314 0.45784314 0.45784314
0.5745098 0.5745098 0.5745098
0.57835478 0.57835478 0.57835478
0.57843137 0.57843137 0.57843137
0.57953431 0.57953431 0.57953431
0.57371324 0.57371324 0.57371324
0.57352941 0.57352941 0.57352941
0.57634804 0.57634804 0.57634804
0.57745098 0.57745098 0.57745098
0.57634804 0.57634804 0.57634804
0.70563725 0.70563725 0.70563725
0.70425858 0.70425858 0.70425858
0.70098039 0.70098039 0.70098039
0.70551471 0.70551471 0.70551471
0.70551471 0.70551471 0.70551471
0.70196078 0.70196078 0.70196078
0.69724265 0.69724265 0.69724265
0.69813113 0.69813113 0.69813113
0.69705882 0.69705882 0.69705882
0.81629902 0.81629902 0.81629902
0.81001838 0.81001838 0.81001838
0.80833333 0.80833333 0.80833333
0.81920956 0.81920956 0.81920956
0.825 0.825 0.825
0.8176011 0.8176011 0.8176011
0.81372549 0.81372549 0.81372549
0.81323529 0.81323529 0.81323529
0.80968137 0.80968137 0.80968137
0.90882353 0.90882353 0.90882353
0.89852941 0.89852941 0.89852941
0.89730392 0.89730392 0.89730392
0.90441176 0.90441176 0.90441176
0.91372549 0.91372549 0.91372549
0.91764706 0.91764706 0.91764706
0.91789216 0.91789216 0.91789216
0.9127451 0.9127451 0.9127451
0.90882353 0.90882353 0.90882353
0.050980392 0.050980392 0.050980392
0.058823529 0.058823529 0.058823529
0.057352941 0.057352941 0.057352941
0.053982843 0.053982843 0.053982843
0.039215686 0.039215686 0.039215686
0.059742647 0.059742647 0.059742647
0.057352941 0.057352941 0.057352941
0.051470588 0.051470588 0.051470588
0.062745098 0.062745098 0.062745098
0.12647059 0.12647059 0.12647059
0.13057598 0.13057598 0.13057598
0.13431373 0.13431373 0.13431373
0.13087469 0.13087469 0.13087469
0.13020833 0.13020833 0.13020833
0.13173254 0.13173254 0.13173254
0.13276654 0.13276654 0.13276654
0.13041513 0.13041513 0.13041513
0.14234069 0.14234069 0.14234069
0.23382353 0.23382353 0.23382353
0.23443627 0.23443627 0.23443627
0.23272059 0.23272059 0.23272059
0.23272059 0.23272059 0.23272059
0.23835784 0.23835784 0.23835784
0.24056373 0.24056373 0.24056373
0.24166667 0.24166667 0.24166667
0.23760723 0.23760723 0.23760723
0.22990196 0.22990196 0.22990196
0.35343137 0.35343137 0.35343137
0.35343137 0.35343137 0.35343137
0.3495098 0.3495098 0.3495098
0.3495098 0.3495098 0.3495098
0.35389093 0.35389093 0.35389093
0.35884651 0.35884651 0.35884651
0.36127451 0.36127451 0.36127451
0.36127451 0.36127451 0.36127451
0.35735294 0.35735294 0.35735294
0.47303922 0.47303922 0.47303922
0.47426471 0.47426471 0.47426471
0.47303922 0.47303922 0.47303922
0.4754902 0.4754902 0.4754902
0.47696078 0.47696078 0.47696078
0.48088235 0.48088235 0.48088235
0.48480392 0.48480392 0.48480392
0.4854473 0.4854473 0.4854473
0.48088235 0.48088235 0.48088235
0.59656863 0.59656863 0.59656863
0.5971201 0.5971201 0.5971201
0.6004902 0.6004902 0.6004902
0.60441176 0.60441176 0.60441176
0.6004902 0.6004902 0.6004902
0.60441176 0.60441176 0.60441176
0.60140931 0.60140931 0.60140931
0.59957108 0.59957108 0.59957108
0.59957108 0.59957108 0.59957108
0.72120098 0.72120098 0.72120098
0.71948529 0.71948529 0.71948529
0.72512255 0.72512255 0.72512255
0.72794118 0.72794118 0.72794118
0.72401961 0.72401961 0.72401961
0.71986826 0.71986826 0.71986826
0.71335784 0.71335784 0.71335784
0.71335784 0.71335784 0.71335784
0.7122549 0.7122549 0.7122549
0.8276348 0.8276348 0.8276348
0.81982996 0.81982996 0.81982996
0.82882966 0.82882966 0.82882966
0.83314951 0.83314951 0.83314951
0.82892157 0.82892157 0.82892157
0.8276348 0.8276348 0.8276348
0.82371324 0.82371324 0.82371324
0.82530637 0.82530637 0.82530637
0.82371324 0.82371324 0.82371324
0.92156863 0.92156863 0.92156863
0.91881127 0.91881127 0.91881127
0.92977941 0.92977941 0.92977941
0.93033088 0.93033088 0.93033088
0.91960784 0.91960784 0.91960784
0.92248775 0.92248775 0.92248775
0.90796569 0.90796569 0.90796569
0.92518382 0.92518382 0.92518382
0.91372549 0.91372549 0.91372549
0.060784314 0.060784314 0.060784314
0.066176471 0.066176471 0.066176471
0.075980392 0.075980392 0.075980392
0.086764706 0.086764706 0.086764706
0.082352941 0.082352941 0.082352941
0.063970588 0.063970588 0.063970588
0.090196078 0.090196078 0.090196078
0.068872549 0.068872549 0.068872549
0.078431373 0.078431373 0.078431373
0.17058824 0.17058824 0.17058824
0.17279412 0.17279412 0.17279412
0.16495098 0.16495098 0.16495098
0.16911765 0.16911765 0.16911765
0.17843137 0.17843137 0.17843137
0.17270221 0.17270221 0.17270221
0.17689951 0.17689951 0.17689951
0.17671569 0.17671569 0.17671569
0.17843137 0.17843137 0.17843137
0.28333333 0.28333333 0.28333333
0.28351716 0.28351716 0.28351716
0.27904412 0.27904412 0.27904412
0.28088235 0.28088235 0.28088235
0.28872549 0.28872549 0.28872549
0.28872549 0.28872549 0.28872549
0.28688725 0.28688725 0.28688725
0.2872549 0.2872549 0.2872549
0.28333333 0.28333333 0.28333333
0.39607843 0.39607843 0.39607843
0.39411765 0.39411765 0.39411765
0.39215686 0.39215686 0.39215686
0.39457721 0.39457721 0.39457721
0.40073529 0.40073529 0.40073529
0.40392157 0.40392157 0.40392157
0.40073529 0.40073529 0.40073529
0.3986826 0.3986826 0.3986826
0.39485294 0.39485294 0.39485294
0.51176471 0.51176471 0.51176471
0.51176471 0.51176471 0.51176471
0.51176471 0.51176471 0.51176471
0.51176471 0.51176471 0.51176471
0.51568627 0.51568627 0.51568627
0.51960784 0.51960784 0.51960784
0.52058824 0.52058824 0.52058824
0.51654412 0.51654412 0.51654412
0.51176471 0.51176471 0.51176471
0.62745098 0.62745098 0.62745098
0.62745098 0.62745098 0.62745098
0.62745098 0.62745098 0.62745098
0.63137255 0.63137255 0.63137255
0.63529412 0.63529412 0.63529412
0.63921569 0.63921569 0.63921569
0.63137255 0.63137255 0.63137255
0.62598039 0.62598039 0.62598039
0.62352941 0.62352941 0.62352941
0.73823529 0.73823529 0.73823529
0.73872549 0.73872549 0.73872549
0.74264706 0.74264706 0.74264706
0.74607843 0.74607843 0.74607843
0.74411765 0.74411765 0.74411765
0.74215686 0.74215686 0.74215686
0.73823529 0.73823529 0.73823529
0.73529412 0.73529412 0.73529412
0.73137255 0.73137255 0.73137255
0.84068627 0.84068627 0.84068627
0.83872549 0.83872549 0.83872549
0.84283088 0.84283088 0.84283088
0.84460784 0.84460784 0.84460784
0.84068627 0.84068627 0.84068627
0.83897059 0.83897059 0.83897059
0.83872549 0.83872549 0.83872549
0.84068627 0.84068627 0.84068627
0.83676471 0.83676471 0.83676471
0.9254902 0.9254902 0.9254902
0.92009804 0.92009804 0.92009804
0.92156863 0.92156863 0.92156863
0.91960784 0.91960784 0.91960784
0.91372549 0.91372549 0.91372549
0.91642157 0.91642157 0.91642157
0.9254902 0.9254902 0.9254902
0.93504902 0.93504902 0.93504902
0.92745098 0.92745098 0.92745098
0.14166667 0.14166667 0.14166667
0.13645833 0.13645833 0.13645833
0.12205882 0.12205882 0.12205882
0.14509804 0.14509804 0.14509804
0.13946078 0.13946078 0.13946078
0.14264706 0.14264706 0.14264706
0.14522059 0.14522059 0.14522059
0.13088235 0.13088235 0.13088235
0.13235294 0.13235294 0.13235294
0.23805147 0.23805147 0.23805147
0.23629749 0.23629749 0.23629749
0.22469363 0.22469363 0.22469363
0.2286152 0.2286152 0.2286152
0.23235294 0.23235294 0.23235294
0.2391008 0.2391008 0.2391008
0.23979779 0.23979779 0.23979779
0.23265931 0.23265931 0.23265931
0.23235294 0.23235294 0.23235294
0.34620098 0.34620098 0.34620098
0.34255515 0.34255515 0.34255515
0.33679534 0.33679534 0.33679534
0.34094669 0.34094669 0.34094669
0.34803922 0.34803922 0.34803922
0.35196078 0.35196078 0.35196078
0.34776348 0.34776348 0.34776348
0.34411765 0.34411765 0.34411765
0.34411765 0.34411765 0.34411765
0.44166667 0.44166667 0.44166667
0.44166667 0.44166667 0.44166667
0.44166667 0.44166667 0.44166667
0.44319853 0.44319853 0.44319853
0.44558824 0.44558824 0.44558824
0.4495098 0.4495098 0.4495098
0.44803922 0.44803922 0.44803922
0.44803922 0.44803922 0.44803922
0.4495098 0.4495098 0.4495098
0.54460784 0.54460784 0.54460784
0.54656863 0.54656863 0.54656863
0.54730392 0.54730392 0.54730392
0.54730392 0.54730392 0.54730392
0.55085784 0.55085784 0.55085784
0.55441176 0.55441176 0.55441176
0.55606618 0.55606618 0.55606618
0.55514706 0.55514706 0.55514706
0.55710784 0.55710784 0.55710784
0.65294118 0.65294118 0.65294118
0.65686275 0.65686275 0.65686275
0.65686275 0.65686275 0.65686275
0.65594363 0.65594363 0.65594363
0.66078431 0.66078431 0.66078431
0.66170343 0.66170343 0.66170343
0.6598652 0.6598652 0.6598652
0.66078431 0.66078431 0.66078431
0.66078431 0.66078431 0.66078431
0.76127451 0.76127451 0.76127451
0.76220895 0.76220895 0.76220895
0.76127451 0.76127451 0.76127451
0.75796569 0.75796569 0.75796569
0.75796569 0.75796569 0.75796569
0.7588848 0.7588848 0.7588848
0.75750613 0.75750613 0.75750613
0.76188725 0.76188725 0.76188725
0.76127451 0.76127451 0.76127451
0.85606618 0.85606618 0.85606618
0.85392157 0.85392157 0.85392157
0.85392157 0.85392157 0.85392157
0.85392157 0.85392157 0.85392157
0.85392157 0.85392157 0.85392157
0.85245098 0.85245098 0.85245098
0.85 0.85 0.85
0.85214461 0.85214461 0.85214461
0.84852941 0.84852941 0.84852941
0.9372549 0.9372549 0.9372549
0.9377451 0.9377451 0.9377451
0.92156863 0.92156863 0.92156863
0.91372549 0.91372549 0.91372549
0.91372549 0.91372549 0.91372549
0.91519608 0.91519608 0.91519608
0.9254902 0.9254902 0.9254902
0.92941176 0.92941176 0.92941176
0.92941176 0.92941176 0.92941176
0.20980392 0.20980392 0.20980392
0.20110294 0.20110294 0.20110294
0.19901961 0.19901961 0.19901961
0.21041667 0.21041667 0.21041667
0.20882353 0.20882353 0.20882353
0.21176471 0.21176471 0.21176471
0.2245098 0.2245098 0.2245098
0.19215686 0.19215686 0.19215686
0.19803922 0.19803922 0.19803922
0.30637255 0.30637255 0.30637255
0.30196078 0.30196078 0.30196078
0.30588235 0.30588235 0.30588235
0.30226716 0.30226716 0.30226716
0.30073529 0.30073529 0.30073529
0.303125 0.303125 0.303125
0.31485907 0.31485907 0.31485907
0.30153186 0.30153186 0.30153186
0.29546569 0.29546569 0.29546569
0.41078431 0.41078431 0.41078431
0.40686275 0.40686275 0.40686275
0.40686275 0.40686275 0.40686275
0.40294118 0.40294118 0.40294118
0.40686275 0.40686275 0.40686275
0.41409314 0.41409314 0.41409314
0.41862745 0.41862745 0.41862745
0.41366422 0.41366422 0.41366422
0.40980392 0.40980392 0.40980392
0.49889706 0.49889706 0.49889706
0.4995098 0.4995098 0.4995098
0.50306373 0.50306373 0.50306373
0.4995098 0.4995098 0.4995098
0.50238971 0.50238971 0.50238971
0.50735294 0.50735294 0.50735294
0.51127451 0.51127451 0.51127451
0.50735294 0.50735294 0.50735294
0.50343137 0.50343137 0.50343137
0.58333333 0.58333333 0.58333333
0.58823529 0.58823529 0.58823529
0.59607843 0.59607843 0.59607843
0.59607843 0.59607843 0.59607843
0.60220588 0.60220588 0.60220588
0.60183824 0.60183824 0.60183824
0.59754902 0.59754902 0.59754902
0.60294118 0.60294118 0.60294118
0.60392157 0.60392157 0.60392157
0.68137255 0.68137255 0.68137255
0.68529412 0.68529412 0.68529412
0.6877451 0.6877451 0.6877451
0.69166667 0.69166667 0.69166667
0.69448529 0.69448529 0.69448529
0.69166667 0.69166667 0.69166667
0.69166667 0.69166667 0.69166667
0.69301471 0.69301471 0.69301471
0.69656863 0.69656863 0.69656863
0.78431373 0.78431373 0.78431373
0.78651961 0.78651961 0.78651961
0.78094363 0.78094363 0.78094363
0.78039216 0.78039216 0.78039216
0.78112745 0.78112745 0.78112745
0.78039216 0.78039216 0.78039216
0.78431373 0.78431373 0.78431373
0.78823529 0.78823529 0.78823529
0.7879902 0.7879902 0.7879902
0.8689951 0.8689951 0.8689951
0.86901042 0.86901042 0.86901042
0.86776961 0.86776961 0.86776961
0.86907169 0.86907169 0.86907169
0.871875 0.871875 0.871875
0.87192096 0.87192096 0.87192096
0.86911765 0.86911765 0.86911765
0.86911765 0.86911765 0.86911765
0.8689951 0.8689951 0.8689951
0.93823529 0.93823529 0.93823529
0.94509804 0.94509804 0.94509804
0.93039216 0.93039216 0.93039216
0.91973039 0.91973039 0.91973039
0.91764706 0.91764706 0.91764706
0.92254902 0.92254902 0.92254902
0.93823529 0.93823529 0.93823529
0.94215686 0.94215686 0.94215686
0.94117647 0.94117647 0.94117647
0.28823529 0.28823529 0.28823529
0.27647059 0.27647059 0.27647059
0.29215686 0.29215686 0.29215686
0.30655637 0.30655637 0.30655637
0.31544118 0.31544118 0.31544118
0.30196078 0.30196078 0.30196078
0.29215686 0.29215686 0.29215686
0.31568627 0.31568627 0.31568627
0.30784314 0.30784314 0.30784314
0.38039216 0.38039216 0.38039216
0.3607307 0.3607307 0.3607307
0.3751685 0.3751685 0.3751685
0.38431373 0.38431373 0.38431373
0.38581495 0.38581495 0.38581495
0.38850337 0.38850337 0.38850337
0.39214154 0.39214154 0.39214154
0.38480392 0.38480392 0.38480392
0.38480392 0.38480392 0.38480392
0.46813725 0.46813725 0.46813725
0.46470588 0.46470588 0.46470588
0.46862745 0.46862745 0.46862745
0.47647059 0.47647059 0.47647059
0.47040441 0.47040441 0.47040441
0.47745098 0.47745098 0.47745098
0.48431373 0.48431373 0.48431373
0.48394608 0.48394608 0.48394608
0.48039216 0.48039216 0.48039216
0.55343137 0.55343137 0.55343137
0.55731464 0.55731464 0.55731464
0.55788909 0.55788909 0.55788909
0.55735294 0.55735294 0.55735294
0.55735294 0.55735294 0.55735294
0.5633655 0.5633655 0.5633655
0.56881127 0.56881127 0.56881127
0.56519608 0.56519608 0.56519608
0.56096814 0.56096814 0.56096814
0.63602941 0.63602941 0.63602941
0.64188113 0.64188113 0.64188113
0.6471201 0.6471201 0.6471201
0.6495098 0.6495098 0.6495098
0.65 0.65 0.65
0.65 0.65 0.65
0.6497549 0.6497549 0.6497549
0.65196078 0.65196078 0.65196078
0.65392157 0.65392157 0.65392157
0.71893382 0.71893382 0.71893382
0.72473192 0.72473192 0.72473192
0.725 0.725 0.725
0.72984069 0.72984069 0.72984069
0.73676471 0.73676471 0.73676471
0.73694853 0.73694853 0.73694853
0.73431373 0.73431373 0.73431373
0.7310432 0.7310432 0.7310432
0.73676471 0.73676471 0.73676471
0.80343137 0.80343137 0.80343137
0.80712316 0.80712316 0.80712316
0.80343137 0.80343137 0.80343137
0.80735294 0.80735294 0.80735294
0.81519608 0.81519608 0.81519608
0.81813725 0.81813725 0.81813725
0.81911765 0.81911765 0.81911765
0.81943934 0.81943934 0.81943934
0.81813725 0.81813725 0.81813725
0.88431373 0.88431373 0.88431373
0.8881204 0.8881204 0.8881204
0.88506434 0.88506434 0.88506434
0.88731618 0.88731618 0.88731618
0.89359681 0.89359681 0.89359681
0.89166667 0.89166667 0.89166667
0.89526654 0.89526654 0.89526654
0.89558824 0.89558824 0.89558824
0.89215686 0.89215686 0.89215686
0.95686275 0.95686275 0.95686275
0.96470588 0.96470588 0.96470588
0.94914216 0.94914216 0.94914216
0.93743873 0.93743873 0.93743873
0.93161765 0.93161765 0.93161765
0.93480392 0.93480392 0.93480392
0.95784314 0.95784314 0.95784314
0.96470588 0.96470588 0.96470588
0.95735294 0.95735294 0.95735294
0.38823529 0.38823529 0.38823529
0.39215686 0.39215686 0.39215686
0.40686275 0.40686275 0.40686275
0.425 0.425 0.425
0.40980392 0.40980392 0.40980392
0.41421569 0.41421569 0.41421569
0.43921569 0.43921569 0.43921569
0.42745098 0.42745098 0.42745098
0.41960784 0.41960784 0.41960784
0.44607843 0.44607843 0.44607843
0.44558824 0.44558824 0.44558824
0.45379902 0.45379902 0.45379902
0.45931373 0.45931373 0.45931373
0.44411765 0.44411765 0.44411765
0.46176471 0.46176471 0.46176471
0.46605392 0.46605392 0.46605392
0.45441176 0.45441176 0.45441176
0.45392157 0.45392157 0.45392157
0.51960784 0.51960784 0.51960784
0.52205882 0.52205882 0.52205882
0.52647059 0.52647059 0.52647059
0.52352941 0.52352941 0.52352941
0.51372549 0.51372549 0.51372549
0.52352941 0.52352941 0.52352941
0.51568627 0.51568627 0.51568627
0.51862745 0.51862745 0.51862745
0.51568627 0.51568627 0.51568627
0.59705882 0.59705882 0.59705882
0.60490196 0.60490196 0.60490196
0.60098039 0.60098039 0.60098039
0.5995098 0.5995098 0.5995098
0.5995098 0.5995098 0.5995098
0.60343137 0.60343137 0.60343137
0.60343137 0.60343137 0.60343137
0.61127451 0.61127451 0.61127451
0.61127451 0.61127451 0.61127451
0.66862745 0.66862745 0.66862745
0.67058824 0.67058824 0.67058824
0.67598039 0.67598039 0.67598039
0.68039216 0.68039216 0.68039216
0.68529412 0.68529412 0.68529412
0.69215686 0.69215686 0.69215686
0.69166667 0.69166667 0.69166667
0.69411765 0.69411765 0.69411765
0.69803922 0.69803922 0.69803922
0.74019608 0.74019608 0.74019608
0.74381127 0.74381127 0.74381127
0.74411765 0.74411765 0.74411765
0.75588235 0.75588235 0.75588235
0.7625 0.7625 0.7625
0.76764706 0.76764706 0.76764706
0.77303922 0.77303922 0.77303922
0.76176471 0.76176471 0.76176471
0.76764706 0.76764706 0.76764706
0.81372549 0.81372549 0.81372549
0.81727941 0.81727941 0.81727941
0.8254902 0.8254902 0.8254902
0.83223039 0.83223039 0.83223039
0.8372549 0.8372549 0.8372549
0.84117647 0.84117647 0.84117647
0.84901961 0.84901961 0.84901961
0.84901961 0.84901961 0.84901961
0.84215686 0.84215686 0.84215686
0.8877451 0.8877451 0.8877451
0.89160539 0.89160539 0.89160539
0.89901961 0.89901961 0.89901961
0.90686275 0.90686275 0.90686275
0.90686275 0.90686275 0.90686275
0.89901961 0.89901961 0.89901961
0.90686275 0.90686275 0.90686275
0.9098652 0.9098652 0.9098652
0.90686275 0.90686275 0.90686275
0.95294118 0.95294118 0.95294118
0.95686275 0.95686275 0.95686275
0.95686275 0.95686275 0.95686275
0.95686275 0.95686275 0.95686275
0.94705882 0.94705882 0.94705882
0.94117647 0.94117647 0.94117647
0.95784314 0.95784314 0.95784314
0.96470588 0.96470588 0.96470588
0.96078431 0.96078431 0.96078431
