site/assets/luts/natron-haldclut--goldfx-hot-summer-heat--03ae0182b.cube
# LUTr-Project: LUTr — LUTrepository
# LUTr-Schema-Version: 1
# LUTr-ID: natron-haldclut--goldfx-hot-summer-heat--03ae0182b
# LUTr-Title: goldfx hot summer heat
# LUTr-Collection: Natron HaldCLUT
# LUTr-Collection-ID: natron-haldclut-presets
# LUTr-Source: https://github.com/NatronGitHub/clut
# LUTr-Source-File: submissions/natron-haldclut-presets/picturefx/goldfx_hot_summer_heat.png
# LUTr-Source-Format: PNG
# LUTr-Source-SHA256: 57143695f93ab9c5b56f0c3b9f75a35d9d9c7d00fd9e8bd449d85cddf1d1c699
# LUTr-License: CC-BY-SA-4.0
# LUTr-License-URL: https://github.com/NatronGitHub/clut#license
# LUTr-Tags: creative, film, film-emulation, hald-clut, natron, png, cube
# LUTr-Transform-Class: film-emulation
# LUTr-Input-Color-Space: srgb
# LUTr-Output-Color-Space: srgb
# LUTr-Color-Space-Confidence: assumed-display-referred
# LUTr-Conversion-Method: PNG LUT image decoded at 16-bit and sampled to 25x25x25 3D CUBE
# LUTr-Conversion-Date: 2026-07-27
# LUTr-Conversion-Tool: LUTr scripts/convert-all-to-cube.mjs
# LUTr-Conversion-Grid: 25x25x25
# LUTr-Note: Preserve this metadata and the upstream license notices when redistributing.
TITLE "goldfx hot summer heat"
LUT_3D_SIZE 9
DOMAIN_MIN 0 0 0
DOMAIN_MAX 1 1 1
0 0.0039215686 0.0039215686
0.042647059 0.034803922 0.057843137
0.13039216 0.024509804 0.024509804
0.30882353 0.013235294 0.050980392
0.54509804 0.0098039216 0.064705882
0.75 0.035294118 0.065196078
0.9245098 0.25686275 0.050980392
0.98872549 0.41813725 0.071568627
0.99607843 0.53333333 0.14509804
0.0039215686 0.065686275 0.061764706
0.042647059 0.07310049 0.054473039
0.14522059 0.063112745 0.035294118
0.32990196 0.06127451 0.050796569
0.55441176 0.044607843 0.059313725
0.76127451 0.10441176 0.053921569
0.92365196 0.29669118 0.027941176
0.98780637 0.43284314 0.052941176
0.99607843 0.55245098 0.14901961
0 0.15392157 0.078431373
0.0073529412 0.1682598 0.07745098
0.12254902 0.18333333 0.070588235
0.36409314 0.19558824 0.053063725
0.58382353 0.18039216 0.040196078
0.77316176 0.25147059 0.023039216
0.91593137 0.3872549 0.0039215686
0.98872549 0.48051471 0.016789216
0.99607843 0.5745098 0.1372549
0 0.35686275 0.08627451
0.0039215686 0.35863971 0.08627451
0.050612745 0.3627451 0.079411765
0.35386029 0.38578431 0.029473039
0.60637255 0.40073529 0.0125
0.77935049 0.43186275 0.011764706
0.90428922 0.49620098 0.0039215686
0.97107843 0.56127451 0.0052083333
0.99607843 0.62843137 0.10196078
0 0.55294118 0.1
0.0056372549 0.54901961 0.096078431
0 0.56372549 0.079411765
0.36176471 0.57377451 0.03872549
0.6127451 0.58921569 0.014705882
0.7752451 0.60196078 0.011764706
0.89117647 0.61078431 0.0078431373
0.96176471 0.65343137 0.0078431373
0.99607843 0.67843137 0.031372549
0.026960784 0.71960784 0.12352941
0.028431373 0.71991422 0.12598039
0.22242647 0.71813725 0.13713235
0.44509804 0.71715686 0.12738971
0.62573529 0.71813725 0.089215686
0.7651348 0.73045343 0.038235294
0.87806373 0.73811275 0.01004902
0.96207108 0.74166667 0.011335784
0.99215686 0.7495098 0.075490196
0.40294118 0.81764706 0.25098039
0.40294118 0.81764706 0.24754902
0.44387255 0.81078431 0.25392157
0.55698529 0.81470588 0.26666667
0.66764706 0.81862745 0.2627451
0.77904412 0.81973039 0.23223039
0.86078431 0.82254902 0.22156863
0.95294118 0.83039216 0.22058824
0.9872549 0.8372549 0.25784314
0.61078431 0.89166667 0.38333333
0.62248775 0.89509804 0.39068627
0.62757353 0.89117647 0.39068627
0.68088235 0.89117647 0.40637255
0.74264706 0.89509804 0.41642157
0.80637255 0.89393382 0.40980392
0.8692402 0.89546569 0.39803922
0.94215686 0.90386029 0.39901961
0.97647059 0.90686275 0.39558824
0.78039216 0.96862745 0.56470588
0.76862745 0.96127451 0.5495098
0.76078431 0.95686275 0.54117647
0.79068627 0.96323529 0.56323529
0.81568627 0.95882353 0.56078431
0.84166667 0.9495098 0.53823529
0.89509804 0.95588235 0.55098039
0.9495098 0.97254902 0.58431373
0.99215686 0.97647059 0.59607843
0.0078431373 0.031372549 0.084803922
0.042647059 0.027879902 0.07745098
0.14117647 0.030882353 0.084313725
0.32647059 0.017156863 0.10098039
0.56053922 0.0078431373 0.10490196
0.76372549 0.079718137 0.099203431
0.91323529 0.27107843 0.08125
0.98921569 0.43241422 0.088235294
0.99607843 0.54068627 0.16421569
0.0039215686 0.076960784 0.092647059
0.034803922 0.073475797 0.092164522
0.16029412 0.065747549 0.085125613
0.34199602 0.045366115 0.093443627
0.56179534 0.022947304 0.10147059
0.76960784 0.11727941 0.096897978
0.91672794 0.28855699 0.079473039
0.99564951 0.425 0.070159314
0.99607843 0.52598039 0.13817402
0 0.1935049 0.10539216
0.0049938725 0.18468137 0.10490196
0.12974877 0.19338235 0.094270833
0.361106 0.19313725 0.064215686
0.59050245 0.17095588 0.070220588
0.78517157 0.2529565 0.030254289
0.91446078 0.37276348 0.021476716
0.9948989 0.47794118 0.029947917
0.99607843 0.51960784 0.075857843
0.0036151961 0.37892157 0.10294118
0 0.36721814 0.099486826
0.06763174 0.36524203 0.091053922
0.36194087 0.38578431 0.034122243
0.61504289 0.4 0.012591912
0.78756127 0.41292892 0.0091375613
0.90874694 0.48671875 0.017830882
0.975 0.56231618 0.011113664
0.99607843 0.62438725 0.11348039
0 0.56078431 0.076960784
0.0034313725 0.5495098 0.080882353
0.015563725 0.553125 0.083210784
0.35382966 0.56691176 0.038143382
0.60502451 0.58345588 0.014705882
0.77221201 0.58676471 0.032107843
0.89656863 0.6127451 0.040686275
0.95980392 0.65 0.019577206
0.99607843 0.66666667 0.025490196
0.022916667 0.71960784 0.12352941
0.0254519 0.71960784 0.12352941
0.15968137 0.71176471 0.13645833
0.41556373 0.71176471 0.14061734
0.61305147 0.71191789 0.099356618
0.76329657 0.72756587 0.059129902
0.88809743 0.73921569 0.024800858
0.95606618 0.74166667 0.025513174
0.99607843 0.7504902 0.080759804
0.41752451 0.82242647 0.25196078
0.41176471 0.81862745 0.25050551
0.43949142 0.81764706 0.25392157
0.54705882 0.81470588 0.2676011
0.67058824 0.81776961 0.25980392
0.76943934 0.81876532 0.23716299
0.86568627 0.8231924 0.21764706
0.94656863 0.83039216 0.21764706
0.99215686 0.8307598 0.24546569
0.61078431 0.89509804 0.39460784
0.62200521 0.89509804 0.39411765
0.61366422 0.89117647 0.39068627
0.67322304 0.89509804 0.41243873
0.73284314 0.89534314 0.41884191
0.8004519 0.89509804 0.40637255
0.86605392 0.89901961 0.40519301
0.94215686 0.90294118 0.40654105
0.9877451 0.90686275 0.41862745
0.75686275 0.95686275 0.54166667
0.76862745 0.96170343 0.55294118
0.76421569 0.95992647 0.54816176
0.78756127 0.96421569 0.56372549
0.81176471 0.96078431 0.57254902
0.85245098 0.96421569 0.57156863
0.89522059 0.96458333 0.57401961
0.9495098 0.97254902 0.59509804
0.98480392 0.96911765 0.58480392
0.0078431373 0.042156863 0.15784314
0.054901961 0.061764706 0.15526961
0.14509804 0.073529412 0.15098039
0.31617647 0.050490196 0.16813725
0.58921569 0.0039215686 0.18137255
0.79460784 0.14301471 0.19705882
0.92156863 0.33333333 0.20490196
0.98051471 0.47414216 0.23051471
0.99607843 0.56764706 0.25882353
0.00012254902 0.078308824 0.1622549
0.030009191 0.088357843 0.170144
0.16427696 0.1 0.16593137
0.34448529 0.053431373 0.17495404
0.59356618 0.020281863 0.18400735
0.80286458 0.17594975 0.19185049
0.92745098 0.34313725 0.20242034
0.98866422 0.46709559 0.2157935
0.99607843 0.57022059 0.25232843
0.0039215686 0.22156863 0.18431373
0.004564951 0.19865196 0.18520221
0.15802696 0.18780637 0.17506127
0.39996936 0.17089461 0.16871936
0.62745098 0.15857843 0.16127451
0.80775123 0.23278186 0.15211397
0.9245098 0.3807598 0.14313725
0.99215686 0.49273897 0.18235294
0.99607843 0.58431373 0.2379902
0.010294118 0.40196078 0.18186275
0.004810049 0.38137255 0.17098652
0.039583333 0.37512255 0.15848652
0.3870098 0.39080882 0.14054841
0.64803922 0.39503676 0.097794118
0.80245098 0.39987745 0.076792279
0.91734069 0.47659314 0.0390625
0.98172488 0.55687806 0.1102788
0.99607843 0.61372549 0.17647059
0.013235294 0.57794118 0.14117647
0.0093137255 0.56985294 0.13921569
0.032598039 0.57193627 0.13517157
0.33192402 0.57634804 0.10631127
0.61470588 0.5875 0.065441176
0.79240196 0.59362745 0.014583333
0.9004902 0.60723039 0.019607843
0.96305147 0.63253676 0.018627451
0.99607843 0.67598039 0.11470588
0.045588235 0.72205882 0.14607843
0.068489583 0.71960784 0.15245098
0.090471814 0.72205882 0.14598652
0.39803922 0.71960784 0.16115196
0.60091912 0.71960784 0.11973039
0.76421569 0.7283701 0.052527574
0.88912377 0.73728554 0.022518382
0.95687806 0.73221507 0.042034314
0.99460784 0.7377451 0.037377451
0.39681373 0.81470588 0.25882353
0.41433824 0.81764706 0.25784314
0.41292892 0.81636029 0.25857843
0.5325674 0.8239277 0.27889093
0.65183824 0.81801471 0.26862745
0.76344975 0.81801471 0.24292279
0.86991422 0.82493873 0.2276348
0.95 0.82974877 0.22233456
0.98823529 0.83259804 0.24338235
0.61421569 0.89509804 0.40245098
0.61400123 0.89198836 0.39149816
0.62181373 0.8942402 0.39390319
0.66145833 0.89554228 0.41171875
0.72696078 0.89901961 0.42598039
0.79010417 0.89558824 0.41465993
0.86614583 0.89901961 0.40294118
0.94215686 0.90294118 0.40413603
0.98823529 0.90992647 0.40686275
0.76470588 0.96078431 0.55196078
0.7622549 0.96078431 0.54742647
0.72843137 0.94338235 0.50882353
0.77745098 0.96078431 0.55392157
0.80931373 0.9627451 0.57009804
0.83909314 0.95490196 0.55612745
0.89117647 0.96078431 0.56102941
0.94987745 0.97340686 0.59473039
0.97647059 0.97156863 0.58333333
0.029411765 0.081862745 0.25686275
0.089031863 0.087254902 0.25294118
0.22120098 0.11911765 0.25110294
0.36960784 0.15490196 0.26862745
0.55294118 0.073284314 0.28382353
0.7995098 0.036151961 0.30392157
0.94828431 0.28615196 0.3125
0.98872549 0.51678922 0.35863971
0.99607843 0.63333333 0.40294118
0.033639706 0.10980392 0.27205882
0.06282935 0.10762102 0.26421569
0.21928615 0.14754902 0.26599265
0.38206189 0.16716452 0.27243413
0.57126225 0.068137255 0.28988971
0.79137561 0.047365196 0.3
0.93769914 0.31666667 0.31678922
0.98856464 0.51431526 0.35300245
0.99607843 0.62040441 0.38627451
0.0094362745 0.20539216 0.28578431
0.021001838 0.1884038 0.28783701
0.16531863 0.2 0.28357843
0.43296569 0.22676164 0.29048713
0.62696078 0.13290441 0.28823529
0.82351409 0.089414828 0.28253676
0.9495098 0.36063113 0.30196078
0.98926164 0.52567402 0.32742034
0.99607843 0.6127451 0.36556373
0.0039215686 0.39901961 0.29270833
0.009620098 0.39626225 0.29859835
0.0091605392 0.39362745 0.28823529
0.45870864 0.42205882 0.3115962
0.67769608 0.37573529 0.2703125
0.82941176 0.4100337 0.25539216
0.93419118 0.48223039 0.23762255
0.99001225 0.56941636 0.28535539
0.99607843 0.64172794 0.33137255
0.21102941 0.59019608 0.29362745
0.20456495 0.59019608 0.28587623
0.1997549 0.5911152 0.27279412
0.36427696 0.59338235 0.26369485
0.64509804 0.58848039 0.2310049
0.81421569 0.57352941 0.18826593
0.91666667 0.58854167 0.15441176
0.97959559 0.6354473 0.18416054
0.99607843 0.67843137 0.24632353
0.35900735 0.72689951 0.29313725
0.29651501 0.73020067 0.25613511
0.31272978 0.72806373 0.26576287
0.40046722 0.72506127 0.26133578
0.60226716 0.72297794 0.26102941
0.77058824 0.725 0.21037837
0.89483762 0.72660846 0.17029718
0.96501991 0.7189185 0.16568627
0.99215686 0.73382353 0.18229167
0.4935049 0.82830882 0.32438725
0.48727022 0.82452512 0.31881127
0.48465074 0.82438725 0.31571691
0.53745404 0.8243413 0.32257966
0.63682598 0.81862745 0.33547794
0.75620404 0.82069547 0.31720282
0.8625 0.82647059 0.28452819
0.95405944 0.83039216 0.27348346
0.99215686 0.82757353 0.27732843
0.64411765 0.89901961 0.42401961
0.64773284 0.8995098 0.42270987
0.6439951 0.89901961 0.42486213
0.6585095 0.89901961 0.4241345
0.72058824 0.89901961 0.43627451
0.78412224 0.89939491 0.43872549
0.8622549 0.8990962 0.41864277
0.94231771 0.90294118 0.4071921
0.99215686 0.91127451 0.42107843
0.76617647 0.96078431 0.55686275
0.76439951 0.96127451 0.5526348
0.76029412 0.95968137 0.54460784
0.77254902 0.96378676 0.55594363
0.80931373 0.96740196 0.58235294
0.84209559 0.96311275 0.58265931
0.88823529 0.96752451 0.58382353
0.94215686 0.95949755 0.55784314
0.97647059 0.96078431 0.55392157
0.12352941 0.11960784 0.38039216
0.19019608 0.12916667 0.38406863
0.34019608 0.15588235 0.38431373
0.50490196 0.26004902 0.38578431
0.65098039 0.33235294 0.39509804
0.79754902 0.30906863 0.41642157
0.91078431 0.33137255 0.43333333
0.98848039 0.4745098 0.43578431
0.99215686 0.58235294 0.46666667
0.13676471 0.15539216 0.3877451
0.16804534 0.14825368 0.38823529
0.33143382 0.17696078 0.3903799
0.51259191 0.2625 0.3877451
0.65747549 0.31372549 0.39607843
0.78560049 0.27714461 0.40980392
0.92573529 0.32616422 0.42941176
0.98848039 0.47864583 0.43382353
0.99607843 0.61495098 0.47622549
0.12892157 0.24362745 0.4
0.12132353 0.20349265 0.39436275
0.25845588 0.2254902 0.3995098
0.49816176 0.30710784 0.40392157
0.67867647 0.37009804 0.40661765
0.80343137 0.29197304 0.40857843
0.93651961 0.3432598 0.42279412
0.99019608 0.48878676 0.43186275
0.99411765 0.62107843 0.47058824
0.010539216 0.40098039 0.39803922
0.016636029 0.39151348 0.40196078
0.020281863 0.35772059 0.40122549
0.44696691 0.38921569 0.42009804
0.69644608 0.48235294 0.42083333
0.82095588 0.42068015 0.41467525
0.93431373 0.4875 0.41176471
0.98440564 0.55744485 0.42083333
0.99607843 0.61960784 0.43235294
0.24901961 0.59411765 0.41176471
0.25625 0.59509804 0.41127451
0.23357843 0.58406863 0.41102941
0.3745098 0.59252451 0.41213235
0.68627451 0.61666667 0.4254902
0.8372549 0.59767157 0.3932598
0.92720588 0.6129902 0.36911765
0.99436275 0.65784314 0.38897059
0.99607843 0.69509804 0.40392157
0.48578431 0.7377451 0.41642157
0.47441789 0.72882966 0.4229473
0.45851716 0.72352941 0.40931373
0.45667892 0.7247549 0.38777574
0.62328431 0.72904412 0.38480392
0.79414828 0.73259804 0.38431373
0.90343137 0.7153799 0.32886029
0.98268995 0.71559436 0.30765931
0.99607843 0.74411765 0.34877451
0.60294118 0.82647059 0.42843137
0.60171569 0.82401961 0.43137255
0.60245098 0.82647059 0.42953431
0.58670343 0.82598039 0.41182598
0.65171569 0.8247549 0.4127451
0.75490196 0.82647059 0.41378676
0.87303922 0.83333333 0.38039216
0.95735294 0.82647059 0.3591299
0.99607843 0.82254902 0.35196078
0.67843137 0.90294118 0.47058824
0.67405025 0.89972426 0.4796875
0.67990196 0.89901961 0.47990196
0.67696078 0.9004902 0.46495098
0.71127451 0.89914216 0.48406863
0.78480392 0.90229779 0.48921569
0.85735294 0.90294118 0.47432598
0.93627451 0.90143995 0.47303922
0.99215686 0.91127451 0.46495098
0.77843137 0.96666667 0.58235294
0.78578431 0.97034314 0.59166667
0.76519608 0.95833333 0.56862745
0.7875 0.96936275 0.58823529
0.79901961 0.96862745 0.59215686
0.83676471 0.96470588 0.60269608
0.88823529 0.96568627 0.60735294
0.94215686 0.96691176 0.60588235
0.99411765 0.98235294 0.63137255
0.33284314 0.20833333 0.51176471
0.37371324 0.21715686 0.51176471
0.49080882 0.24767157 0.50392157
0.64129902 0.33131127 0.51568627
0.73970588 0.47377451 0.51176471
0.82794118 0.53039216 0.51421569
0.90245098 0.52071078 0.5245098
0.97696078 0.5372549 0.53805147
0.99607843 0.62009804 0.5627451
0.32254902 0.22371324 0.50998775
0.33057598 0.2158701 0.50392157
0.46533395 0.23872549 0.51078431
0.63106618 0.33333333 0.51176471
0.74574142 0.47417279 0.51176471
0.81764706 0.51727175 0.5141008
0.89149816 0.50392157 0.52242647
0.96813725 0.54148284 0.53776808
0.99215686 0.61176471 0.55165441
0.31862745 0.2872549 0.51531863
0.31556373 0.28261336 0.5111826
0.40232843 0.28921569 0.51158088
0.59734988 0.36911765 0.51554841
0.74068627 0.4908701 0.52083333
0.8161152 0.54264706 0.51844363
0.91029412 0.51985294 0.52598039
0.9745098 0.53604473 0.53678002
0.98823529 0.6 0.54767157
0.31207108 0.42849265 0.51476716
0.31040901 0.41911765 0.51421569
0.30983456 0.3966299 0.51568627
0.53004749 0.43088235 0.52540594
0.73008578 0.54313725 0.52598039
0.83039216 0.6098652 0.53082108
0.91090686 0.56421569 0.5305913
0.9838848 0.56263021 0.5330193
0.99215686 0.62745098 0.53921569
0.28995098 0.59411765 0.51029412
0.27009804 0.58848039 0.50897672
0.24319853 0.57058824 0.50814951
0.28759191 0.55496324 0.51102941
0.65698529 0.59387255 0.53161765
0.82794118 0.67904412 0.54270833
0.9185049 0.66139706 0.52996324
0.98511029 0.65955882 0.53152574
0.99607843 0.7 0.54558824
0.48431373 0.73290441 0.51568627
0.48193168 0.72898284 0.52175245
0.47009804 0.7189185 0.51660539
0.47367494 0.72113971 0.51050092
0.60909926 0.7169424 0.51452206
0.79264706 0.74705882 0.52598039
0.91542586 0.72601103 0.49678309
0.97615656 0.74515931 0.50184589
0.99607843 0.76709559 0.50974265
0.63026961 0.82647059 0.53872549
0.63520221 0.82941176 0.53137255
0.63137255 0.82647059 0.53042279
0.63137255 0.82647059 0.51827512
0.65392157 0.83039216 0.50857843
0.7698989 0.83333333 0.5189185
0.87647059 0.82956495 0.50165441
0.95992647 0.81164216 0.46617647
0.99607843 0.80686275 0.43982843
0.73155637 0.90275735 0.57371324
0.73106618 0.90294118 0.57401961
0.73823529 0.90294118 0.56862745
0.7294807 0.90294118 0.55588235
0.72460172 0.90333946 0.53667279
0.76960784 0.90686275 0.53640472
0.85828738 0.90686275 0.5495098
0.93890931 0.90692402 0.53537837
0.99589461 0.90784314 0.51813725
0.78431373 0.95294118 0.62647059
0.77567402 0.94068627 0.60784314
0.79117647 0.95588235 0.62696078
0.79607843 0.97015931 0.62310049
0.79289216 0.95882353 0.62132353
0.82408088 0.96770833 0.63039216
0.88039216 0.96617647 0.64497549
0.94215686 0.96862745 0.64656863
0.98578431 0.97647059 0.65245098
0.52352941 0.35490196 0.63039216
0.56470588 0.3692402 0.63039216
0.61666667 0.38823529 0.62352941
0.72156863 0.46678922 0.62647059
0.80686275 0.56715686 0.62254902
0.85735294 0.67512255 0.62855392
0.91176471 0.7 0.63431373
0.9682598 0.6745098 0.63823529
0.99215686 0.69313725 0.65392157
0.5127451 0.3504902 0.62352941
0.51960784 0.3622549 0.61997549
0.6171875 0.38921569 0.62352941
0.72696078 0.4717065 0.62647059
0.80882353 0.56127451 0.62126225
0.85882353 0.67026654 0.62486213
0.90885417 0.70490196 0.63128064
0.9566636 0.6708027 0.63566176
0.98431373 0.67352941 0.64313725
0.52254902 0.42647059 0.63112745
0.52637868 0.40735294 0.62745098
0.58216912 0.41979167 0.62647059
0.70110294 0.48563113 0.62647059
0.78529412 0.56862745 0.62254902
0.85462623 0.6801777 0.628125
0.90520833 0.69191176 0.63137255
0.94203431 0.67064951 0.63143382
0.99117647 0.69215686 0.65
0.51323529 0.50355392 0.6307598
0.50802696 0.49938725 0.62745098
0.52117034 0.48517157 0.63085172
0.65078125 0.52107843 0.63137255
0.76617647 0.60514706 0.634375
0.85059743 0.70215993 0.6416973
0.90701593 0.7135723 0.64059436
0.95237439 0.68463542 0.63835784
0.98933824 0.70098039 0.64754902
0.46960784 0.61960784 0.61960784
0.45661765 0.60784314 0.61372549
0.48382353 0.6 0.61948529
0.53014706 0.59381127 0.6247549
0.69068627 0.63357843 0.63602941
0.83382353 0.72303922 0.65
0.91139706 0.7622549 0.65098039
0.96948529 0.72408088 0.64436275
0.99117647 0.71421569 0.63921569
0.47990196 0.72022059 0.61176471
0.47579657 0.71928615 0.60831801
0.46507353 0.71568627 0.61078431
0.46263787 0.70539216 0.61078431
0.55612745 0.69442402 0.61740196
0.75219056 0.7355239 0.63860294
0.90364583 0.79641544 0.66228554
0.97264093 0.78658088 0.6504902
0.99607843 0.76372549 0.64215686
0.60686275 0.81862745 0.62745098
0.61761642 0.82613358 0.63063725
0.61470588 0.82493873 0.62818627
0.61050858 0.82074142 0.62818627
0.62046569 0.81973039 0.62806373
0.73458946 0.81792279 0.63293505
0.88848039 0.84491422 0.66011029
0.96960784 0.8372549 0.64068627
0.99509804 0.82794118 0.61936275
0.72169118 0.89987745 0.66262255
0.71551777 0.89901961 0.65882353
0.72104779 0.90294118 0.65882353
0.72213542 0.90294118 0.65226716
0.72745098 0.90343137 0.64528186
0.77507659 0.903125 0.65085784
0.86470588 0.91078431 0.659375
0.95 0.90723039 0.63567708
0.99215686 0.89191176 0.60441176
0.80392157 0.96078431 0.7127451
0.79252451 0.95686275 0.70784314
0.79901961 0.96151961 0.70784314
0.81421569 0.96862745 0.71237745
0.80637255 0.96470588 0.70245098
0.80784314 0.95428922 0.67990196
0.87156863 0.97156863 0.70392157
0.93737745 0.97598039 0.71311275
0.98431373 0.9754902 0.72058824
0.67598039 0.52843137 0.73921569
0.68425245 0.54319853 0.74699755
0.71715686 0.55968137 0.74411765
0.78480392 0.61109069 0.74313725
0.83970588 0.66617647 0.73504902
0.88431373 0.73333333 0.73529412
0.92389706 0.80539216 0.74007353
0.96519608 0.78970588 0.74705882
0.99215686 0.78578431 0.75882353
0.67205882 0.52009804 0.73480392
0.6756587 0.53583793 0.73572304
0.71726409 0.55183824 0.73529412
0.78888634 0.60343137 0.733678
0.83970588 0.65683211 0.72766544
0.88823529 0.73180147 0.7337163
0.9261489 0.79051777 0.73883272
0.96127451 0.77756587 0.74394148
0.98039216 0.77843137 0.75098039
0.67647059 0.56911765 0.74571078
0.67291667 0.56294424 0.7419424
0.69059436 0.56544118 0.73520221
0.77340686 0.61764706 0.73713235
0.83676471 0.67181373 0.73786765
0.88408395 0.73285846 0.73809743
0.92647059 0.80147059 0.73884804
0.95735294 0.78921569 0.74978554
0.98823529 0.78578431 0.75490196
0.66488971 0.61488971 0.74313725
0.66862745 0.61897212 0.7432981
0.67285539 0.60992647 0.74313725
0.74479933 0.64307598 0.74705882
0.81887255 0.69273897 0.74920343
0.87303156 0.75813419 0.75213695
0.91911765 0.80356924 0.75039828
0.95735294 0.80381434 0.75098039
0.98088235 0.78578431 0.74705882
0.66421569 0.67598039 0.73921569
0.65343137 0.67555147 0.73921569
0.66066176 0.6713848 0.73921569
0.67509191 0.66599265 0.74200368
0.76127451 0.69926471 0.75098039
0.85058211 0.7620098 0.75882353
0.90980392 0.80931373 0.75882353
0.96102941 0.8245098 0.75640319
0.98431373 0.79926471 0.74877451
0.53707108 0.73854167 0.71832108
0.54721967 0.7372549 0.71991422
0.56649816 0.73757659 0.73016238
0.56042433 0.72758119 0.72218903
0.61887255 0.73299632 0.73121936
0.80400582 0.75766697 0.75349265
0.90098039 0.82008272 0.76893382
0.95735294 0.84466912 0.7718367
0.98823529 0.82469363 0.75490196
0.61078431 0.82647059 0.73492647
0.60021446 0.82254902 0.73089767
0.61078431 0.82561275 0.74249387
0.59745711 0.81528799 0.74019608
0.59595588 0.80802696 0.72800245
0.69120711 0.7995098 0.74099265
0.85 0.83376225 0.76056985
0.95854779 0.88066789 0.80407475
0.97990196 0.87389706 0.79509804
0.6995098 0.90343137 0.76323529
0.6995098 0.90294118 0.75539216
0.7033701 0.90294118 0.75620404
0.6995098 0.90300245 0.76372549
0.69558824 0.89929534 0.75367647
0.73540135 0.8995098 0.76078431
0.82843137 0.9024663 0.7745098
0.94215686 0.9221201 0.80599724
0.99166667 0.91176471 0.80294118
0.77941176 0.96470588 0.79705882
0.77254902 0.96127451 0.79411765
0.77892157 0.96078431 0.80453431
0.77647059 0.96323529 0.79773284
0.78382353 0.96862745 0.79362745
0.7754902 0.96078431 0.78609069
0.85208333 0.97120098 0.78627451
0.92598039 0.96868873 0.80196078
0.96470588 0.97303922 0.80980392
0.78039216 0.70588235 0.85882353
0.77941176 0.69705882 0.85392157
0.80980392 0.73039216 0.86470588
0.84166667 0.75147059 0.86421569
0.87254902 0.75882353 0.83529412
0.91911765 0.80931373 0.85343137
0.95 0.84803922 0.85392157
0.97647059 0.88578431 0.8622549
0.99607843 0.88627451 0.8745098
0.7754902 0.69607843 0.85343137
0.75980392 0.67040441 0.83339461
0.79607843 0.71066176 0.85196078
0.83382353 0.73578431 0.85098039
0.86862745 0.7504902 0.82720588
0.91158088 0.7963848 0.83492647
0.95 0.84411765 0.85098039
0.97254902 0.86715686 0.84748775
0.98431373 0.8745098 0.85098039
0.78039216 0.71764706 0.85882353
0.7754902 0.70784314 0.85257353
0.78970588 0.72303922 0.8620098
0.82990196 0.74583333 0.86323529
0.86911765 0.76911765 0.85147059
0.91127451 0.80085784 0.85098039
0.94215686 0.8372549 0.84338235
0.96875 0.86715686 0.84497549
0.99607843 0.88529412 0.87352941
0.78284314 0.74215686 0.86911765
0.76648284 0.73284314 0.85275735
0.77156863 0.73296569 0.85098039
0.80784314 0.75238971 0.86182598
0.8627451 0.78357843 0.86715686
0.90343137 0.80931373 0.85790441
0.93406863 0.8317402 0.83504902
0.96519608 0.86127451 0.84148284
0.99068627 0.87941176 0.85980392
0.74117647 0.75294118 0.84509804
0.75294118 0.75490196 0.85490196
0.75245098 0.74705882 0.85588235
0.77303922 0.75686275 0.85759804
0.82058824 0.77843137 0.86470588
0.88848039 0.81568627 0.86789216
0.93431373 0.84803922 0.86470588
0.97303922 0.88235294 0.8627451
0.99607843 0.89019608 0.87647059
0.72009804 0.79509804 0.86568627
0.70704657 0.7908701 0.85134804
0.71409314 0.78688725 0.85637255
0.7 0.77156863 0.834375
0.76053922 0.7877451 0.86544118
0.83192402 0.80294118 0.85692402
0.90980392 0.85085784 0.86948529
0.97303922 0.89019608 0.87205882
0.98039216 0.88627451 0.85882353
0.68137255 0.84509804 0.85980392
0.67083333 0.84497549 0.86164216
0.62181373 0.83431373 0.83627451
0.62708333 0.83088235 0.85196078
0.66176471 0.82647059 0.84901961
0.71617647 0.82598039 0.85502451
0.8629902 0.84803922 0.85980392
0.95343137 0.89865196 0.88382353
0.97745098 0.90686275 0.87156863
0.69558824 0.90686275 0.89019608
0.70686275 0.91078431 0.88676471
0.70294118 0.91078431 0.88235294
0.70079657 0.91078431 0.88431373
0.69558824 0.90343137 0.87598039
0.70177696 0.89558824 0.87303922
0.75845588 0.88284314 0.89534314
0.90294118 0.90735294 0.89846814
0.99215686 0.95294118 0.91764706
0.76862745 0.97254902 0.91372549
0.75392157 0.95784314 0.86862745
0.76470588 0.96960784 0.91078431
0.77009804 0.97156863 0.89215686
0.77843137 0.98235294 0.92352941
0.77009804 0.97009804 0.89558824
0.81372549 0.97156863 0.91372549
0.89215686 0.96029412 0.91323529
0.98823529 0.96470588 0.91372549
