site/assets/luts/natron-haldclut--faded--a0b01eda6.cube
# LUTr-Project: LUTr — LUTrepository
# LUTr-Schema-Version: 1
# LUTr-ID: natron-haldclut--faded--a0b01eda6
# LUTr-Title: faded
# LUTr-Collection: Natron HaldCLUT
# LUTr-Collection-ID: natron-haldclut-presets
# LUTr-Source: https://github.com/NatronGitHub/clut
# LUTr-Source-File: submissions/natron-haldclut-presets/various/faded.png
# LUTr-Source-Format: PNG
# LUTr-Source-SHA256: fd81c3478c1fbf7698d4032ca7ee304e3bf41d0110382ebb3c737a726f84554d
# LUTr-License: CC-BY-SA-4.0
# LUTr-License-URL: https://github.com/NatronGitHub/clut#license
# LUTr-Tags: creative, film, film-emulation, hald-clut, natron, png, vintage, cube
# LUTr-Transform-Class: film-emulation
# LUTr-Input-Color-Space: srgb
# LUTr-Output-Color-Space: srgb
# LUTr-Color-Space-Confidence: assumed-display-referred
# LUTr-Conversion-Method: PNG LUT image decoded at 16-bit and sampled to 25x25x25 3D CUBE
# LUTr-Conversion-Date: 2026-07-27
# LUTr-Conversion-Tool: LUTr scripts/convert-all-to-cube.mjs
# LUTr-Conversion-Grid: 25x25x25
# LUTr-Note: Preserve this metadata and the upstream license notices when redistributing.
TITLE "faded"
LUT_3D_SIZE 25
DOMAIN_MIN 0 0 0
DOMAIN_MAX 1 1 1
0.011764706 0.011764706 0.035294118
0.028431373 0.015686275 0.035294118
0.049019608 0.020588235 0.039215686
0.073039216 0.026960784 0.039215686
0.094117647 0.031372549 0.039215686
0.11470588 0.035294118 0.03872549
0.13137255 0.035294118 0.035294118
0.1504902 0.035294118 0.033823529
0.16470588 0.031372549 0.02745098
0.19558824 0.041666667 0.051960784
0.22254902 0.048039216 0.067647059
0.2495098 0.058333333 0.074509804
0.28039216 0.064705882 0.080392157
0.30735294 0.070588235 0.082352941
0.33529412 0.070588235 0.082352941
0.35980392 0.070588235 0.078431373
0.38431373 0.074509804 0.082352941
0.41911765 0.084803922 0.092647059
0.45 0.091176471 0.10196078
0.47696078 0.09754902 0.10588235
0.50784314 0.098039216 0.10980392
0.53872549 0.10245098 0.11421569
0.56568627 0.10588235 0.11078431
0.58186275 0.10735294 0.11127451
0.58431373 0.11372549 0.11764706
0.024509804 0.034803922 0.041666667
0.041176471 0.03872549 0.045588235
0.061764706 0.043627451 0.048039216
0.083823529 0.05 0.049509804
0.10441176 0.053186275 0.049509804
0.125 0.056188725 0.048039216
0.14558824 0.058333333 0.045588235
0.16470588 0.062254902 0.046507353
0.18529412 0.068627451 0.051960784
0.2122549 0.073468137 0.064705882
0.23823529 0.076838235 0.080392157
0.26617647 0.084007353 0.088235294
0.29583333 0.091666667 0.093872549
0.32401961 0.09754902 0.095098039
0.35098039 0.09754902 0.095098039
0.37794118 0.10147059 0.09810049
0.40735294 0.10784314 0.099019608
0.43670343 0.11268382 0.10539216
0.46666667 0.11997549 0.11507353
0.49626225 0.12481618 0.11991422
0.5245098 0.13014706 0.1252451
0.55539216 0.1372549 0.13088235
0.58627451 0.14252451 0.13284314
0.60582108 0.14797794 0.14068627
0.60882353 0.15098039 0.14460784
0.040196078 0.065686275 0.052941176
0.056862745 0.069607843 0.058333333
0.078431373 0.07745098 0.059803922
0.099019608 0.082230392 0.060784314
0.12254902 0.087745098 0.060784314
0.14313725 0.089338235 0.060784314
0.16372549 0.093137255 0.062990196
0.18529412 0.097426471 0.066176471
0.20588235 0.10490196 0.07254902
0.23284314 0.10943627 0.082843137
0.25906863 0.11372549 0.095343137
0.28676471 0.12022059 0.10245098
0.31372549 0.12647059 0.10882353
0.34411765 0.13247549 0.1122549
0.37156863 0.13627451 0.12034314
0.40134804 0.14117647 0.1245098
0.43039216 0.14509804 0.11960784
0.46066176 0.15085784 0.12781863
0.49117647 0.15612745 0.13137255
0.51948529 0.16078431 0.13517157
0.5495098 0.16813725 0.14117647
0.57990196 0.17696078 0.15147059
0.60857843 0.18333333 0.15882353
0.63125 0.19252451 0.17156863
0.63823529 0.19607843 0.1754902
0.054411765 0.1004902 0.062745098
0.071078431 0.10294118 0.068627451
0.095220588 0.10931373 0.073651961
0.11917892 0.1161152 0.074019608
0.14019608 0.12181373 0.074019608
0.16078431 0.12444853 0.07745098
0.18137255 0.12781863 0.080514706
0.20343137 0.13314951 0.086764706
0.22647059 0.13970588 0.093137255
0.25343137 0.14577206 0.099509804
0.28039216 0.15110294 0.11017157
0.30735294 0.15533088 0.11623775
0.33627451 0.16127451 0.12303922
0.36519608 0.16758578 0.12990196
0.39558824 0.18002451 0.16409314
0.42303922 0.1786152 0.14264706
0.45392157 0.18284314 0.14019608
0.48480392 0.18872549 0.14283088
0.51568627 0.1942402 0.14889706
0.54613971 0.19846814 0.15153186
0.5752451 0.20784314 0.15833333
0.60435049 0.21470588 0.16905637
0.63137255 0.22794118 0.18615196
0.65637255 0.23694853 0.20030637
0.66519608 0.24068627 0.20637255
0.068627451 0.13529412 0.07254902
0.085294118 0.1377451 0.078921569
0.11029412 0.14362745 0.084313725
0.13431373 0.1504902 0.086029412
0.15686275 0.15588235 0.088235294
0.17745098 0.15906863 0.090686275
0.1995098 0.16617647 0.09754902
0.22254902 0.17132353 0.10661765
0.24705882 0.17843137 0.11372549
0.27401961 0.18357843 0.11887255
0.30098039 0.18823529 0.12401961
0.33014706 0.19215686 0.12916667
0.35882353 0.19901961 0.13627451
0.38578431 0.20612745 0.14632353
0.41666667 0.21323529 0.15784314
0.44754902 0.21642157 0.15490196
0.47843137 0.22156863 0.15686275
0.50931373 0.22671569 0.16078431
0.54019608 0.23186275 0.16127451
0.57279412 0.23872549 0.1627451
0.60098039 0.24509804 0.17352941
0.62867647 0.25539216 0.19313725
0.65441176 0.26960784 0.21176471
0.68014706 0.27990196 0.22892157
0.69607843 0.28431373 0.23529412
0.078921569 0.17009804 0.082843137
0.099816176 0.17273284 0.089215686
0.12536765 0.17806373 0.094607843
0.14901961 0.18229167 0.09810049
0.17328431 0.18970588 0.09877451
0.19460784 0.19460784 0.10735294
0.21862745 0.20183824 0.11727941
0.24313725 0.20980392 0.12401961
0.26764706 0.21715686 0.13039216
0.29460784 0.2213848 0.13676471
0.32156863 0.2254902 0.13921569
0.35245098 0.22941176 0.14215686
0.37941176 0.2370098 0.14779412
0.4098652 0.24466912 0.15784314
0.4377451 0.24889706 0.16421569
0.46862745 0.25441176 0.17126225
0.50343137 0.26176471 0.17892157
0.53382353 0.26764706 0.18186275
0.56519608 0.27401961 0.18578431
0.59607843 0.28039216 0.18578431
0.6245098 0.29019608 0.19313725
0.64944853 0.30098039 0.21323529
0.67610294 0.31127451 0.23382353
0.70147059 0.3213848 0.24920343
0.71813725 0.32745098 0.25931373
0.089215686 0.20490196 0.089215686
0.11556373 0.21029412 0.10134804
0.14215686 0.21568627 0.11176471
0.16568627 0.21960784 0.11176471
0.19166667 0.2254902 0.11519608
0.21519608 0.23541667 0.12401961
0.23921569 0.24215686 0.13431373
0.26372549 0.24852941 0.14129902
0.28823529 0.25490196 0.14803922
0.31519608 0.25882353 0.15490196
0.34436275 0.26372549 0.15882353
0.37303922 0.27009804 0.16237745
0.4 0.275 0.1627451
0.43088235 0.28284314 0.17107843
0.46470588 0.29215686 0.18431373
0.49558824 0.2995098 0.19852941
0.52745098 0.30882353 0.20882353
0.56127451 0.3185049 0.21813725
0.59215686 0.3254902 0.21985294
0.62009804 0.33186275 0.21666667
0.64509804 0.33823529 0.21715686
0.66960784 0.34852941 0.23002451
0.69338235 0.35882353 0.24803922
0.71458333 0.36617647 0.25992647
0.7245098 0.36862745 0.26568627
0.12205882 0.24901961 0.11813725
0.13633578 0.25202206 0.11966912
0.1627451 0.25784314 0.12879902
0.18970588 0.26439951 0.13363971
0.21348039 0.27132353 0.14019608
0.23921569 0.27696078 0.14460784
0.25980392 0.28333333 0.15196078
0.28431373 0.28970588 0.1588848
0.30882353 0.29607843 0.16764706
0.33817402 0.3 0.17401961
0.36666667 0.3060049 0.17941176
0.39754902 0.3127451 0.18302696
0.42598039 0.32230392 0.1879902
0.45949755 0.32941176 0.19754902
0.4935049 0.33970588 0.21703431
0.52647059 0.35 0.23480392
0.55882353 0.36029412 0.24901961
0.58823529 0.37058824 0.25594363
0.61666667 0.37696078 0.25147059
0.64117647 0.38333333 0.24626225
0.66568627 0.3870098 0.24215686
0.68676471 0.39460784 0.24509804
0.71078431 0.40306373 0.25870098
0.72395833 0.40980392 0.26666667
0.7254902 0.40980392 0.26813725
0.15686275 0.29803922 0.15294118
0.16568627 0.29803922 0.14656863
0.18627451 0.30294118 0.15
0.21078431 0.30931373 0.16029412
0.23529412 0.31568627 0.16862745
0.25980392 0.32156863 0.16862745
0.28039216 0.3254902 0.17254902
0.30637255 0.33333333 0.17794118
0.33333333 0.34117647 0.18823529
0.36421569 0.34754902 0.19607843
0.39117647 0.35392157 0.20490196
0.42205882 0.36421569 0.21127451
0.45294118 0.37058824 0.21764706
0.4877451 0.38088235 0.22794118
0.52156863 0.39117647 0.24509804
0.55490196 0.40147059 0.26568627
0.58823529 0.41176471 0.28235294
0.61666667 0.42205882 0.28627451
0.64117647 0.42745098 0.28137255
0.66176471 0.43137255 0.27107843
0.68431373 0.43529412 0.26470588
0.70686275 0.43578431 0.25882353
0.7245098 0.44607843 0.26568627
0.72941176 0.44852941 0.27058824
0.72941176 0.45098039 0.2745098
0.19019608 0.34558824 0.18382353
0.19803922 0.34650735 0.17745098
0.21041667 0.34987745 0.17242647
0.23137255 0.35471814 0.17714461
0.25588235 0.36004902 0.18357843
0.28039216 0.36697304 0.18547794
0.30392157 0.37242647 0.19215686
0.33088235 0.37935049 0.20245098
0.36029412 0.38627451 0.2127451
0.38872549 0.39564951 0.22303922
0.4192402 0.40539216 0.23125
0.44901961 0.41176471 0.23823529
0.47990196 0.42205882 0.24534314
0.51256127 0.42971814 0.25275735
0.54669118 0.43982843 0.26960784
0.58094363 0.4504902 0.28780637
0.6127451 0.45931373 0.3004902
0.6372549 0.46715686 0.30441176
0.66176471 0.47316176 0.30012255
0.68235294 0.4786152 0.29509804
0.70563725 0.48039216 0.28529412
0.72745098 0.48069853 0.27775735
0.73823529 0.48615196 0.2814951
0.74215686 0.49215686 0.28970588
0.74215686 0.49460784 0.29362745
0.22352941 0.39313725 0.21470588
0.23284314 0.39705882 0.20833333
0.24313725 0.4 0.19877451
0.25330882 0.40098039 0.19068627
0.2745098 0.40637255 0.19558824
0.30110294 0.41311275 0.20245098
0.32843137 0.41960784 0.21593137
0.3560049 0.42598039 0.22696078
0.38627451 0.43529412 0.2372549
0.41421569 0.44264706 0.24754902
0.44509804 0.45294118 0.25490196
0.47598039 0.46323529 0.26421569
0.50686275 0.46960784 0.27058824
0.53811275 0.47892157 0.27708333
0.57156863 0.48921569 0.29411765
0.60245098 0.49840686 0.30539216
0.62941176 0.50588235 0.31470588
0.6557598 0.5122549 0.3192402
0.67843137 0.51789216 0.31789216
0.70196078 0.52156863 0.31213235
0.72352941 0.5254902 0.30882353
0.7439951 0.52953431 0.31017157
0.75784314 0.53406863 0.31887255
0.76482843 0.53823529 0.32659314
0.76666667 0.54117647 0.32941176
0.25 0.44117647 0.24558824
0.26029412 0.44491422 0.23560049
0.27058824 0.44852941 0.22634804
0.28039216 0.44852941 0.21519608
0.29509804 0.45073529 0.21078431
0.32205882 0.46078431 0.22653186
0.35257353 0.46727941 0.2372549
0.37990196 0.47383578 0.25116422
0.41029412 0.48382353 0.26176471
0.44117647 0.49068627 0.27156863
0.47205882 0.50085784 0.27843137
0.50294118 0.51078431 0.28829657
0.53382353 0.51740196 0.29313725
0.56476716 0.52745098 0.30147059
0.59607843 0.53517157 0.31213235
0.62175245 0.54442402 0.32077206
0.64656863 0.5504902 0.32843137
0.67322304 0.55490196 0.33498775
0.69644608 0.55980392 0.33529412
0.71960784 0.56617647 0.33235294
0.74068627 0.57034314 0.3377451
0.76035539 0.57408088 0.34362745
0.77757353 0.57830882 0.34791667
0.7872549 0.58363971 0.36078431
0.7872549 0.58627451 0.36666667
0.26470588 0.48627451 0.26078431
0.275 0.48872549 0.2504902
0.28529412 0.49019608 0.24264706
0.29730392 0.49387255 0.23553922
0.32058824 0.49803922 0.23921569
0.34828431 0.50637255 0.2497549
0.37745098 0.51519608 0.26176471
0.40637255 0.52303922 0.27279412
0.43529412 0.53137255 0.28627451
0.46617647 0.53970588 0.29534314
0.49705882 0.5495098 0.30294118
0.52794118 0.55833333 0.30955882
0.55882353 0.56568627 0.31666667
0.58921569 0.57083333 0.32377451
0.61372549 0.57941176 0.33088235
0.63970588 0.58578431 0.33872549
0.66666667 0.59215686 0.34509804
0.69044118 0.59852941 0.35147059
0.71568627 0.60098039 0.35539216
0.7379902 0.60735294 0.36029412
0.75882353 0.61176471 0.37058824
0.77720588 0.61568627 0.37279412
0.79264706 0.61960784 0.37745098
0.80539216 0.62622549 0.38970588
0.81176471 0.62745098 0.39803922
0.2745098 0.52794118 0.26715686
0.28351716 0.53137255 0.26323529
0.29656863 0.53529412 0.25845588
0.31807598 0.53878676 0.26023284
0.34460784 0.54338235 0.26960784
0.37457108 0.55189951 0.27689951
0.40196078 0.55919118 0.28627451
0.42941176 0.56813725 0.29656863
0.45980392 0.575 0.30686275
0.49117647 0.58529412 0.31715686
0.52205882 0.59558824 0.32352941
0.55294118 0.60539216 0.33382353
0.58333333 0.60980392 0.34044118
0.6098652 0.61372549 0.34656863
0.63431373 0.62058824 0.35294118
0.65882353 0.62677696 0.35931373
0.68333333 0.63333333 0.36568627
0.70784314 0.6372549 0.37205882
0.73235294 0.64203431 0.37843137
0.75637255 0.64852941 0.38915441
0.7752451 0.65294118 0.39730392
0.79319853 0.65686275 0.40104167
0.81041667 0.66078431 0.40404412
0.82205882 0.66599265 0.41176471
0.83235294 0.66862745 0.4245098
0.28137255 0.57254902 0.27745098
0.29166667 0.57438725 0.27352941
0.31470588 0.57745098 0.27745098
0.34166667 0.58296569 0.28688725
0.37009804 0.58970588 0.29362745
0.39901961 0.59656863 0.30943627
0.42647059 0.60294118 0.30686275
0.45343137 0.61286765 0.31715686
0.48431373 0.62254902 0.32745098
0.51703431 0.63284314 0.3377451
0.54607843 0.64019608 0.34779412
0.57696078 0.64656863 0.35477941
0.60588235 0.64901961 0.36470588
0.63088235 0.65232843 0.37058824
0.65490196 0.65882353 0.3745098
0.67941176 0.66482843 0.37990196
0.70392157 0.67058824 0.38627451
0.72843137 0.67512255 0.39019608
0.75073529 0.68014706 0.39901961
0.77352941 0.68627451 0.41323529
0.79068627 0.69068627 0.41960784
0.80772059 0.69546569 0.4254902
0.8252451 0.69877451 0.42769608
0.84080882 0.70404412 0.43370098
0.85294118 0.70686275 0.44509804
0.29019608 0.61372549 0.28382353
0.30386029 0.61617647 0.28719363
0.33529412 0.62156863 0.29840686
0.36617647 0.6254902 0.3122549
0.39313725 0.63210784 0.31666667
0.4213848 0.63903186 0.32089461
0.45098039 0.64803922 0.32634804
0.47941176 0.65588235 0.33382353
0.51029412 0.66617647 0.34803922
0.53970588 0.67408088 0.35833333
0.57058824 0.67928922 0.36862745
0.59932598 0.68284314 0.37892157
0.62843137 0.68553922 0.3872549
0.65147059 0.69246324 0.39166667
0.6754902 0.69791667 0.39509804
0.7 0.70392157 0.40147059
0.72303922 0.70784314 0.40294118
0.7466299 0.71329657 0.40839461
0.76960784 0.7185049 0.41960784
0.78890931 0.72334559 0.43020833
0.80686275 0.72867647 0.44019608
0.82352941 0.73382353 0.44607843
0.84264706 0.73713235 0.45
0.85931373 0.74068627 0.45392157
0.86960784 0.74558824 0.46176471
0.30588235 0.65098039 0.30196078
0.32352941 0.65735294 0.30686275
0.35588235 0.6627451 0.32254902
0.38676471 0.66666667 0.33284314
0.41764706 0.6745098 0.33921569
0.44460784 0.68284314 0.34117647
0.4754902 0.68921569 0.34411765
0.50245098 0.6995098 0.35441176
0.53333333 0.70588235 0.36862745
0.56421569 0.7122549 0.37892157
0.59117647 0.71470588 0.38921569
0.62205882 0.71764706 0.3995098
0.64901961 0.72156863 0.40980392
0.67205882 0.72941176 0.4122549
0.69607843 0.73627451 0.41568627
0.71813725 0.74117647 0.41960784
0.74117647 0.74509804 0.41960784
0.76568627 0.74901961 0.42598039
0.78627451 0.75392157 0.43627451
0.80343137 0.76029412 0.44656863
0.82352941 0.76470588 0.45686275
0.84019608 0.76862745 0.46323529
0.85686275 0.77254902 0.46960784
0.87598039 0.77794118 0.4745098
0.89019608 0.78431373 0.47843137
0.33039216 0.68578431 0.33284314
0.34859069 0.68915441 0.33676471
0.37892157 0.69644608 0.34705882
0.40765931 0.70128676 0.35980392
0.43823529 0.71053922 0.3629902
0.46893382 0.71764706 0.36813725
0.49852941 0.72683824 0.37708333
0.52696078 0.73376225 0.38290441
0.55784314 0.74068627 0.39313725
0.58572304 0.74460784 0.40343137
0.61568627 0.74852941 0.41372549
0.64295343 0.75196078 0.42058824
0.66960784 0.75563725 0.42916667
0.69215686 0.76452206 0.43284314
0.71666667 0.77107843 0.43627451
0.7372549 0.77689951 0.44019608
0.75931373 0.77990196 0.44019608
0.78235294 0.78382353 0.4411152
0.80294118 0.79056373 0.45294118
0.81979167 0.79540441 0.46452206
0.8377451 0.7995098 0.47426471
0.85441176 0.80343137 0.48363971
0.87169118 0.80637255 0.4872549
0.8911152 0.81182598 0.49264706
0.90588235 0.81666667 0.49509804
0.35588235 0.71666667 0.36764706
0.37438725 0.72303922 0.36764706
0.40171569 0.72941176 0.37254902
0.43186275 0.73578431 0.38284314
0.46127451 0.74460784 0.39362745
0.49068627 0.75330882 0.40588235
0.5245098 0.7627451 0.4254902
0.55208333 0.76764706 0.42414216
0.57941176 0.77156863 0.42352941
0.60931373 0.7754902 0.42794118
0.63627451 0.77941176 0.43431373
0.66458333 0.78284314 0.44068627
0.69019608 0.78921569 0.44852941
0.7127451 0.79558824 0.45686275
0.73627451 0.80294118 0.46004902
0.75784314 0.80833333 0.46115196
0.77843137 0.81470588 0.46176471
0.79840686 0.8182598 0.45943627
0.81789216 0.82181373 0.47156863
0.83529412 0.82634804 0.48480392
0.85196078 0.82794118 0.49803922
0.86862745 0.83039216 0.50441176
0.88529412 0.83406863 0.51078431
0.9004902 0.83762255 0.51568627
0.90980392 0.84117647 0.51960784
0.37941176 0.75147059 0.40196078
0.39822304 0.75539216 0.40196078
0.4254902 0.76029412 0.40245098
0.45594363 0.77015931 0.40637255
0.48504902 0.77696078 0.41936275
0.51764706 0.7872549 0.43627451
0.54889706 0.79754902 0.45686275
0.57598039 0.8 0.45490196
0.60294118 0.80245098 0.4504902
0.63118873 0.80508578 0.45
0.65980392 0.80735294 0.45134804
0.68474265 0.81372549 0.46127451
0.70882353 0.82009804 0.46764706
0.73333333 0.82647059 0.4778799
0.75392157 0.83284314 0.48394608
0.775 0.83792892 0.49019608
0.79509804 0.84166667 0.49607843
0.81354167 0.84430147 0.50588235
0.8314951 0.84693627 0.51139706
0.84908088 0.85300245 0.51954657
0.86593137 0.85735294 0.53455882
0.88278186 0.85827206 0.52800245
0.89914216 0.86127451 0.53137255
0.91078431 0.86519608 0.53627451
0.91372549 0.86568627 0.53676471
0.40196078 0.78431373 0.43529412
0.42058824 0.78946078 0.43333333
0.4495098 0.79411765 0.42794118
0.47696078 0.80147059 0.42941176
0.50784314 0.80784314 0.43137255
0.53872549 0.81813725 0.4375
0.56960784 0.825 0.45147059
0.6004902 0.83014706 0.45563725
0.62745098 0.83333333 0.46470588
0.65196078 0.83333333 0.46985294
0.68039216 0.8372549 0.47058824
0.70490196 0.84117647 0.47794118
0.72941176 0.84803922 0.48921569
0.75 0.85343137 0.50269608
0.77058824 0.85882353 0.51666667
0.79044118 0.86348039 0.53088235
0.80980392 0.86666667 0.54117647
0.82720588 0.87058824 0.55343137
0.84460784 0.87303922 0.55490196
0.86029412 0.87622549 0.55465686
0.87843137 0.88137255 0.55686275
0.89485294 0.88455882 0.55490196
0.91078431 0.8877451 0.55098039
0.91960784 0.89019608 0.55294118
0.91960784 0.89019608 0.55686275
0.4245098 0.81323529 0.44362745
0.44381127 0.81715686 0.44411765
0.47058824 0.825 0.44803922
0.50147059 0.83235294 0.45196078
0.53235294 0.83872549 0.45245098
0.5627451 0.84803922 0.45238971
0.5932598 0.85453431 0.45159314
0.62058824 0.85588235 0.46519608
0.64754902 0.85980392 0.4754902
0.67254902 0.86243873 0.48314951
0.70061275 0.86776961 0.48676471
0.72457108 0.87156863 0.49803922
0.74558824 0.8754902 0.51519608
0.76617647 0.87947304 0.53529412
0.78333333 0.88333333 0.55551471
0.80373775 0.88872549 0.57058824
0.82401961 0.89117647 0.58431373
0.8408701 0.89509804 0.59724265
0.85772059 0.89901961 0.59644608
0.87408088 0.89901961 0.59221814
0.89068627 0.90294118 0.58284314
0.90686275 0.9033701 0.57647059
0.92058824 0.90637255 0.56960784
0.92959559 0.91047794 0.5776348
0.92990196 0.91078431 0.57794118
0.44509804 0.84411765 0.45784314
0.46752451 0.84803922 0.46139706
0.49411765 0.85294118 0.46936275
0.52205882 0.85931373 0.48198529
0.54803922 0.86127451 0.48039216
0.57352941 0.86176471 0.46911765
0.59705882 0.85882353 0.46470588
0.63088235 0.87107843 0.48541667
0.66176471 0.87745098 0.5
0.68872549 0.88284314 0.5057598
0.71789216 0.89142157 0.51176471
0.73921569 0.89595588 0.5254902
0.75882353 0.89754902 0.54068627
0.77941176 0.9004902 0.55551471
0.79779412 0.90686275 0.56887255
0.81764706 0.91115196 0.57732843
0.8372549 0.91568627 0.58823529
0.85490196 0.91752451 0.59852941
0.87156863 0.91960784 0.60220588
0.88823529 0.91960784 0.59522059
0.90098039 0.92009804 0.5995098
0.91335784 0.91960784 0.58713235
0.92671569 0.92279412 0.59240196
0.9377451 0.92781863 0.6067402
0.94019608 0.93137255 0.60490196
0.46960784 0.875 0.47598039
0.48927696 0.87892157 0.47990196
0.51323529 0.87928922 0.49227941
0.53382353 0.87598039 0.49540441
0.55441176 0.87058824 0.48161765
0.57530637 0.86617647 0.471875
0.59803922 0.8627451 0.47169118
0.63425245 0.87653186 0.49607843
0.67205882 0.89166667 0.52058824
0.70441176 0.90343137 0.53572304
0.73529412 0.91372549 0.54656863
0.75735294 0.91795343 0.55814951
0.7754902 0.92058824 0.57107843
0.79411765 0.92303922 0.57941176
0.81127451 0.92414216 0.58235294
0.83186275 0.93143382 0.59025735
0.85245098 0.93627451 0.59607843
0.86966912 0.94019608 0.60300245
0.88480392 0.94019608 0.60392157
0.89754902 0.93872549 0.6036152
0.90784314 0.93480392 0.60147059
0.91832108 0.93284314 0.60343137
0.93345588 0.93982843 0.61372549
0.94558824 0.9495098 0.62401961
0.95441176 0.95196078 0.62794118
0.48627451 0.90588235 0.49019608
0.50294118 0.89558824 0.49019608
0.51960784 0.88921569 0.49019608
0.53676471 0.87892157 0.48627451
0.55686275 0.87254902 0.48235294
0.57745098 0.86666667 0.4745098
0.59803922 0.8627451 0.4745098
0.6372549 0.87745098 0.49852941
0.6745098 0.89803922 0.52941176
0.71323529 0.91617647 0.55392157
0.74901961 0.93431373 0.57058824
0.77156863 0.9372549 0.58382353
0.78823529 0.9372549 0.58823529
0.80441176 0.9372549 0.59215686
0.82156863 0.94019608 0.59509804
0.84215686 0.94656863 0.6
0.8627451 0.95294118 0.60392157
0.88333333 0.95931373 0.60784314
0.89411765 0.95588235 0.60882353
0.90147059 0.94901961 0.61176471
0.91176471 0.94313725 0.61568627
0.92254902 0.94215686 0.62009804
0.93921569 0.95588235 0.63039216
0.95196078 0.96617647 0.64068627
0.96862745 0.97647059 0.65098039
0.0078431373 0.0078431373 0.035294118
0.025980392 0.014215686 0.035294118
0.049019608 0.020588235 0.039215686
0.073039216 0.026960784 0.041360294
0.094117647 0.031372549 0.044362745
0.11470588 0.035294118 0.045588235
0.13529412 0.037132353 0.047426471
0.15441176 0.037745098 0.048039216
0.175 0.041666667 0.051960784
0.19650735 0.042585784 0.056801471
0.21973039 0.044117647 0.067647059
0.2495098 0.054411765 0.074509804
0.28039216 0.064705882 0.082843137
0.30735294 0.070588235 0.08872549
0.33529412 0.074142157 0.091176471
0.36127451 0.075428922 0.092647059
0.38823529 0.080882353 0.099019608
0.41911765 0.089644608 0.10778186
0.45 0.096568627 0.11470588
0.47726716 0.098039216 0.11470588
0.50710784 0.098039216 0.11470588
0.53743873 0.10275735 0.11930147
0.5685049 0.1122549 0.12977941
0.59215686 0.12009804 0.13523284
0.59460784 0.12401961 0.13823529
0.021139706 0.033884804 0.041666667
0.03872549 0.037254902 0.045588235
0.061764706 0.043244485 0.049096201
0.083639706 0.05 0.051654412
0.1051777 0.054411765 0.055422794
0.12653186 0.058333333 0.056073836
0.1471201 0.059022672 0.058103554
0.16770833 0.06317402 0.061335784
0.18921569 0.068627451 0.067095588
0.21338082 0.072893689 0.073468137
0.23823529 0.076838235 0.082230392
0.26617647 0.081678922 0.089767157
0.29387255 0.090931373 0.095863971
0.32401961 0.097740502 0.10265012
0.35121017 0.10133272 0.10723039
0.37889859 0.10562194 0.11023284
0.40882353 0.11084559 0.11415441
0.43670343 0.11626072 0.12110141
0.46666667 0.12306985 0.12745098
0.49393382 0.12493107 0.12961091
0.5245098 0.12987132 0.13210784
0.55539216 0.13871783 0.13970588
0.58627451 0.14669118 0.14682904
0.60882353 0.15189951 0.15224418
0.61427696 0.15735294 0.15490196
0.040808824 0.065686275 0.054779412
0.057092525 0.069607843 0.058563113
0.077971814 0.074509804 0.060968137
0.099019608 0.080928309 0.065946691
0.12254902 0.085477941 0.068627451
0.14367341 0.089215686 0.07098652
0.16433824 0.092248775 0.074356618
0.18529412 0.096737132 0.079610907
0.20980392 0.10490196 0.086764706
0.23353248 0.10943627 0.094056373
0.25897672 0.1129902 0.099264706
0.28676471 0.11920956 0.10588235
0.31372549 0.12591912 0.11280637
0.34446998 0.13247549 0.12107843
0.37172181 0.13863358 0.12990196
0.40245098 0.14486826 0.13327206
0.43333333 0.14901961 0.13345588
0.46066176 0.15395221 0.13982843
0.49044118 0.1591299 0.14522059
0.51911765 0.163894 0.14796262
