site/assets/luts/natron-haldclut--kodak-tmax-3200--82e5cfc21.cube
# LUTr-Project: LUTr — LUTrepository
# LUTr-Schema-Version: 1
# LUTr-ID: natron-haldclut--kodak-tmax-3200--82e5cfc21
# LUTr-Title: kodak tmax 3200 +
# LUTr-Collection: Natron HaldCLUT
# LUTr-Collection-ID: natron-haldclut-presets
# LUTr-Source: https://github.com/NatronGitHub/clut
# LUTr-Source-File: submissions/natron-haldclut-presets/negative_new/kodak_tmax_3200_+.png
# LUTr-Source-Format: PNG
# LUTr-Source-SHA256: 46de86d37a368d2267e25f525d769b105e97f29d3c4b14ecbc751f723bd61273
# LUTr-License: CC-BY-SA-4.0
# LUTr-License-URL: https://github.com/NatronGitHub/clut#license
# LUTr-Tags: creative, film, film-emulation, hald-clut, natron, png, cube
# LUTr-Transform-Class: film-emulation
# LUTr-Input-Color-Space: srgb
# LUTr-Output-Color-Space: srgb
# LUTr-Color-Space-Confidence: assumed-display-referred
# LUTr-Conversion-Method: PNG LUT image decoded at 16-bit and sampled to 25x25x25 3D CUBE
# LUTr-Conversion-Date: 2026-07-27
# LUTr-Conversion-Tool: LUTr scripts/convert-all-to-cube.mjs
# LUTr-Conversion-Grid: 25x25x25
# LUTr-Note: Preserve this metadata and the upstream license notices when redistributing.
TITLE "kodak tmax 3200 +"
LUT_3D_SIZE 9
DOMAIN_MIN 0 0 0
DOMAIN_MAX 1 1 1
0.22352941 0.22352941 0.22352941
0.22352941 0.22352941 0.22352941
0.21960784 0.21960784 0.21960784
0.23137255 0.23137255 0.23137255
0.24313725 0.24313725 0.24313725
0.26029412 0.26029412 0.26029412
0.29117647 0.29117647 0.29117647
0.31764706 0.31764706 0.31764706
0.32156863 0.32156863 0.32156863
0.22352941 0.22352941 0.22352941
0.23131127 0.23131127 0.23131127
0.23872549 0.23872549 0.23872549
0.25294118 0.25294118 0.25294118
0.26813725 0.26813725 0.26813725
0.28314951 0.28314951 0.28314951
0.30637255 0.30637255 0.30637255
0.32585784 0.32585784 0.32585784
0.34019608 0.34019608 0.34019608
0.25392157 0.25392157 0.25392157
0.26127451 0.26127451 0.26127451
0.26960784 0.26960784 0.26960784
0.28713235 0.28713235 0.28713235
0.30196078 0.30196078 0.30196078
0.33468137 0.33468137 0.33468137
0.35073529 0.35073529 0.35073529
0.40465686 0.40465686 0.40465686
0.43921569 0.43921569 0.43921569
0.30539216 0.30539216 0.30539216
0.30814951 0.30814951 0.30814951
0.31470588 0.31470588 0.31470588
0.33731618 0.33731618 0.33731618
0.37671569 0.37671569 0.37671569
0.42297794 0.42297794 0.42297794
0.46666667 0.46666667 0.46666667
0.53284314 0.53284314 0.53284314
0.58872549 0.58872549 0.58872549
0.38431373 0.38431373 0.38431373
0.38039216 0.38039216 0.38039216
0.39313725 0.39313725 0.39313725
0.42279412 0.42279412 0.42279412
0.45392157 0.45392157 0.45392157
0.51470588 0.51470588 0.51470588
0.57892157 0.57892157 0.57892157
0.65 0.65 0.65
0.70784314 0.70784314 0.70784314
0.50147059 0.50147059 0.50147059
0.50539216 0.50539216 0.50539216
0.50931373 0.50931373 0.50931373
0.52689951 0.52689951 0.52689951
0.56078431 0.56078431 0.56078431
0.59859069 0.59859069 0.59859069
0.65441176 0.65441176 0.65441176
0.73511029 0.73511029 0.73511029
0.79509804 0.79509804 0.79509804
0.65980392 0.65980392 0.65980392
0.65588235 0.65588235 0.65588235
0.64803922 0.64803922 0.64803922
0.65943627 0.65943627 0.65943627
0.68480392 0.68480392 0.68480392
0.71127451 0.71127451 0.71127451
0.75490196 0.75490196 0.75490196
0.81176471 0.81176471 0.81176471
0.85294118 0.85294118 0.85294118
0.79803922 0.79803922 0.79803922
0.79019608 0.79019608 0.79019608
0.78664216 0.78664216 0.78664216
0.79442402 0.79442402 0.79442402
0.80759804 0.80759804 0.80759804
0.8341299 0.8341299 0.8341299
0.85735294 0.85735294 0.85735294
0.87990196 0.87990196 0.87990196
0.90245098 0.90245098 0.90245098
0.87843137 0.87843137 0.87843137
0.88970588 0.88970588 0.88970588
0.91176471 0.91176471 0.91176471
0.90588235 0.90588235 0.90588235
0.91568627 0.91568627 0.91568627
0.92156863 0.92156863 0.92156863
0.93333333 0.93333333 0.93333333
0.94117647 0.94117647 0.94117647
0.94509804 0.94509804 0.94509804
0.22745098 0.22745098 0.22745098
0.22745098 0.22745098 0.22745098
0.22745098 0.22745098 0.22745098
0.23529412 0.23529412 0.23529412
0.24313725 0.24313725 0.24313725
0.26029412 0.26029412 0.26029412
0.2872549 0.2872549 0.2872549
0.31421569 0.31421569 0.31421569
0.33333333 0.33333333 0.33333333
0.23523284 0.23523284 0.23523284
0.2391008 0.2391008 0.2391008
0.24296875 0.24296875 0.24296875
0.253125 0.253125 0.253125
0.26617647 0.26617647 0.26617647
0.28333333 0.28333333 0.28333333
0.30637255 0.30637255 0.30637255
0.33719363 0.33719363 0.33719363
0.37107843 0.37107843 0.37107843
0.25784314 0.25784314 0.25784314
0.26476716 0.26476716 0.26476716
0.26960784 0.26960784 0.26960784
0.29068627 0.29068627 0.29068627
0.31323529 0.31323529 0.31323529
0.33837316 0.33837316 0.33837316
0.35882353 0.35882353 0.35882353
0.40266544 0.40266544 0.40266544
0.43578431 0.43578431 0.43578431
0.32077206 0.32077206 0.32077206
0.32205882 0.32205882 0.32205882
0.32077206 0.32077206 0.32077206
0.33903952 0.33903952 0.33903952
0.38235294 0.38235294 0.38235294
0.4245098 0.4245098 0.4245098
0.46666667 0.46666667 0.46666667
0.51519608 0.51519608 0.51519608
0.57959559 0.57959559 0.57959559
0.39607843 0.39607843 0.39607843
0.40539216 0.40539216 0.40539216
0.41488971 0.41488971 0.41488971
0.42466299 0.42466299 0.42466299
0.46838235 0.46838235 0.46838235
0.51593137 0.51593137 0.51593137
0.5841299 0.5841299 0.5841299
0.65220588 0.65220588 0.65220588
0.71004902 0.71004902 0.71004902
0.51666667 0.51666667 0.51666667
0.5245098 0.5245098 0.5245098
0.52210478 0.52210478 0.52210478
0.53990502 0.53990502 0.53990502
0.57254902 0.57254902 0.57254902
0.60546109 0.60546109 0.60546109
0.65796569 0.65796569 0.65796569
0.7372549 0.7372549 0.7372549
0.80667892 0.80667892 0.80667892
0.66372549 0.66372549 0.66372549
0.6627451 0.6627451 0.6627451
0.66657475 0.66657475 0.66657475
0.66827512 0.66827512 0.66827512
0.68823529 0.68823529 0.68823529
0.71680453 0.71680453 0.71680453
0.74681373 0.74681373 0.74681373
0.81176471 0.81176471 0.81176471
0.85980392 0.85980392 0.85980392
0.80153186 0.80153186 0.80153186
0.79766391 0.79766391 0.79766391
0.79793199 0.79793199 0.79793199
0.79803922 0.79803922 0.79803922
0.80931373 0.80931373 0.80931373
0.83069853 0.83069853 0.83069853
0.85245098 0.85245098 0.85245098
0.87727482 0.87727482 0.87727482
0.90245098 0.90245098 0.90245098
0.90980392 0.90980392 0.90980392
0.90196078 0.90196078 0.90196078
0.90245098 0.90245098 0.90245098
0.91194853 0.91194853 0.91194853
0.91151961 0.91151961 0.91151961
0.92518382 0.92518382 0.92518382
0.92941176 0.92941176 0.92941176
0.94515931 0.94515931 0.94515931
0.94901961 0.94901961 0.94901961
0.23137255 0.23137255 0.23137255
0.23137255 0.23137255 0.23137255
0.23137255 0.23137255 0.23137255
0.23921569 0.23921569 0.23921569
0.24705882 0.24705882 0.24705882
0.26605392 0.26605392 0.26605392
0.28333333 0.28333333 0.28333333
0.31813725 0.31813725 0.31813725
0.3372549 0.3372549 0.3372549
0.24313725 0.24313725 0.24313725
0.24613971 0.24613971 0.24613971
0.2504902 0.2504902 0.2504902
0.25646446 0.25646446 0.25646446
0.26813725 0.26813725 0.26813725
0.28688725 0.28688725 0.28688725
0.31323529 0.31323529 0.31323529
0.3372549 0.3372549 0.3372549
0.35330882 0.35330882 0.35330882
0.26789216 0.26789216 0.26789216
0.26948529 0.26948529 0.26948529
0.28241422 0.28241422 0.28241422
0.29571078 0.29571078 0.29571078
0.32156863 0.32156863 0.32156863
0.34381127 0.34381127 0.34381127
0.36568627 0.36568627 0.36568627
0.40551471 0.40551471 0.40551471
0.42843137 0.42843137 0.42843137
0.33039216 0.33039216 0.33039216
0.33668811 0.33668811 0.33668811
0.34117647 0.34117647 0.34117647
0.36568627 0.36568627 0.36568627
0.39754902 0.39754902 0.39754902
0.4377451 0.4377451 0.4377451
0.47022059 0.47022059 0.47022059
0.51096814 0.51096814 0.51096814
0.56580882 0.56580882 0.56580882
0.41715686 0.41715686 0.41715686
0.4245098 0.4245098 0.4245098
0.4377451 0.4377451 0.4377451
0.4504902 0.4504902 0.4504902
0.48529412 0.48529412 0.48529412
0.534375 0.534375 0.534375
0.59718137 0.59718137 0.59718137
0.65245098 0.65245098 0.65245098
0.69803922 0.69803922 0.69803922
0.54154412 0.54154412 0.54154412
0.55520833 0.55520833 0.55520833
0.55784314 0.55784314 0.55784314
0.56214767 0.56214767 0.56214767
0.59178922 0.59178922 0.59178922
0.62297794 0.62297794 0.62297794
0.6747549 0.6747549 0.6747549
0.74546569 0.74546569 0.74546569
0.80796569 0.80796569 0.80796569
0.68137255 0.68137255 0.68137255
0.68520221 0.68520221 0.68520221
0.68529412 0.68529412 0.68529412
0.68884804 0.68884804 0.68884804
0.70330882 0.70330882 0.70330882
0.72990196 0.72990196 0.72990196
0.76151961 0.76151961 0.76151961
0.80686275 0.80686275 0.80686275
0.86372549 0.86372549 0.86372549
0.80894608 0.80894608 0.80894608
0.80980392 0.80980392 0.80980392
0.80980392 0.80980392 0.80980392
0.8127451 0.8127451 0.8127451
0.82285539 0.82285539 0.82285539
0.83786765 0.83786765 0.83786765
0.85710784 0.85710784 0.85710784
0.87205882 0.87205882 0.87205882
0.90943627 0.90943627 0.90943627
0.91372549 0.91372549 0.91372549
0.91017157 0.91017157 0.91017157
0.90196078 0.90196078 0.90196078
0.89154412 0.89154412 0.89154412
0.9 0.9 0.9
0.91911765 0.91911765 0.91911765
0.93333333 0.93333333 0.93333333
0.94117647 0.94117647 0.94117647
0.95686275 0.95686275 0.95686275
0.23529412 0.23529412 0.23529412
0.23137255 0.23137255 0.23137255
0.23713235 0.23713235 0.23713235
0.24859069 0.24859069 0.24859069
0.25735294 0.25735294 0.25735294
0.27542892 0.27542892 0.27542892
0.29509804 0.29509804 0.29509804
0.32598039 0.32598039 0.32598039
0.34117647 0.34117647 0.34117647
0.24920343 0.24920343 0.24920343
0.24705882 0.24705882 0.24705882
0.25742953 0.25742953 0.25742953
0.26770833 0.26770833 0.26770833
0.27352941 0.27352941 0.27352941
0.29509804 0.29509804 0.29509804
0.32205882 0.32205882 0.32205882
0.34840686 0.34840686 0.34840686
0.35882353 0.35882353 0.35882353
0.26960784 0.26960784 0.26960784
0.2692402 0.2692402 0.2692402
0.29427083 0.29427083 0.29427083
0.3129136 0.3129136 0.3129136
0.31991422 0.31991422 0.31991422
0.34613971 0.34613971 0.34613971
0.3752451 0.3752451 0.3752451
0.39656863 0.39656863 0.39656863
0.40919118 0.40919118 0.40919118
0.32401961 0.32401961 0.32401961
0.33560049 0.33560049 0.33560049
0.35294118 0.35294118 0.35294118
0.38815104 0.38815104 0.38815104
0.41614583 0.41614583 0.41614583
0.44411765 0.44411765 0.44411765
0.47352941 0.47352941 0.47352941
0.51011029 0.51011029 0.51011029
0.56072304 0.56072304 0.56072304
0.43529412 0.43529412 0.43529412
0.44240196 0.44240196 0.44240196
0.45098039 0.45098039 0.45098039
0.47576593 0.47576593 0.47576593
0.5122549 0.5122549 0.5122549
0.56102941 0.56102941 0.56102941
0.60490196 0.60490196 0.60490196
0.64803922 0.64803922 0.64803922
0.69828431 0.69828431 0.69828431
0.57359069 0.57359069 0.57359069
0.58449755 0.58449755 0.58449755
0.59725797 0.59725797 0.59725797
0.59844516 0.59844516 0.59844516
0.61813725 0.61813725 0.61813725
0.65294118 0.65294118 0.65294118
0.70193015 0.70193015 0.70193015
0.76341912 0.76341912 0.76341912
0.82346814 0.82346814 0.82346814
0.70441176 0.70441176 0.70441176
0.70825674 0.70825674 0.70825674
0.71519608 0.71519608 0.71519608
0.71911765 0.71911765 0.71911765
0.72800245 0.72800245 0.72800245
0.75404412 0.75404412 0.75404412
0.78223039 0.78223039 0.78223039
0.82107843 0.82107843 0.82107843
0.875 0.875 0.875
0.81372549 0.81372549 0.81372549
0.82483915 0.82483915 0.82483915
0.82749694 0.82749694 0.82749694
0.8276348 0.8276348 0.8276348
0.83431373 0.83431373 0.83431373
0.84921875 0.84921875 0.84921875
0.86461397 0.86461397 0.86461397
0.8841299 0.8841299 0.8841299
0.91421569 0.91421569 0.91421569
0.91372549 0.91372549 0.91372549
0.91158088 0.91158088 0.91158088
0.91556373 0.91556373 0.91556373
0.90833333 0.90833333 0.90833333
0.91568627 0.91568627 0.91568627
0.9254902 0.9254902 0.9254902
0.94154412 0.94154412 0.94154412
0.94932598 0.94932598 0.94932598
0.95294118 0.95294118 0.95294118
0.23529412 0.23529412 0.23529412
0.23529412 0.23529412 0.23529412
0.24460784 0.24460784 0.24460784
0.26004902 0.26004902 0.26004902
0.27941176 0.27941176 0.27941176
0.29607843 0.29607843 0.29607843
0.30490196 0.30490196 0.30490196
0.3377451 0.3377451 0.3377451
0.34509804 0.34509804 0.34509804
0.25441176 0.25441176 0.25441176
0.25441176 0.25441176 0.25441176
0.26783088 0.26783088 0.26783088
0.28504902 0.28504902 0.28504902
0.2995098 0.2995098 0.2995098
0.31372549 0.31372549 0.31372549
0.33314951 0.33314951 0.33314951
0.35640319 0.35640319 0.35640319
0.36617647 0.36617647 0.36617647
0.28137255 0.28137255 0.28137255
0.28394608 0.28394608 0.28394608
0.30392157 0.30392157 0.30392157
0.32867647 0.32867647 0.32867647
0.35441176 0.35441176 0.35441176
0.37254902 0.37254902 0.37254902
0.38786765 0.38786765 0.38786765
0.40931373 0.40931373 0.40931373
0.42794118 0.42794118 0.42794118
0.30955882 0.30955882 0.30955882
0.33275123 0.33275123 0.33275123
0.35759804 0.35759804 0.35759804
0.40196078 0.40196078 0.40196078
0.44068627 0.44068627 0.44068627
0.44561887 0.44561887 0.44561887
0.47604167 0.47604167 0.47604167
0.50514706 0.50514706 0.50514706
0.54509804 0.54509804 0.54509804
0.43627451 0.43627451 0.43627451
0.44497549 0.44497549 0.44497549
0.46348039 0.46348039 0.46348039
0.49313725 0.49313725 0.49313725
0.54460784 0.54460784 0.54460784
0.56102941 0.56102941 0.56102941
0.60514706 0.60514706 0.60514706
0.63651961 0.63651961 0.63651961
0.67254902 0.67254902 0.67254902
0.57990196 0.57990196 0.57990196
0.59558824 0.59558824 0.59558824
0.60808824 0.60808824 0.60808824
0.62941176 0.62941176 0.62941176
0.6502451 0.6502451 0.6502451
0.68112745 0.68112745 0.68112745
0.72959559 0.72959559 0.72959559
0.76421569 0.76421569 0.76421569
0.79411765 0.79411765 0.79411765
0.72401961 0.72401961 0.72401961
0.72745098 0.72745098 0.72745098
0.73480392 0.73480392 0.73480392
0.73854167 0.73854167 0.73854167
0.75220588 0.75220588 0.75220588
0.77230392 0.77230392 0.77230392
0.79313725 0.79313725 0.79313725
0.83376225 0.83376225 0.83376225
0.87205882 0.87205882 0.87205882
0.83284314 0.83284314 0.83284314
0.83676471 0.83676471 0.83676471
0.83897059 0.83897059 0.83897059
0.84004289 0.84004289 0.84004289
0.84938725 0.84938725 0.84938725
0.86078431 0.86078431 0.86078431
0.87420343 0.87420343 0.87420343
0.89212623 0.89212623 0.89212623
0.91446078 0.91446078 0.91446078
0.91568627 0.91568627 0.91568627
0.91372549 0.91372549 0.91372549
0.92352941 0.92352941 0.92352941
0.91764706 0.91764706 0.91764706
0.9254902 0.9254902 0.9254902
0.92941176 0.92941176 0.92941176
0.94313725 0.94313725 0.94313725
0.94509804 0.94509804 0.94509804
0.94901961 0.94901961 0.94901961
0.24068627 0.24068627 0.24068627
0.24442402 0.24442402 0.24442402
0.2560049 0.2560049 0.2560049
0.27935049 0.27935049 0.27935049
0.30539216 0.30539216 0.30539216
0.33382353 0.33382353 0.33382353
0.35085784 0.35085784 0.35085784
0.36243873 0.36243873 0.36243873
0.37156863 0.37156863 0.37156863
0.2622549 0.2622549 0.2622549
0.26356464 0.26356464 0.26356464
0.27535233 0.27535233 0.27535233
0.30392157 0.30392157 0.30392157
0.32852328 0.32852328 0.32852328
0.35245098 0.35245098 0.35245098
0.36723346 0.36723346 0.36723346
0.38333333 0.38333333 0.38333333
0.39460784 0.39460784 0.39460784
0.29460784 0.29460784 0.29460784
0.29808517 0.29808517 0.29808517
0.31724877 0.31724877 0.31724877
0.34180453 0.34180453 0.34180453
0.37745098 0.37745098 0.37745098
0.41029412 0.41029412 0.41029412
0.42058824 0.42058824 0.42058824
0.43138787 0.43138787 0.43138787
0.44019608 0.44019608 0.44019608
0.33333333 0.33333333 0.33333333
0.34636949 0.34636949 0.34636949
0.37401961 0.37401961 0.37401961
0.41104473 0.41104473 0.41104473
0.46614583 0.46614583 0.46614583
0.49599418 0.49599418 0.49599418
0.50833333 0.50833333 0.50833333
0.52677696 0.52677696 0.52677696
0.54160539 0.54160539 0.54160539
0.41102941 0.41102941 0.41102941
0.42858456 0.42858456 0.42858456
0.45784314 0.45784314 0.45784314
0.49828431 0.49828431 0.49828431
0.56936275 0.56936275 0.56936275
0.5955576 0.5955576 0.5955576
0.61011029 0.61011029 0.61011029
0.63250613 0.63250613 0.63250613
0.66151961 0.66151961 0.66151961
0.55490196 0.55490196 0.55490196
0.57843137 0.57843137 0.57843137
0.58737745 0.58737745 0.58737745
0.61954657 0.61954657 0.61954657
0.66639093 0.66639093 0.66639093
0.69846814 0.69846814 0.69846814
0.72645527 0.72645527 0.72645527
0.75140165 0.75140165 0.75140165
0.77843137 0.77843137 0.77843137
0.72156863 0.72156863 0.72156863
0.73284314 0.73284314 0.73284314
0.74117647 0.74117647 0.74117647
0.75032169 0.75032169 0.75032169
0.77389706 0.77389706 0.77389706
0.78964461 0.78964461 0.78964461
0.81617647 0.81617647 0.81617647
0.85105699 0.85105699 0.85105699
0.88235294 0.88235294 0.88235294
0.83676471 0.83676471 0.83676471
0.84068627 0.84068627 0.84068627
0.84460784 0.84460784 0.84460784
0.85245098 0.85245098 0.85245098
0.86078431 0.86078431 0.86078431
0.87163756 0.87163756 0.87163756
0.88520221 0.88520221 0.88520221
0.90702359 0.90702359 0.90702359
0.92598039 0.92598039 0.92598039
0.90882353 0.90882353 0.90882353
0.91734069 0.91734069 0.91734069
0.92977941 0.92977941 0.92977941
0.92156863 0.92156863 0.92156863
0.92941176 0.92941176 0.92941176
0.9372549 0.9372549 0.9372549
0.93615196 0.93615196 0.93615196
0.95079657 0.95079657 0.95079657
0.95294118 0.95294118 0.95294118
0.25882353 0.25882353 0.25882353
0.26372549 0.26372549 0.26372549
0.27352941 0.27352941 0.27352941
0.30539216 0.30539216 0.30539216
0.34068627 0.34068627 0.34068627
0.37892157 0.37892157 0.37892157
0.40416667 0.40416667 0.40416667
0.42696078 0.42696078 0.42696078
0.44117647 0.44117647 0.44117647
0.27879902 0.27879902 0.27879902
0.27924326 0.27924326 0.27924326
0.29068627 0.29068627 0.29068627
0.32414216 0.32414216 0.32414216
0.36764706 0.36764706 0.36764706
0.40784314 0.40784314 0.40784314
0.44990809 0.44990809 0.44990809
0.44918811 0.44918811 0.44918811
0.46813725 0.46813725 0.46813725
0.32132353 0.32132353 0.32132353
0.32058824 0.32058824 0.32058824
0.33921569 0.33921569 0.33921569
0.36927083 0.36927083 0.36927083
0.41666667 0.41666667 0.41666667
0.46862745 0.46862745 0.46862745
0.50073529 0.50073529 0.50073529
0.48933824 0.48933824 0.48933824
0.50294118 0.50294118 0.50294118
0.3627451 0.3627451 0.3627451
0.37428002 0.37428002 0.37428002
0.40490196 0.40490196 0.40490196
0.44584865 0.44584865 0.44584865
0.49852941 0.49852941 0.49852941
0.55660233 0.55660233 0.55660233
0.58578431 0.58578431 0.58578431
0.57892157 0.57892157 0.57892157
0.58394608 0.58394608 0.58394608
0.41813725 0.41813725 0.41813725
0.43094363 0.43094363 0.43094363
0.46862745 0.46862745 0.46862745
0.52175245 0.52175245 0.52175245
0.58504902 0.58504902 0.58504902
0.6372549 0.6372549 0.6372549
0.66666667 0.66666667 0.66666667
0.6745098 0.6745098 0.6745098
0.68382353 0.68382353 0.68382353
0.53970588 0.53970588 0.53970588
0.55502451 0.55502451 0.55502451
0.57401961 0.57401961 0.57401961
0.59698223 0.59698223 0.59698223
0.659375 0.659375 0.659375
0.72127757 0.72127757 0.72127757
0.75946691 0.75946691 0.75946691
0.76323529 0.76323529 0.76323529
0.77696078 0.77696078 0.77696078
0.69411765 0.69411765 0.69411765
0.70539216 0.70539216 0.70539216
0.71985294 0.71985294 0.71985294
0.73351716 0.73351716 0.73351716
0.76862745 0.76862745 0.76862745
0.80094975 0.80094975 0.80094975
0.83602941 0.83602941 0.83602941
0.85793505 0.85793505 0.85793505
0.87181373 0.87181373 0.87181373
0.84448529 0.84448529 0.84448529
0.83982843 0.83982843 0.83982843
0.85254289 0.85254289 0.85254289
0.85637255 0.85637255 0.85637255
0.86770833 0.86770833 0.86770833
0.88095895 0.88095895 0.88095895
0.89895833 0.89895833 0.89895833
0.91481311 0.91481311 0.91481311
0.93860294 0.93860294 0.93860294
0.92156863 0.92156863 0.92156863
0.92156863 0.92156863 0.92156863
0.90784314 0.90784314 0.90784314
0.92401961 0.92401961 0.92401961
0.93088235 0.93088235 0.93088235
0.9439951 0.9439951 0.9439951
0.94215686 0.94215686 0.94215686
0.95343137 0.95343137 0.95343137
0.96568627 0.96568627 0.96568627
0.28284314 0.28284314 0.28284314
0.28676471 0.28676471 0.28676471
0.30147059 0.30147059 0.30147059
0.32824755 0.32824755 0.32824755
0.36936275 0.36936275 0.36936275
0.44901961 0.44901961 0.44901961
0.54068627 0.54068627 0.54068627
0.54411765 0.54411765 0.54411765
0.54803922 0.54803922 0.54803922
0.29803922 0.29803922 0.29803922
0.30196078 0.30196078 0.30196078
0.31764706 0.31764706 0.31764706
0.33872549 0.33872549 0.33872549
0.40027574 0.40027574 0.40027574
0.47205882 0.47205882 0.47205882
0.56066176 0.56066176 0.56066176
0.57805607 0.57805607 0.57805607
0.56280637 0.56280637 0.56280637
0.34840686 0.34840686 0.34840686
0.34840686 0.34840686 0.34840686
0.37009804 0.37009804 0.37009804
0.39705882 0.39705882 0.39705882
0.45520833 0.45520833 0.45520833
0.525 0.525 0.525
0.60202206 0.60202206 0.60202206
0.61617647 0.61617647 0.61617647
0.6122549 0.6122549 0.6122549
0.40324755 0.40324755 0.40324755
0.40769761 0.40769761 0.40769761
0.44215686 0.44215686 0.44215686
0.47334559 0.47334559 0.47334559
0.5231924 0.5231924 0.5231924
0.59276195 0.59276195 0.59276195
0.657981 0.657981 0.657981
0.67729013 0.67729013 0.67729013
0.66176471 0.66176471 0.66176471
0.44215686 0.44215686 0.44215686
0.46740196 0.46740196 0.46740196
0.5129902 0.5129902 0.5129902
0.55980392 0.55980392 0.55980392
0.61409314 0.61409314 0.61409314
0.66446078 0.66446078 0.66446078
0.72052696 0.72052696 0.72052696
0.74414828 0.74414828 0.74414828
0.74093137 0.74093137 0.74093137
0.5127451 0.5127451 0.5127451
0.52647059 0.52647059 0.52647059
0.53837316 0.53837316 0.53837316
0.5900046 0.5900046 0.5900046
0.67769608 0.67769608 0.67769608
0.73871783 0.73871783 0.73871783
0.78674939 0.78674939 0.78674939
0.8036152 0.8036152 0.8036152
0.80128676 0.80128676 0.80128676
0.67107843 0.67107843 0.67107843
0.67935049 0.67935049 0.67935049
0.69558824 0.69558824 0.69558824
0.71715686 0.71715686 0.71715686
0.75686275 0.75686275 0.75686275
0.81262255 0.81262255 0.81262255
0.85009191 0.85009191 0.85009191
0.87314645 0.87314645 0.87314645
0.87659314 0.87659314 0.87659314
0.8254902 0.8254902 0.8254902
0.825 0.825 0.825
0.83664216 0.83664216 0.83664216
0.84050245 0.84050245 0.84050245
0.86222426 0.86222426 0.86222426
0.88088235 0.88088235 0.88088235
0.90664828 0.90664828 0.90664828
0.92346814 0.92346814 0.92346814
0.9377451 0.9377451 0.9377451
0.91764706 0.91764706 0.91764706
0.93241422 0.93241422 0.93241422
0.92169118 0.92169118 0.92169118
0.92401961 0.92401961 0.92401961
0.92769608 0.92769608 0.92769608
0.94295343 0.94295343 0.94295343
0.94877451 0.94877451 0.94877451
0.96078431 0.96078431 0.96078431
0.95637255 0.95637255 0.95637255
0.29803922 0.29803922 0.29803922
0.29803922 0.29803922 0.29803922
0.33627451 0.33627451 0.33627451
0.375 0.375 0.375
0.39607843 0.39607843 0.39607843
0.54019608 0.54019608 0.54019608
0.62254902 0.62254902 0.62254902
0.71127451 0.71127451 0.71127451
0.7254902 0.7254902 0.7254902
0.31323529 0.31323529 0.31323529
0.31323529 0.31323529 0.31323529
0.34007353 0.34007353 0.34007353
0.36991422 0.36991422 0.36991422
0.46029412 0.46029412 0.46029412
0.55686275 0.55686275 0.55686275
0.64068627 0.64068627 0.64068627
0.72310049 0.72310049 0.72310049
0.73333333 0.73333333 0.73333333
0.35882353 0.35882353 0.35882353
0.35882353 0.35882353 0.35882353
0.39607843 0.39607843 0.39607843
0.43786765 0.43786765 0.43786765
0.5127451 0.5127451 0.5127451
0.59166667 0.59166667 0.59166667
0.6754902 0.6754902 0.6754902
0.7567402 0.7567402 0.7567402
0.76372549 0.76372549 0.76372549
0.43088235 0.43088235 0.43088235
0.43088235 0.43088235 0.43088235
0.47022059 0.47022059 0.47022059
0.51268382 0.51268382 0.51268382
0.56568627 0.56568627 0.56568627
0.64160539 0.64160539 0.64160539
0.72218137 0.72218137 0.72218137
0.76145833 0.76145833 0.76145833
0.79068627 0.79068627 0.79068627
0.50784314 0.50784314 0.50784314
0.52107843 0.52107843 0.52107843
0.54607843 0.54607843 0.54607843
0.58406863 0.58406863 0.58406863
0.63235294 0.63235294 0.63235294
0.68995098 0.68995098 0.68995098
0.75686275 0.75686275 0.75686275
0.81862745 0.81862745 0.81862745
0.83333333 0.83333333 0.83333333
0.48872549 0.48872549 0.48872549
0.50588235 0.50588235 0.50588235
0.56335784 0.56335784 0.56335784
0.62702206 0.62702206 0.62702206
0.70294118 0.70294118 0.70294118
0.75637255 0.75637255 0.75637255
0.8127451 0.8127451 0.8127451
0.84509804 0.84509804 0.84509804
0.86029412 0.86029412 0.86029412
0.65686275 0.65686275 0.65686275
0.64215686 0.64215686 0.64215686
0.66764706 0.66764706 0.66764706
0.6807598 0.6807598 0.6807598
0.73529412 0.73529412 0.73529412
0.82696078 0.82696078 0.82696078
0.86176471 0.86176471 0.86176471
0.89264706 0.89264706 0.89264706
0.90784314 0.90784314 0.90784314
0.82598039 0.82598039 0.82598039
0.82849265 0.82849265 0.82849265
0.82928922 0.82928922 0.82928922
0.83333333 0.83333333 0.83333333
0.84117647 0.84117647 0.84117647
0.88480392 0.88480392 0.88480392
0.91433824 0.91433824 0.91433824
0.93731618 0.93731618 0.93731618
0.9372549 0.9372549 0.9372549
0.92941176 0.92941176 0.92941176
0.89411765 0.89411765 0.89411765
0.92058824 0.92058824 0.92058824
0.92156863 0.92156863 0.92156863
0.93529412 0.93529412 0.93529412
0.93872549 0.93872549 0.93872549
0.95392157 0.95392157 0.95392157
0.95686275 0.95686275 0.95686275
0.94509804 0.94509804 0.94509804
