site/assets/luts/natron-haldclut--fuji-provia-400f--663fb3bee.cube
# LUTr-Project: LUTr — LUTrepository
# LUTr-Schema-Version: 1
# LUTr-ID: natron-haldclut--fuji-provia-400f--663fb3bee
# LUTr-Title: fuji provia 400f
# LUTr-Collection: Natron HaldCLUT
# LUTr-Collection-ID: natron-haldclut-presets
# LUTr-Source: https://github.com/NatronGitHub/clut
# LUTr-Source-File: submissions/natron-haldclut-presets/colorslide/fuji_provia_400f.png
# LUTr-Source-Format: PNG
# LUTr-Source-SHA256: 9cd489cbad71513cc7e9b5e4126b68f4148c2b42d7394f511fd8d0d28f271ad9
# LUTr-License: CC-BY-SA-4.0
# LUTr-License-URL: https://github.com/NatronGitHub/clut#license
# LUTr-Tags: creative, film, film-emulation, hald-clut, natron, png, cube
# LUTr-Transform-Class: film-emulation
# LUTr-Input-Color-Space: srgb
# LUTr-Output-Color-Space: srgb
# LUTr-Color-Space-Confidence: assumed-display-referred
# LUTr-Conversion-Method: PNG LUT image decoded at 16-bit and sampled to 25x25x25 3D CUBE
# LUTr-Conversion-Date: 2026-07-27
# LUTr-Conversion-Tool: LUTr scripts/convert-all-to-cube.mjs
# LUTr-Conversion-Grid: 25x25x25
# LUTr-Note: Preserve this metadata and the upstream license notices when redistributing.
TITLE "fuji provia 400f"
LUT_3D_SIZE 25
DOMAIN_MIN 0 0 0
DOMAIN_MAX 1 1 1
0.0078431373 0.0078431373 0
0.024509804 0.011764706 0.006372549
0.045098039 0.015686275 0.0088235294
0.065686275 0.015686275 0.011764706
0.092156863 0.015686275 0.011764706
0.12303922 0.011764706 0.0078431373
0.15392157 0.0078431373 0.0049019608
0.1877451 0.0014705882 0
0.23921569 0.011764706 0.0039215686
0.28823529 0.018137255 0.0039215686
0.33823529 0.024509804 0.0039215686
0.38970588 0.030882353 0.0039215686
0.43529412 0.035294118 0.0039215686
0.48039216 0.039215686 0.0039215686
0.5254902 0.043137255 0.0039215686
0.56666667 0.044607843 0.0039215686
0.60392157 0.047058824 0
0.64264706 0.047058824 0
0.67352941 0.050980392 0
0.70441176 0.050980392 0
0.73921569 0.054901961 0
0.77009804 0.058823529 0
0.80392157 0.058823529 0
0.83431373 0.062745098 0
0.85882353 0.066666667 0
0.0088235294 0.015196078 0.0049019608
0.030330882 0.020036765 0.0097426471
0.052083333 0.025122549 0.014828431
0.075980392 0.03057598 0.018137255
0.10245098 0.032352941 0.019362745
0.13284314 0.030882353 0.018137255
0.16213235 0.029044118 0.012377451
0.19901961 0.026960784 0.009375
0.24166667 0.024509804 0.0078431373
0.29068627 0.027512255 0.0078431373
0.33823529 0.030882353 0.0078431373
0.38970588 0.037254902 0.0078431373
0.43529412 0.041666667 0.0078431373
0.48039216 0.045588235 0.0078431373
0.52156863 0.047058824 0.0067401961
0.5627451 0.049509804 0.0039215686
0.60392157 0.049509804 0.0039215686
0.64264706 0.047058824 0
0.67352941 0.050980392 0
0.70441176 0.050980392 0
0.73921569 0.054901961 0
0.77009804 0.058823529 0
0.80392157 0.058823529 0
0.83523284 0.062745098 0
0.85882353 0.066666667 0
0.033333333 0.05 0.025490196
0.043259804 0.05 0.029044118
0.065686275 0.054901961 0.032598039
0.08627451 0.057843137 0.033333333
0.11323529 0.057843137 0.031862745
0.14362745 0.057843137 0.027083333
0.1745098 0.057107843 0.019852941
0.21115196 0.053921569 0.016666667
0.25588235 0.05 0.015686275
0.29705882 0.049019608 0.015686275
0.34289216 0.049019608 0.015686275
0.38982843 0.048039216 0.012745098
0.43529412 0.049509804 0.012745098
0.48039216 0.050980392 0.011397059
0.52156863 0.050980392 0.0078431373
0.56372549 0.050980392 0.0039215686
0.60490196 0.050980392 0.0039215686
0.64509804 0.050980392 0
0.67745098 0.050980392 0
0.70833333 0.050980392 0
0.73921569 0.054901961 0
0.77009804 0.058823529 0
0.80098039 0.058823529 0
0.83578431 0.062745098 0
0.85882353 0.066666667 0
0.053921569 0.080882353 0.046078431
0.060294118 0.080882353 0.046384804
0.075980392 0.084803922 0.05
0.1 0.08872549 0.046997549
0.12696078 0.087009804 0.040686275
0.15392157 0.085232843 0.031311275
0.18480392 0.084803922 0.024509804
0.225 0.081188725 0.023039216
0.26617647 0.07745098 0.023039216
0.31109069 0.074816176 0.023039216
0.35245098 0.072181373 0.023039216
0.39405637 0.069178922 0.023039216
0.43872549 0.065686275 0.019117647
0.48039216 0.061335784 0.014767157
0.52156863 0.058333333 0.011397059
0.56666667 0.054411765 0.006372549
0.60784314 0.050980392 0.0039215686
0.6463848 0.050980392 0
0.67745098 0.050980392 0
0.70833333 0.054411765 0
0.73921569 0.054901961 0
0.76666667 0.054963235 0
0.80012255 0.058823529 0
0.83186275 0.062745098 0
0.85882353 0.066666667 0
0.074509804 0.11176471 0.062745098
0.075735294 0.11176471 0.062745098
0.084803922 0.11568627 0.064705882
0.11053922 0.11568627 0.057352941
0.14019608 0.11372549 0.047058824
0.16789216 0.11176471 0.036764706
0.19852941 0.10980392 0.028431373
0.2379902 0.10784314 0.02745098
0.28039216 0.10588235 0.02745098
0.32156863 0.10392157 0.029411765
0.3627451 0.1 0.029411765
0.40196078 0.096568627 0.029411765
0.44215686 0.092156863 0.024509804
0.48259804 0.084068627 0.019607843
0.5254902 0.07745098 0.015686275
0.56666667 0.069117647 0.010294118
0.60784314 0.058823529 0.0039215686
0.64901961 0.051715686 0
0.67892157 0.050980392 0
0.70661765 0.050980392 0
0.73431373 0.050980392 0
0.7625 0.053186275 0
0.79705882 0.057843137 0
0.83186275 0.062745098 0
0.85490196 0.066666667 0
0.086764706 0.15196078 0.083823529
0.086764706 0.15539216 0.083823529
0.097916667 0.15539216 0.086397059
0.125 0.15238971 0.076470588
0.15563725 0.1497549 0.066176471
0.18278186 0.14362745 0.051531863
0.20980392 0.13713235 0.035171569
0.2495098 0.13970588 0.036764706
0.29068627 0.13970588 0.040196078
0.32843137 0.13921569 0.040196078
0.36960784 0.13529412 0.038848039
0.41421569 0.13094363 0.035784314
0.45539216 0.1252451 0.029411765
0.49313725 0.11862745 0.020036765
0.53394608 0.10833333 0.015686275
0.575 0.098529412 0.010294118
0.61617647 0.088235294 0.0039215686
0.65441176 0.077634804 0.0017769608
0.68088235 0.063235294 0.00049019608
0.70490196 0.055453431 0
0.73137255 0.05122549 0
0.76231618 0.05189951 0
0.79705882 0.058823529 0
0.83186275 0.062745098 0
0.85882353 0.066666667 0
0.090196078 0.20686275 0.11470588
0.092647059 0.20686275 0.11470588
0.11470588 0.20686275 0.11470588
0.14301471 0.20686275 0.10992647
0.17254902 0.20441176 0.1004902
0.1995098 0.19889706 0.086642157
0.23039216 0.19583333 0.078431373
0.26372549 0.19117647 0.070588235
0.30392157 0.19117647 0.067647059
0.34509804 0.1872549 0.064705882
0.38627451 0.18014706 0.062745098
0.42487745 0.17291667 0.053431373
0.46568627 0.1627451 0.041176471
0.50686275 0.15257353 0.025980392
0.54803922 0.14313725 0.012745098
0.58823529 0.13578431 0.0078431373
0.62647059 0.1254902 0.0039215686
0.65833333 0.10980392 0.0039215686
0.6875 0.093137255 0.0039215686
0.71176471 0.077328431 0.0039215686
0.7377451 0.066176471 0
0.76911765 0.067279412 0
0.80073529 0.065441176 0
0.83517157 0.062745098 0
0.8627451 0.066666667 0
0.08627451 0.26372549 0.14166667
0.099938725 0.26280637 0.14166667
0.12990196 0.2622549 0.14166667
0.16078431 0.2622549 0.14166667
0.18921569 0.25906863 0.13259804
0.21617647 0.25802696 0.1254902
0.24705882 0.25257353 0.11666667
0.28186275 0.24656863 0.11029412
0.31911765 0.24264706 0.10392157
0.36029412 0.24019608 0.096078431
0.40147059 0.23419118 0.086397059
0.44264706 0.225 0.077941176
0.48137255 0.21323529 0.061764706
0.52254902 0.19901961 0.045098039
0.56262255 0.18480392 0.024509804
0.60251225 0.17303922 0.0072916667
0.64068627 0.16127451 0
0.66672794 0.14368873 0.003002451
0.69362745 0.12610294 0.0039215686
0.72156863 0.10735294 0.0039215686
0.74852941 0.095833333 0
0.77941176 0.092647059 0
0.81029412 0.085661765 0
0.83970588 0.075980392 0
0.86911765 0.068137255 0
0.082352941 0.32156863 0.16862745
0.10931373 0.31764706 0.17107843
0.14019608 0.31666667 0.16862745
0.175 0.31372549 0.16862745
0.20588235 0.31372549 0.16666667
0.23676471 0.31323529 0.16078431
0.26764706 0.30686275 0.15392157
0.29852941 0.3004902 0.14901961
0.33333333 0.29411765 0.14117647
0.3745098 0.29019608 0.13333333
0.41666667 0.28921569 0.12058824
0.46078431 0.28627451 0.11029412
0.50196078 0.2745098 0.094117647
0.53921569 0.25833333 0.073529412
0.58039216 0.24411765 0.052941176
0.61764706 0.22843137 0.030882353
0.65098039 0.20784314 0.015686275
0.6754902 0.18333333 0.011764706
0.70098039 0.1627451 0.010784314
0.73186275 0.14215686 0.0044117647
0.75882353 0.12352941 0
0.78921569 0.11715686 0
0.81666667 0.10686275 0.0039215686
0.84215686 0.096568627 0.0039215686
0.85882353 0.082352941 0.0039215686
0.11029412 0.37303922 0.20588235
0.12843137 0.3721201 0.20343137
0.16078431 0.36911765 0.20343137
0.19381127 0.36911765 0.20214461
0.22769608 0.36642157 0.1995098
0.26127451 0.36470588 0.19540441
0.28884804 0.35833333 0.19056373
0.31911765 0.3528799 0.18535539
0.35392157 0.34558824 0.17990196
0.39117647 0.34258578 0.17205882
0.43382353 0.34166667 0.16115196
0.475 0.33805147 0.14540441
0.51862745 0.3370098 0.13014706
0.55980392 0.32794118 0.11470588
0.59742647 0.31433824 0.094117647
0.63339461 0.29656863 0.074448529
0.66372549 0.27598039 0.063235294
0.68970588 0.25147059 0.056862745
0.71519608 0.22598039 0.046568627
0.74246324 0.19509804 0.032536765
0.77034314 0.16544118 0.01495098
0.79558824 0.14479167 0.0088235294
0.81617647 0.12696078 0.010294118
0.83823529 0.10931373 0.0078431373
0.85490196 0.092647059 0.0039215686
0.15294118 0.42058824 0.24607843
0.16776961 0.4245098 0.24313725
0.1870098 0.42377451 0.23897059
0.21973039 0.42058824 0.23566176
0.25098039 0.42058824 0.23431373
0.28186275 0.41666667 0.22990196
0.3127451 0.40980392 0.22352941
0.33970588 0.40490196 0.22144608
0.37058824 0.40098039 0.21568627
0.40784314 0.39705882 0.20931373
0.44901961 0.39313725 0.19877451
0.49313725 0.39313725 0.18394608
0.53431373 0.38921569 0.16813725
0.5754902 0.38529412 0.15110294
0.61372549 0.37843137 0.13137255
0.6495098 0.36470588 0.11556373
0.67941176 0.34411765 0.10980392
0.70453431 0.32107843 0.10343137
0.73259804 0.29803922 0.094117647
0.76041667 0.27071078 0.080269608
0.7877451 0.24705882 0.065686275
0.80943627 0.21372549 0.049632353
0.82745098 0.17377451 0.030882353
0.84705882 0.14362745 0.01875
0.86372549 0.12058824 0.0088235294
0.19068627 0.47205882 0.28088235
0.20520833 0.4723652 0.27843137
0.22401961 0.47254902 0.27340686
0.24460784 0.47205882 0.26911765
0.2754902 0.47205882 0.26519608
0.30545343 0.46770833 0.26078431
0.33333333 0.46384804 0.25735294
0.36243873 0.45882353 0.25557598
0.39117647 0.45588235 0.25294118
0.42628676 0.44981618 0.24656863
0.46617647 0.44840686 0.23627451
0.50735294 0.44460784 0.2221201
0.54852941 0.44068627 0.20588235
0.58964461 0.43676471 0.18921569
0.62781863 0.43284314 0.17254902
0.6627451 0.42696078 0.15863971
0.69362745 0.4127451 0.15490196
0.72058824 0.39185049 0.15067402
0.74742647 0.37009804 0.14166667
0.7745098 0.34656863 0.13137255
0.80147059 0.3254902 0.11348039
0.82745098 0.29693627 0.095098039
0.84509804 0.24889706 0.068504902
0.86470588 0.18841912 0.035968137
0.88137255 0.14411765 0.011764706
0.21764706 0.51960784 0.30784314
0.23112745 0.51960784 0.30588235
0.25098039 0.52156863 0.30392157
0.27156863 0.52328431 0.3
0.29607843 0.52058824 0.29509804
0.32696078 0.51740196 0.29166667
0.35441176 0.51568627 0.28823529
0.38480392 0.51176471 0.29019608
0.41176471 0.50784314 0.28823529
0.44583333 0.50392157 0.28382353
0.48235294 0.5 0.27352941
0.52156863 0.49607843 0.25955882
0.5627451 0.49215686 0.24411765
0.60196078 0.48823529 0.22696078
0.64117647 0.48431373 0.2127451
0.67573529 0.48039216 0.20514706
0.70392157 0.47058824 0.2
0.73480392 0.45514706 0.19362745
0.76127451 0.43823529 0.18921569
0.78872549 0.42058824 0.17352941
0.81764706 0.39803922 0.15588235
0.84460784 0.37892157 0.13651961
0.86568627 0.33529412 0.1127451
0.87818627 0.27279412 0.0875
0.89607843 0.21960784 0.052941176
0.24117647 0.56666667 0.33480392
0.26127451 0.56666667 0.33480392
0.27830882 0.56678922 0.33088235
0.29852941 0.57015931 0.32745098
0.31862745 0.56887255 0.32279412
0.34754902 0.56709559 0.32303922
0.3754902 0.56409314 0.32303922
0.40539216 0.56145833 0.32303922
0.43235294 0.55539216 0.32303922
0.46323529 0.55275735 0.31666667
0.49767157 0.54754902 0.30931373
0.53578431 0.54411765 0.29607843
0.5752451 0.54362745 0.28014706
0.61464461 0.53970588 0.26721814
0.65245098 0.53578431 0.25392157
0.68333333 0.53186275 0.24754902
0.71421569 0.52794118 0.24117647
0.74509804 0.51390931 0.23480392
0.77205882 0.49852941 0.22708333
0.80294118 0.47843137 0.21029412
0.83014706 0.46151961 0.19191176
0.86078431 0.44558824 0.17401961
0.88578431 0.4245098 0.15772059
0.89460784 0.37598039 0.14166667
0.90245098 0.33480392 0.125
0.27941176 0.60784314 0.36960784
0.29509804 0.60784314 0.36862745
0.31495098 0.61176471 0.36568627
0.33247549 0.61176471 0.36213235
0.3495098 0.61176471 0.35539216
0.37107843 0.61176471 0.35392157
0.39901961 0.60857843 0.35392157
0.42598039 0.6057598 0.35392157
0.45294118 0.6 0.35392157
0.48382353 0.59718137 0.34754902
0.51495098 0.59583333 0.3372549
0.55036765 0.59509804 0.32990196
0.58872549 0.59509804 0.31666667
0.62830882 0.59375 0.30539216
0.6627451 0.5879902 0.29509804
0.69362745 0.58517157 0.28872549
0.7245098 0.58333333 0.28235294
0.75539216 0.57205882 0.27598039
0.78235294 0.55465686 0.2625
0.81323529 0.53713235 0.24767157
0.84215686 0.52009804 0.23137255
0.87107843 0.50392157 0.21519608
0.89754902 0.48921569 0.20784314
0.90821078 0.47512255 0.2064951
0.9127451 0.44901961 0.19705882
0.31813725 0.64901961 0.40588235
0.32935049 0.64901961 0.4028799
0.34901961 0.65294118 0.4004902
0.36832108 0.65294118 0.39675245
0.38357843 0.65294118 0.39142157
0.40147059 0.65294118 0.38872549
0.42389706 0.65294118 0.38872549
0.44901961 0.64901961 0.38480392
0.47352941 0.64509804 0.38480392
0.50441176 0.64117647 0.37843137
0.53529412 0.64154412 0.3685049
0.57009804 0.64479167 0.36176471
0.60490196 0.64852941 0.35416667
0.63823529 0.64656863 0.34528186
0.67156863 0.64154412 0.33627451
0.70392157 0.63872549 0.32898284
0.73480392 0.63480392 0.31960784
0.76715686 0.62898284 0.31323529
0.79558824 0.61323529 0.30085784
0.82352941 0.59411765 0.28872549
0.8504902 0.57598039 0.2752451
0.88118873 0.55716912 0.26176471
0.90539216 0.54313725 0.25502451
0.92506127 0.53584559 0.25686275
0.92990196 0.53039216 0.25441176
0.35686275 0.69019608 0.44313725
0.36715686 0.69019608 0.43676471
0.38529412 0.69411765 0.43431373
0.3995098 0.69411765 0.42794118
0.41568627 0.69411765 0.42352941
0.43235294 0.69411765 0.41960784
0.44901961 0.69411765 0.41960784
0.46960784 0.69019608 0.41568627
0.49411765 0.68627451 0.41568627
0.52107843 0.68627451 0.40931373
0.55588235 0.68627451 0.4
0.59019608 0.68970588 0.39264706
0.62156863 0.69019608 0.38627451
0.65245098 0.68970588 0.37990196
0.68333333 0.68627451 0.37352941
0.71421569 0.68235294 0.36470588
0.74901961 0.68235294 0.35686275
0.77990196 0.67990196 0.3504902
0.80588235 0.66862745 0.34411765
0.83382353 0.65147059 0.33382353
0.86078431 0.63137255 0.31960784
0.8877451 0.61470588 0.30931373
0.91568627 0.60098039 0.30196078
0.94019608 0.59215686 0.30588235
0.95294118 0.58823529 0.30588235
0.38921569 0.72745098 0.47156863
0.40104167 0.72892157 0.46672794
0.41617647 0.72953431 0.4622549
0.43039216 0.73137255 0.45851716
0.44656863 0.73137255 0.45637255
0.4627451 0.73137255 0.45392157
0.47696078 0.73247549 0.4504902
0.49411765 0.73137255 0.44656863
0.51470588 0.72745098 0.44264706
0.54166667 0.72745098 0.43627451
0.57647059 0.72745098 0.42990196
0.60520833 0.72745098 0.42352941
0.63578431 0.72745098 0.42034314
0.66488971 0.72714461 0.41470588
0.69362745 0.72352941 0.40796569
0.7245098 0.72107843 0.40104167
0.75931373 0.72107843 0.39558824
0.7877451 0.71960784 0.38866422
0.81617647 0.71470588 0.38137255
0.84068627 0.70079657 0.37254902
0.86985294 0.68553922 0.36470588
0.89773284 0.66881127 0.35441176
0.925 0.65637255 0.35098039
0.9504902 0.64607843 0.35098039
0.96715686 0.63970588 0.34852941
0.41862745 0.76372549 0.49607843
0.42892157 0.76470588 0.49252451
0.44411765 0.76470588 0.48921569
0.46078431 0.76764706 0.48835784
0.4754902 0.76813725 0.48529412
0.49007353 0.76862745 0.48394608
0.50612745 0.77156863 0.48063725
0.52144608 0.77156863 0.47598039
0.53921569 0.76862745 0.46960784
0.56556373 0.76862745 0.46568627
0.59289216 0.76862745 0.46176471
0.62046569 0.76862745 0.45882353
0.65 0.76470588 0.45637255
0.67696078 0.76458333 0.4504902
0.70563725 0.76078431 0.44387255
0.73872549 0.76078431 0.43884804
0.76960784 0.75980392 0.43137255
0.79865196 0.75686275 0.42683824
0.82647059 0.75294118 0.41862745
0.85098039 0.74558824 0.41090686
0.87892157 0.73382353 0.40147059
0.90441176 0.72156863 0.39203431
0.93210784 0.70784314 0.38823529
0.95686275 0.70147059 0.38431373
0.97647059 0.69509804 0.38333333
0.4495098 0.80196078 0.52058824
0.45980392 0.80196078 0.51795343
0.47401961 0.80196078 0.51654412
0.48823529 0.80238971 0.51617647
0.50269608 0.80245098 0.51617647
0.51715686 0.80594363 0.5122549
0.53137255 0.80637255 0.50931373
0.546875 0.80637255 0.50441176
0.55980392 0.80637255 0.5004902
0.58302696 0.80980392 0.49656863
0.60894608 0.80894608 0.49656863
0.63376225 0.80594363 0.49307598
0.6620098 0.80588235 0.49044118
0.6872549 0.80196078 0.4877451
0.71813725 0.79901961 0.48051471
0.74901961 0.79803922 0.47518382
0.77990196 0.79803922 0.46862745
0.80833333 0.79430147 0.46256127
0.83676471 0.79056373 0.45588235
0.86127451 0.78676471 0.44601716
0.8877451 0.78210784 0.43921569
0.91427696 0.77303922 0.43284314
0.93872549 0.75931373 0.42647059
0.96501225 0.75294118 0.42028186
0.98382353 0.74656863 0.41813725
0.47647059 0.8372549 0.54705882
0.48676471 0.8372549 0.54705882
0.49901961 0.8372549 0.54705882
0.51127451 0.8372549 0.54705882
0.52352941 0.83921569 0.54705882
0.53602941 0.83921569 0.54705882
0.55147059 0.84117647 0.54313725
0.56617647 0.84117647 0.53848039
0.58431373 0.84313725 0.53137255
0.60490196 0.84509804 0.53137255
0.62941176 0.84509804 0.53088235
0.65171569 0.84509804 0.52769608
0.67745098 0.84313725 0.5254902
0.70122549 0.84093137 0.52132353
0.72843137 0.8377451 0.51617647
0.75931373 0.83529412 0.50906863
0.79019608 0.83529412 0.50392157
0.81715686 0.83137255 0.49681373
0.84558824 0.83088235 0.49117647
0.87156863 0.82745098 0.48284314
0.89803922 0.82745098 0.47647059
0.9245098 0.825 0.47058824
0.94901961 0.81470588 0.46372549
0.975 0.80710784 0.45735294
0.99411765 0.80392157 0.45294118
0.50784314 0.87254902 0.57401961
0.51764706 0.87254902 0.57775735
0.52794118 0.87340686 0.57794118
0.53823529 0.87640931 0.58137255
0.54852941 0.87598039 0.58186275
0.55833333 0.87254902 0.5783701
0.56862745 0.87254902 0.57794118
0.58823529 0.87647059 0.57009804
0.60882353 0.88039216 0.56617647
0.62941176 0.88039216 0.5622549
0.65 0.88039216 0.5622549
0.67101716 0.88039216 0.5622549
0.69509804 0.87990196 0.55833333
0.7161152 0.87647059 0.55441176
0.74019608 0.87610294 0.55061275
0.76942402 0.87254902 0.54528186
0.79656863 0.87254902 0.53921569
0.82745098 0.87205882 0.53498775
0.85441176 0.86862745 0.52745098
0.88137255 0.86819853 0.52009804
0.90637255 0.86813725 0.51544118
0.93131127 0.86770833 0.50778186
0.95490196 0.86164216 0.50085784
0.98069853 0.85539216 0.49430147
0.99558824 0.85294118 0.49215686
0.54215686 0.90980392 0.60490196
0.54852941 0.90980392 0.60551471
0.55882353 0.91372549 0.60882353
0.56911765 0.91372549 0.60882353
0.57598039 0.9122549 0.6127451
0.58186275 0.90980392 0.6122549
0.59509804 0.91053922 0.60588235
0.61176471 0.91409314 0.60098039
0.62941176 0.91764706 0.59705882
0.65294118 0.91764706 0.59313725
0.6745098 0.91764706 0.59313725
0.69509804 0.91764706 0.59313725
0.71568627 0.91470588 0.59117647
0.73627451 0.91470588 0.58909314
0.75686275 0.91372549 0.58455882
0.77953431 0.91041667 0.57928922
0.80686275 0.90980392 0.57647059
0.83529412 0.90980392 0.57254902
0.86372549 0.90661765 0.56764706
0.88823529 0.90588235 0.56090686
0.91323529 0.90245098 0.55147059
0.93431373 0.89901961 0.54203431
0.95490196 0.89901961 0.5375
0.97647059 0.89803922 0.53333333
0.98921569 0.89803922 0.53333333
0.57696078 0.94705882 0.63578431
0.57696078 0.94859069 0.63578431
0.58578431 0.95098039 0.63860294
0.59460784 0.9495098 0.63970588
0.5997549 0.94558824 0.63823529
0.60753676 0.94577206 0.63823529
0.62156863 0.9495098 0.63468137
0.63633578 0.95189951 0.63039216
0.65392157 0.95490196 0.62401961
0.6745098 0.95490196 0.62401961
0.69473039 0.95343137 0.62401961
0.71176471 0.94969363 0.62254902
0.73088235 0.95220588 0.62328431
0.75165441 0.9536152 0.62401961
0.77352941 0.95379902 0.62046569
0.79656863 0.94859069 0.61470588
0.81862745 0.94313725 0.60980392
0.84466912 0.94313725 0.60833333
0.87107843 0.94497549 0.60551471
0.89803922 0.94185049 0.59852941
0.91911765 0.9372549 0.58823529
0.93952206 0.93529412 0.57824755
0.95882353 0.93921569 0.5745098
0.97941176 0.94552696 0.5745098
0.98970588 0.94460784 0.57303922
0.60392157 0.98039216 0.65882353
0.60637255 0.98039216 0.66127451
0.60882353 0.98039216 0.6627451
0.61176471 0.97647059 0.65882353
0.61764706 0.97254902 0.65882353
0.62794118 0.97254902 0.65833333
0.64117647 0.9754902 0.65490196
0.65637255 0.98186275 0.65490196
0.6745098 0.99215686 0.65490196
0.68872549 0.98186275 0.64852941
0.70686275 0.97647059 0.64607843
0.7245098 0.97647059 0.64313725
0.74117647 0.97647059 0.64509804
0.7622549 0.98088235 0.64705882
0.78627451 0.98431373 0.64705882
0.80686275 0.97892157 0.64166667
0.83137255 0.97254902 0.63529412
0.85196078 0.96862745 0.63529412
0.87745098 0.96862745 0.63137255
0.90441176 0.97205882 0.62745098
0.9254902 0.97058824 0.62156863
0.94558824 0.96862745 0.61176471
0.9627451 0.97254902 0.60784314
0.98480392 0.98578431 0.60784314
1 0.98823529 0.60784314
0.014215686 0.011764706 0.012745098
0.024509804 0.011764706 0.010294118
0.041176471 0.015686275 0.011764706
0.061764706 0.015686275 0.011764706
0.083088235 0.013235294 0.011764706
0.1127451 0.011458333 0.0078431373
0.14546569 0.0078431373 0.0049019608
0.1877451 0.0069240196 0.006372549
0.23921569 0.011764706 0.006372549
0.29068627 0.019056373 0.006372549
0.33823529 0.026348039 0.0078431373
0.38970588 0.033517157 0.0078431373
0.4372549 0.039215686 0.0078431373
0.48039216 0.039705882 0.0060661765
0.52267157 0.043137255 0.0039215686
0.56666667 0.044607843 0.0039215686
0.60784314 0.047058824 0
0.64509804 0.047058824 0
0.67352941 0.050980392 0
0.70441176 0.050980392 0
0.7379902 0.054901961 0
0.77009804 0.055392157 0
0.80392157 0.058823529 0
0.83578431 0.062745098 0
0.85882353 0.066666667 0
0.016666667 0.020036765 0.018198529
0.027879902 0.023268995 0.018772978
0.04754902 0.02801777 0.019255515
0.069607843 0.03057598 0.021277574
0.093382353 0.031433824 0.020588235
0.12303922 0.030882353 0.018137255
0.15683211 0.028431373 0.014215686
0.1969133 0.026041667 0.013664216
0.24258578 0.024509804 0.010294118
0.29126072 0.028086703 0.010294118
0.34114583 0.031571691 0.010294118
0.38970588 0.037438725 0.010294118
0.43529412 0.041666667 0.0090686275
0.48039216 0.045588235 0.0078431373
0.52156863 0.047058824 0.0074295343
0.5627451 0.049509804 0.0039215686
0.60392157 0.049509804 0.0039215686
0.64322151 0.047058824 0
0.67352941 0.050980392 0
0.70441176 0.050980392 0
0.7372549 0.054901961 0
0.77009804 0.055874694 0
0.80490196 0.058823529 0
0.83578431 0.062745098 0
0.86035539 0.066666667 0
0.036151961 0.05 0.037622549
0.043627451 0.05245098 0.035784314
0.061764706 0.056280637 0.035784314
0.082674632 0.057843137 0.036887255
0.10667892 0.057843137 0.033762255
0.13628983 0.057766544 0.027849265
0.16997549 0.055484069 0.024234069
0.21078431 0.053553922 0.021599265
0.25588235 0.05 0.018504902
0.29859069 0.047181373 0.016666667
0.34451593 0.046660539 0.01629902
0.39005821 0.048039216 0.015762868
0.43529412 0.048039216 0.013664216
0.47660846 0.051960784 0.01127451
0.52049632 0.051685049 0.0078431373
0.5627451 0.051363358 0.0039215686
0.60392157 0.050980392 0.0039215686
0.64172794 0.050980392 0
0.67389706 0.050980392 0
0.70477941 0.050980392 0
0.73768382 0.053676471 0
0.77009804 0.05635723 0
0.80364583 0.058823529 0
0.83578431 0.062745098 0
0.8627451 0.066666667 0
0.057843137 0.083026961 0.054901961
0.060409007 0.084252451 0.052826287
0.072058824 0.085462623 0.052496936
0.094094669 0.086848958 0.050758272
0.12049632 0.085294118 0.043964461
0.14754902 0.084803922 0.034643076
0.18177083 0.082230392 0.029993873
0.22480852 0.080882353 0.028125
