site/assets/luts/natron-haldclut--kodak-tmax-3200--82e5cfc21.cube
# LUTr-Project: LUTr — LUTrepository
# LUTr-Schema-Version: 1
# LUTr-ID: natron-haldclut--kodak-tmax-3200--82e5cfc21
# LUTr-Title: kodak tmax 3200 +
# LUTr-Collection: Natron HaldCLUT
# LUTr-Collection-ID: natron-haldclut-presets
# LUTr-Source: https://github.com/NatronGitHub/clut
# LUTr-Source-File: submissions/natron-haldclut-presets/negative_new/kodak_tmax_3200_+.png
# LUTr-Source-Format: PNG
# LUTr-Source-SHA256: 46de86d37a368d2267e25f525d769b105e97f29d3c4b14ecbc751f723bd61273
# LUTr-License: CC-BY-SA-4.0
# LUTr-License-URL: https://github.com/NatronGitHub/clut#license
# LUTr-Tags: creative, film, film-emulation, hald-clut, natron, png, cube
# LUTr-Transform-Class: film-emulation
# LUTr-Input-Color-Space: srgb
# LUTr-Output-Color-Space: srgb
# LUTr-Color-Space-Confidence: assumed-display-referred
# LUTr-Conversion-Method: PNG LUT image decoded at 16-bit and sampled to 25x25x25 3D CUBE
# LUTr-Conversion-Date: 2026-07-27
# LUTr-Conversion-Tool: LUTr scripts/convert-all-to-cube.mjs
# LUTr-Conversion-Grid: 25x25x25
# LUTr-Note: Preserve this metadata and the upstream license notices when redistributing.
TITLE "kodak tmax 3200 +"
LUT_3D_SIZE 5
DOMAIN_MIN 0 0 0
DOMAIN_MAX 1 1 1
0.22352941 0.22352941 0.22352941
0.21960784 0.21960784 0.21960784
0.24313725 0.24313725 0.24313725
0.29117647 0.29117647 0.29117647
0.32156863 0.32156863 0.32156863
0.25392157 0.25392157 0.25392157
0.26960784 0.26960784 0.26960784
0.30196078 0.30196078 0.30196078
0.35073529 0.35073529 0.35073529
0.43921569 0.43921569 0.43921569
0.38431373 0.38431373 0.38431373
0.39313725 0.39313725 0.39313725
0.45392157 0.45392157 0.45392157
0.57892157 0.57892157 0.57892157
0.70784314 0.70784314 0.70784314
0.65980392 0.65980392 0.65980392
0.64803922 0.64803922 0.64803922
0.68480392 0.68480392 0.68480392
0.75490196 0.75490196 0.75490196
0.85294118 0.85294118 0.85294118
0.87843137 0.87843137 0.87843137
0.91176471 0.91176471 0.91176471
0.91568627 0.91568627 0.91568627
0.93333333 0.93333333 0.93333333
0.94509804 0.94509804 0.94509804
0.23137255 0.23137255 0.23137255
0.23137255 0.23137255 0.23137255
0.24705882 0.24705882 0.24705882
0.28333333 0.28333333 0.28333333
0.3372549 0.3372549 0.3372549
0.26789216 0.26789216 0.26789216
0.28241422 0.28241422 0.28241422
0.32156863 0.32156863 0.32156863
0.36568627 0.36568627 0.36568627
0.42843137 0.42843137 0.42843137
0.41715686 0.41715686 0.41715686
0.4377451 0.4377451 0.4377451
0.48529412 0.48529412 0.48529412
0.59718137 0.59718137 0.59718137
0.69803922 0.69803922 0.69803922
0.68137255 0.68137255 0.68137255
0.68529412 0.68529412 0.68529412
0.70330882 0.70330882 0.70330882
0.76151961 0.76151961 0.76151961
0.86372549 0.86372549 0.86372549
0.91372549 0.91372549 0.91372549
0.90196078 0.90196078 0.90196078
0.9 0.9 0.9
0.93333333 0.93333333 0.93333333
0.95686275 0.95686275 0.95686275
0.23529412 0.23529412 0.23529412
0.24460784 0.24460784 0.24460784
0.27941176 0.27941176 0.27941176
0.30490196 0.30490196 0.30490196
0.34509804 0.34509804 0.34509804
0.28137255 0.28137255 0.28137255
0.30392157 0.30392157 0.30392157
0.35441176 0.35441176 0.35441176
0.38786765 0.38786765 0.38786765
0.42794118 0.42794118 0.42794118
0.43627451 0.43627451 0.43627451
0.46348039 0.46348039 0.46348039
0.54460784 0.54460784 0.54460784
0.60514706 0.60514706 0.60514706
0.67254902 0.67254902 0.67254902
0.72401961 0.72401961 0.72401961
0.73480392 0.73480392 0.73480392
0.75220588 0.75220588 0.75220588
0.79313725 0.79313725 0.79313725
0.87205882 0.87205882 0.87205882
0.91568627 0.91568627 0.91568627
0.92352941 0.92352941 0.92352941
0.9254902 0.9254902 0.9254902
0.94313725 0.94313725 0.94313725
0.94901961 0.94901961 0.94901961
0.25882353 0.25882353 0.25882353
0.27352941 0.27352941 0.27352941
0.34068627 0.34068627 0.34068627
0.40416667 0.40416667 0.40416667
0.44117647 0.44117647 0.44117647
0.32132353 0.32132353 0.32132353
0.33921569 0.33921569 0.33921569
0.41666667 0.41666667 0.41666667
0.50073529 0.50073529 0.50073529
0.50294118 0.50294118 0.50294118
0.41813725 0.41813725 0.41813725
0.46862745 0.46862745 0.46862745
0.58504902 0.58504902 0.58504902
0.66666667 0.66666667 0.66666667
0.68382353 0.68382353 0.68382353
0.69411765 0.69411765 0.69411765
0.71985294 0.71985294 0.71985294
0.76862745 0.76862745 0.76862745
0.83602941 0.83602941 0.83602941
0.87181373 0.87181373 0.87181373
0.92156863 0.92156863 0.92156863
0.90784314 0.90784314 0.90784314
0.93088235 0.93088235 0.93088235
0.94215686 0.94215686 0.94215686
0.96568627 0.96568627 0.96568627
0.29803922 0.29803922 0.29803922
0.33627451 0.33627451 0.33627451
0.39607843 0.39607843 0.39607843
0.62254902 0.62254902 0.62254902
0.7254902 0.7254902 0.7254902
0.35882353 0.35882353 0.35882353
0.39607843 0.39607843 0.39607843
0.5127451 0.5127451 0.5127451
0.6754902 0.6754902 0.6754902
0.76372549 0.76372549 0.76372549
0.50784314 0.50784314 0.50784314
0.54607843 0.54607843 0.54607843
0.63235294 0.63235294 0.63235294
0.75686275 0.75686275 0.75686275
0.83333333 0.83333333 0.83333333
0.65686275 0.65686275 0.65686275
0.66764706 0.66764706 0.66764706
0.73529412 0.73529412 0.73529412
0.86176471 0.86176471 0.86176471
0.90784314 0.90784314 0.90784314
0.92941176 0.92941176 0.92941176
0.92058824 0.92058824 0.92058824
0.93529412 0.93529412 0.93529412
0.95392157 0.95392157 0.95392157
0.94509804 0.94509804 0.94509804
