site/assets/luts/natron-haldclut--fuji-provia-100f--d7f6ecd63.cube
# LUTr-Project: LUTr — LUTrepository
# LUTr-Schema-Version: 1
# LUTr-ID: natron-haldclut--fuji-provia-100f--d7f6ecd63
# LUTr-Title: fuji provia 100f
# LUTr-Collection: Natron HaldCLUT
# LUTr-Collection-ID: natron-haldclut-presets
# LUTr-Source: https://github.com/NatronGitHub/clut
# LUTr-Source-File: submissions/natron-haldclut-presets/colorslide/fuji_provia_100f.png
# LUTr-Source-Format: PNG
# LUTr-Source-SHA256: f77063246c8f98860378b9c997df5cc567b11182036265267821c2088167214d
# LUTr-License: CC-BY-SA-4.0
# LUTr-License-URL: https://github.com/NatronGitHub/clut#license
# LUTr-Tags: creative, film, film-emulation, hald-clut, natron, png, cube
# LUTr-Transform-Class: film-emulation
# LUTr-Input-Color-Space: srgb
# LUTr-Output-Color-Space: srgb
# LUTr-Color-Space-Confidence: assumed-display-referred
# LUTr-Conversion-Method: PNG LUT image decoded at 16-bit and sampled to 25x25x25 3D CUBE
# LUTr-Conversion-Date: 2026-07-27
# LUTr-Conversion-Tool: LUTr scripts/convert-all-to-cube.mjs
# LUTr-Conversion-Grid: 25x25x25
# LUTr-Note: Preserve this metadata and the upstream license notices when redistributing.
TITLE "fuji provia 100f"
LUT_3D_SIZE 25
DOMAIN_MIN 0 0 0
DOMAIN_MAX 1 1 1
0.02745098 0.062745098 0.019607843
0.050490196 0.05 0.019607843
0.081372549 0.029411765 0.011764706
0.10833333 0.0088235294 0.0044117647
0.14705882 0.0078431373 0.0098039216
0.19019608 0.024019608 0.028431373
0.23137255 0.016666667 0.021568627
0.27254902 0.0024509804 0.0049019608
0.31764706 0.019607843 0.0078431373
0.36519608 0.037745098 0.011764706
0.41176471 0.047058824 0.015686275
0.46029412 0.043627451 0.011764706
0.50784314 0.033333333 0.0078431373
0.55539216 0.019117647 0.0034313725
0.60980392 0.02254902 0.0029411765
0.66372549 0.028921569 0.0053921569
0.72156863 0.039215686 0.0078431373
0.77696078 0.047058824 0.0039215686
0.82843137 0.030392157 0.0039215686
0.88382353 0.012745098 0.00049019608
0.9372549 0 0
0.98284314 0 0
1 0.0039215686 0
0.99607843 0.0053921569 0
0.99607843 0.0078431373 0
0.02745098 0.066666667 0.017156863
0.052022059 0.051531863 0.019607843
0.083823529 0.045588235 0.018137255
0.11862745 0.041176471 0.018137255
0.15343137 0.041176471 0.02254902
0.19264706 0.043321078 0.034497549
0.23382353 0.039705882 0.027941176
0.27647059 0.037806373 0.016666667
0.32009804 0.042647059 0.014215686
0.36519608 0.059865196 0.017218137
0.41176471 0.069485294 0.019607843
0.45900735 0.05814951 0.015992647
0.50588235 0.040931373 0.0098039216
0.55275735 0.021262255 0.0021446078
0.60686275 0.024019608 0.0029411765
0.66525735 0.035294118 0.0069240196
0.72156863 0.045588235 0.0078431373
0.77696078 0.050980392 0.0039215686
0.83051471 0.035784314 0.0039215686
0.88382353 0.019117647 0.0026348039
0.93406863 0.0080882353 0.0012254902
0.96960784 0.017156863 0.0024509804
0.99485294 0.020588235 0.0024509804
0.99607843 0.020588235 0.0024509804
0.99607843 0.020588235 0.0024509804
0.025490196 0.074509804 0.018627451
0.059313725 0.078431373 0.027941176
0.094117647 0.082352941 0.032598039
0.12879902 0.082352941 0.03247549
0.16127451 0.078431373 0.034313725
0.19803922 0.081004902 0.042769608
0.23921569 0.078431373 0.037009804
0.28039216 0.078431373 0.030882353
0.32254902 0.07745098 0.024509804
0.36727941 0.086764706 0.023529412
0.41348039 0.090196078 0.023529412
0.46041667 0.077818627 0.024387255
0.50784314 0.064705882 0.021568627
0.55539216 0.055759804 0.021568627
0.61004902 0.054901961 0.017647059
0.66617647 0.055637255 0.01629902
0.72156863 0.052941176 0.0088235294
0.77696078 0.054901961 0.0014705882
0.82843137 0.047303922 0.0039215686
0.88284314 0.042156863 0.0074754902
0.92941176 0.040686275 0.0078431373
0.95821078 0.04129902 0.0047794118
0.98210784 0.045098039 0.0039215686
0.99154412 0.043995098 0.0039215686
0.99509804 0.041176471 0.0039215686
0.046078431 0.11568627 0.049509804
0.071752451 0.11960784 0.05
0.10441176 0.12352941 0.052573529
0.13529412 0.11966912 0.046568627
0.16617647 0.11789216 0.042647059
0.20196078 0.11660539 0.043137255
0.24313725 0.11960784 0.042769608
0.28431373 0.11599265 0.041176471
0.32892157 0.1122549 0.034803922
0.37058824 0.11127451 0.02745098
0.41654412 0.10870098 0.028308824
0.46378676 0.10790441 0.034742647
0.50980392 0.10392157 0.040196078
0.55931373 0.1 0.042156863
0.61335784 0.096936275 0.039215686
0.66764706 0.094607843 0.032843137
0.72156863 0.084313725 0.02254902
0.77696078 0.076164216 0.0083333333
0.82843137 0.073039216 0.0074754902
0.87990196 0.073039216 0.01127451
0.92573529 0.073039216 0.011764706
0.96127451 0.073039216 0.0078431373
0.97879902 0.073039216 0.0052696078
0.98921569 0.069117647 0.0039215686
0.99215686 0.068627451 0.0039215686
0.058823529 0.16078431 0.078431373
0.083823529 0.16078431 0.078431373
0.11470588 0.16078431 0.074509804
0.14558824 0.16078431 0.068872549
0.17254902 0.15784314 0.060784314
0.20588235 0.15686275 0.064705882
0.24411765 0.15686275 0.068627451
0.28431373 0.15416667 0.064705882
0.32941176 0.14901961 0.056862745
0.37303922 0.14705882 0.046568627
0.41666667 0.14509804 0.048039216
0.46421569 0.14705882 0.054901961
0.51176471 0.14509804 0.060784314
0.56127451 0.14117647 0.062745098
0.61470588 0.14117647 0.059803922
0.67009804 0.13455882 0.053431373
0.7254902 0.12745098 0.043137255
0.77941176 0.12230392 0.032843137
0.82843137 0.11519608 0.023529412
0.87990196 0.10980392 0.018137255
0.92745098 0.10686275 0.012745098
0.97205882 0.10392157 0.0095588235
0.99264706 0.10392157 0.0039215686
0.99607843 0.10245098 0.0039215686
0.99607843 0.1 0.0039215686
0.067156863 0.19803922 0.10294118
0.091482843 0.20018382 0.099019608
0.12107843 0.20196078 0.098039216
0.15147059 0.20196078 0.092095588
0.17892157 0.20171569 0.091666667
0.21329657 0.19797794 0.095588235
0.24718137 0.19411765 0.099387255
0.28431373 0.19234069 0.098039216
0.32598039 0.19019608 0.087254902
0.37303922 0.19019608 0.073039216
0.41703431 0.19019608 0.075490196
0.46427696 0.18676471 0.078982843
0.5122549 0.18627451 0.079411765
0.56323529 0.18578431 0.083333333
0.61764706 0.18235294 0.080269608
0.67156863 0.17714461 0.070098039
0.7254902 0.1745098 0.06372549
0.78088235 0.16685049 0.053431373
0.83235294 0.15833333 0.046568627
0.87990196 0.15147059 0.033272059
0.93137255 0.14509804 0.022058824
0.98241422 0.13915441 0.0077818627
1 0.13529412 0.0039215686
1 0.13529412 0.0056985294
1 0.13480392 0.0078431373
0.074509804 0.23921569 0.12058824
0.09754902 0.23921569 0.11960784
0.1245098 0.24313725 0.11960784
0.15539216 0.24313725 0.11862745
0.18529412 0.23970588 0.11911765
0.21752451 0.23615196 0.12267157
0.25171569 0.23308824 0.12647059
0.28823529 0.23137255 0.12205882
0.33235294 0.23137255 0.10784314
0.37634804 0.23431373 0.095710784
0.42034314 0.23137255 0.096078431
0.46813725 0.22794118 0.099632353
0.51715686 0.22745098 0.1
0.56715686 0.22732843 0.1
0.61862745 0.22352941 0.096323529
0.67401961 0.21960784 0.090686275
0.7254902 0.21568627 0.080392157
0.78088235 0.21115196 0.072916667
0.83235294 0.20294118 0.06372549
0.88039216 0.19558824 0.050857843
0.93137255 0.1877451 0.035784314
0.97941176 0.18296569 0.024019608
0.99926471 0.17720588 0.014705882
1 0.17647059 0.014705882
1 0.17647059 0.014705882
0.078431373 0.28039216 0.14019608
0.099938725 0.28039216 0.13872549
0.12843137 0.28039216 0.14019608
0.15931373 0.28039216 0.14148284
0.19166667 0.28039216 0.14485294
0.225 0.27647059 0.14822304
0.25735294 0.27254902 0.14840686
0.2966299 0.27254902 0.14209559
0.33872549 0.27401961 0.12843137
0.38235294 0.27647059 0.11568627
0.42745098 0.27585784 0.11666667
0.47224265 0.27401961 0.11666667
0.52034314 0.27401961 0.12058824
0.57107843 0.27254902 0.12058824
0.62193627 0.27071078 0.11764706
0.67457108 0.265625 0.10735294
0.72941176 0.26078431 0.097058824
0.78333333 0.25533088 0.089215686
0.83529412 0.2495098 0.080392157
0.88382353 0.24166667 0.066482843
0.93063725 0.23602941 0.056617647
0.97254902 0.23069853 0.049203431
0.99301471 0.22585784 0.032352941
0.99908088 0.22156863 0.025
1 0.22156863 0.021078431
0.074509804 0.3254902 0.15686275
0.10147059 0.32156863 0.15686275
0.13235294 0.32156863 0.16078431
0.16323529 0.32156863 0.16470588
0.19607843 0.31764706 0.16862745
0.22892157 0.31764706 0.17254902
0.2627451 0.31764706 0.16960784
0.3 0.31764706 0.15931373
0.34117647 0.31764706 0.15294118
0.38235294 0.32009804 0.14264706
0.42745098 0.32156863 0.14019608
0.47254902 0.32156863 0.14068627
0.52156863 0.32156863 0.14117647
0.57107843 0.32156863 0.14117647
0.62254902 0.31764706 0.13823529
0.67794118 0.3122549 0.12794118
0.73333333 0.30588235 0.11764706
0.78480392 0.30196078 0.10735294
0.83627451 0.29705882 0.097058824
0.88382353 0.29068627 0.086764706
0.9254902 0.28627451 0.080392157
0.96568627 0.28186275 0.070098039
0.98333333 0.2745098 0.052941176
0.99362745 0.26911765 0.03627451
1 0.26666667 0.031372549
0.087254902 0.36666667 0.17745098
0.10784314 0.36666667 0.18082108
0.13627451 0.36629902 0.18419118
0.16715686 0.36519608 0.18903186
0.19926471 0.36519608 0.19240196
0.23137255 0.3627451 0.19313725
0.26372549 0.36127451 0.19313725
0.3 0.36127451 0.18719363
0.34117647 0.36127451 0.17990196
0.38480392 0.3627451 0.17261029
0.43026961 0.36519608 0.16752451
0.47628676 0.36666667 0.16207108
0.52352941 0.36666667 0.16176471
0.57322304 0.36666667 0.16176471
0.62610294 0.36335784 0.1560049
0.68094363 0.35827206 0.14852941
0.73333333 0.35343137 0.13823529
0.7872549 0.3495098 0.12794118
0.83872549 0.34669118 0.12107843
0.8841299 0.34185049 0.11372549
0.9247549 0.33578431 0.10539216
0.96029412 0.32990196 0.09442402
0.97843137 0.32303922 0.075980392
0.98970588 0.31813725 0.052941176
1 0.31421569 0.035294118
0.10784314 0.41176471 0.20686275
0.12058824 0.41237745 0.20686275
0.14411765 0.41348039 0.20980392
0.17107843 0.41568627 0.21335784
0.20196078 0.41421569 0.21421569
0.23676471 0.4127451 0.2127451
0.26838235 0.40980392 0.21348039
0.30281863 0.40845588 0.20980392
0.34509804 0.40784314 0.20588235
0.3872549 0.40845588 0.2004902
0.43308824 0.40955882 0.19485294
0.48002451 0.41176471 0.1877451
0.52745098 0.41176471 0.18284314
0.57598039 0.41176471 0.1810049
0.62965686 0.40808824 0.1752451
0.68223039 0.40490196 0.16666667
0.7372549 0.40098039 0.15980392
0.79264706 0.39705882 0.15306373
0.84411765 0.39607843 0.14803922
0.89178922 0.39313725 0.14460784
0.93382353 0.38921569 0.13823529
0.97058824 0.38480392 0.12659314
0.98676471 0.37745098 0.10686275
0.99362745 0.36960784 0.087254902
0.99901961 0.36568627 0.075490196
0.11372549 0.46029412 0.23039216
0.13008578 0.46029412 0.22910539
0.1504902 0.46078431 0.23394608
0.175 0.46421569 0.23817402
0.20588235 0.46421569 0.23627451
0.24025735 0.46421569 0.23039216
0.27414216 0.46127451 0.23039216
0.30998775 0.46011029 0.22910539
0.34901961 0.45637255 0.22696078
0.39362745 0.45637255 0.22647059
0.43884804 0.45637255 0.22156863
0.48425245 0.45686275 0.2151348
0.53137255 0.45637255 0.20833333
0.58235294 0.45294118 0.19901961
0.63382353 0.45294118 0.19509804
0.68578431 0.45245098 0.19099265
0.74117647 0.44901961 0.18676471
0.79264706 0.44607843 0.18039216
0.84411765 0.44460784 0.17806373
0.89515931 0.44460784 0.175
0.94068627 0.44240196 0.16740196
0.9778799 0.43670343 0.15447304
0.99166667 0.42990196 0.13125
0.99577206 0.42481618 0.10637255
1 0.42058824 0.090196078
0.11960784 0.51176471 0.24705882
0.1370098 0.51053922 0.25098039
0.15686275 0.50980392 0.25735294
0.17720588 0.51348039 0.2625
0.20882353 0.51176471 0.25882353
0.24460784 0.51176471 0.25098039
0.27892157 0.51176471 0.24558824
0.31764706 0.51176471 0.24705882
0.35686275 0.51176471 0.24705882
0.39803922 0.51176471 0.24705882
0.44166667 0.51176471 0.24656863
0.4879902 0.51176471 0.23970588
0.53627451 0.50980392 0.23431373
0.58480392 0.50784314 0.22892157
0.63627451 0.50392157 0.22156863
0.68848039 0.50245098 0.21691176
0.74117647 0.5 0.21176471
0.79656863 0.49607843 0.20661765
0.84803922 0.49607843 0.20147059
0.89754902 0.49607843 0.19632353
0.94509804 0.49607843 0.18627451
0.98357843 0.49191176 0.17205882
0.99362745 0.48529412 0.15196078
0.99754902 0.47892157 0.12916667
1 0.47254902 0.11764706
0.13823529 0.55931373 0.27598039
0.15098039 0.55931373 0.278125
0.16764706 0.55931373 0.28088235
0.1877451 0.56280637 0.28682598
0.21421569 0.56323529 0.28357843
0.24944853 0.56323529 0.2754902
0.28639706 0.56323529 0.26911765
0.32224265 0.56323529 0.27205882
0.36078431 0.56323529 0.27205882
0.40196078 0.56323529 0.27205882
0.44448529 0.56323529 0.27058824
0.49258578 0.56323529 0.26378676
0.54166667 0.5629902 0.25784314
0.59117647 0.55931373 0.25196078
0.64215686 0.55625 0.24816176
0.69362745 0.5536152 0.24313725
0.74166667 0.55098039 0.23676471
0.79656863 0.54754902 0.22990196
0.84803922 0.54754902 0.22352941
0.8995098 0.54754902 0.21323529
0.94926471 0.54754902 0.20294118
0.98964461 0.54705882 0.19215686
0.99607843 0.53970588 0.175
0.99785539 0.53449755 0.1564951
1 0.52843137 0.14460784
0.15882353 0.60686275 0.30686275
0.16801471 0.60968137 0.30686275
0.18504902 0.61078431 0.31078431
0.20232843 0.61421569 0.31078431
0.2245098 0.61470588 0.30931373
0.25637255 0.61470588 0.30294118
0.29093137 0.61176471 0.3
0.32708333 0.61078431 0.30294118
0.36372549 0.61176471 0.30294118
0.40490196 0.61176471 0.30294118
0.4502451 0.61470588 0.29583333
0.49852941 0.61213235 0.2877451
0.55 0.61078431 0.27843137
0.59840686 0.61041667 0.27683824
0.64607843 0.60686275 0.27843137
0.69362745 0.60294118 0.27512255
0.74509804 0.59901961 0.26764706
0.79656863 0.59901961 0.25735294
0.84803922 0.59901961 0.24705882
0.8995098 0.59901961 0.23676471
0.95098039 0.59901961 0.22352941
0.99522059 0.59852941 0.20968137
0.99607843 0.59215686 0.20490196
1 0.5872549 0.18480392
1 0.5872549 0.15294118
0.17794118 0.65833333 0.3377451
0.18578431 0.65833333 0.33382353
0.20281863 0.6622549 0.33627451
0.21795343 0.6622549 0.33382353
0.23553922 0.6622549 0.33235294
0.26439951 0.6622549 0.32843137
0.2995098 0.6622549 0.32990196
0.33529412 0.6598652 0.33382353
0.37401961 0.65833333 0.33235294
0.4161152 0.6598652 0.32898284
0.46237745 0.66115196 0.32352941
0.51060049 0.66096814 0.31470588
0.55833333 0.66078431 0.30833333
0.59981618 0.66047794 0.31458333
0.64607843 0.65833333 0.31568627
0.69901961 0.65441176 0.30490196
0.7504902 0.6504902 0.29460784
0.8004902 0.6504902 0.28431373
0.85196078 0.6504902 0.27401961
0.90343137 0.6504902 0.26372549
0.95098039 0.6504902 0.25343137
0.99479167 0.65 0.24332108
0.99607843 0.64362745 0.23676471
0.99754902 0.63817402 0.21960784
1 0.63480392 0.19411765
0.19607843 0.70980392 0.36862745
0.20490196 0.70980392 0.36470588
0.22058824 0.71078431 0.36372549
0.23431373 0.71372549 0.36078431
0.24705882 0.71176471 0.35490196
0.27254902 0.70980392 0.35294118
0.31078431 0.70980392 0.35686275
0.35098039 0.70980392 0.35833333
0.38823529 0.70588235 0.36078431
0.43186275 0.70588235 0.35441176
0.47843137 0.70980392 0.34901961
0.52303922 0.70980392 0.34509804
0.56470588 0.70980392 0.33921569
0.60931373 0.70980392 0.34215686
0.65392157 0.70980392 0.34509804
0.70539216 0.70588235 0.33039216
0.75686275 0.70588235 0.31764706
0.80441176 0.70343137 0.31127451
0.85196078 0.70196078 0.30490196
0.90343137 0.70196078 0.29460784
0.95294118 0.70196078 0.28431373
0.99264706 0.69803922 0.2745098
0.99607843 0.69411765 0.26764706
0.99607843 0.68872549 0.25441176
1 0.68627451 0.23529412
0.2127451 0.75735294 0.39558824
0.21666667 0.75735294 0.39558824
0.23186275 0.75882353 0.39276961
0.24852941 0.75882353 0.38823529
0.26887255 0.75882353 0.38382353
0.29509804 0.75882353 0.38204657
0.33039216 0.75882353 0.38321078
0.36764706 0.75735294 0.38382353
0.40490196 0.75735294 0.38529412
0.44754902 0.75490196 0.38229167
0.49154412 0.75490196 0.37892157
0.53382353 0.75490196 0.37254902
0.575 0.75735294 0.37009804
0.62009804 0.75735294 0.36568627
0.66703431 0.75735294 0.35882353
0.71568627 0.75735294 0.35245098
0.76078431 0.75735294 0.34607843
0.80741422 0.75398284 0.34215686
0.85551471 0.75343137 0.33578431
0.90343137 0.74969363 0.3254902
0.95490196 0.7495098 0.31519608
0.99264706 0.74901961 0.30753676
0.99607843 0.74264706 0.29852941
0.99607843 0.7377451 0.28431373
0.99754902 0.7377451 0.27647059
0.22941176 0.80490196 0.42647059
0.23186275 0.80490196 0.4254902
0.24313725 0.80416667 0.42254902
0.27205882 0.80490196 0.41911765
0.2995098 0.80490196 0.41666667
0.3254902 0.80392157 0.41470588
0.35514706 0.80392157 0.41470588
0.38713235 0.80490196 0.41078431
0.4254902 0.80490196 0.41078431
0.4627451 0.80392157 0.41078431
0.50612745 0.80171569 0.40686275
0.5442402 0.80477941 0.40294118
0.58529412 0.80490196 0.39901961
0.63039216 0.80490196 0.39460784
0.6754902 0.80784314 0.38823529
0.72389706 0.80392157 0.38333333
0.76568627 0.80392157 0.37941176
0.81041667 0.80392157 0.37365196
0.85661765 0.80098039 0.36666667
0.90735294 0.80098039 0.35637255
0.95882353 0.80098039 0.34607843
0.99264706 0.8004902 0.33615196
0.99607843 0.79411765 0.32696078
0.99607843 0.78921569 0.31911765
0.99705882 0.78921569 0.3127451
0.26470588 0.85245098 0.45735294
0.26470588 0.85030637 0.45343137
0.2745098 0.84901961 0.45257353
0.30294118 0.84901961 0.44957108
0.33382353 0.84901961 0.44583333
0.35637255 0.84895833 0.44558824
0.38125 0.84901961 0.44558824
0.41256127 0.84901961 0.44381127
0.44607843 0.84901961 0.44166667
0.48118873 0.84901961 0.43792892
0.52058824 0.84901961 0.43676471
0.55833333 0.85245098 0.43382353
0.59926471 0.85637255 0.42990196
0.64068627 0.85637255 0.4254902
0.68578431 0.85379902 0.41911765
0.73106618 0.84883578 0.41421569
0.77598039 0.84901961 0.41421569
0.81715686 0.84901961 0.40784314
0.86237745 0.84901961 0.40098039
0.91078431 0.84901961 0.39068627
0.9625 0.85269608 0.37696078
0.99264706 0.85238971 0.36666667
0.99607843 0.84558824 0.36029412
0.99607843 0.84442402 0.35
1 0.84411765 0.34362745
0.30980392 0.89803922 0.48823529
0.31568627 0.89485294 0.48308824
0.32156863 0.89362745 0.47990196
0.34411765 0.89387255 0.47647059
0.37058824 0.89313725 0.47647059
0.38921569 0.89019608 0.47647059
0.41666667 0.88676471 0.47647059
0.44754902 0.88627451 0.475
0.47843137 0.89019608 0.47254902
0.51053922 0.89019608 0.46862745
0.54607843 0.89411765 0.46470588
0.57867647 0.89803922 0.46102941
0.61372549 0.90294118 0.45784314
0.65490196 0.90196078 0.45294118
0.69803922 0.89656863 0.45
0.74264706 0.89338235 0.44632353
0.78627451 0.89411765 0.44509804
0.82745098 0.89411765 0.44117647
0.87107843 0.89607843 0.43431373
0.91740196 0.89779412 0.42598039
0.96470588 0.9 0.41568627
0.99044118 0.89411765 0.40343137
0.99362745 0.89411765 0.39166667
0.99607843 0.89607843 0.38088235
1 0.89607843 0.3745098
0.36372549 0.93872549 0.51862745
0.36764706 0.93903186 0.5127451
0.37242647 0.93921569 0.50723039
0.38921569 0.93921569 0.50343137
0.40980392 0.93529412 0.50294118
0.43431373 0.92738971 0.50343137
0.45919118 0.92316176 0.50343137
0.48480392 0.92481618 0.50343137
0.51176471 0.93137255 0.50343137
0.54215686 0.93167892 0.49705882
0.57389706 0.93529412 0.49558824
0.60784314 0.93829657 0.49215686
0.64289216 0.93627451 0.49166667
0.67395833 0.93915441 0.48425245
0.71078431 0.94044118 0.48088235
0.75539216 0.93970588 0.4786152
0.79656863 0.93970588 0.47598039
0.83823529 0.93921569 0.47205882
0.87941176 0.94313725 0.47107843
0.92401961 0.9466299 0.46470588
0.9629902 0.94558824 0.45490196
0.98088235 0.93872549 0.44460784
0.99068627 0.93529412 0.43137255
0.99577206 0.94050245 0.41648284
0.9995098 0.94607843 0.40637255
0.43529412 0.9627451 0.55
0.43529412 0.9685049 0.54362745
0.43259804 0.9752451 0.5372549
0.43419118 0.98308824 0.53088235
0.45441176 0.97156863 0.53039216
0.47892157 0.96127451 0.53431373
0.50612745 0.95416667 0.53651961
0.53137255 0.9560049 0.53615196
0.55196078 0.96568627 0.53431373
0.57303922 0.975 0.52794118
0.60392157 0.97573529 0.52647059
0.64129902 0.97009804 0.52647059
0.67892157 0.96029412 0.52598039
0.70821078 0.96617647 0.5185049
0.73529412 0.97720588 0.51397059
0.7692402 0.98615196 0.51078431
0.81372549 0.98137255 0.50686275
0.85490196 0.97745098 0.50294118
0.89607843 0.97769608 0.49901961
0.9372549 0.97928922 0.49522059
0.96813725 0.98284314 0.49068627
0.97696078 0.97438725 0.48578431
0.9872549 0.96985294 0.4754902
0.99215686 0.96666667 0.46421569
0.99607843 0.96372549 0.45490196
0.5122549 0.97941176 0.58480392
0.51072304 0.98431373 0.58143382
0.50870098 0.99031863 0.5745098
0.51323529 0.99344363 0.57205882
0.51960784 0.98970588 0.56740196
0.53529412 0.98284314 0.56666667
0.55772059 0.97647059 0.5685049
0.58431373 0.9754902 0.57303922
0.60490196 0.98186275 0.57058824
0.61973039 0.99368873 0.56329657
0.63468137 0.99546569 0.55477941
0.67696078 0.99001225 0.56109069
0.71568627 0.98137255 0.5620098
0.74852941 0.98449755 0.55882353
0.77941176 0.98933824 0.55637255
0.81084559 0.99515931 0.55343137
0.84656863 0.99215686 0.54313725
0.88143382 0.98823529 0.534375
0.91629902 0.98578431 0.52708333
0.94754902 0.98578431 0.51697304
0.97254902 0.98897059 0.5247549
0.98578431 0.98952206 0.52843137
0.98970588 0.98578431 0.51764706
0.99215686 0.98333333 0.50637255
0.99607843 0.98186275 0.49852941
0.56862745 0.99607843 0.61176471
0.57107843 0.99607843 0.61176471
0.57745098 0.99607843 0.60784314
0.5877451 1 0.60784314
0.59411765 0.99607843 0.60588235
0.59656863 0.99215686 0.6
0.60588235 0.99117647 0.59607843
0.63039216 0.99215686 0.6
0.65490196 0.99607843 0.60392157
0.65392157 0.99607843 0.58627451
0.65098039 0.99607843 0.56568627
0.69607843 0.99215686 0.57941176
0.74313725 0.99215686 0.58823529
0.78186275 0.99264706 0.58872549
0.81666667 0.99607843 0.59215686
0.85392157 1 0.59313725
0.87843137 0.99607843 0.57647059
0.90147059 0.99215686 0.55833333
0.9245098 0.98823529 0.53921569
0.95147059 0.98823529 0.53676471
0.97647059 0.99411765 0.55686275
0.99607843 0.99607843 0.56470588
0.99607843 0.99607843 0.55392157
0.99754902 0.99607843 0.53970588
1 0.99607843 0.52941176
0.02745098 0.05 0.025980392
0.044117647 0.037254902 0.025980392
0.075 0.023161765 0.021691176
0.10618873 0.012867647 0.020894608
0.14509804 0.0078431373 0.021323529
0.18627451 0.016176471 0.03057598
0.22892157 0.012745098 0.026960784
0.26954657 0.0069240196 0.019117647
0.31127451 0.011764706 0.014215686
0.35637255 0.029901961 0.017218137
0.40245098 0.039583333 0.019607843
0.45 0.037071078 0.018137255
0.50073529 0.02377451 0.012990196
0.55147059 0.015686275 0.010294118
0.60404412 0.018627451 0.0099264706
0.6588848 0.024080882 0.010294118
0.71372549 0.028921569 0.011764706
0.77003676 0.033394608 0.0078431373
0.82205882 0.020098039 0.0078431373
0.87726716 0.010661765 0.006372549
0.93210784 0.0051470588 0.0031862745
0.97941176 0.0039215686 0
0.99546569 0.0057598039 0
0.99607843 0.0078431373 0.0024509804
0.99607843 0.010294118 0.0024509804
0.02745098 0.051531863 0.027512255
0.046223958 0.046714154 0.028431373
0.080269608 0.045098039 0.032184436
0.1145144 0.03995098 0.033333333
0.14901961 0.037254902 0.035845588
0.18719363 0.03928462 0.044607843
0.22892157 0.036473652 0.040762868
0.27254902 0.035723039 0.032414216
0.31464461 0.03872549 0.024509804
0.35732996 0.050490196 0.024509804
0.40245098 0.059880515 0.025061275
0.45176164 0.05 0.021560968
0.50073529 0.033363971 0.016482843
0.55013021 0.021277574 0.011757047
0.60294118 0.019929534 0.0095128676
0.6588848 0.026470588 0.010638787
0.71519608 0.033762255 0.010294118
0.77038143 0.037109375 0.0078431373
0.82405025 0.02979473 0.0078431373
0.87978707 0.017156863 0.0072916667
0.93134191 0.012469363 0.0046875
0.96771599 0.016781556 0.0039215686
0.99134498 0.016896446 0.0035079657
0.99607843 0.016873468 0
0.99607843 0.018137255 0.00091911765
0.032352941 0.074509804 0.044607843
0.055392157 0.078063725 0.044837623
0.090196078 0.081464461 0.047732843
0.12254902 0.079534314 0.049019608
0.15612745 0.078431373 0.049019608
0.19227941 0.077221201 0.054044118
0.23345588 0.074509804 0.052941176
0.27463235 0.074509804 0.046017157
0.31801471 0.073897059 0.03872549
0.36029412 0.078370098 0.031801471
0.40609681 0.080882353 0.030882353
0.45399816 0.071522672 0.031418505
0.50269608 0.060784314 0.030943627
0.55179228 0.054457721 0.028477328
0.60413603 0.050980392 0.024724265
0.66072304 0.051164216 0.021063113
0.71519608 0.047181373 0.015196078
0.7709712 0.04620098 0.0067401961
0.8270527 0.045098039 0.0068933824
