site/assets/luts/natron-haldclut--goldfx-bright-summer-heat--d3d178ea9.cube
# LUTr-Project: LUTr — LUTrepository
# LUTr-Schema-Version: 1
# LUTr-ID: natron-haldclut--goldfx-bright-summer-heat--d3d178ea9
# LUTr-Title: goldfx bright summer heat
# LUTr-Collection: Natron HaldCLUT
# LUTr-Collection-ID: natron-haldclut-presets
# LUTr-Source: https://github.com/NatronGitHub/clut
# LUTr-Source-File: submissions/natron-haldclut-presets/picturefx/goldfx_bright_summer_heat.png
# LUTr-Source-Format: PNG
# LUTr-Source-SHA256: dfb991a50d2fd3c3c5bb4c80b99238705590e4712c0c5b33761490452c43e6b0
# LUTr-License: CC-BY-SA-4.0
# LUTr-License-URL: https://github.com/NatronGitHub/clut#license
# LUTr-Tags: creative, film, film-emulation, hald-clut, natron, png, cube
# LUTr-Transform-Class: film-emulation
# LUTr-Input-Color-Space: srgb
# LUTr-Output-Color-Space: srgb
# LUTr-Color-Space-Confidence: assumed-display-referred
# LUTr-Conversion-Method: PNG LUT image decoded at 16-bit and sampled to 25x25x25 3D CUBE
# LUTr-Conversion-Date: 2026-07-27
# LUTr-Conversion-Tool: LUTr scripts/convert-all-to-cube.mjs
# LUTr-Conversion-Grid: 25x25x25
# LUTr-Note: Preserve this metadata and the upstream license notices when redistributing.
TITLE "goldfx bright summer heat"
LUT_3D_SIZE 25
DOMAIN_MIN 0 0 0
DOMAIN_MAX 1 1 1
0.0039215686 0.0039215686 0.0039215686
0.020588235 0.018137255 0.028431373
0.041176471 0.02745098 0.039215686
0.061764706 0.02745098 0.031862745
0.090196078 0.033333333 0.037254902
0.12352941 0.039705882 0.04754902
0.15784314 0.046078431 0.054901961
0.19019608 0.048529412 0.058823529
0.24313725 0.054901961 0.070588235
0.31666667 0.05 0.078431373
0.39313725 0.043137255 0.082352941
0.47107843 0.035784314 0.078921569
0.54313725 0.043137255 0.084313725
0.61519608 0.04754902 0.08627451
0.6872549 0.053921569 0.08627451
0.75637255 0.071568627 0.084803922
0.80784314 0.13333333 0.078431373
0.85539216 0.19656863 0.070588235
0.90392157 0.25588235 0.062745098
0.9245098 0.30392157 0.062745098
0.94705882 0.35686275 0.064705882
0.96911765 0.41029412 0.07254902
0.97941176 0.46176471 0.11372549
0.98970588 0.51715686 0.15490196
1 0.56862745 0.19607843
0.014215686 0.030882353 0.032352941
0.021507353 0.033272059 0.050551471
0.039338235 0.040196078 0.061029412
0.063909314 0.044117647 0.052144608
0.093382353 0.048039216 0.052696078
0.12567402 0.049509804 0.059987745
0.15784314 0.049509804 0.06127451
0.19264706 0.050061275 0.060355392
0.24313725 0.05245098 0.066666667
0.31029412 0.046078431 0.073590686
0.38578431 0.040686275 0.076960784
0.46685049 0.035784314 0.076286765
0.53995098 0.043627451 0.082352941
0.61256127 0.050980392 0.085784314
0.68333333 0.049142157 0.080514706
0.74607843 0.078860294 0.075980392
0.8 0.13970588 0.074509804
0.85294118 0.20147059 0.068137255
0.89178922 0.2567402 0.059313725
0.92028186 0.30098039 0.053737745
0.94509804 0.35490196 0.059558824
0.96911765 0.41029412 0.07254902
0.97941176 0.46066176 0.11017157
0.98768382 0.50435049 0.14693627
0.99558824 0.54607843 0.17794118
0.023529412 0.057843137 0.056862745
0.030882353 0.057843137 0.067769608
0.042892157 0.057598039 0.068627451
0.065686275 0.063357843 0.059313725
0.097058824 0.064705882 0.063235294
0.1310049 0.067156863 0.073284314
0.16568627 0.069607843 0.075
0.2 0.066053922 0.066544118
0.25 0.066666667 0.068627451
0.3182598 0.060294118 0.076470588
0.39044118 0.058823529 0.076470588
0.47169118 0.054901961 0.078553922
0.54215686 0.054901961 0.082352941
0.61470588 0.058946078 0.082352941
0.68333333 0.066421569 0.078431373
0.74558824 0.10355392 0.074509804
0.8 0.16078431 0.070588235
0.84840686 0.21519608 0.067156863
0.88529412 0.2625 0.056127451
0.91973039 0.30943627 0.043627451
0.94509804 0.36715686 0.054411765
0.96568627 0.41997549 0.071936275
0.97647059 0.46446078 0.10514706
0.98651961 0.51446078 0.14669118
0.99705882 0.56176471 0.18627451
0.030882353 0.084803922 0.077941176
0.041482843 0.084803922 0.074019608
0.055392157 0.081372549 0.065318627
0.070036765 0.081372549 0.055821078
0.10539216 0.087009804 0.064705882
0.14258578 0.093566176 0.071507353
0.17953431 0.10036765 0.077941176
0.221875 0.10410539 0.079227941
0.27352941 0.10392157 0.085784314
0.33431373 0.10018382 0.089705882
0.41078431 0.1 0.085784314
0.48627451 0.096078431 0.082781863
0.55245098 0.086519608 0.082352941
0.6216299 0.084865196 0.082352941
0.69068627 0.12009804 0.079411765
0.75863971 0.15637255 0.073223039
0.80784314 0.20196078 0.067156863
0.84509804 0.24607843 0.060294118
0.88627451 0.28884804 0.050367647
0.92395833 0.33425245 0.039705882
0.95073529 0.38921569 0.054656863
0.9716299 0.43627451 0.071568627
0.97941176 0.48051471 0.10196078
0.98970588 0.52824755 0.14362745
1 0.57598039 0.18872549
0.035294118 0.11176471 0.092156863
0.04754902 0.11176471 0.087745098
0.059313725 0.11421569 0.079901961
0.069607843 0.12107843 0.074509804
0.10882353 0.1254902 0.078431373
0.15514706 0.13333333 0.082598039
0.19656863 0.14019608 0.088235294
0.24656863 0.14117647 0.092892157
0.29607843 0.14117647 0.096078431
0.35392157 0.1379902 0.094852941
0.42696078 0.1372549 0.090196078
0.50073529 0.13357843 0.08627451
0.56666667 0.13235294 0.08627451
0.63872549 0.14607843 0.087990196
0.70686275 0.17696078 0.084803922
0.76887255 0.20637255 0.073039216
0.81372549 0.24117647 0.062745098
0.85171569 0.28161765 0.053676471
0.89215686 0.32352941 0.044607843
0.92965686 0.36470588 0.040931373
0.96568627 0.4127451 0.059803922
0.9879902 0.45686275 0.077941176
0.98627451 0.49607843 0.10882353
0.99166667 0.54068627 0.14779412
1 0.58627451 0.19215686
0.039215686 0.14656863 0.10245098
0.049203431 0.14705882 0.099816176
0.055882353 0.15196078 0.09497549
0.066176471 0.1622549 0.095098039
0.099754902 0.16862745 0.10147059
0.1466299 0.175 0.099019608
0.2057598 0.18186275 0.099509804
0.26666667 0.18676471 0.099816176
0.31813725 0.19068627 0.10196078
0.38039216 0.18431373 0.098039216
0.4435049 0.17438725 0.090196078
0.51476716 0.17058824 0.08627451
0.58333333 0.18676471 0.090196078
0.65839461 0.20343137 0.090196078
0.72107843 0.22696078 0.087254902
0.77401961 0.25373775 0.073039216
0.82401961 0.28431373 0.062254902
0.86127451 0.31519608 0.048529412
0.89852941 0.35392157 0.039215686
0.93535539 0.39558824 0.050061275
0.97254902 0.44019608 0.064705882
0.99215686 0.47745098 0.079901961
0.99215686 0.51470588 0.10686275
0.99577206 0.55539216 0.14656863
1 0.59264706 0.18039216
0.039215686 0.18137255 0.10882353
0.047058824 0.18431373 0.10882353
0.055882353 0.19313725 0.10955882
0.063602941 0.20343137 0.11262255
0.085784314 0.21323529 0.11715686
0.13026961 0.22009804 0.11531863
0.20098039 0.22941176 0.1120098
0.27512255 0.23247549 0.10588235
0.33235294 0.23529412 0.10588235
0.39987745 0.23468137 0.099509804
0.46446078 0.2245098 0.093137255
0.52928922 0.22132353 0.08627451
0.60098039 0.24117647 0.087254902
0.66911765 0.25833333 0.087254902
0.72843137 0.2754902 0.082598039
0.78284314 0.30036765 0.071936275
0.83823529 0.3254902 0.058823529
0.86973039 0.35281863 0.050367647
0.90490196 0.38357843 0.041421569
0.93958333 0.42254902 0.053063725
0.9745098 0.46764706 0.066176471
0.99595588 0.50441176 0.08370098
0.99509804 0.53529412 0.10980392
0.99607843 0.57144608 0.14497549
1 0.60294118 0.17647059
0.042156863 0.22352941 0.11519608
0.048529412 0.23235294 0.11911765
0.057352941 0.24301471 0.12487745
0.06372549 0.25165441 0.12714461
0.071078431 0.25955882 0.12965686
0.11439951 0.26666667 0.12824755
0.19105392 0.27696078 0.12303922
0.26764706 0.27794118 0.11519608
0.33872549 0.28039216 0.10980392
0.4122549 0.28970588 0.10196078
0.48394608 0.29656863 0.093137255
0.54901961 0.29785539 0.08627451
0.61323529 0.30171569 0.077696078
0.67892157 0.31158088 0.073039216
0.73235294 0.32794118 0.073039216
0.78382353 0.34901961 0.069669118
0.83529412 0.37205882 0.064215686
0.87156863 0.39417892 0.062683824
0.90490196 0.42058824 0.05747549
0.93970588 0.4536152 0.058517157
0.97303922 0.49460784 0.072058824
0.99607843 0.53137255 0.091360294
0.99607843 0.5622549 0.12009804
0.99607843 0.59761029 0.15245098
1 0.62794118 0.18186275
0.062745098 0.30196078 0.12941176
0.066666667 0.30588235 0.12941176
0.070588235 0.31078431 0.13039216
0.074019608 0.31715686 0.13333333
0.076470588 0.31960784 0.1372549
0.10147059 0.32598039 0.13676471
0.17352941 0.33627451 0.13039216
0.2495098 0.34509804 0.12401961
0.33333333 0.34901961 0.11372549
0.42352941 0.35931373 0.10343137
0.50098039 0.36862745 0.093137255
0.56568627 0.36862745 0.08627451
0.62745098 0.37058824 0.076470588
0.68480392 0.36911765 0.070588235
0.73333333 0.38333333 0.070588235
0.78382353 0.40294118 0.074509804
0.83529412 0.41960784 0.074509804
0.87794118 0.44019608 0.072058824
0.90882353 0.46470588 0.070588235
0.93970588 0.48921569 0.070588235
0.97058824 0.5254902 0.080392157
1 0.5622549 0.095588235
1 0.59607843 0.12647059
1 0.62794118 0.16127451
1 0.6627451 0.19607843
0.073039216 0.37009804 0.1254902
0.078492647 0.37647059 0.12941176
0.084313725 0.38284314 0.13333333
0.090686275 0.38952206 0.13676471
0.097058824 0.39485294 0.1372549
0.10772059 0.40018382 0.1372549
0.15171569 0.40833333 0.13615196
0.22947304 0.41715686 0.12886029
0.32696078 0.42107843 0.12009804
0.41960784 0.42984069 0.10980392
0.50588235 0.43431373 0.095588235
0.57224265 0.43676471 0.090502451
0.63063725 0.43676471 0.086764706
0.68903186 0.43694853 0.084803922
0.74264706 0.44509804 0.084803922
0.79019608 0.45931373 0.084803922
0.83921569 0.47107843 0.080882353
0.88676471 0.48621324 0.080882353
0.91813725 0.51041667 0.08370098
0.94607843 0.53431373 0.087254902
0.9745098 0.55906863 0.094607843
0.99411765 0.58890931 0.10931373
1 0.61654412 0.1310049
1 0.64460784 0.16127451
1 0.67303922 0.18970588
0.087254902 0.45 0.12156863
0.093627451 0.45453431 0.12732843
0.10318627 0.45955882 0.13333333
0.11127451 0.46519608 0.1372549
0.11764706 0.46960784 0.1377451
0.12254902 0.47352941 0.14117647
0.13357843 0.47720588 0.14117647
0.21433824 0.48578431 0.13394608
0.31666667 0.49215686 0.12647059
0.41139706 0.49607843 0.11617647
0.50196078 0.5 0.10588235
0.5745098 0.50098039 0.099387255
0.63529412 0.50392157 0.099019608
0.69803922 0.50404412 0.1
0.75073529 0.51176471 0.1
0.8004902 0.52316176 0.099019608
0.84803922 0.53529412 0.096078431
0.89215686 0.54105392 0.095098039
0.92058824 0.55490196 0.096078431
0.94803922 0.5754902 0.10281863
0.97843137 0.59215686 0.10735294
0.99607843 0.61470588 0.1185049
0.99901961 0.63921569 0.13455882
1 0.66519608 0.15637255
1 0.69313725 0.18137255
0.093627451 0.52598039 0.11421569
0.10735294 0.52990196 0.12401961
0.12156863 0.53382353 0.13419118
0.12800245 0.5372549 0.1372549
0.13627451 0.54166667 0.14117647
0.14019608 0.54215686 0.14466912
0.14571078 0.54215686 0.14852941
0.21666667 0.54754902 0.14099265
0.31323529 0.55392157 0.13333333
0.40686275 0.56029412 0.12647059
0.50281863 0.56176471 0.11531863
0.58088235 0.56568627 0.10631127
0.64264706 0.56740196 0.11102941
0.70876225 0.57310049 0.11666667
0.76666667 0.57990196 0.11666667
0.81452206 0.59019608 0.11323529
0.85490196 0.59362745 0.1127451
0.88970588 0.59754902 0.10931373
0.91973039 0.60245098 0.10796569
0.94754902 0.61366422 0.10974265
0.97671569 0.62965686 0.11544118
0.99607843 0.64215686 0.11764706
0.99901961 0.65588235 0.12107843
1 0.67843137 0.14246324
1 0.70539216 0.16617647
0.1372549 0.60196078 0.1372549
0.14117647 0.60318627 0.14044118
0.14362745 0.60392157 0.14313725
0.14852941 0.60392157 0.14681373
0.15294118 0.60392157 0.15098039
0.15514706 0.60392157 0.15539216
0.16911765 0.60539216 0.15588235
0.24264706 0.61053922 0.15098039
0.33137255 0.61372549 0.14509804
0.42009804 0.61764706 0.13480392
0.51029412 0.62156863 0.1245098
0.58921569 0.625 0.12132353
0.65490196 0.63039216 0.12745098
0.72303922 0.63970588 0.13333333
0.78578431 0.64705882 0.13333333
0.82279412 0.64901961 0.13063725
0.86078431 0.64901961 0.12745098
0.89436275 0.65294118 0.12426471
0.92009804 0.65294118 0.12107843
0.94779412 0.65294118 0.11764706
0.97254902 0.66470588 0.12352941
0.99215686 0.67671569 0.12696078
0.99754902 0.67990196 0.12058824
1 0.69387255 0.12916667
1 0.71568627 0.14901961
0.1372549 0.64901961 0.14166667
0.15569853 0.65931373 0.15588235
0.16139706 0.66139706 0.16188725
0.165625 0.66176471 0.16568627
0.16960784 0.66176471 0.16568627
0.16960784 0.66519608 0.1661152
0.19178922 0.66433824 0.16654412
0.27794118 0.66519608 0.16421569
0.36666667 0.66862745 0.16176471
0.45508578 0.66942402 0.15539216
0.54154412 0.67303922 0.1504902
0.60588235 0.67303922 0.15441176
0.66960784 0.67892157 0.15637255
0.73676471 0.68872549 0.15833333
0.79117647 0.69607843 0.15539216
0.82971814 0.69785539 0.1463848
0.87058824 0.7004902 0.14166667
0.90196078 0.70441176 0.1377451
0.92892157 0.7004902 0.1377451
0.95545343 0.7004902 0.13817402
0.97254902 0.70588235 0.13823529
0.99264706 0.71525735 0.14166667
0.99914216 0.71960784 0.13823529
1 0.73069853 0.14932598
1 0.7504902 0.16568627
0.14411765 0.69705882 0.15784314
0.16372549 0.70735294 0.17095588
0.17867647 0.71666667 0.18333333
0.18578431 0.72046569 0.18970588
0.19019608 0.71666667 0.18627451
0.20710784 0.71629902 0.18921569
0.2497549 0.71372549 0.19313725
0.32953431 0.71372549 0.19497549
0.41470588 0.71372549 0.19215686
0.49522059 0.72009804 0.18284314
0.56470588 0.72377451 0.18210784
0.62647059 0.72144608 0.18786765
0.68823529 0.72696078 0.18921569
0.74620098 0.73370098 0.18921569
0.79215686 0.7372549 0.18627451
0.83333333 0.74264706 0.17598039
0.87745098 0.74901961 0.16176471
0.90870098 0.74938725 0.15490196
0.93921569 0.74901961 0.15490196
0.9627451 0.74816176 0.1557598
0.97647059 0.74901961 0.15490196
0.99301471 0.75343137 0.15232843
1 0.76078431 0.15784314
1 0.77009804 0.16960784
1 0.78137255 0.18235294
0.17303922 0.75 0.18529412
0.19865196 0.76127451 0.20202206
0.21311275 0.76875 0.2122549
0.21464461 0.77420343 0.21372549
0.24656863 0.76617647 0.21691176
0.28480392 0.76243873 0.22009804
0.33627451 0.76029412 0.22401961
0.3935049 0.76029412 0.23186275
0.46617647 0.7627451 0.22941176
0.53731618 0.76666667 0.22395833
0.59031863 0.76875 0.22058824
0.64705882 0.77058824 0.2213848
0.70539216 0.7752451 0.22401961
0.75245098 0.7786152 0.22401961
0.79718137 0.78566176 0.22401961
0.84117647 0.78866422 0.2122549
0.87843137 0.78872549 0.19264706
0.90931373 0.78480392 0.1754902
0.93982843 0.78872549 0.17696078
0.96372549 0.78658088 0.1754902
0.98112745 0.78553922 0.1754902
0.9963848 0.79313725 0.1776348
1 0.80098039 0.18921569
1 0.80643382 0.1995098
1 0.8122549 0.20833333
0.29803922 0.80784314 0.23921569
0.29803922 0.80784314 0.24313725
0.29901961 0.81176471 0.25098039
0.31323529 0.81176471 0.25490196
0.34313725 0.81176471 0.25882353
0.3745098 0.80784314 0.25882353
0.41862745 0.80784314 0.25882353
0.46617647 0.80784314 0.26421569
0.51764706 0.81176471 0.27058824
0.57156863 0.81176471 0.27058824
0.62058824 0.8127451 0.26568627
0.66813725 0.81911765 0.25931373
0.71568627 0.82156863 0.25882353
0.7627451 0.82401961 0.25882353
0.80392157 0.83137255 0.25882353
0.84509804 0.83529412 0.25441176
0.87843137 0.82745098 0.22352941
0.90539216 0.81960784 0.2
0.93235294 0.81960784 0.20392157
0.96323529 0.81960784 0.2
0.98627451 0.82156863 0.19607843
0.99264706 0.83186275 0.21666667
0.99901961 0.84215686 0.23431373
1 0.84313725 0.24313725
1 0.83921569 0.24705882
0.4 0.84901961 0.28921569
0.40398284 0.85147059 0.29405637
0.4067402 0.85477941 0.29791667
0.41194853 0.8504902 0.29607843
0.43897059 0.85294118 0.3
0.46685049 0.84901961 0.30392157
0.50294118 0.85257353 0.30686275
0.54068627 0.85539216 0.31721814
0.5754902 0.85686275 0.32205882
0.60876225 0.85686275 0.32205882
0.65723039 0.85686275 0.31715686
0.70196078 0.85814951 0.31421569
0.73823529 0.86470588 0.31348039
0.78155637 0.86911765 0.3127451
0.82058824 0.87365196 0.31090686
0.85300245 0.87401961 0.30735294
0.88088235 0.86862745 0.2877451
0.90631127 0.85833333 0.26660539
0.93235294 0.85502451 0.25931373
0.96323529 0.85686275 0.25569853
0.98627451 0.85882353 0.2495098
0.99264706 0.86911765 0.26813725
0.99901961 0.87696078 0.28541667
1 0.87738971 0.29368873
1 0.87401961 0.29852941
0.47941176 0.86372549 0.3127451
0.50980392 0.8939951 0.34595588
0.51764706 0.9002451 0.35294118
0.50686275 0.89068627 0.33970588
0.53088235 0.89313725 0.34264706
0.55294118 0.8932598 0.34742647
0.58039216 0.89779412 0.36004902
0.61335784 0.90833333 0.37205882
0.6372549 0.90588235 0.37352941
0.65392157 0.89914216 0.37352941
0.69509804 0.89705882 0.36960784
0.73578431 0.89889706 0.37046569
0.76960784 0.90833333 0.3745098
0.80330882 0.90968137 0.37316176
0.83333333 0.90661765 0.36740196
0.8627451 0.91090686 0.36666667
0.89117647 0.91470588 0.36078431
0.91176471 0.90343137 0.33921569
0.93627451 0.89313725 0.32181373
0.96323529 0.89276961 0.30931373
0.98627451 0.89509804 0.30392157
0.99215686 0.90098039 0.31960784
0.99901961 0.90490196 0.33553922
1 0.90882353 0.34754902
1 0.90882353 0.35392157
0.57205882 0.91519608 0.38088235
0.59393382 0.93069853 0.39883578
0.60379902 0.93615196 0.4057598
0.59607843 0.93186275 0.39754902
0.61004902 0.93137255 0.39926471
0.62800245 0.92794118 0.40539216
0.65245098 0.93088235 0.41568627
0.67714461 0.93890931 0.42518382
0.69166667 0.93970588 0.425
0.70833333 0.93547794 0.425
0.73921569 0.93529412 0.4245098
0.77303922 0.93878676 0.42800245
0.80220588 0.94019608 0.43259804
0.82310049 0.93627451 0.42886029
0.85098039 0.93627451 0.42463235
0.87794118 0.94019608 0.42107843
0.90539216 0.94411765 0.42107843
0.92579657 0.9408701 0.40392157
0.94742647 0.93137255 0.38786765
0.97107843 0.93137255 0.38137255
0.98995098 0.92794118 0.37303922
0.99264706 0.92843137 0.37058824
0.99901961 0.93480392 0.38137255
1 0.94099265 0.39816176
1 0.94705882 0.4127451
0.65490196 0.95686275 0.44117647
0.66323529 0.9627451 0.44828431
0.66715686 0.9627451 0.45147059
0.67230392 0.96446078 0.45294118
0.68431373 0.96666667 0.45784314
0.7004902 0.96446078 0.46666667
0.71568627 0.95735294 0.47156863
0.73284314 0.95686275 0.47647059
0.74705882 0.95882353 0.47647059
0.76127451 0.96470588 0.47647059
0.78333333 0.96470588 0.47892157
0.81029412 0.96078431 0.48406863
0.8372549 0.95686275 0.48823529
0.85367647 0.95686275 0.48382353
0.87401961 0.95686275 0.47892157
0.89779412 0.95833333 0.47647059
0.92156863 0.96470588 0.46862745
0.94215686 0.97132353 0.46151961
0.9627451 0.97254902 0.45833333
0.98529412 0.97254902 0.45343137
0.99411765 0.96176471 0.44117647
0.99632353 0.95710784 0.43308824
1 0.96078431 0.43137255
1 0.96617647 0.44877451
1 0.97647059 0.47058824
0.72352941 0.98480392 0.49215686
0.72444853 0.98247549 0.49669118
0.73884804 0.98002451 0.50992647
0.73633578 0.98431373 0.50839461
0.75171569 0.99264706 0.51813725
0.7588848 0.98872549 0.51960784
0.76948529 0.97745098 0.52303922
0.78970588 0.97352941 0.53039216
0.79411765 0.97745098 0.52401961
0.81243873 0.98118873 0.53186275
0.83259804 0.97843137 0.53223039
0.84754902 0.9778799 0.53578431
0.87034314 0.97720588 0.54215686
0.88425245 0.97702206 0.53964461
0.90036765 0.9745098 0.53517157
0.91501225 0.97892157 0.52824755
0.93823529 0.98872549 0.52401961
0.9622549 0.99264706 0.52107843
0.97928922 0.99607843 0.52156863
0.99558824 0.99607843 0.52064951
0.99607843 0.98676471 0.50686275
1 0.97745098 0.4966299
1 0.97696078 0.49313725
1 0.97303922 0.49871324
1 0.97647059 0.5127451
0.77156863 0.99901961 0.5372549
0.79019608 0.99803922 0.55232843
0.81960784 0.99411765 0.57647059
0.80012255 0.99852941 0.56495098
0.81078431 0.99901961 0.56911765
0.81360294 0.99901961 0.57058824
0.84117647 0.99583333 0.58529412
0.86090686 0.99411765 0.59460784
0.83921569 0.99803922 0.5754902
0.85870098 0.99803922 0.58811275
0.88357843 0.99583333 0.59754902
0.875 0.99803922 0.59068627
0.91813725 0.99411765 0.60686275
0.94828431 0.9942402 0.62218137
0.93382353 0.99289216 0.60171569
0.93039216 0.99840686 0.58406863
0.95490196 0.99607843 0.59215686
0.97757353 0.99313725 0.60245098
0.98921569 0.99313725 0.59534314
0.99607843 0.99313725 0.58198529
1 0.99362745 0.56715686
1 0.98860294 0.56556373
1 0.99117647 0.56102941
1 0.98872549 0.56421569
1 0.98039216 0.57843137
0.87205882 1 0.62352941
0.89148284 1 0.63903186
0.91629902 1 0.65686275
0.95459559 1 0.67843137
0.93063725 1 0.6620098
0.93192402 1 0.66090686
0.93933824 1 0.66838235
0.95729167 1 0.68333333
0.95833333 1 0.68039216
0.96102941 0.99852941 0.68155637
0.95612745 0.99571078 0.68443627
0.99136029 0.99460784 0.70508578
0.98112745 0.99460784 0.69191176
0.98884804 0.99442402 0.69540441
0.97879902 0.99252451 0.6872549
0.98106618 0.99068627 0.68547794
0.97941176 0.98823529 0.67843137
0.98823529 0.98676471 0.68088235
0.9942402 0.98676471 0.67352941
0.9995098 0.98854167 0.66023284
1 0.9875 0.64240196
1 0.9846201 0.65477941
1 0.98713235 0.64571078
1 0.98584559 0.64705882
1 0.98039216 0.66813725
0.96078431 1 0.70196078
0.95980392 1 0.69852941
0.96960784 1 0.70588235
0.99705882 1 0.7377451
0.99607843 1 0.72156863
0.99607843 1 0.71862745
0.99901961 1 0.74215686
1 0.99852941 0.74656863
1 0.99607843 0.75294118
1 0.99362745 0.75539216
0.97647059 0.99117647 0.72058824
0.99607843 0.98823529 0.75343137
0.99803922 0.98431373 0.75882353
0.99607843 0.98431373 0.75343137
0.99607843 0.98039216 0.75980392
0.9877451 0.98431373 0.7254902
1 0.98039216 0.76078431
1 0.98039216 0.75686275
1 0.98039216 0.75294118
1 0.98137255 0.74411765
1 0.98431373 0.70980392
1 0.98039216 0.74901961
1 0.98235294 0.72647059
1 0.98186275 0.71764706
1 0.98039216 0.76862745
0.010294118 0.020588235 0.034803922
0.020588235 0.028431373 0.046017157
0.03872549 0.033823529 0.051960784
0.059313725 0.034007353 0.048529412
0.087009804 0.040441176 0.055147059
0.12089461 0.045772059 0.063909314
0.15723039 0.050612745 0.070955882
0.19656863 0.055821078 0.075490196
0.25098039 0.06127451 0.084803922
0.31911765 0.054901961 0.087806373
0.39460784 0.045588235 0.091544118
0.47107843 0.039705882 0.095098039
0.54313725 0.03995098 0.096568627
0.61519608 0.04754902 0.096078431
0.6872549 0.053921569 0.089705882
0.75637255 0.068566176 0.084803922
0.80539216 0.13578431 0.078431373
0.85539216 0.20147059 0.073590686
0.89816176 0.26127451 0.078431373
0.921875 0.30392157 0.063357843
0.94705882 0.35931373 0.071568627
0.97285539 0.41403186 0.090870098
0.97941176 0.46176471 0.11715686
0.98823529 0.50772059 0.15238971
0.99558824 0.54852941 0.18284314
0.014215686 0.032352941 0.047487745
0.020549939 0.035723039 0.057437194
0.038005515 0.041636029 0.064185049
0.061764706 0.044921875 0.061948529
0.091237745 0.052420343 0.064675245
0.12395833 0.055078125 0.071875
0.15761336 0.055882353 0.076179534
0.19656863 0.05792739 0.078285846
0.2495098 0.06127451 0.083333333
0.3161152 0.054327512 0.085148591
0.38915441 0.044745711 0.087852328
0.46807598 0.039522059 0.092532169
0.53921569 0.03872549 0.096109069
0.6138557 0.051171875 0.096384804
0.68615196 0.057123162 0.091544118
0.74944853 0.087400429 0.084459252
0.80300245 0.14270833 0.077512255
0.85596661 0.20259651 0.070013787
0.89068627 0.25595895 0.066283701
0.92028186 0.30068934 0.050130208
0.94782475 0.35931373 0.067922794
0.97285539 0.41537224 0.088235294
0.97624081 0.46176471 0.11525735
0.98312653 0.50593597 0.14849877
0.99007353 0.53455882 0.17040441
0.021691176 0.057843137 0.067156863
0.027742034 0.057000613 0.072303922
0.042156863 0.057843137 0.070680147
0.065456495 0.064215686 0.069653799
0.095343137 0.068627451 0.074448529
0.12939645 0.071568627 0.082261029
0.16583946 0.072334559 0.083854167
0.20392157 0.072058824 0.081081495
0.25833333 0.075 0.083333333
0.32009804 0.06752451 0.084727328
0.39292279 0.060202206 0.088511029
0.47291667 0.05513174 0.093045343
0.54209559 0.053676471 0.094178922
0.61580882 0.06004902 0.092601103
0.68658088 0.078308824 0.089613971
0.75042892 0.11790748 0.082352941
0.80453431 0.16654412 0.074142157
0.85188419 0.2161152 0.066053922
0.88529412 0.26495098 0.058578431
0.91996017 0.31220895 0.045848652
0.94632353 0.36678922 0.062009804
0.96879596 0.42285539 0.08236826
0.97610294 0.46737132 0.11035539
0.98209252 0.50948223 0.14453125
0.98933824 0.54056373 0.17046569
0.028737745 0.084803922 0.080392157
0.03872549 0.084803922 0.080392157
0.051914828 0.084803922 0.075137868
0.072610294 0.085071998 0.075
0.10523897 0.090839461 0.07901348
0.1437117 0.096897978 0.083946078
0.18333333 0.10232843 0.088541667
0.22725184 0.10202206 0.088426777
