site/assets/luts/natron-haldclut--fuji-400h--f49570408.cube
# LUTr-Project: LUTr — LUTrepository
# LUTr-Schema-Version: 1
# LUTr-ID: natron-haldclut--fuji-400h--f49570408
# LUTr-Title: fuji 400h ++
# LUTr-Collection: Natron HaldCLUT
# LUTr-Collection-ID: natron-haldclut-presets
# LUTr-Source: https://github.com/NatronGitHub/clut
# LUTr-Source-File: submissions/natron-haldclut-presets/negative_new/fuji_400h_++.png
# LUTr-Source-Format: PNG
# LUTr-Source-SHA256: 821bcf23bea5891810b10d7925418bfc7130735fabe5e4850ead33031b52eb06
# LUTr-License: CC-BY-SA-4.0
# LUTr-License-URL: https://github.com/NatronGitHub/clut#license
# LUTr-Tags: creative, film, film-emulation, hald-clut, natron, png, cube
# LUTr-Transform-Class: film-emulation
# LUTr-Input-Color-Space: srgb
# LUTr-Output-Color-Space: srgb
# LUTr-Color-Space-Confidence: assumed-display-referred
# LUTr-Conversion-Method: PNG LUT image decoded at 16-bit and sampled to 25x25x25 3D CUBE
# LUTr-Conversion-Date: 2026-07-27
# LUTr-Conversion-Tool: LUTr scripts/convert-all-to-cube.mjs
# LUTr-Conversion-Grid: 25x25x25
# LUTr-Note: Preserve this metadata and the upstream license notices when redistributing.
TITLE "fuji 400h ++"
LUT_3D_SIZE 9
DOMAIN_MIN 0 0 0
DOMAIN_MAX 1 1 1
0.054901961 0.090196078 0.02745098
0.1245098 0.11470588 0.055392157
0.24117647 0.094117647 0.042156863
0.40686275 0.10833333 0.035784314
0.58431373 0.033333333 0.0078431373
0.74852941 0.011764706 0.018137255
0.86568627 0.061764706 0.0068627451
0.95784314 0.17009804 0
0.98039216 0.21568627 0
0.043627451 0.15980392 0.035294118
0.10882353 0.15545343 0.059313725
0.2307598 0.15588235 0.024877451
0.39920343 0.14509804 0.0093137255
0.58431373 0.12892157 0.011519608
0.74705882 0.12303922 0.010477941
0.86176471 0.16127451 0.0039215686
0.95392157 0.23480392 0.0034313725
0.99264706 0.28970588 0.0039215686
0.00098039216 0.24313725 0.030392157
0.043137255 0.24264706 0.03002451
0.20294118 0.25392157 0.01495098
0.38823529 0.26164216 0.0078431373
0.59362745 0.26666667 0.0039215686
0.73958333 0.27781863 0.0039215686
0.85392157 0.29117647 0.00073529412
0.93921569 0.32696078 0.0039215686
0.98431373 0.36568627 0.0039215686
0.0039215686 0.37303922 0.032843137
0.0039215686 0.36911765 0.029105392
0.1564951 0.37806373 0.016053922
0.35343137 0.38235294 0
0.55318627 0.39411765 0.0039215686
0.71170343 0.4088848 0.0039215686
0.82794118 0.4182598 0.0045343137
0.92058824 0.44166667 0.0039215686
0.99852941 0.47254902 0
0 0.51372549 0.0098039216
0.0034313725 0.50980392 0.011764706
0.071078431 0.50147059 0.0058823529
0.33676471 0.50980392 0.0039215686
0.51862745 0.51176471 0.0078431373
0.67965686 0.5372549 0
0.79803922 0.54509804 0.0078431373
0.90343137 0.55539216 0.0078431373
0.98823529 0.57254902 0
0 0.63333333 0.015686275
0.0021446078 0.628125 0.0060661765
0.1 0.6182598 0.026593137
0.30790441 0.61133578 0.024019608
0.48602941 0.62083333 0.020343137
0.64362745 0.63633578 0.0093137255
0.77107843 0.64754902 0.0078431373
0.88235294 0.65949755 0.0078431373
0.98137255 0.675 0
0.0039215686 0.73627451 0.1127451
0.026838235 0.73321078 0.11458333
0.20612745 0.72867647 0.12769608
0.35355392 0.72058824 0.14754902
0.49166667 0.7245098 0.11813725
0.61666667 0.73627451 0.068137255
0.7370098 0.74411765 0.014460784
0.85147059 0.75980392 0.0073529412
0.95294118 0.77941176 0.0039215686
0.22696078 0.84460784 0.27009804
0.26868873 0.84068627 0.27052696
0.33333333 0.83284314 0.28431373
0.42843137 0.82910539 0.30098039
0.51617647 0.82720588 0.28872549
0.61617647 0.83284314 0.27401961
0.72156863 0.84460784 0.26078431
0.83241422 0.85637255 0.19264706
0.92843137 0.86764706 0.16176471
0.40784314 0.9372549 0.4627451
0.41960784 0.93382353 0.45931373
0.45294118 0.9254902 0.46176471
0.51862745 0.93970588 0.49509804
0.5745098 0.92745098 0.48235294
0.64754902 0.93333333 0.50441176
0.73235294 0.9372549 0.49019608
0.8254902 0.95294118 0.49411765
0.88235294 0.9372549 0.44705882
0.074019608 0.10980392 0.097058824
0.13186275 0.11029412 0.093627451
0.24215686 0.10098039 0.091789216
0.40900735 0.081188725 0.095098039
0.59558824 0.033823529 0.094607843
0.75882353 0.0080269608 0.084803922
0.87352941 0.055392157 0.075490196
0.95790441 0.18143382 0.071568627
0.99558824 0.27009804 0.056372549
0.052389706 0.16715686 0.10006127
0.11580116 0.15582874 0.096453738
0.24693627 0.16323529 0.096078431
0.41421569 0.1591682 0.086848958
0.59929534 0.12205882 0.073498775
0.75255821 0.12107843 0.064744179
0.86568627 0.17288603 0.052941176
0.95478707 0.23448223 0.041666667
0.99607843 0.29613971 0.048039216
0.0078431373 0.25833333 0.092647059
0.071507353 0.25952819 0.095971201
0.23333333 0.26626838 0.085386029
0.4053462 0.27040441 0.066222426
0.59761029 0.26176471 0.036029412
0.74313725 0.27584252 0.026348039
0.85563725 0.29509804 0.011550245
0.93970588 0.33077512 0.014813113
0.99473039 0.37340686 0.01997549
0.0075367647 0.39215686 0.089705882
0.0076210172 0.38823529 0.097633272
0.18370098 0.39007353 0.088403799
0.37647059 0.39234069 0.056556373
0.56969975 0.40294118 0.020588235
0.7245098 0.41317402 0.0047257966
0.83578431 0.41862745 0.012086397
0.93028493 0.44515931 0.0039215686
0.99558824 0.47009804 0.0039215686
0.0039215686 0.52107843 0.079411765
0.0039215686 0.51957721 0.087745098
0.13118873 0.51341912 0.08627451
0.34558824 0.51348039 0.066758578
0.52512255 0.51752451 0.031862745
0.68480392 0.53602941 0.006372549
0.80980392 0.54117647 0.0078431373
0.90906863 0.55321691 0.0075980392
0.98823529 0.57058824 0.0017156863
0.011764706 0.6372549 0.12469363
0.011335784 0.63547794 0.11813725
0.12682292 0.62438725 0.11867341
0.34743413 0.6213848 0.12401961
0.50098039 0.6247549 0.077849265
0.64502911 0.63425245 0.026960784
0.775 0.64845282 0.016344975
0.88627451 0.66704963 0.0056602328
0.975 0.675 0.0039215686
0.0088235294 0.74019608 0.17696078
0.08236826 0.73982843 0.18080576
0.2263174 0.73005515 0.18893995
0.36813725 0.72156863 0.19722733
0.50367647 0.72843137 0.1875
0.6245098 0.73627451 0.14937194
0.73921569 0.74411765 0.091666667
0.85507047 0.76421569 0.014338235
0.95698529 0.77953431 0.013480392
0.24558824 0.84068627 0.29656863
0.27903646 0.84073989 0.30349265
0.3448223 0.83408395 0.31948529
0.43815104 0.82937347 0.32745098
0.5323223 0.82892157 0.33308824
0.62085631 0.83445925 0.31862745
0.71764706 0.84460784 0.29129902
0.8254902 0.85245864 0.26776195
0.93278186 0.86813725 0.23480392
0.41176471 0.9372549 0.47401961
0.43088235 0.94117647 0.48229167
0.45477941 0.92647059 0.47414216
0.51832108 0.93431373 0.49871324
0.57843137 0.92745098 0.50539216
0.65147059 0.93382353 0.51243873
0.73492647 0.94411765 0.5127451
0.825 0.94901961 0.50490196
0.92647059 0.96127451 0.50637255
0.10784314 0.10980392 0.2
0.14276961 0.11066176 0.2
0.25710784 0.1252451 0.20686275
0.42941176 0.06752451 0.20686275
0.61323529 0.0058823529 0.2122549
0.76813725 0.0096813725 0.23039216
0.87647059 0.079656863 0.23137255
0.95821078 0.19497549 0.24252451
0.99607843 0.25196078 0.24509804
0.081372549 0.17107843 0.21164216
0.13460478 0.16764706 0.21219363
0.26041667 0.1700674 0.20658701
0.43062194 0.14964767 0.21292892
0.61960784 0.087561275 0.21807598
0.76213235 0.095021446 0.22254902
0.87389706 0.17570466 0.23247549
0.95430453 0.24742647 0.23714767
0.99166667 0.31519608 0.24497549
0.0093137255 0.27352941 0.21862745
0.10355392 0.28137255 0.22181373
0.27156863 0.28082108 0.2223652
0.4448223 0.27141544 0.21862745
0.61556373 0.26568627 0.21862745
0.75333946 0.27637868 0.21470588
0.85729167 0.29803922 0.21053922
0.94316789 0.33909314 0.21393995
0.99607843 0.39215686 0.2379902
0.006372549 0.4245098 0.22647059
0.072303922 0.4185815 0.23218444
0.25716912 0.4127451 0.23367034
0.4222886 0.41058517 0.21973039
0.59705882 0.41911765 0.18480392
0.73186275 0.42340686 0.16937806
0.84206495 0.4296875 0.16565564
0.93235294 0.4495098 0.17058824
0.98468137 0.46617647 0.18370098
0.016666667 0.54607843 0.24362745
0.050919118 0.54411765 0.23952206
0.23602941 0.53125 0.24019608
0.38480392 0.52622549 0.23363971
0.55833333 0.5377451 0.19754902
0.69773284 0.54656863 0.16991422
0.8127451 0.54546569 0.12205882
0.91127451 0.55447304 0.10569853
0.98529412 0.57254902 0.10392157
0.017647059 0.65147059 0.25882353
0.068887868 0.65053615 0.25546875
0.23238358 0.64273897 0.25931373
0.38492647 0.63578431 0.25931373
0.52408088 0.63578431 0.24583333
0.66262255 0.64693627 0.21519608
0.78158701 0.65539216 0.16556373
0.88627451 0.66766238 0.12322304
0.97254902 0.67107843 0.088235294
0.11004902 0.74803922 0.29289216
0.1783701 0.74803922 0.29632353
0.29411765 0.74356618 0.29644608
0.40162377 0.73391544 0.30392157
0.51764706 0.73235294 0.30257353
0.63235294 0.73737745 0.27855392
0.74405637 0.74730392 0.24883578
0.85125613 0.76026348 0.22542892
0.95269608 0.7754902 0.19828431
0.27647059 0.84375 0.37990196
0.30594363 0.84450061 0.37941176
0.37074142 0.84068627 0.37941176
0.44246324 0.83429841 0.38560049
0.53946078 0.83590686 0.39387255
0.63003983 0.83854167 0.40448836
0.72107843 0.84509804 0.37941176
0.82075674 0.85245098 0.3497549
0.92806373 0.86421569 0.32659314
0.42745098 0.9372549 0.50882353
0.43872549 0.93811275 0.5127451
0.47303922 0.93308824 0.52230392
0.52254902 0.9372549 0.53480392
0.58970588 0.94019608 0.55686275
0.65502451 0.93786765 0.55588235
0.73627451 0.94583333 0.55171569
0.82512255 0.94522059 0.53198529
0.90784314 0.94215686 0.49901961
0.10343137 0.11372549 0.3495098
0.17352941 0.13137255 0.35196078
0.2995098 0.11470588 0.36311275
0.45392157 0.069607843 0.36127451
0.61495098 0.017647059 0.37352941
0.77843137 0.0078431373 0.38088235
0.88529412 0.015686275 0.37696078
0.96176471 0.14558824 0.39313725
0.99362745 0.24313725 0.4122549
0.076776961 0.17156863 0.35343137
0.16942402 0.17107843 0.35735294
0.30588235 0.17530637 0.360769
0.46121324 0.15938266 0.37064951
0.63578431 0.075582108 0.38005515
0.7710095 0.065747549 0.38069853
0.87794118 0.11879596 0.38667279
0.96595435 0.22699908 0.39487592
0.99607843 0.34166667 0.43480392
0.023406863 0.2627451 0.36519608
0.1377451 0.27058824 0.37303922
0.30526961 0.27772672 0.37990196
0.47144608 0.28419118 0.38771446
0.63002451 0.26862745 0.39356618
0.75943627 0.26917892 0.39166667
0.86568627 0.30321691 0.39509804
0.94710478 0.36176471 0.4143076
0.99497549 0.42254902 0.43529412
0.011764706 0.41317402 0.39209559
0.0613894 0.42794118 0.39645374
0.29082414 0.41349571 0.39379596
0.46868873 0.42401961 0.39901961
0.6171875 0.42401961 0.39117647
0.74613971 0.43633578 0.40083487
0.84362745 0.44240196 0.38071385
0.92805607 0.4767693 0.3912454
0.99068627 0.48915441 0.40202206
0.024264706 0.56985294 0.40833333
0.12074142 0.56789216 0.41749387
0.32438725 0.55324755 0.40459559
0.45484069 0.54117647 0.40487132
0.5877451 0.54987745 0.39546569
0.71449142 0.5544424 0.37401961
0.82040441 0.56035539 0.35392157
0.90735294 0.56994485 0.34617034
0.98676471 0.58088235 0.35637255
0.21525735 0.67199755 0.42941176
0.28935355 0.67126991 0.43186275
0.34545037 0.66254596 0.4122549
0.45510876 0.65539216 0.41617647
0.56029412 0.64485294 0.41029412
0.67802543 0.65238971 0.38913143
0.78578431 0.65931373 0.36605392
0.8863894 0.66715686 0.33352482
0.98131127 0.67346814 0.3245098
0.22634804 0.75980392 0.41715686
0.28356311 0.76403186 0.42492341
0.35220588 0.75952819 0.42270221
0.44722733 0.74734988 0.42928922
0.54019608 0.74080882 0.43118873
0.64172794 0.74803922 0.42254902
0.75098039 0.75257353 0.39754902
0.85899203 0.76764706 0.39024203
0.96372549 0.77757353 0.36813725
0.31636029 0.85226716 0.46979167
0.35098039 0.84852941 0.47009804
0.39684436 0.84852941 0.4713848
0.47401195 0.84491422 0.47960325
0.54411765 0.84068627 0.48259804
0.63549326 0.84380362 0.48001685
0.72112439 0.84595588 0.46827512
0.83153339 0.85683977 0.46168045
0.93707108 0.86813725 0.45196078
0.43529412 0.94117647 0.56176471
0.44969363 0.94166667 0.56617647
0.48137255 0.93627451 0.5689951
0.53039216 0.9338848 0.575
0.59411765 0.93529412 0.59264706
0.66176471 0.93235294 0.59699755
0.74019608 0.94509804 0.6
0.83284314 0.94509804 0.58639706
0.93431373 0.96176471 0.59264706
0.16666667 0.12941176 0.50392157
0.22083333 0.11764706 0.51568627
0.35441176 0.1254902 0.51960784
0.5004902 0.096323529 0.53063725
0.64901961 0.033333333 0.54509804
0.77573529 0.0093137255 0.54166667
0.87401961 0.012254902 0.53137255
0.95759804 0.075245098 0.52965686
0.99019608 0.23137255 0.5372549
0.1629902 0.18504902 0.50784314
0.23385417 0.1754902 0.51568627
0.35686275 0.17935049 0.52303922
0.50294118 0.1745098 0.52882966
0.65 0.1564951 0.54411765
0.77322304 0.093872549 0.53716299
0.87573529 0.09442402 0.52990196
0.94996936 0.18406863 0.53333333
0.99215686 0.30245098 0.54289216
0.10441176 0.26960784 0.51568627
0.21691176 0.27886029 0.52542892
0.34889706 0.28627451 0.53443627
0.5004902 0.29411765 0.53903186
0.64607843 0.29754902 0.55098039
0.76145833 0.28627451 0.54705882
0.86568627 0.28492647 0.53958333
0.95220588 0.34522059 0.54509804
0.98921569 0.4 0.55490196
0.018382353 0.39852941 0.52279412
0.14436275 0.40637255 0.53170956
0.32818627 0.41219363 0.53284314
0.49503676 0.42840074 0.54754902
0.63443627 0.43688725 0.55784314
0.75370711 0.43921569 0.5544424
0.84362745 0.45245098 0.55183824
0.92745098 0.48259804 0.56014093
0.98627451 0.5 0.55416667
0.031372549 0.56176471 0.54705882
0.1127451 0.56985294 0.55110294
0.31838235 0.55784314 0.54509804
0.48161765 0.55919118 0.55416667
0.61078431 0.56372549 0.55490196
0.72830882 0.57058824 0.54889706
0.82426471 0.575 0.54509804
0.90931373 0.58835784 0.54227941
0.98039216 0.60196078 0.54313725
0.19877451 0.69779412 0.56348039
0.2606924 0.68872549 0.56363358
0.37444853 0.68627451 0.55759804
0.5 0.67693015 0.55563725
0.59338235 0.66360294 0.54901961
0.68967525 0.66547181 0.55006127
0.78860294 0.66911765 0.53449755
0.89019608 0.67107843 0.5106924
0.98039216 0.68137255 0.50833333
0.33627451 0.77745098 0.57696078
0.37604167 0.77506127 0.57647059
0.4254902 0.77659314 0.56323529
0.48915441 0.76697304 0.55294118
0.58676471 0.76004902 0.55955882
0.65955882 0.75753676 0.55238971
0.75343137 0.76372549 0.54938725
0.86372549 0.76384804 0.52990196
0.96617647 0.7754902 0.5122549
0.42769608 0.86004902 0.59828431
0.43036152 0.85833333 0.59114583
0.45447304 0.86029412 0.58351716
0.50661765 0.85842525 0.58170956
0.57365196 0.85147059 0.58321078
0.64019608 0.84469975 0.57598039
0.73063725 0.84852941 0.57310049
0.83676471 0.85836397 0.56323529
0.94852941 0.87205882 0.55196078
0.46862745 0.94509804 0.64117647
0.47647059 0.93186275 0.63578431
0.50196078 0.94460784 0.63676471
0.54289216 0.94828431 0.64240196
0.59607843 0.92156863 0.63039216
0.66960784 0.94166667 0.65931373
0.74411765 0.9245098 0.64166667
0.8370098 0.94509804 0.64705882
0.93333333 0.95882353 0.65294118
0.26470588 0.13088235 0.64901961
0.31666667 0.12910539 0.65294118
0.42107843 0.13578431 0.65686275
0.54607843 0.1254902 0.66078431
0.67598039 0.11740196 0.66740196
0.78180147 0.15876225 0.67647059
0.86531863 0.12463235 0.67401961
0.95392157 0.14460784 0.65686275
0.99460784 0.23284314 0.65294118
0.28431373 0.20030637 0.65294118
0.3281633 0.19607843 0.65294118
0.41757047 0.19453125 0.65525429
0.54957874 0.19725797 0.66470588
0.66813725 0.20931373 0.66593137
0.77696078 0.22352941 0.68039216
0.86213235 0.21542586 0.67254902
0.95376072 0.22089461 0.66074602
0.98645833 0.28302696 0.65686275
0.27058824 0.28333333 0.65110294
0.31024816 0.28636642 0.65384498
0.41853554 0.29019608 0.66078431
0.54082414 0.2990962 0.66323529
0.66421569 0.32352941 0.67377451
0.76911765 0.3342065 0.68284314
0.8567402 0.34411765 0.67156863
0.942019 0.35490196 0.66452206
0.99276961 0.39460784 0.66041667
0.17064951 0.39166667 0.64117647
0.24460784 0.38627451 0.64901961
0.375 0.40199142 0.64947917
0.5252068 0.42275582 0.66080729
0.65 0.45490196 0.675
0.75006127 0.46917892 0.68373928
0.84607843 0.46917892 0.67545956
0.93039216 0.47615656 0.66960784
0.97555147 0.50392157 0.67107843
0.14901961 0.52598039 0.6495098
0.24083946 0.53382353 0.65539216
0.35343137 0.53455882 0.6502451
0.49215686 0.53970588 0.65931373
0.62193627 0.56470588 0.6685049
0.73186275 0.58235294 0.68131127
0.8245098 0.59056373 0.68676471
0.9111826 0.6020527 0.68293505
0.97254902 0.61176471 0.68357843
0.24754902 0.68192402 0.67254902
0.28174786 0.6801011 0.67206648
0.38241422 0.67984069 0.67176777
0.49550398 0.67892157 0.66862745
0.61130515 0.68581495 0.67797181
0.70637255 0.68073683 0.67647059
0.79754902 0.68713235 0.68062194
0.89411765 0.69589461 0.67598039
0.97346814 0.69552696 0.65931373
0.32781863 0.79068627 0.68284314
0.35931373 0.7872549 0.67973346
0.43492647 0.79136029 0.67990196
0.52205882 0.78088235 0.67892157
0.61403186 0.7754902 0.67959559
0.68394608 0.77303922 0.67254902
0.77205882 0.77487745 0.66862745
0.87518382 0.77303922 0.6553462
0.97585784 0.7754902 0.64117647
0.41715686 0.87567402 0.69754902
0.44234069 0.87334559 0.69509804
0.48529412 0.87630208 0.69901961
0.54675245 0.86861979 0.6908701
0.60278799 0.86568627 0.6872549
0.6676394 0.859375 0.68081342
0.74558824 0.8524663 0.67149203
0.84170496 0.86045496 0.67130055
0.95686275 0.87254902 0.66734069
0.50539216 0.95147059 0.7245098
0.5122549 0.9495098 0.72598039
0.53811275 0.95294118 0.72843137
0.57346814 0.94957108 0.71813725
0.61715686 0.95490196 0.71813725
0.67800245 0.93970588 0.71182598
0.75588235 0.93039216 0.70919118
0.84589461 0.95281863 0.72273284
0.90343137 0.95539216 0.71813725
0.40294118 0.15294118 0.76470588
0.43737745 0.1745098 0.75992647
0.50808824 0.1747549 0.76372549
0.60539216 0.17794118 0.76862745
0.70294118 0.21078431 0.76764706
0.78933824 0.24264706 0.7754902
0.86642157 0.2752451 0.78431373
0.94522059 0.2745098 0.77242647
0.97647059 0.28137255 0.76470588
0.41127451 0.23186275 0.76372549
0.43480392 0.22755821 0.76067708
0.50759804 0.21801471 0.76764706
0.60061275 0.24238664 0.76996017
0.70098039 0.26868873 0.76764706
0.7872549 0.30628064 0.77677696
0.86482843 0.3192402 0.78333333
0.94264706 0.33088235 0.77242647
0.97647059 0.33394608 0.76727941
0.40196078 0.31593137 0.76004902
0.42466299 0.30784314 0.76372549
0.50159314 0.32181373 0.76452206
0.59031863 0.33109681 0.76764706
0.68602941 0.35306373 0.77156863
0.77401961 0.39264706 0.77585784
0.85729167 0.40631127 0.78314951
0.92647059 0.41216299 0.77539828
0.98014706 0.43039216 0.7629902
0.3432598 0.40441176 0.75404412
0.3847886 0.40919118 0.75775123
0.47071078 0.41936275 0.75796569
0.57058824 0.43800551 0.76147365
0.66715686 0.4627451 0.77156863
0.76095282 0.49509804 0.78203125
0.8432598 0.51372549 0.78333333
0.92303922 0.51073836 0.77512255
0.98137255 0.52598039 0.76764706
0.26764706 0.50980392 0.74509804
0.30073529 0.50974265 0.74754902
0.39411765 0.51102941 0.74803922
0.52322304 0.53719363 0.75533088
0.64191176 0.56862745 0.76764706
0.73970588 0.58566176 0.78143382
0.82487745 0.61041667 0.78333333
0.90974265 0.61660539 0.77941176
0.99705882 0.61078431 0.76764706
0.28970588 0.64056373 0.75343137
0.32571998 0.64227941 0.75698529
0.39448529 0.64028799 0.75150123
0.49215686 0.64408701 0.7528799
0.60637255 0.65882353 0.76323529
0.71329657 0.68016238 0.77133885
0.80539216 0.69641544 0.77941176
0.89558824 0.71090686 0.77928922
0.98137255 0.71029412 0.77046569
0.32941176 0.76838235 0.76764706
0.37095588 0.76764706 0.76764706
0.42720588 0.7713848 0.76691176
0.50719975 0.76773897 0.76838235
0.60588235 0.77156863 0.77352941
0.69589461 0.7754902 0.77622549
0.79044118 0.79025735 0.77941176
0.88483456 0.79408701 0.77931985
0.97254902 0.79215686 0.76470588
0.40539216 0.87634804 0.7754902
0.42663909 0.87977941 0.77823223
0.46948529 0.88354779 0.77990196
0.54077819 0.88244485 0.78151042
0.61942402 0.88333333 0.78504902
0.69705882 0.87035846 0.78639706
0.77637868 0.86976103 0.78333333
0.86507353 0.87169118 0.77679228
0.96041667 0.87953431 0.77561275
0.44705882 0.93431373 0.77941176
0.48088235 0.94987745 0.79411765
0.51887255 0.95759804 0.79803922
0.5810049 0.96078431 0.80196078
0.64754902 0.96078431 0.80196078
0.70196078 0.95355392 0.79865196
0.77254902 0.95392157 0.79509804
0.85735294 0.9495098 0.79080882
0.94705882 0.95 0.79117647
0.53137255 0.25294118 0.86421569
0.55392157 0.25686275 0.86029412
0.59558824 0.25294118 0.86029412
0.65686275 0.27205882 0.86421569
0.73186275 0.31764706 0.85980392
0.7995098 0.35655637 0.86390931
0.87647059 0.39558824 0.86776961
0.9504902 0.41378676 0.87156863
0.99166667 0.39852941 0.86813725
0.53137255 0.30637255 0.86035539
0.55011489 0.2993413 0.86029412
0.59511336 0.30189951 0.86029412
0.6567019 0.32254902 0.86374847
0.72405025 0.34439338 0.86029412
0.796875 0.38333333 0.86417739
0.87267157 0.42810968 0.86813725
0.95006127 0.43632813 0.87168352
0.98823529 0.42058824 0.86856618
0.52438725 0.35931373 0.86017157
0.5435049 0.37086397 0.86029412
0.58446691 0.37052696 0.86029412
0.64901961 0.39157475 0.86029412
0.71685049 0.4122549 0.86115196
0.79198836 0.44656863 0.86380208
0.8625 0.4856924 0.86443015
0.93566176 0.50543811 0.86732537
0.98345588 0.50453431 0.86029412
0.49362745 0.46715686 0.85245098
0.5127451 0.46734069 0.85637255
0.55784314 0.47094056 0.8564185
0.62696078 0.4823606 0.85765931
0.70416667 0.50343137 0.86029412
0.77745098 0.52911305 0.86238511
0.85298713 0.5696538 0.86475184
0.92669271 0.57730545 0.86609222
0.98970588 0.57469363 0.86029412
0.4004902 0.54044118 0.84068627
0.43967525 0.55416667 0.84852941
0.49901961 0.55686275 0.84681373
0.58391544 0.57175245 0.8504902
0.67414216 0.58872549 0.85637255
0.75186887 0.61102941 0.85808824
0.83602941 0.64264706 0.86464461
0.91715686 0.6495098 0.86764706
0.98259804 0.64558824 0.86029412
0.34411765 0.62941176 0.84068627
0.37876072 0.62990196 0.8404182
0.42941176 0.62843137 0.83854167
0.52713695 0.64001225 0.84772518
0.61577819 0.64681373 0.84852941
0.72628676 0.6872549 0.85245098
0.81911765 0.71439951 0.86122855
0.90389859 0.72910539 0.86329657
0.98253676 0.73039216 0.86029412
0.37573529 0.75686275 0.85245098
0.40147059 0.75364583 0.84987745
0.4377451 0.7489277 0.84938725
0.51158088 0.75330882 0.85231311
0.59436275 0.75177696 0.85330882
0.68988971 0.76127451 0.85277267
0.79846814 0.79215686 0.86421569
0.89439338 0.80615809 0.86776961
0.97647059 0.81421569 0.86813725
0.40588235 0.86813725 0.86029412
0.41704197 0.87205882 0.86373315
0.47127757 0.87604167 0.86378676
0.53137255 0.8682981 0.86078431
0.60612745 0.86075368 0.86072304
0.69133732 0.86993719 0.8658318
0.78737745 0.87303922 0.87081801
0.88780637 0.88382353 0.87205882
0.9716299 0.88817402 0.8754902
0.4627451 0.96470588 0.86813725
0.46666667 0.97512255 0.87205882
0.50882353 0.96813725 0.87205882
0.56127451 0.97058824 0.8754902
0.63504902 0.96421569 0.87598039
0.7127451 0.96911765 0.87941176
0.78639706 0.95686275 0.87598039
0.8838848 0.94068627 0.87205882
0.95637255 0.94803922 0.8754902
0.60392157 0.34117647 0.92156863
0.64264706 0.40735294 0.94117647
0.66078431 0.39117647 0.92941176
0.71617647 0.43529412 0.9504902
0.76078431 0.44901961 0.93529412
0.81862745 0.48921569 0.94264706
0.88529412 0.53431373 0.94117647
0.95 0.56519608 0.94117647
0.96470588 0.55294118 0.93333333
0.6245098 0.42303922 0.94166667
0.64656863 0.4338848 0.94901961
0.66960784 0.43431373 0.94473039
0.71439951 0.45870098 0.95116422
0.75220588 0.44583333 0.92573529
0.81648284 0.50098039 0.94185049
0.88431373 0.53664216 0.93909314
0.94914216 0.56697304 0.93903186
0.96470588 0.55686275 0.93333333
0.61470588 0.46666667 0.93235294
0.63872549 0.4872549 0.94509804
0.6625 0.4875 0.94117647
0.70441176 0.50147059 0.94264706
0.75098039 0.51078431 0.93480392
0.81078431 0.525 0.9254902
0.88039216 0.58480392 0.94730392
0.94522059 0.59301471 0.93210784
0.99901961 0.6127451 0.94803922
0.61176471 0.55245098 0.94362745
0.61666667 0.54607843 0.93872549
0.64938725 0.5557598 0.9372549
0.69509804 0.57297794 0.94509804
0.74387255 0.58602941 0.93872549
0.80686275 0.60490196 0.94209559
0.87291667 0.63333333 0.94117647
0.94215686 0.64969363 0.9372549
0.99607843 0.65588235 0.94362745
0.56666667 0.61176471 0.9372549
0.59436275 0.61985294 0.94534314
0.61911765 0.62254902 0.94117647
0.66568627 0.63382353 0.93848039
0.72843137 0.65 0.94607843
0.78602941 0.66544118 0.93602941
0.86078431 0.68627451 0.93970588
0.93063725 0.69656863 0.9245098
0.97647059 0.68627451 0.91372549
0.50245098 0.66960784 0.94460784
0.50882353 0.675 0.93186275
0.54901961 0.675 0.93823529
0.61133578 0.68627451 0.94117647
0.67622549 0.69632353 0.93602941
0.75980392 0.72205882 0.9372549
0.83958333 0.74117647 0.925
0.92647059 0.76011029 0.9408701
0.97401961 0.76764706 0.94117647
0.44117647 0.76078431 0.92352941
0.46176471 0.76372549 0.92512255
0.50490196 0.76764706 0.92573529
0.56507353 0.76764706 0.94007353
0.62941176 0.76715686 0.93088235
0.72095588 0.77990196 0.92745098
0.81764706 0.7997549 0.9372549
0.90588235 0.81764706 0.94117647
0.97941176 0.83333333 0.94117647
0.46666667 0.86813725 0.94509804
0.46801471 0.8716299 0.93615196
0.51176471 0.87205882 0.94803922
0.55784314 0.86813725 0.93658088
0.61372549 0.8625 0.92990196
0.69099265 0.86078431 0.93498775
0.7872549 0.8682598 0.94901961
0.89166667 0.88339461 0.94754902
0.9877451 0.90294118 0.95245098
0.46666667 0.96470588 0.95294118
0.47401961 0.96519608 0.96078431
0.50882353 0.96862745 0.94313725
0.56176471 0.96470588 0.90441176
0.62156863 0.95098039 0.95490196
0.70637255 0.97401961 0.9622549
0.79509804 0.96764706 0.95588235
0.89607843 0.9372549 0.91764706
0.99215686 0.97254902 0.94117647
