site/assets/luts/natron-haldclut--rollei-ortho-25--3c4f87a3e.cube
# LUTr-Project: LUTr — LUTrepository
# LUTr-Schema-Version: 1
# LUTr-ID: natron-haldclut--rollei-ortho-25--3c4f87a3e
# LUTr-Title: rollei ortho 25
# LUTr-Collection: Natron HaldCLUT
# LUTr-Collection-ID: natron-haldclut-presets
# LUTr-Source: https://github.com/NatronGitHub/clut
# LUTr-Source-File: submissions/natron-haldclut-presets/bw/rollei_ortho_25.png
# LUTr-Source-Format: PNG
# LUTr-Source-SHA256: b1adacf51d7c7f773ee25072626668f897dcc6516709e306311881d4d5446262
# LUTr-License: CC-BY-SA-4.0
# LUTr-License-URL: https://github.com/NatronGitHub/clut#license
# LUTr-Tags: creative, film, film-emulation, hald-clut, natron, png, cube
# LUTr-Transform-Class: film-emulation
# LUTr-Input-Color-Space: srgb
# LUTr-Output-Color-Space: srgb
# LUTr-Color-Space-Confidence: assumed-display-referred
# LUTr-Conversion-Method: PNG LUT image decoded at 16-bit and sampled to 25x25x25 3D CUBE
# LUTr-Conversion-Date: 2026-07-27
# LUTr-Conversion-Tool: LUTr scripts/convert-all-to-cube.mjs
# LUTr-Conversion-Grid: 25x25x25
# LUTr-Note: Preserve this metadata and the upstream license notices when redistributing.
TITLE "rollei ortho 25"
LUT_3D_SIZE 5
DOMAIN_MIN 0 0 0
DOMAIN_MAX 1 1 1
0 0 0
0.026470588 0.026470588 0.026470588
0.021568627 0.021568627 0.021568627
0.010784314 0.010784314 0.010784314
0.011764706 0.011764706 0.011764706
0.11176471 0.11176471 0.11176471
0.13529412 0.13529412 0.13529412
0.12696078 0.12696078 0.12696078
0.13504902 0.13504902 0.13504902
0.14411765 0.14411765 0.14411765
0.25686275 0.25686275 0.25686275
0.26470588 0.26470588 0.26470588
0.26960784 0.26960784 0.26960784
0.27303922 0.27303922 0.27303922
0.28431373 0.28431373 0.28431373
0.48235294 0.48235294 0.48235294
0.48823529 0.48823529 0.48823529
0.49264706 0.49264706 0.49264706
0.50686275 0.50686275 0.50686275
0.52254902 0.52254902 0.52254902
0.85490196 0.85490196 0.85490196
0.84803922 0.84803922 0.84803922
0.85098039 0.85098039 0.85098039
0.85196078 0.85196078 0.85196078
0.86666667 0.86666667 0.86666667
0.11862745 0.11862745 0.11862745
0.13186275 0.13186275 0.13186275
0.14215686 0.14215686 0.14215686
0.14436275 0.14436275 0.14436275
0.16372549 0.16372549 0.16372549
0.21960784 0.21960784 0.21960784
0.22745098 0.22745098 0.22745098
0.22745098 0.22745098 0.22745098
0.23921569 0.23921569 0.23921569
0.25 0.25 0.25
0.34509804 0.34509804 0.34509804
0.35294118 0.35294118 0.35294118
0.3622549 0.3622549 0.3622549
0.37058824 0.37058824 0.37058824
0.37745098 0.37745098 0.37745098
0.62965686 0.62965686 0.62965686
0.6372549 0.6372549 0.6372549
0.63921569 0.63921569 0.63921569
0.64552696 0.64552696 0.64552696
0.67254902 0.67254902 0.67254902
0.87843137 0.87843137 0.87843137
0.87745098 0.87745098 0.87745098
0.88137255 0.88137255 0.88137255
0.88308824 0.88308824 0.88308824
0.89705882 0.89705882 0.89705882
0.26078431 0.26078431 0.26078431
0.27205882 0.27205882 0.27205882
0.28333333 0.28333333 0.28333333
0.29460784 0.29460784 0.29460784
0.30588235 0.30588235 0.30588235
0.38578431 0.38578431 0.38578431
0.39558824 0.39558824 0.39558824
0.40588235 0.40588235 0.40588235
0.41335784 0.41335784 0.41335784
0.43039216 0.43039216 0.43039216
0.59411765 0.59411765 0.59411765
0.59779412 0.59779412 0.59779412
0.61666667 0.61666667 0.61666667
0.63504902 0.63504902 0.63504902
0.65392157 0.65392157 0.65392157
0.8004902 0.8004902 0.8004902
0.79583333 0.79583333 0.79583333
0.8004902 0.8004902 0.8004902
0.80514706 0.80514706 0.80514706
0.81764706 0.81764706 0.81764706
0.93137255 0.93137255 0.93137255
0.93137255 0.93137255 0.93137255
0.92941176 0.92941176 0.92941176
0.93529412 0.93529412 0.93529412
0.94117647 0.94117647 0.94117647
0.52352941 0.52352941 0.52352941
0.55514706 0.55514706 0.55514706
0.58921569 0.58921569 0.58921569
0.6127451 0.6127451 0.6127451
0.62058824 0.62058824 0.62058824
0.71960784 0.71960784 0.71960784
0.72886029 0.72886029 0.72886029
0.74080882 0.74080882 0.74080882
0.75490196 0.75490196 0.75490196
0.77058824 0.77058824 0.77058824
0.81617647 0.81617647 0.81617647
0.83137255 0.83137255 0.83137255
0.83137255 0.83137255 0.83137255
0.84117647 0.84117647 0.84117647
0.84705882 0.84705882 0.84705882
0.90882353 0.90882353 0.90882353
0.90839461 0.90839461 0.90839461
0.91176471 0.91176471 0.91176471
0.91550245 0.91550245 0.91550245
0.91568627 0.91568627 0.91568627
0.97647059 0.97647059 0.97647059
0.97720588 0.97720588 0.97720588
0.97352941 0.97352941 0.97352941
0.97965686 0.97965686 0.97965686
0.98431373 0.98431373 0.98431373
0.83921569 0.83921569 0.83921569
0.85392157 0.85392157 0.85392157
0.8627451 0.8627451 0.8627451
0.86568627 0.86568627 0.86568627
0.87843137 0.87843137 0.87843137
0.9 0.9 0.9
0.89877451 0.89877451 0.89877451
0.9004902 0.9004902 0.9004902
0.90906863 0.90906863 0.90906863
0.91960784 0.91960784 0.91960784
0.94901961 0.94901961 0.94901961
0.94509804 0.94509804 0.94509804
0.94215686 0.94215686 0.94215686
0.95147059 0.95147059 0.95147059
0.95490196 0.95490196 0.95490196
0.96960784 0.96960784 0.96960784
0.97573529 0.97573529 0.97573529
0.98431373 0.98431373 0.98431373
0.98823529 0.98823529 0.98823529
0.99215686 0.99215686 0.99215686
1 1 1
0.99607843 0.99607843 0.99607843
1 1 1
0.98823529 0.98823529 0.98823529
0.99607843 0.99607843 0.99607843
