site/assets/luts/natron-haldclut--polaroid-690-warm---0a6bea6b1.cube
# LUTr-Project: LUTr — LUTrepository
# LUTr-Schema-Version: 1
# LUTr-ID: natron-haldclut--polaroid-690-warm---0a6bea6b1
# LUTr-Title: polaroid 690 warm -
# LUTr-Collection: Natron HaldCLUT
# LUTr-Collection-ID: natron-haldclut-presets
# LUTr-Source: https://github.com/NatronGitHub/clut
# LUTr-Source-File: submissions/natron-haldclut-presets/instant_pro/polaroid_690_warm_-.png
# LUTr-Source-Format: PNG
# LUTr-Source-SHA256: c151e8f70d129c7191efabca41c1f9293c535c50560124b5a4a4a6aa403422c9
# LUTr-License: CC-BY-SA-4.0
# LUTr-License-URL: https://github.com/NatronGitHub/clut#license
# LUTr-Tags: creative, film, film-emulation, hald-clut, natron, png, warm, cube
# LUTr-Transform-Class: film-emulation
# LUTr-Input-Color-Space: srgb
# LUTr-Output-Color-Space: srgb
# LUTr-Color-Space-Confidence: assumed-display-referred
# LUTr-Conversion-Method: PNG LUT image decoded at 16-bit and sampled to 25x25x25 3D CUBE
# LUTr-Conversion-Date: 2026-07-27
# LUTr-Conversion-Tool: LUTr scripts/convert-all-to-cube.mjs
# LUTr-Conversion-Grid: 25x25x25
# LUTr-Note: Preserve this metadata and the upstream license notices when redistributing.
TITLE "polaroid 690 warm -"
LUT_3D_SIZE 9
DOMAIN_MIN 0 0 0
DOMAIN_MAX 1 1 1
0.058823529 0.023529412 0.011764706
0.13627451 0.035294118 0.015686275
0.23235294 0.0049019608 0.015686275
0.37058824 0.0078431373 0.037745098
0.50784314 0.0039215686 0.035294118
0.64264706 0 0.0039215686
0.77647059 0 0
0.90784314 0 0.0039215686
1 0 0
0.09754902 0.097058824 0.015686275
0.15055147 0.096568627 0.015686275
0.25845588 0.081862745 0.015686275
0.39001225 0.038541667 0.0088235294
0.53088235 0.015196078 0.025490196
0.67352941 0 0.0065563725
0.80735294 0 0.0039215686
0.92653186 0.00042892157 0.0039215686
0.98823529 0.0034313725 0.0039215686
0.10588235 0.21470588 0.024509804
0.15980392 0.21568627 0.0078431373
0.27058824 0.21176471 0.0078431373
0.42696078 0.21764706 0.006004902
0.57892157 0.17254902 0.0078431373
0.71654412 0.11948529 0.0067401961
0.84926471 0.049264706 0
0.96078431 0.015808824 0
0.99901961 0.0029411765 0
0.095588235 0.35098039 0
0.16078431 0.34705882 0.0039215686
0.26323529 0.35036765 0
0.42009804 0.37003676 0
0.60147059 0.37843137 0.0039215686
0.76519608 0.39123775 0
0.89803922 0.38296569 0
0.96568627 0.34724265 0.0024509804
1 0.34656863 0.0024509804
0.052941176 0.47843137 0
0.15539216 0.4745098 0
0.25539216 0.4745098 0
0.4004902 0.49656863 0
0.57156863 0.51862745 0
0.73872549 0.53480392 0
0.88529412 0.55343137 0
0.98088235 0.55294118 0.0039215686
1 0.55882353 0.0039215686
0.11127451 0.60196078 0
0.18216912 0.59803922 0
0.27598039 0.59803922 0
0.4028799 0.60833333 0
0.55955882 0.63259804 0
0.72107843 0.65686275 0
0.86727941 0.67708333 0
0.96421569 0.68854167 0
0.99607843 0.70637255 0
0.23235294 0.72941176 0.0039215686
0.28872549 0.7254902 0.0074754902
0.36151961 0.72156863 0.0078431373
0.46519608 0.7254902 0.0039215686
0.57990196 0.73676471 0
0.725 0.75796569 0.00036764706
0.86348039 0.77647059 0.0078431373
0.95735294 0.79117647 0
0.99607843 0.79901961 0
0.39460784 0.85294118 0.0078431373
0.42113971 0.8495098 0.0088235294
0.47708333 0.84509804 0.014338235
0.56176471 0.84901961 0.0093137255
0.65612745 0.85245098 0.012009804
0.76109069 0.85814951 0.0075367647
0.88272059 0.87205882 0.022426471
0.96525735 0.88039216 0.027389706
1 0.89509804 0
0.56078431 0.95686275 0.18039216
0.58333333 0.96421569 0.20294118
0.61568627 0.96176471 0.18039216
0.66127451 0.95294118 0.12745098
0.74509804 0.95882353 0.1372549
0.8254902 0.95686275 0.12990196
0.91176471 0.96078431 0.15294118
0.98529412 0.96470588 0.16617647
1 0.96470588 0.16470588
0.082352941 0.039215686 0.065686275
0.13235294 0.031372549 0.076960784
0.24705882 0.020465686 0.07745098
0.35900735 0.0052083333 0.073529412
0.5 0 0.075245098
0.64117647 0 0.075490196
0.76519608 0 0.049877451
0.9 0 0.042156863
0.99607843 0 0.026960784
0.10496324 0.10441176 0.079963235
0.15496324 0.096193321 0.076531863
0.26193321 0.079641544 0.076960784
0.38400735 0.03839614 0.069385723
0.52696078 0.011060049 0.071109069
0.66803002 0 0.06160386
0.79607843 0 0.045098039
0.91083793 0.00042892157 0.025980392
0.99908088 0 0
0.12009804 0.22218137 0.08125
0.17414216 0.21438419 0.072824755
0.27803309 0.21813725 0.058915441
0.42677696 0.22504596 0.069914216
0.58431373 0.190625 0.063296569
0.71764706 0.12383578 0.046246936
0.84166667 0.046660539 0.033210784
0.95413603 0.024203431 0.022610294
0.99914216 0.025490196 0
0.11470588 0.35833333 0.055392157
0.17516085 0.35441176 0.047487745
0.27794118 0.3613511 0.029503676
0.43460478 0.38076746 0.01004136
0.60922181 0.39329044 0.013633578
0.7604856 0.38494179 0.018252145
0.88909314 0.36421569 0.016038603
0.97745098 0.34095435 0.019829963
1 0.34509804 0.0099877451
0.10147059 0.48970588 0.020343137
0.17821691 0.48431373 0.029963235
0.271875 0.48596814 0.0039215686
0.41403186 0.5004902 0.019699755
0.57830882 0.52610294 0.01127451
0.74656863 0.54494485 0
0.88915441 0.55539216 0.0073529412
0.99436275 0.56642157 0.025459559
1 0.57058824 0.040931373
0.13529412 0.61323529 0.01127451
0.19969363 0.610072 0.0091528799
0.29215686 0.60716912 0.0044577206
0.41452972 0.61525735 0
0.56651348 0.6377451 0.0021446078
0.72714461 0.66218597 0.0039215686
0.87058824 0.68374694 0.0039215686
0.97538297 0.69618566 0.012905944
0.99981618 0.71029412 0.079105392
0.23492647 0.7372549 0.00098039216
0.27352941 0.73321078 0.0040441176
0.35294118 0.73284314 0.0042585784
0.45404412 0.72882966 0
0.5877451 0.74197304 0.00042892157
0.72953431 0.76127451 0.0039215686
0.8627451 0.78324142 0.0088235294
0.96568627 0.79509804 0.0039828431
0.99865196 0.80686275 0
0.37591912 0.8598652 0.01127451
0.40507047 0.85643382 0.0082797181
0.46323529 0.85294118 0.0081801471
0.54656863 0.85236673 0.0066789216
0.64463848 0.85294118 0.012254902
0.75572151 0.86002604 0.0086014093
0.87401961 0.87303922 0.0078431373
0.96874234 0.88382353 0.0083333333
0.99957108 0.89509804 0.036213235
0.55196078 0.95637255 0.22892157
0.56911765 0.95729167 0.22830882
0.6060049 0.95343137 0.21237745
0.66813725 0.95735294 0.21096814
0.74117647 0.95490196 0.17941176
0.82028186 0.95441176 0.17843137
0.90796569 0.95698529 0.19497549
0.9778799 0.96078431 0.21023284
1 0.96470588 0.23088235
0.078431373 0.043137255 0.18039216
0.14656863 0.054411765 0.19080882
0.25171569 0.01372549 0.19117647
0.36384804 0.029289216 0.17071078
0.5 0.0053921569 0.17745098
0.62659314 0 0.16470588
0.76078431 0 0.15269608
0.89607843 0 0.13321078
0.99215686 0 0.11372549
0.13198529 0.10870098 0.19215686
0.1627451 0.11213235 0.19515931
0.26363358 0.10729167 0.19117647
0.38573836 0.082261029 0.18762255
0.5182598 0.0087009804 0.17873775
0.6488511 0.00022977941 0.16617647
0.77254902 0 0.14191176
0.90081189 0 0.12849265
0.99252451 0 0.10943627
0.13946078 0.21862745 0.20073529
0.1939951 0.22545956 0.20370711
0.29607843 0.22965686 0.20925245
0.43014706 0.22714461 0.21262255
0.57267157 0.18566176 0.20441176
0.69071691 0.10070466 0.18079044
0.81862745 0.022303922 0.16053922
0.93722426 0.011550245 0.13676471
0.99509804 0.0039215686 0.11372549
0.14595588 0.37205882 0.21078431
0.20147059 0.37561275 0.20900735
0.30670956 0.38419118 0.21188725
0.44754902 0.39097733 0.20637255
0.6125 0.4004902 0.20827206
0.75476409 0.38301164 0.19791667
0.87322304 0.3395527 0.18844975
0.96041667 0.29759498 0.15343137
0.99607843 0.25625 0.13480392
0.14509804 0.5127451 0.20588235
0.20159314 0.50900735 0.20349265
0.30098039 0.50502451 0.19362745
0.42653186 0.50772059 0.17794118
0.5877451 0.53578431 0.15245098
0.75496324 0.55232843 0.16035539
0.89705882 0.56568627 0.19448529
0.98253676 0.55686275 0.22591912
1 0.54313725 0.22254902
0.1622549 0.63627451 0.1877451
0.22647059 0.63235294 0.17561275
0.31911765 0.62622549 0.1560049
0.42918199 0.62120098 0.14068627
0.5745098 0.64044118 0.11495098
0.73468137 0.66378676 0.10939032
0.8745098 0.68382353 0.1182598
0.98365502 0.7026348 0.17054228
1 0.71176471 0.26090686
0.23921569 0.74901961 0.16372549
0.27582721 0.74877451 0.14908088
0.35563725 0.74430147 0.12941176
0.45977328 0.7372549 0.11715686
0.59117647 0.74607843 0.096568627
0.72699142 0.76372549 0.066911765
0.8625 0.78039216 0.075183824
0.97405025 0.79901961 0.13177083
1 0.80980392 0.21985294
0.37156863 0.86335784 0.18627451
0.39840686 0.86029412 0.19266238
0.45147059 0.85637255 0.17009804
0.52691483 0.85294118 0.126394
0.62941176 0.85422794 0.1033701
0.74857537 0.86260723 0.086948529
0.86311275 0.87205882 0.090410539
0.96323529 0.88425245 0.13393076
1 0.89166667 0.19362745
0.54901961 0.95686275 0.33823529
0.56507353 0.95772059 0.33823529
0.59313725 0.95147059 0.31323529
0.65833333 0.95539216 0.30588235
0.72794118 0.95 0.28578431
0.81617647 0.95330882 0.28480392
0.90098039 0.95392157 0.29534314
0.97830882 0.96127451 0.3182598
1 0.96470588 0.34019608
0.033333333 0.048529412 0.32205882
0.11519608 0.043443627 0.33988971
0.25 0.025122549 0.3627451
0.40539216 0.0044730392 0.36856618
0.53627451 0.0039215686 0.34460784
0.64025735 0 0.30790441
0.77536765 0 0.29852941
0.8903799 0 0.27714461
0.99460784 0 0.25931373
0.093933824 0.12040441 0.34117647
0.1627068 0.12401961 0.35165441
0.27267157 0.11580882 0.36867341
0.42372089 0.097242647 0.38303462
0.54721201 0.063235294 0.36510417
0.65264246 0.018206189 0.3196155
0.77254902 0.0035539216 0.29362745
0.89542739 0.0038602941 0.27843137
0.98039216 0 0.26323529
0.13627451 0.21813725 0.34129902
0.20257353 0.23132659 0.34924939
0.30784314 0.23823529 0.3745098
0.45202206 0.24607843 0.39771752
0.57009804 0.20931373 0.37720588
0.67918199 0.16727941 0.33419118
0.79901961 0.045220588 0.30220588
0.91599265 0.017202819 0.27501532
0.98431373 0.0096813725 0.25931373
0.16378676 0.37696078 0.37009804
0.22709099 0.38872549 0.37530637
0.33186275 0.39656863 0.39486826
0.46623775 0.40651808 0.40028339
0.6080576 0.40416667 0.39632353
0.72410386 0.33970588 0.35686275
0.84558824 0.29768689 0.33382353
0.95936734 0.23325674 0.28872549
1 0.15238971 0.26084559
0.2002451 0.53897059 0.39240196
0.24313725 0.53863358 0.39540441
0.33860294 0.53186275 0.39656863
0.46053922 0.53924632 0.39359681
0.60416667 0.5502451 0.38382353
0.7546875 0.54656863 0.38483456
0.88921569 0.54473039 0.39068627
0.97696078 0.49886642 0.36675858
1 0.49803922 0.33480392
0.2 0.66170343 0.37941176
0.25336244 0.66023284 0.38670343
0.34607843 0.65497855 0.38639706
0.45089614 0.6466299 0.35945925
0.58480392 0.65073529 0.34610907
0.73584559 0.66713388 0.36078431
0.88624387 0.692356 0.37182904
0.98480392 0.70275735 0.40624234
0.99908088 0.71078431 0.45294118
0.24607843 0.77009804 0.37046569
0.29109988 0.76654412 0.36243873
0.37009804 0.7622549 0.35505515
0.46855086 0.75257353 0.33529412
0.58468137 0.75226716 0.31421569
0.72869179 0.76911765 0.31960784
0.8627451 0.7872549 0.3260723
0.97660846 0.79938725 0.36194853
1 0.81470588 0.41617647
0.36734069 0.87058824 0.38449755
0.39146752 0.87058824 0.3685432
0.44025735 0.86666667 0.3511489
0.52598039 0.86060049 0.33431373
0.61976103 0.85931373 0.30906863
0.73970588 0.86421569 0.30428922
0.8589614 0.87575061 0.32109375
0.95806526 0.88409161 0.34554994
0.99607843 0.89148284 0.39264706
0.53186275 0.95539216 0.45931373
0.53756127 0.95245098 0.4504902
0.58443627 0.9557598 0.44718137
0.64650735 0.95778186 0.43964461
0.71691176 0.95343137 0.41421569
0.79264706 0.94025735 0.39264706
0.89105392 0.95147059 0.40833333
0.97352941 0.95931373 0.43578431
0.98823529 0.95686275 0.44264706
0.0078431373 0.068627451 0.50196078
0.045833333 0.058333333 0.50735294
0.23333333 0.038235294 0.52647059
0.42892157 0.014460784 0.5625
0.6 0.0039215686 0.57058824
0.70563725 0.0098039216 0.52205882
0.79509804 0.0034313725 0.47696078
0.8995098 0 0.4504902
0.98431373 0.0039215686 0.43529412
0.016666667 0.12401961 0.50392157
0.12405025 0.13207721 0.51522672
0.27083333 0.12561275 0.53860294
0.44411765 0.10278799 0.57034314
0.60563725 0.086887255 0.58627451
0.71020221 0.032291667 0.53416054
0.79993873 0.01127451 0.4754902
0.90735294 0.012806373 0.45073529
0.98382353 0 0.4370098
0.10784314 0.2377451 0.50588235
0.17794118 0.24117647 0.51397059
0.29546569 0.24705882 0.54411765
0.46115196 0.25784314 0.56911765
0.61764706 0.26495098 0.59803922
0.71360294 0.23572304 0.53339461
0.81176471 0.18406863 0.49313725
0.91507353 0.030514706 0.45275735
0.97990196 0.0039215686 0.43578431
0.15465686 0.37696078 0.51617647
0.20343137 0.36927083 0.51421569
0.30827206 0.37634804 0.52794118
0.46715686 0.40686275 0.56715686
0.62781863 0.42634804 0.59546569
0.72766544 0.38333333 0.54264706
0.82928922 0.32352941 0.49705882
0.93210784 0.20735294 0.44739583
0.99607843 0.021078431 0.3997549
0.20098039 0.52941176 0.54019608
0.24791667 0.52941176 0.54681373
0.35882353 0.54093137 0.56176471
0.48590686 0.55612745 0.57181373
0.61421569 0.55637255 0.56960784
0.75723039 0.54620098 0.57107843
0.86053922 0.4877451 0.52328431
0.95294118 0.41887255 0.46997549
1 0.3872549 0.43235294
0.25759804 0.66862745 0.55490196
0.3135723 0.67754289 0.56911765
0.39705882 0.67843137 0.57254902
0.50119485 0.68011642 0.56277574
0.60588235 0.67303922 0.54718137
0.75193015 0.68431373 0.55661765
0.88449755 0.703125 0.58259804
0.97622549 0.70058211 0.59224877
1 0.66911765 0.55490196
0.30392157 0.78333333 0.56078431
0.3377451 0.78529412 0.5560049
0.40502451 0.78345588 0.54803922
0.50122549 0.7776348 0.5341299
0.60490196 0.76960784 0.51470588
0.725 0.77426471 0.50441176
0.85882353 0.79436275 0.5245098
0.96605392 0.80294118 0.55392157
0.99607843 0.81421569 0.6004902
0.38014706 0.87769608 0.55686275
0.40680147 0.87990196 0.55294118
0.46421569 0.87598039 0.54252451
0.53103554 0.87401961 0.5247549
0.62438725 0.86727941 0.49840686
0.72809436 0.86421569 0.48299632
0.85447304 0.87971814 0.49895833
0.95413603 0.88731618 0.52791054
0.99607843 0.89730392 0.55833333
0.53333333 0.95686275 0.6
0.53823529 0.95465686 0.59779412
0.59068627 0.96470588 0.59852941
0.62598039 0.94460784 0.56887255
0.69901961 0.94705882 0.55
0.79460784 0.95759804 0.54313725
0.88088235 0.95882353 0.54705882
0.96004902 0.96078431 0.56544118
0.99215686 0.96078431 0.58431373
0.011764706 0.094117647 0.66617647
0.019730392 0.07254902 0.67371324
0.2377451 0.053431373 0.68872549
0.43186275 0.016176471 0.72352941
0.62352941 0.0066176471 0.75294118
0.76568627 0.009375 0.74160539
0.86078431 0.0068627451 0.69460784
0.94148284 0.0039215686 0.6495098
0.99215686 0.0039215686 0.6245098
0.020098039 0.14117647 0.67156863
0.098874081 0.143053 0.68155637
0.27352941 0.13939951 0.69664522
0.44804688 0.13364737 0.72205882
0.63137255 0.11862745 0.75309436
0.77194393 0.095159314 0.74394148
0.86416973 0.061580882 0.69502145
0.94193474 0.051508885 0.65271906
0.99215686 0.021875 0.62058824
0.1004902 0.25134804 0.67156863
0.17009804 0.25306373 0.68186275
0.29733456 0.25563725 0.69381127
0.45409007 0.26458333 0.71813725
0.63088235 0.2872549 0.74993873
0.77575061 0.28638174 0.75105699
0.86810662 0.25526961 0.70245098
0.94327512 0.22647059 0.65235907
0.99607843 0.1314951 0.62303922
0.11470588 0.3627451 0.65349265
0.18566942 0.36966912 0.66354167
0.30588235 0.38304228 0.67470895
0.46176471 0.40140931 0.70637255
0.63183211 0.43213848 0.74341299
0.77506127 0.44901961 0.75455729
0.8682598 0.40654105 0.70375306
0.94001225 0.35772059 0.65104933
0.99607843 0.24319853 0.60637255
0.14877451 0.50245098 0.65612745
0.21372549 0.50873162 0.66436887
0.32009804 0.51158088 0.66648284
0.45906863 0.52693015 0.68995098
0.62022059 0.5620098 0.72181373
0.77674632 0.59215686 0.74509804
0.86930147 0.53204657 0.69258578
0.94656863 0.4763174 0.63872549
0.99607843 0.36102941 0.57965686
0.26623775 0.66617647 0.69607843
0.31575521 0.66439951 0.69626225
0.39571078 0.66862745 0.69856005
0.5156633 0.67557445 0.71029412
0.63992034 0.69653799 0.72184436
0.76308977 0.7095435 0.73004749
0.87352941 0.68359375 0.71519608
0.95973499 0.62856158 0.66918658
0.99699755 0.5627451 0.61427696
0.40428922 0.79901961 0.71960784
0.44509804 0.80340074 0.72659314
0.50208333 0.79672181 0.72107843
0.5712163 0.80012255 0.72179841
0.64203431 0.7908701 0.70238971
0.74676777 0.7933364 0.70297181
0.86678922 0.80367647 0.70588235
0.96176471 0.81262255 0.72553615
0.99607843 0.81470588 0.73578431
0.46599265 0.8877451 0.71979167
0.49264706 0.88747702 0.71956955
0.52254902 0.88737745 0.713894
0.58234528 0.88382353 0.7109758
0.6518076 0.88063725 0.69068627
0.73852635 0.87352941 0.66753217
0.84215686 0.87780331 0.66194853
0.95 0.89139859 0.69411765
0.99215686 0.89558824 0.71666667
0.58333333 0.96078431 0.74068627
0.57352941 0.95189951 0.73829657
0.61764706 0.95686275 0.73137255
0.65637255 0.95833333 0.72984069
0.71519608 0.95759804 0.71127451
0.78333333 0.95147059 0.69215686
0.85637255 0.94301471 0.67193627
0.9463848 0.95343137 0.69264706
0.99607843 0.96470588 0.71960784
0.042156863 0.10098039 0.81568627
0.11666667 0.096078431 0.81875
0.29901961 0.088235294 0.82720588
0.46017157 0.066053922 0.84215686
0.62794118 0.062745098 0.85539216
0.79375 0.097058824 0.87794118
0.90588235 0.11176471 0.86176471
0.97892157 0.10526961 0.83676471
0.99607843 0.13333333 0.79705882
0.062254902 0.16164216 0.81948529
0.18829657 0.16678922 0.82352941
0.3270527 0.16421569 0.82720588
0.47060355 0.16046262 0.84304534
0.63578431 0.16415441 0.8622549
0.79920343 0.20589767 0.8754902
0.90625 0.20487132 0.86014093
0.98224571 0.20294118 0.8330576
0.99607843 0.19963235 0.80490196
0.13553922 0.26446078 0.8125
0.21642157 0.27147672 0.81495098
0.33529412 0.27493873 0.81550245
0.47539828 0.27732843 0.83327206
0.63823529 0.30085784 0.85404412
0.79546569 0.33541667 0.87071078
0.90661765 0.35098039 0.86158088
0.97784926 0.32892157 0.82659314
0.99289216 0.30686275 0.79240196
0.13823529 0.37267157 0.79252451
0.21551777 0.38325674 0.8060049
0.325 0.38973652 0.80514706
0.47598039 0.40585172 0.81885723
0.63400735 0.43719363 0.84650735
0.78705576 0.4833027 0.86761642
0.89788603 0.49264706 0.8575674
0.97046569 0.45543811 0.83282782
0.99754902 0.42585784 0.79705882
0.045588235 0.48480392 0.77009804
0.18394608 0.49779412 0.77971814
0.29656863 0.50196078 0.77855392
0.4497549 0.51881127 0.79577206
0.61960784 0.55245098 0.82254902
0.77916667 0.60686275 0.85471814
0.88811275 0.62034314 0.85392157
0.95882353 0.57849265 0.8213848
0.98823529 0.55245098 0.80245098
0.19718137 0.64620098 0.78872549
0.25050551 0.64535846 0.79214154
0.34852941 0.64558824 0.78918505
0.46213235 0.64558824 0.79656863
0.59889706 0.65692402 0.80955882
0.74969363 0.69477635 0.83218444
0.88026961 0.72892157 0.84920343
0.95147059 0.67781863 0.80784314
0.99607843 0.61531863 0.76090686
0.40392157 0.79044118 0.81470588
0.41709559 0.78897059 0.8182598
0.48333333 0.7872549 0.81862745
0.55796569 0.78431373 0.82254902
0.66348039 0.79313725 0.83039216
0.76764706 0.8004902 0.83707108
0.87218137 0.82181373 0.84926471
0.95306373 0.80395221 0.83177083
0.99607843 0.75759804 0.79901961
0.57757353 0.89154412 0.84607843
0.58965993 0.89122243 0.84252451
0.62463235 0.89445466 0.84215686
0.66188725 0.89166667 0.84215686
0.7216299 0.89117647 0.83719363
0.78137255 0.89117647 0.82696078
0.86262255 0.89215686 0.82401961
0.94483762 0.89880515 0.82820159
0.9872549 0.90294118 0.84693627
0.66176471 0.95980392 0.85392157
0.66960784 0.96078431 0.85
0.6870098 0.96151961 0.85294118
0.71421569 0.95796569 0.84718137
0.75490196 0.95637255 0.83823529
0.80637255 0.95294118 0.82745098
0.85784314 0.94730392 0.81397059
0.94129902 0.95637255 0.81470588
0.9872549 0.95686275 0.8254902
0.27794118 0.1745098 0.92647059
0.3122549 0.15882353 0.92647059
0.40980392 0.15428922 0.93088235
0.53155637 0.16292892 0.93302696
0.66568627 0.18088235 0.93431373
0.80245098 0.21930147 0.9473652
0.92156863 0.27855392 0.95
0.98480392 0.32843137 0.94607843
0.99607843 0.34705882 0.94607843
0.29313725 0.21960784 0.92303922
0.33431373 0.21220129 0.92696078
0.41884191 0.2209712 0.92561275
0.54197304 0.22730545 0.93431373
0.67156863 0.25294118 0.93455882
0.80588235 0.27859988 0.95
0.92875306 0.35185355 0.95477941
0.98872549 0.36573989 0.94607843
0.99607843 0.35833333 0.93186275
0.29718137 0.30441176 0.92267157
0.34269301 0.30833333 0.92254902
0.42303922 0.3122549 0.91890319
0.54068627 0.31960784 0.92941176
0.67107843 0.34901961 0.93039216
0.80254289 0.3847886 0.94247855
0.92058824 0.44610907 0.94705882
0.98039216 0.45654105 0.93776042
0.99607843 0.44166667 0.91384804
0.28186275 0.40882353 0.91127451
0.31519608 0.41285233 0.90863971
0.41386336 0.41832108 0.91519608
0.53032322 0.43542433 0.91666667
0.6627451 0.4638174 0.92328431
0.79460784 0.50765931 0.93087469
0.91384804 0.55865502 0.94192708
0.98133425 0.55637255 0.93731618
0.99607843 0.55392157 0.92794118
0.2002451 0.52058824 0.88995098
0.25839461 0.52012868 0.89411765
0.36678922 0.5247549 0.89276961
0.49690564 0.54019608 0.90376838
0.64803922 0.57046569 0.91666667
0.78872549 0.6158701 0.9239277
0.90098039 0.65980392 0.93792892
0.97745098 0.66568627 0.93431373
0.99828431 0.6504902 0.92132353
0.15520833 0.63137255 0.88382353
0.20556066 0.63137255 0.88556219
0.31456801 0.62973346 0.88128064
0.44153646 0.63254442 0.88767616
0.59810049 0.65784314 0.89779412
0.76488205 0.7016008 0.90938266
0.88921569 0.74705882 0.92633272
0.96546415 0.75441176 0.92647059
0.99460784 0.73529412 0.90471814
0.3745098 0.77647059 0.89129902
0.3814951 0.77222733 0.89129902
0.43958333 0.77181373 0.89129902
0.51930147 0.77075674 0.89509804
0.61844363 0.7651348 0.89901961
0.73181679 0.77558211 0.89509804
0.86571691 0.81642157 0.91761642
0.95687806 0.83860294 0.9254902
0.99301471 0.80588235 0.90196078
0.53627451 0.88333333 0.90735294
0.55496324 0.87598039 0.90735294
0.59215686 0.88284314 0.90343137
0.65467984 0.88033088 0.90343137
0.71498162 0.88382353 0.90664828
0.80528493 0.89182751 0.91123621
0.87389706 0.89522059 0.91470588
0.94924939 0.90686275 0.91733303
0.99215686 0.8877451 0.90686275
0.70637255 0.95294118 0.92205882
0.72015931 0.94901961 0.92205882
0.75428922 0.95551471 0.92205882
0.78314951 0.95686275 0.92254902
0.8122549 0.95906863 0.91838235
0.84920343 0.95686275 0.91862745
0.90392157 0.95723039 0.91421569
0.94264706 0.95343137 0.90343137
1 0.96862745 0.91470588
0.48627451 0.29411765 0.99215686
0.50147059 0.29803922 0.98823529
0.55490196 0.30294118 0.98921569
0.64509804 0.30833333 0.99460784
0.72745098 0.3254902 0.98823529
0.83039216 0.34117647 0.98676471
0.9245098 0.39313725 0.98529412
0.98921569 0.4877451 0.99215686
0.99607843 0.48627451 0.98823529
0.48578431 0.32843137 0.98823529
0.51072304 0.32892157 0.98915441
0.56151961 0.33284314 0.99007353
0.6346201 0.34227941 0.98823529
0.73137255 0.35784314 0.98259804
0.83578431 0.39803922 0.99215686
0.92708333 0.45588235 0.99215686
0.99613971 0.50980392 0.99215686
0.99607843 0.50490196 0.98823529
0.49509804 0.40882353 0.98921569
0.52622549 0.40931373 0.98909314
0.56470588 0.40784314 0.98333333
0.64203431 0.41911765 0.98615196
0.73921569 0.44215686 0.98431373
0.83186275 0.46911765 0.98431373
0.91985294 0.50784314 0.98357843
0.97794118 0.54105392 0.97659314
0.99607843 0.56568627 0.98039216
0.48627451 0.49607843 0.98039216
0.52726716 0.50667892 0.98560049
0.55845588 0.49963235 0.97683824
0.64865196 0.51868873 0.98431373
0.73921569 0.53872549 0.98431373
0.83186275 0.56476716 0.98039216
0.91605392 0.60147059 0.98039216
0.97696078 0.63903186 0.98253676
1 0.66078431 0.98039216
0.47843137 0.59215686 0.97843137
0.48333333 0.58627451 0.97205882
0.55588235 0.59852941 0.98088235
0.61446078 0.60245098 0.97254902
0.73235294 0.62745098 0.98039216
0.82401961 0.65441176 0.97647059
0.90833333 0.68921569 0.97990196
0.98137255 0.73602941 0.98235294
0.99607843 0.73333333 0.97647059
0.43676471 0.68431373 0.97254902
0.45441176 0.68284314 0.97009804
0.48480392 0.67745098 0.96323529
0.58290441 0.68676471 0.96617647
0.69705882 0.70171569 0.96715686
0.81078431 0.73382353 0.97107843
0.90281863 0.76078431 0.96862745
0.96127451 0.78529412 0.96519608
1 0.81470588 0.97647059
0.49607843 0.79901961 0.96470588
0.48431373 0.79117647 0.9560049
0.53308824 0.79289216 0.96544118
0.57352941 0.77855392 0.95208333
0.68039216 0.7872549 0.9622549
0.77218137 0.7935049 0.95588235
0.88137255 0.82647059 0.96470588
0.96139706 0.85735294 0.96862745
0.99215686 0.86862745 0.96470588
0.60735294 0.89558824 0.95735294
0.62555147 0.89215686 0.96078431
0.64889706 0.89509804 0.95772059
0.69460784 0.89577206 0.96488971
0.74093137 0.88970588 0.9629902
0.8 0.8877451 0.96470588
0.87696078 0.89558824 0.96421569
0.95349265 0.91519608 0.96121324
0.99215686 0.92598039 0.96862745
0.76470588 0.96862745 0.96862745
0.74803922 0.96029412 0.96421569
0.77843137 0.96666667 0.96764706
0.8 0.96470588 0.96617647
0.83529412 0.96470588 0.96666667
0.84313725 0.93431373 0.96078431
0.91078431 0.96078431 0.94509804
0.95784314 0.96862745 0.95686275
0.99607843 0.96078431 0.97254902
