site/assets/luts/natron-haldclut--polaroid-px-100uv-warm--e75184630.cube
# LUTr-Project: LUTr — LUTrepository
# LUTr-Schema-Version: 1
# LUTr-ID: natron-haldclut--polaroid-px-100uv-warm--e75184630
# LUTr-Title: polaroid px-100uv+ warm +++
# LUTr-Collection: Natron HaldCLUT
# LUTr-Collection-ID: natron-haldclut-presets
# LUTr-Source: https://github.com/NatronGitHub/clut
# LUTr-Source-File: submissions/natron-haldclut-presets/instant_consumer/polaroid_px-100uv+_warm_+++.png
# LUTr-Source-Format: PNG
# LUTr-Source-SHA256: 3bd898ca70ca7623d2f4d4311456ab10e4de8acc731f94b73a63bfe9f402483b
# LUTr-License: CC-BY-SA-4.0
# LUTr-License-URL: https://github.com/NatronGitHub/clut#license
# LUTr-Tags: creative, film, film-emulation, hald-clut, natron, png, warm, cube
# LUTr-Transform-Class: film-emulation
# LUTr-Input-Color-Space: srgb
# LUTr-Output-Color-Space: srgb
# LUTr-Color-Space-Confidence: assumed-display-referred
# LUTr-Conversion-Method: PNG LUT image decoded at 16-bit and sampled to 25x25x25 3D CUBE
# LUTr-Conversion-Date: 2026-07-27
# LUTr-Conversion-Tool: LUTr scripts/convert-all-to-cube.mjs
# LUTr-Conversion-Grid: 25x25x25
# LUTr-Note: Preserve this metadata and the upstream license notices when redistributing.
TITLE "polaroid px-100uv+ warm +++"
LUT_3D_SIZE 25
DOMAIN_MIN 0 0 0
DOMAIN_MAX 1 1 1
0.44313725 0.39607843 0.38431373
0.44313725 0.39607843 0.38431373
0.44313725 0.39607843 0.38431373
0.43921569 0.39607843 0.38431373
0.43921569 0.39607843 0.38235294
0.43921569 0.39607843 0.38039216
0.43921569 0.39607843 0.38431373
0.43921569 0.39607843 0.38431373
0.43921569 0.39607843 0.38431373
0.43921569 0.39607843 0.38431373
0.43921569 0.39607843 0.38431373
0.43921569 0.39607843 0.38431373
0.44901961 0.40784314 0.39411765
0.46764706 0.4245098 0.40882353
0.48529412 0.44509804 0.4254902
0.50343137 0.46176471 0.44215686
0.52156863 0.48235294 0.45882353
0.53578431 0.49656863 0.47156863
0.55 0.51176471 0.48333333
0.56421569 0.525 0.49362745
0.57843137 0.53921569 0.50392157
0.58872549 0.55343137 0.51421569
0.59901961 0.56078431 0.52156863
0.60392157 0.56862745 0.52696078
0.60784314 0.57254902 0.52941176
0.44313725 0.39607843 0.38431373
0.44313725 0.39607843 0.38431373
0.44313725 0.39607843 0.38431373
0.44313725 0.39607843 0.38431373
0.44240196 0.39607843 0.38431373
0.44166667 0.39607843 0.38431373
0.44276961 0.39607843 0.38431373
0.44313725 0.39607843 0.38431373
0.44313725 0.39607843 0.38431373
0.44166667 0.39607843 0.38431373
0.43921569 0.39607843 0.38431373
0.43921569 0.39607843 0.38431373
0.4502451 0.40784314 0.39411765
0.46764706 0.4245098 0.40882353
0.48529412 0.44509804 0.4254902
0.50343137 0.46176471 0.44123775
0.52156863 0.47843137 0.45490196
0.53578431 0.49656863 0.46911765
0.55 0.51078431 0.48333333
0.56421569 0.525 0.49362745
0.57720588 0.53921569 0.50392157
0.58872549 0.5495098 0.51421569
0.59718137 0.55980392 0.52156863
0.60392157 0.56709559 0.52696078
0.60784314 0.57009804 0.52941176
0.44313725 0.4 0.38431373
0.44313725 0.39816176 0.38431373
0.44313725 0.39607843 0.38431373
0.44313725 0.39607843 0.38431373
0.44313725 0.39607843 0.38431373
0.44313725 0.39705882 0.38431373
0.44313725 0.4 0.38431373
0.44313725 0.4 0.38529412
0.44313725 0.4 0.38823529
0.44313725 0.4 0.38823529
0.44313725 0.4 0.38823529
0.44669118 0.40355392 0.38909314
0.45392157 0.41078431 0.39803922
0.4685049 0.42794118 0.40968137
0.48529412 0.44509804 0.42573529
0.50343137 0.46176471 0.44068627
0.51764706 0.47843137 0.45490196
0.53431373 0.49509804 0.46911765
0.54926471 0.51004902 0.48259804
0.56286765 0.5245098 0.49362745
0.5745098 0.53676471 0.50392157
0.58480392 0.5495098 0.51286765
0.59509804 0.55906863 0.52058824
0.60110294 0.56470588 0.5254902
0.60392157 0.56862745 0.52843137
0.44313725 0.4 0.38431373
0.44313725 0.4 0.38431373
0.44313725 0.4 0.38431373
0.44313725 0.39957108 0.38431373
0.44313725 0.4 0.38431373
0.44313725 0.4 0.38431373
0.44313725 0.4 0.3877451
0.44656863 0.4 0.38823529
0.44656863 0.40343137 0.38823529
0.44705882 0.40373775 0.38823529
0.44791667 0.40477941 0.39178922
0.45091912 0.41078431 0.39515931
0.46029412 0.41715686 0.40196078
0.47150735 0.43143382 0.41268382
0.48823529 0.44595588 0.42647059
0.50343137 0.46176471 0.44068627
0.51764706 0.47843137 0.45490196
0.53186275 0.49264706 0.46783088
0.54607843 0.50698529 0.47941176
0.56029412 0.52107843 0.4901348
0.57279412 0.53529412 0.5004902
0.58480392 0.54558824 0.51029412
0.59252451 0.55588235 0.51764706
0.6 0.5622549 0.52303922
0.60392157 0.56470588 0.5254902
0.44313725 0.4 0.38431373
0.44313725 0.4 0.38431373
0.44313725 0.4 0.38431373
0.44313725 0.4 0.38431373
0.44313725 0.4 0.38431373
0.44362745 0.4 0.38651961
0.44705882 0.40343137 0.38823529
0.44705882 0.40392157 0.38897059
0.44901961 0.40588235 0.39215686
0.45098039 0.40784314 0.39338235
0.45343137 0.41029412 0.39656863
0.45857843 0.41544118 0.40147059
0.46568627 0.42352941 0.40686275
0.4752451 0.43406863 0.41617647
0.48921569 0.44754902 0.42990196
0.50490196 0.46421569 0.44215686
0.51764706 0.47843137 0.45490196
0.53186275 0.49191176 0.46519608
0.54460784 0.50392157 0.47941176
0.55980392 0.52058824 0.48970588
0.57352941 0.53627451 0.50196078
0.58676471 0.54779412 0.5122549
0.59705882 0.56176471 0.52254902
0.60588235 0.56813725 0.52892157
0.61176471 0.5745098 0.53529412
0.44313725 0.4 0.38431373
0.44313725 0.4 0.38431373
0.44313725 0.4 0.38431373
0.44313725 0.4 0.38431373
0.44313725 0.4 0.38431373
0.44705882 0.40091912 0.38823529
0.44742647 0.40392157 0.39117647
0.45098039 0.40784314 0.39215686
0.45147059 0.40833333 0.39607843
0.45490196 0.41207108 0.3963848
0.45894608 0.41580882 0.40012255
0.46317402 0.42303922 0.40735294
0.47083333 0.42941176 0.4120098
0.47892157 0.43621324 0.42009804
0.48921569 0.44901961 0.43039216
0.50343137 0.46158088 0.44068627
0.51715686 0.4745098 0.45441176
0.53008578 0.48872549 0.46519608
0.54313725 0.50392157 0.47647059
0.56372549 0.5245098 0.49313725
0.57867647 0.54142157 0.50784314
0.59356618 0.55741422 0.51862745
0.60723039 0.56813725 0.52892157
0.61764706 0.57843137 0.5377451
0.62401961 0.58872549 0.54509804
0.44313725 0.4 0.38431373
0.44313725 0.4 0.38431373
0.44313725 0.4 0.38431373
0.44313725 0.4 0.38431373
0.44313725 0.4 0.38578431
0.44705882 0.40392157 0.38823529
0.45073529 0.40759804 0.39215686
0.45428922 0.41115196 0.39546569
0.45490196 0.41176471 0.39607843
0.45882353 0.41568627 0.4
0.46348039 0.42034314 0.40465686
0.47009804 0.42696078 0.41041667
0.47598039 0.43284314 0.41568627
0.48272059 0.43970588 0.42267157
0.48921569 0.44607843 0.43039216
0.49987745 0.45845588 0.43884804
0.51372549 0.47156863 0.45098039
0.52794118 0.4872549 0.46188725
0.54607843 0.50392157 0.47647059
0.56372549 0.5245098 0.49362745
0.58382353 0.54509804 0.50980392
0.60085784 0.56421569 0.525
0.61372549 0.57843137 0.53529412
0.62463235 0.58872549 0.54558824
0.63431373 0.59901961 0.55196078
0.44313725 0.39607843 0.38431373
0.44166667 0.39607843 0.38284314
0.44203431 0.39669118 0.38431373
0.44313725 0.4 0.38431373
0.44509804 0.40196078 0.3870098
0.44883578 0.40569853 0.39001225
0.45208333 0.40894608 0.3932598
0.45729167 0.41415441 0.39754902
0.46029412 0.41715686 0.40147059
0.46366422 0.42052696 0.40392157
0.46875 0.42561275 0.40882353
0.47420343 0.43106618 0.41519608
0.48039216 0.4372549 0.41960784
0.48627451 0.44313725 0.42401961
0.49019608 0.44816176 0.43039216
0.4995098 0.45637255 0.43676471
0.50980392 0.46911765 0.44705882
0.52647059 0.48333333 0.46072304
0.54313725 0.50392157 0.47647059
0.56372549 0.5245098 0.49313725
0.58431373 0.54509804 0.51176471
0.60490196 0.56568627 0.52647059
0.61973039 0.58443627 0.54129902
0.63431373 0.59754902 0.55196078
0.64068627 0.60539216 0.55833333
0.43921569 0.39607843 0.38039216
0.43921569 0.39607843 0.38039216
0.44019608 0.39607843 0.38137255
0.44313725 0.4 0.38431373
0.44705882 0.40392157 0.38823529
0.45147059 0.40833333 0.39264706
0.45784314 0.41470588 0.39607843
0.46029412 0.41715686 0.40147059
0.4627451 0.42352941 0.40392157
0.46666667 0.42352941 0.40784314
0.47156863 0.43137255 0.4127451
0.47843137 0.43529412 0.41911765
0.48431373 0.44117647 0.42352941
0.49019608 0.44705882 0.42745098
0.49411765 0.45098039 0.43137255
0.4995098 0.45637255 0.43676471
0.50980392 0.46666667 0.44313725
0.52401961 0.48333333 0.45980392
0.54313725 0.50392157 0.47647059
0.56372549 0.5245098 0.49313725
0.58627451 0.54901961 0.51176471
0.60490196 0.56960784 0.52990196
0.6254902 0.5872549 0.54411765
0.64068627 0.60539216 0.55833333
0.64705882 0.61176471 0.56470588
0.43921569 0.39607843 0.38039216
0.43921569 0.39607843 0.38039216
0.44019608 0.39705882 0.38137255
0.44656863 0.40343137 0.38645833
0.45220588 0.40906863 0.39142157
0.45753676 0.41439951 0.3963848
0.46066176 0.41752451 0.40183824
0.46574755 0.42261029 0.40484069
0.46911765 0.42598039 0.40784314
0.4721201 0.42898284 0.41176471
0.47732843 0.43419118 0.41629902
0.48216912 0.43903186 0.42175245
0.4875 0.44509804 0.42671569
0.49283088 0.45098039 0.43167892
0.49767157 0.45490196 0.43529412
0.5028799 0.45974265 0.4401348
0.50833333 0.46519608 0.44558824
0.52647059 0.48578431 0.46072304
0.54705882 0.50637255 0.47830882
0.56764706 0.52843137 0.49705882
0.58823529 0.54901961 0.51372549
0.60863971 0.56960784 0.53020833
0.6254902 0.59019608 0.54595588
0.64368873 0.60686275 0.56133578
0.65490196 0.61960784 0.57107843
0.44803922 0.40490196 0.38921569
0.44620098 0.40490196 0.38737745
0.44803922 0.40514706 0.38921569
0.45196078 0.40882353 0.39313725
0.45735294 0.41470588 0.39705882
0.46286765 0.41973039 0.40134804
0.46593137 0.42279412 0.40490196
0.46875 0.42561275 0.40821078
0.47156863 0.42843137 0.41176471
0.47512255 0.43198529 0.41458333
0.48014706 0.4370098 0.41985294
0.48590686 0.4439951 0.42438725
0.49264706 0.45 0.42990196
0.49938725 0.45637255 0.43664216
0.50588235 0.4627451 0.44313725
0.51286765 0.47193627 0.4495098
0.52254902 0.48039216 0.45980392
0.53529412 0.49362745 0.46801471
0.55171569 0.51176471 0.48137255
0.57156863 0.53235294 0.49840686
0.59068627 0.55294118 0.51617647
0.60882353 0.57058824 0.53039216
0.62720588 0.59019608 0.54705882
0.64607843 0.60968137 0.5622549
0.6627451 0.62745098 0.57647059
0.4622549 0.41911765 0.40294118
0.46176471 0.41911765 0.40294118
0.4622549 0.41997549 0.40343137
0.4661152 0.42297794 0.40643382
0.46813725 0.42671569 0.40735294
0.47009804 0.42745098 0.41127451
0.47401961 0.43088235 0.41127451
0.47420343 0.43106618 0.41305147
0.47794118 0.43480392 0.41568627
0.47843137 0.43529412 0.41783088
0.48333333 0.44019608 0.42316176
0.4901348 0.44699755 0.42738971
0.4995098 0.45637255 0.43676471
0.50931373 0.46666667 0.44313725
0.51617647 0.47647059 0.45343137
0.52647059 0.48676471 0.46194853
0.53676471 0.49705882 0.47009804
0.54705882 0.50735294 0.47775735
0.55833333 0.51911765 0.49068627
0.57591912 0.53970588 0.50447304
0.59583333 0.55686275 0.51936275
0.61268382 0.57696078 0.53425245
0.63026961 0.59411765 0.55061275
0.64852941 0.61292892 0.5658701
0.65931373 0.62401961 0.57303922
0.47647059 0.43529412 0.41764706
0.47647059 0.43529412 0.41764706
0.47647059 0.43578431 0.41764706
0.47843137 0.4372549 0.41960784
0.48137255 0.44019608 0.42156863
0.48431373 0.44117647 0.42352941
0.48431373 0.44117647 0.42156863
0.48431373 0.44117647 0.42156863
0.48431373 0.44117647 0.42156863
0.48235294 0.43995098 0.42034314
0.4872549 0.44460784 0.4245098
0.4995098 0.45637255 0.43651961
0.50980392 0.46666667 0.44705882
0.52009804 0.47892157 0.45343137
0.53039216 0.48921569 0.46372549
0.53995098 0.4995098 0.47401961
0.54705882 0.50784314 0.48039216
0.55735294 0.51813725 0.49068627
0.56862745 0.53235294 0.49705882
0.58357843 0.54607843 0.51102941
0.60098039 0.56372549 0.5245098
0.61838235 0.58308824 0.53995098
0.63578431 0.6 0.55343137
0.64852941 0.61323529 0.56617647
0.65882353 0.62352941 0.57254902
0.49068627 0.44803922 0.42843137
0.49068627 0.45018382 0.43057598
0.49080882 0.45147059 0.43186275
0.49117647 0.45189951 0.43235294
0.49460784 0.45539216 0.43578431
0.49509804 0.45539216 0.43578431
0.49509804 0.45539216 0.43578431
0.49509804 0.45539216 0.43216912
0.49460784 0.45196078 0.43186275
0.49460784 0.45196078 0.43186275
0.4995098 0.45686275 0.43333333
0.50980392 0.46715686 0.44705882
0.52009804 0.48088235 0.45735294
0.53039216 0.49117647 0.46672794
0.54068627 0.50147059 0.47401961
0.55098039 0.51176471 0.48431373
0.56127451 0.52205882 0.49068627
0.57156863 0.53235294 0.50098039
0.58186275 0.54264706 0.50735294
0.59215686 0.55294118 0.51764706
0.60808824 0.57083333 0.52965686
0.62408088 0.58878676 0.54558824
0.63823529 0.60294118 0.55588235
0.64852941 0.61323529 0.5622549
0.65490196 0.61960784 0.56862745
0.50490196 0.46470588 0.44215686
0.50490196 0.46470588 0.4439951
0.50490196 0.46568627 0.44607843
0.50747549 0.4682598 0.44607843
0.50833333 0.46862745 0.44607843
0.50882353 0.46960784 0.44607843
0.50882353 0.46960784 0.44607843
0.50882353 0.46862745 0.44607843
0.51176471 0.46862745 0.44607843
0.51176471 0.47144608 0.44791667
0.51666667 0.47647059 0.45073529
0.52401961 0.48382353 0.46029412
0.53431373 0.49460784 0.46764706
0.54068627 0.50147059 0.47401961
0.55098039 0.51176471 0.48431373
0.56127451 0.52205882 0.4935049
0.57156863 0.53529412 0.50098039
0.58186275 0.54558824 0.51127451
0.59215686 0.55588235 0.51764706
0.60245098 0.56703431 0.52794118
0.61323529 0.57794118 0.53529412
0.62794118 0.59264706 0.54558824
0.63823529 0.60294118 0.55588235
0.64522059 0.60992647 0.56115196
0.65098039 0.61568627 0.56470588
0.51911765 0.47990196 0.45637255
0.51911765 0.47990196 0.45729167
0.52120098 0.48198529 0.46029412
0.52432598 0.48529412 0.46029412
0.52377451 0.48455882 0.46029412
0.52058824 0.48137255 0.45637255
0.52058824 0.48026961 0.45637255
0.52303922 0.48137255 0.45637255
0.52696078 0.48529412 0.46029412
0.52996324 0.48921569 0.46329657
0.53517157 0.49411765 0.4685049
0.54001225 0.503125 0.4754902
0.54460784 0.50612745 0.47794118
0.55098039 0.51176471 0.48431373
0.56127451 0.52205882 0.4935049
0.57156863 0.53627451 0.50098039
0.58186275 0.54656863 0.51127451
0.59307598 0.55686275 0.52156863
0.60392157 0.56862745 0.52794118
0.61421569 0.57892157 0.53823529
0.62573529 0.59044118 0.54534314
0.6372549 0.60196078 0.55490196
0.64754902 0.61335784 0.56164216
0.65784314 0.62346814 0.57064951
0.66568627 0.63039216 0.5754902
0.53333333 0.49411765 0.47058824
0.5372549 0.49803922 0.47058824
0.53823529 0.49901961 0.4745098
0.54117647 0.50196078 0.4745098
0.54117647 0.50196078 0.4745098
0.5372549 0.49803922 0.47058824
0.53333333 0.49411765 0.46666667
0.53480392 0.49558824 0.46813725
0.54117647 0.50196078 0.4745098
0.54754902 0.50833333 0.48088235
0.55294118 0.51372549 0.48333333
0.55294118 0.51764706 0.48627451
0.55686275 0.52156863 0.49019608
0.56078431 0.52205882 0.49411765
0.57058824 0.53235294 0.50098039
0.58333333 0.54803922 0.51127451
0.59607843 0.56078431 0.52156863
0.61029412 0.575 0.53186275
0.62058824 0.58529412 0.54215686
0.63088235 0.59558824 0.54901961
0.64509804 0.60980392 0.55882353
0.65539216 0.62009804 0.56862745
0.66568627 0.63039216 0.5754902
0.67598039 0.64068627 0.58186275
0.68235294 0.64705882 0.58823529
0.55637255 0.51715686 0.4872549
0.55784314 0.51862745 0.48872549
0.56176471 0.52254902 0.49117647
0.56390931 0.525 0.49117647
0.56176471 0.52254902 0.49117647
0.55784314 0.52077206 0.4872549
0.55637255 0.51715686 0.48615196
0.55692402 0.51862745 0.4872549
0.56176471 0.525 0.49117647
0.56813725 0.52984069 0.49754902
0.57352941 0.53492647 0.50110294
0.57352941 0.53823529 0.50294118
0.57745098 0.54142157 0.50686275
0.57794118 0.54479167 0.50863971
0.58786765 0.55294118 0.51580882
0.60245098 0.56715686 0.5254902
0.61421569 0.57892157 0.53578431
0.62696078 0.59166667 0.54607843
0.63933824 0.60404412 0.5560049
0.65147059 0.61617647 0.56519608
0.66176471 0.62647059 0.57303922
0.67205882 0.63676471 0.58155637
0.68235294 0.64742647 0.58970588
0.69264706 0.65735294 0.59607843
0.69901961 0.66372549 0.60245098
0.57843137 0.54019608 0.50392157
0.58125 0.54313725 0.50784314
0.58627451 0.54730392 0.50882353
0.5872549 0.55098039 0.51176471
0.58676471 0.54803922 0.50980392
0.58333333 0.54705882 0.50784314
0.58333333 0.54779412 0.50784314
0.58664216 0.54803922 0.50992647
0.5872549 0.55196078 0.51176471
0.59080882 0.55490196 0.51568627
0.59411765 0.55882353 0.51887255
0.59497549 0.5622549 0.52218137
0.59803922 0.56323529 0.52352941
0.60330882 0.57071078 0.52794118
0.6127451 0.57745098 0.53431373
0.62303922 0.5877451 0.54252451
0.63333333 0.59803922 0.55098039
0.64754902 0.6122549 0.56029412
0.65784314 0.62254902 0.57058824
0.67071078 0.63664216 0.57794118
0.68235294 0.64705882 0.5872549
0.69129902 0.6560049 0.59362745
0.69901961 0.66372549 0.6002451
0.70833333 0.67303922 0.60882353
0.71568627 0.68039216 0.61666667
0.60294118 0.56372549 0.5245098
0.60508578 0.56746324 0.52481618
0.60784314 0.57120098 0.52843137
0.61378676 0.57542892 0.53235294
0.61078431 0.575 0.52843137
0.61078431 0.575 0.52843137
0.61421569 0.575 0.53186275
0.61421569 0.5754902 0.53235294
0.61421569 0.57892157 0.53235294
0.61470588 0.57922794 0.53498775
0.61470588 0.57941176 0.53627451
0.61813725 0.58327206 0.53676471
0.62058824 0.5872549 0.54215686
0.62696078 0.59509804 0.54810049
0.63688725 0.60196078 0.55490196
0.64577206 0.61176471 0.55998775
0.65392157 0.61862745 0.56764706
0.66666667 0.63284314 0.5745098
0.67843137 0.64313725 0.58431373
0.68872549 0.65343137 0.59160539
0.69901961 0.66372549 0.5995098
0.70588235 0.67359069 0.60735294
0.71568627 0.68039216 0.61421569
0.72254902 0.6872549 0.61930147
0.72892157 0.69362745 0.62352941
0.62745098 0.59019608 0.54509804
0.63063725 0.59338235 0.54509804
0.63382353 0.59656863 0.54901961
0.6370098 0.6 0.55073529
0.63921569 0.60196078 0.55294118
0.63921569 0.60196078 0.55294118
0.64117647 0.60343137 0.55294118
0.64117647 0.60392157 0.55294118
0.63921569 0.60392157 0.55294118
0.6379902 0.60392157 0.55294118
0.63529412 0.60392157 0.55294118
0.63872549 0.60392157 0.55465686
0.64411765 0.61078431 0.55980392
0.65147059 0.61985294 0.56519608
0.66029412 0.62647059 0.57156863
0.66813725 0.63284314 0.57794118
0.67843137 0.64313725 0.58431373
0.68480392 0.65343137 0.59068627
0.69558824 0.66176471 0.59852941
0.70735294 0.67205882 0.60539216
0.71568627 0.68039216 0.61176471
0.72377451 0.68872549 0.61813725
0.73088235 0.69558824 0.6245098
0.73676471 0.70269608 0.62818627
0.74313725 0.70784314 0.63137255
0.65588235 0.61715686 0.56568627
0.65618873 0.61930147 0.56568627
0.65980392 0.62193627 0.56666667
0.66329657 0.62493873 0.56960784
0.66421569 0.62867647 0.57352941
0.66764706 0.62892157 0.57352941
0.66764706 0.6314951 0.57352941
0.66636029 0.63106618 0.57352941
0.66372549 0.62892157 0.57352941
0.66127451 0.62843137 0.57303922
0.65882353 0.6245098 0.56948529
0.65925245 0.6278799 0.57254902
0.66617647 0.63455882 0.57720588
0.67598039 0.64117647 0.5848652
0.68370098 0.65098039 0.58909314
0.69264706 0.65765931 0.59460784
0.69901961 0.66421569 0.60098039
0.70686275 0.671875 0.60490196
0.71556373 0.68039216 0.6122549
0.7254902 0.69025735 0.61660539
0.73210784 0.69681373 0.62377451
0.73823529 0.7033701 0.62794118
0.74473039 0.71066176 0.63186275
0.75128676 0.71832108 0.63578431
0.75735294 0.72205882 0.63970588
0.68039216 0.64411765 0.58627451
0.68223039 0.64509804 0.58627451
0.68431373 0.64828431 0.58627451
0.68811275 0.65159314 0.59019608
0.69117647 0.65441176 0.59264706
0.69215686 0.6560049 0.59411765
0.69215686 0.65686275 0.59411765
0.69178922 0.6564951 0.59411765
0.68823529 0.65294118 0.59117647
0.68186275 0.64901961 0.5872549
0.67254902 0.64117647 0.58014706
0.67561275 0.64166667 0.58284314
0.69019608 0.65882353 0.59607843
0.7004902 0.66776961 0.60208333
0.70980392 0.6754902 0.60882353
0.71678922 0.68186275 0.61372549
0.72352941 0.68823529 0.61764706
0.72990196 0.69460784 0.62046569
0.73529412 0.7002451 0.62352941
0.74007353 0.70477941 0.62647059
0.74607843 0.7122549 0.63235294
0.75245098 0.72009804 0.63566176
0.75955882 0.72671569 0.64117647
0.76519608 0.73345588 0.6442402
0.77058824 0.73627451 0.64607843
0.70490196 0.66960784 0.60294118
0.70490196 0.66960784 0.60294118
0.70882353 0.67352941 0.6057598
0.7122549 0.67696078 0.60900735
0.71666667 0.68014706 0.6120098
0.71813725 0.68284314 0.61470588
0.71875 0.68284314 0.61470588
0.71372549 0.67898284 0.61023284
0.70343137 0.66813725 0.60392157
0.69166667 0.65784314 0.59509804
0.67953431 0.64644608 0.58541667
0.68676471 0.65539216 0.59136029
0.71127451 0.67671569 0.60931373
0.725 0.69099265 0.61911765
0.73235294 0.69816176 0.62438725
0.7377451 0.70398284 0.62892157
0.74264706 0.70735294 0.62892157
0.74564951 0.71127451 0.63284314
0.7504902 0.71556373 0.63345588
0.75410539 0.72040441 0.63676471
0.76029412 0.72769608 0.64068627
0.76666667 0.73498775 0.64460784
0.77401961 0.74166667 0.64852941
0.78033088 0.74895833 0.65245098
0.78578431 0.75441176 0.65637255
0.72156863 0.68627451 0.61568627
0.72156863 0.68627451 0.61568627
0.7254902 0.69019608 0.61960784
0.72892157 0.69362745 0.62303922
0.73529412 0.7 0.62745098
0.74166667 0.70637255 0.63186275
0.73823529 0.70294118 0.62843137
0.72401961 0.68872549 0.61813725
0.70980392 0.6745098 0.60784314
0.69558824 0.66176471 0.59754902
0.68235294 0.65098039 0.58823529
0.69656863 0.66176471 0.59901961
0.72156863 0.68823529 0.61568627
0.74509804 0.70980392 0.63186275
0.74901961 0.71372549 0.63529412
0.75294118 0.71764706 0.63676471
0.75294118 0.71764706 0.63921569
0.75686275 0.72156863 0.63921569
0.76078431 0.7254902 0.64019608
0.76421569 0.73284314 0.64313725
0.77058824 0.7372549 0.64705882
0.77696078 0.74558824 0.65098039
0.78431373 0.75196078 0.65490196
0.79215686 0.76078431 0.65882353
0.79607843 0.76470588 0.6627451
0.44313725 0.39607843 0.38431373
0.44313725 0.39607843 0.38431373
0.44031863 0.39607843 0.38431373
0.43921569 0.39607843 0.38186275
0.43921569 0.39607843 0.38039216
0.43921569 0.39607843 0.38039216
0.43921569 0.39607843 0.3814951
0.43921569 0.39607843 0.38431373
0.43921569 0.39607843 0.38431373
0.43921569 0.39607843 0.38431373
0.43921569 0.39607843 0.38431373
0.44295343 0.40196078 0.38805147
0.45539216 0.4122549 0.39730392
0.47009804 0.42843137 0.41256127
0.48823529 0.44571078 0.42647059
0.50490196 0.46421569 0.44215686
0.52156863 0.48235294 0.45882353
0.53578431 0.49656863 0.47156863
0.55 0.51115196 0.48333333
0.56421569 0.525 0.49362745
0.57843137 0.53921569 0.50392157
0.58872549 0.55343137 0.51421569
0.59901961 0.56372549 0.5245098
0.60876225 0.57254902 0.53033088
0.61813725 0.58284314 0.53970588
0.44313725 0.39607843 0.38431373
0.44313725 0.39607843 0.38431373
0.44313725 0.39607843 0.38431373
0.44233303 0.39607843 0.38431373
0.4401348 0.39607843 0.38431373
0.43933058 0.39607843 0.3835095
0.4412837 0.39607843 0.38431373
0.44221814 0.39607843 0.38431373
0.44166667 0.39607843 0.38431373
0.44166667 0.39607843 0.38431373
0.44166667 0.39761029 0.38431373
0.4444087 0.40127145 0.38805147
0.45539216 0.4122549 0.39776348
0.47009804 0.42824755 0.4122549
0.48754596 0.44571078 0.42647059
0.50455729 0.46329657 0.44215686
0.52156863 0.47935049 0.45582108
0.53578431 0.49564951 0.46911765
0.55 0.51078431 0.48333333
0.5640242 0.525 0.49362745
0.57720588 0.53921569 0.50392157
0.58872549 0.55068934 0.51421569
0.59901961 0.56239277 0.52340686
0.60726869 0.57067249 0.52918199
0.61176471 0.57591912 0.53333333
0.44313725 0.4 0.38431373
0.44313725 0.39816176 0.38431373
0.44313725 0.39607843 0.38431373
0.44313725 0.39607843 0.38431373
0.44313725 0.39607843 0.38431373
0.44313725 0.39612439 0.38431373
0.44313725 0.39788603 0.38431373
0.44313725 0.4 0.38468137
0.44313725 0.4 0.38823529
0.44352022 0.4 0.38823529
0.44411765 0.40098039 0.38823529
0.44745711 0.40431985 0.39178922
0.45747549 0.41525735 0.40085784
0.47196691 0.43057598 0.41309743
0.48823529 0.44571078 0.42693015
0.50343137 0.46214767 0.442019
0.51764706 0.47843137 0.45490196
0.53431373 0.49448529 0.46911765
0.54788603 0.50867034 0.48106618
0.56125919 0.52365196 0.49362745
0.5745098 0.53676471 0.50392157
0.58480392 0.5495098 0.51309743
0.59509804 0.55906863 0.52058824
0.60248162 0.56539522 0.5254902
0.60392157 0.56862745 0.52843137
0.44313725 0.4 0.38431373
0.44313725 0.4 0.38431373
0.44313725 0.39987745 0.38431373
0.44313725 0.3995098 0.38431373
0.44313725 0.3995098 0.38431373
0.44313725 0.4 0.38431373
