site/assets/luts/natron-haldclut--kodak-portra-400--bdcc641c3.cube
# LUTr-Project: LUTr — LUTrepository
# LUTr-Schema-Version: 1
# LUTr-ID: natron-haldclut--kodak-portra-400--bdcc641c3
# LUTr-Title: kodak portra 400
# LUTr-Collection: Natron HaldCLUT
# LUTr-Collection-ID: natron-haldclut-presets
# LUTr-Source: https://github.com/NatronGitHub/clut
# LUTr-Source-File: submissions/natron-haldclut-presets/negative_new/kodak_portra_400.png
# LUTr-Source-Format: PNG
# LUTr-Source-SHA256: 1e55696363f4bb45222616e000e9e099a538fbb116605eea7b75852200d6d3f0
# LUTr-License: CC-BY-SA-4.0
# LUTr-License-URL: https://github.com/NatronGitHub/clut#license
# LUTr-Tags: creative, film, film-emulation, hald-clut, natron, png, cube
# LUTr-Transform-Class: film-emulation
# LUTr-Input-Color-Space: srgb
# LUTr-Output-Color-Space: srgb
# LUTr-Color-Space-Confidence: assumed-display-referred
# LUTr-Conversion-Method: PNG LUT image decoded at 16-bit and sampled to 25x25x25 3D CUBE
# LUTr-Conversion-Date: 2026-07-27
# LUTr-Conversion-Tool: LUTr scripts/convert-all-to-cube.mjs
# LUTr-Conversion-Grid: 25x25x25
# LUTr-Note: Preserve this metadata and the upstream license notices when redistributing.
TITLE "kodak portra 400"
LUT_3D_SIZE 9
DOMAIN_MIN 0 0 0
DOMAIN_MAX 1 1 1
0.023529412 0.019607843 0.019607843
0.092647059 0.023529412 0.031372549
0.22941176 0.021568627 0.017647059
0.43284314 0.017156863 0.0039215686
0.62941176 0.021568627 0.01372549
0.79313725 0.0039215686 0.0039215686
0.91764706 0.024509804 0.00098039216
0.98480392 0.1004902 0
1 0.22745098 0
0.042647059 0.073529412 0.035294118
0.069178922 0.080453431 0.031372549
0.22291667 0.1 0.015563725
0.425 0.068443627 0.0078431373
0.62745098 0.06127451 0.0080882353
0.7877451 0.076470588 0
0.90833333 0.14068627 0
0.965625 0.21427696 0.0039215686
1 0.27303922 0
0.0049019608 0.18431373 0.03627451
0.024877451 0.19620098 0.068014706
0.17941176 0.21544118 0.035294118
0.40306373 0.25245098 0.011764706
0.60490196 0.26176471 0.0029411765
0.77095588 0.27071078 0
0.90416667 0.30906863 0
0.96862745 0.34215686 0
0.99607843 0.36862745 0
0 0.34166667 0.087254902
0.0039215686 0.32990196 0.084803922
0.11764706 0.34007353 0.06875
0.33235294 0.37941176 0.0078431373
0.56642157 0.42034314 0.0039215686
0.74515931 0.4348652 0
0.87316176 0.44852941 0.0039215686
0.98137255 0.46519608 0
0.99215686 0.47647059 0
0 0.47843137 0.1254902
0 0.47058824 0.15073529
0.044607843 0.46078431 0.15392157
0.26348039 0.49583333 0.073039216
0.4872549 0.53039216 0.012745098
0.69509804 0.5622549 0.01495098
0.84019608 0.57303922 0.0078431373
0.94411765 0.58039216 0.0080882353
0.98235294 0.58235294 0.0039215686
0 0.59803922 0.19656863
0 0.59803922 0.21292892
0.0083333333 0.57487745 0.22512255
0.22015931 0.58572304 0.20343137
0.43970588 0.61813725 0.15637255
0.62849265 0.65147059 0.075980392
0.79313725 0.67107843 0.0024509804
0.91158088 0.68284314 0.015686275
0.97647059 0.68284314 0.0078431373
0.0039215686 0.71372549 0.29411765
0.0087009804 0.70980392 0.30490196
0.069607843 0.70269608 0.3127451
0.26727941 0.68235294 0.32156863
0.42892157 0.70147059 0.29656863
0.59558824 0.72990196 0.26507353
0.74117647 0.75122549 0.18848039
0.8942402 0.77205882 0.076348039
0.97254902 0.78333333 0.012745098
0.19166667 0.82156863 0.43039216
0.23094363 0.81715686 0.4377451
0.32205882 0.81372549 0.45686275
0.39822304 0.80165441 0.45735294
0.4995098 0.80343137 0.45980392
0.60686275 0.81893382 0.4408701
0.73382353 0.8377451 0.40686275
0.85643382 0.86035539 0.37555147
0.97941176 0.8754902 0.32205882
0.50980392 0.93333333 0.62745098
0.5254902 0.9372549 0.63529412
0.55098039 0.92941176 0.63823529
0.60098039 0.92794118 0.65735294
0.64313725 0.91960784 0.65686275
0.70490196 0.9254902 0.65343137
0.7754902 0.94215686 0.65392157
0.85637255 0.95343137 0.63137255
0.90196078 0.94901961 0.58039216
0.011764706 0.042647059 0.089215686
0.1 0.012683824 0.092156863
0.24117647 0.0087009804 0.099632353
0.43676471 0.0039215686 0.089215686
0.64093137 0.006127451 0.086519608
0.79558824 0.0080269608 0.080392157
0.92463235 0.010784314 0.027941176
0.99564951 0.080882353 0
1 0.20784314 0.01127451
0.0083333333 0.096078431 0.09307598
0.080821078 0.096078431 0.10042892
0.23678002 0.09174326 0.097855392
0.43645833 0.044607843 0.085294118
0.63872549 0.017371324 0.055392157
0.79540441 0.065563725 0.04095435
0.920481 0.09096201 0.019117647
0.98431373 0.19553462 0.016605392
0.9995098 0.25735294 0.0087622549
0.0077205882 0.22598039 0.12696078
0.028308824 0.21438419 0.12254902
0.20664828 0.23023897 0.10906863
0.42106311 0.25098039 0.045710784
0.61629902 0.25686275 0.021384804
0.7872549 0.26671262 0.00096507353
0.90588235 0.29641544 0
0.98480392 0.32904412 0.010569853
0.9995098 0.36078431 0.0039215686
0 0.37598039 0.14754902
0.011458333 0.3662837 0.15622702
0.14679841 0.35343137 0.14901961
0.36323529 0.39491422 0.084803922
0.58422181 0.42794118 0.0051470588
0.75392157 0.43578431 0.00080422794
0.88337929 0.45147059 0.0039215686
0.97889859 0.46519608 0.0039215686
0.99607843 0.47794118 0
0 0.50098039 0.18504902
0.0034313725 0.49797794 0.19215686
0.057843137 0.48161765 0.20496324
0.28520221 0.50548407 0.16960784
0.51176471 0.54117647 0.083578431
0.70294118 0.56804534 0.022150735
0.84503676 0.58039216 0.0079044118
0.9502451 0.58235294 0.0078431373
0.98995098 0.57843137 0.0039215686
0 0.61715686 0.23351716
0.0039215686 0.60988817 0.2528799
0.032460172 0.5942402 0.26335784
0.25165441 0.59264706 0.25324755
0.44200368 0.61813725 0.21176471
0.63333333 0.65202206 0.13676471
0.80196078 0.6817402 0.039828431
0.91893382 0.6904182 0.014928002
0.97647059 0.68676471 0.0039215686
0.0047794118 0.72058824 0.33137255
0.010094975 0.71640625 0.33137255
0.11246936 0.70643382 0.3393076
0.28823529 0.6893076 0.3462163
0.44191176 0.70294118 0.33627451
0.58871017 0.72990196 0.30240502
0.74865196 0.75487132 0.25281863
0.89901961 0.77979473 0.17691483
0.99509804 0.7872549 0.052818627
0.2 0.82849265 0.45735294
0.25398284 0.82543658 0.46127451
0.33350184 0.81727941 0.46911765
0.4209712 0.80169271 0.47696078
0.50147059 0.80217525 0.48039216
0.60667892 0.82126225 0.46764706
0.72544424 0.84068627 0.43547794
0.85729167 0.86078431 0.40212929
0.97990196 0.87990196 0.35104167
0.50539216 0.93333333 0.63137255
0.51409314 0.92941176 0.63137255
0.55294118 0.92904412 0.64276961
0.60098039 0.9254902 0.65863971
0.66323529 0.92598039 0.68284314
0.70882353 0.92922794 0.66734069
0.7754902 0.94215686 0.65539216
0.86029412 0.95686275 0.64650735
0.91666667 0.95294118 0.59901961
0.00098039216 0.023529412 0.24215686
0.099509804 0.019607843 0.25551471
0.26372549 0.0078431373 0.26838235
0.45539216 0.0039215686 0.27977941
0.65098039 0 0.275
0.8185049 0 0.25588235
0.93627451 0.0046568627 0.23602941
0.99644608 0.091666667 0.23137255
1 0.20392157 0.19509804
0.015808824 0.10698529 0.23419118
0.076424632 0.10724571 0.24852941
0.2698223 0.089828431 0.26862745
0.47438725 0.027757353 0.27179841
0.66127451 0.011397059 0.25778186
0.81925551 0.0050245098 0.24064032
0.93348652 0.060018382 0.22818627
0.99286152 0.19047181 0.21090686
0.99607843 0.26421569 0.2067402
0.0039215686 0.24044118 0.25392157
0.019117647 0.26372549 0.25943627
0.24748775 0.25759804 0.26488971
0.45226716 0.25897672 0.26580882
0.64558824 0.25539216 0.24142157
0.79592525 0.26911765 0.22313113
0.90980392 0.29724265 0.21053922
0.98235294 0.32892157 0.19019608
1 0.36151961 0.18333333
0.00098039216 0.44411765 0.30343137
0.0078431373 0.43734681 0.2963848
0.21862745 0.42144608 0.29393382
0.39829963 0.42598039 0.2727788
0.60196078 0.44264706 0.23186275
0.76462929 0.44195772 0.18872549
0.8885723 0.45355392 0.16393995
0.97781863 0.46507353 0.12011336
0.99816176 0.48039216 0.11372549
0.01127451 0.56078431 0.32107843
0.0098039216 0.55122549 0.31911765
0.1314951 0.53345588 0.31384804
0.33921569 0.51752451 0.30563725
0.52598039 0.5504902 0.27573529
0.7120098 0.57444853 0.21783088
0.84816176 0.58431373 0.14509804
0.959375 0.58333333 0.076654412
1 0.58627451 0.033823529
0.0093137255 0.65441176 0.36017157
0.015425858 0.64854473 0.35471814
0.13507966 0.63042279 0.35085784
0.3092065 0.61127451 0.35188419
0.46617647 0.62781863 0.33504902
0.64362745 0.66115196 0.29324449
0.80456495 0.6825674 0.24231005
0.92651654 0.68681066 0.13316483
0.99607843 0.68284314 0.023897059
0.006372549 0.74313725 0.40294118
0.059957108 0.73921569 0.40382966
0.20931373 0.7245098 0.40704657
0.34341299 0.70946691 0.41332721
0.45490196 0.71078431 0.41188725
0.59996936 0.73382353 0.38887868
0.75349265 0.75851716 0.35802696
0.89803922 0.77950368 0.30873162
0.98823529 0.78333333 0.2620098
0.25392157 0.83578431 0.49411765
0.29402574 0.83353248 0.49814645
0.36335784 0.8283701 0.5127451
0.43872549 0.81083027 0.51608456
0.52285539 0.80974265 0.51911765
0.61372549 0.82285539 0.50940564
0.73612132 0.84166667 0.49019608
0.85980392 0.86089154 0.46227022
0.97990196 0.87892157 0.43578431
0.50490196 0.93333333 0.64215686
0.52242647 0.93333333 0.65
0.56127451 0.93455882 0.66004902
0.60245098 0.92696078 0.66960784
0.65343137 0.92156863 0.68431373
0.70882353 0.92585784 0.68063725
0.77916667 0.94681373 0.68676471
0.86421569 0.9560049 0.66421569
0.95294118 0.97254902 0.65098039
0 0.031372549 0.43039216
0.068137255 0.036090686 0.44313725
0.32291667 0.0020833333 0.47193627
0.52702206 0.0039215686 0.48866422
0.67696078 0 0.49313725
0.82941176 0.0039215686 0.48627451
0.94019608 0.011764706 0.45539216
0.99393382 0.018137255 0.43235294
1 0.19803922 0.43823529
0.0052083333 0.11617647 0.41911765
0.033272059 0.11525735 0.43082108
0.30036765 0.088679534 0.46862745
0.52659314 0.036649816 0.49418658
0.68841912 0.02622549 0.49705882
0.83186275 0.0022748162 0.48399969
0.93965993 0.015808824 0.45539216
0.99307598 0.10970435 0.43018536
0.99607843 0.28057598 0.44148284
0.0028186275 0.25747549 0.40110294
0.016712623 0.27348346 0.42745098
0.2513174 0.27254902 0.4564951
0.49901961 0.27487745 0.47774203
0.66813725 0.26550245 0.48480392
0.81078431 0.26637561 0.47051164
0.91372549 0.30955882 0.45272672
0.98293505 0.34871324 0.44655331
1 0.38578431 0.43590686
0.0039215686 0.46029412 0.44607843
0.010117953 0.45998775 0.45080423
0.20225184 0.46066176 0.4654565
0.45455729 0.45876225 0.47205882
0.63553922 0.46176471 0.45588235
0.77205882 0.46568627 0.44573376
0.88760723 0.47352941 0.43656556
0.97322304 0.47677696 0.41292892
0.99607843 0.49215686 0.40202206
0.0039215686 0.62573529 0.49779412
0.019178922 0.62058824 0.49647672
0.22818627 0.60710784 0.48897059
0.40784314 0.57153799 0.47984069
0.57169118 0.5817402 0.45759804
0.73137255 0.59114583 0.42867647
0.85294118 0.58210784 0.40165441
0.95661765 0.5895527 0.36862745
0.99607843 0.58946078 0.36691176
0.14834559 0.70435049 0.51660539
0.22432598 0.69882047 0.51520374
0.31977635 0.68526348 0.50343137
0.40294118 0.66176471 0.48339461
0.50977328 0.64898897 0.47254902
0.66568627 0.67261029 0.44844516
0.81029412 0.69068627 0.42205882
0.92941176 0.69068627 0.37990196
0.99754902 0.68676471 0.33094363
0.23492647 0.77401961 0.53382353
0.26649816 0.77311581 0.52901348
0.31507353 0.75906863 0.51066176
0.4035386 0.73880208 0.50245098
0.50171569 0.72598039 0.50343137
0.61727941 0.74068627 0.498269
0.76608456 0.76737132 0.48072917
0.89411765 0.77977941 0.45477941
0.98431373 0.78333333 0.41372549
0.31703431 0.85490196 0.56409314
0.35637255 0.85490196 0.56963082
0.40062806 0.84425551 0.56720282
0.47542126 0.82911305 0.57352941
0.54181985 0.80971201 0.57598039
0.62480852 0.81935509 0.57371324
0.73676471 0.84166667 0.55821078
0.86047794 0.86029412 0.54217984
0.97334559 0.87598039 0.52696078
0.51372549 0.94117647 0.67058824
0.53088235 0.94705882 0.67518382
0.55772059 0.94117647 0.67990196
0.60245098 0.93480392 0.68872549
0.65784314 0.92769608 0.70539216
0.71268382 0.9245098 0.70919118
0.78125 0.94178922 0.70796569
0.86029412 0.94803922 0.68382353
0.94509804 0.96078431 0.67303922
0 0.019607843 0.59411765
0.083333333 0.012009804 0.60539216
0.34607843 0.0078431373 0.62696078
0.59803922 0.0039215686 0.67156863
0.74509804 0.0049019608 0.68137255
0.85612745 0.0046568627 0.67181373
0.94313725 0.012254902 0.66617647
1 0.030392157 0.6370098
1 0.20980392 0.61372549
0.0078431373 0.12941176 0.58627451
0.064705882 0.12699142 0.59754902
0.32028186 0.11390931 0.62064951
0.56764706 0.082107843 0.65686275
0.75661765 0.034681373 0.6872549
0.85572917 0.048866422 0.66945466
0.94362745 0.08057598 0.65778186
0.99172794 0.19313725 0.62650123
1 0.26887255 0.60416667
0.0024509804 0.27254902 0.56078431
0.009497549 0.27916667 0.57414216
0.26470588 0.27941176 0.60441176
0.53694853 0.30214461 0.64926471
0.72696078 0.31617647 0.67156863
0.82285539 0.30545343 0.6439951
0.92144608 0.32071078 0.63970588
0.98854167 0.3627451 0.62990196
1 0.4127451 0.60392157
0.0039215686 0.43627451 0.56372549
0.010784314 0.44093137 0.57303922
0.19313725 0.4375 0.57622549
0.46007966 0.46026348 0.61253064
0.68235294 0.50134804 0.65539216
0.79139093 0.49338235 0.63599877
0.89068627 0.49411765 0.63186275
0.97818627 0.51798407 0.61893382
0.99607843 0.52377451 0.61176471
0.0078431373 0.6245098 0.61372549
0.013602941 0.61960784 0.61446078
0.20367647 0.61789216 0.6125
0.44803922 0.61801471 0.62156863
0.61813725 0.61323529 0.62598039
0.74375 0.61335784 0.61164216
0.86029412 0.60637255 0.59754902
0.95416667 0.61176471 0.58982843
0.99215686 0.60980392 0.57254902
0.015686275 0.75220588 0.64387255
0.13636642 0.74666054 0.64598652
0.3403799 0.73584559 0.64068627
0.49316789 0.71571691 0.63406863
0.58112745 0.69411765 0.61397059
0.68872549 0.69041054 0.60242034
0.82383578 0.70814951 0.59117647
0.93333333 0.7002451 0.55441176
0.99338235 0.69656863 0.54313725
0.33235294 0.81176471 0.6495098
0.35980392 0.80802696 0.64754902
0.43860294 0.79852941 0.64705882
0.50974265 0.78308824 0.63406863
0.56078431 0.75490196 0.61544118
0.65441176 0.75723039 0.60882353
0.77340686 0.77696078 0.60012255
0.9004902 0.78872549 0.58088235
0.97647059 0.79117647 0.56617647
0.44656863 0.87745098 0.67303922
0.48483456 0.87527574 0.67696078
0.50496324 0.86856618 0.67261029
0.525 0.85579044 0.65147059
0.58406863 0.84056373 0.64987745
0.64785539 0.82858456 0.64525123
0.74675245 0.84895833 0.64705882
0.85680147 0.86792279 0.62935049
0.98063725 0.8877451 0.61862745
0.55098039 0.95098039 0.72156863
0.5495098 0.94166667 0.71813725
0.57745098 0.94901961 0.725
0.60833333 0.94705882 0.72352941
0.66372549 0.93823529 0.72941176
0.7245098 0.93333333 0.74779412
0.79019608 0.94509804 0.75147059
0.8620098 0.95294118 0.73872549
0.95490196 0.96470588 0.7254902
0.014705882 0.039705882 0.71813725
0.19442402 0.020894608 0.72598039
0.38321078 0.010294118 0.74276961
0.59362745 0.025 0.76672794
0.77107843 0.013235294 0.79460784
0.89123775 0.015625 0.80496324
0.94644608 0.093014706 0.78026961
0.99264706 0.18167892 0.7622549
1 0.26421569 0.75098039
0.036764706 0.15245098 0.71568627
0.16096814 0.14844516 0.72334559
0.37313113 0.13321078 0.73681066
0.578125 0.11972273 0.75991881
0.76519608 0.15735294 0.79387255
0.87970282 0.19559589 0.79656863
0.94705882 0.22346814 0.77806373
0.98872549 0.28792892 0.75893076
1 0.31617647 0.7473652
0.0039215686 0.28958333 0.69705882
0.082506127 0.28935355 0.71043199
0.33673407 0.29816176 0.72279412
0.54215686 0.31098346 0.74901961
0.73137255 0.3567402 0.7817402
0.84963235 0.3893076 0.78480392
0.92267157 0.3986826 0.76629902
0.98872549 0.41127451 0.75471814
1 0.44215686 0.73921569
0.0048406863 0.43186275 0.68131127
0.0088235294 0.43241422 0.68039216
0.23828125 0.43558517 0.69149816
0.47947304 0.46470588 0.72410386
0.68091299 0.51323529 0.76050858
0.8161152 0.53341759 0.77604167
0.89921875 0.53901654 0.76983762
0.97176777 0.54608609 0.75441176
0.99362745 0.55392157 0.74313725
0.0090686275 0.58676471 0.69509804
0.0090686275 0.57981005 0.68553922
0.1841299 0.57873775 0.68118873
0.42377451 0.58134191 0.68921569
0.61960784 0.61372549 0.72659314
0.77401961 0.64387255 0.75098039
0.87426471 0.6471201 0.75294118
0.96029412 0.64411765 0.74289216
0.99215686 0.64264706 0.73921569
0.006004902 0.73682598 0.72990196
0.13547794 0.72762714 0.72359069
0.31147365 0.72846201 0.72689951
0.46975337 0.72182904 0.72240349
0.60242034 0.72156863 0.7205576
0.73921569 0.73682598 0.73829657
0.84607843 0.72990196 0.72316176
0.93069853 0.72464001 0.7145144
0.98039216 0.72745098 0.71421569
0.31519608 0.84546569 0.7495098
0.34943321 0.84644608 0.7504902
0.43275123 0.84227941 0.75698529
0.53633578 0.82843137 0.75006127
0.62745098 0.81439951 0.73921569
0.70372243 0.78621324 0.7222886
0.79932598 0.79558824 0.71614583
0.90997243 0.80214461 0.7036152
0.97830882 0.80196078 0.69509804
0.46715686 0.90441176 0.75
0.47971814 0.90798866 0.75389859
0.52107843 0.89865196 0.75520833
0.58694853 0.88939185 0.74969363
0.65162377 0.87588848 0.74779412
0.68884804 0.85637255 0.73676471
0.76113664 0.85021446 0.72316176
0.86615349 0.86971507 0.71911765
0.97285539 0.8877451 0.71470588
0.57892157 0.96617647 0.7872549
0.5846201 0.96666667 0.78756127
0.61703431 0.96409314 0.79117647
0.64215686 0.96078431 0.7838848
0.68578431 0.95490196 0.78333333
0.73927696 0.94901961 0.78578431
0.7754902 0.90882353 0.76360294
0.8745098 0.94852941 0.77990196
0.96715686 0.92696078 0.73382353
0.26666667 0.11666667 0.82254902
0.32647059 0.1192402 0.82647059
0.45196078 0.091666667 0.83431373
0.60539216 0.10196078 0.84963235
0.74509804 0.11617647 0.86519608
0.88333333 0.23578431 0.88762255
0.9747549 0.2875 0.88529412
1 0.32953431 0.86911765
0.99607843 0.36568627 0.85392157
0.23737745 0.21311275 0.81862745
0.31204044 0.20963542 0.82254902
0.45367647 0.19708946 0.83333333
0.59715074 0.20379902 0.84575674
0.74332108 0.25349265 0.86519608
0.87683824 0.3229473 0.88216912
0.95594363 0.36642157 0.88137255
0.99624694 0.3745098 0.86613051
0.99607843 0.42058824 0.85098039
0.18357843 0.31666667 0.80784314
0.27426471 0.31960784 0.81167279
0.41029412 0.32745098 0.8189951
0.56495098 0.34834559 0.83492647
0.72401961 0.39607843 0.85392157
0.85980392 0.45481005 0.87601103
0.94669118 0.4848652 0.87647059
0.99329044 0.47316176 0.85392157
0.99828431 0.50318627 0.85098039
0.029534314 0.44068627 0.78125
0.15418199 0.44992341 0.78186275
0.3278799 0.45530025 0.79558824
0.51081495 0.479519 0.81732537
0.68455882 0.5153799 0.83829657
0.82136949 0.56560968 0.86133578
0.91786152 0.59460784 0.86678922
0.98324142 0.59241728 0.85392157
0.99607843 0.59080882 0.85
0.0034313725 0.57647059 0.77107843
0.0070465686 0.56470588 0.75765931
0.22389706 0.56482843 0.75821078
0.43284314 0.57794118 0.78020833
0.62745098 0.6127451 0.81470588
0.78431373 0.65906863 0.84779412
0.89215686 0.69019608 0.85784314
0.9661152 0.68480392 0.85171569
0.98823529 0.67990196 0.84607843
0.017647059 0.6932598 0.78235294
0.071017157 0.68743873 0.77598039
0.24938725 0.68333333 0.77352941
0.41078431 0.68374694 0.77559743
0.55220588 0.68143382 0.77408088
0.72293199 0.72254902 0.81280637
0.86458333 0.75989583 0.8439951
0.94595588 0.76078431 0.84180453
0.98823529 0.76078431 0.84166667
0.25098039 0.82156863 0.81544118
0.30591299 0.81862745 0.81461397
0.39215686 0.81881127 0.81544118
0.49926471 0.81528799 0.81470588
0.6122549 0.8182598 0.81789216
0.70854779 0.80392157 0.80784314
0.83823529 0.82647059 0.83094363
0.91798407 0.82647059 0.82181373
0.99215686 0.82647059 0.80980392
0.43235294 0.91862745 0.83860294
0.45372243 0.92340686 0.84215686
0.51127451 0.93060662 0.84522059
0.58987439 0.9213848 0.84554228
0.65931373 0.90539216 0.83431373
0.74117647 0.90245098 0.83823529
0.81262255 0.88431373 0.82573529
0.88549326 0.88435968 0.81482843
0.96458333 0.89264706 0.8122549
0.55196078 0.98431373 0.85294118
0.56323529 0.98443627 0.85294118
0.58946078 0.98137255 0.85686275
0.64914216 0.98578431 0.85294118
0.69852941 0.97156863 0.8495098
0.75441176 0.95968137 0.84571078
0.81151961 0.95759804 0.84117647
0.8807598 0.96115196 0.84509804
0.91470588 0.96470588 0.84509804
0.41029412 0.25392157 0.91127451
0.44803922 0.24656863 0.91127451
0.53039216 0.24644608 0.91470588
0.63382353 0.24852941 0.91862745
0.74509804 0.29044118 0.93235294
0.85147059 0.34785539 0.94215686
0.95539216 0.41176471 0.95098039
0.99264706 0.44558824 0.95735294
0.99607843 0.46421569 0.94656863
0.41813725 0.29810049 0.91127451
0.44406403 0.290625 0.91519608
0.52869179 0.29557292 0.91776961
0.62775735 0.31323529 0.9189568
0.73336397 0.34733456 0.92867647
0.84856771 0.4033701 0.93954504
0.94793199 0.46530331 0.95
0.98872549 0.48419884 0.95
0.99607843 0.49509804 0.94558824
0.38223039 0.39068627 0.90428922
0.41732537 0.38950674 0.90428922
0.50376838 0.40082721 0.90735294
0.60753676 0.41755515 0.91482843
0.72426471 0.43952206 0.91862745
0.836106 0.49411765 0.93431373
0.94375 0.55159314 0.94696691
0.98480392 0.55625 0.94313725
0.99607843 0.55894608 0.94215686
0.31617647 0.49362745 0.88792892
0.36176471 0.49852941 0.88921569
0.45966605 0.50821078 0.89113051
0.57910539 0.52058824 0.90471814
0.69721201 0.54690564 0.9129902
0.81176471 0.59460018 0.92519914
0.92571998 0.63884804 0.94192708
0.99311428 0.64754902 0.93796722
0.99852941 0.63970588 0.93431373
0.19509804 0.59117647 0.8627451
0.2385723 0.59313725 0.8629902
0.3495098 0.59852941 0.86660539
0.50851716 0.60612745 0.88201593
0.65379902 0.63431373 0.89938725
0.78063725 0.66927083 0.91436887
0.90379902 0.71470588 0.93651961
0.97132353 0.72356005 0.93823529
0.99803922 0.72009804 0.93651961
0.015931373 0.68069853 0.85
0.047610294 0.67892157 0.84822304
0.2475337 0.67677696 0.84852941
0.40196078 0.67794118 0.8536152
0.5658701 0.69206495 0.86421569
0.73941483 0.73339461 0.89478401
0.86960784 0.76997549 0.91991422
0.95686275 0.78817402 0.93284314
0.98609069 0.79166667 0.92910539
0.18321078 0.78823529 0.87647059
0.24825368 0.78779105 0.87254902
0.35750613 0.79215686 0.87647059
0.44937194 0.7852788 0.87273284
0.55833333 0.78253676 0.86960784
0.66551777 0.78321078 0.86876532
0.82230392 0.82349877 0.90465686
0.94607843 0.85831801 0.92691483
0.99215686 0.85343137 0.91813725
0.40196078 0.9033701 0.90643382
0.41236213 0.911106 0.90735294
0.46617647 0.89961703 0.9029565
0.55474112 0.90498621 0.90729167
0.63823529 0.91102941 0.90735294
0.73020833 0.9060432 0.91111366
0.83497243 0.90698529 0.91815257
0.92254902 0.91514246 0.91782322
0.99166667 0.9151348 0.91519608
0.53235294 0.99166667 0.92647059
0.5466299 0.99859069 0.92604167
0.56519608 0.98419118 0.9189951
0.63186275 0.98970588 0.92009804
0.69362745 0.98823529 0.92058824
0.76109069 0.96029412 0.92254902
0.84558824 0.98002451 0.92303922
0.89957108 0.96072304 0.91470588
0.94166667 0.9495098 0.91470588
0.54117647 0.42352941 0.98823529
0.56421569 0.43480392 0.99166667
0.60294118 0.42843137 0.98529412
0.66617647 0.42598039 0.98039216
0.75490196 0.4372549 0.98431373
0.84362745 0.47598039 0.99215686
0.93627451 0.49411765 0.99117647
0.99607843 0.55686275 0.99607843
1 0.58039216 0.99607843
0.53382353 0.44264706 0.98431373
0.55680147 0.44607843 0.98780637
0.60637255 0.45441176 0.98872549
0.67009804 0.46207108 0.98823529
0.75294118 0.47941176 0.98823529
0.83970588 0.5127451 0.99479167
0.9314951 0.52843137 0.98811275
0.98872549 0.57689951 0.99215686
1 0.59558824 0.99656863
0.5372549 0.51862745 0.98823529
0.54215686 0.51568627 0.98039216
0.60269608 0.52720588 0.98897059
0.66372549 0.52463235 0.98431373
0.73627451 0.53186275 0.9754902
0.82892157 0.56421569 0.98186275
0.92058824 0.59901961 0.99289216
0.98492647 0.63039216 0.99215686
0.99607843 0.63431373 0.98823529
0.50882353 0.58921569 0.97794118
0.53498775 0.59381127 0.98039216
0.57205882 0.5877451 0.97647059
0.64895833 0.59859069 0.98039216
0.72941176 0.61053922 0.97965686
0.81917892 0.63627451 0.97984069
0.90821078 0.66372549 0.98578431
0.99852941 0.67205882 0.97058824
0.99852941 0.69509804 0.99460784
0.47647059 0.6627451 0.97058824
0.48553922 0.6627451 0.96862745
0.54215686 0.66568627 0.97401961
0.61519608 0.66666667 0.96862745
0.70882353 0.68333333 0.98039216
0.79607843 0.6995098 0.97647059
0.89313725 0.72647059 0.98039216
0.96740196 0.74509804 0.98602941
0.99607843 0.75686275 0.98823529
0.41127451 0.73627451 0.96078431
0.42175245 0.73363971 0.95900735
0.4932598 0.73529412 0.96507353
0.54417892 0.72696078 0.95055147
0.65759804 0.73872549 0.96764706
0.76372549 0.75496324 0.96954657
0.87536765 0.78284314 0.97892157
0.96783088 0.81341912 0.98676471
0.99215686 0.81862745 0.98676471
0.38823529 0.81470588 0.95882353
0.39840686 0.81115196 0.95428922
0.44583333 0.81078431 0.95735294
0.51409314 0.80232843 0.94656863
0.60294118 0.80441176 0.95980392
0.71102941 0.80796569 0.96507353
0.8375 0.82965686 0.97181373
0.93737745 0.85747549 0.97990196
0.99215686 0.8872549 0.99117647
0.43186275 0.89901961 0.96470588
0.45882353 0.90343137 0.97647059
0.46666667 0.89558824 0.95698529
0.54068627 0.89705882 0.95900735
0.61838235 0.89558824 0.96887255
0.69540441 0.88627451 0.95471814
0.80477941 0.89656863 0.97009804
0.91862745 0.91470588 0.97738971
0.98088235 0.9377451 0.97696078
0.49803922 0.98431373 0.98039216
0.50196078 0.99166667 0.98823529
0.53627451 0.96960784 0.97254902
0.58382353 0.95931373 0.97794118
0.66470588 0.98823529 0.98627451
0.7495098 0.98578431 0.98039216
0.82647059 0.99019608 0.99117647
0.90343137 0.94068627 0.98039216
0.98823529 0.98039216 0.99215686
