site/assets/luts/natron-haldclut--smooth-fade--551a62c92.cube
# LUTr-Project: LUTr — LUTrepository
# LUTr-Schema-Version: 1
# LUTr-ID: natron-haldclut--smooth-fade--551a62c92
# LUTr-Title: smooth fade
# LUTr-Collection: Natron HaldCLUT
# LUTr-Collection-ID: natron-haldclut-presets
# LUTr-Source: https://github.com/NatronGitHub/clut
# LUTr-Source-File: submissions/natron-haldclut-presets/various/smooth_fade.png
# LUTr-Source-Format: PNG
# LUTr-Source-SHA256: 3c31d743610572f80e492d26e16d7a40f8b470b116ce0325bf82483b7f98f91c
# LUTr-License: CC-BY-SA-4.0
# LUTr-License-URL: https://github.com/NatronGitHub/clut#license
# LUTr-Tags: creative, film, film-emulation, hald-clut, natron, png, cube
# LUTr-Transform-Class: film-emulation
# LUTr-Input-Color-Space: srgb
# LUTr-Output-Color-Space: srgb
# LUTr-Color-Space-Confidence: assumed-display-referred
# LUTr-Conversion-Method: PNG LUT image decoded at 16-bit and sampled to 25x25x25 3D CUBE
# LUTr-Conversion-Date: 2026-07-27
# LUTr-Conversion-Tool: LUTr scripts/convert-all-to-cube.mjs
# LUTr-Conversion-Grid: 25x25x25
# LUTr-Note: Preserve this metadata and the upstream license notices when redistributing.
TITLE "smooth fade"
LUT_3D_SIZE 25
DOMAIN_MIN 0 0 0
DOMAIN_MAX 1 1 1
0.16862745 0.23529412 0.24313725
0.1995098 0.23529412 0.2495098
0.23921569 0.23529412 0.25588235
0.27696078 0.23529412 0.2622549
0.31764706 0.23529412 0.2627451
0.3627451 0.22696078 0.2622549
0.40784314 0.21666667 0.25588235
0.45294118 0.20245098 0.2495098
0.49803922 0.18823529 0.23921569
0.54166667 0.17156863 0.22647059
0.58431373 0.16470588 0.22352941
0.62892157 0.16470588 0.22352941
0.67254902 0.16078431 0.21960784
0.71911765 0.15343137 0.2122549
0.74705882 0.16372549 0.22254902
0.77843137 0.17352941 0.23235294
0.82352941 0.15294118 0.21176471
0.85980392 0.14362745 0.20245098
0.87941176 0.15 0.20392157
0.89705882 0.15637255 0.20392157
0.91764706 0.1627451 0.20392157
0.94215686 0.16470588 0.2
0.9627451 0.16470588 0.19607843
0.97941176 0.16470588 0.19068627
0.99607843 0.16862745 0.18431373
0.16470588 0.23529412 0.23921569
0.19803922 0.23682598 0.24613971
0.23529412 0.24227941 0.25306373
0.27647059 0.24773284 0.25851716
0.31519608 0.25122549 0.25882353
0.35637255 0.25 0.25637255
0.40147059 0.23970588 0.25134804
0.44656863 0.2254902 0.24313725
0.49166667 0.21127451 0.23529412
0.534375 0.1995098 0.225
0.57794118 0.19166667 0.22352941
0.61911765 0.19166667 0.22714461
0.66421569 0.1877451 0.23039216
0.70508578 0.18382353 0.24215686
0.74264706 0.18382353 0.23480392
0.7745098 0.18627451 0.23480392
0.81323529 0.17598039 0.21176471
0.85104167 0.17506127 0.20692402
0.87647059 0.17205882 0.20392157
0.89705882 0.17334559 0.20392157
0.91764706 0.17352941 0.20392157
0.93841912 0.17322304 0.1995098
0.96029412 0.17107843 0.19313725
0.98333333 0.16715686 0.18676471
0.99852941 0.16862745 0.18039216
0.19509804 0.25490196 0.26960784
0.21372549 0.26127451 0.26311275
0.24093137 0.26740196 0.25759804
0.27181373 0.27352941 0.25502451
0.30882353 0.28039216 0.25245098
0.35 0.27610294 0.24963235
0.39411765 0.26666667 0.24387255
0.4377451 0.25637255 0.2377451
0.48137255 0.24607843 0.23039216
0.52647059 0.23468137 0.22352941
0.56764706 0.22720588 0.21960784
0.6127451 0.22267157 0.21960784
0.65490196 0.21862745 0.22647059
0.69607843 0.21556373 0.23872549
0.73406863 0.21470588 0.22843137
0.7685049 0.21176471 0.21654412
0.80392157 0.21078431 0.21176471
0.84019608 0.21078431 0.20931373
0.87181373 0.20784314 0.20392157
0.89313725 0.20686275 0.20306373
0.91666667 0.20343137 0.20196078
0.93590686 0.19987745 0.20196078
0.95294118 0.19534314 0.20294118
0.9682598 0.19215686 0.20526961
0.98039216 0.18823529 0.21078431
0.15686275 0.28872549 0.23137255
0.19203431 0.29295343 0.23958333
0.22830882 0.29791667 0.24497549
0.265625 0.30098039 0.24754902
0.29852941 0.30490196 0.24191176
0.3401348 0.30091912 0.23970588
0.38480392 0.29656863 0.23578431
0.42959559 0.29117647 0.23039216
0.47107843 0.28039216 0.22401961
0.51617647 0.27040441 0.21979167
0.55821078 0.26384804 0.21875
0.60245098 0.25778186 0.21268382
0.64926471 0.25318627 0.20637255
0.69564951 0.2495098 0.19840686
0.72696078 0.24901961 0.20441176
0.76176471 0.24558824 0.2096201
0.79656863 0.24558824 0.21176471
0.83137255 0.24558824 0.21176471
0.86568627 0.24509804 0.20306373
0.89270833 0.24166667 0.19699755
0.91372549 0.23946078 0.19632353
0.93474265 0.23376225 0.19264706
0.95833333 0.22696078 0.18664216
0.97824755 0.2223652 0.18106618
0.99803922 0.21862745 0.17254902
0.18823529 0.32156863 0.27058824
0.20612745 0.32352941 0.25637255
0.22990196 0.3254902 0.24460784
0.25759804 0.32745098 0.23382353
0.29215686 0.33039216 0.22941176
0.33333333 0.32745098 0.22720588
0.37794118 0.32598039 0.2254902
0.42034314 0.32205882 0.22156863
0.46470588 0.31176471 0.21372549
0.50710784 0.30465686 0.21372549
0.55098039 0.2995098 0.21176471
0.59583333 0.29436275 0.20808824
0.64215686 0.28921569 0.20392157
0.68823529 0.28627451 0.20196078
0.72254902 0.28627451 0.20686275
0.75539216 0.28431373 0.21715686
0.79019608 0.28235294 0.21764706
0.82426471 0.28235294 0.20931373
0.86029412 0.28039216 0.19852941
0.88921569 0.27843137 0.19044118
0.91372549 0.2754902 0.18627451
0.93431373 0.27034314 0.18823529
0.95833333 0.26323529 0.18823529
0.97867647 0.25882353 0.17892157
0.99019608 0.25490196 0.17254902
0.1754902 0.35784314 0.25441176
0.1939951 0.35441176 0.24920343
0.22340686 0.35441176 0.26360294
0.25349265 0.35441176 0.22843137
0.28578431 0.35441176 0.21495098
0.32696078 0.35441176 0.2161152
0.37120098 0.35404412 0.21666667
0.41501225 0.3504902 0.20980392
0.45882353 0.34313725 0.20343137
0.5 0.34050245 0.20606618
0.54509804 0.33529412 0.20784314
0.5901348 0.33137255 0.20784314
0.6370098 0.32745098 0.20612745
0.68339461 0.32653186 0.20392157
0.7185049 0.32352941 0.20392157
0.753125 0.32303922 0.21256127
0.78431373 0.31960784 0.21862745
0.81911765 0.31930147 0.2127451
0.85747549 0.31519608 0.19362745
0.88872549 0.31219363 0.18039216
0.91372549 0.30955882 0.18014706
0.93431373 0.30692402 0.1877451
0.95441176 0.30085784 0.18468137
0.97371324 0.29822304 0.17469363
0.98382353 0.29607843 0.17254902
0.14803922 0.39901961 0.22352941
0.17990196 0.39607843 0.22904412
0.2127451 0.39215686 0.23602941
0.24656863 0.38921569 0.21776961
0.27892157 0.38872549 0.21127451
0.32058824 0.38529412 0.21188725
0.36470588 0.38529412 0.20980392
0.41017157 0.3810049 0.20245098
0.45196078 0.38039216 0.2
0.49669118 0.37683824 0.20392157
0.54142157 0.37328431 0.20784314
0.58627451 0.36911765 0.20784314
0.63186275 0.36519608 0.20784314
0.67745098 0.36470588 0.20686275
0.71470588 0.36102941 0.20686275
0.7495098 0.36078431 0.2060049
0.78431373 0.35784314 0.20196078
0.81801471 0.35502451 0.19558824
0.85490196 0.3497549 0.18504902
0.89129902 0.34607843 0.17009804
0.9122549 0.34509804 0.17156863
0.93039216 0.34203431 0.17352941
0.94877451 0.34117647 0.17352941
0.96715686 0.3372549 0.16960784
0.97352941 0.33431373 0.16862745
0.15588235 0.43186275 0.23039216
0.17261029 0.43186275 0.22015931
0.20686275 0.42941176 0.21960784
0.24148284 0.42579657 0.21599265
0.27573529 0.4254902 0.21176471
0.31568627 0.42156863 0.20784314
0.35931373 0.42156863 0.20784314
0.40196078 0.41917892 0.20300245
0.44558824 0.41764706 0.2
0.49068627 0.41464461 0.20392157
0.53615196 0.41164216 0.20490196
0.58216912 0.40851716 0.20784314
0.62867647 0.40318627 0.20784314
0.67254902 0.40196078 0.20784314
0.71041667 0.40085784 0.20784314
0.74558824 0.39803922 0.2033701
0.78039216 0.39803922 0.19607843
0.81464461 0.39411765 0.18578431
0.85098039 0.38921569 0.1754902
0.8872549 0.38284314 0.16488971
0.91102941 0.38235294 0.16470588
0.93039216 0.38216912 0.16470588
0.95098039 0.37843137 0.16470588
0.96378676 0.3745098 0.16470588
0.96470588 0.3745098 0.16470588
0.17647059 0.46666667 0.25098039
0.18921569 0.46666667 0.23431373
0.20588235 0.46666667 0.21862745
0.2377451 0.46666667 0.2122549
0.27254902 0.4627451 0.21372549
0.31176471 0.45882353 0.20784314
0.35294118 0.45882353 0.20392157
0.39803922 0.45490196 0.20392157
0.43921569 0.45490196 0.20392157
0.48431373 0.45098039 0.20392157
0.53039216 0.44705882 0.20392157
0.57794118 0.44362745 0.20784314
0.62352941 0.44313725 0.20784314
0.66862745 0.43921569 0.20784314
0.70686275 0.43921569 0.20784314
0.74166667 0.43529412 0.20245098
0.77647059 0.43529412 0.19215686
0.81127451 0.43137255 0.18578431
0.84607843 0.42745098 0.1754902
0.88088235 0.42401961 0.16911765
0.90784314 0.42352941 0.18039216
0.93431373 0.41960784 0.15686275
0.95196078 0.41568627 0.15686275
0.95833333 0.41568627 0.15833333
0.96078431 0.41568627 0.16078431
0.16519608 0.50637255 0.23970588
0.17886029 0.50637255 0.22457108
0.20110294 0.50392157 0.21323529
0.23382353 0.50392157 0.20588235
0.26740196 0.50392157 0.20147059
0.30569853 0.5 0.2
0.34901961 0.49644608 0.2
0.39166667 0.49307598 0.2
0.43529412 0.49215686 0.20147059
0.47947304 0.48878676 0.20392157
0.52585784 0.48541667 0.20392157
0.571875 0.48216912 0.20520833
0.61838235 0.48039216 0.20784314
0.6622549 0.47775735 0.20784314
0.70012255 0.47647059 0.20490196
0.73621324 0.47401961 0.19908088
0.77254902 0.47254902 0.19215686
0.80643382 0.46917892 0.1848652
0.84215686 0.46801471 0.17647059
0.87303922 0.46470588 0.16911765
0.90539216 0.45955882 0.15955882
0.93823529 0.45422794 0.15128676
0.95294118 0.45294118 0.14840686
0.95294118 0.45533088 0.15140931
0.95294118 0.45686275 0.15294118
0.13823529 0.55294118 0.20882353
0.15931373 0.5504902 0.20257353
0.19411765 0.54509804 0.20269608
0.22855392 0.54509804 0.19816176
0.25833333 0.54509804 0.19117647
0.3 0.54068627 0.19129902
0.34485294 0.53431373 0.19583333
0.38737745 0.53125 0.19938725
0.43137255 0.52843137 0.2
0.47610294 0.5254902 0.20355392
0.52083333 0.52156863 0.20392157
0.56654412 0.52058824 0.20392157
0.61127451 0.51764706 0.20392157
0.65588235 0.51629902 0.20392157
0.69485294 0.51372549 0.20318627
0.7310049 0.5127451 0.19607843
0.76764706 0.50980392 0.19117647
0.80306373 0.50698529 0.18431373
0.8372549 0.50490196 0.1754902
0.8689951 0.50196078 0.16776961
0.90147059 0.49754902 0.15784314
0.93468137 0.49019608 0.14595588
0.94901961 0.49019608 0.14509804
0.95 0.49411765 0.14901961
0.95294118 0.49411765 0.14901961
0.12107843 0.59460784 0.19166667
0.15275735 0.59166667 0.19558824
0.18737745 0.58627451 0.19595588
0.22205882 0.58627451 0.19215686
0.25294118 0.58627451 0.18406863
0.29613971 0.57886029 0.18523284
0.34117647 0.5745098 0.19129902
0.3841299 0.57058824 0.19607843
0.42745098 0.56666667 0.19656863
0.47254902 0.56292892 0.2
0.51764706 0.56188725 0.2004902
0.56231618 0.55882353 0.20349265
0.60441176 0.55490196 0.20392157
0.64908088 0.55490196 0.20392157
0.68762255 0.55110294 0.20098039
0.72616422 0.54969363 0.19460784
0.76470588 0.54705882 0.18823529
0.79822304 0.54362745 0.18057598
0.83431373 0.54313725 0.17291667
0.86519608 0.53927696 0.16519608
0.9 0.53529412 0.15490196
0.92745098 0.53137255 0.14852941
0.94803922 0.53137255 0.14509804
0.95294118 0.53137255 0.14528186
0.95294118 0.53186275 0.14901961
0.1254902 0.62941176 0.19607843
0.14852941 0.62941176 0.20122549
0.18137255 0.62745098 0.19901961
0.21421569 0.62352941 0.19240196
0.24803922 0.62254902 0.18431373
0.29044118 0.61740196 0.18431373
0.33529412 0.6122549 0.18823529
0.37916667 0.60906863 0.19215686
0.42352941 0.60588235 0.19607843
0.46666667 0.60392157 0.19607843
0.5122549 0.6 0.19803922
0.55661765 0.59656863 0.19803922
0.6 0.59509804 0.19803922
0.64313725 0.59215686 0.19803922
0.68284314 0.58872549 0.19509804
0.72279412 0.5875 0.18946078
0.76078431 0.58431373 0.18431373
0.79485294 0.58235294 0.17794118
0.83039216 0.57990196 0.17156863
0.8629902 0.57671569 0.16127451
0.89411765 0.57352941 0.15490196
0.92279412 0.57058824 0.14852941
0.94558824 0.56911765 0.14509804
0.95367647 0.56862745 0.14509804
0.95686275 0.56862745 0.14509804
0.1254902 0.66470588 0.19607843
0.14852941 0.66470588 0.19920343
0.17536765 0.66470588 0.1942402
0.20588235 0.66427696 0.18039216
0.24289216 0.66078431 0.17990196
0.2877451 0.65680147 0.18382353
0.32928922 0.65294118 0.18431373
0.37420343 0.64883578 0.18792892
0.41911765 0.64509804 0.19166667
0.46292892 0.64246324 0.19215686
0.5067402 0.63982843 0.19166667
0.55398284 0.6372549 0.19166667
0.59607843 0.63308824 0.19166667
0.64068627 0.62941176 0.1877451
0.68186275 0.62634804 0.1877451
0.71960784 0.625 0.18382353
0.75686275 0.62156863 0.17990196
0.79148284 0.61893382 0.17383578
0.82610294 0.61752451 0.16764706
0.85735294 0.61372549 0.16035539
0.88823529 0.60980392 0.15269608
0.91819853 0.60931373 0.14509804
0.94313725 0.60588235 0.14203431
0.95441176 0.60588235 0.14099265
0.95735294 0.60588235 0.14068627
0.11862745 0.70196078 0.19215686
0.14203431 0.70294118 0.18860294
0.16862745 0.70294118 0.18039216
0.19558824 0.70196078 0.16752451
0.23627451 0.7 0.17156863
0.28039216 0.69754902 0.17659314
0.3247549 0.69191176 0.17965686
0.36764706 0.68872549 0.18137255
0.4127451 0.68333333 0.18431373
0.45747549 0.68051471 0.18529412
0.50294118 0.67769608 0.18504902
0.54791667 0.67463235 0.18137255
0.59264706 0.67107843 0.18137255
0.63431373 0.66752451 0.18088235
0.6754902 0.66446078 0.17745098
0.71629902 0.66164216 0.17536765
0.75294118 0.65882353 0.17254902
0.7877451 0.65588235 0.16715686
0.82254902 0.65416667 0.16151961
0.85428922 0.65110294 0.15698529
0.88431373 0.64754902 0.1495098
0.9122549 0.64411765 0.14203431
0.93921569 0.64411765 0.13897059
0.95735294 0.64313725 0.13615196
0.96372549 0.64313725 0.13431373
0.10686275 0.74313725 0.18431373
0.13137255 0.74221814 0.18131127
0.15980392 0.73884804 0.1754902
0.19068627 0.73431373 0.16911765
0.22990196 0.73382353 0.16862745
0.275 0.73351716 0.16862745
0.31764706 0.72990196 0.17107843
0.36182598 0.72506127 0.17107843
0.40637255 0.71960784 0.175
0.45147059 0.71660539 0.175
0.49693627 0.71421569 0.17291667
0.54166667 0.71176471 0.17107843
0.58676471 0.70784314 0.17107843
0.62794118 0.70606618 0.17107843
0.67022059 0.70061275 0.1692402
0.71121324 0.69852941 0.16715686
0.74901961 0.69607843 0.16323529
0.78535539 0.69215686 0.1598652
0.81862745 0.69007353 0.15441176
0.8495098 0.68676471 0.14932598
0.88039216 0.68284314 0.14240196
0.90980392 0.68039216 0.1372549
0.93823529 0.67892157 0.13394608
0.9588848 0.67892157 0.12886029
0.96617647 0.67892157 0.12794118
0.094117647 0.78431373 0.17647059
0.125 0.77794118 0.17647059
0.15588235 0.77156863 0.17647059
0.18676471 0.76862745 0.17254902
0.22352941 0.76470588 0.16862745
0.26862745 0.76470588 0.16470588
0.3127451 0.76176471 0.16470588
0.35637255 0.76078431 0.16470588
0.4 0.75686275 0.16078431
0.44509804 0.75294118 0.16078431
0.49019608 0.74901961 0.16078431
0.53480392 0.74901961 0.16078431
0.57843137 0.74509804 0.16078431
0.62156863 0.74117647 0.16078431
0.6627451 0.73823529 0.16078431
0.70392157 0.73333333 0.15931373
0.74509804 0.73333333 0.15294118
0.77990196 0.72941176 0.1504902
0.81470588 0.7254902 0.14509804
0.84558824 0.72156863 0.14117647
0.87647059 0.71764706 0.13529412
0.90343137 0.71715686 0.13284314
0.93431373 0.71372549 0.12647059
0.95980392 0.71372549 0.12156863
0.97254902 0.71372549 0.11764706
0.096568627 0.80882353 0.17647059
0.11954657 0.80735294 0.17493873
0.15196078 0.80245098 0.17647059
0.18431373 0.7995098 0.17303922
0.21960784 0.79558824 0.16985294
0.26096814 0.79558824 0.16439951
0.30526961 0.79558824 0.16078431
0.34852941 0.79166667 0.15686275
0.39362745 0.79166667 0.15441176
0.43480392 0.7877451 0.1504902
0.47990196 0.78566176 0.1504902
0.525 0.78382353 0.1504902
0.57009804 0.78112745 0.1504902
0.61158088 0.778125 0.1504902
0.65637255 0.77267157 0.1504902
0.69754902 0.76966912 0.14656863
0.73872549 0.76666667 0.14264706
0.77352941 0.76329657 0.14019608
0.80833333 0.75992647 0.13480392
0.84166667 0.75667892 0.13088235
0.87132353 0.75367647 0.12696078
0.8995098 0.75226716 0.12303922
0.9314951 0.74852941 0.12009804
0.96127451 0.74797794 0.11372549
0.97892157 0.74705882 0.10735294
0.099019608 0.83431373 0.17647059
0.11862745 0.83431373 0.17254902
0.14705882 0.83333333 0.16862745
0.1814951 0.83039216 0.17156863
0.21323529 0.82794118 0.17843137
0.25588235 0.82647059 0.15980392
0.29779412 0.82647059 0.15612745
0.34215686 0.82536765 0.15257353
0.38431373 0.82254902 0.14509804
0.42732843 0.82254902 0.14056373
0.46960784 0.81936275 0.13627451
0.51458333 0.81862745 0.13627451
0.55980392 0.81470588 0.13872549
0.60490196 0.81078431 0.14019608
0.64926471 0.80710784 0.14019608
0.69117647 0.80355392 0.13627451
0.73235294 0.79901961 0.13235294
0.76715686 0.79718137 0.13051471
0.80220588 0.79509804 0.1245098
0.83676471 0.79252451 0.11715686
0.86813725 0.79166667 0.11421569
0.89558824 0.78688725 0.1127451
0.92647059 0.78333333 0.1127451
0.95735294 0.78333333 0.10343137
0.98529412 0.78333333 0.096078431
0.10196078 0.86127451 0.17647059
0.12205882 0.86127451 0.17040441
0.14411765 0.86164216 0.16384804
0.175 0.86127451 0.16127451
0.20808824 0.85931373 0.15955882
0.24601716 0.85735294 0.15251225
0.29068627 0.85735294 0.1495098
0.33547794 0.85735294 0.14773284
0.37696078 0.85343137 0.14117647
0.41813725 0.85343137 0.13351716
0.45588235 0.85343137 0.12598039
0.50091912 0.84993873 0.12598039
0.5495098 0.84754902 0.12990196
0.59509804 0.84509804 0.12990196
0.64227941 0.84166667 0.12990196
0.68480392 0.83756127 0.12598039
0.7254902 0.83382353 0.12205882
0.76060049 0.82990196 0.12205882
0.79558824 0.82990196 0.11715686
0.83033088 0.82941176 0.11029412
0.86470588 0.82769608 0.10073529
0.89209559 0.82156863 0.10588235
0.91997549 0.81519608 0.10588235
0.95 0.81421569 0.1004902
0.97696078 0.81421569 0.094117647
0.10588235 0.88823529 0.17647059
0.12377451 0.89019608 0.17009804
0.14705882 0.89215686 0.15980392
0.17107843 0.89215686 0.15147059
0.20196078 0.89215686 0.14705882
0.23946078 0.88823529 0.14313725
0.28431373 0.88823529 0.14313725
0.3254902 0.88823529 0.14117647
0.36862745 0.88431373 0.1372549
0.40784314 0.88431373 0.13014706
0.4495098 0.88137255 0.12352941
0.49558824 0.88014706 0.12352941
0.54215686 0.87745098 0.12745098
0.58823529 0.8745098 0.1379902
0.63333333 0.87254902 0.12058824
0.67647059 0.86862745 0.11421569
0.71568627 0.86470588 0.11176471
0.75294118 0.8622549 0.11691176
0.7877451 0.86029412 0.11764706
0.82352941 0.85514706 0.11029412
0.85490196 0.85490196 0.10392157
0.88357843 0.85245098 0.10367647
0.9127451 0.84607843 0.10392157
0.94215686 0.84436275 0.1004902
0.95882353 0.84117647 0.094117647
0.09754902 0.91862745 0.17647059
0.11795343 0.91862745 0.16960784
0.14362745 0.91911765 0.15588235
0.17064951 0.9221201 0.14558824
0.19779412 0.92303922 0.13480392
0.23333333 0.92303922 0.13284314
0.27708333 0.91911765 0.13321078
0.31911765 0.91519608 0.13676471
0.36029412 0.91470588 0.13333333
0.40147059 0.91096814 0.12941176
0.44669118 0.90208333 0.13088235
0.49209559 0.90202206 0.13039216
0.53676471 0.90318627 0.13161765
0.58186275 0.90294118 0.12935049
0.62610294 0.90294118 0.11482843
0.66813725 0.8995098 0.10459559
0.70931373 0.89558824 0.10196078
0.74411765 0.89136029 0.1096201
0.77990196 0.88370098 0.11470588
0.81415441 0.87947304 0.11378676
0.84877451 0.87990196 0.10784314
0.87898284 0.87990196 0.10931373
0.9064951 0.87598039 0.10159314
0.93167892 0.87598039 0.09754902
0.94019608 0.87205882 0.094117647
0.087254902 0.94607843 0.17254902
0.10637255 0.9442402 0.16617647
0.13333333 0.94607843 0.15588235
0.16421569 0.94705882 0.14558824
0.19411765 0.94754902 0.13137255
0.22647059 0.94791667 0.12585784
0.26764706 0.94632353 0.12941176
0.30882353 0.94313725 0.13002451
0.35 0.94215686 0.12647059
0.39301471 0.93639706 0.12830882
0.44093137 0.92647059 0.1379902
0.48823529 0.91960784 0.13762255
0.53039216 0.92598039 0.13186275
0.5745098 0.93039216 0.12303922
0.61666667 0.92818627 0.11397059
0.65490196 0.92536765 0.11789216
0.69901961 0.91960784 0.10882353
0.73737745 0.91323529 0.10943627
0.77328431 0.90686275 0.11764706
0.80735294 0.90306373 0.12365196
0.84362745 0.90686275 0.10833333
0.87598039 0.90686275 0.10539216
0.90318627 0.90686275 0.094362745
0.92009804 0.90686275 0.091176471
0.92352941 0.90686275 0.091176471
0.073039216 0.97156863 0.17254902
0.096078431 0.97156863 0.16617647
0.12696078 0.96580882 0.15588235
0.1591299 0.95882353 0.14558824
0.19019608 0.95098039 0.13529412
0.225 0.95 0.12941176
0.25882353 0.9629902 0.14105392
0.29852941 0.9721201 0.12254902
0.33970588 0.96911765 0.12009804
0.3872549 0.96127451 0.12886029
0.43480392 0.94767157 0.13933824
0.48253676 0.94411765 0.14136029
0.5254902 0.94607843 0.12818627
0.56666667 0.95588235 0.10943627
0.60784314 0.95735294 0.10294118
0.64601716 0.9504902 0.11384804
0.68872549 0.94019608 0.10980392
0.72990196 0.92843137 0.11464461
0.76764706 0.92696078 0.11372549
0.80226716 0.92971814 0.11096814
0.83848039 0.93504902 0.10122549
0.8745098 0.9377451 0.092463235
0.9 0.9377451 0.084803922
0.90833333 0.9377451 0.084803922
0.91078431 0.93627451 0.08627451
0.066666667 0.99215686 0.17254902
0.089705882 0.98578431 0.16617647
0.1245098 0.97156863 0.15588235
0.15539216 0.96127451 0.14558824
0.19019608 0.95098039 0.13529412
0.225 0.95 0.12941176
0.25588235 0.97058824 0.12254902
0.29215686 0.9872549 0.11470588
0.33333333 0.99215686 0.11372549
0.38088235 0.9754902 0.13431373
0.43137255 0.96372549 0.14607843
0.47647059 0.95686275 0.14901961
0.52156863 0.95882353 0.13529412
0.5627451 0.96911765 0.1127451
0.6 0.98333333 0.089215686
0.64117647 0.97107843 0.099509804
0.68235294 0.95686275 0.10980392
0.72352941 0.94411765 0.11617647
0.76372549 0.93431373 0.11666667
0.79852941 0.94460784 0.10637255
0.83333333 0.95294118 0.096078431
0.86862745 0.96127451 0.081862745
0.89705882 0.96568627 0.073529412
0.89803922 0.96078431 0.078431373
0.90196078 0.96078431 0.082352941
0.175 0.22745098 0.27254902
0.1995098 0.22892157 0.27647059
0.23639706 0.22892157 0.28186275
0.27647059 0.23137255 0.28578431
0.31764706 0.22892157 0.28970588
0.35900735 0.2245098 0.28578431
0.40392157 0.21311275 0.28186275
0.44901961 0.20098039 0.27254902
0.49411765 0.18823529 0.2622549
0.53676471 0.17647059 0.25588235
0.58039216 0.17291667 0.25232843
0.62303922 0.16893382 0.2504902
0.66421569 0.17230392 0.24901961
0.70294118 0.17959559 0.24871324
0.74264706 0.17708333 0.2432598
0.77689951 0.17714461 0.24264706
0.81960784 0.15294118 0.23480392
0.85496324 0.15147059 0.2338848
0.88039216 0.15294118 0.23088235
0.90098039 0.15667892 0.23088235
0.92156863 0.16078431 0.22696078
0.94215686 0.16470588 0.22647059
0.9627451 0.16470588 0.22009804
0.98186275 0.16470588 0.21519608
0.99607843 0.1622549 0.21372549
0.17107843 0.22990196 0.26917892
0.19650735 0.23255974 0.27289369
0.23529412 0.23728554 0.27830882
0.27321538 0.24155178 0.28155637
0.31372549 0.24635417 0.28287377
0.35363051 0.24607843 0.28021599
0.39823836 0.23578431 0.27503064
0.44319853 0.22248775 0.26652114
0.4877451 0.20974265 0.25833333
0.53249847 0.19916513 0.25219056
0.57493873 0.19373468 0.24957108
0.61819853 0.19166667 0.25029871
0.659375 0.19212623 0.25067402
0.70116422 0.19100031 0.25274969
0.73817402 0.18797488 0.24748775
0.7745098 0.18740043 0.24322151
0.81323529 0.17843137 0.23327206
0.84803922 0.17598039 0.23088235
0.87401961 0.17575061 0.22696078
0.89705882 0.17352941 0.22696078
0.91810662 0.17352941 0.22696078
0.93989737 0.17322304 0.22273284
0.9627451 0.17107843 0.21727941
0.98333333 0.16715686 0.21349571
0.99607843 0.16470588 0.21127451
0.18860294 0.25490196 0.28823529
0.20919118 0.25582108 0.28439032
0.24004289 0.26256127 0.28002451
0.27020527 0.26930147 0.27745098
0.30508578 0.27432598 0.27573529
0.34612439 0.27242647 0.27273284
0.39071691 0.26302083 0.26773897
0.43474265 0.25281863 0.26081495
0.47892157 0.24215686 0.25441176
0.5227788 0.23261336 0.24767157
0.56764706 0.22720588 0.24656863
0.60914522 0.22267157 0.24558824
0.65410539 0.21911765 0.24332108
0.69607843 0.21556373 0.24379596
0.73379289 0.21470588 0.23995098
0.7689185 0.21360294 0.23529412
0.80392157 0.21139706 0.23235294
0.83904718 0.21078431 0.23088235
0.86844363 0.20784314 0.22696078
0.89306066 0.20686275 0.22441789
0.91372549 0.203125 0.22432598
0.93333333 0.19901961 0.22446385
0.95294118 0.19534314 0.22573529
0.97130821 0.19137561 0.22755821
0.98492647 0.18823529 0.22977941
0.16488971 0.28872549 0.26636029
0.19154412 0.28884038 0.26616881
0.22830882 0.29315257 0.26801471
