site/assets/luts/natron-haldclut--fuji3513-cuspclip--54d2c633c.cube
# LUTr-Project: LUTr — LUTrepository
# LUTr-Schema-Version: 1
# LUTr-ID: natron-haldclut--fuji3513-cuspclip--54d2c633c
# LUTr-Title: fuji3513 cuspclip
# LUTr-Collection: Natron HaldCLUT
# LUTr-Collection-ID: natron-haldclut-presets
# LUTr-Source: https://github.com/NatronGitHub/clut
# LUTr-Source-File: submissions/natron-haldclut-presets/print/fuji3513_cuspclip.png
# LUTr-Source-Format: PNG
# LUTr-Source-SHA256: f81e93ca86fe8f29bb608716da852d3320b23b887bb9e1475ae0508893749ac4
# LUTr-License: CC-BY-SA-4.0
# LUTr-License-URL: https://github.com/NatronGitHub/clut#license
# LUTr-Tags: creative, film, film-emulation, hald-clut, natron, png, cube
# LUTr-Transform-Class: film-emulation
# LUTr-Input-Color-Space: srgb
# LUTr-Output-Color-Space: srgb
# LUTr-Color-Space-Confidence: assumed-display-referred
# LUTr-Conversion-Method: PNG LUT image decoded at 16-bit and sampled to 25x25x25 3D CUBE
# LUTr-Conversion-Date: 2026-07-27
# LUTr-Conversion-Tool: LUTr scripts/convert-all-to-cube.mjs
# LUTr-Conversion-Grid: 25x25x25
# LUTr-Note: Preserve this metadata and the upstream license notices when redistributing.
TITLE "fuji3513 cuspclip"
LUT_3D_SIZE 9
DOMAIN_MIN 0 0 0
DOMAIN_MAX 1 1 1
0 0 0.011764706
0.023039216 0.015686275 0.015686275
0.057843137 0.02745098 0.019607843
0.16372549 0.035294118 0
0.32745098 0.025490196 0
0.44264706 0.013235294 0
0.54607843 0.018627451 0
0.58088235 0.0044117647 0
0.57647059 0 0
0.011764706 0.042647059 0.02745098
0.030821078 0.042156863 0.026531863
0.081862745 0.056985294 0.027083333
0.21176471 0.072242647 0.0078431373
0.35784314 0.069362745 0
0.50098039 0.08057598 0
0.57745098 0.076960784 0
0.61519608 0.073039216 0
0.63088235 0.12009804 0
0 0.10196078 0.049019608
0.0083333333 0.096078431 0.043137255
0.076470588 0.10980392 0.035294118
0.23272059 0.13284314 0.013235294
0.41764706 0.16323529 0
0.57647059 0.18713235 0
0.64215686 0.18039216 0
0.67781863 0.19656863 0
0.69607843 0.2127451 0
0 0.20735294 0.084803922
0.0037377451 0.20980392 0.069607843
0.036519608 0.20698529 0.020220588
0.27022059 0.25091912 0.0039215686
0.47156863 0.29264706 0
0.64215686 0.31905637 0.0039215686
0.71813725 0.32561275 0.014215686
0.74264706 0.33431373 0.0039215686
0.76176471 0.35343137 0.015686275
0 0.35686275 0.15294118
0 0.35514706 0.13210784
0 0.34068627 0.010784314
0.30245098 0.40490196 0
0.55098039 0.46666667 0
0.69754902 0.48137255 0.0053921569
0.79117647 0.50735294 0.019607843
0.81397059 0.50392157 0.0075980392
0.83333333 0.52156863 0.01372549
0 0.47892157 0.20931373
0.021262255 0.48890931 0.20410539
0.024877451 0.49178922 0.093627451
0.31170343 0.55349265 0
0.59705882 0.63210784 0.00073529412
0.76960784 0.66072304 0.0093137255
0.85588235 0.67009804 0.027818627
0.89215686 0.68088235 0.040196078
0.89313725 0.68284314 0.0044117647
0.051960784 0.53921569 0.23921569
0.021078431 0.5504902 0.225
0.0024509804 0.56642157 0.12647059
0.30036765 0.63468137 0.0045343137
0.62696078 0.71911765 0.0098039216
0.80294118 0.75637255 0.033210784
0.89387255 0.76838235 0.067647059
0.92794118 0.77193627 0.075490196
0.93823529 0.77745098 0.078431373
0.049509804 0.56176471 0.24754902
0.022610294 0.5838848 0.22708333
0 0.59007353 0.020220588
0.35245098 0.675 0.00030637255
0.65735294 0.76102941 0.0058823529
0.82990196 0.79803922 0.052634804
0.92781863 0.8122549 0.082352941
0.95643382 0.81525735 0.085845588
0.95784314 0.8122549 0.083333333
0 0.60784314 0.28627451
0.0078431373 0.61127451 0.19313725
0.096078431 0.65392157 0.017647059
0.42696078 0.71617647 0.0039215686
0.68039216 0.78627451 0.0098039216
0.85686275 0.81715686 0.028921569
0.93823529 0.82745098 0.082352941
0.97696078 0.83137255 0.094117647
0.98039216 0.83529412 0.12941176
0.0039215686 0.011764706 0.02745098
0.026470588 0.019546569 0.034742647
0.073406863 0.02745098 0.034803922
0.18057598 0.025 0.019117647
0.34264706 0.0078431373 0
0.48627451 0.0081495098 0
0.56519608 0.010784314 0
0.59558824 0.0039215686 0
0.61813725 0.0073529412 0
0.0039215686 0.050490196 0.046568627
0.019661458 0.04307598 0.042164522
0.079090074 0.054411765 0.039920343
0.22303922 0.072081801 0.017792586
0.3848652 0.053676471 0
0.52532935 0.047081801 0
0.61219363 0.058180147 0
0.64908088 0.065257353 0
0.66470588 0.096629902 0
0 0.10294118 0.065196078
0.00087316176 0.092478554 0.051179534
0.08627451 0.11164216 0.054411765
0.2618413 0.142019 0.020603554
0.44068627 0.15367647 0.0039215686
0.5942402 0.16178002 0
0.67723652 0.1689951 0
0.7115962 0.18535539 0
0.72647059 0.19509804 0
0 0.22745098 0.10980392
0.0034313725 0.21149663 0.084803922
0.035768995 0.21348039 0.053691789
0.28731618 0.26077665 0.0038066789
0.50765931 0.29607843 0.0066789216
0.66127451 0.3127451 0.010776654
0.74643076 0.32156863 0.012071078
0.784375 0.34299173 0.01004902
0.79607843 0.35606618 0.015686275
0.015686275 0.37818627 0.18553922
0.0080269608 0.37401961 0.16816789
0.006004902 0.36721814 0.065747549
0.30245098 0.42337623 0.0039215686
0.5622549 0.47205882 0.0046568627
0.7395527 0.50456495 0.0066176471
0.81917892 0.51280637 0.022242647
0.86090686 0.53106618 0.0089154412
0.86421569 0.53553922 0.040196078
0.019117647 0.50569853 0.24724265
0.012415748 0.51323529 0.2372932
0.009911152 0.51942402 0.12789522
0.33301164 0.58627451 0
0.61176471 0.65137868 0.007689951
0.80422794 0.68628217 0.018328738
0.88792892 0.69073223 0.031112132
0.92228094 0.69981618 0.030882353
0.93008578 0.70704657 0.034987745
0.015563725 0.56519608 0.28186275
0.025842525 0.58039216 0.27015931
0.017463235 0.5958027 0.16461397
0.30919118 0.66029412 0.0038756127
0.6370098 0.7403799 0.0048406863
0.84327512 0.78296569 0.049371936
0.92974877 0.78970588 0.078063725
0.95778186 0.78970588 0.067172181
0.9689951 0.79656863 0.08627451
0.011703431 0.59258578 0.32107843
0.0044653799 0.61524969 0.30153186
0.013817402 0.63849571 0.16508885
0.32580423 0.70018382 0.0077129289
0.65340074 0.77279412 0.012745098
0.85863971 0.81746324 0.037400429
0.95010723 0.82745098 0.089598652
0.98039216 0.83137255 0.086450674
0.9877451 0.83137255 0.12199755
0.035784314 0.64264706 0.39509804
0.056433824 0.67604167 0.36917892
0.037377451 0.6807598 0.2254902
0.40373775 0.75294118 0.17806373
0.67083333 0.80686275 0.13651961
0.8713848 0.8403799 0.0039215686
0.99080882 0.86446078 0.00085784314
0.99908088 0.86482843 0.16017157
0.9995098 0.8622549 0.26029412
0.0039215686 0.019607843 0.092156863
0.023039216 0.020955882 0.079901961
0.07254902 0.02745098 0.084313725
0.20588235 0.026348039 0.084803922
0.3622549 0.0039215686 0.070098039
0.50355392 0 0.069607843
0.62622549 0 0.069607843
0.64117647 0 0.076960784
0.65098039 0 0.069607843
0 0.050490196 0.088235294
0.015318627 0.053814338 0.10196078
0.085539216 0.062040441 0.10658701
0.23382353 0.073651961 0.098759191
0.41397059 0.03995098 0.078921569
0.56078431 0.007567402 0.069607843
0.65033701 0.0039522059 0.06004902
0.68443627 0.0039215686 0.062484681
0.69705882 0 0.063235294
0 0.12156863 0.13161765
0 0.1245098 0.13465074
0.074754902 0.1254902 0.12156863
0.27647059 0.14791667 0.11884191
0.46764706 0.15208333 0.099142157
0.62873775 0.11210172 0.067677696
0.71740196 0.087561275 0.056862745
0.75364583 0.097181373 0.045435049
0.76960784 0.11372549 0.057843137
0 0.25134804 0.19215686
0.00096507353 0.25831801 0.19059436
0.0032781863 0.23458946 0.14770221
0.29140625 0.27947304 0.14313725
0.5317402 0.30214461 0.103125
0.70770527 0.30899203 0.055147059
0.80379902 0.29754902 0.0098958333
0.83739277 0.31087623 0.025459559
0.85392157 0.32585784 0.024509804
0.0044117647 0.42745098 0.28382353
0.015441176 0.42935049 0.28382353
0.018995098 0.41960784 0.21164216
0.29601716 0.45661765 0.12261029
0.58651961 0.49534314 0.069852941
0.78088235 0.50974265 0.015012255
0.88333333 0.51360294 0.00049019608
0.91593137 0.52665441 0.026286765
0.93137255 0.54117647 0
0.02745098 0.54816176 0.34656863
0.011749387 0.5573989 0.34166667
0.0052389706 0.57545956 0.28970588
0.27074142 0.61456801 0.11017157
0.62867647 0.67892157 0.0025735294
0.84137561 0.7064951 0.0063112745
0.9486826 0.72349877 0.0025122549
0.97598039 0.72420343 0.014705882
0.9877451 0.73860294 0.0068627451
0.037009804 0.60710784 0.38553922
0.018535539 0.61528799 0.37858456
0.041666667 0.64552696 0.33596814
0.2549326 0.69666054 0.15226716
0.6377451 0.76911765 0.0088235294
0.87487745 0.80931373 0.0058517157
0.98223039 0.82616422 0.0093137255
0.99601716 0.82781863 0.026991422
0.99901961 0.83431373 0.031127451
0.012377451 0.6377451 0.44362745
0.012254902 0.65430453 0.42928922
0.031556373 0.68125 0.38817402
0.27621017 0.73423713 0.23492647
0.63872549 0.80343137 0.19227941
0.87411152 0.84799326 0.13270527
0.99834559 0.86519608 0.07153799
1 0.86269914 0.20042892
1 0.86617647 0.23394608
0.0039215686 0.68431373 0.52941176
0.059681373 0.71482843 0.51151961
0.020588235 0.7254902 0.43676471
0.31654412 0.77022059 0.36409314
0.65637255 0.83235294 0.35196078
0.86936275 0.87463235 0.34154412
0.98848039 0.89460784 0.33357843
1 0.88921569 0.35208333
1 0.88921569 0.40392157
0 0.023039216 0.17941176
0.015196078 0.028492647 0.19436275
0.070465686 0.0028186275 0.19264706
0.21415441 0.0078431373 0.21078431
0.38088235 0 0.21544118
0.52898284 0 0.22064951
0.61813725 0 0.22647059
0.65116422 0 0.22303922
0.65882353 0 0.23578431
0 0.087254902 0.22205882
0.0075367647 0.085477941 0.22996324
0.076868873 0.058992034 0.2213848
0.24492187 0.057161458 0.23736979
0.43097426 0.028094363 0.2390625
0.57738205 0 0.24325214
0.67074142 0.0021446078 0.24612439
0.7 0 0.24558824
0.71519608 0 0.25373775
0 0.18272059 0.28002451
0.0021446078 0.16465993 0.27941176
0.035140931 0.14528186 0.26749387
0.27703738 0.16991422 0.27899816
0.48602941 0.16078431 0.28792892
0.6495098 0.12775735 0.28638174
0.73517157 0.10294118 0.26780025
0.77449449 0.11041667 0.27892157
0.78811275 0.12585784 0.27598039
0.014215686 0.33578431 0.37052696
0.011649816 0.3287454 0.36616881
0.0089154412 0.29946385 0.34227941
0.28517157 0.31014859 0.3312883
0.53823529 0.33284314 0.32941176
0.72058824 0.32732843 0.32306219
0.81456801 0.32241115 0.30542279
0.85379136 0.34031097 0.30951287
0.86617647 0.35539216 0.31770833
0 0.49068627 0.45465686
0.019607843 0.49313725 0.44911152
0.019117647 0.49607843 0.43192402
0.26348039 0.50251225 0.37310049
0.58602941 0.53933824 0.3495098
0.7877451 0.55511642 0.34016544
0.89785539 0.55539216 0.31807598
0.92990196 0.56657475 0.33783701
0.94313725 0.58480392 0.34607843
0.014154412 0.60876225 0.50484069
0.020772059 0.61616881 0.50784314
0.01060049 0.63578431 0.49097733
0.16731771 0.6687117 0.39019608
0.61473652 0.72843137 0.3705576
0.84411765 0.75098039 0.36121324
0.95392157 0.75974265 0.34676777
0.99492188 0.77175245 0.32395833
1 0.78817402 0.37107843
0.00098039216 0.65686275 0.53823529
0.014537377 0.67210478 0.5463848
0.022426471 0.69984681 0.52775735
0.12642463 0.75272672 0.44549632
0.60931373 0.81495098 0.41740196
0.86257659 0.85108762 0.39496017
0.98079044 0.86951593 0.38970588
1 0.87264093 0.40159314
1 0.87071078 0.40208333
0 0.68431373 0.59773284
0.013480392 0.70500919 0.58584559
0.015456495 0.7377451 0.57192096
0.098491115 0.78303462 0.51294424
0.59960172 0.84754902 0.49568015
0.86060815 0.89001991 0.48123468
0.98987439 0.90882353 0.4754902
1 0.90490196 0.4786152
1 0.90343137 0.49197304
0 0.73823529 0.66862745
0.0021446078 0.75404412 0.66011029
0.0039215686 0.7754902 0.63541667
0.24681373 0.8161152 0.59742647
0.62034314 0.87107843 0.59852941
0.85833333 0.90588235 0.56415441
0.97598039 0.92732843 0.57732843
1 0.93186275 0.5963848
1 0.92647059 0.6
0.0019607843 0.12352941 0.32156863
0.013235294 0.11151961 0.33602941
0.090686275 0.0078431373 0.33284314
0.22916667 0.0039215686 0.34705882
0.40098039 0 0.3627451
0.54901961 0.0019607843 0.37916667
0.62941176 0 0.37696078
0.67132353 0 0.39289216
0.68627451 0 0.40392157
0 0.20294118 0.39705882
0.0032781863 0.17322304 0.38556985
0.073223039 0.043995098 0.37254902
0.25989583 0.028523284 0.39387255
0.44264706 0.0072303922 0.40992647
0.59705882 0.004564951 0.41685049
0.68137255 0.0020220588 0.42150735
0.72303922 0 0.43308824
0.73848039 0 0.44240196
0.0034313725 0.28235294 0.45980392
0 0.26433824 0.45343137
0.020220588 0.18737745 0.43566176
0.26507353 0.1754902 0.45790441
0.49730392 0.17671569 0.47107843
0.65735294 0.13713235 0.46881127
0.74840686 0.11078431 0.46887255
0.78278186 0.11789216 0.48069853
0.79558824 0.14607843 0.48676471
0.020833333 0.40318627 0.53553922
0.0095588235 0.39460784 0.53284314
0.010906863 0.36072304 0.52352941
0.27530637 0.33713235 0.51991422
0.53541667 0.36286765 0.53039216
0.72542892 0.35686275 0.5328125
0.82058824 0.35226716 0.53327206
0.85744485 0.36715686 0.53740809
0.87156863 0.38039216 0.54877451
0.012745098 0.53921569 0.60196078
0.033333333 0.54509804 0.60870098
0.0068627451 0.55490196 0.61372549
0.19509804 0.53872549 0.57585784
0.56960784 0.57843137 0.58088235
0.78897059 0.58982843 0.58235294
0.89215686 0.58259804 0.57818627
0.92598039 0.59558824 0.58443627
0.94509804 0.6245098 0.59607843
0.0078431373 0.65857843 0.65514706
0.0081495098 0.66102941 0.66102941
0 0.68627451 0.66617647
0.10373775 0.71865809 0.62426471
0.57757353 0.76348039 0.62303922
0.83504902 0.79509804 0.62303922
0.94675245 0.80386029 0.62040441
0.98495711 0.8104473 0.62107843
0.98970588 0.81715686 0.63480392
0.0019607843 0.70833333 0.69509804
0.0039215686 0.71709559 0.69123775
0.0039215686 0.74901961 0.69595588
0.072794118 0.79356618 0.66574755
0.57401961 0.85318627 0.66470588
0.84656863 0.89558824 0.66648284
0.96801471 0.90588235 0.65992647
0.99613971 0.90606618 0.66292892
1 0.9127451 0.66862745
0.0039215686 0.72573529 0.72401961
0.0017156863 0.74705882 0.73235294
0.0081495098 0.78186275 0.73161765
0.13241422 0.82999387 0.73079044
0.5814951 0.88651961 0.72340686
0.83897059 0.9254902 0.72166054
0.96789216 0.94362745 0.71862745
0.99607843 0.94705882 0.71862745
1 0.94705882 0.72279412
0 0.76666667 0.77843137
0 0.78382353 0.78039216
0.0039215686 0.80882353 0.77352941
0.12034314 0.84338235 0.75980392
0.59607843 0.90392157 0.77843137
0.8375 0.93995098 0.77696078
0.96078431 0.95588235 0.77107843
0.99607843 0.95882353 0.77205882
1 0.96078431 0.78431373
0.010294118 0.22107843 0.44754902
0.01372549 0.21078431 0.45147059
0.080269608 0.025612745 0.44828431
0.24417892 0.00055147059 0.47218137
0.42303922 0 0.50147059
0.56329657 0 0.50392157
0.64509804 0 0.51237745
0.6786152 0 0.51832108
0.6995098 0 0.53529412
0.0039215686 0.26470588 0.50520833
0.0039215686 0.24073989 0.50536918
0.057521446 0.053523284 0.50637255
0.26279871 0.00055147059 0.53332567
0.45410539 0.010539216 0.54990809
0.61354933 0.009129902 0.55753676
0.69620098 0 0.56576287
0.72910539 0.0039215686 0.57996324
0.74834559 0 0.59344363
0 0.3372549 0.57107843
0 0.32794118 0.57268689
0.0023897059 0.26639093 0.57107843
0.25729167 0.16879596 0.59944853
0.49681373 0.14895833 0.6221201
0.6698989 0.13434436 0.62383578
0.76188725 0.12156863 0.63458946
0.7903799 0.11127451 0.64031863
0.80306373 0.13786765 0.65147059
0.009375 0.43872549 0.63584559
0.0034390319 0.42879136 0.63529412
0.010523897 0.40208333 0.65105699
0.218053 0.35775888 0.67506127
0.53091299 0.37156863 0.70220588
0.7245098 0.37828585 0.70245098
0.82826287 0.37254902 0.70490196
0.86109835 0.37107843 0.71011795
0.8754902 0.41176471 0.72843137
0.015196078 0.5627451 0.69705882
0.014889706 0.56920956 0.70735294
0.044914216 0.57426471 0.72169118
0.10012255 0.56672794 0.74806985
0.54901961 0.59877451 0.75955882
0.78897059 0.61838235 0.7620098
0.88394608 0.61403186 0.76292892
0.92598039 0.63030025 0.77441789
0.94117647 0.65098039 0.78627451
0.016544118 0.67555147 0.75189951
0.024640012 0.68745404 0.76085325
0.017279412 0.71508885 0.77843137
0.068566176 0.75306373 0.79579504
0.54721201 0.79237132 0.80609681
0.82246477 0.82866115 0.80824908
0.94215686 0.83074449 0.8127451
0.97831648 0.84271599 0.8127451
0.98578431 0.84895833 0.81911765
0.018137255 0.72254902 0.77647059
0.012729779 0.7377451 0.79166667
0.017248775 0.77254902 0.81032475
0.049831495 0.82751225 0.83039216
0.53939951 0.88137255 0.8348652
0.83028493 0.91901042 0.84607843
0.95971201 0.93746936 0.84659926
0.99264706 0.94742647 0.85053615
1 0.94644608 0.85110294
0.024203431 0.73627451 0.79803922
0.0093137255 0.76078431 0.81341912
0.000076593137 0.79558824 0.82990196
0.085163909 0.84981618 0.85360754
0.53584559 0.90891544 0.86838235
0.83057598 0.94834559 0.87678462
0.9504902 0.96920956 0.87941176
0.99479167 0.97647059 0.88088235
1 0.9745098 0.87089461
0 0.75294118 0.81470588
0.0034313725 0.79215686 0.84215686
0 0.81654412 0.85539216
0.064460784 0.86856618 0.88621324
0.55759804 0.92303922 0.8997549
0.82395833 0.95833333 0.89613971
0.95343137 0.97647059 0.89166667
0.99264706 0.98431373 0.90784314
1 0.98823529 0.91519608
0 0.25196078 0.50784314
0.010784314 0.24460784 0.51875
0.084313725 0.023284314 0.51348039
0.24816176 0 0.56053922
0.43088235 0 0.5872549
0.57340686 0 0.58811275
0.66372549 0 0.60416667
0.69987745 0 0.61421569
0.70686275 0 0.61078431
0 0.29803922 0.56568627
0 0.28627451 0.56992953
0.059620098 0.034773284 0.5848652
0.26511949 0.006372549 0.6234375
0.46403186 0.0095588235 0.64362745
0.62058824 0 0.65620404
0.70983456 0 0.66372549
0.74203431 0 0.67169118
0.75294118 0 0.67892157
0 0.35808824 0.61862745
0 0.35042892 0.62647059
0.003247549 0.31482843 0.63976716
0.24751838 0.16783088 0.69402574
0.49901961 0.1564951 0.72095588
0.67349877 0.12196691 0.73314951
0.76151961 0.10582108 0.73406863
0.79852941 0.11841299 0.74414828
0.81764706 0.1370098 0.76053922
0.0018382353 0.44068627 0.675
0.0028186275 0.44630821 0.68645833
0 0.42745098 0.71862745
0.20729167 0.37221201 0.76599265
0.52996324 0.38878676 0.79491422
0.73288909 0.38452819 0.8084712
0.82941176 0.36078431 0.80637255
0.86029412 0.38872549 0.81122855
0.87941176 0.41568627 0.83002451
0.0024509804 0.58039216 0.75
0.026470588 0.58020833 0.75386029
0.015808824 0.59411765 0.78259804
0.084007353 0.58229167 0.83805147
0.54019608 0.61127451 0.86004902
0.78112745 0.62843137 0.87555147
0.88468137 0.62573529 0.87254902
0.92205882 0.63578431 0.87518382
0.9372549 0.65735294 0.88823529
0.0088235294 0.68468137 0.79460784
0.016084559 0.69442402 0.80625
0.015716912 0.72107843 0.83284314
0.053370098 0.76764706 0.87679228
0.52150735 0.80612745 0.90220588
0.80951287 0.84044118 0.91286765
0.92864583 0.85036765 0.91798407
0.97219669 0.86262255 0.92683824
0.98186275 0.86323529 0.925
0.019607843 0.72254902 0.81372549
0.022028186 0.74166667 0.82867647
0.037867647 0.77647059 0.85508578
0.029748775 0.83587623 0.89690564
0.51053922 0.89803922 0.92598039
0.81412377 0.93676471 0.93921569
0.95318627 0.95490196 0.94001225
0.98759191 0.95174632 0.94019608
0.99705882 0.95906863 0.94019608
0.039705882 0.74509804 0.8314951
0.027941176 0.76470588 0.84684436
0.017738971 0.79941789 0.87098652
0.031004902 0.85873162 0.91194853
0.52438725 0.92352941 0.94246324
0.8127451 0.9627451 0.95177696
0.94411765 0.98082108 0.95784314
0.99215686 0.98823529 0.9587163
0.99607843 0.98480392 0.95098039
0.0019607843 0.76078431 0.85098039
0.042279412 0.78909314 0.86715686
0.015686275 0.81470588 0.88308824
0.061642157 0.87879902 0.93125
0.53970588 0.92794118 0.94803922
0.80882353 0.96678922 0.95882353
0.94313725 0.98602941 0.96568627
0.99607843 0.99313725 0.96654412
0.99607843 0.98921569 0.95882353
0 0.26715686 0.5377451
0 0.25974265 0.54209559
0.075980392 0.028553922 0.56139706
0.25392157 0.0021446078 0.6067402
0.44460784 0.0017156863 0.64264706
0.59436275 0.0015931373 0.65085784
0.67647059 0 0.65159314
0.71072304 0.00049019608 0.66023284
0.71421569 0.0039215686 0.65980392
0 0.32058824 0.5995098
0 0.30931373 0.60032169
0.0036151961 0.25925245 0.62205882
0.26294424 0.0018995098 0.67489277
0.47426471 0.0095894608 0.70147059
0.63300398 0.0071920956 0.71280637
0.72216605 0.00091911765 0.7176011
0.75605086 0.0044730392 0.72194393
0.77205882 0.035232843 0.73676471
0 0.37107843 0.64656863
0 0.36714154 0.65304841
0.0091911765 0.33639706 0.67196691
0.22981005 0.18423713 0.73399203
0.50055147 0.17965686 0.76519608
0.67598039 0.13658088 0.77942708
0.76997549 0.11789216 0.78676471
0.8064951 0.12238051 0.79385723
0.82169118 0.17303922 0.80637255
0 0.46648284 0.70949755
0.0039215686 0.46357996 0.71312806
0.0039215686 0.44313725 0.7435049
0.19408701 0.3838848 0.80196844
0.52386642 0.38783701 0.83602941
0.72303156 0.39136029 0.84852941
0.8239277 0.37959559 0.85490196
0.86421569 0.39139859 0.86033241
0.87941176 0.42401961 0.86813725
0.01127451 0.58259804 0.7629902
0.034099265 0.58823529 0.7745098
0.011213235 0.59454657 0.79834559
0.0796875 0.58740809 0.86617647
0.52377451 0.62267157 0.89742647
0.76626838 0.63734681 0.9140625
0.88823529 0.63933824 0.91813725
0.92205882 0.6471201 0.92009804
0.9372549 0.66887255 0.92769608
0.023039216 0.67941176 0.80716912
0.038579963 0.694447 0.8209329
0.019990809 0.72463235 0.85093444
0.034941789 0.76776195 0.90060509
0.51519608 0.81969975 0.94117647
0.79509804 0.85129442 0.95570619
0.92241115 0.85651042 0.95490196
0.96301317 0.84689798 0.95651808
0.97775735 0.86439951 0.96488971
0.011642157 0.72696078 0.82879902
0.016942402 0.74171262 0.84287684
0.0054227941 0.7801777 0.87288603
0.0069240196 0.84080882 0.92094056
0.50484069 0.903125 0.95949755
0.80110294 0.94362745 0.97280944
0.93587623 0.95094975 0.97781863
0.98088235 0.95782782 0.98431373
0.99301471 0.96139706 0.98088235
0.035294118 0.74558824 0.83970588
0.011703431 0.7647595 0.85570619
0.004028799 0.79938725 0.88218444
0.022686887 0.86236979 0.93061428
0.4935049 0.92573529 0.96516544
0.80541513 0.96966912 0.98039216
0.94624694 0.98555453 0.98823529
0.98082108 0.98087469 0.98431373
0.99564951 0.9838848 0.984375
0.027941176 0.76029412 0.85098039
0.038296569 0.79552696 0.88137255
0.019607843 0.82647059 0.90147059
0.052879902 0.87941176 0.94754902
0.52132353 0.93137255 0.97058824
0.78823529 0.97009804 0.98449755
0.93639706 0.99215686 0.98958333
0.9838848 0.99607843 0.98872549
0.99607843 0.99607843 0.98480392
0 0.28235294 0.55686275
0 0.28627451 0.58382353
0.070588235 0.048039216 0.60980392
0.26421569 0.015686275 0.65735294
0.45490196 0.0039215686 0.67843137
0.61764706 0 0.69558824
0.71372549 0 0.71568627
0.72156863 0.0039215686 0.68235294
0.74509804 0 0.70980392
0 0.34803922 0.6377451
0.0038602941 0.33676471 0.64172794
0.0083333333 0.30122549 0.65245098
0.2723652 0.098161765 0.71256127
0.4877451 0.081617647 0.74191176
0.65637255 0.012254902 0.75882353
0.74301471 0.017156863 0.76458333
0.78633578 0.0014705882 0.78094363
0.80294118 0.03872549 0.79460784
0 0.39019608 0.67254902
0 0.38676471 0.68002451
0.0029411765 0.34754902 0.70196078
0.22622549 0.23235294 0.7622549
0.50735294 0.22745098 0.79362745
0.6877451 0.22328431 0.81078431
0.78235294 0.18431373 0.81421569
0.82291667 0.21360294 0.82561275
0.83627451 0.24607843 0.83529412
0 0.48186275 0.72009804
0 0.47303922 0.72254902
0.0078431373 0.45392157 0.76262255
0.20563725 0.40729167 0.83333333
0.51960784 0.41985294 0.85392157
0.72990196 0.42555147 0.87003676
0.83370098 0.41776961 0.8754902
0.87205882 0.43676471 0.88511029
0.88872549 0.45539216 0.89264706
0.054901961 0.59411765 0.77058824
0.011519608 0.59215686 0.78014706
0.030392157 0.60588235 0.82009804
0.056617647 0.60294118 0.87622549
0.52843137 0.63333333 0.91176471
0.77156863 0.64705882 0.92941176
0.88480392 0.64705882 0.93333333
0.92401961 0.65686275 0.93553922
0.93529412 0.66862745 0.93921569
0.0093137255 0.68137255 0.80686275
0.015686275 0.70018382 0.82469363
0.0089460784 0.72401961 0.85441176
0.022916667 0.77340686 0.90686275
0.49583333 0.81446078 0.95245098
0.79705882 0.85349265 0.96862745
0.9307598 0.86323529 0.97647059
0.96881127 0.86470588 0.97794118
0.97794118 0.8622549 0.97794118
0.021568627 0.72941176 0.83137255
0.0018382353 0.74558824 0.84669118
0.031862745 0.78039216 0.87745098
0.0044117647 0.83909314 0.92647059
0.48088235 0.90539216 0.96519608
0.78615196 0.93676471 0.98039216
0.93627451 0.95490196 0.98995098
0.97303922 0.95098039 0.99215686
0.99215686 0.95 0.99215686
0.027941176 0.74558824 0.84313725
0.0079044118 0.76519608 0.8622549
0.028676471 0.80330882 0.88664216
0.058455882 0.85998775 0.93449755
0.48039216 0.92401961 0.97083333
0.78039216 0.96617647 0.98578431
0.92745098 0.98088235 0.99215686
0.97647059 0.98088235 0.99607843
0.99215686 0.97647059 0.99607843
0 0.76470588 0.85882353
0.011764706 0.79558824 0.88186275
0.028431373 0.81960784 0.89803922
0.044117647 0.87696078 0.94901961
0.52352941 0.93333333 0.97254902
0.79558824 0.97401961 0.98823529
0.93333333 0.99215686 0.99607843
0.97696078 0.99607843 0.99607843
1 1 1
