site/assets/luts/natron-haldclut--fuji3513-constlmap--d4d2ff55a.cube
# LUTr-Project: LUTr — LUTrepository
# LUTr-Schema-Version: 1
# LUTr-ID: natron-haldclut--fuji3513-constlmap--d4d2ff55a
# LUTr-Title: fuji3513 constlmap
# LUTr-Collection: Natron HaldCLUT
# LUTr-Collection-ID: natron-haldclut-presets
# LUTr-Source: https://github.com/NatronGitHub/clut
# LUTr-Source-File: submissions/natron-haldclut-presets/print/fuji3513_constlmap.png
# LUTr-Source-Format: PNG
# LUTr-Source-SHA256: e28dd8e64358fabc8a9df82541361ac5118091bcb50cb93442594f56e348931e
# LUTr-License: CC-BY-SA-4.0
# LUTr-License-URL: https://github.com/NatronGitHub/clut#license
# LUTr-Tags: creative, film, film-emulation, hald-clut, natron, png, cube
# LUTr-Transform-Class: film-emulation
# LUTr-Input-Color-Space: srgb
# LUTr-Output-Color-Space: srgb
# LUTr-Color-Space-Confidence: assumed-display-referred
# LUTr-Conversion-Method: PNG LUT image decoded at 16-bit and sampled to 25x25x25 3D CUBE
# LUTr-Conversion-Date: 2026-07-27
# LUTr-Conversion-Tool: LUTr scripts/convert-all-to-cube.mjs
# LUTr-Conversion-Grid: 25x25x25
# LUTr-Note: Preserve this metadata and the upstream license notices when redistributing.
TITLE "fuji3513 constlmap"
LUT_3D_SIZE 25
DOMAIN_MIN 0 0 0
DOMAIN_MAX 1 1 1
0.0039215686 0.0078431373 0.015686275
0.010294118 0.014215686 0.019607843
0.020588235 0.020588235 0.023529412
0.030882353 0.026960784 0.023529412
0.043137255 0.02745098 0.023529412
0.055392157 0.027941176 0.023039216
0.069607843 0.031372549 0.019607843
0.086764706 0.031372549 0.015686275
0.12941176 0.039215686 0.011764706
0.16666667 0.043137255 0.0078431373
0.19901961 0.047058824 0.0029411765
0.24460784 0.054411765 0.0034313725
0.29019608 0.062745098 0.0058823529
0.33529412 0.070588235 0.0078431373
0.36960784 0.074509804 0.011764706
0.39509804 0.078431373 0.011764706
0.41568627 0.078431373 0.015686275
0.44019608 0.080882353 0.015686275
0.46078431 0.08627451 0.014705882
0.48529412 0.093627451 0.011764706
0.50392157 0.098039216 0.0098039216
0.50588235 0.094117647 0.012254902
0.50588235 0.091176471 0.018627451
0.50735294 0.091666667 0.019607843
0.50980392 0.094117647 0.019607843
0.010294118 0.018137255 0.022058824
0.016666667 0.023590686 0.023529412
0.023039216 0.026960784 0.026348039
0.030882353 0.029901961 0.02745098
0.044362745 0.033823529 0.02745098
0.059313725 0.037745098 0.02567402
0.073161765 0.037745098 0.022426471
0.093688725 0.039215686 0.019607843
0.13578431 0.047058824 0.015686275
0.17303922 0.053431373 0.010845588
0.21666667 0.060784314 0.0057598039
0.26127451 0.065012255 0.0039215686
0.30367647 0.073039216 0.0078431373
0.34773284 0.080882353 0.0083333333
0.37990196 0.084803922 0.011764706
0.40631127 0.08627451 0.011764706
0.43235294 0.08872549 0.011764706
0.45686275 0.094178922 0.011764706
0.47647059 0.095465686 0.011764706
0.49197304 0.097855392 0.0080269608
0.51102941 0.10196078 0.0066176471
0.52040441 0.10177696 0.0080269608
0.5254902 0.10110294 0.013480392
0.52738971 0.10686275 0.017156863
0.53039216 0.10686275 0.017156863
0.015686275 0.028431373 0.024509804
0.020220588 0.034191176 0.02745098
0.028431373 0.037254902 0.029166667
0.03872549 0.040196078 0.031372549
0.049509804 0.044117647 0.031372549
0.064583333 0.048039216 0.028308824
0.080637255 0.048039216 0.025245098
0.1 0.049509804 0.023529412
0.14215686 0.055882353 0.019607843
0.18676471 0.066176471 0.013848039
0.23651961 0.076470588 0.011029412
0.27843137 0.080269608 0.0088235294
0.31960784 0.085784314 0.0088235294
0.35943627 0.091176471 0.011764706
0.39411765 0.095098039 0.011764706
0.42818627 0.099019608 0.0078431373
0.45392157 0.10392157 0.0078431373
0.47745098 0.10968137 0.010784314
0.49705882 0.11078431 0.0078431373
0.50735294 0.11078431 0.0069852941
0.52058824 0.10735294 0.0039215686
0.53088235 0.10735294 0.0030637255
0.53897059 0.11372549 0.0075980392
0.54852941 0.12071078 0.012867647
0.55490196 0.12352941 0.015686275
0.015686275 0.03872549 0.02745098
0.023345588 0.044791667 0.030882353
0.032352941 0.04754902 0.031372549
0.038786765 0.053921569 0.034803922
0.052941176 0.054411765 0.034803922
0.067647059 0.058333333 0.031372549
0.083946078 0.058333333 0.028308824
0.10392157 0.059803922 0.02567402
0.15196078 0.069607843 0.023039216
0.20343137 0.080392157 0.019117647
0.25392157 0.090563725 0.015563725
0.29558824 0.096629902 0.012193627
0.33651961 0.099264706 0.011764706
0.37352941 0.10496324 0.011764706
0.40821078 0.10919118 0.0079656863
0.44442402 0.11452206 0.0078431373
0.47401961 0.12058824 0.0078431373
0.49803922 0.12481618 0.0078431373
0.51507353 0.125 0.0044117647
0.52794118 0.12457108 0.0039215686
0.54166667 0.1245098 0.0019607843
0.55238971 0.12843137 0.00042892157
0.55968137 0.13223039 0.0039215686
0.56911765 0.1377451 0.009620098
0.5754902 0.14068627 0.012254902
0.015686275 0.054901961 0.035294118
0.019607843 0.056862745 0.037254902
0.025980392 0.060784314 0.037745098
0.033088235 0.064705882 0.039215686
0.049019608 0.068627451 0.038235294
0.067401961 0.068627451 0.035294118
0.084803922 0.070098039 0.031862745
0.11127451 0.074019608 0.02745098
0.1627451 0.08627451 0.023529412
0.21421569 0.096568627 0.021078431
0.26519608 0.10833333 0.018627451
0.31151961 0.11715686 0.015686275
0.35490196 0.12254902 0.011764706
0.39362745 0.1254902 0.0095588235
0.42794118 0.12892157 0.0078431373
0.45931373 0.13210784 0.0071078431
0.49019608 0.1372549 0.0039215686
0.51789216 0.14240196 0.0039215686
0.53529412 0.14313725 0.0039215686
0.55588235 0.14509804 0.0039215686
0.56666667 0.15 0.0039215686
0.58063725 0.15710784 0.0039215686
0.58578431 0.15882353 0.0068627451
0.59093137 0.15955882 0.0078431373
0.59607843 0.16078431 0.011764706
0.015686275 0.071568627 0.043627451
0.01942402 0.071568627 0.043627451
0.020465686 0.075 0.044485294
0.026531863 0.075 0.047058824
0.042401961 0.081372549 0.043627451
0.058394608 0.087254902 0.042708333
0.079411765 0.091544118 0.03627451
0.12156863 0.10098039 0.025980392
0.17696078 0.11127451 0.023039216
0.23235294 0.12156863 0.019607843
0.28431373 0.1317402 0.015686275
0.33186275 0.14166667 0.012254902
0.3754902 0.14632353 0.0098039216
0.41813725 0.1504902 0.0078431373
0.44901961 0.15306373 0.0074754902
0.4786152 0.15392157 0.0039215686
0.50686275 0.15441176 0.0039215686
0.53511029 0.15784314 0
0.55588235 0.16311275 0.00012254902
0.57346814 0.16960784 0.0039215686
0.59142157 0.17990196 0.0039215686
0.60539216 0.18578431 0.0039828431
0.6122549 0.18578431 0.0078431373
0.61844363 0.18578431 0.0078431373
0.62058824 0.18578431 0.0078431373
0.015686275 0.088235294 0.05
0.01629902 0.088235294 0.050980392
0.019607843 0.08995098 0.050980392
0.019607843 0.094730392 0.050980392
0.026960784 0.10196078 0.050490196
0.042647059 0.10833333 0.046936275
0.080637255 0.11764706 0.040196078
0.13186275 0.13186275 0.025980392
0.1872549 0.14215686 0.019607843
0.24509804 0.15245098 0.015686275
0.30122549 0.15808824 0.01495098
0.34987745 0.16531863 0.011764706
0.39411765 0.17009804 0.0078431373
0.43872549 0.1745098 0.0047794118
0.46960784 0.17671569 0.0039215686
0.50232843 0.17953431 0.0039215686
0.53137255 0.18431373 0.0039215686
0.56127451 0.18713235 0
0.58259804 0.19411765 0.0039215686
0.6 0.20343137 0.006495098
0.61715686 0.21078431 0.0078431373
0.62990196 0.2127451 0.0078431373
0.6370098 0.2127451 0.0056372549
0.64227941 0.2127451 0.006004902
0.64509804 0.2127451 0.0078431373
0.011764706 0.10343137 0.058823529
0.014215686 0.10490196 0.058823529
0.014215686 0.11090686 0.059191176
0.010477941 0.11636029 0.058823529
0.011519608 0.12254902 0.056372549
0.030269608 0.12892157 0.054411765
0.080392157 0.14362745 0.040196078
0.13731618 0.15882353 0.022058824
0.19362745 0.17156863 0.011764706
0.25147059 0.18033088 0.010294118
0.31323529 0.18970588 0.0078431373
0.36911765 0.19411765 0.0078431373
0.41397059 0.19656863 0.0051470588
0.45588235 0.196875 0.0024509804
0.49411765 0.20343137 0.0035539216
0.52892157 0.21127451 0.0039215686
0.55735294 0.21764706 0.0014705882
0.58676471 0.22101716 0
0.60821078 0.22892157 0.0042892157
0.6254902 0.23578431 0.01127451
0.63823529 0.24362745 0.013235294
0.65459559 0.24773284 0.009129902
0.66323529 0.24509804 0.0078431373
0.66807598 0.24117647 0.0039215686
0.67107843 0.24264706 0.0039215686
0.011764706 0.1254902 0.066666667
0.011764706 0.13186275 0.066666667
0.0078431373 0.1372549 0.066666667
0.0078431373 0.14117647 0.066666667
0.0019607843 0.14509804 0.064705882
0.02254902 0.15392157 0.054411765
0.080392157 0.17156863 0.040196078
0.13823529 0.18578431 0.020588235
0.19607843 0.19607843 0.0039215686
0.26029412 0.21029412 0.0039215686
0.32352941 0.2245098 0.0039215686
0.38186275 0.23480392 0.0039215686
0.43137255 0.23529412 0.0039215686
0.47696078 0.23529412 0
0.52156863 0.24215686 0.0068627451
0.55735294 0.25245098 0.0078431373
0.58431373 0.25490196 0.0078431373
0.60882353 0.25490196 0.0014705882
0.62941176 0.26372549 0.0088235294
0.64656863 0.27058824 0.015196078
0.65882353 0.2745098 0.017647059
0.67941176 0.28284314 0.01127451
0.69411765 0.29019608 0.0068627451
0.69558824 0.29166667 0.0078431373
0.70196078 0.29411765 0.0078431373
0.0093137255 0.16029412 0.080882353
0.014215686 0.16666667 0.083333333
0.014215686 0.1745098 0.083333333
0.010477941 0.178125 0.083333333
0.0090686275 0.18235294 0.078921569
0.020281863 0.1908701 0.067953431
0.068259804 0.2060049 0.041789216
0.13033088 0.21819853 0.021507353
0.19852941 0.22794118 0.0024509804
0.27150735 0.24852941 0.00091911765
0.3377451 0.26629902 0.0039215686
0.3995098 0.27647059 0.0039215686
0.45147059 0.28039216 0.0026960784
0.50098039 0.2872549 0.0042279412
0.54215686 0.2942402 0.010784314
0.58094363 0.29852941 0.018688725
0.61519608 0.30245098 0.024509804
0.64215686 0.30882353 0.018137255
0.65931373 0.31323529 0.012745098
0.66746324 0.30814951 0.01942402
0.68063725 0.31421569 0.019607843
0.69969363 0.32794118 0.015196078
0.71666667 0.33823529 0.0084558824
0.72346814 0.34313725 0.010294118
0.73039216 0.3495098 0.010294118
0.0078431373 0.19117647 0.095098039
0.011397059 0.19901961 0.097916667
0.016666667 0.20882353 0.10073529
0.019607843 0.21470588 0.099142157
0.019607843 0.22009804 0.090196078
0.028553922 0.22990196 0.078431373
0.062009804 0.24191176 0.054901961
0.11703431 0.26066176 0.031495098
0.20490196 0.2754902 0.012745098
0.28541667 0.29754902 0.0042892157
0.35367647 0.3125 0
0.41372549 0.32120098 0
0.46666667 0.32598039 0.0019607843
0.51813725 0.33872549 0.0079656863
0.56372549 0.35 0.014705882
0.60490196 0.35490196 0.021078431
0.64117647 0.35490196 0.026470588
0.67120098 0.35906863 0.020098039
0.68921569 0.36102941 0.010784314
0.7004902 0.36519608 0.014215686
0.7122549 0.37156863 0.015686275
0.72095588 0.37659314 0.015686275
0.73431373 0.38357843 0.012745098
0.74252451 0.38970588 0.012745098
0.74607843 0.39607843 0.012745098
0.0039215686 0.22205882 0.10882353
0.0078431373 0.23088235 0.11145833
0.013112745 0.24264706 0.11409314
0.019178922 0.24558824 0.11280637
0.019607843 0.24583333 0.10710784
0.028921569 0.25484069 0.092647059
0.046568627 0.28137255 0.074632353
0.10931373 0.2995098 0.047058824
0.20784314 0.31960784 0.023039216
0.29166667 0.33676471 0.009129902
0.36360294 0.35686275 0.0039215686
0.42800245 0.37015931 0.0034926471
0.48921569 0.38161765 0.0053921569
0.54564951 0.39754902 0.0083333333
0.59362745 0.40821078 0.014705882
0.63216912 0.41292892 0.019791667
0.66911765 0.41666667 0.016176471
0.69411765 0.41323529 0.0098039216
0.71458333 0.4067402 0.0013480392
0.72745098 0.41666667 0.0074142157
0.73995098 0.4247549 0.013970588
0.74454657 0.42199755 0.015686275
0.75098039 0.42806373 0.015686275
0.75606618 0.43333333 0.015686275
0.75980392 0.4372549 0.015686275
0 0.25098039 0.12156863
0.0039215686 0.26446078 0.1247549
0.0088235294 0.27745098 0.12990196
0.015196078 0.28039216 0.12573529
0.020588235 0.27941176 0.12058824
0.024019608 0.29142157 0.10686275
0.034313725 0.31715686 0.08627451
0.099019608 0.34019608 0.061029412
0.19803922 0.35686275 0.035294118
0.29142157 0.37794118 0.015196078
0.37205882 0.40392157 0.0093137255
0.44558824 0.4247549 0.0041666667
0.51176471 0.44117647 0.0058823529
0.57671569 0.46127451 0.021323529
0.62156863 0.46666667 0.012254902
0.66004902 0.47132353 0.01372549
0.69019608 0.47254902 0.0078431373
0.71911765 0.47058824 0.0039215686
0.74509804 0.47303922 0.0044117647
0.75833333 0.47818627 0.011519608
0.76470588 0.48137255 0.015686275
0.76666667 0.47794118 0.019607843
0.77156863 0.4754902 0.019607843
0.77916667 0.48578431 0.019607843
0.78235294 0.49019608 0.019607843
0.0044117647 0.29215686 0.13431373
0.0078431373 0.29852941 0.14019608
0.011764706 0.3122549 0.14301471
0.016115196 0.31519608 0.13866422
0.019362745 0.31764706 0.13186275
0.010784314 0.33584559 0.11764706
0.0085784314 0.35551471 0.1004902
0.08872549 0.38155637 0.062928922
0.19166667 0.40637255 0.023039216
0.29932598 0.43333333 0.023835784
0.38786765 0.45931373 0.019117647
0.46029412 0.47689951 0.0088235294
0.53210784 0.49656863 0.0095588235
0.59607843 0.51323529 0.016115196
0.64889706 0.5252451 0.01752451
0.68560049 0.52794118 0.0099877451
0.71862745 0.52794118 0.0078431373
0.75 0.53216912 0.0052083333
0.77463235 0.5372549 0.0088235294
0.78915441 0.54019608 0.015686275
0.79558824 0.54191176 0.019852941
0.80196078 0.54025735 0.023529412
0.81262255 0.54754902 0.023529412
0.82175245 0.55655637 0.019791667
0.82107843 0.55980392 0.019607843
0.0078431373 0.32941176 0.15098039
0.011397059 0.33284314 0.15196078
0.01495098 0.34313725 0.15514706
0.019117647 0.34865196 0.15196078
0.014215686 0.35882353 0.14215686
0.0042892157 0.37438725 0.12794118
0 0.39117647 0.11078431
0.089215686 0.42107843 0.070098039
0.19509804 0.45490196 0.026470588
0.30833333 0.48517157 0.032843137
0.40269608 0.51397059 0.033333333
0.47794118 0.52879902 0.016666667
0.54901961 0.54411765 0.0044117647
0.6127451 0.56164216 0.0088235294
0.66764706 0.5754902 0.0088235294
0.70539216 0.57830882 0.011151961
0.73529412 0.5754902 0.011764706
0.77977941 0.58909314 0.0050245098
0.80220588 0.59583333 0.011029412
0.81323529 0.59901961 0.019117647
0.82303922 0.59852941 0.025
0.83590686 0.60245098 0.02745098
0.84705882 0.6127451 0.023529412
0.85625 0.62193627 0.019607843
0.85588235 0.62156863 0.016666667
0.013235294 0.36127451 0.1622549
0.014767157 0.36519608 0.1622549
0.015686275 0.37401961 0.1622549
0.015686275 0.38039216 0.1622549
0.011029412 0.39264706 0.15637255
0.0036151961 0.40931373 0.14215686
0.0029411765 0.42990196 0.12205882
0.089215686 0.45680147 0.075919118
0.20147059 0.49068627 0.035294118
0.32101716 0.5254902 0.027512255
0.41568627 0.55147059 0.024509804
0.49215686 0.57205882 0.015012255
0.56421569 0.59019608 0.0058823529
0.62794118 0.60637255 0.0026348039
0.67990196 0.61764706 0.0068627451
0.71568627 0.61917892 0.016237745
0.7504902 0.62156863 0.017156863
0.79558824 0.63823529 0.01317402
0.82205882 0.64509804 0.014215686
0.83235294 0.64148284 0.023223039
0.84338235 0.64313725 0.02745098
0.85863971 0.65520833 0.02745098
0.87254902 0.66764706 0.023897059
0.88045343 0.67346814 0.020159314
0.88529412 0.67647059 0.018627451
0.015686275 0.38823529 0.17254902
0.015686275 0.39068627 0.17254902
0.015686275 0.40098039 0.17254902
0.015686275 0.41127451 0.16911765
0.0098039216 0.42156863 0.16470588
0.0039215686 0.43676471 0.15588235
0.0068627451 0.46372549 0.12843137
0.093137255 0.48676471 0.073529412
0.20784314 0.52156863 0.02745098
0.33039216 0.55784314 0.011764706
0.41960784 0.58235294 0.0088235294
0.50245098 0.60686275 0.0083333333
0.57843137 0.62745098 0.0039215686
0.64607843 0.64803922 0.00049019608
0.69803922 0.65882353 0.0068627451
0.72990196 0.65882353 0.018627451
0.76470588 0.6627451 0.031372549
0.80588235 0.67696078 0.031372549
0.83333333 0.68235294 0.030392157
0.84656863 0.67892157 0.02745098
0.85882353 0.68431373 0.02745098
0.875 0.69460784 0.031372549
0.88823529 0.70196078 0.031372549
0.8995098 0.70735294 0.036764706
0.90588235 0.71372549 0.043137255
0.0093137255 0.40245098 0.17647059
0.011764706 0.40398284 0.17647059
0.016053922 0.41188725 0.175
0.023039216 0.42530637 0.17254902
0.024509804 0.43578431 0.16985294
0.020588235 0.45343137 0.15980392
0.02879902 0.48431373 0.13125
0.10594363 0.51127451 0.064215686
0.20784314 0.54215686 0.015686275
0.33039216 0.57542892 0.0068627451
0.42696078 0.60392157 0.0053921569
0.5122549 0.63351716 0.0041053922
0.58946078 0.65514706 0.0026960784
0.65851716 0.67469363 0.0085171569
0.71127451 0.68921569 0.0093137255
0.74895833 0.68970588 0.028921569
0.78529412 0.7 0.037745098
0.82401961 0.71176471 0.044117647
0.84362745 0.71323529 0.040686275
0.85686275 0.71323529 0.030392157
0.87107843 0.71911765 0.031862745
0.88792892 0.72518382 0.040379902
0.90134804 0.73186275 0.048529412
0.91464461 0.73823529 0.057352941
0.92401961 0.74607843 0.065196078
0.0068627451 0.41666667 0.18137255
0.0068627451 0.41666667 0.18039216
0.011029412 0.42254902 0.18039216
0.018259804 0.43664216 0.17781863
0.032352941 0.44705882 0.17303922
0.042279412 0.46654412 0.15551471
0.052205882 0.50098039 0.1254902
0.11164216 0.53186275 0.070955882
0.2245098 0.5627451 0.028431373
0.33958333 0.59460784 0.0013480392
0.43406863 0.62843137 0.00098039216
0.52254902 0.65845588 0.00098039216
0.6 0.67990196 0.00049019608
0.66176471 0.69264706 0.0042892157
0.71666667 0.70588235 0.017647059
0.76446078 0.71973039 0.043137255
0.80098039 0.72745098 0.048039216
0.84031863 0.7377451 0.058333333
0.8625 0.73921569 0.056617647
0.87585784 0.73921569 0.045955882
0.88627451 0.73970588 0.045098039
0.8995098 0.74620098 0.05245098
0.91348039 0.75318627 0.059558824
0.92401961 0.75931373 0.067647059
0.92941176 0.7627451 0.070588235
0.0039215686 0.42696078 0.18431373
0.00049019608 0.42696078 0.18431373
0.0052696078 0.43284314 0.18394608
0.013909314 0.45085784 0.18609069
0.02745098 0.46372549 0.1745098
0.028921569 0.48633578 0.15539216
0.045710784 0.51801471 0.12757353
0.11813725 0.54901961 0.082843137
0.23480392 0.58333333 0.03872549
0.35686275 0.62156863 0.016176471
0.44705882 0.64522059 0.01127451
0.53284314 0.67297794 0.01127451
0.60196078 0.69166667 0.0056372549
0.66568627 0.70631127 0.00006127451
0.72022059 0.72009804 0.016666667
0.76795343 0.73560049 0.038541667
0.81862745 0.74803922 0.058333333
0.85765931 0.75833333 0.07254902
0.87892157 0.75980392 0.07254902
0.89221814 0.75980392 0.065257353
0.90318627 0.76176471 0.062009804
0.90980392 0.76378676 0.062316176
0.92009804 0.76715686 0.069117647
0.92910539 0.77205882 0.074019608
0.93333333 0.77598039 0.074509804
0.011764706 0.4372549 0.19411765
0.0098039216 0.43848039 0.19166667
0.006372549 0.44901961 0.18823529
0.013235294 0.46593137 0.18627451
0.023529412 0.48235294 0.1754902
0.020588235 0.50294118 0.14534314
0.023039216 0.52843137 0.10882353
0.11176471 0.56397059 0.068137255
0.24117647 0.60588235 0.041176471
0.36421569 0.64264706 0.021078431
0.46078431 0.66568627 0.021568627
0.53970588 0.68553922 0.018137255
0.60882353 0.70392157 0.0098039216
0.67377451 0.72058824 0.0041666667
0.73039216 0.7377451 0.017647059
0.78112745 0.75245098 0.040931373
0.83137255 0.76666667 0.064705882
0.86813725 0.77573529 0.078921569
0.89068627 0.7745098 0.078921569
0.90465686 0.77573529 0.074019608
0.91470588 0.77843137 0.07254902
0.91789216 0.77843137 0.07254902
0.9245098 0.77843137 0.074019608
0.92941176 0.78235294 0.077205882
0.93333333 0.78235294 0.078431373
0.028431373 0.44362745 0.20441176
0.021752451 0.45392157 0.20018382
0.012132353 0.46948529 0.1932598
0.0079044118 0.48235294 0.18431373
0.0093137255 0.49509804 0.16642157
0.013541667 0.52009804 0.13707108
0.0033088235 0.54068627 0.086887255
0.11715686 0.58333333 0.052941176
0.24362745 0.6245098 0.026470588
0.36029412 0.65637255 0.020404412
0.4689951 0.67683824 0.01997549
0.55 0.69705882 0.015686275
0.62205882 0.71617647 0.0095588235
0.6901348 0.73523284 0.0088235294
0.74767157 0.75281863 0.025612745
0.79509804 0.76844363 0.042463235
0.83186275 0.77696078 0.054901961
0.8622549 0.78088235 0.068627451
0.88921569 0.7817402 0.074142157
0.9088848 0.78431373 0.074509804
0.92107843 0.78946078 0.078676471
0.92604167 0.78921569 0.078921569
0.92941176 0.78921569 0.078921569
0.93578431 0.79313725 0.082843137
0.94166667 0.79656863 0.082843137
0.033333333 0.45686275 0.21176471
0.024877451 0.47254902 0.20625
0.015686275 0.48823529 0.19779412
0.0053921569 0.50208333 0.18296569
0.0049019608 0.51813725 0.16372549
0.022426471 0.54754902 0.13186275
0.064215686 0.5752451 0.078431373
0.15735294 0.60637255 0.019362745
0.26372549 0.63823529 0.011764706
0.36654412 0.65980392 0.011764706
0.47328431 0.68039216 0.0058823529
0.55992647 0.70355392 0.0049019608
0.63578431 0.72990196 0.0078431373
0.70392157 0.74852941 0.015318627
0.75882353 0.76568627 0.030147059
0.81029412 0.78235294 0.047916667
0.85196078 0.79117647 0.061764706
0.87352941 0.79117647 0.068137255
0.89803922 0.79338235 0.07377451
0.9182598 0.79460784 0.078308824
0.93333333 0.80245098 0.083333333
0.94362745 0.80588235 0.085784314
0.95 0.80661765 0.089215686
0.95894608 0.81446078 0.093872549
0.95490196 0.80686275 0.089215686
0.0049019608 0.47205882 0.21568627
0.006372549 0.49503676 0.21323529
0.0039215686 0.51654412 0.20833333
0.0026348039 0.53823529 0.19803922
0.0098039216 0.55882353 0.17867647
0.062132353 0.58186275 0.12579657
0.1185049 0.60637255 0.060906863
0.20153186 0.6278799 0.020465686
0.31470588 0.65637255 0.025
0.40796569 0.67843137 0.021078431
0.49460784 0.69620098 0.011642157
0.57401961 0.71783088 0.0039215686
0.65318627 0.75147059 0.006372549
0.71421569 0.75882353 0.017953431
0.76911765 0.77267157 0.033333333
0.82058824 0.79025735 0.051470588
0.87352941 0.80686275 0.068137255
0.89803922 0.80931373 0.075980392
0.9122549 0.80441176 0.078431373
0.93333333 0.80882353 0.083333333
0.95661765 0.82058824 0.090931373
0.96764706 0.82469363 0.096078431
0.96948529 0.82438725 0.099509804
0.96617647 0.82107843 0.097120098
0.96617647 0.81715686 0.094117647
0 0.48235294 0.21960784
0.0039215686 0.50686275 0.21960784
0.0068627451 0.53627451 0.22254902
0.00049019608 0.56715686 0.2122549
0.011764706 0.59215686 0.18823529
0.099019608 0.60931373 0.11372549
0.14705882 0.62254902 0.062745098
0.23235294 0.63970588 0.043137255
0.38039216 0.6745098 0.035294118
0.44068627 0.69754902 0.035294118
0.51960784 0.71862745 0.029411765
0.58529412 0.73235294 0.0088235294
0.65686275 0.75098039 0.0098039216
0.72058824 0.76519608 0.020098039
0.7754902 0.77941176 0.037254902
0.83088235 0.79754902 0.056372549
0.88627451 0.81568627 0.074509804
0.9122549 0.82107843 0.082352941
0.91862745 0.81078431 0.082352941
0.94362745 0.81862745 0.085784314
0.97647059 0.8372549 0.098039216
0.98039216 0.83529412 0.10196078
0.97745098 0.83137255 0.10294118
0.97254902 0.82598039 0.10196078
0.96862745 0.82352941 0.098039216
0.0014705882 0.0053921569 0.015686275
0.010294118 0.014215686 0.019607843
0.01997549 0.020588235 0.023529412
0.028431373 0.024816176 0.023529412
0.041911765 0.02745098 0.023529412
0.055392157 0.02745098 0.023039216
0.068627451 0.02745098 0.019607843
0.084313725 0.028921569 0.015686275
0.13186275 0.039215686 0.011764706
0.17303922 0.046507353 0.010845588
0.21666667 0.051593137 0.006372549
0.25753676 0.057046569 0.0039215686
0.29852941 0.062745098 0.0071078431
0.33903186 0.067156863 0.0078431373
0.37242647 0.073529412 0.011764706
0.39754902 0.075980392 0.011764706
0.42205882 0.078431373 0.011764706
0.44117647 0.078431373 0.015686275
0.46776961 0.08627451 0.012867647
0.49411765 0.093627451 0.011764706
0.51740196 0.098039216 0.011764706
0.52254902 0.098039216 0.015686275
0.52254902 0.094117647 0.019607843
0.52346814 0.095036765 0.019607843
0.52401961 0.096568627 0.019607843
0.011213235 0.020588235 0.022058824
0.015134804 0.022633272 0.023529412
0.020358456 0.02611826 0.026348039
0.029894301 0.029901961 0.02745098
0.043596814 0.033823529 0.026991422
0.058026961 0.037745098 0.02567402
0.072058824 0.037745098 0.022426471
0.094607843 0.039215686 0.019056373
0.13878676 0.049509804 0.015686275
0.18333333 0.053431373 0.011764706
0.22512255 0.058333333 0.0064491422
0.26894148 0.065931373 0.0060661765
0.30958946 0.07276348 0.0078431373
0.3495098 0.079595588 0.010477941
0.38719363 0.083134191 0.0099264706
0.41626072 0.084803922 0.0090839461
0.43872549 0.08872549 0.011764706
0.46199449 0.092876838 0.011764706
