site/assets/luts/natron-haldclut--fuji-provia-400f--663fb3bee.cube
# LUTr-Project: LUTr — LUTrepository
# LUTr-Schema-Version: 1
# LUTr-ID: natron-haldclut--fuji-provia-400f--663fb3bee
# LUTr-Title: fuji provia 400f
# LUTr-Collection: Natron HaldCLUT
# LUTr-Collection-ID: natron-haldclut-presets
# LUTr-Source: https://github.com/NatronGitHub/clut
# LUTr-Source-File: submissions/natron-haldclut-presets/colorslide/fuji_provia_400f.png
# LUTr-Source-Format: PNG
# LUTr-Source-SHA256: 9cd489cbad71513cc7e9b5e4126b68f4148c2b42d7394f511fd8d0d28f271ad9
# LUTr-License: CC-BY-SA-4.0
# LUTr-License-URL: https://github.com/NatronGitHub/clut#license
# LUTr-Tags: creative, film, film-emulation, hald-clut, natron, png, cube
# LUTr-Transform-Class: film-emulation
# LUTr-Input-Color-Space: srgb
# LUTr-Output-Color-Space: srgb
# LUTr-Color-Space-Confidence: assumed-display-referred
# LUTr-Conversion-Method: PNG LUT image decoded at 16-bit and sampled to 25x25x25 3D CUBE
# LUTr-Conversion-Date: 2026-07-27
# LUTr-Conversion-Tool: LUTr scripts/convert-all-to-cube.mjs
# LUTr-Conversion-Grid: 25x25x25
# LUTr-Note: Preserve this metadata and the upstream license notices when redistributing.
TITLE "fuji provia 400f"
LUT_3D_SIZE 5
DOMAIN_MIN 0 0 0
DOMAIN_MAX 1 1 1
0.0078431373 0.0078431373 0
0.15392157 0.0078431373 0.0049019608
0.43529412 0.035294118 0.0039215686
0.67352941 0.050980392 0
0.85882353 0.066666667 0
0.090196078 0.20686275 0.11470588
0.23039216 0.19583333 0.078431373
0.46568627 0.1627451 0.041176471
0.6875 0.093137255 0.0039215686
0.8627451 0.066666667 0
0.21764706 0.51960784 0.30784314
0.35441176 0.51568627 0.28823529
0.5627451 0.49215686 0.24411765
0.76127451 0.43823529 0.18921569
0.89607843 0.21960784 0.052941176
0.41862745 0.76372549 0.49607843
0.50612745 0.77156863 0.48063725
0.65 0.76470588 0.45637255
0.82647059 0.75294118 0.41862745
0.97647059 0.69509804 0.38333333
0.60392157 0.98039216 0.65882353
0.64117647 0.9754902 0.65490196
0.74117647 0.97647059 0.64509804
0.87745098 0.96862745 0.63137255
1 0.98823529 0.60784314
0.015686275 0.011764706 0.080392157
0.12622549 0.0068627451 0.044362745
0.41666667 0.03627451 0.031372549
0.64803922 0.02745098 0.0068627451
0.81568627 0.040196078 0.015686275
0.07377451 0.21862745 0.24509804
0.21213235 0.21133578 0.21397059
0.45428922 0.1627451 0.13345588
0.65392157 0.082720588 0.059620098
0.79117647 0.039215686 0.02254902
0.19705882 0.50980392 0.41715686
0.31948529 0.51568627 0.40098039
0.54068627 0.50269608 0.3504902
0.74215686 0.45012255 0.29497549
0.86323529 0.26078431 0.17990196
0.39509804 0.75220588 0.56960784
0.46801471 0.75294118 0.56102941
0.63333333 0.76151961 0.53578431
0.80465686 0.75275735 0.49901961
0.95857843 0.69215686 0.45220588
0.59117647 0.9754902 0.7245098
0.62279412 0.96470588 0.7127451
0.72598039 0.96568627 0.69313725
0.86642157 0.98137255 0.68137255
0.98529412 0.97647059 0.65392157
0.011764706 0.01372549 0.28235294
0.10441176 0.0058823529 0.24117647
0.35882353 0.0098039216 0.17843137
0.59803922 0.0078431373 0.12254902
0.80784314 0.011764706 0.090196078
0.039705882 0.23480392 0.42107843
0.1754902 0.22659314 0.39215686
0.43186275 0.19632353 0.31862745
0.62156863 0.086764706 0.225
0.775 0.015686275 0.15441176
0.1372549 0.50784314 0.56862745
0.28308824 0.50588235 0.5504902
0.50490196 0.5004902 0.51176471
0.70784314 0.45 0.44289216
0.85196078 0.28823529 0.33627451
0.36372549 0.74411765 0.7
0.44215686 0.74901961 0.68713235
0.60857843 0.7504902 0.65882353
0.77647059 0.74546569 0.6254902
0.92843137 0.69509804 0.5754902
0.5627451 0.95490196 0.81568627
0.59313725 0.94754902 0.80588235
0.70784314 0.96862745 0.79607843
0.8377451 0.96666667 0.77401961
0.99215686 0.94117647 0.72352941
0.0039215686 0.015686275 0.44509804
0.10465686 0.032598039 0.43137255
0.34509804 0.018137255 0.34215686
0.55906863 0.0039215686 0.27965686
0.72647059 0 0.25686275
0.031372549 0.2754902 0.58897059
0.16151961 0.27867647 0.57015931
0.41078431 0.23296569 0.49215686
0.60545343 0.14166667 0.40251225
0.74411765 0.019607843 0.30294118
0.10441176 0.52401961 0.71176471
0.27022059 0.52598039 0.69620098
0.48308824 0.52647059 0.65980392
0.68235294 0.48578431 0.59901961
0.84313725 0.32941176 0.48627451
0.34509804 0.73627451 0.81789216
0.4245098 0.74748775 0.80839461
0.58137255 0.74865196 0.78431373
0.74730392 0.74748775 0.7497549
0.89705882 0.71372549 0.70196078
0.55 0.9372549 0.91176471
0.59117647 0.95 0.91568627
0.68431373 0.9627451 0.90588235
0.81764706 0.95318627 0.87254902
0.96666667 0.97254902 0.85196078
0 0.047058824 0.6
0.12254902 0.079411765 0.54705882
0.34313725 0.023529412 0.46470588
0.54803922 0.011764706 0.42647059
0.72941176 0 0.36470588
0.020588235 0.35392157 0.74411765
0.15612745 0.35 0.72132353
0.41127451 0.33529412 0.67058824
0.60882353 0.24803922 0.57647059
0.72745098 0.011764706 0.40784314
0.10392157 0.54901961 0.8254902
0.27843137 0.56666667 0.82843137
0.47647059 0.56078431 0.79117647
0.66764706 0.52647059 0.71470588
0.83333333 0.44117647 0.66078431
0.36372549 0.75196078 0.93235294
0.43210784 0.75906863 0.92745098
0.57205882 0.75980392 0.90588235
0.73161765 0.75980392 0.85808824
0.8745098 0.73039216 0.81568627
0.56078431 0.94117647 0.98823529
0.59117647 0.94901961 0.98529412
0.66666667 0.9372549 0.95294118
0.80588235 0.96764706 0.98235294
0.98431373 0.98039216 0.94901961
