site/assets/luts/natron-haldclut--kodak2383-cuspclip--57ef0bb43.cube
# LUTr-Project: LUTr — LUTrepository
# LUTr-Schema-Version: 1
# LUTr-ID: natron-haldclut--kodak2383-cuspclip--57ef0bb43
# LUTr-Title: kodak2383 cuspclip
# LUTr-Collection: Natron HaldCLUT
# LUTr-Collection-ID: natron-haldclut-presets
# LUTr-Source: https://github.com/NatronGitHub/clut
# LUTr-Source-File: submissions/natron-haldclut-presets/print/kodak2383_cuspclip.png
# LUTr-Source-Format: PNG
# LUTr-Source-SHA256: d83d75acecd89ac8976fc8e3948f20c8b22f1a366c7bca7a18e3f54e8b815260
# LUTr-License: CC-BY-SA-4.0
# LUTr-License-URL: https://github.com/NatronGitHub/clut#license
# LUTr-Tags: creative, film, film-emulation, hald-clut, natron, png, cube
# LUTr-Transform-Class: film-emulation
# LUTr-Input-Color-Space: srgb
# LUTr-Output-Color-Space: srgb
# LUTr-Color-Space-Confidence: assumed-display-referred
# LUTr-Conversion-Method: PNG LUT image decoded at 16-bit and sampled to 25x25x25 3D CUBE
# LUTr-Conversion-Date: 2026-07-27
# LUTr-Conversion-Tool: LUTr scripts/convert-all-to-cube.mjs
# LUTr-Conversion-Grid: 25x25x25
# LUTr-Note: Preserve this metadata and the upstream license notices when redistributing.
TITLE "kodak2383 cuspclip"
LUT_3D_SIZE 5
DOMAIN_MIN 0 0 0
DOMAIN_MAX 1 1 1
0.0078431373 0.0078431373 0.019607843
0.080392157 0.034313725 0.015686275
0.36078431 0.076470588 0
0.61568627 0.13333333 0
0.65098039 0.15686275 0
0 0.069607843 0.039215686
0.095098039 0.095343137 0.03995098
0.45539216 0.1504902 0
0.69313725 0.21470588 0.01372549
0.73921569 0.2372549 0.012745098
0.021568627 0.36862745 0.18627451
0 0.35539216 0.019607843
0.61568627 0.51176471 0.0049019608
0.84803922 0.54166667 0.021568627
0.88823529 0.57843137 0.0019607843
0.0029411765 0.54313725 0.26372549
0.031862745 0.59215686 0.15220588
0.70441176 0.77990196 0.012745098
0.93823529 0.80980392 0.082352941
0.96960784 0.81372549 0.091176471
0.0039215686 0.61176471 0.24313725
0.11470588 0.65980392 0.0078431373
0.72745098 0.80784314 0.033333333
0.9627451 0.85588235 0.098039216
0.99607843 0.85882353 0.10588235
0.0039215686 0.015686275 0.08627451
0.088235294 0.03995098 0.088235294
0.38676471 0.021568627 0.072058824
0.62377451 0.0039215686 0.063480392
0.69019608 0 0.081372549
0 0.088235294 0.10686275
0.080392157 0.10765931 0.11746324
0.46936275 0.13419118 0.09252451
0.72671569 0.048284314 0.0022671569
0.78063725 0.098284314 0.015686275
0.018627451 0.40245098 0.27205882
0.017034314 0.40894608 0.20183824
0.62058824 0.51446078 0.037745098
0.89803922 0.53872549 0.0075980392
0.94166667 0.58431373 0.0049019608
0.0056372549 0.57034314 0.34877451
0.024509804 0.62647059 0.29319853
0.67585784 0.77941176 0.0084558824
0.97316176 0.83553922 0.023223039
0.99901961 0.84313725 0.094607843
0.016666667 0.65 0.45784314
0.0053921569 0.70588235 0.38578431
0.69754902 0.84019608 0.28529412
0.99901961 0.89534314 0.23946078
1 0.89215686 0.36960784
0 0.13529412 0.34313725
0.081372549 0.0078431373 0.34117647
0.40196078 0.0058823529 0.38235294
0.66176471 0 0.40784314
0.69803922 0 0.40980392
0 0.24607843 0.43333333
0.0053921569 0.13063725 0.4057598
0.48308824 0.14019608 0.45661765
0.74375 0.046078431 0.46409314
0.79411765 0.11470588 0.48088235
0.0098039216 0.50294118 0.57156863
0.010539216 0.52818627 0.59093137
0.58039216 0.57009804 0.57303922
0.8997549 0.5997549 0.57647059
0.95196078 0.64117647 0.58823529
0.0083333333 0.66960784 0.65980392
0.006004902 0.72659314 0.67279412
0.60098039 0.85490196 0.63823529
0.97218137 0.90686275 0.6252451
1 0.91764706 0.63382353
0.0039215686 0.73921569 0.74117647
0.0034313725 0.79313725 0.74607843
0.62745098 0.90294118 0.73039216
0.96470588 0.95588235 0.72303922
1 0.96666667 0.74705882
0 0.24803922 0.51470588
0.0625 0.032843137 0.52426471
0.42058824 0.0014705882 0.5877451
0.67083333 0 0.61838235
0.70588235 0 0.62058824
0 0.33921569 0.6
0 0.29405637 0.61041667
0.48933824 0.096323529 0.69754902
0.75422794 0.025122549 0.71372549
0.80980392 0.085294118 0.73112745
0.014215686 0.54558824 0.72647059
0.010906863 0.56507353 0.76458333
0.54215686 0.59803922 0.85098039
0.88431373 0.62843137 0.86911765
0.9377451 0.65980392 0.87303922
0.0017156863 0.69509804 0.80490196
0.018198529 0.75594363 0.84411765
0.53333333 0.89227941 0.91997549
0.94963235 0.95392157 0.93848039
0.99607843 0.95490196 0.93627451
0.012745098 0.74117647 0.83627451
0.02377451 0.80686275 0.87769608
0.57009804 0.92794118 0.94264706
0.93921569 0.98602941 0.95514706
0.99607843 0.99215686 0.95392157
0 0.31372549 0.59607843
0.066666667 0.045098039 0.58823529
0.43921569 0 0.65882353
0.7 0 0.69313725
0.77647059 0 0.7372549
0 0.37058824 0.64607843
0.0095588235 0.3245098 0.66372549
0.49901961 0.18872549 0.77303922
0.77352941 0.1127451 0.7872549
0.82941176 0.17352941 0.80882353
0.0019607843 0.55882353 0.76078431
0.0039215686 0.57745098 0.78921569
0.5254902 0.61372549 0.90784314
0.8745098 0.64068627 0.925
0.93921569 0.68039216 0.93921569
0.021568627 0.69901961 0.82352941
0.018627451 0.75686275 0.86568627
0.50490196 0.89362745 0.96911765
0.93627451 0.94411765 0.98823529
0.98823529 0.94705882 0.98823529
0.0039215686 0.74901961 0.85490196
0.011764706 0.80784314 0.89705882
0.54901961 0.92941176 0.97647059
0.93235294 0.98921569 0.99607843
1 1 1
