site/assets/luts/natron-haldclut--zilverfx-infrared--e6c764718.cube
# LUTr-Project: LUTr — LUTrepository
# LUTr-Schema-Version: 1
# LUTr-ID: natron-haldclut--zilverfx-infrared--e6c764718
# LUTr-Title: zilverfx infrared
# LUTr-Collection: Natron HaldCLUT
# LUTr-Collection-ID: natron-haldclut-presets
# LUTr-Source: https://github.com/NatronGitHub/clut
# LUTr-Source-File: submissions/natron-haldclut-presets/picturefx/zilverfx_infrared.png
# LUTr-Source-Format: PNG
# LUTr-Source-SHA256: 7f66fec3ffadd607d8af04d9f2fef9a64fc5202aecdf813b6dde7d92842272f9
# LUTr-License: CC-BY-SA-4.0
# LUTr-License-URL: https://github.com/NatronGitHub/clut#license
# LUTr-Tags: creative, film, film-emulation, hald-clut, natron, png, cube
# LUTr-Transform-Class: film-emulation
# LUTr-Input-Color-Space: srgb
# LUTr-Output-Color-Space: srgb
# LUTr-Color-Space-Confidence: assumed-display-referred
# LUTr-Conversion-Method: PNG LUT image decoded at 16-bit and sampled to 25x25x25 3D CUBE
# LUTr-Conversion-Date: 2026-07-27
# LUTr-Conversion-Tool: LUTr scripts/convert-all-to-cube.mjs
# LUTr-Conversion-Grid: 25x25x25
# LUTr-Note: Preserve this metadata and the upstream license notices when redistributing.
TITLE "zilverfx infrared"
LUT_3D_SIZE 25
DOMAIN_MIN 0 0 0
DOMAIN_MAX 1 1 1
0.058823529 0.058823529 0.058823529
0.062745098 0.062745098 0.062745098
0.066666667 0.066666667 0.066666667
0.066666667 0.066666667 0.066666667
0.066666667 0.066666667 0.066666667
0.071078431 0.071078431 0.071078431
0.084313725 0.084313725 0.084313725
0.094117647 0.094117647 0.094117647
0.082352941 0.082352941 0.082352941
0.065196078 0.065196078 0.065196078
0.089215686 0.089215686 0.089215686
0.12745098 0.12745098 0.12745098
0.16470588 0.16470588 0.16470588
0.20196078 0.20196078 0.20196078
0.23921569 0.23921569 0.23921569
0.27892157 0.27892157 0.27892157
0.30980392 0.30980392 0.30980392
0.34068627 0.34068627 0.34068627
0.35784314 0.35784314 0.35784314
0.36421569 0.36421569 0.36421569
0.36862745 0.36862745 0.36862745
0.37696078 0.37696078 0.37696078
0.3872549 0.3872549 0.3872549
0.39362745 0.39362745 0.39362745
0.4 0.4 0.4
0.058823529 0.058823529 0.058823529
0.064276961 0.064276961 0.064276961
0.074019608 0.074019608 0.074019608
0.077267157 0.077267157 0.077267157
0.072303922 0.072303922 0.072303922
0.071078431 0.071078431 0.071078431
0.084926471 0.084926471 0.084926471
0.095588235 0.095588235 0.095588235
0.082352941 0.082352941 0.082352941
0.065196078 0.065196078 0.065196078
0.083455882 0.083455882 0.083455882
0.12745098 0.12745098 0.12745098
0.16666667 0.16666667 0.16666667
0.20165441 0.20165441 0.20165441
0.23627451 0.23627451 0.23627451
0.2716299 0.2716299 0.2716299
0.30343137 0.30343137 0.30343137
0.33131127 0.33131127 0.33131127
0.34852941 0.34852941 0.34852941
0.36047794 0.36047794 0.36047794
0.37058824 0.37058824 0.37058824
0.38088235 0.38088235 0.38088235
0.39117647 0.39117647 0.39117647
0.40091912 0.40091912 0.40091912
0.40784314 0.40784314 0.40784314
0.067647059 0.067647059 0.067647059
0.081372549 0.081372549 0.081372549
0.093872549 0.093872549 0.093872549
0.096078431 0.096078431 0.096078431
0.090686275 0.090686275 0.090686275
0.093627451 0.093627451 0.093627451
0.10073529 0.10073529 0.10073529
0.11066176 0.11066176 0.11066176
0.10294118 0.10294118 0.10294118
0.081004902 0.081004902 0.081004902
0.090686275 0.090686275 0.090686275
0.13333333 0.13333333 0.13333333
0.16029412 0.16029412 0.16029412
0.20196078 0.20196078 0.20196078
0.2372549 0.2372549 0.2372549
0.27316176 0.27316176 0.27316176
0.30588235 0.30588235 0.30588235
0.32156863 0.32156863 0.32156863
0.33651961 0.33651961 0.33651961
0.35588235 0.35588235 0.35588235
0.3622549 0.3622549 0.3622549
0.37254902 0.37254902 0.37254902
0.38627451 0.38627451 0.38627451
0.4004902 0.4004902 0.4004902
0.41862745 0.41862745 0.41862745
0.081372549 0.081372549 0.081372549
0.10539216 0.10539216 0.10539216
0.12009804 0.12009804 0.12009804
0.12310049 0.12310049 0.12310049
0.12009804 0.12009804 0.12009804
0.1245098 0.1245098 0.1245098
0.13051471 0.13051471 0.13051471
0.14656863 0.14656863 0.14656863
0.1504902 0.1504902 0.1504902
0.15116422 0.15116422 0.15116422
0.16752451 0.16752451 0.16752451
0.1629902 0.1629902 0.1629902
0.13602941 0.13602941 0.13602941
0.20882353 0.20882353 0.20882353
0.24583333 0.24583333 0.24583333
0.27647059 0.27647059 0.27647059
0.30245098 0.30245098 0.30245098
0.30882353 0.30882353 0.30882353
0.33223039 0.33223039 0.33223039
0.35631127 0.35631127 0.35631127
0.35710784 0.35710784 0.35710784
0.36176471 0.36176471 0.36176471
0.37254902 0.37254902 0.37254902
0.38805147 0.38805147 0.38805147
0.40833333 0.40833333 0.40833333
0.1372549 0.1372549 0.1372549
0.14681373 0.14681373 0.14681373
0.15784314 0.15784314 0.15784314
0.1625 0.1625 0.1625
0.16568627 0.16568627 0.16568627
0.175 0.175 0.175
0.18382353 0.18382353 0.18382353
0.2002451 0.2002451 0.2002451
0.21764706 0.21764706 0.21764706
0.23308824 0.23308824 0.23308824
0.24068627 0.24068627 0.24068627
0.2495098 0.2495098 0.2495098
0.23137255 0.23137255 0.23137255
0.2377451 0.2377451 0.2377451
0.24362745 0.24362745 0.24362745
0.27279412 0.27279412 0.27279412
0.29607843 0.29607843 0.29607843
0.30735294 0.30735294 0.30735294
0.34313725 0.34313725 0.34313725
0.36102941 0.36102941 0.36102941
0.35294118 0.35294118 0.35294118
0.35122549 0.35122549 0.35122549
0.35588235 0.35588235 0.35588235
0.37818627 0.37818627 0.37818627
0.4 0.4 0.4
0.19460784 0.19460784 0.19460784
0.19852941 0.19852941 0.19852941
0.19803922 0.19803922 0.19803922
0.20196078 0.20196078 0.20196078
0.21176471 0.21176471 0.21176471
0.22303922 0.22303922 0.22303922
0.24276961 0.24276961 0.24276961
0.25931373 0.25931373 0.25931373
0.27696078 0.27696078 0.27696078
0.29411765 0.29411765 0.29411765
0.30686275 0.30686275 0.30686275
0.32401961 0.32401961 0.32401961
0.3129902 0.3129902 0.3129902
0.30588235 0.30588235 0.30588235
0.31090686 0.31090686 0.31090686
0.32506127 0.32506127 0.32506127
0.28921569 0.28921569 0.28921569
0.32291667 0.32291667 0.32291667
0.35343137 0.35343137 0.35343137
0.36176471 0.36176471 0.36176471
0.35122549 0.35122549 0.35122549
0.34019608 0.33719363 0.34019608
0.33933824 0.33933824 0.33933824
0.35882353 0.35882353 0.35882353
0.37941176 0.37941176 0.37941176
0.24607843 0.24607843 0.24607843
0.24889706 0.24889706 0.24889706
0.24509804 0.24509804 0.24509804
0.24313725 0.24313725 0.24313725
0.25490196 0.25490196 0.25490196
0.2745098 0.2745098 0.2745098
0.29509804 0.29509804 0.29509804
0.31421569 0.31421569 0.31421569
0.33137255 0.33137255 0.33137255
0.34901961 0.34901961 0.34901961
0.36544118 0.36544118 0.36544118
0.37892157 0.37892157 0.37892157
0.37647059 0.37647059 0.37647059
0.38259804 0.38259804 0.38259804
0.4125 0.4125 0.4125
0.43688725 0.43688725 0.43688725
0.43039216 0.43039216 0.43039216
0.39276961 0.39276961 0.39276961
0.38627451 0.38627451 0.38627451
0.36593137 0.36593137 0.36593137
0.35882353 0.35882353 0.35882353
0.32156863 0.32156863 0.32156863
0.32205882 0.32205882 0.32205882
0.34117647 0.34117647 0.34117647
0.39019608 0.39019608 0.39019608
0.29362745 0.29362745 0.29362745
0.31317402 0.31317402 0.31317402
0.31862745 0.31862745 0.31862745
0.30110294 0.30110294 0.30110294
0.31936275 0.31936275 0.31936275
0.33186275 0.33186275 0.33186275
0.34375 0.34375 0.34375
0.36617647 0.36617647 0.36617647
0.38921569 0.38921569 0.38921569
0.40490196 0.40490196 0.40490196
0.4247549 0.4247549 0.4247549
0.44571078 0.44571078 0.44571078
0.45343137 0.45343137 0.45343137
0.48020833 0.48020833 0.48020833
0.50870098 0.50870098 0.50870098
0.53621324 0.53621324 0.53621324
0.5495098 0.5495098 0.5495098
0.54252451 0.54252451 0.54252451
0.52941176 0.52941176 0.52941176
0.50980392 0.50980392 0.50980392
0.49411765 0.49411765 0.49411765
0.49136029 0.49136029 0.49136029
0.48235294 0.48235294 0.48235294
0.49754902 0.49754902 0.49754902
0.54362745 0.54362745 0.54362745
0.44705882 0.44705882 0.44705882
0.45196078 0.45196078 0.45196078
0.46176471 0.46176471 0.46176471
0.45147059 0.45147059 0.45147059
0.44705882 0.44705882 0.44705882
0.45196078 0.45196078 0.45196078
0.47843137 0.47843137 0.47843137
0.50490196 0.50490196 0.50637255
0.5254902 0.5254902 0.52941176
0.54362745 0.54362745 0.54362745
0.56372549 0.56372549 0.56372549
0.59852941 0.59852941 0.59852941
0.61764706 0.61568627 0.61764706
0.62303922 0.62303922 0.62303922
0.63235294 0.63137255 0.63235294
0.64852941 0.64852941 0.64852941
0.65882353 0.65882353 0.65882353
0.66911765 0.66911765 0.66911765
0.67647059 0.67352941 0.67647059
0.65588235 0.65588235 0.65588235
0.65686275 0.65686275 0.65686275
0.65343137 0.65343137 0.65343137
0.66470588 0.66470588 0.66470588
0.66715686 0.66715686 0.66715686
0.69803922 0.69411765 0.69803922
0.62598039 0.62598039 0.62598039
0.61715686 0.61715686 0.61715686
0.61262255 0.61262255 0.61262255
0.60998775 0.60998775 0.60998775
0.5872549 0.5872549 0.5872549
0.60539216 0.60539216 0.60539216
0.63897059 0.63897059 0.64142157
0.66078431 0.66170343 0.66170343
0.68382353 0.68382353 0.68382353
0.70594363 0.70441176 0.70594363
0.72745098 0.72561275 0.72745098
0.75294118 0.75294118 0.75294118
0.77598039 0.7747549 0.77598039
0.77745098 0.77616422 0.77745098
0.79117647 0.79007353 0.79117647
0.84258578 0.84258578 0.84258578
0.825 0.82254902 0.825
0.86268382 0.86176471 0.86268382
0.8372549 0.83480392 0.8372549
0.82169118 0.8192402 0.82169118
0.85441176 0.85294118 0.85441176
0.85508578 0.85294118 0.85508578
0.86041667 0.85870098 0.86041667
0.82481618 0.82426471 0.82481618
0.88431373 0.88039216 0.88431373
0.80882353 0.80490196 0.80882353
0.80404412 0.80404412 0.80404412
0.79044118 0.7879902 0.79044118
0.79791667 0.79779412 0.79791667
0.78872549 0.78872549 0.78872549
0.76164216 0.76164216 0.76164216
0.81960784 0.81960784 0.81960784
0.80428922 0.8057598 0.8057598
0.84411765 0.84411765 0.84411765
0.86654412 0.86188725 0.86764706
0.8870098 0.88308824 0.8870098
0.90294118 0.90294118 0.90294118
0.9254902 0.92254902 0.9254902
0.93578431 0.93186275 0.93578431
0.91617647 0.9122549 0.91617647
0.95012255 0.94767157 0.95012255
0.9127451 0.90980392 0.9127451
0.98137255 0.97561275 0.98137255
0.96691176 0.9627451 0.96691176
0.97965686 0.97561275 0.97965686
0.96568627 0.9622549 0.96568627
0.96323529 0.96053922 0.96323529
0.95808824 0.95416667 0.95808824
0.91936275 0.91544118 0.91936275
0.9872549 0.97941176 0.9872549
0.99117647 0.97990196 0.99117647
0.93572304 0.93443627 0.93572304
0.95502451 0.94987745 0.95502451
0.95974265 0.95189951 0.95974265
0.94656863 0.94289216 0.94656863
0.98609069 0.97616422 0.98651961
0.94656863 0.94571078 0.94656863
0.91813725 0.91599265 0.91960784
0.97647059 0.97254902 0.97647059
0.97291667 0.96685049 0.97291667
0.97732843 0.97083333 0.97732843
0.9533701 0.95294118 0.9533701
0.96127451 0.96102941 0.96127451
0.96905637 0.96813725 0.96905637
0.95098039 0.94791667 0.95098039
0.94901961 0.94656863 0.94901961
0.94754902 0.94362745 0.94754902
0.98529412 0.97873775 0.98529412
0.98578431 0.97892157 0.98578431
0.98039216 0.97647059 0.98039216
0.95098039 0.94901961 0.95098039
0.96268382 0.96219363 0.96268382
0.95980392 0.9567402 0.95980392
0.93345588 0.93002451 0.93345588
0.98039216 0.97303922 0.98039216
0.98823529 0.98039216 0.98823529
0.95882353 0.95539216 0.95882353
0.97696078 0.97058824 0.97696078
0.97745098 0.97156863 0.97745098
0.95490196 0.95098039 0.95490196
0.97990196 0.97205882 0.97990196
0.95539216 0.95294118 0.95539216
0.96740196 0.96151961 0.96740196
0.97254902 0.96862745 0.97254902
0.97132353 0.96740196 0.97132353
0.98284314 0.97843137 0.98284314
0.96151961 0.95931373 0.96151961
0.95980392 0.95882353 0.95980392
0.9622549 0.96029412 0.9622549
0.95196078 0.95 0.95196078
0.95441176 0.95171569 0.95441176
0.96666667 0.96078431 0.96666667
0.98602941 0.97892157 0.98602941
0.98823529 0.98382353 0.98823529
0.98259804 0.98039216 0.98259804
0.96372549 0.96176471 0.96372549
0.96936275 0.96568627 0.96936275
0.96568627 0.96372549 0.96568627
0.94779412 0.94534314 0.94779412
0.97647059 0.97254902 0.97647059
0.98039216 0.97647059 0.98039216
0.971875 0.9682598 0.971875
0.97647059 0.97254902 0.97647059
0.97254902 0.965625 0.97254902
0.95539216 0.95343137 0.95539216
0.96764706 0.96372549 0.96764706
0.95772059 0.95379902 0.95772059
0.96617647 0.9622549 0.96617647
0.96862745 0.96470588 0.96862745
0.97352941 0.96832108 0.97352941
0.98333333 0.97647059 0.98333333
0.96960784 0.96568627 0.96960784
0.96078431 0.95906863 0.96078431
0.96029412 0.95637255 0.96029412
0.95 0.94901961 0.95
0.95618873 0.95441176 0.95618873
0.96862745 0.96470588 0.96862745
0.98284314 0.97892157 0.98284314
0.98823529 0.98431373 0.98823529
0.98823529 0.98480392 0.98823529
0.98308824 0.98308824 0.98308824
0.98039216 0.97696078 0.98039216
0.97303922 0.97218137 0.97303922
0.96194853 0.95949755 0.96194853
0.97647059 0.97254902 0.97647059
0.9872549 0.98627451 0.9872549
0.98088235 0.97941176 0.98088235
0.9747549 0.97254902 0.9747549
0.96911765 0.96519608 0.96911765
0.96078431 0.95833333 0.96078431
0.96421569 0.96029412 0.96421569
0.95686275 0.95294118 0.95686275
0.96262255 0.95833333 0.96323529
0.96862745 0.96470588 0.96862745
0.97352941 0.96960784 0.97352941
0.98039216 0.97647059 0.98039216
0.97303922 0.96911765 0.97303922
0.96470588 0.9622549 0.96470588
0.95943627 0.95637255 0.95943627
0.95294118 0.95 0.95294118
0.95833333 0.95551471 0.95833333
0.97254902 0.96862745 0.97254902
0.9810049 0.97892157 0.9810049
0.98529412 0.98431373 0.98529412
0.98823529 0.98823529 0.98823529
0.98921569 0.98823529 0.98921569
0.98811275 0.9877451 0.98811275
0.98333333 0.98039216 0.98333333
0.97254902 0.97218137 0.97254902
0.97647059 0.97254902 0.97647059
0.99215686 0.99215686 0.99215686
0.98670343 0.98670343 0.98670343
0.97941176 0.97941176 0.97941176
0.97273284 0.97040441 0.97273284
0.96740196 0.96348039 0.96740196
0.96421569 0.96029412 0.96421569
0.95686275 0.95502451 0.95686275
0.9622549 0.95833333 0.9622549
0.96862745 0.96470588 0.96862745
0.97352941 0.97107843 0.97352941
0.98039216 0.97647059 0.98039216
0.97647059 0.97254902 0.97647059
0.96666667 0.96348039 0.96666667
0.96047794 0.95686275 0.96047794
0.95686275 0.95441176 0.95686275
0.9622549 0.95980392 0.9622549
0.97254902 0.97254902 0.97254902
0.98039216 0.97892157 0.98039216
0.98431373 0.98431373 0.98431373
0.98805147 0.98645833 0.98805147
0.98823529 0.98676471 0.98823529
0.98431373 0.9841299 0.98431373
0.98321078 0.9810049 0.98321078
0.98039216 0.97800245 0.98039216
0.97647059 0.97401961 0.97647059
0.99215686 0.99215686 0.99215686
0.98823529 0.98823529 0.98823529
0.98039216 0.98039216 0.98039216
0.97647059 0.97303922 0.97647059
0.96862745 0.96666667 0.96862745
0.96421569 0.96078431 0.96421569
0.95784314 0.95686275 0.95784314
0.9622549 0.95833333 0.9622549
0.96862745 0.96470588 0.96862745
0.97352941 0.97107843 0.97352941
0.97647059 0.97254902 0.97647059
0.97647059 0.97254902 0.97647059
0.96862745 0.96666667 0.96862745
0.96421569 0.96078431 0.96421569
0.96078431 0.96078431 0.96078431
0.96617647 0.96470588 0.96617647
0.97647059 0.97254902 0.97647059
0.98039216 0.97892157 0.98039216
0.98431373 0.98431373 0.98431373
0.98431373 0.98431373 0.98431373
0.98431373 0.98431373 0.98431373
0.98039216 0.98039216 0.98039216
0.98039216 0.97745098 0.98039216
0.97647059 0.97647059 0.97647059
0.97647059 0.97254902 0.97647059
0.98823529 0.98823529 0.98823529
0.9848652 0.9848652 0.9848652
0.98039216 0.98039216 0.98039216
0.97647059 0.97647059 0.97647059
0.97058824 0.96985294 0.97058824
0.96470588 0.96452206 0.96470588
0.96078431 0.95968137 0.96078431
0.9622549 0.96078431 0.9622549
0.96617647 0.96470588 0.96617647
0.97107843 0.96862745 0.97107843
0.97647059 0.97254902 0.97647059
0.97647059 0.97254902 0.97647059
0.97058824 0.96862745 0.97058824
0.96715686 0.96470588 0.96715686
0.96715686 0.96470588 0.96715686
0.97009804 0.96954657 0.97009804
0.97647059 0.97647059 0.97647059
0.98039216 0.97892157 0.98039216
0.9807598 0.98039216 0.9807598
0.98186275 0.98039216 0.98186275
0.98039216 0.98039216 0.98039216
0.98008578 0.97775735 0.98008578
0.97647059 0.97463235 0.97647059
0.97401961 0.97254902 0.97401961
0.97254902 0.97254902 0.97254902
0.98431373 0.98431373 0.98431373
0.98370098 0.98333333 0.98370098
0.98039216 0.98039216 0.98039216
0.97647059 0.97647059 0.97647059
0.97254902 0.97107843 0.97254902
0.9682598 0.96813725 0.9682598
0.96470588 0.9625 0.96470588
0.96286765 0.96078431 0.96286765
0.96470588 0.96470588 0.96470588
0.97107843 0.96862745 0.97107843
0.97254902 0.97254902 0.97254902
0.97254902 0.97254902 0.97254902
0.97254902 0.96862745 0.97254902
0.96997549 0.96862745 0.96997549
0.97254902 0.96960784 0.97254902
0.97291667 0.97254902 0.97291667
0.97647059 0.97647059 0.97647059
0.97830882 0.97647059 0.97830882
0.98039216 0.97941176 0.98039216
0.98039216 0.97941176 0.98039216
0.97794118 0.97647059 0.97794118
0.97647059 0.97512255 0.97647059
0.97328431 0.97254902 0.97328431
0.97254902 0.97046569 0.97254902
0.97156863 0.96862745 0.97156863
0.98039216 0.98039216 0.98039216
0.98039216 0.98039216 0.98039216
0.97953431 0.97941176 0.97953431
0.97647059 0.97647059 0.97647059
0.97254902 0.97254902 0.97254902
0.96862745 0.96862745 0.96862745
0.96556373 0.96470588 0.96556373
0.96470588 0.96439951 0.96470588
0.96813725 0.96470588 0.96813725
0.97107843 0.96862745 0.97107843
0.97254902 0.97254902 0.97254902
0.97254902 0.97254902 0.97254902
0.97254902 0.97254902 0.97254902
0.97254902 0.97254902 0.97254902
0.97254902 0.97254902 0.97254902
0.97273284 0.97254902 0.97273284
0.97647059 0.97647059 0.97647059
0.97647059 0.97647059 0.97647059
0.97647059 0.97647059 0.97647059
0.97647059 0.97647059 0.97647059
0.97647059 0.9747549 0.97647059
0.97297794 0.97254902 0.97297794
0.97254902 0.96997549 0.97254902
0.96893382 0.96862745 0.96893382
0.96862745 0.96862745 0.96862745
0.98039216 0.97843137 0.98039216
0.97843137 0.97647059 0.97843137
0.97647059 0.97647059 0.97647059
0.97647059 0.97647059 0.97647059
0.97352941 0.97254902 0.97352941
0.97230392 0.97205882 0.97230392
0.96862745 0.96862745 0.96862745
0.96666667 0.96593137 0.96666667
0.96862745 0.96666667 0.96862745
0.97107843 0.96862745 0.97107843
0.97254902 0.97254902 0.97254902
0.97254902 0.97254902 0.97254902
0.97254902 0.97254902 0.97254902
0.97254902 0.97254902 0.97254902
0.97254902 0.97254902 0.97254902
0.97254902 0.97254902 0.97254902
0.97647059 0.97254902 0.97647059
0.97647059 0.9745098 0.97647059
0.97647059 0.9745098 0.97647059
0.97647059 0.9745098 0.97647059
0.97352941 0.97254902 0.97352941
0.97254902 0.97034314 0.97254902
0.96911765 0.96862745 0.96911765
0.96862745 0.96593137 0.96862745
0.96862745 0.96470588 0.96862745
0.97647059 0.97647059 0.97647059
0.97647059 0.97647059 0.97647059
0.97647059 0.97647059 0.97647059
0.97647059 0.97647059 0.97647059
0.9747549 0.97254902 0.9747549
0.97254902 0.97254902 0.97254902
0.97254902 0.96997549 0.97254902
0.96911765 0.96911765 0.96911765
0.96911765 0.96911765 0.96911765
0.97254902 0.97254902 0.97254902
0.97303922 0.97254902 0.97303922
0.97303922 0.97297794 0.97303922
0.97303922 0.97254902 0.97303922
0.97254902 0.97254902 0.97254902
0.97254902 0.97254902 0.97254902
0.97254902 0.97254902 0.97254902
0.97254902 0.97254902 0.97254902
0.97254902 0.97254902 0.97254902
0.97254902 0.97254902 0.97254902
0.97254902 0.97254902 0.97254902
0.97254902 0.97230392 0.97254902
0.96862745 0.96862745 0.96862745
0.96862745 0.96568627 0.96862745
0.96470588 0.96470588 0.96470588
0.96470588 0.96470588 0.96470588
0.97647059 0.97647059 0.97647059
0.97647059 0.97647059 0.97647059
0.97647059 0.97352941 0.97647059
0.97647059 0.97352941 0.97647059
0.97647059 0.97401961 0.97647059
0.9754902 0.97254902 0.9754902
0.9754902 0.97254902 0.9754902
0.9754902 0.97254902 0.9754902
0.9754902 0.9754902 0.9754902
0.97647059 0.97610294 0.97647059
0.97647059 0.97647059 0.97647059
0.97647059 0.97647059 0.97647059
0.97647059 0.97647059 0.97647059
0.97647059 0.97512255 0.97647059
0.97328431 0.97254902 0.97328431
0.97254902 0.97254902 0.97254902
0.97254902 0.97254902 0.97254902
0.97254902 0.97254902 0.97254902
0.97254902 0.97254902 0.97254902
0.97254902 0.97254902 0.97254902
0.97254902 0.96862745 0.97254902
0.96862745 0.96862745 0.96862745
0.96642157 0.96470588 0.96642157
0.96470588 0.96470588 0.96470588
0.96470588 0.96078431 0.96470588
0.97647059 0.975 0.97647059
0.97555147 0.97254902 0.97555147
0.97254902 0.97254902 0.97254902
0.97628676 0.97254902 0.97628676
0.97647059 0.97647059 0.97647059
0.97647059 0.97647059 0.97647059
0.97647059 0.97647059 0.97647059
0.97794118 0.97794118 0.97794118
0.98039216 0.98039216 0.98039216
0.98039216 0.98039216 0.98039216
0.98039216 0.98039216 0.98039216
0.98039216 0.98039216 0.98039216
0.97916667 0.97720588 0.97916667
0.97647059 0.97647059 0.97647059
0.97647059 0.97352941 0.97647059
0.97254902 0.97254902 0.97254902
0.97254902 0.97254902 0.97254902
0.97254902 0.97254902 0.97254902
0.97254902 0.97254902 0.97254902
0.97254902 0.96893382 0.97254902
0.96985294 0.96862745 0.96985294
0.96862745 0.96813725 0.96862745
0.96531863 0.96470588 0.96531863
0.96470588 0.96231618 0.96470588
0.96470588 0.96078431 0.96470588
0.97647059 0.97254902 0.97647059
0.97254902 0.97254902 0.97254902
0.97254902 0.97254902 0.97254902
0.97598039 0.97254902 0.97598039
0.97647059 0.97647059 0.97647059
0.97696078 0.97647059 0.97696078
0.98039216 0.98039216 0.98039216
0.98186275 0.98186275 0.98186275
0.98431373 0.98431373 0.98431373
0.98431373 0.98431373 0.98431373
0.98431373 0.98431373 0.98431373
0.98088235 0.98088235 0.98088235
0.98039216 0.98039216 0.98039216
0.97647059 0.97647059 0.97647059
0.97647059 0.97647059 0.97647059
0.97254902 0.97254902 0.975
0.97254902 0.97254902 0.97254902
0.97254902 0.97254902 0.97254902
0.97254902 0.96862745 0.97254902
0.97254902 0.96862745 0.97254902
0.96862745 0.96862745 0.96862745
0.96862745 0.96470588 0.96862745
0.96470588 0.96470588 0.96470588
0.96470588 0.96078431 0.96470588
0.96470588 0.96078431 0.96470588
0.048529412 0.048529412 0.048529412
0.049448529 0.049448529 0.049448529
0.050612745 0.050612745 0.050612745
0.045404412 0.045404412 0.045404412
0.040441176 0.040441176 0.040441176
0.055208333 0.055208333 0.055208333
0.077941176 0.077941176 0.077941176
0.082904412 0.082904412 0.082904412
0.063235294 0.063235294 0.063235294
0.04307598 0.04307598 0.04307598
0.081862745 0.081862745 0.081862745
0.12794118 0.12794118 0.12794118
0.15759804 0.15759804 0.15759804
0.19834559 0.19834559 0.19834559
0.24313725 0.24313725 0.24313725
0.28137255 0.28137255 0.28137255
0.3122549 0.3122549 0.3122549
0.34368873 0.34368873 0.34368873
0.35968137 0.35968137 0.35968137
0.36470588 0.36470588 0.36470588
0.36617647 0.36617647 0.36617647
0.37040441 0.37040441 0.37040441
0.3754902 0.3754902 0.3754902
0.38094363 0.38094363 0.38094363
0.38578431 0.38578431 0.38578431
0.046997549 0.046997549 0.046997549
0.050061275 0.050061275 0.050061275
0.066176471 0.066176471 0.066176471
0.058026961 0.058026961 0.058026961
0.041360294 0.041360294 0.041360294
0.055323223 0.055323223 0.055323223
0.080621936 0.080621936 0.080621936
0.087461703 0.087461703 0.087461703
0.064767157 0.064767157 0.064767157
0.04307598 0.04307598 0.04307598
0.085416667 0.085416667 0.085416667
0.13076746 0.13076746 0.13076746
0.15879289 0.15879289 0.15879289
0.19939491 0.19939491 0.19939491
0.23699449 0.23699449 0.23699449
0.27477022 0.27477022 0.27477022
0.30343137 0.30343137 0.30343137
0.33523284 0.33523284 0.33523284
0.35147059 0.35147059 0.35147059
0.36096048 0.36096048 0.36096048
0.36421569 0.36421569 0.36421569
0.36900276 0.36900276 0.36900276
0.37365196 0.37365196 0.37365196
0.37828585 0.37828585 0.37828585
0.38186275 0.38186275 0.38186275
0.051960784 0.051960784 0.051960784
0.072288603 0.072288603 0.072288603
0.090686275 0.090686275 0.090686275
0.086565564 0.086565564 0.086565564
0.058026961 0.058026961 0.058026961
0.082827819 0.082827819 0.082827819
0.093504902 0.093504902 0.093504902
0.097303922 0.097303922 0.097303922
0.091666667 0.091666667 0.091666667
0.054488358 0.054488358 0.054488358
0.085692402 0.085692402 0.085692402
0.12098652 0.12098652 0.12098652
0.15379902 0.15379902 0.15379902
0.19313725 0.19313725 0.19313725
0.23109681 0.23109681 0.23109681
0.27293199 0.27293199 0.27293199
0.30257353 0.30257353 0.30257353
0.32571998 0.32571998 0.32571998
