site/assets/luts/natron-haldclut--polaroid-px-680-cold---a0ca9c0b3.cube
# LUTr-Project: LUTr — LUTrepository
# LUTr-Schema-Version: 1
# LUTr-ID: natron-haldclut--polaroid-px-680-cold---a0ca9c0b3
# LUTr-Title: polaroid px-680 cold --
# LUTr-Collection: Natron HaldCLUT
# LUTr-Collection-ID: natron-haldclut-presets
# LUTr-Source: https://github.com/NatronGitHub/clut
# LUTr-Source-File: submissions/natron-haldclut-presets/instant_consumer/polaroid_px-680_cold_--.png
# LUTr-Source-Format: PNG
# LUTr-Source-SHA256: 1d77e9920931c953a6e63cc6223581fe42ce9730c8f369e914955277c82e012f
# LUTr-License: CC-BY-SA-4.0
# LUTr-License-URL: https://github.com/NatronGitHub/clut#license
# LUTr-Tags: creative, film, film-emulation, hald-clut, natron, png, cool, cube
# LUTr-Transform-Class: film-emulation
# LUTr-Input-Color-Space: srgb
# LUTr-Output-Color-Space: srgb
# LUTr-Color-Space-Confidence: assumed-display-referred
# LUTr-Conversion-Method: PNG LUT image decoded at 16-bit and sampled to 25x25x25 3D CUBE
# LUTr-Conversion-Date: 2026-07-27
# LUTr-Conversion-Tool: LUTr scripts/convert-all-to-cube.mjs
# LUTr-Conversion-Grid: 25x25x25
# LUTr-Note: Preserve this metadata and the upstream license notices when redistributing.
TITLE "polaroid px-680 cold --"
LUT_3D_SIZE 25
DOMAIN_MIN 0 0 0
DOMAIN_MAX 1 1 1
0 0 0
0.014215686 0.014215686 0.010294118
0.029411765 0.028431373 0.015686275
0.049509804 0.031372549 0.019117647
0.084313725 0.035294118 0.023529412
0.11911765 0.035294118 0.019117647
0.17058824 0.042156863 0.025490196
0.2377451 0.050980392 0.032843137
0.30588235 0.058823529 0.035294118
0.37401961 0.065196078 0.039215686
0.44607843 0.070588235 0.055882353
0.51421569 0.070588235 0.066176471
0.58039216 0.076470588 0.078431373
0.6377451 0.12352941 0.11078431
0.68921569 0.15784314 0.12843137
0.73529412 0.18627451 0.14019608
0.77254902 0.23137255 0.16078431
0.80343137 0.27009804 0.18382353
0.83823529 0.30490196 0.20490196
0.86911765 0.33578431 0.22254902
0.90196078 0.3627451 0.23921569
0.92303922 0.39754902 0.25980392
0.94705882 0.42843137 0.28039216
0.97303922 0.46323529 0.30098039
1 0.49411765 0.31764706
0.006372549 0.026960784 0.024509804
0.015747549 0.028431373 0.018137255
0.028431373 0.02745098 0.013602941
0.049203431 0.031372549 0.015196078
0.085539216 0.042156863 0.024754902
0.12254902 0.055085784 0.025980392
0.17696078 0.062254902 0.029901961
0.2411152 0.064644608 0.034375
0.30833333 0.067647059 0.035294118
0.37794118 0.066115196 0.033762255
0.44791667 0.07745098 0.052941176
0.51813725 0.08939951 0.070098039
0.58039216 0.10539216 0.084803922
0.6377451 0.13578431 0.10655637
0.68921569 0.16311275 0.12205882
0.73284314 0.19025735 0.13719363
0.77009804 0.23137255 0.16078431
0.80343137 0.26862745 0.18045343
0.83468137 0.30551471 0.20196078
0.86911765 0.33823529 0.22126225
0.9 0.37034314 0.23921569
0.92518382 0.40392157 0.2622549
0.94889706 0.43480392 0.2810049
0.9721201 0.46623775 0.30098039
0.98578431 0.48382353 0.31127451
0.010784314 0.056862745 0.046078431
0.01752451 0.051102941 0.033946078
0.026715686 0.046323529 0.021568627
0.044607843 0.050857843 0.023406863
0.089705882 0.065196078 0.030882353
0.1314951 0.080514706 0.034926471
0.18553922 0.087254902 0.051470588
0.24448529 0.090318627 0.034313725
0.31078431 0.092156863 0.034313725
0.38186275 0.093137255 0.03872549
0.45392157 0.10196078 0.050980392
0.51862745 0.11875 0.069607843
0.58039216 0.13088235 0.083333333
0.6377451 0.15245098 0.099019608
0.68529412 0.18651961 0.12426471
0.72745098 0.21875 0.14865196
0.76764706 0.24509804 0.16176471
0.80343137 0.2745098 0.17745098
0.83431373 0.31397059 0.20196078
0.86519608 0.34852941 0.22254902
0.89558824 0.38333333 0.24558824
0.92561275 0.41421569 0.26727941
0.95098039 0.44191176 0.28455882
0.96519608 0.46176471 0.29852941
0.9754902 0.47843137 0.30882353
0.0044117647 0.07745098 0.035784314
0.014215686 0.07567402 0.033517157
0.021078431 0.084436275 0.043995098
0.031801471 0.088664216 0.056862745
0.073529412 0.098284314 0.055392157
0.13278186 0.10490196 0.044301471
0.18982843 0.11139706 0.02879902
0.24803922 0.11636029 0.024019608
0.31715686 0.12009804 0.031372549
0.38578431 0.12401961 0.037928922
0.45686275 0.12941176 0.044730392
0.51862745 0.14656863 0.065686275
0.58039216 0.15710784 0.080392157
0.63382353 0.17653186 0.099080882
0.67879902 0.21164216 0.13039216
0.72352941 0.24479167 0.15569853
0.76470588 0.26960784 0.16862745
0.80214461 0.29264706 0.17892157
0.83431373 0.325 0.19803922
0.86219363 0.35882353 0.2221201
0.89215686 0.39362745 0.24534314
0.92303922 0.42107843 0.26764706
0.94718137 0.44852941 0.28529412
0.96176471 0.46844363 0.29901961
0.96862745 0.48137255 0.30931373
0 0.10392157 0.037254902
0.0071078431 0.1122549 0.050735294
0.014705882 0.12254902 0.064215686
0.021078431 0.12892157 0.07622549
0.041176471 0.13529412 0.068627451
0.097794118 0.14338235 0.052205882
0.17303922 0.14509804 0.034803922
0.2502451 0.14779412 0.019852941
0.32156863 0.15490196 0.02745098
0.39240196 0.16323529 0.033088235
0.45686275 0.17352941 0.04754902
0.51862745 0.1877451 0.065686275
0.58039216 0.19803922 0.082352941
0.62965686 0.21666667 0.10563725
0.67598039 0.24215686 0.13970588
0.72230392 0.27034314 0.16568627
0.76078431 0.29215686 0.1745098
0.80196078 0.3127451 0.17965686
0.83431373 0.33676471 0.19215686
0.86127451 0.36911765 0.21470588
0.88921569 0.40392157 0.23823529
0.91887255 0.43088235 0.26004902
0.94313725 0.46029412 0.28235294
0.96764706 0.48872549 0.30759804
0.98627451 0.51372549 0.32745098
0.00049019608 0.15931373 0.068627451
0.0039215686 0.15931373 0.064215686
0.0078431373 0.16678922 0.068504902
0.0078431373 0.17058824 0.070588235
0.012990196 0.1745098 0.068382353
0.060416667 0.18192402 0.057965686
0.14411765 0.18958333 0.049387255
0.23008578 0.19589461 0.04442402
0.31666667 0.19901961 0.032843137
0.39344363 0.20061275 0.025428922
0.45784314 0.21164216 0.041544118
0.52297794 0.2245098 0.057843137
0.58235294 0.23676471 0.075980392
0.62591912 0.25392157 0.10735294
0.67316176 0.2745098 0.14166667
0.71930147 0.29460784 0.16893382
0.76029412 0.31862745 0.18039216
0.79540441 0.33921569 0.1846201
0.83039216 0.36372549 0.19705882
0.86078431 0.38780637 0.21078431
0.88823529 0.41470588 0.23137255
0.9151348 0.44117647 0.25539216
0.93921569 0.46911765 0.27634804
0.96519608 0.49901961 0.30067402
0.98823529 0.52598039 0.32107843
0.0039215686 0.21078431 0.095098039
0.0039215686 0.21176471 0.089583333
0.0039215686 0.21495098 0.085294118
0.0039215686 0.2182598 0.081372549
0.0039215686 0.21862745 0.074509804
0.031372549 0.22352941 0.07254902
0.11764706 0.2372549 0.07254902
0.21433824 0.2504902 0.06752451
0.31176471 0.26372549 0.057843137
0.39080882 0.26580882 0.054779412
0.45710784 0.26470588 0.056862745
0.52610294 0.26176471 0.051348039
0.58039216 0.27058824 0.067156863
0.62291667 0.28823529 0.1004902
0.66960784 0.30882353 0.13161765
0.71384804 0.3254902 0.15686275
0.75392157 0.34313725 0.17352941
0.79166667 0.36090686 0.17990196
0.82647059 0.38431373 0.19019608
0.85735294 0.40882353 0.21041667
0.88529412 0.43333333 0.23284314
0.91213235 0.45784314 0.25196078
0.93848039 0.48161765 0.27254902
0.96519608 0.50931373 0.29411765
0.98823529 0.53627451 0.31372549
0 0.25686275 0.098039216
0.0039215686 0.25833333 0.098590686
0.0039215686 0.2622549 0.10098039
0.0039215686 0.26599265 0.10098039
0.0066176471 0.27083333 0.097794118
0.013357843 0.27843137 0.097058824
0.062867647 0.28872549 0.09375
0.18431373 0.30441176 0.087745098
0.30539216 0.325 0.071078431
0.390625 0.32947304 0.073529412
0.45147059 0.32438725 0.079901961
0.51715686 0.31991422 0.086703431
0.57426471 0.31789216 0.080882353
0.62028186 0.32401961 0.098161765
0.66458333 0.33676471 0.11875
0.71084559 0.35189951 0.13670343
0.75147059 0.36911765 0.15392157
0.78927696 0.38578431 0.16807598
0.825 0.40306373 0.18051471
0.85196078 0.4276348 0.21029412
0.87769608 0.45318627 0.2379902
0.90557598 0.47481618 0.25949755
0.93284314 0.49901961 0.27463235
0.96427696 0.52352941 0.29221814
0.99215686 0.54656863 0.30833333
0 0.30588235 0.11372549
0.0024509804 0.30588235 0.11764706
0.0039215686 0.30980392 0.12156863
0.0039215686 0.31372549 0.12156863
0.0039215686 0.32156863 0.12156863
0 0.32990196 0.11764706
0.02745098 0.33921569 0.12058824
0.14313725 0.35196078 0.12156863
0.2627451 0.36862745 0.10980392
0.35931373 0.37892157 0.1122549
0.44215686 0.38431373 0.11176471
0.51078431 0.38431373 0.11960784
0.5627451 0.37843137 0.11176471
0.61372549 0.37647059 0.11764706
0.66176471 0.37647059 0.11764706
0.70784314 0.38039216 0.11764706
0.74901961 0.39215686 0.13333333
0.77990196 0.4127451 0.16421569
0.81470588 0.42941176 0.18627451
0.84558824 0.45 0.21029412
0.87254902 0.4745098 0.24117647
0.8995098 0.49509804 0.26715686
0.92647059 0.51960784 0.28137255
0.95735294 0.54411765 0.29166667
0.98431373 0.56078431 0.30196078
0 0.35735294 0.14460784
0 0.35735294 0.14460784
0.0039215686 0.36127451 0.14497549
0.0039215686 0.36488971 0.14607843
0 0.36985294 0.14460784
0.0029411765 0.37481618 0.14509804
0.028063725 0.38382353 0.15245098
0.11231618 0.39650735 0.15729167
0.21764706 0.40980392 0.15098039
0.3161152 0.4216299 0.14417892
0.42267157 0.43713235 0.12941176
0.50863971 0.44393382 0.12224265
0.55637255 0.4377451 0.13235294
0.60637255 0.43186275 0.13854167
0.65428922 0.42830882 0.14068627
0.70147059 0.42794118 0.13621324
0.73872549 0.42941176 0.14068627
0.77297794 0.440625 0.17003676
0.80441176 0.4567402 0.19313725
0.83560049 0.47843137 0.20784314
0.86544118 0.5002451 0.23357843
0.89313725 0.51960784 0.25833333
0.92254902 0.54019608 0.26862745
0.95343137 0.56078431 0.28229167
0.98039216 0.575 0.29558824
0 0.40882353 0.1745098
0 0.40882353 0.17156863
0 0.4127451 0.17058824
0 0.41629902 0.17058824
0.0024509804 0.41666667 0.17156863
0.0083333333 0.41973039 0.1754902
0.025735294 0.42647059 0.18137255
0.072058824 0.43676471 0.18419118
0.16372549 0.44705882 0.17843137
0.27120098 0.46029412 0.16568627
0.38504902 0.47352941 0.15416667
0.4872549 0.48468137 0.15147059
0.5504902 0.48627451 0.16176471
0.60245098 0.48321078 0.17205882
0.65318627 0.47941176 0.1754902
0.69509804 0.47941176 0.17156863
0.73235294 0.47941176 0.17156863
0.76323529 0.48517157 0.18492647
0.79828431 0.49093137 0.18823529
0.83284314 0.50784314 0.19460784
0.86029412 0.52598039 0.21764706
0.8877451 0.54411765 0.23529412
0.91862745 0.56078431 0.25808824
0.9495098 0.57708333 0.27708333
0.97647059 0.59019608 0.29019608
0 0.45686275 0.20245098
0 0.45686275 0.19901961
0 0.46078431 0.19509804
0 0.46078431 0.19466912
0.0039215686 0.46078431 0.19509804
0.0044117647 0.46427696 0.19901961
0.0047794118 0.46764706 0.19901961
0.016544118 0.4745098 0.1995098
0.11176471 0.48480392 0.19509804
0.23480392 0.49246324 0.18872549
0.35343137 0.50147059 0.18186275
0.45588235 0.51176471 0.17935049
0.53259804 0.52573529 0.19264706
0.59859069 0.53131127 0.20294118
0.64362745 0.53088235 0.20637255
0.68480392 0.53088235 0.19901961
0.72205882 0.53088235 0.19901961
0.75539216 0.53480392 0.19901961
0.79166667 0.53492647 0.1942402
0.82947304 0.53572304 0.18131127
0.85686275 0.55 0.20392157
0.8877451 0.56470588 0.22542892
0.91862745 0.58137255 0.24938725
0.9495098 0.59442402 0.27009804
0.97647059 0.60686275 0.28627451
0 0.49607843 0.22352941
0 0.49607843 0.21519608
0.00049019608 0.49411765 0.20784314
0.0039215686 0.49607843 0.20955882
0.0039215686 0.49705882 0.2127451
0.0039215686 0.5002451 0.21568627
0.00098039216 0.50539216 0.21568627
0.0029411765 0.51176471 0.21960784
0.08627451 0.51568627 0.21568627
0.20661765 0.52352941 0.21446078
0.32254902 0.53235294 0.2127451
0.4252451 0.54264706 0.20980392
0.50294118 0.55686275 0.21960784
0.57352941 0.56715686 0.22720588
0.63088235 0.57598039 0.22254902
0.67769608 0.57647059 0.21495098
0.71372549 0.57843137 0.21372549
0.74779412 0.58039216 0.21372549
0.78235294 0.58039216 0.20784314
0.81960784 0.58039216 0.20612745
0.85098039 0.58529412 0.21470588
0.88382353 0.59460784 0.23039216
0.91813725 0.60490196 0.2495098
0.9495098 0.61323529 0.26691176
0.97647059 0.62352941 0.28039216
0 0.52696078 0.22794118
0 0.52696078 0.22401961
0.0039215686 0.52745098 0.22401961
0.0074142157 0.53088235 0.22751225
0.0078431373 0.53308824 0.23014706
0.0073529412 0.53572304 0.23235294
0.0039215686 0.53909314 0.23664216
0.012561275 0.54264706 0.24019608
0.090196078 0.54705882 0.23627451
0.196875 0.55686275 0.23627451
0.30085784 0.56323529 0.23713235
0.39859069 0.57352941 0.23976716
0.475 0.58382353 0.24019608
0.53872549 0.59761029 0.23921569
0.6004902 0.60833333 0.23284314
0.6622549 0.61862745 0.22432598
0.70539216 0.62156863 0.22401961
0.74019608 0.6254902 0.22843137
0.77242647 0.6254902 0.23284314
0.80931373 0.6254902 0.23241422
0.84460784 0.6254902 0.2377451
0.87640931 0.62990196 0.24803922
0.91335784 0.63713235 0.25833333
0.94901961 0.64215686 0.26862745
0.97598039 0.64460784 0.27843137
0 0.55784314 0.23431373
0.0024509804 0.55968137 0.23431373
0.0046568627 0.5625 0.23823529
0.0078431373 0.56568627 0.24203431
0.0078431373 0.56862745 0.24754902
0.0078431373 0.56997549 0.25343137
0.0078431373 0.57352941 0.25980392
0.014705882 0.575 0.25968137
0.084313725 0.58137255 0.25686275
0.19375 0.58529412 0.25330882
0.29607843 0.59411765 0.25318627
0.37879902 0.60183824 0.25392157
0.44754902 0.61127451 0.25686275
0.51470588 0.62242647 0.25379902
0.57647059 0.63529412 0.24901961
0.63823529 0.64656863 0.24301471
0.69215686 0.65686275 0.24411765
0.72990196 0.66556373 0.25441176
0.76470588 0.66666667 0.26004902
0.80208333 0.66666667 0.25343137
0.8377451 0.66666667 0.25294118
0.87218137 0.67071078 0.25833333
0.90759804 0.67377451 0.26862745
0.93468137 0.6754902 0.27781863
0.95490196 0.67941176 0.28235294
0 0.59019608 0.24215686
0.0039215686 0.59564951 0.24761029
0.006004902 0.59865196 0.25281863
0.0078431373 0.60177696 0.25765931
0.0078431373 0.60318627 0.26102941
0.0078431373 0.60441176 0.26470588
0.0039215686 0.60441176 0.26813725
0.0048406863 0.60441176 0.27205882
0.069117647 0.6122549 0.27205882
0.19313725 0.61617647 0.26868873
0.2877451 0.62291667 0.26813725
0.35833333 0.63137255 0.27175245
0.42647059 0.6377451 0.27205882
0.49411765 0.64834559 0.27175245
0.55588235 0.66078431 0.26960784
0.61372549 0.67107843 0.26715686
0.66764706 0.68137255 0.26960784
0.71366422 0.69466912 0.27598039
0.75539216 0.70245098 0.28321078
0.79264706 0.70588235 0.27401961
0.83382353 0.70710784 0.26764706
0.86648284 0.70784314 0.26844363
0.88921569 0.70968137 0.275
0.90833333 0.71029412 0.28290441
0.925 0.71176471 0.2877451
0 0.63137255 0.2627451
0.0039215686 0.63137255 0.26519608
0.0078431373 0.63529412 0.26666667
0.0078431373 0.63529412 0.27058824
0.011764706 0.63921569 0.2745098
0.011764706 0.63921569 0.27843137
0.0078431373 0.63921569 0.27843137
0 0.63529412 0.28235294
0.058823529 0.64313725 0.28627451
0.19558824 0.64460784 0.28382353
0.27254902 0.65196078 0.28235294
0.33823529 0.65833333 0.28627451
0.40784314 0.66666667 0.28627451
0.47745098 0.675 0.28970588
0.53529412 0.68529412 0.29019608
0.58921569 0.69558824 0.29411765
0.64705882 0.70588235 0.29411765
0.69460784 0.71617647 0.29411765
0.74117647 0.7254902 0.29411765
0.77843137 0.72941176 0.29068627
0.82156863 0.73529412 0.28431373
0.86421569 0.74166667 0.28627451
0.88529412 0.74509804 0.28921569
0.90098039 0.74509804 0.29558824
0.91372549 0.74901961 0.30196078
0 0.67009804 0.27941176
0.0039215686 0.6716299 0.28333333
0.0078431373 0.67254902 0.28333333
0.0078431373 0.67254902 0.28480392
0.011764706 0.67009804 0.2879902
0.011764706 0.67009804 0.28872549
0.011764706 0.67009804 0.29166667
0.013664216 0.66954657 0.29264706
0.074019608 0.67401961 0.3004902
0.19797794 0.67457108 0.29803922
0.27107843 0.68186275 0.29938725
0.33676471 0.68921569 0.30294118
0.40588235 0.69558824 0.30441176
0.47303922 0.70196078 0.30686275
0.52205882 0.70980392 0.30796569
0.575 0.71862745 0.31317402
0.62892157 0.72647059 0.31470588
0.67493873 0.73676471 0.30925245
0.72120098 0.7442402 0.30441176
0.76421569 0.75214461 0.303125
0.81127451 0.7622549 0.30294118
0.85814951 0.77254902 0.30716912
0.89117647 0.77781863 0.31078431
0.9161152 0.78082108 0.31617647
0.93431373 0.78382353 0.32254902
0.0039215686 0.70882353 0.29607843
0.0039215686 0.70882353 0.29963235
0.0078431373 0.70882353 0.3
0.010416667 0.70625 0.3
0.0078431373 0.70490196 0.3
0.010906863 0.70490196 0.30294118
0.0078431373 0.70122549 0.30294118
0.016789216 0.70098039 0.30441176
0.10784314 0.70490196 0.31078431
0.20281863 0.70735294 0.31360294
0.28137255 0.7127451 0.31642157
0.34669118 0.72009804 0.31960784
0.4127451 0.72647059 0.32254902
0.47303922 0.73235294 0.32352941
0.52058824 0.73848039 0.32573529
0.57107843 0.74522059 0.32855392
0.61862745 0.75196078 0.32745098
0.66262255 0.76164216 0.32463235
0.70661765 0.76691176 0.31862745
0.75355392 0.775 0.31911765
0.80343137 0.78921569 0.32352941
0.85343137 0.80343137 0.32794118
0.89583333 0.81372549 0.33431373
0.92696078 0.81470588 0.33676471
0.95098039 0.81862745 0.34215686
0.00049019608 0.74313725 0.3127451
0.0039215686 0.74313725 0.31323529
0.0078431373 0.74362745 0.31666667
0.0078431373 0.74313725 0.31666667
0.0098039216 0.7375 0.31323529
0.0044117647 0.73578431 0.31323529
0.010416667 0.73578431 0.31666667
0.060784314 0.73578431 0.31844363
0.13186275 0.73578431 0.3245098
0.21470588 0.73952206 0.32873775
0.29252451 0.74068627 0.33370098
0.36035539 0.75098039 0.33670343
0.41936275 0.75906863 0.34019608
0.47303922 0.76323529 0.34019608
0.52058824 0.76715686 0.34068627
0.56685049 0.77285539 0.34430147
0.6122549 0.78284314 0.34411765
0.65931373 0.78921569 0.3403799
0.70588235 0.79558824 0.34007353
0.75055147 0.80588235 0.33970588
0.79852941 0.82009804 0.34411765
0.84908088 0.83131127 0.34852941
0.8942402 0.84203431 0.35490196
0.92990196 0.84558824 0.35735294
0.95343137 0.84607843 0.35980392
0 0.7745098 0.3254902
0.0012254902 0.77647059 0.32745098
0.0049019608 0.77843137 0.32941176
0.0039215686 0.77647059 0.32941176
0.010784314 0.77156863 0.32745098
0.014460784 0.76862745 0.32941176
0.062254902 0.77009804 0.33088235
0.14142157 0.77254902 0.3379902
0.19607843 0.77647059 0.34509804
0.26053922 0.77647059 0.34901961
0.31862745 0.77352941 0.35
0.37181373 0.78210784 0.35294118
0.42941176 0.79215686 0.35490196
0.48235294 0.79632353 0.35490196
0.5254902 0.79803922 0.35686275
0.56862745 0.80343137 0.35955882
0.61176471 0.80980392 0.3627451
0.66004902 0.82009804 0.36078431
0.70196078 0.82647059 0.36078431
0.74681373 0.83676471 0.36078431
0.79411765 0.84803922 0.36372549
0.83970588 0.85931373 0.36911765
0.88431373 0.86764706 0.3754902
0.92279412 0.87401961 0.37647059
0.94901961 0.87843137 0.38039216
0.00098039216 0.80931373 0.33823529
0.00049019608 0.8096201 0.33823529
0.0075980392 0.81323529 0.34215686
0.014031863 0.80980392 0.34258578
0.046323529 0.80980392 0.34632353
0.11121324 0.8098652 0.3504902
0.18333333 0.81372549 0.35306373
0.22156863 0.81372549 0.35802696
0.26617647 0.81372549 0.36568627
0.31715686 0.81764706 0.37205882
0.36188725 0.81813725 0.37352941
0.39656863 0.82156863 0.36966912
0.44191176 0.82720588 0.36936275
0.49221814 0.82984069 0.36960784
0.53419118 0.83321078 0.37340686
0.57941176 0.83854167 0.37745098
0.6245098 0.84460784 0.38137255
0.6627451 0.84883578 0.38137255
0.70196078 0.85735294 0.38002451
0.74221814 0.86721814 0.37745098
0.7877451 0.87745098 0.38333333
0.83290441 0.88431373 0.38970588
0.87745098 0.89460784 0.39656863
0.91813725 0.903125 0.39901961
0.94901961 0.91078431 0.40147059
0.099019608 0.85 0.36568627
0.099019608 0.85392157 0.36568627
0.1254902 0.85490196 0.36593137
0.16678922 0.85490196 0.36838235
0.17598039 0.85441176 0.37205882
0.21678922 0.85490196 0.37745098
0.26372549 0.85490196 0.38063725
0.3 0.85784314 0.38345588
0.34117647 0.85882353 0.39019608
0.37610294 0.85882353 0.39595588
0.4129902 0.86348039 0.39779412
0.44460784 0.86654412 0.39448529
0.4754902 0.86666667 0.39264706
0.50882353 0.86715686 0.39313725
0.55392157 0.87058824 0.39705882
0.59938725 0.87598039 0.40134804
0.64117647 0.88235294 0.40588235
0.67843137 0.88627451 0.40490196
0.71176471 0.89191176 0.40465686
0.74901961 0.89767157 0.40392157
0.7872549 0.90490196 0.40833333
0.83627451 0.91519608 0.42009804
0.88063725 0.92328431 0.42745098
0.91813725 0.92855392 0.42990196
0.94509804 0.93431373 0.43235294
0.24803922 0.9 0.39803922
0.25104167 0.90147059 0.39957108
0.28014706 0.90147059 0.39767157
0.29411765 0.90018382 0.39656863
0.30441176 0.9 0.4004902
0.31862745 0.9 0.40441176
0.34852941 0.9 0.40796569
0.3778799 0.90147059 0.4122549
0.4127451 0.90392157 0.41862745
0.43186275 0.9 0.41954657
0.46556373 0.90784314 0.42647059
0.4963848 0.9091299 0.42775735
0.52696078 0.90931373 0.42794118
0.56029412 0.9096201 0.42941176
0.59448529 0.91286765 0.43186275
0.62843137 0.91568627 0.43333333
0.66323529 0.91960784 0.43578431
0.69810049 0.92297794 0.43670343
0.73419118 0.92806373 0.44007353
0.77205882 0.93480392 0.44362745
0.80735294 0.94044118 0.44754902
0.84246324 0.94589461 0.45196078
0.88235294 0.95134804 0.45931373
0.91813725 0.95251225 0.4598652
0.94509804 0.95980392 0.46470588
0.36862745 0.94117647 0.42745098
0.3877451 0.94754902 0.42990196
0.38137255 0.94117647 0.42745098
0.40245098 0.94460784 0.43088235
0.39215686 0.9372549 0.42745098
0.40539216 0.9377451 0.42794118
0.42647059 0.94117647 0.43137255
0.45147059 0.94264706 0.43921569
0.4627451 0.9372549 0.43921569
0.4754902 0.93333333 0.43921569
0.50882353 0.94215686 0.44803922
0.53627451 0.94509804 0.45098039
0.56666667 0.95098039 0.45686275
0.59705882 0.95245098 0.45882353
0.62058824 0.94509804 0.45882353
0.64754902 0.94509804 0.45882353
0.68235294 0.94901961 0.45882353
0.71323529 0.95147059 0.4627451
0.74803922 0.95784314 0.46666667
0.78284314 0.96813725 0.47401961
0.81764706 0.96862745 0.4745098
0.84901961 0.96911765 0.47892157
0.88333333 0.97647059 0.48627451
0.91568627 0.97401961 0.48382353
0.94901961 0.98431373 0.49803922
0.006372549 0.014215686 0.034803922
0.014215686 0.018137255 0.034803922
0.02879902 0.028431373 0.03872549
0.05 0.029227941 0.042340686
0.081862745 0.028921569 0.046568627
0.12420343 0.046997549 0.052634804
0.17303922 0.036397059 0.053431373
0.2377451 0.048529412 0.066176471
0.30588235 0.056372549 0.07254902
0.37401961 0.062745098 0.07745098
0.44607843 0.064828431 0.090196078
0.51685049 0.068811275 0.10343137
0.58357843 0.10416667 0.12083333
0.6377451 0.14656863 0.14675245
0.68921569 0.18088235 0.16360294
0.73137255 0.20784314 0.17598039
0.76862745 0.24411765 0.19019608
0.80343137 0.28192402 0.20833333
0.83431373 0.31519608 0.22830882
0.86648284 0.34607843 0.24558824
0.89681373 0.37818627 0.26029412
0.92254902 0.40784314 0.27254902
0.94644608 0.43872549 0.29313725
0.97156863 0.47352941 0.31372549
0.98970588 0.49411765 0.32794118
0.0078431373 0.030882353 0.042095588
0.014215686 0.03214614 0.042670037
0.027282475 0.032490809 0.03872549
0.049509804 0.032904412 0.042348346
0.083272059 0.040012255 0.048529412
0.12609528 0.058946078 0.056487439
0.17840074 0.059574142 0.05625
0.2411152 0.065196078 0.066750919
0.30833333 0.070098039 0.069178922
0.37851562 0.075551471 0.07745098
0.44986213 0.083685662 0.090196078
0.51978401 0.10153952 0.10716912
0.58431373 0.1247549 0.12297794
0.6377451 0.16017923 0.14411765
0.68921569 0.18679534 0.16032475
0.7307981 0.21268382 0.17352941
0.76862745 0.2504902 0.19166667
0.80285692 0.28134957 0.20475643
0.83431373 0.31695772 0.2254136
0.86567862 0.34944853 0.24244792
0.89635417 0.38033088 0.25860907
0.92266391 0.41128217 0.27254902
0.94705882 0.44264706 0.29091605
0.97099418 0.47226562 0.30957414
0.98578431 0.49172794 0.32156863
0.010784314 0.056862745 0.060906863
0.016007966 0.055530025 0.054963235
0.025612745 0.05245098 0.049908088
0.042999387 0.055346201 0.051102941
0.083823529 0.066605392 0.056311275
0.13193934 0.077941176 0.058946078
0.18651961 0.085202206 0.064675245
0.2455576 0.090548407 0.062576593
0.31372549 0.099509804 0.068627451
0.38468137 0.10496324 0.078507966
0.45481005 0.11151961 0.088939951
0.52308517 0.13195466 0.10686275
0.5846201 0.14803922 0.12230392
0.63762255 0.17637868 0.13961397
0.68455882 0.20392157 0.15640319
0.7272212 0.23088235 0.17329963
0.76470588 0.26078431 0.1877451
0.80019914 0.28918505 0.20441176
0.83247549 0.32463235 0.22218137
0.86465993 0.35882353 0.24166667
