site/assets/luts/natron-haldclut--fuji-160c---c3201a506.cube
# LUTr-Project: LUTr — LUTrepository
# LUTr-Schema-Version: 1
# LUTr-ID: natron-haldclut--fuji-160c---c3201a506
# LUTr-Title: fuji 160c -
# LUTr-Collection: Natron HaldCLUT
# LUTr-Collection-ID: natron-haldclut-presets
# LUTr-Source: https://github.com/NatronGitHub/clut
# LUTr-Source-File: submissions/natron-haldclut-presets/negative_new/fuji_160c_-.png
# LUTr-Source-Format: PNG
# LUTr-Source-SHA256: dc94fec0dff369a1575f77fd8dd80a3f0e41e19da0d5c3a275e6d57eb322ecfa
# LUTr-License: CC-BY-SA-4.0
# LUTr-License-URL: https://github.com/NatronGitHub/clut#license
# LUTr-Tags: creative, film, film-emulation, hald-clut, natron, png, cube
# LUTr-Transform-Class: film-emulation
# LUTr-Input-Color-Space: srgb
# LUTr-Output-Color-Space: srgb
# LUTr-Color-Space-Confidence: assumed-display-referred
# LUTr-Conversion-Method: PNG LUT image decoded at 16-bit and sampled to 25x25x25 3D CUBE
# LUTr-Conversion-Date: 2026-07-27
# LUTr-Conversion-Tool: LUTr scripts/convert-all-to-cube.mjs
# LUTr-Conversion-Grid: 25x25x25
# LUTr-Note: Preserve this metadata and the upstream license notices when redistributing.
TITLE "fuji 160c -"
LUT_3D_SIZE 25
DOMAIN_MIN 0 0 0
DOMAIN_MAX 1 1 1
0 0 0
0.041176471 0.010294118 0.014215686
0.081372549 0.015686275 0.023529412
0.11617647 0.011764706 0.023529412
0.17058824 0.011764706 0.023529412
0.23431373 0.011764706 0.02745098
0.29313725 0.0078431373 0.031372549
0.35245098 0.0024509804 0.031372549
0.40784314 0 0.031372549
0.45931373 0.0024509804 0.02745098
0.51078431 0.0039215686 0.018627451
0.5622549 0.0039215686 0.012254902
0.60980392 0.0039215686 0.015686275
0.65686275 0.0039215686 0.019607843
0.70196078 0.0039215686 0.015686275
0.75098039 0.0024509804 0.011764706
0.78823529 0.0039215686 0.015686275
0.81666667 0.0039215686 0.023529412
0.85 0.0068627451 0.026470588
0.88480392 0.00049019608 0.016176471
0.90784314 0.068627451 0.033333333
0.93431373 0.14068627 0.04754902
0.95588235 0.20098039 0.057843137
0.96470588 0.21323529 0.066666667
0.96470588 0.21568627 0.070588235
0.010294118 0.043627451 0.011764706
0.035723039 0.045098039 0.030882353
0.075612745 0.049019608 0.040196078
0.11194853 0.049019608 0.028431373
0.17769608 0.048284314 0.02745098
0.23805147 0.038909314 0.030085784
0.29607843 0.025 0.031372549
0.35392157 0.0049019608 0.031372549
0.40784314 0 0.031372549
0.45931373 0.003370098 0.025
0.51139706 0.0039215686 0.016789216
0.56256127 0.0039215686 0.011764706
0.61102941 0.0039215686 0.014460784
0.65735294 0.0044117647 0.015686275
0.70196078 0.0045343137 0.015686275
0.74944853 0 0.0087622549
0.78823529 0 0.011764706
0.81911765 0 0.019607843
0.85 0.0073529412 0.024142157
0.88088235 0.052941176 0.033639706
0.90980392 0.092156863 0.038480392
0.93694853 0.1504902 0.04754902
0.95980392 0.20379902 0.055392157
0.96470588 0.21323529 0.063296569
0.96470588 0.21568627 0.066666667
0.015686275 0.087254902 0.019607843
0.03002451 0.086887255 0.036029412
0.059803922 0.090196078 0.043382353
0.098897059 0.093627451 0.024387255
0.17794118 0.094117647 0.029411765
0.24215686 0.085784314 0.032352941
0.29926471 0.06495098 0.033088235
0.35355392 0.040073529 0.031372549
0.40686275 0.024509804 0.02745098
0.45894608 0.01875 0.022916667
0.51568627 0.0036764706 0.01372549
0.56752451 0.0025735294 0.0068627451
0.61764706 0.0019607843 0.011764706
0.66078431 0.0055147059 0.015686275
0.70490196 0.015441176 0.012745098
0.74816176 0.010661765 0.0067401961
0.78823529 0.01372549 0.0078431373
0.81813725 0.027205882 0.015686275
0.84607843 0.047303922 0.025490196
0.87696078 0.099509804 0.04252451
0.90784314 0.13970588 0.047058824
0.94264706 0.17438725 0.047058824
0.96397059 0.20784314 0.049019608
0.96470588 0.21213235 0.055392157
0.96470588 0.21568627 0.057843137
0.015686275 0.13137255 0.019607843
0.01629902 0.13137255 0.020404412
0.031495098 0.13137255 0.023529412
0.083823529 0.13480392 0.016176471
0.16911765 0.13529412 0.029411765
0.24172794 0.13082108 0.035294118
0.29362745 0.11580882 0.032720588
0.34509804 0.1 0.030085784
0.39656863 0.086764706 0.024019608
0.45196078 0.066666667 0.017463235
0.5122549 0.041176471 0.0068627451
0.57015931 0.030882353 0.0034313725
0.61813725 0.029656863 0.01004902
0.66121324 0.041176471 0.015686275
0.70196078 0.061764706 0.015686275
0.74362745 0.068933824 0.013909314
0.78431373 0.075490196 0.0078431373
0.81519608 0.089705882 0.01439951
0.84522059 0.11323529 0.024509804
0.87352941 0.14460784 0.035232843
0.90784314 0.18431373 0.043382353
0.93878676 0.21519608 0.043137255
0.96409314 0.23541667 0.046936275
0.96844363 0.24117647 0.05245098
0.96813725 0.24509804 0.054901961
0.0078431373 0.17647059 0.01372549
0.0066176471 0.17328431 0.011764706
0.0068627451 0.16862745 0.0053921569
0.06495098 0.17426471 0.011029412
0.14607843 0.17941176 0.024509804
0.22107843 0.17843137 0.031372549
0.28284314 0.17352941 0.031372549
0.33553922 0.16323529 0.02745098
0.38823529 0.14901961 0.023529412
0.44485294 0.12965686 0.013235294
0.50539216 0.11666667 0.0073529412
0.56397059 0.11372549 0.0039215686
0.61372549 0.11568627 0.0098039216
0.65686275 0.11176471 0.015686275
0.69803922 0.12058824 0.017647059
0.73921569 0.12818627 0.012990196
0.78039216 0.13529412 0.0039215686
0.81323529 0.1504902 0.010294118
0.84215686 0.17254902 0.020588235
0.87303922 0.19681373 0.025490196
0.90392157 0.22941176 0.030392157
0.93455882 0.25171569 0.035784314
0.96029412 0.26911765 0.046078431
0.97720588 0.28235294 0.051715686
0.98235294 0.28627451 0.054901961
0.0039215686 0.22156863 0.015686275
0.0039215686 0.21942402 0.011948529
0.0040441176 0.2182598 0.0069852941
0.035416667 0.22205882 0.0078431373
0.11004902 0.22573529 0.021078431
0.18578431 0.22598039 0.027879902
0.25821078 0.22941176 0.030882353
0.32567402 0.225 0.025980392
0.38431373 0.21127451 0.019607843
0.43970588 0.2036152 0.013235294
0.5 0.19852941 0.0078431373
0.56176471 0.19215686 0.0039215686
0.61176471 0.19166667 0.0095588235
0.65637255 0.19074755 0.015196078
0.69791667 0.18468137 0.012622549
0.73921569 0.18872549 0.0076593137
0.77598039 0.19509804 0.0039215686
0.80716912 0.20520833 0.010294118
0.83823529 0.22303922 0.012622549
0.86911765 0.24025735 0.01127451
0.9 0.26470588 0.016911765
0.92696078 0.28480392 0.028370098
0.95477941 0.30245098 0.041666667
0.98333333 0.31844363 0.046752451
0.99264706 0.32745098 0.050980392
0.0039215686 0.26960784 0.015686275
0.0039215686 0.26960784 0.015073529
0.0071078431 0.27279412 0.010784314
0.022058824 0.27352941 0.0078431373
0.068627451 0.27352941 0.014705882
0.14203431 0.2745098 0.020588235
0.21960784 0.27745098 0.023529412
0.30098039 0.28137255 0.024509804
0.38039216 0.28039216 0.016666667
0.43970588 0.27193627 0.0099264706
0.5 0.26691176 0.0046568627
0.55882353 0.26115196 0.0039215686
0.60735294 0.25686275 0.0044117647
0.65 0.25637255 0.0088235294
0.69411765 0.25294118 0.0049019608
0.73590686 0.25294118 0.00098039216
0.76960784 0.25686275 0.0049019608
0.8004902 0.26323529 0.0084558824
0.83431373 0.2752451 0.0071078431
0.86617647 0.28872549 0.00049019608
0.89656863 0.3004902 0.006372549
0.92389706 0.31948529 0.018137255
0.95392157 0.3370098 0.028431373
0.98088235 0.35294118 0.037745098
0.99705882 0.36176471 0.044117647
0.0039215686 0.31715686 0.014215686
0.0039215686 0.32107843 0.010845588
0.0024509804 0.32205882 0.0057598039
0.011642157 0.325 0.0037377451
0.023529412 0.32230392 0.006372549
0.096262255 0.325 0.010784314
0.18345588 0.32892157 0.015318627
0.27248775 0.33339461 0.018137255
0.36176471 0.33823529 0.014215686
0.43768382 0.33670343 0.0053921569
0.49754902 0.3314951 0
0.54773284 0.32303922 0
0.59387255 0.31666667 0.0031862745
0.63841912 0.31292892 0.0037377451
0.68382353 0.30968137 0
0.72598039 0.30539216 0
0.76078431 0.30931373 0.0039215686
0.79411765 0.31568627 0.0078431373
0.825 0.32561275 0.0068627451
0.85588235 0.33137255 0.0053921569
0.88676471 0.34117647 0.0098039216
0.91783088 0.35588235 0.015686275
0.95245098 0.37144608 0.01752451
0.9838848 0.38627451 0.018504902
0.99215686 0.39117647 0.024509804
0.0039215686 0.36862745 0.011764706
0.0014705882 0.36862745 0.0093137255
0 0.37254902 0.0039215686
0.0034313725 0.37254902 0.0073529412
0.0039215686 0.37058824 0.0039215686
0.066666667 0.37647059 0.0078431373
0.15196078 0.38039216 0.010784314
0.24852941 0.38186275 0.013235294
0.34117647 0.38823529 0.011764706
0.42745098 0.39215686 0.0039215686
0.49019608 0.39117647 0
0.53480392 0.38088235 0
0.57843137 0.3745098 0
0.62598039 0.36862745 0
0.67058824 0.36470588 0
0.71568627 0.36078431 0
0.75294118 0.36078431 0.0039215686
0.78382353 0.36470588 0.0039215686
0.81470588 0.36960784 0.0078431373
0.84901961 0.37254902 0.0078431373
0.88039216 0.38039216 0.011764706
0.91127451 0.39656863 0.015686275
0.94215686 0.40980392 0.015686275
0.97696078 0.42107843 0.011764706
0.98823529 0.42352941 0.015686275
0 0.41372549 0.015686275
0 0.41372549 0.014767157
0 0.41372549 0.014828431
0.0034313725 0.41372549 0.018137255
0.00073529412 0.41691176 0.010784314
0.035294118 0.41783088 0.0065563725
0.13492647 0.42156863 0.010784314
0.23186275 0.42156863 0.011764706
0.3245098 0.42303922 0.0093137255
0.40441176 0.42696078 0.0078431373
0.46482843 0.42941176 0.0039215686
0.51813725 0.428125 0.0039215686
0.56887255 0.42794118 0
0.61519608 0.42401961 0
0.65968137 0.41715686 0
0.70147059 0.4122549 0
0.74264706 0.40833333 0
0.77352941 0.40980392 0.0039215686
0.80723039 0.41372549 0.006004902
0.83921569 0.41372549 0.0078431373
0.87009804 0.41960784 0.011764706
0.90098039 0.43382353 0.013235294
0.93541667 0.44411765 0.012132353
0.9661152 0.45196078 0.011764706
0.98823529 0.45833333 0.011764706
0 0.45882353 0.014705882
0 0.45882353 0.015686275
0 0.45490196 0.025490196
0 0.45845588 0.029289216
0.00049019608 0.45882353 0.033333333
0.026348039 0.45882353 0.025490196
0.11764706 0.45882353 0.018627451
0.21127451 0.45882353 0.0084558824
0.30392157 0.46176471 0.0029411765
0.37610294 0.46176471 0.0039215686
0.43529412 0.4627451 0.0078431373
0.49362745 0.46568627 0.0049019608
0.55245098 0.46911765 0.0039215686
0.6004902 0.46568627 0
0.64583333 0.4627451 0
0.69117647 0.45882353 0
0.72843137 0.45490196 0
0.76678922 0.45098039 0.0039215686
0.7997549 0.45392157 0.0041666667
0.83284314 0.45477941 0.0068627451
0.86372549 0.45980392 0.0078431373
0.89558824 0.46973039 0.010784314
0.93014706 0.47745098 0.0085784314
0.9627451 0.48676471 0.0068627451
0.98921569 0.49705882 0.0039215686
0 0.5 0.0083333333
0 0.49871324 0.016666667
0 0.5 0.032843137
0 0.49656863 0.049509804
0.0039215686 0.49607843 0.050245098
0.015686275 0.49607843 0.045588235
0.097058824 0.49607843 0.035294118
0.19411765 0.49656863 0.021384804
0.28676471 0.49656863 0.010294118
0.35245098 0.49656863 0.010784314
0.41470588 0.49276961 0.011397059
0.47254902 0.49656863 0.011335784
0.52867647 0.49852941 0.0039215686
0.57990196 0.49957108 0
0.63137255 0.50036765 0
0.68088235 0.5 0.0012867647
0.71813725 0.49607843 0.0039215686
0.75539216 0.49215686 0.0060661765
0.79166667 0.49215686 0.0077205882
0.82640931 0.49215686 0.0039215686
0.85735294 0.49803922 0.0041666667
0.89166667 0.50484069 0.0044117647
0.92561275 0.51470588 0.0040441176
0.9591299 0.52371324 0.0039215686
0.98872549 0.53186275 0
0 0.5372549 0.0078431373
0 0.53529412 0.024509804
0 0.53529412 0.03872549
0 0.53529412 0.050735294
0 0.53235294 0.054901961
0.0031862745 0.53112745 0.054656863
0.076470588 0.52941176 0.04754902
0.17867647 0.52941176 0.046323529
0.27647059 0.52745098 0.041176471
0.34485294 0.52745098 0.036029412
0.40294118 0.52745098 0.034313725
0.45833333 0.52745098 0.024019608
0.50784314 0.52941176 0.0088235294
0.55980392 0.53137255 0.0019607843
0.61470588 0.53284314 0.0058823529
0.66544118 0.53529412 0.0058823529
0.70392157 0.53333333 0.0078431373
0.74117647 0.53014706 0.0078431373
0.77843137 0.52941176 0.0078431373
0.81568627 0.53112745 0.006127451
0.85098039 0.53627451 0.0058823529
0.88186275 0.54362745 0.0080882353
0.91666667 0.55196078 0.0078431373
0.94754902 0.55882353 0.0071078431
0.97254902 0.5627451 0.0058823529
0 0.57401961 0.040686275
0 0.57058824 0.050490196
0 0.57009804 0.060784314
0 0.57009804 0.06807598
0 0.56617647 0.071813725
0.0015931373 0.5627451 0.072120098
0.071078431 0.5627451 0.07254902
0.17058824 0.5622549 0.072365196
0.26617647 0.5622549 0.072058824
0.33578431 0.55882353 0.063909314
0.39264706 0.55882353 0.054901961
0.44411765 0.55882353 0.041605392
0.49583333 0.5622549 0.031127451
0.54699755 0.5622549 0.028492647
0.59803922 0.5622549 0.022058824
0.64803922 0.56795343 0.011090686
0.69313725 0.57058824 0.0039215686
0.72824755 0.57058824 0.0078431373
0.76421569 0.57058824 0.011887255
0.80196078 0.57058824 0.012254902
0.84068627 0.5745098 0.012009804
0.8754902 0.58278186 0.011764706
0.90637255 0.58884804 0.0088235294
0.9372549 0.59362745 0.011764706
0.96029412 0.59362745 0.011764706
0.0039215686 0.60882353 0.071568627
0.0011029412 0.6060049 0.076102941
0 0.60318627 0.085294118
0 0.60098039 0.094730392
0 0.59705882 0.10098039
0.014093137 0.6 0.10686275
0.10196078 0.59705882 0.10906863
0.19019608 0.59313725 0.10686275
0.2627451 0.59313725 0.099019608
0.32303922 0.59313725 0.092647059
0.38014706 0.59313725 0.082352941
0.43382353 0.59313725 0.072058824
0.48921569 0.59313725 0.065196078
0.53627451 0.59313725 0.06372549
0.58210784 0.59313725 0.056862745
0.62892157 0.59914216 0.040196078
0.67647059 0.60588235 0.018627451
0.71482843 0.60821078 0.017647059
0.75294118 0.60784314 0.021568627
0.79117647 0.60882353 0.021568627
0.82892157 0.61372549 0.015686275
0.86556373 0.61973039 0.011397059
0.9 0.62647059 0.0078431373
0.93026961 0.62843137 0.011764706
0.95686275 0.62843137 0.011764706
0.0039215686 0.64362745 0.10098039
0.0039215686 0.64025735 0.10189951
0.0014705882 0.63909314 0.10772059
0.00018382353 0.63578431 0.11127451
0 0.63259804 0.11642157
0.016176471 0.63186275 0.12205882
0.11752451 0.63186275 0.13345588
0.1995098 0.62794118 0.13235294
0.25735294 0.62794118 0.12598039
0.31366422 0.62794118 0.11960784
0.36911765 0.62732843 0.11323529
0.42352941 0.6254902 0.10294118
0.47647059 0.62401961 0.096568627
0.52254902 0.62401961 0.099019608
0.56715686 0.62401961 0.10061275
0.61525735 0.62886029 0.085294118
0.65980392 0.63186275 0.064705882
0.69944853 0.63578431 0.054411765
0.73823529 0.63970588 0.048651961
0.77696078 0.64362745 0.040196078
0.81813725 0.65147059 0.027696078
0.85539216 0.65716912 0.012561275
0.89117647 0.66078431 0.006372549
0.92745098 0.66378676 0.011213235
0.96078431 0.66715686 0.0078431373
0.0039215686 0.6745098 0.1254902
0.0039215686 0.6745098 0.1254902
0.0039215686 0.67058824 0.1254902
0.0039215686 0.67058824 0.1254902
0.0039215686 0.66666667 0.1254902
0.011764706 0.6627451 0.12598039
0.10098039 0.6627451 0.13627451
0.18431373 0.6627451 0.14901961
0.25490196 0.6627451 0.14901961
0.30882353 0.66029412 0.14509804
0.36176471 0.65882353 0.14019608
0.41715686 0.65882353 0.12990196
0.46862745 0.65882353 0.1254902
0.51568627 0.65490196 0.12598039
0.55980392 0.65490196 0.13333333
0.60196078 0.65882353 0.12401961
0.64313725 0.6627451 0.10980392
0.68431373 0.66519608 0.095588235
0.7254902 0.66764706 0.085294118
0.76666667 0.67401961 0.075
0.80588235 0.68235294 0.054901961
0.84509804 0.69019608 0.034313725
0.88627451 0.69411765 0.023529412
0.92745098 0.6995098 0.024509804
0.96862745 0.70588235 0.0039215686
0.0039215686 0.70539216 0.15
0.0054534314 0.70539216 0.14699755
0.0039215686 0.70441176 0.14607843
0.0017769608 0.70147059 0.14215686
0.0053921569 0.69754902 0.14215686
0.029901961 0.69607843 0.14246324
0.097794118 0.69754902 0.15147059
0.1716299 0.69754902 0.15931373
0.24705882 0.69607843 0.16715686
0.30637255 0.69362745 0.16568627
0.35931373 0.69362745 0.16078431
0.41323529 0.69234069 0.15441176
0.46470588 0.68970588 0.14926471
0.51176471 0.68970588 0.15
0.55110294 0.68970588 0.15036765
0.59166667 0.69215686 0.14699755
0.63284314 0.69215686 0.14215686
0.67401961 0.69362745 0.12794118
0.71519608 0.69791667 0.11617647
0.75637255 0.70490196 0.10588235
0.79754902 0.71127451 0.089705882
0.84117647 0.71764706 0.072058824
0.88235294 0.72401961 0.068627451
0.91623775 0.72892157 0.069607843
0.93529412 0.73039216 0.075980392
0.0039215686 0.73627451 0.17058824
0.0039215686 0.73627451 0.16666667
0.0071078431 0.73627451 0.16666667
0.0040441176 0.73235294 0.1627451
0.0039215686 0.72843137 0.15735294
0.06127451 0.72843137 0.16715686
0.12941176 0.72843137 0.17745098
0.18823529 0.72843137 0.18272059
0.24901961 0.72843137 0.18333333
0.30526961 0.72843137 0.18235294
0.36176471 0.7252451 0.17843137
0.41323529 0.7245098 0.17585784
0.46470588 0.7245098 0.17009804
0.50772059 0.7245098 0.17058824
0.54509804 0.7254902 0.17132353
0.58296569 0.72843137 0.17083333
0.62352941 0.72843137 0.16372549
0.66654412 0.7254902 0.15343137
0.70882353 0.72867647 0.14705882
0.75 0.73578431 0.13676471
0.79166667 0.74215686 0.125
0.83627451 0.74852941 0.11372549
0.87745098 0.75490196 0.11470588
0.91862745 0.76519608 0.12193627
0.95098039 0.77352941 0.12647059
0.0039215686 0.76715686 0.1872549
0.0017769608 0.76715686 0.1872549
0.0013480392 0.76715686 0.1872549
0.013848039 0.76672794 0.18333333
0.059558824 0.76323529 0.18504902
0.10594363 0.76231618 0.19509804
0.16470588 0.75931373 0.20539216
0.225 0.75931373 0.21176471
0.27696078 0.75931373 0.21078431
0.32205882 0.75931373 0.20655637
0.36862745 0.75833333 0.19803922
0.41715686 0.75539216 0.19209559
0.46470588 0.75710784 0.20318627
0.50392157 0.7588848 0.19509804
0.54117647 0.75931373 0.20147059
0.58235294 0.7627451 0.20177696
0.62352941 0.7627451 0.19117647
0.66470588 0.7627451 0.18431373
0.70245098 0.76409314 0.1814951
0.74362745 0.77009804 0.17457108
0.78651961 0.7747549 0.16127451
0.82990196 0.77941176 0.15490196
0.87107843 0.78578431 0.16139706
0.90704657 0.79264706 0.16636029
0.93088235 0.7995098 0.17058824
0.015686275 0.80392157 0.21568627
0.010539216 0.80392157 0.2125
0.0093137255 0.8 0.20980392
0.066911765 0.80367647 0.20784314
0.12352941 0.80196078 0.21372549
0.16666667 0.79607843 0.22401961
0.20980392 0.79264706 0.23431373
0.2629902 0.79019608 0.24264706
0.30980392 0.79019608 0.24117647
0.34705882 0.79019608 0.23480392
0.38872549 0.79068627 0.2254902
0.43137255 0.79215686 0.21985294
0.46764706 0.79215686 0.22156863
0.50392157 0.79411765 0.22941176
0.54509804 0.79607843 0.22941176
0.58627451 0.8 0.22401961
0.6254902 0.8 0.21568627
0.6622549 0.8 0.21372549
0.70147059 0.80196078 0.21127451
0.73921569 0.80563725 0.20637255
0.78039216 0.80882353 0.2
0.82303922 0.81372549 0.19852941
0.85931373 0.81715686 0.2122549
0.90318627 0.82892157 0.20710784
0.93137255 0.8372549 0.20784314
0.045588235 0.84509804 0.24901961
0.05245098 0.84509804 0.24901961
0.083333333 0.84117647 0.24411765
0.1338848 0.84117647 0.24068627
0.16813725 0.84117647 0.24264706
0.20643382 0.83682598 0.25294118
0.2442402 0.83333333 0.26323529
0.28529412 0.83333333 0.27205882
0.32647059 0.82990196 0.27205882
0.36501225 0.82941176 0.26599265
0.40441176 0.82941176 0.26078431
0.44166667 0.83241422 0.26078431
0.4747549 0.83333333 0.2629902
0.51133578 0.83333333 0.26029412
0.5495098 0.83333333 0.25343137
0.59068627 0.8372549 0.24656863
0.62745098 0.8372549 0.24460784
0.66256127 0.8372549 0.24460784
0.70098039 0.83811275 0.24117647
0.73921569 0.8411152 0.24117647
0.77647059 0.84681373 0.23946078
0.81764706 0.84944853 0.24209559
0.85845588 0.85294118 0.25232843
0.90343137 0.86746324 0.24901961
0.93970588 0.87941176 0.2495098
0.1 0.88627451 0.2872549
0.1185049 0.88627451 0.28664216
0.15098039 0.88235294 0.28161765
0.1754902 0.88235294 0.27843137
0.19901961 0.88235294 0.27892157
0.23125 0.8810049 0.28382353
0.26568627 0.87843137 0.29411765
0.30588235 0.87843137 0.30294118
0.34313725 0.87745098 0.30294118
0.3807598 0.87389706 0.30257353
0.41764706 0.87058824 0.30196078
0.44852941 0.87401961 0.30196078
0.48333333 0.87598039 0.30735294
0.51862745 0.8745098 0.30147059
0.55686275 0.87230392 0.28823529
0.59411765 0.8682598 0.27732843
0.63137255 0.87156863 0.27843137
0.66470588 0.8745098 0.28235294
0.70196078 0.8747549 0.28235294
0.73958333 0.87806373 0.28235294
0.77647059 0.88431373 0.2872549
0.81372549 0.89019608 0.2935049
0.85490196 0.89411765 0.3
0.89375 0.90294118 0.29852941
0.92254902 0.90686275 0.30490196
0.16176471 0.92990196 0.32598039
0.17303922 0.92745098 0.32598039
0.1939951 0.92352941 0.32144608
0.21127451 0.92352941 0.32089461
0.23455882 0.92352941 0.32352941
0.26078431 0.92371324 0.32352941
0.29019608 0.925 0.32708333
0.32647059 0.925 0.33382353
0.3622549 0.91960784 0.33382353
0.39613971 0.91476716 0.33474265
0.42794118 0.91176471 0.33982843
0.45882353 0.91519608 0.34313725
0.49362745 0.91960784 0.34901961
0.52696078 0.91519608 0.34246324
0.56115196 0.90232843 0.32401961
0.59319853 0.89215686 0.31323529
0.63137255 0.90245098 0.32107843
0.66709559 0.909375 0.32444853
0.70306373 0.91176471 0.32745098
0.73970588 0.91568627 0.33020833
0.77843137 0.9254902 0.33872549
0.81372549 0.93186275 0.34852941
0.85379902 0.93529412 0.35183824
0.89068627 0.93921569 0.35392157
0.91911765 0.94313725 0.36029412
0.20784314 0.96078431 0.35294118
0.21176471 0.96078431 0.35294118
0.22156863 0.95686275 0.35294118
0.23823529 0.96078431 0.35686275
0.2627451 0.95882353 0.35686275
0.2872549 0.96078431 0.35686275
0.31470588 0.96372549 0.35980392
0.34558824 0.96960784 0.36323529
0.37254902 0.95294118 0.36078431
0.40343137 0.94656863 0.36323529
0.43823529 0.94509804 0.36960784
0.46911765 0.94852941 0.37598039
0.5 0.95490196 0.38235294
0.53088235 0.94754902 0.3754902
0.56176471 0.92647059 0.35490196
0.59656863 0.92303922 0.35441176
0.63137255 0.9372549 0.36470588
0.67009804 0.94117647 0.36470588
0.70588235 0.94509804 0.36862745
0.73970588 0.94901961 0.37254902
0.77647059 0.95882353 0.38235294
0.81715686 0.96911765 0.39264706
0.85196078 0.96960784 0.39607843
0.88823529 0.97401961 0.40147059
0.92941176 0.98431373 0.41568627
0.026960784 0.014215686 0.034803922
0.046017157 0.015134804 0.037806373
0.082352941 0.017769608 0.039828431
0.11960784 0.011397059 0.035294118
0.17181373 0.010294118 0.034068627
0.23431373 0.014215686 0.03872549
0.29497549 0.010906863 0.039828431
0.3533701 0.0054534314 0.037745098
0.40784314 0 0.037745098
0.45931373 0.0024509804 0.044178922
0.51078431 0.0039215686 0.045465686
0.5622549 0.0039215686 0.041666667
0.60980392 0.006372549 0.031372549
0.65735294 0.006372549 0.033823529
0.70196078 0.0078431373 0.043014706
0.74460784 0.0054534314 0.046017157
0.78578431 0.0014705882 0.052941176
0.81666667 0.006372549 0.056862745
0.84644608 0.024019608 0.058946078
0.87843137 0.043933824 0.062928922
0.90588235 0.087009804 0.066666667
0.93088235 0.14969363 0.076960784
0.95526961 0.20735294 0.087254902
0.965625 0.22444853 0.098468137
0.97107843 0.23235294 0.10784314
0.029963235 0.045098039 0.03872549
0.044140625 0.046361826 0.04810049
0.078890931 0.04643076 0.051593137
0.11936275 0.048468137 0.03939951
0.17800245 0.048284314 0.03526348
0.23816636 0.041666667 0.03872549
0.29669118 0.025842525 0.039047181
0.35487898 0.0067784926 0.034397978
0.41029412 0 0.034742647
0.45931373 0.003370098 0.041176471
0.51277574 0.0050704657 0.045098039
0.56256127 0.0054534314 0.039905025
0.61344975 0.0051470588 0.030606618
0.65998009 0.0067478554 0.033823529
0.70196078 0.011213235 0.041865809
0.74671415 0.0088235294 0.045098039
0.78431373 0.0088235294 0.049019608
0.816322 0.0094362745 0.050283395
0.84607843 0.031219363 0.055392157
0.87696078 0.070281863 0.066781556
0.90784314 0.10882353 0.0703125
0.93468903 0.16212469 0.076960784
0.95721507 0.21081495 0.087254902
0.9658318 0.22506127 0.095672488
0.96770833 0.22689951 0.09754902
0.032352941 0.08627451 0.043014706
0.038802083 0.084053309 0.050796569
0.066605392 0.086917892 0.054411765
0.11761642 0.09051777 0.040640319
0.17965686 0.092340686 0.03504902
0.24166667 0.085646446 0.037132353
0.29926471 0.066145833 0.037745098
0.35539216 0.040303309 0.033134191
0.40747549 0.025490196 0.032352941
0.45931373 0.023299632 0.038036152
0.51495098 0.014889706 0.040716912
0.56752451 0.0096047794 0.037132353
0.61844363 0.0030637255 0.026960784
0.66168811 0.0089460784 0.029901961
0.70343137 0.025398284 0.040196078
0.74705882 0.032352941 0.043014706
0.78431373 0.043627451 0.045098039
0.81519608 0.047472426 0.047457108
