site/assets/luts/natron-haldclut--fuji3510-constlclip--1f86a142b.cube
# LUTr-Project: LUTr — LUTrepository
# LUTr-Schema-Version: 1
# LUTr-ID: natron-haldclut--fuji3510-constlclip--1f86a142b
# LUTr-Title: fuji3510 constlclip
# LUTr-Collection: Natron HaldCLUT
# LUTr-Collection-ID: natron-haldclut-presets
# LUTr-Source: https://github.com/NatronGitHub/clut
# LUTr-Source-File: submissions/natron-haldclut-presets/print/fuji3510_constlclip.png
# LUTr-Source-Format: PNG
# LUTr-Source-SHA256: 0227bff18941b40052cc2f471fdf586daf2f0eb4d4471497fd98c3b2430dd35b
# LUTr-License: CC-BY-SA-4.0
# LUTr-License-URL: https://github.com/NatronGitHub/clut#license
# LUTr-Tags: creative, film, film-emulation, hald-clut, natron, png, cube
# LUTr-Transform-Class: film-emulation
# LUTr-Input-Color-Space: srgb
# LUTr-Output-Color-Space: srgb
# LUTr-Color-Space-Confidence: assumed-display-referred
# LUTr-Conversion-Method: PNG LUT image decoded at 16-bit and sampled to 25x25x25 3D CUBE
# LUTr-Conversion-Date: 2026-07-27
# LUTr-Conversion-Tool: LUTr scripts/convert-all-to-cube.mjs
# LUTr-Conversion-Grid: 25x25x25
# LUTr-Note: Preserve this metadata and the upstream license notices when redistributing.
TITLE "fuji3510 constlclip"
LUT_3D_SIZE 9
DOMAIN_MIN 0 0 0
DOMAIN_MAX 1 1 1
0.0078431373 0.0039215686 0.0039215686
0.026960784 0.023039216 0.015686275
0.073529412 0.035294118 0.019607843
0.16666667 0.043137255 0.0093137255
0.32156863 0.07254902 0
0.39803922 0.072058824 0.0014705882
0.47941176 0.093137255 0.019607843
0.52254902 0.094607843 0.011764706
0.52941176 0.098039216 0.011764706
0.023039216 0.042647059 0.026960784
0.030882353 0.04564951 0.026960784
0.083823529 0.058210784 0.030882353
0.20373775 0.079901961 0.021078431
0.34803922 0.095343137 0.0022058824
0.4622549 0.11292892 0.0058823529
0.5189951 0.125 0.027328431
0.5716299 0.13327206 0.015686275
0.59117647 0.14411765 0.023529412
0.012745098 0.096078431 0.053921569
0.00098039216 0.096078431 0.046078431
0.078676471 0.11862745 0.047058824
0.23627451 0.14068627 0.01752451
0.40784314 0.16519608 0.0039215686
0.51433824 0.18284314 0.013602941
0.59901961 0.19705882 0.023284314
0.62585784 0.20147059 0.012745098
0.64803922 0.21666667 0.020588235
0.0078431373 0.1745098 0.091176471
0.0078431373 0.18118873 0.087254902
0.03872549 0.2067402 0.058333333
0.26960784 0.25 0.0087622549
0.44632353 0.28382353 0.0058823529
0.57702206 0.30245098 0.016605392
0.65747549 0.30845588 0.010294118
0.69834559 0.32254902 0.022242647
0.70931373 0.32990196 0.025980392
0.015686275 0.27254902 0.13137255
0.019607843 0.2877451 0.13137255
0.021078431 0.32352941 0.095588235
0.23848039 0.3872549 0.0039215686
0.48333333 0.43431373 0.01372549
0.63602941 0.45245098 0.023529412
0.73333333 0.46862745 0.017156863
0.76936275 0.47647059 0.016666667
0.78431373 0.49215686 0.033333333
0.018137255 0.36764706 0.16617647
0.011764706 0.3846201 0.16617647
0.0039215686 0.42806373 0.13676471
0.26323529 0.51856618 0.0078431373
0.53284314 0.5745098 0.0066176471
0.69117647 0.60735294 0.011764706
0.79448529 0.6247549 0.023161765
0.83529412 0.63792892 0.0037377451
0.85392157 0.65686275 0.0029411765
0.044117647 0.4254902 0.18921569
0.01127451 0.44767157 0.18431373
0.016666667 0.5 0.15098039
0.31740196 0.59754902 0.0028186275
0.56176471 0.66078431 0.018137255
0.7372549 0.71323529 0.0039215686
0.86593137 0.75073529 0.054656863
0.89154412 0.7435049 0.051960784
0.89901961 0.74705882 0.055882353
0.015686275 0.45245098 0.19656863
0.030392157 0.48976716 0.19264706
0.011764706 0.53676471 0.13982843
0.34185049 0.64313725 0.023039216
0.6002451 0.7120098 0.023529412
0.79117647 0.77107843 0.028247549
0.8817402 0.78615196 0.064093137
0.91960784 0.7966299 0.070588235
0.94607843 0.80441176 0.066176471
0 0.51764706 0.25882353
0.052941176 0.57058824 0.19705882
0.088235294 0.6372549 0.026470588
0.40392157 0.69509804 0.0024509804
0.64117647 0.75490196 0.017647059
0.81372549 0.78970588 0.047058824
0.9127451 0.8127451 0.075490196
0.96911765 0.82794118 0.068627451
0.98039216 0.83137255 0.098039216
0.011764706 0.011764706 0.023039216
0.030882353 0.027022059 0.030882353
0.07254902 0.037867647 0.034803922
0.1846201 0.047058824 0.024509804
0.33088235 0.044362745 0
0.43082108 0.075 0.015686275
0.51764706 0.064705882 0.012132353
0.54944853 0.075490196 0.0039215686
0.58382353 0.080392157 0.015686275
0.011764706 0.050490196 0.035232843
0.028255208 0.049134498 0.034313725
0.076148897 0.058318015 0.042647059
0.22089461 0.080085784 0.038419118
0.37276348 0.084068627 0.0095894608
0.49246324 0.084168199 0.00049019608
0.57538297 0.094730392 0.012086397
0.60589001 0.10775123 0.012630208
0.625 0.10343137 0.012683824
0.0078431373 0.1064951 0.061642157
0.0047947304 0.10392157 0.06127451
0.08627451 0.11917892 0.058976716
0.2569087 0.14558824 0.040058211
0.42003676 0.16176471 0.012683824
0.55418199 0.17317708 0.0082107843
0.62974877 0.19641544 0.01473652
0.67071078 0.19276961 0.0075214461
0.68982843 0.22058824 0.0091911765
0.0039215686 0.19117647 0.10637255
0.0064338235 0.19160539 0.1021829
0.04442402 0.22179841 0.066666667
0.28970588 0.26245404 0.021277574
0.47981005 0.29249387 0.0088235294
0.62511489 0.30821844 0.0088158701
0.70445772 0.3251685 0.012622549
0.74148284 0.33731618 0.016605392
0.76078431 0.34166667 0.0098039216
0.011519608 0.28970588 0.1502451
0.0046262255 0.29972426 0.14684436
0.0056372549 0.34050245 0.099019608
0.26911765 0.40318627 0.0019607843
0.52083333 0.4497549 0.0069852941
0.68480392 0.47941176 0.0065563725
0.77916667 0.49068627 0.0039215686
0.81819853 0.49929534 0.019669118
0.83627451 0.51372549 0.021568627
0.041360294 0.3908701 0.18921569
0.011948529 0.41066176 0.18878676
0.0051317402 0.4542739 0.15499387
0.31103707 0.55068934 0.0027420343
0.56715686 0.60539216 0.012254902
0.74772518 0.64558824 0.0027573529
0.84705882 0.66176471 0.025628064
0.88872549 0.67587316 0.029496017
0.90177696 0.68529412 0.012622549
0.014215686 0.45159314 0.21960784
0.0038602941 0.46666667 0.21568627
0.016390931 0.52362132 0.17977941
0.32227328 0.63331801 0.0030790441
0.59852941 0.70202206 0.0045955882
0.78935355 0.74362745 0.028385417
0.90248162 0.77316176 0.070098039
0.93394608 0.77794118 0.07120098
0.95036765 0.78272059 0.051102941
0.02745098 0.47886029 0.25349265
0.023529412 0.51243107 0.25134804
0.029779412 0.57800245 0.1817402
0.33233762 0.68186275 0.0066176471
0.62153799 0.74880515 0.018382353
0.81568627 0.79019608 0.044937194
0.92696078 0.8157935 0.078890931
0.96514246 0.82401961 0.086029412
0.97647059 0.83088235 0.1057598
0.020098039 0.52843137 0.31470588
0.047732843 0.57199755 0.30441176
0.0051470588 0.67352941 0.25870098
0.39993873 0.74981618 0.1783701
0.66029412 0.80220588 0.14803922
0.85998775 0.8408701 0.00030637255
0.98186275 0.85992647 0.0015931373
0.99859069 0.86482843 0.15232843
0.9995098 0.86519608 0.26715686
0.011764706 0.02745098 0.080392157
0.029901961 0.03504902 0.085539216
0.080392157 0.038235294 0.087254902
0.2004902 0.039215686 0.084313725
0.36127451 0.0039215686 0.077941176
0.49938725 0.0078431373 0.067769608
0.55539216 0.014705882 0.069852941
0.60588235 0.010784314 0.075
0.61176471 0.0078431373 0.082352941
0.015686275 0.054411765 0.088235294
0.030882353 0.058318015 0.095802696
0.089154412 0.071905637 0.10628064
0.23762255 0.077956495 0.10540748
0.40851716 0.048406863 0.084313725
0.54987745 0.0096813725 0.071706495
0.62990196 0.0092218137 0.070098039
0.66744792 0.020787377 0.069623162
0.69252451 0.0044117647 0.06875
0.0078431373 0.11789216 0.11862745
0.012959559 0.11761642 0.11862745
0.085355392 0.13351716 0.1254902
0.27803309 0.16124387 0.12487745
0.4622549 0.15686275 0.1002451
0.61746324 0.13115809 0.078186275
0.709375 0.1158701 0.054411765
0.75523897 0.11136642 0.0421875
0.77720588 0.12671569 0.061029412
0.0078431373 0.20539216 0.15992647
0.010416667 0.20686275 0.16029412
0.023560049 0.2416973 0.15235907
0.29321385 0.28423713 0.13676471
0.52457108 0.31127451 0.11372549
0.69209559 0.31997549 0.073943015
0.79077819 0.31295956 0.023223039
0.83235294 0.31657475 0.020833333
0.85294118 0.33125 0.017156863
0.0058823529 0.32401961 0.21470588
0.011580882 0.33014706 0.21323529
0.021813725 0.36838235 0.19644608
0.29491422 0.44767157 0.12383578
0.56985294 0.48186275 0.081862745
0.76317402 0.50974265 0.032965686
0.86348039 0.51090686 0.031004902
0.90992647 0.51593137 0.00024509804
0.92107843 0.53823529 0.029411765
0.025980392 0.42696078 0.26629902
0.020588235 0.43860294 0.26207108
0.019883578 0.49068627 0.24356618
0.25819547 0.60219056 0.12507659
0.60790441 0.66936275 0.0058210784
0.81654412 0.68872549 0.0055300245
0.92426471 0.7104473 0.021292892
0.96907169 0.71488971 0.0056372549
0.98137255 0.72977941 0.011764706
0.025245098 0.47843137 0.3
0.0125 0.49856005 0.30318627
0.045833333 0.55563725 0.29436275
0.25076593 0.68121936 0.16375613
0.62218137 0.7622549 0.0058823529
0.85245098 0.80330882 0.00098039216
0.96709559 0.81887255 0.0048406863
0.99690564 0.82671569 0.019025735
0.99803922 0.83039216 0.11372549
0.0039215686 0.51715686 0.34705882
0.033180147 0.53731618 0.34744179
0.022273284 0.60793505 0.34249387
0.23690257 0.7212163 0.24443934
0.62591912 0.7995098 0.1620098
0.85929841 0.84276961 0.11481311
0.98688725 0.86151961 0.010753676
1 0.86300551 0.16216299
1 0.86237745 0.24056373
0.033333333 0.5754902 0.43235294
0.014828431 0.60931373 0.42683824
0.0029411765 0.69313725 0.43431373
0.33504902 0.77205882 0.36029412
0.64166667 0.82892157 0.33235294
0.8504902 0.8692402 0.32291667
0.9754902 0.88676471 0.30563725
1 0.89264706 0.40159314
1 0.89313725 0.43529412
0.0053921569 0.049509804 0.17205882
0.026960784 0.020404412 0.18431373
0.084436275 0.016176471 0.19558824
0.225 0.027389706 0.21078431
0.38602941 0.0031862745 0.21617647
0.50098039 0.018137255 0.2122549
0.5877451 0.0084558824 0.2245098
0.61421569 0.035294118 0.22616422
0.63137255 0.019607843 0.23186275
0.0078431373 0.087745098 0.18382353
0.0081112132 0.067807904 0.20566023
0.077895221 0.066053922 0.2269761
0.24882047 0.080890012 0.24313725
0.42981005 0.038327206 0.24224877
0.57352941 0.0075520833 0.2417356
0.6553462 0.0039215686 0.24563419
0.69558824 0.018443627 0.2473652
0.71207108 0.0080269608 0.25735294
0.0078431373 0.14987745 0.21237745
0.0089460784 0.14581801 0.22789522
0.034129902 0.14653799 0.26436887
0.2745098 0.17781863 0.28408395
0.48780637 0.17824755 0.29093137
0.64669118 0.15003064 0.28284314
0.73125 0.11262255 0.26568627
0.77683824 0.11499694 0.27529105
0.7935049 0.13210784 0.29007353
0.012683824 0.24754902 0.26960784
0.0039215686 0.24429381 0.27199755
0.0080116422 0.26732537 0.29761029
0.2803079 0.31407016 0.32849265
0.53259804 0.34221814 0.32184436
0.71366422 0.34810049 0.31266085
0.81193321 0.32806373 0.30372243
0.85098039 0.33382353 0.3004902
0.86764706 0.3622549 0.31519608
0.006372549 0.35784314 0.32598039
0.0078431373 0.37089461 0.33511029
0.0099877451 0.41470588 0.35778186
0.22325368 0.48458946 0.35863971
0.56544118 0.53443627 0.3495098
0.77552083 0.54561887 0.33308824
0.8877451 0.53780637 0.33737745
0.92598039 0.56191789 0.33063725
0.94191176 0.57818627 0.34313725
0.010294118 0.4745098 0.39313725
0.019607843 0.48633578 0.39521293
0.022166054 0.53676471 0.41167279
0.1917739 0.66533395 0.39780178
0.59512868 0.71636029 0.3778799
0.82598039 0.73979013 0.36865043
0.94276961 0.74914216 0.34901961
0.98363971 0.75815717 0.34210325
0.99117647 0.76666667 0.35147059
0.019730392 0.53137255 0.42708333
0.010217525 0.54689032 0.43627451
0.0092218137 0.61194853 0.45490196
0.096246936 0.74082414 0.43230699
0.59411765 0.80514706 0.41029412
0.85477941 0.8504136 0.38855699
0.97322304 0.86047794 0.3932598
1 0.86560968 0.39938725
1 0.86715686 0.42169118
0 0.55802696 0.47696078
0.012254902 0.59356618 0.496875
0.020588235 0.66176471 0.50968137
0.17188266 0.78724724 0.51199449
0.59387255 0.84206495 0.49093137
0.84558824 0.88284314 0.45945159
0.97267157 0.90098039 0.44578738
1 0.90490196 0.49623928
1 0.90343137 0.53088235
0.0039215686 0.60882353 0.54705882
0.014705882 0.65686275 0.57040441
0.010661765 0.72487745 0.59301471
0.24957108 0.81072304 0.58995098
0.61519608 0.86593137 0.5754902
0.84319853 0.90196078 0.56121324
0.96875 0.92401961 0.57095588
1 0.92873775 0.59963235
1 0.92303922 0.62843137
0.0078431373 0.10980392 0.26078431
0.0019607843 0.090686275 0.26078431
0.085294118 0.0078431373 0.33676471
0.22254902 0 0.33970588
0.38431373 0.0029411765 0.35
0.51421569 0.031372549 0.35686275
0.6004902 0.028921569 0.36568627
0.63946078 0.02745098 0.37843137
0.67843137 0.0058823529 0.39607843
0.0078431373 0.13259804 0.26617647
0.0061580882 0.10928309 0.29926471
0.073651961 0.037928922 0.36495098
0.25906863 0.039307598 0.39632353
0.44338235 0.029411765 0.40526961
0.58422181 0.019301471 0.41102941
0.67322304 0.0046568627 0.41341912
0.70882353 0.0083026961 0.4169424
0.72230392 0.0017156863 0.42843137
0.0039215686 0.18823529 0.31764706
0.0025735294 0.19166667 0.33872549
0.049877451 0.17647059 0.39264706
0.27058824 0.18308824 0.45134804
0.48921569 0.18088235 0.46470588
0.65116422 0.14632353 0.46470588
0.74754902 0.11911765 0.46470588
0.78645833 0.11501225 0.47604167
0.80343137 0.14656863 0.48284314
0 0.28382353 0.38210784
0.010294118 0.29166667 0.39656863
0.0125 0.30735294 0.44203431
0.25502451 0.3375 0.51397059
0.52598039 0.36004902 0.52573529
0.71541054 0.36124387 0.52331495
0.81109069 0.36011029 0.5252451
0.85628064 0.35863971 0.52735907
0.86691176 0.36862745 0.53235294
0.0078431373 0.40784314 0.45490196
0.0078431373 0.40955882 0.45686275
0.019117647 0.46691176 0.50686275
0.20894608 0.53063725 0.56262255
0.55490196 0.56764706 0.57843137
0.77598039 0.58823529 0.58039216
0.88406863 0.59019608 0.57720588
0.9254902 0.59436275 0.57855392
0.94117647 0.60588235 0.58333333
0.0098039216 0.51862745 0.51519608
0.012561275 0.53465074 0.52803309
0.0085784314 0.59485294 0.56421569
0.096292892 0.70340074 0.61372549
0.55845588 0.75245098 0.61519608
0.82359069 0.78893995 0.61427696
0.93884804 0.79332108 0.60808824
0.97843137 0.79886642 0.61608456
0.98823529 0.80539216 0.62303922
0.0078431373 0.57401961 0.55784314
0.0080269608 0.59699755 0.5754902
0.011764706 0.6622549 0.61139706
0.11844363 0.78314951 0.65851716
0.56495098 0.85098039 0.65343137
0.82113971 0.88204657 0.65545343
0.96519608 0.89938725 0.6504902
0.99264706 0.90196078 0.65949755
1 0.90588235 0.66960784
0 0.60857843 0.60294118
0 0.6377451 0.6208027
0.011090686 0.7057598 0.65784314
0.083915441 0.81078431 0.70637255
0.5560049 0.88063725 0.70723039
0.83275123 0.92147672 0.709375
0.95569853 0.93578431 0.70294118
0.99849877 0.94362745 0.71740196
1 0.94313725 0.73259804
0 0.64509804 0.65294118
0 0.69730392 0.68970588
0.0058823529 0.75882353 0.72745098
0.10857843 0.84485294 0.75980392
0.58235294 0.89803922 0.77156863
0.82647059 0.93480392 0.76593137
0.9495098 0.95490196 0.77009804
0.99607843 0.96053922 0.77671569
1 0.95686275 0.80392157
0.0078431373 0.14117647 0.30196078
0.00018382353 0.13529412 0.31011029
0.078431373 0 0.42598039
0.22702206 0 0.45055147
0.40563725 0.020588235 0.48063725
0.55214461 0.015134804 0.49969363
0.60637255 0.034068627 0.48186275
0.64852941 0.037071078 0.49577206
0.66029412 0.045588235 0.49852941
0.0039215686 0.17696078 0.34313725
0.0017769608 0.17349112 0.3622549
0.072717525 0.017999387 0.48655025
0.26508119 0.014705882 0.52707567
0.45294118 0.0017769608 0.54837623
0.60060509 0.0040364583 0.54852175
0.68223039 0.0050398284 0.55232843
0.72502298 0.014805453 0.56819853
0.73333333 0.0017769608 0.56911765
0 0.22843137 0.40637255
0 0.23088235 0.42009804
0.0022671569 0.21681985 0.47564338
0.24658395 0.17438725 0.5942402
0.49436275 0.17806373 0.62071078
0.66519608 0.13808211 0.629519
0.75640319 0.12224265 0.62864583
0.79460784 0.11416973 0.63314951
0.81372549 0.14362745 0.64522059
0 0.32647059 0.47843137
0.0054534314 0.33313419 0.490625
0.0078431373 0.34183517 0.5584712
0.23429841 0.35354626 0.6720818
0.52251838 0.36936275 0.68848039
0.71926317 0.38056066 0.70210631
0.82218137 0.37510723 0.69568015
0.86029412 0.37807138 0.69724265
0.87696078 0.40931373 0.71176471
0.028676471 0.44215686 0.55073529
0.019607843 0.45579044 0.56593137
0.024264706 0.49411765 0.62077206
0.087622549 0.55358456 0.73679534
0.53639706 0.58970588 0.74938725
0.77598039 0.60689338 0.76348039
0.8877451 0.60140931 0.75784314
0.92205882 0.6145527 0.76452206
0.9372549 0.6372549 0.76813725
0.015686275 0.55882353 0.61911765
0.016168811 0.57401961 0.63431373
0.019240196 0.625 0.67889093
0.059535846 0.72171415 0.76724112
0.53792892 0.77913603 0.79632353
0.79887408 0.80859375 0.80490196
0.93584559 0.81999081 0.80536152
0.97745864 0.83351716 0.79895067
0.98523284 0.84172794 0.81519608
0.0068627451 0.60637255 0.65098039
0.022503064 0.63365502 0.67610294
0.026348039 0.69451593 0.71920956
0.050275735 0.80335478 0.80272672
0.52904412 0.87849265 0.82720588
0.81708027 0.91548713 0.82670037
0.9504902 0.92598039 0.82683824
0.99215686 0.93578431 0.83854167
1 0.94644608 0.84607843
0.00049019608 0.63970588 0.68578431
0.0035922181 0.66840533 0.71243873
0.016176471 0.72732843 0.7622549
0.048000919 0.83039216 0.83346354
0.56847426 0.9122549 0.87147672
0.80742187 0.94675245 0.87137714
0.94669118 0.96629902 0.86657475
0.99215686 0.97058824 0.87696078
1 0.97401961 0.88235294
0.0053921569 0.67352941 0.72205882
0.0039215686 0.72175245 0.76636029
0.0057598039 0.76727941 0.80012255
0.057352941 0.86372549 0.87689951
0.54705882 0.91715686 0.88602941
0.81427696 0.95588235 0.89068627
0.93958333 0.97401961 0.89313725
0.99246324 0.98039216 0.89754902
1 0.98431373 0.92303922
0.0078431373 0.16862745 0.35098039
0.0069852941 0.16973039 0.37512255
0.069607843 0.031617647 0.47867647
0.23909314 0 0.53259804
0.40784314 0.01127451 0.55098039
0.54816176 0.017892157 0.57107843
0.62818627 0.044607843 0.57622549
0.6692402 0.043137255 0.58786765
0.67941176 0.032352941 0.59019608
0 0.20306373 0.39607843
0.0025735294 0.2004902 0.41139706
0.060814951 0.02622549 0.56338848
0.26764706 0.002466299 0.62351409
0.46188725 0.010784314 0.63952206
0.60845588 0.0052696078 0.64318321
0.69469975 0.0092218137 0.64718137
0.73203125 0.0051164216 0.65266544
0.75061275 0.0039215686 0.66715686
0 0.25392157 0.46176471
0 0.26014093 0.47794118
0.029227941 0.23216912 0.57132353
0.27058824 0.17083333 0.69568015
0.49901961 0.17071078 0.71764706
0.67202819 0.13318015 0.72941176
0.76470588 0.11985294 0.73333333
0.80330882 0.12598039 0.74129902
0.81789216 0.15465686 0.75073529
0.011764706 0.35735294 0.53811275
0.0039215686 0.35882353 0.55013787
0.010569853 0.36617647 0.61393995
0.19946385 0.35617341 0.76262255
0.51917892 0.37401961 0.78131127
0.71946998 0.38541667 0.79653799
0.82420343 0.37046569 0.80309436
0.86227022 0.38416054 0.80602022
0.87941176 0.41813725 0.81078431
0.034803922 0.47058824 0.60931373
0.0083333333 0.48284314 0.62990196
0.018137255 0.51384804 0.69460784
0.073161765 0.56770833 0.82077206
0.52696078 0.60269608 0.85073529
0.76446078 0.62028186 0.86470588
0.88039216 0.62058824 0.86176471
0.92175245 0.62598039 0.86740196
0.93676471 0.65098039 0.87058824
0.0068627451 0.57977941 0.67303922
0.027573529 0.58835784 0.68970588
0.011029412 0.64166667 0.74010417
0.058517157 0.73595282 0.84869792
0.50894608 0.80226716 0.89773284
0.79722733 0.82682292 0.90539216
0.9234375 0.84154412 0.91029412
0.9692402 0.84313725 0.91323529
0.97794118 0.85147059 0.91752451
0.0017156863 0.63651961 0.71176471
0.0050245098 0.65511642 0.72696078
0.015441176 0.70808824 0.78039216
0.018535539 0.81369485 0.86920956
0.4932598 0.89362745 0.92389706
0.79500613 0.92711397 0.92843137
0.94276961 0.94356618 0.94019608
0.9854473 0.94877451 0.93704044
0.99607843 0.95490196 0.94387255
0.041053922 0.65232843 0.72303922
0.012898284 0.68702512 0.75741422
0.0095894608 0.73713235 0.80085784
0.030438113 0.83916973 0.89064032
0.51194853 0.91813725 0.93682598
0.79571078 0.95968137 0.94724265
0.93520221 0.97846201 0.95143995
0.98871017 0.98475797 0.95490196
0.99607843 0.98431373 0.94705882
0.0039215686 0.68627451 0.76176471
0.028553922 0.72855392 0.79914216
0.037254902 0.77916667 0.84215686
0.073529412 0.86556373 0.91678922
0.53480392 0.92745098 0.94607843
0.79644608 0.96507353 0.95392157
0.93529412 0.98431373 0.96495098
0.98823529 0.99215686 0.96176471
0.99607843 0.98823529 0.95392157
0 0.17745098 0.36617647
0.012193627 0.18480392 0.38872549
0.07254902 0.024387255 0.51568627
0.246875 0.00030637255 0.58443627
0.41789216 0.0026960784 0.59803922
0.57261029 0.035539216 0.63088235
0.63958333 0.057230392 0.61642157
0.67640931 0.049632353 0.62634804
0.6877451 0.061764706 0.62941176
0 0.21960784 0.43088235
0.00054381127 0.22261029 0.44656863
0.040027574 0.037040441 0.60638787
0.27146906 0.0079810049 0.67630974
0.46617647 0.0066176471 0.69754902
0.62295496 0.015686275 0.70539216
0.71116728 0.012254902 0.70539216
0.74901961 0.027075674 0.71372549
0.77640931 0.0069240196 0.73676471
0 0.28088235 0.49656863
0.00010723039 0.27336091 0.51128983
0.0022671569 0.27717525 0.55943627
0.23575368 0.19551164 0.72452512
0.50036765 0.20079657 0.76911765
0.68235294 0.16371017 0.78284314
0.77389706 0.13762255 0.78397672
0.81374081 0.15932904 0.79385723
0.82683824 0.1564951 0.80379902
0 0.3622549 0.55833333
0.0039215686 0.37931219 0.58511029
0.0082567402 0.38676471 0.6678462
0.20985754 0.37685355 0.80678615
0.50971201 0.39852941 0.83284314
0.72096354 0.40189185 0.85080423
0.82647059 0.39257047 0.85540748
0.86577053 0.40539216 0.85639553
0.88118873 0.42009804 0.86636029
0.020098039 0.48431373 0.6372549
0.0078431373 0.49779412 0.65833333
0.0068627451 0.52506127 0.71519608
0.080177696 0.57974877 0.85245098
0.51740196 0.61176471 0.89264706
0.75235907 0.62938113 0.90989583
0.87579657 0.63560049 0.91421569
0.91985294 0.63624387 0.91813725
0.93333333 0.65686275 0.92205882
0.0083333333 0.59264706 0.69754902
0.023491115 0.60204504 0.7127451
0.017141544 0.64854473 0.76462929
0.049685968 0.73982843 0.87443321
0.50401348 0.80802696 0.9390625
0.79797794 0.84302237 0.95372243
0.92063419 0.84007353 0.95882353
0.96317402 0.85106464 0.9627451
0.97745098 0.85392157 0.96096814
0.024387255 0.64411765 0.72683824
0.026853554 0.66323529 0.74940257
0.039491422 0.71666667 0.8013174
0.022472426 0.82009804 0.90154718
0.48578431 0.89644608 0.95582108
0.7928462 0.93860294 0.97280944
0.93425245 0.94705882 0.97668505
0.98088235 0.95490196 0.97814032
0.99607843 0.95637255 0.98443627
0.0039215686 0.66666667 0.74515931
0.014330576 0.69019608 0.77205882
0.057276348 0.740625 0.81980699
0.044944853 0.83982843 0.90664062
0.49730392 0.92352941 0.96277574
0.78498775 0.9622549 0.97320006
0.92538297 0.98443627 0.98432904
0.98431373 0.98866422 0.98823529
0.99601716 0.98480392 0.98823529
0.012254902 0.68676471 0.76862745
0.014460784 0.71066176 0.78952206
0.0078431373 0.7877451 0.86176471
0.051041667 0.86666667 0.93449755
0.5004902 0.92941176 0.96666667
0.775 0.96617647 0.98039216
0.92058824 0.98823529 0.98480392
0.97689951 0.99264706 0.98823529
1 0.99656863 0.99264706
0 0.20784314 0.41568627
0.0073529412 0.20441176 0.42745098
0.068627451 0.024509804 0.58431373
0.26666667 0.0039215686 0.6495098
0.47058824 0.0039215686 0.70784314
0.6004902 0.011764706 0.68235294
0.68921569 0.0078431373 0.69117647
0.72205882 0.022058824 0.69019608
0.74901961 0 0.71372549
0 0.25 0.46176471
0.0039215686 0.23829657 0.48088235
0.033333333 0.25355392 0.53921569
0.26127451 0.12401961 0.72126225
0.48382353 0.10196078 0.74901961
0.64834559 0.061458333 0.75147059
0.74607843 0.00085784314 0.76029412
0.78290441 0.00042892157 0.76715686
0.81029412 0.094607843 0.79803922
0 0.31078431 0.52352941
0 0.30294118 0.54656863
0.00098039216 0.30735294 0.58627451
0.23590686 0.2442402 0.76580882
0.50539216 0.26176471 0.80098039
0.68835784 0.22928922 0.8122549
0.79117647 0.22303922 0.82132353
0.82647059 0.23112745 0.82843137
0.84215686 0.24901961 0.83431373
0.006372549 0.39019608 0.58921569
0.006372549 0.38970588 0.60735294
0.012745098 0.40588235 0.69105392
0.1776348 0.40441176 0.81078431
0.51568627 0.42377451 0.85588235
0.71660539 0.42254902 0.86764706
0.83284314 0.42254902 0.87757353
0.86942402 0.42254902 0.87941176
0.89117647 0.45245098 0.89117647
0.029411765 0.5 0.65098039
0.05245098 0.49852941 0.66053922
0.0088235294 0.5372549 0.74166667
0.046568627 0.58529412 0.86421569
0.51666667 0.61764706 0.90882353
0.75612745 0.63406863 0.92230392
0.87352941 0.64509804 0.92794118
0.92181373 0.64754902 0.93333333
0.93921569 0.66862745 0.94313725
0.0014705882 0.59901961 0.70735294
0.024509804 0.61207108 0.72432598
0.017892157 0.65906863 0.77536765
0.02622549 0.74509804 0.88094363
0.48970588 0.80931373 0.94779412
0.79307598 0.84503676 0.96372549
0.91323529 0.84656863 0.97009804
0.9627451 0.85098039 0.97009804
0.97794118 0.85833333 0.97401961
0.015686275 0.64019608 0.72647059
0.035171569 0.66715686 0.75343137
0.0056372549 0.71666667 0.80661765
0.03995098 0.81862745 0.90539216
0.4754902 0.89558824 0.96323529
0.78921569 0.94252451 0.98039216
0.92843137 0.94705882 0.98823529
0.98737745 0.96568627 0.99607843
0.99215686 0.95392157 0.98823529
0.00098039216 0.65588235 0.73823529
0.023039216 0.69411765 0.77647059
0.02254902 0.7504902 0.82990196
0.023897059 0.84295343 0.91556373
0.46617647 0.92156863 0.97058824
0.78400735 0.96617647 0.98431373
0.92794118 0.98431373 0.99607843
0.97303922 0.98474265 0.99607843
0.99607843 0.98431373 0.99215686
0.039215686 0.70196078 0.78431373
0.054411765 0.74019608 0.82205882
0.0078431373 0.79509804 0.86960784
0.044117647 0.8754902 0.94362745
0.50784314 0.92745098 0.97254902
0.775 0.96617647 0.98578431
0.93039216 0.99215686 0.99607843
0.96911765 0.99264706 0.99607843
0.99607843 1 1
