site/assets/luts/natron-haldclut--smooth-cromeish--effc18115.cube
# LUTr-Project: LUTr — LUTrepository
# LUTr-Schema-Version: 1
# LUTr-ID: natron-haldclut--smooth-cromeish--effc18115
# LUTr-Title: smooth cromeish
# LUTr-Collection: Natron HaldCLUT
# LUTr-Collection-ID: natron-haldclut-presets
# LUTr-Source: https://github.com/NatronGitHub/clut
# LUTr-Source-File: submissions/natron-haldclut-presets/various/smooth_cromeish.png
# LUTr-Source-Format: PNG
# LUTr-Source-SHA256: c654370d1072d27e1b8eda312393d5c3a692b9403305189a481ecde8975bb08b
# LUTr-License: CC-BY-SA-4.0
# LUTr-License-URL: https://github.com/NatronGitHub/clut#license
# LUTr-Tags: creative, film, film-emulation, hald-clut, natron, png, cube
# LUTr-Transform-Class: film-emulation
# LUTr-Input-Color-Space: srgb
# LUTr-Output-Color-Space: srgb
# LUTr-Color-Space-Confidence: assumed-display-referred
# LUTr-Conversion-Method: PNG LUT image decoded at 16-bit and sampled to 25x25x25 3D CUBE
# LUTr-Conversion-Date: 2026-07-27
# LUTr-Conversion-Tool: LUTr scripts/convert-all-to-cube.mjs
# LUTr-Conversion-Grid: 25x25x25
# LUTr-Note: Preserve this metadata and the upstream license notices when redistributing.
TITLE "smooth cromeish"
LUT_3D_SIZE 5
DOMAIN_MIN 0 0 0
DOMAIN_MAX 1 1 1
0.023529412 0.054901961 0.062745098
0.18627451 0.092156863 0.096078431
0.49803922 0.07254902 0.078431373
0.8627451 0.11372549 0.12254902
0.96078431 0.11764706 0.1254902
0.034313725 0.17843137 0.075490196
0.15906863 0.1877451 0.081617647
0.5245098 0.21519608 0.097058824
0.85294118 0.22107843 0.099754902
0.99705882 0.20098039 0.07254902
0.033333333 0.40980392 0.078431373
0.175 0.43627451 0.092647059
0.51372549 0.42941176 0.091176471
0.85 0.42941176 0.091666667
0.99607843 0.4372549 0.076470588
0.046078431 0.73137255 0.096078431
0.16960784 0.71568627 0.087254902
0.52401961 0.72205882 0.10392157
0.84705882 0.7002451 0.095343137
0.9627451 0.70588235 0.096078431
0.047058824 1 0.094117647
0.20098039 0.99509804 0.11176471
0.52156863 0.98823529 0.094117647
0.86764706 0.97843137 0.13235294
1 1 0.058823529
0.067647059 0.1372549 0.28529412
0.25759804 0.15882353 0.31151961
0.59901961 0.18235294 0.32745098
0.87647059 0.20294118 0.30882353
0.98529412 0.18137255 0.29607843
0.073284314 0.32843137 0.29607843
0.26231618 0.33651961 0.30808824
0.60796569 0.37830882 0.32781863
0.87965686 0.35772059 0.3064951
1 0.34534314 0.28431373
0.070588235 0.5754902 0.28970588
0.26127451 0.5877451 0.31997549
0.60318627 0.60882353 0.33235294
0.87438725 0.63553922 0.31176471
1 0.61764706 0.28088235
0.068627451 0.77377451 0.29117647
0.26691176 0.79093137 0.31550245
0.6057598 0.79019608 0.33602941
0.87855392 0.81415441 0.31960784
0.99705882 0.80294118 0.29534314
0.098039216 0.99705882 0.33627451
0.28161765 0.96446078 0.34019608
0.61862745 0.9877451 0.3377451
0.88039216 0.98235294 0.32058824
1 0.99607843 0.3
0.10588235 0.2254902 0.63529412
0.29411765 0.18627451 0.62352941
0.62058824 0.20490196 0.62941176
0.88872549 0.17941176 0.6254902
0.97647059 0.17843137 0.62156863
0.10343137 0.36323529 0.62598039
0.28602941 0.3872549 0.62659314
0.61715686 0.3745098 0.63137255
0.88529412 0.38970588 0.62696078
0.99656863 0.39558824 0.6254902
0.10784314 0.63137255 0.63039216
0.2875 0.63676471 0.6245098
0.62058824 0.64705882 0.62696078
0.88529412 0.62990196 0.6252451
1 0.65294118 0.62647059
0.10441176 0.7877451 0.62794118
0.28235294 0.79338235 0.62463235
0.61372549 0.80220588 0.63529412
0.88443627 0.8 0.63566176
0.99754902 0.8245098 0.6254902
0.1 0.99215686 0.63333333
0.29411765 0.96960784 0.63137255
0.61764706 0.98333333 0.63039216
0.88529412 0.93676471 0.63333333
0.99411765 0.98627451 0.63333333
0.081372549 0.13627451 0.87745098
0.26470588 0.1627451 0.8627451
0.59607843 0.18921569 0.86617647
0.87745098 0.19681373 0.87352941
0.97745098 0.18823529 0.87254902
0.071568627 0.31421569 0.86960784
0.26078431 0.32843137 0.87352941
0.60306373 0.37365196 0.87352941
0.88137255 0.38455882 0.87015931
0.99779412 0.35465686 0.87058824
0.076960784 0.57352941 0.87205882
0.26470588 0.59558824 0.8745098
0.61053922 0.60318627 0.87377451
0.88002451 0.6067402 0.87352941
0.99803922 0.62009804 0.87058824
0.062745098 0.75980392 0.86568627
0.26078431 0.7745098 0.87377451
0.60490196 0.80441176 0.87745098
0.88333333 0.79215686 0.87647059
0.98921569 0.79583333 0.86887255
0.11470588 0.98921569 0.88235294
0.28823529 0.97058824 0.88137255
0.60098039 0.95196078 0.86960784
0.87181373 0.98431373 0.86960784
0.98921569 0.9745098 0.8627451
0.019607843 0.058823529 1
0.15196078 0.065686275 0.99901961
0.54901961 0.12352941 0.99803922
0.85882353 0.10686275 1
0.96078431 0.14117647 0.99607843
0.034313725 0.22745098 0.99901961
0.22132353 0.29607843 0.99926471
0.52745098 0.26715686 1
0.85098039 0.28578431 1
0.96960784 0.31568627 1
0.037254902 0.50196078 1
0.18431373 0.52303922 0.99901961
0.50882353 0.59411765 1
0.85882353 0.56911765 0.99901961
0.99803922 0.58431373 1
0.054901961 0.81078431 1
0.18088235 0.80392157 0.99779412
0.50343137 0.81911765 1
0.84534314 0.77794118 1
0.96666667 0.78823529 1
0.058823529 0.99215686 1
0.20784314 0.9872549 1
0.52745098 0.99411765 1
0.85490196 0.99215686 0.99607843
1 1 1
