site/assets/luts/natron-haldclut--agfa-apx-100--d5051a815.cube
# LUTr-Project: LUTr — LUTrepository
# LUTr-Schema-Version: 1
# LUTr-ID: natron-haldclut--agfa-apx-100--d5051a815
# LUTr-Title: agfa apx 100
# LUTr-Collection: Natron HaldCLUT
# LUTr-Collection-ID: natron-haldclut-presets
# LUTr-Source: https://github.com/NatronGitHub/clut
# LUTr-Source-File: submissions/natron-haldclut-presets/bw/agfa_apx_100.png
# LUTr-Source-Format: PNG
# LUTr-Source-SHA256: cfdef13d710086636fc021b187e0d8c3aac3f283ed774701a280d379598902f6
# LUTr-License: CC-BY-SA-4.0
# LUTr-License-URL: https://github.com/NatronGitHub/clut#license
# LUTr-Tags: creative, film, film-emulation, hald-clut, natron, png, black-and-white, cube
# LUTr-Transform-Class: film-emulation
# LUTr-Input-Color-Space: srgb
# LUTr-Output-Color-Space: srgb
# LUTr-Color-Space-Confidence: assumed-display-referred
# LUTr-Conversion-Method: PNG LUT image decoded at 16-bit and sampled to 25x25x25 3D CUBE
# LUTr-Conversion-Date: 2026-07-27
# LUTr-Conversion-Tool: LUTr scripts/convert-all-to-cube.mjs
# LUTr-Conversion-Grid: 25x25x25
# LUTr-Note: Preserve this metadata and the upstream license notices when redistributing.
TITLE "agfa apx 100"
LUT_3D_SIZE 25
DOMAIN_MIN 0 0 0
DOMAIN_MAX 1 1 1
0.019607843 0.019607843 0.019607843
0.042647059 0.042647059 0.042647059
0.064705882 0.064705882 0.064705882
0.078431373 0.078431373 0.078431373
0.082352941 0.082352941 0.082352941
0.082352941 0.082352941 0.082352941
0.082352941 0.082352941 0.082352941
0.093137255 0.093137255 0.093137255
0.10980392 0.10980392 0.10980392
0.11764706 0.11764706 0.11764706
0.11764706 0.11764706 0.11764706
0.11764706 0.11764706 0.11764706
0.14313725 0.14313725 0.14313725
0.16568627 0.16568627 0.16568627
0.18333333 0.18333333 0.18333333
0.18823529 0.18823529 0.18823529
0.18823529 0.18823529 0.18823529
0.19656863 0.19656863 0.19656863
0.24313725 0.24313725 0.24313725
0.28431373 0.28431373 0.28431373
0.31764706 0.31764706 0.31764706
0.34215686 0.34215686 0.34215686
0.3627451 0.3627451 0.3627451
0.40735294 0.40735294 0.40735294
0.44705882 0.44705882 0.44705882
0.060784314 0.060784314 0.060784314
0.071997549 0.071997549 0.071997549
0.091666667 0.091666667 0.091666667
0.10735294 0.10735294 0.10735294
0.11176471 0.11176471 0.11176471
0.11176471 0.11176471 0.11176471
0.11568627 0.11568627 0.11568627
0.12984069 0.12984069 0.12984069
0.14313725 0.14313725 0.14313725
0.15343137 0.15343137 0.15343137
0.15343137 0.15343137 0.15343137
0.15704657 0.15704657 0.15704657
0.17843137 0.17843137 0.17843137
0.20294118 0.20294118 0.20294118
0.21666667 0.21666667 0.21666667
0.2254902 0.2254902 0.2254902
0.22794118 0.22794118 0.22794118
0.24068627 0.24068627 0.24068627
0.27254902 0.27254902 0.27254902
0.31519608 0.31519608 0.31519608
0.34852941 0.34852941 0.34852941
0.37205882 0.37205882 0.37205882
0.40588235 0.40588235 0.40588235
0.44522059 0.44522059 0.44522059
0.48186275 0.48186275 0.48186275
0.10686275 0.10686275 0.10686275
0.1122549 0.1122549 0.1122549
0.12720588 0.12720588 0.12720588
0.14068627 0.14068627 0.14068627
0.14803922 0.14803922 0.14803922
0.1495098 0.1495098 0.1495098
0.15980392 0.15980392 0.15980392
0.1754902 0.1754902 0.1754902
0.18921569 0.18921569 0.18921569
0.19607843 0.19607843 0.19607843
0.19607843 0.19607843 0.19607843
0.20294118 0.20294118 0.20294118
0.22352941 0.22352941 0.22352941
0.24767157 0.24767157 0.24767157
0.2627451 0.2627451 0.2627451
0.26911765 0.26911765 0.26911765
0.2754902 0.2754902 0.2754902
0.28762255 0.28762255 0.28762255
0.31372549 0.31372549 0.31372549
0.35098039 0.35098039 0.35098039
0.38382353 0.38382353 0.38382353
0.41323529 0.41323529 0.41323529
0.45098039 0.45098039 0.45098039
0.48578431 0.48578431 0.48578431
0.51176471 0.51176471 0.51176471
0.15098039 0.15098039 0.15098039
0.15704657 0.15704657 0.15704657
0.16764706 0.16764706 0.16764706
0.1783701 0.1783701 0.1783701
0.18627451 0.18627451 0.18627451
0.19068627 0.19068627 0.19068627
0.20477941 0.20477941 0.20477941
0.21911765 0.21911765 0.21911765
0.22941176 0.22941176 0.22941176
0.23363971 0.23363971 0.23363971
0.23382353 0.23382353 0.23382353
0.24454657 0.24454657 0.24454657
0.26666667 0.26666667 0.26666667
0.29264706 0.29264706 0.29264706
0.31029412 0.31029412 0.31029412
0.31697304 0.31697304 0.31697304
0.32352941 0.32352941 0.32352941
0.33382353 0.33382353 0.33382353
0.35404412 0.35404412 0.35404412
0.38872549 0.38872549 0.38872549
0.42009804 0.42009804 0.42009804
0.45447304 0.45447304 0.45447304
0.48958333 0.48958333 0.48958333
0.51697304 0.51697304 0.51697304
0.53627451 0.53627451 0.53627451
0.19803922 0.19803922 0.19803922
0.20122549 0.20122549 0.20122549
0.20882353 0.20882353 0.20882353
0.21715686 0.21715686 0.21715686
0.2254902 0.2254902 0.2254902
0.23578431 0.23578431 0.23578431
0.24607843 0.24607843 0.24607843
0.25563725 0.25563725 0.25563725
0.2627451 0.2627451 0.2627451
0.26862745 0.26862745 0.26862745
0.27107843 0.27107843 0.27107843
0.28357843 0.28357843 0.28357843
0.30588235 0.30588235 0.30588235
0.33259804 0.33259804 0.33259804
0.35490196 0.35490196 0.35490196
0.36470588 0.36470588 0.36470588
0.36862745 0.36862745 0.36862745
0.37892157 0.37892157 0.37892157
0.39264706 0.39264706 0.39264706
0.42401961 0.42401961 0.42401961
0.45490196 0.45490196 0.45490196
0.48578431 0.48578431 0.48578431
0.51519608 0.51519608 0.51519608
0.54289216 0.54289216 0.54289216
0.56078431 0.56078431 0.56078431
0.24509804 0.24509804 0.24509804
0.24558824 0.24558824 0.24558824
0.25 0.25 0.25
0.25637255 0.25637255 0.25637255
0.26642157 0.26642157 0.26642157
0.27303922 0.27303922 0.27303922
0.28333333 0.28333333 0.28333333
0.29166667 0.29166667 0.29166667
0.29558824 0.29558824 0.29558824
0.2995098 0.2995098 0.2995098
0.30441176 0.30441176 0.30441176
0.31856618 0.31856618 0.31856618
0.34264706 0.34264706 0.34264706
0.36666667 0.36666667 0.36666667
0.38382353 0.38382353 0.38382353
0.39901961 0.39901961 0.39901961
0.40931373 0.40931373 0.40931373
0.41568627 0.41568627 0.41568627
0.42696078 0.42696078 0.42696078
0.45447304 0.45447304 0.45447304
0.48529412 0.48529412 0.48529412
0.5127451 0.5127451 0.5127451
0.54313725 0.54313725 0.54313725
0.56881127 0.56881127 0.56881127
0.58578431 0.58578431 0.58578431
0.29019608 0.29019608 0.29019608
0.29019608 0.29019608 0.29019608
0.29411765 0.29411765 0.29411765
0.29791667 0.29791667 0.29791667
0.30392157 0.30392157 0.30392157
0.31421569 0.31421569 0.31421569
0.32083333 0.32083333 0.32083333
0.32585784 0.32585784 0.32585784
0.32647059 0.32647059 0.32647059
0.33039216 0.33039216 0.33039216
0.33529412 0.33529412 0.33529412
0.35294118 0.35294118 0.35294118
0.37352941 0.37352941 0.37352941
0.39411765 0.39411765 0.39411765
0.41470588 0.41470588 0.41470588
0.42990196 0.42990196 0.42990196
0.44019608 0.44019608 0.44019608
0.4504902 0.4504902 0.4504902
0.46078431 0.46078431 0.46078431
0.48186275 0.48186275 0.48186275
0.51127451 0.51127451 0.51127451
0.54264706 0.54264706 0.54264706
0.57352941 0.57352941 0.57352941
0.60110294 0.60110294 0.60110294
0.62058824 0.62058824 0.62058824
0.33137255 0.33137255 0.33137255
0.334375 0.334375 0.334375
0.33627451 0.33627451 0.33627451
0.33921569 0.33921569 0.33921569
0.34509804 0.34509804 0.34509804
0.35147059 0.35147059 0.35147059
0.35845588 0.35845588 0.35845588
0.3627451 0.3627451 0.3627451
0.3627451 0.3627451 0.3627451
0.36666667 0.36666667 0.36666667
0.37095588 0.37095588 0.37095588
0.38529412 0.38529412 0.38529412
0.40588235 0.40588235 0.40588235
0.42647059 0.42647059 0.42647059
0.44705882 0.44705882 0.44705882
0.46078431 0.46078431 0.46078431
0.47107843 0.47107843 0.47107843
0.48137255 0.48137255 0.48137255
0.49313725 0.49313725 0.49313725
0.50900735 0.50900735 0.50900735
0.54362745 0.54362745 0.54362745
0.5745098 0.5745098 0.5745098
0.6057598 0.6057598 0.6057598
0.63627451 0.63627451 0.63627451
0.65686275 0.65686275 0.65686275
0.37647059 0.37647059 0.37647059
0.37647059 0.37647059 0.37647059
0.38039216 0.38039216 0.38039216
0.38382353 0.38382353 0.38382353
0.38823529 0.38823529 0.38823529
0.39264706 0.39264706 0.39264706
0.4 0.4 0.4
0.40539216 0.40539216 0.40539216
0.40784314 0.40784314 0.40784314
0.41421569 0.41421569 0.41421569
0.4245098 0.4245098 0.4245098
0.43137255 0.43137255 0.43137255
0.44705882 0.44705882 0.44705882
0.46715686 0.46715686 0.46715686
0.48431373 0.48431373 0.48431373
0.4995098 0.4995098 0.4995098
0.50980392 0.50980392 0.50980392
0.52009804 0.52009804 0.52009804
0.53039216 0.53039216 0.53039216
0.54803922 0.54803922 0.54803922
0.5745098 0.5745098 0.5745098
0.60931373 0.60931373 0.60931373
0.64019608 0.64019608 0.64019608
0.66715686 0.66715686 0.66715686
0.69019608 0.69019608 0.69019608
0.42156863 0.42156863 0.42156863
0.42310049 0.42310049 0.42310049
0.42438725 0.42438725 0.42438725
0.4276348 0.4276348 0.4276348
0.42941176 0.42941176 0.42941176
0.43645833 0.43645833 0.43645833
0.44693627 0.44693627 0.44693627
0.45294118 0.45294118 0.45294118
0.45931373 0.45931373 0.45931373
0.46721814 0.46721814 0.46721814
0.47953431 0.47953431 0.47953431
0.48498775 0.48498775 0.48498775
0.49338235 0.49338235 0.49338235
0.50863971 0.50863971 0.50863971
0.5254902 0.5254902 0.5254902
0.54068627 0.54068627 0.54068627
0.55098039 0.55098039 0.55098039
0.56127451 0.56127451 0.56127451
0.56973039 0.56973039 0.56973039
0.58529412 0.58529412 0.58529412
0.61053922 0.61053922 0.61053922
0.64050245 0.64050245 0.64050245
0.67107843 0.67107843 0.67107843
0.6971201 0.6971201 0.6971201
0.70833333 0.70833333 0.70833333
0.46764706 0.46764706 0.46764706
0.46948529 0.46948529 0.46948529
0.47083333 0.47083333 0.47083333
0.47156863 0.47156863 0.47156863
0.475 0.475 0.475
0.48026961 0.48026961 0.48026961
0.49387255 0.49387255 0.49387255
0.50294118 0.50294118 0.50294118
0.51078431 0.51078431 0.51078431
0.52169118 0.52169118 0.52169118
0.53455882 0.53455882 0.53455882
0.53823529 0.53823529 0.53823529
0.54362745 0.54362745 0.54362745
0.55343137 0.55343137 0.55343137
0.56764706 0.56764706 0.56764706
0.58186275 0.58186275 0.58186275
0.59117647 0.59117647 0.59117647
0.59852941 0.59852941 0.59852941
0.60882353 0.60882353 0.60882353
0.62254902 0.62254902 0.62254902
0.64656863 0.64656863 0.64656863
0.675 0.675 0.675
0.70294118 0.70294118 0.70294118
0.7189951 0.7189951 0.7189951
0.72352941 0.72352941 0.72352941
0.51568627 0.51568627 0.51568627
0.51911765 0.51911765 0.51911765
0.51911765 0.51911765 0.51911765
0.51954657 0.51954657 0.51954657
0.52303922 0.52303922 0.52303922
0.52794118 0.52794118 0.52794118
0.54166667 0.54166667 0.54166667
0.55226716 0.55226716 0.55226716
0.5622549 0.5622549 0.5622549
0.57647059 0.57647059 0.57647059
0.58676471 0.58676471 0.58676471
0.58970588 0.58970588 0.58970588
0.59362745 0.59362745 0.59362745
0.59803922 0.59803922 0.59803922
0.60919118 0.60919118 0.60919118
0.62303922 0.62303922 0.62303922
0.62941176 0.62941176 0.62941176
0.63596814 0.63596814 0.63596814
0.64607843 0.64607843 0.64607843
0.66029412 0.66029412 0.66029412
0.68431373 0.68431373 0.68431373
0.70980392 0.70980392 0.70980392
0.73002451 0.73002451 0.73002451
0.73645833 0.73645833 0.73645833
0.74019608 0.74019608 0.74019608
0.56666667 0.56666667 0.56666667
0.56789216 0.56789216 0.56789216
0.57058824 0.57058824 0.57058824
0.57058824 0.57058824 0.57058824
0.57254902 0.57254902 0.57254902
0.57892157 0.57892157 0.57892157
0.59215686 0.59215686 0.59215686
0.60343137 0.60343137 0.60343137
0.61764706 0.61764706 0.61764706
0.62794118 0.62794118 0.62794118
0.63823529 0.63823529 0.63823529
0.64117647 0.64117647 0.64117647
0.64509804 0.64509804 0.64509804
0.64534314 0.64534314 0.64534314
0.6504902 0.6504902 0.6504902
0.65637255 0.65637255 0.65637255
0.66470588 0.66470588 0.66470588
0.67303922 0.67303922 0.67303922
0.68186275 0.68186275 0.68186275
0.69730392 0.69730392 0.69730392
0.71960784 0.71960784 0.71960784
0.73995098 0.73995098 0.73995098
0.74852941 0.74852941 0.74852941
0.75171569 0.75171569 0.75171569
0.75294118 0.75294118 0.75294118
0.61813725 0.61813725 0.61813725
0.62205882 0.62205882 0.62205882
0.62205882 0.62205882 0.62205882
0.62254902 0.62254902 0.62254902
0.62598039 0.62598039 0.62598039
0.63039216 0.63039216 0.63039216
0.64460784 0.64460784 0.64460784
0.65882353 0.65882353 0.65882353
0.66911765 0.66911765 0.66911765
0.67941176 0.67941176 0.67941176
0.68835784 0.68835784 0.68835784
0.69215686 0.69215686 0.69215686
0.69264706 0.69264706 0.69264706
0.69264706 0.69264706 0.69264706
0.69264706 0.69264706 0.69264706
0.69607843 0.69607843 0.69607843
0.7 0.7 0.7
0.70765931 0.70765931 0.70765931
0.71666667 0.71666667 0.71666667
0.73382353 0.73382353 0.73382353
0.75245098 0.75245098 0.75245098
0.7622549 0.7622549 0.7622549
0.76568627 0.76568627 0.76568627
0.76911765 0.76911765 0.76911765
0.76911765 0.76911765 0.76911765
0.66960784 0.66960784 0.66960784
0.67352941 0.67352941 0.67352941
0.6745098 0.6745098 0.6745098
0.67745098 0.67745098 0.67745098
0.67892157 0.67892157 0.67892157
0.68235294 0.68235294 0.68235294
0.69607843 0.69607843 0.69607843
0.71029412 0.71029412 0.71029412
0.71764706 0.71764706 0.71764706
0.72512255 0.72512255 0.72512255
0.73406863 0.73406863 0.73406863
0.7372549 0.7372549 0.7372549
0.7372549 0.7372549 0.7372549
0.7372549 0.7372549 0.7372549
0.7372549 0.7372549 0.7372549
0.7372549 0.7372549 0.7372549
0.74117647 0.74117647 0.74117647
0.7439951 0.7439951 0.7439951
0.75098039 0.75098039 0.75098039
0.76776961 0.76776961 0.76776961
0.77794118 0.77794118 0.77794118
0.78235294 0.78235294 0.78235294
0.78308824 0.78308824 0.78308824
0.78333333 0.78333333 0.78333333
0.78333333 0.78333333 0.78333333
0.71960784 0.71960784 0.71960784
0.72107843 0.72107843 0.72107843
0.725 0.725 0.725
0.72873775 0.72873775 0.72873775
0.73284314 0.73284314 0.73284314
0.7372549 0.7372549 0.7372549
0.74607843 0.74607843 0.74607843
0.75189951 0.75189951 0.75189951
0.75735294 0.75735294 0.75735294
0.76372549 0.76372549 0.76372549
0.76973039 0.76973039 0.76973039
0.77285539 0.77285539 0.77285539
0.77303922 0.77303922 0.77303922
0.77303922 0.77303922 0.77303922
0.77414216 0.77414216 0.77414216
0.77696078 0.77696078 0.77696078
0.77843137 0.77843137 0.77843137
0.78180147 0.78180147 0.78180147
0.78578431 0.78578431 0.78578431
0.79607843 0.79607843 0.79607843
0.79901961 0.79901961 0.79901961
0.79932598 0.79932598 0.79932598
0.80257353 0.80257353 0.80257353
0.80294118 0.80294118 0.80294118
0.80294118 0.80294118 0.80294118
0.75686275 0.75686275 0.75686275
0.76078431 0.76078431 0.76078431
0.76470588 0.76470588 0.76470588
0.76813725 0.76813725 0.76813725
0.77254902 0.77254902 0.77254902
0.77647059 0.77647059 0.77647059
0.77941176 0.77941176 0.77941176
0.78186275 0.78186275 0.78186275
0.78431373 0.78431373 0.78431373
0.78823529 0.78823529 0.78823529
0.79313725 0.79313725 0.79313725
0.79607843 0.79607843 0.79607843
0.8 0.8 0.8
0.8 0.8 0.8
0.80294118 0.80294118 0.80294118
0.80539216 0.80539216 0.80539216
0.80784314 0.80784314 0.80784314
0.81176471 0.81176471 0.81176471
0.81568627 0.81568627 0.81568627
0.81568627 0.81568627 0.81568627
0.81960784 0.81960784 0.81960784
0.81960784 0.81960784 0.81960784
0.82254902 0.82254902 0.82254902
0.82352941 0.82352941 0.82352941
0.82352941 0.82352941 0.82352941
0.78529412 0.78529412 0.78529412
0.78682598 0.78682598 0.78682598
0.78921569 0.78921569 0.78921569
0.79295343 0.79295343 0.79295343
0.79313725 0.79313725 0.79313725
0.79705882 0.79705882 0.79705882
0.79816176 0.79816176 0.79816176
0.80245098 0.80245098 0.80245098
0.80490196 0.80490196 0.80490196
0.80882353 0.80882353 0.80882353
0.81372549 0.81372549 0.81372549
0.81666667 0.81666667 0.81666667
0.82058824 0.82058824 0.82058824
0.82107843 0.82107843 0.82107843
0.8245098 0.8245098 0.8245098
0.82689951 0.82689951 0.82689951
0.82843137 0.82843137 0.82843137
0.82990196 0.82990196 0.82990196
0.83051471 0.83051471 0.83051471
0.83596814 0.83596814 0.83596814
0.84019608 0.84019608 0.84019608
0.84050245 0.84050245 0.84050245
0.84411765 0.84411765 0.84411765
0.84411765 0.84411765 0.84411765
0.84411765 0.84411765 0.84411765
0.80980392 0.80980392 0.80980392
0.80980392 0.80980392 0.80980392
0.81151961 0.81151961 0.81151961
0.81372549 0.81372549 0.81372549
0.81372549 0.81372549 0.81372549
0.81421569 0.81421569 0.81421569
0.81764706 0.81764706 0.81764706
0.82156863 0.82156863 0.82156863
0.8254902 0.8254902 0.8254902
0.82941176 0.82941176 0.82941176
0.83431373 0.83431373 0.83431373
0.8372549 0.8372549 0.8372549
0.84117647 0.84117647 0.84117647
0.84117647 0.84117647 0.84117647
0.84509804 0.84509804 0.84509804
0.84509804 0.84509804 0.84509804
0.84509804 0.84509804 0.84509804
0.84509804 0.84509804 0.84509804
0.84828431 0.84828431 0.84828431
0.85245098 0.85245098 0.85245098
0.85833333 0.85833333 0.85833333
0.86127451 0.86127451 0.86127451
0.86470588 0.86470588 0.86470588
0.86470588 0.86470588 0.86470588
0.86470588 0.86470588 0.86470588
0.83039216 0.83039216 0.83039216
0.83253676 0.83253676 0.83253676
0.83431373 0.83431373 0.83431373
0.83431373 0.83431373 0.83431373
0.83431373 0.83431373 0.83431373
0.83823529 0.83823529 0.83823529
0.83823529 0.83823529 0.83823529
0.84215686 0.84215686 0.84215686
0.84607843 0.84607843 0.84607843
0.85 0.85 0.85
0.85392157 0.85392157 0.85392157
0.85784314 0.85784314 0.85784314
0.86176471 0.86176471 0.86176471
0.86176471 0.86176471 0.86176471
0.86213235 0.86213235 0.86213235
0.8622549 0.8622549 0.8622549
0.8622549 0.8622549 0.8622549
0.86176471 0.86176471 0.86176471
0.86311275 0.86311275 0.86311275
0.86917892 0.86917892 0.86917892
0.8754902 0.8754902 0.8754902
0.88137255 0.88137255 0.88137255
0.88186275 0.88186275 0.88186275
0.88186275 0.88186275 0.88186275
0.88186275 0.88186275 0.88186275
0.85490196 0.85490196 0.85490196
0.85490196 0.85490196 0.85490196
0.85686275 0.85686275 0.85686275
0.85857843 0.85857843 0.85857843
0.85882353 0.85882353 0.85882353
0.85882353 0.85882353 0.85882353
0.85882353 0.85882353 0.85882353
0.8627451 0.8627451 0.8627451
0.86666667 0.86666667 0.86666667
0.86911765 0.86911765 0.86911765
0.8745098 0.8745098 0.8745098
0.87818627 0.87818627 0.87818627
0.87843137 0.87843137 0.87843137
0.88039216 0.88039216 0.88039216
0.88039216 0.88039216 0.88039216
0.87965686 0.87965686 0.87965686
0.87647059 0.87647059 0.87647059
0.87647059 0.87647059 0.87647059
0.88088235 0.88088235 0.88088235
0.88602941 0.88602941 0.88602941
0.89117647 0.89117647 0.89117647
0.89607843 0.89607843 0.89607843
0.89607843 0.89607843 0.89607843
0.89607843 0.89607843 0.89607843
0.89607843 0.89607843 0.89607843
0.87941176 0.87941176 0.87941176
0.87941176 0.87941176 0.87941176
0.87941176 0.87941176 0.87941176
0.87941176 0.87941176 0.87941176
0.87941176 0.87941176 0.87941176
0.87941176 0.87941176 0.87941176
0.87941176 0.87941176 0.87941176
0.88333333 0.88333333 0.88333333
0.88333333 0.88333333 0.88333333
0.88939951 0.88939951 0.88939951
0.89215686 0.89215686 0.89215686
0.89509804 0.89509804 0.89509804
0.89901961 0.89901961 0.89901961
0.89901961 0.89901961 0.89901961
0.89852941 0.89852941 0.89852941
0.89491422 0.89491422 0.89491422
0.89117647 0.89117647 0.89117647
0.89332108 0.89332108 0.89332108
0.89607843 0.89607843 0.89607843
0.90245098 0.90245098 0.90245098
0.90686275 0.90686275 0.90686275
0.91078431 0.91078431 0.91078431
0.91078431 0.91078431 0.91078431
0.91078431 0.91078431 0.91078431
0.91029412 0.91029412 0.91029412
0.90294118 0.90294118 0.90294118
0.90294118 0.90294118 0.90294118
0.90294118 0.90294118 0.90294118
0.90294118 0.90294118 0.90294118
0.9 0.9 0.9
0.9 0.9 0.9
0.90220588 0.90220588 0.90220588
0.90392157 0.90392157 0.90392157
0.90392157 0.90392157 0.90392157
0.90784314 0.90784314 0.90784314
0.91176471 0.91176471 0.91176471
0.91568627 0.91568627 0.91568627
0.91666667 0.91666667 0.91666667
0.91568627 0.91568627 0.91568627
0.9127451 0.9127451 0.9127451
0.90882353 0.90882353 0.90882353
0.90784314 0.90784314 0.90784314
0.90882353 0.90882353 0.90882353
0.91348039 0.91348039 0.91348039
0.9192402 0.9192402 0.9192402
0.92401961 0.92401961 0.92401961
0.92745098 0.92745098 0.92745098
0.92745098 0.92745098 0.92745098
0.9245098 0.9245098 0.9245098
0.9245098 0.9245098 0.9245098
0.9245098 0.9245098 0.9245098
0.92506127 0.92506127 0.92506127
0.9245098 0.9245098 0.9245098
0.9245098 0.9245098 0.9245098
0.92377451 0.92377451 0.92377451
0.92303922 0.92303922 0.92303922
0.92303922 0.92303922 0.92303922
0.9245098 0.9245098 0.9245098
0.9245098 0.9245098 0.9245098
0.9278799 0.9278799 0.9278799
0.92904412 0.92904412 0.92904412
0.93235294 0.93235294 0.93235294
0.93357843 0.93357843 0.93357843
0.93057598 0.93057598 0.93057598
0.92696078 0.92696078 0.92696078
0.92303922 0.92303922 0.92303922
0.91911765 0.91911765 0.91911765
0.92303922 0.92303922 0.92303922
0.92794118 0.92794118 0.92794118
0.93431373 0.93431373 0.93431373
0.93872549 0.93872549 0.93872549
0.94019608 0.94019608 0.94019608
0.94019608 0.94019608 0.94019608
0.94019608 0.94019608 0.94019608
0.94019608 0.94019608 0.94019608
0.94901961 0.94901961 0.94901961
0.94509804 0.94509804 0.94509804
0.94117647 0.94117647 0.94117647
0.9377451 0.9377451 0.9377451
0.9372549 0.9372549 0.9372549
0.9372549 0.9372549 0.9372549
0.9372549 0.9372549 0.9372549
0.9372549 0.9372549 0.9372549
0.94117647 0.94117647 0.94117647
0.94117647 0.94117647 0.94117647
0.94509804 0.94509804 0.94509804
0.94509804 0.94509804 0.94509804
0.94509804 0.94509804 0.94509804
0.94068627 0.94068627 0.94068627
0.93431373 0.93431373 0.93431373
0.93186275 0.93186275 0.93186275
0.92941176 0.92941176 0.92941176
0.93186275 0.93186275 0.93186275
0.9372549 0.9372549 0.9372549
0.94460784 0.94460784 0.94460784
0.94901961 0.94901961 0.94901961
0.95294118 0.95294118 0.95294118
0.95294118 0.95294118 0.95294118
0.95294118 0.95294118 0.95294118
0.95294118 0.95294118 0.95294118
0.034803922 0.034803922 0.034803922
0.059681373 0.059681373 0.059681373
0.072058824 0.072058824 0.072058824
0.077941176 0.077941176 0.077941176
0.082352941 0.082352941 0.082352941
0.082352941 0.082352941 0.082352941
0.079044118 0.079044118 0.079044118
0.090134804 0.090134804 0.090134804
0.1122549 0.1122549 0.1122549
0.12457108 0.12457108 0.12457108
0.12009804 0.12009804 0.12009804
0.11734069 0.11734069 0.11734069
0.14558824 0.14558824 0.14558824
0.17205882 0.17205882 0.17205882
0.19154412 0.19154412 0.19154412
0.20153186 0.20153186 0.20153186
0.20735294 0.20735294 0.20735294
0.22401961 0.22401961 0.22401961
0.25588235 0.25588235 0.25588235
0.29705882 0.29705882 0.29705882
0.32843137 0.32843137 0.32843137
0.35098039 0.35098039 0.35098039
0.37512255 0.37512255 0.37512255
0.4122549 0.4122549 0.4122549
0.45343137 0.45343137 0.45343137
0.069607843 0.069607843 0.069607843
0.083272059 0.083272059 0.083272059
0.095710784 0.095710784 0.095710784
0.10490196 0.10490196 0.10490196
0.11145833 0.11145833 0.11145833
0.11268382 0.11268382 0.11268382
0.11646752 0.11646752 0.11646752
0.13114277 0.13114277 0.13114277
0.14803922 0.14803922 0.14803922
0.15582108 0.15582108 0.15582108
0.15366115 0.15366115 0.15366115
0.15931373 0.15931373 0.15931373
0.18014706 0.18014706 0.18014706
0.20539216 0.20539216 0.20539216
0.22372855 0.22372855 0.22372855
0.23220741 0.23220741 0.23220741
0.23915441 0.23915441 0.23915441
0.25735294 0.25735294 0.25735294
0.28491115 0.28491115 0.28491115
0.3241345 0.3241345 0.3241345
0.35612745 0.35612745 0.35612745
0.38117341 0.38117341 0.38117341
0.41115196 0.41115196 0.41115196
0.45274203 0.45274203 0.45274203
0.48731618 0.48731618 0.48731618
0.11507353 0.11507353 0.11507353
0.12213542 0.12213542 0.12213542
0.13284314 0.13284314 0.13284314
0.14091605 0.14091605 0.14091605
0.14883578 0.14883578 0.14883578
0.15324755 0.15324755 0.15324755
0.16262255 0.16262255 0.16262255
0.17725184 0.17725184 0.17725184
0.19215686 0.19215686 0.19215686
0.19607843 0.19607843 0.19607843
0.19724265 0.19724265 0.19724265
0.20588235 0.20588235 0.20588235
0.22616422 0.22616422 0.22616422
0.24865196 0.24865196 0.24865196
0.26724877 0.26724877 0.26724877
0.2754902 0.2754902 0.2754902
0.28480392 0.28480392 0.28480392
0.30013787 0.30013787 0.30013787
0.32585784 0.32585784 0.32585784
0.36127451 0.36127451 0.36127451
0.39264706 0.39264706 0.39264706
0.4196538 0.4196538 0.4196538
0.45735294 0.45735294 0.45735294
0.49215686 0.49215686 0.49215686
0.5185049 0.5185049 0.5185049
0.15735294 0.15735294 0.15735294
