site/assets/luts/natron-haldclut--polaroid-665-negative--384c631d6.cube
# LUTr-Project: LUTr — LUTrepository
# LUTr-Schema-Version: 1
# LUTr-ID: natron-haldclut--polaroid-665-negative--384c631d6
# LUTr-Title: polaroid 665 negative
# LUTr-Collection: Natron HaldCLUT
# LUTr-Collection-ID: natron-haldclut-presets
# LUTr-Source: https://github.com/NatronGitHub/clut
# LUTr-Source-File: submissions/natron-haldclut-presets/instant_pro/polaroid_665_negative.png
# LUTr-Source-Format: PNG
# LUTr-Source-SHA256: 463c3ebf8e3985c8721f82ecf714523398b45e7eb24aded3817ef91abe675104
# LUTr-License: CC-BY-SA-4.0
# LUTr-License-URL: https://github.com/NatronGitHub/clut#license
# LUTr-Tags: creative, film, film-emulation, hald-clut, natron, png, cube
# LUTr-Transform-Class: film-emulation
# LUTr-Input-Color-Space: srgb
# LUTr-Output-Color-Space: srgb
# LUTr-Color-Space-Confidence: assumed-display-referred
# LUTr-Conversion-Method: PNG LUT image decoded at 16-bit and sampled to 25x25x25 3D CUBE
# LUTr-Conversion-Date: 2026-07-27
# LUTr-Conversion-Tool: LUTr scripts/convert-all-to-cube.mjs
# LUTr-Conversion-Grid: 25x25x25
# LUTr-Note: Preserve this metadata and the upstream license notices when redistributing.
TITLE "polaroid 665 negative"
LUT_3D_SIZE 9
DOMAIN_MIN 0 0 0
DOMAIN_MAX 1 1 1
0.074509804 0.074509804 0.074509804
0.074019608 0.074019608 0.074019608
0.10882353 0.10882353 0.10882353
0.13333333 0.13333333 0.13333333
0.21764706 0.21764706 0.21764706
0.28284314 0.28284314 0.28284314
0.37647059 0.37647059 0.37647059
0.48431373 0.48431373 0.48431373
0.57647059 0.57647059 0.57647059
0.081372549 0.081372549 0.081372549
0.077389706 0.077389706 0.077389706
0.12696078 0.12696078 0.12696078
0.16323529 0.16323529 0.16323529
0.23333333 0.23333333 0.23333333
0.31354167 0.31354167 0.31354167
0.39852941 0.39852941 0.39852941
0.49558824 0.49558824 0.49558824
0.57647059 0.57647059 0.57647059
0.14313725 0.14313725 0.14313725
0.13884804 0.13884804 0.13884804
0.18235294 0.18235294 0.18235294
0.20747549 0.20747549 0.20747549
0.28235294 0.28235294 0.28235294
0.34276961 0.34276961 0.34276961
0.42941176 0.42941176 0.42941176
0.51813725 0.51813725 0.51813725
0.59117647 0.59117647 0.59117647
0.25294118 0.25294118 0.25294118
0.25147059 0.25147059 0.25147059
0.2622549 0.2622549 0.2622549
0.28376225 0.28376225 0.28376225
0.33970588 0.33970588 0.33970588
0.4 0.4 0.4
0.47205882 0.47205882 0.47205882
0.55931373 0.55931373 0.55931373
0.64166667 0.64166667 0.64166667
0.37647059 0.37647059 0.37647059
0.38039216 0.38039216 0.38039216
0.36960784 0.36960784 0.36960784
0.38553922 0.38553922 0.38553922
0.40392157 0.40392157 0.40392157
0.45392157 0.45392157 0.45392157
0.52745098 0.52745098 0.52745098
0.60710784 0.60710784 0.60710784
0.68039216 0.68039216 0.68039216
0.50147059 0.50147059 0.50147059
0.50392157 0.50392157 0.50392157
0.48921569 0.48921569 0.48921569
0.49215686 0.49215686 0.49215686
0.51102941 0.51102941 0.51102941
0.52892157 0.52892157 0.52892157
0.57843137 0.57843137 0.57843137
0.65753676 0.65753676 0.65753676
0.72696078 0.72696078 0.72696078
0.64313725 0.64313725 0.64313725
0.63272059 0.63272059 0.63272059
0.62132353 0.62132353 0.62132353
0.62058824 0.62058824 0.62058824
0.62303922 0.62303922 0.62303922
0.63860294 0.63860294 0.63860294
0.66593137 0.66593137 0.66593137
0.70539216 0.70539216 0.70539216
0.77745098 0.77745098 0.77745098
0.7622549 0.7622549 0.7622549
0.75882353 0.75882353 0.75882353
0.75098039 0.75098039 0.75098039
0.74313725 0.74313725 0.74313725
0.73921569 0.73921569 0.73921569
0.75459559 0.75459559 0.75459559
0.77414216 0.77414216 0.77414216
0.79803922 0.79803922 0.79803922
0.8245098 0.8245098 0.8245098
0.85882353 0.85882353 0.85882353
0.85882353 0.85882353 0.85882353
0.85196078 0.85196078 0.85196078
0.84705882 0.84705882 0.84705882
0.84901961 0.84901961 0.84901961
0.8627451 0.8627451 0.8627451
0.85098039 0.85098039 0.85098039
0.88284314 0.88284314 0.88284314
0.89411765 0.89411765 0.89411765
0.085784314 0.085784314 0.085784314
0.093566176 0.093566176 0.093566176
0.1192402 0.1192402 0.1192402
0.16881127 0.16881127 0.16881127
0.23284314 0.23284314 0.23284314
0.31764706 0.31764706 0.31764706
0.39754902 0.39754902 0.39754902
0.48382353 0.48382353 0.48382353
0.57598039 0.57598039 0.57598039
0.096568627 0.096568627 0.096568627
0.115625 0.115625 0.115625
0.15430453 0.15430453 0.15430453
0.20751379 0.20751379 0.20751379
0.26862745 0.26862745 0.26862745
0.33890931 0.33890931 0.33890931
0.41666667 0.41666667 0.41666667
0.49859069 0.49859069 0.49859069
0.58480392 0.58480392 0.58480392
0.18823529 0.18823529 0.18823529
0.18946078 0.18946078 0.18946078
0.20536152 0.20536152 0.20536152
0.25036765 0.25036765 0.25036765
0.31868873 0.31868873 0.31868873
0.3817402 0.3817402 0.3817402
0.44362745 0.44362745 0.44362745
0.52071078 0.52071078 0.52071078
0.59031863 0.59031863 0.59031863
0.3004902 0.3004902 0.3004902
0.3004902 0.3004902 0.3004902
0.29656863 0.29656863 0.29656863
0.31127451 0.31127451 0.31127451
0.35882353 0.35882353 0.35882353
0.42359069 0.42359069 0.42359069
0.48909314 0.48909314 0.48909314
0.56844363 0.56844363 0.56844363
0.64773284 0.64773284 0.64773284
0.41102941 0.41102941 0.41102941
0.4129902 0.4129902 0.4129902
0.40165441 0.40165441 0.40165441
0.40784314 0.40784314 0.40784314
0.42696078 0.42696078 0.42696078
0.47303922 0.47303922 0.47303922
0.54093137 0.54093137 0.54093137
0.61495098 0.61495098 0.61495098
0.6879902 0.6879902 0.6879902
0.52696078 0.52696078 0.52696078
0.52303922 0.52303922 0.52303922
0.51386336 0.51386336 0.51386336
0.5088848 0.5088848 0.5088848
0.52239583 0.52239583 0.52239583
0.54656863 0.54656863 0.54656863
0.59330576 0.59330576 0.59330576
0.66508885 0.66508885 0.66508885
0.73449755 0.73449755 0.73449755
0.6504902 0.6504902 0.6504902
0.64693627 0.64693627 0.64693627
0.63186275 0.63186275 0.63186275
0.62745098 0.62745098 0.62745098
0.634375 0.634375 0.634375
0.64402574 0.64402574 0.64402574
0.67144608 0.67144608 0.67144608
0.71623775 0.71623775 0.71623775
0.78137255 0.78137255 0.78137255
0.76617647 0.76617647 0.76617647
0.76193321 0.76193321 0.76193321
0.75458027 0.75458027 0.75458027
0.75098039 0.75098039 0.75098039
0.74856005 0.74856005 0.74856005
0.75994945 0.75994945 0.75994945
0.77532169 0.77532169 0.77532169
0.80539216 0.80539216 0.80539216
0.82843137 0.82843137 0.82843137
0.86666667 0.86666667 0.86666667
0.86623775 0.86623775 0.86623775
0.86237745 0.86237745 0.86237745
0.84852941 0.84852941 0.84852941
0.85833333 0.85833333 0.85833333
0.86292892 0.86292892 0.86292892
0.86213235 0.86213235 0.86213235
0.88682598 0.88682598 0.88682598
0.89068627 0.89068627 0.89068627
0.17647059 0.17647059 0.17647059
0.17647059 0.17647059 0.17647059
0.18039216 0.18039216 0.18039216
0.2314951 0.2314951 0.2314951
0.28823529 0.28823529 0.28823529
0.3560049 0.3560049 0.3560049
0.43161765 0.43161765 0.43161765
0.52205882 0.52205882 0.52205882
0.61078431 0.61078431 0.61078431
0.17389706 0.17389706 0.17389706
0.2 0.2 0.2
0.21504289 0.21504289 0.21504289
0.25209865 0.25209865 0.25209865
0.31911765 0.31911765 0.31911765
0.37794118 0.37794118 0.37794118
0.44439338 0.44439338 0.44439338
0.53247549 0.53247549 0.53247549
0.61078431 0.61078431 0.61078431
0.24607843 0.24607843 0.24607843
0.2502451 0.2502451 0.2502451
0.27426471 0.27426471 0.27426471
0.30413603 0.30413603 0.30413603
0.36470588 0.36470588 0.36470588
0.42196691 0.42196691 0.42196691
0.48210784 0.48210784 0.48210784
0.55119485 0.55119485 0.55119485
0.61666667 0.61666667 0.61666667
0.35686275 0.35686275 0.35686275
0.35828738 0.35828738 0.35828738
0.35441176 0.35441176 0.35441176
0.36470588 0.36470588 0.36470588
0.40955882 0.40955882 0.40955882
0.46507353 0.46507353 0.46507353
0.52352941 0.52352941 0.52352941
0.58939951 0.58939951 0.58939951
0.65526961 0.65526961 0.65526961
0.46617647 0.46617647 0.46617647
0.4627451 0.4627451 0.4627451
0.45147059 0.45147059 0.45147059
0.44313725 0.44313725 0.44313725
0.47107843 0.47107843 0.47107843
0.51072304 0.51072304 0.51072304
0.56960784 0.56960784 0.56960784
0.63921569 0.63921569 0.63921569
0.70490196 0.70490196 0.70490196
0.56421569 0.56421569 0.56421569
0.56328125 0.56328125 0.56328125
0.55618873 0.55618873 0.55618873
0.54460784 0.54460784 0.54460784
0.55833333 0.55833333 0.55833333
0.58137255 0.58137255 0.58137255
0.61960784 0.61960784 0.61960784
0.68832721 0.68832721 0.68832721
0.7504902 0.7504902 0.7504902
0.67034314 0.67034314 0.67034314
0.67251838 0.67251838 0.67251838
0.66887255 0.66887255 0.66887255
0.65474877 0.65474877 0.65474877
0.66127451 0.66127451 0.66127451
0.6705576 0.6705576 0.6705576
0.69313725 0.69313725 0.69313725
0.73912377 0.73912377 0.73912377
0.78848039 0.78848039 0.78848039
0.78492647 0.78492647 0.78492647
0.78115809 0.78115809 0.78115809
0.77738971 0.77738971 0.77738971
0.76577819 0.76577819 0.76577819
0.76531863 0.76531863 0.76531863
0.77348346 0.77348346 0.77348346
0.78651961 0.78651961 0.78651961
0.81371017 0.81371017 0.81371017
0.83492647 0.83492647 0.83492647
0.86666667 0.86666667 0.86666667
0.87058824 0.87058824 0.87058824
0.87156863 0.87156863 0.87156863
0.8685049 0.8685049 0.8685049
0.85490196 0.85490196 0.85490196
0.85245098 0.85245098 0.85245098
0.87083333 0.87083333 0.87083333
0.88492647 0.88492647 0.88492647
0.88235294 0.88235294 0.88235294
0.29215686 0.29215686 0.29215686
0.28970588 0.28970588 0.28970588
0.30686275 0.30686275 0.30686275
0.31868873 0.31868873 0.31868873
0.35 0.35 0.35
0.41960784 0.41960784 0.41960784
0.48627451 0.48627451 0.48627451
0.56715686 0.56715686 0.56715686
0.64166667 0.64166667 0.64166667
0.30373775 0.30373775 0.30373775
0.30386029 0.30386029 0.30386029
0.32464767 0.32464767 0.32464767
0.3372549 0.3372549 0.3372549
0.3747549 0.3747549 0.3747549
0.43480392 0.43480392 0.43480392
0.49705882 0.49705882 0.49705882
0.57624847 0.57624847 0.57624847
0.6473652 0.6473652 0.6473652
0.32941176 0.32941176 0.32941176
0.32924326 0.32924326 0.32924326
0.35710784 0.35710784 0.35710784
0.38492647 0.38492647 0.38492647
0.42077206 0.42077206 0.42077206
0.47029718 0.47029718 0.47029718
0.52729779 0.52729779 0.52729779
0.59496017 0.59496017 0.59496017
0.66421569 0.66421569 0.66421569
0.41617647 0.41617647 0.41617647
0.42371324 0.42371324 0.42371324
0.42009804 0.42009804 0.42009804
0.43823529 0.43823529 0.43823529
0.46544118 0.46544118 0.46544118
0.51317402 0.51317402 0.51317402
0.56594669 0.56594669 0.56594669
0.62176011 0.62176011 0.62176011
0.68180147 0.68180147 0.68180147
0.53431373 0.53431373 0.53431373
0.52867647 0.52867647 0.52867647
0.51372549 0.51372549 0.51372549
0.51078431 0.51078431 0.51078431
0.52022059 0.52022059 0.52022059
0.55854779 0.55854779 0.55854779
0.60533088 0.60533088 0.60533088
0.66617647 0.66617647 0.66617647
0.71887255 0.71887255 0.71887255
0.62107843 0.62107843 0.62107843
0.62199755 0.62199755 0.62199755
0.61360294 0.61360294 0.61360294
0.59901961 0.59901961 0.59901961
0.59436275 0.59436275 0.59436275
0.61528033 0.61528033 0.61528033
0.65150123 0.65150123 0.65150123
0.70667126 0.70667126 0.70667126
0.75741422 0.75741422 0.75741422
0.71409314 0.71409314 0.71409314
0.71095282 0.71095282 0.71095282
0.70232843 0.70232843 0.70232843
0.68866422 0.68866422 0.68866422
0.68792892 0.68792892 0.68792892
0.6995098 0.6995098 0.6995098
0.70762868 0.70762868 0.70762868
0.7504136 0.7504136 0.7504136
0.80159314 0.80159314 0.80159314
0.8036152 0.8036152 0.8036152
0.80034467 0.80034467 0.80034467
0.79612439 0.79612439 0.79612439
0.78901654 0.78901654 0.78901654
0.78431373 0.78431373 0.78431373
0.78566942 0.78566942 0.78566942
0.79054841 0.79054841 0.79054841
0.81719516 0.81719516 0.81719516
0.85177696 0.85177696 0.85177696
0.8745098 0.8745098 0.8745098
0.87696078 0.87696078 0.87696078
0.87904412 0.87904412 0.87904412
0.87150735 0.87150735 0.87150735
0.86789216 0.86789216 0.86789216
0.86127451 0.86127451 0.86127451
0.86433824 0.86433824 0.86433824
0.88921569 0.88921569 0.88921569
0.90833333 0.90833333 0.90833333
0.41764706 0.41764706 0.41764706
0.42107843 0.42107843 0.42107843
0.43284314 0.43284314 0.43284314
0.44558824 0.44558824 0.44558824
0.45980392 0.45980392 0.45980392
0.49313725 0.49313725 0.49313725
0.55490196 0.55490196 0.55490196
0.62279412 0.62279412 0.62279412
0.68627451 0.68627451 0.68627451
0.43137255 0.43137255 0.43137255
0.43651961 0.43651961 0.43651961
0.4495098 0.4495098 0.4495098
0.46078431 0.46078431 0.46078431
0.47205882 0.47205882 0.47205882
0.49295343 0.49295343 0.49295343
0.55845588 0.55845588 0.55845588
0.62493873 0.62493873 0.62493873
0.69387255 0.69387255 0.69387255
0.45784314 0.45784314 0.45784314
0.45484069 0.45484069 0.45484069
0.47107843 0.47107843 0.47107843
0.49650735 0.49650735 0.49650735
0.50588235 0.50588235 0.50588235
0.53045343 0.53045343 0.53045343
0.58137255 0.58137255 0.58137255
0.6403799 0.6403799 0.6403799
0.70343137 0.70343137 0.70343137
0.50490196 0.50490196 0.50490196
0.4875 0.4875 0.4875
0.49393382 0.49393382 0.49393382
0.51890319 0.51890319 0.51890319
0.53872549 0.53872549 0.53872549
0.56001838 0.56001838 0.56001838
0.61176471 0.61176471 0.61176471
0.6622549 0.6622549 0.6622549
0.70661765 0.70661765 0.70661765
0.56470588 0.56470588 0.56470588
0.56654412 0.56654412 0.56654412
0.57058824 0.57058824 0.57058824
0.5682598 0.5682598 0.5682598
0.58284314 0.58284314 0.58284314
0.61188725 0.61188725 0.61188725
0.6495098 0.6495098 0.6495098
0.69485294 0.69485294 0.69485294
0.73235294 0.73235294 0.73235294
0.67107843 0.67107843 0.67107843
0.66847426 0.66847426 0.66847426
0.65906863 0.65906863 0.65906863
0.65269608 0.65269608 0.65269608
0.65 0.65 0.65
0.65903799 0.65903799 0.65903799
0.69338235 0.69338235 0.69338235
0.73088235 0.73088235 0.73088235
0.77083333 0.77083333 0.77083333
0.75 0.75 0.75
0.7495098 0.7495098 0.7495098
0.74178922 0.74178922 0.74178922
0.73039216 0.73039216 0.73039216
0.725 0.725 0.725
0.7254902 0.7254902 0.7254902
0.73897059 0.73897059 0.73897059
0.78002451 0.78002451 0.78002451
0.82107843 0.82107843 0.82107843
0.82696078 0.82696078 0.82696078
0.82696078 0.82696078 0.82696078
0.82518382 0.82518382 0.82518382
0.81648284 0.81648284 0.81648284
0.80735294 0.80735294 0.80735294
0.80514706 0.80514706 0.80514706
0.81348039 0.81348039 0.81348039
0.83063725 0.83063725 0.83063725
0.86348039 0.86348039 0.86348039
0.9 0.9 0.9
0.9 0.9 0.9
0.9004902 0.9004902 0.9004902
0.89607843 0.89607843 0.89607843
0.88431373 0.88431373 0.88431373
0.88946078 0.88946078 0.88946078
0.88235294 0.88235294 0.88235294
0.88455882 0.88455882 0.88455882
0.89411765 0.89411765 0.89411765
0.54313725 0.54313725 0.54313725
0.55851716 0.55851716 0.55851716
0.57058824 0.57058824 0.57058824
0.57696078 0.57696078 0.57696078
0.59215686 0.59215686 0.59215686
0.60735294 0.60735294 0.60735294
0.65453431 0.65453431 0.65453431
0.68480392 0.68480392 0.68480392
0.71911765 0.71911765 0.71911765
0.55833333 0.55833333 0.55833333
0.56574755 0.56574755 0.56574755
0.57443321 0.57443321 0.57443321
0.58560815 0.58560815 0.58560815
0.59803922 0.59803922 0.59803922
0.6022595 0.6022595 0.6022595
0.62647059 0.62647059 0.62647059
0.68453585 0.68453585 0.68453585
0.72303922 0.72303922 0.72303922
0.58137255 0.58137255 0.58137255
0.58249081 0.58249081 0.58249081
0.59148284 0.59148284 0.59148284
0.60487132 0.60487132 0.60487132
0.61697304 0.61697304 0.61697304
0.62303922 0.62303922 0.62303922
0.63740809 0.63740809 0.63740809
0.68811275 0.68811275 0.68811275
0.74056373 0.74056373 0.74056373
0.60349265 0.60349265 0.60349265
0.59656863 0.59656863 0.59656863
0.60159314 0.60159314 0.60159314
0.61675092 0.61675092 0.61675092
0.63186275 0.63186275 0.63186275
0.64628523 0.64628523 0.64628523
0.66519608 0.66519608 0.66519608
0.71047794 0.71047794 0.71047794
0.75441176 0.75441176 0.75441176
0.6245098 0.6245098 0.6245098
0.63112745 0.63112745 0.63112745
0.63112745 0.63112745 0.63112745
0.63382353 0.63382353 0.63382353
0.66323529 0.66323529 0.66323529
0.67395833 0.67395833 0.67395833
0.6908701 0.6908701 0.6908701
0.73382353 0.73382353 0.73382353
0.76887255 0.76887255 0.76887255
0.69460784 0.69460784 0.69460784
0.69852941 0.69852941 0.69852941
0.69105392 0.69105392 0.69105392
0.69160539 0.69160539 0.69160539
0.70245098 0.70245098 0.70245098
0.71153493 0.71153493 0.71153493
0.73728554 0.73728554 0.73728554
0.76910999 0.76910999 0.76910999
0.79901961 0.79901961 0.79901961
0.76703431 0.76703431 0.76703431
0.76703431 0.76703431 0.76703431
0.76482843 0.76482843 0.76482843
0.76127451 0.76127451 0.76127451
0.76421569 0.76421569 0.76421569
0.77107843 0.77107843 0.77107843
0.7810049 0.7810049 0.7810049
0.81374081 0.81374081 0.81374081
0.84056373 0.84056373 0.84056373
0.84589461 0.84589461 0.84589461
0.84589461 0.84589461 0.84589461
0.84430147 0.84430147 0.84430147
0.84558824 0.84558824 0.84558824
0.8379902 0.8379902 0.8379902
0.82598039 0.82598039 0.82598039
0.83872549 0.83872549 0.83872549
0.85389859 0.85389859 0.85389859
0.87254902 0.87254902 0.87254902
0.91372549 0.91372549 0.91372549
0.91764706 0.91764706 0.91764706
0.91372549 0.91372549 0.91372549
0.91764706 0.91764706 0.91764706
0.90661765 0.90661765 0.90661765
0.89803922 0.89803922 0.89803922
0.8935049 0.8935049 0.8935049
0.89019608 0.89019608 0.89019608
0.89166667 0.89166667 0.89166667
0.6627451 0.6627451 0.6627451
0.6810049 0.6810049 0.6810049
0.69019608 0.69019608 0.69019608
0.69203431 0.69203431 0.69203431
0.71078431 0.71078431 0.71078431
0.72561275 0.72561275 0.72561275
0.72843137 0.72843137 0.72843137
0.73186275 0.73186275 0.73186275
0.75 0.75 0.75
0.6692402 0.6692402 0.6692402
0.68233762 0.68233762 0.68233762
0.69212623 0.69212623 0.69212623
0.70145527 0.70145527 0.70145527
0.7127451 0.7127451 0.7127451
0.7245098 0.7245098 0.7245098
0.72068015 0.72068015 0.72068015
0.72804841 0.72804841 0.72804841
0.75 0.75 0.75
0.69215686 0.69215686 0.69215686
0.69632353 0.69632353 0.69632353
0.69779412 0.69779412 0.69779412
0.70854779 0.70854779 0.70854779
0.71960784 0.71960784 0.71960784
0.72352941 0.72352941 0.72352941
0.71985294 0.71985294 0.71985294
0.73504902 0.73504902 0.73504902
0.74926471 0.74926471 0.74926471
0.70735294 0.70735294 0.70735294
0.70497855 0.70497855 0.70497855
0.70772059 0.70772059 0.70772059
0.71542586 0.71542586 0.71542586
0.73265931 0.73265931 0.73265931
0.74264706 0.74264706 0.74264706
0.74666054 0.74666054 0.74666054
0.75784314 0.75784314 0.75784314
0.78382353 0.78382353 0.78382353
0.7127451 0.7127451 0.7127451
0.71666667 0.71666667 0.71666667
0.72254902 0.72254902 0.72254902
0.73039216 0.73039216 0.73039216
0.74117647 0.74117647 0.74117647
0.75612745 0.75612745 0.75612745
0.76323529 0.76323529 0.76323529
0.77849265 0.77849265 0.77849265
0.80735294 0.80735294 0.80735294
0.73492647 0.73492647 0.73492647
0.7442402 0.7442402 0.7442402
0.75343137 0.75343137 0.75343137
0.76482843 0.76482843 0.76482843
0.76991422 0.76991422 0.76991422
0.779519 0.779519 0.779519
0.7877451 0.7877451 0.7877451
0.7963848 0.7963848 0.7963848
0.81029412 0.81029412 0.81029412
0.78823529 0.78823529 0.78823529
0.7872549 0.7872549 0.7872549
0.7879902 0.7879902 0.7879902
0.80128676 0.80128676 0.80128676
0.81507353 0.81507353 0.81507353
0.82328431 0.82328431 0.82328431
0.8254902 0.8254902 0.8254902
0.83639706 0.83639706 0.83639706
0.84803922 0.84803922 0.84803922
0.86078431 0.86078431 0.86078431
0.86125919 0.86125919 0.86125919
0.86498162 0.86498162 0.86498162
0.86907169 0.86907169 0.86907169
0.86691176 0.86691176 0.86691176
0.86470588 0.86470588 0.86470588
0.86470588 0.86470588 0.86470588
0.87244179 0.87244179 0.87244179
0.89203431 0.89203431 0.89203431
0.91862745 0.91862745 0.91862745
0.9254902 0.9254902 0.9254902
0.93431373 0.93431373 0.93431373
0.92977941 0.92977941 0.92977941
0.92401961 0.92401961 0.92401961
0.91862745 0.91862745 0.91862745
0.92254902 0.92254902 0.92254902
0.92267157 0.92267157 0.92267157
0.93823529 0.93823529 0.93823529
0.77843137 0.77843137 0.77843137
0.79405637 0.79405637 0.79405637
0.79754902 0.79754902 0.79754902
0.80018382 0.80018382 0.80018382
0.80735294 0.80735294 0.80735294
0.81323529 0.81323529 0.81323529
0.82071078 0.82071078 0.82071078
0.82107843 0.82107843 0.82107843
0.81715686 0.81715686 0.81715686
0.78235294 0.78235294 0.78235294
0.79319853 0.79319853 0.79319853
0.80029105 0.80029105 0.80029105
0.80147059 0.80147059 0.80147059
0.80931373 0.80931373 0.80931373
0.81711857 0.81711857 0.81711857
0.81642157 0.81642157 0.81642157
0.82156863 0.82156863 0.82156863
0.82107843 0.82107843 0.82107843
0.79754902 0.79754902 0.79754902
0.8001685 0.8001685 0.8001685
0.80453431 0.80453431 0.80453431
0.80539216 0.80539216 0.80539216
0.81256127 0.81256127 0.81256127
0.81715686 0.81715686 0.81715686
0.8221201 0.8221201 0.8221201
0.82928922 0.82928922 0.82928922
0.83186275 0.83186275 0.83186275
0.80147059 0.80147059 0.80147059
0.80383732 0.80383732 0.80383732
0.80539216 0.80539216 0.80539216
0.81084559 0.81084559 0.81084559
0.82417279 0.82417279 0.82417279
0.83272825 0.83272825 0.83272825
0.83529412 0.83529412 0.83529412
0.84068627 0.84068627 0.84068627
0.85441176 0.85441176 0.85441176
0.80147059 0.80147059 0.80147059
0.80539216 0.80539216 0.80539216
0.81452206 0.81452206 0.81452206
0.82818627 0.82818627 0.82818627
0.83063725 0.83063725 0.83063725
0.83520221 0.83520221 0.83520221
0.84460784 0.84460784 0.84460784
0.84803922 0.84803922 0.84803922
0.85808824 0.85808824 0.85808824
0.81470588 0.81470588 0.81470588
0.82254902 0.82254902 0.82254902
0.83587623 0.83587623 0.83587623
0.84166667 0.84166667 0.84166667
0.8403799 0.8403799 0.8403799
0.84676777 0.84676777 0.84676777
0.85373775 0.85373775 0.85373775
0.85741422 0.85741422 0.85741422
0.86911765 0.86911765 0.86911765
0.84509804 0.84509804 0.84509804
0.8493413 0.8493413 0.8493413
0.84938725 0.84938725 0.84938725
0.85931373 0.85931373 0.85931373
0.86862745 0.86862745 0.86862745
0.87222733 0.87222733 0.87222733
0.86822917 0.86822917 0.86822917
0.88345588 0.88345588 0.88345588
0.89607843 0.89607843 0.89607843
0.88382353 0.88382353 0.88382353
0.89590227 0.89590227 0.89590227
0.90343137 0.90343137 0.90343137
0.90751379 0.90751379 0.90751379
0.89993873 0.89993873 0.89993873
0.90294118 0.90294118 0.90294118
0.90332414 0.90332414 0.90332414
0.89993873 0.89993873 0.89993873
0.91905637 0.91905637 0.91905637
0.9377451 0.9377451 0.9377451
0.94466912 0.94466912 0.94466912
0.94901961 0.94901961 0.94901961
0.94920343 0.94920343 0.94920343
0.94558824 0.94558824 0.94558824
0.94166667 0.94166667 0.94166667
0.95379902 0.95379902 0.95379902
0.95294118 0.95294118 0.95294118
0.95686275 0.95686275 0.95686275
0.88627451 0.88627451 0.88627451
0.88235294 0.88235294 0.88235294
0.87156863 0.87156863 0.87156863
0.86519608 0.86519608 0.86519608
0.88431373 0.88431373 0.88431373
0.89411765 0.89411765 0.89411765
0.90196078 0.90196078 0.90196078
0.91715686 0.91715686 0.91715686
0.90588235 0.90588235 0.90588235
0.87843137 0.87843137 0.87843137
0.88229167 0.88229167 0.88229167
0.86115196 0.86115196 0.86115196
0.86145833 0.86145833 0.86145833
0.88627451 0.88627451 0.88627451
0.89803922 0.89803922 0.89803922
0.89068627 0.89068627 0.89068627
0.90588235 0.90588235 0.90588235
0.90196078 0.90196078 0.90196078
0.88235294 0.88235294 0.88235294
0.88627451 0.88627451 0.88627451
0.83848039 0.83848039 0.83848039
0.87267157 0.87267157 0.87267157
0.88823529 0.88823529 0.88823529
0.90637255 0.90637255 0.90637255
0.90196078 0.90196078 0.90196078
0.91286765 0.91286765 0.91286765
0.9127451 0.9127451 0.9127451
0.88235294 0.88235294 0.88235294
0.89362745 0.89362745 0.89362745
0.88578431 0.88578431 0.88578431
0.89895833 0.89895833 0.89895833
0.89411765 0.89411765 0.89411765
0.90435049 0.90435049 0.90435049
0.91323529 0.91323529 0.91323529
0.91550245 0.91550245 0.91550245
0.9254902 0.9254902 0.9254902
0.88039216 0.88039216 0.88039216
0.88627451 0.88627451 0.88627451
0.89803922 0.89803922 0.89803922
0.89803922 0.89803922 0.89803922
0.89313725 0.89313725 0.89313725
0.90269608 0.90269608 0.90269608
0.91372549 0.91372549 0.91372549
0.91764706 0.91764706 0.91764706
0.91764706 0.91764706 0.91764706
0.8877451 0.8877451 0.8877451
0.89540441 0.89540441 0.89540441
0.90588235 0.90588235 0.90588235
0.90251225 0.90251225 0.90251225
0.90588235 0.90588235 0.90588235
0.9161152 0.9161152 0.9161152
0.92156863 0.92156863 0.92156863
0.92696078 0.92696078 0.92696078
0.92941176 0.92941176 0.92941176
0.90588235 0.90588235 0.90588235
0.91066176 0.91066176 0.91066176
0.90980392 0.90980392 0.90980392
0.91764706 0.91764706 0.91764706
0.92205882 0.92205882 0.92205882
0.9254902 0.9254902 0.9254902
0.92156863 0.92156863 0.92156863
0.9377451 0.9377451 0.9377451
0.94901961 0.94901961 0.94901961
0.92990196 0.92990196 0.92990196
0.92990196 0.92990196 0.92990196
0.92585784 0.92585784 0.92585784
0.93204657 0.93204657 0.93204657
0.94166667 0.94166667 0.94166667
0.93382353 0.93382353 0.93382353
0.92598039 0.92598039 0.92598039
0.94123775 0.94123775 0.94123775
0.96078431 0.96078431 0.96078431
0.96862745 0.96862745 0.96862745
0.95343137 0.95343137 0.95343137
0.94901961 0.94901961 0.94901961
0.95294118 0.95294118 0.95294118
0.96470588 0.96470588 0.96470588
0.95931373 0.95931373 0.95931373
0.94901961 0.94901961 0.94901961
0.95735294 0.95735294 0.95735294
0.97647059 0.97647059 0.97647059
