site/assets/luts/natron-haldclut--goldfx-bright-summer-heat--d3d178ea9.cube
# LUTr-Project: LUTr — LUTrepository
# LUTr-Schema-Version: 1
# LUTr-ID: natron-haldclut--goldfx-bright-summer-heat--d3d178ea9
# LUTr-Title: goldfx bright summer heat
# LUTr-Collection: Natron HaldCLUT
# LUTr-Collection-ID: natron-haldclut-presets
# LUTr-Source: https://github.com/NatronGitHub/clut
# LUTr-Source-File: submissions/natron-haldclut-presets/picturefx/goldfx_bright_summer_heat.png
# LUTr-Source-Format: PNG
# LUTr-Source-SHA256: dfb991a50d2fd3c3c5bb4c80b99238705590e4712c0c5b33761490452c43e6b0
# LUTr-License: CC-BY-SA-4.0
# LUTr-License-URL: https://github.com/NatronGitHub/clut#license
# LUTr-Tags: creative, film, film-emulation, hald-clut, natron, png, cube
# LUTr-Transform-Class: film-emulation
# LUTr-Input-Color-Space: srgb
# LUTr-Output-Color-Space: srgb
# LUTr-Color-Space-Confidence: assumed-display-referred
# LUTr-Conversion-Method: PNG LUT image decoded at 16-bit and sampled to 25x25x25 3D CUBE
# LUTr-Conversion-Date: 2026-07-27
# LUTr-Conversion-Tool: LUTr scripts/convert-all-to-cube.mjs
# LUTr-Conversion-Grid: 25x25x25
# LUTr-Note: Preserve this metadata and the upstream license notices when redistributing.
TITLE "goldfx bright summer heat"
LUT_3D_SIZE 5
DOMAIN_MIN 0 0 0
DOMAIN_MAX 1 1 1
0.0039215686 0.0039215686 0.0039215686
0.15784314 0.046078431 0.054901961
0.54313725 0.043137255 0.084313725
0.90392157 0.25588235 0.062745098
1 0.56862745 0.19607843
0.039215686 0.18137255 0.10882353
0.20098039 0.22941176 0.1120098
0.60098039 0.24117647 0.087254902
0.90490196 0.38357843 0.041421569
1 0.60294118 0.17647059
0.1372549 0.60196078 0.1372549
0.16911765 0.60539216 0.15588235
0.65490196 0.63039216 0.12745098
0.92009804 0.65294118 0.12107843
1 0.71568627 0.14901961
0.47941176 0.86372549 0.3127451
0.58039216 0.89779412 0.36004902
0.76960784 0.90833333 0.3745098
0.93627451 0.89313725 0.32181373
1 0.90882353 0.35392157
0.96078431 1 0.70196078
0.99901961 1 0.74215686
0.99803922 0.98431373 0.75882353
1 0.98039216 0.75294118
1 0.98039216 0.76862745
0.019607843 0.057843137 0.16568627
0.14044118 0.085294118 0.16740196
0.54558824 0.046568627 0.19607843
0.90808824 0.34485294 0.23553922
1 0.60588235 0.33333333
0.050735294 0.22818627 0.21176471
0.21568627 0.23002451 0.22377451
0.64534314 0.25343137 0.21629902
0.91176471 0.43002451 0.2245098
1 0.6372549 0.33112745
0.12941176 0.59803922 0.21960784
0.22781863 0.62156863 0.24215686
0.67671569 0.63946078 0.21568627
0.93186275 0.65147059 0.16605392
1 0.73235294 0.2754902
0.54656863 0.89044118 0.3747549
0.59509804 0.89803922 0.40098039
0.75686275 0.89705882 0.40257353
0.9370098 0.89074755 0.35900735
1 0.92916667 0.40686275
0.98039216 1 0.71470588
0.99117647 1 0.73848039
0.99607843 0.98823529 0.75833333
1 0.98112745 0.74779412
1 0.98039216 0.74705882
0.13921569 0.13529412 0.37843137
0.36617647 0.17598039 0.38823529
0.63823529 0.32745098 0.39705882
0.88382353 0.32107843 0.42401961
0.99607843 0.61764706 0.50588235
0.15686275 0.27990196 0.42647059
0.34019608 0.30502451 0.43235294
0.69240196 0.44362745 0.43235294
0.91911765 0.42181373 0.45392157
0.99754902 0.64362745 0.50686275
0.28627451 0.61960784 0.44117647
0.32794118 0.63553922 0.45980392
0.73921569 0.66617647 0.47843137
0.95098039 0.70269608 0.48186275
1 0.80294118 0.55
0.7 0.88186275 0.53382353
0.7307598 0.91495098 0.56397059
0.78480392 0.90098039 0.53970588
0.9432598 0.89803922 0.52218137
1 0.90343137 0.51813725
0.98627451 1 0.76470588
0.99313725 0.99607843 0.77892157
0.98039216 0.99607843 0.74901961
1 0.98039216 0.80686275
1 0.98039216 0.79803922
0.49705882 0.31666667 0.59313725
0.6245098 0.38406863 0.61151961
0.81715686 0.57598039 0.62843137
0.90784314 0.70710784 0.64142157
0.99901961 0.72745098 0.68431373
0.53210784 0.44509804 0.63112745
0.60588235 0.46985294 0.62647059
0.825 0.63468137 0.64607843
0.91004902 0.71868873 0.64515931
0.9747549 0.69926471 0.65220588
0.44117647 0.66666667 0.63529412
0.47708333 0.66666667 0.64607843
0.76936275 0.70539216 0.66470588
0.93394608 0.81629902 0.70061275
0.99901961 0.80245098 0.70833333
0.68333333 0.8872549 0.69436275
0.6973652 0.90398284 0.70814951
0.75208333 0.87156863 0.68235294
0.92573529 0.88204657 0.696875
1 0.92352941 0.74901961
0.97254902 1 0.85882353
0.98333333 0.99313725 0.87377451
0.96568627 1 0.83431373
0.99485294 0.99215686 0.8502451
1 0.98137255 0.88333333
0.78823529 0.71764706 0.86666667
0.80882353 0.71470588 0.85294118
0.89411765 0.78823529 0.86078431
0.96470588 0.8627451 0.87254902
0.98823529 0.89019608 0.8627451
0.76862745 0.71372549 0.84411765
0.80539216 0.74191176 0.86127451
0.89215686 0.79901961 0.86421569
0.95784314 0.85906863 0.86053922
1 0.9 0.88823529
0.74705882 0.77058824 0.84509804
0.77352941 0.79509804 0.88872549
0.86372549 0.82647059 0.88921569
0.95637255 0.88137255 0.88578431
1 0.92352941 0.9
0.6872549 0.88921569 0.90392157
0.69583333 0.89313725 0.9129902
0.72009804 0.86323529 0.89166667
0.91691176 0.88823529 0.90588235
1 0.95588235 0.91372549
0.83921569 1 0.97254902
0.92156863 1 0.99607843
0.88627451 1 0.98627451
0.93137255 0.99215686 0.96666667
1 0.98431373 1
