site/assets/luts/natron-haldclut--faded-analog--44dbb4563.cube
# LUTr-Project: LUTr — LUTrepository
# LUTr-Schema-Version: 1
# LUTr-ID: natron-haldclut--faded-analog--44dbb4563
# LUTr-Title: faded analog
# LUTr-Collection: Natron HaldCLUT
# LUTr-Collection-ID: natron-haldclut-presets
# LUTr-Source: https://github.com/NatronGitHub/clut
# LUTr-Source-File: submissions/natron-haldclut-presets/various/faded_analog.png
# LUTr-Source-Format: PNG
# LUTr-Source-SHA256: e7b6990d39b47572db74544b87adf772f1b555083f9fd6d859a8c99cc7f1b76c
# LUTr-License: CC-BY-SA-4.0
# LUTr-License-URL: https://github.com/NatronGitHub/clut#license
# LUTr-Tags: creative, film, film-emulation, hald-clut, natron, png, vintage, cube
# LUTr-Transform-Class: film-emulation
# LUTr-Input-Color-Space: srgb
# LUTr-Output-Color-Space: srgb
# LUTr-Color-Space-Confidence: assumed-display-referred
# LUTr-Conversion-Method: PNG LUT image decoded at 16-bit and sampled to 25x25x25 3D CUBE
# LUTr-Conversion-Date: 2026-07-27
# LUTr-Conversion-Tool: LUTr scripts/convert-all-to-cube.mjs
# LUTr-Conversion-Grid: 25x25x25
# LUTr-Note: Preserve this metadata and the upstream license notices when redistributing.
TITLE "faded analog"
LUT_3D_SIZE 25
DOMAIN_MIN 0 0 0
DOMAIN_MAX 1 1 1
0.090196078 0.08627451 0.2627451
0.094117647 0.08872549 0.26911765
0.099019608 0.090196078 0.27843137
0.10539216 0.090196078 0.28578431
0.11568627 0.092156863 0.28823529
0.1504902 0.090196078 0.28235294
0.18529412 0.090196078 0.2754902
0.21764706 0.08627451 0.26911765
0.25490196 0.08627451 0.2627451
0.30637255 0.083823529 0.2627451
0.36176471 0.082352941 0.2627451
0.41323529 0.082352941 0.25931373
0.46470588 0.084313725 0.25686275
0.51617647 0.08627451 0.25539216
0.56078431 0.083333333 0.26568627
0.60196078 0.082352941 0.27598039
0.64705882 0.082352941 0.28627451
0.68578431 0.084803922 0.29264706
0.71176471 0.087254902 0.29019608
0.73235294 0.086764706 0.28284314
0.75686275 0.08627451 0.27647059
0.78137255 0.082352941 0.26666667
0.78823529 0.08627451 0.26666667
0.79215686 0.090196078 0.27058824
0.79215686 0.094117647 0.2745098
0.08627451 0.08627451 0.2627451
0.093566176 0.089644608 0.26911765
0.10257353 0.097181373 0.2754902
0.10931373 0.10422794 0.28204657
0.12205882 0.10882353 0.28504902
0.153125 0.1026348 0.27971814
0.18529412 0.095465686 0.27487745
0.21617647 0.089644608 0.26758578
0.25098039 0.08627451 0.26029412
0.30490196 0.082352941 0.2627451
0.35992647 0.082352941 0.2627451
0.41323529 0.082352941 0.25900735
0.46862745 0.082352941 0.25686275
0.51991422 0.08627451 0.25539216
0.56078431 0.082720588 0.26568627
0.60196078 0.082352941 0.27598039
0.64705882 0.082352941 0.28627451
0.68731618 0.084803922 0.29356618
0.71176471 0.089093137 0.29019608
0.73235294 0.092340686 0.28284314
0.75686275 0.091176471 0.27647059
0.77892157 0.089705882 0.26648284
0.79068627 0.093014706 0.26666667
0.79215686 0.096568627 0.27058824
0.79215686 0.099019608 0.27058824
0.08627451 0.10098039 0.2627451
0.09620098 0.10735294 0.26519608
0.10686275 0.11666667 0.27132353
0.11421569 0.12438725 0.27794118
0.12794118 0.12941176 0.27990196
0.15931373 0.12303922 0.27438725
0.19019608 0.1127451 0.26985294
0.22009804 0.1067402 0.26519608
0.25098039 0.10196078 0.2627451
0.30490196 0.10098039 0.26335784
0.35882353 0.10098039 0.26372549
0.41323529 0.10098039 0.2627451
0.46813725 0.10098039 0.25931373
0.51960784 0.10098039 0.25625
0.56078431 0.10098039 0.26470588
0.60196078 0.099877451 0.27598039
0.64705882 0.098039216 0.28627451
0.68578431 0.10098039 0.29203431
0.71176471 0.10588235 0.28995098
0.73235294 0.1127451 0.28284314
0.75294118 0.11666667 0.27647059
0.77647059 0.12058824 0.27058824
0.79117647 0.12058824 0.27058824
0.79705882 0.1245098 0.27058824
0.79705882 0.12745098 0.27058824
0.089705882 0.13578431 0.2627451
0.092647059 0.13823529 0.26648284
0.10343137 0.14375 0.27058824
0.11372549 0.15098039 0.2745098
0.13137255 0.15196078 0.2747549
0.1622549 0.14405637 0.27058824
0.19056373 0.13982843 0.27022059
0.22009804 0.13578431 0.26666667
0.25833333 0.13578431 0.26617647
0.30637255 0.13529412 0.26666667
0.35796569 0.13529412 0.26666667
0.41323529 0.13529412 0.26666667
0.46470588 0.13529412 0.2627451
0.51574755 0.13186275 0.2622549
0.55992647 0.13186275 0.2627451
0.60196078 0.13186275 0.27205882
0.64313725 0.13186275 0.28235294
0.68431373 0.13400735 0.28676471
0.70796569 0.13970588 0.28664216
0.72892157 0.1466299 0.28284314
0.75294118 0.1495098 0.27647059
0.77352941 0.15147059 0.2745098
0.79031863 0.15147059 0.27401961
0.80128676 0.15165441 0.27058824
0.80735294 0.15539216 0.27058824
0.090196078 0.17058824 0.26666667
0.090196078 0.17058824 0.26666667
0.097058824 0.1745098 0.26666667
0.10906863 0.18014706 0.27034314
0.13235294 0.17745098 0.27058824
0.16004902 0.17426471 0.275
0.18921569 0.17058824 0.27156863
0.22156863 0.17058824 0.27181373
0.2627451 0.17058824 0.26666667
0.30784314 0.16936275 0.26666667
0.35784314 0.16862745 0.27058824
0.41127451 0.16862745 0.26715686
0.46078431 0.16764706 0.26666667
0.51004902 0.16666667 0.26470588
0.55637255 0.16666667 0.2627451
0.60196078 0.16666667 0.26936275
0.64313725 0.16666667 0.27254902
0.68186275 0.16789216 0.27892157
0.70784314 0.17303922 0.27990196
0.72843137 0.17818627 0.27647059
0.75098039 0.18235294 0.2745098
0.76960784 0.18235294 0.2745098
0.78872549 0.18235294 0.2745098
0.80539216 0.18039216 0.27058824
0.81372549 0.18235294 0.27058824
0.090196078 0.20539216 0.26666667
0.089705882 0.20539216 0.26666667
0.090686275 0.20539216 0.2627451
0.10441176 0.20931373 0.26617647
0.13088235 0.20539216 0.26691176
0.15833333 0.20539216 0.27150735
0.18921569 0.20539216 0.27487745
0.2254902 0.20539216 0.2745098
0.26666667 0.20539216 0.27058824
0.31029412 0.20539216 0.26666667
0.35784314 0.20453431 0.26666667
0.40931373 0.20196078 0.26666667
0.46053922 0.20147059 0.26666667
0.50784314 0.20104167 0.26666667
0.55294118 0.19803922 0.26666667
0.5995098 0.19803922 0.2627451
0.64362745 0.19803922 0.2622549
0.68363971 0.20177696 0.26832108
0.70784314 0.20637255 0.26752451
0.72843137 0.20974265 0.27052696
0.75294118 0.21544118 0.27230392
0.76960784 0.21366422 0.2745098
0.7872549 0.21066176 0.27414216
0.80686275 0.20931373 0.26911765
0.82009804 0.20882353 0.26617647
0.087254902 0.23921569 0.26666667
0.08627451 0.23921569 0.2627451
0.08627451 0.23946078 0.2620098
0.096691176 0.24019608 0.26237745
0.12745098 0.23970588 0.27009804
0.15833333 0.24019608 0.27487745
0.18921569 0.24019608 0.27843137
0.2254902 0.24019608 0.27634804
0.26666667 0.24019608 0.26764706
0.30784314 0.23921569 0.26311275
0.35784314 0.23921569 0.26372549
0.40931373 0.23627451 0.26629902
0.45686275 0.23578431 0.26666667
0.50441176 0.23235294 0.2692402
0.55196078 0.23235294 0.26666667
0.59620098 0.23235294 0.2627451
0.64411765 0.23529412 0.25882353
0.68688725 0.23627451 0.25588235
0.70784314 0.24019608 0.26053922
0.73223039 0.24411765 0.26629902
0.75588235 0.24803922 0.26764706
0.77303922 0.24791667 0.27058824
0.79019608 0.24411765 0.27058824
0.8057598 0.24019608 0.26666667
0.81666667 0.23921569 0.26568627
0.08627451 0.27892157 0.2627451
0.08627451 0.27892157 0.2627451
0.088357843 0.27647059 0.2627451
0.097242647 0.27647059 0.26636029
0.12279412 0.275 0.27254902
0.15441176 0.275 0.28020833
0.18713235 0.275 0.28492647
0.2254902 0.275 0.27843137
0.26666667 0.275 0.26813725
0.30692402 0.275 0.26029412
0.35392157 0.27438725 0.25882353
0.40539216 0.27126225 0.2627451
0.45686275 0.26862745 0.26666667
0.50410539 0.26862745 0.26881127
0.55196078 0.26862745 0.26666667
0.59803922 0.26862745 0.2627451
0.64558824 0.27254902 0.25882353
0.68431373 0.27408088 0.25637255
0.70882353 0.27536765 0.25882353
0.73235294 0.27647059 0.25882353
0.75686275 0.27892157 0.2620098
0.77352941 0.27892157 0.26519608
0.7872549 0.27892157 0.26666667
0.80147059 0.27647059 0.26666667
0.81176471 0.275 0.26666667
0.08627451 0.31372549 0.25882353
0.08872549 0.31372549 0.2627451
0.095098039 0.31764706 0.26666667
0.10147059 0.31372549 0.27009804
0.11960784 0.31372549 0.2745098
0.14656863 0.31372549 0.28284314
0.18039216 0.31372549 0.29019608
0.22156863 0.30980392 0.28088235
0.2627451 0.30980392 0.27058824
0.30392157 0.30980392 0.26029412
0.35392157 0.30980392 0.25588235
0.40539216 0.30980392 0.25882353
0.45686275 0.30588235 0.2627451
0.50441176 0.30588235 0.26666667
0.55294118 0.30588235 0.26372549
0.5995098 0.30980392 0.2627451
0.64313725 0.30980392 0.25882353
0.67794118 0.31372549 0.25882353
0.70784314 0.31372549 0.25882353
0.73235294 0.31372549 0.25882353
0.75882353 0.30980392 0.25490196
0.77303922 0.31372549 0.25931373
0.78627451 0.31372549 0.2627451
0.79754902 0.31372549 0.26666667
0.80784314 0.30980392 0.26666667
0.08627451 0.35098039 0.25882353
0.093566176 0.35490196 0.2627451
0.10085784 0.35490196 0.26764706
0.10569853 0.35490196 0.27432598
0.11887255 0.35098039 0.27769608
0.14264706 0.35098039 0.28284314
0.17647059 0.35134804 0.29056373
0.21764706 0.35098039 0.27843137
0.2627451 0.35098039 0.26666667
0.30637255 0.34852941 0.2627451
0.35637255 0.34816176 0.25882353
0.40931373 0.34705882 0.26096814
0.46004902 0.34705882 0.2627451
0.50814951 0.34705882 0.2627451
0.55588235 0.34705882 0.26335784
0.60196078 0.34852941 0.2627451
0.64313725 0.35098039 0.2627451
0.6754902 0.35490196 0.2627451
0.70490196 0.35490196 0.2627451
0.73186275 0.35490196 0.26145833
0.75686275 0.35416667 0.26127451
0.77303922 0.35098039 0.26145833
0.7872549 0.35098039 0.2627451
0.79754902 0.34852941 0.2627451
0.80784314 0.34705882 0.2627451
0.090196078 0.39607843 0.26372549
0.096568627 0.39607843 0.26556373
0.10294118 0.39436275 0.26764706
0.11066176 0.39215686 0.27401961
0.11960784 0.39215686 0.27843137
0.14215686 0.39215686 0.2814951
0.17328431 0.39215686 0.28529412
0.21703431 0.39007353 0.27598039
0.25882353 0.38823529 0.26764706
0.30637255 0.38823529 0.26875
0.35784314 0.38823529 0.26348039
0.40931373 0.38823529 0.2627451
0.46078431 0.38823529 0.2627451
0.50833333 0.38823529 0.26311275
0.55686275 0.38823529 0.26348039
0.60159314 0.39215686 0.26482843
0.63921569 0.39215686 0.26666667
0.67401961 0.39460784 0.26666667
0.70490196 0.39607843 0.26593137
0.73235294 0.39607843 0.26372549
0.75637255 0.39607843 0.26372549
0.77218137 0.39215686 0.26629902
0.78627451 0.38823529 0.2627451
0.79901961 0.38786765 0.25882353
0.81176471 0.38431373 0.25784314
0.090196078 0.4372549 0.26666667
0.096568627 0.43511029 0.26666667
0.10588235 0.43333333 0.27058824
0.11323529 0.43333333 0.27359069
0.12352941 0.43333333 0.27107843
0.13915441 0.43333333 0.275
0.17254902 0.43333333 0.275
0.21372549 0.42941176 0.27058824
0.25882353 0.42941176 0.27401961
0.30294118 0.42579657 0.27420343
0.35784314 0.42941176 0.26654412
0.40931373 0.42941176 0.2627451
0.46078431 0.42941176 0.2627451
0.50833333 0.42941176 0.2627451
0.55686275 0.42941176 0.2627451
0.59803922 0.43333333 0.26666667
0.63921569 0.43333333 0.26666667
0.67401961 0.43363971 0.26666667
0.70490196 0.4372549 0.26666667
0.73235294 0.4372549 0.26666667
0.75294118 0.43529412 0.26666667
0.76911765 0.43284314 0.26666667
0.78333333 0.42941176 0.26372549
0.79901961 0.4254902 0.26096814
0.81176471 0.4254902 0.25833333
0.090196078 0.47647059 0.27058824
0.097303922 0.4745098 0.27058824
0.10686275 0.4745098 0.27009804
0.11544118 0.4745098 0.26862745
0.1254902 0.47352941 0.26666667
0.13872549 0.47058824 0.26691176
0.17254902 0.47058824 0.26862745
0.21372549 0.47058824 0.26813725
0.25490196 0.46666667 0.28039216
0.30245098 0.46666667 0.27794118
0.35784314 0.47058824 0.26960784
0.40931373 0.47058824 0.2627451
0.46078431 0.47058824 0.26078431
0.50833333 0.47058824 0.2627451
0.55441176 0.47401961 0.2627451
0.59607843 0.4745098 0.26544118
0.63529412 0.4745098 0.26666667
0.67401961 0.4745098 0.26470588
0.70882353 0.475 0.2627451
0.73602941 0.47647059 0.26617647
0.75098039 0.47352941 0.26666667
0.76911765 0.47034314 0.26666667
0.78480392 0.46666667 0.26666667
0.80147059 0.4627451 0.26470588
0.81176471 0.4627451 0.2627451
0.089705882 0.51568627 0.26666667
0.096262255 0.51568627 0.26666667
0.10686275 0.51568627 0.26666667
0.11715686 0.51519608 0.26623775
0.12745098 0.51176471 0.2625
0.13823529 0.51176471 0.2622549
0.16960784 0.51176471 0.26262255
0.20980392 0.50784314 0.27224265
0.25098039 0.50784314 0.28627451
0.30245098 0.50765931 0.28400735
0.35490196 0.50784314 0.27009804
0.40974265 0.51127451 0.25931373
0.4627451 0.51176471 0.25857843
0.50784314 0.51219363 0.25882353
0.55159314 0.51568627 0.2627451
0.59393382 0.51568627 0.26617647
0.63137255 0.51568627 0.2627451
0.67254902 0.51568627 0.2627451
0.7127451 0.51556373 0.2627451
0.73627451 0.51519608 0.2627451
0.75294118 0.51176471 0.26666667
0.76960784 0.50784314 0.27058824
0.78639706 0.50784314 0.27058824
0.80147059 0.50392157 0.27058824
0.81176471 0.50392157 0.26715686
0.08627451 0.55686275 0.26666667
0.092647059 0.55502451 0.26666667
0.10318627 0.55367647 0.26666667
0.11421569 0.55294118 0.26323529
0.12745098 0.55294118 0.26078431
0.14080882 0.54987745 0.25490196
0.16960784 0.54901961 0.26176471
0.20980392 0.54901961 0.27708333
0.25098039 0.54509804 0.29019608
0.30098039 0.54571078 0.28884804
0.35490196 0.54901961 0.27573529
0.41311275 0.54901961 0.25968137
0.4627451 0.55147059 0.25490196
0.50441176 0.55294118 0.25882353
0.54901961 0.55294118 0.2627451
0.59019608 0.55392157 0.2627451
0.63431373 0.55392157 0.26568627
0.67365196 0.55330882 0.26568627
0.7127451 0.55220588 0.2627451
0.73627451 0.55 0.26617647
0.75441176 0.55 0.26862745
0.77254902 0.54901961 0.27095588
0.78946078 0.54901961 0.2745098
0.80477941 0.54509804 0.2745098
0.81176471 0.54509804 0.27352941
0.082352941 0.59264706 0.2627451
0.091176471 0.59319853 0.2627451
0.099019608 0.59264706 0.2627451
0.10784314 0.59019608 0.26145833
0.12279412 0.59019608 0.25882353
0.14019608 0.58609069 0.25667892
0.17291667 0.58480392 0.26176471
0.21280637 0.5838848 0.27506127
0.25245098 0.58088235 0.28872549
0.30245098 0.58088235 0.28627451
0.35784314 0.58296569 0.27316176
0.41305147 0.58480392 0.26060049
0.4627451 0.58480392 0.26029412
0.5096201 0.58872549 0.2627451
0.55404412 0.58872549 0.26421569
0.59859069 0.58872549 0.26666667
0.63921569 0.58872549 0.26666667
0.67794118 0.58872549 0.26813725
0.71066176 0.58811275 0.26605392
0.73627451 0.58480392 0.26617647
0.75686275 0.58480392 0.26862745
0.77481618 0.58658088 0.27107843
0.79411765 0.58872549 0.2745098
0.80839461 0.58627451 0.27598039
0.81176471 0.5877451 0.27598039
0.08627451 0.62352941 0.26666667
0.08872549 0.62745098 0.2627451
0.094117647 0.62745098 0.26176471
0.10147059 0.62745098 0.25882353
0.11764706 0.6254902 0.25882353
0.14656863 0.61960784 0.25931373
0.17745098 0.61666667 0.2627451
0.21372549 0.61568627 0.27205882
0.25490196 0.61568627 0.28235294
0.30245098 0.61568627 0.27990196
0.35784314 0.61568627 0.26960784
0.40931373 0.61568627 0.26666667
0.46078431 0.61764706 0.26666667
0.5122549 0.61960784 0.26666667
0.55980392 0.62352941 0.27058824
0.60588235 0.62352941 0.27058824
0.64705882 0.62352941 0.27058824
0.68186275 0.62352941 0.27058824
0.70882353 0.62254902 0.26568627
0.73970588 0.61960784 0.2627451
0.76078431 0.61960784 0.26666667
0.77745098 0.61960784 0.27058824
0.79509804 0.62352941 0.2745098
0.80931373 0.62352941 0.27843137
0.81176471 0.62352941 0.27843137
0.08872549 0.65588235 0.26666667
0.090196078 0.65833333 0.26366422
0.090808824 0.6622549 0.25882353
0.095404412 0.6622549 0.25490196
0.11960784 0.65833333 0.25882353
0.1504902 0.65441176 0.2627451
0.18137255 0.6504902 0.2627451
0.21372549 0.64901961 0.26721814
0.25490196 0.64656863 0.27598039
0.30490196 0.64656863 0.26960784
0.35784314 0.64656863 0.26666667
0.40931373 0.64656863 0.27040441
0.46078431 0.6504902 0.27303922
0.5122549 0.65098039 0.27303922
0.56078431 0.65441176 0.27303922
0.60980392 0.65833333 0.27303922
0.65098039 0.65833333 0.27303922
0.68186275 0.65588235 0.27058824
0.71176471 0.65441176 0.26568627
0.73970588 0.65655637 0.26060049
0.7620098 0.65441176 0.2627451
0.77745098 0.65410539 0.26844363
0.79411765 0.65159314 0.27352941
0.80539216 0.6528799 0.2745098
0.81176471 0.65441176 0.2745098
0.090196078 0.68529412 0.26666667
0.090196078 0.68823529 0.26421569
0.094117647 0.68921569 0.25955882
0.098529412 0.68921569 0.25882353
0.11911765 0.68921569 0.25882353
0.14644608 0.68529412 0.2627451
0.17941176 0.68161765 0.26348039
0.21556373 0.68235294 0.26237745
0.25098039 0.68235294 0.26568627
0.30490196 0.68137255 0.2627451
0.35784314 0.68137255 0.26764706
0.40931373 0.68137255 0.27401961
0.46078431 0.68137255 0.2745098
0.5122549 0.68431373 0.2745098
0.56053922 0.68529412 0.2745098
0.61127451 0.68823529 0.2745098
0.65098039 0.68823529 0.2745098
0.68125 0.68639706 0.27095588
0.70882353 0.68431373 0.26740196
0.73970588 0.68431373 0.26286765
0.7627451 0.68431373 0.26127451
0.77696078 0.68137255 0.26580882
0.79093137 0.68137255 0.26887255
0.80477941 0.68137255 0.27058824
0.81176471 0.68431373 0.26960784
0.090196078 0.7127451 0.26666667
0.090196078 0.71488971 0.26666667
0.09497549 0.71617647 0.2627451
0.10533088 0.71617647 0.2627451
0.12132353 0.71838235 0.2627451
0.13921569 0.71917892 0.2627451
0.17267157 0.71580882 0.2627451
0.21029412 0.71617647 0.25882353
0.24754902 0.71960784 0.25539216
0.30275735 0.71372549 0.26127451
0.35784314 0.70870098 0.26764706
0.40931373 0.70833333 0.27058824
0.46078431 0.70833333 0.27107843
0.50833333 0.70925245 0.27107843
0.55980392 0.7122549 0.27107843
0.60998775 0.7127451 0.27107843
0.65098039 0.70882353 0.2745098
0.67794118 0.70882353 0.2745098
0.70882353 0.70490196 0.27046569
0.73970588 0.70490196 0.26666667
0.7627451 0.70490196 0.26617647
0.77696078 0.70490196 0.26623775
0.79019608 0.70870098 0.26323529
0.80294118 0.7122549 0.26323529
0.81176471 0.71568627 0.26323529
0.08627451 0.73921569 0.26666667
0.089460784 0.74117647 0.26666667
0.099019608 0.74117647 0.26666667
0.1129902 0.74117647 0.26666667
0.12647059 0.74411765 0.26372549
0.13995098 0.74705882 0.2622549
0.16421569 0.74558824 0.26029412
0.21053922 0.73970588 0.26470588
0.25294118 0.73529412 0.26470588
0.30563725 0.73651961 0.26470588
0.35784314 0.73529412 0.26666667
0.40931373 0.73529412 0.26666667
0.45882353 0.73529412 0.26666667
0.50833333 0.7372549 0.26862745
0.55833333 0.73431373 0.27009804
0.60735294 0.73333333 0.27058824
0.64705882 0.72941176 0.2745098
0.6747549 0.72941176 0.27769608
0.70490196 0.7254902 0.2745098
0.73578431 0.7254902 0.2745098
0.76078431 0.7254902 0.27254902
0.77696078 0.72941176 0.27034314
0.79019608 0.73333333 0.26715686
0.80294118 0.73872549 0.2620098
0.81176471 0.74313725 0.26078431
0.08627451 0.76519608 0.26666667
0.08872549 0.76519608 0.26666667
0.099877451 0.76519608 0.26666667
0.11317402 0.76519608 0.26666667
0.12720588 0.76519608 0.26666667
0.14221814 0.76519608 0.26323529
0.16911765 0.76262255 0.26311275
0.21158088 0.75637255 0.27205882
0.25882353 0.75 0.27892157
0.30637255 0.75214461 0.27696078
0.35784314 0.75784314 0.27009804
0.40974265 0.76176471 0.26280637
0.46078431 0.7620098 0.2625
0.50833333 0.76127451 0.26317402
0.55588235 0.75784314 0.26654412
0.60735294 0.75392157 0.26666667
0.64705882 0.75 0.27058824
0.6754902 0.75 0.2745098
0.70490196 0.75 0.27892157
0.73578431 0.74699755 0.27892157
0.76127451 0.75 0.27892157
0.77702206 0.7504902 0.275
0.79117647 0.75392157 0.27193627
0.80147059 0.75735294 0.27107843
0.81176471 0.75735294 0.27156863
0.08627451 0.77941176 0.26666667
0.08627451 0.77941176 0.26666667
0.095343137 0.77941176 0.26666667
0.10637255 0.77941176 0.26666667
0.12696078 0.77941176 0.275
0.14901961 0.77928922 0.26666667
0.17941176 0.77843137 0.26666667
0.21372549 0.77512255 0.26911765
0.25882353 0.77058824 0.2754902
0.30637255 0.77058824 0.27585784
0.35784314 0.7754902 0.27058824
0.4127451 0.77941176 0.26029412
0.46078431 0.78284314 0.25882353
0.50833333 0.77928922 0.2627451
0.55980392 0.7754902 0.2627451
0.60919118 0.7745098 0.26482843
0.65 0.77058824 0.26764706
0.67794118 0.77058824 0.27340686
0.70490196 0.77058824 0.28235294
0.73578431 0.77058824 0.28529412
0.76470588 0.77205882 0.28382353
0.78088235 0.7745098 0.28223039
0.79117647 0.77230392 0.28137255
0.80147059 0.77120098 0.28529412
0.81176471 0.77058824 0.28529412
0.08627451 0.79117647 0.26666667
0.08627451 0.79362745 0.26666667
0.089093137 0.79509804 0.26666667
0.1 0.79509804 0.26666667
0.12622549 0.79436275 0.26789216
0.15588235 0.79362745 0.26844363
0.18676471 0.79362745 0.26666667
0.21617647 0.79417892 0.26219363
0.25098039 0.79264706 0.26372549
0.30245098 0.79025735 0.26311275
0.35784314 0.7872549 0.2627451
0.40931373 0.78302696 0.26060049
0.46078431 0.78235294 0.26029412
0.51194853 0.78841912 0.2627451
0.55980392 0.79264706 0.2627451
0.61127451 0.79509804 0.26127451
0.65098039 0.79509804 0.26519608
0.68033088 0.79117647 0.27303922
0.70882353 0.79007353 0.28125
0.73756127 0.79117647 0.28609069
0.76544118 0.79509804 0.28897059
0.78088235 0.79332108 0.29166667
0.79117647 0.78970588 0.29460784
0.80386029 0.7872549 0.2995098
0.81176471 0.7872549 0.2995098
0.08627451 0.80392157 0.26666667
0.08627451 0.80392157 0.26666667
0.08627451 0.80784314 0.2627451
0.096568627 0.80833333 0.2627451
0.12745098 0.80588235 0.26666667
0.15833333 0.80392157 0.26666667
0.18921569 0.80392157 0.2627451
0.22009804 0.80539216 0.25882353
0.24705882 0.80784314 0.25490196
0.30245098 0.79754902 0.25882353
0.35784314 0.79117647 0.25980392
0.40931373 0.78088235 0.2627451
0.46078431 0.78235294 0.2627451
0.5122549 0.78872549 0.2627451
0.56372549 0.79901961 0.2627451
0.61372549 0.80931373 0.25882353
0.65490196 0.81176471 0.2627451
0.68186275 0.80539216 0.26911765
0.71176471 0.8 0.27941176
0.73970588 0.8 0.28578431
0.76470588 0.8 0.29019608
0.78088235 0.7995098 0.29460784
0.79117647 0.79607843 0.29803922
0.80539216 0.79607843 0.30343137
0.81176471 0.79607843 0.30588235
0.090196078 0.08627451 0.27941176
0.094117647 0.08872549 0.27941176
0.099019608 0.090196078 0.28125
0.10324755 0.090196078 0.28578431
0.11568627 0.090196078 0.28823529
0.14834559 0.090196078 0.28235294
0.18431373 0.090196078 0.28088235
0.21764706 0.08627451 0.27941176
0.25490196 0.08627451 0.27941176
0.30637255 0.083272059 0.27941176
0.36176471 0.082352941 0.2754902
0.41323529 0.082352941 0.27175245
0.46789216 0.084313725 0.26568627
0.51960784 0.08627451 0.26243873
0.56078431 0.08627451 0.26813725
0.60441176 0.082352941 0.27843137
0.64705882 0.082352941 0.28627451
0.68731618 0.084803922 0.29264706
0.71176471 0.087254902 0.29019608
0.73235294 0.090196078 0.28658088
0.75686275 0.090196078 0.28406863
0.77745098 0.08872549 0.28333333
0.79117647 0.089828431 0.28333333
0.79852941 0.091666667 0.28480392
0.79852941 0.094117647 0.2872549
0.090196078 0.08627451 0.27941176
0.094117647 0.091176471 0.27696078
0.10062806 0.097181373 0.27973346
0.10791207 0.10294118 0.28223805
0.12129289 0.10686275 0.28504902
0.15166973 0.10245098 0.28216912
0.18506434 0.095465686 0.27904412
0.21617647 0.089299939 0.27730545
0.25343137 0.08627451 0.27941176
0.30602788 0.08292739 0.2778799
0.36176471 0.082352941 0.2754902
0.41323529 0.082352941 0.27156863
0.46862745 0.083088235 0.26568627
0.52297794 0.08627451 0.26029412
0.56415441 0.083333333 0.26813725
0.60553768 0.082352941 0.27843137
0.64705882 0.082352941 0.28627451
0.68823529 0.084803922 0.29264706
0.71176471 0.089093137 0.29019608
0.73235294 0.092340686 0.28627451
0.75686275 0.092647059 0.28379289
0.77745098 0.092838542 0.28333333
0.79131434 0.097166054 0.28333333
0.79852941 0.10259651 0.28333333
0.80098039 0.10539216 0.28480392
0.089828431 0.10098039 0.27879902
0.092647059 0.10735294 0.27757353
0.10094975 0.11666667 0.27977941
0.11078431 0.12696078 0.28088235
0.12653186 0.12941176 0.28216912
0.15588235 0.12311581 0.28088235
0.18676471 0.11556373 0.27803309
0.21617647 0.10712316 0.27826287
0.25098039 0.10098039 0.27941176
0.30490196 0.10098039 0.27941176
0.35882353 0.10098039 0.27622549
0.41323529 0.10098039 0.27238051
0.46813725 0.10098039 0.26617647
0.51997549 0.10098039 0.26372549
0.56289828 0.10098039 0.26829044
0.6044424 0.10098039 0.27751225
0.64705882 0.099877451 0.28590686
0.68762255 0.10098039 0.29203431
0.71176471 0.10588235 0.29010417
0.73235294 0.1127451 0.28627451
0.75294118 0.11666667 0.28480392
0.77352941 0.12058824 0.28370098
0.79117647 0.12279412 0.28370098
0.80105699 0.12889093 0.28411458
