site/assets/luts/natron-haldclut--mono-tinted--55fc93a36.cube
# LUTr-Project: LUTr — LUTrepository
# LUTr-Schema-Version: 1
# LUTr-ID: natron-haldclut--mono-tinted--55fc93a36
# LUTr-Title: mono tinted
# LUTr-Collection: Natron HaldCLUT
# LUTr-Collection-ID: natron-haldclut-presets
# LUTr-Source: https://github.com/NatronGitHub/clut
# LUTr-Source-File: submissions/natron-haldclut-presets/various/mono_tinted.png
# LUTr-Source-Format: PNG
# LUTr-Source-SHA256: 3fdc8278960d96c24460dcf88cb6ed188c97886db18e5203d7ee2887034e87a2
# LUTr-License: CC-BY-SA-4.0
# LUTr-License-URL: https://github.com/NatronGitHub/clut#license
# LUTr-Tags: creative, film, film-emulation, hald-clut, natron, png, black-and-white, cube
# LUTr-Transform-Class: film-emulation
# LUTr-Input-Color-Space: srgb
# LUTr-Output-Color-Space: srgb
# LUTr-Color-Space-Confidence: assumed-display-referred
# LUTr-Conversion-Method: PNG LUT image decoded at 16-bit and sampled to 25x25x25 3D CUBE
# LUTr-Conversion-Date: 2026-07-27
# LUTr-Conversion-Tool: LUTr scripts/convert-all-to-cube.mjs
# LUTr-Conversion-Grid: 25x25x25
# LUTr-Note: Preserve this metadata and the upstream license notices when redistributing.
TITLE "mono tinted"
LUT_3D_SIZE 5
DOMAIN_MIN 0 0 0
DOMAIN_MAX 1 1 1
0.16862745 0.10196078 0.10196078
0.19509804 0.12843137 0.1245098
0.24705882 0.1745098 0.17058824
0.33137255 0.23235294 0.22058824
0.41176471 0.29019608 0.27058824
0.22058824 0.16960784 0.15098039
0.30196078 0.24705882 0.21666667
0.40735294 0.33088235 0.28872549
0.5125 0.40098039 0.35490196
0.59411765 0.45980392 0.39411765
0.35490196 0.35294118 0.28235294
0.44411765 0.42254902 0.33823529
0.57254902 0.52156863 0.40882353
0.71176471 0.62254902 0.48137255
0.76470588 0.65686275 0.50392157
0.48823529 0.55588235 0.40490196
0.61642157 0.66764706 0.49485294
0.74607843 0.75637255 0.53186275
0.89019608 0.84803922 0.60465686
0.96960784 0.9245098 0.67647059
0.63529412 0.77647059 0.5372549
0.74509804 0.83235294 0.5872549
0.89803922 0.93137255 0.6627451
0.98823529 0.98529412 0.72156863
0.99607843 0.98823529 0.77254902
0.16862745 0.10196078 0.10196078
0.19215686 0.12622549 0.13235294
0.28039216 0.20098039 0.20588235
0.38946078 0.28039216 0.28235294
0.41960784 0.29803922 0.30098039
0.25269608 0.20465686 0.19681373
0.32193627 0.2692402 0.25490196
0.42879902 0.35147059 0.32647059
0.54705882 0.42867647 0.39748775
0.62745098 0.48946078 0.45808824
0.37009804 0.3745098 0.3245098
0.47022059 0.45882353 0.38823529
0.59387255 0.54828431 0.45980392
0.73480392 0.64718137 0.54301471
0.8245098 0.71470588 0.60392157
0.51176471 0.59509804 0.47254902
0.63455882 0.69123775 0.54044118
0.78039216 0.78541667 0.62022059
0.9221201 0.89019608 0.70410539
0.97769608 0.95122549 0.77279412
0.61960784 0.76078431 0.58333333
0.79019608 0.88553922 0.68357843
0.9254902 0.95147059 0.75735294
0.99607843 0.99215686 0.83431373
1 0.99607843 0.88431373
0.16666667 0.1 0.1
0.225 0.1622549 0.16617647
0.30294118 0.21764706 0.24019608
0.40294118 0.28235294 0.31617647
0.53137255 0.38627451 0.41960784
0.27352941 0.23088235 0.23823529
0.35330882 0.30343137 0.30710784
0.45514706 0.37647059 0.3877451
0.5817402 0.4627451 0.47120098
0.6754902 0.5254902 0.54558824
0.40980392 0.41960784 0.39705882
0.50686275 0.49754902 0.46544118
0.63823529 0.59264706 0.55490196
0.77401961 0.68921569 0.64240196
0.87843137 0.77254902 0.72745098
0.54313725 0.63333333 0.55539216
0.6627451 0.72120098 0.63664216
0.82156863 0.84117647 0.7379902
0.95134804 0.92205882 0.82316176
0.99656863 0.97892157 0.89166667
0.69411765 0.83921569 0.72156863
0.81470588 0.90833333 0.79656863
0.95882353 0.98039216 0.88039216
0.99607843 0.99215686 0.94411765
1 0.99607843 0.97843137
0.19607843 0.13333333 0.14509804
0.25294118 0.1872549 0.21004902
0.33480392 0.24656863 0.28627451
0.43504902 0.31495098 0.37843137
0.5254902 0.37254902 0.45196078
0.29681373 0.25980392 0.28039216
0.37984069 0.32647059 0.36023284
0.49178922 0.40968137 0.45294118
0.62352941 0.49926471 0.55294118
0.7 0.55 0.61544118
0.42745098 0.44117647 0.45196078
0.5372549 0.53308824 0.53921569
0.66911765 0.6245098 0.63480392
0.82352941 0.7317402 0.74534314
0.90441176 0.8 0.81078431
0.5872549 0.69019608 0.65098039
0.70349265 0.7713848 0.73627451
0.85441176 0.87107843 0.82757353
0.9721201 0.94803922 0.91072304
0.99632353 0.97745098 0.95098039
0.72941176 0.88627451 0.82843137
0.81568627 0.91176471 0.86176471
0.96666667 0.98627451 0.94803922
0.99607843 0.99215686 0.98823529
1 0.99607843 1
0.18823529 0.12156863 0.13333333
0.26470588 0.19509804 0.2254902
0.35882353 0.26470588 0.31568627
0.46862745 0.33823529 0.40980392
0.52941176 0.37647059 0.45882353
0.31862745 0.27745098 0.30882353
0.40392157 0.35392157 0.4
0.51127451 0.42647059 0.48333333
0.65784314 0.52745098 0.59411765
0.73137255 0.56960784 0.65686275
0.45490196 0.47843137 0.49411765
0.56470588 0.56666667 0.58529412
0.69215686 0.65196078 0.67647059
0.83137255 0.75 0.77647059
0.9254902 0.81960784 0.85686275
0.60980392 0.71764706 0.69705882
0.73823529 0.81470588 0.78529412
0.89362745 0.9122549 0.88431373
0.98210784 0.95882353 0.94632353
1 0.99215686 0.98823529
0.74509804 0.89803922 0.85490196
0.87254902 0.96372549 0.93235294
0.98039216 0.99215686 0.98431373
1 0.99607843 0.99215686
1 0.99215686 0.98823529
