site/assets/luts/natron-haldclut--fuji-ilford-hp5--c77eca275.cube
# LUTr-Project: LUTr — LUTrepository
# LUTr-Schema-Version: 1
# LUTr-ID: natron-haldclut--fuji-ilford-hp5--c77eca275
# LUTr-Title: fuji ilford hp5
# LUTr-Collection: Natron HaldCLUT
# LUTr-Collection-ID: natron-haldclut-presets
# LUTr-Source: https://github.com/NatronGitHub/clut
# LUTr-Source-File: submissions/natron-haldclut-presets/negative_new/fuji_ilford_hp5.png
# LUTr-Source-Format: PNG
# LUTr-Source-SHA256: a28c49e216dec0e91e95611157359f1c450229529f2a7d2b8aa33aae65218898
# LUTr-License: CC-BY-SA-4.0
# LUTr-License-URL: https://github.com/NatronGitHub/clut#license
# LUTr-Tags: creative, film, film-emulation, hald-clut, natron, png, cube
# LUTr-Transform-Class: film-emulation
# LUTr-Input-Color-Space: srgb
# LUTr-Output-Color-Space: srgb
# LUTr-Color-Space-Confidence: assumed-display-referred
# LUTr-Conversion-Method: PNG LUT image decoded at 16-bit and sampled to 25x25x25 3D CUBE
# LUTr-Conversion-Date: 2026-07-27
# LUTr-Conversion-Tool: LUTr scripts/convert-all-to-cube.mjs
# LUTr-Conversion-Grid: 25x25x25
# LUTr-Note: Preserve this metadata and the upstream license notices when redistributing.
TITLE "fuji ilford hp5"
LUT_3D_SIZE 25
DOMAIN_MIN 0 0 0
DOMAIN_MAX 1 1 1
0.062745098 0.062745098 0.062745098
0.062745098 0.062745098 0.062745098
0.070588235 0.070588235 0.070588235
0.074509804 0.074509804 0.074509804
0.074509804 0.074509804 0.074509804
0.074509804 0.074509804 0.074509804
0.074509804 0.074509804 0.074509804
0.10098039 0.10098039 0.10098039
0.1254902 0.1254902 0.1254902
0.14607843 0.14607843 0.14607843
0.17254902 0.17254902 0.17254902
0.20637255 0.20637255 0.20637255
0.2372549 0.2372549 0.2372549
0.26813725 0.26813725 0.26813725
0.29607843 0.29607843 0.29607843
0.3245098 0.3245098 0.3245098
0.35294118 0.35294118 0.35294118
0.38382353 0.38382353 0.38382353
0.41470588 0.41470588 0.41470588
0.44558824 0.44558824 0.44558824
0.47647059 0.47647059 0.47647059
0.4995098 0.4995098 0.4995098
0.52647059 0.52647059 0.52647059
0.55735294 0.55735294 0.55735294
0.58823529 0.58823529 0.58823529
0.065196078 0.065196078 0.065196078
0.066115196 0.066115196 0.066115196
0.074019608 0.074019608 0.074019608
0.080392157 0.080392157 0.080392157
0.084803922 0.084803922 0.084803922
0.085110294 0.085110294 0.085110294
0.097058824 0.097058824 0.097058824
0.11764706 0.11764706 0.11764706
0.13823529 0.13823529 0.13823529
0.1533701 0.1533701 0.1533701
0.17683824 0.17683824 0.17683824
0.20882353 0.20882353 0.20882353
0.24240196 0.24240196 0.24240196
0.27028186 0.27028186 0.27028186
0.29607843 0.29607843 0.29607843
0.32598039 0.32598039 0.32598039
0.35539216 0.35539216 0.35539216
0.38382353 0.38382353 0.38382353
0.41470588 0.41470588 0.41470588
0.44558824 0.44558824 0.44558824
0.47647059 0.47647059 0.47647059
0.50294118 0.50294118 0.50294118
0.52892157 0.52892157 0.52892157
0.56127451 0.56127451 0.56127451
0.59068627 0.59068627 0.59068627
0.075490196 0.075490196 0.075490196
0.077941176 0.077941176 0.077941176
0.084313725 0.084313725 0.084313725
0.091176471 0.091176471 0.091176471
0.095588235 0.095588235 0.095588235
0.10453431 0.10453431 0.10453431
0.12156863 0.12156863 0.12156863
0.13823529 0.13823529 0.13823529
0.15882353 0.15882353 0.15882353
0.17647059 0.17647059 0.17647059
0.20171569 0.20171569 0.20171569
0.22928922 0.22928922 0.22928922
0.25735294 0.25735294 0.25735294
0.28137255 0.28137255 0.28137255
0.30269608 0.30269608 0.30269608
0.33186275 0.33186275 0.33186275
0.36176471 0.36176471 0.36176471
0.39203431 0.39203431 0.39203431
0.41936275 0.41936275 0.41936275
0.44656863 0.44656863 0.44656863
0.47647059 0.47647059 0.47647059
0.50441176 0.50441176 0.50441176
0.53602941 0.53602941 0.53602941
0.57401961 0.57401961 0.57401961
0.60196078 0.60196078 0.60196078
0.085784314 0.085784314 0.085784314
0.089522059 0.089522059 0.089522059
0.094607843 0.094607843 0.094607843
0.10147059 0.10147059 0.10147059
0.11078431 0.11078431 0.11078431
0.1254902 0.1254902 0.1254902
0.14301471 0.14301471 0.14301471
0.1627451 0.1627451 0.1627451
0.18284314 0.18284314 0.18284314
0.20214461 0.20214461 0.20214461
0.22806373 0.22806373 0.22806373
0.2528799 0.2528799 0.2528799
0.28112745 0.28112745 0.28112745
0.30545343 0.30545343 0.30545343
0.32990196 0.32990196 0.32990196
0.35459559 0.35459559 0.35459559
0.37941176 0.37941176 0.37941176
0.40422794 0.40422794 0.40422794
0.42892157 0.42892157 0.42892157
0.45343137 0.45343137 0.45343137
0.48039216 0.48039216 0.48039216
0.51127451 0.51127451 0.51127451
0.55196078 0.55196078 0.55196078
0.58792892 0.58792892 0.58792892
0.61862745 0.61862745 0.61862745
0.1 0.1 0.1
0.1 0.1 0.1
0.10441176 0.10441176 0.10441176
0.1129902 0.1129902 0.1129902
0.12941176 0.12941176 0.12941176
0.1497549 0.1497549 0.1497549
0.16666667 0.16666667 0.16666667
0.18455882 0.18455882 0.18455882
0.20392157 0.20392157 0.20392157
0.22573529 0.22573529 0.22573529
0.25147059 0.25147059 0.25147059
0.27916667 0.27916667 0.27916667
0.30490196 0.30490196 0.30490196
0.33063725 0.33063725 0.33063725
0.35686275 0.35686275 0.35686275
0.37941176 0.37941176 0.37941176
0.40392157 0.40392157 0.40392157
0.42769608 0.42769608 0.42769608
0.45147059 0.45147059 0.45147059
0.47352941 0.47352941 0.47352941
0.49705882 0.49705882 0.49705882
0.53088235 0.53088235 0.53088235
0.56862745 0.56862745 0.56862745
0.60514706 0.60514706 0.60514706
0.63921569 0.63921569 0.63921569
0.11078431 0.11078431 0.11078431
0.11047794 0.11047794 0.11047794
0.11139706 0.11139706 0.11139706
0.12941176 0.12941176 0.12941176
0.15 0.15 0.15
0.17058824 0.17058824 0.17058824
0.18860294 0.18860294 0.18860294
0.20784314 0.20784314 0.20784314
0.22843137 0.22843137 0.22843137
0.24932598 0.24932598 0.24932598
0.27487745 0.27487745 0.27487745
0.30238971 0.30238971 0.30238971
0.33063725 0.33063725 0.33063725
0.3588848 0.3588848 0.3588848
0.38333333 0.38333333 0.38333333
0.40441176 0.40441176 0.40441176
0.42843137 0.42843137 0.42843137
0.45165441 0.45165441 0.45165441
0.47487745 0.47487745 0.47487745
0.49803922 0.49803922 0.49803922
0.5245098 0.5245098 0.5245098
0.55539216 0.55539216 0.55539216
0.59019608 0.59019608 0.59019608
0.625 0.625 0.625
0.65098039 0.65098039 0.65098039
0.14117647 0.14117647 0.14117647
0.13823529 0.13823529 0.13823529
0.14142157 0.14142157 0.14142157
0.15428922 0.15428922 0.15428922
0.1745098 0.1745098 0.1745098
0.19375 0.19375 0.19375
0.21176471 0.21176471 0.21176471
0.23026961 0.23026961 0.23026961
0.24901961 0.24901961 0.24901961
0.27352941 0.27352941 0.27352941
0.29901961 0.29901961 0.29901961
0.32904412 0.32904412 0.32904412
0.35637255 0.35637255 0.35637255
0.38627451 0.38627451 0.38627451
0.40784314 0.40784314 0.40784314
0.43137255 0.43137255 0.43137255
0.45294118 0.45294118 0.45294118
0.47647059 0.47647059 0.47647059
0.49803922 0.49803922 0.49803922
0.52205882 0.52205882 0.52205882
0.54852941 0.54852941 0.54852941
0.57904412 0.57904412 0.57904412
0.61078431 0.61078431 0.61078431
0.63872549 0.63872549 0.63872549
0.65784314 0.65784314 0.65784314
0.17843137 0.17843137 0.17843137
0.17843137 0.17843137 0.17843137
0.17941176 0.17941176 0.17941176
0.18578431 0.18578431 0.18578431
0.2004902 0.2004902 0.2004902
0.21715686 0.21715686 0.21715686
0.23664216 0.23664216 0.23664216
0.25386029 0.25386029 0.25386029
0.27352941 0.27352941 0.27352941
0.29803922 0.29803922 0.29803922
0.325 0.325 0.325
0.35441176 0.35441176 0.35441176
0.38406863 0.38406863 0.38406863
0.41194853 0.41194853 0.41194853
0.43566176 0.43566176 0.43566176
0.45686275 0.45686275 0.45686275
0.47745098 0.47745098 0.47745098
0.49803922 0.49803922 0.49803922
0.5189951 0.5189951 0.5189951
0.54442402 0.54442402 0.54442402
0.57230392 0.57230392 0.57230392
0.6004902 0.6004902 0.6004902
0.62843137 0.62843137 0.62843137
0.65294118 0.65294118 0.65294118
0.66960784 0.66960784 0.66960784
0.21960784 0.21960784 0.21960784
0.21960784 0.21960784 0.21960784
0.21960784 0.21960784 0.21960784
0.22303922 0.22303922 0.22303922
0.23333333 0.23333333 0.23333333
0.24411765 0.24411765 0.24411765
0.26078431 0.26078431 0.26078431
0.27745098 0.27745098 0.27745098
0.29803922 0.29803922 0.29803922
0.32254902 0.32254902 0.32254902
0.35196078 0.35196078 0.35196078
0.37941176 0.37941176 0.37941176
0.40980392 0.40980392 0.40980392
0.43676471 0.43676471 0.43676471
0.46078431 0.46078431 0.46078431
0.48137255 0.48137255 0.48137255
0.50196078 0.50196078 0.50196078
0.52009804 0.52009804 0.52009804
0.54313725 0.54313725 0.54313725
0.56764706 0.56764706 0.56764706
0.59607843 0.59607843 0.59607843
0.6245098 0.6245098 0.6245098
0.64901961 0.64901961 0.64901961
0.67352941 0.67352941 0.67352941
0.69019608 0.69019608 0.69019608
0.25686275 0.25686275 0.25686275
0.25686275 0.25686275 0.25686275
0.25723039 0.25723039 0.25723039
0.26078431 0.26078431 0.26078431
0.26813725 0.26813725 0.26813725
0.2745098 0.2745098 0.2745098
0.28811275 0.28811275 0.28811275
0.30441176 0.30441176 0.30441176
0.325 0.325 0.325
0.35042892 0.35042892 0.35042892
0.37647059 0.37647059 0.37647059
0.40606618 0.40606618 0.40606618
0.43431373 0.43431373 0.43431373
0.46078431 0.46078431 0.46078431
0.48137255 0.48137255 0.48137255
0.50104167 0.50104167 0.50104167
0.52009804 0.52009804 0.52009804
0.53921569 0.53921569 0.53921569
0.56470588 0.56470588 0.56470588
0.59197304 0.59197304 0.59197304
0.62107843 0.62107843 0.62107843
0.64932598 0.64932598 0.64932598
0.67708333 0.67708333 0.67708333
0.7028799 0.7028799 0.7028799
0.72254902 0.72254902 0.72254902
0.29411765 0.29411765 0.29411765
0.29411765 0.29411765 0.29411765
0.29803922 0.29803922 0.29803922
0.30061275 0.30061275 0.30061275
0.30343137 0.30343137 0.30343137
0.31017157 0.31017157 0.31017157
0.31740196 0.31740196 0.31740196
0.3310049 0.3310049 0.3310049
0.35098039 0.35098039 0.35098039
0.3754902 0.3754902 0.3754902
0.40073529 0.40073529 0.40073529
0.42708333 0.42708333 0.42708333
0.45196078 0.45196078 0.45196078
0.47659314 0.47659314 0.47659314
0.49803922 0.49803922 0.49803922
0.51764706 0.51764706 0.51764706
0.53823529 0.53823529 0.53823529
0.5622549 0.5622549 0.5622549
0.58848039 0.58848039 0.58848039
0.61629902 0.61629902 0.61629902
0.64558824 0.64558824 0.64558824
0.67401961 0.67401961 0.67401961
0.70098039 0.70098039 0.70098039
0.72647059 0.72647059 0.72647059
0.74705882 0.74705882 0.74705882
0.33529412 0.33529412 0.33529412
0.33529412 0.33529412 0.33529412
0.33529412 0.33529412 0.33529412
0.33578431 0.33578431 0.33578431
0.33946078 0.33946078 0.33946078
0.34411765 0.34411765 0.34411765
0.35134804 0.35134804 0.35134804
0.36078431 0.36078431 0.36078431
0.3754902 0.3754902 0.3754902
0.39607843 0.39607843 0.39607843
0.42058824 0.42058824 0.42058824
0.44460784 0.44460784 0.44460784
0.46617647 0.46617647 0.46617647
0.4911152 0.4911152 0.4911152
0.51470588 0.51470588 0.51470588
0.53529412 0.53529412 0.53529412
0.55588235 0.55588235 0.55588235
0.58284314 0.58284314 0.58284314
0.61237745 0.61237745 0.61237745
0.64068627 0.64068627 0.64068627
0.66936275 0.66936275 0.66936275
0.69846814 0.69846814 0.69846814
0.7254902 0.7254902 0.7254902
0.75098039 0.75098039 0.75098039
0.77107843 0.77107843 0.77107843
0.37254902 0.37254902 0.37254902
0.37254902 0.37254902 0.37254902
0.37254902 0.37254902 0.37254902
0.37426471 0.37426471 0.37426471
0.37647059 0.37647059 0.37647059
0.37843137 0.37843137 0.37843137
0.38186275 0.38186275 0.38186275
0.38848039 0.38848039 0.38848039
0.40588235 0.40588235 0.40588235
0.4252451 0.4252451 0.4252451
0.44509804 0.44509804 0.44509804
0.46568627 0.46568627 0.46568627
0.48627451 0.48627451 0.48627451
0.50710784 0.50710784 0.50710784
0.52941176 0.52941176 0.52941176
0.55196078 0.55196078 0.55196078
0.57843137 0.57843137 0.57843137
0.60735294 0.60735294 0.60735294
0.63578431 0.63578431 0.63578431
0.66519608 0.66519608 0.66519608
0.69313725 0.69313725 0.69313725
0.72279412 0.72279412 0.72279412
0.7504902 0.7504902 0.7504902
0.77745098 0.77745098 0.77745098
0.79607843 0.79607843 0.79607843
0.40980392 0.40980392 0.40980392
0.40980392 0.40980392 0.40980392
0.40980392 0.40980392 0.40980392
0.41323529 0.41323529 0.41323529
0.41323529 0.41323529 0.41323529
0.40974265 0.40974265 0.40974265
0.40931373 0.40931373 0.40931373
0.41599265 0.41599265 0.41599265
0.43284314 0.43284314 0.43284314
0.453125 0.453125 0.453125
0.47009804 0.47009804 0.47009804
0.49019608 0.49019608 0.49019608
0.50710784 0.50710784 0.50710784
0.52745098 0.52745098 0.52745098
0.54840686 0.54840686 0.54840686
0.57432598 0.57432598 0.57432598
0.60098039 0.60098039 0.60098039
0.63186275 0.63186275 0.63186275
0.65882353 0.65882353 0.65882353
0.68970588 0.68970588 0.68970588
0.71666667 0.71666667 0.71666667
0.7471201 0.7471201 0.7471201
0.7745098 0.7745098 0.7745098
0.80147059 0.80147059 0.80147059
0.82107843 0.82107843 0.82107843
0.45098039 0.45098039 0.45098039
0.45098039 0.45098039 0.45098039
0.45098039 0.45098039 0.45098039
0.45098039 0.45098039 0.45098039
0.44754902 0.44754902 0.44754902
0.44669118 0.44669118 0.44669118
0.44338235 0.44338235 0.44338235
0.44313725 0.44313725 0.44313725
0.46078431 0.46078431 0.46078431
0.48039216 0.48039216 0.48039216
0.49632353 0.49632353 0.49632353
0.51384804 0.51384804 0.51384804
0.53431373 0.53431373 0.53431373
0.55490196 0.55490196 0.55490196
0.5754902 0.5754902 0.5754902
0.59816176 0.59816176 0.59816176
0.6254902 0.6254902 0.6254902
0.65355392 0.65355392 0.65355392
0.68308824 0.68308824 0.68308824
0.71029412 0.71029412 0.71029412
0.74068627 0.74068627 0.74068627
0.76813725 0.76813725 0.76813725
0.79607843 0.79607843 0.79607843
0.82205882 0.82205882 0.82205882
0.83823529 0.83823529 0.83823529
0.49215686 0.49215686 0.49215686
0.49215686 0.49215686 0.49215686
0.49117647 0.49117647 0.49117647
0.48823529 0.48823529 0.48823529
0.48823529 0.48823529 0.48823529
0.48431373 0.48431373 0.48431373
0.48431373 0.48431373 0.48431373
0.48670343 0.48670343 0.48670343
0.49607843 0.49607843 0.49607843
0.50882353 0.50882353 0.50882353
0.52365196 0.52365196 0.52365196
0.54068627 0.54068627 0.54068627
0.56127451 0.56127451 0.56127451
0.58186275 0.58186275 0.58186275
0.60637255 0.60637255 0.60637255
0.62696078 0.62696078 0.62696078
0.65 0.65 0.65
0.67696078 0.67696078 0.67696078
0.70502451 0.70502451 0.70502451
0.73480392 0.73480392 0.73480392
0.7625 0.7625 0.7625
0.79215686 0.79215686 0.79215686
0.81666667 0.81666667 0.81666667
0.83823529 0.83823529 0.83823529
0.85 0.85 0.85
0.53333333 0.53333333 0.53333333
0.53333333 0.53333333 0.53333333
0.52941176 0.52941176 0.52941176
0.52941176 0.52941176 0.52941176
0.52941176 0.52941176 0.52941176
0.52941176 0.52941176 0.52941176
0.52941176 0.52941176 0.52941176
0.53333333 0.53333333 0.53333333
0.5372549 0.5372549 0.5372549
0.54509804 0.54509804 0.54509804
0.55490196 0.55490196 0.55490196
0.57156863 0.57156863 0.57156863
0.59215686 0.59215686 0.59215686
0.61323529 0.61323529 0.61323529
0.6372549 0.6372549 0.6372549
0.65784314 0.65784314 0.65784314
0.67843137 0.67843137 0.67843137
0.70147059 0.70147059 0.70147059
0.72843137 0.72843137 0.72843137
0.75588235 0.75588235 0.75588235
0.78627451 0.78627451 0.78627451
0.8127451 0.8127451 0.8127451
0.83333333 0.83333333 0.83333333
0.85 0.85 0.85
0.8627451 0.8627451 0.8627451
0.5745098 0.5745098 0.5745098
0.5745098 0.5745098 0.5745098
0.57058824 0.57058824 0.57058824
0.57058824 0.57058824 0.57058824
0.57303922 0.57303922 0.57303922
0.5745098 0.5745098 0.5745098
0.57696078 0.57696078 0.57696078
0.57843137 0.57843137 0.57843137
0.58235294 0.58235294 0.58235294
0.58627451 0.58627451 0.58627451
0.5932598 0.5932598 0.5932598
0.60882353 0.60882353 0.60882353
0.62696078 0.62696078 0.62696078
0.64754902 0.64754902 0.64754902
0.66813725 0.66813725 0.66813725
0.68872549 0.68872549 0.68872549
0.70931373 0.70931373 0.70931373
0.72990196 0.72990196 0.72990196
0.75257353 0.75257353 0.75257353
0.78020833 0.78020833 0.78020833
0.80686275 0.80686275 0.80686275
0.82941176 0.82941176 0.82941176
0.84754902 0.84754902 0.84754902
0.8627451 0.8627451 0.8627451
0.87303922 0.87303922 0.87303922
0.61568627 0.61568627 0.61568627
0.61568627 0.61568627 0.61568627
0.61568627 0.61568627 0.61568627
0.61654412 0.61654412 0.61654412
0.61813725 0.61813725 0.61813725
0.62058824 0.62058824 0.62058824
0.62352941 0.62352941 0.62352941
0.62389706 0.62389706 0.62389706
0.62745098 0.62745098 0.62745098
0.63026961 0.63026961 0.63026961
0.63627451 0.63627451 0.63627451
0.64656863 0.64656863 0.64656863
0.66568627 0.66568627 0.66568627
0.68627451 0.68627451 0.68627451
0.70392157 0.70392157 0.70392157
0.72242647 0.72242647 0.72242647
0.74019608 0.74019608 0.74019608
0.75686275 0.75686275 0.75686275
0.78039216 0.78039216 0.78039216
0.80098039 0.80098039 0.80098039
0.825 0.825 0.825
0.84203431 0.84203431 0.84203431
0.85955882 0.85955882 0.85955882
0.87512255 0.87512255 0.87512255
0.8872549 0.8872549 0.8872549
0.66029412 0.66029412 0.66029412
0.66029412 0.66029412 0.66029412
0.66078431 0.66078431 0.66078431
0.66378676 0.66378676 0.66378676
0.66446078 0.66446078 0.66446078
0.66813725 0.66813725 0.66813725
0.66862745 0.66862745 0.66862745
0.66862745 0.66862745 0.66862745
0.67205882 0.67205882 0.67205882
0.67469363 0.67469363 0.67469363
0.67745098 0.67745098 0.67745098
0.6877451 0.6877451 0.6877451
0.70392157 0.70392157 0.70392157
0.72408088 0.72408088 0.72408088
0.74129902 0.74129902 0.74129902
0.75784314 0.75784314 0.75784314
0.7745098 0.7745098 0.7745098
0.78903186 0.78903186 0.78903186
0.80441176 0.80441176 0.80441176
0.82542892 0.82542892 0.82542892
0.84044118 0.84044118 0.84044118
0.85539216 0.85539216 0.85539216
0.87291667 0.87291667 0.87291667
0.8872549 0.8872549 0.8872549
0.89754902 0.89754902 0.89754902
0.70392157 0.70392157 0.70392157
0.70588235 0.70588235 0.70588235
0.70784314 0.70784314 0.70784314
0.71151961 0.71151961 0.71151961
0.7127451 0.7127451 0.7127451
0.71372549 0.71372549 0.71372549
0.71568627 0.71568627 0.71568627
0.71568627 0.71568627 0.71568627
0.71764706 0.71764706 0.71764706
0.71960784 0.71960784 0.71960784
0.72254902 0.72254902 0.72254902
0.72892157 0.72892157 0.72892157
0.74313725 0.74313725 0.74313725
0.76151961 0.76151961 0.76151961
0.77843137 0.77843137 0.77843137
0.79436275 0.79436275 0.79436275
0.80980392 0.80980392 0.80980392
0.82328431 0.82328431 0.82328431
0.83627451 0.83627451 0.83627451
0.84485294 0.84485294 0.84485294
0.85588235 0.85588235 0.85588235
0.87132353 0.87132353 0.87132353
0.88676471 0.88676471 0.88676471
0.90147059 0.90147059 0.90147059
0.91176471 0.91176471 0.91176471
0.75147059 0.75147059 0.75147059
0.7536152 0.7536152 0.7536152
0.75539216 0.75539216 0.75539216
0.75882353 0.75882353 0.75882353
0.75931373 0.75931373 0.75931373
0.75931373 0.75931373 0.75931373
0.75931373 0.75931373 0.75931373
0.7627451 0.7627451 0.7627451
0.7627451 0.7627451 0.7627451
0.7653799 0.7653799 0.7653799
0.76678922 0.76678922 0.76678922
0.77101716 0.77101716 0.77101716
0.78235294 0.78235294 0.78235294
0.79901961 0.79901961 0.79901961
0.81568627 0.81568627 0.81568627
0.83057598 0.83057598 0.83057598
0.84460784 0.84460784 0.84460784
0.85441176 0.85441176 0.85441176
0.86078431 0.86078431 0.86078431
0.86721814 0.86721814 0.86721814
0.87745098 0.87745098 0.87745098
0.8877451 0.8877451 0.8877451
0.90183824 0.90183824 0.90183824
0.9158701 0.9158701 0.9158701
0.92647059 0.92647059 0.92647059
0.8 0.8 0.8
0.8 0.8 0.8
0.80294118 0.80294118 0.80294118
0.80392157 0.80392157 0.80392157
0.80392157 0.80392157 0.80392157
0.80392157 0.80392157 0.80392157
0.80392157 0.80392157 0.80392157
0.80502451 0.80502451 0.80502451
0.80784314 0.80784314 0.80784314
0.80968137 0.80968137 0.80968137
0.81176471 0.81176471 0.81176471
0.81556373 0.81556373 0.81556373
0.82156863 0.82156863 0.82156863
0.83713235 0.83713235 0.83713235
0.85318627 0.85318627 0.85318627
0.86519608 0.86519608 0.86519608
0.87254902 0.87254902 0.87254902
0.87892157 0.87892157 0.87892157
0.88504902 0.88504902 0.88504902
0.89166667 0.89166667 0.89166667
0.89803922 0.89803922 0.89803922
0.90833333 0.90833333 0.90833333
0.91862745 0.91862745 0.91862745
0.9310049 0.9310049 0.9310049
0.94313725 0.94313725 0.94313725
0.84656863 0.84656863 0.84656863
0.84901961 0.84901961 0.84901961
0.8504902 0.8504902 0.8504902
0.84901961 0.84901961 0.84901961
0.84632353 0.84632353 0.84632353
0.84491422 0.84491422 0.84491422
0.84362745 0.84362745 0.84362745
0.84509804 0.84509804 0.84509804
0.84754902 0.84754902 0.84754902
0.85055147 0.85055147 0.85055147
0.85392157 0.85392157 0.85392157
0.86029412 0.86029412 0.86029412
0.8627451 0.8627451 0.8627451
0.8754902 0.8754902 0.8754902
0.88578431 0.88578431 0.88578431
0.89068627 0.89068627 0.89068627
0.89705882 0.89705882 0.89705882
0.90042892 0.90042892 0.90042892
0.90551471 0.90551471 0.90551471
0.9122549 0.9122549 0.9122549
0.91862745 0.91862745 0.91862745
0.92873775 0.92873775 0.92873775
0.93590686 0.93590686 0.93590686
0.94803922 0.94803922 0.94803922
0.95588235 0.95588235 0.95588235
0.88627451 0.88627451 0.88627451
0.88872549 0.88872549 0.88872549
0.88921569 0.88921569 0.88921569
0.88235294 0.88235294 0.88235294
0.87647059 0.87647059 0.87647059
0.87401961 0.87401961 0.87401961
0.87058824 0.87058824 0.87058824
0.8745098 0.8745098 0.8745098
0.8745098 0.8745098 0.8745098
0.87843137 0.87843137 0.87843137
0.88333333 0.88333333 0.88333333
0.88970588 0.88970588 0.88970588
0.9 0.9 0.9
0.90588235 0.90588235 0.90588235
0.90588235 0.90588235 0.90588235
0.90735294 0.90735294 0.90735294
0.90980392 0.90980392 0.90980392
0.91617647 0.91617647 0.91617647
0.92156863 0.92156863 0.92156863
0.9254902 0.9254902 0.9254902
0.93529412 0.93529412 0.93529412
0.94166667 0.94166667 0.94166667
0.95196078 0.95196078 0.95196078
0.96078431 0.96078431 0.96078431
0.96862745 0.96862745 0.96862745
0.058823529 0.058823529 0.058823529
0.06182598 0.06182598 0.06182598
0.067647059 0.067647059 0.067647059
0.074509804 0.074509804 0.074509804
0.079656863 0.079656863 0.079656863
0.084803922 0.084803922 0.084803922
0.090196078 0.090196078 0.090196078
0.11035539 0.11035539 0.11035539
0.13578431 0.13578431 0.13578431
0.15637255 0.15637255 0.15637255
0.17794118 0.17794118 0.17794118
0.21029412 0.21029412 0.21029412
0.24117647 0.24117647 0.24117647
0.26813725 0.26813725 0.26813725
0.29607843 0.29607843 0.29607843
0.32542892 0.32542892 0.32542892
0.35294118 0.35294118 0.35294118
0.38382353 0.38382353 0.38382353
0.41470588 0.41470588 0.41470588
0.44185049 0.44185049 0.44185049
0.47254902 0.47254902 0.47254902
0.50324755 0.50324755 0.50324755
0.53039216 0.53039216 0.53039216
0.56127451 0.56127451 0.56127451
0.59068627 0.59068627 0.59068627
0.062745098 0.062745098 0.062745098
0.064276961 0.064276961 0.064276961
0.073636642 0.073636642 0.073636642
0.080392157 0.080392157 0.080392157
0.087254902 0.087254902 0.087254902
0.094002757 0.094002757 0.094002757
0.10265012 0.10265012 0.10265012
0.12133885 0.12133885 0.12133885
0.14307598 0.14307598 0.14307598
0.1627451 0.1627451 0.1627451
0.18676471 0.18676471 0.18676471
0.21519608 0.21519608 0.21519608
0.24316789 0.24316789 0.24316789
0.26813725 0.26813725 0.26813725
0.29546569 0.29546569 0.29546569
0.32485447 0.32485447 0.32485447
0.35294118 0.35294118 0.35294118
0.38382353 0.38382353 0.38382353
0.41470588 0.41470588 0.41470588
0.44558824 0.44558824 0.44558824
0.47346814 0.47346814 0.47346814
0.50343137 0.50343137 0.50343137
0.5321538 0.5321538 0.5321538
0.56577053 0.56577053 0.56577053
0.59460784 0.59460784 0.59460784
0.075490196 0.075490196 0.075490196
0.076102941 0.076102941 0.076102941
0.084313725 0.084313725 0.084313725
0.093321078 0.093321078 0.093321078
0.10104167 0.10104167 0.10104167
0.11078431 0.11078431 0.11078431
0.12300858 0.12300858 0.12300858
0.14215686 0.14215686 0.14215686
0.16127451 0.16127451 0.16127451
0.18186275 0.18186275 0.18186275
0.20536152 0.20536152 0.20536152
0.23221507 0.23221507 0.23221507
0.25686275 0.25686275 0.25686275
0.28114277 0.28114277 0.28114277
0.30012255 0.30012255 0.30012255
0.32973346 0.32973346 0.32973346
0.36176471 0.36176471 0.36176471
0.38872549 0.38872549 0.38872549
0.41936275 0.41936275 0.41936275
0.44656863 0.44656863 0.44656863
0.47647059 0.47647059 0.47647059
0.50729167 0.50729167 0.50729167
0.53921569 0.53921569 0.53921569
0.57725184 0.57725184 0.57725184
0.60490196 0.60490196 0.60490196
0.089215686 0.089215686 0.089215686
