site/assets/luts/natron-haldclut--fuji-fp-100c-negative--841b05f08.cube
# LUTr-Project: LUTr — LUTrepository
# LUTr-Schema-Version: 1
# LUTr-ID: natron-haldclut--fuji-fp-100c-negative--841b05f08
# LUTr-Title: fuji fp-100c negative +
# LUTr-Collection: Natron HaldCLUT
# LUTr-Collection-ID: natron-haldclut-presets
# LUTr-Source: https://github.com/NatronGitHub/clut
# LUTr-Source-File: submissions/natron-haldclut-presets/instant_pro/fuji_fp-100c_negative_+.png
# LUTr-Source-Format: PNG
# LUTr-Source-SHA256: 8ea6aad0f775ab20303ff17ed481ac8d3c105fc1edad951ed39a289252ad7528
# LUTr-License: CC-BY-SA-4.0
# LUTr-License-URL: https://github.com/NatronGitHub/clut#license
# LUTr-Tags: creative, film, film-emulation, hald-clut, natron, png, cube
# LUTr-Transform-Class: film-emulation
# LUTr-Input-Color-Space: srgb
# LUTr-Output-Color-Space: srgb
# LUTr-Color-Space-Confidence: assumed-display-referred
# LUTr-Conversion-Method: PNG LUT image decoded at 16-bit and sampled to 25x25x25 3D CUBE
# LUTr-Conversion-Date: 2026-07-27
# LUTr-Conversion-Tool: LUTr scripts/convert-all-to-cube.mjs
# LUTr-Conversion-Grid: 25x25x25
# LUTr-Note: Preserve this metadata and the upstream license notices when redistributing.
TITLE "fuji fp-100c negative +"
LUT_3D_SIZE 25
DOMAIN_MIN 0 0 0
DOMAIN_MAX 1 1 1
0.0078431373 0.090196078 0.2
0.0078431373 0.090196078 0.2
0.0078431373 0.090196078 0.19901961
0.0044117647 0.090196078 0.19607843
0.0039215686 0.090196078 0.19607843
0.006372549 0.090196078 0.19607843
0.064705882 0.090196078 0.19607843
0.11862745 0.090196078 0.2
0.17254902 0.090196078 0.2
0.22401961 0.08627451 0.2
0.29705882 0.07254902 0.2
0.37303922 0.055882353 0.19607843
0.44901961 0.021568627 0.2
0.51666667 0.0078431373 0.1995098
0.57843137 0.014705882 0.19607843
0.64019608 0.014215686 0.19215686
0.70196078 0.0078431373 0.18823529
0.75980392 0.0014705882 0.18578431
0.80784314 0.066666667 0.18823529
0.85294118 0.14509804 0.18431373
0.89803922 0.21176471 0.18039216
0.93039216 0.26127451 0.18872549
0.95490196 0.30882353 0.19607843
0.97696078 0.36029412 0.19754902
1 0.41176471 0.2
0.0078431373 0.094117647 0.2
0.0078431373 0.094117647 0.2
0.0078431373 0.09375 0.19963235
0.0039215686 0.092647059 0.1963848
0.0031862745 0.091421569 0.19607843
0.0042279412 0.090196078 0.19607843
0.063602941 0.090196078 0.19607843
0.12015931 0.090196078 0.2
0.17254902 0.090196078 0.2
0.22647059 0.08627451 0.2
0.29705882 0.075980392 0.19901961
0.37273284 0.061948529 0.19607843
0.44656863 0.037009804 0.19607843
0.51452206 0.026654412 0.19607843
0.58137255 0.022671569 0.19607843
0.64411765 0.022977941 0.19215686
0.70441176 0.018137255 0.18823529
0.76127451 0.028002451 0.18523284
0.80845588 0.080882353 0.18431373
0.85294118 0.14834559 0.18431373
0.89803922 0.21176471 0.17916667
0.92824755 0.26127451 0.18480392
0.95245098 0.31458333 0.19509804
0.9754902 0.36666667 0.19754902
0.99362745 0.40539216 0.2
0.0078431373 0.099019608 0.2
0.0078431373 0.099019608 0.2
0.0078431373 0.099019608 0.2
0.0049019608 0.099019608 0.2
0.0049019608 0.099019608 0.19852941
0.01997549 0.099019608 0.19607843
0.07377451 0.098284314 0.19607843
0.12990196 0.095098039 0.19718137
0.18137255 0.095098039 0.2
0.23345588 0.091176471 0.2
0.30196078 0.082352941 0.19901961
0.37058824 0.068627451 0.19607843
0.44264706 0.054901961 0.19215686
0.51323529 0.048529412 0.19215686
0.58308824 0.038235294 0.19289216
0.65012255 0.028431373 0.19215686
0.70980392 0.039215686 0.18823529
0.76519608 0.074632353 0.18541667
0.81176471 0.12426471 0.18431373
0.85637255 0.17708333 0.18088235
0.89803922 0.22745098 0.17892157
0.92659314 0.275 0.18468137
0.95171569 0.32647059 0.19117647
0.97401961 0.37536765 0.19938725
0.98823529 0.40392157 0.19901961
0.0078431373 0.10931373 0.2
0.0078431373 0.10931373 0.2
0.0078431373 0.10931373 0.2
0.0078431373 0.10931373 0.2
0.0098039216 0.10931373 0.2
0.033333333 0.10931373 0.19908088
0.084803922 0.10539216 0.19607843
0.14019608 0.10539216 0.19607843
0.19166667 0.10539216 0.2
0.24920343 0.10539216 0.2
0.31617647 0.1 0.19901961
0.38474265 0.089215686 0.19607843
0.45220588 0.084558824 0.19215686
0.52359069 0.079901961 0.19215686
0.59264706 0.069607843 0.19215686
0.65931373 0.056188725 0.19215686
0.71372549 0.079901961 0.18823529
0.76734069 0.11764706 0.18431373
0.81176471 0.16286765 0.18431373
0.85686275 0.20784314 0.18131127
0.89607843 0.25367647 0.18039216
0.92696078 0.29944853 0.18431373
0.95833333 0.3504902 0.18737745
0.98137255 0.39166667 0.19411765
0.98823529 0.40735294 0.19264706
0.0078431373 0.12352941 0.20392157
0.0078431373 0.12034314 0.20196078
0.0039215686 0.11862745 0.2
0.0056372549 0.11568627 0.2
0.0098039216 0.11568627 0.2
0.041421569 0.11568627 0.2
0.093137255 0.11764706 0.19656863
0.14656863 0.11568627 0.19607843
0.20588235 0.11764706 0.19803922
0.26764706 0.12401961 0.2
0.33382353 0.12352941 0.1995098
0.40073529 0.11960784 0.19607843
0.46960784 0.11568627 0.19215686
0.53651961 0.11176471 0.19191176
0.60343137 0.10833333 0.18872549
0.6622549 0.11544118 0.18823529
0.71764706 0.1372549 0.18431373
0.76911765 0.15980392 0.18039216
0.81421569 0.19607843 0.18039216
0.85686275 0.24117647 0.18039216
0.9 0.28431373 0.18039216
0.93112745 0.32941176 0.18406863
0.96715686 0.37401961 0.18235294
0.9870098 0.40857843 0.1870098
0.98823529 0.41372549 0.19019608
0.0078431373 0.14607843 0.20441176
0.0078431373 0.13970588 0.20392157
0.0039215686 0.13333333 0.20392157
0.0039215686 0.12689951 0.20006127
0.0053921569 0.12377451 0.2
0.042585784 0.12696078 0.2
0.1004902 0.13382353 0.2
0.15441176 0.14411765 0.19607843
0.21617647 0.1504902 0.19607843
0.28167892 0.15067402 0.19822304
0.34767157 0.1504902 0.19607843
0.41666667 0.1504902 0.19258578
0.48504902 0.14705882 0.18995098
0.54901961 0.14754902 0.18817402
0.61421569 0.15477941 0.18517157
0.66795343 0.17009804 0.18382353
0.72205882 0.19019608 0.18039216
0.77089461 0.21372549 0.17775735
0.81580882 0.2442402 0.18002451
0.85778186 0.28235294 0.17647059
0.89607843 0.32352941 0.17843137
0.93131127 0.36470588 0.184375
0.9682598 0.40551471 0.18468137
0.98841912 0.43498775 0.19301471
0.98872549 0.44166667 0.19705882
0.0078431373 0.16960784 0.20784314
0.0078431373 0.16384804 0.20784314
0.0075980392 0.15686275 0.20612745
0.0039215686 0.14754902 0.20392157
0.0058823529 0.14019608 0.20294118
0.05245098 0.15098039 0.2
0.10784314 0.16764706 0.2
0.16323529 0.17892157 0.19607843
0.22254902 0.18529412 0.19607843
0.29068627 0.18823529 0.19607843
0.35882353 0.18504902 0.19215686
0.43088235 0.1817402 0.18958333
0.49705882 0.1877451 0.18676471
0.5627451 0.20245098 0.18394608
0.6245098 0.21348039 0.17818627
0.67696078 0.22401961 0.17745098
0.72843137 0.23529412 0.17647059
0.7745098 0.26519608 0.17352941
0.81666667 0.29289216 0.17181373
0.86078431 0.32401961 0.16960784
0.89607843 0.36470588 0.17303922
0.92610294 0.40159314 0.18651961
0.96176471 0.4372549 0.19044118
0.98394608 0.47205882 0.20588235
0.99509804 0.49313725 0.22156863
0.0039215686 0.19117647 0.20784314
0.006372549 0.1872549 0.20931373
0.0093137255 0.17990196 0.20931373
0.013235294 0.17205882 0.20802696
0.031127451 0.17573529 0.20784314
0.072058824 0.19068627 0.20520833
0.12242647 0.20281863 0.20036765
0.17297794 0.21372549 0.19607843
0.22892157 0.22156863 0.19460784
0.29705882 0.22640931 0.19215686
0.37058824 0.23333333 0.18786765
0.44509804 0.24099265 0.1846201
0.51127451 0.24877451 0.17965686
0.57303922 0.26060049 0.175
0.63223039 0.2745098 0.17218137
0.68278186 0.28241422 0.17254902
0.73333333 0.29117647 0.16862745
0.77542892 0.31366422 0.16862745
0.81960784 0.3432598 0.16654412
0.86078431 0.37089461 0.16127451
0.89607843 0.40122549 0.16936275
0.93088235 0.43351716 0.17910539
0.96323529 0.46813725 0.18578431
0.98186275 0.49754902 0.20539216
0.99460784 0.52058824 0.22745098
0.0039215686 0.21176471 0.21176471
0.006372549 0.20931373 0.21176471
0.011764706 0.20686275 0.2127451
0.019117647 0.20392157 0.21568627
0.052941176 0.21176471 0.21568627
0.092647059 0.22794118 0.21176471
0.14019608 0.23823529 0.20490196
0.18382353 0.24852941 0.19852941
0.23921569 0.2627451 0.19215686
0.31127451 0.27941176 0.18578431
0.3872549 0.29509804 0.18333333
0.46323529 0.30931373 0.18039216
0.52745098 0.31764706 0.1745098
0.5872549 0.32205882 0.16813725
0.64607843 0.33235294 0.16470588
0.68823529 0.34264706 0.16617647
0.73333333 0.34901961 0.16470588
0.77843137 0.36568627 0.16078431
0.82058824 0.39117647 0.16470588
0.86127451 0.41862745 0.16813725
0.89607843 0.44313725 0.1745098
0.93137255 0.47205882 0.18039216
0.96568627 0.5 0.1872549
0.98186275 0.52058824 0.20833333
0.99215686 0.54117647 0.23137255
0 0.24362745 0.21421569
0.0048406863 0.24754902 0.21721814
0.0099264706 0.25147059 0.21960784
0.02254902 0.25147059 0.22175245
0.063235294 0.25735294 0.22205882
0.10637255 0.2653799 0.22205882
0.15147059 0.27941176 0.21519608
0.19319853 0.29362745 0.20882353
0.24558824 0.31421569 0.19852941
0.32248775 0.3372549 0.18431373
0.40036765 0.35955882 0.17095588
0.47726716 0.37745098 0.16011029
0.54215686 0.38578431 0.15588235
0.60147059 0.38970588 0.1560049
0.6567402 0.39264706 0.15502451
0.69761029 0.4004902 0.15441176
0.7372549 0.41078431 0.15441176
0.77843137 0.41715686 0.15441176
0.82352941 0.43627451 0.15539216
0.86096814 0.46341912 0.16783088
0.89607843 0.48627451 0.18235294
0.93088235 0.5127451 0.18854167
0.95992647 0.53443627 0.20294118
0.97941176 0.55539216 0.225
0.99607843 0.57598039 0.24411765
0.0039215686 0.29901961 0.2245098
0.0033088235 0.29901961 0.2245098
0.0046568627 0.2997549 0.2252451
0.02120098 0.30281863 0.22745098
0.065686275 0.30686275 0.22843137
0.11678922 0.31078431 0.23235294
0.16176471 0.32352941 0.22622549
0.20196078 0.34117647 0.21911765
0.24313725 0.36078431 0.20882353
0.32303922 0.38419118 0.19460784
0.40392157 0.41078431 0.1754902
0.48541667 0.43786765 0.15232843
0.55294118 0.45490196 0.14509804
0.60772059 0.45784314 0.15208333
0.66176471 0.46397059 0.15
0.70490196 0.4689951 0.14803922
0.74607843 0.47254902 0.14803922
0.78443627 0.47647059 0.14509804
0.82352941 0.48210784 0.14779412
0.86078431 0.50490196 0.16421569
0.89460784 0.52696078 0.18039216
0.92830882 0.54901961 0.19313725
0.95955882 0.56593137 0.21470588
0.9814951 0.58737745 0.23737745
0.99901961 0.60588235 0.25686275
0.0039215686 0.35441176 0.23480392
0.0039215686 0.35177696 0.23480392
0.00012254902 0.3504902 0.23137255
0.017708333 0.35091912 0.234375
0.07377451 0.35637255 0.2370098
0.12745098 0.35925245 0.24264706
0.17585784 0.36911765 0.23970588
0.21519608 0.38743873 0.22941176
0.25343137 0.40588235 0.22254902
0.32156863 0.42892157 0.20833333
0.39571078 0.45196078 0.1939951
0.47156863 0.47898284 0.17947304
0.54754902 0.50220588 0.16348039
0.61378676 0.51954657 0.15251225
0.66568627 0.52941176 0.14607843
0.71127451 0.53431373 0.13645833
0.75245098 0.53431373 0.1377451
0.78988971 0.5346201 0.14332108
0.82647059 0.53933824 0.15343137
0.86121324 0.55300245 0.16721814
0.89607843 0.56666667 0.17843137
0.93088235 0.58376225 0.19313725
0.96176471 0.6004902 0.22058824
0.98363971 0.6158701 0.25441176
0.99607843 0.63039216 0.27745098
0.0078431373 0.40588235 0.24901961
0.0098039216 0.40588235 0.24779412
0.012745098 0.40539216 0.24705882
0.043137255 0.40563725 0.25073529
0.096078431 0.40882353 0.25196078
0.14534314 0.4120098 0.25294118
0.19215686 0.41715686 0.25294118
0.23406863 0.43357843 0.24705882
0.27843137 0.45098039 0.24509804
0.32083333 0.47156863 0.22892157
0.38137255 0.49264706 0.21470588
0.45514706 0.51666667 0.20269608
0.53039216 0.53823529 0.19019608
0.60294118 0.56348039 0.17328431
0.66323529 0.57892157 0.14264706
0.71764706 0.59093137 0.11887255
0.75686275 0.59215686 0.12745098
0.79289216 0.59264706 0.15171569
0.83088235 0.59705882 0.15343137
0.86495098 0.60563725 0.16764706
0.89705882 0.61470588 0.18431373
0.93088235 0.62009804 0.19583333
0.95637255 0.63382353 0.23529412
0.98014706 0.64656863 0.27377451
0.99607843 0.65686275 0.3
0.0039215686 0.45343137 0.25931373
0.020404412 0.45735294 0.26194853
0.053431373 0.45784314 0.26862745
0.094178922 0.45778186 0.275
0.13529412 0.46323529 0.2754902
0.17990196 0.46568627 0.2754902
0.22120098 0.46911765 0.27585784
0.26047794 0.47843137 0.27598039
0.30294118 0.49607843 0.26813725
0.34411765 0.51292892 0.25569853
0.38529412 0.53198529 0.24411765
0.44368873 0.5495098 0.23382353
0.51519608 0.57009804 0.22303922
0.58633578 0.59068627 0.20447304
0.64852941 0.61127451 0.17107843
0.71243873 0.63137255 0.1377451
0.76078431 0.64509804 0.13872549
0.79822304 0.64558824 0.16127451
0.83431373 0.64901961 0.16470588
0.86911765 0.65245098 0.18443627
0.90220588 0.65686275 0.20710784
0.93523284 0.66127451 0.22647059
0.95882353 0.67156863 0.26127451
0.97941176 0.68137255 0.29558824
0.99558824 0.6877451 0.32254902
0.028431373 0.50196078 0.2754902
0.059803922 0.50551471 0.28284314
0.10098039 0.50882353 0.29142157
0.13958333 0.51237745 0.29607843
0.17647059 0.51470588 0.2995098
0.21470588 0.51666667 0.3
0.25514706 0.52058824 0.3
0.29166667 0.52843137 0.30392157
0.32745098 0.5372549 0.30294118
0.36862745 0.55428922 0.29558824
0.41053922 0.56960784 0.28529412
0.45477941 0.58345588 0.275
0.51127451 0.5995098 0.26078431
0.57254902 0.61764706 0.24644608
0.63504902 0.63823529 0.2254902
0.69607843 0.65882353 0.20294118
0.75392157 0.67941176 0.18627451
0.80343137 0.69375 0.17879902
0.8372549 0.69019608 0.20588235
0.86911765 0.69019608 0.22303922
0.90539216 0.69656863 0.2377451
0.94117647 0.70245098 0.25441176
0.95882353 0.70906863 0.28529412
0.97610294 0.7122549 0.31617647
0.99215686 0.71862745 0.34313725
0.10196078 0.55098039 0.31176471
0.12015931 0.55098039 0.31329657
0.15 0.55306373 0.3185049
0.18627451 0.55851716 0.32205882
0.22107843 0.5627451 0.32352941
0.25588235 0.56666667 0.32352941
0.28921569 0.57169118 0.32928922
0.32493873 0.57745098 0.33529412
0.35735294 0.58382353 0.3377451
0.39313725 0.59417892 0.33284314
0.43468137 0.60747549 0.32647059
0.47941176 0.61960784 0.31746324
0.52377451 0.63259804 0.30539216
0.56991422 0.64852941 0.28921569
0.62144608 0.66519608 0.27561275
0.68186275 0.68431373 0.2622549
0.73970588 0.70490196 0.24803922
0.79601716 0.72156863 0.24019608
0.83713235 0.72634804 0.24852941
0.87273284 0.72745098 0.26813725
0.90857843 0.73259804 0.27843137
0.94215686 0.7377451 0.28939951
0.95919118 0.74068627 0.31372549
0.97401961 0.74258578 0.34068627
0.98823529 0.74558824 0.36764706
0.17647059 0.6 0.34901961
0.19313725 0.6 0.34901961
0.21764706 0.6 0.35294118
0.24166667 0.60392157 0.35686275
0.27254902 0.60784314 0.36078431
0.30343137 0.61176471 0.36470588
0.33431373 0.61568627 0.36862745
0.36519608 0.62107843 0.37254902
0.39215686 0.62745098 0.37254902
0.41911765 0.63382353 0.37401961
0.45882353 0.64411765 0.37156863
0.49607843 0.65441176 0.36862745
0.53529412 0.66666667 0.36078431
0.57892157 0.67941176 0.34460784
0.62647059 0.69607843 0.33431373
0.67401961 0.70882353 0.32401961
0.72941176 0.7254902 0.31764706
0.78235294 0.74362745 0.30980392
0.83137255 0.75392157 0.30980392
0.87647059 0.76421569 0.30980392
0.91372549 0.76666667 0.31568627
0.94607843 0.76911765 0.33480392
0.96666667 0.77254902 0.36176471
0.98186275 0.77401961 0.38333333
0.98823529 0.77647059 0.39607843
0.25245098 0.64754902 0.38382353
0.26911765 0.64754902 0.38627451
0.28480392 0.65147059 0.39056373
0.29656863 0.65147059 0.39411765
0.32009804 0.65294118 0.39803922
0.35067402 0.65686275 0.40245098
0.37830882 0.65870098 0.40919118
0.40637255 0.6622549 0.41372549
0.43088235 0.66617647 0.41764706
0.45876225 0.67346814 0.42156863
0.49154412 0.68137255 0.42120098
0.5213848 0.69166667 0.42009804
0.55196078 0.70196078 0.41617647
0.59264706 0.71372549 0.40637255
0.63737745 0.72401961 0.39607843
0.67647059 0.73431373 0.38578431
0.72303922 0.74852941 0.37941176
0.77359069 0.76421569 0.3754902
0.82205882 0.77843137 0.3745098
0.86991422 0.78872549 0.36421569
0.91960784 0.80147059 0.36053922
0.95116422 0.80343137 0.38419118
0.97303922 0.80343137 0.40784314
0.98578431 0.80398284 0.42843137
0.99215686 0.80735294 0.44117647
0.32058824 0.69411765 0.42058824
0.33627451 0.69411765 0.42696078
0.34901961 0.69803922 0.43235294
0.3622549 0.69803922 0.43529412
0.37254902 0.69803922 0.43627451
0.39448529 0.69803922 0.44313725
0.42058824 0.69803922 0.45
0.44509804 0.70134804 0.45490196
0.46960784 0.70490196 0.45882353
0.49473039 0.71164216 0.46666667
0.52352941 0.71862745 0.47156863
0.5504902 0.72794118 0.46801471
0.58137255 0.73431373 0.46715686
0.6122549 0.74558824 0.46727941
0.64901961 0.75588235 0.45857843
0.68382353 0.76519608 0.44816176
0.72156863 0.7745098 0.4372549
0.7685049 0.78872549 0.43688725
0.81495098 0.79926471 0.43235294
0.86323529 0.81323529 0.42598039
0.91470588 0.82352941 0.42745098
0.95833333 0.83333333 0.43259804
0.97941176 0.83333333 0.44117647
0.98676471 0.83431373 0.46470588
0.99607843 0.83431373 0.48235294
0.39656863 0.73529412 0.4754902
0.39932598 0.73529412 0.47598039
0.40992647 0.73541667 0.48088235
0.42401961 0.73878676 0.48382353
0.43431373 0.73921569 0.4877451
0.44901961 0.73578431 0.48780637
0.47009804 0.73578431 0.49473039
0.48694853 0.73921569 0.49754902
0.51127451 0.74313725 0.50392157
0.53609069 0.7473652 0.51158088
0.56078431 0.75245098 0.51568627
0.5848652 0.75925245 0.51568627
0.6122549 0.76911765 0.51519608
0.64313725 0.77941176 0.51525735
0.67401961 0.78970588 0.51617647
0.69969363 0.79607843 0.50931373
0.725 0.80245098 0.49901961
0.76305147 0.81305147 0.49295343
0.80919118 0.82352941 0.49117647
0.85686275 0.83382353 0.49074755
0.90612745 0.84411765 0.4872549
0.95147059 0.85006127 0.47941176
0.97598039 0.85392157 0.48321078
0.98627451 0.85784314 0.50637255
0.99656863 0.86176471 0.52352941
0.46862745 0.77254902 0.52745098
0.46862745 0.7745098 0.52745098
0.47156863 0.77647059 0.53137255
0.48186275 0.77647059 0.53333333
0.49215686 0.77647059 0.53529412
0.50490196 0.77647059 0.53553922
0.52205882 0.77647059 0.54068627
0.53946078 0.77647059 0.54583333
0.55882353 0.77843137 0.55098039
0.58063725 0.78161765 0.55612745
0.60196078 0.78676471 0.56078431
0.62622549 0.79362745 0.56078431
0.64803922 0.8 0.56176471
0.67745098 0.81029412 0.5627451
0.70196078 0.81715686 0.56078431
0.72647059 0.82426471 0.55539216
0.75098039 0.82941176 0.54901961
0.7754902 0.83455882 0.54509804
0.80980392 0.84313725 0.54558824
0.85294118 0.8504902 0.54705882
0.89705882 0.85980392 0.54117647
0.94117647 0.86495098 0.53308824
0.96862745 0.87009804 0.5377451
0.98578431 0.8745098 0.55441176
0.99607843 0.87647059 0.5627451
0.54068627 0.81323529 0.57843137
0.54068627 0.81323529 0.57843137
0.53676471 0.81335784 0.57843137
0.54411765 0.81372549 0.58143382
0.55269608 0.81715686 0.58235294
0.56127451 0.81715686 0.58235294
0.57879902 0.81715686 0.58627451
0.59411765 0.81715686 0.59166667
0.61078431 0.81372549 0.59460784
0.62696078 0.81715686 0.60196078
0.64705882 0.82107843 0.60723039
0.66372549 0.825 0.60637255
0.68382353 0.83088235 0.60808824
0.70833333 0.84068627 0.609375
0.73321078 0.84448529 0.60294118
0.7591299 0.84822304 0.59803922
0.78186275 0.85245098 0.59411765
0.80637255 0.85833333 0.5903799
0.83186275 0.86470588 0.59154412
0.86231618 0.87107843 0.59411765
0.89681373 0.87745098 0.59240196
0.93180147 0.88290441 0.58976716
0.96531863 0.88713235 0.58933824
0.9872549 0.89117647 0.59558824
0.99215686 0.89460784 0.60147059
0.61666667 0.84803922 0.61960784
0.61605392 0.84803922 0.61960784
0.61348039 0.84803922 0.61960784
0.62009804 0.84803922 0.61960784
0.62941176 0.84803922 0.62058824
0.63676471 0.84840686 0.62352941
0.65073529 0.85098039 0.62745098
0.66164216 0.85098039 0.6317402
0.6754902 0.85098039 0.63529412
0.68860294 0.85159314 0.64203431
0.70318627 0.85196078 0.64705882
0.71470588 0.85588235 0.64791667
0.72745098 0.86176471 0.65098039
0.74901961 0.86776961 0.65098039
0.77647059 0.87083333 0.64411765
0.80085784 0.87365196 0.63921569
0.81960784 0.87647059 0.63823529
0.8372549 0.88039216 0.63529412
0.85955882 0.88529412 0.63602941
0.88713235 0.89215686 0.63921569
0.91372549 0.89607843 0.63676471
0.9442402 0.9 0.6310049
0.96642157 0.90392157 0.63504902
0.98578431 0.90821078 0.63860294
0.99215686 0.90882353 0.64215686
0.69117647 0.87892157 0.65931373
0.68964461 0.87892157 0.65778186
0.68970588 0.87892157 0.65686275
0.69785539 0.88284314 0.66060049
0.70514706 0.88284314 0.66078431
0.7127451 0.88284314 0.66341912
0.72303922 0.88284314 0.6682598
0.73333333 0.88284314 0.66954657
0.74607843 0.88284314 0.675
0.75784314 0.88284314 0.67800245
0.77058824 0.88284314 0.6810049
0.78088235 0.88645833 0.68284314
0.79264706 0.89068627 0.68553922
0.80588235 0.89332108 0.68676471
0.82830882 0.89816176 0.68529412
0.84895833 0.90098039 0.68339461
0.86470588 0.90245098 0.68039216
0.875 0.90490196 0.67947304
0.88982843 0.90882353 0.68039216
0.91176471 0.9127451 0.68382353
0.93504902 0.91789216 0.68235294
0.95490196 0.91666667 0.66862745
0.97205882 0.92242647 0.67941176
0.98425245 0.9245098 0.68278186
0.99607843 0.92696078 0.68431373
0.74509804 0.90588235 0.69019608
0.74264706 0.90343137 0.68627451
0.74313725 0.90294118 0.68627451
0.76323529 0.90931373 0.69362745
0.76862745 0.90980392 0.69411765
0.76911765 0.90588235 0.69411765
0.77941176 0.90588235 0.69803922
0.78578431 0.90588235 0.69803922
0.8 0.90980392 0.70196078
0.81666667 0.90980392 0.70833333
0.83235294 0.9127451 0.71372549
0.83872549 0.90980392 0.71372549
0.84901961 0.91372549 0.71372549
0.85980392 0.91421569 0.71421569
0.87647059 0.92058824 0.72058824
0.89019608 0.92401961 0.72009804
0.89803922 0.92156863 0.71372549
0.90833333 0.92156863 0.70980392
0.91960784 0.9254902 0.71078431
0.93627451 0.92941176 0.71715686
0.95294118 0.93529412 0.71764706
0.96127451 0.92941176 0.70588235
0.97843137 0.93627451 0.71568627
0.98970588 0.93872549 0.71911765
0.99607843 0.94117647 0.72156863
0.015686275 0.094117647 0.2
0.014767157 0.094117647 0.2
0.011764706 0.092647059 0.2
0.0081495098 0.090196078 0.2
0.0051470588 0.090196078 0.19926471
0.014031863 0.090196078 0.1963848
0.068137255 0.090196078 0.2
0.12199755 0.090196078 0.2
0.17254902 0.090196078 0.2
0.22555147 0.08627451 0.2
0.29705882 0.070098039 0.2
0.37273284 0.045894608 0.2
0.44583333 0.018382353 0.2
0.51421569 0.0044117647 0.2
0.57843137 0.011764706 0.19607843
0.64319853 0.015686275 0.19552696
0.70588235 0.011764706 0.19460784
0.76127451 0.015196078 0.19460784
0.80784314 0.068504902 0.19460784
0.85030637 0.14166667 0.19460784
0.89411765 0.20539216 0.19068627
0.93333333 0.26372549 0.1908701
0.95882353 0.3127451 0.19791667
0.97849265 0.36182598 0.20392157
0.99362745 0.40539216 0.21421569
0.014215686 0.094117647 0.2
0.014215686 0.094117647 0.2
0.011764706 0.094117647 0.2
0.0094898897 0.094117647 0.2
0.0059129902 0.092647059 0.19972426
0.015081189 0.091536458 0.19852941
0.067907475 0.090196078 0.2
0.12387408 0.090196078 0.2
0.17591912 0.090196078 0.2
0.22738971 0.08627451 0.2
0.29918811 0.071859681 0.2
0.37303922 0.051960784 0.19919577
0.44583333 0.030637255 0.19926471
0.51323529 0.019477635 0.19688266
0.58175551 0.020159314 0.19607843
0.64748775 0.023184743 0.19552696
0.70741422 0.019056373 0.19460784
0.76219363 0.03157935 0.19273131
0.80784314 0.086412377 0.19460784
0.85176164 0.15010723 0.19460784
0.89411765 0.20983456 0.19068627
0.93180147 0.26665901 0.1908701
0.95790441 0.31649816 0.19584865
0.9754902 0.36421569 0.20392157
0.990625 0.40392157 0.2127451
0.013602941 0.10257353 0.20245098
0.012454044 0.10219056 0.20245098
0.011764706 0.10039828 0.20245098
0.011412377 0.099019608 0.20007659
0.012009804 0.099019608 0.2
0.029365809 0.099019608 0.19986213
0.077328431 0.098560049 0.19852941
0.12990196 0.096936275 0.19977022
0.18137255 0.094485294 0.2
0.23345588 0.089338235 0.2
0.30242034 0.079411765 0.19963235
0.37593444 0.067509191 0.19852941
0.44822304 0.052512255 0.19852941
0.51755515 0.042999387 0.19607843
0.58636642 0.034313725 0.1958027
0.65363051 0.027910539 0.19330576
0.71262255 0.036397059 0.19215686
0.76519608 0.074632353 0.19215686
0.81176471 0.12239583 0.19151348
0.85294118 0.17611826 0.19068627
0.89411765 0.22824755 0.19031863
0.92696078 0.2807598 0.19094669
0.95536152 0.33011642 0.19754902
0.97401961 0.37156863 0.20692402
0.98823529 0.40637255 0.2127451
0.011764706 0.10931373 0.20392157
0.011764706 0.10931373 0.20392157
0.014215686 0.10931373 0.20341605
0.017218137 0.10931373 0.20245098
