site/assets/luts/natron-haldclut--polaroid-px-680--a4b679b0b.cube
# LUTr-Project: LUTr — LUTrepository
# LUTr-Schema-Version: 1
# LUTr-ID: natron-haldclut--polaroid-px-680--a4b679b0b
# LUTr-Title: polaroid px-680
# LUTr-Collection: Natron HaldCLUT
# LUTr-Collection-ID: natron-haldclut-presets
# LUTr-Source: https://github.com/NatronGitHub/clut
# LUTr-Source-File: submissions/natron-haldclut-presets/instant_consumer/polaroid_px-680.png
# LUTr-Source-Format: PNG
# LUTr-Source-SHA256: 2f41b5725fa0897071fa70e7e3b49aa1cb04a6d00522715bfecf14a74b30ec18
# LUTr-License: CC-BY-SA-4.0
# LUTr-License-URL: https://github.com/NatronGitHub/clut#license
# LUTr-Tags: creative, film, film-emulation, hald-clut, natron, png, cube
# LUTr-Transform-Class: film-emulation
# LUTr-Input-Color-Space: srgb
# LUTr-Output-Color-Space: srgb
# LUTr-Color-Space-Confidence: assumed-display-referred
# LUTr-Conversion-Method: PNG LUT image decoded at 16-bit and sampled to 25x25x25 3D CUBE
# LUTr-Conversion-Date: 2026-07-27
# LUTr-Conversion-Tool: LUTr scripts/convert-all-to-cube.mjs
# LUTr-Conversion-Grid: 25x25x25
# LUTr-Note: Preserve this metadata and the upstream license notices when redistributing.
TITLE "polaroid px-680"
LUT_3D_SIZE 9
DOMAIN_MIN 0 0 0
DOMAIN_MAX 1 1 1
0.019607843 0.18431373 0.20392157
0.019607843 0.18039216 0.20392157
0.053921569 0.18039216 0.20392157
0.22598039 0.18284314 0.20392157
0.5254902 0.19411765 0.19803922
0.74362745 0.20784314 0.18431373
0.85392157 0.34215686 0.22058824
0.94166667 0.47941176 0.25539216
0.98431373 0.55294118 0.27843137
0.012254902 0.19558824 0.20784314
0.041727941 0.19607843 0.20784314
0.11372549 0.19571078 0.20477941
0.29460784 0.20998775 0.20410539
0.54485294 0.21053922 0.19607843
0.7403799 0.27647059 0.19215686
0.87254902 0.37561275 0.20147059
0.9338848 0.48682598 0.24068627
0.97254902 0.55686275 0.2745098
0.0039215686 0.2245098 0.20784314
0.020465686 0.21813725 0.20404412
0.12671569 0.24289216 0.20098039
0.34019608 0.27610294 0.19313725
0.56372549 0.28284314 0.18431373
0.75183824 0.33786765 0.17647059
0.85882353 0.43235294 0.19289216
0.92647059 0.52058824 0.23223039
0.96470588 0.57647059 0.26764706
0.0039215686 0.33921569 0.20539216
0.0078431373 0.34705882 0.20177696
0.064828431 0.36139706 0.19607843
0.35196078 0.39957108 0.190625
0.59656863 0.44485294 0.17132353
0.74944853 0.47555147 0.18339461
0.84546569 0.50490196 0.18970588
0.91439951 0.57598039 0.2377451
0.96078431 0.6245098 0.28480392
0 0.4745098 0.19607843
0.011519608 0.48235294 0.20759804
0.025 0.49166667 0.20392157
0.33455882 0.51617647 0.20980392
0.57156863 0.55588235 0.2
0.73357843 0.60343137 0.20196078
0.83137255 0.60882353 0.20539216
0.89705882 0.62598039 0.22401961
0.92941176 0.65098039 0.26078431
0.019607843 0.59411765 0.225
0.0060661765 0.59785539 0.22352941
0.085661765 0.60441176 0.22610294
0.34613971 0.62009804 0.23676471
0.54117647 0.64093137 0.24142157
0.7 0.675 0.25876225
0.8122549 0.70134804 0.27267157
0.88333333 0.71599265 0.30294118
0.92696078 0.72205882 0.32352941
0.21176471 0.70784314 0.26960784
0.24473039 0.70098039 0.27340686
0.30220588 0.69313725 0.26960784
0.44264706 0.70098039 0.28676471
0.57843137 0.71568627 0.3
0.69068627 0.73676471 0.32598039
0.78946078 0.7627451 0.35980392
0.8627451 0.77794118 0.38284314
0.91666667 0.79901961 0.41470588
0.45882353 0.78578431 0.3504902
0.46568627 0.78578431 0.36568627
0.50637255 0.78578431 0.37058824
0.56194853 0.78578431 0.36881127
0.63676471 0.79166667 0.38627451
0.71292892 0.80900735 0.41488971
0.77892157 0.82193627 0.43419118
0.83970588 0.84068627 0.46519608
0.89313725 0.86764706 0.50294118
0.63137255 0.8745098 0.46666667
0.63137255 0.87058824 0.46666667
0.65 0.8745098 0.46960784
0.67303922 0.8745098 0.47843137
0.70980392 0.88627451 0.50392157
0.74264706 0.87990196 0.4995098
0.79705882 0.89803922 0.53333333
0.83627451 0.89901961 0.54215686
0.87843137 0.94117647 0.60392157
0.023529412 0.18431373 0.20784314
0.046078431 0.18817402 0.215625
0.08370098 0.18431373 0.21176471
0.27058824 0.17273284 0.21145833
0.53921569 0.18235294 0.21323529
0.75441176 0.25459559 0.23449755
0.86531863 0.37205882 0.25747549
0.94172794 0.49117647 0.28186275
0.97696078 0.57303922 0.33284314
0.015686275 0.19607843 0.21127451
0.042156863 0.19688266 0.21906403
0.12280944 0.19682904 0.21176471
0.30637255 0.20198376 0.21364124
0.55245098 0.2122549 0.21691176
0.76384804 0.29362745 0.22459406
0.87254902 0.40245098 0.25441176
0.93474265 0.50637255 0.28578431
0.97653186 0.58682598 0.33578431
0.0025735294 0.22781863 0.21519608
0.024142157 0.23982843 0.21911765
0.13722426 0.259375 0.21911765
0.37002145 0.29215686 0.21262255
0.59080882 0.30441176 0.21078431
0.76729473 0.36176471 0.21528799
0.86642157 0.45147059 0.23633578
0.92647059 0.54149816 0.28589154
0.97732843 0.61507353 0.34105392
0.011764706 0.3622549 0.23069853
0.011764706 0.3622549 0.22334559
0.11979167 0.37954963 0.21764706
0.39332108 0.41979933 0.21745558
0.60750613 0.44485294 0.21332721
0.76011029 0.4712546 0.20631127
0.84718137 0.51948529 0.23137255
0.91486673 0.58752298 0.2745098
0.95294118 0.62971814 0.32107843
0.0039215686 0.49754902 0.23480392
0.011734069 0.49583333 0.23109681
0.059252451 0.50661765 0.22622549
0.36945466 0.5385723 0.23587623
0.59571078 0.57438725 0.2314951
0.74920343 0.60401348 0.24019608
0.83382353 0.61813725 0.24093137
0.89705882 0.63556985 0.27248775
0.94656863 0.67181373 0.31985294
0.0098039216 0.61145833 0.24656863
0.035416667 0.6096201 0.24411765
0.19011949 0.61556373 0.25490196
0.39901961 0.62738971 0.26372549
0.56632966 0.64549632 0.27156863
0.7194087 0.67892157 0.29012714
0.8131587 0.69468444 0.30681679
0.87967984 0.71452206 0.33317249
0.93186275 0.72971814 0.34509804
0.2495098 0.70784314 0.2877451
0.27086397 0.70012255 0.29166667
0.35186887 0.69990809 0.29123775
0.46752451 0.7067402 0.31109069
0.59289216 0.72009804 0.325
0.70254289 0.74068627 0.34938725
0.79083946 0.75980392 0.37509191
0.86629902 0.78627451 0.40292586
0.91029412 0.80294118 0.42904412
0.45784314 0.78186275 0.35876225
0.46519608 0.78578431 0.3627451
0.50330882 0.78186275 0.3743413
0.57118566 0.78578431 0.38373928
0.64954044 0.79316789 0.39923407
0.71688879 0.80667892 0.42077206
0.78627451 0.82463235 0.44558824
0.84754902 0.84498315 0.47647059
0.89019608 0.86764706 0.50686275
0.63921569 0.88186275 0.47794118
0.63976716 0.8754902 0.47457108
0.63872549 0.86629902 0.46617647
0.67696078 0.87696078 0.48823529
0.70784314 0.87843137 0.49803922
0.75784314 0.89626225 0.525
0.80183824 0.89901961 0.5377451
0.84362745 0.91623775 0.56721814
0.86666667 0.9254902 0.58431373
0.019607843 0.18039216 0.21372549
0.065686275 0.18431373 0.23125
0.092401961 0.18357843 0.2247549
0.26078431 0.17941176 0.23676471
0.55882353 0.14901961 0.25686275
0.77254902 0.21801471 0.28578431
0.88039216 0.40759804 0.33235294
0.93382353 0.52169118 0.37401961
0.97352941 0.60294118 0.40980392
0.015686275 0.1995098 0.23688725
0.046568627 0.19607843 0.23823529
0.14800858 0.20735294 0.24166667
0.32169118 0.20704657 0.24750306
0.58045343 0.20416667 0.26654412
0.77144608 0.32510723 0.30275735
0.87254902 0.4497549 0.34313725
0.92657782 0.55127145 0.38186275
0.95735294 0.60294118 0.40147059
0.0039215686 0.25122549 0.24509804
0.030300245 0.2481924 0.24509804
0.20275735 0.26960784 0.25514706
0.41470588 0.30379902 0.27009804
0.6254902 0.34227941 0.28627451
0.78161765 0.41498162 0.30879289
0.86862745 0.49767157 0.33474265
0.92647059 0.5791973 0.37337623
0.95392157 0.61691176 0.39411765
0.015196078 0.38235294 0.26813725
0.10042892 0.39166667 0.27054228
0.23128064 0.39705882 0.26862745
0.44448529 0.43186275 0.28333333
0.63008578 0.45122549 0.28094363
0.76643689 0.4881587 0.28742341
0.85667892 0.55382966 0.32153799
0.91087623 0.61127451 0.35459559
0.95686275 0.66090686 0.40196078
0.12598039 0.51715686 0.2877451
0.11372549 0.52254902 0.27984069
0.25318627 0.52254902 0.28541667
0.41911765 0.54362745 0.29197304
0.62034314 0.58137255 0.30245098
0.75435049 0.60392157 0.30735294
0.83578431 0.62156863 0.32058824
0.89877451 0.65441176 0.34895833
0.94362745 0.68823529 0.39166667
0.18002451 0.6254902 0.30441176
0.22849265 0.62193627 0.29960172
0.32022059 0.62622549 0.30566789
0.45490196 0.63748468 0.31674326
0.59387255 0.65526961 0.32696078
0.72875306 0.68537071 0.34463848
0.81617647 0.70098039 0.36458333
0.88547794 0.72077206 0.38272059
0.93235294 0.73811275 0.40343137
0.31568627 0.70392157 0.32622549
0.33085172 0.70125613 0.3254902
0.4254902 0.70655637 0.34319853
0.50266544 0.71102941 0.35303309
0.61164216 0.72303922 0.36862745
0.71421569 0.74068627 0.38495711
0.79485294 0.76372549 0.40980392
0.86838235 0.79068627 0.43676471
0.91102941 0.80196078 0.45196078
0.48431373 0.78186275 0.38872549
0.495144 0.78578431 0.39656863
0.52748162 0.78578431 0.39338235
0.58468137 0.78578431 0.40655637
0.65196078 0.79491422 0.42205882
0.72477022 0.81073836 0.44563419
0.78627451 0.82941176 0.46764706
0.84411765 0.84805453 0.49865196
0.89264706 0.86764706 0.52169118
0.62745098 0.86666667 0.4745098
0.64742647 0.87928922 0.48578431
0.65784314 0.8745098 0.48627451
0.66666667 0.86421569 0.48627451
0.71568627 0.88431373 0.51470588
0.75196078 0.8810049 0.51740196
0.80098039 0.8872549 0.53333333
0.84362745 0.90453431 0.56323529
0.8627451 0.91862745 0.58137255
0.015686275 0.18039216 0.27696078
0.1 0.18676471 0.28578431
0.21127451 0.19901961 0.29754902
0.3348652 0.21819853 0.30392157
0.54142157 0.20710784 0.33088235
0.7651348 0.21439951 0.36568627
0.88284314 0.35245098 0.39264706
0.9377451 0.50784314 0.43333333
0.96470588 0.62794118 0.48627451
0.0068627451 0.20196078 0.29705882
0.09252451 0.20327053 0.30114124
0.25183824 0.23333333 0.3127451
0.39215686 0.25350031 0.32696078
0.58318015 0.26666667 0.34626225
0.78039982 0.3051394 0.37696078
0.8861826 0.41876532 0.40433517
0.93023131 0.55140931 0.44822304
0.95655637 0.63578431 0.48259804
0.0078431373 0.27794118 0.32401961
0.034895833 0.27388174 0.32049632
0.27472426 0.30416667 0.34181985
0.4595435 0.35363051 0.35105699
0.63143382 0.37432598 0.36819853
0.78627451 0.42461703 0.39105392
0.87043505 0.50787377 0.41501225
0.9165288 0.60526961 0.45644914
0.95465686 0.65698529 0.48186275
0.029411765 0.39656863 0.33376225
0.11893382 0.40521599 0.3411152
0.30923713 0.42696078 0.35614277
0.5053079 0.45614277 0.3687117
0.66985294 0.49065564 0.38550858
0.78122702 0.5216299 0.38621324
0.85741422 0.58186275 0.41971507
0.90655637 0.64099265 0.44712776
0.94803922 0.6838848 0.47941176
0.17794118 0.51053922 0.34166667
0.26731005 0.52794118 0.35073529
0.41047794 0.54387255 0.36838235
0.50370711 0.56295956 0.37297794
0.65343137 0.58823529 0.38419118
0.76715686 0.61204044 0.39286152
0.84148284 0.64430147 0.41568627
0.89681373 0.67818627 0.44181985
0.94436275 0.70637255 0.46691176
0.39068627 0.63241422 0.38039216
0.40354626 0.63205423 0.37451746
0.4627451 0.63869485 0.38045343
0.52352941 0.64908088 0.38586857
0.62598039 0.66464461 0.39901961
0.74746477 0.69440104 0.41387102
0.82195159 0.70772059 0.42202819
0.88547794 0.72493107 0.43676471
0.92794118 0.74957108 0.46856618
0.46519608 0.71176471 0.39767157
0.44911152 0.71176471 0.38832721
0.4955576 0.71458333 0.39396446
0.55611213 0.71960784 0.40159314
0.64362745 0.72745098 0.41642157
0.72889093 0.74460784 0.43526348
0.80015319 0.76727941 0.45723039
0.86533395 0.78498775 0.47490809
0.91764706 0.80980392 0.49816176
0.52941176 0.78939951 0.42175245
0.53251379 0.78578431 0.42696078
0.56390931 0.78970588 0.42737439
0.60314032 0.79344363 0.43732384
0.6658701 0.79745711 0.45352328
0.72892157 0.81292892 0.47952665
0.79019608 0.82909007 0.49557292
0.85104167 0.84852941 0.52248775
0.89754902 0.875 0.54852941
0.64558824 0.88480392 0.5004902
0.64166667 0.86715686 0.49411765
0.65784314 0.87058824 0.49987745
0.68535539 0.88137255 0.51219363
0.71691176 0.8875 0.52671569
0.7622549 0.89166667 0.54264706
0.80134804 0.88382353 0.54718137
0.84785539 0.91599265 0.58921569
0.8627451 0.9254902 0.60245098
0.090196078 0.19215686 0.38823529
0.19436275 0.20367647 0.39215686
0.35392157 0.2372549 0.40833333
0.51813725 0.31519608 0.42352941
0.64411765 0.37843137 0.43529412
0.74656863 0.35441176 0.44656863
0.86372549 0.41029412 0.47892157
0.92058824 0.50588235 0.49803922
0.96862745 0.6 0.51372549
0.094607843 0.23455882 0.40171569
0.21933211 0.25343137 0.41148897
0.37843137 0.28020833 0.42261029
0.54803922 0.35906863 0.43602941
0.66568627 0.41642157 0.44877451
0.7752451 0.42288603 0.46216299
0.86323529 0.47040441 0.4846201
0.92426471 0.54757966 0.50245098
0.95318627 0.61102941 0.51936275
0.067156863 0.31862745 0.42107843
0.21390931 0.32506127 0.43529412
0.39068627 0.35281863 0.43872549
0.57696078 0.42959559 0.45140931
0.68946078 0.49387255 0.46029412
0.77696078 0.49172794 0.47383578
0.85882353 0.54031863 0.49215686
0.91427696 0.60294118 0.51415441
0.95784314 0.66421569 0.53529412
0.06004902 0.43284314 0.42156863
0.17383578 0.43921569 0.42931985
0.36917892 0.45857843 0.44019608
0.56127451 0.50125613 0.45686275
0.7067402 0.56029412 0.46960784
0.78327206 0.56593137 0.47916667
0.85422794 0.61317402 0.50140931
0.90278799 0.66348039 0.52509191
0.94044118 0.71127451 0.55147059
0.26078431 0.54411765 0.42254902
0.29595588 0.54031863 0.41985294
0.41568627 0.55392157 0.43039216
0.56727941 0.58480392 0.45416667
0.69607843 0.61960784 0.46666667
0.77585784 0.6379902 0.47622549
0.84313725 0.66568627 0.49681373
0.89497549 0.70073529 0.51997549
0.9372549 0.73921569 0.54411765
0.35441176 0.61813725 0.41519608
0.41109069 0.62720588 0.42230392
0.49417892 0.63933824 0.43719363
0.59782475 0.65784314 0.45612745
0.68357843 0.67806373 0.47058824
0.75664828 0.70367647 0.48627451
0.82579657 0.71856618 0.49803922
0.88707108 0.73676471 0.50637255
0.92745098 0.76691176 0.5372549
0.49705882 0.70637255 0.44607843
0.50465686 0.70833333 0.44607843
0.56004902 0.71176471 0.45294118
0.6127451 0.72205882 0.4591299
0.66862745 0.7372549 0.47009804
0.74558824 0.75533088 0.49056373
0.81017157 0.77536765 0.5060049
0.87150735 0.79411765 0.52083333
0.92696078 0.80980392 0.53676471
0.56789216 0.78578431 0.47328431
0.57591912 0.78186275 0.47132353
0.60042892 0.78572304 0.47132353
0.6364277 0.79344363 0.48195466
0.68382353 0.80404412 0.49276961
0.74034926 0.8135723 0.50916054
0.79797794 0.83480392 0.52843137
0.85147059 0.85612745 0.5583027
0.89362745 0.87156863 0.58284314
0.63921569 0.86862745 0.51568627
0.64093137 0.8627451 0.51176471
0.66764706 0.87794118 0.52352941
0.67573529 0.85637255 0.51642157
0.71666667 0.8754902 0.53921569
0.7622549 0.88186275 0.55759804
0.80686275 0.89215686 0.57303922
0.84754902 0.91029412 0.60441176
0.87058824 0.92745098 0.62352941
0.26519608 0.23676471 0.50392157
0.34234069 0.26421569 0.50245098
0.48480392 0.28639706 0.51139706
0.63088235 0.39068627 0.51966912
0.74215686 0.53186275 0.53382353
0.79025735 0.54852941 0.53382353
0.84901961 0.55735294 0.54803922
0.90539216 0.56991422 0.55637255
0.93039216 0.60147059 0.5622549
0.29362745 0.28578431 0.51421569
0.37175245 0.30147059 0.51783088
0.51369485 0.35088848 0.52028186
0.6422258 0.43529412 0.5233992
0.74788603 0.54935662 0.53504902
0.80202206 0.59039522 0.54411765
0.85203738 0.57308517 0.55196078
0.90120251 0.5968367 0.560072
0.95667892 0.63988971 0.57530637
0.32487745 0.38333333 0.51813725
0.39332108 0.39460784 0.52205882
0.51522672 0.42647059 0.52781863
0.64882047 0.4877451 0.52990196
0.73909314 0.57555147 0.53504902
0.80255821 0.63049939 0.55157782
0.84849877 0.60523897 0.55196078
0.90275735 0.6372549 0.56795343
0.92794118 0.66176471 0.57512255
0.24166667 0.48235294 0.50784314
0.32922028 0.48872549 0.51169577
0.49270833 0.50159314 0.52182904
0.634375 0.53789062 0.52877604
0.74068627 0.60784314 0.54019608
0.79957108 0.65055147 0.55042892
0.85473346 0.6615962 0.55980392
0.89498315 0.68137255 0.57028186
0.94117647 0.70833333 0.58878676
0.30735294 0.56813725 0.49705882
0.34540441 0.56617647 0.49705882
0.44123775 0.575 0.50300245
0.57625613 0.59834559 0.52181373
0.72034314 0.64877451 0.54056373
0.79733456 0.67723652 0.55196078
0.84895833 0.70294118 0.56372549
0.8872549 0.7229473 0.57720588
0.9254902 0.75686275 0.5995098
0.40925245 0.63731618 0.48529412
0.42481618 0.63952206 0.484375
0.4873315 0.64477635 0.49105392
0.59224112 0.66142004 0.50827206
0.69656863 0.69090074 0.53039216
0.78241422 0.72150735 0.54803922
0.83973652 0.73379289 0.55856311
0.89068627 0.75264246 0.57047335
0.92401961 0.79454657 0.60147059
0.46531863 0.69816176 0.47843137
0.47415748 0.69977022 0.47967218
0.53887868 0.70784314 0.49166667
0.60010723 0.71421569 0.49620098
0.68560049 0.74117647 0.52254902
0.76482843 0.76790748 0.54558824
0.82487745 0.78792892 0.56050858
0.88267463 0.7941636 0.56853554
0.92156863 0.80980392 0.57794118
0.55324755 0.78057598 0.50441176
0.56312806 0.78073683 0.50786612
0.60044424 0.77794118 0.50968137
0.63872549 0.78712469 0.51942402
0.69460784 0.80465686 0.53357843
0.7517693 0.81813725 0.54558824
0.81372549 0.84232537 0.57334559
0.86276808 0.86184896 0.59460784
0.90147059 0.8754902 0.61372549
0.64705882 0.87058824 0.54803922
0.65116422 0.87254902 0.5504902
0.67058824 0.8745098 0.5504902
0.68872549 0.8745098 0.55441176
0.72671569 0.89142157 0.57009804
0.76672794 0.8901348 0.57941176
0.81372549 0.90588235 0.61029412
0.85147059 0.91942402 0.63155637
0.88235294 0.94117647 0.65245098
0.49705882 0.34607843 0.59901961
0.55257353 0.37990196 0.59901961
0.62941176 0.40710784 0.59901961
0.72622549 0.49901961 0.60477941
0.79117647 0.59607843 0.60833333
0.82598039 0.66372549 0.60980392
0.86176471 0.68921569 0.61397059
0.90245098 0.67401961 0.61666667
0.91764706 0.66176471 0.61372549
0.5127451 0.40196078 0.59938725
0.56564032 0.40686275 0.60294118
0.6370098 0.44322917 0.60196078
0.7270527 0.51125919 0.60588235
0.7875 0.59166667 0.60980392
0.82598039 0.66764706 0.60980392
0.85686275 0.68759191 0.61087623
0.88757659 0.67863051 0.61072304
0.93235294 0.69571078 0.62144608
0.51004902 0.45196078 0.59803922
0.55196078 0.46715686 0.59828431
0.63627451 0.50177696 0.60140931
0.71253064 0.55196078 0.60196078
0.78921569 0.62401961 0.60784314
0.82990196 0.69329044 0.61372549
0.86243873 0.70220588 0.6161152
0.89077819 0.70441176 0.61764706
0.91372549 0.71176471 0.62156863
0.49534314 0.5504902 0.59227941
0.52820159 0.55257353 0.59056373
0.6 0.56372549 0.59365809
0.70159314 0.59791667 0.60085784
0.77745098 0.65116422 0.60588235
0.8272212 0.71262255 0.61634498
0.8645527 0.73465074 0.62156863
0.8870864 0.72634804 0.62058824
0.92120098 0.74068627 0.62941176
0.37843137 0.60882353 0.56715686
0.41746324 0.60539216 0.56862745
0.52046569 0.61164216 0.57745098
0.64258578 0.63921569 0.5875
0.75588235 0.67622549 0.60245098
0.81495098 0.72941176 0.61372549
0.86470588 0.76654412 0.6254902
0.89203431 0.75692402 0.6254902
0.92696078 0.76470588 0.63627451
0.45245098 0.66666667 0.55772059
0.4682598 0.67058824 0.55882353
0.5185049 0.66666667 0.56127451
0.59767157 0.67437194 0.57003676
0.70098039 0.70055147 0.58731618
0.79460784 0.73356311 0.60496324
0.85530025 0.78216912 0.62181373
0.89434743 0.78003983 0.63079044
0.90490196 0.80147059 0.63958333
0.49117647 0.72058824 0.54779412
0.49568015 0.71960784 0.54632353
0.53235294 0.71666667 0.54552696
0.60931373 0.7245098 0.55508578
0.70012255 0.74509804 0.57512255
0.77141544 0.775 0.59522059
0.84019608 0.81078431 0.61838235
0.88590686 0.83054534 0.63848039
0.90490196 0.83823529 0.64583333
0.50147059 0.76960784 0.53566176
0.50837929 0.76960784 0.53517157
0.54053309 0.77000613 0.53575368
0.62642463 0.78590686 0.55749081
0.69748775 0.80098039 0.57352941
0.75588235 0.81554841 0.5872549
0.8254902 0.84509804 0.61516544
0.87107843 0.86444547 0.63431373
0.90147059 0.88345588 0.64987745
0.60294118 0.86568627 0.57254902
0.61066176 0.86715686 0.57352941
0.59828431 0.83651961 0.56397059
0.66960784 0.87696078 0.58529412
0.70686275 0.87745098 0.59313725
0.75637255 0.87745098 0.60931373
0.81691176 0.90294118 0.6370098
0.85539216 0.9307598 0.66372549
0.88627451 0.94509804 0.67941176
0.67990196 0.5127451 0.67156863
0.68731618 0.5127451 0.67156863
0.72941176 0.55085784 0.66764706
0.77028186 0.59185049 0.66764706
0.81617647 0.65980392 0.66764706
0.85686275 0.7254902 0.67107843
0.87977941 0.76752451 0.67107843
0.89852941 0.77352941 0.67064951
0.92107843 0.75833333 0.67107843
0.66813725 0.53921569 0.67156863
0.6872549 0.54705882 0.66894148
0.73590686 0.57428002 0.67150735
0.77420343 0.61378676 0.66764706
0.81813725 0.66721814 0.66764706
0.85798866 0.72579657 0.67156863
0.88022365 0.76666667 0.67156863
0.89803922 0.78056832 0.67150735
0.91764706 0.76617647 0.67156863
0.67254902 0.57794118 0.67156863
0.67958027 0.58137255 0.66764706
0.72071078 0.6 0.66629902
0.771875 0.63734681 0.66764706
0.81685049 0.68498775 0.66764706
0.85686275 0.73982843 0.67156863
0.88360907 0.77745098 0.67539828
0.90196078 0.79564951 0.67881434
0.91458333 0.78443627 0.675
0.64656863 0.63382353 0.66372549
0.66503523 0.63529412 0.66372549
0.70257353 0.6303462 0.66519608
0.7577742 0.66488971 0.66764706
0.80710784 0.70392157 0.66764706
0.85274969 0.75667892 0.67156863
0.88086703 0.80145527 0.67602635
0.89852941 0.80332414 0.67546722
0.91372549 0.79754902 0.675
0.59289216 0.66593137 0.65416667
0.59068627 0.66939338 0.64849877
0.65808824 0.66960784 0.65441176
0.70588235 0.68848039 0.65407475
0.78872549 0.71764706 0.66372549
0.83979779 0.76838235 0.66893382
0.87898284 0.81715686 0.67892157
0.89457721 0.82668505 0.67892157
0.90588235 0.82647059 0.67916667
0.50177696 0.70802696 0.63498775
0.51795343 0.70543045 0.63265931
0.5557598 0.70177696 0.63284314
0.63051471 0.70778186 0.63621324
0.72515319 0.72818627 0.64926471
0.81635263 0.77243413 0.66060815
0.87452512 0.82647059 0.68128064
0.89019608 0.84166667 0.68302696
0.89785539 0.85324755 0.6846201
0.52401961 0.74791667 0.62009804
0.54166667 0.75059743 0.62090993
0.58103554 0.75453431 0.625
0.63151042 0.75441176 0.62887561
0.70196078 0.76121324 0.64019608
0.7689951 0.78828125 0.65310968
0.84831495 0.83639706 0.67472426
0.88578431 0.86458333 0.68768382
0.89901961 0.87904412 0.69865196
0.5504902 0.80196078 0.61323529
0.55360754 0.80104167 0.60936734
0.58345588 0.80179228 0.61548713
0.63743873 0.80351562 0.62107843
0.68581495 0.81127451 0.62843137
0.75138634 0.825 0.64401042
0.8176011 0.84946385 0.661106
0.87064185 0.88387714 0.68419884
0.89846814 0.90778186 0.70294118
0.5504902 0.85539216 0.60931373
0.57990196 0.85931373 0.61715686
0.59546569 0.86360294 0.62107843
0.64264706 0.88039216 0.62892157
0.66348039 0.85955882 0.62107843
0.73560049 0.85980392 0.64215686
0.81727941 0.89656863 0.67120098
0.86323529 0.92947304 0.69117647
0.88235294 0.95294118 0.70637255
0.77254902 0.67843137 0.72941176
0.77647059 0.68235294 0.72598039
0.79215686 0.69313725 0.7254902
0.81813725 0.71372549 0.71911765
0.84705882 0.74117647 0.71568627
0.87843137 0.78578431 0.71764706
0.89019608 0.81666667 0.71372549
0.89803922 0.85490196 0.71372549
0.90588235 0.86666667 0.71764706
0.76862745 0.68235294 0.7254902
0.77990196 0.69319853 0.72935049
0.79595588 0.7057598 0.7254902
0.81813725 0.71979167 0.71764706
0.85098039 0.75098039 0.72156863
0.87843137 0.78921569 0.71764706
0.89411765 0.8245098 0.71629902
0.89846814 0.85643382 0.71580882
0.90588235 0.85784314 0.71715686
0.7745098 0.71372549 0.73039216
0.77254902 0.70833333 0.72806373
0.78504902 0.70808824 0.71764706
0.81997549 0.73762255 0.72156863
0.84509804 0.74656863 0.70980392
0.87598039 0.79362745 0.71764706
0.89411765 0.82843137 0.71372549
0.89803922 0.86801471 0.71384804
0.90588235 0.86960784 0.71764706
0.7504902 0.72009804 0.72156863
0.74283088 0.71262255 0.71439951
0.77696078 0.72732843 0.72156863
0.80484069 0.73970588 0.71519608
0.84387255 0.76985294 0.71764706
0.87205882 0.80392157 0.71464461
0.89019608 0.83529412 0.7127451
0.89411765 0.85 0.70196078
0.90196078 0.87598039 0.71764706
0.73137255 0.74313725 0.72352941
0.73970588 0.74313725 0.72205882
0.75931373 0.74607843 0.72303922
0.78210784 0.75735294 0.71764706
0.82843137 0.78235294 0.71862745
0.86421569 0.81323529 0.71764706
0.88627451 0.84166667 0.7127451
0.89068627 0.87720588 0.71617647
0.89411765 0.88823529 0.72156863
0.64362745 0.75294118 0.70686275
0.6713848 0.76207108 0.72156863
0.69375 0.75980392 0.71580882
0.73529412 0.765625 0.71372549
0.7997549 0.78431373 0.71887255
0.84460784 0.81568627 0.71280637
0.87904412 0.85588235 0.72193627
0.89019608 0.88823529 0.72696078
0.89411765 0.89411765 0.7254902
0.62941176 0.79411765 0.70686275
0.6317402 0.79056373 0.69705882
0.63431373 0.78627451 0.69313725
0.70294118 0.79767157 0.71262255
0.73529412 0.79068627 0.69901961
0.81666667 0.81960784 0.71482843
0.85808824 0.85588235 0.72156863
0.88321078 0.89460784 0.72598039
0.89901961 0.91078431 0.7372549
0.63529412 0.84411765 0.69754902
0.6401348 0.84803922 0.69810049
0.65392157 0.84803922 0.69705882
0.68400735 0.84332108 0.6966299
0.72769608 0.85196078 0.71372549
0.78137255 0.86341912 0.72009804
0.82401961 0.87156863 0.71115196
0.86715686 0.90294118 0.73425245
0.9122549 0.94362745 0.75833333
0.6745098 0.92941176 0.72941176
0.66176471 0.9127451 0.7127451
0.66078431 0.89509804 0.69901961
0.68970588 0.90147059 0.70147059
0.72745098 0.89607843 0.70980392
0.76617647 0.9127451 0.72303922
0.8127451 0.91666667 0.7245098
0.85931373 0.91029412 0.73333333
0.91764706 0.95294118 0.76470588
