site/assets/luts/natron-haldclut--analogfx-sepia-color--e37247340.cube
# LUTr-Project: LUTr — LUTrepository
# LUTr-Schema-Version: 1
# LUTr-ID: natron-haldclut--analogfx-sepia-color--e37247340
# LUTr-Title: analogfx sepia color
# LUTr-Collection: Natron HaldCLUT
# LUTr-Collection-ID: natron-haldclut-presets
# LUTr-Source: https://github.com/NatronGitHub/clut
# LUTr-Source-File: submissions/natron-haldclut-presets/picturefx/analogfx_sepia_color.png
# LUTr-Source-Format: PNG
# LUTr-Source-SHA256: 4cbf82562828886433d7ef80b2d23cfce6ae58e8a67f9dd752c27c5c39b0b77d
# LUTr-License: CC-BY-SA-4.0
# LUTr-License-URL: https://github.com/NatronGitHub/clut#license
# LUTr-Tags: creative, film, film-emulation, hald-clut, natron, png, warm, cube
# LUTr-Transform-Class: film-emulation
# LUTr-Input-Color-Space: srgb
# LUTr-Output-Color-Space: srgb
# LUTr-Color-Space-Confidence: assumed-display-referred
# LUTr-Conversion-Method: PNG LUT image decoded at 16-bit and sampled to 25x25x25 3D CUBE
# LUTr-Conversion-Date: 2026-07-27
# LUTr-Conversion-Tool: LUTr scripts/convert-all-to-cube.mjs
# LUTr-Conversion-Grid: 25x25x25
# LUTr-Note: Preserve this metadata and the upstream license notices when redistributing.
TITLE "analogfx sepia color"
LUT_3D_SIZE 9
DOMAIN_MIN 0 0 0
DOMAIN_MAX 1 1 1
0.011764706 0.0039215686 0
0.074019608 0.026960784 0
0.12745098 0.061764706 0
0.19411765 0.10441176 0
0.28823529 0.15294118 0
0.39166667 0.2122549 0
0.54117647 0.31666667 0
0.70098039 0.42107843 0
0.85882353 0.51372549 0
0.1122549 0.034803922 0
0.086703431 0.016176471 0
0.14007353 0.060784314 0
0.20098039 0.103125 0
0.28602941 0.15294118 0
0.39773284 0.2122549 0
0.55085784 0.31372549 0
0.71268382 0.41715686 0
0.85882353 0.50637255 0
0.20098039 0.07254902 0
0.18970588 0.065686275 0
0.18921569 0.07254902 0
0.22745098 0.1004902 0
0.32254902 0.15294118 0
0.44019608 0.22365196 0
0.56764706 0.31102941 0
0.72352941 0.40980392 0
0.88137255 0.50882353 0
0.31421569 0.1122549 0
0.30637255 0.10686275 0
0.31813725 0.11078431 0
0.3151348 0.11715686 0
0.36568627 0.15343137 0
0.475 0.22401961 0
0.60882353 0.3127451 0
0.76421569 0.40980392 0
0.9122549 0.50735294 0
0.46862745 0.15098039 0
0.49191176 0.15686275 0
0.50196078 0.16078431 0
0.49681373 0.16593137 0
0.48235294 0.17058824 0
0.52745098 0.21029412 0
0.66960784 0.30490196 0
0.81029412 0.3997549 0
0.94313725 0.48431373 0
0.66029412 0.18333333 0
0.70882353 0.19754902 0
0.72218137 0.20686275 0
0.67199755 0.20539216 0
0.69411765 0.22181373 0
0.69503676 0.23186275 0
0.76164216 0.28676471 0
0.89656863 0.36893382 0
0.99362745 0.46617647 0
0.9127451 0.22941176 0
0.93492647 0.23713235 0
0.94607843 0.24411765 0
0.92990196 0.24313725 0
0.92009804 0.25784314 0
0.93676471 0.27156863 0
0.93627451 0.29044118 0
0.98664216 0.32205882 0
0.99705882 0.3745098 0
1 0.27892157 0
1 0.2911152 0
0.99215686 0.2877451 0
1 0.29117647 0
0.98651961 0.30490196 0
0.98609069 0.32647059 0
0.98958333 0.33786765 0
1 0.3627451 0
1 0.37058824 0
1 0.43921569 0
1 0.41617647 0
1 0.43529412 0
1 0.42352941 0
1 0.43921569 0
1 0.45882353 0
1 0.45882353 0
1 0.47107843 0
1 0.47843137 0
0.10441176 0.03872549 0
0.084865196 0.030453431 0
0.13529412 0.068259804 0
0.21078431 0.1122549 0
0.30343137 0.16446078 0
0.41501225 0.23137255 0
0.56568627 0.33186275 0
0.72352941 0.42849265 0
0.8745098 0.52205882 0
0.098406863 0.02745098 0
0.12745864 0.050428922 0
0.15372243 0.070358456 0
0.21816023 0.11207108 0
0.30710784 0.16464461 0
0.42077206 0.2312117 0
0.56911765 0.32418811 0
0.72745098 0.42189032 0
0.87794118 0.51721814 0
0.19705882 0.076102941 0
0.20392157 0.083624387 0
0.20539216 0.088817402 0
0.253125 0.11832108 0
0.33425245 0.16838235 0
0.43296569 0.23560049 0
0.57313113 0.32009804 0
0.73207721 0.41443015 0
0.88578431 0.50943627 0
0.31372549 0.11439951 0
0.31960784 0.11987592 0
0.3222886 0.12224265 0
0.32186734 0.12787224 0
0.37647059 0.16706495 0
0.47567402 0.23540901 0
0.62107843 0.32009804 0
0.77971814 0.41372549 0
0.91862745 0.51029412 0
0.48186275 0.15098039 0
0.48820466 0.16032475 0
0.50588235 0.16666667 0
0.5036152 0.17254902 0
0.49276961 0.18039216 0
0.53333333 0.23391544 0
0.68639706 0.31078431 0
0.83875613 0.40689338 0
0.95269608 0.48995098 0
0.69313725 0.19332108 0
0.71844363 0.20143229 0
0.73377757 0.20931373 0
0.72666207 0.22089461 0
0.6895527 0.22647059 0
0.71206342 0.24944853 0
0.77401961 0.29174326 0
0.9071921 0.37518382 0
1 0.47628676 0
0.94522059 0.24105392 0
0.96165748 0.24015012 0
0.96816789 0.24411765 0
0.95137868 0.25018382 0
0.94142157 0.26176471 0
0.96017157 0.2734375 0
0.95833333 0.29595588 0
0.98926164 0.34117647 0
0.99607843 0.40428922 0
0.98872549 0.29454657 0
0.99957108 0.29852941 0
0.99607843 0.3097886 0
0.99656863 0.31011029 0
0.99215686 0.32643995 0
0.99607843 0.33292739 0.0012867647
0.99607843 0.37046569 0.0039215686
0.99607843 0.39705882 0.0039215686
1 0.39264706 0
1 0.4504902 0
1 0.43517157 0
1 0.44313725 0
1 0.45367647 0
1 0.44240196 0
1 0.45165441 0.0039215686
1 0.47536765 0.0078431373
1 0.49019608 0.01127451
1 0.49362745 0
0.18529412 0.088235294 0
0.18492647 0.088235294 0
0.18137255 0.095343137 0
0.20943627 0.11507353 0
0.30931373 0.17009804 0
0.43382353 0.24362745 0
0.59240196 0.34019608 0
0.75441176 0.43578431 0
0.89313725 0.52156863 0
0.18921569 0.088235294 0
0.19705882 0.096032475 0
0.19264706 0.096292892 0
0.23674939 0.12397365 0
0.32469363 0.17640931 0
0.4377451 0.24362745 0
0.60355392 0.33627451 0
0.76197917 0.43284314 0
0.90747549 0.5254902 0
0.19166667 0.08995098 0
0.22313113 0.10291054 0
0.24761029 0.11194853 0
0.28431373 0.13177083 0
0.3627451 0.17696078 0
0.45085784 0.24583333 0
0.61862745 0.33529412 0
0.78385417 0.42901348 0
0.89828431 0.51004902 0
0.32879902 0.12757353 0
0.32910539 0.1334712 0
0.33786765 0.13961397 0
0.35709252 0.15071998 0
0.42058824 0.18039216 0
0.52503064 0.2587163 0
0.66976103 0.33921569 0.0026654412
0.81666667 0.42794118 0
0.93835784 0.51666667 0
0.50098039 0.16715686 0
0.51280637 0.17935049 0
0.51960784 0.18480392 0
0.5286152 0.19313725 0
0.53308824 0.20588235 0
0.60857843 0.26151961 0
0.74411765 0.34215686 0.0011029412
0.8745098 0.41795343 0
0.97941176 0.49558824 0
0.73088235 0.23382353 0
0.74803922 0.22498468 0
0.74770221 0.23636642 0
0.74417892 0.24473039 0
0.72922794 0.25416667 0
0.72856924 0.26973039 0
0.80989583 0.33740809 0.0029411765
0.95212929 0.40686275 0
1 0.4372549 0
0.97622549 0.2620098 0
0.96835172 0.27892157 0
0.97898284 0.27303922 0
0.96976103 0.3026348 0
0.96666667 0.30098039 0
0.96976103 0.31648284 0
0.98259804 0.34803922 0.0013480392
0.98823529 0.40196078 0.0039215686
0.99607843 0.44117647 0.0039215686
0.99914216 0.36176471 0.0039215686
1 0.36372549 0.0078431373
0.99644608 0.36966912 0.0068627451
1 0.375 0.0042892157
0.99607843 0.3841299 0.0068627451
0.99754902 0.39943321 0.012300858
0.99935662 0.42009804 0.014338235
0.99575674 0.4417739 0.012254902
0.99607843 0.46078431 0.019117647
1 0.48235294 0.018627451
1 0.49080882 0.020098039
1 0.49411765 0.017401961
1 0.48921569 0.015318627
1 0.47843137 0.016666667
1 0.48382353 0.0020833333
1 0.50196078 0.01004902
1 0.52107843 0.018382353
1 0.53333333 0.032352941
0.30245098 0.15245098 0
0.30098039 0.15245098 0
0.30245098 0.15637255 0
0.30006127 0.16121324 0
0.35392157 0.19656863 0
0.45294118 0.25539216 0
0.61127451 0.35196078 0
0.77530637 0.44491422 0
0.9254902 0.5372549 0
0.29246324 0.14871324 0
0.29826134 0.15214461 0
0.31029412 0.15651042 0
0.30233609 0.16029412 0
0.33495711 0.18553922 0
0.46158854 0.25931373 0
0.62345282 0.35441176 0
0.79019608 0.4470818 0
0.94136029 0.54528186 0
0.30686275 0.15183824 0
0.31211703 0.1564951 0
0.32291667 0.15784314 0
0.33235294 0.15839461 0
0.40637255 0.18235294 0
0.52081801 0.25784314 0
0.67907475 0.3504902 0
0.82731311 0.44705882 0
0.94754902 0.53615196 0
0.35042892 0.15784314 0
0.37088695 0.16637561 0
0.37904412 0.16282169 0
0.41715686 0.18143382 0.0046721814
0.48339461 0.21323529 0.0054534314
0.60112592 0.2877451 0.0039215686
0.74105392 0.37647059 0.0039215686
0.86557138 0.45790441 0.0039215686
0.97107843 0.54117647 0.0054534314
0.5122549 0.20441176 0
0.5213848 0.20637255 0
0.54803922 0.21960784 0
0.5549326 0.23192402 0.016237745
0.5689951 0.26176471 0.0047794118
0.6620098 0.30980392 0
0.79460784 0.39528186 0.0039215686
0.91936275 0.45309436 0.0040747549
0.9870098 0.53578431 0.0071078431
0.73915441 0.31127451 0
0.74106158 0.2995098 0
0.75870098 0.31957721 0
0.74731924 0.31519608 0.00095741422
0.74439338 0.32129289 0
0.76660539 0.34025735 0
0.85568321 0.4 0.0039215686
0.96875 0.46520374 0.0039215686
0.99607843 0.52107843 0.006372549
0.94754902 0.38872549 0.0045343137
0.93053002 0.38837316 0.003783701
0.95343137 0.39607843 0.00098039216
0.96392463 0.40392157 0
0.96403186 0.40496324 0
0.96937806 0.41807598 0
0.97843137 0.43713235 0.0049019608
0.98823529 0.48368566 0.0039215686
0.99607843 0.50294118 0
1 0.45165441 0.018321078
1 0.45016085 0.0043504902
1 0.45880821 0.0088235294
1 0.46164982 0.0057061887
0.99803922 0.46421569 0.015196078
0.99908088 0.484375 0.018512561
0.99901961 0.4877451 0.026776961
0.99607843 0.51176471 0.015341605
0.99852941 0.52322304 0.01372549
1 0.56323529 0.15392157
1 0.56636029 0.15857843
1 0.56139706 0.14644608
1 0.54264706 0.10490196
1 0.57107843 0.15122549
1 0.57371324 0.14761029
1 0.59166667 0.18039216
1 0.59473039 0.17414216
1 0.61127451 0.20637255
0.4745098 0.2372549 0
0.47254902 0.23333333 0
0.47058824 0.2372549 0
0.46470588 0.24117647 0
0.45588235 0.24901961 0
0.48235294 0.26764706 0
0.62843137 0.36029412 0
0.79485294 0.46053922 0
0.93333333 0.54509804 0
0.44754902 0.24093137 0
0.46424632 0.2372549 0
0.47058824 0.24074755 0
0.45505515 0.24215686 0
0.45098039 0.24509804 0
0.48691789 0.26715686 0
0.63848039 0.36985294 0
0.80416667 0.46617647 0
0.95416667 0.56029412 0
0.44803922 0.24117647 0
0.4622549 0.24313725 0
0.47144608 0.24705882 0
0.45471814 0.25055147 0
0.46151961 0.24509804 0
0.53284314 0.27916667 0
0.68443627 0.36862745 0
0.8341299 0.46617647 0
0.98235294 0.5622549 0
0.48284314 0.24117647 0
0.49442402 0.24509804 0
0.50925245 0.23088235 0
0.52405025 0.25539216 0.006372549
0.54411765 0.25698529 0.0006127451
0.62723652 0.3073223 0.0031862745
0.7622549 0.39362745 0.0039215686
0.89273897 0.48039216 0.0039215686
0.98308824 0.5627451 0.018137255
0.54117647 0.24215686 0
0.55551471 0.24693627 0
0.56764706 0.26519608 0.0014705882
0.57977941 0.29215686 0.041911765
0.6127451 0.32941176 0.11960784
0.70551471 0.36568627 0.047181373
0.83088235 0.44926471 0.017156863
0.94276961 0.51409314 0.055147059
0.99411765 0.57058824 0.037254902
0.74240196 0.33210784 0
0.73685662 0.33504902 0
0.74724265 0.35900735 0.01004902
0.76614583 0.39387255 0.053247549
0.77818627 0.41593137 0.098406863
0.81372549 0.44191176 0.09564951
0.89019608 0.48167892 0.068382353
0.98740809 0.53201593 0.019025735
1 0.56985294 0.048529412
0.94117647 0.44852941 0.0044117647
0.93376225 0.45680147 0.0044117647
0.93958333 0.47230392 0.027328431
0.94718137 0.50245098 0.088970588
0.95980392 0.50931373 0.088235294
0.97414216 0.51960784 0.079044118
0.97438725 0.52904412 0.094607843
0.99607843 0.55177696 0.094485294
1 0.56568627 0.088235294
1 0.54411765 0.13872549
1 0.54632353 0.1200674
1 0.5497549 0.12922794
1 0.55897672 0.14332108
0.99607843 0.55343137 0.11446078
0.9981924 0.57754289 0.12873775
0.99613971 0.57156863 0.15122549
1 0.5877451 0.16620711
1 0.59901961 0.1629902
1 0.61960784 0.2627451
1 0.62352941 0.27132353
1 0.64019608 0.30196078
1 0.63455882 0.29068627
1 0.63137255 0.27647059
1 0.65612745 0.3252451
1 0.66323529 0.33284314
1 0.6625 0.33676471
1 0.67058824 0.35294118
0.68480392 0.34852941 0
0.67873775 0.34705882 0
0.68235294 0.35098039 0
0.67205882 0.35245098 0
0.65147059 0.35098039 0
0.62843137 0.35153186 0
0.64963235 0.38235294 0
0.81550245 0.48137255 0
0.93333333 0.55441176 0
0.68235294 0.35490196 0
0.67843137 0.35098039 0
0.67696078 0.35459559 0
0.66440717 0.35067402 0
0.65137868 0.34641544 0
0.63297335 0.35078891 0
0.6814951 0.39750306 0
0.8280867 0.48872549 0
0.94852941 0.56078431 0
0.66703431 0.35490196 0
0.67296262 0.35490196 0
0.67303922 0.35882353 0
0.65859375 0.3627451 0
0.65686275 0.35490196 0
0.65983456 0.35882353 0
0.73737745 0.41078431 0
0.84897365 0.48916973 0
0.96801471 0.56617647 0
0.6754902 0.35343137 0
0.67929688 0.35624234 0
0.68558517 0.36343444 0
0.70547641 0.3627451 0
0.7 0.37058824 0.0024509804
0.70807292 0.37303922 0.0084175858
0.7863511 0.41908701 0.0084405637
0.9127451 0.50949755 0.0039215686
0.98731618 0.57947304 0.0078431373
0.71813725 0.35294118 0
0.72800245 0.35882353 0
0.75226716 0.36452206 0
0.75343137 0.38529412 0.011519608
0.76568627 0.41323529 0.066053922
0.78964461 0.42591912 0.11544118
0.87904412 0.48921569 0.13241422
0.97132353 0.5495098 0.094301471
1 0.59411765 0.15563725
0.815625 0.38137255 0
0.7966299 0.38052237 0
0.801731 0.40355392 0.010171569
0.81035539 0.43970588 0.095036765
0.84215686 0.48823529 0.21151961
0.84589461 0.52009804 0.32273284
0.92630208 0.55196078 0.29253983
0.98805147 0.59417892 0.29656863
1 0.61819853 0.2877451
0.94865196 0.48431373 0.0045343137
0.92670037 0.47982537 0.012484681
0.94240196 0.50511642 0.045925245
0.93650429 0.53235294 0.18751532
0.96868873 0.57322304 0.27383578
0.97512255 0.59566483 0.32193627
0.99129902 0.60836397 0.33391544
1 0.62994792 0.33639706
1 0.64852941 0.33137255
1 0.58204657 0.14166667
1 0.58612898 0.15831036
1 0.59315257 0.23291973
1 0.62322304 0.31373315
1 0.64313725 0.34901961
0.99234069 0.64686734 0.34675245
0.99607843 0.65851716 0.36617647
1 0.66639859 0.3622549
1 0.6872549 0.40147059
1 0.67598039 0.37009804
1 0.69019608 0.40245098
1 0.68786765 0.40625
1 0.69859069 0.43241422
1 0.7004902 0.43578431
1 0.71519608 0.46323529
1 0.71335784 0.4557598
1 0.72432598 0.48768382
1 0.73431373 0.50833333
0.90098039 0.47843137 0
0.90490196 0.47843137 0
0.90098039 0.47843137 0
0.89031863 0.47843137 0
0.87205882 0.47696078 0
0.85490196 0.48051471 0
0.84215686 0.49093137 0
0.89987745 0.53713235 0
0.97058824 0.58627451 0
0.90784314 0.47843137 0
0.90490196 0.47843137 0
0.89800858 0.47907475 0
0.89456189 0.4819087 0
0.86372549 0.47303922 0
0.85816483 0.47990196 0
0.88235294 0.50857843 0
0.90686275 0.5372549 0
0.96960784 0.58529412 0
0.89877451 0.4745098 0
0.89905025 0.47815564 0
0.89705882 0.48235294 0
0.89322917 0.48590686 0
0.86593137 0.47990196 0
0.85851716 0.48189338 0
0.87984069 0.50294118 0
0.91277574 0.54044118 0
0.9875 0.6 0
0.89595588 0.4745098 0
0.89705882 0.4745098 0
0.89941789 0.4828125 0
0.90565257 0.48627451 0
0.88357843 0.48811275 0
0.89212623 0.49319853 0
0.9200674 0.51783088 0.0039215686
0.94154412 0.54397978 0
0.99607843 0.59938725 0.0035539216
0.93431373 0.47892157 0
0.92640931 0.48321078 0
0.93823529 0.48627451 0
0.94981618 0.49803922 0.00030637255
0.95294118 0.51519608 0.0068627451
0.95404412 0.52101716 0.0053308824
0.95477941 0.53639706 0.037622549
0.97634804 0.56286765 0.068627451
1 0.60588235 0.090686275
0.97144608 0.47990196 0
0.97686887 0.47855392 0.0036917892
0.96896446 0.50931373 0.01127451
0.95219056 0.52843137 0.044393382
0.97420343 0.5622549 0.19105392
0.97904412 0.58529412 0.29587929
0.98409926 0.59914216 0.3291973
0.99607843 0.62909007 0.35208333
1 0.65723039 0.34767157
0.96764706 0.52867647 0.016666667
0.96997549 0.52938113 0.027910539
0.98314951 0.55269608 0.071568627
0.97959559 0.57107843 0.21865809
0.97696078 0.60931373 0.33578431
0.99469975 0.65147059 0.41614583
0.99650735 0.6754902 0.490625
1 0.70045956 0.51151961
1 0.72352941 0.51151961
1 0.60637255 0.19105392
1 0.60281863 0.21953125
1 0.62230392 0.27647059
0.99754902 0.64803922 0.35390625
0.98829657 0.68057598 0.43982843
0.99607843 0.71421569 0.50877757
0.99705882 0.73397672 0.5513174
1 0.74557292 0.56556373
1 0.76066176 0.58370098
1 0.69509804 0.40196078
1 0.69509804 0.41029412
1 0.70980392 0.44901961
1 0.73186275 0.49791667
0.99607843 0.73823529 0.52843137
1 0.77781863 0.60428922
1 0.7872549 0.62254902
1 0.79019608 0.63578431
0.99607843 0.79705882 0.64411765
0.99215686 0.57352941 0
0.99607843 0.57794118 0
0.99607843 0.58578431 0
0.99607843 0.58400735 0
0.975 0.58186275 0
0.96911765 0.58155637 0
0.98958333 0.59313725 0
0.99172794 0.60539216 0
0.98480392 0.62843137 0
0.9995098 0.58186275 0
1 0.58186275 0
0.99607843 0.58304228 0
0.99607843 0.58400735 0
0.97083333 0.57791054 0
0.96868873 0.57981771 0
0.98443627 0.5932598 0
0.98867188 0.60925245 0
0.98480392 0.63235294 0
0.99607843 0.58186275 0
0.99607843 0.58186275 0
0.99641544 0.58250613 0
0.99607843 0.58566176 0
0.97022059 0.58572304 0
0.98095895 0.5888174 0
0.99635417 0.60147059 0
0.99215686 0.60931373 0
0.99117647 0.63235294 0
0.99246324 0.58186275 0
0.99479167 0.58186275 0
0.99215686 0.58578431 0
0.99246324 0.58186275 0
0.97558211 0.5877451 0.0039215686
0.99135263 0.59362745 0
0.99264706 0.60237439 0.0039215686
0.99640778 0.61366422 0
1 0.61685049 0
0.99607843 0.58578431 0
0.99607843 0.58970588 0
0.99215686 0.58995098 0.0039215686
0.9963848 0.58667279 0.0039215686
0.99607843 0.59656863 0.01372549
0.99607843 0.60196078 0.013909314
0.99852941 0.60514706 0.010539216
1 0.61102941 0.030392157
1 0.61862745 0.057598039
0.99607843 0.58970588 0.0019607843
0.99607843 0.58988971 0.0077359069
0.99607843 0.59362745 0.0081495098
1 0.60116422 0.0020067402
1 0.62843137 0.21397059
1 0.6414905 0.25018382
1 0.6532935 0.29538909
1 0.66666667 0.34188879
1 0.6745098 0.35833333
0.99742647 0.59362745 0.01372549
0.99630821 0.60078125 0.020710784
1 0.61081495 0.056985294
1 0.63186275 0.21772365
0.99607843 0.66783088 0.34522059
0.99914216 0.69852941 0.46550245
1 0.7283701 0.53970588
1 0.74499081 0.55159314
1 0.75428922 0.57181373
1 0.64552696 0.22408088
1 0.64504442 0.26230852
1 0.65551471 0.29253983
1 0.68654259 0.37483915
0.99607843 0.71914828 0.4752451
0.99607843 0.75762102 0.57111673
1 0.79460784 0.65588235
0.99999234 0.82075674 0.7488894
0.99607843 0.83284314 0.74754902
1 0.71372549 0.43235294
1 0.71813725 0.44797794
1 0.72867647 0.47438725
1 0.74148284 0.51685049
1 0.77058824 0.58431373
1 0.80165441 0.65
1 0.84019608 0.73186275
1 0.85637255 0.77064951
0.99166667 0.85588235 0.775
1 0.68235294 0
0.99607843 0.65098039 0
1 0.66666667 0
0.99607843 0.65490196 0
0.99607843 0.66862745 0
0.99215686 0.6627451 0
0.99607843 0.6754902 0
0.99607843 0.68235294 0
0.99607843 0.67843137 0
1 0.6627451 0
1 0.66660539 0
1 0.66764706 0
0.9995098 0.66207108 0
0.99044118 0.65514706 0
0.98039216 0.64117647 0
0.99301471 0.66764706 0
0.99607843 0.67843137 0
0.99607843 0.68186275 0
1 0.66764706 0
1 0.66617647 0
1 0.65612745 0
0.99644608 0.65098039 0
0.99362745 0.66568627 0
0.9872549 0.65931373 0
1 0.68455882 0
0.99901961 0.68137255 0
1 0.69313725 0
1 0.66911765 0
1 0.67058824 0
1 0.68026961 0
1 0.6627451 0
1 0.67254902 0.0012254902
0.99607843 0.6745098 0
0.99705882 0.68051471 0
1 0.68658088 0
1 0.68382353 0.0039215686
1 0.6745098 0
1 0.68039216 0
1 0.68088235 0.0029411765
1 0.68578431 0
1 0.6872549 0.01372549
1 0.69215686 0.006372549
1 0.69215686 0
1 0.69656863 0
1 0.68235294 0.01372549
1 0.67843137 0.021078431
1 0.6786152 0.013786765
1 0.68345588 0.029411765
1 0.70104167 0.15643382
1 0.72058824 0.29240196
1 0.71764706 0.26415441
1 0.72242647 0.29840686
1 0.72824755 0.33020833
1 0.72303922 0.34901961
1 0.70294118 0.19509804
1 0.71323529 0.24681373
1 0.70980392 0.27009804
1 0.72953431 0.36580882
1 0.73970588 0.43627451
1 0.76029412 0.51421569
1 0.76691176 0.5372549
1 0.78235294 0.56372549
1 0.80196078 0.6245098
1 0.72598039 0.38284314
1 0.73290441 0.4088848
1 0.73284314 0.42352941
1 0.74981618 0.4846201
1 0.76519608 0.53088235
1 0.79019608 0.60802696
1 0.82107843 0.67892157
0.99993873 0.85588235 0.77015931
0.99215686 0.85931373 0.77107843
1 0.76862745 0.55294118
1 0.76176471 0.53627451
1 0.77647059 0.57647059
1 0.76078431 0.5504902
1 0.78235294 0.58823529
1 0.81323529 0.65931373
1 0.8627451 0.76960784
0.9995098 0.88284314 0.82058824
0.98431373 0.89803922 0.86666667
