site/assets/luts/natron-haldclut--rollei-retro-100-tonal--40a1dc808.cube
# LUTr-Project: LUTr — LUTrepository
# LUTr-Schema-Version: 1
# LUTr-ID: natron-haldclut--rollei-retro-100-tonal--40a1dc808
# LUTr-Title: rollei retro 100 tonal
# LUTr-Collection: Natron HaldCLUT
# LUTr-Collection-ID: natron-haldclut-presets
# LUTr-Source: https://github.com/NatronGitHub/clut
# LUTr-Source-File: submissions/natron-haldclut-presets/bw/rollei_retro_100_tonal.png
# LUTr-Source-Format: PNG
# LUTr-Source-SHA256: d2b55c51fb7df245b68c30958b32ac4bcf6e8502200475795eb3a8f230d7a9d6
# LUTr-License: CC-BY-SA-4.0
# LUTr-License-URL: https://github.com/NatronGitHub/clut#license
# LUTr-Tags: creative, film, film-emulation, hald-clut, natron, png, vintage, cube
# LUTr-Transform-Class: film-emulation
# LUTr-Input-Color-Space: srgb
# LUTr-Output-Color-Space: srgb
# LUTr-Color-Space-Confidence: assumed-display-referred
# LUTr-Conversion-Method: PNG LUT image decoded at 16-bit and sampled to 25x25x25 3D CUBE
# LUTr-Conversion-Date: 2026-07-27
# LUTr-Conversion-Tool: LUTr scripts/convert-all-to-cube.mjs
# LUTr-Conversion-Grid: 25x25x25
# LUTr-Note: Preserve this metadata and the upstream license notices when redistributing.
TITLE "rollei retro 100 tonal"
LUT_3D_SIZE 9
DOMAIN_MIN 0 0 0
DOMAIN_MAX 1 1 1
0.058823529 0.058823529 0.058823529
0.062745098 0.062745098 0.062745098
0.058823529 0.058823529 0.058823529
0.056372549 0.056372549 0.056372549
0.056862745 0.056862745 0.056862745
0.070588235 0.070588235 0.070588235
0.070588235 0.070588235 0.070588235
0.05 0.05 0.05
0.035294118 0.035294118 0.035294118
0.13186275 0.13186275 0.13186275
0.12493873 0.12493873 0.12493873
0.11372549 0.11372549 0.11372549
0.11439951 0.11439951 0.11439951
0.10833333 0.10833333 0.10833333
0.11813725 0.11813725 0.11813725
0.12843137 0.12843137 0.12843137
0.12009804 0.12009804 0.12009804
0.12009804 0.12009804 0.12009804
0.20882353 0.20882353 0.20882353
0.19718137 0.19718137 0.19718137
0.18308824 0.18308824 0.18308824
0.18382353 0.18382353 0.18382353
0.19166667 0.19166667 0.19166667
0.18921569 0.18921569 0.18921569
0.19338235 0.19338235 0.19338235
0.20281863 0.20281863 0.20281863
0.19803922 0.19803922 0.19803922
0.2872549 0.2872549 0.2872549
0.28186275 0.28186275 0.28186275
0.27463235 0.27463235 0.27463235
0.27401961 0.27401961 0.27401961
0.27401961 0.27401961 0.27401961
0.2754902 0.2754902 0.2754902
0.29031863 0.29031863 0.29031863
0.29185049 0.29185049 0.29185049
0.29362745 0.29362745 0.29362745
0.38627451 0.38627451 0.38627451
0.38235294 0.38235294 0.38235294
0.37696078 0.37696078 0.37696078
0.37647059 0.37647059 0.37647059
0.38039216 0.38039216 0.38039216
0.38431373 0.38431373 0.38431373
0.39019608 0.39019608 0.39019608
0.39044118 0.39044118 0.39044118
0.39803922 0.39803922 0.39803922
0.49460784 0.49460784 0.49460784
0.48854167 0.48854167 0.48854167
0.48321078 0.48321078 0.48321078
0.48584559 0.48584559 0.48584559
0.48823529 0.48823529 0.48823529
0.49307598 0.49307598 0.49307598
0.49607843 0.49607843 0.49607843
0.50030637 0.50030637 0.50030637
0.51176471 0.51176471 0.51176471
0.60392157 0.60392157 0.60392157
0.6 0.6 0.6
0.6 0.6 0.6
0.60392157 0.60392157 0.60392157
0.60784314 0.60784314 0.60784314
0.61176471 0.61176471 0.61176471
0.61176471 0.61176471 0.61176471
0.61605392 0.61605392 0.61605392
0.62745098 0.62745098 0.62745098
0.71960784 0.71960784 0.71960784
0.71960784 0.71960784 0.71960784
0.72352941 0.72352941 0.72352941
0.72745098 0.72745098 0.72745098
0.73137255 0.73137255 0.73137255
0.73137255 0.73137255 0.73137255
0.73223039 0.73223039 0.73223039
0.73137255 0.73137255 0.73137255
0.73431373 0.73431373 0.73431373
0.80784314 0.80784314 0.80784314
0.81176471 0.81176471 0.81176471
0.81960784 0.81960784 0.81960784
0.83382353 0.83382353 0.83382353
0.83921569 0.83921569 0.83921569
0.83137255 0.83137255 0.83137255
0.83529412 0.83529412 0.83529412
0.84313725 0.84313725 0.84313725
0.81960784 0.81960784 0.81960784
0.061764706 0.061764706 0.061764706
0.07745098 0.07745098 0.07745098
0.083823529 0.083823529 0.083823529
0.097058824 0.097058824 0.097058824
0.10147059 0.10147059 0.10147059
0.10490196 0.10490196 0.10490196
0.097058824 0.097058824 0.097058824
0.10882353 0.10882353 0.10882353
0.1122549 0.1122549 0.1122549
0.13921569 0.13921569 0.13921569
0.14270833 0.14270833 0.14270833
0.14313725 0.14313725 0.14313725
0.14748775 0.14748775 0.14748775
0.15076593 0.15076593 0.15076593
0.15927543 0.15927543 0.15927543
0.16623775 0.16623775 0.16623775
0.17058824 0.17058824 0.17058824
0.17751225 0.17751225 0.17751225
0.21360294 0.21360294 0.21360294
0.21323529 0.21323529 0.21323529
0.21703431 0.21703431 0.21703431
0.22264093 0.22264093 0.22264093
0.23229167 0.23229167 0.23229167
0.23541667 0.23541667 0.23541667
0.23921569 0.23921569 0.23921569
0.24411765 0.24411765 0.24411765
0.24056373 0.24056373 0.24056373
0.29362745 0.29362745 0.29362745
0.29286918 0.29286918 0.29286918
0.30085784 0.30085784 0.30085784
0.30863971 0.30863971 0.30863971
0.31617647 0.31617647 0.31617647
0.32267923 0.32267923 0.32267923
0.32843137 0.32843137 0.32843137
0.33186275 0.33186275 0.33186275
0.33578431 0.33578431 0.33578431
0.39191176 0.39191176 0.39191176
0.39362745 0.39362745 0.39362745
0.39748775 0.39748775 0.39748775
0.40530025 0.40530025 0.40530025
0.4127451 0.4127451 0.4127451
0.41685049 0.41685049 0.41685049
0.42107843 0.42107843 0.42107843
0.42107843 0.42107843 0.42107843
0.425 0.425 0.425
0.49981618 0.49981618 0.49981618
0.50196078 0.50196078 0.50196078
0.50196078 0.50196078 0.50196078
0.50668658 0.50668658 0.50668658
0.51053922 0.51053922 0.51053922
0.51531097 0.51531097 0.51531097
0.51372549 0.51372549 0.51372549
0.5196921 0.5196921 0.5196921
0.53088235 0.53088235 0.53088235
0.61041667 0.61041667 0.61041667
0.61127451 0.61127451 0.61127451
0.61519608 0.61519608 0.61519608
0.62271752 0.62271752 0.62271752
0.62696078 0.62696078 0.62696078
0.63125 0.63125 0.63125
0.62340686 0.62340686 0.62340686
0.62766544 0.62766544 0.62766544
0.63786765 0.63786765 0.63786765
0.72352941 0.72352941 0.72352941
0.72738971 0.72738971 0.72738971
0.73512561 0.73512561 0.73512561
0.74264706 0.74264706 0.74264706
0.74656863 0.74656863 0.74656863
0.74613971 0.74613971 0.74613971
0.73255208 0.73255208 0.73255208
0.73959099 0.73959099 0.73959099
0.74607843 0.74607843 0.74607843
0.81519608 0.81519608 0.81519608
0.81568627 0.81568627 0.81568627
0.82610294 0.82610294 0.82610294
0.84136029 0.84136029 0.84136029
0.84509804 0.84509804 0.84509804
0.84656863 0.84656863 0.84656863
0.83529412 0.83529412 0.83529412
0.85974265 0.85974265 0.85974265
0.84264706 0.84264706 0.84264706
0.13529412 0.13529412 0.13529412
0.12794118 0.12794118 0.12794118
0.13039216 0.13039216 0.13039216
0.14313725 0.14313725 0.14313725
0.15147059 0.15147059 0.15147059
0.15098039 0.15098039 0.15098039
0.16053922 0.16053922 0.16053922
0.17892157 0.17892157 0.17892157
0.19019608 0.19019608 0.19019608
0.19264706 0.19264706 0.19264706
0.19266238 0.19266238 0.19266238
0.19313725 0.19313725 0.19313725
0.19705882 0.19705882 0.19705882
0.20661765 0.20661765 0.20661765
0.21237745 0.21237745 0.21237745
0.21829044 0.21829044 0.21829044
0.22892157 0.22892157 0.22892157
0.24803922 0.24803922 0.24803922
0.26568627 0.26568627 0.26568627
0.2627451 0.2627451 0.2627451
0.26721814 0.26721814 0.26721814
0.27132353 0.27132353 0.27132353
0.28235294 0.28235294 0.28235294
0.28655025 0.28655025 0.28655025
0.29093137 0.29093137 0.29093137
0.29803922 0.29803922 0.29803922
0.30882353 0.30882353 0.30882353
0.34264706 0.34264706 0.34264706
0.34019608 0.34019608 0.34019608
0.34610907 0.34610907 0.34610907
0.35147059 0.35147059 0.35147059
0.36078431 0.36078431 0.36078431
0.36757047 0.36757047 0.36757047
0.37181373 0.37181373 0.37181373
0.37610294 0.37610294 0.37610294
0.38186275 0.38186275 0.38186275
0.42843137 0.42843137 0.42843137
0.43186275 0.43186275 0.43186275
0.43995098 0.43995098 0.43995098
0.4473652 0.4473652 0.4473652
0.45171569 0.45171569 0.45171569
0.45643382 0.45643382 0.45643382
0.46017157 0.46017157 0.46017157
0.46329657 0.46329657 0.46329657
0.46764706 0.46764706 0.46764706
0.53002451 0.53002451 0.53002451
0.53615196 0.53615196 0.53615196
0.54053309 0.54053309 0.54053309
0.5439951 0.5439951 0.5439951
0.54460784 0.54460784 0.54460784
0.5477788 0.5477788 0.5477788
0.54460784 0.54460784 0.54460784
0.55062806 0.55062806 0.55062806
0.56029412 0.56029412 0.56029412
0.6372549 0.6372549 0.6372549
0.64408701 0.64408701 0.64408701
0.64828431 0.64828431 0.64828431
0.65 0.65 0.65
0.65183824 0.65183824 0.65183824
0.65045956 0.65045956 0.65045956
0.64509804 0.64509804 0.64509804
0.65036765 0.65036765 0.65036765
0.66102941 0.66102941 0.66102941
0.74607843 0.74607843 0.74607843
0.75070466 0.75070466 0.75070466
0.75839461 0.75839461 0.75839461
0.76531863 0.76531863 0.76531863
0.76262255 0.76262255 0.76262255
0.76527267 0.76527267 0.76527267
0.75257353 0.75257353 0.75257353
0.75831801 0.75831801 0.75831801
0.76531863 0.76531863 0.76531863
0.82647059 0.82647059 0.82647059
0.83002451 0.83002451 0.83002451
0.83357843 0.83357843 0.83357843
0.84497549 0.84497549 0.84497549
0.85098039 0.85098039 0.85098039
0.86703431 0.86703431 0.86703431
0.85171569 0.85171569 0.85171569
0.87512255 0.87512255 0.87512255
0.85686275 0.85686275 0.85686275
0.20098039 0.20098039 0.20098039
0.20098039 0.20098039 0.20098039
0.19705882 0.19705882 0.19705882
0.18768382 0.18768382 0.18768382
0.20931373 0.20931373 0.20931373
0.21280637 0.21280637 0.21280637
0.21764706 0.21764706 0.21764706
0.24019608 0.24019608 0.24019608
0.2495098 0.2495098 0.2495098
0.25490196 0.25490196 0.25490196
0.25490196 0.25490196 0.25490196
0.25476409 0.25476409 0.25476409
0.25490196 0.25490196 0.25490196
0.26853554 0.26853554 0.26853554
0.27585018 0.27585018 0.27585018
0.27896752 0.27896752 0.27896752
0.2939568 0.2939568 0.2939568
0.30196078 0.30196078 0.30196078
0.32843137 0.32843137 0.32843137
0.32806373 0.32806373 0.32806373
0.32843137 0.32843137 0.32843137
0.32843137 0.32843137 0.32843137
0.33627451 0.33627451 0.33627451
0.34388787 0.34388787 0.34388787
0.35168505 0.35168505 0.35168505
0.35980392 0.35980392 0.35980392
0.37058824 0.37058824 0.37058824
0.40833333 0.40833333 0.40833333
0.40588235 0.40588235 0.40588235
0.40464154 0.40464154 0.40464154
0.40441176 0.40441176 0.40441176
0.40860907 0.40860907 0.40860907
0.41464461 0.41464461 0.41464461
0.42287071 0.42287071 0.42287071
0.42941176 0.42941176 0.42941176
0.43670343 0.43670343 0.43670343
0.48921569 0.48921569 0.48921569
0.4872549 0.4872549 0.4872549
0.48921569 0.48921569 0.48921569
0.49313725 0.49313725 0.49313725
0.49705882 0.49705882 0.49705882
0.50125613 0.50125613 0.50125613
0.50582108 0.50582108 0.50582108
0.50882353 0.50882353 0.50882353
0.51544118 0.51544118 0.51544118
0.57941176 0.57941176 0.57941176
0.57941176 0.57941176 0.57941176
0.58227635 0.58227635 0.58227635
0.58578431 0.58578431 0.58578431
0.58970588 0.58970588 0.58970588
0.59362745 0.59362745 0.59362745
0.590625 0.590625 0.590625
0.59528952 0.59528952 0.59528952
0.60294118 0.60294118 0.60294118
0.68051471 0.68051471 0.68051471
0.6808364 0.6808364 0.6808364
0.6861826 0.6861826 0.6861826
0.6877451 0.6877451 0.6877451
0.68327206 0.68327206 0.68327206
0.68382353 0.68382353 0.68382353
0.68664216 0.68664216 0.68664216
0.69070159 0.69070159 0.69070159
0.68872549 0.68872549 0.68872549
0.77616422 0.77616422 0.77616422
0.77963388 0.77963388 0.77963388
0.78328738 0.78328738 0.78328738
0.78479626 0.78479626 0.78479626
0.78324142 0.78324142 0.78324142
0.79001225 0.79001225 0.79001225
0.79119179 0.79119179 0.79119179
0.80046722 0.80046722 0.80046722
0.79234069 0.79234069 0.79234069
0.84558824 0.84558824 0.84558824
0.84344363 0.84344363 0.84344363
0.8495098 0.8495098 0.8495098
0.86127451 0.86127451 0.86127451
0.86911765 0.86911765 0.86911765
0.8721201 0.8721201 0.8721201
0.86519608 0.86519608 0.86519608
0.87843137 0.87843137 0.87843137
0.8745098 0.8745098 0.8745098
0.26862745 0.26862745 0.26862745
0.27058824 0.27058824 0.27058824
0.27598039 0.27598039 0.27598039
0.28039216 0.28039216 0.28039216
0.3 0.3 0.3
0.3 0.3 0.3
0.29852941 0.29852941 0.29852941
0.30980392 0.30980392 0.30980392
0.31568627 0.31568627 0.31568627
0.32622549 0.32622549 0.32622549
0.32647059 0.32647059 0.32647059
0.32775735 0.32775735 0.32775735
0.33039216 0.33039216 0.33039216
0.34803922 0.34803922 0.34803922
0.35392157 0.35392157 0.35392157
0.36176471 0.36176471 0.36176471
0.36393995 0.36393995 0.36393995
0.36936275 0.36936275 0.36936275
0.39558824 0.39558824 0.39558824
0.39540441 0.39540441 0.39540441
0.39914216 0.39914216 0.39914216
0.40177696 0.40177696 0.40177696
0.4127451 0.4127451 0.4127451
0.41838235 0.41838235 0.41838235
0.42585784 0.42585784 0.42585784
0.43480392 0.43480392 0.43480392
0.43872549 0.43872549 0.43872549
0.4747549 0.4747549 0.4747549
0.47279412 0.47279412 0.47279412
0.47248775 0.47248775 0.47248775
0.47156863 0.47156863 0.47156863
0.47512255 0.47512255 0.47512255
0.48137255 0.48137255 0.48137255
0.49148284 0.49148284 0.49148284
0.50122549 0.50122549 0.50122549
0.50686275 0.50686275 0.50686275
0.55490196 0.55490196 0.55490196
0.55098039 0.55098039 0.55098039
0.5502451 0.5502451 0.5502451
0.55 0.55 0.55
0.55098039 0.55098039 0.55098039
0.55171569 0.55171569 0.55171569
0.56078431 0.56078431 0.56078431
0.56862745 0.56862745 0.56862745
0.57254902 0.57254902 0.57254902
0.63578431 0.63578431 0.63578431
0.63216912 0.63216912 0.63216912
0.63186275 0.63186275 0.63186275
0.63382353 0.63382353 0.63382353
0.63933824 0.63933824 0.63933824
0.64362745 0.64362745 0.64362745
0.64362745 0.64362745 0.64362745
0.64681373 0.64681373 0.64681373
0.65073529 0.65073529 0.65073529
0.72401961 0.72401961 0.72401961
0.72401961 0.72401961 0.72401961
0.72487745 0.72487745 0.72487745
0.72647059 0.72647059 0.72647059
0.72720588 0.72720588 0.72720588
0.73039216 0.73039216 0.73039216
0.73039216 0.73039216 0.73039216
0.73039216 0.73039216 0.73039216
0.72794118 0.72794118 0.72794118
0.80294118 0.80294118 0.80294118
0.80686275 0.80686275 0.80686275
0.80704657 0.80704657 0.80704657
0.81519608 0.81519608 0.81519608
0.81507353 0.81507353 0.81507353
0.81911765 0.81911765 0.81911765
0.82395833 0.82395833 0.82395833
0.83238358 0.83238358 0.83238358
0.82303922 0.82303922 0.82303922
0.87058824 0.87058824 0.87058824
0.87254902 0.87254902 0.87254902
0.87647059 0.87647059 0.87647059
0.8875 0.8875 0.8875
0.89607843 0.89607843 0.89607843
0.88823529 0.88823529 0.88823529
0.88235294 0.88235294 0.88235294
0.88235294 0.88235294 0.88235294
0.88039216 0.88039216 0.88039216
0.32892157 0.32892157 0.32892157
0.35686275 0.35686275 0.35686275
0.37205882 0.37205882 0.37205882
0.37996324 0.37996324 0.37996324
0.39264706 0.39264706 0.39264706
0.38872549 0.38872549 0.38872549
0.37843137 0.37843137 0.37843137
0.3903799 0.3903799 0.3903799
0.39803922 0.39803922 0.39803922
0.40294118 0.40294118 0.40294118
0.41105239 0.41105239 0.41105239
0.41568627 0.41568627 0.41568627
0.41911765 0.41911765 0.41911765
0.43103554 0.43103554 0.43103554
0.43480392 0.43480392 0.43480392
0.43872549 0.43872549 0.43872549
0.44264706 0.44264706 0.44264706
0.44656863 0.44656863 0.44656863
0.46519608 0.46519608 0.46519608
0.4725337 0.4725337 0.4725337
0.48023897 0.48023897 0.48023897
0.48480392 0.48480392 0.48480392
0.49264706 0.49264706 0.49264706
0.5004902 0.5004902 0.5004902
0.50441176 0.50441176 0.50441176
0.51193321 0.51193321 0.51193321
0.51470588 0.51470588 0.51470588
0.53970588 0.53970588 0.53970588
0.54106158 0.54106158 0.54106158
0.54810049 0.54810049 0.54810049
0.55144761 0.55144761 0.55144761
0.55441176 0.55441176 0.55441176
0.56168045 0.56168045 0.56168045
0.56640625 0.56640625 0.56640625
0.57432598 0.57432598 0.57432598
0.57947304 0.57947304 0.57947304
0.61666667 0.61666667 0.61666667
0.61544118 0.61544118 0.61544118
0.62083333 0.62083333 0.62083333
0.6252451 0.6252451 0.6252451
0.62132353 0.62132353 0.62132353
0.62254902 0.62254902 0.62254902
0.62947304 0.62947304 0.62947304
0.63823529 0.63823529 0.63823529
0.64215686 0.64215686 0.64215686
0.69362745 0.69362745 0.69362745
0.69362745 0.69362745 0.69362745
0.69362745 0.69362745 0.69362745
0.69904259 0.69904259 0.69904259
0.69607843 0.69607843 0.69607843
0.69607843 0.69607843 0.69607843
0.7 0.7 0.7
0.70784314 0.70784314 0.70784314
0.71176471 0.71176471 0.71176471
0.76568627 0.76568627 0.76568627
0.76629902 0.76629902 0.76629902
0.76813725 0.76813725 0.76813725
0.77022059 0.77022059 0.77022059
0.77414216 0.77414216 0.77414216
0.77806373 0.77806373 0.77806373
0.77806373 0.77806373 0.77806373
0.77806373 0.77806373 0.77806373
0.78137255 0.78137255 0.78137255
0.83431373 0.83431373 0.83431373
0.8377451 0.8377451 0.8377451
0.83788297 0.83788297 0.83788297
0.84430147 0.84430147 0.84430147
0.85753676 0.85753676 0.85753676
0.85746783 0.85746783 0.85746783
0.85735294 0.85735294 0.85735294
0.86035539 0.86035539 0.86035539
0.85502451 0.85502451 0.85502451
0.8995098 0.8995098 0.8995098
0.90343137 0.90343137 0.90343137
0.90637255 0.90637255 0.90637255
0.91127451 0.91127451 0.91127451
0.91372549 0.91372549 0.91372549
0.90680147 0.90680147 0.90680147
0.89558824 0.89558824 0.89558824
0.89019608 0.89019608 0.89019608
0.88627451 0.88627451 0.88627451
0.45490196 0.45490196 0.45490196
0.46139706 0.46139706 0.46139706
0.47034314 0.47034314 0.47034314
0.47806373 0.47806373 0.47806373
0.48921569 0.48921569 0.48921569
0.49705882 0.49705882 0.49705882
0.50196078 0.50196078 0.50196078
0.50796569 0.50796569 0.50796569
0.51176471 0.51176471 0.51176471
0.49313725 0.49313725 0.49313725
0.49652267 0.49652267 0.49652267
0.50428922 0.50428922 0.50428922
0.51439951 0.51439951 0.51439951
0.5213848 0.5213848 0.5213848
0.5314185 0.5314185 0.5314185
0.55098039 0.55098039 0.55098039
0.55012255 0.55012255 0.55012255
0.54754902 0.54754902 0.54754902
0.54681373 0.54681373 0.54681373
0.55382966 0.55382966 0.55382966
0.56176471 0.56176471 0.56176471
0.56568627 0.56568627 0.56568627
0.57303922 0.57303922 0.57303922
0.58556985 0.58556985 0.58556985
0.59840686 0.59840686 0.59840686
0.59779412 0.59779412 0.59779412
0.59705882 0.59705882 0.59705882
0.60686275 0.60686275 0.60686275
0.61168811 0.61168811 0.61168811
0.62720588 0.62720588 0.62720588
0.63321078 0.63321078 0.63321078
0.63529412 0.63529412 0.63529412
0.64100797 0.64100797 0.64100797
0.64617034 0.64617034 0.64617034
0.65 0.65 0.65
0.65098039 0.65098039 0.65098039
0.68235294 0.68235294 0.68235294
0.68088235 0.68088235 0.68088235
0.69142157 0.69142157 0.69142157
0.70098039 0.70098039 0.70098039
0.69607843 0.69607843 0.69607843
0.69761029 0.69761029 0.69761029
0.70171569 0.70171569 0.70171569
0.70796569 0.70796569 0.70796569
0.71568627 0.71568627 0.71568627
0.75392157 0.75392157 0.75392157
0.75539216 0.75539216 0.75539216
0.75784314 0.75784314 0.75784314
0.76176471 0.76176471 0.76176471
0.75588235 0.75588235 0.75588235
0.7571538 0.7571538 0.7571538
0.76176471 0.76176471 0.76176471
0.76983762 0.76983762 0.76983762
0.77745098 0.77745098 0.77745098
0.81568627 0.81568627 0.81568627
0.81927083 0.81927083 0.81927083
0.81568627 0.81568627 0.81568627
0.81789216 0.81789216 0.81789216
0.82034314 0.82034314 0.82034314
0.82279412 0.82279412 0.82279412
0.82426471 0.82426471 0.82426471
0.82745098 0.82745098 0.82745098
0.83137255 0.83137255 0.83137255
0.87732843 0.87732843 0.87732843
0.88039216 0.88039216 0.88039216
0.87647059 0.87647059 0.87647059
0.87647059 0.87647059 0.87647059
0.8877451 0.8877451 0.8877451
0.88688725 0.88688725 0.88688725
0.88517157 0.88517157 0.88517157
0.8877451 0.8877451 0.8877451
0.88382353 0.88382353 0.88382353
0.92941176 0.92941176 0.92941176
0.93676471 0.93676471 0.93676471
0.93039216 0.93039216 0.93039216
0.92647059 0.92647059 0.92647059
0.91568627 0.91568627 0.91568627
0.92254902 0.92254902 0.92254902
0.91862745 0.91862745 0.91862745
0.90637255 0.90637255 0.90637255
0.89803922 0.89803922 0.89803922
0.5622549 0.5622549 0.5622549
0.56617647 0.56617647 0.56617647
0.56482843 0.56482843 0.56482843
0.57665441 0.57665441 0.57665441
0.58578431 0.58578431 0.58578431
0.58970588 0.58970588 0.58970588
0.58284314 0.58284314 0.58284314
0.57990196 0.57990196 0.57990196
0.5872549 0.5872549 0.5872549
0.59313725 0.59313725 0.59313725
0.59356618 0.59356618 0.59356618
0.5964614 0.5964614 0.5964614
0.60490196 0.60490196 0.60490196
0.6127451 0.6127451 0.6127451
0.62009804 0.62009804 0.62009804
0.62418811 0.62418811 0.62418811
0.62859988 0.62859988 0.62859988
0.63241422 0.63241422 0.63241422
0.63443627 0.63443627 0.63443627
0.6394761 0.6394761 0.6394761
0.64656863 0.64656863 0.64656863
0.65404412 0.65404412 0.65404412
0.65814951 0.65814951 0.65814951
0.67041973 0.67041973 0.67041973
0.67490809 0.67490809 0.67490809
0.67961091 0.67961091 0.67961091
0.68321078 0.68321078 0.68321078
0.68216912 0.68216912 0.68216912
0.68981311 0.68981311 0.68981311
0.70825674 0.70825674 0.70825674
0.71617647 0.71617647 0.71617647
0.71681985 0.71681985 0.71681985
0.72058058 0.72058058 0.72058058
0.72357537 0.72357537 0.72357537
0.72783395 0.72783395 0.72783395
0.73333333 0.73333333 0.73333333
0.74632353 0.74632353 0.74632353
0.74978554 0.74978554 0.74978554
0.76176471 0.76176471 0.76176471
0.76764706 0.76764706 0.76764706
0.76593137 0.76593137 0.76593137
0.76960784 0.76960784 0.76960784
0.77199755 0.77199755 0.77199755
0.77573529 0.77573529 0.77573529
0.78308824 0.78308824 0.78308824
0.81390931 0.81390931 0.81390931
0.81568627 0.81568627 0.81568627
0.81783088 0.81783088 0.81783088
0.81702665 0.81702665 0.81702665
0.81568627 0.81568627 0.81568627
0.81942402 0.81942402 0.81942402
0.81942402 0.81942402 0.81942402
0.82379749 0.82379749 0.82379749
0.83118873 0.83118873 0.83118873
0.86421569 0.86421569 0.86421569
0.86781556 0.86781556 0.86781556
0.86164216 0.86164216 0.86164216
0.86421569 0.86421569 0.86421569
0.8651348 0.8651348 0.8651348
0.86813725 0.86813725 0.86813725
0.87025123 0.87025123 0.87025123
0.8738511 0.8738511 0.8738511
0.87990196 0.87990196 0.87990196
0.90245098 0.90245098 0.90245098
0.90680147 0.90680147 0.90680147
0.90643382 0.90643382 0.90643382
0.90686275 0.90686275 0.90686275
0.90272672 0.90272672 0.90272672
0.90863971 0.90863971 0.90863971
0.91568627 0.91568627 0.91568627
0.91453738 0.91453738 0.91453738
0.91029412 0.91029412 0.91029412
0.93333333 0.93333333 0.93333333
0.9372549 0.9372549 0.9372549
0.94411765 0.94411765 0.94411765
0.94558824 0.94558824 0.94558824
0.93161765 0.93161765 0.93161765
0.946875 0.946875 0.946875
0.9442402 0.9442402 0.9442402
0.92506127 0.92506127 0.92506127
0.91421569 0.91421569 0.91421569
0.65098039 0.65098039 0.65098039
0.63578431 0.63578431 0.63578431
0.62647059 0.62647059 0.62647059
0.65735294 0.65735294 0.65735294
0.66666667 0.66666667 0.66666667
0.65784314 0.65784314 0.65784314
0.68235294 0.68235294 0.68235294
0.69019608 0.69019608 0.69019608
0.69019608 0.69019608 0.69019608
0.66666667 0.66666667 0.66666667
0.66709559 0.66709559 0.66709559
0.66078431 0.66078431 0.66078431
0.68792892 0.68792892 0.68792892
0.69362745 0.69362745 0.69362745
0.70098039 0.70098039 0.70098039
0.71029412 0.71029412 0.71029412
0.72058824 0.72058824 0.72058824
0.71715686 0.71715686 0.71715686
0.7 0.7 0.7
0.71139706 0.71139706 0.71139706
0.73039216 0.73039216 0.73039216
0.73921569 0.73921569 0.73921569
0.74166667 0.74166667 0.74166667
0.74411765 0.74411765 0.74411765
0.74411765 0.74411765 0.74411765
0.75232843 0.75232843 0.75232843
0.75588235 0.75588235 0.75588235
0.74607843 0.74607843 0.74607843
0.75753676 0.75753676 0.75753676
0.775 0.775 0.775
0.77555147 0.77555147 0.77555147
0.77892157 0.77892157 0.77892157
0.78284314 0.78284314 0.78284314
0.77414216 0.77414216 0.77414216
0.79332108 0.79332108 0.79332108
0.80245098 0.80245098 0.80245098
0.80784314 0.80784314 0.80784314
0.81568627 0.81568627 0.81568627
0.80980392 0.80980392 0.80980392
0.80343137 0.80343137 0.80343137
0.80196078 0.80196078 0.80196078
0.81372549 0.81372549 0.81372549
0.82205882 0.82205882 0.82205882
0.83357843 0.83357843 0.83357843
0.84509804 0.84509804 0.84509804
0.85245098 0.85245098 0.85245098
0.85637255 0.85637255 0.85637255
0.85061275 0.85061275 0.85061275
0.84068627 0.84068627 0.84068627
0.83676471 0.83676471 0.83676471
0.84515931 0.84515931 0.84515931
0.86458333 0.86458333 0.86458333
0.87383578 0.87383578 0.87383578
0.87990196 0.87990196 0.87990196
0.87843137 0.87843137 0.87843137
0.88333333 0.88333333 0.88333333
0.89117647 0.89117647 0.89117647
0.8814951 0.8814951 0.8814951
0.87156863 0.87156863 0.87156863
0.88088235 0.88088235 0.88088235
0.90318627 0.90318627 0.90318627
0.91862745 0.91862745 0.91862745
0.91470588 0.91470588 0.91470588
0.90637255 0.90637255 0.90637255
0.91764706 0.91764706 0.91764706
0.92990196 0.92990196 0.92990196
0.92647059 0.92647059 0.92647059
0.91470588 0.91470588 0.91470588
0.92647059 0.92647059 0.92647059
0.94166667 0.94166667 0.94166667
0.92984069 0.92984069 0.92984069
0.92598039 0.92598039 0.92598039
0.93333333 0.93333333 0.93333333
0.94460784 0.94460784 0.94460784
0.96372549 0.96372549 0.96372549
0.9622549 0.9622549 0.9622549
0.95098039 0.95098039 0.95098039
0.97401961 0.97401961 0.97401961
0.96078431 0.96078431 0.96078431
0.94068627 0.94068627 0.94068627
0.92941176 0.92941176 0.92941176
