site/assets/luts/natron-haldclut--smooth-cromeish--effc18115.cube
# LUTr-Project: LUTr — LUTrepository
# LUTr-Schema-Version: 1
# LUTr-ID: natron-haldclut--smooth-cromeish--effc18115
# LUTr-Title: smooth cromeish
# LUTr-Collection: Natron HaldCLUT
# LUTr-Collection-ID: natron-haldclut-presets
# LUTr-Source: https://github.com/NatronGitHub/clut
# LUTr-Source-File: submissions/natron-haldclut-presets/various/smooth_cromeish.png
# LUTr-Source-Format: PNG
# LUTr-Source-SHA256: c654370d1072d27e1b8eda312393d5c3a692b9403305189a481ecde8975bb08b
# LUTr-License: CC-BY-SA-4.0
# LUTr-License-URL: https://github.com/NatronGitHub/clut#license
# LUTr-Tags: creative, film, film-emulation, hald-clut, natron, png, cube
# LUTr-Transform-Class: film-emulation
# LUTr-Input-Color-Space: srgb
# LUTr-Output-Color-Space: srgb
# LUTr-Color-Space-Confidence: assumed-display-referred
# LUTr-Conversion-Method: PNG LUT image decoded at 16-bit and sampled to 25x25x25 3D CUBE
# LUTr-Conversion-Date: 2026-07-27
# LUTr-Conversion-Tool: LUTr scripts/convert-all-to-cube.mjs
# LUTr-Conversion-Grid: 25x25x25
# LUTr-Note: Preserve this metadata and the upstream license notices when redistributing.
TITLE "smooth cromeish"
LUT_3D_SIZE 9
DOMAIN_MIN 0 0 0
DOMAIN_MAX 1 1 1
0.023529412 0.054901961 0.062745098
0.057843137 0.054901961 0.062745098
0.18627451 0.092156863 0.096078431
0.30931373 0.073529412 0.083823529
0.49803922 0.07254902 0.078431373
0.725 0.082352941 0.090196078
0.8627451 0.11372549 0.12254902
0.93480392 0.078921569 0.086764706
0.96078431 0.11764706 0.1254902
0.025490196 0.093137255 0.065686275
0.074264706 0.11997549 0.08560049
0.1495098 0.10171569 0.074387255
0.30919118 0.11476716 0.083026961
0.52034314 0.14558824 0.096323529
0.71715686 0.1276348 0.088235294
0.84877451 0.11740196 0.083823529
0.94166667 0.13106618 0.086335784
0.99264706 0.14558824 0.084803922
0.034313725 0.17843137 0.075490196
0.071936275 0.18125 0.076960784
0.15906863 0.1877451 0.081617647
0.30992647 0.1870098 0.080514706
0.5245098 0.21519608 0.097058824
0.71397059 0.20502451 0.082107843
0.85294118 0.22107843 0.099754902
0.94178922 0.21115196 0.09129902
0.99705882 0.20098039 0.07254902
0.031372549 0.27352941 0.073529412
0.068443627 0.27493873 0.07432598
0.16495098 0.28676471 0.083578431
0.32671569 0.30569853 0.092769608
0.50735294 0.29681373 0.086764706
0.71709559 0.29050245 0.085232843
0.85294118 0.34448529 0.10073529
0.95177696 0.3276348 0.085477941
0.99264706 0.32156863 0.083333333
0.033333333 0.40980392 0.078431373
0.078676471 0.42132353 0.083578431
0.175 0.43627451 0.092647059
0.32058824 0.43137255 0.08627451
0.51372549 0.42941176 0.091176471
0.73333333 0.43284314 0.099264706
0.85 0.42941176 0.091666667
0.94730392 0.43676471 0.094117647
0.99607843 0.4372549 0.076470588
0.034313725 0.55 0.078431373
0.080943627 0.55894608 0.085845588
0.17757353 0.57610294 0.093137255
0.33045343 0.57610294 0.094178922
0.51960784 0.57622549 0.099509804
0.72843137 0.56960784 0.093627451
0.85281863 0.59448529 0.098161765
0.95 0.57738971 0.083455882
0.99852941 0.61519608 0.071078431
0.046078431 0.73137255 0.096078431
0.081372549 0.73088235 0.093627451
0.16960784 0.71568627 0.087254902
0.33406863 0.71164216 0.098406863
0.52401961 0.72205882 0.10392157
0.72401961 0.70416667 0.090686275
0.84705882 0.7002451 0.095343137
0.95294118 0.72144608 0.078431373
0.9627451 0.70588235 0.096078431
0.036764706 0.83921569 0.079411765
0.078676471 0.84810049 0.0875
0.17365196 0.84338235 0.088235294
0.36832108 0.86096814 0.13186275
0.53431373 0.85269608 0.1122549
0.70716912 0.86176471 0.082352941
0.84669118 0.85306373 0.077205882
0.95441176 0.84908088 0.077696078
0.99901961 0.87303922 0.073039216
0.047058824 1 0.094117647
0.1122549 0.99607843 0.11715686
0.20098039 0.99509804 0.11176471
0.32892157 0.99460784 0.095588235
0.52156863 0.98823529 0.094117647
0.76078431 0.98186275 0.13627451
0.86764706 0.97843137 0.13235294
0.9504902 0.99264706 0.090196078
1 1 0.058823529
0.043137255 0.094117647 0.13627451
0.098713235 0.10533088 0.14626225
0.21580882 0.12107843 0.16066176
0.38854167 0.13884804 0.18639706
0.55980392 0.13946078 0.17254902
0.75441176 0.13167892 0.17432598
0.86948529 0.14105392 0.17843137
0.9495098 0.14761029 0.17058824
0.98382353 0.16372549 0.17156863
0.072671569 0.21789216 0.18400735
0.12961857 0.20762102 0.18108915
0.20957414 0.1823223 0.15890012
0.36400888 0.17936581 0.16335784
0.56176471 0.19607843 0.16865809
0.74969363 0.20095741 0.16268382
0.86605392 0.20223652 0.16367953
0.95833333 0.19129136 0.15305607
0.99215686 0.19754902 0.15490196
0.068259804 0.30833333 0.1754902
0.10885417 0.28409926 0.15957414
0.2158701 0.2877451 0.16485907
0.3919424 0.31787684 0.18848039
0.57095588 0.30845588 0.18167892
0.75516238 0.32653186 0.17267157
0.87374387 0.33722426 0.18259804
0.95790441 0.30084252 0.148606
0.99558824 0.29534314 0.14926471
0.05692402 0.42512255 0.16305147
0.11639859 0.41104473 0.16938572
0.24145221 0.4435815 0.18722426
0.38147978 0.41922488 0.17193627
0.57349877 0.42889093 0.18492647
0.75660999 0.44681373 0.17561275
0.86876532 0.45003064 0.1676777
0.95786612 0.45633425 0.1689185
0.99411765 0.43492647 0.15110294
0.067647059 0.58063725 0.18039216
0.12356005 0.57166054 0.18235294
0.23247549 0.57022059 0.18296569
0.41253064 0.59227941 0.20640319
0.58578431 0.58970588 0.19693627
0.75808824 0.56804534 0.17950368
0.86605392 0.58615196 0.16452206
0.9580576 0.56963848 0.14537377
0.99264706 0.57671569 0.15612745
0.081617647 0.709375 0.20171569
0.12577359 0.67336091 0.17909773
0.22956495 0.6618413 0.17761949
0.39152114 0.67085631 0.18888634
0.57058824 0.6606924 0.18333333
0.76691176 0.68180913 0.1923943
0.86139706 0.68805147 0.15975797
0.95784314 0.67598039 0.14731924
0.99166667 0.67990196 0.16194853
0.046691176 0.74901961 0.15061275
0.10067402 0.75268076 0.15471814
0.21467525 0.75824142 0.16862745
0.39595588 0.7714614 0.18776042
0.56740196 0.75582108 0.18578431
0.75159314 0.78466605 0.17077206
0.86559436 0.78740809 0.15778186
0.95816483 0.78088235 0.1540288
0.99901961 0.77696078 0.1435049
0.079473039 0.89074755 0.19460784
0.10556066 0.86758578 0.1647595
0.23195466 0.875 0.18333333
0.40007659 0.87540594 0.19411765
0.56761642 0.86550245 0.17843137
0.74807751 0.89215686 0.16950061
0.86841299 0.88517157 0.16355699
0.96096048 0.89123775 0.15092678
0.9995098 0.8877451 0.14503676
0.12843137 0.9877451 0.22156863
0.14797794 0.98523284 0.20637255
0.24522059 0.98676471 0.19669118
0.39166667 0.98529412 0.18988971
0.56740196 0.99019608 0.18014706
0.7504902 0.98854167 0.17401961
0.86531863 0.99301471 0.15943627
0.95784314 0.99558824 0.15104167
1 0.99656863 0.14656863
0.067647059 0.1372549 0.28529412
0.13480392 0.15012255 0.29558824
0.25759804 0.15882353 0.31151961
0.42904412 0.17303922 0.32745098
0.59901961 0.18235294 0.32745098
0.77843137 0.17303922 0.32745098
0.87647059 0.20294118 0.30882353
0.96433824 0.21678922 0.28517157
0.98529412 0.18137255 0.29607843
0.067156863 0.20894608 0.28186275
0.13345588 0.21597733 0.29558824
0.26078431 0.22941176 0.31213235
0.41778493 0.23282782 0.31703431
0.59607843 0.2473652 0.32058824
0.77843137 0.25588235 0.3192402
0.88039216 0.24417892 0.30719975
0.96568627 0.23497243 0.29296875
1 0.23088235 0.29031863
0.073284314 0.32843137 0.29607843
0.13795956 0.33026961 0.30012255
0.26231618 0.33651961 0.30808824
0.42058824 0.35021446 0.31685049
0.60796569 0.37830882 0.32781863
0.76740196 0.37132353 0.32552083
0.87965686 0.35772059 0.3064951
0.96568627 0.34886642 0.29215686
1 0.34534314 0.28431373
0.077573529 0.46629902 0.30196078
0.14856005 0.46577819 0.3152114
0.27720588 0.48207721 0.32846201
0.41911765 0.45381434 0.32242647
0.61556373 0.50980392 0.33235294
0.77666973 0.51372549 0.32814032
0.87745098 0.49767157 0.32098652
0.9622549 0.49080882 0.29963235
0.99938725 0.48517157 0.28921569
0.070588235 0.5754902 0.28970588
0.15968137 0.63584559 0.32310049
0.26127451 0.5877451 0.31997549
0.43039216 0.60098039 0.33854167
0.60318627 0.60882353 0.33235294
0.78572304 0.6504902 0.32806373
0.87438725 0.63553922 0.31176471
0.96446078 0.62132353 0.29969363
1 0.61764706 0.28088235
0.065196078 0.67009804 0.28492647
0.13821998 0.67847733 0.30053615
0.27594975 0.71286765 0.32693015
0.42556679 0.68993566 0.33466605
0.60202206 0.70955882 0.33627451
0.77182904 0.72095588 0.32414216
0.87745098 0.72169118 0.31568627
0.96331189 0.725 0.30343137
1 0.71433824 0.29215686
0.068627451 0.77377451 0.29117647
0.14430147 0.7799326 0.3104473
0.26691176 0.79093137 0.31550245
0.4314951 0.79080882 0.32634804
0.6057598 0.79019608 0.33602941
0.77745098 0.80021446 0.32634804
0.87855392 0.81415441 0.31960784
0.96810662 0.81372549 0.30490196
0.99705882 0.80294118 0.29534314
0.065563725 0.87634804 0.29117647
0.14134498 0.88022365 0.30692402
0.26764706 0.89641544 0.3182598
0.43030025 0.88484988 0.3245098
0.6153799 0.88155637 0.33235294
0.78457414 0.88414522 0.33337929
0.88039216 0.89730392 0.31642157
0.96617647 0.90735294 0.31187194
1 0.90343137 0.29693627
0.098039216 0.99705882 0.33627451
0.16715686 0.96813725 0.33198529
0.28161765 0.96446078 0.34019608
0.4254902 0.94093137 0.32941176
0.61862745 0.9877451 0.3377451
0.77058824 0.98431373 0.32806373
0.88039216 0.98235294 0.32058824
0.95919118 0.98823529 0.31041667
1 0.99607843 0.3
0.095588235 0.17254902 0.48382353
0.16697304 0.18676471 0.46697304
0.28811275 0.17647059 0.48284314
0.44607843 0.20735294 0.48339461
0.60784314 0.24485294 0.48284314
0.77990196 0.19650735 0.48676471
0.88529412 0.21519608 0.47401961
0.95735294 0.23216912 0.47058824
0.975 0.19068627 0.475
0.1 0.24215686 0.47530637
0.16221661 0.25212163 0.48717065
0.28965993 0.26283701 0.48676471
0.43989737 0.26653646 0.48676471
0.60980392 0.27098652 0.4890625
0.77519914 0.27303922 0.48265931
0.88699449 0.26911765 0.47107843
0.96305147 0.26862745 0.47595741
0.99981618 0.26372549 0.48253676
0.099019608 0.34791667 0.475
0.17058824 0.36853554 0.47892157
0.296875 0.37671569 0.47892157
0.44362745 0.37990196 0.48284314
0.61715686 0.37156863 0.48854167
0.77745098 0.38370098 0.48806679
0.88982843 0.36050858 0.48860294
0.96311275 0.38333333 0.47910539
0.99362745 0.3942402 0.47928922
0.10441176 0.47107843 0.48921569
0.16960784 0.47254902 0.48529412
0.2901348 0.47346814 0.4879136
0.44307598 0.47926624 0.49068627
0.61495098 0.48964461 0.48339461
0.78405331 0.52595741 0.48642004
0.88137255 0.49486826 0.48039216
0.96010263 0.50931373 0.48695619
1 0.52598039 0.4877451
0.10980392 0.64901961 0.47892157
0.17481618 0.63265931 0.48985907
0.29295343 0.60545343 0.49007353
0.44316789 0.60199142 0.49460784
0.60906863 0.61629902 0.48848039
0.77297794 0.6174326 0.48676471
0.88247549 0.62947304 0.48694853
0.95392157 0.61372549 0.49068627
1 0.65294118 0.48921569
0.11770833 0.7372549 0.48529412
0.17371324 0.71023284 0.48676471
0.28958333 0.7178462 0.48921569
0.440625 0.72393536 0.49460784
0.61764706 0.73186275 0.48900123
0.77990196 0.69613971 0.49160539
0.88823529 0.73941483 0.49068627
0.96305147 0.73621324 0.4868796
0.99852941 0.74019608 0.49460784
0.090196078 0.79019608 0.48529412
0.17058824 0.79852941 0.47866115
0.29313725 0.81783088 0.48786765
0.44307598 0.79993873 0.49183517
0.61568627 0.80245098 0.49644608
0.78627451 0.81190257 0.49460784
0.88823529 0.80321691 0.48970588
0.96029412 0.82115502 0.47561275
0.97218137 0.79718137 0.49068627
0.092830882 0.8877451 0.47873775
0.16746324 0.88790594 0.48692555
0.29411765 0.8980239 0.48676471
0.43817402 0.89976256 0.49276961
0.61568627 0.89549632 0.48348652
0.77831648 0.89884344 0.49068627
0.88823529 0.88333333 0.49068627
0.95130974 0.88823529 0.49234069
0.97665441 0.88615196 0.496875
0.098039216 0.99852941 0.49705882
0.17156863 0.98939951 0.48805147
0.29019608 0.98284314 0.49460784
0.43731618 0.9622549 0.49068627
0.61838235 0.96151961 0.48284314
0.77935049 0.98823529 0.49313725
0.88468137 0.95919118 0.49852941
0.96519608 0.9939951 0.49313725
0.98970588 0.97303922 0.48529412
0.10588235 0.2254902 0.63529412
0.16764706 0.1870098 0.62205882
0.29411765 0.18627451 0.62352941
0.45269608 0.18455882 0.63137255
0.62058824 0.20490196 0.62941176
0.77696078 0.23504902 0.62745098
0.88872549 0.17941176 0.6254902
0.95392157 0.19313725 0.62377451
0.97647059 0.17843137 0.62156863
0.11176471 0.25563725 0.62745098
0.16715686 0.25686275 0.62503064
0.28921569 0.27696078 0.62745098
0.44754902 0.27910539 0.62745098
0.62083333 0.27696078 0.62941176
0.78348652 0.26911765 0.62671569
0.88137255 0.27604167 0.61764706
0.9651348 0.26841299 0.62503064
0.97254902 0.26862745 0.62205882
0.10343137 0.36323529 0.62598039
0.1653799 0.36127451 0.62745098
0.28602941 0.3872549 0.62659314
0.44362745 0.39411765 0.62604167
0.61715686 0.3745098 0.63137255
0.76672794 0.38118873 0.63137255
0.88529412 0.38970588 0.62696078
0.96047794 0.38676471 0.62254902
0.99656863 0.39558824 0.6254902
0.10196078 0.47647059 0.63848039
0.16636029 0.47647059 0.63348652
0.29650735 0.50165441 0.63088235
0.44335172 0.52156863 0.63137255
0.6192402 0.5182598 0.62193627
0.78704044 0.50762868 0.63287377
0.88621324 0.49270833 0.62493873
0.96568627 0.53137255 0.63406863
0.99681373 0.52941176 0.62671569
0.10784314 0.63137255 0.63039216
0.16703431 0.61078431 0.62769608
0.2875 0.63676471 0.6245098
0.4442402 0.63982843 0.62745098
0.62058824 0.64705882 0.62696078
0.77659314 0.63382353 0.62941176
0.88529412 0.62990196 0.6252451
0.96176471 0.6372549 0.62696078
1 0.65294118 0.62647059
0.090686275 0.69583333 0.62941176
0.16936275 0.69656863 0.63005515
0.29019608 0.71838235 0.63529412
0.44215686 0.73627451 0.63238358
0.6192402 0.72647059 0.62879902
0.77840074 0.70343137 0.63109681
0.88529412 0.72867647 0.62640931
0.95808824 0.71421569 0.62916667
0.99852941 0.74166667 0.63210784
0.10441176 0.7877451 0.62794118
0.16844363 0.78939951 0.6254902
0.28235294 0.79338235 0.62463235
0.43970588 0.80196078 0.63511029
0.61372549 0.80220588 0.63529412
0.78039216 0.81268382 0.6379902
0.88443627 0.8 0.63566176
0.95931373 0.81721814 0.6254902
0.99754902 0.8245098 0.6254902
0.1 0.88970588 0.62941176
0.17156863 0.88452819 0.63333333
0.28921569 0.88333333 0.62745098
0.44224877 0.88805147 0.62352941
0.61960784 0.90563725 0.62732843
0.77466299 0.91617647 0.63406863
0.88823529 0.8935049 0.63314951
0.96372549 0.90952819 0.63134191
0.9995098 0.91862745 0.62720588
0.1 0.99215686 0.63333333
0.17892157 0.9879902 0.63333333
0.29411765 0.96960784 0.63137255
0.44754902 0.97941176 0.63063725
0.61764706 0.98333333 0.63039216
0.77990196 0.98627451 0.63602941
0.88529412 0.93676471 0.63333333
0.96127451 0.9745098 0.63137255
0.99411765 0.98627451 0.63333333
0.1004902 0.19313725 0.7627451
0.16194853 0.17677696 0.7536152
0.2877451 0.20625 0.75
0.44515931 0.22647059 0.75790441
0.61813725 0.21764706 0.75882353
0.78627451 0.21911765 0.7627451
0.88529412 0.21066176 0.75882353
0.95735294 0.22971814 0.76060049
0.97254902 0.18431373 0.76421569
0.10147059 0.25147059 0.75882353
0.16744026 0.24803922 0.76182598
0.28613664 0.25540748 0.76064645
0.44400276 0.26863511 0.76414675
0.62215074 0.2747549 0.7627451
0.78487286 0.26464461 0.76666667
0.88921569 0.25833333 0.75997243
0.96535692 0.27679994 0.76312806
1 0.27254902 0.76666667
0.12071078 0.38639706 0.76629902
0.17107843 0.37262561 0.76029412
0.2885723 0.3625 0.76522672
0.43915441 0.36738664 0.76666667
0.61231618 0.3870098 0.75882353
0.77990196 0.36429228 0.76928615
0.88529412 0.38373162 0.7627451
0.96973039 0.4 0.76220895
0.99889706 0.39460784 0.7627451
0.1004902 0.51323529 0.77058824
0.16568627 0.48713235 0.76685049
0.29203431 0.49195772 0.7613511
0.44089308 0.47794118 0.766322
0.62037377 0.50465686 0.76544118
0.78200827 0.50507047 0.76366422
0.88921569 0.48474265 0.77003676
0.96799939 0.52745098 0.76960018
0.99160539 0.53137255 0.76721814
0.099264706 0.64142157 0.77058824
0.16715686 0.62990196 0.76681985
0.28939951 0.64411765 0.76060049
0.43731618 0.64681373 0.75321691
0.62205882 0.62009804 0.76213235
0.78066789 0.63137255 0.76666667
0.88921569 0.628125 0.76605392
0.96976103 0.64788603 0.76292892
0.99730392 0.65147059 0.7627451
0.10294118 0.6877451 0.76666667
0.16568627 0.6877451 0.7566636
0.28529412 0.70170037 0.76882659
0.43237592 0.72986366 0.77058824
0.61568627 0.71862745 0.76862745
0.77990196 0.70098039 0.76813725
0.88644301 0.72426471 0.77058824
0.95392157 0.70979626 0.76255362
0.99699755 0.74166667 0.76721814
0.11715686 0.77830882 0.7627451
0.16608456 0.78204657 0.76280637
0.28921569 0.78970588 0.76311275
0.44229473 0.79411765 0.76758578
0.61672794 0.79754902 0.76776961
0.78535539 0.79532782 0.76948529
0.88048407 0.79745711 0.76666667
0.9495098 0.79509804 0.76703431
0.96801471 0.79411765 0.77022059
0.096752451 0.89675245 0.76127451
0.16933977 0.88049939 0.75882353
0.28529412 0.87990196 0.76482843
0.44619332 0.88793658 0.75882353
0.62245711 0.91127451 0.75882353
0.7745098 0.90846354 0.76666667
0.88431373 0.91029412 0.76911765
0.95155484 0.89201134 0.76666667
0.98970588 0.90735294 0.7622549
0.10539216 0.99509804 0.77058824
0.1776348 0.98609069 0.77028186
0.29019608 0.92156863 0.75919118
0.45300245 0.97463235 0.75490196
0.62083333 0.9745098 0.75882353
0.78719363 0.98976716 0.77058824
0.87708333 0.9625 0.76997549
0.95245098 0.95686275 0.7627451
0.98970588 0.98039216 0.75343137
0.081372549 0.13627451 0.87745098
0.13492647 0.14276961 0.87095588
0.26470588 0.1627451 0.8627451
0.42156863 0.19767157 0.86568627
0.59607843 0.18921569 0.86617647
0.77536765 0.17340686 0.87892157
0.87745098 0.19681373 0.87352941
0.95919118 0.21862745 0.87401961
0.97745098 0.18823529 0.87254902
0.065073529 0.20870098 0.86960784
0.13480392 0.21237745 0.86960784
0.26078431 0.22377451 0.86663603
0.42941176 0.24273897 0.86960784
0.60343137 0.25147059 0.86960784
0.76384804 0.25122549 0.87352941
0.88134191 0.24469975 0.87352941
0.96617647 0.24716605 0.87670037
0.99313725 0.23566176 0.87365196
0.071568627 0.31421569 0.86960784
0.1379902 0.32306985 0.87352941
0.26078431 0.32843137 0.87352941
0.41409314 0.33872549 0.86960784
0.60306373 0.37365196 0.87352941
0.78036152 0.38639706 0.87745098
0.88137255 0.38455882 0.87015931
0.96473652 0.37533701 0.87340686
0.99779412 0.35465686 0.87058824
0.097426471 0.49068627 0.8817402
0.13488051 0.44460784 0.87352941
0.27153799 0.46829044 0.87352941
0.43252145 0.4970435 0.87414216
0.61078431 0.49197304 0.86960784
0.78872549 0.48301164 0.88198529
0.88137255 0.49901961 0.87536765
0.9622549 0.50539216 0.87352941
0.99215686 0.50343137 0.87254902
0.076960784 0.57352941 0.87205882
0.1348652 0.57150735 0.87352941
0.26470588 0.59558824 0.8745098
0.43792892 0.64577206 0.87916667
0.61053922 0.60318627 0.87377451
0.77561275 0.6004902 0.87352941
0.88002451 0.6067402 0.87352941
0.96133578 0.63529412 0.87352941
0.99803922 0.62009804 0.87058824
0.064828431 0.65747549 0.86960784
0.13613664 0.66636029 0.87242647
0.26390931 0.68765319 0.87377451
0.42418811 0.70496324 0.87745098
0.60735294 0.69509804 0.87303922
0.77892157 0.72912071 0.87745098
0.88112745 0.71384804 0.87352941
0.95784314 0.71041667 0.87352941
0.99889706 0.71862745 0.87352941
0.062745098 0.75980392 0.86568627
0.13318015 0.77058824 0.87352941
0.26078431 0.7745098 0.87377451
0.42141544 0.77843137 0.87745098
0.60490196 0.80441176 0.87745098
0.77071078 0.80101103 0.87352941
0.88333333 0.79215686 0.87647059
0.95775123 0.79509804 0.86960784
0.98921569 0.79583333 0.86887255
0.065686275 0.86323529 0.86960784
0.13394608 0.86678922 0.86911765
0.26053922 0.87003676 0.8734375
0.42469363 0.87581189 0.87660846
0.61053922 0.89957108 0.87745098
0.77958027 0.88958333 0.88270527
0.87545956 0.89693627 0.87454044
0.96127451 0.91127451 0.87340686
0.9935049 0.90980392 0.87316176
0.11470588 0.98921569 0.88235294
0.15943627 0.95404412 0.87745098
0.28823529 0.97058824 0.88137255
0.43419118 0.96372549 0.87745098
0.60098039 0.95196078 0.86960784
0.76813725 0.97242647 0.87352941
0.87181373 0.98431373 0.86960784
0.96041667 0.99080882 0.86568627
0.98921569 0.9745098 0.8627451
0.042647059 0.095588235 0.95833333
0.096139706 0.10147059 0.95484069
0.21360294 0.11164216 0.95698529
0.38008578 0.12273284 0.9622549
0.56397059 0.12671569 0.95784314
0.75441176 0.1377451 0.96207108
0.87610294 0.14154412 0.96470588
0.95386029 0.15153186 0.95833333
0.97205882 0.15980392 0.95441176
0.072794118 0.21243873 0.96219363
0.10091912 0.17182904 0.95821844
0.20749081 0.17207414 0.96176471
0.37940411 0.18577665 0.96176471
0.57254902 0.19558824 0.96204044
0.75294118 0.20726869 0.96047794
0.86901042 0.20392157 0.96220895
0.95795803 0.1995098 0.95789675
0.99307598 0.19944853 0.95490196
0.058333333 0.29448529 0.95931373
0.11959252 0.30409007 0.96133578
0.25113358 0.33112745 0.96492034
0.39612439 0.31026348 0.9622549
0.56715686 0.32107843 0.96574755
0.75367647 0.33439032 0.96576287
0.86957721 0.32693015 0.9622549
0.95834865 0.31162684 0.95816483
0.9814951 0.36053922 0.96311275
0.074509804 0.44607843 0.95980392
0.116322 0.42555913 0.95972733
0.23054534 0.42835478 0.96314338
0.40616575 0.44893536 0.9622549
0.57306985 0.4333027 0.95922181
0.75728401 0.46440717 0.9622549
0.87025123 0.47431066 0.96176471
0.95232843 0.45529259 0.95882353
0.9872549 0.46930147 0.9596201
0.081372549 0.60612745 0.96568627
0.12417279 0.57337623 0.96443015
0.23553922 0.56458333 0.95876225
0.40254289 0.58872549 0.96421569
0.57928922 0.57328431 0.96568627
0.74944853 0.5885723 0.96176471
0.8622549 0.5872549 0.95784314
0.95392157 0.58553922 0.95833333
0.99607843 0.57181373 0.95441176
0.07935049 0.69577206 0.96470588
0.11328891 0.64674479 0.96191023
0.24085478 0.66911765 0.96591605
0.38721661 0.65443474 0.96341146
0.56675858 0.68406863 0.96176471
0.76195619 0.69431679 0.96359528
0.85870098 0.69162071 0.96041667
0.95837163 0.68563879 0.96067708
0.9995098 0.67647059 0.95784314
0.072303922 0.77585784 0.96433824
0.10719975 0.74566483 0.96182598
0.22567402 0.74644608 0.95658701
0.37238051 0.74986213 0.96194853
0.56207108 0.75955882 0.96176471
0.74656863 0.77598039 0.95828738
0.86136642 0.79041054 0.95490196
0.95392157 0.7872549 0.95075061
0.99901961 0.77218137 0.95833333
0.043566176 0.83970588 0.95692402
0.11263021 0.86085325 0.9622549
0.2305913 0.86257659 0.96090686
0.37822457 0.86041667 0.96176471
0.55631127 0.8620098 0.9622549
0.7478171 0.88182445 0.95833333
0.86279105 0.88676471 0.95833333
0.94558824 0.87941942 0.96612286
0.98578431 0.89166667 0.9622549
0.081862745 0.99215686 0.96960784
0.15098039 0.99515931 0.96133578
0.23431373 0.97352941 0.9622549
0.4004902 0.98658088 0.96176471
0.56911765 0.99362745 0.95784314
0.74656863 0.98872549 0.95814951
0.8627451 0.99166667 0.96164216
0.9504902 0.98817402 0.95784314
0.99215686 0.98431373 0.95735294
0.019607843 0.058823529 1
0.071078431 0.079901961 1
0.15196078 0.065686275 0.99901961
0.31568627 0.082843137 1
0.54901961 0.12352941 0.99803922
0.76519608 0.14852941 0.99852941
0.85882353 0.10686275 1
0.95343137 0.14558824 1
0.96078431 0.14117647 0.99607843
0.024019608 0.12254902 1
0.077022059 0.13682598 1
0.15723039 0.13480392 0.99987745
0.31580882 0.13511029 1
0.51593137 0.17303922 1
0.71599265 0.16746324 1
0.85821078 0.16262255 1
0.9504902 0.18382353 0.99650735
0.98970588 0.17696078 1
0.034313725 0.22745098 0.99901961
0.070220588 0.22585784 0.9995098
0.22132353 0.29607843 0.99926471
0.34411765 0.26654412 1
0.52745098 0.26715686 1
0.72291667 0.27083333 1
0.85098039 0.28578431 1
0.95 0.28455882 1
0.96960784 0.31568627 1
0.031372549 0.39656863 1
0.091911765 0.3846201 1
0.21973039 0.43026961 1
0.32886029 0.37591912 1
0.53946078 0.40367647 0.99803922
0.73939951 0.41685049 0.99852941
0.86127451 0.4307598 0.99669118
0.95343137 0.41127451 1
0.96078431 0.41323529 1
0.037254902 0.50196078 1
0.081617647 0.50980392 1
0.18431373 0.52303922 0.99901961
0.32328431 0.5502451 1
0.50882353 0.59411765 1
0.73014706 0.54436275 1
0.85882353 0.56911765 0.99901961
0.93823529 0.55686275 1
0.99803922 0.58431373 1
0.035784314 0.67745098 1
0.089644608 0.64957108 1
0.18909314 0.67622549 0.99583333
0.35955882 0.66819853 1
0.53627451 0.69607843 1
0.72493873 0.69656863 1
0.84571078 0.67169118 1
0.94852941 0.69987745 1
0.95931373 0.67647059 1
0.054901961 0.81078431 1
0.087622549 0.80710784 0.99987745
0.18088235 0.80392157 0.99779412
0.35208333 0.78713235 1
0.50343137 0.81911765 1
0.72720588 0.78786765 0.99816176
0.84534314 0.77794118 1
0.9504902 0.79938725 0.99607843
0.96666667 0.78823529 1
0.033333333 0.91617647 0.99656863
0.11960784 0.89957108 0.99264706
0.18517157 0.92328431 1
0.33492647 0.91746324 0.99785539
0.52990196 0.88529412 1
0.73302696 0.93186275 0.99754902
0.83676471 0.9314951 0.99987745
0.95435049 0.93125 1
0.96127451 0.92156863 1
0.058823529 0.99215686 1
0.14607843 0.98872549 0.99607843
0.20784314 0.9872549 1
0.32009804 0.99754902 1
0.52745098 0.99411765 1
0.75833333 0.99068627 0.99607843
0.85490196 0.99215686 0.99607843
0.95 0.98382353 0.99607843
1 1 1
