site/assets/luts/natron-haldclut--fuji-ilford-hp5--2ab2e07fe.cube
# LUTr-Project: LUTr — LUTrepository
# LUTr-Schema-Version: 1
# LUTr-ID: natron-haldclut--fuji-ilford-hp5--2ab2e07fe
# LUTr-Title: fuji ilford hp5 ++
# LUTr-Collection: Natron HaldCLUT
# LUTr-Collection-ID: natron-haldclut-presets
# LUTr-Source: https://github.com/NatronGitHub/clut
# LUTr-Source-File: submissions/natron-haldclut-presets/negative_new/fuji_ilford_hp5_++.png
# LUTr-Source-Format: PNG
# LUTr-Source-SHA256: 36c8b0cb13a7bcfd272b4dc5e46442f2d3f17cb1fff5cebbefcbcedc55bba8af
# LUTr-License: CC-BY-SA-4.0
# LUTr-License-URL: https://github.com/NatronGitHub/clut#license
# LUTr-Tags: creative, film, film-emulation, hald-clut, natron, png, cube
# LUTr-Transform-Class: film-emulation
# LUTr-Input-Color-Space: srgb
# LUTr-Output-Color-Space: srgb
# LUTr-Color-Space-Confidence: assumed-display-referred
# LUTr-Conversion-Method: PNG LUT image decoded at 16-bit and sampled to 25x25x25 3D CUBE
# LUTr-Conversion-Date: 2026-07-27
# LUTr-Conversion-Tool: LUTr scripts/convert-all-to-cube.mjs
# LUTr-Conversion-Grid: 25x25x25
# LUTr-Note: Preserve this metadata and the upstream license notices when redistributing.
TITLE "fuji ilford hp5 ++"
LUT_3D_SIZE 5
DOMAIN_MIN 0 0 0
DOMAIN_MAX 1 1 1
0.19215686 0.19215686 0.19215686
0.21470588 0.21470588 0.21470588
0.28431373 0.28431373 0.28431373
0.43039216 0.43039216 0.43039216
0.63921569 0.63921569 0.63921569
0.24215686 0.24215686 0.24215686
0.27647059 0.27647059 0.27647059
0.37990196 0.37990196 0.37990196
0.5129902 0.5129902 0.5129902
0.69901961 0.69901961 0.69901961
0.40980392 0.40980392 0.40980392
0.41617647 0.41617647 0.41617647
0.50980392 0.50980392 0.50980392
0.67647059 0.67647059 0.67647059
0.80980392 0.80980392 0.80980392
0.64705882 0.64705882 0.64705882
0.64730392 0.64730392 0.64730392
0.68921569 0.68921569 0.68921569
0.78995098 0.78995098 0.78995098
0.89509804 0.89509804 0.89509804
0.88627451 0.88627451 0.88627451
0.89705882 0.89705882 0.89705882
0.90392157 0.90392157 0.90392157
0.93823529 0.93823529 0.93823529
0.96078431 0.96078431 0.96078431
0.23823529 0.23823529 0.23823529
0.25686275 0.25686275 0.25686275
0.32696078 0.32696078 0.32696078
0.43161765 0.43161765 0.43161765
0.63529412 0.63529412 0.63529412
0.26862745 0.26862745 0.26862745
0.31004902 0.31004902 0.31004902
0.39068627 0.39068627 0.39068627
0.51838235 0.51838235 0.51838235
0.69705882 0.69705882 0.69705882
0.45 0.45 0.45
0.46593137 0.46593137 0.46593137
0.54754902 0.54754902 0.54754902
0.68088235 0.68088235 0.68088235
0.81764706 0.81764706 0.81764706
0.68529412 0.68529412 0.68529412
0.68921569 0.68921569 0.68921569
0.71078431 0.71078431 0.71078431
0.80392157 0.80392157 0.80392157
0.90612745 0.90612745 0.90612745
0.89019608 0.89019608 0.89019608
0.89411765 0.89411765 0.89411765
0.90196078 0.90196078 0.90196078
0.9254902 0.9254902 0.9254902
0.95686275 0.95686275 0.95686275
0.34705882 0.34705882 0.34705882
0.37990196 0.37990196 0.37990196
0.43921569 0.43921569 0.43921569
0.57156863 0.57156863 0.57156863
0.71568627 0.71568627 0.71568627
0.41176471 0.41176471 0.41176471
0.43921569 0.43921569 0.43921569
0.48823529 0.48823529 0.48823529
0.59105392 0.59105392 0.59105392
0.73137255 0.73137255 0.73137255
0.5 0.5 0.5
0.54509804 0.54509804 0.54509804
0.61127451 0.61127451 0.61127451
0.69607843 0.69607843 0.69607843
0.80784314 0.80784314 0.80784314
0.74705882 0.74705882 0.74705882
0.75 0.75 0.75
0.75906863 0.75906863 0.75906863
0.82990196 0.82990196 0.82990196
0.91078431 0.91078431 0.91078431
0.90784314 0.90784314 0.90784314
0.91421569 0.91421569 0.91421569
0.92156863 0.92156863 0.92156863
0.92990196 0.92990196 0.92990196
0.95490196 0.95490196 0.95490196
0.58137255 0.58137255 0.58137255
0.60686275 0.60686275 0.60686275
0.66519608 0.66519608 0.66519608
0.71764706 0.71764706 0.71764706
0.80588235 0.80588235 0.80588235
0.62352941 0.62352941 0.62352941
0.64509804 0.64509804 0.64509804
0.69546569 0.69546569 0.69546569
0.7370098 0.7370098 0.7370098
0.83161765 0.83161765 0.83161765
0.65833333 0.65833333 0.65833333
0.70220588 0.70220588 0.70220588
0.75441176 0.75441176 0.75441176
0.79105392 0.79105392 0.79105392
0.86176471 0.86176471 0.86176471
0.78627451 0.78627451 0.78627451
0.79773284 0.79773284 0.79773284
0.82401961 0.82401961 0.82401961
0.86960784 0.86960784 0.86960784
0.91176471 0.91176471 0.91176471
0.92156863 0.92156863 0.92156863
0.93333333 0.93333333 0.93333333
0.94166667 0.94166667 0.94166667
0.94607843 0.94607843 0.94607843
0.96470588 0.96470588 0.96470588
0.84705882 0.84705882 0.84705882
0.87058824 0.87058824 0.87058824
0.88627451 0.88627451 0.88627451
0.91078431 0.91078431 0.91078431
0.92941176 0.92941176 0.92941176
0.86176471 0.86176471 0.86176471
0.87769608 0.87769608 0.87769608
0.88627451 0.88627451 0.88627451
0.89681373 0.89681373 0.89681373
0.91764706 0.91764706 0.91764706
0.86470588 0.86470588 0.86470588
0.88627451 0.88627451 0.88627451
0.89705882 0.89705882 0.89705882
0.9254902 0.9254902 0.9254902
0.94117647 0.94117647 0.94117647
0.89411765 0.89411765 0.89411765
0.89877451 0.89877451 0.89877451
0.91960784 0.91960784 0.91960784
0.93529412 0.93529412 0.93529412
0.96078431 0.96078431 0.96078431
0.95686275 0.95686275 0.95686275
0.9372549 0.9372549 0.9372549
0.95490196 0.95490196 0.95490196
0.95588235 0.95588235 0.95588235
0.96078431 0.96078431 0.96078431
