site/assets/luts/natron-haldclut--expired-fade--0856268fd.cube
# LUTr-Project: LUTr — LUTrepository
# LUTr-Schema-Version: 1
# LUTr-ID: natron-haldclut--expired-fade--0856268fd
# LUTr-Title: expired fade
# LUTr-Collection: Natron HaldCLUT
# LUTr-Collection-ID: natron-haldclut-presets
# LUTr-Source: https://github.com/NatronGitHub/clut
# LUTr-Source-File: submissions/natron-haldclut-presets/various/expired_fade.png
# LUTr-Source-Format: PNG
# LUTr-Source-SHA256: 0f6def0a4f9d54186b46655c6c049b00219e1c6b18e4ae7e3483439e8e3bc675
# LUTr-License: CC-BY-SA-4.0
# LUTr-License-URL: https://github.com/NatronGitHub/clut#license
# LUTr-Tags: creative, film, film-emulation, hald-clut, natron, png, cube
# LUTr-Transform-Class: film-emulation
# LUTr-Input-Color-Space: srgb
# LUTr-Output-Color-Space: srgb
# LUTr-Color-Space-Confidence: assumed-display-referred
# LUTr-Conversion-Method: PNG LUT image decoded at 16-bit and sampled to 25x25x25 3D CUBE
# LUTr-Conversion-Date: 2026-07-27
# LUTr-Conversion-Tool: LUTr scripts/convert-all-to-cube.mjs
# LUTr-Conversion-Grid: 25x25x25
# LUTr-Note: Preserve this metadata and the upstream license notices when redistributing.
TITLE "expired fade"
LUT_3D_SIZE 25
DOMAIN_MIN 0 0 0
DOMAIN_MAX 1 1 1
0.22745098 0.11764706 0.02745098
0.22745098 0.11764706 0.02745098
0.23431373 0.11862745 0.028431373
0.26127451 0.12892157 0.034803922
0.28823529 0.14313725 0.041176471
0.31470588 0.15735294 0.047058824
0.33921569 0.16372549 0.050980392
0.36764706 0.16862745 0.054901961
0.39607843 0.17254902 0.058823529
0.42303922 0.17647059 0.062745098
0.45882353 0.19509804 0.076470588
0.5 0.21862745 0.097058824
0.54117647 0.24117647 0.11372549
0.58235294 0.26372549 0.13039216
0.62058824 0.28431373 0.14705882
0.66078431 0.30490196 0.16372549
0.69803922 0.32156863 0.18039216
0.73676471 0.33823529 0.19460784
0.7754902 0.35490196 0.20980392
0.79901961 0.37156863 0.22303922
0.81960784 0.38823529 0.22941176
0.83627451 0.40490196 0.23970588
0.85686275 0.42156863 0.25
0.87352941 0.43823529 0.25882353
0.89411765 0.45490196 0.26666667
0.22745098 0.12794118 0.02745098
0.22898284 0.12794118 0.029901961
0.24117647 0.13137255 0.031372549
0.26176471 0.13921569 0.035294118
0.28823529 0.1495098 0.041176471
0.31470588 0.16372549 0.047058824
0.33921569 0.17009804 0.050980392
0.3661152 0.17346814 0.054901961
0.39215686 0.17892157 0.058823529
0.4221201 0.18866422 0.065196078
0.45882353 0.20441176 0.078308824
0.5 0.225 0.097058824
0.54117647 0.24632353 0.11372549
0.58235294 0.27009804 0.13039216
0.62058824 0.29068627 0.14767157
0.66078431 0.30882353 0.16372549
0.69803922 0.32794118 0.18039216
0.73676471 0.34460784 0.19460784
0.77365196 0.36066176 0.20882353
0.8026348 0.37794118 0.22058824
0.82352941 0.39460784 0.23014706
0.84264706 0.41096814 0.23970588
0.86078431 0.42794118 0.25
0.87990196 0.44368873 0.26029412
0.89656863 0.45735294 0.26666667
0.22352941 0.13823529 0.031372549
0.23272059 0.14105392 0.031372549
0.25 0.14705882 0.035294118
0.26703431 0.15355392 0.038848039
0.29019608 0.15980392 0.041176471
0.31470588 0.17009804 0.047058824
0.33921569 0.17745098 0.050980392
0.36482843 0.18284314 0.054901961
0.39117647 0.19019608 0.058823529
0.41911765 0.20012255 0.066176471
0.45882353 0.21544118 0.080392157
0.49656863 0.23529412 0.097058824
0.5372549 0.25196078 0.11372549
0.57879902 0.27561275 0.13039216
0.62034314 0.29705882 0.14705882
0.66078431 0.31556373 0.16335784
0.69803922 0.33431373 0.17941176
0.73639706 0.35098039 0.19313725
0.77156863 0.36740196 0.20563725
0.80159314 0.38431373 0.21911765
0.82401961 0.40098039 0.22941176
0.84509804 0.41752451 0.23970588
0.86568627 0.43431373 0.25294118
0.88627451 0.4495098 0.26311275
0.90294118 0.4627451 0.27058824
0.22352941 0.14852941 0.031372549
0.23627451 0.15490196 0.033823529
0.25637255 0.16127451 0.036151961
0.27395833 0.16807598 0.039215686
0.29362745 0.17377451 0.043137255
0.31470588 0.18039216 0.047058824
0.33835784 0.1877451 0.050980392
0.36372549 0.19558824 0.054901961
0.38823529 0.20343137 0.058823529
0.42126225 0.21372549 0.069117647
0.45882353 0.22892157 0.083333333
0.49656863 0.24601716 0.09754902
0.5372549 0.26421569 0.11372549
0.57843137 0.28284314 0.12996324
0.61960784 0.30343137 0.14705882
0.66078431 0.32401961 0.1622549
0.69803922 0.34068627 0.17647059
0.73529412 0.35753676 0.19068627
0.76764706 0.37438725 0.20490196
0.79852941 0.39074755 0.21519608
0.82720588 0.40759804 0.22598039
0.84803922 0.42444853 0.23970588
0.87120098 0.44080882 0.25294118
0.89295343 0.45606618 0.26421569
0.90931373 0.46666667 0.27401961
0.23137255 0.17058824 0.037254902
0.24362745 0.175 0.037254902
0.2622549 0.17892157 0.039215686
0.27941176 0.18406863 0.042892157
0.29803922 0.18921569 0.043137255
0.31470588 0.19411765 0.047058824
0.33823529 0.20098039 0.050490196
0.36127451 0.20735294 0.054901961
0.38823529 0.21568627 0.058823529
0.42156863 0.22794118 0.071568627
0.45882353 0.24460784 0.085784314
0.5 0.26004902 0.10098039
0.53823529 0.27647059 0.11568627
0.57843137 0.29313725 0.12990196
0.61960784 0.31078431 0.14411765
0.65686275 0.32965686 0.15906863
0.69803922 0.34705882 0.1745098
0.73284314 0.36446078 0.1879902
0.76617647 0.38186275 0.20098039
0.79852941 0.39754902 0.2129902
0.82843137 0.41568627 0.2254902
0.85196078 0.43210784 0.23578431
0.87401961 0.44754902 0.25294118
0.89779412 0.4629902 0.26813725
0.91764706 0.4745098 0.2745098
0.24754902 0.20147059 0.043627451
0.25784314 0.20147059 0.043627451
0.26911765 0.20098039 0.043627451
0.28535539 0.20098039 0.043627451
0.3002451 0.20441176 0.045343137
0.31862745 0.20833333 0.047058824
0.33578431 0.21139706 0.049632353
0.36127451 0.21795343 0.05245098
0.38823529 0.22794118 0.058823529
0.42334559 0.24215686 0.073039216
0.4627451 0.25772059 0.087254902
0.50006127 0.27408088 0.10147059
0.54117647 0.29068627 0.11593137
0.57843137 0.30686275 0.12990196
0.61666667 0.32107843 0.14411765
0.65686275 0.33676471 0.15833333
0.69411765 0.35343137 0.17254902
0.72892157 0.3713848 0.18498775
0.76335784 0.38676471 0.19705882
0.79761029 0.40692402 0.21035539
0.82965686 0.42377451 0.22156863
0.85637255 0.44019608 0.23578431
0.87696078 0.45428922 0.25294118
0.90245098 0.46862745 0.26783088
0.92598039 0.48284314 0.27843137
0.26176471 0.22843137 0.05
0.27169118 0.22843137 0.05
0.28235294 0.2254902 0.05
0.29264706 0.22463235 0.05
0.30686275 0.22156863 0.047058824
0.32120098 0.22169118 0.047058824
0.33921569 0.2247549 0.047058824
0.35980392 0.2314951 0.051348039
0.38823529 0.24117647 0.058823529
0.4254902 0.2560049 0.073039216
0.4627451 0.27132353 0.088235294
0.50306373 0.28823529 0.10147059
0.54117647 0.30294118 0.11617647
0.57843137 0.31764706 0.12990196
0.61666667 0.33431373 0.14411765
0.65686275 0.35061275 0.1564951
0.69411765 0.36666667 0.16862745
0.72892157 0.38333333 0.1817402
0.76053922 0.39926471 0.19338235
0.79460784 0.41678922 0.20735294
0.82941176 0.43382353 0.21813725
0.85980392 0.44963235 0.23321078
0.87745098 0.46372549 0.24926471
0.90134804 0.47892157 0.26421569
0.92254902 0.49313725 0.2745098
0.27598039 0.25539216 0.054901961
0.28235294 0.25447304 0.056372549
0.29301471 0.25330882 0.054901961
0.30686275 0.25018382 0.054901961
0.31715686 0.24681373 0.05245098
0.32794118 0.24215686 0.05067402
0.34166667 0.24031863 0.047426471
0.35680147 0.24215686 0.047977941
0.38823529 0.25392157 0.058823529
0.42696078 0.26966912 0.073039216
0.46568627 0.28517157 0.087254902
0.50392157 0.30030637 0.10147059
0.54117647 0.31789216 0.11568627
0.57843137 0.33314951 0.12990196
0.61776961 0.35 0.14203431
0.65686275 0.36666667 0.15441176
0.69558824 0.38333333 0.16470588
0.72984069 0.4 0.17892157
0.76372549 0.41666667 0.19166667
0.79803922 0.43333333 0.20343137
0.82794118 0.44926471 0.21617647
0.85441176 0.4622549 0.22824755
0.87647059 0.475 0.24509804
0.89797794 0.49068627 0.25882353
0.91617647 0.4995098 0.26666667
0.28627451 0.28235294 0.062745098
0.29264706 0.28235294 0.062745098
0.30686275 0.27843137 0.062745098
0.31715686 0.27843137 0.062745098
0.33137255 0.2745098 0.058823529
0.34166667 0.27009804 0.058333333
0.35196078 0.26666667 0.054901961
0.36372549 0.2627451 0.050980392
0.39215686 0.27058824 0.058823529
0.42941176 0.2872549 0.073039216
0.46666667 0.30294118 0.087254902
0.50392157 0.31715686 0.10147059
0.54117647 0.33529412 0.11568627
0.58186275 0.35 0.12647059
0.61960784 0.36764706 0.14019608
0.65931373 0.38333333 0.1504902
0.69803922 0.4 0.16470588
0.73284314 0.41813725 0.175
0.76764706 0.43333333 0.18921569
0.79852941 0.45 0.1995098
0.82352941 0.4627451 0.21372549
0.85196078 0.4754902 0.2245098
0.87254902 0.48921569 0.23823529
0.89705882 0.50343137 0.25245098
0.90980392 0.51372549 0.2627451
0.29656863 0.30931373 0.066666667
0.30294118 0.30778186 0.066666667
0.31715686 0.30539216 0.069117647
0.33118873 0.30539216 0.069117647
0.34411765 0.30465686 0.07254902
0.35618873 0.30147059 0.069117647
0.36862745 0.3 0.068014706
0.38339461 0.3 0.067647059
0.40490196 0.30147059 0.069117647
0.4372549 0.31268382 0.076960784
0.47242647 0.32634804 0.091176471
0.50814951 0.34117647 0.10147059
0.54436275 0.35588235 0.11568627
0.58235294 0.37058824 0.12598039
0.62242647 0.3872549 0.13627451
0.66078431 0.40392157 0.14803922
0.7004902 0.42058824 0.16078431
0.73676471 0.43572304 0.17107843
0.76764706 0.45110294 0.18529412
0.79509804 0.46470588 0.196875
0.82156863 0.47818627 0.20980392
0.84852941 0.49185049 0.221875
0.87254902 0.50526961 0.23541667
0.89313725 0.51764706 0.24852941
0.90980392 0.52647059 0.25637255
0.30784314 0.33627451 0.07254902
0.31666667 0.33688725 0.074387255
0.33235294 0.3372549 0.079411765
0.34644608 0.33982843 0.082965686
0.36078431 0.34019608 0.083333333
0.37414216 0.3372549 0.084313725
0.38529412 0.3372549 0.084313725
0.40061275 0.33627451 0.083333333
0.42058824 0.33627451 0.080392157
0.44754902 0.34019608 0.085171569
0.47843137 0.35220588 0.092156863
0.51311275 0.36580882 0.10539216
0.55 0.38088235 0.11568627
0.5872549 0.39473039 0.12598039
0.6252451 0.40955882 0.13627451
0.66470588 0.42512255 0.14656863
0.70196078 0.43823529 0.15686275
0.73958333 0.45147059 0.16715686
0.76764706 0.46642157 0.18137255
0.79460784 0.47990196 0.1942402
0.82156863 0.49411765 0.20588235
0.84852941 0.50833333 0.22009804
0.8754902 0.52230392 0.23259804
0.89375 0.53284314 0.24362745
0.90980392 0.54215686 0.25098039
0.33186275 0.37107843 0.093137255
0.33854167 0.37107843 0.093137255
0.35 0.3745098 0.093259804
0.36366422 0.3745098 0.097058824
0.37769608 0.375 0.099264706
0.39166667 0.37493873 0.10098039
0.40245098 0.3745098 0.10098039
0.41764706 0.37322304 0.09754902
0.43823529 0.37107843 0.093627451
0.45931373 0.37322304 0.093627451
0.48872549 0.37990196 0.097671569
0.51960784 0.390625 0.10539216
0.55637255 0.40490196 0.1122549
0.59362745 0.41954657 0.12598039
0.63137255 0.43590686 0.13627451
0.67077206 0.44883578 0.14656863
0.70588235 0.46176471 0.15686275
0.74068627 0.4754902 0.16501225
0.77058824 0.48627451 0.17745098
0.79509804 0.5004902 0.19123775
0.82328431 0.51470588 0.20245098
0.84852941 0.5254902 0.21617647
0.87634804 0.53921569 0.22953431
0.896875 0.5495098 0.23939951
0.90980392 0.55980392 0.24705882
0.35294118 0.40784314 0.10980392
0.35931373 0.40784314 0.10980392
0.36960784 0.40980392 0.11029412
0.38357843 0.41151961 0.11348039
0.39509804 0.41176471 0.11470588
0.40833333 0.41176471 0.11568627
0.42009804 0.41176471 0.11568627
0.43357843 0.40980392 0.11372549
0.45294118 0.40784314 0.10980392
0.4754902 0.40784314 0.10392157
0.49803922 0.40980392 0.1
0.52598039 0.41715686 0.10196078
0.56176471 0.43137255 0.11176471
0.59803922 0.44583333 0.12205882
0.6372549 0.46127451 0.13382353
0.67573529 0.4747549 0.14460784
0.70980392 0.48627451 0.15490196
0.74068627 0.49656863 0.16323529
0.77156863 0.50784314 0.17401961
0.79852941 0.52107843 0.1877451
0.8254902 0.53333333 0.2
0.85220588 0.54558824 0.2122549
0.87941176 0.55931373 0.2245098
0.9002451 0.57009804 0.23602941
0.91372549 0.57647059 0.24313725
0.37745098 0.44509804 0.13039216
0.38382353 0.44509804 0.13039216
0.39019608 0.44509804 0.13039216
0.4004902 0.44810049 0.13039216
0.41470588 0.44852941 0.13039216
0.425 0.44852941 0.13039216
0.43529412 0.44852941 0.13039216
0.44920343 0.44509804 0.12990196
0.46764706 0.44460784 0.12598039
0.49166667 0.44460784 0.11599265
0.51237745 0.44509804 0.10931373
0.53333333 0.44810049 0.10594363
0.56495098 0.45808824 0.10955882
0.60245098 0.47205882 0.12205882
0.64056373 0.48272059 0.13235294
0.67677696 0.49656863 0.14264706
0.70980392 0.50686275 0.15245098
0.74068627 0.51715686 0.15931373
0.77058824 0.52745098 0.17046569
0.79852941 0.54166667 0.18382353
0.82573529 0.55392157 0.19779412
0.85588235 0.56617647 0.20833333
0.8807598 0.57647059 0.22205882
0.90490196 0.58890931 0.23235294
0.92156863 0.59705882 0.23921569
0.40098039 0.48235294 0.14705882
0.40441176 0.48235294 0.14705882
0.41446078 0.48235294 0.14803922
0.42107843 0.48333333 0.14705882
0.43137255 0.48333333 0.14705882
0.44166667 0.48333333 0.14705882
0.45294118 0.48333333 0.14705882
0.46617647 0.48235294 0.14411765
0.48137255 0.47941176 0.14019608
0.50588235 0.47941176 0.13284314
0.52941176 0.48014706 0.12352941
0.55 0.48235294 0.11617647
0.57303922 0.48529412 0.1122549
0.60845588 0.49558824 0.12205882
0.64387255 0.50686275 0.13235294
0.67892157 0.51715686 0.13970588
0.70980392 0.52745098 0.14901961
0.74068627 0.53480392 0.15539216
0.76838235 0.54803922 0.16740196
0.79852941 0.55919118 0.1807598
0.82598039 0.57254902 0.19411765
0.85637255 0.58676471 0.20539216
0.88333333 0.59705882 0.21862745
0.90882353 0.60735294 0.22781863
0.92843137 0.61764706 0.23529412
0.42254902 0.51813725 0.16764706
0.42647059 0.51905637 0.16764706
0.43529412 0.51960784 0.16764706
0.44197304 0.51960784 0.16636029
0.45196078 0.51813725 0.16495098
0.4622549 0.51813725 0.16372549
0.47254902 0.51813725 0.1622549
0.48284314 0.51568627 0.15925245
0.50098039 0.51568627 0.15588235
0.5254902 0.51568627 0.14803922
0.54816176 0.51568627 0.13921569
0.57058824 0.51813725 0.13284314
0.59313725 0.52083333 0.13161765
0.62009804 0.52383578 0.13088235
0.6495098 0.52892157 0.13382353
0.67984069 0.5377451 0.13817402
0.70980392 0.54411765 0.14362745
0.74068627 0.55441176 0.15
0.76764706 0.56470588 0.16237745
0.79852941 0.57873775 0.17579657
0.8254902 0.59117647 0.19019608
0.85637255 0.60343137 0.203125
0.88223039 0.61617647 0.21470588
0.90042892 0.62401961 0.22261029
0.91470588 0.62892157 0.22745098
0.44313725 0.55294118 0.18431373
0.44705882 0.55294118 0.18431373
0.45588235 0.55588235 0.18431373
0.4622549 0.55294118 0.18431373
0.47254902 0.55294118 0.18039216
0.47892157 0.54901961 0.17990196
0.48921569 0.54901961 0.17647059
0.50343137 0.54901961 0.17254902
0.52156863 0.55294118 0.17254902
0.54607843 0.55294118 0.16617647
0.57058824 0.55294118 0.15686275
0.59117647 0.55294118 0.15343137
0.61372549 0.55686275 0.15098039
0.63676471 0.55735294 0.14852941
0.66372549 0.56078431 0.14509804
0.68529412 0.56078431 0.14117647
0.70980392 0.56470588 0.1372549
0.74068627 0.57107843 0.14362745
0.76764706 0.58235294 0.15784314
0.79852941 0.59558824 0.17205882
0.8254902 0.60980392 0.18627451
0.85588235 0.62401961 0.2004902
0.87745098 0.63137255 0.21078431
0.89166667 0.63921569 0.21568627
0.89803922 0.64313725 0.21960784
0.46372549 0.59019608 0.20098039
0.46617647 0.59019608 0.20098039
0.47365196 0.59019608 0.20098039
0.48284314 0.5877451 0.19883578
0.48921569 0.58382353 0.19460784
0.4995098 0.58333333 0.19283088
0.50980392 0.57990196 0.19068627
0.52493873 0.58137255 0.18676471
0.54607843 0.58627451 0.18676471
0.56666667 0.5877451 0.18284314
0.58872549 0.59019608 0.17745098
0.60931373 0.59019608 0.17401961
0.63235294 0.59166667 0.17156863
0.65686275 0.59411765 0.16568627
0.67855392 0.59411765 0.16213235
0.6995098 0.59166667 0.15484069
0.72009804 0.59166667 0.14754902
0.74160539 0.59258578 0.1439951
0.76948529 0.60196078 0.15490196
0.79852941 0.61617647 0.17156863
0.82941176 0.63039216 0.18627451
0.85588235 0.64068627 0.19675245
0.87352941 0.64914216 0.20539216
0.88137255 0.65251225 0.20931373
0.88529412 0.65343137 0.20931373
0.48431373 0.62647059 0.21764706
0.48615196 0.62463235 0.21764706
0.49289216 0.62254902 0.21666667
0.4995098 0.61911765 0.21286765
0.50980392 0.61470588 0.20882353
0.51911765 0.61421569 0.20490196
0.53039216 0.61078431 0.20269608
0.54607843 0.61470588 0.20098039
0.56666667 0.61862745 0.20098039
0.5872549 0.62254902 0.19914216
0.60686275 0.62279412 0.19705882
0.62487745 0.62647059 0.19411765
0.64803922 0.62647059 0.18970588
0.66997549 0.62647059 0.18480392
0.69313725 0.62573529 0.17769608
0.71372549 0.62254902 0.1685049
0.73431373 0.61862745 0.16176471
0.75490196 0.62046569 0.15845588
0.77647059 0.62745098 0.1627451
0.80257353 0.63676471 0.17218137
0.82990196 0.64852941 0.18382353
0.8567402 0.66115196 0.19644608
0.86887255 0.66470588 0.2
0.87352941 0.66764706 0.20294118
0.87352941 0.66764706 0.20294118
0.50490196 0.66078431 0.23431373
0.50490196 0.65735294 0.23431373
0.50980392 0.65343137 0.2307598
0.51709559 0.6495098 0.22696078
0.52647059 0.64558824 0.22279412
0.53676471 0.64552696 0.21905637
0.55 0.64546569 0.21519608
0.56881127 0.64705882 0.21519608
0.5872549 0.6495098 0.21470588
0.60569853 0.65343137 0.21127451
0.62365196 0.65343137 0.21115196
0.64123775 0.65392157 0.20735294
0.6620098 0.65392157 0.20343137
0.68327206 0.65386029 0.19901961
0.70686275 0.65343137 0.19215686
0.72745098 0.64981618 0.18363971
0.74803922 0.6495098 0.17598039
0.76734069 0.6495098 0.1754902
0.78970588 0.65477941 0.17683824
0.81329657 0.66170343 0.18290441
0.83504902 0.67107843 0.18602941
0.85931373 0.67794118 0.19221814
0.86323529 0.68137255 0.19607843
0.86323529 0.68137255 0.19607843
0.86323529 0.68137255 0.19656863
0.51960784 0.68627451 0.24509804
0.52156863 0.68235294 0.24509804
0.52647059 0.67843137 0.24117647
0.53676471 0.67671569 0.2377451
0.54705882 0.67647059 0.23529412
0.55735294 0.67647059 0.23308824
0.57058824 0.67647059 0.22941176
0.5872549 0.67843137 0.22867647
0.60392157 0.67843137 0.2254902
0.62132353 0.67843137 0.22303922
0.63872549 0.67892157 0.22156863
0.65588235 0.68039216 0.21764706
0.67647059 0.67843137 0.21372549
0.69730392 0.68039216 0.20980392
0.72107843 0.68039216 0.20588235
0.74215686 0.68039216 0.19926471
0.76078431 0.67647059 0.19215686
0.78259804 0.68039216 0.19142157
0.80392157 0.68529412 0.19411765
0.8245098 0.68995098 0.19411765
0.84509804 0.69411765 0.19607843
0.8629902 0.69632353 0.19607843
0.86470588 0.69803922 0.19607843
0.86470588 0.69803922 0.19607843
0.86470588 0.69803922 0.19803922
0.5377451 0.70686275 0.25931373
0.53805147 0.703125 0.25539216
0.54301471 0.69901961 0.25147059
0.55294118 0.69901961 0.24803922
0.56323529 0.69901961 0.24583333
0.57401961 0.70294118 0.24362745
0.58688725 0.70294118 0.24105392
0.60343137 0.70294118 0.23952206
0.62009804 0.70294118 0.23578431
0.63676471 0.70294118 0.23333333
0.65343137 0.70306373 0.2317402
0.67058824 0.70300245 0.22794118
0.69068627 0.70294118 0.22401961
0.71127451 0.70300245 0.22009804
0.73235294 0.70686275 0.21617647
0.75637255 0.70686275 0.2122549
0.77696078 0.70735294 0.20833333
0.79754902 0.70949755 0.20704657
0.81421569 0.71078431 0.20441176
0.83431373 0.71078431 0.20441176
0.85122549 0.71078431 0.20392157
0.86764706 0.71470588 0.2004902
0.875 0.71470588 0.20392157
0.875 0.71470588 0.20392157
0.8754902 0.71470588 0.20392157
0.55196078 0.72745098 0.26960784
0.55490196 0.725 0.26568627
0.55980392 0.72254902 0.26176471
0.56752451 0.71960784 0.26090686
0.57745098 0.72107843 0.25784314
0.59068627 0.72352941 0.2564951
0.60171569 0.72352941 0.25392157
0.61617647 0.72352941 0.25
0.63039216 0.72352941 0.24607843
0.64705882 0.72352941 0.24215686
0.66740196 0.72745098 0.23897059
0.68468137 0.72745098 0.23566176
0.70490196 0.72745098 0.23235294
0.7254902 0.72745098 0.22990196
0.74607843 0.72745098 0.22426471
0.76666667 0.72745098 0.22144608
0.7872549 0.7254902 0.21568627
0.80428922 0.72843137 0.21507353
0.82132353 0.72745098 0.21176471
0.83860294 0.72745098 0.21090686
0.85637255 0.72794118 0.21078431
0.87414216 0.7314951 0.20784314
0.88529412 0.73529412 0.20784314
0.88921569 0.73529412 0.20784314
0.88921569 0.73529412 0.20784314
0.56764706 0.7495098 0.27990196
0.57101716 0.74650735 0.27598039
0.57647059 0.74411765 0.27205882
0.58529412 0.74019608 0.27205882
0.59558824 0.74411765 0.26813725
0.60735294 0.74803922 0.26813725
0.61764706 0.74803922 0.26421569
0.63039216 0.74411765 0.26029412
0.64460784 0.74019608 0.25637255
0.65735294 0.74172794 0.25153186
0.67794118 0.74693627 0.24852941
0.69852941 0.74932598 0.24460784
0.71911765 0.74877451 0.24068627
0.73578431 0.74656863 0.23658088
0.75306373 0.73970588 0.22953431
0.77009804 0.73333333 0.22261029
0.78431373 0.7254902 0.21568627
0.80490196 0.73186275 0.21568627
0.8254902 0.73541667 0.21568627
0.84234069 0.73872549 0.21568627
0.8627451 0.74338235 0.21568627
0.88069853 0.74834559 0.2153799
0.89460784 0.75196078 0.21323529
0.90098039 0.75196078 0.21323529
0.8995098 0.75196078 0.21323529
0.58431373 0.77254902 0.29019608
0.58431373 0.76470588 0.28627451
0.58921569 0.76078431 0.28235294
0.5995098 0.76078431 0.27892157
0.60980392 0.76078431 0.27843137
0.62009804 0.76519608 0.27843137
0.63137255 0.76568627 0.2754902
0.64068627 0.75931373 0.26911765
0.65098039 0.75294118 0.2627451
0.66372549 0.75294118 0.25882353
0.68431373 0.75784314 0.25490196
0.70882353 0.76813725 0.25098039
0.72745098 0.76666667 0.24705882
0.74166667 0.75637255 0.23872549
0.75588235 0.74607843 0.23235294
0.77009804 0.73578431 0.22352941
0.78431373 0.7254902 0.21568627
0.80490196 0.72941176 0.21568627
0.8254902 0.7372549 0.21568627
0.84607843 0.74460784 0.21568627
0.86470588 0.75098039 0.21960784
0.88333333 0.75735294 0.21960784
0.90392157 0.76764706 0.21960784
0.90980392 0.76862745 0.21960784
0.90980392 0.76862745 0.21568627
0.22745098 0.12009804 0.029901961
0.22745098 0.11764706 0.02745098
0.23333333 0.11617647 0.028431373
0.2591299 0.13106618 0.034803922
0.2870098 0.14509804 0.041176471
0.31470588 0.15735294 0.047365196
0.33921569 0.16372549 0.053431373
0.36519608 0.16862745 0.057904412
0.39215686 0.17254902 0.062745098
0.42303922 0.18529412 0.071568627
0.45882353 0.19803922 0.082843137
0.5 0.21862745 0.099693627
0.54117647 0.23921569 0.11691176
0.58235294 0.26372549 0.1341299
0.62352941 0.28431373 0.15159314
0.66078431 0.30189951 0.16709559
0.7004902 0.32156863 0.18284314
0.73829657 0.33823529 0.19613971
0.77647059 0.35490196 0.21164216
0.80294118 0.37175245 0.22303922
0.81960784 0.3870098 0.23333333
0.83872549 0.40226716 0.24362745
0.85686275 0.41801471 0.25245098
0.87598039 0.43431373 0.2627451
0.89411765 0.44852941 0.27303922
0.22591912 0.12794118 0.031372549
0.22745098 0.12794118 0.03024663
0.23970588 0.1307598 0.031372549
0.26158088 0.13921569 0.035110294
0.2870098 0.1502451 0.041176471
0.31256127 0.16353401 0.04754902
0.33860294 0.17009804 0.054534314
0.36462163 0.175 0.057904412
0.39215686 0.17892157 0.064276961
0.42269455 0.19166667 0.071568627
0.45882353 0.20625 0.083946078
0.5 0.225 0.099693627
0.54117647 0.24586397 0.11691176
0.58235294 0.26776195 0.1341299
0.62352941 0.28846507 0.15121017
0.66078431 0.30769761 0.16652114
0.7004902 0.3254902 0.18039216
0.73864124 0.34307598 0.19613971
0.7754902 0.36066176 0.20919118
0.80294118 0.3766008 0.22292433
0.82352941 0.39215686 0.23333333
0.84345129 0.40783548 0.24607843
0.86254596 0.42438725 0.25637255
0.88212316 0.43976716 0.26666667
0.89803922 0.45189951 0.27395833
0.22352941 0.13823529 0.031372549
0.23051471 0.14105392 0.031755515
0.24883578 0.14632353 0.035447304
0.26666667 0.15355392 0.038848039
0.28872549 0.15980392 0.042585784
0.31256127 0.17009804 0.04754902
0.33851103 0.1799326 0.054534314
0.36372549 0.18529412 0.059742647
0.38823529 0.19313725 0.065196078
0.42156863 0.20301777 0.072579657
0.45882353 0.21835172 0.085876225
0.5 0.23537071 0.10032169
0.54117647 0.25588235 0.11691176
0.58235294 0.27647059 0.13253676
0.62325368 0.29705882 0.14941789
0.66078431 0.31556373 0.16487439
0.69803922 0.33431373 0.18039216
0.73676471 0.35098039 0.1942402
0.77156863 0.36740196 0.20808824
0.80191483 0.38377757 0.2207261
0.82493873 0.39926471 0.23296569
0.84803922 0.41629902 0.24607843
0.86862745 0.43121936 0.25664828
0.88880208 0.44600184 0.2683364
