site/assets/luts/natron-haldclut--agfa-apx-100--d5051a815.cube
# LUTr-Project: LUTr — LUTrepository
# LUTr-Schema-Version: 1
# LUTr-ID: natron-haldclut--agfa-apx-100--d5051a815
# LUTr-Title: agfa apx 100
# LUTr-Collection: Natron HaldCLUT
# LUTr-Collection-ID: natron-haldclut-presets
# LUTr-Source: https://github.com/NatronGitHub/clut
# LUTr-Source-File: submissions/natron-haldclut-presets/bw/agfa_apx_100.png
# LUTr-Source-Format: PNG
# LUTr-Source-SHA256: cfdef13d710086636fc021b187e0d8c3aac3f283ed774701a280d379598902f6
# LUTr-License: CC-BY-SA-4.0
# LUTr-License-URL: https://github.com/NatronGitHub/clut#license
# LUTr-Tags: creative, film, film-emulation, hald-clut, natron, png, black-and-white, cube
# LUTr-Transform-Class: film-emulation
# LUTr-Input-Color-Space: srgb
# LUTr-Output-Color-Space: srgb
# LUTr-Color-Space-Confidence: assumed-display-referred
# LUTr-Conversion-Method: PNG LUT image decoded at 16-bit and sampled to 25x25x25 3D CUBE
# LUTr-Conversion-Date: 2026-07-27
# LUTr-Conversion-Tool: LUTr scripts/convert-all-to-cube.mjs
# LUTr-Conversion-Grid: 25x25x25
# LUTr-Note: Preserve this metadata and the upstream license notices when redistributing.
TITLE "agfa apx 100"
LUT_3D_SIZE 9
DOMAIN_MIN 0 0 0
DOMAIN_MAX 1 1 1
0.019607843 0.019607843 0.019607843
0.078431373 0.078431373 0.078431373
0.082352941 0.082352941 0.082352941
0.11764706 0.11764706 0.11764706
0.14313725 0.14313725 0.14313725
0.18823529 0.18823529 0.18823529
0.24313725 0.24313725 0.24313725
0.34215686 0.34215686 0.34215686
0.44705882 0.44705882 0.44705882
0.15098039 0.15098039 0.15098039
0.1783701 0.1783701 0.1783701
0.20477941 0.20477941 0.20477941
0.23363971 0.23363971 0.23363971
0.26666667 0.26666667 0.26666667
0.31697304 0.31697304 0.31697304
0.35404412 0.35404412 0.35404412
0.45447304 0.45447304 0.45447304
0.53627451 0.53627451 0.53627451
0.29019608 0.29019608 0.29019608
0.29791667 0.29791667 0.29791667
0.32083333 0.32083333 0.32083333
0.33039216 0.33039216 0.33039216
0.37352941 0.37352941 0.37352941
0.42990196 0.42990196 0.42990196
0.46078431 0.46078431 0.46078431
0.54264706 0.54264706 0.54264706
0.62058824 0.62058824 0.62058824
0.42156863 0.42156863 0.42156863
0.4276348 0.4276348 0.4276348
0.44693627 0.44693627 0.44693627
0.46721814 0.46721814 0.46721814
0.49338235 0.49338235 0.49338235
0.54068627 0.54068627 0.54068627
0.56973039 0.56973039 0.56973039
0.64050245 0.64050245 0.64050245
0.70833333 0.70833333 0.70833333
0.56666667 0.56666667 0.56666667
0.57058824 0.57058824 0.57058824
0.59215686 0.59215686 0.59215686
0.62794118 0.62794118 0.62794118
0.64509804 0.64509804 0.64509804
0.65637255 0.65637255 0.65637255
0.68186275 0.68186275 0.68186275
0.73995098 0.73995098 0.73995098
0.75294118 0.75294118 0.75294118
0.71960784 0.71960784 0.71960784
0.72873775 0.72873775 0.72873775
0.74607843 0.74607843 0.74607843
0.76372549 0.76372549 0.76372549
0.77303922 0.77303922 0.77303922
0.77696078 0.77696078 0.77696078
0.78578431 0.78578431 0.78578431
0.79932598 0.79932598 0.79932598
0.80294118 0.80294118 0.80294118
0.80980392 0.80980392 0.80980392
0.81372549 0.81372549 0.81372549
0.81764706 0.81764706 0.81764706
0.82941176 0.82941176 0.82941176
0.84117647 0.84117647 0.84117647
0.84509804 0.84509804 0.84509804
0.84828431 0.84828431 0.84828431
0.86127451 0.86127451 0.86127451
0.86470588 0.86470588 0.86470588
0.87941176 0.87941176 0.87941176
0.87941176 0.87941176 0.87941176
0.87941176 0.87941176 0.87941176
0.88939951 0.88939951 0.88939951
0.89901961 0.89901961 0.89901961
0.89491422 0.89491422 0.89491422
0.89607843 0.89607843 0.89607843
0.91078431 0.91078431 0.91078431
0.91029412 0.91029412 0.91029412
0.94901961 0.94901961 0.94901961
0.9377451 0.9377451 0.9377451
0.9372549 0.9372549 0.9372549
0.94117647 0.94117647 0.94117647
0.94509804 0.94509804 0.94509804
0.93186275 0.93186275 0.93186275
0.9372549 0.9372549 0.9372549
0.95294118 0.95294118 0.95294118
0.95294118 0.95294118 0.95294118
0.078431373 0.078431373 0.078431373
0.081311275 0.081311275 0.081311275
0.1122549 0.1122549 0.1122549
0.1372549 0.1372549 0.1372549
0.1872549 0.1872549 0.1872549
0.23627451 0.23627451 0.23627451
0.30404412 0.30404412 0.30404412
0.39258578 0.39258578 0.39258578
0.48137255 0.48137255 0.48137255
0.18578431 0.18578431 0.18578431
0.19362745 0.19362745 0.19362745
0.22009804 0.22009804 0.22009804
0.24953278 0.24953278 0.24953278
0.28946078 0.28946078 0.28946078
0.3345818 0.3345818 0.3345818
0.39995404 0.39995404 0.39995404
0.48218444 0.48218444 0.48218444
0.55931373 0.55931373 0.55931373
0.30931373 0.30931373 0.30931373
0.31634498 0.31634498 0.31634498
0.33578431 0.33578431 0.33578431
0.36360294 0.36360294 0.36360294
0.40128676 0.40128676 0.40128676
0.44077819 0.44077819 0.44077819
0.49264706 0.49264706 0.49264706
0.57380515 0.57380515 0.57380515
0.64448529 0.64448529 0.64448529
0.43921569 0.43921569 0.43921569
0.44458487 0.44458487 0.44458487
0.46176471 0.46176471 0.46176471
0.49019608 0.49019608 0.49019608
0.52098652 0.52098652 0.52098652
0.55980392 0.55980392 0.55980392
0.59655331 0.59655331 0.59655331
0.66713388 0.66713388 0.66713388
0.71470588 0.71470588 0.71470588
0.58578431 0.58578431 0.58578431
0.58970588 0.58970588 0.58970588
0.60441176 0.60441176 0.60441176
0.62981005 0.62981005 0.62981005
0.65661765 0.65661765 0.65661765
0.67867647 0.67867647 0.67867647
0.70496324 0.70496324 0.70496324
0.7495098 0.7495098 0.7495098
0.76446078 0.76446078 0.76446078
0.73088235 0.73088235 0.73088235
0.73883272 0.73883272 0.73883272
0.74920343 0.74920343 0.74920343
0.76372549 0.76372549 0.76372549
0.77303922 0.77303922 0.77303922
0.78362439 0.78362439 0.78362439
0.79546569 0.79546569 0.79546569
0.80735294 0.80735294 0.80735294
0.81452206 0.81452206 0.81452206
0.81458333 0.81458333 0.81458333
0.81764706 0.81764706 0.81764706
0.82156863 0.82156863 0.82156863
0.82941176 0.82941176 0.82941176
0.83939951 0.83939951 0.83939951
0.84817708 0.84817708 0.84817708
0.85677083 0.85677083 0.85677083
0.8674326 0.8674326 0.8674326
0.86862745 0.86862745 0.86862745
0.88682598 0.88682598 0.88682598
0.88338695 0.88338695 0.88338695
0.88333333 0.88333333 0.88333333
0.89099265 0.89099265 0.89099265
0.89901961 0.89901961 0.89901961
0.90202206 0.90202206 0.90202206
0.90594363 0.90594363 0.90594363
0.9142693 0.9142693 0.9142693
0.91464461 0.91464461 0.91464461
0.94117647 0.94117647 0.94117647
0.94074755 0.94074755 0.94074755
0.94105392 0.94105392 0.94105392
0.94509804 0.94509804 0.94509804
0.94901961 0.94901961 0.94901961
0.9372549 0.9372549 0.9372549
0.94215686 0.94215686 0.94215686
0.95686275 0.95686275 0.95686275
0.95686275 0.95686275 0.95686275
0.099019608 0.099019608 0.099019608
0.13860294 0.13860294 0.13860294
0.14705882 0.14705882 0.14705882
0.18909314 0.18909314 0.18909314
0.24117647 0.24117647 0.24117647
0.2807598 0.2807598 0.2807598
0.35 0.35 0.35
0.42352941 0.42352941 0.42352941
0.53627451 0.53627451 0.53627451
0.22058824 0.22058824 0.22058824
0.23223039 0.23223039 0.23223039
0.25787377 0.25787377 0.25787377
0.28319547 0.28319547 0.28319547
0.32843137 0.32843137 0.32843137
0.37584252 0.37584252 0.37584252
0.4354473 0.4354473 0.4354473
0.52440257 0.52440257 0.52440257
0.60882353 0.60882353 0.60882353
0.35416667 0.35416667 0.35416667
0.35882353 0.35882353 0.35882353
0.37395833 0.37395833 0.37395833
0.403125 0.403125 0.403125
0.43333333 0.43333333 0.43333333
0.47098652 0.47098652 0.47098652
0.53137255 0.53137255 0.53137255
0.60245098 0.60245098 0.60245098
0.67083333 0.67083333 0.67083333
0.48517157 0.48517157 0.48517157
0.49005821 0.49005821 0.49005821
0.50030637 0.50030637 0.50030637
0.52869179 0.52869179 0.52869179
0.55588235 0.55588235 0.55588235
0.58431373 0.58431373 0.58431373
0.63458946 0.63458946 0.63458946
0.69371936 0.69371936 0.69371936
0.72977941 0.72977941 0.72977941
0.62598039 0.62598039 0.62598039
0.62971814 0.62971814 0.62971814
0.63737745 0.63737745 0.63737745
0.65998775 0.65998775 0.65998775
0.68333333 0.68333333 0.68333333
0.70759804 0.70759804 0.70759804
0.73186275 0.73186275 0.73186275
0.75680147 0.75680147 0.75680147
0.77598039 0.77598039 0.77598039
0.74852941 0.74852941 0.74852941
0.75111826 0.75111826 0.75111826
0.75863971 0.75863971 0.75863971
0.77133885 0.77133885 0.77133885
0.78302696 0.78302696 0.78302696
0.79310662 0.79310662 0.79310662
0.8020527 0.8020527 0.8020527
0.81507353 0.81507353 0.81507353
0.82610294 0.82610294 0.82610294
0.8247549 0.8247549 0.8247549
0.82613358 0.82613358 0.82613358
0.83161765 0.83161765 0.83161765
0.8372549 0.8372549 0.8372549
0.84509804 0.84509804 0.84509804
0.85625 0.85625 0.85625
0.86335784 0.86335784 0.86335784
0.87282475 0.87282475 0.87282475
0.87647059 0.87647059 0.87647059
0.89509804 0.89509804 0.89509804
0.89422488 0.89422488 0.89422488
0.8950674 0.8950674 0.8950674
0.89901961 0.89901961 0.89901961
0.90569853 0.90569853 0.90569853
0.90681679 0.90681679 0.90681679
0.9114277 0.9114277 0.9114277
0.91905637 0.91905637 0.91905637
0.92512255 0.92512255 0.92512255
0.94411765 0.94411765 0.94411765
0.93370098 0.93370098 0.93370098
0.94509804 0.94509804 0.94509804
0.94901961 0.94901961 0.94901961
0.95294118 0.95294118 0.95294118
0.94509804 0.94509804 0.94509804
0.95294118 0.95294118 0.95294118
0.96470588 0.96470588 0.96470588
0.96862745 0.96862745 0.96862745
0.17107843 0.17107843 0.17107843
0.21372549 0.21372549 0.21372549
0.21495098 0.21495098 0.21495098
0.24264706 0.24264706 0.24264706
0.275 0.275 0.275
0.33964461 0.33964461 0.33964461
0.41507353 0.41507353 0.41507353
0.47647059 0.47647059 0.47647059
0.53823529 0.53823529 0.53823529
0.27745098 0.27745098 0.27745098
0.28658088 0.28658088 0.28658088
0.31079963 0.31079963 0.31079963
0.33872549 0.33872549 0.33872549
0.37058824 0.37058824 0.37058824
0.41960784 0.41960784 0.41960784
0.48832721 0.48832721 0.48832721
0.56192555 0.56192555 0.56192555
0.63645833 0.63645833 0.63645833
0.4060049 0.4060049 0.4060049
0.4126685 0.4126685 0.4126685
0.42058824 0.42058824 0.42058824
0.44754902 0.44754902 0.44754902
0.48204657 0.48204657 0.48204657
0.52149203 0.52149203 0.52149203
0.58039216 0.58039216 0.58039216
0.64220282 0.64220282 0.64220282
0.70637255 0.70637255 0.70637255
0.53327206 0.53327206 0.53327206
0.53908548 0.53908548 0.53908548
0.54780944 0.54780944 0.54780944
0.56672794 0.56672794 0.56672794
0.59313725 0.59313725 0.59313725
0.62583487 0.62583487 0.62583487
0.67634804 0.67634804 0.67634804
0.72156863 0.72156863 0.72156863
0.75300245 0.75300245 0.75300245
0.66642157 0.66642157 0.66642157
0.67411152 0.67411152 0.67411152
0.68137255 0.68137255 0.68137255
0.69901961 0.69901961 0.69901961
0.71654412 0.71654412 0.71654412
0.73529412 0.73529412 0.73529412
0.74908088 0.74908088 0.74908088
0.77009804 0.77009804 0.77009804
0.79338235 0.79338235 0.79338235
0.7754902 0.7754902 0.7754902
0.77401961 0.77401961 0.77401961
0.77064951 0.77064951 0.77064951
0.7848652 0.7848652 0.7848652
0.79782475 0.79782475 0.79782475
0.80559896 0.80559896 0.80559896
0.81600797 0.81600797 0.81600797
0.82910539 0.82910539 0.82910539
0.83976716 0.83976716 0.83976716
0.84117647 0.84117647 0.84117647
0.84117647 0.84117647 0.84117647
0.84390319 0.84390319 0.84390319
0.85147059 0.85147059 0.85147059
0.85900735 0.85900735 0.85900735
0.86695772 0.86695772 0.86695772
0.87227328 0.87227328 0.87227328
0.88007047 0.88007047 0.88007047
0.88615196 0.88615196 0.88615196
0.90294118 0.90294118 0.90294118
0.90294118 0.90294118 0.90294118
0.90531556 0.90531556 0.90531556
0.90900735 0.90900735 0.90900735
0.91078431 0.91078431 0.91078431
0.91452206 0.91452206 0.91452206
0.91848958 0.91848958 0.91848958
0.92630974 0.92630974 0.92630974
0.9341299 0.9341299 0.9341299
0.94901961 0.94901961 0.94901961
0.94901961 0.94901961 0.94901961
0.95294118 0.95294118 0.95294118
0.95294118 0.95294118 0.95294118
0.94901961 0.94901961 0.94901961
0.95631127 0.95631127 0.95631127
0.96078431 0.96078431 0.96078431
0.96470588 0.96470588 0.96470588
0.97254902 0.97254902 0.97254902
0.20588235 0.20588235 0.20588235
0.24215686 0.24215686 0.24215686
0.27745098 0.27745098 0.27745098
0.32377451 0.32377451 0.32377451
0.35098039 0.35098039 0.35098039
0.40563725 0.40563725 0.40563725
0.47745098 0.47745098 0.47745098
0.54828431 0.54828431 0.54828431
0.61176471 0.61176471 0.61176471
0.33137255 0.33137255 0.33137255
0.34436275 0.34436275 0.34436275
0.37352941 0.37352941 0.37352941
0.40704657 0.40704657 0.40704657
0.43651961 0.43651961 0.43651961
0.48382353 0.48382353 0.48382353
0.5495098 0.5495098 0.5495098
0.61348039 0.61348039 0.61348039
0.66176471 0.66176471 0.66176471
0.4627451 0.4627451 0.4627451
0.47573529 0.47573529 0.47573529
0.49203431 0.49203431 0.49203431
0.50931373 0.50931373 0.50931373
0.54411765 0.54411765 0.54411765
0.5870098 0.5870098 0.5870098
0.63468137 0.63468137 0.63468137
0.68897059 0.68897059 0.68897059
0.72990196 0.72990196 0.72990196
0.59019608 0.59019608 0.59019608
0.59803922 0.59803922 0.59803922
0.60882353 0.60882353 0.60882353
0.6129902 0.6129902 0.6129902
0.64460784 0.64460784 0.64460784
0.68360907 0.68360907 0.68360907
0.71372549 0.71372549 0.71372549
0.74745711 0.74745711 0.74745711
0.77303922 0.77303922 0.77303922
0.70882353 0.70882353 0.70882353
0.72144608 0.72144608 0.72144608
0.72647059 0.72647059 0.72647059
0.72867647 0.72867647 0.72867647
0.74019608 0.74019608 0.74019608
0.75821078 0.75821078 0.75821078
0.77941176 0.77941176 0.77941176
0.79852941 0.79852941 0.79852941
0.8127451 0.8127451 0.8127451
0.79705882 0.79705882 0.79705882
0.79911152 0.79911152 0.79911152
0.79705882 0.79705882 0.79705882
0.80490196 0.80490196 0.80490196
0.81605392 0.81605392 0.81605392
0.8252451 0.8252451 0.8252451
0.84050245 0.84050245 0.84050245
0.85058211 0.85058211 0.85058211
0.85710784 0.85710784 0.85710784
0.85833333 0.85833333 0.85833333
0.86011029 0.86011029 0.86011029
0.86311275 0.86311275 0.86311275
0.86758578 0.86758578 0.86758578
0.87205882 0.87205882 0.87205882
0.87794118 0.87794118 0.87794118
0.88223039 0.88223039 0.88223039
0.88988971 0.88988971 0.88988971
0.8995098 0.8995098 0.8995098
0.91446078 0.91446078 0.91446078
0.91446078 0.91446078 0.91446078
0.91470588 0.91470588 0.91470588
0.91470588 0.91470588 0.91470588
0.9182598 0.9182598 0.9182598
0.92239583 0.92239583 0.92239583
0.92689951 0.92689951 0.92689951
0.93382353 0.93382353 0.93382353
0.93995098 0.93995098 0.93995098
0.95294118 0.95294118 0.95294118
0.95686275 0.95686275 0.95686275
0.96078431 0.96078431 0.96078431
0.95367647 0.95367647 0.95367647
0.95 0.95 0.95
0.9622549 0.9622549 0.9622549
0.96470588 0.96470588 0.96470588
0.96470588 0.96470588 0.96470588
0.96862745 0.96862745 0.96862745
0.29705882 0.29705882 0.29705882
0.31764706 0.31764706 0.31764706
0.33921569 0.33921569 0.33921569
0.37647059 0.37647059 0.37647059
0.43431373 0.43431373 0.43431373
0.47647059 0.47647059 0.47647059
0.54105392 0.54105392 0.54105392
0.61746324 0.61746324 0.61746324
0.67352941 0.67352941 0.67352941
0.40882353 0.40882353 0.40882353
0.42971814 0.42971814 0.42971814
0.44852941 0.44852941 0.44852941
0.47028186 0.47028186 0.47028186
0.52058824 0.52058824 0.52058824
0.56648284 0.56648284 0.56648284
0.60784314 0.60784314 0.60784314
0.67179075 0.67179075 0.67179075
0.70686275 0.70686275 0.70686275
0.53627451 0.53627451 0.53627451
0.55324755 0.55324755 0.55324755
0.56565564 0.56565564 0.56565564
0.58039216 0.58039216 0.58039216
0.61838235 0.61838235 0.61838235
0.6567402 0.6567402 0.6567402
0.68431373 0.68431373 0.68431373
0.7239277 0.7239277 0.7239277
0.75134804 0.75134804 0.75134804
0.65980392 0.65980392 0.65980392
0.67137714 0.67137714 0.67137714
0.6759038 0.6759038 0.6759038
0.67382047 0.67382047 0.67382047
0.69188113 0.69188113 0.69188113
0.72640931 0.72640931 0.72640931
0.74791667 0.74791667 0.74791667
0.77223499 0.77223499 0.77223499
0.79215686 0.79215686 0.79215686
0.76421569 0.76421569 0.76421569
0.76323529 0.76323529 0.76323529
0.75833333 0.75833333 0.75833333
0.76148897 0.76148897 0.76148897
0.7622549 0.7622549 0.7622549
0.79117647 0.79117647 0.79117647
0.81029412 0.81029412 0.81029412
0.82539828 0.82539828 0.82539828
0.83406863 0.83406863 0.83406863
0.82401961 0.82401961 0.82401961
0.82266391 0.82266391 0.82266391
0.81996017 0.81996017 0.81996017
0.83004749 0.83004749 0.83004749
0.83970588 0.83970588 0.83970588
0.84977022 0.84977022 0.84977022
0.85914522 0.85914522 0.85914522
0.86820619 0.86820619 0.86820619
0.87261029 0.87261029 0.87261029
0.87794118 0.87794118 0.87794118
0.87585784 0.87585784 0.87585784
0.87729779 0.87729779 0.87729779
0.88356311 0.88356311 0.88356311
0.88743873 0.88743873 0.88743873
0.89131434 0.89131434 0.89131434
0.89518995 0.89518995 0.89518995
0.90298713 0.90298713 0.90298713
0.90723039 0.90723039 0.90723039
0.92598039 0.92598039 0.92598039
0.92205882 0.92205882 0.92205882
0.92152267 0.92152267 0.92152267
0.92254902 0.92254902 0.92254902
0.92598039 0.92598039 0.92598039
0.93382353 0.93382353 0.93382353
0.9377451 0.9377451 0.9377451
0.94166667 0.94166667 0.94166667
0.94313725 0.94313725 0.94313725
0.96078431 0.96078431 0.96078431
0.95704657 0.95704657 0.95704657
0.95294118 0.95294118 0.95294118
0.95833333 0.95833333 0.95833333
0.95686275 0.95686275 0.95686275
0.96525735 0.96525735 0.96525735
0.96862745 0.96862745 0.96862745
0.96862745 0.96862745 0.96862745
0.97254902 0.97254902 0.97254902
0.37352941 0.37352941 0.37352941
0.42291667 0.42291667 0.42291667
0.43627451 0.43627451 0.43627451
0.46666667 0.46666667 0.46666667
0.51470588 0.51470588 0.51470588
0.54031863 0.54031863 0.54031863
0.60980392 0.60980392 0.60980392
0.6932598 0.6932598 0.6932598
0.71960784 0.71960784 0.71960784
0.48823529 0.48823529 0.48823529
0.51426164 0.51426164 0.51426164
0.53468137 0.53468137 0.53468137
0.56421569 0.56421569 0.56421569
0.6088848 0.6088848 0.6088848
0.6495098 0.6495098 0.6495098
0.68011642 0.68011642 0.68011642
0.72702206 0.72702206 0.72702206
0.74166667 0.74166667 0.74166667
0.60686275 0.60686275 0.60686275
0.62999387 0.62999387 0.62999387
0.65091912 0.65091912 0.65091912
0.66292892 0.66292892 0.66292892
0.68468137 0.68468137 0.68468137
0.70946691 0.70946691 0.70946691
0.73504902 0.73504902 0.73504902
0.76985294 0.76985294 0.76985294
0.78112745 0.78112745 0.78112745
0.72303922 0.72303922 0.72303922
0.72806373 0.72806373 0.72806373
0.73235294 0.73235294 0.73235294
0.73590686 0.73590686 0.73590686
0.74754902 0.74754902 0.74754902
0.76744792 0.76744792 0.76744792
0.79071691 0.79071691 0.79071691
0.814231 0.814231 0.814231
0.82156863 0.82156863 0.82156863
0.79705882 0.79705882 0.79705882
0.80098039 0.80098039 0.80098039
0.79705882 0.79705882 0.79705882
0.80379902 0.80379902 0.80379902
0.80906863 0.80906863 0.80906863
0.8252451 0.8252451 0.8252451
0.84068627 0.84068627 0.84068627
0.85 0.85 0.85
0.85392157 0.85392157 0.85392157
0.85098039 0.85098039 0.85098039
0.85098039 0.85098039 0.85098039
0.85061275 0.85061275 0.85061275
0.85804228 0.85804228 0.85804228
0.86237745 0.86237745 0.86237745
0.86813725 0.86813725 0.86813725
0.87460172 0.87460172 0.87460172
0.88088235 0.88088235 0.88088235
0.88382353 0.88382353 0.88382353
0.89681373 0.89681373 0.89681373
0.89509804 0.89509804 0.89509804
0.89534314 0.89534314 0.89534314
0.89901961 0.89901961 0.89901961
0.89901961 0.89901961 0.89901961
0.90303309 0.90303309 0.90303309
0.90802696 0.90802696 0.90802696
0.91504289 0.91504289 0.91504289
0.91642157 0.91642157 0.91642157
0.93786765 0.93786765 0.93786765
0.93405331 0.93405331 0.93405331
0.93088235 0.93088235 0.93088235
0.93382353 0.93382353 0.93382353
0.93382353 0.93382353 0.93382353
0.93832721 0.93832721 0.93832721
0.94558824 0.94558824 0.94558824
0.9495098 0.9495098 0.9495098
0.94963235 0.94963235 0.94963235
0.96960784 0.96960784 0.96960784
0.96960784 0.96960784 0.96960784
0.96495098 0.96495098 0.96495098
0.96176471 0.96176471 0.96176471
0.96470588 0.96470588 0.96470588
0.97254902 0.97254902 0.97254902
0.97647059 0.97647059 0.97647059
0.97745098 0.97745098 0.97745098
0.97745098 0.97745098 0.97745098
0.49166667 0.49166667 0.49166667
0.54221814 0.54221814 0.54221814
0.57401961 0.57401961 0.57401961
0.59215686 0.59215686 0.59215686
0.63946078 0.63946078 0.63946078
0.66096814 0.66096814 0.66096814
0.70196078 0.70196078 0.70196078
0.75784314 0.75784314 0.75784314
0.77352941 0.77352941 0.77352941
0.59558824 0.59558824 0.59558824
0.61519608 0.61519608 0.61519608
0.64575674 0.64575674 0.64575674
0.65735294 0.65735294 0.65735294
0.6921875 0.6921875 0.6921875
0.71410846 0.71410846 0.71410846
0.73872549 0.73872549 0.73872549
0.77261029 0.77261029 0.77261029
0.78480392 0.78480392 0.78480392
0.68835784 0.68835784 0.68835784
0.70087316 0.70087316 0.70087316
0.71623775 0.71623775 0.71623775
0.72696078 0.72696078 0.72696078
0.74436275 0.74436275 0.74436275
0.75989583 0.75989583 0.75989583
0.78422181 0.78422181 0.78422181
0.80735294 0.80735294 0.80735294
0.81519608 0.81519608 0.81519608
0.76881127 0.76881127 0.76881127
0.77448683 0.77448683 0.77448683
0.78235294 0.78235294 0.78235294
0.78970588 0.78970588 0.78970588
0.79053309 0.79053309 0.79053309
0.80305607 0.80305607 0.80305607
0.82942708 0.82942708 0.82942708
0.84607843 0.84607843 0.84607843
0.85392157 0.85392157 0.85392157
0.82990196 0.82990196 0.82990196
0.83161765 0.83161765 0.83161765
0.83382353 0.83382353 0.83382353
0.8377451 0.8377451 0.8377451
0.84571078 0.84571078 0.84571078
0.85523897 0.85523897 0.85523897
0.865625 0.865625 0.865625
0.87303922 0.87303922 0.87303922
0.88063725 0.88063725 0.88063725
0.87616422 0.87616422 0.87616422
0.87647059 0.87647059 0.87647059
0.87616422 0.87616422 0.87616422
0.87921262 0.87921262 0.87921262
0.88431373 0.88431373 0.88431373
0.88823529 0.88823529 0.88823529
0.89269301 0.89269301 0.89269301
0.89634651 0.89634651 0.89634651
0.9 0.9 0.9
0.91470588 0.91470588 0.91470588
0.91213235 0.91213235 0.91213235
0.91519608 0.91519608 0.91519608
0.91862745 0.91862745 0.91862745
0.91519608 0.91519608 0.91519608
0.91648284 0.91648284 0.91648284
0.92303922 0.92303922 0.92303922
0.92696078 0.92696078 0.92696078
0.93039216 0.93039216 0.93039216
0.95 0.95 0.95
0.95042892 0.95042892 0.95042892
0.95343137 0.95343137 0.95343137
0.9495098 0.9495098 0.9495098
0.94929534 0.94929534 0.94929534
0.95 0.95 0.95
0.95735294 0.95735294 0.95735294
0.96127451 0.96127451 0.96127451
0.96127451 0.96127451 0.96127451
0.98431373 0.98431373 0.98431373
0.98817402 0.98817402 0.98817402
0.97647059 0.97647059 0.97647059
0.96862745 0.96862745 0.96862745
0.96813725 0.96813725 0.96813725
0.97794118 0.97794118 0.97794118
0.98566176 0.98566176 0.98566176
0.98872549 0.98872549 0.98872549
0.98823529 0.98823529 0.98823529
0.64313725 0.64313725 0.64313725
0.67401961 0.67401961 0.67401961
0.70098039 0.70098039 0.70098039
0.72156863 0.72156863 0.72156863
0.73137255 0.73137255 0.73137255
0.75441176 0.75441176 0.75441176
0.77352941 0.77352941 0.77352941
0.8004902 0.8004902 0.8004902
0.82745098 0.82745098 0.82745098
0.70098039 0.70098039 0.70098039
0.70140931 0.70140931 0.70140931
0.72009804 0.72009804 0.72009804
0.72285539 0.72285539 0.72285539
0.7370098 0.7370098 0.7370098
0.77205882 0.77205882 0.77205882
0.79264706 0.79264706 0.79264706
0.81219363 0.81219363 0.81219363
0.83529412 0.83529412 0.83529412
0.75490196 0.75490196 0.75490196
0.74705882 0.74705882 0.74705882
0.75490196 0.75490196 0.75490196
0.77205882 0.77205882 0.77205882
0.77843137 0.77843137 0.77843137
0.80012255 0.80012255 0.80012255
0.82671569 0.82671569 0.82671569
0.83431373 0.83431373 0.83431373
0.85 0.85 0.85
0.80882353 0.80882353 0.80882353
0.8127451 0.8127451 0.8127451
0.81997549 0.81997549 0.81997549
0.82598039 0.82598039 0.82598039
0.82720588 0.82720588 0.82720588
0.83866422 0.83866422 0.83866422
0.85441176 0.85441176 0.85441176
0.86911765 0.86911765 0.86911765
0.88480392 0.88480392 0.88480392
0.85294118 0.85294118 0.85294118
0.85490196 0.85490196 0.85490196
0.85686275 0.85686275 0.85686275
0.86078431 0.86078431 0.86078431
0.87156863 0.87156863 0.87156863
0.88039216 0.88039216 0.88039216
0.88480392 0.88480392 0.88480392
0.89240196 0.89240196 0.89240196
0.9 0.9 0.9
0.89166667 0.89166667 0.89166667
0.89313725 0.89313725 0.89313725
0.89558824 0.89558824 0.89558824
0.8995098 0.8995098 0.8995098
0.90343137 0.90343137 0.90343137
0.90643382 0.90643382 0.90643382
0.90980392 0.90980392 0.90980392
0.91519608 0.91519608 0.91519608
0.91911765 0.91911765 0.91911765
0.92254902 0.92254902 0.92254902
0.92647059 0.92647059 0.92647059
0.93039216 0.93039216 0.93039216
0.92941176 0.92941176 0.92941176
0.93039216 0.93039216 0.93039216
0.9314951 0.9314951 0.9314951
0.93504902 0.93504902 0.93504902
0.94215686 0.94215686 0.94215686
0.94215686 0.94215686 0.94215686
0.95343137 0.95343137 0.95343137
0.95735294 0.95735294 0.95735294
0.95428922 0.95428922 0.95428922
0.94509804 0.94509804 0.94509804
0.95122549 0.95122549 0.95122549
0.96096814 0.96096814 0.96096814
0.96519608 0.96519608 0.96519608
0.96911765 0.96911765 0.96911765
0.96911765 0.96911765 0.96911765
0.98039216 0.98039216 0.98039216
0.98431373 0.98431373 0.98431373
0.97254902 0.97254902 0.97254902
0.95833333 0.95833333 0.95833333
0.95686275 0.95686275 0.95686275
0.97401961 0.97401961 0.97401961
0.98823529 0.98823529 0.98823529
0.99607843 0.99607843 0.99607843
0.99215686 0.99215686 0.99215686
