site/assets/luts/natron-haldclut--fuji-neopan-1600--a6e03d054.cube
# LUTr-Project: LUTr — LUTrepository
# LUTr-Schema-Version: 1
# LUTr-ID: natron-haldclut--fuji-neopan-1600--a6e03d054
# LUTr-Title: fuji neopan 1600
# LUTr-Collection: Natron HaldCLUT
# LUTr-Collection-ID: natron-haldclut-presets
# LUTr-Source: https://github.com/NatronGitHub/clut
# LUTr-Source-File: submissions/natron-haldclut-presets/negative_old/fuji_neopan_1600.png
# LUTr-Source-Format: PNG
# LUTr-Source-SHA256: 2436f96f36e1108e6897aa34cc7074326fc9e69b0602918ec1fa4771ffc57a21
# LUTr-License: CC-BY-SA-4.0
# LUTr-License-URL: https://github.com/NatronGitHub/clut#license
# LUTr-Tags: creative, film, film-emulation, hald-clut, natron, png, black-and-white, cube
# LUTr-Transform-Class: film-emulation
# LUTr-Input-Color-Space: srgb
# LUTr-Output-Color-Space: srgb
# LUTr-Color-Space-Confidence: assumed-display-referred
# LUTr-Conversion-Method: PNG LUT image decoded at 16-bit and sampled to 25x25x25 3D CUBE
# LUTr-Conversion-Date: 2026-07-27
# LUTr-Conversion-Tool: LUTr scripts/convert-all-to-cube.mjs
# LUTr-Conversion-Grid: 25x25x25
# LUTr-Note: Preserve this metadata and the upstream license notices when redistributing.
TITLE "fuji neopan 1600"
LUT_3D_SIZE 25
DOMAIN_MIN 0 0 0
DOMAIN_MAX 1 1 1
0.023529412 0.023529412 0.023529412
0.023529412 0.023529412 0.023529412
0.024509804 0.024509804 0.024509804
0.031372549 0.031372549 0.031372549
0.039215686 0.039215686 0.039215686
0.047058824 0.047058824 0.047058824
0.050980392 0.050980392 0.050980392
0.047058824 0.047058824 0.047058824
0.043137255 0.043137255 0.043137255
0.036764706 0.036764706 0.036764706
0.031372549 0.031372549 0.031372549
0.024019608 0.024019608 0.024019608
0.049019608 0.049019608 0.049019608
0.071568627 0.071568627 0.071568627
0.089215686 0.089215686 0.089215686
0.10343137 0.10343137 0.10343137
0.11372549 0.11372549 0.11372549
0.15 0.15 0.15
0.19607843 0.19607843 0.19607843
0.24117647 0.24117647 0.24117647
0.28823529 0.28823529 0.28823529
0.33578431 0.33578431 0.33578431
0.3872549 0.3872549 0.3872549
0.43872549 0.43872549 0.43872549
0.47058824 0.47058824 0.47058824
0.023529412 0.023529412 0.023529412
0.023529412 0.023529412 0.023529412
0.024509804 0.024509804 0.024509804
0.031372549 0.031372549 0.031372549
0.041176471 0.041176471 0.041176471
0.05 0.05 0.05
0.054534314 0.054534314 0.054534314
0.054901961 0.054901961 0.054901961
0.053431373 0.053431373 0.053431373
0.049509804 0.049509804 0.049509804
0.045833333 0.045833333 0.045833333
0.053615196 0.053615196 0.053615196
0.071568627 0.071568627 0.071568627
0.092156863 0.092156863 0.092156863
0.10943627 0.10943627 0.10943627
0.12493873 0.12493873 0.12493873
0.14460784 0.14460784 0.14460784
0.17941176 0.17941176 0.17941176
0.21666667 0.21666667 0.21666667
0.25998775 0.25998775 0.25998775
0.30367647 0.30367647 0.30367647
0.34852941 0.34852941 0.34852941
0.39644608 0.39644608 0.39644608
0.44362745 0.44362745 0.44362745
0.47696078 0.47696078 0.47696078
0.023529412 0.023529412 0.023529412
0.023529412 0.023529412 0.023529412
0.027696078 0.027696078 0.027696078
0.035784314 0.035784314 0.035784314
0.046078431 0.046078431 0.046078431
0.05625 0.05625 0.05625
0.059803922 0.059803922 0.059803922
0.059803922 0.059803922 0.059803922
0.059803922 0.059803922 0.059803922
0.059803922 0.059803922 0.059803922
0.064705882 0.064705882 0.064705882
0.079411765 0.079411765 0.079411765
0.1 0.1 0.1
0.11764706 0.11764706 0.11764706
0.13504902 0.13504902 0.13504902
0.15281863 0.15281863 0.15281863
0.1754902 0.1754902 0.1754902
0.20882353 0.20882353 0.20882353
0.24436275 0.24436275 0.24436275
0.28333333 0.28333333 0.28333333
0.3245098 0.3245098 0.3245098
0.36862745 0.36862745 0.36862745
0.40980392 0.40980392 0.40980392
0.45392157 0.45392157 0.45392157
0.48333333 0.48333333 0.48333333
0.034313725 0.034313725 0.034313725
0.034313725 0.034313725 0.034313725
0.035784314 0.035784314 0.035784314
0.042156863 0.042156863 0.042156863
0.05245098 0.05245098 0.05245098
0.062745098 0.062745098 0.062745098
0.066176471 0.066176471 0.066176471
0.067953431 0.067953431 0.067953431
0.070098039 0.070098039 0.070098039
0.066176471 0.066176471 0.066176471
0.075857843 0.075857843 0.075857843
0.1 0.1 0.1
0.1245098 0.1245098 0.1245098
0.14503676 0.14503676 0.14503676
0.16262255 0.16262255 0.16262255
0.18186275 0.18186275 0.18186275
0.20637255 0.20637255 0.20637255
0.2372549 0.2372549 0.2372549
0.27218137 0.27218137 0.27218137
0.31029412 0.31029412 0.31029412
0.34803922 0.34803922 0.34803922
0.38921569 0.38921569 0.38921569
0.42696078 0.42696078 0.42696078
0.46764706 0.46764706 0.46764706
0.49754902 0.49754902 0.49754902
0.056862745 0.056862745 0.056862745
0.055637255 0.055637255 0.055637255
0.054901961 0.054901961 0.054901961
0.053186275 0.053186275 0.053186275
0.058823529 0.058823529 0.058823529
0.068872549 0.068872549 0.068872549
0.07254902 0.07254902 0.07254902
0.081127451 0.081127451 0.081127451
0.084313725 0.084313725 0.084313725
0.089460784 0.089460784 0.089460784
0.10196078 0.10196078 0.10196078
0.12622549 0.12622549 0.12622549
0.14901961 0.14901961 0.14901961
0.16936275 0.16936275 0.16936275
0.18676471 0.18676471 0.18676471
0.20759804 0.20759804 0.20759804
0.2372549 0.2372549 0.2372549
0.26813725 0.26813725 0.26813725
0.2995098 0.2995098 0.2995098
0.33553922 0.33553922 0.33553922
0.37254902 0.37254902 0.37254902
0.40980392 0.40980392 0.40980392
0.44803922 0.44803922 0.44803922
0.48431373 0.48431373 0.48431373
0.51372549 0.51372549 0.51372549
0.079901961 0.079901961 0.079901961
0.079595588 0.079595588 0.079595588
0.075857843 0.075857843 0.075857843
0.072058824 0.072058824 0.072058824
0.071078431 0.071078431 0.071078431
0.074571078 0.074571078 0.074571078
0.085294118 0.085294118 0.085294118
0.10196078 0.10196078 0.10196078
0.11127451 0.11127451 0.11127451
0.1245098 0.1245098 0.1245098
0.13982843 0.13982843 0.13982843
0.15435049 0.15435049 0.15435049
0.17352941 0.17352941 0.17352941
0.19019608 0.19019608 0.19019608
0.21078431 0.21078431 0.21078431
0.23314951 0.23314951 0.23314951
0.26421569 0.26421569 0.26421569
0.29509804 0.29509804 0.29509804
0.32941176 0.32941176 0.32941176
0.36072304 0.36072304 0.36072304
0.39705882 0.39705882 0.39705882
0.43382353 0.43382353 0.43382353
0.4685049 0.4685049 0.4685049
0.50343137 0.50343137 0.50343137
0.53431373 0.53431373 0.53431373
0.10686275 0.10686275 0.10686275
0.10392157 0.10392157 0.10392157
0.099754902 0.099754902 0.099754902
0.099019608 0.099019608 0.099019608
0.093137255 0.093137255 0.093137255
0.090808824 0.090808824 0.090808824
0.10882353 0.10882353 0.10882353
0.12830882 0.12830882 0.12830882
0.14215686 0.14215686 0.14215686
0.16311275 0.16311275 0.16311275
0.17156863 0.17156863 0.17156863
0.18823529 0.18823529 0.18823529
0.20098039 0.20098039 0.20098039
0.21421569 0.21421569 0.21421569
0.23137255 0.23137255 0.23137255
0.25735294 0.25735294 0.25735294
0.29117647 0.29117647 0.29117647
0.32303922 0.32303922 0.32303922
0.35392157 0.35392157 0.35392157
0.38480392 0.38480392 0.38480392
0.41960784 0.41960784 0.41960784
0.45441176 0.45441176 0.45441176
0.48602941 0.48602941 0.48602941
0.52107843 0.52107843 0.52107843
0.54901961 0.54901961 0.54901961
0.13382353 0.13382353 0.13382353
0.13290441 0.13290441 0.13290441
0.12990196 0.12990196 0.12990196
0.12990196 0.12990196 0.12990196
0.12745098 0.12745098 0.12745098
0.13186275 0.13186275 0.13186275
0.14571078 0.14571078 0.14571078
0.16066176 0.16066176 0.16066176
0.16911765 0.16911765 0.16911765
0.1848652 0.1848652 0.1848652
0.20036765 0.20036765 0.20036765
0.21911765 0.21911765 0.21911765
0.23186275 0.23186275 0.23186275
0.24411765 0.24411765 0.24411765
0.25551471 0.25551471 0.25551471
0.28425245 0.28425245 0.28425245
0.31666667 0.31666667 0.31666667
0.34846814 0.34846814 0.34846814
0.37843137 0.37843137 0.37843137
0.40931373 0.40931373 0.40931373
0.44166667 0.44166667 0.44166667
0.47285539 0.47285539 0.47285539
0.50588235 0.50588235 0.50588235
0.53676471 0.53676471 0.53676471
0.56519608 0.56519608 0.56519608
0.16470588 0.16470588 0.16470588
0.16078431 0.16078431 0.16078431
0.16078431 0.16078431 0.16078431
0.16078431 0.16078431 0.16078431
0.16470588 0.16470588 0.16470588
0.17303922 0.17303922 0.17303922
0.18333333 0.18333333 0.18333333
0.18970588 0.18970588 0.18970588
0.19607843 0.19607843 0.19607843
0.20882353 0.20882353 0.20882353
0.22941176 0.22941176 0.22941176
0.25 0.25 0.25
0.26666667 0.26666667 0.26666667
0.28284314 0.28284314 0.28284314
0.29607843 0.29607843 0.29607843
0.31813725 0.31813725 0.31813725
0.34509804 0.34509804 0.34509804
0.37598039 0.37598039 0.37598039
0.40294118 0.40294118 0.40294118
0.43382353 0.43382353 0.43382353
0.46470588 0.46470588 0.46470588
0.49558824 0.49558824 0.49558824
0.52647059 0.52647059 0.52647059
0.55735294 0.55735294 0.55735294
0.58039216 0.58039216 0.58039216
0.19558824 0.19558824 0.19558824
0.19466912 0.19466912 0.19466912
0.19166667 0.19166667 0.19166667
0.19166667 0.19166667 0.19166667
0.19754902 0.19754902 0.19754902
0.20784314 0.20784314 0.20784314
0.21875 0.21875 0.21875
0.2254902 0.2254902 0.2254902
0.22941176 0.22941176 0.22941176
0.23768382 0.23768382 0.23768382
0.26372549 0.26372549 0.26372549
0.2872549 0.2872549 0.2872549
0.30588235 0.30588235 0.30588235
0.32058824 0.32058824 0.32058824
0.3372549 0.3372549 0.3372549
0.35447304 0.35447304 0.35447304
0.37990196 0.37990196 0.37990196
0.40594363 0.40594363 0.40594363
0.43284314 0.43284314 0.43284314
0.45863971 0.45863971 0.45863971
0.48529412 0.48529412 0.48529412
0.5122549 0.5122549 0.5122549
0.54313725 0.54313725 0.54313725
0.57401961 0.57401961 0.57401961
0.59460784 0.59460784 0.59460784
0.23137255 0.23137255 0.23137255
0.22781863 0.22781863 0.22781863
0.22745098 0.22745098 0.22745098
0.2245098 0.2245098 0.2245098
0.2372549 0.2372549 0.2372549
0.24889706 0.24889706 0.24889706
0.2625 0.2625 0.2625
0.27205882 0.27205882 0.27205882
0.27941176 0.27941176 0.27941176
0.28970588 0.28970588 0.28970588
0.30563725 0.30563725 0.30563725
0.32843137 0.32843137 0.32843137
0.34509804 0.34509804 0.34509804
0.36127451 0.36127451 0.36127451
0.3754902 0.3754902 0.3754902
0.39411765 0.39411765 0.39411765
0.41568627 0.41568627 0.41568627
0.43982843 0.43982843 0.43982843
0.46372549 0.46372549 0.46372549
0.48431373 0.48431373 0.48431373
0.50637255 0.50637255 0.50637255
0.53284314 0.53284314 0.53284314
0.5629902 0.5629902 0.5629902
0.59068627 0.59068627 0.59068627
0.6127451 0.6127451 0.6127451
0.27598039 0.27598039 0.27598039
0.27598039 0.27598039 0.27598039
0.27254902 0.27254902 0.27254902
0.27555147 0.27555147 0.27555147
0.28235294 0.28235294 0.28235294
0.29613971 0.29613971 0.29613971
0.30943627 0.30943627 0.30943627
0.32058824 0.32058824 0.32058824
0.32745098 0.32745098 0.32745098
0.3372549 0.3372549 0.3372549
0.35159314 0.35159314 0.35159314
0.36960784 0.36960784 0.36960784
0.38455882 0.38455882 0.38455882
0.39944853 0.39944853 0.39944853
0.41568627 0.41568627 0.41568627
0.43106618 0.43106618 0.43106618
0.45294118 0.45294118 0.45294118
0.47401961 0.47401961 0.47401961
0.49460784 0.49460784 0.49460784
0.51133578 0.51133578 0.51133578
0.53186275 0.53186275 0.53186275
0.55343137 0.55343137 0.55343137
0.58137255 0.58137255 0.58137255
0.60998775 0.60998775 0.60998775
0.63039216 0.63039216 0.63039216
0.3254902 0.3254902 0.3254902
0.32352941 0.32352941 0.32352941
0.32352941 0.32352941 0.32352941
0.32696078 0.32696078 0.32696078
0.33333333 0.33333333 0.33333333
0.34387255 0.34387255 0.34387255
0.35784314 0.35784314 0.35784314
0.36813725 0.36813725 0.36813725
0.37647059 0.37647059 0.37647059
0.38480392 0.38480392 0.38480392
0.39705882 0.39705882 0.39705882
0.41102941 0.41102941 0.41102941
0.4254902 0.4254902 0.4254902
0.43970588 0.43970588 0.43970588
0.45343137 0.45343137 0.45343137
0.46691176 0.46691176 0.46691176
0.48823529 0.48823529 0.48823529
0.50637255 0.50637255 0.50637255
0.5245098 0.5245098 0.5245098
0.54215686 0.54215686 0.54215686
0.55882353 0.55882353 0.55882353
0.58137255 0.58137255 0.58137255
0.60539216 0.60539216 0.60539216
0.63039216 0.63039216 0.63039216
0.64901961 0.64901961 0.64901961
0.3745098 0.3745098 0.3745098
0.3745098 0.3745098 0.3745098
0.375 0.375 0.375
0.37892157 0.37892157 0.37892157
0.38676471 0.38676471 0.38676471
0.39460784 0.39460784 0.39460784
0.40490196 0.40490196 0.40490196
0.41390931 0.41390931 0.41390931
0.42156863 0.42156863 0.42156863
0.43186275 0.43186275 0.43186275
0.44215686 0.44215686 0.44215686
0.45245098 0.45245098 0.45245098
0.46666667 0.46666667 0.46666667
0.48045343 0.48045343 0.48045343
0.49117647 0.49117647 0.49117647
0.50275735 0.50275735 0.50275735
0.51911765 0.51911765 0.51911765
0.5372549 0.5372549 0.5372549
0.55245098 0.55245098 0.55245098
0.56954657 0.56954657 0.56954657
0.58921569 0.58921569 0.58921569
0.61029412 0.61029412 0.61029412
0.63088235 0.63088235 0.63088235
0.65275735 0.65275735 0.65275735
0.67156863 0.67156863 0.67156863
0.41960784 0.41960784 0.41960784
0.42144608 0.42144608 0.42144608
0.42352941 0.42352941 0.42352941
0.42990196 0.42990196 0.42990196
0.43676471 0.43676471 0.43676471
0.44227941 0.44227941 0.44227941
0.44926471 0.44926471 0.44926471
0.45637255 0.45637255 0.45637255
0.46666667 0.46666667 0.46666667
0.47303922 0.47303922 0.47303922
0.48333333 0.48333333 0.48333333
0.49448529 0.49448529 0.49448529
0.50784314 0.50784314 0.50784314
0.51813725 0.51813725 0.51813725
0.52941176 0.52941176 0.52941176
0.53970588 0.53970588 0.53970588
0.55 0.55 0.55
0.56666667 0.56666667 0.56666667
0.58259804 0.58259804 0.58259804
0.6 0.6 0.6
0.61666667 0.61666667 0.61666667
0.6372549 0.6372549 0.6372549
0.65784314 0.65784314 0.65784314
0.6754902 0.6754902 0.6754902
0.69215686 0.69215686 0.69215686
0.46862745 0.46862745 0.46862745
0.46954657 0.46954657 0.46954657
0.47291667 0.47291667 0.47291667
0.47775735 0.47775735 0.47775735
0.48308824 0.48308824 0.48308824
0.48823529 0.48823529 0.48823529
0.49117647 0.49117647 0.49117647
0.49607843 0.49607843 0.49607843
0.50392157 0.50392157 0.50392157
0.51329657 0.51329657 0.51329657
0.52303922 0.52303922 0.52303922
0.5346201 0.5346201 0.5346201
0.54509804 0.54509804 0.54509804
0.55784314 0.55784314 0.55784314
0.56813725 0.56813725 0.56813725
0.57751225 0.57751225 0.57751225
0.58627451 0.58627451 0.58627451
0.59901961 0.59901961 0.59901961
0.61323529 0.61323529 0.61323529
0.62726716 0.62726716 0.62726716
0.64362745 0.64362745 0.64362745
0.66421569 0.66421569 0.66421569
0.68333333 0.68333333 0.68333333
0.70091912 0.70091912 0.70091912
0.71666667 0.71666667 0.71666667
0.51372549 0.51372549 0.51372549
0.51764706 0.51764706 0.51764706
0.51862745 0.51862745 0.51862745
0.52156863 0.52156863 0.52156863
0.52745098 0.52745098 0.52745098
0.52990196 0.52990196 0.52990196
0.53333333 0.53333333 0.53333333
0.5372549 0.5372549 0.5372549
0.54509804 0.54509804 0.54509804
0.55147059 0.55147059 0.55147059
0.56176471 0.56176471 0.56176471
0.57205882 0.57205882 0.57205882
0.58235294 0.58235294 0.58235294
0.59656863 0.59656863 0.59656863
0.60392157 0.60392157 0.60392157
0.61323529 0.61323529 0.61323529
0.61960784 0.61960784 0.61960784
0.63235294 0.63235294 0.63235294
0.64411765 0.64411765 0.64411765
0.65441176 0.65441176 0.65441176
0.67058824 0.67058824 0.67058824
0.69117647 0.69117647 0.69117647
0.70784314 0.70784314 0.70784314
0.72696078 0.72696078 0.72696078
0.74117647 0.74117647 0.74117647
0.55735294 0.55735294 0.55735294
0.55882353 0.55882353 0.55882353
0.5627451 0.5627451 0.5627451
0.56648284 0.56648284 0.56648284
0.57058824 0.57058824 0.57058824
0.57481618 0.57481618 0.57481618
0.57843137 0.57843137 0.57843137
0.58143382 0.58143382 0.58143382
0.58627451 0.58627451 0.58627451
0.59264706 0.59264706 0.59264706
0.59901961 0.59901961 0.59901961
0.60931373 0.60931373 0.60931373
0.62107843 0.62107843 0.62107843
0.63137255 0.63137255 0.63137255
0.64056373 0.64056373 0.64056373
0.64803922 0.64803922 0.64803922
0.65686275 0.65686275 0.65686275
0.66715686 0.66715686 0.66715686
0.675 0.675 0.675
0.68529412 0.68529412 0.68529412
0.69828431 0.69828431 0.69828431
0.71783088 0.71783088 0.71783088
0.73517157 0.73517157 0.73517157
0.75238971 0.75238971 0.75238971
0.76568627 0.76568627 0.76568627
0.6 0.6 0.6
0.60061275 0.60061275 0.60061275
0.60490196 0.60490196 0.60490196
0.61127451 0.61127451 0.61127451
0.61568627 0.61568627 0.61568627
0.61973039 0.61973039 0.61973039
0.62352941 0.62352941 0.62352941
0.62745098 0.62745098 0.62745098
0.63137255 0.63137255 0.63137255
0.63529412 0.63529412 0.63529412
0.63995098 0.63995098 0.63995098
0.64914216 0.64914216 0.64914216
0.65833333 0.65833333 0.65833333
0.66703431 0.66703431 0.66703431
0.67647059 0.67647059 0.67647059
0.68284314 0.68284314 0.68284314
0.69019608 0.69019608 0.69019608
0.6995098 0.6995098 0.6995098
0.70588235 0.70588235 0.70588235
0.7127451 0.7127451 0.7127451
0.72843137 0.72843137 0.72843137
0.74509804 0.74509804 0.74509804
0.7625 0.7625 0.7625
0.77806373 0.77806373 0.77806373
0.78627451 0.78627451 0.78627451
0.64117647 0.64117647 0.64117647
0.64491422 0.64491422 0.64491422
0.64901961 0.64901961 0.64901961
0.6528799 0.6528799 0.6528799
0.65882353 0.65882353 0.65882353
0.66470588 0.66470588 0.66470588
0.66862745 0.66862745 0.66862745
0.66881127 0.66881127 0.66881127
0.67254902 0.67254902 0.67254902
0.67518382 0.67518382 0.67518382
0.68039216 0.68039216 0.68039216
0.6877451 0.6877451 0.6877451
0.69436275 0.69436275 0.69436275
0.70098039 0.70098039 0.70098039
0.71090686 0.71090686 0.71090686
0.71746324 0.71746324 0.71746324
0.72401961 0.72401961 0.72401961
0.73167892 0.73167892 0.73167892
0.73676471 0.73676471 0.73676471
0.74313725 0.74313725 0.74313725
0.75563725 0.75563725 0.75563725
0.7754902 0.7754902 0.7754902
0.78970588 0.78970588 0.78970588
0.8004902 0.8004902 0.8004902
0.80294118 0.80294118 0.80294118
0.68235294 0.68235294 0.68235294
0.68627451 0.68627451 0.68627451
0.69117647 0.69117647 0.69117647
0.69583333 0.69583333 0.69583333
0.70196078 0.70196078 0.70196078
0.70416667 0.70416667 0.70416667
0.70588235 0.70588235 0.70588235
0.70784314 0.70784314 0.70784314
0.70980392 0.70980392 0.70980392
0.7129902 0.7129902 0.7129902
0.71813725 0.71813725 0.71813725
0.72328431 0.72328431 0.72328431
0.72843137 0.72843137 0.72843137
0.73578431 0.73578431 0.73578431
0.74264706 0.74264706 0.74264706
0.75098039 0.75098039 0.75098039
0.75686275 0.75686275 0.75686275
0.7627451 0.7627451 0.7627451
0.76764706 0.76764706 0.76764706
0.77401961 0.77401961 0.77401961
0.78627451 0.78627451 0.78627451
0.80073529 0.80073529 0.80073529
0.8127451 0.8127451 0.8127451
0.81960784 0.81960784 0.81960784
0.82156863 0.82156863 0.82156863
0.72352941 0.72352941 0.72352941
0.72745098 0.72745098 0.72745098
0.73235294 0.73235294 0.73235294
0.73529412 0.73529412 0.73529412
0.73921569 0.73921569 0.73921569
0.73964461 0.73964461 0.73964461
0.74264706 0.74264706 0.74264706
0.74442402 0.74442402 0.74442402
0.74656863 0.74656863 0.74656863
0.74920343 0.74920343 0.74920343
0.75453431 0.75453431 0.75453431
0.75876225 0.75876225 0.75876225
0.7625 0.7625 0.7625
0.76709559 0.76709559 0.76709559
0.77303922 0.77303922 0.77303922
0.78155637 0.78155637 0.78155637
0.78921569 0.78921569 0.78921569
0.79362745 0.79362745 0.79362745
0.79840686 0.79840686 0.79840686
0.80490196 0.80490196 0.80490196
0.81470588 0.81470588 0.81470588
0.82542892 0.82542892 0.82542892
0.83529412 0.83529412 0.83529412
0.83627451 0.83627451 0.83627451
0.83970588 0.83970588 0.83970588
0.76470588 0.76470588 0.76470588
0.76862745 0.76862745 0.76862745
0.77254902 0.77254902 0.77254902
0.77352941 0.77352941 0.77352941
0.77647059 0.77647059 0.77647059
0.77659314 0.77659314 0.77659314
0.77745098 0.77745098 0.77745098
0.78039216 0.78039216 0.78039216
0.78137255 0.78137255 0.78137255
0.78492647 0.78492647 0.78492647
0.78921569 0.78921569 0.78921569
0.79313725 0.79313725 0.79313725
0.79705882 0.79705882 0.79705882
0.80098039 0.80098039 0.80098039
0.80171569 0.80171569 0.80171569
0.80698529 0.80698529 0.80698529
0.81372549 0.81372549 0.81372549
0.82120098 0.82120098 0.82120098
0.82843137 0.82843137 0.82843137
0.83235294 0.83235294 0.83235294
0.83921569 0.83921569 0.83921569
0.8495098 0.8495098 0.8495098
0.85294118 0.85294118 0.85294118
0.85502451 0.85502451 0.85502451
0.85686275 0.85686275 0.85686275
0.80588235 0.80588235 0.80588235
0.80833333 0.80833333 0.80833333
0.80833333 0.80833333 0.80833333
0.80833333 0.80833333 0.80833333
0.80833333 0.80833333 0.80833333
0.80833333 0.80833333 0.80833333
0.81188725 0.81188725 0.81188725
0.81317402 0.81317402 0.81317402
0.81617647 0.81617647 0.81617647
0.81917892 0.81917892 0.81917892
0.82291667 0.82291667 0.82291667
0.82616422 0.82616422 0.82616422
0.82720588 0.82720588 0.82720588
0.82824755 0.82824755 0.82824755
0.83039216 0.83039216 0.83039216
0.83186275 0.83186275 0.83186275
0.83823529 0.83823529 0.83823529
0.84515931 0.84515931 0.84515931
0.85392157 0.85392157 0.85392157
0.85784314 0.85784314 0.85784314
0.86446078 0.86446078 0.86446078
0.86991422 0.86991422 0.86991422
0.87205882 0.87205882 0.87205882
0.87205882 0.87205882 0.87205882
0.87205882 0.87205882 0.87205882
0.83921569 0.83921569 0.83921569
0.83921569 0.83921569 0.83921569
0.83529412 0.83529412 0.83529412
0.83137255 0.83137255 0.83137255
0.83137255 0.83137255 0.83137255
0.83137255 0.83137255 0.83137255
0.83431373 0.83431373 0.83431373
0.83676471 0.83676471 0.83676471
0.83921569 0.83921569 0.83921569
0.84313725 0.84313725 0.84313725
0.84705882 0.84705882 0.84705882
0.84705882 0.84705882 0.84705882
0.84705882 0.84705882 0.84705882
0.84705882 0.84705882 0.84705882
0.84705882 0.84705882 0.84705882
0.85098039 0.85098039 0.85098039
0.85490196 0.85490196 0.85490196
0.8627451 0.8627451 0.8627451
0.87058824 0.87058824 0.87058824
0.87794118 0.87794118 0.87794118
0.88235294 0.88235294 0.88235294
0.88627451 0.88627451 0.88627451
0.88627451 0.88627451 0.88627451
0.88627451 0.88627451 0.88627451
0.88627451 0.88627451 0.88627451
0.023529412 0.023529412 0.023529412
0.023529412 0.023529412 0.023529412
0.024509804 0.024509804 0.024509804
0.031372549 0.031372549 0.031372549
0.039215686 0.039215686 0.039215686
0.044914216 0.044914216 0.044914216
0.050367647 0.050367647 0.050367647
0.047058824 0.047058824 0.047058824
0.043137255 0.043137255 0.043137255
0.040134804 0.040134804 0.040134804
0.037745098 0.037745098 0.037745098
0.043321078 0.043321078 0.043321078
0.06372549 0.06372549 0.06372549
0.084313725 0.084313725 0.084313725
0.10134804 0.10134804 0.10134804
0.11672794 0.11672794 0.11672794
0.13431373 0.13431373 0.13431373
0.16911765 0.16911765 0.16911765
0.20882353 0.20882353 0.20882353
0.25128676 0.25128676 0.25128676
0.29460784 0.29460784 0.29460784
0.34215686 0.34215686 0.34215686
0.39117647 0.39117647 0.39117647
0.44264706 0.44264706 0.44264706
0.4745098 0.4745098 0.4745098
0.023529412 0.023529412 0.023529412
0.023529412 0.023529412 0.023529412
0.024509804 0.024509804 0.024509804
0.031372549 0.031372549 0.031372549
0.040716912 0.040716912 0.040716912
0.04743413 0.04743413 0.04743413
0.053844975 0.053844975 0.053844975
0.054901961 0.054901961 0.054901961
0.053431373 0.053431373 0.053431373
0.051731005 0.051731005 0.051731005
0.051884191 0.051884191 0.051884191
0.061764706 0.061764706 0.061764706
0.081311275 0.081311275 0.081311275
0.10189951 0.10189951 0.10189951
0.11911765 0.11911765 0.11911765
0.1345435 0.1345435 0.1345435
0.15245098 0.15245098 0.15245098
0.18635876 0.18635876 0.18635876
0.22303922 0.22303922 0.22303922
0.26550245 0.26550245 0.26550245
0.30958946 0.30958946 0.30958946
0.35459559 0.35459559 0.35459559
0.40143995 0.40143995 0.40143995
0.44789369 0.44789369 0.44789369
0.47996324 0.47996324 0.47996324
0.023529412 0.023529412 0.023529412
0.023529412 0.023529412 0.023529412
0.025490196 0.025490196 0.025490196
0.035707721 0.035707721 0.035707721
0.045465686 0.045465686 0.045465686
0.05245098 0.05245098 0.05245098
0.059099265 0.059099265 0.059099265
0.059803922 0.059803922 0.059803922
0.061642157 0.061642157 0.061642157
0.06294424 0.06294424 0.06294424
0.072242647 0.072242647 0.072242647
0.087132353 0.087132353 0.087132353
0.10735294 0.10735294 0.10735294
0.12696078 0.12696078 0.12696078
0.14387255 0.14387255 0.14387255
0.16127451 0.16127451 0.16127451
0.18186275 0.18186275 0.18186275
