site/assets/luts/natron-haldclut--rollei-ortho-25--3c4f87a3e.cube
# LUTr-Project: LUTr — LUTrepository
# LUTr-Schema-Version: 1
# LUTr-ID: natron-haldclut--rollei-ortho-25--3c4f87a3e
# LUTr-Title: rollei ortho 25
# LUTr-Collection: Natron HaldCLUT
# LUTr-Collection-ID: natron-haldclut-presets
# LUTr-Source: https://github.com/NatronGitHub/clut
# LUTr-Source-File: submissions/natron-haldclut-presets/bw/rollei_ortho_25.png
# LUTr-Source-Format: PNG
# LUTr-Source-SHA256: b1adacf51d7c7f773ee25072626668f897dcc6516709e306311881d4d5446262
# LUTr-License: CC-BY-SA-4.0
# LUTr-License-URL: https://github.com/NatronGitHub/clut#license
# LUTr-Tags: creative, film, film-emulation, hald-clut, natron, png, cube
# LUTr-Transform-Class: film-emulation
# LUTr-Input-Color-Space: srgb
# LUTr-Output-Color-Space: srgb
# LUTr-Color-Space-Confidence: assumed-display-referred
# LUTr-Conversion-Method: PNG LUT image decoded at 16-bit and sampled to 25x25x25 3D CUBE
# LUTr-Conversion-Date: 2026-07-27
# LUTr-Conversion-Tool: LUTr scripts/convert-all-to-cube.mjs
# LUTr-Conversion-Grid: 25x25x25
# LUTr-Note: Preserve this metadata and the upstream license notices when redistributing.
TITLE "rollei ortho 25"
LUT_3D_SIZE 25
DOMAIN_MIN 0 0 0
DOMAIN_MAX 1 1 1
0 0 0
0.010294118 0.010294118 0.010294118
0.0068627451 0.0068627451 0.0068627451
0.010294118 0.010294118 0.010294118
0.0058823529 0.0058823529 0.0058823529
0.019607843 0.019607843 0.019607843
0.026470588 0.026470588 0.026470588
0.016666667 0.016666667 0.016666667
0.0078431373 0.0078431373 0.0078431373
0.0078431373 0.0078431373 0.0078431373
0.0078431373 0.0078431373 0.0078431373
0.010784314 0.010784314 0.010784314
0.021568627 0.021568627 0.021568627
0.012745098 0.012745098 0.012745098
0.020588235 0.020588235 0.020588235
0.0039215686 0.0039215686 0.0039215686
0.019607843 0.019607843 0.019607843
0.010784314 0.010784314 0.010784314
0.010784314 0.010784314 0.010784314
0.0078431373 0.0078431373 0.0078431373
0.011764706 0.011764706 0.011764706
0.021078431 0.021078431 0.021078431
0.023529412 0.023529412 0.023529412
0.014705882 0.014705882 0.014705882
0.011764706 0.011764706 0.011764706
0.011764706 0.011764706 0.011764706
0.014767157 0.014767157 0.014767157
0.014338235 0.014338235 0.014338235
0.017340686 0.017340686 0.017340686
0.018872549 0.018872549 0.018872549
0.017340686 0.017340686 0.017340686
0.018137255 0.018137255 0.018137255
0.020343137 0.020343137 0.020343137
0.018137255 0.018137255 0.018137255
0.020526961 0.020526961 0.020526961
0.023039216 0.023039216 0.023039216
0.026102941 0.026102941 0.026102941
0.026715686 0.026715686 0.026715686
0.025796569 0.025796569 0.025796569
0.02745098 0.02745098 0.02745098
0.02745098 0.02745098 0.02745098
0.032352941 0.032352941 0.032352941
0.032965686 0.032965686 0.032965686
0.033578431 0.033578431 0.033578431
0.037561275 0.037561275 0.037561275
0.033823529 0.033823529 0.033823529
0.035110294 0.035110294 0.035110294
0.037377451 0.037377451 0.037377451
0.042095588 0.042095588 0.042095588
0.037745098 0.037745098 0.037745098
0.031372549 0.031372549 0.031372549
0.03002451 0.03002451 0.03002451
0.026470588 0.026470588 0.026470588
0.025612745 0.025612745 0.025612745
0.028921569 0.028921569 0.028921569
0.03370098 0.03370098 0.03370098
0.030882353 0.030882353 0.030882353
0.031862745 0.031862745 0.031862745
0.037254902 0.037254902 0.037254902
0.036887255 0.036887255 0.036887255
0.040441176 0.040441176 0.040441176
0.038848039 0.038848039 0.038848039
0.044117647 0.044117647 0.044117647
0.042156863 0.042156863 0.042156863
0.041911765 0.041911765 0.041911765
0.04497549 0.04497549 0.04497549
0.046078431 0.046078431 0.046078431
0.049387255 0.049387255 0.049387255
0.046078431 0.046078431 0.046078431
0.049877451 0.049877451 0.049877451
0.050980392 0.050980392 0.050980392
0.052083333 0.052083333 0.052083333
0.053921569 0.053921569 0.053921569
0.05502451 0.05502451 0.05502451
0.057843137 0.057843137 0.057843137
0.045588235 0.045588235 0.045588235
0.047855392 0.047855392 0.047855392
0.053063725 0.053063725 0.053063725
0.05 0.05 0.05
0.049754902 0.049754902 0.049754902
0.053492647 0.053492647 0.053492647
0.053921569 0.053921569 0.053921569
0.057536765 0.057536765 0.057536765
0.057352941 0.057352941 0.057352941
0.055698529 0.055698529 0.055698529
0.060294118 0.060294118 0.060294118
0.061764706 0.061764706 0.061764706
0.06004902 0.06004902 0.06004902
0.065686275 0.065686275 0.065686275
0.067647059 0.067647059 0.067647059
0.079105392 0.079105392 0.079105392
0.065196078 0.065196078 0.065196078
0.067463235 0.067463235 0.067463235
0.072058824 0.072058824 0.072058824
0.076531863 0.076531863 0.076531863
0.071813725 0.071813725 0.071813725
0.073468137 0.073468137 0.073468137
0.076470588 0.076470588 0.076470588
0.077267157 0.077267157 0.077267157
0.074019608 0.074019608 0.074019608
0.074509804 0.074509804 0.074509804
0.076470588 0.076470588 0.076470588
0.07254902 0.07254902 0.07254902
0.070833333 0.070833333 0.070833333
0.075490196 0.075490196 0.075490196
0.080392157 0.080392157 0.080392157
0.074019608 0.074019608 0.074019608
0.076470588 0.076470588 0.076470588
0.082352941 0.082352941 0.082352941
0.082352941 0.082352941 0.082352941
0.081862745 0.081862745 0.081862745
0.082107843 0.082107843 0.082107843
0.085294118 0.085294118 0.085294118
0.084558824 0.084558824 0.084558824
0.090196078 0.090196078 0.090196078
0.090196078 0.090196078 0.090196078
0.090196078 0.090196078 0.090196078
0.095343137 0.095343137 0.095343137
0.10392157 0.10392157 0.10392157
0.096323529 0.096323529 0.096323529
0.095098039 0.095098039 0.095098039
0.096078431 0.096078431 0.096078431
0.095588235 0.095588235 0.095588235
0.096813725 0.096813725 0.096813725
0.10196078 0.10196078 0.10196078
0.095098039 0.095098039 0.095098039
0.092463235 0.092463235 0.092463235
0.092769608 0.092769608 0.092769608
0.095955882 0.095955882 0.095955882
0.10490196 0.10490196 0.10490196
0.11084559 0.11084559 0.11084559
0.10747549 0.10747549 0.10747549
0.10539216 0.10539216 0.10539216
0.095588235 0.095588235 0.095588235
0.10294118 0.10294118 0.10294118
0.10588235 0.10588235 0.10588235
0.10294118 0.10294118 0.10294118
0.10318627 0.10318627 0.10318627
0.11084559 0.11084559 0.11084559
0.11127451 0.11127451 0.11127451
0.10667892 0.10667892 0.10667892
0.11421569 0.11421569 0.11421569
0.1223652 0.1223652 0.1223652
0.11372549 0.11372549 0.11372549
0.11072304 0.11072304 0.11072304
0.11495098 0.11495098 0.11495098
0.11519608 0.11519608 0.11519608
0.12291667 0.12291667 0.12291667
0.12009804 0.12009804 0.12009804
0.13039216 0.13039216 0.13039216
0.11176471 0.11176471 0.11176471
0.11176471 0.11176471 0.11176471
0.11789216 0.11789216 0.11789216
0.12463235 0.12463235 0.12463235
0.1254902 0.1254902 0.1254902
0.13235294 0.13235294 0.13235294
0.13529412 0.13529412 0.13529412
0.12928922 0.12928922 0.12928922
0.12254902 0.12254902 0.12254902
0.12242647 0.12242647 0.12242647
0.12352941 0.12352941 0.12352941
0.12352941 0.12352941 0.12352941
0.12696078 0.12696078 0.12696078
0.13835784 0.13835784 0.13835784
0.13848039 0.13848039 0.13848039
0.13039216 0.13039216 0.13039216
0.13137255 0.13137255 0.13137255
0.13811275 0.13811275 0.13811275
0.13504902 0.13504902 0.13504902
0.13480392 0.13480392 0.13480392
0.14411765 0.14411765 0.14411765
0.13835784 0.13835784 0.13835784
0.14460784 0.14460784 0.14460784
0.13982843 0.13982843 0.13982843
0.14411765 0.14411765 0.14411765
0.13235294 0.13235294 0.13235294
0.1377451 0.1377451 0.1377451
0.14191176 0.14191176 0.14191176
0.13443627 0.13443627 0.13443627
0.13946078 0.13946078 0.13946078
0.14656863 0.14656863 0.14656863
0.15159314 0.15159314 0.15159314
0.14957108 0.14957108 0.14957108
0.14411765 0.14411765 0.14411765
0.13927696 0.13927696 0.13927696
0.14227941 0.14227941 0.14227941
0.14773284 0.14773284 0.14773284
0.15073529 0.15073529 0.15073529
0.16029412 0.16029412 0.16029412
0.16078431 0.16078431 0.16078431
0.15980392 0.15980392 0.15980392
0.15343137 0.15343137 0.15343137
0.15232843 0.15232843 0.15232843
0.15833333 0.15833333 0.15833333
0.15980392 0.15980392 0.15980392
0.16372549 0.16372549 0.16372549
0.16109069 0.16109069 0.16109069
0.15980392 0.15980392 0.15980392
0.15496324 0.15496324 0.15496324
0.15588235 0.15588235 0.15588235
0.15686275 0.15686275 0.15686275
0.16323529 0.16323529 0.16323529
0.15980392 0.15980392 0.15980392
0.15686275 0.15686275 0.15686275
0.15882353 0.15882353 0.15882353
0.16078431 0.16078431 0.16078431
0.16470588 0.16470588 0.16470588
0.16470588 0.16470588 0.16470588
0.16470588 0.16470588 0.16470588
0.16078431 0.16078431 0.16078431
0.16862745 0.16862745 0.16862745
0.17254902 0.17254902 0.17254902
0.17254902 0.17254902 0.17254902
0.18039216 0.18039216 0.18039216
0.18039216 0.18039216 0.18039216
0.18039216 0.18039216 0.18039216
0.17647059 0.17647059 0.17647059
0.17941176 0.17941176 0.17941176
0.17254902 0.17254902 0.17254902
0.17647059 0.17647059 0.17647059
0.18235294 0.18235294 0.18235294
0.18431373 0.18431373 0.18431373
0.18431373 0.18431373 0.18431373
0.18039216 0.18039216 0.18039216
0.17647059 0.17647059 0.17647059
0.17352941 0.17352941 0.17352941
0.17745098 0.17745098 0.17745098
0.18137255 0.18137255 0.18137255
0.18137255 0.18137255 0.18137255
0.18382353 0.18382353 0.18382353
0.18137255 0.18137255 0.18137255
0.17843137 0.17843137 0.17843137
0.18137255 0.18137255 0.18137255
0.18529412 0.18529412 0.18529412
0.18529412 0.18529412 0.18529412
0.18958333 0.18958333 0.18958333
0.19313725 0.19313725 0.19313725
0.19313725 0.19313725 0.19313725
0.19491422 0.19491422 0.19491422
0.20036765 0.20036765 0.20036765
0.20098039 0.20098039 0.20098039
0.20098039 0.20098039 0.20098039
0.19613971 0.19613971 0.19613971
0.19522059 0.19522059 0.19522059
0.20300245 0.20300245 0.20300245
0.20220588 0.20220588 0.20220588
0.20490196 0.20490196 0.20490196
0.20490196 0.20490196 0.20490196
0.20343137 0.20343137 0.20343137
0.20098039 0.20098039 0.20098039
0.20196078 0.20196078 0.20196078
0.20477941 0.20477941 0.20477941
0.20588235 0.20588235 0.20588235
0.20196078 0.20196078 0.20196078
0.20588235 0.20588235 0.20588235
0.20686275 0.20686275 0.20686275
0.20686275 0.20686275 0.20686275
0.20686275 0.20686275 0.20686275
0.20588235 0.20588235 0.20588235
0.20404412 0.20404412 0.20404412
0.20759804 0.20759804 0.20759804
0.21458333 0.21458333 0.21458333
0.21029412 0.21029412 0.21029412
0.21029412 0.21029412 0.21029412
0.21764706 0.21764706 0.21764706
0.22120098 0.22120098 0.22120098
0.21764706 0.21764706 0.21764706
0.22745098 0.22745098 0.22745098
0.22156863 0.22156863 0.22156863
0.22291667 0.22291667 0.22291667
0.21862745 0.21862745 0.21862745
0.22156863 0.22156863 0.22156863
0.2254902 0.2254902 0.2254902
0.22156863 0.22156863 0.22156863
0.21764706 0.21764706 0.21764706
0.22647059 0.22647059 0.22647059
0.23020833 0.23020833 0.23020833
0.22904412 0.22904412 0.22904412
0.22297794 0.22297794 0.22297794
0.22843137 0.22843137 0.22843137
0.2338848 0.2338848 0.2338848
0.23688725 0.23688725 0.23688725
0.23382353 0.23382353 0.23382353
0.23382353 0.23382353 0.23382353
0.23167892 0.23167892 0.23167892
0.23529412 0.23529412 0.23529412
0.24509804 0.24509804 0.24509804
0.2377451 0.2377451 0.2377451
0.23823529 0.23823529 0.23823529
0.24166667 0.24166667 0.24166667
0.2403799 0.2403799 0.2403799
0.23480392 0.23480392 0.23480392
0.24197304 0.24197304 0.24197304
0.24656863 0.24656863 0.24656863
0.24564951 0.24564951 0.24564951
0.24534314 0.24534314 0.24534314
0.2495098 0.2495098 0.2495098
0.25343137 0.25343137 0.25343137
0.25165441 0.25165441 0.25165441
0.2495098 0.2495098 0.2495098
0.25686275 0.25686275 0.25686275
0.25808824 0.25808824 0.25808824
0.26029412 0.26029412 0.26029412
0.25710784 0.25710784 0.25710784
0.25980392 0.25980392 0.25980392
0.26470588 0.26470588 0.26470588
0.26470588 0.26470588 0.26470588
0.26470588 0.26470588 0.26470588
0.26078431 0.26078431 0.26078431
0.25759804 0.25759804 0.25759804
0.26127451 0.26127451 0.26127451
0.26666667 0.26666667 0.26666667
0.26960784 0.26960784 0.26960784
0.27254902 0.27254902 0.27254902
0.27598039 0.27598039 0.27598039
0.27107843 0.27107843 0.27107843
0.26666667 0.26666667 0.26666667
0.26862745 0.26862745 0.26862745
0.27303922 0.27303922 0.27303922
0.2745098 0.2745098 0.2745098
0.27941176 0.27941176 0.27941176
0.27671569 0.27671569 0.27671569
0.28039216 0.28039216 0.28039216
0.28431373 0.28431373 0.28431373
0.28431373 0.28431373 0.28431373
0.29362745 0.29362745 0.29362745
0.29099265 0.29099265 0.29099265
0.29166667 0.29166667 0.29166667
0.29166667 0.29166667 0.29166667
0.29166667 0.29166667 0.29166667
0.29558824 0.29558824 0.29558824
0.29558824 0.29558824 0.29558824
0.29558824 0.29558824 0.29558824
0.29166667 0.29166667 0.29166667
0.2877451 0.2877451 0.2877451
0.28909314 0.28909314 0.28909314
0.29558824 0.29558824 0.29558824
0.30147059 0.30147059 0.30147059
0.30343137 0.30343137 0.30343137
0.30343137 0.30343137 0.30343137
0.30196078 0.30196078 0.30196078
0.29901961 0.29901961 0.29901961
0.29932598 0.29932598 0.29932598
0.3004902 0.3004902 0.3004902
0.30294118 0.30294118 0.30294118
0.29926471 0.29926471 0.29926471
0.3 0.3 0.3
0.30723039 0.30723039 0.30723039
0.3127451 0.3127451 0.3127451
0.31862745 0.31862745 0.31862745
0.31470588 0.31470588 0.31470588
0.31887255 0.31887255 0.31887255
0.32254902 0.32254902 0.32254902
0.32254902 0.32254902 0.32254902
0.32254902 0.32254902 0.32254902
0.32647059 0.32647059 0.32647059
0.32647059 0.32647059 0.32647059
0.32647059 0.32647059 0.32647059
0.32254902 0.32254902 0.32254902
0.3189951 0.3189951 0.3189951
0.32573529 0.32573529 0.32573529
0.32647059 0.32647059 0.32647059
0.33039216 0.33039216 0.33039216
0.33137255 0.33137255 0.33137255
0.33063725 0.33063725 0.33063725
0.33039216 0.33039216 0.33039216
0.32647059 0.32647059 0.32647059
0.32647059 0.32647059 0.32647059
0.33039216 0.33039216 0.33039216
0.33333333 0.33333333 0.33333333
0.33333333 0.33333333 0.33333333
0.33345588 0.33345588 0.33345588
0.3372549 0.3372549 0.3372549
0.34215686 0.34215686 0.34215686
0.34607843 0.34607843 0.34607843
0.34460784 0.34460784 0.34460784
0.3495098 0.3495098 0.3495098
0.35245098 0.35245098 0.35245098
0.3495098 0.3495098 0.3495098
0.35147059 0.35147059 0.35147059
0.35392157 0.35392157 0.35392157
0.35735294 0.35735294 0.35735294
0.35735294 0.35735294 0.35735294
0.35490196 0.35490196 0.35490196
0.35251225 0.35251225 0.35251225
0.35943627 0.35943627 0.35943627
0.36256127 0.36256127 0.36256127
0.35735294 0.35735294 0.35735294
0.35735294 0.35735294 0.35735294
0.35698529 0.35698529 0.35698529
0.3588848 0.3588848 0.3588848
0.35882353 0.35882353 0.35882353
0.36127451 0.36127451 0.36127451
0.36764706 0.36764706 0.36764706
0.37058824 0.37058824 0.37058824
0.36985294 0.36985294 0.36985294
0.36930147 0.36930147 0.36930147
0.37058824 0.37058824 0.37058824
0.37003676 0.37003676 0.37003676
0.37156863 0.37156863 0.37156863
0.38823529 0.38823529 0.38823529
0.39852941 0.39852941 0.39852941
0.38823529 0.38823529 0.38823529
0.38431373 0.38431373 0.38431373
0.38627451 0.38627451 0.38627451
0.38872549 0.38872549 0.38872549
0.39607843 0.39607843 0.39607843
0.39215686 0.39215686 0.39215686
0.39215686 0.39215686 0.39215686
0.39460784 0.39460784 0.39460784
0.39607843 0.39607843 0.39607843
0.39264706 0.39264706 0.39264706
0.39803922 0.39803922 0.39803922
0.39362745 0.39362745 0.39362745
0.39509804 0.39509804 0.39509804
0.39607843 0.39607843 0.39607843
0.39215686 0.39215686 0.39215686
0.39852941 0.39852941 0.39852941
0.40784314 0.40784314 0.40784314
0.40784314 0.40784314 0.40784314
0.40392157 0.40392157 0.40392157
0.40441176 0.40441176 0.40441176
0.41078431 0.41078431 0.41078431
0.41029412 0.41029412 0.41029412
0.41176471 0.41176471 0.41176471
0.42941176 0.42941176 0.42941176
0.43088235 0.43088235 0.43088235
0.4317402 0.4317402 0.4317402
0.42775735 0.42775735 0.42775735
0.42352941 0.42352941 0.42352941
0.43382353 0.43382353 0.43382353
0.44080882 0.44080882 0.44080882
0.43823529 0.43823529 0.43823529
0.42696078 0.42696078 0.42696078
0.4348652 0.4348652 0.4348652
0.43333333 0.43333333 0.43333333
0.43903186 0.43903186 0.43903186
0.43946078 0.43946078 0.43946078
0.43449755 0.43449755 0.43449755
0.43970588 0.43970588 0.43970588
0.44117647 0.44117647 0.44117647
0.44117647 0.44117647 0.44117647
0.45300245 0.45300245 0.45300245
0.4557598 0.4557598 0.4557598
0.45539216 0.45539216 0.45539216
0.44877451 0.44877451 0.44877451
0.45018382 0.45018382 0.45018382
0.45294118 0.45294118 0.45294118
0.46231618 0.46231618 0.46231618
0.46960784 0.46960784 0.46960784
0.48235294 0.48235294 0.48235294
0.48529412 0.48529412 0.48529412
0.48235294 0.48235294 0.48235294
0.4817402 0.4817402 0.4817402
0.48284314 0.48284314 0.48284314
0.48823529 0.48823529 0.48823529
0.48823529 0.48823529 0.48823529
0.48835784 0.48835784 0.48835784
0.49313725 0.49313725 0.49313725
0.48823529 0.48823529 0.48823529
0.48921569 0.48921569 0.48921569
0.48578431 0.48578431 0.48578431
0.49264706 0.49264706 0.49264706
0.49742647 0.49742647 0.49742647
0.50073529 0.50073529 0.50073529
0.49987745 0.49987745 0.49987745
0.50098039 0.50098039 0.50098039
0.50686275 0.50686275 0.50686275
0.50686275 0.50686275 0.50686275
0.50784314 0.50784314 0.50784314
0.50931373 0.50931373 0.50931373
0.51666667 0.51666667 0.51666667
0.5127451 0.5127451 0.5127451
0.51862745 0.51862745 0.51862745
0.52254902 0.52254902 0.52254902
0.55735294 0.55735294 0.55735294
0.56127451 0.56127451 0.56127451
0.55723039 0.55723039 0.55723039
0.55300245 0.55300245 0.55300245
0.55514706 0.55514706 0.55514706
0.55735294 0.55735294 0.55735294
0.55698529 0.55698529 0.55698529
0.56243873 0.56243873 0.56243873
0.56862745 0.56862745 0.56862745
0.56813725 0.56813725 0.56813725
0.5685049 0.5685049 0.5685049
0.56813725 0.56813725 0.56813725
0.56862745 0.56862745 0.56862745
0.56911765 0.56911765 0.56911765
0.5754902 0.5754902 0.5754902
0.57990196 0.57990196 0.57990196
0.56617647 0.56617647 0.56617647
0.58039216 0.58039216 0.58039216
0.58039216 0.58039216 0.58039216
0.58039216 0.58039216 0.58039216
0.58088235 0.58088235 0.58088235
0.59767157 0.59767157 0.59767157
0.59215686 0.59215686 0.59215686
0.59344363 0.59344363 0.59344363
0.5995098 0.5995098 0.5995098
0.63333333 0.63333333 0.63333333
0.63602941 0.63602941 0.63602941
0.63578431 0.63578431 0.63578431
0.64093137 0.64093137 0.64093137
0.64019608 0.64019608 0.64019608
0.63529412 0.63529412 0.63529412
0.63823529 0.63823529 0.63823529
0.64656863 0.64656863 0.64656863
0.64901961 0.64901961 0.64901961
0.6497549 0.6497549 0.6497549
0.65098039 0.65098039 0.65098039
0.65294118 0.65294118 0.65294118
0.65196078 0.65196078 0.65196078
0.65490196 0.65490196 0.65490196
0.66176471 0.66176471 0.66176471
0.66397059 0.66397059 0.66397059
0.66078431 0.66078431 0.66078431
0.66593137 0.66593137 0.66593137
0.6627451 0.6627451 0.6627451
0.6627451 0.6627451 0.6627451
0.66078431 0.66078431 0.66078431
0.66691176 0.66691176 0.66691176
0.67205882 0.67205882 0.67205882
0.67132353 0.67132353 0.67132353
0.67254902 0.67254902 0.67254902
0.70441176 0.70441176 0.70441176
0.70471814 0.70471814 0.70471814
0.70833333 0.70833333 0.70833333
0.71176471 0.71176471 0.71176471
0.71004902 0.71004902 0.71004902
0.70447304 0.70447304 0.70447304
0.70490196 0.70490196 0.70490196
0.71127451 0.71127451 0.71127451
0.71372549 0.71372549 0.71372549
0.70637255 0.70637255 0.70637255
0.70931373 0.70931373 0.70931373
0.71911765 0.71911765 0.71911765
0.71862745 0.71862745 0.71862745
0.72003676 0.72003676 0.72003676
0.71960784 0.71960784 0.71960784
0.71470588 0.71470588 0.71470588
0.70833333 0.70833333 0.70833333
0.71813725 0.71813725 0.71813725
0.7245098 0.7245098 0.7245098
0.72745098 0.72745098 0.72745098
0.71985294 0.71985294 0.71985294
0.71617647 0.71617647 0.71617647
0.71875 0.71875 0.71875
0.725 0.725 0.725
0.73137255 0.73137255 0.73137255
0.75588235 0.75588235 0.75588235
0.7564951 0.7564951 0.7564951
0.75686275 0.75686275 0.75686275
0.75588235 0.75588235 0.75588235
0.75588235 0.75588235 0.75588235
0.75723039 0.75723039 0.75723039
0.76593137 0.76593137 0.76593137
0.76593137 0.76593137 0.76593137
0.76862745 0.76862745 0.76862745
0.76017157 0.76017157 0.76017157
0.75686275 0.75686275 0.75686275
0.76066176 0.76066176 0.76066176
0.76666667 0.76666667 0.76666667
0.76458333 0.76458333 0.76458333
0.76372549 0.76372549 0.76372549
0.7622549 0.7622549 0.7622549
0.75588235 0.75588235 0.75588235
0.76262255 0.76262255 0.76262255
0.76568627 0.76568627 0.76568627
0.77156863 0.77156863 0.77156863
0.76813725 0.76813725 0.76813725
0.76372549 0.76372549 0.76372549
0.76666667 0.76666667 0.76666667
0.77009804 0.77009804 0.77009804
0.77254902 0.77254902 0.77254902
0.80735294 0.80735294 0.80735294
0.80643382 0.80643382 0.80643382
0.80196078 0.80196078 0.80196078
0.80196078 0.80196078 0.80196078
0.80269608 0.80269608 0.80269608
0.80373775 0.80373775 0.80373775
0.80919118 0.80919118 0.80919118
0.80980392 0.80980392 0.80980392
0.80980392 0.80980392 0.80980392
0.80435049 0.80435049 0.80435049
0.80343137 0.80343137 0.80343137
0.80716912 0.80716912 0.80716912
0.80980392 0.80980392 0.80980392
0.81109069 0.81109069 0.81109069
0.80735294 0.80735294 0.80735294
0.80980392 0.80980392 0.80980392
0.80196078 0.80196078 0.80196078
0.80980392 0.80980392 0.80980392
0.80833333 0.80833333 0.80833333
0.81519608 0.81519608 0.81519608
0.81053922 0.81053922 0.81053922
0.81390931 0.81390931 0.81390931
0.81519608 0.81519608 0.81519608
0.81519608 0.81519608 0.81519608
0.81911765 0.81911765 0.81911765
0.85490196 0.85490196 0.85490196
0.84460784 0.84460784 0.84460784
0.83921569 0.83921569 0.83921569
0.83921569 0.83921569 0.83921569
0.84313725 0.84313725 0.84313725
0.85147059 0.85147059 0.85147059
0.84803922 0.84803922 0.84803922
0.84460784 0.84460784 0.84460784
0.85490196 0.85490196 0.85490196
0.84313725 0.84313725 0.84313725
0.84411765 0.84411765 0.84411765
0.85784314 0.85784314 0.85784314
0.85098039 0.85098039 0.85098039
0.85833333 0.85833333 0.85833333
0.85098039 0.85098039 0.85098039
0.85588235 0.85588235 0.85588235
0.84313725 0.84313725 0.84313725
0.85392157 0.85392157 0.85392157
0.85196078 0.85196078 0.85196078
0.85588235 0.85588235 0.85588235
0.84901961 0.84901961 0.84901961
0.85588235 0.85588235 0.85588235
0.85882353 0.85882353 0.85882353
0.85882353 0.85882353 0.85882353
0.86666667 0.86666667 0.86666667
0.014215686 0.014215686 0.014215686
0.021507353 0.021507353 0.021507353
0.020588235 0.020588235 0.020588235
0.021568627 0.021568627 0.021568627
0.029656863 0.029656863 0.029656863
0.02432598 0.02432598 0.02432598
0.031495098 0.031495098 0.031495098
0.025061275 0.025061275 0.025061275
0.025980392 0.025980392 0.025980392
0.028431373 0.028431373 0.028431373
0.02745098 0.02745098 0.02745098
0.032046569 0.032046569 0.032046569
0.031617647 0.031617647 0.031617647
0.032046569 0.032046569 0.032046569
0.033823529 0.033823529 0.033823529
0.040502451 0.040502451 0.040502451
0.04754902 0.04754902 0.04754902
0.040379902 0.040379902 0.040379902
0.037254902 0.037254902 0.037254902
0.043443627 0.043443627 0.043443627
0.046078431 0.046078431 0.046078431
0.043933824 0.043933824 0.043933824
0.046813725 0.046813725 0.046813725
0.05189951 0.05189951 0.05189951
0.054411765 0.054411765 0.054411765
0.033884804 0.033884804 0.033884804
0.032988664 0.032988664 0.032988664
0.036151961 0.036151961 0.036151961
0.036335784 0.036335784 0.036335784
0.03661152 0.03661152 0.03661152
0.041360294 0.041360294 0.041360294
0.042876838 0.042876838 0.042876838
0.04152114 0.04152114 0.04152114
0.043627451 0.043627451 0.043627451
0.04475337 0.04475337 0.04475337
0.046859681 0.046859681 0.046859681
0.049019608 0.049019608 0.049019608
0.049019608 0.049019608 0.049019608
0.049019608 0.049019608 0.049019608
0.051087623 0.051087623 0.051087623
0.052022059 0.052022059 0.052022059
0.056311275 0.056311275 0.056311275
0.055047488 0.055047488 0.055047488
0.056632966 0.056632966 0.056632966
0.061282169 0.061282169 0.061282169
0.059283088 0.059283088 0.059283088
0.057169118 0.057169118 0.057169118
0.065579044 0.065579044 0.065579044
0.064705882 0.064705882 0.064705882
0.065257353 0.065257353 0.065257353
0.052941176 0.052941176 0.052941176
0.05268076 0.05268076 0.05268076
0.052726716 0.052726716 0.052726716
0.052588848 0.052588848 0.052588848
0.053553922 0.053553922 0.053553922
0.056510417 0.056510417 0.056510417
