site/assets/luts/natron-haldclut--polaroid-665--0a5aa202a.cube
# LUTr-Project: LUTr — LUTrepository
# LUTr-Schema-Version: 1
# LUTr-ID: natron-haldclut--polaroid-665--0a5aa202a
# LUTr-Title: polaroid 665
# LUTr-Collection: Natron HaldCLUT
# LUTr-Collection-ID: natron-haldclut-presets
# LUTr-Source: https://github.com/NatronGitHub/clut
# LUTr-Source-File: submissions/natron-haldclut-presets/instant_pro/polaroid_665.png
# LUTr-Source-Format: PNG
# LUTr-Source-SHA256: 907145984f712239fcc27a8a7614ee5b7dc72dca6adbbc37e852a3456278f208
# LUTr-License: CC-BY-SA-4.0
# LUTr-License-URL: https://github.com/NatronGitHub/clut#license
# LUTr-Tags: creative, film, film-emulation, hald-clut, natron, png, cube
# LUTr-Transform-Class: film-emulation
# LUTr-Input-Color-Space: srgb
# LUTr-Output-Color-Space: srgb
# LUTr-Color-Space-Confidence: assumed-display-referred
# LUTr-Conversion-Method: PNG LUT image decoded at 16-bit and sampled to 25x25x25 3D CUBE
# LUTr-Conversion-Date: 2026-07-27
# LUTr-Conversion-Tool: LUTr scripts/convert-all-to-cube.mjs
# LUTr-Conversion-Grid: 25x25x25
# LUTr-Note: Preserve this metadata and the upstream license notices when redistributing.
TITLE "polaroid 665"
LUT_3D_SIZE 5
DOMAIN_MIN 0 0 0
DOMAIN_MAX 1 1 1
0.050980392 0.050980392 0.050980392
0.068627451 0.068627451 0.068627451
0.15686275 0.15686275 0.15686275
0.28823529 0.28823529 0.28823529
0.46666667 0.46666667 0.46666667
0.1245098 0.1245098 0.1245098
0.12818627 0.12818627 0.12818627
0.22254902 0.22254902 0.22254902
0.32720588 0.32720588 0.32720588
0.50098039 0.50098039 0.50098039
0.28431373 0.28431373 0.28431373
0.30539216 0.30539216 0.30539216
0.31960784 0.31960784 0.31960784
0.41617647 0.41617647 0.41617647
0.60392157 0.60392157 0.60392157
0.51470588 0.51470588 0.51470588
0.5375 0.5375 0.5375
0.55392157 0.55392157 0.55392157
0.5745098 0.5745098 0.5745098
0.72745098 0.72745098 0.72745098
0.83137255 0.83137255 0.83137255
0.83529412 0.83529412 0.83529412
0.84901961 0.84901961 0.84901961
0.87058824 0.87058824 0.87058824
0.90196078 0.90196078 0.90196078
0.14313725 0.14313725 0.14313725
0.15073529 0.15073529 0.15073529
0.24362745 0.24362745 0.24362745
0.35 0.35 0.35
0.48235294 0.48235294 0.48235294
0.1745098 0.1745098 0.1745098
0.21660539 0.21660539 0.21660539
0.2872549 0.2872549 0.2872549
0.38651961 0.38651961 0.38651961
0.52647059 0.52647059 0.52647059
0.34607843 0.34607843 0.34607843
0.35502451 0.35502451 0.35502451
0.3747549 0.3747549 0.3747549
0.47794118 0.47794118 0.47794118
0.64411765 0.64411765 0.64411765
0.56397059 0.56397059 0.56397059
0.5747549 0.5747549 0.5747549
0.58823529 0.58823529 0.58823529
0.61158088 0.61158088 0.61158088
0.75 0.75 0.75
0.83529412 0.83529412 0.83529412
0.86323529 0.86323529 0.86323529
0.87745098 0.87745098 0.87745098
0.88210784 0.88210784 0.88210784
0.90196078 0.90196078 0.90196078
0.31960784 0.31960784 0.31960784
0.33088235 0.33088235 0.33088235
0.37156863 0.37156863 0.37156863
0.4754902 0.4754902 0.4754902
0.63137255 0.63137255 0.63137255
0.3754902 0.3754902 0.3754902
0.38713235 0.38713235 0.38713235
0.40882353 0.40882353 0.40882353
0.50710784 0.50710784 0.50710784
0.64803922 0.64803922 0.64803922
0.41078431 0.41078431 0.41078431
0.45098039 0.45098039 0.45098039
0.50784314 0.50784314 0.50784314
0.59289216 0.59289216 0.59289216
0.69901961 0.69901961 0.69901961
0.62990196 0.62990196 0.62990196
0.64889706 0.64889706 0.64889706
0.67990196 0.67990196 0.67990196
0.70441176 0.70441176 0.70441176
0.79362745 0.79362745 0.79362745
0.8745098 0.8745098 0.8745098
0.87107843 0.87107843 0.87107843
0.89117647 0.89117647 0.89117647
0.90588235 0.90588235 0.90588235
0.92941176 0.92941176 0.92941176
0.60490196 0.60490196 0.60490196
0.60490196 0.60490196 0.60490196
0.61666667 0.61666667 0.61666667
0.64485294 0.64485294 0.64485294
0.7627451 0.7627451 0.7627451
0.63921569 0.63921569 0.63921569
0.6408701 0.6408701 0.6408701
0.65637255 0.65637255 0.65637255
0.66666667 0.66666667 0.66666667
0.75294118 0.75294118 0.75294118
0.67892157 0.67892157 0.67892157
0.68982843 0.68982843 0.68982843
0.71642157 0.71642157 0.71642157
0.72855392 0.72855392 0.72855392
0.83137255 0.83137255 0.83137255
0.71372549 0.71372549 0.71372549
0.71004902 0.71004902 0.71004902
0.75919118 0.75919118 0.75919118
0.81721814 0.81721814 0.81721814
0.88504902 0.88504902 0.88504902
0.85784314 0.85784314 0.85784314
0.88529412 0.88529412 0.88529412
0.90392157 0.90392157 0.90392157
0.93897059 0.93897059 0.93897059
0.94607843 0.94607843 0.94607843
0.88627451 0.88627451 0.88627451
0.88823529 0.88823529 0.88823529
0.89607843 0.89607843 0.89607843
0.89411765 0.89411765 0.89411765
0.90588235 0.90588235 0.90588235
0.89313725 0.89313725 0.89313725
0.88039216 0.88039216 0.88039216
0.88921569 0.88921569 0.88921569
0.90588235 0.90588235 0.90588235
0.89117647 0.89117647 0.89117647
0.91372549 0.91372549 0.91372549
0.89509804 0.89509804 0.89509804
0.91960784 0.91960784 0.91960784
0.90196078 0.90196078 0.90196078
0.93529412 0.93529412 0.93529412
0.92647059 0.92647059 0.92647059
0.9254902 0.9254902 0.9254902
0.9377451 0.9377451 0.9377451
0.94607843 0.94607843 0.94607843
0.94803922 0.94803922 0.94803922
0.94901961 0.94901961 0.94901961
0.95196078 0.95196078 0.95196078
0.94901961 0.94901961 0.94901961
0.96470588 0.96470588 0.96470588
0.99607843 0.99607843 0.99607843
