site/assets/luts/natron-haldclut--polaroid-px-680-cold---56747663b.cube
# LUTr-Project: LUTr — LUTrepository
# LUTr-Schema-Version: 1
# LUTr-ID: natron-haldclut--polaroid-px-680-cold---56747663b
# LUTr-Title: polaroid px-680 cold -
# LUTr-Collection: Natron HaldCLUT
# LUTr-Collection-ID: natron-haldclut-presets
# LUTr-Source: https://github.com/NatronGitHub/clut
# LUTr-Source-File: submissions/natron-haldclut-presets/instant_consumer/polaroid_px-680_cold_-.png
# LUTr-Source-Format: PNG
# LUTr-Source-SHA256: 0d67b6eb02c681121ac0c3a8f603dfa6eb745b0b02d4c9471ad9744170290532
# LUTr-License: CC-BY-SA-4.0
# LUTr-License-URL: https://github.com/NatronGitHub/clut#license
# LUTr-Tags: creative, film, film-emulation, hald-clut, natron, png, cool, cube
# LUTr-Transform-Class: film-emulation
# LUTr-Input-Color-Space: srgb
# LUTr-Output-Color-Space: srgb
# LUTr-Color-Space-Confidence: assumed-display-referred
# LUTr-Conversion-Method: PNG LUT image decoded at 16-bit and sampled to 25x25x25 3D CUBE
# LUTr-Conversion-Date: 2026-07-27
# LUTr-Conversion-Tool: LUTr scripts/convert-all-to-cube.mjs
# LUTr-Conversion-Grid: 25x25x25
# LUTr-Note: Preserve this metadata and the upstream license notices when redistributing.
TITLE "polaroid px-680 cold -"
LUT_3D_SIZE 9
DOMAIN_MIN 0 0 0
DOMAIN_MAX 1 1 1
0.0039215686 0.10196078 0.15686275
0.01372549 0.10147059 0.15294118
0.13333333 0.10588235 0.15686275
0.28872549 0.12401961 0.16323529
0.51372549 0.14901961 0.16862745
0.69362745 0.19019608 0.17401961
0.83137255 0.29607843 0.19607843
0.91813725 0.38235294 0.23235294
0.96862745 0.49019608 0.29803922
0.015686275 0.12892157 0.16470588
0.015625 0.12892157 0.16470588
0.14117647 0.13933824 0.16470588
0.30588235 0.14705882 0.16862745
0.5254902 0.17598039 0.16470588
0.70508578 0.23743873 0.17665441
0.83431373 0.3122549 0.19313725
0.91470588 0.40490196 0.22935049
0.97254902 0.50147059 0.30539216
0.0039215686 0.20392157 0.17254902
0.0073529412 0.20012255 0.17254902
0.12058824 0.21568627 0.1747549
0.32095588 0.23235294 0.16078431
0.53921569 0.26911765 0.17254902
0.70931373 0.32193627 0.15894608
0.82818627 0.3872549 0.19705882
0.90821078 0.45441176 0.23492647
0.96078431 0.52843137 0.29901961
0.0039215686 0.33529412 0.18676471
0.00030637255 0.32616422 0.18431373
0.022303922 0.34068627 0.18039216
0.31280637 0.39362745 0.18284314
0.54387255 0.43504902 0.15294118
0.69846814 0.44362745 0.16470588
0.81115196 0.46470588 0.18186275
0.89264706 0.51568627 0.21813725
0.95196078 0.57107843 0.28382353
0 0.46666667 0.2
0.0036764706 0.47058824 0.19436275
0.0078431373 0.48578431 0.20735294
0.20686275 0.51421569 0.20857843
0.47745098 0.55294118 0.18823529
0.67769608 0.58431373 0.1870098
0.7877451 0.57254902 0.1995098
0.87181373 0.58897059 0.22843137
0.94509804 0.62745098 0.27647059
0 0.59019608 0.21176471
0.0075367647 0.59264706 0.22990196
0.012867647 0.60379902 0.23823529
0.14908088 0.6122549 0.23915441
0.41813725 0.6377451 0.24803922
0.61709559 0.66960784 0.25876225
0.75147059 0.67990196 0.2627451
0.84834559 0.70245098 0.28578431
0.91372549 0.71421569 0.32058824
0.0078431373 0.68529412 0.27647059
0.011642157 0.69313725 0.28811275
0.018872549 0.69926471 0.29117647
0.2060049 0.7067402 0.2995098
0.41078431 0.71813725 0.31862745
0.58382353 0.74068627 0.33627451
0.71666667 0.75906863 0.34509804
0.82009804 0.77892157 0.37205882
0.89803922 0.79901961 0.39901961
0.066176471 0.78970588 0.35882353
0.12898284 0.78970588 0.35882353
0.24411765 0.78970588 0.36666667
0.35655637 0.79754902 0.39001225
0.47426471 0.80318627 0.39779412
0.60245098 0.81470588 0.41862745
0.72107843 0.83639706 0.44509804
0.80147059 0.85245098 0.45686275
0.88578431 0.87892157 0.49166667
0.47058824 0.88627451 0.48235294
0.48186275 0.89019608 0.48627451
0.51470588 0.89019608 0.49313725
0.54852941 0.88872549 0.49656863
0.60196078 0.88627451 0.50196078
0.69313725 0.90980392 0.5372549
0.75490196 0.90980392 0.54509804
0.8245098 0.92941176 0.57254902
0.85490196 0.9254902 0.57647059
0.019117647 0.10588235 0.17990196
0.038235294 0.1088848 0.17598039
0.11519608 0.10588235 0.17990196
0.29528186 0.10606618 0.19019608
0.5254902 0.14730392 0.21323529
0.70490196 0.22352941 0.23578431
0.83002451 0.32009804 0.25477941
0.91121324 0.41623775 0.29411765
0.96862745 0.51323529 0.34803922
0.012254902 0.13284314 0.1872549
0.031426164 0.13197763 0.18338695
0.14117647 0.14270833 0.18607537
0.31029412 0.14761029 0.19352022
0.53893995 0.17791054 0.21124387
0.71323529 0.26756281 0.23447457
0.83431373 0.34931066 0.25477941
0.91078431 0.43578431 0.29368873
0.96078431 0.52058824 0.34803922
0.0039215686 0.20784314 0.19938725
0.0081035539 0.21251532 0.19938725
0.14889706 0.22316176 0.19837623
0.33823529 0.24451593 0.20111826
0.55067402 0.27579657 0.19509804
0.71711091 0.33907782 0.21678922
0.83039216 0.40428922 0.24264706
0.90461091 0.47470895 0.28970588
0.95943627 0.54656863 0.33921569
0.0039215686 0.33529412 0.21341912
0.0076593137 0.34162837 0.21501225
0.050735294 0.35614277 0.21470588
0.32782629 0.39784007 0.21452206
0.5518076 0.43455882 0.20196078
0.70356158 0.44155178 0.20465686
0.81038603 0.48235294 0.22512255
0.88903186 0.52669271 0.26807598
0.93903186 0.58265931 0.32843137
0.0034313725 0.4745098 0.23039216
0.0078431373 0.48777574 0.23995098
0.0058823529 0.4971201 0.23106618
0.23284314 0.52270221 0.23079044
0.48823529 0.55098039 0.22365196
0.68103554 0.58235294 0.23170956
0.78915441 0.58039216 0.24172794
0.87745098 0.58504902 0.25122549
0.93529412 0.63088235 0.30882353
0 0.59626225 0.2495098
0.0039215686 0.60392157 0.26339614
0.013020833 0.60588235 0.26573223
0.20323989 0.61862745 0.26967678
0.43734681 0.64019608 0.27254902
0.62843903 0.675 0.2848652
0.7622549 0.69730392 0.30212929
0.85065104 0.69842218 0.32052696
0.90441176 0.71029412 0.34215686
0.0034313725 0.69313725 0.3060049
0.012362132 0.69705882 0.30772059
0.016819853 0.70098039 0.30735294
0.24140625 0.70882353 0.32299326
0.42971814 0.72058824 0.33259804
0.58737745 0.74129902 0.35261949
0.72144608 0.76764706 0.37892157
0.82401961 0.78606005 0.39375
0.86875 0.79117647 0.40281863
0.12009804 0.79319853 0.37052696
0.1716299 0.78970588 0.37359069
0.27457108 0.79362745 0.3817402
0.38658088 0.80147059 0.40177696
0.49142157 0.80539216 0.41516544
0.60900735 0.81685049 0.43619026
0.71055453 0.83370098 0.44816176
0.80968903 0.85245098 0.47598039
0.85974265 0.86764706 0.49558824
0.45833333 0.88235294 0.47843137
0.48719363 0.8911152 0.490625
0.51090686 0.88933824 0.49313725
0.54411765 0.88284314 0.49442402
0.61421569 0.89264706 0.51789216
0.67867647 0.89583333 0.52984069
0.75098039 0.90245098 0.54166667
0.82101716 0.92113971 0.57205882
0.86617647 0.9254902 0.58823529
0.012745098 0.12058824 0.22156863
0.035906863 0.1127451 0.21666667
0.13627451 0.13210784 0.23014706
0.27696078 0.12205882 0.23970588
0.5254902 0.090196078 0.26568627
0.72928922 0.15110294 0.29178922
0.83039216 0.32941176 0.34411765
0.90392157 0.48137255 0.39656863
0.94607843 0.54803922 0.42843137
0 0.14019608 0.22892157
0.045465686 0.14624694 0.2355239
0.15186887 0.15502451 0.23676471
0.31568627 0.16666667 0.25404412
0.55245098 0.17303922 0.28088235
0.73129596 0.24928002 0.30539216
0.83406863 0.40710784 0.35784314
0.90392157 0.49705882 0.39701287
0.95232843 0.56421569 0.43186275
0.00098039216 0.21666667 0.24583333
0.018351716 0.22708333 0.2604473
0.18057598 0.23878676 0.26666667
0.37205882 0.27043505 0.28088235
0.57977941 0.32843137 0.30637255
0.72242647 0.38480392 0.32257966
0.82591912 0.46078431 0.35392157
0.89901961 0.52754289 0.38979779
0.94681373 0.59019608 0.4254902
0.0039215686 0.34068627 0.27463235
0.0062346814 0.35980392 0.28284314
0.17855392 0.37892157 0.2895527
0.36960784 0.41464461 0.29800858
0.56905637 0.45079657 0.29883578
0.71268382 0.45784314 0.29466912
0.81286765 0.50548407 0.32683824
0.8872549 0.55776654 0.36416973
0.9372549 0.61568627 0.4127451
0.0053921569 0.49215686 0.30490196
0.0071691176 0.50704657 0.30588235
0.047303922 0.51421569 0.29509804
0.31740196 0.53676471 0.3127451
0.53333333 0.56862745 0.3127451
0.68235294 0.58229167 0.31666667
0.7932598 0.58370098 0.3182598
0.87156863 0.61182598 0.35006127
0.93284314 0.65686275 0.39607843
0.0072303922 0.60833333 0.32352941
0.0027726716 0.61556373 0.31960784
0.049571078 0.61617647 0.31853554
0.2786152 0.62388174 0.3307598
0.46973039 0.64650735 0.34362745
0.63627451 0.675 0.3557598
0.75885417 0.69543505 0.36979167
0.85441176 0.70245098 0.37745098
0.90134804 0.70968137 0.39105392
0.011029412 0.69926471 0.34730392
0.0083639706 0.70098039 0.34414828
0.10471814 0.70490196 0.35122549
0.30772059 0.70882353 0.3666973
0.46372549 0.72242647 0.38223039
0.60134804 0.74129902 0.40119485
0.73063725 0.76691176 0.41905637
0.82794118 0.79025735 0.4356924
0.90098039 0.80367647 0.45490196
0.22561275 0.79362745 0.40441176
0.22781863 0.79362745 0.4066636
0.31139706 0.79754902 0.41617647
0.41960784 0.79754902 0.42598039
0.51691176 0.80539216 0.44209559
0.61862745 0.81685049 0.45900735
0.72107843 0.8296875 0.4754902
0.80925245 0.84852941 0.49901961
0.88223039 0.87156863 0.52598039
0.47941176 0.89019608 0.50098039
0.48480392 0.88627451 0.50085784
0.51519608 0.88627451 0.50196078
0.55 0.88088235 0.50588235
0.61176471 0.8877451 0.5245098
0.68137255 0.89411765 0.53835784
0.74681373 0.89215686 0.53995098
0.81666667 0.91017157 0.57598039
0.8754902 0.93333333 0.61176471
0 0.1254902 0.30539216
0.069301471 0.13921569 0.31145833
0.21127451 0.17107843 0.32745098
0.33878676 0.19074755 0.34074755
0.52279412 0.17990196 0.37009804
0.69901961 0.19754902 0.39705882
0.82855392 0.32083333 0.42365196
0.90294118 0.46292892 0.46078431
0.94362745 0.60294118 0.51617647
0.0041053922 0.16666667 0.33872549
0.074241728 0.17444853 0.33888634
0.23359375 0.21127451 0.34018076
0.36440717 0.24166667 0.35079657
0.53235294 0.22882966 0.37901348
0.71060049 0.2705193 0.40697763
0.82254902 0.38595282 0.43982843
0.89463082 0.52794118 0.48180147
0.93511029 0.6158701 0.51666667
0.0078431373 0.25404412 0.35490196
0.012040441 0.25788909 0.3597886
0.23370098 0.27843137 0.36596201
0.41092218 0.33872549 0.3799326
0.58161765 0.35876225 0.40441176
0.71268382 0.39595588 0.42953431
0.81605392 0.50566789 0.46326593
0.88757659 0.57423407 0.4877451
0.9372549 0.64987745 0.52107843
0 0.37248775 0.35974265
0.021752451 0.37689185 0.36366422
0.21384804 0.40942096 0.38284314
0.42073376 0.44238664 0.3995098
0.59757966 0.46960784 0.41127451
0.71268382 0.51470588 0.43235294
0.80297181 0.56516544 0.45441176
0.8778799 0.61617647 0.48117341
0.92996324 0.65735294 0.49993873
0.0085784314 0.49803922 0.37156863
0.060723039 0.50628064 0.37518382
0.28057598 0.53480392 0.39852941
0.40539216 0.55073529 0.40735294
0.5622549 0.56519608 0.41544118
0.69068627 0.59261642 0.42034314
0.79123775 0.60796569 0.42616422
0.86577819 0.64656863 0.45275735
0.91029412 0.67156863 0.47254902
0.21280637 0.62009804 0.40692402
0.24882812 0.62382813 0.40729167
0.31531863 0.62780331 0.4127451
0.38949908 0.63584559 0.41161918
0.51470588 0.65496324 0.42797181
0.65392157 0.67779565 0.43570006
0.75856311 0.6935049 0.44448529
0.8504902 0.7104856 0.45735294
0.90680147 0.73480392 0.47702206
0.23970588 0.70392157 0.42156863
0.26911765 0.70490196 0.41631434
0.31026348 0.71020221 0.42257966
0.40477941 0.7127451 0.42659314
0.50269608 0.72598039 0.44191176
0.62863051 0.74419424 0.46188725
0.73982843 0.76372549 0.47745098
0.83578431 0.79558824 0.49234069
0.87708333 0.80196078 0.49644608
0.33529412 0.78970588 0.44901961
0.33184743 0.78970588 0.4408701
0.36580882 0.79362745 0.4467065
0.44889706 0.79754902 0.45814951
0.53872549 0.80539216 0.47377451
0.63185509 0.81844363 0.49148284
0.72892157 0.83324142 0.51292892
0.81903339 0.85637255 0.53707108
0.89577206 0.88155637 0.55245098
0.49411765 0.89166667 0.52009804
0.48235294 0.87843137 0.50980392
0.51127451 0.87659314 0.51433824
0.55833333 0.87990196 0.5254902
0.62401961 0.89338235 0.54240196
0.6877451 0.89957108 0.56078431
0.75919118 0.91127451 0.58247549
0.8245098 0.91813725 0.59901961
0.85490196 0.92401961 0.60637255
0.033333333 0.15294118 0.43921569
0.17426471 0.1877451 0.43897059
0.31568627 0.20098039 0.45392157
0.46323529 0.28382353 0.46397059
0.58235294 0.35980392 0.47843137
0.68970588 0.33872549 0.48897059
0.80931373 0.36519608 0.50441176
0.8872549 0.47009804 0.52205882
0.94705882 0.56470588 0.54509804
0.051715686 0.21078431 0.45465686
0.16666667 0.22208946 0.45618873
0.32647059 0.2526348 0.46654412
0.48063725 0.35177696 0.4745098
0.59289216 0.40698529 0.48602941
0.69117647 0.38219975 0.49485294
0.80686275 0.41715686 0.50833333
0.88183211 0.51182598 0.52598039
0.94681373 0.59509804 0.55661765
0.019607843 0.29754902 0.46715686
0.14117647 0.31066176 0.47205882
0.31176471 0.33946078 0.47990196
0.50435049 0.40931373 0.48952206
0.60196078 0.46862745 0.49289216
0.69589461 0.46715686 0.50612745
0.80343137 0.49448529 0.52230392
0.87941176 0.56770833 0.54068627
0.92794118 0.64656863 0.56813725
0.0090686275 0.40661765 0.45955882
0.014705882 0.41602328 0.46599265
0.24503676 0.43823529 0.4747549
0.47303922 0.49310662 0.49292279
0.61960784 0.54607843 0.50747549
0.70882353 0.54681373 0.51810662
0.79460784 0.60551471 0.53946078
0.86911765 0.64451593 0.55808824
0.92230392 0.67696078 0.56470588
0.0078431373 0.51372549 0.45294118
0.084926471 0.52156863 0.4567402
0.27794118 0.53627451 0.46519608
0.45269608 0.56813725 0.48946078
0.59607843 0.59362745 0.50686275
0.70857843 0.61703431 0.51764706
0.79338235 0.66029412 0.53578431
0.8620098 0.69166667 0.54926471
0.91470588 0.71960784 0.56862745
0.12990196 0.60784314 0.44583333
0.20670956 0.6122549 0.45367647
0.34558824 0.62696078 0.46838235
0.4794424 0.64653799 0.49142157
0.57941176 0.66605392 0.50257353
0.68284314 0.6833027 0.51519608
0.77941176 0.7036152 0.52395833
0.85333946 0.71568627 0.5245098
0.89019608 0.74607843 0.54117647
0.29215686 0.69460784 0.47254902
0.34748775 0.70030637 0.47647059
0.42120098 0.70980392 0.48517157
0.48235294 0.71960784 0.48952206
0.55514706 0.73235294 0.49803922
0.659375 0.74883578 0.51856618
0.75257353 0.77156863 0.53431373
0.84166667 0.79810049 0.54607843
0.89803922 0.80588235 0.54656863
0.41151961 0.7877451 0.50098039
0.40683211 0.78578431 0.4950674
0.46666667 0.79362745 0.50637255
0.49803922 0.79362745 0.50376838
0.56017157 0.80514706 0.51127451
0.6497549 0.81685049 0.53333333
0.73651961 0.8372549 0.55594363
0.82257966 0.86004902 0.58290441
0.88186275 0.87352941 0.58897059
0.52352941 0.88823529 0.55490196
0.525 0.88970588 0.55269608
0.53921569 0.88333333 0.5495098
0.55784314 0.86715686 0.54509804
0.63039216 0.89607843 0.56862745
0.69313725 0.90196078 0.5877451
0.75539216 0.90098039 0.59705882
0.8245098 0.92156863 0.62573529
0.84313725 0.9254902 0.63137255
0.21813725 0.22156863 0.55196078
0.30392157 0.24773284 0.55735294
0.42696078 0.2877451 0.56519608
0.56568627 0.37254902 0.56519608
0.65980392 0.49852941 0.57034314
0.72506127 0.52892157 0.57303922
0.80686275 0.52316176 0.57941176
0.87009804 0.54589461 0.5872549
0.92254902 0.59754902 0.60294118
0.22598039 0.28186275 0.55735294
0.30833333 0.28913143 0.55949755
0.43186275 0.33872549 0.56482843
0.57481618 0.41470588 0.57156863
0.66651348 0.52117034 0.5729473
0.72990196 0.56715686 0.57910539
0.79558824 0.55160846 0.5846201
0.86617647 0.56811428 0.59466912
0.92971814 0.60539216 0.60686275
0.24411765 0.37254902 0.56519608
0.30758272 0.38137255 0.56127451
0.43014706 0.40940564 0.56875
0.56643689 0.46992953 0.57156863
0.67156863 0.56917892 0.5754902
0.73137255 0.59166667 0.57954963
0.79117647 0.58921569 0.58587623
0.86372549 0.61409314 0.59901961
0.92009804 0.63370098 0.60870098
0.094240196 0.45882353 0.55098039
0.18390012 0.46519608 0.55435049
0.38327206 0.48529412 0.56035539
0.53520987 0.53373928 0.56877298
0.66099877 0.59485294 0.57864583
0.72955729 0.634375 0.58333333
0.78235294 0.6305913 0.58823529
0.85833333 0.66042433 0.60477175
0.92401961 0.69117647 0.62199755
0.039460784 0.54264706 0.5370098
0.16191789 0.54558824 0.54068627
0.32046569 0.55618873 0.54215686
0.47696078 0.58431373 0.55710784
0.62046569 0.62855392 0.57218137
0.72916667 0.68409926 0.5879902
0.79019608 0.68161765 0.59791667
0.85603554 0.71599265 0.61510417
0.91372549 0.75098039 0.63872549
0.17745098 0.61917892 0.51813725
0.25392157 0.62235754 0.52542892
0.35516238 0.63431373 0.52912071
0.47892157 0.65153186 0.54544271
0.60076593 0.67156863 0.56467525
0.709375 0.70637255 0.5838848
0.78379289 0.73088235 0.59901961
0.85104167 0.75091912 0.60098039
0.8971201 0.78278186 0.625
0.20453431 0.6810049 0.50343137
0.27611826 0.68524816 0.51104473
0.37083333 0.69653799 0.51911765
0.47136949 0.70960478 0.52941176
0.57873775 0.72867647 0.54852941
0.68193934 0.75245098 0.57202819
0.76731005 0.78272059 0.59463848
0.8432598 0.80548407 0.60686275
0.9004902 0.81703431 0.61017157
0.35753676 0.77824755 0.54099265
0.38373928 0.77843137 0.53691023
0.44607843 0.78445159 0.53970588
0.52776501 0.79307598 0.55262714
0.60554534 0.80523897 0.56651348
0.66323529 0.81844363 0.57666973
0.74522059 0.83769914 0.59509804
0.8249617 0.86029412 0.6178079
0.87745098 0.87156863 0.6254902
0.51862745 0.88382353 0.58970588
0.5091299 0.87585784 0.58523284
0.54546569 0.88125 0.58823529
0.59460784 0.89019608 0.5966299
0.63995098 0.89485294 0.60147059
0.69313725 0.89166667 0.61078431
0.75919118 0.91372549 0.63382353
0.82873775 0.92420343 0.66029412
0.86176471 0.93088235 0.675
0.4245098 0.35686275 0.6372549
0.44669118 0.35821078 0.64117647
0.53651961 0.42156863 0.64117647
0.63676471 0.47941176 0.64215686
0.70784314 0.55686275 0.64509804
0.76752451 0.6377451 0.65
0.8129902 0.67745098 0.65294118
0.85245098 0.64656863 0.65
0.86666667 0.63921569 0.64901961
0.41666667 0.38382353 0.64117647
0.45526961 0.40562194 0.6372549
0.53716299 0.43529412 0.64436275
0.63543199 0.50700061 0.64348958
0.71960784 0.584375 0.64509804
0.77144608 0.65324755 0.65294118
0.81838235 0.6859375 0.65686275
0.85931373 0.66617647 0.65772059
0.90490196 0.67205882 0.66458333
0.41666667 0.4502451 0.63897059
0.45033701 0.4596201 0.63728554
0.53627451 0.49019608 0.64117647
0.62892157 0.54803922 0.64509804
0.71715686 0.61813725 0.64558824
0.77536765 0.68419118 0.65294118
0.81544118 0.70098039 0.65465686
0.85582108 0.69237132 0.66078431
0.89705882 0.69215686 0.66470588
0.35245098 0.5245098 0.62941176
0.42876838 0.52904412 0.62977941
0.50343137 0.54433211 0.63360907
0.60294118 0.58517157 0.63748468
0.70386029 0.64417892 0.64509804
0.76992953 0.70395221 0.65330882
0.81151961 0.7231924 0.66078431
0.85245098 0.71127451 0.66139706
0.87843137 0.71703431 0.66862745
0.20637255 0.57598039 0.60833333
0.2776348 0.58167892 0.6122549
0.41188725 0.59129902 0.61531863
0.51881127 0.61997549 0.62132353
0.66470588 0.66617647 0.63946078
0.75759804 0.72156863 0.65441176
0.81262255 0.74730392 0.66470588
0.85330882 0.7495098 0.67126225
0.90539216 0.75980392 0.68186275
0.26372549 0.64705882 0.59693627
0.29698223 0.64705882 0.59473039
0.37613358 0.65098039 0.59693627
0.47545956 0.66127451 0.60585172
0.60079657 0.68645833 0.62352941
0.73333333 0.73872549 0.64993873
0.80560662 0.77132353 0.66495098
0.85196078 0.78811275 0.67682292
0.91090686 0.80784314 0.69546569
0.28995098 0.70490196 0.57769608
0.32886029 0.70870098 0.58299632
0.39558824 0.71642157 0.58866422
0.47748162 0.7245098 0.5963848
0.57561275 0.73419118 0.60588235
0.69849877 0.76443015 0.62990196
0.79675245 0.80067402 0.66231618
0.85453431 0.82291667 0.67647059
0.89803922 0.8372549 0.6875
0.21960784 0.76213235 0.55906863
0.26334252 0.76617647 0.56268382
0.35208333 0.77000613 0.57009804
0.43664216 0.77775735 0.57994792
0.55925245 0.79117647 0.59558824
0.66960784 0.81631434 0.62487745
0.75827206 0.84509804 0.65370711
0.83982843 0.86775429 0.67706801
0.89497549 0.8754902 0.68492647
0.40784314 0.87058824 0.61176471
0.44019608 0.88235294 0.62022059
0.4872549 0.8872549 0.62156863
0.53688725 0.88688725 0.62696078
0.61715686 0.89509804 0.63872549
0.6754902 0.8935049 0.64914216
0.7627451 0.91372549 0.67647059
0.83235294 0.92941176 0.70735294
0.88529412 0.93235294 0.7254902
0.56715686 0.50882353 0.71519608
0.5971201 0.51666667 0.71519608
0.64656863 0.5504902 0.71519608
0.70441176 0.59264706 0.71488971
0.76544118 0.64436275 0.71470588
0.80980392 0.70196078 0.71911765
0.84068627 0.75232843 0.72647059
0.86758578 0.77009804 0.72647059
0.88284314 0.75098039 0.72647059
0.57800245 0.53088235 0.71862745
0.5971201 0.53872549 0.71519608
0.64221814 0.56519608 0.71868873
0.70392157 0.60290288 0.7151731
0.76761642 0.66393995 0.71862745
0.81372549 0.71354167 0.71911765
0.84450061 0.7622549 0.72647059
0.86764706 0.78094363 0.72647059
0.890625 0.75490196 0.72303922
0.5754902 0.56960784 0.7189951
0.58713235 0.57250306 0.71551777
0.63284314 0.59209559 0.71519608
0.69511336 0.62647059 0.71519608
0.75870098 0.67855392 0.71862745
0.81181066 0.72896752 0.72040441
0.84460784 0.78578431 0.72325368
0.87064951 0.78834252 0.73039216
0.88639706 0.77303922 0.72683824
0.53854167 0.61029412 0.71127451
0.55435049 0.60784314 0.7127451
0.60494792 0.61928615 0.70868566
0.67647059 0.65624234 0.71401654
0.75 0.69641544 0.71755515
0.80588235 0.74883578 0.72372855
0.84460784 0.8 0.73039216
0.87064951 0.80517004 0.73431373
0.88265931 0.79344363 0.73694853
0.46151961 0.64656863 0.6995098
0.48581495 0.65003064 0.69733456
0.52898284 0.6504902 0.69583333
0.62892157 0.67230392 0.70269608
0.72046569 0.70784314 0.71213235
0.79166667 0.75637255 0.72401961
0.84448529 0.80539216 0.73431373
0.86764706 0.81838235 0.73848039
0.89411765 0.8129902 0.74215686
0.34136029 0.69019608 0.68235294
0.366322 0.68676471 0.6786152
0.42133885 0.69299939 0.68284314
0.51323529 0.69656863 0.68558517
0.64004289 0.7234375 0.69770221
0.74657629 0.76520374 0.71508119
0.83506434 0.81470588 0.73823529
0.86764706 0.84558824 0.74812347
0.89393382 0.84117647 0.74969363
0.34791667 0.74669118 0.66470588
0.3662837 0.74411765 0.66470588
0.42647059 0.75193015 0.67444853
0.49166667 0.75196078 0.67598039
0.58535539 0.75925245 0.68333333
0.68895527 0.78095895 0.70490196
0.80882353 0.83247549 0.7354473
0.86361826 0.86372549 0.7501685
0.88627451 0.87205882 0.75404412
0.37009804 0.80202206 0.66078431
0.3736443 0.80196078 0.65729933
0.39466912 0.80588235 0.65905331
0.48399203 0.80196078 0.66378676
0.55906863 0.81155025 0.67208946
0.65667892 0.8341299 0.69660692
0.75447304 0.85294118 0.71519608
0.84846814 0.88376991 0.75446538
0.88970588 0.89460784 0.76617647
0.29705882 0.8754902 0.66127451
0.35833333 0.87457108 0.66813725
0.35992647 0.86801471 0.66078431
0.43529412 0.86979167 0.66470588
0.52058824 0.85980392 0.66470588
0.62322304 0.89607843 0.69264706
0.73639706 0.89129902 0.70796569
0.83627451 0.92947304 0.75833333
0.89411765 0.94460784 0.79264706
0.70196078 0.66666667 0.8
0.71323529 0.67058824 0.7995098
0.73627451 0.68529412 0.79215686
0.76715686 0.70441176 0.79215686
0.80980392 0.7372549 0.79411765
0.84313725 0.77009804 0.78676471
0.86764706 0.81176471 0.78823529
0.88284314 0.84803922 0.78872549
0.90196078 0.84705882 0.79607843
0.70637255 0.67843137 0.80392157
0.71666667 0.68529412 0.80343137
0.74056373 0.69742647 0.80036765
0.77058824 0.71176471 0.79558824
0.80980392 0.74093137 0.79019608
0.84411765 0.77352941 0.79019608
0.86666667 0.81127451 0.78333333
0.87849265 0.82401961 0.76911765
0.89803922 0.85098039 0.79656863
0.68627451 0.68529412 0.79607843
0.69852941 0.68884804 0.79607843
0.72941176 0.70588235 0.79705882
0.76213235 0.72156863 0.79031863
0.79705882 0.73823529 0.7754902
0.83713235 0.78186275 0.78639706
0.87083333 0.8245098 0.79313725
0.87977941 0.83970588 0.78137255
0.89411765 0.85490196 0.79215686
0.67843137 0.7122549 0.80637255
0.67941176 0.70588235 0.79607843
0.70245098 0.71556373 0.79252451
0.74656863 0.7372549 0.79362745
0.79215686 0.76127451 0.79142157
0.83676471 0.79607843 0.79215686
0.86078431 0.82512255 0.78137255
0.88265931 0.8495098 0.78529412
0.90196078 0.87303922 0.81029412
0.62941176 0.73137255 0.79215686
0.64730392 0.73921569 0.8002451
0.66666667 0.73529412 0.79901961
0.71078431 0.7495098 0.79803922
0.76666667 0.77058824 0.79215686
0.81397059 0.79362745 0.78039216
0.85735294 0.83431373 0.78872549
0.88235294 0.86029412 0.79754902
0.89411765 0.86862745 0.8
0.52647059 0.77156863 0.79754902
0.53578431 0.76715686 0.78952206
0.58884804 0.76973039 0.79460784
0.64944853 0.76954657 0.79313725
0.725 0.7870098 0.79607843
0.7966299 0.81078431 0.7966299
0.85196078 0.84803922 0.80392157
0.88235294 0.87892157 0.79852941
0.89803922 0.89411765 0.81813725
0.48235294 0.81372549 0.78921569
0.49656863 0.81372549 0.78823529
0.51176471 0.81593137 0.79730392
0.56862745 0.80943627 0.78786765
0.63431373 0.81911765 0.79656863
0.72009804 0.82598039 0.78676471
0.80465686 0.86372549 0.80784314
0.88455882 0.90196078 0.82610294
0.89117647 0.90294118 0.82058824
0.49019608 0.87696078 0.7995098
0.46636029 0.85453431 0.76446078
0.50098039 0.85980392 0.77205882
0.55 0.85980392 0.78284314
0.61176471 0.86764706 0.79460784
0.67873775 0.86795343 0.80226716
0.75588235 0.87904412 0.80735294
0.84754902 0.90245098 0.82058824
0.89754902 0.92892157 0.83529412
0.50196078 0.93333333 0.80784314
0.49411765 0.91029412 0.79215686
0.53333333 0.93431373 0.80882353
0.56568627 0.93578431 0.81421569
0.60392157 0.90784314 0.79607843
0.66421569 0.92401961 0.80098039
0.74509804 0.93921569 0.82745098
0.83627451 0.92598039 0.80343137
0.90588235 0.95686275 0.8627451
