site/assets/luts/natron-haldclut--fuji-superia-100--d21a1abb8.cube
# LUTr-Project: LUTr — LUTrepository
# LUTr-Schema-Version: 1
# LUTr-ID: natron-haldclut--fuji-superia-100--d21a1abb8
# LUTr-Title: fuji superia 100 +
# LUTr-Collection: Natron HaldCLUT
# LUTr-Collection-ID: natron-haldclut-presets
# LUTr-Source: https://github.com/NatronGitHub/clut
# LUTr-Source-File: submissions/natron-haldclut-presets/negative_old/fuji_superia_100_+.png
# LUTr-Source-Format: PNG
# LUTr-Source-SHA256: ad9b2fe8cd97ef069380880f49834ac27d34a69fda8de9e3a2bccf91d50e068c
# LUTr-License: CC-BY-SA-4.0
# LUTr-License-URL: https://github.com/NatronGitHub/clut#license
# LUTr-Tags: creative, film, film-emulation, hald-clut, natron, png, cube
# LUTr-Transform-Class: film-emulation
# LUTr-Input-Color-Space: srgb
# LUTr-Output-Color-Space: srgb
# LUTr-Color-Space-Confidence: assumed-display-referred
# LUTr-Conversion-Method: PNG LUT image decoded at 16-bit and sampled to 25x25x25 3D CUBE
# LUTr-Conversion-Date: 2026-07-27
# LUTr-Conversion-Tool: LUTr scripts/convert-all-to-cube.mjs
# LUTr-Conversion-Grid: 25x25x25
# LUTr-Note: Preserve this metadata and the upstream license notices when redistributing.
TITLE "fuji superia 100 +"
LUT_3D_SIZE 9
DOMAIN_MIN 0 0 0
DOMAIN_MAX 1 1 1
0.0039215686 0.050980392 0.066666667
0.034313725 0.066666667 0.067156863
0.1372549 0.081372549 0.037254902
0.31666667 0.066666667 0.025
0.51372549 0.02745098 0.017647059
0.68578431 0.068137255 0.0078431373
0.81176471 0.098039216 0
0.92303922 0.14558824 0.01127451
1 0.16862745 0
0 0.1004902 0.062745098
0.012254902 0.10091912 0.051960784
0.14276961 0.12303922 0.032352941
0.32824755 0.13578431 0.017156863
0.53088235 0.13357843 0.0044117647
0.69969363 0.15998775 0
0.81960784 0.17512255 0
0.93431373 0.21427696 0.0039215686
0.9877451 0.21421569 0.0039215686
0 0.24509804 0.084313725
0 0.24901961 0.073039216
0.11470588 0.24901961 0.037254902
0.36519608 0.26605392 0.011764706
0.58235294 0.29313725 0
0.70968137 0.29595588 0.0039215686
0.82720588 0.29803922 0.0029411765
0.94264706 0.30980392 0.0039215686
1 0.32156863 0
0 0.44852941 0.10441176
0 0.44852941 0.11470588
0.021813725 0.44068627 0.085294118
0.35533088 0.44123775 0.021078431
0.55906863 0.44754902 0.0039215686
0.71715686 0.44362745 0.0053921569
0.84203431 0.43909314 0
0.95098039 0.42941176 0.0078431373
0.99607843 0.4372549 0
0 0.62745098 0.18823529
0.0039215686 0.61960784 0.20196078
0.0039215686 0.61764706 0.17941176
0.275 0.60661765 0.13627451
0.51568627 0.58039216 0.054901961
0.69558824 0.57254902 0.0039215686
0.83921569 0.56519608 0.0039215686
0.94656863 0.56078431 0.011764706
0.99607843 0.55686275 0.0039215686
0.0039215686 0.74705882 0.32107843
0.0073529412 0.74705882 0.32714461
0.012132353 0.74276961 0.32806373
0.22408088 0.73676471 0.29601716
0.46985294 0.72230392 0.24803922
0.64993873 0.70091912 0.17058824
0.81127451 0.69607843 0.075857843
0.94705882 0.68823529 0.0097426471
0.99607843 0.68039216 0
0.02745098 0.85 0.45490196
0.012745098 0.85 0.44448529
0.17254902 0.84901961 0.45098039
0.33382353 0.84607843 0.44411765
0.47352941 0.83872549 0.41960784
0.63333333 0.82316176 0.37193627
0.7754902 0.81470588 0.32720588
0.91507353 0.81041667 0.25772059
0.97647059 0.80686275 0.23333333
0.36029412 0.93431373 0.58627451
0.35735294 0.93039216 0.58284314
0.40502451 0.93737745 0.58272059
0.48057598 0.93431373 0.59050245
0.55833333 0.93431373 0.58455882
0.64197304 0.92677696 0.55784314
0.74166667 0.92169118 0.52647059
0.86372549 0.91470588 0.47303922
0.97156863 0.90735294 0.43529412
0.57254902 0.98823529 0.70980392
0.57990196 0.98823529 0.71372549
0.57254902 0.98039216 0.69509804
0.63137255 0.99215686 0.71911765
0.66078431 0.98823529 0.71176471
0.70882353 0.98970588 0.70980392
0.77058824 0.98431373 0.6745098
0.84411765 0.98823529 0.66960784
0.91764706 0.98431373 0.65098039
0.0039215686 0.043627451 0.096078431
0.034803922 0.043627451 0.10784314
0.14656863 0.02745098 0.1
0.31666667 0.0042279412 0.088235294
0.51544118 0.0078431373 0.078186275
0.68792892 0.0024509804 0.047058824
0.81176471 0.014705882 0.026960784
0.92303922 0.053860294 0.034803922
0.98431373 0.14558824 0.0078431373
0 0.10006127 0.11176471
0.019125306 0.10032169 0.11911765
0.1527114 0.10140931 0.10919118
0.33792892 0.098184743 0.088886336
0.53676471 0.096047794 0.07254902
0.69924173 0.098713235 0.042218137
0.81960784 0.13288909 0.027650123
0.93136489 0.16808364 0.0039215686
0.99215686 0.1872549 0.0039215686
0 0.23468137 0.16139706
0 0.23823529 0.1464614
0.12803309 0.23936887 0.12659314
0.37285539 0.2564185 0.092340686
0.57352941 0.27113971 0.046078431
0.71729473 0.27696078 0.022901348
0.83134191 0.27794118 0.016544118
0.92970282 0.29068627 0.01138174
0.99607843 0.30245098 0.0039215686
0.0037377451 0.42892157 0.20931373
0.0039215686 0.44442402 0.20965839
0.059022672 0.44073223 0.18039216
0.36158088 0.43823529 0.13157169
0.58186275 0.44126838 0.052144608
0.73327206 0.43498009 0.006908701
0.84474571 0.42740502 0.012745098
0.94901961 0.41856618 0.0039215686
0.99607843 0.42579657 0
0.0080882353 0.61568627 0.28627451
0.022824755 0.61617647 0.28697917
0.014093137 0.62156863 0.26439951
0.29613971 0.60661765 0.22466299
0.52830882 0.58431373 0.16433824
0.70842525 0.57582721 0.074417892
0.84485294 0.56317402 0.026102941
0.95438113 0.55294118 0.020618873
0.99607843 0.54901961 0.00049019608
0.0078431373 0.73578431 0.37156863
0.0059666054 0.74340533 0.37221967
0.034666054 0.74313725 0.36813725
0.28089001 0.73517923 0.35539216
0.49436275 0.71632966 0.30735294
0.66832874 0.70293352 0.24332874
0.81697304 0.69312194 0.18448223
0.94117647 0.68762255 0.10245098
0.99068627 0.67665441 0.093137255
0.091544118 0.84705882 0.47720588
0.15759804 0.85 0.48137255
0.22193627 0.84607843 0.48137255
0.36449142 0.85 0.48002451
0.50729167 0.83786765 0.45686275
0.6373315 0.82982537 0.41711091
0.77622549 0.81176471 0.35971201
0.91067708 0.80686275 0.31029412
0.97647059 0.80392157 0.28296569
0.39074755 0.93431373 0.60147059
0.39809283 0.92647059 0.60539216
0.4448223 0.93431373 0.60931373
0.5009421 0.93619792 0.60931373
0.57107843 0.93284314 0.59996936
0.65749847 0.92647059 0.57696078
0.75675551 0.91475184 0.53727022
0.86029412 0.91127451 0.5
0.97696078 0.91176471 0.45729167
0.59509804 0.99215686 0.725
0.59166667 0.98823529 0.72064951
0.6185049 0.99215686 0.72843137
0.61004902 0.98051471 0.70367647
0.67254902 0.99044118 0.72745098
0.72009804 0.99215686 0.72156863
0.78186275 0.98431373 0.6939951
0.84852941 0.98872549 0.68186275
0.91470588 0.98823529 0.66617647
0 0.028431373 0.24607843
0 0.023651961 0.24767157
0.17745098 0.019607843 0.25
0.34068627 0.0014705882 0.23480392
0.53235294 0.0039215686 0.22647059
0.69754902 0.0039215686 0.20147059
0.82181373 0.0039215686 0.17843137
0.92009804 0.0088235294 0.15833333
0.99215686 0.016666667 0.14411765
0 0.098039216 0.25551471
0.0078431373 0.10882353 0.26078431
0.17552083 0.10174632 0.25073529
0.3622549 0.070281863 0.23480392
0.55410539 0.006127451 0.21495098
0.70280331 0.026792279 0.19986213
0.81596201 0.012591912 0.17650123
0.92696078 0.041789216 0.15784314
0.99607843 0.095710784 0.13909314
0.0039215686 0.24117647 0.28308824
0.0039215686 0.24509804 0.27441789
0.1875 0.24289216 0.26783088
0.39313725 0.23664216 0.24620098
0.57352941 0.2254902 0.22058824
0.70995711 0.22745098 0.19865196
0.82720588 0.2245098 0.18455882
0.93192402 0.24754902 0.15474877
0.98848039 0.26372549 0.13848039
0.0039215686 0.44007353 0.34117647
0.07745098 0.44430147 0.33230699
0.17432598 0.44093137 0.31498162
0.38958333 0.4345435 0.28967525
0.58982843 0.42947304 0.24957108
0.72490809 0.41222426 0.21470588
0.84286152 0.40539216 0.18795956
0.94901961 0.40147059 0.15833333
0.98713235 0.40980392 0.13823529
0.078921569 0.6122549 0.4
0.090441176 0.61231618 0.39540441
0.15379902 0.60882353 0.37634804
0.37965686 0.5995098 0.35692402
0.5504902 0.58382353 0.31078431
0.71072304 0.56642157 0.2596201
0.84117647 0.55686275 0.21997549
0.94834559 0.54877451 0.18498775
0.99607843 0.54509804 0.15980392
0.16384804 0.72414216 0.46715686
0.22061887 0.73235294 0.46331189
0.28235294 0.73235294 0.46185662
0.38284314 0.73529412 0.44898897
0.52904412 0.7221201 0.42352941
0.68287377 0.70346201 0.37118566
0.82205882 0.69607843 0.31216299
0.93488051 0.68400735 0.26155025
0.99252451 0.67647059 0.23676471
0.32058824 0.83602941 0.54828431
0.33333333 0.83520221 0.55009191
0.37947304 0.84552696 0.54509804
0.45588235 0.84607843 0.54681373
0.55551471 0.83872549 0.53235294
0.65943627 0.82536765 0.50009191
0.79117647 0.815625 0.44387255
0.92095588 0.81081495 0.39448529
0.98235294 0.80392157 0.38063725
0.47401961 0.92781863 0.64276961
0.48621324 0.93039216 0.65093444
0.50995711 0.92760417 0.64705882
0.55009191 0.93074449 0.64799326
0.60496324 0.93302696 0.64558824
0.67784926 0.92696078 0.62843137
0.76485907 0.91890319 0.59031863
0.86721814 0.91519608 0.55304841
0.96078431 0.9064951 0.51384804
0.63039216 0.99215686 0.74803922
0.63431373 0.98958333 0.74816176
0.64436275 0.98823529 0.74803922
0.66801471 0.99154412 0.75245098
0.69852941 0.99068627 0.75686275
0.73627451 0.98884804 0.74473039
0.79411765 0.98823529 0.73137255
0.85980392 0.98480392 0.70784314
0.90392157 0.98137255 0.68627451
0 0.011764706 0.43039216
0.0012867647 0.0041053922 0.4495098
0.22843137 0.0053921569 0.43884804
0.39754902 0.0039215686 0.41862745
0.55465686 0 0.39436275
0.70784314 0 0.36917892
0.83039216 0.0028186275 0.33529412
0.93088235 0.0039215686 0.3004902
0.99068627 0 0.26862745
0 0.077941176 0.4495098
0.0073529412 0.087660846 0.45435049
0.22571998 0.060248162 0.44105392
0.41379442 0.040502451 0.43131127
0.59068627 0.030147059 0.41127451
0.71802237 0.015196078 0.37353707
0.82708333 0.0070618873 0.33570772
0.92518382 0.0039215686 0.30588235
0.99215686 0.0078431373 0.28805147
0.0039215686 0.24178922 0.46176471
0.0068627451 0.24122243 0.46176471
0.17864583 0.24509804 0.45183824
0.42107843 0.23794424 0.43615196
0.59264706 0.24019608 0.41127451
0.71957721 0.18897059 0.37411152
0.82806373 0.14200368 0.33342525
0.9282935 0.16649816 0.31021752
0.98676471 0.18958333 0.30355392
0.0048406863 0.43676471 0.46323529
0.012568934 0.44496783 0.45392157
0.2569087 0.4370864 0.46078431
0.43229167 0.43039216 0.45147059
0.60346201 0.42205882 0.42328431
0.71721814 0.39362745 0.3872549
0.83206189 0.38088235 0.35490196
0.93646599 0.38076746 0.33186275
0.99552696 0.38235294 0.31813725
0.21519608 0.6 0.50416667
0.29117647 0.6 0.50735294
0.39926471 0.59644608 0.50931373
0.47616422 0.59485294 0.49653799
0.5877451 0.57843137 0.46029412
0.72064951 0.56639093 0.42012868
0.83890931 0.55349265 0.39215686
0.94647672 0.54283088 0.36715686
0.98897059 0.54068627 0.34632353
0.42346814 0.71568627 0.57555147
0.44147518 0.71568627 0.57598805
0.47120098 0.72029718 0.57205882
0.50204504 0.72745098 0.55573683
0.58137255 0.71838235 0.5377451
0.69034161 0.69812347 0.49509804
0.82598039 0.69215686 0.45281863
0.94429381 0.68400735 0.42127757
0.9848652 0.68039216 0.40974265
0.50833333 0.83039216 0.64742647
0.50931373 0.82781863 0.64505208
0.52190564 0.83158701 0.6377451
0.54247855 0.83823529 0.62536765
0.6033701 0.83841912 0.62352941
0.69313725 0.82467831 0.59203431
0.79963235 0.81060049 0.54883578
0.91832108 0.80723039 0.50061275
0.99460784 0.80502451 0.47941176
0.58039216 0.92254902 0.71617647
0.58954504 0.93012408 0.71848192
0.59612439 0.92651654 0.71087623
0.61569393 0.92266391 0.70422794
0.65710784 0.93039216 0.70833333
0.7122549 0.92285539 0.69166667
0.78547794 0.91911765 0.66046262
0.879519 0.91519608 0.620481
0.97855392 0.91862745 0.58627451
0.6872549 0.98578431 0.79068627
0.68988971 0.98480392 0.78921569
0.69803922 0.98933824 0.78921569
0.70294118 0.98431373 0.78284314
0.73382353 0.98823529 0.79068627
0.76660539 0.98468137 0.78180147
0.81164216 0.98333333 0.76470588
0.87009804 0.98609069 0.75490196
0.92696078 0.97156863 0.7127451
0 0 0.61372549
0.012745098 0.015686275 0.62107843
0.25245098 0.010294118 0.61960784
0.4370098 0.0046568627 0.60980392
0.59803922 0.0029411765 0.59019608
0.7379902 0 0.55931373
0.84264706 0 0.5127451
0.94068627 0.010784314 0.48186275
0.99411765 0.0058823529 0.45882353
0.0017156863 0.070098039 0.61764706
0.0049632353 0.05591299 0.62156863
0.24338235 0.0375 0.61764706
0.44344363 0.018964461 0.60735294
0.61372549 0.014093137 0.59571078
0.74240196 0.011182598 0.56216299
0.84803922 0.085171569 0.51942402
0.94068627 0.050704657 0.48575368
0.99803922 0.012745098 0.46666667
0.00049019608 0.24313725 0.62156863
0.0072916667 0.24417892 0.62156863
0.22316176 0.24276961 0.62230392
0.44497549 0.24411765 0.61856618
0.61446078 0.23823529 0.59387255
0.73651961 0.25042892 0.56194853
0.83835784 0.26519608 0.52058824
0.94264706 0.20490196 0.48161765
0.99215686 0.12598039 0.44901961
0.011029412 0.42647059 0.61053922
0.024019608 0.43431373 0.61461397
0.2189951 0.43308824 0.60839461
0.45364583 0.43186275 0.60511642
0.61568627 0.43357843 0.59546569
0.7254902 0.41813725 0.55707721
0.82947304 0.40006127 0.51672794
0.93658088 0.35670956 0.47588848
0.99215686 0.34215686 0.46078431
0.099019608 0.59313725 0.60294118
0.19411765 0.59803922 0.61286765
0.37230392 0.59117647 0.60710784
0.4872549 0.58272059 0.61041667
0.61372549 0.57843137 0.58627451
0.72671569 0.56985294 0.56519608
0.83039216 0.54607843 0.53333333
0.93578431 0.52879902 0.50036765
0.97941176 0.51764706 0.48823529
0.43529412 0.7129902 0.64215686
0.46856618 0.71568627 0.64607843
0.5122549 0.71960784 0.65
0.55591299 0.71645221 0.64607843
0.62622549 0.7125 0.63921569
0.72401961 0.69908088 0.61369485
0.82928922 0.6877451 0.57432598
0.94273897 0.675 0.54215686
0.97377451 0.66813725 0.53088235
0.5622549 0.82745098 0.71029412
0.58008578 0.82659314 0.71550245
0.60747549 0.82745098 0.71568627
0.63216912 0.83229167 0.71127451
0.66348039 0.83088235 0.69926471
0.72432598 0.82677696 0.68210784
0.82046569 0.81286765 0.64460784
0.92224265 0.79607843 0.60821078
0.99509804 0.8 0.58284314
0.67622549 0.92254902 0.7872549
0.67990196 0.92276348 0.78529412
0.67769608 0.92303922 0.77745098
0.69558824 0.92671569 0.7754902
0.71556373 0.92659314 0.77046569
0.75514706 0.92539828 0.76038603
0.81188725 0.91819853 0.74019608
0.89335172 0.91121324 0.70073529
0.97598039 0.91519608 0.66911765
0.75686275 0.98627451 0.84313725
0.75490196 0.98431373 0.84313725
0.75 0.97745098 0.83235294
0.7377451 0.9620098 0.81421569
0.7754902 0.98627451 0.82941176
0.80269608 0.98431373 0.82745098
0.83529412 0.98529412 0.81764706
0.88529412 0.98431373 0.7997549
0.93921569 0.97254902 0.76862745
0.0039215686 0.0039215686 0.75882353
0.023529412 0.0078431373 0.76519608
0.25012255 0.0039215686 0.75882353
0.44215686 0.0093137255 0.74460784
0.6004902 0.0078431373 0.73921569
0.74613971 0.0039215686 0.71868873
0.87291667 0.0049019608 0.69411765
0.9596201 0.099019608 0.65753676
0.99215686 0.20539216 0.64264706
0.011764706 0.033823529 0.76666667
0.0081112132 0.033823529 0.75931373
0.25620404 0.020971201 0.75882353
0.44508272 0.015617341 0.75067402
0.6096201 0.016084559 0.74313725
0.75704657 0.023835784 0.7294807
0.8713848 0.050980392 0.69411765
0.95598958 0.19172794 0.65574449
1 0.26096814 0.63609069
0.014705882 0.23333333 0.75490196
0.017172181 0.24094669 0.75490196
0.2450674 0.24019608 0.75186887
0.4535386 0.24005821 0.75098039
0.61102941 0.25367647 0.74417892
0.74705882 0.26568627 0.72611826
0.85931373 0.27588848 0.69264706
0.94865196 0.3314951 0.65802696
0.9942402 0.34362745 0.63872549
0.015686275 0.4122549 0.74705882
0.007176777 0.41931679 0.74705882
0.2557598 0.42401961 0.74068627
0.46289063 0.42009804 0.74103094
0.61568627 0.44047181 0.73452819
0.73829657 0.4466299 0.71421569
0.84685968 0.42879902 0.68198529
0.94271599 0.44381127 0.65147059
0.98376225 0.42107843 0.63082108
0.067892157 0.58088235 0.73210784
0.17830882 0.58088235 0.73529412
0.33033088 0.57604167 0.73137255
0.48161765 0.5745098 0.72791054
0.61507353 0.58002451 0.72095588
0.73382353 0.58131127 0.70637255
0.84001225 0.56127451 0.68480392
0.93259804 0.54102328 0.64745711
0.98897059 0.50612745 0.61446078
0.35876225 0.70784314 0.72990196
0.4080193 0.70637255 0.73609835
0.48198529 0.71398591 0.7401348
0.55441176 0.70784314 0.72557445
0.64684436 0.70392157 0.72107843
0.73921569 0.69460784 0.70876225
0.83137255 0.68053002 0.68578431
0.92970282 0.67664675 0.66568627
0.99215686 0.64356618 0.63780637
0.54558824 0.82254902 0.76568627
0.5786152 0.82536765 0.76960784
0.61930147 0.82708333 0.76933211
0.66176471 0.82647059 0.77745098
0.70857843 0.82254902 0.77352941
0.75300245 0.81960784 0.76614583
0.83039216 0.81387868 0.74938725
0.92593444 0.79987745 0.70392157
0.99215686 0.78823529 0.68088235
0.69558824 0.92254902 0.82726716
0.69716605 0.91734069 0.82990196
0.72205882 0.92222733 0.83351716
0.74282322 0.92254902 0.83217678
0.77303922 0.91862745 0.83103554
0.8080193 0.91893382 0.82598039
0.84215686 0.91885723 0.81078431
0.91070006 0.90557598 0.77383578
0.98382353 0.91109069 0.75098039
0.78970588 0.97892157 0.88382353
0.79375 0.97579657 0.8810049
0.80392157 0.97708333 0.88382353
0.80441176 0.97009804 0.875
0.82058824 0.97965686 0.87671569
0.84215686 0.98339461 0.87598039
0.86519608 0.98039216 0.86360294
0.90294118 0.98952206 0.85863971
0.95686275 0.98284314 0.83676471
0 0 0.86960784
0.048406863 0.00085784314 0.86960784
0.26960784 0.0085784314 0.86960784
0.43872549 0.024019608 0.86715686
0.58921569 0.011764706 0.86176471
0.73823529 0.0099264706 0.85637255
0.86348039 0.022303922 0.83823529
0.96911765 0.084313725 0.81875
0.99607843 0.26764706 0.78137255
0.011764706 0.056985294 0.86960784
0.053048407 0.052941176 0.86960784
0.27671569 0.019332108 0.86960784
0.43970588 0.011780025 0.86960784
0.59313725 0.028002451 0.86047794
0.73855699 0.087928922 0.85303309
0.86568627 0.12821691 0.83376225
0.96868873 0.20997243 0.80833333
0.99607843 0.31666667 0.77781863
0.0078431373 0.24117647 0.86568627
0.054748775 0.24215686 0.8669424
0.28529412 0.24356618 0.8627451
0.45064338 0.25364583 0.85955882
0.59901961 0.26862745 0.8567402
0.73823529 0.30637255 0.85245098
0.86703431 0.32702206 0.83112745
0.96265319 0.35027574 0.80833333
0.99607843 0.40784314 0.78039216
0.019362745 0.41470588 0.86176471
0.17270221 0.42231924 0.8589614
0.33639706 0.42855392 0.85784314
0.47061887 0.43278186 0.85539216
0.61102941 0.44699755 0.8504902
0.73823529 0.46046262 0.84146752
0.85392157 0.47362132 0.82818627
0.94967831 0.48102022 0.80833333
0.98039216 0.49068627 0.79607843
0.042647059 0.55539216 0.84656863
0.17107843 0.55686275 0.84613971
0.34963235 0.56654412 0.84607843
0.47708333 0.56623775 0.84607843
0.61960784 0.58039216 0.84264706
0.74191176 0.58731618 0.83823529
0.85036765 0.58627451 0.82647059
0.93921569 0.58137255 0.80459559
0.99607843 0.59705882 0.78823529
0.32303922 0.69215686 0.83529412
0.36335784 0.6872549 0.8430913
0.43477328 0.69984681 0.83823529
0.52020527 0.6921875 0.83884804
0.63609069 0.69607843 0.83921569
0.7377451 0.69676777 0.83529412
0.84276961 0.69880515 0.82564338
0.93534007 0.68639706 0.79854473
0.99215686 0.67156863 0.77316176
0.50980392 0.81568627 0.84387255
0.52365196 0.81470588 0.84188113
0.56666667 0.82126225 0.8466299
0.6234375 0.81945466 0.84779412
0.69227941 0.81164216 0.85
0.76167279 0.81151961 0.84359681
0.84234069 0.80784314 0.82352941
0.93088235 0.79188113 0.80698529
0.99313725 0.75980392 0.77181373
0.66421569 0.91470588 0.87303922
0.67156863 0.91470588 0.87303922
0.7060049 0.9176777 0.87671569
0.73921569 0.91862745 0.88088235
0.79411765 0.91881127 0.88474265
0.83903186 0.9189951 0.88872549
0.87622549 0.92582721 0.88115809
0.92745098 0.90686275 0.85477941
0.98296569 0.90245098 0.83529412
0.78823529 0.97647059 0.90686275
0.78811275 0.97279412 0.90735294
0.8127451 0.97671569 0.9125
0.82769608 0.97647059 0.91862745
0.85539216 0.97990196 0.92058824
0.87598039 0.97585784 0.91862745
0.90318627 0.98431373 0.92254902
0.92696078 0.98431373 0.9064951
0.97254902 0.99117647 0.89607843
0.012254902 0.015686275 0.95392157
0.14362745 0.011764706 0.94607843
0.29448529 0.030882353 0.95
0.43204657 0.0056985294 0.95784314
0.57058824 0.011764706 0.95392157
0.71176471 0.018995098 0.94901961
0.83872549 0.13443627 0.9307598
0.95386029 0.23088235 0.92254902
0.99215686 0.31127451 0.90735294
0.0051470588 0.037071078 0.95790441
0.15539216 0.052941176 0.95005362
0.29761029 0.054289216 0.95784314
0.44144455 0.058356311 0.95626532
0.58036152 0.075735294 0.94828431
0.7167739 0.16795343 0.94264706
0.84581801 0.25654105 0.93812806
0.95741422 0.29160539 0.93045343
0.99166667 0.3411152 0.90784314
0.083333333 0.25306373 0.94693627
0.19266238 0.25392157 0.9535386
0.32123162 0.25735294 0.95
0.45851716 0.27149203 0.95134804
0.58988971 0.29497549 0.94215686
0.71953125 0.33431373 0.93823529
0.84558824 0.37729779 0.93566176
0.95784314 0.40108762 0.93431373
0.99607843 0.42156863 0.91127451
0.20882353 0.42794118 0.94607843
0.27612592 0.42843137 0.94989277
0.37460172 0.43324142 0.94451593
0.49099265 0.44480699 0.94253217
0.61421569 0.45940564 0.9385723
0.72959559 0.4745098 0.94006587
0.84301471 0.50212929 0.93088235
0.94204963 0.50984222 0.92696078
0.99607843 0.51372549 0.91519608
0.25735294 0.55882353 0.94240196
0.31050858 0.55707721 0.9424326
0.40373775 0.56427696 0.94264706
0.51681985 0.57230392 0.93841912
0.62745098 0.58039216 0.93345588
0.73651961 0.59093137 0.93471201
0.84607843 0.60465686 0.93039216
0.94261642 0.61032475 0.92696078
0.98823529 0.61029412 0.9247549
0.31685049 0.67205882 0.93480392
0.35927543 0.67252604 0.93302696
0.4191636 0.67512255 0.93431373
0.52009804 0.68020833 0.93480392
0.63103554 0.68553922 0.93088235
0.73792892 0.69699755 0.92696078
0.85085784 0.71041667 0.93039216
0.93694853 0.71078431 0.91734069
0.99362745 0.70833333 0.91158088
0.48039216 0.80392157 0.92659314
0.49874387 0.79629289 0.92647059
0.53808211 0.79779412 0.9229473
0.60085784 0.80343137 0.92696078
0.67101716 0.8 0.93069853
0.75880821 0.8027114 0.92942708
0.85 0.81277574 0.91911765
0.93825061 0.81997549 0.91911765
0.97941176 0.80477941 0.90392157
0.63768382 0.91813725 0.93431373
0.64504442 0.91170343 0.93431373
0.66813725 0.90735294 0.93051471
0.70486366 0.90735294 0.93072151
0.76960784 0.91084559 0.93777574
0.82729013 0.90343137 0.94215686
0.87428002 0.91202512 0.93463542
0.93904718 0.91127451 0.93866422
0.96954657 0.90386029 0.92346814
0.78039216 0.98088235 0.94558824
0.78033088 0.97689951 0.94558824
0.81176471 0.98431373 0.94558824
0.82156863 0.98039216 0.9495098
0.86642157 0.98431373 0.95343137
0.89852941 0.98333333 0.95392157
0.91078431 0.97647059 0.95343137
0.95042892 0.98866422 0.96127451
0.96127451 0.98039216 0.95735294
0.16862745 0.011764706 0.99607843
0.20245098 0.0039215686 0.99607843
0.31764706 0 0.99607843
0.44117647 0.0014705882 0.99607843
0.56862745 0.088235294 1
0.69362745 0.16764706 0.99215686
0.81862745 0.24803922 0.98431373
0.91911765 0.35392157 0.98823529
0.99607843 0.40392157 0.99607843
0.13382353 0.092647059 0.99607843
0.21764706 0.091176471 0.99607843
0.32634804 0.10637255 0.98860294
0.44901961 0.14491422 0.99607843
0.57598039 0.19191176 0.99607843
0.69969363 0.24852941 0.99215686
0.82218137 0.31029412 0.98431373
0.92303922 0.38872549 0.99650735
0.99607843 0.43039216 0.99558824
0.21568627 0.26078431 0.99607843
0.25882353 0.27254902 0.99607843
0.36078431 0.28504902 0.98823529
0.4754902 0.30343137 0.99068627
0.59117647 0.32745098 0.99215686
0.70747549 0.37009804 0.99215686
0.81960784 0.41078431 0.99313725
0.92610294 0.45379902 0.99607843
0.97352941 0.47647059 0.99607843
0.31862745 0.43186275 0.99460784
0.34509804 0.44332108 0.99607843
0.40919118 0.44362745 0.99276961
0.51176471 0.45631127 0.99215686
0.61617647 0.46985294 0.99338235
0.72352941 0.48670343 0.98676471
0.83431373 0.51213235 0.98002451
0.93039216 0.5408701 0.97647059
0.99607843 0.57205882 0.99607843
0.35882353 0.56078431 0.99607843
0.40343137 0.57058824 0.99632353
0.45 0.56666667 0.99607843
0.5379902 0.57181373 0.99215686
0.63529412 0.58431373 0.98431373
0.73382353 0.59877451 0.98382353
0.83431373 0.61617647 0.99362745
0.93259804 0.63578431 0.975
0.99607843 0.65686275 0.99215686
0.35686275 0.65539216 0.99607843
0.36685049 0.65931373 0.99607843
0.46470588 0.66715686 0.99215686
0.54068627 0.675 0.98768382
0.6504902 0.68553922 0.98970588
0.74797794 0.70091912 0.97849265
0.8432598 0.72022059 0.98431373
0.93039216 0.73431373 0.98823529
0.99215686 0.74705882 0.98970588
0.4754902 0.77745098 0.98921569
0.49509804 0.78039216 0.98737745
0.5245098 0.77647059 0.98651961
0.59166667 0.78431373 0.99068627
0.68627451 0.79117647 0.98137255
0.75735294 0.79656863 0.98247549
0.85171569 0.81568627 0.99142157
0.92781863 0.82647059 0.97071078
0.98921569 0.83529412 0.98137255
0.6372549 0.89166667 0.98039216
0.6372549 0.89558824 0.97696078
0.65980392 0.8995098 0.97120098
0.70067402 0.89607843 0.99215686
0.75612745 0.89558824 0.9747549
0.80833333 0.89166667 0.98431373
0.8692402 0.90036765 0.98431373
0.94172794 0.91084559 0.97689951
0.98088235 0.91519608 0.97696078
0.76862745 0.98039216 0.96470588
0.77156863 0.9877451 0.99166667
0.79509804 0.97647059 0.95784314
0.80637255 0.98676471 0.99068627
0.8372549 0.98431373 0.98627451
0.87990196 0.97647059 0.98039216
0.91078431 0.97843137 0.98333333
0.95735294 0.9877451 0.99166667
0.99215686 0.97254902 0.99215686
