site/assets/luts/natron-haldclut--kodak-portra-400-vc--8336a8694.cube
# LUTr-Project: LUTr — LUTrepository
# LUTr-Schema-Version: 1
# LUTr-ID: natron-haldclut--kodak-portra-400-vc--8336a8694
# LUTr-Title: kodak portra 400 vc
# LUTr-Collection: Natron HaldCLUT
# LUTr-Collection-ID: natron-haldclut-presets
# LUTr-Source: https://github.com/NatronGitHub/clut
# LUTr-Source-File: submissions/natron-haldclut-presets/negative_old/kodak_portra_400_vc.png
# LUTr-Source-Format: PNG
# LUTr-Source-SHA256: 94c9561df90d72cb49ee25cf0a153eaaa5564e8d2e608a0e09f7537447d96b7e
# LUTr-License: CC-BY-SA-4.0
# LUTr-License-URL: https://github.com/NatronGitHub/clut#license
# LUTr-Tags: creative, film, film-emulation, hald-clut, natron, png, cube
# LUTr-Transform-Class: film-emulation
# LUTr-Input-Color-Space: srgb
# LUTr-Output-Color-Space: srgb
# LUTr-Color-Space-Confidence: assumed-display-referred
# LUTr-Conversion-Method: PNG LUT image decoded at 16-bit and sampled to 25x25x25 3D CUBE
# LUTr-Conversion-Date: 2026-07-27
# LUTr-Conversion-Tool: LUTr scripts/convert-all-to-cube.mjs
# LUTr-Conversion-Grid: 25x25x25
# LUTr-Note: Preserve this metadata and the upstream license notices when redistributing.
TITLE "kodak portra 400 vc"
LUT_3D_SIZE 5
DOMAIN_MIN 0 0 0
DOMAIN_MAX 1 1 1
0.023529412 0.039215686 0.043137255
0.18235294 0.058823529 0.03627451
0.54117647 0.07254902 0.0019607843
0.82647059 0.10686275 0.0039215686
0.97254902 0.18431373 0.0039215686
0.0039215686 0.22156863 0.099019608
0.16151961 0.24044118 0.066421569
0.59754902 0.28137255 0.018627451
0.85 0.27058824 0.0031862745
0.98921569 0.31176471 0
0.0039215686 0.51764706 0.20196078
0.0073529412 0.52156863 0.20441176
0.52941176 0.57647059 0.070588235
0.83088235 0.56862745 0.0044117647
0.99411765 0.51372549 0
0.16960784 0.7372549 0.38529412
0.28137255 0.73235294 0.38823529
0.48970588 0.74166667 0.37843137
0.7252451 0.77083333 0.32254902
0.97254902 0.77647059 0.20196078
0.61568627 0.90588235 0.68627451
0.63529412 0.90588235 0.68235294
0.69019608 0.90588235 0.69607843
0.78627451 0.93039216 0.69509804
0.88627451 0.94117647 0.67058824
0.0039215686 0.070588235 0.24705882
0.20514706 0.03995098 0.22647059
0.58039216 0.011764706 0.21421569
0.82156863 0.068627451 0.18112745
0.96960784 0.17352941 0.13431373
0.0088235294 0.26176471 0.26740196
0.21219363 0.27101716 0.27941176
0.61470588 0.24914216 0.22867647
0.8375 0.27156863 0.18137255
0.96862745 0.29117647 0.15318627
0.070588235 0.56127451 0.36421569
0.23713235 0.55355392 0.36115196
0.55980392 0.57083333 0.31887255
0.8372549 0.55 0.20477941
0.98627451 0.51372549 0.11176471
0.32083333 0.74411765 0.4754902
0.3872549 0.74074755 0.4747549
0.53223039 0.74166667 0.47071078
0.74313725 0.77156863 0.43235294
0.97328431 0.78112745 0.36642157
0.63039216 0.90980392 0.70490196
0.65588235 0.9127451 0.71176471
0.70735294 0.91029412 0.72401961
0.78284314 0.91715686 0.69926471
0.88431373 0.9372549 0.69019608
0.0019607843 0.10980392 0.54117647
0.12794118 0.10833333 0.5627451
0.59215686 0.066666667 0.57254902
0.85637255 0.15 0.50490196
0.99607843 0.13137255 0.42156863
0.0039215686 0.31715686 0.57990196
0.18786765 0.31176471 0.58382353
0.61372549 0.32058824 0.57892157
0.85 0.33370098 0.51470588
0.99607843 0.30686275 0.44019608
0.065686275 0.58921569 0.58137255
0.36519608 0.58676471 0.59362745
0.61078431 0.59019608 0.59558824
0.82132353 0.58039216 0.5495098
0.97745098 0.54901961 0.48333333
0.50196078 0.76911765 0.65833333
0.54963235 0.76764706 0.6504902
0.62181373 0.75882353 0.64215686
0.76960784 0.7754902 0.62610294
0.98137255 0.77205882 0.56960784
0.67254902 0.91372549 0.76666667
0.68039216 0.90784314 0.75931373
0.72941176 0.9127451 0.76568627
0.80735294 0.91617647 0.76029412
0.90196078 0.94509804 0.7627451
0.011764706 0.22156863 0.77941176
0.18039216 0.24019608 0.79117647
0.58235294 0.28823529 0.78921569
0.81862745 0.35612745 0.78406863
0.9754902 0.45686275 0.74803922
0.015686275 0.36666667 0.7872549
0.27751225 0.3754902 0.79093137
0.58676471 0.41629902 0.7872549
0.82273284 0.45710784 0.7872549
0.95833333 0.51740196 0.75514706
0.15343137 0.58333333 0.77205882
0.36973039 0.59497549 0.7754902
0.6002451 0.60392157 0.7872549
0.80686275 0.63627451 0.7872549
0.9622549 0.65588235 0.76960784
0.46348039 0.78333333 0.78406863
0.5466299 0.78609069 0.79044118
0.66372549 0.78333333 0.79509804
0.81372549 0.78964461 0.80140931
0.95122549 0.7872549 0.77328431
0.70686275 0.93431373 0.84803922
0.72156863 0.92941176 0.84901961
0.77107843 0.92647059 0.84901961
0.83651961 0.92573529 0.84509804
0.94509804 0.92254902 0.82941176
0.41960784 0.47058824 0.94509804
0.49313725 0.47843137 0.94117647
0.65294118 0.52352941 0.94117647
0.82254902 0.55686275 0.92058824
0.92941176 0.62352941 0.93333333
0.46078431 0.54313725 0.94117647
0.5252451 0.54583333 0.9379902
0.66666667 0.5754902 0.9377451
0.82647059 0.62352941 0.93357843
0.97352941 0.66568627 0.9372549
0.51372549 0.67647059 0.93333333
0.56715686 0.67990196 0.94264706
0.66862745 0.67843137 0.9372549
0.83039216 0.71078431 0.93872549
0.95490196 0.7372549 0.9372549
0.51568627 0.80980392 0.93627451
0.56078431 0.81078431 0.93823529
0.63872549 0.79019608 0.89362745
0.81078431 0.80686275 0.93529412
0.9627451 0.83235294 0.93627451
0.67843137 0.96078431 0.96078431
0.69117647 0.93333333 0.9254902
0.73333333 0.93333333 0.94901961
0.84901961 0.95392157 0.95294118
0.96078431 0.91372549 0.95294118
