site/assets/luts/natron-haldclut--fuji-fp-100c--19db7c4ee.cube
# LUTr-Project: LUTr — LUTrepository
# LUTr-Schema-Version: 1
# LUTr-ID: natron-haldclut--fuji-fp-100c--19db7c4ee
# LUTr-Title: fuji fp 100c
# LUTr-Collection: Natron HaldCLUT
# LUTr-Collection-ID: natron-haldclut-presets
# LUTr-Source: https://github.com/NatronGitHub/clut
# LUTr-Source-File: submissions/natron-haldclut-presets/colorslide/fuji_fp_100c.png
# LUTr-Source-Format: PNG
# LUTr-Source-SHA256: cb93acc4eb0e8fb2a1b64ab0e47207c0605cde32980c32cfe7b036aaeaa0b4f9
# LUTr-License: CC-BY-SA-4.0
# LUTr-License-URL: https://github.com/NatronGitHub/clut#license
# LUTr-Tags: creative, film, film-emulation, hald-clut, natron, png, cube
# LUTr-Transform-Class: film-emulation
# LUTr-Input-Color-Space: srgb
# LUTr-Output-Color-Space: srgb
# LUTr-Color-Space-Confidence: assumed-display-referred
# LUTr-Conversion-Method: PNG LUT image decoded at 16-bit and sampled to 25x25x25 3D CUBE
# LUTr-Conversion-Date: 2026-07-27
# LUTr-Conversion-Tool: LUTr scripts/convert-all-to-cube.mjs
# LUTr-Conversion-Grid: 25x25x25
# LUTr-Note: Preserve this metadata and the upstream license notices when redistributing.
TITLE "fuji fp 100c"
LUT_3D_SIZE 9
DOMAIN_MIN 0 0 0
DOMAIN_MAX 1 1 1
0.0078431373 0.019607843 0.0039215686
0.03872549 0.0044117647 0.011764706
0.11960784 0.024509804 0.0039215686
0.17058824 0 0
0.28431373 0.0019607843 0.0019607843
0.43088235 0.0078431373 0
0.60490196 0.015686275 0
0.71568627 0.0078431373 0
0.80784314 0.0039215686 0
0.053921569 0.073039216 0.023039216
0.081311275 0.076041667 0.042401961
0.14252451 0.065196078 0.015196078
0.21617647 0.045404412 0.0039215686
0.32867647 0.037990196 0.0073529412
0.46697304 0.019117647 0.0039215686
0.61948529 0.015686275 0
0.72303922 0.011764706 0
0.81568627 0.011764706 0
0.10784314 0.17745098 0.057843137
0.13125 0.16997549 0.053921569
0.18529412 0.1625 0.047058824
0.27095588 0.15502451 0.038235294
0.38235294 0.14313725 0.02745098
0.51519608 0.10294118 0.021078431
0.64583333 0.062745098 0.0029411765
0.7495098 0.050980392 0
0.83823529 0.019607843 0
0.15 0.31813725 0.096568627
0.17843137 0.30686275 0.095098039
0.23370098 0.30306373 0.089705882
0.3245098 0.29705882 0.075490196
0.43161765 0.26176471 0.038970588
0.56764706 0.23823529 0.041666667
0.69509804 0.19558824 0.014705882
0.79852941 0.15275735 0.0039215686
0.86911765 0.12156863 0.0039215686
0.18235294 0.48627451 0.12941176
0.23455882 0.4745098 0.12573529
0.30098039 0.47205882 0.12107843
0.38970588 0.46544118 0.10612745
0.5127451 0.45490196 0.082352941
0.6372549 0.41813725 0.062009804
0.74803922 0.38137255 0.03872549
0.84852941 0.35 0.017156863
0.89607843 0.33137255 0.0078431373
0.31960784 0.63333333 0.12009804
0.33676471 0.64117647 0.12401961
0.41286765 0.6372549 0.11715686
0.49019608 0.62849265 0.10588235
0.61102941 0.61176471 0.089460784
0.71078431 0.5971201 0.074509804
0.80980392 0.5692402 0.058210784
0.88658088 0.54411765 0.05067402
0.95980392 0.52647059 0.048529412
0.49215686 0.74019608 0.089215686
0.51433824 0.74019608 0.089215686
0.55588235 0.73553922 0.085294118
0.62696078 0.72843137 0.07745098
0.70294118 0.72745098 0.065686275
0.78921569 0.7127451 0.061764706
0.85955882 0.7 0.053921569
0.92303922 0.68909314 0.050980392
0.96862745 0.65784314 0.047058824
0.67696078 0.8122549 0.053921569
0.68523284 0.80882353 0.050061275
0.71041667 0.80490196 0.04620098
0.75196078 0.80471814 0.034987745
0.80759804 0.79705882 0.03872549
0.8653799 0.79313725 0.029411765
0.90882353 0.78529412 0.031004902
0.95392157 0.7778799 0.034803922
0.98480392 0.7622549 0.030882353
0.82745098 0.8627451 0.0078431373
0.84754902 0.86666667 0.0034313725
0.85098039 0.85980392 0.0078431373
0.87156863 0.85882353 0.0078431373
0.90784314 0.85882353 0.0039215686
0.93872549 0.8495098 0.0053921569
0.96568627 0.84313725 0.0078431373
1 0.8504902 0.00049019608
1 0.84313725 0.0039215686
0.015686275 0.0083333333 0.057843137
0.042156863 0.0078431373 0.049509804
0.10306373 0.0044117647 0.042156863
0.18400735 0.0078431373 0.040012255
0.28921569 0.006372549 0.01372549
0.43155637 0.0044117647 0.0044117647
0.59705882 0.0078431373 0.0077205882
0.71219363 0.0043504902 0.0039215686
0.81568627 0 0
0.046997549 0.084803922 0.085232843
0.081372549 0.080882353 0.076960784
0.1417739 0.072717525 0.065196078
0.22616422 0.054901961 0.047058824
0.33235294 0.042156863 0.028890931
0.46530331 0.025 0.013886336
0.61433824 0.0083180147 0
0.72346814 0.0082720588 0.0038679534
0.81917892 0.0078431373 0.0038602941
0.10441176 0.18823529 0.11531863
0.12798713 0.1842065 0.10827206
0.18431373 0.17637868 0.098988971
0.26821385 0.16560968 0.087699142
0.37843137 0.13872549 0.058333333
0.51017157 0.10526961 0.034053309
0.64215686 0.073529412 0.018198529
0.74940257 0.042064951 0.015196078
0.83823529 0.015686275 0.0077205882
0.14411765 0.33363971 0.14901961
0.15904565 0.3157935 0.13872549
0.23337929 0.31421569 0.13480392
0.32058824 0.30153186 0.12223499
0.44019608 0.2729473 0.092984069
0.56764706 0.23431373 0.059865196
0.69131434 0.20335478 0.038143382
0.79795496 0.15667892 0.029411765
0.86960784 0.11433824 0.025490196
0.17892157 0.49166667 0.1754902
0.23327206 0.48578431 0.16917892
0.29558824 0.48186275 0.15931373
0.39681373 0.46927083 0.14941789
0.50894608 0.45306373 0.13063725
0.63342525 0.41544118 0.093627451
0.74613971 0.38707108 0.078737745
0.84852941 0.36617647 0.057873775
0.92132353 0.32181373 0.046568627
0.30931373 0.64607843 0.178125
0.34754902 0.64525888 0.17922794
0.39964767 0.63419118 0.15428922
0.4955193 0.62696078 0.14442402
0.59852941 0.6143076 0.12843137
0.7098652 0.59803922 0.1153799
0.80196078 0.57107843 0.10079657
0.88658088 0.54542739 0.085638787
0.95098039 0.52273284 0.088541667
0.50012255 0.74803922 0.12254902
0.51813725 0.74791667 0.12915135
0.55487132 0.74286152 0.11712623
0.62143076 0.73619792 0.10735294
0.7002451 0.7245098 0.099938725
0.78534007 0.72112439 0.08872549
0.85983456 0.70775123 0.088235294
0.91960784 0.69221814 0.092156863
0.97254902 0.67046569 0.097058824
0.68088235 0.81666667 0.065196078
0.6852405 0.81666667 0.065686275
0.71395527 0.8127451 0.066176471
0.75327053 0.80618873 0.057352941
0.80147059 0.80269608 0.0671875
0.86149663 0.79356618 0.053163297
0.9127451 0.79313725 0.052251838
0.95392157 0.78180147 0.057414216
0.98872549 0.77401961 0.076470588
0.83921569 0.87058824 0.0039215686
0.83921569 0.87015931 0.0078431373
0.86188725 0.86678922 0.0039215686
0.87303922 0.86011029 0.011764706
0.90955882 0.8627451 0.0041666667
0.94607843 0.85882353 0.0039215686
0.97647059 0.85392157 0.0087009804
0.98480392 0.83921569 0.026960784
0.99607843 0.84705882 0.019117647
0.015686275 0.011764706 0.13431373
0.053921569 0.026102941 0.13602941
0.1129902 0.017647059 0.12647059
0.18823529 0.0093137255 0.10441176
0.31470588 0.0039215686 0.081372549
0.45796569 0.0039215686 0.053921569
0.58921569 0 0.011519608
0.71862745 0 0.011642157
0.81470588 0 0.0039215686
0.056985294 0.095588235 0.16127451
0.085232843 0.08872549 0.15735294
0.14264706 0.074019608 0.14656863
0.22602635 0.065563725 0.12994792
0.34068627 0.044117647 0.099019608
0.46960784 0.01685049 0.066666667
0.61127451 0.0078431373 0.042647059
0.72964154 0.0073529412 0.021691176
0.81960784 0 0.0078431373
0.11666667 0.19436275 0.19509804
0.12879902 0.19191176 0.18802083
0.18082108 0.18504902 0.17745098
0.26421569 0.16801471 0.1622549
0.38272059 0.14705882 0.13602941
0.51957721 0.11590074 0.1004902
0.64583333 0.078002451 0.069852941
0.75992647 0.029289216 0.041084559
0.83995098 0.010784314 0.024509804
0.12610294 0.33382353 0.23480392
0.16617647 0.32896752 0.22696078
0.2254902 0.31776961 0.21436887
0.31708027 0.31075368 0.20712316
0.44197304 0.28480392 0.17401961
0.57659314 0.25294118 0.13921569
0.69509804 0.21715686 0.11409314
0.79822304 0.1713848 0.091176471
0.86617647 0.12781863 0.075857843
0.19264706 0.50588235 0.26470588
0.22677696 0.50545343 0.25692402
0.28419118 0.49301471 0.24607843
0.39031863 0.47886029 0.2372549
0.51053922 0.46004902 0.2125
0.63995098 0.42518382 0.17904412
0.75257353 0.41127451 0.16029412
0.83529412 0.36789216 0.15379902
0.91176471 0.32745098 0.14166667
0.30294118 0.6564951 0.2745098
0.33627451 0.65294118 0.26930147
0.39981618 0.64856005 0.26639093
0.4955576 0.63549326 0.24446998
0.59944853 0.62310049 0.2254902
0.70598958 0.60919118 0.21309743
0.79776348 0.57481618 0.19200368
0.87754289 0.56444547 0.19546569
0.94656863 0.53578431 0.18970588
0.48848039 0.75588235 0.2372549
0.50735294 0.75563725 0.23630515
0.55269608 0.75251225 0.23314951
0.61608456 0.74803922 0.2245098
0.6995098 0.7372549 0.20196078
0.77561275 0.73137255 0.21262255
0.84705882 0.72015931 0.19564951
0.91375613 0.70260417 0.20036765
0.97279412 0.69387255 0.19901961
0.67438725 0.82843137 0.16862745
0.68212316 0.82757353 0.13861826
0.70833333 0.8245098 0.14788603
0.7501685 0.81960784 0.13609069
0.79375 0.81617647 0.14546569
0.85133272 0.81176471 0.13223039
0.90033701 0.80496324 0.14730392
0.95183824 0.79742647 0.14520527
0.99595588 0.79227941 0.16433824
0.83627451 0.88137255 0.011764706
0.8435049 0.87843137 0.017647059
0.84901961 0.87745098 0.020588235
0.8745098 0.87745098 0.010661765
0.88431373 0.86323529 0.040686275
0.93186275 0.86911765 0.019117647
0.97254902 0.86960784 0.0095588235
0.99264706 0.86568627 0.015318627
0.99607843 0.85784314 0.045098039
0.019607843 0.015686275 0.22696078
0.042156863 0.015379902 0.22144608
0.10747549 0.014215686 0.21580882
0.20098039 0.015686275 0.19705882
0.2870098 0 0.16617647
0.45441176 0.0039215686 0.14166667
0.59607843 0 0.10833333
0.7153799 0 0.091666667
0.80392157 0 0.076470588
0.046384804 0.10655637 0.25765931
0.084375 0.099019608 0.25610447
0.14166667 0.090946691 0.24460784
0.23039216 0.079963235 0.22535999
0.33848039 0.055882353 0.203125
0.47567402 0.031441483 0.17616422
0.61519608 0.0094515931 0.13713235
0.72926624 0.0039215686 0.11125153
0.81176471 0 0.097365196
0.11237745 0.21029412 0.29620098
0.12536765 0.20392157 0.29624694
0.17745098 0.19313725 0.28431373
0.26620711 0.17647059 0.26703431
0.38480392 0.15569853 0.24901961
0.51865809 0.11968444 0.21519608
0.65 0.085294118 0.17941176
0.75735294 0.050628064 0.1564951
0.81568627 0.037254902 0.14901961
0.11035539 0.34558824 0.34166667
0.14980086 0.34283088 0.33645833
0.2217065 0.3377451 0.32598039
0.31848192 0.32448683 0.31364124
0.44534314 0.30202206 0.29856005
0.57941176 0.27150735 0.2687117
0.69620098 0.23540135 0.23785233
0.79344363 0.19166667 0.21371783
0.86519608 0.13529412 0.19656863
0.1752451 0.5247549 0.38431373
0.20425858 0.51636029 0.38063725
0.27800245 0.50392157 0.37144608
0.38431373 0.49757966 0.36078431
0.51470588 0.48284314 0.33982843
0.63817402 0.44803922 0.31470588
0.74270833 0.41819853 0.29607843
0.83324142 0.3893076 0.28284314
0.90073529 0.33848039 0.27622549
0.29993873 0.66470588 0.4122549
0.32359069 0.66862745 0.40521599
0.38748468 0.6622549 0.40196078
0.48013174 0.6598652 0.39356618
0.59460784 0.6448223 0.37303922
0.69567249 0.62794118 0.35827206
0.78304228 0.59244792 0.34359681
0.86697304 0.58235294 0.33676471
0.93627451 0.55692402 0.3401348
0.47291667 0.77120098 0.40588235
0.49166667 0.77401961 0.40399816
0.53489583 0.76963848 0.40404412
0.60582108 0.76617647 0.39551164
0.68259804 0.7588848 0.38284314
0.76023284 0.74748775 0.37248775
0.83247549 0.7361826 0.37110907
0.89607843 0.72313113 0.36741728
0.96568627 0.71041667 0.3807598
0.65753676 0.84411765 0.3504902
0.66713388 0.84411765 0.34117647
0.69171262 0.8410386 0.34505208
0.72745098 0.83872549 0.34355852
0.77867647 0.83186275 0.34338235
0.83155637 0.82873775 0.34901961
0.8807598 0.82317708 0.35851716
0.93654259 0.81508885 0.35471814
0.98235294 0.80784314 0.36323529
0.81323529 0.89656863 0.17205882
0.82640931 0.89656863 0.16740196
0.83235294 0.89411765 0.18161765
0.8627451 0.89411765 0.16868873
0.88186275 0.89068627 0.17671569
0.92058824 0.89264706 0.17542892
0.95441176 0.88921569 0.17487745
0.98841912 0.88480392 0.20784314
0.99754902 0.87058824 0.275
0.0019607843 0.021568627 0.3372549
0.042401961 0.035294118 0.34166667
0.099019608 0.014215686 0.32745098
0.19681373 0.016421569 0.31642157
0.30784314 0.0078431373 0.29509804
0.4497549 0.0039215686 0.26838235
0.58823529 0.0019607843 0.22843137
0.70735294 0 0.21519608
0.80588235 0 0.19803922
0.06004902 0.12205882 0.38186275
0.07745098 0.11449142 0.37794118
0.13480392 0.10490196 0.36985294
0.23030025 0.088235294 0.35196078
0.33762255 0.068259804 0.32892157
0.4734375 0.03872549 0.29803922
0.60851716 0.024509804 0.27071078
0.72650123 0.0039215686 0.24825368
0.80392157 0 0.23627451
0.092156863 0.22941176 0.43137255
0.11985294 0.22028186 0.43137255
0.17647059 0.2060049 0.41470588
0.26519608 0.19319853 0.40147059
0.38872549 0.16715686 0.38039216
0.51973039 0.13400735 0.35147059
0.64865196 0.099142157 0.32083333
0.74803922 0.058394608 0.29754902
0.8245098 0.019117647 0.28088235
0.08627451 0.36446078 0.48529412
0.1388174 0.36151961 0.48201593
0.21176471 0.3495098 0.47058824
0.3127451 0.33382353 0.45784314
0.44607843 0.31776961 0.44056373
0.57668505 0.29117647 0.41323529
0.68719363 0.25208333 0.3838848
0.78146446 0.20392157 0.36354167
0.85196078 0.15735294 0.34926471
0.11960784 0.53529412 0.54117647
0.19669118 0.52794118 0.52769608
0.27205882 0.52352941 0.52352941
0.38002451 0.51678922 0.51678922
0.50833333 0.50490196 0.50196078
0.62438725 0.47928922 0.47647059
0.72990196 0.44215686 0.45245098
0.82181373 0.41323529 0.43995098
0.88921569 0.35784314 0.42843137
0.27401961 0.68186275 0.57205882
0.30284926 0.6885723 0.57377451
0.37622549 0.67573529 0.56470588
0.47086397 0.67843137 0.55637255
0.58051471 0.66911765 0.54693627
0.6794424 0.64659926 0.52745098
0.77132353 0.62800245 0.51323529
0.85358456 0.60352328 0.50441176
0.91642157 0.57867647 0.50147059
0.45147059 0.78872549 0.57843137
0.47224265 0.78529412 0.56973039
0.52303922 0.78321078 0.5754902
0.58848039 0.78553922 0.57064951
0.66470588 0.77745098 0.55980392
0.7411152 0.76268382 0.546875
0.81176471 0.76029412 0.5504902
0.88039216 0.73890931 0.53186275
0.94068627 0.72598039 0.54068627
0.63578431 0.86960784 0.56568627
0.63970588 0.86029412 0.54901961
0.67377451 0.85851716 0.54264706
0.71078431 0.85612745 0.53480392
0.75539216 0.85208333 0.53762255
0.80735294 0.84828431 0.53872549
0.86170343 0.84632353 0.54607843
0.91348039 0.83823529 0.54926471
0.97107843 0.83088235 0.56078431
0.78431373 0.91764706 0.44117647
0.79166667 0.92132353 0.44730392
0.81078431 0.92009804 0.44166667
0.82990196 0.91960784 0.44828431
0.85098039 0.91568627 0.45588235
0.88970588 0.91568627 0.44901961
0.92647059 0.91372549 0.45882353
0.96715686 0.91348039 0.46715686
0.99607843 0.91176471 0.48431373
0.0078431373 0.056372549 0.48823529
0.032169118 0.034129902 0.47169118
0.099632353 0.026348039 0.47071078
0.18382353 0.017156863 0.45140931
0.29681373 0.01127451 0.43480392
0.45294118 0.019607843 0.43186275
0.58431373 0.0039215686 0.37990196
0.70557598 0 0.34313725
0.79607843 0 0.36127451
0.043933824 0.13578431 0.52665441
0.077182904 0.12810202 0.51897212
0.13480392 0.12009804 0.51128983
0.21862745 0.10496324 0.50226716
0.33848039 0.082935049 0.47794118
0.47646293 0.051960784 0.44694393
0.60704657 0.029059436 0.41617647
0.71893382 0.0036534926 0.38964461
0.80030637 0.0012867647 0.37224265
0.084191176 0.24313725 0.58186275
0.11092218 0.23543199 0.57490809
0.16470588 0.22432598 0.5560049
0.26026348 0.21023284 0.54587929
0.39289216 0.18897059 0.5245098
0.52193627 0.15215993 0.49154412
0.6481924 0.12034314 0.46176471
0.74220282 0.078431373 0.43730086
0.80686275 0.035294118 0.42352941
0.078431373 0.38180147 0.63584559
0.13088235 0.3756204 0.62040441
0.20611213 0.36519608 0.61484375
0.3127451 0.35189951 0.60083487
0.44754902 0.33771446 0.58333333
0.57457108 0.31161918 0.55833333
0.68443627 0.26078431 0.52352941
0.77781097 0.23007813 0.49627757
0.84558824 0.16911765 0.48137255
0.11642157 0.54779412 0.68480392
0.17337623 0.54672181 0.67558211
0.27254902 0.53480392 0.66397059
0.38431373 0.53088235 0.65098039
0.50784314 0.51568627 0.63492647
0.62156863 0.50496324 0.61936275
0.72254902 0.46911765 0.58921569
0.81234681 0.4286152 0.57049632
0.88431373 0.38627451 0.55735294
0.27009804 0.69993873 0.71770833
0.30507812 0.69362745 0.70550705
0.37702206 0.70110294 0.70931373
0.47024357 0.69731924 0.70124081
0.57622549 0.68186275 0.68109681
0.67738971 0.66917892 0.6646829
0.76049326 0.64767157 0.64767157
0.83805147 0.6241345 0.63743107
0.89803922 0.59852941 0.62935049
0.44901961 0.80796569 0.72352941
0.47144608 0.803125 0.71738664
0.52058824 0.8004902 0.71960784
0.58137255 0.80012255 0.71568627
0.65251225 0.79656863 0.70863971
0.72977941 0.78872549 0.70061275
0.79901961 0.77742034 0.69289216
0.86470588 0.75949755 0.67679228
0.91752451 0.74840686 0.67708333
0.62205882 0.88511029 0.72322304
0.63333333 0.88480392 0.71568627
0.65654105 0.87977941 0.7127451
0.69061734 0.87959559 0.71831342
0.73979779 0.87175245 0.69779412
0.79784007 0.86942402 0.69215686
0.84603248 0.86510417 0.69558824
0.89820006 0.85765931 0.69716605
0.94803922 0.84607843 0.68645833
0.7495098 0.94166667 0.68676471
0.73921569 0.9346201 0.68933824
0.7810049 0.94362745 0.66666667
0.79068627 0.93780637 0.67303922
0.81372549 0.93088235 0.6870098
0.85637255 0.9338848 0.67647059
0.89497549 0.93431373 0.67830882
0.9403799 0.93694853 0.67401961
0.98431373 0.92696078 0.66617647
0.0029411765 0.05 0.61568627
0.042034314 0.054411765 0.61164216
0.10465686 0.03627451 0.59313725
0.19595588 0.043014706 0.58014706
0.30441176 0.0088235294 0.55441176
0.45539216 0.011764706 0.53186275
0.59215686 0.0039215686 0.49607843
0.69558824 0 0.46568627
0.78431373 0 0.46176471
0.053921569 0.14754902 0.65796569
0.082230392 0.13981311 0.6495098
0.14264706 0.13339461 0.63480392
0.23039216 0.11764706 0.61585478
0.34528186 0.092034314 0.59307598
0.48419118 0.065073529 0.55837929
0.61519608 0.037254902 0.52696078
0.71470588 0.022227328 0.50359988
0.79473039 0 0.48480392
0.089215686 0.25588235 0.69215686
0.11188725 0.24313725 0.6875
0.16862745 0.23572304 0.68210784
0.26976103 0.22153799 0.66617647
0.39693627 0.20159314 0.63921569
0.52585784 0.16715686 0.60094975
0.64828431 0.13192402 0.56862745
0.74117647 0.085784314 0.5416973
0.80784314 0.047058824 0.52254902
0.092279412 0.40110294 0.7432598
0.12467831 0.3810049 0.74077819
0.21078431 0.37120098 0.73014706
0.3254902 0.36335784 0.70994179
0.4504902 0.34411765 0.68823529
0.58033088 0.32303922 0.65919118
0.68581495 0.28529412 0.62647059
0.77598039 0.2493413 0.59692096
0.84166667 0.18431373 0.5754902
0.13284314 0.56568627 0.78921569
0.18627451 0.56476716 0.78529412
0.28345588 0.55208333 0.77156863
0.38731618 0.54436275 0.76102941
0.50784314 0.53063725 0.7372549
0.6254902 0.51011029 0.71917892
0.72254902 0.48492647 0.69509804
0.81078431 0.44019608 0.66292892
0.87647059 0.39215686 0.64509804
0.28223039 0.7127451 0.81470588
0.32438725 0.71666667 0.81715686
0.40098039 0.71176471 0.80833333
0.47856924 0.70992647 0.80441176
0.57671569 0.69460784 0.78088235
0.67401961 0.68339461 0.76372549
0.76066176 0.66973039 0.7495098
0.83431373 0.63739277 0.73285846
0.90772059 0.6122549 0.71862745
0.46568627 0.82647059 0.83357843
0.4877451 0.82254902 0.83140319
0.5252451 0.81807598 0.82720588
0.58348652 0.81626838 0.82208946
0.65735294 0.80931373 0.80882353
0.73186275 0.80294118 0.79834559
0.79583333 0.78964461 0.78425245
0.86078431 0.77178309 0.77447917
0.9 0.76544118 0.77156863
0.62169118 0.89901961 0.82647059
0.6305913 0.89914216 0.82244179
0.65759804 0.89522059 0.8231924
0.69027267 0.89129902 0.81862745
0.73455882 0.89129902 0.81954657
0.78676471 0.88628983 0.81078431
0.83360907 0.87913603 0.80955882
0.8877451 0.87136949 0.79541973
0.94166667 0.86127451 0.7872549
0.74901961 0.96176471 0.80392157
0.76335784 0.97254902 0.81470588
0.77156863 0.96470588 0.80759804
0.77696078 0.95441176 0.81139706
0.81813725 0.96617647 0.81568627
0.84215686 0.95502451 0.80784314
0.88333333 0.95759804 0.81078431
0.93026961 0.9564951 0.80294118
0.98333333 0.94901961 0.79509804
0.0068627451 0.058333333 0.71519608
0.042156863 0.051409314 0.70300245
0.12009804 0.048039216 0.69129902
0.20637255 0.031862745 0.67175245
0.33382353 0.031372549 0.64656863
0.47040441 0.014215686 0.6153799
0.60294118 0.0039215686 0.58737745
0.69993873 0.0039215686 0.55435049
0.78823529 0 0.53872549
0.074019608 0.14754902 0.73823529
0.093137255 0.14836091 0.74215686
0.15053615 0.13713235 0.72732843
0.2463848 0.12214308 0.70606618
0.37205882 0.10294118 0.67696078
0.5 0.075513174 0.64607843
0.62205882 0.036810662 0.61115196
0.7147595 0.026953125 0.58431373
0.79123775 0.012193627 0.56525735
0.090318627 0.25882353 0.77941176
0.12794118 0.24803922 0.76986826
0.19338235 0.24718137 0.76470588
0.29497549 0.2317402 0.74620098
0.41519608 0.20637255 0.71917892
0.53872549 0.175 0.68641238
0.64901961 0.13602941 0.65220588
0.7377451 0.090134804 0.61519608
0.80392157 0.058455882 0.59509804
0.10814951 0.40324755 0.82677696
0.16301317 0.3966299 0.81550245
0.24505208 0.38272059 0.80382966
0.34859835 0.37156863 0.78529412
0.46878064 0.35376838 0.75971201
0.58843444 0.3221201 0.72909773
0.68965993 0.28823529 0.69901961
0.77205882 0.25032935 0.66991422
0.8377451 0.20471814 0.64901961
0.18014706 0.575 0.86740196
0.23949142 0.57472426 0.85983456
0.30833333 0.56979167 0.85245098
0.41127451 0.54681373 0.82901348
0.52977941 0.52745098 0.8057598
0.63872549 0.50710784 0.77990196
0.73216912 0.48921569 0.76078431
0.80735294 0.44825368 0.73578431
0.87818627 0.38848039 0.71078431
0.32383578 0.72352941 0.88872549
0.36292892 0.72745098 0.89479167
0.42009804 0.71407782 0.88186275
0.50392157 0.70784314 0.87040441
0.59322917 0.69813113 0.85539216
0.68050705 0.68205423 0.83290441
0.76542586 0.67780331 0.82158395
0.8377451 0.64957108 0.80026808
0.89577206 0.61403186 0.78823529
0.49166667 0.83419118 0.91041667
0.5134038 0.82717525 0.90321691
0.54460784 0.8254902 0.90294118
0.6042739 0.8189951 0.89154412
0.66482843 0.81862745 0.88560049
0.73340993 0.80891544 0.87222733
0.79252451 0.79816176 0.85980392
0.85686275 0.7805913 0.84509804
0.90870098 0.76813725 0.8372549
0.62640931 0.90778186 0.91078431
0.64117647 0.91079197 0.9108992
0.66717218 0.90703125 0.90692402
0.69471507 0.9031633 0.90686275
0.73627451 0.89754902 0.90147059
0.78066023 0.89558824 0.89746477
0.83419118 0.88688725 0.88022365
0.88425245 0.88071385 0.87598039
0.93768382 0.87598039 0.87205882
0.75686275 0.98088235 0.91127451
0.76035539 0.98431373 0.91170343
0.76911765 0.9817402 0.9122549
0.78823529 0.98039216 0.91096814
0.80808824 0.9752451 0.90367647
0.84834559 0.98253676 0.90686275
0.87892157 0.97205882 0.90294118
0.92205882 0.96519608 0.89552696
0.9872549 0.96862745 0.89117647
0.015686275 0.090196078 0.79607843
0.054901961 0.05245098 0.77647059
0.13921569 0.059803922 0.75
0.22941176 0.035294118 0.73872549
0.34901961 0.021568627 0.70784314
0.47647059 0.010294118 0.67156863
0.60392157 0.0039215686 0.63823529
0.71470588 0.0078431373 0.61519608
0.79215686 0 0.57647059
0.089215686 0.15539216 0.80735294
0.11268382 0.15147059 0.80992647
0.17267157 0.13970588 0.78860294
0.26942402 0.12028186 0.76109069
0.3877451 0.10073529 0.73480392
0.51519608 0.075490196 0.69852941
0.62598039 0.035906863 0.66213235
0.71519608 0.015196078 0.63431373
0.78431373 0.019607843 0.61470588
0.11666667 0.25196078 0.84509804
0.16176471 0.25490196 0.82254902
0.20955882 0.25098039 0.79705882
0.31801471 0.22781863 0.79362745
0.43823529 0.19803922 0.76568627
0.5557598 0.16862745 0.74117647
0.65686275 0.13333333 0.7
0.7377451 0.097181373 0.66813725
0.81470588 0.035294118 0.65392157
0.16568627 0.41617647 0.85882353
0.20294118 0.40686275 0.85686275
0.28492647 0.38039216 0.86127451
0.38033088 0.36519608 0.8377451
0.4879902 0.34803922 0.7997549
0.59901961 0.32751225 0.77352941
0.6995098 0.29215686 0.75686275
0.77205882 0.25343137 0.71795343
0.82892157 0.22107843 0.69656863
0.2627451 0.58627451 0.91372549
0.29117647 0.57671569 0.90392157
0.36029412 0.56470588 0.90294118
0.44852941 0.5504902 0.87990196
0.54705882 0.52647059 0.85980392
0.65539216 0.51544118 0.84681373
0.74117647 0.48431373 0.81372549
0.81078431 0.45808824 0.78431373
0.88235294 0.38823529 0.76862745
0.37745098 0.73137255 0.94166667
0.40949755 0.72616422 0.94528186
0.45404412 0.71813725 0.92830882
0.53033088 0.70876225 0.92150735
0.60637255 0.69754902 0.89117647
0.69607843 0.69362745 0.88872549
0.76911765 0.67696078 0.85784314
0.8403799 0.65 0.84166667
0.8995098 0.61813725 0.81470588
0.5254902 0.83431373 0.96176471
0.54460784 0.8377451 0.9682598
0.56372549 0.82671569 0.94387255
0.62536765 0.82647059 0.95085784
0.68039216 0.81715686 0.93823529
0.73394608 0.81078431 0.91213235
0.79901961 0.80294118 0.91544118
0.86078431 0.78284314 0.8942402
0.91862745 0.76470588 0.86862745
0.65637255 0.91862745 0.98333333
0.66072304 0.91476716 0.96862745
0.67892157 0.91384804 0.97254902
0.70196078 0.90704657 0.95441176
0.74215686 0.90343137 0.94313725
0.78805147 0.90343137 0.94479167
0.83688725 0.89460784 0.94166667
0.8872549 0.88817402 0.94209559
0.94117647 0.87990196 0.93333333
0.77647059 0.99607843 0.99607843
0.76078431 0.98431373 0.96421569
0.77156863 0.98431373 0.98235294
0.78823529 0.98186275 0.96078431
0.82352941 0.99411765 0.99215686
0.83823529 0.97401961 0.95980392
0.87941176 0.98333333 0.97941176
0.92205882 0.97647059 0.95637255
0.94509804 0.97254902 0.94509804
