site/assets/luts/natron-haldclut--fuji-superia-1600--d9ecbb63c.cube
# LUTr-Project: LUTr — LUTrepository
# LUTr-Schema-Version: 1
# LUTr-ID: natron-haldclut--fuji-superia-1600--d9ecbb63c
# LUTr-Title: fuji superia 1600
# LUTr-Collection: Natron HaldCLUT
# LUTr-Collection-ID: natron-haldclut-presets
# LUTr-Source: https://github.com/NatronGitHub/clut
# LUTr-Source-File: submissions/natron-haldclut-presets/negative_old/fuji_superia_1600.png
# LUTr-Source-Format: PNG
# LUTr-Source-SHA256: 744b908685374fb5f303682590757bdc7dadceb93f842d9df78e21190e238637
# LUTr-License: CC-BY-SA-4.0
# LUTr-License-URL: https://github.com/NatronGitHub/clut#license
# LUTr-Tags: creative, film, film-emulation, hald-clut, natron, png, cube
# LUTr-Transform-Class: film-emulation
# LUTr-Input-Color-Space: srgb
# LUTr-Output-Color-Space: srgb
# LUTr-Color-Space-Confidence: assumed-display-referred
# LUTr-Conversion-Method: PNG LUT image decoded at 16-bit and sampled to 25x25x25 3D CUBE
# LUTr-Conversion-Date: 2026-07-27
# LUTr-Conversion-Tool: LUTr scripts/convert-all-to-cube.mjs
# LUTr-Conversion-Grid: 25x25x25
# LUTr-Note: Preserve this metadata and the upstream license notices when redistributing.
TITLE "fuji superia 1600"
LUT_3D_SIZE 25
DOMAIN_MIN 0 0 0
DOMAIN_MAX 1 1 1
0.058823529 0.094117647 0.098039216
0.071568627 0.098039216 0.10196078
0.087254902 0.098039216 0.10294118
0.10098039 0.098039216 0.10588235
0.11764706 0.098039216 0.10588235
0.13823529 0.098039216 0.10588235
0.16568627 0.098039216 0.10588235
0.20588235 0.10343137 0.10196078
0.24705882 0.10588235 0.098039216
0.29068627 0.10980392 0.094117647
0.34705882 0.11078431 0.090196078
0.4122549 0.11372549 0.08627451
0.4745098 0.10784314 0.078431373
0.53970588 0.098039216 0.070588235
0.59117647 0.098039216 0.074509804
0.64803922 0.098039216 0.078431373
0.70196078 0.11372549 0.070588235
0.7495098 0.13676471 0.056372549
0.79215686 0.15392157 0.045098039
0.83333333 0.16029412 0.028431373
0.8745098 0.16666667 0.011764706
0.91078431 0.18186275 0.0044117647
0.93823529 0.20980392 0.011764706
0.96911765 0.23578431 0.010294118
1 0.25882353 0
0.056372549 0.10441176 0.10196078
0.065196078 0.10441176 0.10196078
0.077941176 0.10477941 0.10588235
0.093321078 0.10588235 0.10588235
0.11127451 0.10514706 0.10588235
0.13480392 0.10863971 0.10588235
0.16862745 0.11078431 0.10232843
0.20833333 0.11525735 0.1004902
0.25098039 0.11862745 0.098039216
0.29705882 0.1216299 0.094117647
0.35735294 0.12708333 0.090196078
0.41911765 0.13039216 0.08627451
0.48480392 0.12573529 0.078431373
0.54607843 0.12469363 0.070588235
0.59754902 0.1192402 0.064828431
0.65140931 0.11862745 0.065686275
0.70588235 0.12647059 0.060294118
0.75343137 0.14607843 0.049448529
0.7939951 0.15747549 0.046078431
0.83333333 0.16666667 0.032169118
0.8745098 0.17745098 0.01495098
0.91078431 0.19803922 0.0083333333
0.93823529 0.22193627 0.014705882
0.96911765 0.24852941 0.013296569
0.99362745 0.26519608 0.0078431373
0.05 0.11862745 0.10196078
0.060294118 0.11507353 0.10588235
0.070588235 0.11372549 0.10588235
0.084436275 0.11470588 0.10588235
0.10784314 0.11911765 0.10588235
0.13615196 0.12745098 0.10453431
0.17279412 0.12965686 0.10122549
0.21078431 0.13137255 0.097058824
0.25490196 0.13529412 0.094117647
0.30980392 0.14166667 0.090196078
0.37181373 0.14803922 0.088480392
0.43431373 0.15098039 0.085416667
0.49901961 0.15098039 0.076470588
0.55735294 0.15183824 0.069240196
0.60784314 0.14730392 0.063480392
0.65968137 0.13982843 0.054534314
0.71470588 0.13921569 0.049019608
0.75698529 0.15245098 0.04497549
0.79607843 0.1627451 0.047058824
0.8372549 0.17732843 0.035294118
0.8754902 0.19558824 0.013235294
0.91090686 0.21470588 0.011764706
0.93848039 0.23529412 0.015686275
0.96973039 0.25882353 0.014705882
0.99215686 0.2754902 0.014705882
0.03627451 0.13627451 0.10196078
0.046568627 0.12990196 0.10459559
0.060294118 0.12107843 0.10588235
0.077941176 0.12794118 0.10588235
0.10269608 0.14166667 0.10220588
0.13578431 0.15147059 0.10196078
0.17647059 0.14889706 0.098039216
0.21715686 0.14822304 0.092830882
0.2622549 0.15245098 0.090196078
0.32224265 0.16011029 0.088051471
0.38664216 0.16862745 0.08627451
0.45098039 0.17156863 0.082414216
0.5129902 0.17720588 0.073039216
0.57058824 0.17849265 0.066666667
0.62205882 0.17242647 0.062377451
0.67352941 0.1658701 0.053431373
0.72156863 0.1627451 0.039215686
0.7622549 0.17352941 0.038235294
0.8 0.1877451 0.038848039
0.84068627 0.19803922 0.025490196
0.88186275 0.2129902 0.0080882353
0.91127451 0.23186275 0.0079044118
0.94215686 0.25245098 0.010906863
0.97647059 0.27303922 0.0083333333
0.99607843 0.28578431 0.0078431373
0.019607843 0.15098039 0.10196078
0.029901961 0.14901961 0.10196078
0.040686275 0.15098039 0.10196078
0.057843137 0.15661765 0.10196078
0.080392157 0.16764706 0.1
0.12426471 0.17867647 0.1
0.17352941 0.17843137 0.095098039
0.21838235 0.17573529 0.089460784
0.27254902 0.17647059 0.084313725
0.33946078 0.18284314 0.08627451
0.40441176 0.19264706 0.082352941
0.46764706 0.19779412 0.078676471
0.52843137 0.20294118 0.068627451
0.58480392 0.20588235 0.058578431
0.63627451 0.2004902 0.058823529
0.68504902 0.19877451 0.053431373
0.72745098 0.20392157 0.039215686
0.76862745 0.2122549 0.030147059
0.80735294 0.2245098 0.025980392
0.84705882 0.23480392 0.014215686
0.88431373 0.24313725 0.0029411765
0.91519608 0.25392157 0.0039215686
0.94607843 0.27303922 0.0039215686
0.97843137 0.29117647 0.0031862745
0.99803922 0.30196078 0.0039215686
0.00049019608 0.17107843 0.098529412
0.012438725 0.17824755 0.10245098
0.024019608 0.18357843 0.10318627
0.037316176 0.18578431 0.09810049
0.058088235 0.19166667 0.09754902
0.1122549 0.20594363 0.09754902
0.16764706 0.21666667 0.09497549
0.21666667 0.21960784 0.084620098
0.28284314 0.22598039 0.074019608
0.35275735 0.21960784 0.077941176
0.42218137 0.21715686 0.081004902
0.48431373 0.22408088 0.074509804
0.54362745 0.22892157 0.060784314
0.59901961 0.23235294 0.050919118
0.64754902 0.22928922 0.050490196
0.69264706 0.2372549 0.045098039
0.73382353 0.24460784 0.03872549
0.775 0.25116422 0.025
0.81617647 0.26127451 0.015563725
0.85386029 0.27156863 0.0082720588
0.88823529 0.28014706 0.0039215686
0.91868873 0.28866422 0.0039215686
0.94656863 0.29852941 0.0035539216
0.975 0.31636029 0.0039215686
0.99166667 0.32696078 0.0039215686
0.0068627451 0.21862745 0.1127451
0.010294118 0.22144608 0.1127451
0.017401961 0.22352941 0.10882353
0.026960784 0.22352941 0.10490196
0.039215686 0.225 0.097058824
0.098897059 0.2439951 0.09375
0.15980392 0.26078431 0.090196078
0.22107843 0.27107843 0.077941176
0.29607843 0.28039216 0.060784314
0.36813725 0.27977941 0.057843137
0.43627451 0.2752451 0.058823529
0.49803922 0.2754902 0.057352941
0.55588235 0.27598039 0.048529412
0.60931373 0.27120098 0.041053922
0.65686275 0.27034314 0.039460784
0.69938725 0.27843137 0.034803922
0.74411765 0.28235294 0.028431373
0.78235294 0.28688725 0.018137255
0.82254902 0.29534314 0.0078431373
0.85735294 0.30637255 0.0040441176
0.88823529 0.31568627 0.0039215686
0.91911765 0.32291667 0.0039215686
0.95 0.33235294 0
0.97009804 0.34362745 0.0039215686
0.98431373 0.35490196 0.0039215686
0.0078431373 0.26862745 0.11911765
0.010845588 0.26862745 0.12156863
0.016666667 0.2689951 0.11911765
0.021752451 0.27009804 0.11519608
0.024019608 0.27401961 0.1120098
0.060294118 0.28658088 0.10422794
0.13235294 0.30232843 0.089093137
0.21721814 0.3216299 0.067647059
0.30588235 0.34068627 0.041666667
0.38872549 0.35091912 0.024509804
0.45379902 0.34865196 0.025857843
0.51011029 0.34754902 0.03057598
0.56691176 0.34485294 0.029901961
0.61960784 0.3377451 0.031678922
0.66715686 0.32352941 0.038848039
0.70931373 0.32352941 0.033823529
0.7504902 0.32745098 0.023529412
0.79166667 0.32745098 0.0093137255
0.82855392 0.32696078 0.0018382353
0.86127451 0.3408701 0.0021446078
0.89215686 0.35294118 0.0039215686
0.92303922 0.36323529 0.0039215686
0.95 0.37352941 0.0039215686
0.9721201 0.38235294 0.0024509804
0.98970588 0.39019608 0.0024509804
0.011764706 0.31764706 0.1254902
0.011764706 0.31764706 0.1254902
0.015686275 0.31764706 0.1254902
0.015686275 0.32156863 0.1254902
0.011764706 0.32352941 0.1254902
0.025490196 0.33382353 0.11715686
0.087254902 0.34803922 0.1
0.1754902 0.36764706 0.074019608
0.27843137 0.38823529 0.043137255
0.38137255 0.40637255 0.010784314
0.46078431 0.41568627 0.0049019608
0.51911765 0.41568627 0.015196078
0.57843137 0.40980392 0.019607843
0.62990196 0.3995098 0.024019608
0.6745098 0.38235294 0.034313725
0.71960784 0.37107843 0.037745098
0.76078431 0.36862745 0.02745098
0.7995098 0.37107843 0.014705882
0.83529412 0.37647059 0.0029411765
0.86911765 0.37990196 0
0.9 0.39411765 0.0019607843
0.92647059 0.40441176 0.0039215686
0.95098039 0.41176471 0.0039215686
0.9754902 0.42107843 0
0.99607843 0.42745098 0
0.0078431373 0.37303922 0.1254902
0.0087622549 0.37156863 0.12702206
0.0093137255 0.37095588 0.13002451
0.0056985294 0.37126225 0.13547794
0.0053921569 0.375 0.13137255
0.0060661765 0.38137255 0.12107843
0.037377451 0.39669118 0.10747549
0.12794118 0.41219363 0.082781863
0.23578431 0.42696078 0.055882353
0.34019608 0.440625 0.032843137
0.43970588 0.45784314 0.017279412
0.52291667 0.47175245 0.0080269608
0.59460784 0.4754902 0.0093137255
0.64607843 0.46470588 0.01372549
0.68835784 0.44166667 0.024019608
0.72990196 0.42107843 0.036764706
0.77107843 0.41617647 0.035294118
0.80680147 0.42346814 0.018627451
0.84105392 0.42794118 0.0093137255
0.87518382 0.4254902 0.0026348039
0.90392157 0.43137255 0
0.93069853 0.44528186 0.0039215686
0.95453431 0.45232843 0.0039215686
0.97702206 0.46133578 0.0039215686
0.98970588 0.46470588 0.0039215686
0.0039215686 0.42941176 0.1245098
0.0039215686 0.42879902 0.12794118
0.0039215686 0.4252451 0.13529412
0.0039215686 0.4245098 0.14375
0.0034313725 0.42892157 0.13578431
0 0.43676471 0.12610294
0 0.44607843 0.11740196
0.091176471 0.45245098 0.097671569
0.2 0.4627451 0.076470588
0.30330882 0.47659314 0.049509804
0.40514706 0.49117647 0.018382353
0.49938725 0.50882353 0.0078431373
0.6004902 0.53186275 0.0044117647
0.65294118 0.52267157 0.0083333333
0.69093137 0.50294118 0.017647059
0.73284314 0.48627451 0.027941176
0.77647059 0.47647059 0.030392157
0.81127451 0.47647059 0.020710784
0.84607843 0.48039216 0.010784314
0.87794118 0.47696078 0.0078431373
0.90882353 0.47696078 0.0053921569
0.93578431 0.48284314 0.0039215686
0.9627451 0.48995098 0.0039215686
0.97647059 0.49705882 0.0078431373
0.97941176 0.50098039 0.0078431373
0 0.48431373 0.13186275
0 0.48137255 0.13872549
0.00049019608 0.47990196 0.14546569
0.00006127451 0.47990196 0.15147059
0 0.48014706 0.15171569
0 0.48431373 0.14797794
0.0055147059 0.48431373 0.14754902
0.085110294 0.49362745 0.13106618
0.18431373 0.5004902 0.10441176
0.28333333 0.51421569 0.073529412
0.38272059 0.52855392 0.042156863
0.4689951 0.53964461 0.022365196
0.55710784 0.55759804 0.032107843
0.63572304 0.5745098 0.02120098
0.68676471 0.57058824 0.012132353
0.73155637 0.55618873 0.019791667
0.77647059 0.54558824 0.020098039
0.81372549 0.53952206 0.01372549
0.84963235 0.53872549 0.0083333333
0.88088235 0.53523284 0.011764706
0.91176471 0.52892157 0.015441176
0.94264706 0.52352941 0.0039215686
0.96752451 0.52659314 0.0039215686
0.97254902 0.53155637 0.0078431373
0.97254902 0.53186275 0.01127451
0 0.52941176 0.16862745
0.0039215686 0.52622549 0.17058824
0.0039215686 0.5254902 0.1745098
0.0019607843 0.5254902 0.17843137
0.00098039216 0.5254902 0.17843137
0.0019607843 0.5254902 0.18235294
0.01127451 0.5254902 0.18088235
0.091176471 0.53210784 0.16568627
0.19019608 0.54117647 0.14313725
0.2872549 0.55269608 0.11421569
0.37843137 0.56372549 0.090196078
0.45171569 0.57401961 0.078921569
0.52058824 0.58529412 0.069607843
0.60147059 0.60294118 0.057352941
0.67205882 0.61813725 0.025980392
0.73014706 0.61813725 0.011029412
0.77254902 0.60784314 0.0098039216
0.81372549 0.60392157 0.011029412
0.85 0.59754902 0.0093137255
0.88259804 0.59044118 0.0058823529
0.91176471 0.58431373 0.012745098
0.94460784 0.57181373 0.015441176
0.96813725 0.56617647 0.016176471
0.97132353 0.57058824 0.026960784
0.97254902 0.5745098 0.033333333
0 0.57107843 0.20196078
0.0024509804 0.57107843 0.20539216
0.0083333333 0.57058824 0.2067402
0.0048406863 0.57058824 0.20539216
0.00024509804 0.57107843 0.20514706
0.00049019608 0.57107843 0.20490196
0.023406863 0.57107843 0.20490196
0.10422794 0.57469363 0.19589461
0.19607843 0.58235294 0.17794118
0.28890931 0.59234069 0.15520833
0.36973039 0.59901961 0.14264706
0.43578431 0.6088848 0.13584559
0.50098039 0.61568627 0.12647059
0.57058824 0.62990196 0.10692402
0.64301471 0.6504902 0.062867647
0.71911765 0.66960784 0.017279412
0.77254902 0.66960784 0.00049019608
0.81372549 0.66568627 0.0075367647
0.84963235 0.65637255 0.011029412
0.88088235 0.64607843 0.0058210784
0.91348039 0.63578431 0.010294118
0.93823529 0.62941176 0.054473039
0.96262255 0.62205882 0.079411765
0.97647059 0.62205882 0.089215686
0.97647059 0.62598039 0.093137255
0 0.61862745 0.23627451
0.0006127451 0.61862745 0.23811275
0.011764706 0.61544118 0.24019608
0.0082107843 0.61470588 0.23627451
0.0049019608 0.61568627 0.23088235
0.00049019608 0.61568627 0.2254902
0.038480392 0.61789216 0.2254902
0.13039216 0.62071078 0.22009804
0.20980392 0.62352941 0.20882353
0.28835784 0.62990196 0.19583333
0.36053922 0.6370098 0.19485294
0.4254902 0.64656863 0.19154412
0.48872549 0.65294118 0.18431373
0.54914216 0.66335784 0.17083333
0.61862745 0.67916667 0.1375
0.69497549 0.69803922 0.086397059
0.75980392 0.71078431 0.047058824
0.81115196 0.71801471 0.025490196
0.84534314 0.70710784 0.043137255
0.87696078 0.69460784 0.056372549
0.90833333 0.6872549 0.07254902
0.9317402 0.68137255 0.098651961
0.95808824 0.67671569 0.13651961
0.97401961 0.67463235 0.15306373
0.98333333 0.6745098 0.15490196
0 0.66470588 0.27107843
0 0.66470588 0.27107843
0.011764706 0.66078431 0.27009804
0.0044117647 0.66078431 0.26372549
0.0085784314 0.66078431 0.25931373
0.011703431 0.66078431 0.2526348
0.071936275 0.66078431 0.25294118
0.16813725 0.66378676 0.25441176
0.25294118 0.66470588 0.24901961
0.31470588 0.66715686 0.24656863
0.37022059 0.67352941 0.24938725
0.43382353 0.68235294 0.2504902
0.49093137 0.68946078 0.24264706
0.54362745 0.69656863 0.23020833
0.6004902 0.70833333 0.21139706
0.67009804 0.72261029 0.16819853
0.73676471 0.73382353 0.12941176
0.790625 0.74656863 0.10588235
0.8377451 0.75281863 0.10539216
0.87303922 0.74509804 0.12156863
0.90392157 0.73872549 0.13823529
0.92910539 0.7341299 0.16060049
0.95392157 0.72928922 0.18517157
0.9754902 0.725 0.20790441
0.98823529 0.725 0.2127451
0.0039215686 0.70980392 0.30196078
0 0.70980392 0.2995098
0.0098039216 0.70588235 0.29803922
0.00098039216 0.70588235 0.29068627
0.056862745 0.70196078 0.29411765
0.10735294 0.70196078 0.29803922
0.14509804 0.70196078 0.29803922
0.21323529 0.70196078 0.29803922
0.29803922 0.70196078 0.29411765
0.34313725 0.70441176 0.29411765
0.39313725 0.71078431 0.29411765
0.44460784 0.71715686 0.29803922
0.49411765 0.72352941 0.28823529
0.54411765 0.72990196 0.27745098
0.59509804 0.74019608 0.26764706
0.65343137 0.7504902 0.24117647
0.71764706 0.76078431 0.20392157
0.76911765 0.77352941 0.19215686
0.82058824 0.78529412 0.1872549
0.87205882 0.79558824 0.18088235
0.90196078 0.79019608 0.19803922
0.92647059 0.7877451 0.22058824
0.95098039 0.78039216 0.24117647
0.97696078 0.775 0.25784314
0.99215686 0.77254902 0.26666667
0.088235294 0.74852941 0.34313725
0.080392157 0.74852941 0.3401348
0.094607843 0.74460784 0.34166667
0.14185049 0.74313725 0.33921569
0.18186275 0.74313725 0.33921569
0.21029412 0.73921569 0.34185049
0.23872549 0.73921569 0.34313725
0.27757353 0.73921569 0.34313725
0.32892157 0.73921569 0.34166667
0.36764706 0.7401348 0.33829657
0.4127451 0.74460784 0.33713235
0.45392157 0.75067402 0.33529412
0.49730392 0.75637255 0.32941176
0.54724265 0.76452206 0.31942402
0.59509804 0.77107843 0.31458333
0.64019608 0.77745098 0.30196078
0.69705882 0.7877451 0.27598039
0.75245098 0.7995098 0.2745098
0.80392157 0.81041667 0.2689951
0.85196078 0.82040441 0.25686275
0.89240196 0.82573529 0.25588235
0.92040441 0.82303922 0.27205882
0.94644608 0.81911765 0.29080882
0.9721201 0.81280637 0.30539216
0.98970588 0.80980392 0.31568627
0.20686275 0.78431373 0.38431373
0.20747549 0.78370098 0.38492647
0.21470588 0.77941176 0.38848039
0.23823529 0.77683824 0.38921569
0.25784314 0.77941176 0.38529412
0.28137255 0.77941176 0.38823529
0.30882353 0.77647059 0.38823529
0.34227941 0.77647059 0.38713235
0.36470588 0.7754902 0.38431373
0.39252451 0.7754902 0.38039216
0.43235294 0.77647059 0.37941176
0.47058824 0.78296569 0.37647059
0.50735294 0.78872549 0.36911765
0.54816176 0.79546569 0.36531863
0.59607843 0.80196078 0.35955882
0.63823529 0.80796569 0.35281863
0.68137255 0.81372549 0.34705882
0.73223039 0.82401961 0.34129902
0.78333333 0.83431373 0.33529412
0.83137255 0.84068627 0.32843137
0.86862745 0.84656863 0.3245098
0.90845588 0.8495098 0.32401961
0.94117647 0.85073529 0.33333333
0.96764706 0.84669118 0.34656863
0.98823529 0.84313725 0.35686275
0.2872549 0.81421569 0.43284314
0.29332108 0.81421569 0.43284314
0.30294118 0.81029412 0.43688725
0.31372549 0.81029412 0.44068627
0.32818627 0.81397059 0.43504902
0.34270833 0.81421569 0.42941176
0.36715686 0.81421569 0.42941176
0.38743873 0.81403186 0.42941176
0.40588235 0.81372549 0.4254902
0.42254902 0.80998775 0.42285539
0.45 0.81029412 0.41764706
0.48731618 0.81421569 0.41764706
0.52647059 0.81813725 0.41715686
0.56568627 0.82254902 0.41715686
0.60723039 0.82904412 0.41678922
0.64852941 0.83400735 0.4091299
0.68578431 0.83823529 0.40539216
0.72009804 0.84460784 0.40490196
0.76654412 0.85490196 0.40085784
0.80735294 0.86127451 0.39705882
0.84632353 0.86568627 0.39289216
0.88529412 0.87009804 0.38921569
0.92647059 0.87647059 0.38664216
0.96550245 0.88088235 0.39117647
0.98823529 0.88039216 0.39803922
0.35882353 0.84117647 0.48431373
0.36519608 0.84117647 0.48627451
0.37401961 0.84117647 0.48823529
0.38578431 0.84117647 0.48823529
0.39803922 0.84509804 0.48431373
0.40612745 0.84730392 0.48039216
0.42009804 0.84901961 0.48039216
0.43823529 0.84632353 0.48039216
0.45686275 0.84509804 0.47843137
0.47107843 0.84191176 0.47328431
0.48627451 0.84117647 0.46960784
0.51053922 0.84289216 0.46838235
0.54509804 0.84705882 0.46862745
0.58235294 0.85122549 0.46862745
0.62205882 0.85637255 0.46862745
0.65882353 0.85882353 0.46397059
0.69411765 0.8627451 0.4627451
0.725 0.86911765 0.46470588
0.75539216 0.8754902 0.46421569
0.78848039 0.88186275 0.46102941
0.82352941 0.88529412 0.45588235
0.86470588 0.88848039 0.45073529
0.90588235 0.89558824 0.44558824
0.9497549 0.90343137 0.44509804
0.99019608 0.91176471 0.44705882
0.43529412 0.87205882 0.54019608
0.43872549 0.87205882 0.54234069
0.44362745 0.8689951 0.54105392
0.45392157 0.87199755 0.540625
0.46372549 0.87205882 0.53970588
0.47009804 0.87555147 0.53627451
0.48039216 0.87598039 0.53627451
0.49822304 0.87579657 0.53627451
0.5122549 0.87205882 0.53578431
0.52647059 0.87175245 0.53186275
0.53676471 0.86813725 0.52843137
0.55441176 0.87199755 0.5245098
0.5745098 0.87598039 0.52034314
0.60245098 0.88033088 0.52009804
0.63676471 0.88333333 0.51715686
0.66764706 0.88333333 0.51617647
0.70245098 0.8872549 0.52009804
0.73333333 0.89117647 0.52009804
0.76066176 0.89607843 0.52058824
0.78382353 0.89901961 0.52009804
0.81372549 0.90294118 0.51470588
0.84944853 0.90686275 0.50882353
0.89362745 0.91335784 0.50502451
0.93431373 0.91991422 0.50490196
0.96764706 0.92598039 0.50490196
0.50686275 0.89901961 0.59509804
0.50784314 0.89901961 0.59509804
0.51176471 0.89901961 0.59509804
0.51911765 0.89901961 0.59509804
0.5254902 0.9 0.59460784
0.53186275 0.90294118 0.59411765
0.53921569 0.90367647 0.59411765
0.55281863 0.90294118 0.59301471
0.56372549 0.9 0.59019608
0.57794118 0.89901961 0.59019608
0.58823529 0.89901961 0.5870098
0.60208333 0.89901961 0.58284314
0.61764706 0.90147059 0.57843137
0.63284314 0.90392157 0.575
0.65073529 0.90392157 0.56862745
0.68125 0.90392157 0.57156863
0.7127451 0.90784314 0.5745098
0.74362745 0.91176471 0.57732843
0.77352941 0.91568627 0.57843137
0.79411765 0.91960784 0.57463235
0.81715686 0.92009804 0.5745098
0.84460784 0.92401961 0.57401961
0.87941176 0.93039216 0.56985294
0.91764706 0.93566176 0.56666667
0.94313725 0.93921569 0.56666667
0.56813725 0.92205882 0.64509804
0.56960784 0.9245098 0.64601716
0.5745098 0.9245098 0.64656863
0.58137255 0.92598039 0.64656863
0.58651961 0.92598039 0.64656863
0.59185049 0.92843137 0.64656863
0.59889706 0.92843137 0.64767157
0.60582108 0.92843137 0.64656863
0.61519608 0.92598039 0.64656863
0.62401961 0.92598039 0.64656863
0.63578431 0.92561275 0.64595588
0.64460784 0.92579657 0.64411765
0.65759804 0.92598039 0.64019608
0.66960784 0.92598039 0.63363971
0.68333333 0.9245098 0.6254902
0.70147059 0.9245098 0.62303922
0.72843137 0.92843137 0.62696078
0.75784314 0.93235294 0.63572304
0.78382353 0.93627451 0.63627451
0.80441176 0.94001225 0.63265931
0.825 0.94019608 0.63088235
0.8495098 0.94411765 0.63106618
0.87254902 0.94803922 0.63419118
0.90637255 0.9528799 0.63327206
0.92647059 0.95588235 0.62990196
0.61568627 0.94117647 0.68235294
0.61960784 0.94362745 0.68480392
0.62843137 0.94607843 0.69019608
0.63137255 0.94509804 0.69019608
0.63137255 0.94509804 0.68627451
0.63578431 0.94509804 0.68627451
0.64607843 0.94901961 0.69019608
0.65098039 0.94754902 0.68872549
0.64705882 0.94117647 0.67843137
0.65980392 0.94362745 0.68333333
0.67254902 0.94509804 0.69117647
0.68186275 0.94852941 0.69362745
0.69803922 0.95098039 0.7
0.70637255 0.94852941 0.68921569
0.71666667 0.94509804 0.67843137
0.73088235 0.94509804 0.67303922
0.74901961 0.94509804 0.6745098
0.76960784 0.94901961 0.68088235
0.79019608 0.95294118 0.68235294
0.81078431 0.95294118 0.67843137
0.83137255 0.95490196 0.6745098
0.85588235 0.95735294 0.6745098
0.87647059 0.96372549 0.68137255
0.90098039 0.97009804 0.69313725
0.90980392 0.96862745 0.69019608
0.062745098 0.098039216 0.1122549
0.069117647 0.10140931 0.11078431
0.08370098 0.10441176 0.10833333
0.09754902 0.10196078 0.10833333
0.11764706 0.098039216 0.10588235
0.13578431 0.094117647 0.10588235
0.16470588 0.097058824 0.10588235
0.20588235 0.10196078 0.10196078
0.24705882 0.10588235 0.1004902
0.29215686 0.10980392 0.096568627
0.35098039 0.11433824 0.096568627
0.4127451 0.11764706 0.095098039
0.4745098 0.11495098 0.091176471
0.53596814 0.10196078 0.084620098
0.59411765 0.098651961 0.080882353
0.65140931 0.095588235 0.078431373
0.70196078 0.10980392 0.070588235
0.74705882 0.13186275 0.06182598
0.79215686 0.15392157 0.05245098
0.83333333 0.16292892 0.040379902
0.87205882 0.16911765 0.030392157
0.90735294 0.18560049 0.026960784
0.93823529 0.2127451 0.028431373
0.96911765 0.23823529 0.028431373
0.98970588 0.25245098 0.026960784
0.06182598 0.10533088 0.11078431
0.065196078 0.10567555 0.108678
0.076271446 0.10856311 0.10833333
0.091061581 0.10833333 0.10699295
0.11127451 0.10441176 0.10588235
0.13468903 0.10735294 0.10588235
0.16752451 0.11078431 0.10232843
0.208678 0.11505055 0.10196078
0.25098039 0.11862745 0.1004902
0.29705882 0.12107843 0.098445159
0.35735294 0.12670037 0.096338848
0.41911765 0.13027727 0.093757659
0.4828125 0.12797181 0.08995098
0.5431296 0.1223652 0.084620098
0.59980086 0.11885723 0.078630515
0.65594363 0.11658241 0.072120098
0.70588235 0.12156863 0.065747549
0.74985447 0.13823529 0.058823529
0.79345895 0.15545343 0.050689338
0.8328508 0.16666667 0.040379902
0.87282475 0.17818627 0.031158088
0.90735294 0.19558824 0.028431373
0.93823529 0.22009804 0.032215074
0.96819853 0.24460784 0.028431373
0.99215686 0.26182598 0.027879902
0.060294118 0.11507353 0.10833333
0.061963848 0.11470588 0.10795037
0.069209559 0.11387868 0.10588235
0.084313725 0.11470588 0.10588235
0.10906863 0.11911765 0.10588235
0.13872549 0.12780331 0.10569853
0.17264093 0.13137255 0.10196078
0.21147365 0.13137255 0.1004902
0.25551471 0.13529412 0.1004902
0.30980392 0.14166667 0.099050245
0.37193627 0.14715074 0.094944853
0.43370098 0.14914216 0.092325368
0.49546569 0.14803922 0.087683824
0.55422794 0.14742647 0.082981005
0.60784314 0.14393382 0.076470588
