site/assets/luts/natron-haldclut--polaroid-690-cold---422156eb8.cube
# LUTr-Project: LUTr — LUTrepository
# LUTr-Schema-Version: 1
# LUTr-ID: natron-haldclut--polaroid-690-cold---422156eb8
# LUTr-Title: polaroid 690 cold -
# LUTr-Collection: Natron HaldCLUT
# LUTr-Collection-ID: natron-haldclut-presets
# LUTr-Source: https://github.com/NatronGitHub/clut
# LUTr-Source-File: submissions/natron-haldclut-presets/instant_pro/polaroid_690_cold_-.png
# LUTr-Source-Format: PNG
# LUTr-Source-SHA256: 4e8c7ebc0ff54bd4b6fd60b1e86bb688c6be3a3b2844c73a3f36fbaa621fa88d
# LUTr-License: CC-BY-SA-4.0
# LUTr-License-URL: https://github.com/NatronGitHub/clut#license
# LUTr-Tags: creative, film, film-emulation, hald-clut, natron, png, cool, cube
# LUTr-Transform-Class: film-emulation
# LUTr-Input-Color-Space: srgb
# LUTr-Output-Color-Space: srgb
# LUTr-Color-Space-Confidence: assumed-display-referred
# LUTr-Conversion-Method: PNG LUT image decoded at 16-bit and sampled to 25x25x25 3D CUBE
# LUTr-Conversion-Date: 2026-07-27
# LUTr-Conversion-Tool: LUTr scripts/convert-all-to-cube.mjs
# LUTr-Conversion-Grid: 25x25x25
# LUTr-Note: Preserve this metadata and the upstream license notices when redistributing.
TITLE "polaroid 690 cold -"
LUT_3D_SIZE 25
DOMAIN_MIN 0 0 0
DOMAIN_MAX 1 1 1
0 0.078431373 0.070588235
0 0.082352941 0.070588235
0.00098039216 0.082352941 0.070588235
0.025490196 0.082352941 0.067156863
0.076470588 0.096078431 0.056862745
0.12303922 0.09754902 0.059803922
0.15686275 0.083333333 0.07745098
0.20343137 0.067647059 0.071568627
0.25490196 0.047058824 0.058823529
0.30490196 0.028921569 0.049509804
0.35882353 0.02254902 0.058823529
0.41666667 0.0088235294 0.062745098
0.46470588 0 0.064705882
0.51617647 0 0.075
0.56372549 0 0.075490196
0.61127451 0 0.069117647
0.65882353 0 0.058823529
0.7 0 0.065196078
0.74509804 0 0.066666667
0.79019608 0 0.070588235
0.8372549 0 0.070588235
0.88039216 0 0.070588235
0.9254902 0 0.070588235
0.9504902 0 0.075980392
0.96078431 0 0.08627451
0 0.09754902 0.073039216
0 0.10055147 0.070588235
0.0055147059 0.10257353 0.067769608
0.035784314 0.099019608 0.064522059
0.077696078 0.097303922 0.056862745
0.12089461 0.10147059 0.05557598
0.16262255 0.093014706 0.065318627
0.21372549 0.084313725 0.066666667
0.26519608 0.070098039 0.058823529
0.3127451 0.057352941 0.062806373
0.36421569 0.031985294 0.064583333
0.41715686 0.0088235294 0.06060049
0.46862745 0 0.064705882
0.51832108 0 0.075
0.56764706 0.0024509804 0.078431373
0.61764706 0.003370098 0.075490196
0.66519608 0 0.066666667
0.70637255 0.0024509804 0.071568627
0.75147059 0 0.076960784
0.79393382 0 0.076960784
0.83848039 0 0.075
0.88088235 0 0.070588235
0.9254902 0 0.066666667
0.9504902 0 0.072610294
0.95441176 0 0.079901961
0 0.1245098 0.075490196
0 0.12634804 0.068137255
0.0088235294 0.12671569 0.065686275
0.043137255 0.12365196 0.059191176
0.080392157 0.11617647 0.054901961
0.12022059 0.10882353 0.048406863
0.17254902 0.10882353 0.057843137
0.22401961 0.10845588 0.062745098
0.2754902 0.10098039 0.062745098
0.32303922 0.084313725 0.073039216
0.37279412 0.054901961 0.071323529
0.42205882 0.021446078 0.061642157
0.4745098 0.0049019608 0.064215686
0.52512255 0.0049019608 0.075857843
0.57745098 0.0049019608 0.081617647
0.62794118 0.0039215686 0.076960784
0.6754902 0 0.074509804
0.71666667 0.0039215686 0.077328431
0.76176471 0.0039215686 0.082352941
0.80294118 0.0039215686 0.089705882
0.84411765 0.00049019608 0.081372549
0.88431373 0 0.074019608
0.9254902 0 0.066666667
0.94901961 0 0.067769608
0.94901961 0 0.070588235
0 0.15147059 0.081862745
0 0.15196078 0.072058824
0.0013480392 0.15183824 0.061764706
0.016053922 0.14846814 0.054963235
0.063235294 0.14901961 0.069117647
0.12058824 0.14362745 0.054473039
0.17928922 0.14056373 0.057843137
0.23431373 0.13609069 0.059007353
0.28578431 0.12794118 0.062745098
0.33333333 0.11341912 0.073223039
0.38566176 0.097426471 0.082230392
0.43970588 0.079473039 0.091727941
0.49142157 0.053921569 0.092401961
0.54221814 0.028492647 0.093995098
0.59068627 0.0096813725 0.084068627
0.64166667 0.0024509804 0.076960784
0.68578431 0 0.074509804
0.73069853 0.0039215686 0.08057598
0.77205882 0.0073529412 0.082352941
0.81323529 0.0039215686 0.08627451
0.85441176 0.0039215686 0.082598039
0.89166667 0.003002451 0.077512255
0.92990196 0 0.067647059
0.95214461 0 0.066666667
0.95245098 0 0.070098039
0 0.17647059 0.084313725
0 0.17843137 0.077205882
0 0.17647059 0.06372549
0 0.17279412 0.049754902
0.044117647 0.1745098 0.05
0.11666667 0.17647059 0.054901961
0.18186275 0.17647059 0.058333333
0.24019608 0.16911765 0.057352941
0.3 0.1627451 0.058823529
0.35147059 0.15637255 0.071078431
0.40490196 0.14803922 0.079411765
0.46029412 0.13406863 0.087745098
0.51372549 0.10882353 0.090196078
0.56102941 0.080637255 0.08627451
0.60784314 0.044607843 0.081372549
0.65563725 0.0073529412 0.073039216
0.7 0.0058823529 0.074509804
0.74117647 0.014215686 0.081617647
0.78431373 0.013235294 0.08627451
0.8254902 0.0044117647 0.082352941
0.86470588 0.00098039216 0.079411765
0.90196078 0.0041666667 0.080392157
0.9377451 0.0058823529 0.076960784
0.96176471 0.0031862745 0.07377451
0.97254902 0 0.070588235
0 0.20147059 0.090686275
0.0026348039 0.20520833 0.084313725
0.0039215686 0.20539216 0.073039216
0.0044117647 0.20539216 0.059803922
0.042892157 0.20955882 0.057598039
0.11617647 0.21372549 0.057843137
0.17830882 0.21335784 0.050857843
0.2403799 0.20980392 0.058333333
0.30637255 0.20588235 0.054901961
0.36207108 0.20196078 0.061090686
0.42242647 0.19313725 0.073161765
0.47990196 0.17941176 0.067647059
0.53431373 0.16397059 0.076470588
0.58033088 0.14754902 0.090196078
0.62843137 0.12438725 0.090686275
0.67530637 0.090379902 0.081066176
0.71470588 0.071568627 0.082843137
0.75588235 0.056556373 0.08627451
0.79705882 0.040073529 0.08627451
0.8377451 0.014767157 0.082352941
0.87696078 0.00024509804 0.078186275
0.9122549 0.0088235294 0.082843137
0.94656863 0.012254902 0.086397059
0.97175245 0.0073529412 0.076960784
0.99313725 0 0.066176471
0.0029411765 0.23921569 0.091176471
0.0057598039 0.23627451 0.089583333
0.0078431373 0.23946078 0.080392157
0.0087009804 0.24019608 0.070955882
0.036764706 0.24411765 0.064705882
0.10637255 0.24718137 0.054411765
0.17377451 0.2502451 0.049754902
0.24227941 0.24767157 0.054289216
0.30980392 0.24705882 0.050980392
0.37267157 0.24644608 0.054411765
0.42916667 0.24117647 0.064705882
0.49019608 0.23345588 0.076960784
0.55294118 0.22745098 0.083823529
0.60428922 0.21580882 0.08627451
0.65196078 0.19901961 0.08627451
0.69803922 0.1807598 0.079901961
0.73529412 0.16470588 0.08627451
0.77463235 0.1435049 0.092034314
0.81372549 0.11470588 0.090196078
0.85196078 0.082965686 0.085416667
0.88578431 0.072058824 0.081372549
0.91948529 0.066666667 0.086764706
0.95318627 0.058823529 0.089460784
0.97659314 0.069117647 0.07879902
0.99607843 0.07254902 0.069607843
0.0039215686 0.27647059 0.08872549
0.0078431373 0.27647059 0.08627451
0.0078431373 0.27647059 0.081372549
0.0039215686 0.27647059 0.071078431
0.019362745 0.27892157 0.064705882
0.092647059 0.28088235 0.06439951
0.16482843 0.2872549 0.064215686
0.23535539 0.28823529 0.062745098
0.30588235 0.29215686 0.054901961
0.37696078 0.29754902 0.044669118
0.43872549 0.29362745 0.061764706
0.50410539 0.29362745 0.08314951
0.57009804 0.29117647 0.08627451
0.62481618 0.28253676 0.08627451
0.66813725 0.2682598 0.08627451
0.71078431 0.25827206 0.089215686
0.75196078 0.25098039 0.10392157
0.79166667 0.23523284 0.094669118
0.83002451 0.2067402 0.093504902
0.8627451 0.1877451 0.090379902
0.89362745 0.18406863 0.087009804
0.92892157 0.18039216 0.086580882
0.95882353 0.18026961 0.08627451
0.97941176 0.18272059 0.081433824
0.99607843 0.18333333 0.074509804
0 0.31764706 0.082352941
0.0039215686 0.32009804 0.084803922
0.0068627451 0.32156863 0.10196078
0.00049019608 0.32156863 0.079411765
0.011764706 0.31764706 0.076470588
0.078431373 0.32156863 0.074509804
0.15392157 0.3254902 0.074509804
0.22598039 0.32941176 0.067647059
0.30196078 0.3372549 0.050980392
0.37794118 0.34362745 0.039215686
0.44117647 0.34509804 0.053921569
0.50686275 0.34509804 0.07745098
0.57254902 0.34705882 0.076470588
0.63382353 0.34901961 0.082843137
0.67843137 0.34215686 0.093137255
0.72352941 0.33333333 0.098039216
0.76470588 0.32941176 0.098039216
0.80735294 0.3245098 0.095588235
0.84215686 0.30784314 0.094117647
0.87303922 0.29803922 0.094117647
0.90392157 0.29411765 0.092156863
0.93921569 0.29019608 0.085784314
0.96372549 0.29019608 0.085294118
0.98186275 0.29264706 0.082352941
1 0.29019608 0.074509804
0 0.36127451 0.080882353
0 0.3627451 0.087806373
0.0020833333 0.3627451 0.099019608
0.0039215686 0.3627451 0.095588235
0.01127451 0.36078431 0.093627451
0.059129902 0.36060049 0.080882353
0.13517157 0.36568627 0.078431373
0.21960784 0.37205882 0.073406863
0.29803922 0.37843137 0.06127451
0.36911765 0.38627451 0.050980392
0.42843137 0.39080882 0.04497549
0.49264706 0.39393382 0.043443627
0.55833333 0.39534314 0.04754902
0.6213848 0.40098039 0.059007353
0.6807598 0.40686275 0.085171569
0.72990196 0.40447304 0.098039216
0.77254902 0.39901961 0.091666667
0.81219363 0.39656863 0.088664216
0.84607843 0.39656863 0.098651961
0.87696078 0.38872549 0.10196078
0.91029412 0.38235294 0.1004902
0.93658088 0.38204657 0.11231618
0.9627451 0.37352941 0.096568627
0.98033088 0.3716299 0.096568627
0.99607843 0.36862745 0.092647059
0 0.40784314 0.091176471
0.0006127451 0.40428922 0.093014706
0.00098039216 0.40392157 0.098039216
0.00012254902 0.40392157 0.097058824
0 0.3995098 0.088235294
0.039705882 0.4004902 0.08247549
0.12916667 0.40784314 0.083333333
0.21470588 0.41568627 0.08125
0.29313725 0.41960784 0.071568627
0.35882353 0.42745098 0.063112745
0.42058824 0.43308824 0.05
0.48235294 0.43884804 0.028921569
0.54803922 0.44166667 0.013235294
0.6057598 0.44852941 0.029901961
0.66666667 0.45882353 0.057598039
0.72340686 0.46372549 0.074509804
0.76764706 0.45980392 0.066666667
0.80882353 0.45943627 0.080637255
0.84289216 0.46176471 0.090196078
0.88039216 0.46556373 0.10085784
0.91568627 0.46568627 0.10588235
0.94313725 0.46139706 0.10698529
0.9627451 0.45563725 0.11078431
0.98370098 0.45098039 0.10257353
0.99705882 0.44705882 0.10196078
0 0.45245098 0.09754902
0.0024509804 0.44901961 0.098039216
0.0039215686 0.44509804 0.10061275
0.0039215686 0.44509804 0.097610294
0.0036764706 0.43921569 0.097303922
0.042708333 0.4377451 0.093627451
0.12928922 0.44803922 0.093259804
0.21029412 0.45471814 0.088235294
0.28284314 0.46078431 0.081862745
0.34724265 0.46862745 0.068137255
0.40772059 0.47389706 0.049877451
0.47205882 0.47996324 0.03192402
0.53210784 0.48602941 0.013235294
0.58817402 0.49650735 0.0088848039
0.64607843 0.50637255 0.026838235
0.70392157 0.51145833 0.029718137
0.76127451 0.51519608 0.025490196
0.80245098 0.51862745 0.040379902
0.83835784 0.52610294 0.070465686
0.87653186 0.52990196 0.093198529
0.91372549 0.53039216 0.10588235
0.94650735 0.53382353 0.12542892
0.96752451 0.52990196 0.13186275
0.9872549 0.52598039 0.12254902
1 0.52254902 0.11960784
0 0.49411765 0.10196078
0.0024509804 0.49093137 0.10196078
0.0044117647 0.48627451 0.10588235
0.0058823529 0.48284314 0.10955882
0.0049019608 0.48235294 0.11078431
0.044117647 0.47843137 0.10955882
0.13333333 0.48137255 0.10490196
0.20563725 0.48970588 0.092647059
0.27254902 0.49803922 0.080392157
0.33431373 0.50637255 0.068137255
0.39607843 0.5122549 0.053431373
0.45784314 0.51740196 0.036029412
0.51666667 0.52745098 0.023529412
0.57352941 0.53995098 0.013480392
0.63186275 0.55196078 0.0078431373
0.69166667 0.55833333 0.0071078431
0.74509804 0.56470588 0.0039215686
0.79289216 0.57107843 0.015931373
0.82941176 0.57892157 0.051960784
0.87058824 0.58406863 0.081127451
0.90882353 0.58333333 0.095098039
0.94656863 0.59289216 0.1377451
0.975 0.59705882 0.16666667
0.98651961 0.58823529 0.16470588
0.99607843 0.58431373 0.16078431
0 0.53529412 0.10196078
0.0024509804 0.53314951 0.10196078
0.0039215686 0.52781863 0.10588235
0.0039215686 0.52401961 0.10539216
0.0039215686 0.52352941 0.10147059
0.022977941 0.52310049 0.10098039
0.11519608 0.52267157 0.09754902
0.19411765 0.525 0.092156863
0.2627451 0.53480392 0.078431373
0.3254902 0.54136029 0.065502451
0.38578431 0.54803922 0.053063725
0.44362745 0.55833333 0.039705882
0.50147059 0.56862745 0.029411765
0.55931373 0.57935049 0.019117647
0.62058824 0.59264706 0.0053921569
0.67352941 0.5995098 0.0014705882
0.72843137 0.60588235 0.0039215686
0.77990196 0.61617647 0.0073529412
0.82303922 0.62254902 0.024019608
0.86421569 0.6254902 0.03682598
0.90367647 0.62965686 0.060294118
0.93823529 0.63676471 0.11035539
0.96617647 0.63970588 0.15637255
0.98314951 0.64246324 0.18645833
0.99656863 0.64215686 0.20147059
0 0.57941176 0.10196078
0 0.57647059 0.10196078
0.0039215686 0.57156863 0.10196078
0.0039215686 0.56862745 0.10196078
0.0034313725 0.56764706 0.09754902
0.0099264706 0.56470588 0.092769608
0.097058824 0.56470588 0.090196078
0.18382353 0.56470588 0.084803922
0.25588235 0.56862745 0.074509804
0.31764706 0.57598039 0.06127451
0.3754902 0.58529412 0.050980392
0.43370098 0.59558824 0.040686275
0.49117647 0.60588235 0.027941176
0.54901961 0.61629902 0.014828431
0.60465686 0.62745098 0.0093137255
0.65931373 0.63737745 0.0039215686
0.71078431 0.64411765 0.0039215686
0.76286765 0.65441176 0.0039215686
0.8127451 0.65980392 0.015686275
0.85392157 0.66323529 0.019607843
0.89705882 0.66764706 0.02745098
0.92781863 0.66764706 0.075980392
0.95784314 0.67058824 0.12745098
0.97941176 0.67585784 0.16531863
0.99607843 0.67941176 0.19803922
0 0.62156863 0.1004902
0 0.61764706 0.098039216
0.0042892157 0.61519608 0.10232843
0.0088235294 0.61372549 0.10686275
0.013235294 0.6125 0.10784314
0.032536765 0.60980392 0.098039216
0.1127451 0.60980392 0.094485294
0.18731618 0.60735294 0.084803922
0.25392157 0.60588235 0.070588235
0.31329657 0.6122549 0.058823529
0.37058824 0.62107843 0.048529412
0.43235294 0.63137255 0.034497549
0.48823529 0.64166667 0.024019608
0.54393382 0.65196078 0.009497549
0.59901961 0.6622549 0.00036764706
0.64901961 0.66862745 0.0014705882
0.70196078 0.67892157 0.0039215686
0.75196078 0.68284314 0.011213235
0.7995098 0.69068627 0.024877451
0.84362745 0.69283088 0.030208333
0.88480392 0.69387255 0.039460784
0.92205882 0.69724265 0.061397059
0.95784314 0.69852941 0.096936275
0.97941176 0.70245098 0.14466912
0.99607843 0.70490196 0.18284314
0 0.65882353 0.10196078
0 0.65882353 0.098039216
0.0078431373 0.65882353 0.10196078
0.011764706 0.65539216 0.10539216
0.01372549 0.65490196 0.1
0.043137255 0.65098039 0.094117647
0.1254902 0.65098039 0.094117647
0.20637255 0.65098039 0.091176471
0.27058824 0.64705882 0.074509804
0.32205882 0.6495098 0.058823529
0.38039216 0.65882353 0.06372549
0.43235294 0.66617647 0.027941176
0.48823529 0.67254902 0.01372549
0.54019608 0.68235294 0.0078431373
0.59509804 0.68921569 0.0049019608
0.64656863 0.6995098 0.0039215686
0.69803922 0.70588235 0
0.74558824 0.7122549 0.014215686
0.79313725 0.71764706 0.028431373
0.8372549 0.72107843 0.03872549
0.8745098 0.72156863 0.052941176
0.91568627 0.7254902 0.06372549
0.95392157 0.7254902 0.083333333
0.97941176 0.72941176 0.13676471
0.99607843 0.72941176 0.17647059
0 0.69607843 0.10833333
0 0.69607843 0.10833333
0.006004902 0.69362745 0.10379902
0.015196078 0.69362745 0.098529412
0.016176471 0.69289216 0.088235294
0.05245098 0.69215686 0.084129902
0.14509804 0.69215686 0.093137255
0.22696078 0.69215686 0.097487745
0.28480392 0.68823529 0.074509804
0.33627451 0.68523284 0.053370098
0.38737745 0.69252451 0.042647059
0.43529412 0.69754902 0.020772059
0.48823529 0.70416667 0.010294118
0.54234069 0.70949755 0.011764706
0.59509804 0.71433824 0.0078431373
0.64656863 0.72346814 0.0039215686
0.69803922 0.73039216 0.0039215686
0.74558824 0.73584559 0.014215686
0.79215686 0.73884804 0.027818627
0.83333333 0.74215686 0.028921569
0.87254902 0.74534314 0.03627451
0.91145833 0.7463848 0.055514706
0.94718137 0.75 0.092647059
0.97303922 0.75245098 0.14221814
0.99215686 0.75392157 0.17254902
0 0.73235294 0.10980392
0.0040441176 0.73235294 0.11617647
0.0058823529 0.72916667 0.10563725
0.022426471 0.72843137 0.095343137
0.078921569 0.72843137 0.1
0.12144608 0.72843137 0.099509804
0.19411765 0.72843137 0.10122549
0.26188725 0.7245098 0.094730392
0.30490196 0.72058824 0.066666667
0.3504902 0.72058824 0.046691176
0.40294118 0.7245098 0.045098039
0.45441176 0.72830882 0.035171569
0.50196078 0.73235294 0.028921569
0.55330882 0.73664216 0.024142157
0.6002451 0.74240196 0.0078431373
0.65110294 0.74852941 0.0024509804
0.69803922 0.75196078 0.0088235294
0.74595588 0.75882353 0.011397059
0.79215686 0.7627451 0.022794118
0.83333333 0.76629902 0.023529412
0.87058824 0.76911765 0.016666667
0.90735294 0.77058824 0.050490196
0.94044118 0.77377451 0.09877451
0.97095588 0.77487745 0.14313725
0.99215686 0.77843137 0.17254902
0.041176471 0.76715686 0.12009804
0.06127451 0.76470588 0.12696078
0.085294118 0.76323529 0.12303922
0.14993873 0.76623775 0.11703431
0.17965686 0.76323529 0.12058824
0.21029412 0.75931373 0.12009804
0.26519608 0.75931373 0.11372549
0.30588235 0.75539216 0.094914216
0.34313725 0.75147059 0.07745098
0.38039216 0.75147059 0.066666667
0.42696078 0.75159314 0.061764706
0.47542892 0.75539216 0.058333333
0.52254902 0.76127451 0.046323529
0.56966912 0.76415441 0.042095588
0.61507353 0.77022059 0.041666667
0.66029412 0.77285539 0.032843137
0.70539216 0.7754902 0.025980392
0.75079657 0.78186275 0.010723039
0.79215686 0.78688725 0.027573529
0.83376225 0.79068627 0.038235294
0.87254902 0.79460784 0.039460784
0.90343137 0.79509804 0.06372549
0.93737745 0.79852941 0.10539216
0.96911765 0.80030637 0.14558824
0.99215686 0.80294118 0.17254902
0.16470588 0.79411765 0.14705882
0.1754902 0.79411765 0.14901961
0.20735294 0.79411765 0.14803922
0.23088235 0.79411765 0.14705882
0.25882353 0.79411765 0.13333333
0.29215686 0.79362745 0.13088235
0.325 0.79019608 0.12598039
0.35539216 0.78627451 0.12083333
0.39019608 0.78627451 0.10784314
0.42230392 0.78235294 0.10147059
0.45784314 0.78235294 0.087745098
0.50539216 0.78627451 0.080882353
0.54803922 0.79019608 0.07745098
0.58823529 0.79411765 0.084803922
0.63137255 0.79803922 0.088235294
0.67328431 0.80196078 0.082843137
0.71568627 0.80588235 0.068627451
0.76078431 0.80906863 0.058333333
0.79803922 0.81372549 0.060294118
0.8375 0.81740196 0.057107843
0.87254902 0.82058824 0.070588235
0.90343137 0.82377451 0.097303922
0.93578431 0.8254902 0.12598039
0.96519608 0.82941176 0.15931373
0.98039216 0.82941176 0.17647059
0.27941176 0.8245098 0.17009804
0.28952206 0.825 0.16960784
0.30281863 0.825 0.17058824
0.30631127 0.825 0.17996324
0.32843137 0.825 0.1627451
0.35245098 0.825 0.15533088
0.37598039 0.82120098 0.15061275
0.40294118 0.82107843 0.1463848
0.4372549 0.81764706 0.13872549
0.46439951 0.81764706 0.13529412
0.49607843 0.81715686 0.12144608
0.53633578 0.81715686 0.10821078
0.57181373 0.82107843 0.11789216
0.61078431 0.8254902 0.13186275
0.65196078 0.82892157 0.13835784
0.68921569 0.83069853 0.12990196
0.72990196 0.83284314 0.11617647
0.76862745 0.83890931 0.10784314
0.80686275 0.84166667 0.10833333
0.84166667 0.84803922 0.10833333
0.87647059 0.8504902 0.10490196
0.90735294 0.85245098 0.11960784
0.93823529 0.85637255 0.1439951
0.96207108 0.85784314 0.16795343
0.96421569 0.86029412 0.17647059
0.35882353 0.85588235 0.21078431
0.36519608 0.85882353 0.21262255
0.37058824 0.85808824 0.21078431
0.3745098 0.85882353 0.21078431
0.38872549 0.85931373 0.21078431
0.40686275 0.85968137 0.20637255
0.43063725 0.85588235 0.19607843
0.45625 0.85490196 0.18431373
0.48137255 0.85490196 0.17941176
0.50686275 0.85490196 0.18333333
0.53627451 0.85416667 0.16862745
0.56164216 0.84803922 0.15245098
0.59607843 0.85343137 0.1627451
0.63517157 0.85894608 0.17340686
0.67254902 0.86372549 0.18627451
0.70833333 0.86666667 0.17794118
0.74705882 0.86764706 0.16372549
0.77892157 0.86948529 0.15735294
0.81078431 0.87254902 0.1627451
0.84546569 0.87892157 0.16629902
0.87941176 0.88284314 0.16323529
0.91127451 0.88333333 0.15551471
0.94215686 0.8872549 0.16078431
0.95392157 0.8872549 0.17365196
0.95392157 0.88823529 0.17647059
0.4245098 0.89607843 0.26764706
0.42696078 0.89607843 0.27009804
0.42953431 0.8939951 0.26556373
0.43302696 0.89068627 0.25851716
0.45 0.89607843 0.2622549
0.46470588 0.89607843 0.26176471
0.48664216 0.89276961 0.25147059
0.50294118 0.89215686 0.24411765
0.525 0.89215686 0.24411765
0.5504902 0.89607843 0.24166667
0.57218137 0.88970588 0.22892157
0.58823529 0.87941176 0.20980392
0.61936275 0.88088235 0.20931373
0.65588235 0.89117647 0.21960784
0.69705882 0.90147059 0.23235294
0.73131127 0.90392157 0.22941176
0.7622549 0.90245098 0.21911765
0.78921569 0.90153186 0.21911765
0.82009804 0.90845588 0.22598039
0.85098039 0.91176471 0.228125
0.88186275 0.91568627 0.22401961
0.91519608 0.91960784 0.21783088
0.94607843 0.92242647 0.20882353
0.9588848 0.92261029 0.21623775
0.96372549 0.925 0.22598039
0.47843137 0.92941176 0.31764706
0.48235294 0.92941176 0.31764706
0.48235294 0.9245098 0.31176471
0.47107843 0.91421569 0.29509804
0.49803922 0.9254902 0.30392157
0.51813725 0.92941176 0.30588235
0.5245098 0.9254902 0.29901961
0.54166667 0.9254902 0.29803922
0.56470588 0.92941176 0.29411765
0.58921569 0.93186275 0.29411765
0.60490196 0.92058824 0.27745098
0.61911765 0.91372549 0.26372549
0.64313725 0.90980392 0.25882353
0.67647059 0.91813725 0.2627451
0.71470588 0.92843137 0.26960784
0.75196078 0.93970588 0.27941176
0.77254902 0.93333333 0.27058824
0.7995098 0.93578431 0.27696078
0.83039216 0.94117647 0.28529412
0.85735294 0.94117647 0.27892157
0.88823529 0.94509804 0.27843137
0.91911765 0.95343137 0.28284314
0.94705882 0.95784314 0.28039216
0.96764706 0.94803922 0.27107843
0.98431373 0.96078431 0.29019608
0 0.075980392 0.070588235
0 0.078431373 0.070588235
0 0.078431373 0.070588235
0.019117647 0.079718137 0.067156863
0.070098039 0.087745098 0.068382353
0.11354167 0.087745098 0.071752451
0.15392157 0.080882353 0.079289216
0.20343137 0.070036765 0.076960784
0.25490196 0.059803922 0.077941176
0.30245098 0.045588235 0.077941176
0.35784314 0.032843137 0.081862745
0.41292892 0.018933824 0.085784314
0.46470588 0.0051470588 0.087745098
0.51617647 0.0021446078 0.095404412
0.56372549 0 0.095710784
0.60980392 0 0.092156863
0.65490196 0 0.083333333
0.7 0 0.083333333
0.7432598 0 0.083333333
0.78988971 0 0.087254902
0.83921569 0 0.087254902
0.88039216 0 0.084620098
0.91973039 0 0.083333333
0.9528799 0 0.08627451
0.96715686 0 0.094117647
0 0.093627451 0.073039216
0 0.097893689 0.070588235
0.0018995098 0.10147059 0.071369485
0.027879902 0.099019608 0.069117647
0.071783088 0.097334559 0.070557598
0.1158701 0.09810049 0.07310049
0.16239277 0.095327819 0.075490196
0.21184896 0.089154412 0.078837316
0.26127451 0.074019608 0.078860294
0.3127451 0.061642157 0.080736826
0.36421569 0.045297181 0.083946078
0.41434589 0.021875 0.085784314
0.46639093 0.0046875 0.087745098
0.51862745 0.003370098 0.095519301
0.57009804 0.0039215686 0.099632353
0.61764706 0.0039215686 0.093627451
0.6627451 0.0024509804 0.086703431
0.70637255 0.0024509804 0.086703431
0.74856005 0 0.089705882
0.79393382 0 0.090188419
0.83921569 0 0.087714461
0.88284314 0 0.084620098
0.92156863 0 0.083333333
0.95196078 0 0.083884804
0.96170343 0 0.08627451
0 0.1245098 0.080882353
0 0.1245098 0.076501225
0.0055453431 0.12745098 0.075030637
0.030637255 0.12418811 0.074387255
0.071691176 0.11936275 0.077389706
0.11654412 0.11608456 0.077941176
0.16862745 0.11458333 0.077941176
0.22064951 0.11130515 0.079641544
0.27156863 0.10098039 0.081862745
0.32303922 0.089384191 0.087454044
0.37058824 0.065196078 0.089613971
0.42205882 0.037086397 0.086151961
0.4745098 0.013970588 0.088235294
0.52781863 0.0073529412 0.094132966
0.58011642 0.0056372549 0.098590686
0.62725184 0.0039215686 0.094316789
0.67156863 0.0039215686 0.088235294
0.71666667 0.0039215686 0.089338235
0.75992647 0.0039215686 0.091819853
0.80294118 0.0013480392 0.096568627
0.84411765 0 0.094607843
0.88431373 0 0.086810662
0.92411152 0 0.083333333
0.9504902 0 0.083333333
0.95539216 0 0.083333333
0 0.15147059 0.086090686
0 0.15196078 0.081571691
