site/assets/luts/natron-haldclut--fuji-superia-x-tra-800--630125bb9.cube
# LUTr-Project: LUTr — LUTrepository
# LUTr-Schema-Version: 1
# LUTr-ID: natron-haldclut--fuji-superia-x-tra-800--630125bb9
# LUTr-Title: fuji superia x-tra 800
# LUTr-Collection: Natron HaldCLUT
# LUTr-Collection-ID: natron-haldclut-presets
# LUTr-Source: https://github.com/NatronGitHub/clut
# LUTr-Source-File: submissions/natron-haldclut-presets/negative_color/fuji_superia_x-tra_800.png
# LUTr-Source-Format: PNG
# LUTr-Source-SHA256: 7c3f8422890b7396cb1cc6f60dad271bd6c78c9f160b9ed952d2577df4128123
# LUTr-License: CC-BY-SA-4.0
# LUTr-License-URL: https://github.com/NatronGitHub/clut#license
# LUTr-Tags: creative, film, film-emulation, hald-clut, natron, png, cube
# LUTr-Transform-Class: film-emulation
# LUTr-Input-Color-Space: srgb
# LUTr-Output-Color-Space: srgb
# LUTr-Color-Space-Confidence: assumed-display-referred
# LUTr-Conversion-Method: PNG LUT image decoded at 16-bit and sampled to 25x25x25 3D CUBE
# LUTr-Conversion-Date: 2026-07-27
# LUTr-Conversion-Tool: LUTr scripts/convert-all-to-cube.mjs
# LUTr-Conversion-Grid: 25x25x25
# LUTr-Note: Preserve this metadata and the upstream license notices when redistributing.
TITLE "fuji superia x-tra 800"
LUT_3D_SIZE 9
DOMAIN_MIN 0 0 0
DOMAIN_MAX 1 1 1
0.054901961 0.02745098 0.066666667
0.13186275 0.00098039216 0.0014705882
0.25098039 0.0098039216 0.01372549
0.3627451 0.0078431373 0.0078431373
0.4745098 0.0098039216 0.0098039216
0.59019608 0.0039215686 0.014215686
0.68921569 0.0039215686 0.049019608
0.78578431 0.0034313725 0.090686275
0.87843137 0 0.1254902
0.08627451 0.14313725 0.054901961
0.16666667 0.1348652 0.042647059
0.27401961 0.12058824 0.024509804
0.378125 0.10833333 0.045098039
0.48602941 0.078186275 0.041911765
0.60177696 0.046752451 0.042463235
0.70098039 0.023039216 0.059803922
0.78878676 0 0.082904412
0.83578431 0.0078431373 0.10980392
0.13921569 0.26372549 0.10784314
0.20147059 0.25894608 0.10882353
0.29411765 0.24705882 0.093872549
0.39460784 0.22892157 0.09497549
0.50490196 0.20343137 0.098529412
0.61727941 0.17291667 0.10502451
0.71960784 0.12647059 0.10857843
0.80134804 0.060416667 0.11482843
0.85686275 0.018627451 0.12843137
0.19313725 0.37598039 0.12941176
0.23186275 0.37077206 0.14068627
0.32892157 0.37058824 0.12892157
0.43094363 0.35790441 0.12794118
0.53504902 0.33848039 0.15073529
0.64362745 0.31666667 0.17107843
0.74656863 0.27904412 0.18039216
0.82481618 0.20667892 0.18560049
0.89313725 0.11617647 0.19019608
0.26862745 0.49019608 0.11960784
0.29705882 0.49019608 0.13088235
0.37107843 0.49019608 0.14313725
0.47132353 0.48382353 0.14362745
0.58235294 0.47058824 0.15784314
0.68357843 0.46004902 0.18578431
0.77352941 0.43235294 0.20784314
0.85784314 0.38897059 0.25147059
0.90980392 0.33333333 0.28235294
0.33088235 0.60196078 0.11372549
0.35704657 0.60833333 0.10637255
0.44669118 0.6122549 0.094117647
0.54454657 0.60588235 0.086335784
0.64681373 0.59803922 0.10686275
0.74607843 0.58627451 0.14215686
0.82267157 0.57169118 0.20294118
0.89411765 0.54656863 0.28088235
0.95147059 0.50686275 0.31764706
0.37254902 0.70980392 0.12647059
0.39644608 0.70882353 0.11507353
0.4754902 0.70980392 0.099019608
0.58333333 0.70980392 0.072058824
0.71470588 0.70735294 0.048529412
0.8372549 0.70379902 0.046446078
0.91078431 0.69019608 0.11446078
0.94742647 0.67794118 0.22953431
0.96176471 0.66568627 0.31862745
0.35245098 0.82107843 0.16911765
0.39509804 0.81764706 0.15392157
0.48713235 0.81764706 0.11605392
0.60177696 0.81715686 0.061948529
0.72745098 0.81764706 0.025245098
0.86519608 0.81617647 0.011580882
0.97267157 0.80980392 0.021078431
0.98480392 0.80539216 0.081740196
1 0.77843137 0.31323529
0.25098039 0.9254902 0.22352941
0.27647059 0.9377451 0.22401961
0.39803922 0.93137255 0.19117647
0.56029412 0.91470588 0.12303922
0.71176471 0.91764706 0.043137255
0.86617647 0.89509804 0.006372549
0.99607843 0.92843137 0
1 0.93186275 0.0078431373
1 0.90980392 0
0.043137255 0.019117647 0.096078431
0.12745098 0.02689951 0.096997549
0.23933824 0.011764706 0.084926471
0.34099265 0.0075367647 0.077144608
0.45882353 0.0078431373 0.07745098
0.57481618 0.0039215686 0.073529412
0.67892157 0.0040441176 0.094117647
0.78186275 0.0039215686 0.12156863
0.8627451 0 0.14852941
0.093627451 0.14705882 0.14264706
0.1474954 0.13965227 0.13964461
0.25142463 0.12745098 0.12745098
0.36011029 0.11305147 0.11568627
0.47251838 0.086060049 0.10808824
0.58469669 0.055499387 0.096116728
0.69041054 0.0065410539 0.096859681
0.78186275 0.0043504902 0.12156863
0.85882353 0.0039215686 0.14852941
0.10625 0.25980392 0.17009804
0.18235294 0.25894608 0.1745098
0.27172181 0.24877451 0.17009804
0.37826287 0.23498775 0.16262255
0.48792892 0.20845588 0.16158088
0.60539216 0.17683824 0.15392157
0.71311275 0.12257966 0.14914216
0.79620098 0.051470588 0.14656863
0.86519608 0.016053922 0.15637255
0.15686275 0.3745098 0.1872549
0.21699602 0.37074908 0.19460784
0.3064185 0.37058824 0.19068627
0.40974265 0.35882353 0.19179688
0.52049632 0.34411765 0.20392157
0.63449755 0.32039675 0.20931373
0.73226103 0.27585784 0.21188725
0.8154182 0.20381434 0.21803002
0.88578431 0.12745098 0.21323529
0.2495098 0.49019608 0.16176471
0.28602941 0.49019608 0.17132353
0.35833333 0.49019608 0.1745098
0.45539216 0.48612132 0.17803309
0.56507353 0.47438725 0.20490196
0.67141544 0.45744485 0.22745098
0.75821078 0.43057598 0.25723039
0.84310662 0.3872549 0.28621324
0.92352941 0.32156863 0.30514706
0.33057598 0.60833333 0.11764706
0.35900735 0.60588235 0.13072151
0.43765319 0.60980392 0.12120098
0.52725184 0.60441176 0.13193168
0.62092525 0.6010723 0.17058824
0.72156863 0.59019608 0.19901961
0.79848346 0.57547488 0.25723039
0.88110447 0.54264706 0.31809896
0.95814951 0.50557598 0.36519608
0.38443627 0.71372549 0.12561275
0.40741422 0.71629902 0.11776961
0.48382353 0.71436887 0.10980392
0.59376532 0.7127451 0.087300858
0.72359069 0.71109069 0.066727941
0.81034007 0.70588235 0.10044424
0.87990196 0.69390319 0.16835172
0.92977941 0.67401961 0.28082108
0.98186275 0.64754902 0.38039216
0.37751225 0.82156863 0.15484069
0.41672794 0.82156863 0.14264706
0.50531556 0.81764706 0.10882353
0.61873468 0.81715686 0.06160386
0.74114583 0.81764706 0.025214461
0.87643229 0.81764706 0.015303309
0.96443015 0.81372549 0.030514706
0.99608609 0.80153186 0.13148744
0.99699755 0.77843137 0.32745098
0.23186275 0.94460784 0.23480392
0.3338848 0.92598039 0.20790441
0.42659314 0.92977941 0.18186275
0.58823529 0.90735294 0.099019608
0.72916667 0.90980392 0.02377451
0.86862745 0.89754902 0.013909314
0.97941176 0.93382353 0.0039215686
1 0.91764706 0.0044730392
1 0.90490196 0.039215686
0.0098039216 0.016666667 0.19705882
0.12352941 0.031862745 0.18284314
0.22818627 0.014705882 0.15955882
0.34068627 0.017156863 0.15490196
0.44705882 0.015686275 0.14803922
0.56519608 0.0039215686 0.12781863
0.66666667 0.0039215686 0.14093137
0.77401961 0.0039215686 0.16017157
0.85882353 0 0.17941176
0.071568627 0.14705882 0.23186275
0.13921569 0.14742647 0.22521446
0.23915441 0.12840074 0.20955882
0.3489277 0.11176471 0.19332108
0.45906863 0.090196078 0.17965686
0.57432598 0.06528799 0.16176471
0.67738971 0.018811275 0.15441176
0.77761949 0.010845588 0.16393995
0.8627451 0.0035539216 0.18333333
0.10196078 0.2627451 0.2627451
0.16246936 0.25980392 0.25882353
0.25625 0.24724265 0.24785539
0.36228554 0.23921569 0.24494485
0.47745098 0.21372549 0.2317402
0.59705882 0.18897059 0.21960784
0.70006127 0.12352941 0.20392157
0.78477328 0.067677696 0.19693627
0.86764706 0.0083333333 0.18529412
0.14963235 0.37169118 0.28186275
0.19056373 0.37058824 0.27971814
0.28284314 0.37058824 0.27610294
0.38909314 0.3627451 0.27401961
0.49810049 0.34681373 0.27738971
0.61963848 0.3245098 0.27029718
0.71865809 0.28452819 0.27123162
0.80477941 0.21973039 0.27156863
0.87708333 0.13504902 0.25232843
0.22156863 0.48970588 0.27647059
0.24540441 0.49313725 0.27346814
0.32365196 0.49166667 0.28039216
0.4252451 0.48756127 0.28707108
0.53333333 0.47843137 0.29803922
0.64019608 0.46397059 0.31323529
0.74215686 0.43602941 0.31666667
0.83351716 0.39264706 0.33529412
0.91960784 0.33333333 0.34019608
0.29803922 0.61164216 0.22303922
0.33284314 0.61372549 0.22103248
0.40441176 0.61372549 0.22303922
0.49607843 0.60957414 0.23258272
0.5841299 0.60318627 0.27653186
0.68284314 0.59264706 0.29823836
0.77401961 0.57717525 0.3354473
0.8627451 0.54257047 0.37112439
0.94656863 0.50539216 0.4004902
0.43161765 0.71985294 0.12058824
0.44264706 0.71691176 0.1088848
0.49583333 0.71764706 0.13474265
0.5950674 0.71666667 0.11703431
0.68210784 0.7127451 0.16446078
0.75713848 0.70407475 0.23195466
0.83376225 0.69019608 0.28670343
0.90903799 0.67401961 0.35621936
0.97745098 0.64705882 0.42843137
0.43627451 0.82156863 0.13921569
0.45635723 0.82538297 0.13411458
0.53336397 0.82478554 0.10012255
0.64166667 0.82156863 0.055882353
0.75067402 0.82064951 0.042156863
0.86519608 0.81662071 0.047104779
0.93716299 0.81017157 0.10707721
0.98572304 0.79836091 0.26377145
0.99264706 0.7814951 0.37463235
0.35 0.92941176 0.20098039
0.39669118 0.93321078 0.1935049
0.47254902 0.93651961 0.17058824
0.59705882 0.93970588 0.12120098
0.74019608 0.93823529 0.050490196
0.87757353 0.93921569 0.014215686
0.97352941 0.92843137 0.01372549
1 0.89767157 0.023897059
1 0.94019608 0.057843137
0.011764706 0.021078431 0.27401961
0.12616422 0.040747549 0.253125
0.22561275 0.015686275 0.22843137
0.33376225 0.015686275 0.21666667
0.44313725 0.03627451 0.21764706
0.55882353 0 0.18137255
0.66176471 0 0.19460784
0.75441176 0 0.20245098
0.825 0 0.20784314
0.083823529 0.16096814 0.31403186
0.13921569 0.14867494 0.30067402
0.23492647 0.13391544 0.28517157
0.33939185 0.1164905 0.26832874
0.44754902 0.086427696 0.24764093
0.567356 0.067532169 0.22517616
0.66960784 0.0095588235 0.20026042
0.76168045 0 0.20481771
0.84785539 0 0.21158088
0.11041667 0.27156863 0.35147059
0.1510723 0.26732537 0.34381127
0.24304534 0.25422794 0.33532475
0.3522212 0.24336703 0.31971507
0.46960784 0.22003676 0.30435049
0.58621324 0.18970588 0.28567708
0.68578431 0.13321078 0.26544118
0.77696078 0.068183211 0.24276961
0.85845588 0.0089460784 0.22205882
0.12101716 0.37843137 0.38235294
0.1669807 0.37843137 0.37469363
0.26090686 0.37202819 0.37058824
0.36547947 0.36308977 0.36182598
0.48458946 0.34586397 0.35370711
0.60104167 0.32820159 0.34859069
0.70398284 0.29264706 0.33898591
0.79607843 0.22911305 0.32163756
0.87696078 0.14264706 0.29215686
0.15931373 0.49730392 0.39019608
0.19577206 0.49803922 0.39558824
0.28480392 0.49564951 0.3911152
0.39604779 0.49019608 0.38550858
0.50539216 0.47941176 0.39129902
0.61960784 0.46639093 0.39509804
0.72671569 0.44319853 0.39148284
0.81789216 0.40033701 0.39313725
0.90931373 0.34436275 0.3872549
0.23327206 0.6122549 0.36954657
0.27481618 0.61280637 0.3622549
0.3471201 0.61239277 0.37248775
0.43864124 0.60622702 0.38312653
0.55027574 0.59926471 0.38458946
0.6528799 0.59356618 0.40345435
0.75098039 0.57676164 0.42340686
0.84135263 0.54345129 0.4381204
0.93535539 0.50931373 0.45582108
0.3692402 0.71764706 0.26164216
0.3995098 0.71962316 0.2564185
0.45223652 0.71703431 0.27046569
0.53558517 0.7127451 0.29250919
0.62389706 0.70882353 0.31629902
0.70735294 0.70196078 0.37378983
0.79068627 0.69313725 0.40906863
0.87487745 0.67401961 0.45404412
0.96286765 0.64411765 0.48370098
0.49019608 0.82941176 0.12647059
0.51263787 0.82941176 0.11519608
0.57915135 0.82602635 0.093137255
0.66727941 0.82530637 0.077022059
0.74393382 0.82156863 0.13030025
0.83528646 0.81783854 0.15238971
0.88958333 0.81570159 0.26078431
0.94204963 0.79846814 0.38159467
0.99001225 0.78480392 0.48186275
0.41421569 0.94754902 0.19607843
0.46335784 0.93645833 0.17598039
0.54473039 0.92818627 0.14093137
0.65459559 0.92389706 0.080330882
0.77034314 0.94411765 0.044607843
0.89068627 0.94123775 0.018627451
0.98419118 0.92732843 0.024142157
1 0.94344363 0.010171569
1 0.93382353 0.28823529
0.0078431373 0.019607843 0.34509804
0.13112745 0.025735294 0.31421569
0.22647059 0.027941176 0.30098039
0.32352941 0.0071078431 0.27647059
0.43431373 0.0088235294 0.2627451
0.55098039 0.0039215686 0.24705882
0.65784314 0 0.24313725
0.75490196 0 0.24509804
0.84313725 0 0.24509804
0.087254902 0.1745098 0.39705882
0.14313725 0.15906863 0.37794118
0.23621324 0.14669118 0.36397059
0.33676471 0.12882966 0.34460784
0.44007353 0.098529412 0.31776961
0.55848652 0.067555147 0.2877451
0.66133578 0.022855392 0.26084559
0.75661765 0.0015012255 0.25094975
0.85098039 0 0.24877451
0.10441176 0.27941176 0.44019608
0.15165441 0.27506127 0.43014706
0.23921569 0.26727941 0.41985294
0.34313725 0.25245098 0.40520833
0.45441176 0.22156863 0.37843137
0.57150735 0.19362745 0.35416667
0.67389706 0.14620098 0.32965686
0.765625 0.073161765 0.29301471
0.84509804 0.018627451 0.26568627
0.097303922 0.38308824 0.47696078
0.15882353 0.38112745 0.47107843
0.2411152 0.37843137 0.46568627
0.34901961 0.3698223 0.45631127
0.46531863 0.35355392 0.44117647
0.58311887 0.33550858 0.42061887
0.69166667 0.30098039 0.40098039
0.78716299 0.23039216 0.37230392
0.87867647 0.14362745 0.3375
0.085294118 0.50490196 0.50588235
0.16519608 0.49926471 0.50588235
0.25269608 0.49607843 0.50196078
0.36409314 0.49681373 0.49411765
0.48627451 0.48823529 0.48627451
0.60122549 0.47377451 0.47414216
0.70637255 0.45269608 0.46617647
0.80465686 0.39914216 0.44901961
0.90196078 0.34215686 0.43333333
0.16323529 0.60980392 0.50710784
0.21029412 0.61102941 0.50971201
0.30116422 0.60741422 0.50202206
0.40413603 0.60833333 0.49905025
0.51593137 0.60514706 0.49963235
0.62594975 0.59730392 0.50692402
0.72702206 0.58278186 0.50318627
0.82466299 0.55621936 0.50735294
0.91838235 0.51593137 0.50882353
0.27009804 0.71764706 0.46617647
0.3129902 0.71666667 0.45833333
0.38051471 0.71666667 0.46617647
0.4713848 0.71292892 0.46550245
0.56470588 0.7127451 0.48357843
0.65857843 0.70410539 0.50539216
0.74914216 0.6939951 0.52156863
0.84411765 0.67401961 0.53927696
0.95196078 0.65196078 0.55686275
0.46029412 0.82941176 0.26740196
0.46222426 0.8254902 0.30765931
0.53357843 0.82714461 0.271875
0.59779412 0.8254902 0.31678922
0.67120098 0.8252451 0.35441176
0.73872549 0.81764706 0.42270221
0.82530637 0.81286765 0.43290441
0.90168505 0.80217525 0.50199142
0.975 0.78651961 0.55906863
0.53921569 0.91176471 0.14901961
0.54289216 0.93872549 0.1627451
0.60098039 0.94313725 0.13921569
0.71715686 0.91151961 0.048529412
0.81764706 0.91764706 0.019607843
0.9254902 0.95955882 0.0053921569
0.99509804 0.96568627 0.024509804
1 0.96078431 0.1504902
1 0.89607843 0.48823529
0.018137255 0.03627451 0.425
0.13333333 0.021568627 0.38560049
0.22843137 0.0375 0.37585784
0.3216299 0.010784314 0.34221814
0.42941176 0.020588235 0.33333333
0.54313725 0.0078431373 0.30435049
0.65061275 0.0039215686 0.30098039
0.7504902 0 0.29313725
0.84313725 0 0.28529412
0.076776961 0.1745098 0.47824755
0.14144455 0.1627451 0.45863971
0.23627451 0.15526961 0.4381587
0.33676471 0.13376225 0.41519608
0.44093137 0.10588235 0.38961397
0.55091146 0.069791667 0.3495098
0.65277267 0.017141544 0.31341912
0.75052849 0.0036151961 0.30063572
0.84166667 0.0021446078 0.29166667
0.094117647 0.2872549 0.525
0.15196078 0.27887561 0.5129136
0.24019608 0.2745098 0.50165441
0.34747243 0.26029412 0.48088235
0.45710784 0.22941176 0.45238971
0.5685049 0.20183824 0.42205882
0.66878064 0.15784314 0.38961397
0.75833333 0.082215074 0.34500613
0.85036765 0.006372549 0.30306373
0.089215686 0.39258578 0.57101716
0.15147059 0.39019608 0.56243873
0.24411765 0.38904718 0.55193015
0.34910386 0.38235294 0.53964461
0.46228554 0.36666667 0.51715686
0.57395833 0.34201134 0.49207261
0.68290441 0.30931373 0.46643689
0.77185968 0.24097733 0.42910539
0.87150735 0.14748775 0.38529412
0.094117647 0.50465686 0.60637255
0.14681373 0.50465686 0.60333946
0.24221814 0.50435049 0.59797794
0.35367647 0.50269608 0.58795956
0.4745098 0.49191176 0.57230392
0.58284314 0.48357843 0.5575674
0.69258578 0.45925245 0.53529412
0.78504902 0.42068015 0.51642157
0.87058824 0.3502451 0.48333333
0.1 0.61617647 0.6348652
0.17292433 0.6122549 0.62801011
0.263894 0.6122549 0.62009804
0.37689951 0.60833333 0.61280637
0.49166667 0.60833333 0.60487132
0.60775888 0.60475643 0.59230239
0.70735294 0.59313725 0.5838848
0.81049326 0.56617647 0.57352175
0.91219363 0.525 0.56366422
0.21237745 0.71703431 0.61703431
0.23880208 0.71372549 0.62161458
0.33661152 0.71372549 0.60407475
0.43022365 0.71372549 0.60084252
0.52941176 0.71323529 0.60379902
0.62953431 0.71312806 0.60994179
0.72401961 0.70171569 0.60857843
0.82588848 0.68970588 0.60784314
0.93394608 0.6627451 0.61384804
0.34313725 0.8276348 0.5377451
0.36568627 0.8254902 0.54019608
0.43011642 0.82941176 0.53823529
0.51109835 0.8254902 0.53982077
0.58979779 0.82156863 0.56176471
0.66900276 0.81845129 0.59206495
0.76812194 0.81372549 0.58933824
0.86378676 0.80545343 0.60942096
0.96519608 0.79068627 0.63970588
0.58039216 0.94803922 0.18480392
0.60030637 0.94675245 0.18480392
0.65465686 0.95661765 0.15526961
0.72696078 0.96323529 0.13584559
0.81813725 0.97034314 0.095343137
0.88235294 0.96917892 0.17224265
0.90894608 0.95808824 0.34791667
0.95508578 0.94050245 0.49791667
0.98137255 0.8995098 0.61715686
0.028431373 0.029411765 0.48823529
0.15245098 0.035784314 0.46078431
0.24191176 0.035294118 0.44117647
0.33419118 0.03125 0.41580882
0.44019608 0.018137255 0.3877451
0.54558824 0.014215686 0.35919118
0.64926471 0 0.34215686
0.74571078 0 0.33786765
0.82941176 0 0.32745098
0.10992647 0.18713235 0.55085784
0.16556373 0.1714614 0.5277114
0.2489277 0.1703125 0.51240809
0.34446998 0.145144 0.48458946
0.446875 0.11862745 0.45692402
0.55343137 0.094623162 0.41734069
0.65352328 0.036764706 0.37254902
0.7464614 0.0082261029 0.34924939
0.83529412 0 0.33431373
0.12352941 0.29411765 0.59607843
0.16458333 0.28826593 0.58566176
0.25514706 0.28014706 0.56979167
0.35245098 0.26731005 0.55248162
0.46041667 0.24215686 0.51997549
0.56458333 0.21740196 0.48872549
0.66452206 0.16960784 0.44828431
0.75735294 0.088878676 0.39908088
0.83284314 0.026960784 0.35539216
0.13333333 0.40343137 0.64607843
0.17262561 0.3995864 0.63662684
0.25906863 0.39620098 0.6265625
0.36026348 0.39019608 0.6122549
0.46893382 0.37677696 0.58590686
0.57604167 0.35274203 0.55441176
0.67665441 0.32144608 0.52990196
0.77009804 0.25727635 0.49068627
0.85245098 0.16629902 0.44411765
0.1377451 0.51421569 0.69019608
0.17132353 0.51243873 0.68308824
0.26078431 0.51029412 0.6745098
0.36127451 0.51029412 0.6620098
0.47867647 0.50294118 0.64240196
0.58780637 0.48572304 0.61764706
0.68529412 0.4622549 0.60098039
0.78186275 0.42463235 0.57598039
0.87303922 0.35931373 0.54117647
0.15490196 0.6182598 0.725
0.19082414 0.61715686 0.71813725
0.27401961 0.61654412 0.71001838
0.3778799 0.61464461 0.69924939
0.49142157 0.61011029 0.6848652
0.59226409 0.60588235 0.67310049
0.69019608 0.59231005 0.66136642
0.79554228 0.57009804 0.64296875
0.90490196 0.525 0.62058824
0.20294118 0.72058824 0.73235294
0.23293505 0.71838235 0.73226103
0.31960784 0.71593137 0.71691176
0.40842525 0.71764706 0.71620711
0.50870098 0.71519608 0.70943627
0.60229779 0.71191789 0.70407475
0.70061275 0.70232843 0.70042892
0.81075368 0.68624387 0.68523284
0.92671569 0.6627451 0.68235294
0.26482843 0.82941176 0.72120098
0.30543811 0.82941176 0.7060049
0.36691176 0.8254902 0.71078431
0.45032169 0.82634804 0.71260723
0.540625 0.8254902 0.70281863
0.63039216 0.8254902 0.69803922
0.73262868 0.81666667 0.70196078
0.83628983 0.80686275 0.71231618
0.94718137 0.79460784 0.71973039
0.45392157 0.96764706 0.48921569
0.46507353 0.96642157 0.50796569
0.51568627 0.95686275 0.50588235
0.56801471 0.95784314 0.53651961
0.6377451 0.96862745 0.55539216
0.70502451 0.95392157 0.59546569
0.78137255 0.93333333 0.65612745
0.88627451 0.92953431 0.67585784
0.94411765 0.91960784 0.69117647
0.12205882 0.043627451 0.53382353
0.18768382 0.030759804 0.515625
0.27205882 0.039215686 0.49607843
0.35686275 0.020588235 0.46617647
0.45514706 0.025980392 0.44215686
0.5536152 0.013541667 0.4127451
0.64607843 0.0083333333 0.3935049
0.74221814 0.0039215686 0.38131127
0.79215686 0 0.36470588
0.15245098 0.20196078 0.61176471
0.20294118 0.19368873 0.59650735
0.27715993 0.18246017 0.57732843
0.36078431 0.15647978 0.54373468
0.4627451 0.14117647 0.51173407
0.56341912 0.11013327 0.47647059
0.65332414 0.059313725 0.4372549
0.74264706 0.018688725 0.40392157
0.84123775 0 0.37297794
0.16164216 0.3060049 0.65882353
0.20784314 0.29940257 0.64620098
0.28719363 0.2948223 0.63431373
0.37581189 0.2841299 0.61470588
0.47426471 0.26476716 0.58878676
0.57303922 0.23419118 0.55343137
0.66204044 0.1864277 0.51372549
0.75439645 0.095848652 0.45980392
0.83321078 0.023284314 0.40637255
0.18382353 0.41158088 0.70539216
0.21991422 0.40622702 0.7
0.29647672 0.40765931 0.69010417
0.38039216 0.40068934 0.67401961
0.47671569 0.38848039 0.65294118
0.57996324 0.36637561 0.62401961
0.67352941 0.32852328 0.59166667
0.76881127 0.28012408 0.55637255
0.85735294 0.19901961 0.50245098
0.21078431 0.52769608 0.75784314
0.23137255 0.52181373 0.75392157
0.30747549 0.51985294 0.74068627
0.39607843 0.51657475 0.73005515
0.48639706 0.50698529 0.71004902
0.5885723 0.49803922 0.68740809
0.68112745 0.4754902 0.66930147
0.78057598 0.43235294 0.63924632
0.87941176 0.37745098 0.60318627
0.22107843 0.63186275 0.79852941
0.24871324 0.63204657 0.79460784
0.31305147 0.62633272 0.78520221
0.40784314 0.62009804 0.76980699
0.49785539 0.61617647 0.75940564
0.58872549 0.60833333 0.74282322
0.68921569 0.59767157 0.7274663
0.79381127 0.57401961 0.7060432
0.8877451 0.53314951 0.67843137
0.23431373 0.72843137 0.82426471
0.27973346 0.73246017 0.82086397
0.33982843 0.72257966 0.82205882
0.41969975 0.72071078 0.81398591
0.50655637 0.71672794 0.8004902
0.59264706 0.71372549 0.79054841
0.69307598 0.70818015 0.7778799
0.80191483 0.6939951 0.76012561
0.90465686 0.66666667 0.7432598
0.27892157 0.8372549 0.83376225
0.29803922 0.83333333 0.84859069
0.35586703 0.83333333 0.83026961
0.43937653 0.83317249 0.82679994
0.51372549 0.8254902 0.82699142
0.60422794 0.8196921 0.81437653
0.70500919 0.81764706 0.81404718
0.81415441 0.81421569 0.80539216
0.9221201 0.79803922 0.79460784
0.3004902 0.96078431 0.79215686
0.33480392 0.95729167 0.78823529
0.35919118 0.93566176 0.83063725
0.43970588 0.94019608 0.81911765
0.52303922 0.95147059 0.80465686
0.61519608 0.95490196 0.81029412
0.72095588 0.94938725 0.81421569
0.84068627 0.94509804 0.81764706
0.9372549 0.95343137 0.81421569
0.13333333 0.078431373 0.54901961
0.20245098 0.071078431 0.5377451
0.2872549 0.056862745 0.53333333
0.36960784 0.039705882 0.49068627
0.46078431 0.033333333 0.45882353
0.55882353 0.030392157 0.46176471
0.64607843 0.02254902 0.45686275
0.72696078 0.00049019608 0.40735294
0.78823529 0 0.36862745
0.1754902 0.20980392 0.6377451
0.21862745 0.20588235 0.61862745
0.31605392 0.1995098 0.62781863
0.38872549 0.17598039 0.59185049
0.47598039 0.15269608 0.5495098
0.56519608 0.11029412 0.52794118
0.65343137 0.056372549 0.49129902
0.73866422 0.018688725 0.45300245
0.80833333 0.0073529412 0.39509804
0.21960784 0.31764706 0.70196078
0.25404412 0.31078431 0.68970588
0.33039216 0.30980392 0.68921569
0.4067402 0.29803922 0.66617647
0.49509804 0.28039216 0.64607843
0.58088235 0.24852941 0.61127451
0.66568627 0.18921569 0.55588235
0.7504902 0.11911765 0.50294118
0.83823529 0.018627451 0.42745098
0.23627451 0.41764706 0.73676471
0.26813725 0.41519608 0.74215686
0.33713235 0.41764706 0.73823529
0.41519608 0.41219363 0.72647059
0.5 0.39803922 0.70171569
0.58480392 0.37696078 0.67794118
0.67352941 0.33970588 0.64068627
0.76617647 0.28560049 0.58137255
0.8495098 0.20539216 0.53284314
0.26862745 0.53137255 0.80980392
0.29730392 0.53333333 0.81348039
0.35098039 0.52941176 0.8004902
0.42377451 0.52622549 0.79485294
0.50196078 0.51372549 0.76862745
0.58480392 0.49730392 0.74240196
0.67745098 0.48137255 0.73235294
0.77818627 0.43848039 0.68553922
0.88039216 0.38823529 0.64509804
0.28235294 0.63970588 0.85098039
0.30949755 0.63756127 0.84871324
0.36311275 0.63186275 0.85637255
0.43143382 0.62640931 0.83823529
0.50784314 0.62401961 0.825
0.59264706 0.6122549 0.81378676
0.68676471 0.59803922 0.77843137
0.78578431 0.58204657 0.76090686
0.89264706 0.54705882 0.74656863
0.2872549 0.73627451 0.87254902
0.32977941 0.73639706 0.89473039
0.37622549 0.73235294 0.89681373
0.43627451 0.72843137 0.86911765
0.51176471 0.72058824 0.85637255
0.59656863 0.71764706 0.8682598
0.69313725 0.7127451 0.84901961
0.79019608 0.70147059 0.84276961
0.90588235 0.66666667 0.7745098
0.30882353 0.84117647 0.9254902
0.34417892 0.83768382 0.95392157
0.37794118 0.83431373 0.93370098
0.44411765 0.83333333 0.93578431
0.51568627 0.83112745 0.91789216
0.6004902 0.82941176 0.92224265
0.69313725 0.82156863 0.90784314
0.80588235 0.81372549 0.88584559
0.92598039 0.79460784 0.84460784
0.24705882 0.96862745 0.92941176
0.29362745 0.96813725 0.96764706
0.34313725 0.96470588 0.95392157
0.41127451 0.96764706 0.9754902
0.49411765 0.96470588 0.98039216
0.59264706 0.93235294 0.95294118
0.68627451 0.97352941 0.96960784
0.81372549 0.96127451 0.92892157
0.90980392 0.96862745 0.96078431
