site/assets/luts/natron-haldclut--fuji3510-constlclip--1f86a142b.cube
# LUTr-Project: LUTr — LUTrepository
# LUTr-Schema-Version: 1
# LUTr-ID: natron-haldclut--fuji3510-constlclip--1f86a142b
# LUTr-Title: fuji3510 constlclip
# LUTr-Collection: Natron HaldCLUT
# LUTr-Collection-ID: natron-haldclut-presets
# LUTr-Source: https://github.com/NatronGitHub/clut
# LUTr-Source-File: submissions/natron-haldclut-presets/print/fuji3510_constlclip.png
# LUTr-Source-Format: PNG
# LUTr-Source-SHA256: 0227bff18941b40052cc2f471fdf586daf2f0eb4d4471497fd98c3b2430dd35b
# LUTr-License: CC-BY-SA-4.0
# LUTr-License-URL: https://github.com/NatronGitHub/clut#license
# LUTr-Tags: creative, film, film-emulation, hald-clut, natron, png, cube
# LUTr-Transform-Class: film-emulation
# LUTr-Input-Color-Space: srgb
# LUTr-Output-Color-Space: srgb
# LUTr-Color-Space-Confidence: assumed-display-referred
# LUTr-Conversion-Method: PNG LUT image decoded at 16-bit and sampled to 25x25x25 3D CUBE
# LUTr-Conversion-Date: 2026-07-27
# LUTr-Conversion-Tool: LUTr scripts/convert-all-to-cube.mjs
# LUTr-Conversion-Grid: 25x25x25
# LUTr-Note: Preserve this metadata and the upstream license notices when redistributing.
TITLE "fuji3510 constlclip"
LUT_3D_SIZE 5
DOMAIN_MIN 0 0 0
DOMAIN_MAX 1 1 1
0.0078431373 0.0039215686 0.0039215686
0.073529412 0.035294118 0.019607843
0.32156863 0.07254902 0
0.47941176 0.093137255 0.019607843
0.52941176 0.098039216 0.011764706
0.012745098 0.096078431 0.053921569
0.078676471 0.11862745 0.047058824
0.40784314 0.16519608 0.0039215686
0.59901961 0.19705882 0.023284314
0.64803922 0.21666667 0.020588235
0.015686275 0.27254902 0.13137255
0.021078431 0.32352941 0.095588235
0.48333333 0.43431373 0.01372549
0.73333333 0.46862745 0.017156863
0.78431373 0.49215686 0.033333333
0.044117647 0.4254902 0.18921569
0.016666667 0.5 0.15098039
0.56176471 0.66078431 0.018137255
0.86593137 0.75073529 0.054656863
0.89901961 0.74705882 0.055882353
0 0.51764706 0.25882353
0.088235294 0.6372549 0.026470588
0.64117647 0.75490196 0.017647059
0.9127451 0.8127451 0.075490196
0.98039216 0.83137255 0.098039216
0.011764706 0.02745098 0.080392157
0.080392157 0.038235294 0.087254902
0.36127451 0.0039215686 0.077941176
0.55539216 0.014705882 0.069852941
0.61176471 0.0078431373 0.082352941
0.0078431373 0.11789216 0.11862745
0.085355392 0.13351716 0.1254902
0.4622549 0.15686275 0.1002451
0.709375 0.1158701 0.054411765
0.77720588 0.12671569 0.061029412
0.0058823529 0.32401961 0.21470588
0.021813725 0.36838235 0.19644608
0.56985294 0.48186275 0.081862745
0.86348039 0.51090686 0.031004902
0.92107843 0.53823529 0.029411765
0.025245098 0.47843137 0.3
0.045833333 0.55563725 0.29436275
0.62218137 0.7622549 0.0058823529
0.96709559 0.81887255 0.0048406863
0.99803922 0.83039216 0.11372549
0.033333333 0.5754902 0.43235294
0.0029411765 0.69313725 0.43431373
0.64166667 0.82892157 0.33235294
0.9754902 0.88676471 0.30563725
1 0.89313725 0.43529412
0.0078431373 0.10980392 0.26078431
0.085294118 0.0078431373 0.33676471
0.38431373 0.0029411765 0.35
0.6004902 0.028921569 0.36568627
0.67843137 0.0058823529 0.39607843
0.0039215686 0.18823529 0.31764706
0.049877451 0.17647059 0.39264706
0.48921569 0.18088235 0.46470588
0.74754902 0.11911765 0.46470588
0.80343137 0.14656863 0.48284314
0.0078431373 0.40784314 0.45490196
0.019117647 0.46691176 0.50686275
0.55490196 0.56764706 0.57843137
0.88406863 0.59019608 0.57720588
0.94117647 0.60588235 0.58333333
0.0078431373 0.57401961 0.55784314
0.011764706 0.6622549 0.61139706
0.56495098 0.85098039 0.65343137
0.96519608 0.89938725 0.6504902
1 0.90588235 0.66960784
0 0.64509804 0.65294118
0.0058823529 0.75882353 0.72745098
0.58235294 0.89803922 0.77156863
0.9495098 0.95490196 0.77009804
1 0.95686275 0.80392157
0.0078431373 0.16862745 0.35098039
0.069607843 0.031617647 0.47867647
0.40784314 0.01127451 0.55098039
0.62818627 0.044607843 0.57622549
0.67941176 0.032352941 0.59019608
0 0.25392157 0.46176471
0.029227941 0.23216912 0.57132353
0.49901961 0.17071078 0.71764706
0.76470588 0.11985294 0.73333333
0.81789216 0.15465686 0.75073529
0.034803922 0.47058824 0.60931373
0.018137255 0.51384804 0.69460784
0.52696078 0.60269608 0.85073529
0.88039216 0.62058824 0.86176471
0.93676471 0.65098039 0.87058824
0.0017156863 0.63651961 0.71176471
0.015441176 0.70808824 0.78039216
0.4932598 0.89362745 0.92389706
0.94276961 0.94356618 0.94019608
0.99607843 0.95490196 0.94387255
0.0039215686 0.68627451 0.76176471
0.037254902 0.77916667 0.84215686
0.53480392 0.92745098 0.94607843
0.93529412 0.98431373 0.96495098
0.99607843 0.98823529 0.95392157
0 0.20784314 0.41568627
0.068627451 0.024509804 0.58431373
0.47058824 0.0039215686 0.70784314
0.68921569 0.0078431373 0.69117647
0.74901961 0 0.71372549
0 0.31078431 0.52352941
0.00098039216 0.30735294 0.58627451
0.50539216 0.26176471 0.80098039
0.79117647 0.22303922 0.82132353
0.84215686 0.24901961 0.83431373
0.029411765 0.5 0.65098039
0.0088235294 0.5372549 0.74166667
0.51666667 0.61764706 0.90882353
0.87352941 0.64509804 0.92794118
0.93921569 0.66862745 0.94313725
0.015686275 0.64019608 0.72647059
0.0056372549 0.71666667 0.80661765
0.4754902 0.89558824 0.96323529
0.92843137 0.94705882 0.98823529
0.99215686 0.95392157 0.98823529
0.039215686 0.70196078 0.78431373
0.0078431373 0.79509804 0.86960784
0.50784314 0.92745098 0.97254902
0.93039216 0.99215686 0.99607843
0.99607843 1 1
