site/assets/luts/natron-haldclut--polaroid-667--b47b3d472.cube
# LUTr-Project: LUTr — LUTrepository
# LUTr-Schema-Version: 1
# LUTr-ID: natron-haldclut--polaroid-667--b47b3d472
# LUTr-Title: polaroid 667
# LUTr-Collection: Natron HaldCLUT
# LUTr-Collection-ID: natron-haldclut-presets
# LUTr-Source: https://github.com/NatronGitHub/clut
# LUTr-Source-File: submissions/natron-haldclut-presets/bw/polaroid_667.png
# LUTr-Source-Format: PNG
# LUTr-Source-SHA256: 5f15b60ed13c420c6c31b956bfd193c75a27dee6f87a535adbb0ef6bbbc25c59
# LUTr-License: CC-BY-SA-4.0
# LUTr-License-URL: https://github.com/NatronGitHub/clut#license
# LUTr-Tags: creative, film, film-emulation, hald-clut, natron, png, cube
# LUTr-Transform-Class: film-emulation
# LUTr-Input-Color-Space: srgb
# LUTr-Output-Color-Space: srgb
# LUTr-Color-Space-Confidence: assumed-display-referred
# LUTr-Conversion-Method: PNG LUT image decoded at 16-bit and sampled to 25x25x25 3D CUBE
# LUTr-Conversion-Date: 2026-07-27
# LUTr-Conversion-Tool: LUTr scripts/convert-all-to-cube.mjs
# LUTr-Conversion-Grid: 25x25x25
# LUTr-Note: Preserve this metadata and the upstream license notices when redistributing.
TITLE "polaroid 667"
LUT_3D_SIZE 5
DOMAIN_MIN 0 0 0
DOMAIN_MAX 1 1 1
0.02745098 0.02745098 0.02745098
0.10098039 0.10098039 0.10098039
0.25882353 0.25882353 0.25882353
0.54215686 0.54215686 0.54215686
0.72941176 0.72941176 0.72941176
0.13137255 0.13137255 0.13137255
0.18921569 0.18921569 0.18921569
0.36078431 0.36078431 0.36078431
0.57647059 0.57647059 0.57647059
0.74117647 0.74117647 0.74117647
0.33529412 0.33529412 0.33529412
0.3872549 0.3872549 0.3872549
0.48529412 0.48529412 0.48529412
0.65735294 0.65735294 0.65735294
0.76666667 0.76666667 0.76666667
0.55588235 0.55588235 0.55588235
0.59019608 0.59019608 0.59019608
0.66764706 0.66764706 0.66764706
0.73921569 0.73921569 0.73921569
0.80882353 0.80882353 0.80882353
0.7254902 0.7254902 0.7254902
0.75588235 0.75588235 0.75588235
0.79019608 0.79019608 0.79019608
0.82843137 0.82843137 0.82843137
0.88235294 0.88235294 0.88235294
0.062745098 0.062745098 0.062745098
0.18235294 0.18235294 0.18235294
0.33235294 0.33235294 0.33235294
0.56495098 0.56495098 0.56495098
0.74117647 0.74117647 0.74117647
0.18529412 0.18529412 0.18529412
0.23805147 0.23805147 0.23805147
0.40857843 0.40857843 0.40857843
0.60061275 0.60061275 0.60061275
0.75514706 0.75514706 0.75514706
0.37401961 0.37401961 0.37401961
0.42401961 0.42401961 0.42401961
0.51102941 0.51102941 0.51102941
0.66862745 0.66862745 0.66862745
0.77647059 0.77647059 0.77647059
0.58627451 0.58627451 0.58627451
0.60808824 0.60808824 0.60808824
0.68235294 0.68235294 0.68235294
0.74632353 0.74632353 0.74632353
0.82058824 0.82058824 0.82058824
0.75980392 0.75980392 0.75980392
0.77254902 0.77254902 0.77254902
0.80147059 0.80147059 0.80147059
0.84019608 0.84019608 0.84019608
0.89411765 0.89411765 0.89411765
0.10588235 0.10588235 0.10588235
0.21372549 0.21372549 0.21372549
0.41470588 0.41470588 0.41470588
0.62254902 0.62254902 0.62254902
0.75294118 0.75294118 0.75294118
0.25 0.25 0.25
0.32990196 0.32990196 0.32990196
0.48014706 0.48014706 0.48014706
0.63835784 0.63835784 0.63835784
0.76862745 0.76862745 0.76862745
0.44019608 0.44019608 0.44019608
0.48455882 0.48455882 0.48455882
0.57303922 0.57303922 0.57303922
0.69583333 0.69583333 0.69583333
0.79509804 0.79509804 0.79509804
0.64803922 0.64803922 0.64803922
0.64754902 0.64754902 0.64754902
0.70392157 0.70392157 0.70392157
0.76519608 0.76519608 0.76519608
0.84068627 0.84068627 0.84068627
0.77647059 0.77647059 0.77647059
0.78578431 0.78578431 0.78578431
0.80882353 0.80882353 0.80882353
0.84803922 0.84803922 0.84803922
0.91960784 0.91960784 0.91960784
0.21862745 0.21862745 0.21862745
0.34901961 0.34901961 0.34901961
0.50980392 0.50980392 0.50980392
0.67254902 0.67254902 0.67254902
0.78823529 0.78823529 0.78823529
0.38504902 0.38504902 0.38504902
0.44901961 0.44901961 0.44901961
0.5682598 0.5682598 0.5682598
0.68878676 0.68878676 0.68878676
0.78897059 0.78897059 0.78897059
0.56078431 0.56078431 0.56078431
0.57745098 0.57745098 0.57745098
0.65612745 0.65612745 0.65612745
0.73651961 0.73651961 0.73651961
0.80784314 0.80784314 0.80784314
0.70882353 0.70882353 0.70882353
0.7127451 0.7127451 0.7127451
0.74203431 0.74203431 0.74203431
0.803125 0.803125 0.803125
0.86544118 0.86544118 0.86544118
0.80882353 0.80882353 0.80882353
0.81666667 0.81666667 0.81666667
0.82990196 0.82990196 0.82990196
0.8629902 0.8629902 0.8629902
0.89019608 0.89019608 0.89019608
0.38039216 0.38039216 0.38039216
0.50784314 0.50784314 0.50784314
0.60784314 0.60784314 0.60784314
0.70294118 0.70294118 0.70294118
0.77647059 0.77647059 0.77647059
0.51960784 0.51960784 0.51960784
0.57745098 0.57745098 0.57745098
0.63529412 0.63529412 0.63529412
0.72156863 0.72156863 0.72156863
0.79215686 0.79215686 0.79215686
0.66470588 0.66470588 0.66470588
0.67205882 0.67205882 0.67205882
0.70784314 0.70784314 0.70784314
0.76372549 0.76372549 0.76372549
0.83137255 0.83137255 0.83137255
0.75882353 0.75882353 0.75882353
0.76642157 0.76642157 0.76642157
0.7872549 0.7872549 0.7872549
0.83406863 0.83406863 0.83406863
0.88333333 0.88333333 0.88333333
0.85882353 0.85882353 0.85882353
0.8745098 0.8745098 0.8745098
0.88039216 0.88039216 0.88039216
0.91764706 0.91764706 0.91764706
0.98823529 0.98823529 0.98823529
