site/assets/luts/natron-haldclut--fuji-fp-100c--f563865fc.cube
# LUTr-Project: LUTr — LUTrepository
# LUTr-Schema-Version: 1
# LUTr-ID: natron-haldclut--fuji-fp-100c--f563865fc
# LUTr-Title: fuji fp-100c
# LUTr-Collection: Natron HaldCLUT
# LUTr-Collection-ID: natron-haldclut-presets
# LUTr-Source: https://github.com/NatronGitHub/clut
# LUTr-Source-File: submissions/natron-haldclut-presets/instant_pro/fuji_fp-100c.png
# LUTr-Source-Format: PNG
# LUTr-Source-SHA256: 7e27b2e8966a64c08d212bdfa6758dacef20e2e31d8fb6b5447b923a0b115b70
# LUTr-License: CC-BY-SA-4.0
# LUTr-License-URL: https://github.com/NatronGitHub/clut#license
# LUTr-Tags: creative, film, film-emulation, hald-clut, natron, png, cube
# LUTr-Transform-Class: film-emulation
# LUTr-Input-Color-Space: srgb
# LUTr-Output-Color-Space: srgb
# LUTr-Color-Space-Confidence: assumed-display-referred
# LUTr-Conversion-Method: PNG LUT image decoded at 16-bit and sampled to 25x25x25 3D CUBE
# LUTr-Conversion-Date: 2026-07-27
# LUTr-Conversion-Tool: LUTr scripts/convert-all-to-cube.mjs
# LUTr-Conversion-Grid: 25x25x25
# LUTr-Note: Preserve this metadata and the upstream license notices when redistributing.
TITLE "fuji fp-100c"
LUT_3D_SIZE 5
DOMAIN_MIN 0 0 0
DOMAIN_MAX 1 1 1
0.054901961 0.062745098 0.066666667
0.19313725 0.044117647 0.070588235
0.51176471 0.0039215686 0.070588235
0.80392157 0.0039215686 0.078431373
0.99607843 0.11764706 0.08627451
0.016666667 0.20098039 0.085294118
0.23529412 0.21176471 0.056127451
0.56176471 0.22156863 0.050490196
0.82745098 0.22965686 0.072794118
0.98529412 0.29411765 0.10098039
0 0.47843137 0.08627451
0.19215686 0.48039216 0.085294118
0.52745098 0.5127451 0.0049019608
0.82696078 0.5372549 0.035294118
0.99607843 0.56078431 0.18627451
0.021568627 0.70588235 0.15098039
0.21960784 0.69485294 0.14534314
0.48480392 0.70539216 0.10343137
0.76151961 0.74019608 0
0.98333333 0.7627451 0
0.44705882 0.91764706 0.4
0.53333333 0.92843137 0.42941176
0.68431373 0.93137255 0.45686275
0.83431373 0.94117647 0.41470588
0.99607843 0.96078431 0.3372549
0.039215686 0.050980392 0.20490196
0.2745098 0.014705882 0.25122549
0.4995098 0.0083333333 0.23529412
0.79240196 0.011764706 0.24313725
0.97058824 0.10490196 0.23627451
0.050245098 0.21176471 0.24877451
0.28431373 0.26004902 0.27683824
0.58002451 0.25208333 0.26666667
0.82181373 0.26305147 0.25490196
0.9872549 0.30882353 0.25416667
0.0014705882 0.53382353 0.2872549
0.24522059 0.52941176 0.28137255
0.55784314 0.53897059 0.22867647
0.83296569 0.55441176 0.25379902
0.99215686 0.57794118 0.32401961
0.023284314 0.72843137 0.29191176
0.25061275 0.71966912 0.28897059
0.50232843 0.71666667 0.26384804
0.76691176 0.74356618 0.14932598
0.99338235 0.76985294 0.21985294
0.45490196 0.93039216 0.48235294
0.52671569 0.93651961 0.4875
0.66519608 0.9254902 0.49264706
0.83823529 0.94240196 0.48063725
0.97745098 0.95686275 0.41764706
0.092156863 0.021568627 0.49803922
0.33333333 0.0039215686 0.54019608
0.69607843 0.0039215686 0.59509804
0.75637255 0.19558824 0.51960784
0.96666667 0.20784314 0.50392157
0.050490196 0.20931373 0.50441176
0.32683824 0.2310049 0.55196078
0.69607843 0.22573529 0.61495098
0.76948529 0.36335784 0.5375
0.98431373 0.32352941 0.50196078
0.14411765 0.54117647 0.56470588
0.3245098 0.56323529 0.57916667
0.62843137 0.60833333 0.60343137
0.8254902 0.59166667 0.57107843
0.98627451 0.57254902 0.52941176
0.26617647 0.77156863 0.59411765
0.36911765 0.77107843 0.5752451
0.55784314 0.75514706 0.54607843
0.78370098 0.76470588 0.51237745
0.9872549 0.79117647 0.55196078
0.45490196 0.94901961 0.63333333
0.49754902 0.94313725 0.61813725
0.64411765 0.93235294 0.61372549
0.8254902 0.93333333 0.60882353
0.98235294 0.9627451 0.58235294
0.2754902 0.012745098 0.75686275
0.42941176 0.00098039216 0.77622549
0.72696078 0.0034313725 0.8245098
0.96470588 0.0078431373 0.83995098
0.97745098 0.39019608 0.76372549
0.25980392 0.21470588 0.74607843
0.41433824 0.20459559 0.76893382
0.70526961 0.16740196 0.82144608
0.94626225 0.26158088 0.83903186
0.95784314 0.45906863 0.76764706
0.056862745 0.44803922 0.69068627
0.27598039 0.46764706 0.70980392
0.61151961 0.53823529 0.78088235
0.89056373 0.61335784 0.83247549
0.92058824 0.62843137 0.77647059
0.33161765 0.74019608 0.76691176
0.4088848 0.7533701 0.7745098
0.60122549 0.77647059 0.79215686
0.82984069 0.82647059 0.82199755
0.96985294 0.79387255 0.78553922
0.52647059 0.95294118 0.84607843
0.55294118 0.94632353 0.84191176
0.65392157 0.94215686 0.82107843
0.81078431 0.9372549 0.79583333
0.97745098 0.97156863 0.78823529
0.59607843 0.20392157 0.98431373
0.65196078 0.17647059 0.98039216
0.81372549 0.10392157 0.99215686
0.97745098 0.0088235294 0.98823529
1 0.30196078 0.97647059
0.56960784 0.34901961 0.96862745
0.63112745 0.33970588 0.97156863
0.79558824 0.31960784 0.98529412
0.9747549 0.28921569 0.99240196
1 0.44607843 0.99215686
0.45490196 0.55490196 0.95686275
0.53823529 0.56029412 0.95637255
0.72156863 0.56470588 0.96666667
0.93382353 0.58823529 0.97156863
1 0.65294118 0.98431373
0.39313725 0.76666667 0.94117647
0.4370098 0.75759804 0.94117647
0.54068627 0.74117647 0.92009804
0.84730392 0.7872549 0.96985294
0.9872549 0.83823529 0.96372549
0.61568627 0.94509804 0.96470588
0.65294118 0.95196078 0.96862745
0.73529412 0.95882353 0.9745098
0.83823529 0.96078431 0.94607843
0.98039216 0.98823529 0.98823529
