site/assets/luts/natron-haldclut--fuji-fp-100c-alt--8b46a198c.cube
# LUTr-Project: LUTr — LUTrepository
# LUTr-Schema-Version: 1
# LUTr-ID: natron-haldclut--fuji-fp-100c-alt--8b46a198c
# LUTr-Title: fuji fp-100c ++ alt
# LUTr-Collection: Natron HaldCLUT
# LUTr-Collection-ID: natron-haldclut-presets
# LUTr-Source: https://github.com/NatronGitHub/clut
# LUTr-Source-File: submissions/natron-haldclut-presets/instant_pro/fuji_fp-100c_++_alt.png
# LUTr-Source-Format: PNG
# LUTr-Source-SHA256: 33161f1f6fbf659a999fba2cd143dc18bf3de9fdfd86990b64bb6fa8fe02e9fa
# LUTr-License: CC-BY-SA-4.0
# LUTr-License-URL: https://github.com/NatronGitHub/clut#license
# LUTr-Tags: creative, film, film-emulation, hald-clut, natron, png, cube
# LUTr-Transform-Class: film-emulation
# LUTr-Input-Color-Space: srgb
# LUTr-Output-Color-Space: srgb
# LUTr-Color-Space-Confidence: assumed-display-referred
# LUTr-Conversion-Method: PNG LUT image decoded at 16-bit and sampled to 25x25x25 3D CUBE
# LUTr-Conversion-Date: 2026-07-27
# LUTr-Conversion-Tool: LUTr scripts/convert-all-to-cube.mjs
# LUTr-Conversion-Grid: 25x25x25
# LUTr-Note: Preserve this metadata and the upstream license notices when redistributing.
TITLE "fuji fp-100c ++ alt"
LUT_3D_SIZE 9
DOMAIN_MIN 0 0 0
DOMAIN_MAX 1 1 1
0.26666667 0.21568627 0.14509804
0.27401961 0.21176471 0.14460784
0.30490196 0.21862745 0.15294118
0.35 0.22352941 0.14264706
0.43921569 0.22941176 0.14509804
0.55098039 0.23529412 0.14117647
0.66666667 0.23921569 0.14117647
0.79019608 0.25539216 0.14509804
0.90196078 0.29019608 0.14509804
0.27058824 0.23480392 0.14901961
0.28143382 0.23094363 0.1528799
0.3127451 0.23137255 0.14509804
0.36127451 0.2408701 0.14117647
0.4502451 0.24632353 0.14093137
0.57058824 0.25833333 0.1377451
0.68578431 0.26311275 0.13235294
0.80147059 0.27843137 0.14117647
0.88676471 0.30931373 0.14901961
0.2745098 0.26568627 0.14901961
0.28578431 0.26948529 0.14901961
0.31568627 0.27573529 0.14436275
0.38492647 0.29068627 0.13333333
0.48627451 0.30784314 0.13823529
0.60490196 0.31678922 0.13333333
0.7127451 0.32647059 0.12941176
0.80968137 0.34754902 0.13737745
0.89705882 0.37058824 0.14901961
0.26666667 0.34068627 0.14901961
0.28578431 0.34460784 0.14509804
0.32352941 0.35147059 0.14754902
0.3901348 0.36568627 0.1278799
0.49877451 0.38578431 0.10931373
0.62696078 0.41127451 0.11029412
0.73811275 0.42156863 0.1254902
0.82892157 0.42745098 0.12628676
0.91764706 0.45441176 0.15784314
0.25490196 0.44117647 0.14117647
0.27794118 0.4375 0.14117647
0.32352941 0.44264706 0.14509804
0.38137255 0.45294118 0.12696078
0.48823529 0.47941176 0.087254902
0.61053922 0.50147059 0.05245098
0.73480392 0.52401961 0.08627451
0.84264706 0.53529412 0.13161765
0.9254902 0.55882353 0.19411765
0.24166667 0.54313725 0.1372549
0.27009804 0.54705882 0.1463848
0.32058824 0.53921569 0.14509804
0.3783701 0.54558824 0.13333333
0.47254902 0.56715686 0.10784314
0.57935049 0.59019608 0.03872549
0.70441176 0.60441176 0.0078431373
0.82530637 0.61666667 0.042156863
0.92401961 0.64607843 0.17107843
0.25196078 0.65392157 0.1627451
0.26286765 0.65784314 0.15502451
0.3245098 0.64705882 0.1620098
0.39656863 0.64889706 0.16176471
0.47745098 0.65833333 0.13186275
0.57696078 0.67892157 0.086642157
0.69019608 0.69705882 0.029166667
0.80968137 0.70539216 0.0089460784
0.9127451 0.72352941 0.10196078
0.31617647 0.7622549 0.24607843
0.3317402 0.75882353 0.24209559
0.38468137 0.75882353 0.24987745
0.44852941 0.75490196 0.24852941
0.51348039 0.76053922 0.23088235
0.60882353 0.77401961 0.21452206
0.70943627 0.78186275 0.1692402
0.81421569 0.79405637 0.12604167
0.90637255 0.80147059 0.083333333
0.49019608 0.8627451 0.43921569
0.50147059 0.8627451 0.43872549
0.53627451 0.86666667 0.44313725
0.57254902 0.85245098 0.43284314
0.65490196 0.87058824 0.47647059
0.70490196 0.87058824 0.46421569
0.77843137 0.8745098 0.45
0.86421569 0.89460784 0.47990196
0.91372549 0.88627451 0.44313725
0.27058824 0.21568627 0.16029412
0.28186275 0.21568627 0.16029412
0.30098039 0.21568627 0.15686275
0.36158088 0.22334559 0.15900735
0.44264706 0.22156863 0.16004902
0.55882353 0.22401961 0.16078431
0.67843137 0.23921569 0.15943627
0.79362745 0.25104167 0.15238971
0.89117647 0.28284314 0.15588235
0.27751225 0.23088235 0.16029412
0.27843137 0.22696078 0.15686275
0.31639093 0.23092831 0.1598652
0.37156863 0.23872549 0.16029412
0.46421569 0.24681373 0.16053922
0.57401961 0.25179994 0.16035539
0.69352022 0.26580882 0.1567402
0.80147059 0.27843137 0.15674786
0.89810049 0.30882353 0.159375
0.2745098 0.26862745 0.16421569
0.286106 0.27250306 0.16286765
0.32340686 0.28039216 0.16335784
0.39546569 0.29165135 0.15698529
0.48964461 0.30686275 0.15661765
0.60343137 0.31568627 0.16015625
0.7120098 0.32689951 0.15637255
0.81371017 0.34624694 0.16018689
0.91801471 0.36666667 0.15943627
0.26666667 0.35588235 0.17598039
0.28363971 0.35980392 0.16421569
0.32446385 0.35926777 0.16398591
0.40294118 0.3758655 0.14558824
0.50867034 0.39623162 0.13382353
0.62941176 0.41219363 0.14717371
0.73872549 0.42303922 0.15894608
0.83529412 0.4337163 0.16372549
0.91636029 0.4504902 0.17843137
0.25318627 0.45637255 0.16813725
0.27573529 0.45637255 0.16421569
0.32352941 0.45257353 0.16507353
0.40122549 0.46844363 0.15309436
0.49595588 0.48713235 0.12389706
0.61878064 0.50768995 0.091574755
0.73884804 0.52444853 0.11942402
0.84068627 0.53921569 0.16835172
0.9254902 0.55294118 0.20906863
0.23529412 0.55686275 0.16568627
0.26258425 0.55735294 0.16437653
0.31960784 0.553125 0.17198223
0.38229167 0.55617341 0.16557138
0.4754902 0.57401961 0.13578431
0.59008119 0.59345129 0.093627451
0.71714154 0.60886949 0.011427696
0.83155637 0.62432598 0.10788143
0.92156863 0.6473652 0.21844363
0.23676471 0.66139706 0.18223039
0.26715686 0.66176471 0.18883272
0.32650123 0.65490196 0.19065564
0.39767157 0.65490196 0.18872549
0.47916667 0.66219363 0.17205882
0.58186275 0.68284314 0.13026961
0.70174632 0.69705882 0.071078431
0.81629902 0.70882353 0.011764706
0.92009804 0.7245098 0.1557598
0.33186275 0.76666667 0.27604167
0.3303845 0.77058824 0.25984988
0.39203431 0.76665135 0.27598039
0.44558824 0.76182598 0.26427696
0.52962623 0.7622549 0.26519608
0.61060049 0.77532935 0.24901961
0.70931373 0.78676471 0.2278799
0.81415441 0.79754902 0.175
0.90637255 0.80539216 0.12015931
0.51078431 0.875 0.46715686
0.50974265 0.87052696 0.45784314
0.5254902 0.86066176 0.44142157
0.59332108 0.87205882 0.47616422
0.63529412 0.85882353 0.45833333
0.70490196 0.86666667 0.46421569
0.78235294 0.88223039 0.48639706
0.85980392 0.88927696 0.48045343
0.92156863 0.89411765 0.48186275
0.2745098 0.21568627 0.18333333
0.29007353 0.21568627 0.19411765
0.33039216 0.20882353 0.20490196
0.35159314 0.22303922 0.19803922
0.44411765 0.22892157 0.20441176
0.56372549 0.21531863 0.20098039
0.68235294 0.21053922 0.19509804
0.79276961 0.23284314 0.20588235
0.88921569 0.26764706 0.20980392
0.2745098 0.22696078 0.18982843
0.29002757 0.23088235 0.19733456
0.33125 0.23403799 0.20873162
0.38399203 0.24264706 0.21323529
0.47205882 0.24264706 0.20735294
0.58154105 0.2372549 0.20975797
0.69669118 0.24028799 0.20294118
0.80496324 0.26459865 0.2019761
0.89852941 0.29448529 0.20968137
0.2745098 0.27230392 0.20196078
0.29362745 0.27904412 0.20291054
0.33431373 0.28707108 0.22279412
0.4067402 0.2981924 0.22083333
0.49791667 0.30686275 0.21887255
0.60882353 0.31087623 0.2135723
0.71648284 0.31868873 0.21372549
0.81712623 0.33633578 0.21593137
0.91568627 0.35882353 0.21372549
0.25919118 0.37953431 0.23223039
0.28970588 0.37892157 0.2274663
0.33455882 0.37981005 0.22132353
0.42205882 0.39667586 0.22745098
0.52818627 0.41292892 0.22775735
0.63333333 0.41806066 0.22205882
0.74019608 0.42303922 0.22843137
0.82892157 0.43118873 0.23506434
0.91617647 0.45294118 0.23970588
0.23480392 0.48529412 0.22696078
0.26795343 0.48137255 0.22751225
0.32745098 0.47941176 0.22879902
0.4127451 0.48578431 0.22689951
0.5122549 0.50245098 0.20686275
0.62892157 0.51789216 0.19117647
0.7504902 0.5310049 0.2245098
0.84068627 0.54485294 0.25833333
0.92009804 0.55686275 0.28382353
0.23419118 0.58137255 0.23835784
0.25821078 0.57990196 0.23529412
0.31881127 0.57907475 0.23379289
0.39673713 0.57598039 0.23382353
0.49178922 0.58823529 0.21617647
0.60379902 0.60551471 0.19105392
0.72769608 0.61963848 0.17426471
0.83644301 0.6319087 0.22575061
0.92009804 0.65330882 0.30833333
0.24509804 0.68039216 0.25686275
0.26240809 0.67647059 0.24574142
0.33063725 0.67261029 0.25759804
0.40735294 0.66470588 0.25713848
0.49129902 0.67414216 0.24546569
0.58627451 0.69059436 0.22107843
0.70747549 0.7033701 0.19117647
0.82113971 0.71302083 0.14151348
0.91568627 0.73137255 0.25710784
0.31090686 0.78088235 0.31593137
0.35441176 0.77783395 0.33241422
0.37233456 0.77401961 0.3096201
0.45261949 0.76654412 0.32757353
0.52800245 0.76617647 0.31501225
0.62009804 0.77794118 0.31678922
0.71348039 0.78970588 0.29142157
0.81882659 0.80539216 0.26276042
0.92009804 0.80931373 0.21409314
0.50294118 0.87156863 0.48921569
0.50147059 0.86703431 0.47745098
0.52965686 0.86568627 0.47941176
0.57634804 0.86519608 0.48627451
0.64901961 0.87254902 0.5127451
0.71213235 0.87389706 0.51433824
0.77990196 0.88063725 0.51102941
0.85330882 0.88627451 0.49803922
0.93823529 0.90294118 0.52843137
0.28480392 0.22352941 0.27401961
0.30410539 0.2122549 0.27401961
0.35098039 0.20784314 0.28480392
0.4466299 0.19362745 0.32598039
0.47843137 0.21789216 0.30563725
0.54368873 0.24319853 0.28186275
0.66997549 0.23345588 0.28823529
0.79117647 0.21096814 0.275
0.89019608 0.20833333 0.27156863
0.27843137 0.23480392 0.27009804
0.30147059 0.23088235 0.27401961
0.35105699 0.22714461 0.29227941
0.42807138 0.23057598 0.30931373
0.49666054 0.23897059 0.29721201
0.57401961 0.26243107 0.29870558
0.68333333 0.24768689 0.28541667
0.80275735 0.23141085 0.27647059
0.89362745 0.28137255 0.29185049
0.28235294 0.275 0.26470588
0.29754902 0.28350184 0.27486213
0.3495098 0.29776348 0.30808824
0.44025735 0.30232843 0.32783395
0.50539216 0.31397059 0.32267157
0.60749081 0.32205882 0.31568627
0.71384804 0.30775123 0.29656863
0.81662071 0.31977635 0.29546569
0.90772059 0.34117647 0.29803922
0.26421569 0.37935049 0.309375
0.28596048 0.39564951 0.32420343
0.34561887 0.40157782 0.334375
0.44515931 0.41799173 0.3471201
0.53970588 0.43063725 0.340625
0.6384421 0.42493873 0.32990196
0.73719363 0.42156863 0.32205882
0.82591912 0.42814032 0.3236443
0.90735294 0.44264706 0.32653186
0.24705882 0.51029412 0.35882353
0.26593137 0.51617647 0.35882353
0.33057598 0.51593137 0.35410539
0.42352941 0.51813725 0.34632353
0.53419118 0.52953431 0.33517157
0.6495098 0.54212623 0.34215686
0.75588235 0.54810049 0.35612745
0.84044118 0.55186887 0.36421569
0.89681373 0.55098039 0.36813725
0.23719363 0.61470588 0.35735294
0.2883655 0.61874234 0.36616881
0.32708333 0.61139706 0.34973958
0.41764706 0.60686275 0.34740349
0.52132353 0.61470588 0.33287377
0.62589614 0.62817096 0.31268382
0.74339767 0.632981 0.31980699
0.84068627 0.64931066 0.35960478
0.91219363 0.66323529 0.42003676
0.27046569 0.70343137 0.37303922
0.279856 0.69889706 0.35882353
0.34056373 0.69852941 0.35799632
0.41801471 0.69105392 0.35943627
0.50906863 0.69613971 0.35196078
0.60865502 0.70415135 0.33494179
0.71556373 0.71629902 0.31302083
0.82859988 0.72383578 0.29754902
0.90196078 0.73921569 0.36580882
0.31960784 0.78970588 0.40490196
0.33684896 0.78533241 0.40098039
0.38685662 0.78578431 0.40280331
0.45667892 0.78186275 0.40294118
0.5370098 0.77401961 0.4
0.62107843 0.77922794 0.39450061
0.72066483 0.79617034 0.38321078
0.82506127 0.80520833 0.36439951
0.90765931 0.81323529 0.3377451
0.49803922 0.87843137 0.53578431
0.48039216 0.86323529 0.51519608
0.51041667 0.86421569 0.51727941
0.58290441 0.87395833 0.54221814
0.63529412 0.86544118 0.54289216
0.69852941 0.86421569 0.54270833
0.78382353 0.88737745 0.56997549
0.85765931 0.89019608 0.55943627
0.92058824 0.89803922 0.56078431
0.29607843 0.21960784 0.37058824
0.31740196 0.20808824 0.37818627
0.37254902 0.20784314 0.40098039
0.49607843 0.17867647 0.45980392
0.59411765 0.13921569 0.47647059
0.61397059 0.23039216 0.42009804
0.66421569 0.27941176 0.41127451
0.76470588 0.28823529 0.41568627
0.88039216 0.29019608 0.42156863
0.29240196 0.23088235 0.37058824
0.31130515 0.22696078 0.37598039
0.37169118 0.22671569 0.40680147
0.48382353 0.20637255 0.45588235
0.59338235 0.19375 0.4747549
0.61495098 0.2520527 0.42613358
0.68480392 0.28848039 0.41715686
0.78682598 0.29803922 0.41789216
0.88627451 0.30563725 0.41789216
0.27843137 0.28039216 0.38431373
0.29822304 0.28357843 0.38823529
0.36066176 0.29068627 0.41838235
0.48431373 0.28143382 0.47156863
0.60490196 0.28186275 0.49754902
0.62696078 0.32867647 0.45784314
0.69019608 0.36556373 0.43627451
0.79595588 0.35232843 0.42493873
0.89705882 0.34509804 0.40588235
0.27058824 0.36348039 0.38210784
0.2875 0.37598039 0.39632353
0.33449755 0.38578431 0.4120098
0.44825368 0.40710784 0.45885417
0.57708333 0.42867647 0.49473039
0.63011642 0.45003064 0.47303922
0.71323529 0.45147059 0.45122549
0.81798407 0.42401961 0.42352941
0.90735294 0.42230392 0.41691176
0.25588235 0.5 0.44803922
0.27683824 0.51176471 0.46470588
0.34240196 0.5247549 0.47205882
0.43602941 0.54754902 0.48235294
0.55392157 0.56421569 0.49166667
0.65857843 0.56960784 0.49534314
0.74460784 0.56470588 0.48431373
0.83272059 0.54497549 0.46458333
0.90490196 0.53529412 0.45686275
0.25857843 0.63578431 0.50661765
0.2885723 0.63985907 0.51764706
0.34718137 0.64166667 0.50392157
0.44460784 0.64561887 0.50514706
0.54767157 0.65306373 0.49387255
0.64877451 0.65588235 0.47604167
0.75171569 0.65980392 0.48921569
0.84053309 0.66715686 0.50695466
0.90196078 0.66470588 0.52328431
0.32696078 0.7245098 0.51764706
0.34117647 0.72377451 0.5091299
0.39509804 0.72561275 0.51213235
0.45098039 0.71917892 0.50392157
0.5372549 0.72132353 0.49558824
0.63302696 0.72371324 0.475
0.72634804 0.72794118 0.45821078
0.8341299 0.7375 0.44969363
0.91372549 0.75294118 0.52352941
0.36372549 0.80318627 0.52401961
0.38357843 0.7995098 0.52383578
0.41519608 0.79969363 0.51838235
0.47401961 0.79534314 0.51265319
0.54571078 0.79142157 0.50465686
0.62922794 0.78946078 0.5
0.72873775 0.80110294 0.49031863
0.82742034 0.8129902 0.4791973
0.91985294 0.81666667 0.45833333
0.49215686 0.87843137 0.59803922
0.50906863 0.88235294 0.60367647
0.51568627 0.87647059 0.58823529
0.55392157 0.86666667 0.58431373
0.63529412 0.87352941 0.60392157
0.71029412 0.87598039 0.61985294
0.77843137 0.87990196 0.6122549
0.8502451 0.88063725 0.59068627
0.90784314 0.89803922 0.61764706
0.30980392 0.21029412 0.49215686
0.33431373 0.20392157 0.50539216
0.39019608 0.20784314 0.53431373
0.49607843 0.18278186 0.57457108
0.65612745 0.067647059 0.6247549
0.73921569 0.081433824 0.62303922
0.76372549 0.18321078 0.58394608
0.78792892 0.31372549 0.55098039
0.85343137 0.38480392 0.55637255
0.30245098 0.23088235 0.49969363
0.32910539 0.22696078 0.51301317
0.38772978 0.22005208 0.53823529
0.49479167 0.19694393 0.57537531
0.65278799 0.13912377 0.62990196
0.74179688 0.12794118 0.62598805
0.75441176 0.26029412 0.56870404
0.78952206 0.34427849 0.55459559
0.84215686 0.39460784 0.55833333
0.27941176 0.28431373 0.50931373
0.30245098 0.27696078 0.51960784
0.37012868 0.27987132 0.54007353
0.47352941 0.27640931 0.57941176
0.63357843 0.25441176 0.63131127
0.73308824 0.28737745 0.63379289
0.75110294 0.35404412 0.57711397
0.79883578 0.39607843 0.55882353
0.86629902 0.43333333 0.56090686
0.26127451 0.36182598 0.4872549
0.28075214 0.36555607 0.49797794
0.33800551 0.37127757 0.5310815
0.44599418 0.38422947 0.56427696
0.60465686 0.39730392 0.61963848
0.71715686 0.42814798 0.6372549
0.73895527 0.46813725 0.59244792
0.78566942 0.49490656 0.57139246
0.8471201 0.49166667 0.56029412
0.26078431 0.46789216 0.50882353
0.28284314 0.47843137 0.52058824
0.33382353 0.48431373 0.53014706
0.42052696 0.50294118 0.54776348
0.55318627 0.5370098 0.59068627
0.70272672 0.57300858 0.6455576
0.73284314 0.58327206 0.61096814
0.8096201 0.57901348 0.58921569
0.89117647 0.55269608 0.56029412
0.29221814 0.60588235 0.57935049
0.30294118 0.61764706 0.5911152
0.35784314 0.62296262 0.58872549
0.4471201 0.63731618 0.6027114
0.55539216 0.66099877 0.6247549
0.67681526 0.68396906 0.64473039
0.74375 0.68390012 0.6323223
0.83558517 0.67194393 0.61862745
0.9004902 0.65686275 0.60343137
0.34068627 0.73627451 0.63566176
0.35212929 0.73929228 0.64140625
0.40909926 0.73517157 0.63382353
0.4810815 0.74143689 0.64215686
0.56519608 0.74068627 0.63529412
0.66078431 0.74552696 0.62267157
0.75245098 0.75217525 0.62107843
0.83627451 0.75637255 0.60384498
0.9122549 0.7745098 0.66936275
0.42303922 0.82058824 0.66127451
0.43253676 0.81312806 0.65418964
0.46409314 0.81060049 0.65294118
0.5201057 0.81433058 0.65079657
0.58128064 0.81060049 0.64224877
0.65035999 0.81029412 0.6241345
0.74068627 0.80908395 0.61727941
0.83268229 0.81731771 0.60234375
0.89185049 0.82843137 0.61764706
0.53088235 0.88627451 0.70392157
0.53872549 0.88627451 0.7026348
0.55343137 0.88382353 0.69644608
0.57892157 0.88235294 0.68284314
0.63137255 0.88308824 0.67892157
0.70245098 0.88290441 0.68676471
0.77487745 0.88235294 0.68223039
0.84822304 0.88039216 0.66881127
0.90833333 0.89803922 0.69313725
0.33039216 0.20784314 0.63235294
0.35343137 0.20392157 0.64669118
0.40588235 0.19681373 0.65955882
0.51605392 0.17401961 0.69019608
0.64117647 0.1122549 0.72058824
0.78026961 0.028921569 0.75404412
0.86960784 0.055882353 0.75196078
0.8622549 0.2745098 0.68419118
0.89607843 0.3872549 0.67843137
0.31384804 0.23088235 0.63884804
0.3412837 0.22303922 0.64791667
0.4013174 0.21871936 0.6627451
0.50147059 0.19705882 0.69203431
0.63768382 0.15790441 0.72126225
0.79189645 0.070220588 0.76519608
0.85934436 0.14237132 0.74914216
0.86692708 0.3162837 0.6942402
0.88823529 0.39558824 0.67843137
0.28039216 0.28431373 0.63921569
0.31127451 0.27647059 0.64770221
0.38241422 0.2754902 0.66311275
0.47745098 0.27156863 0.68872549
0.61470588 0.2557598 0.72254902
0.76997549 0.25012255 0.76007966
0.85171569 0.29810049 0.74773284
0.86289828 0.38713235 0.69840686
0.88504902 0.46691176 0.68627451
0.23284314 0.35245098 0.62781863
0.26262255 0.35553002 0.63265931
0.3372549 0.36314338 0.64852941
0.44803922 0.37058824 0.6745098
0.57990196 0.38039216 0.71348039
0.75372243 0.40306373 0.75951287
0.83431373 0.44806985 0.74865196
0.84649203 0.49848346 0.70784314
0.85894608 0.525 0.69313725
0.20931373 0.45637255 0.59656863
0.24546569 0.45569853 0.61715686
0.29705882 0.45833333 0.61691176
0.40392157 0.48039216 0.64344363
0.5379902 0.50343137 0.69166667
0.70202206 0.54313725 0.7401348
0.81384804 0.58247549 0.75588235
0.83357843 0.60435049 0.72892157
0.84901961 0.62156863 0.71078431
0.25245098 0.57745098 0.63688725
0.27164522 0.57130821 0.63235294
0.3203125 0.5807598 0.63627451
0.39973958 0.59600184 0.6504902
0.51280637 0.61654412 0.67916667
0.65925245 0.65375306 0.72408088
0.78795956 0.68884804 0.75833333
0.83872549 0.69460784 0.73676471
0.86470588 0.68333333 0.71188725
0.34068627 0.69705882 0.68848039
0.35248162 0.7075674 0.70119485
0.39761029 0.70882353 0.70098039
0.45894608 0.71320466 0.70597426
0.56078431 0.73333333 0.72659314
0.65894608 0.74705882 0.72843137
0.77769608 0.77867647 0.76372549
0.8333027 0.77622549 0.73878676
0.88161765 0.77867647 0.75294118
0.43333333 0.82107843 0.75686275
0.44977022 0.81962316 0.76323529
0.48572304 0.82466299 0.76629902
0.54313725 0.82745098 0.77063419
0.60931373 0.82898284 0.76642157
0.67997855 0.82941176 0.75294118
0.75119485 0.82218137 0.74114583
0.83359375 0.83198529 0.74865196
0.91017157 0.84068627 0.75588235
0.55392157 0.89411765 0.80294118
0.55772059 0.89019608 0.79901961
0.57965686 0.89093137 0.79583333
0.60735294 0.88443627 0.78541667
0.65637255 0.89068627 0.78431373
0.71311275 0.88835784 0.7754902
0.77941176 0.87916667 0.77156863
0.84718137 0.87806373 0.76715686
0.89901961 0.88627451 0.76764706
0.36176471 0.2122549 0.7745098
0.38431373 0.2122549 0.78229167
0.44080882 0.2004902 0.79019608
0.52794118 0.17696078 0.80569853
0.64362745 0.15441176 0.81936275
0.77040441 0.054595588 0.84822304
0.90196078 0.013602941 0.86127451
0.96703431 0.19319853 0.85729167
0.96176471 0.35294118 0.81813725
0.36176471 0.24656863 0.7745098
0.37223499 0.23137255 0.78229167
0.43344056 0.2269761 0.79056373
0.51999081 0.20753676 0.80365349
0.63627451 0.18998162 0.81911765
0.77044271 0.13872549 0.84607843
0.90856311 0.0875 0.87158395
0.95092678 0.24282322 0.84472273
0.96617647 0.38768382 0.82113971
0.32757353 0.29019608 0.7745098
0.34656863 0.28909314 0.7745098
0.41176471 0.28909314 0.78137255
0.4967065 0.27798713 0.79790135
0.61862745 0.26439951 0.81911765
0.75882353 0.26723346 0.84430147
0.89384191 0.28161765 0.86127451
0.95010723 0.35876225 0.85545343
0.95441176 0.44644608 0.82071078
0.24528186 0.36127451 0.75508578
0.29023437 0.36078431 0.76652114
0.36176471 0.36484375 0.7756587
0.45648744 0.36904871 0.79088542
0.58872549 0.38480392 0.81305147
0.73768382 0.39815411 0.84197304
0.86421569 0.43515625 0.85992647
0.93061428 0.48658088 0.85083487
0.93449755 0.51697304 0.82598039
0.16568627 0.45343137 0.72818627
0.215625 0.45514706 0.74166667
0.26887255 0.45122549 0.75208333
0.39469975 0.46798407 0.76734069
0.53835784 0.48762255 0.79583333
0.69607843 0.51780025 0.82686887
0.82898284 0.56158088 0.84901961
0.89733456 0.60027574 0.84240196
0.91323529 0.62941176 0.81568627
0.12647059 0.56666667 0.72107843
0.15713082 0.56323529 0.72107843
0.23422181 0.56505821 0.72532169
0.32445619 0.56666667 0.73332567
0.47582721 0.58563113 0.76305147
0.64362745 0.62205116 0.80184589
0.7995098 0.66519608 0.84420956
0.88204657 0.70245098 0.85196078
0.88970588 0.71060049 0.83069853
0.25539216 0.68921569 0.76715686
0.27238051 0.68223039 0.76029412
0.32990196 0.68627451 0.76317402
0.40232843 0.68627451 0.76346507
0.47947304 0.69166667 0.7754902
0.60004596 0.71426164 0.78681066
0.74460784 0.75143995 0.82647059
0.87582721 0.79019608 0.86136642
0.87990196 0.78627451 0.84166667
0.41770833 0.80882353 0.825
0.44472273 0.79411765 0.80158548
0.47624081 0.79394914 0.80856311
0.52843137 0.79803922 0.80743719
0.59659926 0.81102941 0.82916667
0.66897212 0.82058824 0.83907016
0.75703125 0.82941176 0.84241728
0.8520144 0.84674479 0.85545343
0.909375 0.85196078 0.85588235
0.56862745 0.89362745 0.87156863
0.57297794 0.8901348 0.86764706
0.59117647 0.88590686 0.85980392
0.64234069 0.90392157 0.88498775
0.68039216 0.89191176 0.86764706
0.7286152 0.89166667 0.86795343
0.79019608 0.88627451 0.85894608
0.84460784 0.8754902 0.84852941
0.90588235 0.89068627 0.84852941
0.44313725 0.25882353 0.91372549
0.45833333 0.25098039 0.90147059
0.5 0.25 0.90196078
0.56568627 0.225 0.87990196
0.67254902 0.22352941 0.91568627
0.7745098 0.18676471 0.9254902
0.89411765 0.14803922 0.93333333
0.99215686 0.1872549 0.94460784
1 0.35294118 0.91372549
0.43137255 0.28921569 0.89754902
0.4504902 0.28186275 0.89411765
0.5 0.27879902 0.90710784
0.56813725 0.26746324 0.90931373
0.66691176 0.25416667 0.91421569
0.77481618 0.2377451 0.92745098
0.89411765 0.22071078 0.9372549
0.98872549 0.22892157 0.93333333
0.99607843 0.3754902 0.91372549
0.4127451 0.35098039 0.89803922
0.4379902 0.34840686 0.90514706
0.48039216 0.34215686 0.89803922
0.55061275 0.33639706 0.90196078
0.65882353 0.33235294 0.91911765
0.76666667 0.32647059 0.92156863
0.88553922 0.3247549 0.92058824
0.97438725 0.35036765 0.92438725
0.99607843 0.46470588 0.9372549
0.36911765 0.42843137 0.89166667
0.3653799 0.40618873 0.86029412
0.44865196 0.42806373 0.8995098
0.52248775 0.43088235 0.90134804
0.63333333 0.42671569 0.90906863
0.74852941 0.43180147 0.92003676
0.86605392 0.45245098 0.92892157
0.95539216 0.48743873 0.90980392
0.97794118 0.51617647 0.90882353
0.30392157 0.51960784 0.88627451
0.33039216 0.52107843 0.88970588
0.35882353 0.49607843 0.86323529
0.47401961 0.51960784 0.89289216
0.58921569 0.5254902 0.90098039
0.71764706 0.5379902 0.91127451
0.84068627 0.56568627 0.91911765
0.93235294 0.60245098 0.90808824
0.98627451 0.64117647 0.93137255
0.24754902 0.63088235 0.87352941
0.26954657 0.62218137 0.87365196
0.32414216 0.62083333 0.8747549
0.41078431 0.61133578 0.8754902
0.53357843 0.61617647 0.87965686
0.67261029 0.63431373 0.89748775
0.80098039 0.66029412 0.90821078
0.89803922 0.69509804 0.91942402
0.95686275 0.72058824 0.9254902
0.31764706 0.7245098 0.8754902
0.32291667 0.72107843 0.875
0.34926471 0.71764706 0.86789216
0.42205882 0.71482843 0.87156863
0.46176471 0.70343137 0.85882353
0.57953431 0.70343137 0.84767157
0.74730392 0.74117647 0.90980392
0.88639706 0.77892157 0.92843137
0.94019608 0.79411765 0.92941176
0.46029412 0.8127451 0.89411765
0.47647059 0.81709559 0.89803922
0.49117647 0.80919118 0.89019608
0.5245098 0.8091299 0.88498775
0.57843137 0.80490196 0.89044118
0.63970588 0.81078431 0.89607843
0.72598039 0.8245098 0.90245098
0.84895833 0.84460784 0.91813725
0.9254902 0.85980392 0.92941176
0.56862745 0.8745098 0.90588235
0.5872549 0.8745098 0.91372549
0.6254902 0.8872549 0.90784314
0.63480392 0.88235294 0.89656863
0.69803922 0.88823529 0.91764706
0.74264706 0.89411765 0.91764706
0.79803922 0.89803922 0.91470588
0.85980392 0.90196078 0.9254902
0.91372549 0.91372549 0.9372549
