site/assets/luts/natron-haldclut--kodak-elite-extracolor-100--3e08e0038.cube
# LUTr-Project: LUTr — LUTrepository
# LUTr-Schema-Version: 1
# LUTr-ID: natron-haldclut--kodak-elite-extracolor-100--3e08e0038
# LUTr-Title: kodak elite extracolor 100
# LUTr-Collection: Natron HaldCLUT
# LUTr-Collection-ID: natron-haldclut-presets
# LUTr-Source: https://github.com/NatronGitHub/clut
# LUTr-Source-File: submissions/natron-haldclut-presets/colorslide/kodak_elite_extracolor_100.png
# LUTr-Source-Format: PNG
# LUTr-Source-SHA256: c49d2be5f9e140e58780df6577be341f8fdefbf4d92b212daa0ffd0dcd534d75
# LUTr-License: CC-BY-SA-4.0
# LUTr-License-URL: https://github.com/NatronGitHub/clut#license
# LUTr-Tags: creative, film, film-emulation, hald-clut, natron, png, cube
# LUTr-Transform-Class: film-emulation
# LUTr-Input-Color-Space: srgb
# LUTr-Output-Color-Space: srgb
# LUTr-Color-Space-Confidence: assumed-display-referred
# LUTr-Conversion-Method: PNG LUT image decoded at 16-bit and sampled to 25x25x25 3D CUBE
# LUTr-Conversion-Date: 2026-07-27
# LUTr-Conversion-Tool: LUTr scripts/convert-all-to-cube.mjs
# LUTr-Conversion-Grid: 25x25x25
# LUTr-Note: Preserve this metadata and the upstream license notices when redistributing.
TITLE "kodak elite extracolor 100"
LUT_3D_SIZE 5
DOMAIN_MIN 0 0 0
DOMAIN_MAX 1 1 1
0 0 0
0.1745098 0.019607843 0.030392157
0.39607843 0 0.0039215686
0.63431373 0 0.011764706
0.83137255 0 0
0.12156863 0.20882353 0.065686275
0.23137255 0.19215686 0.066666667
0.44607843 0.15490196 0.030392157
0.67965686 0.089215686 0.010784314
0.83431373 0.0039215686 0
0.16666667 0.49803922 0.12352941
0.30686275 0.4872549 0.11421569
0.55294118 0.47058824 0.10098039
0.78333333 0.40980392 0.055882353
0.9254902 0.31176471 0.011764706
0.29705882 0.8127451 0.080392157
0.42352941 0.81960784 0.053676471
0.68823529 0.82009804 0.034313725
0.90196078 0.79926471 0.031127451
0.99607843 0.74803922 0.011764706
0.5254902 1 0
0.61372549 0.99215686 0
0.79607843 0.99411765 0
0.95392157 0.99607843 0
0.99607843 0.99607843 0
0.0078431373 0.011764706 0.16176471
0.1375 0.0078431373 0.14240196
0.37352941 0 0.12107843
0.63137255 0.0068627451 0.098039216
0.80784314 0 0.05
0.10490196 0.20490196 0.2002451
0.19650735 0.19571078 0.2
0.43529412 0.1627451 0.16666667
0.66807598 0.093321078 0.12058824
0.82254902 0.0125 0.060784314
0.11372549 0.49019608 0.25196078
0.26188725 0.49803922 0.23835784
0.53406863 0.46862745 0.21495098
0.77169118 0.41029412 0.16911765
0.92303922 0.30098039 0.10735294
0.2245098 0.80808824 0.20955882
0.37745098 0.81348039 0.21348039
0.64252451 0.80796569 0.1877451
0.88039216 0.78921569 0.11905637
0.99828431 0.74411765 0.083333333
0.4872549 1 0.015686275
0.58112745 1 0.006127451
0.79705882 0.99754902 0.0039215686
0.97058824 0.99215686 0.0039215686
1 0.98823529 0.0078431373
0.0039215686 0.015686275 0.34901961
0.097058824 0.011764706 0.33578431
0.33823529 0.0078431373 0.31568627
0.58921569 0.0029411765 0.28970588
0.78431373 0 0.24117647
0.055882353 0.21421569 0.41078431
0.14375 0.20404412 0.40992647
0.39436275 0.17132353 0.38382353
0.63921569 0.092769608 0.34656863
0.77401961 0.01127451 0.30294118
0.011764706 0.49019608 0.49215686
0.15588235 0.50588235 0.49411765
0.46862745 0.47303922 0.47745098
0.73039216 0.42965686 0.44044118
0.88235294 0.30490196 0.37941176
0.016176471 0.79852941 0.53578431
0.23921569 0.79693627 0.53921569
0.58235294 0.79313725 0.52426471
0.82610294 0.77965686 0.48933824
0.9877451 0.73039216 0.43480392
0.30196078 1 0.40196078
0.47843137 0.99607843 0.35
0.73137255 0.99803922 0.33235294
0.93921569 0.99362745 0.30735294
1 0.99607843 0.19019608
0 0.024509804 0.57156863
0.037254902 0.015686275 0.55980392
0.28529412 0.015686275 0.55
0.55490196 0.0049019608 0.52745098
0.74411765 0 0.48137255
0.0078431373 0.23627451 0.64607843
0.070588235 0.22193627 0.64117647
0.32156863 0.19497549 0.62892157
0.60171569 0.11740196 0.59313725
0.74093137 0.0093137255 0.55490196
0 0.50637255 0.71470588
0.012745098 0.51335784 0.72254902
0.38480392 0.49485294 0.71568627
0.68970588 0.43958333 0.68676471
0.85441176 0.31470588 0.64460784
0 0.78823529 0.78823529
0.017218137 0.78823529 0.79142157
0.47904412 0.78431373 0.77647059
0.76599265 0.76525735 0.76004902
0.95269608 0.71470588 0.73431373
0 0.98333333 0.78823529
0.11519608 0.97058824 0.79338235
0.57352941 0.99411765 0.77647059
0.84313725 0.99607843 0.76176471
1 0.98921569 0.73431373
0 0.078431373 0.75294118
0.014705882 0.046078431 0.73235294
0.21960784 0.021568627 0.72156863
0.52058824 0.015686275 0.68235294
0.70980392 0 0.66666667
0 0.27058824 0.81470588
0.018382353 0.26666667 0.80588235
0.23529412 0.24264706 0.79901961
0.57769608 0.16691176 0.74093137
0.73921569 0.017647059 0.69019608
0 0.56078431 0.90980392
0.0034313725 0.55294118 0.88235294
0.23137255 0.54215686 0.88921569
0.64166667 0.49215686 0.85637255
0.84509804 0.36862745 0.81764706
0 0.80294118 0.94607843
0.0029411765 0.79705882 0.94338235
0.24117647 0.79166667 0.93970588
0.69607843 0.78137255 0.93137255
0.88431373 0.75294118 0.90686275
0 0.96078431 0.99607843
0 0.97647059 1
0.16666667 0.98235294 0.98823529
0.72647059 0.98823529 0.99117647
0.99215686 0.98823529 0.98039216
