site/assets/luts/natron-haldclut--polaroid-px-70-warm--fea6ba529.cube
# LUTr-Project: LUTr — LUTrepository
# LUTr-Schema-Version: 1
# LUTr-ID: natron-haldclut--polaroid-px-70-warm--fea6ba529
# LUTr-Title: polaroid px-70 warm +
# LUTr-Collection: Natron HaldCLUT
# LUTr-Collection-ID: natron-haldclut-presets
# LUTr-Source: https://github.com/NatronGitHub/clut
# LUTr-Source-File: submissions/natron-haldclut-presets/instant_consumer/polaroid_px-70_warm_+.png
# LUTr-Source-Format: PNG
# LUTr-Source-SHA256: fc76e4b3f63deaf2494234e8759875d65e297a1fc312cbe2a8f453e611574ad2
# LUTr-License: CC-BY-SA-4.0
# LUTr-License-URL: https://github.com/NatronGitHub/clut#license
# LUTr-Tags: creative, film, film-emulation, hald-clut, natron, png, warm, cube
# LUTr-Transform-Class: film-emulation
# LUTr-Input-Color-Space: srgb
# LUTr-Output-Color-Space: srgb
# LUTr-Color-Space-Confidence: assumed-display-referred
# LUTr-Conversion-Method: PNG LUT image decoded at 16-bit and sampled to 25x25x25 3D CUBE
# LUTr-Conversion-Date: 2026-07-27
# LUTr-Conversion-Tool: LUTr scripts/convert-all-to-cube.mjs
# LUTr-Conversion-Grid: 25x25x25
# LUTr-Note: Preserve this metadata and the upstream license notices when redistributing.
TITLE "polaroid px-70 warm +"
LUT_3D_SIZE 9
DOMAIN_MIN 0 0 0
DOMAIN_MAX 1 1 1
0.23921569 0.15294118 0.15294118
0.25833333 0.15294118 0.15294118
0.28137255 0.15294118 0.15294118
0.30196078 0.14901961 0.15294118
0.4 0.15490196 0.15686275
0.59607843 0.16078431 0.14754902
0.8254902 0.24117647 0.11960784
0.96960784 0.39852941 0.074019608
1 0.52941176 0.094117647
0.24264706 0.17598039 0.15294118
0.25490196 0.17205882 0.15343137
0.28137255 0.16813725 0.15294118
0.3122549 0.16078431 0.15294118
0.41887255 0.16617647 0.15294118
0.62156863 0.18400735 0.14117647
0.82941176 0.30098039 0.10134804
0.97058824 0.43627451 0.055330882
1 0.55588235 0.11323529
0.24019608 0.19901961 0.15294118
0.25490196 0.20208333 0.15686275
0.27132353 0.18504902 0.15294118
0.33627451 0.20379902 0.15294118
0.45588235 0.2122549 0.14215686
0.66176471 0.26666667 0.12401961
0.84485294 0.35294118 0.082107843
0.97352941 0.49362745 0.025490196
1 0.58039216 0.096078431
0.23921569 0.27352941 0.15294118
0.2504902 0.27401961 0.15294118
0.29460784 0.28370098 0.15294118
0.37457108 0.30006127 0.14356618
0.51985294 0.33382353 0.125
0.69901961 0.38529412 0.087745098
0.85551471 0.46372549 0.024509804
0.97481618 0.571875 0
0.99852941 0.62303922 0.087254902
0.21960784 0.45098039 0.13529412
0.25196078 0.44509804 0.14289216
0.30392157 0.45392157 0.13578431
0.41176471 0.46789216 0.12034314
0.56666667 0.5127451 0.094117647
0.74730392 0.56691176 0.0080882353
0.86666667 0.60490196 0.0073529412
0.95220588 0.64387255 0.0080882353
0.99411765 0.67058824 0.035294118
0.24019608 0.64411765 0.12843137
0.27365196 0.64822304 0.1213848
0.35490196 0.63627451 0.14313725
0.48088235 0.6504902 0.14895833
0.61789216 0.6870098 0.12009804
0.75637255 0.70300245 0.060845588
0.86568627 0.72414216 0.070710784
0.94589461 0.7403799 0.090012255
0.98431373 0.75098039 0.15147059
0.44313725 0.79117647 0.2254902
0.45196078 0.78823529 0.20857843
0.51348039 0.78897059 0.23210784
0.5877451 0.79117647 0.23970588
0.67745098 0.79509804 0.24656863
0.77365196 0.81078431 0.27254902
0.86470588 0.81862745 0.26789216
0.93419118 0.82683824 0.29362745
0.97254902 0.8372549 0.34705882
0.67696078 0.87941176 0.40196078
0.67794118 0.87990196 0.39859069
0.69117647 0.87585784 0.39803922
0.74166667 0.87941176 0.41795343
0.77818627 0.8754902 0.41813725
0.83529412 0.88088235 0.42156863
0.87990196 0.88333333 0.42169118
0.92990196 0.89852941 0.45251225
0.96078431 0.89901961 0.46813725
0.84313725 0.92941176 0.52941176
0.84362745 0.92990196 0.52990196
0.83823529 0.92843137 0.52156863
0.85098039 0.92696078 0.52696078
0.85098039 0.92156863 0.51568627
0.88382353 0.92696078 0.53088235
0.91764706 0.93333333 0.54607843
0.9377451 0.92892157 0.52843137
0.96078431 0.94509804 0.57647059
0.23578431 0.14901961 0.15294118
0.25447304 0.14901961 0.15686275
0.26973039 0.14901961 0.15686275
0.29901961 0.14932598 0.15686275
0.40588235 0.14901961 0.16078431
0.62285539 0.1627451 0.16060049
0.83811275 0.275 0.13970588
0.98529412 0.41764706 0.125
1 0.55245098 0.18284314
0.24313725 0.17254902 0.15686275
0.25441176 0.16814491 0.1602405
0.27095588 0.16121324 0.16078431
0.32216605 0.16421569 0.16078431
0.42279412 0.16421569 0.16029412
0.63088235 0.20179994 0.15524663
0.8495098 0.30453431 0.13529412
0.97663909 0.45158548 0.1318704
1 0.56029412 0.17506127
0.24705882 0.19644608 0.16078431
0.25833333 0.19901961 0.16303615
0.27965686 0.19803922 0.1614277
0.34901961 0.20588235 0.16029412
0.48186275 0.22352941 0.1533701
0.67585784 0.26776961 0.1435049
0.85833333 0.37840074 0.11715686
0.98045343 0.5129136 0.11023284
1 0.57843137 0.14754902
0.24068627 0.2903799 0.16078431
0.25790441 0.28831955 0.1646829
0.29607843 0.28592218 0.16260723
0.38413756 0.30704657 0.15484069
0.53676471 0.34338235 0.14338235
0.70931373 0.3877451 0.11323529
0.87210478 0.48105086 0.056556373
0.9745098 0.57843137 0.067624081
0.99607843 0.63823529 0.15998775
0.23137255 0.4625 0.15269608
0.25808824 0.45860907 0.15811887
0.30631127 0.45484069 0.15661765
0.42598039 0.48284314 0.14730392
0.58419118 0.51568627 0.13063725
0.74264706 0.55916054 0.07533701
0.87745098 0.61121324 0.023161765
0.95784314 0.64188113 0.033792892
0.99264706 0.69460784 0.1622549
0.27205882 0.6627451 0.16029412
0.30441176 0.65588235 0.15882353
0.38811275 0.65553002 0.17352941
0.49234835 0.66960784 0.17070313
0.62735907 0.69019608 0.15677083
0.76452206 0.71268382 0.13952206
0.86960784 0.72634804 0.13137255
0.94215686 0.74166667 0.15631127
0.98382353 0.75716912 0.20441176
0.48186275 0.80637255 0.26029412
0.48474265 0.79117647 0.25882353
0.52827819 0.79117647 0.25995711
0.59590993 0.79117647 0.27112439
0.69117647 0.80098039 0.28541667
0.7814951 0.81470588 0.28713235
0.86568627 0.81862745 0.28737745
0.93296569 0.82685355 0.32265625
0.98039216 0.84509804 0.37990196
0.68131127 0.8754902 0.40980392
0.684375 0.8754902 0.40980392
0.70343137 0.87640931 0.41329657
0.73694853 0.87436428 0.42058824
0.77965686 0.87898284 0.43526348
0.83137255 0.88333333 0.44099265
0.88157169 0.88800551 0.445481
0.92727482 0.89509804 0.45594363
0.95686275 0.89509804 0.4716299
0.84607843 0.93529412 0.53333333
0.83572304 0.92898284 0.52199755
0.8495098 0.92941176 0.53284314
0.85441176 0.9254902 0.52910539
0.86421569 0.9254902 0.52916667
0.89558824 0.93333333 0.54871324
0.91862745 0.93198529 0.54117647
0.9377451 0.93333333 0.54558824
0.95735294 0.94117647 0.56862745
0.23921569 0.15294118 0.16764706
0.2504902 0.15294118 0.16764706
0.26887255 0.15294118 0.16764706
0.3004902 0.15196078 0.17046569
0.41421569 0.13823529 0.17745098
0.65453431 0.10245098 0.18933824
0.88014706 0.2754902 0.20759804
0.98823529 0.45637255 0.24019608
0.99705882 0.5754902 0.29019608
0.24571078 0.16813725 0.17156863
0.2504902 0.16056985 0.16862745
0.26568627 0.16035539 0.16764706
0.31680453 0.16717218 0.1754902
0.46151961 0.15814951 0.18553922
0.66717218 0.17336091 0.19425551
0.88811275 0.32938113 0.2127451
0.98841912 0.48241422 0.23223039
1 0.57892157 0.28627451
0.25098039 0.20514706 0.17941176
0.25833333 0.19509804 0.17941176
0.28651961 0.20196078 0.17677696
0.35790441 0.21066176 0.18253676
0.51176471 0.22892157 0.19068627
0.70428922 0.28284314 0.19693627
0.88529412 0.40134804 0.2002451
0.9870098 0.53615196 0.22898284
0.99705882 0.61936275 0.28823529
0.25392157 0.2935049 0.18578431
0.27009804 0.29460784 0.1872549
0.31323529 0.30833333 0.19007353
0.40343137 0.3166973 0.1872549
0.56544118 0.35759804 0.18627451
0.72855392 0.40453431 0.17820159
0.88599877 0.49929534 0.17512255
0.975 0.5935815 0.20939032
0.99816176 0.66090686 0.27843137
0.26715686 0.47058824 0.19411765
0.28578431 0.46960784 0.19411765
0.33492647 0.47426471 0.19485294
0.45569853 0.49607843 0.20238971
0.60857843 0.52254902 0.18529412
0.75091912 0.55729167 0.17395833
0.88296569 0.61629902 0.17401961
0.95753676 0.65189951 0.17941176
0.98627451 0.69607843 0.24558824
0.33921569 0.66727941 0.22634804
0.35917586 0.66524203 0.22205882
0.41400123 0.67303922 0.22025123
0.51764706 0.6751685 0.23811275
0.65147059 0.69724265 0.22965686
0.76997549 0.71245404 0.22685355
0.8768076 0.72999387 0.22181373
0.94791667 0.7473652 0.25035233
0.98247549 0.75833333 0.28517157
0.51960784 0.80588235 0.31960784
0.53780637 0.80294118 0.31997549
0.56740196 0.80238971 0.31568627
0.62254902 0.79509804 0.32316176
0.70196078 0.80637255 0.33921569
0.79016544 0.81746324 0.34705882
0.86568627 0.82230392 0.35042892
0.93621324 0.82941176 0.36678922
0.97254902 0.8375 0.39117647
0.69607843 0.8754902 0.43492647
0.69961703 0.8754902 0.43203125
0.71813725 0.87941176 0.43578431
0.75245098 0.87732843 0.44361213
0.78676471 0.87984069 0.45802696
0.83786765 0.88333333 0.46335784
0.88382353 0.89117647 0.46737132
0.92915135 0.89477635 0.48016238
0.96727941 0.90245098 0.50196078
0.85882353 0.9372549 0.54509804
0.84656863 0.92941176 0.53333333
0.85220588 0.92867647 0.53553922
0.8627451 0.92757353 0.53762255
0.88235294 0.92941176 0.54509804
0.8995098 0.93333333 0.55012255
0.92156863 0.93553922 0.55171569
0.94558824 0.94154412 0.56813725
0.95294118 0.9372549 0.56078431
0.24313725 0.15686275 0.18676471
0.26078431 0.16078431 0.19283088
0.27879902 0.16323529 0.19129902
0.31568627 0.16715686 0.19405637
0.42009804 0.15735294 0.21348039
0.65153186 0.11268382 0.25196078
0.88615196 0.12352941 0.27561275
0.98529412 0.37598039 0.31930147
1 0.58970588 0.39558824
0.24920343 0.16813725 0.19803922
0.26078431 0.16666667 0.20398284
0.2877451 0.17789522 0.20586703
0.34398744 0.18572304 0.21488971
0.45661765 0.18210784 0.22224265
0.68695619 0.16158088 0.25949755
0.89710478 0.21950061 0.28426777
0.99070925 0.44464614 0.33856464
1 0.61960784 0.4036152
0.25551471 0.21164216 0.21997549
0.26769301 0.20833333 0.21960784
0.30931373 0.21501225 0.22352941
0.38193934 0.23325674 0.23382353
0.51930147 0.24705882 0.24509804
0.72095588 0.28581495 0.27774203
0.90551471 0.40196078 0.3064951
0.98716299 0.58373162 0.37647059
1 0.66372549 0.41421569
0.26519608 0.31666667 0.23964461
0.28431373 0.30834099 0.23872549
0.33382353 0.32238051 0.24725797
0.43979013 0.34411765 0.2540671
0.59708946 0.38014706 0.26648284
0.7649663 0.4466299 0.28543964
0.8971201 0.5495098 0.31704963
0.97310815 0.63578431 0.35324755
0.99908088 0.69846814 0.4122549
0.30514706 0.49656863 0.27083333
0.34280025 0.5 0.2747549
0.3870098 0.50245098 0.27261029
0.49852941 0.51862745 0.28290441
0.63259804 0.54669118 0.28382353
0.77303922 0.59065564 0.29019608
0.8997549 0.63357843 0.29852941
0.96151961 0.68348652 0.32058824
0.99215686 0.7252451 0.36862745
0.44405637 0.68970588 0.32555147
0.44705882 0.68442862 0.31980699
0.48578431 0.68431373 0.31401654
0.57052696 0.69215686 0.32401961
0.67159926 0.70514706 0.32748162
0.78200827 0.71983762 0.32459406
0.8821538 0.73512561 0.32513787
0.94841452 0.74734988 0.33615962
0.98915441 0.76372549 0.35594363
0.58026961 0.8122549 0.3872549
0.58296569 0.80338542 0.38230699
0.61302083 0.80321691 0.38085172
0.66654412 0.80585172 0.39275429
0.72947304 0.81078431 0.40392157
0.8 0.81764706 0.40784314
0.87135417 0.82830882 0.41176471
0.93419118 0.8307598 0.41649816
0.9682598 0.84117647 0.43823529
0.73020833 0.87892157 0.47040441
0.73237592 0.87783395 0.46650582
0.74460784 0.87896752 0.46904105
0.7702742 0.88333333 0.47653952
0.80842525 0.88333333 0.48970588
0.846875 0.88645067 0.49411765
0.8877451 0.89332108 0.49411765
0.9338848 0.89460784 0.5035386
0.96470588 0.89901961 0.51323529
0.84852941 0.92696078 0.54264706
0.85324755 0.93155637 0.54313725
0.85772059 0.92941176 0.5439951
0.86519608 0.92794118 0.54362745
0.89068627 0.93333333 0.55612745
0.90827206 0.93425245 0.56323529
0.90796569 0.92267157 0.54227941
0.94166667 0.9372549 0.56519608
0.96470588 0.94656863 0.58578431
0.27254902 0.16666667 0.26078431
0.29142157 0.16862745 0.26470588
0.325 0.16862745 0.25686275
0.40857843 0.20367647 0.27303922
0.51176471 0.23333333 0.29313725
0.66078431 0.22352941 0.33039216
0.86470588 0.23823529 0.38823529
0.98333333 0.37352941 0.41789216
1 0.55882353 0.45490196
0.27254902 0.17818627 0.27990196
0.29466912 0.18161765 0.27941176
0.34295343 0.19460784 0.2877451
0.4372549 0.23103554 0.29681373
0.53848039 0.25012255 0.31139706
0.6786152 0.24944853 0.33685662
0.87328431 0.28333333 0.39117647
0.9833027 0.43802083 0.4291973
1 0.6004902 0.46642157
0.26960784 0.23431373 0.30147059
0.29944853 0.23805147 0.30490196
0.36507353 0.25098039 0.31078431
0.475 0.27542892 0.32536765
0.57965686 0.31911765 0.33651961
0.72395833 0.35318627 0.36470588
0.89411765 0.39264706 0.40686275
0.97089461 0.53431373 0.44074755
0.99607843 0.63872549 0.47598039
0.26911765 0.35857843 0.32401961
0.29362745 0.35425858 0.32401961
0.35667892 0.35863971 0.32990196
0.49779412 0.39629289 0.34558824
0.63345588 0.45416667 0.36519608
0.775 0.48158701 0.39215686
0.89846814 0.55827206 0.43192402
0.96945466 0.65416667 0.46038603
0.99607843 0.73235294 0.49681373
0.31176471 0.5254902 0.35294118
0.34644608 0.52046569 0.35955882
0.40686275 0.51715686 0.35759804
0.53529412 0.54203431 0.375
0.67156863 0.58333333 0.39411765
0.80441176 0.62867647 0.41568627
0.89705882 0.67720588 0.42965686
0.95661765 0.7245098 0.45637255
0.98823529 0.7745098 0.49117647
0.46887255 0.69828431 0.40686275
0.48219975 0.68832721 0.40686275
0.54264706 0.69754902 0.41151961
0.61942402 0.70542279 0.4120098
0.70735294 0.71666667 0.42107843
0.80291054 0.73697917 0.43333333
0.88884804 0.75637255 0.43970588
0.94822304 0.76608456 0.4375
0.98161765 0.80808824 0.48112745
0.62990196 0.80686275 0.46029412
0.65140931 0.81372549 0.46029412
0.68002451 0.80980392 0.4622549
0.71881127 0.81188725 0.46470588
0.75294118 0.81151961 0.46862745
0.82303922 0.82383578 0.47647059
0.88578431 0.83333333 0.47401961
0.93811275 0.8372549 0.47818627
0.98186275 0.85294118 0.49705882
0.75882353 0.88333333 0.50490196
0.76446078 0.88134191 0.50490196
0.77745098 0.88284314 0.50833333
0.79803922 0.88333333 0.50882353
0.83051471 0.88504902 0.51752451
0.85539216 0.88854167 0.52058824
0.89381127 0.89681373 0.52708333
0.9377451 0.89509804 0.52300858
0.96862745 0.90465686 0.53970588
0.86666667 0.93333333 0.55686275
0.87009804 0.93333333 0.55686275
0.85637255 0.925 0.54901961
0.87696078 0.92941176 0.55686275
0.89215686 0.92941176 0.5627451
0.90857843 0.93333333 0.56862745
0.92794118 0.93529412 0.57254902
0.94558824 0.94142157 0.58259804
0.95294118 0.93529412 0.5745098
0.3377451 0.18186275 0.37598039
0.34332108 0.17647059 0.38351716
0.41960784 0.18578431 0.39313725
0.54019608 0.22990196 0.41219363
0.6622549 0.3370098 0.425
0.77107843 0.40490196 0.45741422
0.86323529 0.39754902 0.47598039
0.97598039 0.4786152 0.50520833
1 0.58382353 0.5245098
0.32530637 0.20245098 0.39509804
0.36305147 0.21421569 0.39875153
0.44451593 0.22415748 0.4143076
0.56139706 0.26862745 0.43302696
0.69705882 0.39249387 0.44901961
0.78480392 0.4571538 0.46078431
0.87420343 0.45 0.48235294
0.97205882 0.52123928 0.51043964
0.99871324 0.59834559 0.52481618
0.31776961 0.28921569 0.42205882
0.33851103 0.26271446 0.43151042
0.44901961 0.29917279 0.43373162
0.58284314 0.34940257 0.44771752
0.71715686 0.47224265 0.46758578
0.80258885 0.53938419 0.47640931
0.88483456 0.5364277 0.49433211
0.96864277 0.57663909 0.51708027
1 0.66421569 0.53026961
0.26617647 0.42359069 0.44362745
0.30840227 0.4153799 0.44228707
0.426731 0.42022059 0.44878983
0.58529412 0.45594363 0.46842065
0.72598039 0.55594363 0.48161765
0.81652114 0.61470588 0.49256281
0.89031863 0.62267157 0.50657169
0.96077665 0.66998315 0.52223499
0.99123775 0.72647059 0.53480392
0.31127451 0.56715686 0.46078431
0.34779412 0.56642157 0.46185662
0.4379902 0.56599265 0.45735294
0.56492034 0.58140319 0.47199755
0.71789216 0.63235294 0.49313725
0.82895221 0.70447304 0.50637255
0.89460784 0.72279412 0.51807598
0.95499387 0.74313725 0.52882966
0.98431373 0.79485294 0.54852941
0.47009804 0.71421569 0.48823529
0.49019608 0.70876225 0.48376225
0.54411765 0.70147059 0.47823223
0.63471967 0.71773131 0.48733915
0.72892157 0.72990196 0.49779412
0.8254902 0.75428922 0.50882353
0.89676777 0.78218444 0.51312806
0.9495098 0.79375766 0.51923254
0.97346814 0.82892157 0.54019608
0.63345588 0.81017157 0.51372549
0.64693627 0.81017157 0.50948223
0.68357843 0.81326593 0.5064951
0.73065257 0.80980392 0.5122549
0.77628676 0.81439951 0.51617647
0.84068627 0.82757353 0.52443321
0.89718137 0.84371936 0.52794118
0.94473039 0.84264706 0.52740502
0.97254902 0.85294118 0.53186275
0.7653799 0.88333333 0.53903186
0.77444853 0.88692555 0.53167892
0.78524816 0.88333333 0.53823529
0.81568627 0.88333333 0.54313725
0.84754902 0.8872549 0.54313725
0.88050705 0.89479167 0.55098039
0.904856 0.89509804 0.55490196
0.94166667 0.90057445 0.55882353
0.96862745 0.89852941 0.5627451
0.88088235 0.93578431 0.57254902
0.87432598 0.93333333 0.57254902
0.87696078 0.93333333 0.5689951
0.89356618 0.93333333 0.57555147
0.90073529 0.92941176 0.57647059
0.9033701 0.92058824 0.57156863
0.93333333 0.93125 0.58431373
0.94901961 0.93333333 0.58823529
0.95686275 0.93480392 0.59215686
0.4872549 0.22156863 0.53823529
0.50686275 0.22169118 0.54558824
0.60882353 0.27083333 0.56078431
0.71029412 0.31580882 0.56262255
0.81960784 0.48431373 0.56666667
0.87009804 0.62193627 0.55882353
0.91568627 0.67647059 0.55882353
0.95343137 0.63026961 0.56176471
0.99215686 0.68921569 0.56960784
0.49522059 0.28382353 0.54865196
0.51732537 0.2709712 0.56127451
0.60232843 0.29721201 0.56372549
0.71484375 0.36403186 0.56729473
0.81966912 0.49785539 0.56666667
0.87340686 0.64459252 0.55687806
0.91703431 0.69546569 0.56176471
0.96384804 0.6814951 0.56568627
0.98431373 0.69705882 0.56568627
0.45098039 0.35220588 0.5754902
0.49497549 0.3622549 0.56761642
0.58921569 0.38333333 0.56372549
0.70465686 0.44408701 0.56666667
0.82046569 0.57058824 0.56703431
0.87821691 0.6908701 0.5627451
0.91568627 0.72843137 0.5627451
0.94960172 0.71666667 0.56654412
0.98333333 0.74142157 0.56568627
0.425 0.49460784 0.5627451
0.47598039 0.50018382 0.56567096
0.55955882 0.50248162 0.5627451
0.68564645 0.54803922 0.56643689
0.80784314 0.63811275 0.5627451
0.87663909 0.73451287 0.56499694
0.91470588 0.76663603 0.56568627
0.94595588 0.74808517 0.56666667
0.9754902 0.76911765 0.56960784
0.34607843 0.6245098 0.54803922
0.41023284 0.6254902 0.54803922
0.50392157 0.62242647 0.55183824
0.64344363 0.6463848 0.55827206
0.78333333 0.69632353 0.5620098
0.87058824 0.7627451 0.56629902
0.91176471 0.78737745 0.56568627
0.94558824 0.79044118 0.56960784
0.97990196 0.7995098 0.57352941
0.50098039 0.74019608 0.55392157
0.52054228 0.7319087 0.5506587
0.57352941 0.72696078 0.55
0.64564951 0.73272059 0.55061275
0.74589461 0.74044118 0.55245098
0.84914216 0.7932598 0.56213235
0.9125 0.82742034 0.56568627
0.95004596 0.83475797 0.56960784
0.96862745 0.84460784 0.57745098
0.64044118 0.81936275 0.55784314
0.66004902 0.81917892 0.55392157
0.69295343 0.81936275 0.54944853
0.73526348 0.81936275 0.5502451
0.79448529 0.82254902 0.5567402
0.85536152 0.83480392 0.5620098
0.91102941 0.85857843 0.56740196
0.94558824 0.86547181 0.57058824
0.96838235 0.87156863 0.57352941
0.77144608 0.88811275 0.56213235
0.7783701 0.8872549 0.5622549
0.79754902 0.89117647 0.56568627
0.82352941 0.8872549 0.57290135
0.85588235 0.89117647 0.57401961
0.89220282 0.89901961 0.57401961
0.91988358 0.90245098 0.58137255
0.94558824 0.90772059 0.58186275
0.96078431 0.90735294 0.58566176
0.87843137 0.93333333 0.58823529
0.87843137 0.93333333 0.58529412
0.88235294 0.93333333 0.58529412
0.89019608 0.93296569 0.58921569
0.91127451 0.93333333 0.59460784
0.92585784 0.9372549 0.59705882
0.9372549 0.92941176 0.59607843
0.9495098 0.9254902 0.59227941
0.96470588 0.94215686 0.6127451
0.65392157 0.4004902 0.62401961
0.68780637 0.39656863 0.63529412
0.74767157 0.45588235 0.62794118
0.81813725 0.53823529 0.62058824
0.87745098 0.6377451 0.61617647
0.91568627 0.74313725 0.60441176
0.93872549 0.80637255 0.59656863
0.96127451 0.79411765 0.59656863
0.98382353 0.79019608 0.6004902
0.65741422 0.43872549 0.63186275
0.69258578 0.44901961 0.63579197
0.7442402 0.49068627 0.62719056
0.81764706 0.54885876 0.62401961
0.87674632 0.65857843 0.61593137
0.91715686 0.7466299 0.60655637
0.94252451 0.8185049 0.59882047
0.96084559 0.81618413 0.59656863
0.97647059 0.80490196 0.59705882
0.65784314 0.51286765 0.62794118
0.68909314 0.52593444 0.63186275
0.73468137 0.55208333 0.62414216
0.80686275 0.60405944 0.6213848
0.87696078 0.69240196 0.61421569
0.91176471 0.75824142 0.60441176
0.93872549 0.82251838 0.5995098
0.95735294 0.83578431 0.59656863
0.96862745 0.825 0.59963235
0.65 0.62285539 0.61636029
0.66240043 0.61776961 0.61764706
0.7239277 0.62982537 0.62401961
0.79160539 0.67176777 0.61372549
0.86878064 0.73406863 0.60833333
0.90784314 0.78284314 0.60441176
0.93872549 0.83587623 0.5995864
0.95692402 0.84852941 0.6004902
0.96470588 0.84705882 0.603125
0.60686275 0.70147059 0.60882353
0.62503064 0.69972426 0.60882353
0.68161765 0.70729167 0.60876225
0.7763174 0.72141544 0.60946691
0.84387255 0.75588235 0.60441176
0.90269608 0.80425858 0.60441176
0.93866422 0.85257353 0.6004902
0.95386029 0.8620098 0.60098039
0.96470588 0.8620098 0.60441176
0.57040441 0.76176471 0.59705882
0.56971507 0.76160386 0.59705882
0.62866115 0.76029412 0.596875
0.71665901 0.7698989 0.596875
0.80254289 0.78480392 0.6004902
0.88039216 0.8201057 0.6004902
0.926394 0.86813725 0.60183824
0.95294118 0.88302696 0.60441176
0.96078431 0.87910539 0.60833333
0.68627451 0.82990196 0.59313725
0.68746936 0.82990196 0.59264706
0.7192402 0.83373162 0.59264706
0.75882353 0.8372549 0.59264706
0.80422794 0.83737745 0.59411765
0.86190257 0.8457261 0.59698223
0.91875 0.87619485 0.60441176
0.95330882 0.89203431 0.60833333
0.96127451 0.8995098 0.6122549
0.78284314 0.89166667 0.59356618
0.78976716 0.89472273 0.59270067
0.80500919 0.89160539 0.59656863
0.83529412 0.89466912 0.6004902
0.85983456 0.8953125 0.59705882
0.89215686 0.90247396 0.60065104
0.92696078 0.9073989 0.60845588
0.9495098 0.91813725 0.61231618
0.96078431 0.92205882 0.61617647
0.8745098 0.9372549 0.60441176
0.875 0.9372549 0.60441176
0.87879902 0.93333333 0.60833333
0.89050245 0.93333333 0.60833333
0.91372549 0.94117647 0.61176471
0.92677696 0.9372549 0.61617647
0.94117647 0.9372549 0.61580882
0.95343137 0.93333333 0.61709559
0.96862745 0.94852941 0.63186275
0.82352941 0.6745098 0.6627451
0.83529412 0.69754902 0.65882353
0.85784314 0.71666667 0.65490196
0.88088235 0.72794118 0.64705882
0.91568627 0.78823529 0.64117647
0.93872549 0.82892157 0.63137255
0.95686275 0.86372549 0.62745098
0.96862745 0.89509804 0.62745098
0.96862745 0.89019608 0.62352941
0.82696078 0.70098039 0.65882353
0.83523284 0.71311275 0.65882353
0.85355392 0.72328431 0.65196078
0.88216912 0.74705882 0.64705882
0.91176471 0.79117647 0.63921569
0.93872549 0.82910539 0.63137255
0.95686275 0.86360294 0.62745098
0.96470588 0.88670343 0.62401961
0.96862745 0.89803922 0.62745098
0.81960784 0.71666667 0.65490196
0.83321078 0.73431373 0.65196078
0.84681373 0.72990196 0.64705882
0.87696078 0.75931373 0.64313725
0.90784314 0.79705882 0.6372549
0.94166667 0.84473039 0.63492647
0.95686275 0.87254902 0.62843137
0.96470588 0.8932598 0.62745098
0.96862745 0.89803922 0.62745098
0.81323529 0.75294118 0.65098039
0.81960784 0.75147059 0.64705882
0.85098039 0.77107843 0.64803922
0.8745098 0.79313725 0.64460784
0.90857843 0.82156863 0.6379902
0.93480392 0.85098039 0.63137255
0.95294118 0.87843137 0.62745098
0.96519608 0.90637255 0.62775735
0.96862745 0.90980392 0.62745098
0.80196078 0.78823529 0.64705882
0.80563725 0.78259804 0.64681373
0.82058824 0.78529412 0.64313725
0.8625 0.80637255 0.64117647
0.90392157 0.83137255 0.63627451
0.925 0.85245098 0.62745098
0.95392157 0.8877451 0.63137255
0.96470588 0.90612745 0.62965686
0.96862745 0.91372549 0.63137255
0.72107843 0.80392157 0.63529412
0.75808824 0.81305147 0.64166667
0.7814951 0.81678922 0.63921569
0.83327206 0.825 0.63921569
0.85392157 0.82867647 0.62352941
0.91574755 0.86568627 0.63284314
0.94901961 0.89509804 0.63529412
0.95735294 0.90980392 0.63137255
0.96862745 0.92156863 0.63676471
0.74803922 0.84901961 0.62843137
0.77107843 0.85686275 0.63529412
0.79240196 0.85686275 0.63455882
0.79215686 0.85147059 0.62352941
0.84803922 0.8622549 0.62352941
0.90306373 0.88051471 0.63713235
0.9372549 0.90294118 0.63529412
0.9560049 0.91813725 0.63921569
0.96862745 0.9372549 0.64607843
0.83627451 0.90637255 0.63578431
0.83186275 0.9028799 0.63088235
0.85061275 0.91029412 0.63480392
0.86354167 0.91176471 0.63529412
0.87328431 0.90294118 0.61421569
0.89607843 0.90655637 0.61372549
0.92696078 0.91421569 0.63627451
0.95343137 0.92640931 0.63921569
0.96470588 0.9372549 0.63921569
0.90196078 0.94901961 0.64705882
0.88284314 0.94117647 0.62745098
0.88627451 0.94019608 0.62352941
0.90441176 0.94509804 0.64166667
0.90980392 0.93921569 0.63333333
0.93088235 0.94656863 0.64460784
0.94117647 0.9372549 0.63235294
0.95686275 0.94852941 0.64705882
0.96470588 0.9372549 0.63921569
