site/assets/luts/natron-haldclut--fuji-neopan-1600--a6e03d054.cube
# LUTr-Project: LUTr — LUTrepository
# LUTr-Schema-Version: 1
# LUTr-ID: natron-haldclut--fuji-neopan-1600--a6e03d054
# LUTr-Title: fuji neopan 1600
# LUTr-Collection: Natron HaldCLUT
# LUTr-Collection-ID: natron-haldclut-presets
# LUTr-Source: https://github.com/NatronGitHub/clut
# LUTr-Source-File: submissions/natron-haldclut-presets/negative_old/fuji_neopan_1600.png
# LUTr-Source-Format: PNG
# LUTr-Source-SHA256: 2436f96f36e1108e6897aa34cc7074326fc9e69b0602918ec1fa4771ffc57a21
# LUTr-License: CC-BY-SA-4.0
# LUTr-License-URL: https://github.com/NatronGitHub/clut#license
# LUTr-Tags: creative, film, film-emulation, hald-clut, natron, png, black-and-white, cube
# LUTr-Transform-Class: film-emulation
# LUTr-Input-Color-Space: srgb
# LUTr-Output-Color-Space: srgb
# LUTr-Color-Space-Confidence: assumed-display-referred
# LUTr-Conversion-Method: PNG LUT image decoded at 16-bit and sampled to 25x25x25 3D CUBE
# LUTr-Conversion-Date: 2026-07-27
# LUTr-Conversion-Tool: LUTr scripts/convert-all-to-cube.mjs
# LUTr-Conversion-Grid: 25x25x25
# LUTr-Note: Preserve this metadata and the upstream license notices when redistributing.
TITLE "fuji neopan 1600"
LUT_3D_SIZE 9
DOMAIN_MIN 0 0 0
DOMAIN_MAX 1 1 1
0.023529412 0.023529412 0.023529412
0.031372549 0.031372549 0.031372549
0.050980392 0.050980392 0.050980392
0.036764706 0.036764706 0.036764706
0.049019608 0.049019608 0.049019608
0.10343137 0.10343137 0.10343137
0.19607843 0.19607843 0.19607843
0.33578431 0.33578431 0.33578431
0.47058824 0.47058824 0.47058824
0.034313725 0.034313725 0.034313725
0.042156863 0.042156863 0.042156863
0.066176471 0.066176471 0.066176471
0.066176471 0.066176471 0.066176471
0.1245098 0.1245098 0.1245098
0.18186275 0.18186275 0.18186275
0.27218137 0.27218137 0.27218137
0.38921569 0.38921569 0.38921569
0.49754902 0.49754902 0.49754902
0.10686275 0.10686275 0.10686275
0.099019608 0.099019608 0.099019608
0.10882353 0.10882353 0.10882353
0.16311275 0.16311275 0.16311275
0.20098039 0.20098039 0.20098039
0.25735294 0.25735294 0.25735294
0.35392157 0.35392157 0.35392157
0.45441176 0.45441176 0.45441176
0.54901961 0.54901961 0.54901961
0.19558824 0.19558824 0.19558824
0.19166667 0.19166667 0.19166667
0.21875 0.21875 0.21875
0.23768382 0.23768382 0.23768382
0.30588235 0.30588235 0.30588235
0.35447304 0.35447304 0.35447304
0.43284314 0.43284314 0.43284314
0.5122549 0.5122549 0.5122549
0.59460784 0.59460784 0.59460784
0.3254902 0.3254902 0.3254902
0.32696078 0.32696078 0.32696078
0.35784314 0.35784314 0.35784314
0.38480392 0.38480392 0.38480392
0.4254902 0.4254902 0.4254902
0.46691176 0.46691176 0.46691176
0.5245098 0.5245098 0.5245098
0.58137255 0.58137255 0.58137255
0.64901961 0.64901961 0.64901961
0.46862745 0.46862745 0.46862745
0.47775735 0.47775735 0.47775735
0.49117647 0.49117647 0.49117647
0.51329657 0.51329657 0.51329657
0.54509804 0.54509804 0.54509804
0.57751225 0.57751225 0.57751225
0.61323529 0.61323529 0.61323529
0.66421569 0.66421569 0.66421569
0.71666667 0.71666667 0.71666667
0.6 0.6 0.6
0.61127451 0.61127451 0.61127451
0.62352941 0.62352941 0.62352941
0.63529412 0.63529412 0.63529412
0.65833333 0.65833333 0.65833333
0.68284314 0.68284314 0.68284314
0.70588235 0.70588235 0.70588235
0.74509804 0.74509804 0.74509804
0.78627451 0.78627451 0.78627451
0.72352941 0.72352941 0.72352941
0.73529412 0.73529412 0.73529412
0.74264706 0.74264706 0.74264706
0.74920343 0.74920343 0.74920343
0.7625 0.7625 0.7625
0.78155637 0.78155637 0.78155637
0.79840686 0.79840686 0.79840686
0.82542892 0.82542892 0.82542892
0.83970588 0.83970588 0.83970588
0.83921569 0.83921569 0.83921569
0.83137255 0.83137255 0.83137255
0.83431373 0.83431373 0.83431373
0.84313725 0.84313725 0.84313725
0.84705882 0.84705882 0.84705882
0.85098039 0.85098039 0.85098039
0.87058824 0.87058824 0.87058824
0.88627451 0.88627451 0.88627451
0.88627451 0.88627451 0.88627451
0.026960784 0.026960784 0.026960784
0.034375 0.034375 0.034375
0.04620098 0.04620098 0.04620098
0.049203431 0.049203431 0.049203431
0.097058824 0.097058824 0.097058824
0.15147059 0.15147059 0.15147059
0.24215686 0.24215686 0.24215686
0.3622549 0.3622549 0.3622549
0.48235294 0.48235294 0.48235294
0.041666667 0.041666667 0.041666667
0.052941176 0.052941176 0.052941176
0.073406863 0.073406863 0.073406863
0.099019608 0.099019608 0.099019608
0.15147059 0.15147059 0.15147059
0.20929075 0.20929075 0.20929075
0.29162071 0.29162071 0.29162071
0.40441176 0.40441176 0.40441176
0.50539216 0.50539216 0.50539216
0.12990196 0.12990196 0.12990196
0.12598039 0.12598039 0.12598039
0.14460784 0.14460784 0.14460784
0.18578431 0.18578431 0.18578431
0.22647059 0.22647059 0.22647059
0.28394608 0.28394608 0.28394608
0.36519608 0.36519608 0.36519608
0.46574755 0.46574755 0.46574755
0.55490196 0.55490196 0.55490196
0.22254902 0.22254902 0.22254902
0.22077206 0.22077206 0.22077206
0.24754902 0.24754902 0.24754902
0.2792356 0.2792356 0.2792356
0.32401961 0.32401961 0.32401961
0.37696078 0.37696078 0.37696078
0.4441636 0.4441636 0.4441636
0.51726409 0.51726409 0.51726409
0.59442402 0.59442402 0.59442402
0.35220588 0.35220588 0.35220588
0.35591299 0.35591299 0.35591299
0.37634804 0.37634804 0.37634804
0.40196078 0.40196078 0.40196078
0.43321078 0.43321078 0.43321078
0.48039216 0.48039216 0.48039216
0.53241422 0.53241422 0.53241422
0.58504902 0.58504902 0.58504902
0.65269608 0.65269608 0.65269608
0.48400735 0.48400735 0.48400735
0.49166667 0.49166667 0.49166667
0.50245098 0.50245098 0.50245098
0.5207644 0.5207644 0.5207644
0.55009191 0.55009191 0.55009191
0.58235294 0.58235294 0.58235294
0.62193627 0.62193627 0.62193627
0.66999081 0.66999081 0.66999081
0.72401961 0.72401961 0.72401961
0.60784314 0.60784314 0.60784314
0.61879596 0.61879596 0.61879596
0.63036152 0.63036152 0.63036152
0.63903186 0.63903186 0.63903186
0.66072304 0.66072304 0.66072304
0.68662684 0.68662684 0.68662684
0.70980392 0.70980392 0.70980392
0.74509804 0.74509804 0.74509804
0.78921569 0.78921569 0.78921569
0.73872549 0.73872549 0.73872549
0.74296875 0.74296875 0.74296875
0.74313725 0.74313725 0.74313725
0.75075827 0.75075827 0.75075827
0.7625 0.7625 0.7625
0.77941176 0.77941176 0.77941176
0.79852941 0.79852941 0.79852941
0.82591912 0.82591912 0.82591912
0.84019608 0.84019608 0.84019608
0.83921569 0.83921569 0.83921569
0.83572304 0.83572304 0.83572304
0.83909314 0.83909314 0.83909314
0.85441176 0.85441176 0.85441176
0.84338235 0.84338235 0.84338235
0.83302696 0.83302696 0.83302696
0.87414216 0.87414216 0.87414216
0.89019608 0.89019608 0.89019608
0.88627451 0.88627451 0.88627451
0.031372549 0.031372549 0.031372549
0.046568627 0.046568627 0.046568627
0.050245098 0.050245098 0.050245098
0.062745098 0.062745098 0.062745098
0.13235294 0.13235294 0.13235294
0.20196078 0.20196078 0.20196078
0.28823529 0.28823529 0.28823529
0.40870098 0.40870098 0.40870098
0.50490196 0.50490196 0.50490196
0.075980392 0.075980392 0.075980392
0.087745098 0.087745098 0.087745098
0.10582108 0.10582108 0.10582108
0.13356311 0.13356311 0.13356311
0.19019608 0.19019608 0.19019608
0.25494792 0.25494792 0.25494792
0.34117647 0.34117647 0.34117647
0.43550858 0.43550858 0.43550858
0.52267157 0.52267157 0.52267157
0.15294118 0.15294118 0.15294118
0.15772059 0.15772059 0.15772059
0.18094363 0.18094363 0.18094363
0.21528799 0.21528799 0.21528799
0.25698529 0.25698529 0.25698529
0.32224265 0.32224265 0.32224265
0.4 0.4 0.4
0.48578431 0.48578431 0.48578431
0.56593137 0.56593137 0.56593137
0.25196078 0.25196078 0.25196078
0.25588235 0.25588235 0.25588235
0.27760417 0.27760417 0.27760417
0.30931373 0.30931373 0.30931373
0.34877451 0.34877451 0.34877451
0.40931373 0.40931373 0.40931373
0.4692402 0.4692402 0.4692402
0.54227941 0.54227941 0.54227941
0.61323529 0.61323529 0.61323529
0.37990196 0.37990196 0.37990196
0.3872549 0.3872549 0.3872549
0.40294118 0.40294118 0.40294118
0.425 0.425 0.425
0.45588235 0.45588235 0.45588235
0.50196078 0.50196078 0.50196078
0.55735294 0.55735294 0.55735294
0.61372549 0.61372549 0.61372549
0.67696078 0.67696078 0.67696078
0.50894608 0.50894608 0.50894608
0.51470588 0.51470588 0.51470588
0.52647059 0.52647059 0.52647059
0.54253983 0.54253983 0.54253983
0.57009804 0.57009804 0.57009804
0.60098039 0.60098039 0.60098039
0.64362745 0.64362745 0.64362745
0.69313725 0.69313725 0.69313725
0.74203431 0.74203431 0.74203431
0.63039216 0.63039216 0.63039216
0.63814338 0.63814338 0.63814338
0.64644608 0.64644608 0.64644608
0.65438113 0.65438113 0.65438113
0.67696078 0.67696078 0.67696078
0.70147059 0.70147059 0.70147059
0.72506127 0.72506127 0.72506127
0.75661765 0.75661765 0.75661765
0.79019608 0.79019608 0.79019608
0.75085784 0.75085784 0.75085784
0.75085784 0.75085784 0.75085784
0.75355392 0.75355392 0.75355392
0.76030944 0.76030944 0.76030944
0.7716299 0.7716299 0.7716299
0.78681066 0.78681066 0.78681066
0.80931373 0.80931373 0.80931373
0.83556985 0.83556985 0.83556985
0.84411765 0.84411765 0.84411765
0.83921569 0.83921569 0.83921569
0.84313725 0.84313725 0.84313725
0.85465686 0.85465686 0.85465686
0.85490196 0.85490196 0.85490196
0.86176471 0.86176471 0.86176471
0.86715686 0.86715686 0.86715686
0.88553922 0.88553922 0.88553922
0.89362745 0.89362745 0.89362745
0.89019608 0.89019608 0.89019608
0.023529412 0.023529412 0.023529412
0.054718137 0.054718137 0.054718137
0.079901961 0.079901961 0.079901961
0.125 0.125 0.125
0.17573529 0.17573529 0.17573529
0.22738971 0.22738971 0.22738971
0.32585784 0.32585784 0.32585784
0.44362745 0.44362745 0.44362745
0.55147059 0.55147059 0.55147059
0.10557598 0.10557598 0.10557598
0.11846661 0.11846661 0.11846661
0.14166667 0.14166667 0.14166667
0.17961091 0.17961091 0.17961091
0.23014706 0.23014706 0.23014706
0.28805147 0.28805147 0.28805147
0.37843137 0.37843137 0.37843137
0.47794118 0.47794118 0.47794118
0.56292892 0.56292892 0.56292892
0.19056373 0.19056373 0.19056373
0.19889706 0.19889706 0.19889706
0.2245098 0.2245098 0.2245098
0.25539216 0.25539216 0.25539216
0.29460784 0.29460784 0.29460784
0.36236213 0.36236213 0.36236213
0.43498775 0.43498775 0.43498775
0.51790748 0.51790748 0.51790748
0.59362745 0.59362745 0.59362745
0.28768382 0.28768382 0.28768382
0.29294577 0.29294577 0.29294577
0.31490502 0.31490502 0.31490502
0.34503676 0.34503676 0.34503676
0.38431373 0.38431373 0.38431373
0.44019608 0.44019608 0.44019608
0.49803922 0.49803922 0.49803922
0.57352941 0.57352941 0.57352941
0.64656863 0.64656863 0.64656863
0.40637255 0.40637255 0.40637255
0.41372549 0.41372549 0.41372549
0.43284314 0.43284314 0.43284314
0.45588235 0.45588235 0.45588235
0.48382353 0.48382353 0.48382353
0.53284314 0.53284314 0.53284314
0.58676471 0.58676471 0.58676471
0.64476103 0.64476103 0.64476103
0.7004902 0.7004902 0.7004902
0.52990196 0.52990196 0.52990196
0.53743873 0.53743873 0.53743873
0.55568321 0.55568321 0.55568321
0.57156863 0.57156863 0.57156863
0.59852941 0.59852941 0.59852941
0.63520987 0.63520987 0.63520987
0.67340686 0.67340686 0.67340686
0.72107843 0.72107843 0.72107843
0.75140931 0.75140931 0.75140931
0.64889706 0.64889706 0.64889706
0.65281863 0.65281863 0.65281863
0.66724877 0.66724877 0.66724877
0.68051471 0.68051471 0.68051471
0.70343137 0.70343137 0.70343137
0.72912071 0.72912071 0.72912071
0.75076593 0.75076593 0.75076593
0.77892157 0.77892157 0.77892157
0.80159314 0.80159314 0.80159314
0.76096814 0.76096814 0.76096814
0.75882353 0.75882353 0.75882353
0.76585478 0.76585478 0.76585478
0.77658548 0.77658548 0.77658548
0.79592525 0.79592525 0.79592525
0.80931373 0.80931373 0.80931373
0.82362132 0.82362132 0.82362132
0.84095435 0.84095435 0.84095435
0.85196078 0.85196078 0.85196078
0.8495098 0.8495098 0.8495098
0.84705882 0.84705882 0.84705882
0.85490196 0.85490196 0.85490196
0.8661152 0.8661152 0.8661152
0.87769608 0.87769608 0.87769608
0.88480392 0.88480392 0.88480392
0.89080882 0.89080882 0.89080882
0.88970588 0.88970588 0.88970588
0.88382353 0.88382353 0.88382353
0.096078431 0.096078431 0.096078431
0.089460784 0.089460784 0.089460784
0.12745098 0.12745098 0.12745098
0.17303922 0.17303922 0.17303922
0.22352941 0.22352941 0.22352941
0.28333333 0.28333333 0.28333333
0.36617647 0.36617647 0.36617647
0.47818627 0.47818627 0.47818627
0.58627451 0.58627451 0.58627451
0.16151961 0.16151961 0.16151961
0.17279412 0.17279412 0.17279412
0.19969363 0.19969363 0.19969363
0.23014706 0.23014706 0.23014706
0.27745098 0.27745098 0.27745098
0.33529412 0.33529412 0.33529412
0.41715686 0.41715686 0.41715686
0.51443015 0.51443015 0.51443015
0.60735294 0.60735294 0.60735294
0.23872549 0.23872549 0.23872549
0.25931373 0.25931373 0.25931373
0.28627451 0.28627451 0.28627451
0.30931373 0.30931373 0.30931373
0.35 0.35 0.35
0.4127451 0.4127451 0.4127451
0.48529412 0.48529412 0.48529412
0.57040441 0.57040441 0.57040441
0.63627451 0.63627451 0.63627451
0.33921569 0.33921569 0.33921569
0.35459559 0.35459559 0.35459559
0.37800245 0.37800245 0.37800245
0.39877451 0.39877451 0.39877451
0.43676471 0.43676471 0.43676471
0.48918505 0.48918505 0.48918505
0.54411765 0.54411765 0.54411765
0.62190564 0.62190564 0.62190564
0.67230392 0.67230392 0.67230392
0.45196078 0.45196078 0.45196078
0.45968137 0.45968137 0.45968137
0.47303922 0.47303922 0.47303922
0.4939951 0.4939951 0.4939951
0.52794118 0.52794118 0.52794118
0.57083333 0.57083333 0.57083333
0.61960784 0.61960784 0.61960784
0.68137255 0.68137255 0.68137255
0.71666667 0.71666667 0.71666667
0.56078431 0.56078431 0.56078431
0.56960784 0.56960784 0.56960784
0.58786765 0.58786765 0.58786765
0.60637255 0.60637255 0.60637255
0.63455882 0.63455882 0.63455882
0.66666667 0.66666667 0.66666667
0.6971201 0.6971201 0.6971201
0.73495711 0.73495711 0.73495711
0.7629902 0.7629902 0.7629902
0.66764706 0.66764706 0.66764706
0.67512255 0.67512255 0.67512255
0.68713235 0.68713235 0.68713235
0.70759804 0.70759804 0.70759804
0.73088235 0.73088235 0.73088235
0.74779412 0.74779412 0.74779412
0.76519608 0.76519608 0.76519608
0.79197304 0.79197304 0.79197304
0.81519608 0.81519608 0.81519608
0.77426471 0.77426471 0.77426471
0.77208946 0.77208946 0.77208946
0.77794118 0.77794118 0.77794118
0.79353554 0.79353554 0.79353554
0.81409314 0.81409314 0.81409314
0.82352941 0.82352941 0.82352941
0.83241422 0.83241422 0.83241422
0.85220588 0.85220588 0.85220588
0.86740196 0.86740196 0.86740196
0.86862745 0.86862745 0.86862745
0.86078431 0.86078431 0.86078431
0.87058824 0.87058824 0.87058824
0.87328431 0.87328431 0.87328431
0.88137255 0.88137255 0.88137255
0.89166667 0.89166667 0.89166667
0.90245098 0.90245098 0.90245098
0.89362745 0.89362745 0.89362745
0.88235294 0.88235294 0.88235294
0.10980392 0.10980392 0.10980392
0.16844363 0.16844363 0.16844363
0.19840686 0.19840686 0.19840686
0.225 0.225 0.225
0.30441176 0.30441176 0.30441176
0.34558824 0.34558824 0.34558824
0.43186275 0.43186275 0.43186275
0.5245098 0.5245098 0.5245098
0.60539216 0.60539216 0.60539216
0.2127451 0.2127451 0.2127451
0.24362745 0.24362745 0.24362745
0.27112439 0.27112439 0.27112439
0.29577972 0.29577972 0.29577972
0.34583333 0.34583333 0.34583333
0.40490196 0.40490196 0.40490196
0.47904412 0.47904412 0.47904412
0.56609222 0.56609222 0.56609222
0.63088235 0.63088235 0.63088235
0.31127451 0.31127451 0.31127451
0.3310049 0.3310049 0.3310049
0.35597426 0.35597426 0.35597426
0.37670037 0.37670037 0.37670037
0.4129902 0.4129902 0.4129902
0.47058824 0.47058824 0.47058824
0.53909314 0.53909314 0.53909314
0.620144 0.620144 0.620144
0.66323529 0.66323529 0.66323529
0.40392157 0.40392157 0.40392157
0.42468597 0.42468597 0.42468597
0.44669118 0.44669118 0.44669118
0.46276808 0.46276808 0.46276808
0.49852941 0.49852941 0.49852941
0.54748775 0.54748775 0.54748775
0.60196078 0.60196078 0.60196078
0.66342678 0.66342678 0.66342678
0.69803922 0.69803922 0.69803922
0.51078431 0.51078431 0.51078431
0.52215074 0.52215074 0.52215074
0.53633578 0.53633578 0.53633578
0.55 0.55 0.55
0.5872549 0.5872549 0.5872549
0.62916667 0.62916667 0.62916667
0.66727941 0.66727941 0.66727941
0.70906863 0.70906863 0.70906863
0.7379902 0.7379902 0.7379902
0.61127451 0.61127451 0.61127451
0.61911765 0.61911765 0.61911765
0.63051471 0.63051471 0.63051471
0.64714308 0.64714308 0.64714308
0.67542892 0.67542892 0.67542892
0.7 0.7 0.7
0.72470895 0.72470895 0.72470895
0.75784314 0.75784314 0.75784314
0.78333333 0.78333333 0.78333333
0.71066176 0.71066176 0.71066176
0.71421569 0.71421569 0.71421569
0.72098652 0.72098652 0.72098652
0.73345588 0.73345588 0.73345588
0.7502451 0.7502451 0.7502451
0.76444547 0.76444547 0.76444547
0.78471201 0.78471201 0.78471201
0.81176471 0.81176471 0.81176471
0.83382353 0.83382353 0.83382353
0.80833333 0.80833333 0.80833333
0.804519 0.804519 0.804519
0.80828738 0.80828738 0.80828738
0.81855852 0.81855852 0.81855852
0.8286152 0.8286152 0.8286152
0.83645833 0.83645833 0.83645833
0.84679841 0.84679841 0.84679841
0.86753983 0.86753983 0.86753983
0.88382353 0.88382353 0.88382353
0.88627451 0.88627451 0.88627451
0.87598039 0.87598039 0.87598039
0.88345588 0.88345588 0.88345588
0.89411765 0.89411765 0.89411765
0.89166667 0.89166667 0.89166667
0.90042892 0.90042892 0.90042892
0.91764706 0.91764706 0.91764706
0.90294118 0.90294118 0.90294118
0.8877451 0.8877451 0.8877451
0.21862745 0.21862745 0.21862745
0.24068627 0.24068627 0.24068627
0.27941176 0.27941176 0.27941176
0.32303922 0.32303922 0.32303922
0.3754902 0.3754902 0.3754902
0.42904412 0.42904412 0.42904412
0.49191176 0.49191176 0.49191176
0.57156863 0.57156863 0.57156863
0.64901961 0.64901961 0.64901961
0.30833333 0.30833333 0.30833333
0.32173713 0.32173713 0.32173713
0.3426777 0.3426777 0.3426777
0.37856924 0.37856924 0.37856924
0.4276348 0.4276348 0.4276348
0.47120098 0.47120098 0.47120098
0.53238358 0.53238358 0.53238358
0.61378676 0.61378676 0.61378676
0.66727941 0.66727941 0.66727941
0.40392157 0.40392157 0.40392157
0.41063113 0.41063113 0.41063113
0.42775735 0.42775735 0.42775735
0.45579044 0.45579044 0.45579044
0.49031863 0.49031863 0.49031863
0.53042279 0.53042279 0.53042279
0.59099265 0.59099265 0.59099265
0.65147059 0.65147059 0.65147059
0.69411765 0.69411765 0.69411765
0.48382353 0.48382353 0.48382353
0.49901961 0.49901961 0.49901961
0.51421569 0.51421569 0.51421569
0.53541667 0.53541667 0.53541667
0.56960784 0.56960784 0.56960784
0.60772059 0.60772059 0.60772059
0.65392157 0.65392157 0.65392157
0.69050245 0.69050245 0.69050245
0.73137255 0.73137255 0.73137255
0.58039216 0.58039216 0.58039216
0.59215686 0.59215686 0.59215686
0.60392157 0.60392157 0.60392157
0.62028186 0.62028186 0.62028186
0.64264706 0.64264706 0.64264706
0.66556373 0.66556373 0.66556373
0.70588235 0.70588235 0.70588235
0.73676471 0.73676471 0.73676471
0.76764706 0.76764706 0.76764706
0.67696078 0.67696078 0.67696078
0.68088235 0.68088235 0.68088235
0.68835784 0.68835784 0.68835784
0.69757966 0.69757966 0.69757966
0.71176471 0.71176471 0.71176471
0.73480392 0.73480392 0.73480392
0.75784314 0.75784314 0.75784314
0.78480392 0.78480392 0.78480392
0.80784314 0.80784314 0.80784314
0.76470588 0.76470588 0.76470588
0.76078431 0.76078431 0.76078431
0.75980392 0.75980392 0.75980392
0.76289828 0.76289828 0.76289828
0.77598039 0.77598039 0.77598039
0.79145221 0.79145221 0.79145221
0.81176471 0.81176471 0.81176471
0.83673407 0.83673407 0.83673407
0.85686275 0.85686275 0.85686275
0.84019608 0.84019608 0.84019608
0.83247549 0.83247549 0.83247549
0.83627451 0.83627451 0.83627451
0.83671875 0.83671875 0.83671875
0.846875 0.846875 0.846875
0.8542739 0.8542739 0.8542739
0.86534926 0.86534926 0.86534926
0.88452819 0.88452819 0.88452819
0.90257353 0.90257353 0.90257353
0.89117647 0.89117647 0.89117647
0.89117647 0.89117647 0.89117647
0.89117647 0.89117647 0.89117647
0.89803922 0.89803922 0.89803922
0.91078431 0.91078431 0.91078431
0.91764706 0.91764706 0.91764706
0.92647059 0.92647059 0.92647059
0.92647059 0.92647059 0.92647059
0.92352941 0.92352941 0.92352941
0.31960784 0.31960784 0.31960784
0.33872549 0.33872549 0.33872549
0.38431373 0.38431373 0.38431373
0.42352941 0.42352941 0.42352941
0.46593137 0.46593137 0.46593137
0.51813725 0.51813725 0.51813725
0.58382353 0.58382353 0.58382353
0.64460784 0.64460784 0.64460784
0.68627451 0.68627451 0.68627451
0.40392157 0.40392157 0.40392157
0.41128217 0.41128217 0.41128217
0.44146752 0.44146752 0.44146752
0.47352941 0.47352941 0.47352941
0.51596201 0.51596201 0.51596201
0.55463388 0.55463388 0.55463388
0.61029412 0.61029412 0.61029412
0.66334252 0.66334252 0.66334252
0.70582108 0.70582108 0.70582108
0.49227941 0.49227941 0.49227941
0.49656863 0.49656863 0.49656863
0.50441176 0.50441176 0.50441176
0.53480392 0.53480392 0.53480392
0.56617647 0.56617647 0.56617647
0.60445772 0.60445772 0.60445772
0.64690564 0.64690564 0.64690564
0.68644301 0.68644301 0.68644301
0.72904412 0.72904412 0.72904412
0.56176471 0.56176471 0.56176471
0.57069547 0.57069547 0.57069547
0.58048407 0.58048407 0.58048407
0.60441176 0.60441176 0.60441176
0.62916667 0.62916667 0.62916667
0.65833333 0.65833333 0.65833333
0.69050245 0.69050245 0.69050245
0.729519 0.729519 0.729519
0.77028186 0.77028186 0.77028186
0.6502451 0.6502451 0.6502451
0.65784314 0.65784314 0.65784314
0.65955882 0.65955882 0.65955882
0.67254902 0.67254902 0.67254902
0.69301471 0.69301471 0.69301471
0.71004902 0.71004902 0.71004902
0.74068627 0.74068627 0.74068627
0.77156863 0.77156863 0.77156863
0.80245098 0.80245098 0.80245098
0.73284314 0.73284314 0.73284314
0.73096661 0.73096661 0.73096661
0.732981 0.732981 0.732981
0.74498315 0.74498315 0.74498315
0.75465686 0.75465686 0.75465686
0.76979933 0.76979933 0.76979933
0.78872549 0.78872549 0.78872549
0.81568627 0.81568627 0.81568627
0.83903186 0.83903186 0.83903186
0.79460784 0.79460784 0.79460784
0.79460784 0.79460784 0.79460784
0.79852941 0.79852941 0.79852941
0.80667892 0.80667892 0.80667892
0.81813725 0.81813725 0.81813725
0.82745098 0.82745098 0.82745098
0.84485294 0.84485294 0.84485294
0.86470588 0.86470588 0.86470588
0.88382353 0.88382353 0.88382353
0.85637255 0.85637255 0.85637255
0.86029412 0.86029412 0.86029412
0.86029412 0.86029412 0.86029412
0.86811428 0.86811428 0.86811428
0.87990196 0.87990196 0.87990196
0.88177849 0.88177849 0.88177849
0.88855699 0.88855699 0.88855699
0.91046262 0.91046262 0.91046262
0.92297794 0.92297794 0.92297794
0.90980392 0.90980392 0.90980392
0.91421569 0.91421569 0.91421569
0.90686275 0.90686275 0.90686275
0.91813725 0.91813725 0.91813725
0.93553922 0.93553922 0.93553922
0.9254902 0.9254902 0.9254902
0.93345588 0.93345588 0.93345588
0.94607843 0.94607843 0.94607843
0.95343137 0.95343137 0.95343137
0.45098039 0.45098039 0.45098039
0.44215686 0.44215686 0.44215686
0.48235294 0.48235294 0.48235294
0.5004902 0.5004902 0.5004902
0.54509804 0.54509804 0.54509804
0.59117647 0.59117647 0.59117647
0.6372549 0.6372549 0.6372549
0.68333333 0.68333333 0.68333333
0.71764706 0.71764706 0.71764706
0.50098039 0.50098039 0.50098039
0.50839461 0.50839461 0.50839461
0.51029412 0.51029412 0.51029412
0.54656863 0.54656863 0.54656863
0.57965686 0.57965686 0.57965686
0.6127451 0.6127451 0.6127451
0.66421569 0.66421569 0.66421569
0.70637255 0.70637255 0.70637255
0.74803922 0.74803922 0.74803922
0.5627451 0.5627451 0.5627451
0.5627451 0.5627451 0.5627451
0.57058824 0.57058824 0.57058824
0.6004902 0.6004902 0.6004902
0.63137255 0.63137255 0.63137255
0.66323529 0.66323529 0.66323529
0.70416667 0.70416667 0.70416667
0.72708333 0.72708333 0.72708333
0.76568627 0.76568627 0.76568627
0.63480392 0.63480392 0.63480392
0.625 0.625 0.625
0.63529412 0.63529412 0.63529412
0.67156863 0.67156863 0.67156863
0.68210784 0.68210784 0.68210784
0.70980392 0.70980392 0.70980392
0.73676471 0.73676471 0.73676471
0.76795343 0.76795343 0.76795343
0.81029412 0.81029412 0.81029412
0.70588235 0.70588235 0.70588235
0.69828431 0.69828431 0.69828431
0.68970588 0.68970588 0.68970588
0.72401961 0.72401961 0.72401961
0.74019608 0.74019608 0.74019608
0.76078431 0.76078431 0.76078431
0.76764706 0.76764706 0.76764706
0.80245098 0.80245098 0.80245098
0.8372549 0.8372549 0.8372549
0.75980392 0.75980392 0.75980392
0.76372549 0.76372549 0.76372549
0.77095588 0.77095588 0.77095588
0.78670343 0.78670343 0.78670343
0.79509804 0.79509804 0.79509804
0.78878676 0.78878676 0.78878676
0.80968137 0.80968137 0.80968137
0.84136029 0.84136029 0.84136029
0.87598039 0.87598039 0.87598039
0.82156863 0.82156863 0.82156863
0.8254902 0.8254902 0.8254902
0.83235294 0.83235294 0.83235294
0.83688725 0.83688725 0.83688725
0.84117647 0.84117647 0.84117647
0.85012255 0.85012255 0.85012255
0.86544118 0.86544118 0.86544118
0.88860294 0.88860294 0.88860294
0.90686275 0.90686275 0.90686275
0.88333333 0.88333333 0.88333333
0.8872549 0.8872549 0.8872549
0.89117647 0.89117647 0.89117647
0.88333333 0.88333333 0.88333333
0.89068627 0.89068627 0.89068627
0.89509804 0.89509804 0.89509804
0.91127451 0.91127451 0.91127451
0.93082108 0.93082108 0.93082108
0.9377451 0.9377451 0.9377451
0.93333333 0.93333333 0.93333333
0.94460784 0.94460784 0.94460784
0.94215686 0.94215686 0.94215686
0.92941176 0.92941176 0.92941176
0.93333333 0.93333333 0.93333333
0.93333333 0.93333333 0.93333333
0.95 0.95 0.95
0.98088235 0.98088235 0.98088235
0.97647059 0.97647059 0.97647059
