site/assets/luts/natron-haldclut--golden-vibrant--7e892056e.cube
# LUTr-Project: LUTr — LUTrepository
# LUTr-Schema-Version: 1
# LUTr-ID: natron-haldclut--golden-vibrant--7e892056e
# LUTr-Title: golden vibrant
# LUTr-Collection: Natron HaldCLUT
# LUTr-Collection-ID: natron-haldclut-presets
# LUTr-Source: https://github.com/NatronGitHub/clut
# LUTr-Source-File: submissions/natron-haldclut-presets/various/golden_vibrant.png
# LUTr-Source-Format: PNG
# LUTr-Source-SHA256: 0eedaaafd5036cfce0dda00d22d3f9e80555e52aa30fed6f9e6685cb37cfa17b
# LUTr-License: CC-BY-SA-4.0
# LUTr-License-URL: https://github.com/NatronGitHub/clut#license
# LUTr-Tags: creative, film, film-emulation, hald-clut, natron, png, cube
# LUTr-Transform-Class: film-emulation
# LUTr-Input-Color-Space: srgb
# LUTr-Output-Color-Space: srgb
# LUTr-Color-Space-Confidence: assumed-display-referred
# LUTr-Conversion-Method: PNG LUT image decoded at 16-bit and sampled to 25x25x25 3D CUBE
# LUTr-Conversion-Date: 2026-07-27
# LUTr-Conversion-Tool: LUTr scripts/convert-all-to-cube.mjs
# LUTr-Conversion-Grid: 25x25x25
# LUTr-Note: Preserve this metadata and the upstream license notices when redistributing.
TITLE "golden vibrant"
LUT_3D_SIZE 5
DOMAIN_MIN 0 0 0
DOMAIN_MAX 1 1 1
0.0039215686 0.0078431373 0.078431373
0.18039216 0.041176471 0.095098039
0.55098039 0.01372549 0.1372549
0.91862745 0.023529412 0.094117647
0.98823529 0.019607843 0.078431373
0.015686275 0.25 0.10490196
0.17156863 0.24215686 0.084558824
0.54313725 0.2372549 0.096078431
0.91078431 0.23602941 0.098039216
0.99509804 0.23529412 0.07254902
0.019607843 0.5627451 0.10980392
0.18431373 0.56078431 0.090196078
0.53137255 0.56666667 0.082352941
0.90539216 0.57647059 0.10637255
0.98627451 0.5627451 0.084313725
0.0068627451 0.85882353 0.081372549
0.18039216 0.85318627 0.095098039
0.53970588 0.85833333 0.090196078
0.90612745 0.86102941 0.088235294
0.98823529 0.85196078 0.082352941
0.0039215686 0.99215686 0.08627451
0.17156863 0.99313725 0.080392157
0.54705882 0.98039216 0.084313725
0.91470588 0.97647059 0.090196078
0.97254902 0.99215686 0.094117647
0.012745098 0.023529412 0.27156863
0.17647059 0.0125 0.27156863
0.54607843 0.010784314 0.26372549
0.91862745 0.030392157 0.2754902
0.98529412 0.015686275 0.2754902
0.030392157 0.24313725 0.27156863
0.17781863 0.24607843 0.27175245
0.53259804 0.2377451 0.27389706
0.91194853 0.22800245 0.27493873
0.98823529 0.23823529 0.2754902
0.016666667 0.55882353 0.26813725
0.1814951 0.57205882 0.26654412
0.54705882 0.57058824 0.2754902
0.91642157 0.56862745 0.27156863
0.98039216 0.56666667 0.2754902
0.014705882 0.85784314 0.26691176
0.18406863 0.84981618 0.27420343
0.53958333 0.85747549 0.2754902
0.91151961 0.8627451 0.27254902
0.98431373 0.85392157 0.2754902
0.031372549 0.99215686 0.26764706
0.16936275 0.9879902 0.26764706
0.54313725 0.98676471 0.27058824
0.91470588 0.98431373 0.2745098
0.97647059 0.9754902 0.2754902
0.035294118 0.011764706 0.45294118
0.1872549 0.015686275 0.45686275
0.54803922 0.028431373 0.45392157
0.91862745 0.029411765 0.46519608
0.96862745 0.019607843 0.47254902
0.020588235 0.23431373 0.46372549
0.18370098 0.23921569 0.46151961
0.54313725 0.24289216 0.46078431
0.90612745 0.24215686 0.46053922
0.98823529 0.23921569 0.46078431
0.019607843 0.56862745 0.46470588
0.18333333 0.56887255 0.45686275
0.53578431 0.56911765 0.45980392
0.91862745 0.56936275 0.46470588
0.97647059 0.56078431 0.46470588
0.012745098 0.85882353 0.45833333
0.18039216 0.85392157 0.45894608
0.54926471 0.86004902 0.45637255
0.91666667 0.85784314 0.45894608
0.98480392 0.85098039 0.46862745
0.0039215686 0.99803922 0.46470588
0.19460784 0.99019608 0.46078431
0.53823529 0.99215686 0.46078431
0.91862745 0.98186275 0.46862745
0.99215686 0.98039216 0.46470588
0.019607843 0.015686275 0.6754902
0.17941176 0.019607843 0.68235294
0.54215686 0.015686275 0.68676471
0.91078431 0.019607843 0.66985294
0.98823529 0.012745098 0.67156863
0.044117647 0.24901961 0.6754902
0.1745098 0.23584559 0.67824755
0.53921569 0.24362745 0.67977941
0.91176471 0.23841912 0.67604167
0.98823529 0.24509804 0.66397059
0.02254902 0.57058824 0.68186275
0.18088235 0.57254902 0.67708333
0.54362745 0.5627451 0.68308824
0.89803922 0.57414216 0.66813725
0.96862745 0.56421569 0.68921569
0.024509804 0.85882353 0.67647059
0.17965686 0.85882353 0.67977941
0.54852941 0.85490196 0.67794118
0.91470588 0.85563725 0.68014706
0.98431373 0.85490196 0.69044118
0.016666667 0.98039216 0.67647059
0.18333333 0.98823529 0.66862745
0.54558824 0.98480392 0.67352941
0.90980392 0.98553922 0.66740196
0.98823529 0.98823529 0.70294118
0.019607843 0.0078431373 0.95294118
0.18431373 0.033333333 0.95392157
0.54117647 0.019607843 0.96078431
0.90980392 0.0098039216 0.95882353
0.99215686 0.02745098 0.95686275
0.010784314 0.23039216 0.95490196
0.18039216 0.23823529 0.94019608
0.55098039 0.23921569 0.94558824
0.90392157 0.24215686 0.94803922
0.96568627 0.23529412 0.95980392
0.017647059 0.55882353 0.92745098
0.18823529 0.56519608 0.93676471
0.54901961 0.55882353 0.9245098
0.89803922 0.57254902 0.93333333
0.98235294 0.56862745 0.95294118
0.019607843 0.85882353 0.94019608
0.18039216 0.85882353 0.94436275
0.53529412 0.85882353 0.94656863
0.91078431 0.8627451 0.9497549
0.97941176 0.85392157 0.95294118
0.011764706 0.99607843 0.96862745
0.18823529 0.98039216 0.93039216
0.53921569 0.97254902 0.95098039
0.91470588 0.97941176 0.94607843
0.96470588 0.98823529 0.92941176
