site/assets/luts/natron-haldclut--bleach-bypass--8b573b96c.cube
# LUTr-Project: LUTr — LUTrepository
# LUTr-Schema-Version: 1
# LUTr-ID: natron-haldclut--bleach-bypass--8b573b96c
# LUTr-Title: bleach bypass
# LUTr-Collection: Natron HaldCLUT
# LUTr-Collection-ID: natron-haldclut-presets
# LUTr-Source: https://github.com/NatronGitHub/clut
# LUTr-Source-File: submissions/natron-haldclut-presets/various/bleach_bypass.png
# LUTr-Source-Format: PNG
# LUTr-Source-SHA256: 21cdfec3bc004259ac915a1909e2b7878531d1650337a2e243afe873e50007bf
# LUTr-License: CC-BY-SA-4.0
# LUTr-License-URL: https://github.com/NatronGitHub/clut#license
# LUTr-Tags: creative, film, film-emulation, hald-clut, natron, png, cube
# LUTr-Transform-Class: film-emulation
# LUTr-Input-Color-Space: srgb
# LUTr-Output-Color-Space: srgb
# LUTr-Color-Space-Confidence: assumed-display-referred
# LUTr-Conversion-Method: PNG LUT image decoded at 16-bit and sampled to 25x25x25 3D CUBE
# LUTr-Conversion-Date: 2026-07-27
# LUTr-Conversion-Tool: LUTr scripts/convert-all-to-cube.mjs
# LUTr-Conversion-Grid: 25x25x25
# LUTr-Note: Preserve this metadata and the upstream license notices when redistributing.
TITLE "bleach bypass"
LUT_3D_SIZE 9
DOMAIN_MIN 0 0 0
DOMAIN_MAX 1 1 1
0.0078431373 0.0078431373 0.0078431373
0.0078431373 0.0039215686 0.0078431373
0.0039215686 0.0039215686 0.0039215686
0.025980392 0.0078431373 0.0039215686
0.037254902 0.011764706 0.0078431373
0.015686275 0.0039215686 0.0039215686
0.0078431373 0.0039215686 0.0039215686
0.011764706 0.0039215686 0.0039215686
0.011764706 0.0039215686 0.0039215686
0.0078431373 0.01127451 0.0078431373
0.0039215686 0.0078431373 0.0048406863
0.0039215686 0.00098039216 0.0039215686
0.022242647 0.0065563725 0.0039215686
0.035294118 0.0078431373 0.006127451
0.014215686 0.0039215686 0.0039215686
0.0039215686 0.0013480392 0
0.011764706 0.0073529412 0.0039215686
0.019117647 0.0078431373 0.0039215686
0.0039215686 0.011764706 0.0039215686
0.0039215686 0.0078431373 0.0039215686
0 0.0046568627 0
0.022058824 0.0078431373 0.0039215686
0.040686275 0.0078431373 0.0039215686
0.018137255 0.0039215686 0.0039215686
0.011029412 0.0039215686 0.0039215686
0.024019608 0.0083333333 0.0044117647
0.020588235 0.011764706 0.0078431373
0 0.006372549 0
0.0021446078 0.018321078 0
0.0006127451 0.014338235 0
0.036703431 0.036703431 0
0.073529412 0.010539216 0.0071078431
0.01807598 0.0053921569 0.0039215686
0.0012254902 0.0006127451 0
0.036764706 0.010784314 0.0042279412
0.0014705882 0 0
0 0.29215686 0.0039215686
0.0095588235 0.3002451 0.0022058824
0.046568627 0.28676471 0
0.24313725 0.28529412 0
0.28627451 0.21372549 0.0078431373
0.26838235 0.14411765 0.018382353
0.26617647 0.14411765 0.05245098
0.26078431 0.14730392 0.076960784
0.30784314 0.18431373 0.12941176
0 0.67941176 0.0039215686
0.006372549 0.65882353 0.0039215686
0.14068627 0.65833333 0
0.41911765 0.65533088 0
0.62132353 0.61421569 0.033333333
0.66568627 0.50784314 0.15790441
0.66029412 0.4627451 0.21715686
0.67696078 0.471875 0.28560049
0.61176471 0.42794118 0.30196078
0 0.98823529 0.00098039216
0.00049019608 0.97634804 0
0.21691176 0.95882353 0
0.60539216 0.98811275 0.014828431
0.92352941 0.98186275 0.084313725
0.98958333 0.96678922 0.21617647
0.96519608 0.86960784 0.34338235
0.98590686 0.8182598 0.45882353
0.99705882 0.8127451 0.52352941
0.0034313725 0.99607843 0.0078431373
0.0069240196 0.9995098 0.0039215686
0.32928922 1 0.0039215686
0.73498775 1 0.028921569
0.99215686 1 0.14411765
0.99607843 1 0.26648284
0.99607843 0.99607843 0.47965686
0.99607843 0.99522059 0.63284314
1 1 0.74411765
0.0078431373 1 0.0078431373
0.0034313725 1 0.0039215686
0.4127451 1 0
0.84852941 1 0.050490196
0.99411765 1 0.18431373
0.99754902 1 0.35784314
0.99607843 1 0.48529412
1 1 0.68970588
1 1 0.96862745
0.015686275 0.019607843 0.019607843
0.015686275 0.016115196 0.019607843
0.025980392 0.0087009804 0.023039216
0.041360294 0.0078431373 0.015686275
0.046813725 0.01004902 0.011764706
0.02567402 0.0039215686 0.0076593137
0.022181373 0.0039215686 0.0039215686
0.010845588 0.0039215686 0.0039215686
0.0078431373 0.0039215686 0.0039215686
0.012254902 0.027879902 0.015686275
0.015257353 0.022717525 0.016115196
0.022288603 0.01138174 0.019607843
0.033739277 0.0078431373 0.012193627
0.039215686 0.011764706 0.011764706
0.021790748 0.0039215686 0.0076593137
0.019163603 0.0039215686 0.0039215686
0.0078431373 0.0039215686 0.0039215686
0.019117647 0.01127451 0.0073529412
0.0078431373 0.042279412 0.0088235294
0.011397059 0.053753064 0.011764706
0.015594363 0.024479167 0.011397059
0.031326593 0.018397672 0.0078431373
0.028431373 0.0078431373 0.0078431373
0.024816176 0.0078431373 0.0076133578
0.016973039 0.0054840686 0.0039215686
0.022564338 0.011657475 0.0078431373
0.02745098 0.015686275 0.0078431373
0.0014705882 0.041666667 0.0014705882
0.0039215686 0.081640625 0.0039215686
0.011764706 0.047732843 0.00050551471
0.042769608 0.025191483 0.0014705882
0.018872549 0.0080882353 0.0036764706
0.024808517 0.01126685 0.0040364583
0.0076133578 0.0039215686 0.00085784314
0.021223958 0.010278799 0.0065563725
0.013235294 0.0075367647 0.0036151961
0.0017156863 0.31960784 0.0039215686
0.0039215686 0.31004902 0.0039215686
0.064767157 0.30012255 0
0.21078431 0.28170956 0.0034313725
0.28382353 0.2247549 0.029044118
0.27990196 0.18079044 0.062745098
0.28474265 0.17928922 0.11194853
0.28517157 0.17947304 0.12947304
0.26764706 0.1745098 0.13137255
0.0039215686 0.65520833 0.0039215686
0.012584252 0.66960784 0.0039215686
0.053247549 0.66720282 0
0.36893382 0.642356 0.006372549
0.61063113 0.64215686 0.082689951
0.64411765 0.52034314 0.21305147
0.64512868 0.47956495 0.2897212
0.6346201 0.46192555 0.32307751
0.67383578 0.49411765 0.38314951
0 0.98823529 0.0049019608
0.024310662 0.97745098 0.0039215686
0.12095588 0.98921569 0
0.49955576 0.9801011 0.020450368
0.84344363 0.98008578 0.14172794
0.9919424 0.99178922 0.29796262
0.99831495 0.87279412 0.46265319
0.98151042 0.87576593 0.56220895
0.99276961 0.84534314 0.61482843
0.0039215686 0.99564951 0.02310049
0.0031173407 0.99689032 0.011443015
0.15818015 0.99607843 0.0038602941
0.61964614 1 0.073529412
0.95998775 1 0.21721814
0.99785539 0.99822304 0.37401961
0.99618566 0.99618566 0.54352022
1 0.99607843 0.71317402
1 1 0.83284314
0.0078431373 1 0.023529412
0.0039215686 1 0.011335784
0.26495098 1 0.0025735294
0.72941176 0.99626225 0.12058824
0.9745098 1 0.27156863
0.99607843 1 0.44019608
0.99644608 1 0.62487745
1 1 0.82015931
1 0.99607843 0.97303922
0.023529412 0.031372549 0.031372549
0.031372549 0.024019608 0.035294118
0.042156863 0.012745098 0.039215686
0.061764706 0.0078431373 0.025
0.062254902 0.0078431373 0.015686275
0.023529412 0.0039215686 0.0078431373
0.02745098 0.0039215686 0.0039215686
0.015686275 0.0039215686 0.0039215686
0.0039215686 0 0
0.019607843 0.031372549 0.02745098
0.02745098 0.028324142 0.031265319
0.034650735 0.016666667 0.031372549
0.035784314 0.009129902 0.021124387
0.032291667 0.0078431373 0.011764706
0.019607843 0.0039215686 0.0078431373
0.024019608 0.0039215686 0.0042892157
0.025980392 0.0039215686 0.0076133578
0.01127451 0.0039215686 0.0039215686
0.011764706 0.031372549 0.016421569
0.016666667 0.038939951 0.019240196
0.023897059 0.021813725 0.019607843
0.035294118 0.020802696 0.012867647
0.043504902 0.016053922 0.015196078
0.025245098 0.0078431373 0.0078431373
0.024509804 0.0078431373 0.0078431373
0.022457108 0.0097732843 0.0078431373
0.023529412 0.011764706 0.0078431373
0.0014705882 0.023529412 0.0014705882
0.0039215686 0.059053309 0.0039215686
0.0064031863 0.021262255 0.0020833333
0.046752451 0.059803922 0.0078431373
0.056433824 0.029166667 0.020343137
0.035952819 0.018826593 0.012454044
0.026593137 0.0087009804 0.0082414216
0.030085784 0.010355392 0.0078890931
0.066666667 0.039705882 0.035784314
0 0.3127451 0.0039215686
0 0.30925245 0.0039215686
0.042769608 0.28811275 0.006127451
0.16464461 0.28897059 0.02254902
0.3002451 0.25220588 0.098529412
0.29142157 0.21035539 0.14191176
0.28933824 0.20882353 0.16421569
0.28131127 0.20814951 0.18431373
0.28872549 0.21519608 0.19264706
0 0.6872549 0.0072303922
0.00098039216 0.67273284 0.0071844363
0.026991422 0.65542279 0.0053002451
0.26711091 0.66556373 0.036534926
0.56905637 0.64871324 0.17003676
0.66937806 0.5709712 0.31355699
0.66724877 0.52512255 0.38088235
0.63727022 0.49699755 0.40177696
0.67794118 0.53284314 0.45196078
0 0.98823529 0.020833333
0.0038909314 0.98109681 0.02254902
0.039215686 0.96813725 0.027267157
0.34558824 0.97604167 0.085876225
0.7567402 0.96875 0.22144608
0.98376225 0.99497549 0.4015625
0.97873775 0.93302696 0.56985294
0.98710172 0.88645833 0.64782475
0.98897059 0.86593137 0.68921569
0 0.99607843 0.024019608
0.0049019608 0.99607843 0.049693627
0.071507353 0.99607843 0.040931373
0.41063113 1 0.13851103
0.89626225 1 0.29540441
0.99607843 0.99644608 0.46911765
0.99935662 0.99647672 0.65340074
1 1 0.84508272
1 0.99914216 0.96752451
0 1 0.042156863
0.0039215686 0.99705882 0.10490196
0.065686275 1 0.054166667
0.54154412 1 0.20490196
0.99607843 1 0.35490196
0.99607843 1 0.54227941
1 1 0.72352941
1 1 0.97855392
1 1 0.9754902
0.033823529 0.039215686 0.057352941
0.031372549 0.027757353 0.045772059
0.025 0.015686275 0.029534314
0.054901961 0.0039215686 0.038296569
0.077696078 0.0014705882 0.011764706
0.010232843 0 0.0078431373
0.021078431 0 0
0.0068627451 0 0
0.0039215686 0 0
0.027757353 0.037745098 0.053431373
0.029924939 0.030085784 0.049509804
0.021920956 0.019240196 0.028661152
0.024019608 0.0044041054 0.017578125
0.030177696 0.0036151961 0.0075367647
0.033203125 0 0.010294118
0.017401961 0 0.0035998775
0.040157782 0.0039215686 0.011703431
0.0025735294 0.0039215686 0.00030637255
0.016666667 0.029901961 0.034803922
0.019607843 0.025980392 0.034803922
0.021415441 0.020220588 0.037745098
0.033946078 0.013235294 0.038357843
0.052941176 0.0039215686 0.0095588235
0.021583946 0.0021599265 0.010906863
0.051194853 0.0099571078 0.020588235
0.028553922 0.0078431373 0.012867647
0.016053922 0.00098039216 0.0045343137
0.003002451 0.0097426471 0.0048406863
0.0014705882 0.009129902 0.0080346201
0.0036917892 0.021246936 0.017478554
0.054411765 0.066115196 0.048445159
0.030085784 0.011979167 0.015778186
0.034397978 0.026554841 0.028086703
0.034650735 0.020526961 0.030591299
0.055392157 0.039529718 0.039644608
0.033210784 0.024448529 0.024448529
0 0.3122549 0.05245098
0 0.29273897 0.060355392
0.0053921569 0.278125 0.062071078
0.076715686 0.29362745 0.069117647
0.27414216 0.27120098 0.16397059
0.27916667 0.23431373 0.20759804
0.28406863 0.24491422 0.22205882
0.28431373 0.24607843 0.23455882
0.28431373 0.24877451 0.24289216
0 0.66372549 0.12058824
0 0.66078431 0.12775735
0.0074754902 0.66663603 0.10507047
0.11040901 0.66617647 0.11781556
0.48970588 0.65909926 0.25931373
0.62814798 0.57312347 0.40346967
0.6620864 0.56335784 0.47153799
0.65005362 0.54589461 0.48671109
0.62199755 0.51954657 0.48131127
0.0006127451 0.98823529 0.1627451
0.0039215686 0.98137255 0.16262255
0.01528799 0.9629902 0.16657475
0.21560968 0.98247549 0.19499081
0.63088235 0.98161765 0.31746324
0.97984069 0.99761029 0.50294118
0.98492647 0.94384191 0.6622549
0.98345588 0.95436581 0.77095588
0.975 0.92781863 0.79656863
0 0.99607843 0.23449755
0 1 0.22677696
0.022120098 1 0.24031863
0.25967371 1 0.24227941
0.72374387 0.99966299 0.39059436
0.99196538 1 0.59129136
1 1 0.7903799
1 0.9973652 0.99054075
1 0.99607843 0.97371324
0 0.99607843 0.28235294
0.0039215686 0.99981618 0.29626225
0.052696078 1 0.2872549
0.33633578 0.99607843 0.31133578
0.81715686 1 0.45686275
0.99362745 1 0.65833333
1 1 0.88419118
0.99754902 0.99362745 0.98560049
0.99607843 0.99215686 0.96862745
0.025490196 0.047058824 0.074509804
0.021813725 0.035784314 0.066911765
0.01372549 0.020588235 0.046078431
0.00073529412 0.0014705882 0.0066176471
0.25588235 0 0.26960784
0.28186275 0.0039215686 0.14411765
0.29117647 0 0.12156863
0.2754902 0 0.056617647
0.27058824 0 0.074509804
0.021813725 0.050980392 0.062990196
0.023529412 0.045343137 0.063235294
0.014276961 0.028308824 0.050183824
0.0037683824 0.0014705882 0.018137255
0.24411765 0 0.24546569
0.28661152 0 0.16366422
0.28504902 0 0.10955882
0.26835172 0.0019301471 0.07622549
0.27156863 0.0034313725 0.069362745
0.014215686 0.047058824 0.040196078
0.01439951 0.040625 0.044301471
0.015686275 0.039705882 0.052696078
0.0045955882 0.0087622549 0.027757353
0.2379902 0 0.25980392
0.26917892 0.003125 0.16458333
0.27230392 0.012622549 0.1252451
0.29558824 0.029105392 0.13370098
0.30784314 0.059313725 0.13823529
0.0039215686 0.031862745 0.010539216
0.0014705882 0.011335784 0.0056372549
0.010232843 0.077389706 0.040625
0.017340686 0.038909314 0.035569853
0.23468137 0.052818627 0.25208333
0.28066789 0.092922794 0.20177696
0.26648284 0.11323529 0.16623775
0.25955882 0.12432598 0.16387868
0.25906863 0.13897059 0.16323529
0 0.2872549 0.26372549
0 0.2872549 0.24632353
0.00098039216 0.29215686 0.25588235
0.065931373 0.28333333 0.20919118
0.25637255 0.29607843 0.27598039
0.31654412 0.29558824 0.3064951
0.31004902 0.28921569 0.29387255
0.32536765 0.29877451 0.30098039
0.30882353 0.29215686 0.29117647
0 0.63333333 0.34264706
0.0012254902 0.66697304 0.36583946
0.0034926471 0.64099265 0.35802696
0.10490196 0.64117647 0.35364583
0.4 0.66066176 0.37757353
0.62043505 0.60955882 0.51844363
0.6435049 0.58492647 0.55012255
0.63550858 0.57561275 0.55698529
0.6627451 0.60098039 0.58823529
0.00049019608 0.99460784 0.41960784
0 0.971875 0.43094363
0.0090686275 0.99338235 0.41801471
0.16378676 0.98560049 0.41378676
0.46446078 0.9752451 0.46176471
0.90134804 0.98817402 0.62267157
0.99093137 0.98480392 0.81985294
0.98811275 0.9314951 0.87328431
0.97990196 0.95833333 0.89411765
0 0.9997549 0.50441176
0.0022058824 0.99800858 0.52086397
0.039093137 1 0.50790441
0.21795343 0.9997549 0.4870098
0.51556373 1 0.51495098
0.9885723 0.99721201 0.70882353
0.99693627 1 0.93302696
0.99607843 0.99166667 0.97230392
0.99607843 0.98431373 0.95710784
0 1 0.59215686
0.0039215686 1 0.57941176
0.045588235 1 0.5627451
0.27892157 1 0.57720588
0.60294118 1 0.56764706
0.99264706 1 0.78872549
0.99754902 0.99607843 0.97647059
0.99607843 0.9877451 0.97230392
0.99411765 0.98039216 0.96078431
0.011764706 0.054901961 0.066666667
0.0078431373 0.039215686 0.062745098
0.0039215686 0.023529412 0.048039216
0 0.0069240196 0.024448529
0.022303922 0 0.28039216
0.63357843 0.0014705882 0.64822304
0.65257353 0 0.46164216
0.65637255 0 0.36911765
0.6754902 0 0.31323529
0.0081495098 0.058639706 0.057536765
0.0078431373 0.039973958 0.054940257
0.0039215686 0.025474877 0.040333946
0 0.0044730392 0.012254902
0.037193627 0.0035232843 0.28318015
0.61230086 0 0.62589614
0.63189338 0 0.4407935
0.62599571 0.0034543505 0.35076593
0.66384804 0.0073529412 0.3473652
0.006372549 0.046568627 0.038112745
0.0044577206 0.02879902 0.032352941
0.0078431373 0.030269608 0.039828431
0.0068627451 0.016176471 0.019929534
0.013909314 0.0070465686 0.27751225
0.55603554 0.0012867647 0.58826593
0.6091299 0.012775735 0.43716299
0.64852941 0.071920956 0.39287684
0.67071078 0.13088235 0.38627451
0 0.006372549 0.0039215686
0 0.0078431373 0.0044730392
0.0018535539 0.014338235 0.0073835784
0.02310049 0.044263174 0.032268689
0.10070466 0.15713848 0.27405025
0.57047335 0.10658701 0.60766697
0.64615502 0.18267463 0.49215686
0.66563266 0.23676471 0.45251225
0.64417892 0.26617647 0.42205882
0 0.27058824 0.12279412
0 0.27018995 0.14715074
0.0039215686 0.2879902 0.18707108
0.084313725 0.30021446 0.21642157
0.27205882 0.31017157 0.30416667
0.59880515 0.35585172 0.61213235
0.65857843 0.3877451 0.53927696
0.64503676 0.42279412 0.50327819
0.66397059 0.46397059 0.52230392
0 0.64859069 0.58676471
0 0.66797641 0.62769608
0.0039215686 0.65496324 0.62140012
0.1151348 0.65202206 0.62881434
0.35545343 0.64941789 0.62196691
0.61512714 0.64517463 0.63350184
0.69258578 0.65505515 0.66773897
0.67205116 0.63995864 0.65055913
0.65386029 0.64191176 0.64283088
0 1 0.71078431
0 0.9649663 0.71864277
0.023376225 0.97077206 0.72380515
0.16752451 0.97921262 0.72820159
0.43633578 0.99215686 0.74620098
0.76700368 0.98627451 0.77216605
0.97221201 0.96384804 0.93327206
0.96176471 0.93638174 0.9310049
0.97622549 0.97034314 0.96752451
0 1 0.80490196
0.00016084559 1 0.84509804
0.027711397 1 0.84813113
0.22941942 1 0.8263557
0.5213848 1 0.82512255
0.9053845 0.99607843 0.87022825
0.99211091 0.99371936 0.98235294
0.98415288 0.97892157 0.97107843
0.99197304 0.98382353 0.97775735
0 1 0.88137255
0 1 0.92040441
0.044607843 1 0.89877451
0.28480392 1 0.88572304
0.57573529 1 0.90563725
0.90459559 1 0.88762255
0.99068627 0.99178922 0.98615196
0.98431373 0.98020833 0.9723652
0.98823529 0.97254902 0.96470588
0.0078431373 0.054901961 0.054901961
0.0040441176 0.043259804 0.055882353
0.0039215686 0.024509804 0.040196078
0 0.0053921569 0.021078431
0.0058823529 0 0.2745098
0.085294118 0 0.62683824
0.93382353 0 0.97696078
0.99963235 0 0.84620098
0.96372549 0 0.69019608
0.0052696078 0.051960784 0.043627451
0.0078431373 0.050980392 0.048085172
0.0041360294 0.032904412 0.037775735
0 0.013235294 0.026148897
0.0079656863 0.0082720588 0.27101716
0.1092065 0 0.63756127
0.97809436 0 0.98918505
0.99077819 0 0.87484681
0.99215686 0.015686275 0.74607843
0.0039215686 0.039460784 0.028186275
0.0039215686 0.036397059 0.029442402
0.0078431373 0.032536765 0.031617647
0.0039215686 0.024479167 0.018474265
0.017034314 0.10710784 0.28504902
0.14598652 0.015808824 0.63970588
0.96360294 0.0069240196 0.96305147
0.97824755 0.068474265 0.8609375
0.97941176 0.15318627 0.72745098
0 0.01004902 0.0020833333
0 0.0096047794 0.0024969363
0.0046568627 0.054626225 0.012591912
0.0096813725 0.017555147 0.014185049
0.11127451 0.22824755 0.26813725
0.19327512 0.20125613 0.62643995
0.91835172 0.18014706 0.9661152
0.98259804 0.26948529 0.88154105
0.97022059 0.34754902 0.77022059
0.0039215686 0.29166667 0.10686275
0 0.29718137 0.11593137
0.01752451 0.26948529 0.12205882
0.11734069 0.2783701 0.17463235
0.27009804 0.31887255 0.29117647
0.42009804 0.48578431 0.65018382
0.9627451 0.4372549 0.96654412
0.98296569 0.5096201 0.87800245
0.98235294 0.58039216 0.85245098
0 0.63933824 0.44166667
0.00053615196 0.64866728 0.46300551
0.015992647 0.63125 0.4481924
0.18114277 0.64980086 0.48650429
0.39724265 0.64816176 0.52977941
0.62709865 0.70215993 0.6814951
0.96415441 0.74016544 0.98480392
0.97518382 0.78428309 0.93246017
0.96715686 0.81556373 0.91801471
0 0.99901961 0.91053922
0 0.99237132 0.98161765
0.022303922 0.97898284 0.9466299
0.18293505 0.99534314 0.98060662
0.45269608 0.98823529 0.96286765
0.75 0.99852941 0.99525123
0.9747549 0.98002451 0.9875
0.99221814 0.99148284 0.98728554
0.98504902 0.96004902 0.98039216
0 1 0.98333333
0.0090226716 1 0.98365502
0.065471814 1 0.98422181
0.23975184 1 0.99129902
0.49466912 1 0.98848039
0.83417586 0.99852941 0.99031863
0.98397672 0.9875 0.98357843
0.97647059 0.97340686 0.96793811
0.98296569 0.97647059 0.97904412
0 1 0.98039216
0.0087009804 1 0.98284314
0.10196078 1 0.99117647
0.28688725 1 0.99497549
0.5622549 1 0.99215686
0.89571078 1 0.99362745
0.97156863 0.9872549 0.98259804
0.97156863 0.97254902 0.9682598
0.97941176 0.97254902 0.97254902
0.011764706 0.066666667 0.054901961
0.0082720588 0.054963235 0.055392157
0.0039215686 0.03627451 0.048039216
0 0.0093137255 0.0098039216
0 0.010294118 0.27058824
0.00018382353 0 0.64215686
0.37377451 0.00085784314 0.95821078
0.99019608 0 0.98823529
0.99558824 0 0.96470588
0.011335784 0.070588235 0.043627451
0.011764706 0.06618413 0.050176164
0.0078431373 0.047916667 0.046246936
0 0.030392157 0.041873468
0 0.064246324 0.27987132
0.0085554534 0.01975337 0.63257506
0.41056985 0 0.97068015
0.95415135 0.00037530637 0.98474265
0.99166667 0.0034313725 0.98382353
0.0078431373 0.056372549 0.02745098
0.0078431373 0.055392157 0.031326593
0.0078431373 0.048529412 0.032751225
0.0014705882 0.031954657 0.010370711
0.026470588 0.21090686 0.28615196
0.084589461 0.16637561 0.66773897
0.41675858 0.06997549 0.97239583
0.99025735 0.070297181 0.9919424
0.99607843 0.086151961 0.9872549
0.0039215686 0.068811275 0.011764706
0.00016084559 0.035539216 0.0081112132
0 0.0055453431 0.0023590686
0.0072840074 0.017715993 0.017761949
0.13578431 0.28425245 0.26758578
0.23921569 0.41307445 0.6531633
0.47561275 0.27306985 0.98313419
0.98983609 0.27632506 0.99654565
0.99607843 0.33792892 1
0.0039215686 0.26813725 0.06127451
0.0039215686 0.26813725 0.065931373
0.025428922 0.27469363 0.12806373
0.14273897 0.27009804 0.1760723
0.28247549 0.34362745 0.30098039
0.43308824 0.59322917 0.62037377
0.54448529 0.53835784 0.97775735
0.99944853 0.53624387 0.99849877
0.99803922 0.59117647 0.98872549
0 0.64822304 0.35539216
0 0.66881127 0.37636336
0.078936887 0.64577206 0.39264706
0.22303922 0.64069393 0.42549786
0.43054534 0.63676471 0.49901961
0.64828431 0.67542126 0.6629902
0.7998315 0.90925245 0.97412684
0.9841299 0.85457261 0.99393382
0.96795343 0.85520833 0.98235294
0 0.9935049 0.86164216
0.00010723039 0.99008885 0.87386642
0.064920343 0.99080882 0.84224877
0.26752451 0.98368566 0.84157475
0.50300245 0.99068627 0.89001225
0.78521752 0.99091605 0.93858762
0.98612132 0.99108456 0.99473039
0.97242647 0.97570466 0.98823529
0.99203431 0.99117647 0.99215686
0 1 0.97254902
0.0078431373 0.99607843 0.97689951
0.06127451 0.99609375 0.98066789
0.230553 1 0.99221814
0.51617647 0.99629289 0.99607843
0.82794118 1 0.99607843
0.97542892 0.99204963 0.99215686
0.96813725 0.97603401 0.98039216
0.97598039 0.97303922 0.97689951
0 1 0.96078431
0.011703431 1 0.97254902
0.063848039 1 0.99252451
0.27824755 1 1
0.56078431 1 1
0.9213848 1 1
0.96372549 0.99080882 0.98823529
0.96029412 0.98033088 0.98039216
0.96813725 0.97254902 0.97254902
0.0078431373 0.058823529 0.039215686
0.0078431373 0.04754902 0.043137255
0.0039215686 0.031372549 0.035294118
0 0.0014705882 0.0014705882
0 0.047058824 0.27254902
0.0053921569 0.034803922 0.64019608
0.10196078 0 0.98823529
0.70245098 0 0.98970588
1 0 0.99215686
0.0078431373 0.066666667 0.031862745
0.0078431373 0.050980392 0.039215686
0.0039215686 0.047058824 0.035784314
0 0.05557598 0.058823529
0.0056372549 0.15098039 0.29362745
0.012745098 0.13547794 0.6473652
0.11311275 0.021691176 0.97781863
0.76280637 0.0069240196 0.9995098
0.92009804 0 0.99215686
0.0039215686 0.051960784 0.020588235
0.0039215686 0.032352941 0.023161765
0.0078431373 0.062009804 0.036029412
0.0033088235 0.056985294 0.025
0.041666667 0.26813725 0.27990196
0.1189951 0.33651961 0.63492647
0.17769608 0.15588235 0.99509804
0.80220588 0.12205882 1
0.99215686 0.068627451 0.99607843
0 0.0093137255 0.0014705882
0 0.006004902 0.0017769608
0.0033088235 0.035171569 0.0083333333
0.020098039 0.038235294 0.031862745
0.14583333 0.2620098 0.21642157
0.2622549 0.50091912 0.64650735
0.35441176 0.46139706 0.97463235
0.84754902 0.34129902 1
0.99607843 0.33235294 1
0.0019607843 0.28235294 0.058823529
0.0039215686 0.29485294 0.094852941
0.046078431 0.2872549 0.12598039
0.1497549 0.27254902 0.17205882
0.27058824 0.31862745 0.27647059
0.45833333 0.65220588 0.62181373
0.58137255 0.80196078 0.97990196
0.87034314 0.58823529 1
0.99607843 0.61764706 0.99215686
0 0.63921569 0.31176471
0.0034313725 0.62843137 0.31942402
0.11960784 0.6435049 0.37291667
0.28039216 0.64509804 0.42598039
0.43480392 0.63676471 0.50612745
0.62941176 0.68161765 0.64601716
0.81176471 0.96678922 0.96617647
0.91292892 0.91685049 0.99626225
0.99607843 0.92990196 1
0.0039215686 0.99705882 0.68627451
0.00085784314 0.99803922 0.75159314
0.13235294 0.95980392 0.75196078
0.34154412 0.99362745 0.79154412
0.55392157 0.9622549 0.81323529
0.81372549 1 0.90098039
0.99117647 0.99583333 0.99509804
0.97561275 0.97291667 0.98823529
0.98823529 0.98823529 0.99117647
0 1 0.98039216
0.0073529412 1 0.97800245
0.10784314 1 0.99607843
0.33560049 1 0.97941176
0.57083333 0.99803922 0.99436275
0.90655637 1 1
0.975 0.99080882 0.98823529
0.96421569 0.97598039 0.98033088
0.97647059 0.98039216 0.98039216
0 1 0.97647059
0.011764706 1 0.96029412
0.052941176 1 0.99215686
0.28627451 1 1
0.55882353 1 1
0.92745098 1 1
0.97156863 0.99117647 0.98823529
0.96470588 0.98039216 0.98039216
0.96470588 0.97647059 0.97647059
