site/assets/luts/natron-haldclut--fuji-fp-100c--19db7c4ee.cube
# LUTr-Project: LUTr — LUTrepository
# LUTr-Schema-Version: 1
# LUTr-ID: natron-haldclut--fuji-fp-100c--19db7c4ee
# LUTr-Title: fuji fp 100c
# LUTr-Collection: Natron HaldCLUT
# LUTr-Collection-ID: natron-haldclut-presets
# LUTr-Source: https://github.com/NatronGitHub/clut
# LUTr-Source-File: submissions/natron-haldclut-presets/colorslide/fuji_fp_100c.png
# LUTr-Source-Format: PNG
# LUTr-Source-SHA256: cb93acc4eb0e8fb2a1b64ab0e47207c0605cde32980c32cfe7b036aaeaa0b4f9
# LUTr-License: CC-BY-SA-4.0
# LUTr-License-URL: https://github.com/NatronGitHub/clut#license
# LUTr-Tags: creative, film, film-emulation, hald-clut, natron, png, cube
# LUTr-Transform-Class: film-emulation
# LUTr-Input-Color-Space: srgb
# LUTr-Output-Color-Space: srgb
# LUTr-Color-Space-Confidence: assumed-display-referred
# LUTr-Conversion-Method: PNG LUT image decoded at 16-bit and sampled to 25x25x25 3D CUBE
# LUTr-Conversion-Date: 2026-07-27
# LUTr-Conversion-Tool: LUTr scripts/convert-all-to-cube.mjs
# LUTr-Conversion-Grid: 25x25x25
# LUTr-Note: Preserve this metadata and the upstream license notices when redistributing.
TITLE "fuji fp 100c"
LUT_3D_SIZE 5
DOMAIN_MIN 0 0 0
DOMAIN_MAX 1 1 1
0.0078431373 0.019607843 0.0039215686
0.11960784 0.024509804 0.0039215686
0.28431373 0.0019607843 0.0019607843
0.60490196 0.015686275 0
0.80784314 0.0039215686 0
0.10784314 0.17745098 0.057843137
0.18529412 0.1625 0.047058824
0.38235294 0.14313725 0.02745098
0.64583333 0.062745098 0.0029411765
0.83823529 0.019607843 0
0.18235294 0.48627451 0.12941176
0.30098039 0.47205882 0.12107843
0.5127451 0.45490196 0.082352941
0.74803922 0.38137255 0.03872549
0.89607843 0.33137255 0.0078431373
0.49215686 0.74019608 0.089215686
0.55588235 0.73553922 0.085294118
0.70294118 0.72745098 0.065686275
0.85955882 0.7 0.053921569
0.96862745 0.65784314 0.047058824
0.82745098 0.8627451 0.0078431373
0.85098039 0.85980392 0.0078431373
0.90784314 0.85882353 0.0039215686
0.96568627 0.84313725 0.0078431373
1 0.84313725 0.0039215686
0.015686275 0.011764706 0.13431373
0.1129902 0.017647059 0.12647059
0.31470588 0.0039215686 0.081372549
0.58921569 0 0.011519608
0.81470588 0 0.0039215686
0.11666667 0.19436275 0.19509804
0.18082108 0.18504902 0.17745098
0.38272059 0.14705882 0.13602941
0.64583333 0.078002451 0.069852941
0.83995098 0.010784314 0.024509804
0.19264706 0.50588235 0.26470588
0.28419118 0.49301471 0.24607843
0.51053922 0.46004902 0.2125
0.75257353 0.41127451 0.16029412
0.91176471 0.32745098 0.14166667
0.48848039 0.75588235 0.2372549
0.55269608 0.75251225 0.23314951
0.6995098 0.7372549 0.20196078
0.84705882 0.72015931 0.19564951
0.97279412 0.69387255 0.19901961
0.83627451 0.88137255 0.011764706
0.84901961 0.87745098 0.020588235
0.88431373 0.86323529 0.040686275
0.97254902 0.86960784 0.0095588235
0.99607843 0.85784314 0.045098039
0.0019607843 0.021568627 0.3372549
0.099019608 0.014215686 0.32745098
0.30784314 0.0078431373 0.29509804
0.58823529 0.0019607843 0.22843137
0.80588235 0 0.19803922
0.092156863 0.22941176 0.43137255
0.17647059 0.2060049 0.41470588
0.38872549 0.16715686 0.38039216
0.64865196 0.099142157 0.32083333
0.8245098 0.019117647 0.28088235
0.11960784 0.53529412 0.54117647
0.27205882 0.52352941 0.52352941
0.50833333 0.50490196 0.50196078
0.72990196 0.44215686 0.45245098
0.88921569 0.35784314 0.42843137
0.45147059 0.78872549 0.57843137
0.52303922 0.78321078 0.5754902
0.66470588 0.77745098 0.55980392
0.81176471 0.76029412 0.5504902
0.94068627 0.72598039 0.54068627
0.78431373 0.91764706 0.44117647
0.81078431 0.92009804 0.44166667
0.85098039 0.91568627 0.45588235
0.92647059 0.91372549 0.45882353
0.99607843 0.91176471 0.48431373
0.0029411765 0.05 0.61568627
0.10465686 0.03627451 0.59313725
0.30441176 0.0088235294 0.55441176
0.59215686 0.0039215686 0.49607843
0.78431373 0 0.46176471
0.089215686 0.25588235 0.69215686
0.16862745 0.23572304 0.68210784
0.39693627 0.20159314 0.63921569
0.64828431 0.13192402 0.56862745
0.80784314 0.047058824 0.52254902
0.13284314 0.56568627 0.78921569
0.28345588 0.55208333 0.77156863
0.50784314 0.53063725 0.7372549
0.72254902 0.48492647 0.69509804
0.87647059 0.39215686 0.64509804
0.46568627 0.82647059 0.83357843
0.5252451 0.81807598 0.82720588
0.65735294 0.80931373 0.80882353
0.79583333 0.78964461 0.78425245
0.9 0.76544118 0.77156863
0.74901961 0.96176471 0.80392157
0.77156863 0.96470588 0.80759804
0.81813725 0.96617647 0.81568627
0.88333333 0.95759804 0.81078431
0.98333333 0.94901961 0.79509804
0.015686275 0.090196078 0.79607843
0.13921569 0.059803922 0.75
0.34901961 0.021568627 0.70784314
0.60392157 0.0039215686 0.63823529
0.79215686 0 0.57647059
0.11666667 0.25196078 0.84509804
0.20955882 0.25098039 0.79705882
0.43823529 0.19803922 0.76568627
0.65686275 0.13333333 0.7
0.81470588 0.035294118 0.65392157
0.2627451 0.58627451 0.91372549
0.36029412 0.56470588 0.90294118
0.54705882 0.52647059 0.85980392
0.74117647 0.48431373 0.81372549
0.88235294 0.38823529 0.76862745
0.5254902 0.83431373 0.96176471
0.56372549 0.82671569 0.94387255
0.68039216 0.81715686 0.93823529
0.79901961 0.80294118 0.91544118
0.91862745 0.76470588 0.86862745
0.77647059 0.99607843 0.99607843
0.77156863 0.98431373 0.98235294
0.82352941 0.99411765 0.99215686
0.87941176 0.98333333 0.97941176
0.94509804 0.97254902 0.94509804
