site/assets/luts/natron-haldclut--fuji-fp-3000b-negative--1b8c4ad97.cube
# LUTr-Project: LUTr — LUTrepository
# LUTr-Schema-Version: 1
# LUTr-ID: natron-haldclut--fuji-fp-3000b-negative--1b8c4ad97
# LUTr-Title: fuji fp-3000b negative +
# LUTr-Collection: Natron HaldCLUT
# LUTr-Collection-ID: natron-haldclut-presets
# LUTr-Source: https://github.com/NatronGitHub/clut
# LUTr-Source-File: submissions/natron-haldclut-presets/instant_pro/fuji_fp-3000b_negative_+.png
# LUTr-Source-Format: PNG
# LUTr-Source-SHA256: 9f10a070d74e18a7d2a49239ea4a18be430c6e97edea92f7e5e3df548ed13de0
# LUTr-License: CC-BY-SA-4.0
# LUTr-License-URL: https://github.com/NatronGitHub/clut#license
# LUTr-Tags: creative, film, film-emulation, hald-clut, natron, png, cube
# LUTr-Transform-Class: film-emulation
# LUTr-Input-Color-Space: srgb
# LUTr-Output-Color-Space: srgb
# LUTr-Color-Space-Confidence: assumed-display-referred
# LUTr-Conversion-Method: PNG LUT image decoded at 16-bit and sampled to 25x25x25 3D CUBE
# LUTr-Conversion-Date: 2026-07-27
# LUTr-Conversion-Tool: LUTr scripts/convert-all-to-cube.mjs
# LUTr-Conversion-Grid: 25x25x25
# LUTr-Note: Preserve this metadata and the upstream license notices when redistributing.
TITLE "fuji fp-3000b negative +"
LUT_3D_SIZE 25
DOMAIN_MIN 0 0 0
DOMAIN_MAX 1 1 1
0.043137255 0.043137255 0.043137255
0.043137255 0.043137255 0.043137255
0.047058824 0.047058824 0.047058824
0.050980392 0.050980392 0.050980392
0.056862745 0.056862745 0.056862745
0.062745098 0.062745098 0.062745098
0.066666667 0.066666667 0.066666667
0.079901961 0.079901961 0.079901961
0.094117647 0.094117647 0.094117647
0.11078431 0.11078431 0.11078431
0.13529412 0.13529412 0.13529412
0.15980392 0.15980392 0.15980392
0.18431373 0.18431373 0.18431373
0.21029412 0.21029412 0.21029412
0.26470588 0.26470588 0.26470588
0.31715686 0.31715686 0.31715686
0.37254902 0.37254902 0.37254902
0.42794118 0.42794118 0.42794118
0.47058824 0.47058824 0.47058824
0.50833333 0.50833333 0.50833333
0.54509804 0.54509804 0.54509804
0.58235294 0.58235294 0.58235294
0.61666667 0.61666667 0.61666667
0.64754902 0.64754902 0.64754902
0.67058824 0.67058824 0.67058824
0.040686275 0.040686275 0.040686275
0.042218137 0.042218137 0.042218137
0.047058824 0.047058824 0.047058824
0.050980392 0.050980392 0.050980392
0.056862745 0.056862745 0.056862745
0.062745098 0.062745098 0.062745098
0.066666667 0.066666667 0.066666667
0.081372549 0.081372549 0.081372549
0.098039216 0.098039216 0.098039216
0.11715686 0.11715686 0.11715686
0.13982843 0.13982843 0.13982843
0.1658701 0.1658701 0.1658701
0.19264706 0.19264706 0.19264706
0.23039216 0.23039216 0.23039216
0.27267157 0.27267157 0.27267157
0.32591912 0.32591912 0.32591912
0.38039216 0.38039216 0.38039216
0.43186275 0.43186275 0.43186275
0.47242647 0.47242647 0.47242647
0.51047794 0.51047794 0.51047794
0.54901961 0.54901961 0.54901961
0.58578431 0.58578431 0.58578431
0.6185049 0.6185049 0.6185049
0.64908088 0.64908088 0.64908088
0.67058824 0.67058824 0.67058824
0.039215686 0.039215686 0.039215686
0.039215686 0.039215686 0.039215686
0.044117647 0.044117647 0.044117647
0.050980392 0.050980392 0.050980392
0.056862745 0.056862745 0.056862745
0.062745098 0.062745098 0.062745098
0.066666667 0.066666667 0.066666667
0.085294118 0.085294118 0.085294118
0.10588235 0.10588235 0.10588235
0.12352941 0.12352941 0.12352941
0.14485294 0.14485294 0.14485294
0.17205882 0.17205882 0.17205882
0.20980392 0.20980392 0.20980392
0.25098039 0.25098039 0.25098039
0.29215686 0.29215686 0.29215686
0.33443627 0.33443627 0.33443627
0.38529412 0.38529412 0.38529412
0.43333333 0.43333333 0.43333333
0.4745098 0.4745098 0.4745098
0.51568627 0.51568627 0.51568627
0.55343137 0.55343137 0.55343137
0.58713235 0.58713235 0.58713235
0.62156863 0.62156863 0.62156863
0.65428922 0.65428922 0.65428922
0.6754902 0.6754902 0.6754902
0.050490196 0.050490196 0.050490196
0.05 0.05 0.05
0.050490196 0.050490196 0.050490196
0.054411765 0.054411765 0.054411765
0.060539216 0.060539216 0.060539216
0.066176471 0.066176471 0.066176471
0.073039216 0.073039216 0.073039216
0.092647059 0.092647059 0.092647059
0.11323529 0.11323529 0.11323529
0.13008578 0.13008578 0.13008578
0.1504902 0.1504902 0.1504902
0.18878676 0.18878676 0.18878676
0.23039216 0.23039216 0.23039216
0.27156863 0.27156863 0.27156863
0.3127451 0.3127451 0.3127451
0.35 0.35 0.35
0.39166667 0.39166667 0.39166667
0.4372549 0.4372549 0.4372549
0.47928922 0.47928922 0.47928922
0.52303922 0.52303922 0.52303922
0.55857843 0.55857843 0.55857843
0.59319853 0.59319853 0.59319853
0.62830882 0.62830882 0.62830882
0.66145833 0.66145833 0.66145833
0.68186275 0.68186275 0.68186275
0.066666667 0.066666667 0.066666667
0.065441176 0.065441176 0.065441176
0.060784314 0.060784314 0.060784314
0.060539216 0.060539216 0.060539216
0.065686275 0.065686275 0.065686275
0.073039216 0.073039216 0.073039216
0.083333333 0.083333333 0.083333333
0.099019608 0.099019608 0.099019608
0.12352941 0.12352941 0.12352941
0.14534314 0.14534314 0.14534314
0.17401961 0.17401961 0.17401961
0.21176471 0.21176471 0.21176471
0.25490196 0.25490196 0.25490196
0.29583333 0.29583333 0.29583333
0.33333333 0.33333333 0.33333333
0.36911765 0.36911765 0.36911765
0.40392157 0.40392157 0.40392157
0.44436275 0.44436275 0.44436275
0.48921569 0.48921569 0.48921569
0.53161765 0.53161765 0.53161765
0.56666667 0.56666667 0.56666667
0.60171569 0.60171569 0.60171569
0.6372549 0.6372549 0.6372549
0.66911765 0.66911765 0.66911765
0.69215686 0.69215686 0.69215686
0.082843137 0.082843137 0.082843137
0.079411765 0.079411765 0.079411765
0.075367647 0.075367647 0.075367647
0.071568627 0.071568627 0.071568627
0.077205882 0.077205882 0.077205882
0.083762255 0.083762255 0.083762255
0.093259804 0.093259804 0.093259804
0.10667892 0.10667892 0.10667892
0.13382353 0.13382353 0.13382353
0.16764706 0.16764706 0.16764706
0.20134804 0.20134804 0.20134804
0.23915441 0.23915441 0.23915441
0.27941176 0.27941176 0.27941176
0.32015931 0.32015931 0.32015931
0.35784314 0.35784314 0.35784314
0.39148284 0.39148284 0.39148284
0.425 0.425 0.425
0.46568627 0.46568627 0.46568627
0.50637255 0.50637255 0.50637255
0.54362745 0.54362745 0.54362745
0.57696078 0.57696078 0.57696078
0.61372549 0.61372549 0.61372549
0.64767157 0.64767157 0.64767157
0.67941176 0.67941176 0.67941176
0.70245098 0.70245098 0.70245098
0.097058824 0.097058824 0.097058824
0.096078431 0.096078431 0.096078431
0.092156863 0.092156863 0.092156863
0.095098039 0.095098039 0.095098039
0.096078431 0.096078431 0.096078431
0.10012255 0.10012255 0.10012255
0.10392157 0.10392157 0.10392157
0.11384804 0.11384804 0.11384804
0.15098039 0.15098039 0.15098039
0.18823529 0.18823529 0.18823529
0.2254902 0.2254902 0.2254902
0.26568627 0.26568627 0.26568627
0.30392157 0.30392157 0.30392157
0.34117647 0.34117647 0.34117647
0.37916667 0.37916667 0.37916667
0.41421569 0.41421569 0.41421569
0.44901961 0.44901961 0.44901961
0.48627451 0.48627451 0.48627451
0.52034314 0.52034314 0.52034314
0.55441176 0.55441176 0.55441176
0.58921569 0.58921569 0.58921569
0.62438725 0.62438725 0.62438725
0.65882353 0.65882353 0.65882353
0.68970588 0.68970588 0.68970588
0.7127451 0.7127451 0.7127451
0.11127451 0.11127451 0.11127451
0.11219363 0.11219363 0.11219363
0.11372549 0.11372549 0.11372549
0.11666667 0.11666667 0.11666667
0.11666667 0.11666667 0.11666667
0.12058824 0.12058824 0.12058824
0.12561275 0.12561275 0.12561275
0.13823529 0.13823529 0.13823529
0.17156863 0.17156863 0.17156863
0.20790441 0.20790441 0.20790441
0.24607843 0.24607843 0.24607843
0.2872549 0.2872549 0.2872549
0.3245098 0.3245098 0.3245098
0.36519608 0.36519608 0.36519608
0.4 0.4 0.4
0.43480392 0.43480392 0.43480392
0.46960784 0.46960784 0.46960784
0.50202206 0.50202206 0.50202206
0.53529412 0.53529412 0.53529412
0.56862745 0.56862745 0.56862745
0.60416667 0.60416667 0.60416667
0.63823529 0.63823529 0.63823529
0.66911765 0.66911765 0.66911765
0.7 0.7 0.7
0.71764706 0.71764706 0.71764706
0.1254902 0.1254902 0.1254902
0.13578431 0.13578431 0.13578431
0.14117647 0.14117647 0.14117647
0.14166667 0.14166667 0.14166667
0.14117647 0.14117647 0.14117647
0.14607843 0.14607843 0.14607843
0.16372549 0.16372549 0.16372549
0.1754902 0.1754902 0.1754902
0.19215686 0.19215686 0.19215686
0.2254902 0.2254902 0.2254902
0.26666667 0.26666667 0.26666667
0.30784314 0.30784314 0.30784314
0.34705882 0.34705882 0.34705882
0.38627451 0.38627451 0.38627451
0.42352941 0.42352941 0.42352941
0.45686275 0.45686275 0.45686275
0.49019608 0.49019608 0.49019608
0.52107843 0.52107843 0.52107843
0.55196078 0.55196078 0.55196078
0.58284314 0.58284314 0.58284314
0.61764706 0.61764706 0.61764706
0.64852941 0.64852941 0.64852941
0.67941176 0.67941176 0.67941176
0.71029412 0.71029412 0.71029412
0.7254902 0.7254902 0.7254902
0.18333333 0.18333333 0.18333333
0.18817402 0.18817402 0.18817402
0.19264706 0.19264706 0.19264706
0.19264706 0.19264706 0.19264706
0.1875 0.1875 0.1875
0.18253676 0.18253676 0.18253676
0.19460784 0.19460784 0.19460784
0.21182598 0.21182598 0.21182598
0.22794118 0.22794118 0.22794118
0.25 0.25 0.25
0.2872549 0.2872549 0.2872549
0.32843137 0.32843137 0.32843137
0.36960784 0.36960784 0.36960784
0.40900735 0.40900735 0.40900735
0.44509804 0.44509804 0.44509804
0.47990196 0.47990196 0.47990196
0.50686275 0.50686275 0.50686275
0.5377451 0.5377451 0.5377451
0.56862745 0.56862745 0.56862745
0.5995098 0.5995098 0.5995098
0.63186275 0.63186275 0.63186275
0.65882353 0.65882353 0.65882353
0.68970588 0.68970588 0.68970588
0.72058824 0.72058824 0.72058824
0.73970588 0.73970588 0.73970588
0.23627451 0.23627451 0.23627451
0.24264706 0.24264706 0.24264706
0.24803922 0.24803922 0.24803922
0.24460784 0.24460784 0.24460784
0.23431373 0.23431373 0.23431373
0.22303922 0.22303922 0.22303922
0.2252451 0.2252451 0.2252451
0.25 0.25 0.25
0.27058824 0.27058824 0.27058824
0.29117647 0.29117647 0.29117647
0.31740196 0.31740196 0.31740196
0.35392157 0.35392157 0.35392157
0.39411765 0.39411765 0.39411765
0.43137255 0.43137255 0.43137255
0.46568627 0.46568627 0.46568627
0.49656863 0.49656863 0.49656863
0.52745098 0.52745098 0.52745098
0.55551471 0.55551471 0.55551471
0.58529412 0.58529412 0.58529412
0.61617647 0.61617647 0.61617647
0.64607843 0.64607843 0.64607843
0.67401961 0.67401961 0.67401961
0.70392157 0.70392157 0.70392157
0.73480392 0.73480392 0.73480392
0.75392157 0.75392157 0.75392157
0.29117647 0.29117647 0.29117647
0.29411765 0.29411765 0.29411765
0.29607843 0.29607843 0.29607843
0.29258578 0.29258578 0.29258578
0.28235294 0.28235294 0.28235294
0.27199755 0.27199755 0.27199755
0.27107843 0.27107843 0.27107843
0.29117647 0.29117647 0.29117647
0.31176471 0.31176471 0.31176471
0.33578431 0.33578431 0.33578431
0.35784314 0.35784314 0.35784314
0.38523284 0.38523284 0.38523284
0.41838235 0.41838235 0.41838235
0.45196078 0.45196078 0.45196078
0.48627451 0.48627451 0.48627451
0.5158701 0.5158701 0.5158701
0.54411765 0.54411765 0.54411765
0.575 0.575 0.575
0.60232843 0.60232843 0.60232843
0.63284314 0.63284314 0.63284314
0.66029412 0.66029412 0.66029412
0.69025735 0.69025735 0.69025735
0.71776961 0.71776961 0.71776961
0.74509804 0.74509804 0.74509804
0.76764706 0.76764706 0.76764706
0.33921569 0.33921569 0.33921569
0.34117647 0.34117647 0.34117647
0.34117647 0.34117647 0.34117647
0.34117647 0.34117647 0.34117647
0.33333333 0.33333333 0.33333333
0.32720588 0.32720588 0.32720588
0.32696078 0.32696078 0.32696078
0.33627451 0.33627451 0.33627451
0.35686275 0.35686275 0.35686275
0.37745098 0.37745098 0.37745098
0.40196078 0.40196078 0.40196078
0.42254902 0.42254902 0.42254902
0.44803922 0.44803922 0.44803922
0.47573529 0.47573529 0.47573529
0.50294118 0.50294118 0.50294118
0.53308824 0.53308824 0.53308824
0.56078431 0.56078431 0.56078431
0.59166667 0.59166667 0.59166667
0.62009804 0.62009804 0.62009804
0.6495098 0.6495098 0.6495098
0.67745098 0.67745098 0.67745098
0.70514706 0.70514706 0.70514706
0.73088235 0.73088235 0.73088235
0.75784314 0.75784314 0.75784314
0.77843137 0.77843137 0.77843137
0.38676471 0.38676471 0.38676471
0.38676471 0.38676471 0.38676471
0.38627451 0.38627451 0.38627451
0.38327206 0.38327206 0.38327206
0.38063725 0.38063725 0.38063725
0.3745098 0.3745098 0.3745098
0.375 0.375 0.375
0.38039216 0.38039216 0.38039216
0.39803922 0.39803922 0.39803922
0.41862745 0.41862745 0.41862745
0.44007353 0.44007353 0.44007353
0.46323529 0.46323529 0.46323529
0.47990196 0.47990196 0.47990196
0.5004902 0.5004902 0.5004902
0.52365196 0.52365196 0.52365196
0.5504902 0.5504902 0.5504902
0.57745098 0.57745098 0.57745098
0.60833333 0.60833333 0.60833333
0.63786765 0.63786765 0.63786765
0.66617647 0.66617647 0.66617647
0.69289216 0.69289216 0.69289216
0.71917892 0.71917892 0.71917892
0.74362745 0.74362745 0.74362745
0.76960784 0.76960784 0.76960784
0.78872549 0.78872549 0.78872549
0.43529412 0.43529412 0.43529412
0.43431373 0.43431373 0.43431373
0.43137255 0.43137255 0.43137255
0.43039216 0.43039216 0.43039216
0.425 0.425 0.425
0.41960784 0.41960784 0.41960784
0.42328431 0.42328431 0.42328431
0.42683824 0.42683824 0.42683824
0.43921569 0.43921569 0.43921569
0.45980392 0.45980392 0.45980392
0.47745098 0.47745098 0.47745098
0.49448529 0.49448529 0.49448529
0.51078431 0.51078431 0.51078431
0.52745098 0.52745098 0.52745098
0.54803922 0.54803922 0.54803922
0.57071078 0.57071078 0.57071078
0.59803922 0.59803922 0.59803922
0.62536765 0.62536765 0.62536765
0.65588235 0.65588235 0.65588235
0.68296569 0.68296569 0.68296569
0.70833333 0.70833333 0.70833333
0.73333333 0.73333333 0.73333333
0.75759804 0.75759804 0.75759804
0.7817402 0.7817402 0.7817402
0.79901961 0.79901961 0.79901961
0.48578431 0.48578431 0.48578431
0.48425245 0.48425245 0.48425245
0.48296569 0.48296569 0.48296569
0.48186275 0.48186275 0.48186275
0.47794118 0.47794118 0.47794118
0.47530637 0.47530637 0.47530637
0.47401961 0.47401961 0.47401961
0.47346814 0.47346814 0.47346814
0.475 0.475 0.475
0.49558824 0.49558824 0.49558824
0.51127451 0.51127451 0.51127451
0.5254902 0.5254902 0.5254902
0.54166667 0.54166667 0.54166667
0.55833333 0.55833333 0.55833333
0.57892157 0.57892157 0.57892157
0.59650735 0.59650735 0.59650735
0.62009804 0.62009804 0.62009804
0.64705882 0.64705882 0.64705882
0.67438725 0.67438725 0.67438725
0.69822304 0.69822304 0.69822304
0.72303922 0.72303922 0.72303922
0.74540441 0.74540441 0.74540441
0.7692402 0.7692402 0.7692402
0.79264706 0.79264706 0.79264706
0.80931373 0.80931373 0.80931373
0.5372549 0.5372549 0.5372549
0.5372549 0.5372549 0.5372549
0.5372549 0.5372549 0.5372549
0.5372549 0.5372549 0.5372549
0.53333333 0.53333333 0.53333333
0.52941176 0.52941176 0.52941176
0.52941176 0.52941176 0.52941176
0.52401961 0.52401961 0.52401961
0.51764706 0.51764706 0.51764706
0.52794118 0.52794118 0.52794118
0.54313725 0.54313725 0.54313725
0.55980392 0.55980392 0.55980392
0.5745098 0.5745098 0.5745098
0.58921569 0.58921569 0.58921569
0.60980392 0.60980392 0.60980392
0.62647059 0.62647059 0.62647059
0.64705882 0.64705882 0.64705882
0.66764706 0.66764706 0.66764706
0.69215686 0.69215686 0.69215686
0.7127451 0.7127451 0.7127451
0.7372549 0.7372549 0.7372549
0.75784314 0.75784314 0.75784314
0.78235294 0.78235294 0.78235294
0.80294118 0.80294118 0.80294118
0.81960784 0.81960784 0.81960784
0.59264706 0.59264706 0.59264706
0.59264706 0.59264706 0.59264706
0.59166667 0.59166667 0.59166667
0.58872549 0.58872549 0.58872549
0.58602941 0.58602941 0.58602941
0.58431373 0.58431373 0.58431373
0.57904412 0.57904412 0.57904412
0.57156863 0.57156863 0.57156863
0.56519608 0.56519608 0.56519608
0.56911765 0.56911765 0.56911765
0.57977941 0.57977941 0.57977941
0.59332108 0.59332108 0.59332108
0.60735294 0.60735294 0.60735294
0.62383578 0.62383578 0.62383578
0.64068627 0.64068627 0.64068627
0.65980392 0.65980392 0.65980392
0.67794118 0.67794118 0.67794118
0.69307598 0.69307598 0.69307598
0.70882353 0.70882353 0.70882353
0.72941176 0.72941176 0.72941176
0.75 0.75 0.75
0.77205882 0.77205882 0.77205882
0.79448529 0.79448529 0.79448529
0.81715686 0.81715686 0.81715686
0.83382353 0.83382353 0.83382353
0.64705882 0.64705882 0.64705882
0.6435049 0.6435049 0.6435049
0.64240196 0.64240196 0.64240196
0.64019608 0.64019608 0.64019608
0.6377451 0.6377451 0.6377451
0.63492647 0.63492647 0.63492647
0.6254902 0.6254902 0.6254902
0.61813725 0.61813725 0.61813725
0.61176471 0.61176471 0.61176471
0.61176471 0.61176471 0.61176471
0.61960784 0.61960784 0.61960784
0.6307598 0.6307598 0.6307598
0.64460784 0.64460784 0.64460784
0.65968137 0.65968137 0.65968137
0.67573529 0.67573529 0.67573529
0.69068627 0.69068627 0.69068627
0.70490196 0.70490196 0.70490196
0.72095588 0.72095588 0.72095588
0.73333333 0.73333333 0.73333333
0.75 0.75 0.75
0.76666667 0.76666667 0.76666667
0.7872549 0.7872549 0.7872549
0.80784314 0.80784314 0.80784314
0.82843137 0.82843137 0.82843137
0.84509804 0.84509804 0.84509804
0.68480392 0.68480392 0.68480392
0.68823529 0.68823529 0.68823529
0.68811275 0.68811275 0.68811275
0.68431373 0.68431373 0.68431373
0.68431373 0.68431373 0.68431373
0.67990196 0.67990196 0.67990196
0.66960784 0.66960784 0.66960784
0.66292892 0.66292892 0.66292892
0.65686275 0.65686275 0.65686275
0.65294118 0.65294118 0.65294118
0.65784314 0.65784314 0.65784314
0.66813725 0.66813725 0.66813725
0.68235294 0.68235294 0.68235294
0.6966299 0.6966299 0.6966299
0.71115196 0.71115196 0.71115196
0.72156863 0.72156863 0.72156863
0.73578431 0.73578431 0.73578431
0.75 0.75 0.75
0.75943627 0.75943627 0.75943627
0.77058824 0.77058824 0.77058824
0.7872549 0.7872549 0.7872549
0.80784314 0.80784314 0.80784314
0.8245098 0.8245098 0.8245098
0.84381127 0.84381127 0.84381127
0.85833333 0.85833333 0.85833333
0.7254902 0.7254902 0.7254902
0.7254902 0.7254902 0.7254902
0.7254902 0.7254902 0.7254902
0.7254902 0.7254902 0.7254902
0.72254902 0.72254902 0.72254902
0.71936275 0.71936275 0.71936275
0.71470588 0.71470588 0.71470588
0.70833333 0.70833333 0.70833333
0.70196078 0.70196078 0.70196078
0.69877451 0.69877451 0.69877451
0.69901961 0.69901961 0.69901961
0.70931373 0.70931373 0.70931373
0.71960784 0.71960784 0.71960784
0.73210784 0.73210784 0.73210784
0.74264706 0.74264706 0.74264706
0.75245098 0.75245098 0.75245098
0.76666667 0.76666667 0.76666667
0.77696078 0.77696078 0.77696078
0.78431373 0.78431373 0.78431373
0.79166667 0.79166667 0.79166667
0.81176471 0.81176471 0.81176471
0.83039216 0.83039216 0.83039216
0.84901961 0.84901961 0.84901961
0.86421569 0.86421569 0.86421569
0.87254902 0.87254902 0.87254902
0.7627451 0.7627451 0.7627451
0.76488971 0.76488971 0.76488971
0.76617647 0.76617647 0.76617647
0.76317402 0.76317402 0.76317402
0.76053922 0.76053922 0.76053922
0.75490196 0.75490196 0.75490196
0.75490196 0.75490196 0.75490196
0.753125 0.753125 0.753125
0.74754902 0.74754902 0.74754902
0.74332108 0.74332108 0.74332108
0.74313725 0.74313725 0.74313725
0.74656863 0.74656863 0.74656863
0.75686275 0.75686275 0.75686275
0.76715686 0.76715686 0.76715686
0.77696078 0.77696078 0.77696078
0.78333333 0.78333333 0.78333333
0.79754902 0.79754902 0.79754902
0.80784314 0.80784314 0.80784314
0.8127451 0.8127451 0.8127451
0.81666667 0.81666667 0.81666667
0.83284314 0.83284314 0.83284314
0.85643382 0.85643382 0.85643382
0.87095588 0.87095588 0.87095588
0.88333333 0.88333333 0.88333333
0.88676471 0.88676471 0.88676471
0.80098039 0.80098039 0.80098039
0.80392157 0.80392157 0.80392157
0.80318627 0.80318627 0.80318627
0.80012255 0.80012255 0.80012255
0.79656863 0.79656863 0.79656863
0.79215686 0.79215686 0.79215686
0.79215686 0.79215686 0.79215686
0.79215686 0.79215686 0.79215686
0.79215686 0.79215686 0.79215686
0.78823529 0.78823529 0.78823529
0.78431373 0.78431373 0.78431373
0.7877451 0.7877451 0.7877451
0.79509804 0.79509804 0.79509804
0.80441176 0.80441176 0.80441176
0.81102941 0.81102941 0.81102941
0.81813725 0.81813725 0.81813725
0.82843137 0.82843137 0.82843137
0.83872549 0.83872549 0.83872549
0.84019608 0.84019608 0.84019608
0.84754902 0.84754902 0.84754902
0.85980392 0.85980392 0.85980392
0.88039216 0.88039216 0.88039216
0.89509804 0.89509804 0.89509804
0.9 0.9 0.9
0.90098039 0.90098039 0.90098039
0.83970588 0.83970588 0.83970588
0.83970588 0.83970588 0.83970588
0.83578431 0.83578431 0.83578431
0.83186275 0.83186275 0.83186275
0.82794118 0.82794118 0.82794118
0.82775735 0.82775735 0.82775735
0.82463235 0.82463235 0.82463235
0.82401961 0.82401961 0.82401961
0.82794118 0.82794118 0.82794118
0.82794118 0.82794118 0.82794118
0.82794118 0.82794118 0.82794118
0.8254902 0.8254902 0.8254902
0.83382353 0.83382353 0.83382353
0.83970588 0.83970588 0.83970588
0.84362745 0.84362745 0.84362745
0.84901961 0.84901961 0.84901961
0.85931373 0.85931373 0.85931373
0.86960784 0.86960784 0.86960784
0.87107843 0.87107843 0.87107843
0.87843137 0.87843137 0.87843137
0.88872549 0.88872549 0.88872549
0.90539216 0.90539216 0.90539216
0.9127451 0.9127451 0.9127451
0.9127451 0.9127451 0.9127451
0.9127451 0.9127451 0.9127451
0.87058824 0.87058824 0.87058824
0.86421569 0.86421569 0.86421569
0.85882353 0.85882353 0.85882353
0.85490196 0.85490196 0.85490196
0.85098039 0.85098039 0.85098039
0.85098039 0.85098039 0.85098039
0.85098039 0.85098039 0.85098039
0.85098039 0.85098039 0.85098039
0.85098039 0.85098039 0.85098039
0.85098039 0.85098039 0.85098039
0.85588235 0.85588235 0.85588235
0.8622549 0.8622549 0.8622549
0.86470588 0.86470588 0.86470588
0.86666667 0.86666667 0.86666667
0.86960784 0.86960784 0.86960784
0.87598039 0.87598039 0.87598039
0.88627451 0.88627451 0.88627451
0.89411765 0.89411765 0.89411765
0.89411765 0.89411765 0.89411765
0.90147059 0.90147059 0.90147059
0.91568627 0.91568627 0.91568627
0.9254902 0.9254902 0.9254902
0.9254902 0.9254902 0.9254902
0.92156863 0.92156863 0.92156863
0.92156863 0.92156863 0.92156863
0.047058824 0.047058824 0.047058824
0.047058824 0.047058824 0.047058824
0.049877451 0.049877451 0.049877451
0.054718137 0.054718137 0.054718137
0.058823529 0.058823529 0.058823529
0.062745098 0.062745098 0.062745098
0.066666667 0.066666667 0.066666667
0.079901961 0.079901961 0.079901961
0.094117647 0.094117647 0.094117647
0.10925245 0.10925245 0.10925245
0.13235294 0.13235294 0.13235294
0.1596201 0.1596201 0.1596201
0.18872549 0.18872549 0.18872549
0.22647059 0.22647059 0.22647059
0.27205882 0.27205882 0.27205882
0.32352941 0.32352941 0.32352941
0.37892157 0.37892157 0.37892157
0.43431373 0.43431373 0.43431373
0.47696078 0.47696078 0.47696078
0.51439951 0.51439951 0.51439951
0.55098039 0.55098039 0.55098039
0.58578431 0.58578431 0.58578431
0.6185049 0.6185049 0.6185049
0.64754902 0.64754902 0.64754902
0.67058824 0.67058824 0.67058824
0.047058824 0.047058824 0.047058824
0.047058824 0.047058824 0.047058824
0.049877451 0.049877451 0.049877451
0.054718137 0.054718137 0.054718137
0.058823529 0.058823529 0.058823529
0.062745098 0.062745098 0.062745098
0.066666667 0.066666667 0.066666667
0.080821078 0.080821078 0.080821078
0.097120098 0.097120098 0.097120098
0.11715686 0.11715686 0.11715686
0.13875613 0.13875613 0.13875613
0.16667433 0.16667433 0.16667433
0.19779412 0.19779412 0.19779412
0.23676471 0.23676471 0.23676471
0.28235294 0.28235294 0.28235294
0.33382353 0.33382353 0.33382353
0.38584559 0.38584559 0.38584559
0.43670343 0.43670343 0.43670343
0.47765012 0.47765012 0.47765012
0.51813725 0.51813725 0.51813725
0.55343137 0.55343137 0.55343137
0.5859758 0.5859758 0.5859758
0.62045037 0.62045037 0.62045037
0.65022978 0.65022978 0.65022978
0.67058824 0.67058824 0.67058824
0.047671569 0.047671569 0.047671569
0.047671569 0.047671569 0.047671569
0.049877451 0.049877451 0.049877451
0.054718137 0.054718137 0.054718137
0.058823529 0.058823529 0.058823529
0.062745098 0.062745098 0.062745098
0.065778186 0.065778186 0.065778186
0.082352941 0.082352941 0.082352941
0.10404412 0.10404412 0.10404412
0.12352941 0.12352941 0.12352941
0.14338235 0.14338235 0.14338235
0.17198223 0.17198223 0.17198223
0.21305147 0.21305147 0.21305147
0.25490196 0.25490196 0.25490196
0.29745711 0.29745711 0.29745711
0.34411765 0.34411765 0.34411765
0.39460784 0.39460784 0.39460784
0.43993566 0.43993566 0.43993566
0.48186275 0.48186275 0.48186275
0.52210478 0.52210478 0.52210478
0.55569853 0.55569853 0.55569853
0.58978248 0.58978248 0.58978248
