site/assets/luts/natron-haldclut--kodak2383-constlmap--ac96ee693.cube
# LUTr-Project: LUTr — LUTrepository
# LUTr-Schema-Version: 1
# LUTr-ID: natron-haldclut--kodak2383-constlmap--ac96ee693
# LUTr-Title: kodak2383 constlmap
# LUTr-Collection: Natron HaldCLUT
# LUTr-Collection-ID: natron-haldclut-presets
# LUTr-Source: https://github.com/NatronGitHub/clut
# LUTr-Source-File: submissions/natron-haldclut-presets/print/kodak2383_constlmap.png
# LUTr-Source-Format: PNG
# LUTr-Source-SHA256: f96b51f3f3410494b9ba55d18625b1967180354a08a2bc75aefa8a392848847a
# LUTr-License: CC-BY-SA-4.0
# LUTr-License-URL: https://github.com/NatronGitHub/clut#license
# LUTr-Tags: creative, film, film-emulation, hald-clut, natron, png, cube
# LUTr-Transform-Class: film-emulation
# LUTr-Input-Color-Space: srgb
# LUTr-Output-Color-Space: srgb
# LUTr-Color-Space-Confidence: assumed-display-referred
# LUTr-Conversion-Method: PNG LUT image decoded at 16-bit and sampled to 25x25x25 3D CUBE
# LUTr-Conversion-Date: 2026-07-27
# LUTr-Conversion-Tool: LUTr scripts/convert-all-to-cube.mjs
# LUTr-Conversion-Grid: 25x25x25
# LUTr-Note: Preserve this metadata and the upstream license notices when redistributing.
TITLE "kodak2383 constlmap"
LUT_3D_SIZE 25
DOMAIN_MIN 0 0 0
DOMAIN_MAX 1 1 1
0.011764706 0.0039215686 0.0078431373
0.011764706 0.0014705882 0.0053921569
0.017647059 0.0049019608 0.0078431373
0.034313725 0.015196078 0.011764706
0.049019608 0.021568627 0.017647059
0.06372549 0.031372549 0.019607843
0.081372549 0.035294118 0.019607843
0.10098039 0.040686275 0.019607843
0.13333333 0.050980392 0.015686275
0.17843137 0.06127451 0.0093137255
0.21960784 0.071568627 0.0029411765
0.2754902 0.081862745 0.0039215686
0.33529412 0.092156863 0.0098039216
0.39068627 0.10637255 0.012254902
0.44509804 0.11666667 0.015686275
0.46960784 0.12156863 0.014215686
0.49019608 0.1254902 0.0078431373
0.51078431 0.12941176 0.0039215686
0.52843137 0.13333333 0.00098039216
0.55931373 0.1372549 0.015196078
0.57058824 0.1372549 0.019607843
0.56176471 0.1372549 0.019607843
0.5754902 0.14019608 0.019607843
0.58970588 0.14117647 0.019607843
0.6 0.14509804 0.019607843
0.011764706 0.010294118 0.014215686
0.011764706 0.010294118 0.014215686
0.019485294 0.01127451 0.014215686
0.030882353 0.019117647 0.018137255
0.047058824 0.026715686 0.020833333
0.063419118 0.034007353 0.023529412
0.080392157 0.039215686 0.023529412
0.10490196 0.046139706 0.023529412
0.14362745 0.054901961 0.019607843
0.19025735 0.066727941 0.012683824
0.2372549 0.078308824 0.006372549
0.29215686 0.092156863 0.0076593137
0.34803922 0.1 0.011764706
0.40098039 0.11029412 0.015686275
0.4495098 0.11948529 0.01629902
0.4783701 0.12457108 0.011764706
0.50294118 0.12794118 0.0078431373
0.52352941 0.13278186 0.0039215686
0.54411765 0.1372549 0.0045343137
0.56568627 0.13970588 0.012561275
0.57573529 0.14117647 0.019607843
0.57922794 0.14362745 0.019607843
0.58823529 0.14509804 0.019607843
0.6 0.14901961 0.019607843
0.60637255 0.15147059 0.019607843
0.011764706 0.020588235 0.023529412
0.014583333 0.020588235 0.020588235
0.020588235 0.024509804 0.024509804
0.030882353 0.027083333 0.027083333
0.047058824 0.031862745 0.02745098
0.059803922 0.036642157 0.023529412
0.079656863 0.042401961 0.023529412
0.11213235 0.05245098 0.023161765
0.15784314 0.059803922 0.019607843
0.2057598 0.073651961 0.015686275
0.25392157 0.0875 0.012745098
0.30919118 0.098529412 0.012745098
0.36421569 0.10882353 0.015686275
0.41605392 0.11911765 0.019607843
0.45980392 0.12647059 0.019607843
0.4877451 0.1314951 0.014215686
0.51470588 0.13431373 0.0078431373
0.53982843 0.13823529 0.0014705882
0.55980392 0.14215686 0.0049019608
0.57647059 0.14473039 0.011642157
0.58823529 0.14754902 0.015686275
0.59448529 0.15 0.019607843
0.60098039 0.15392157 0.02254902
0.60992647 0.15784314 0.023529412
0.6127451 0.15784314 0.023529412
0.011764706 0.030882353 0.02745098
0.015686275 0.031066176 0.028921569
0.024387255 0.034803922 0.031004902
0.030882353 0.034803922 0.034803922
0.045343137 0.03872549 0.031127451
0.059803922 0.042708333 0.027389706
0.076470588 0.046936275 0.023529412
0.12058824 0.057659314 0.023529412
0.16813725 0.070098039 0.023039216
0.2158701 0.084129902 0.020894608
0.26801471 0.094607843 0.019607843
0.32254902 0.10882353 0.019607843
0.37794118 0.11911765 0.019607843
0.42941176 0.12598039 0.020036765
0.47107843 0.13578431 0.019607843
0.50018382 0.14197304 0.015502451
0.52892157 0.14803922 0.01127451
0.55716912 0.15196078 0.0073529412
0.57647059 0.15245098 0.0074754902
0.59068627 0.15245098 0.01127451
0.60490196 0.15637255 0.013970588
0.61127451 0.16029412 0.019607843
0.61507353 0.16323529 0.02254902
0.61911765 0.16599265 0.027144608
0.61960784 0.16813725 0.02745098
0.011764706 0.041176471 0.033333333
0.015686275 0.041176471 0.034558824
0.023529412 0.045098039 0.037254902
0.029166667 0.04877451 0.039215686
0.042156863 0.051960784 0.03627451
0.057598039 0.055147059 0.033088235
0.079411765 0.061764706 0.029411765
0.12107843 0.070833333 0.029411765
0.16862745 0.084313725 0.029411765
0.22009804 0.094607843 0.028186275
0.2745098 0.10882353 0.02745098
0.33259804 0.11911765 0.025735294
0.38921569 0.13039216 0.025490196
0.44362745 0.1377451 0.023529412
0.48333333 0.14803922 0.023529412
0.51617647 0.15563725 0.019607843
0.54705882 0.1627451 0.017647059
0.57598039 0.16470588 0.01372549
0.59803922 0.16666667 0.011764706
0.6129902 0.16666667 0.01372549
0.62254902 0.16960784 0.015686275
0.62794118 0.17279412 0.019607843
0.63431373 0.17794118 0.02254902
0.6372549 0.18112745 0.024264706
0.63921569 0.18235294 0.025490196
0.0078431373 0.051470588 0.039215686
0.014215686 0.054105392 0.039522059
0.019240196 0.059436275 0.043137255
0.023468137 0.063664216 0.043137255
0.037009804 0.067156863 0.039705882
0.055453431 0.072058824 0.038786765
0.083333333 0.079411765 0.035784314
0.11960784 0.084620098 0.035784314
0.16470588 0.094607843 0.035784314
0.22040441 0.1091299 0.035294118
0.28223039 0.1245098 0.031740196
0.34705882 0.14166667 0.031372549
0.40465686 0.15220588 0.02745098
0.45827206 0.16133578 0.02745098
0.50294118 0.1682598 0.024877451
0.53480392 0.17481618 0.023529412
0.56568627 0.18088235 0.019607843
0.59411765 0.18137255 0.019607843
0.61862745 0.18137255 0.015686275
0.63578431 0.18137255 0.016176471
0.64411765 0.1872549 0.019607843
0.64852941 0.19313725 0.019669118
0.65490196 0.19607843 0.022671569
0.65588235 0.19705882 0.023529412
0.65588235 0.19705882 0.023529412
0.014705882 0.07254902 0.049019608
0.013602941 0.07254902 0.047916667
0.012745098 0.076470588 0.047058824
0.016544118 0.08002451 0.047058824
0.028431373 0.082843137 0.046078431
0.05245098 0.093014706 0.043137255
0.08627451 0.10220588 0.042156863
0.12144608 0.10330882 0.042156863
0.16764706 0.11176471 0.042156863
0.23235294 0.13137255 0.036764706
0.30269608 0.15196078 0.032107843
0.36764706 0.17254902 0.028431373
0.42303922 0.17745098 0.02745098
0.47205882 0.1814951 0.02745098
0.51985294 0.18627451 0.02745098
0.55539216 0.19227941 0.023529412
0.58627451 0.19803922 0.019607843
0.61715686 0.20196078 0.017769608
0.63921569 0.20269608 0.016666667
0.6560049 0.2122549 0.019607843
0.66862745 0.21960784 0.02254902
0.67291667 0.22352941 0.023529412
0.67867647 0.22671569 0.026470588
0.67941176 0.22745098 0.026470588
0.67941176 0.22745098 0.026470588
0.021078431 0.098529412 0.064215686
0.018627451 0.097610294 0.060845588
0.010784314 0.094240196 0.055392157
0.006372549 0.095281863 0.05245098
0.023529412 0.10367647 0.051715686
0.051164216 0.11862745 0.048345588
0.083333333 0.12892157 0.044607843
0.12702206 0.13529412 0.043137255
0.1872549 0.14852941 0.039215686
0.25539216 0.16519608 0.035294118
0.32352941 0.18394608 0.029289216
0.39166667 0.20343137 0.023835784
0.44803922 0.2122549 0.024754902
0.49528186 0.21194853 0.02745098
0.54129902 0.21090686 0.02745098
0.57745098 0.21666667 0.025980392
0.60833333 0.22303922 0.019607843
0.63921569 0.22640931 0.015686275
0.66090686 0.23823529 0.018504902
0.67794118 0.24871324 0.021752451
0.69117647 0.25686275 0.025490196
0.69883578 0.25931373 0.028921569
0.70208333 0.26262255 0.031372549
0.70545343 0.26378676 0.028921569
0.70637255 0.26470588 0.028921569
0.02745098 0.1254902 0.078431373
0.031372549 0.12303922 0.075980392
0.018627451 0.12156863 0.069607843
0.0044117647 0.12107843 0.062745098
0.015686275 0.13333333 0.062745098
0.045098039 0.14558824 0.058333333
0.082352941 0.15588235 0.048039216
0.14215686 0.1754902 0.043137255
0.20784314 0.19215686 0.035294118
0.27205882 0.20882353 0.031372549
0.34411765 0.22058824 0.026470588
0.40882353 0.23431373 0.020098039
0.46862745 0.24313725 0.017647059
0.52009804 0.25147059 0.023529412
0.57254902 0.26470588 0.02745098
0.6122549 0.27058824 0.025980392
0.64313725 0.27058824 0.019607843
0.67156863 0.27303922 0.013235294
0.69215686 0.28431373 0.015686275
0.70882353 0.29754902 0.015686275
0.71764706 0.30196078 0.021568627
0.72205882 0.29803922 0.027941176
0.72843137 0.29705882 0.035294118
0.73333333 0.30588235 0.031372549
0.73333333 0.30980392 0.031372549
0.02745098 0.15392157 0.092647059
0.033823529 0.15453431 0.092647059
0.03002451 0.15588235 0.088357843
0.015992647 0.1622549 0.081188725
0.0090686275 0.16617647 0.075
0.033333333 0.18088235 0.072732843
0.084191176 0.2 0.059313725
0.14754902 0.21819853 0.043198529
0.21421569 0.2372549 0.028921569
0.28480392 0.25147059 0.02254902
0.36470588 0.26813725 0.025245098
0.43186275 0.27714461 0.020220588
0.49362745 0.28529412 0.01495098
0.55098039 0.30324755 0.022242647
0.60245098 0.31715686 0.027083333
0.64705882 0.32205882 0.025980392
0.67794118 0.3245098 0.019607843
0.70398284 0.3221201 0.010845588
0.72205882 0.33370098 0.013602941
0.73627451 0.34295343 0.009620098
0.74534314 0.34705882 0.013235294
0.75294118 0.35245098 0.021078431
0.75931373 0.35980392 0.02254902
0.76568627 0.36764706 0.021078431
0.77058824 0.37156863 0.018627451
0.023529412 0.17843137 0.10294118
0.026470588 0.18676471 0.10294118
0.02745098 0.19607843 0.10294118
0.020098039 0.20343137 0.099142157
0.010294118 0.20637255 0.092156863
0.01875 0.22144608 0.083333333
0.075 0.24117647 0.066666667
0.1439951 0.26176471 0.049019608
0.21764706 0.2754902 0.028431373
0.29473039 0.29178922 0.014705882
0.37965686 0.31666667 0.020833333
0.45343137 0.33480392 0.015686275
0.52254902 0.35098039 0.017647059
0.58578431 0.36237745 0.027573529
0.6372549 0.37352941 0.027696078
0.67830882 0.37414216 0.024142157
0.7127451 0.37843137 0.020588235
0.73970588 0.39607843 0.020588235
0.75588235 0.39803922 0.015441176
0.76360294 0.38982843 0.0047794118
0.77303922 0.39558824 0.0049019608
0.78382353 0.41029412 0.0078431373
0.79019608 0.42058824 0.010784314
0.79509804 0.42487745 0.010784314
0.79901961 0.42843137 0.010784314
0.023529412 0.21764706 0.12058824
0.023529412 0.22401961 0.12058824
0.023529412 0.23431373 0.12058824
0.02310049 0.24460784 0.11666667
0.021078431 0.25441176 0.11078431
0.016053922 0.26875 0.097181373
0.031495098 0.28333333 0.080759804
0.11029412 0.30686275 0.059313725
0.20784314 0.33039216 0.03872549
0.30735294 0.353125 0.016973039
0.39767157 0.38333333 0.028553922
0.47058824 0.39607843 0.0083333333
0.54779412 0.4125 0.019362745
0.61366422 0.42064951 0.031862745
0.66813725 0.4317402 0.02879902
0.71060049 0.44362745 0.020098039
0.74754902 0.45098039 0.020098039
0.77420343 0.46568627 0.023529412
0.7877451 0.46703431 0.022058824
0.79454657 0.459375 0.014767157
0.80416667 0.46495098 0.01127451
0.81482843 0.47610294 0.011764706
0.81862745 0.47990196 0.0078431373
0.82205882 0.47990196 0.0026348039
0.82254902 0.48382353 0.00049019608
0.019607843 0.25882353 0.13921569
0.023529412 0.26519608 0.1379902
0.025980392 0.2754902 0.1372549
0.030882353 0.28578431 0.1372549
0.033333333 0.29607843 0.13235294
0.020588235 0.31029412 0.11470588
0.0014705882 0.32598039 0.094117647
0.10245098 0.35931373 0.069607843
0.21372549 0.39019608 0.045098039
0.31862745 0.41666667 0.025735294
0.40735294 0.43627451 0.014705882
0.48823529 0.45220588 0.0024509804
0.56764706 0.47254902 0.011764706
0.64019608 0.48872549 0.021813725
0.69705882 0.50294118 0.018627451
0.74313725 0.51323529 0.012254902
0.78235294 0.52745098 0.011764706
0.80563725 0.53259804 0.018137255
0.82009804 0.53823529 0.028921569
0.82892157 0.53529412 0.025490196
0.83627451 0.54019608 0.029411765
0.84509804 0.54754902 0.027205882
0.84901961 0.55098039 0.022058824
0.85294118 0.55098039 0.012254902
0.85294118 0.55490196 0.0098039216
0.019117647 0.29607843 0.15392157
0.019607843 0.29963235 0.15392157
0.020710784 0.30882353 0.15477941
0.040073529 0.32297794 0.15827206
0.038480392 0.33308824 0.15147059
0.022058824 0.35202206 0.1372549
0.0035539216 0.37647059 0.12058824
0.10392157 0.41047794 0.084129902
0.21960784 0.44509804 0.046568627
0.32303922 0.47254902 0.030208333
0.42120098 0.49607843 0.018627451
0.51421569 0.51960784 0.0088235294
0.59534314 0.54044118 0.0078431373
0.66323529 0.56029412 0.01127451
0.72156863 0.57058824 0.0074754902
0.77009804 0.57824755 0.0037990196
0.80098039 0.59117647 0.016176471
0.82922794 0.59724265 0.027941176
0.84522059 0.59901961 0.032720588
0.85631127 0.60294118 0.039215686
0.86617647 0.61078431 0.044117647
0.87248775 0.61519608 0.043137255
0.87855392 0.6189951 0.032843137
0.87990196 0.62254902 0.02254902
0.88333333 0.62254902 0.016176471
0.015686275 0.33333333 0.16764706
0.012745098 0.3372549 0.17058824
0.017892157 0.34387255 0.17083333
0.026348039 0.35735294 0.16519608
0.026470588 0.36911765 0.15784314
0.012132353 0.39313725 0.14754902
0.012009804 0.41691176 0.13039216
0.10821078 0.45477941 0.074877451
0.21960784 0.49019608 0.025490196
0.33223039 0.52046569 0.018872549
0.43897059 0.55098039 0.019607843
0.53480392 0.5810049 0.014828431
0.61813725 0.60245098 0.0078431373
0.69411765 0.62634804 0.0094362745
0.75122549 0.63553922 0.010784314
0.79068627 0.63517157 0.015196078
0.82156863 0.65 0.034313725
0.84669118 0.65392157 0.035784314
0.86666667 0.65465686 0.036029412
0.87990196 0.66421569 0.049019608
0.89019608 0.67107843 0.059313725
0.89644608 0.67659314 0.053431373
0.90220588 0.67965686 0.043137255
0.90502451 0.68137255 0.031740196
0.90784314 0.68039216 0.019607843
0.011764706 0.36764706 0.17794118
0.010294118 0.36764706 0.17794118
0.01127451 0.37009804 0.17757353
0.016360294 0.38253676 0.17273284
0.016911765 0.40318627 0.16617647
0.011764706 0.42892157 0.15765931
0.022058824 0.45637255 0.13664216
0.11813725 0.49209559 0.072977941
0.21960784 0.52843137 0.0078431373
0.34215686 0.56617647 0.010294118
0.45772059 0.59705882 0.012377451
0.55392157 0.62794118 0.014215686
0.63823529 0.65490196 0.0090686275
0.71078431 0.67598039 0.0041053922
0.77267157 0.68786765 0.024509804
0.81072304 0.68333333 0.031862745
0.83823529 0.69607843 0.040686275
0.8627451 0.7 0.040686275
0.88517157 0.70343137 0.039828431
0.90030637 0.71734069 0.059313725
0.9120098 0.72205882 0.069362745
0.91697304 0.72352941 0.060294118
0.92058824 0.72352941 0.053431373
0.92303922 0.72113971 0.043688725
0.92303922 0.71813725 0.038235294
0.011764706 0.38823529 0.18431373
0.0078431373 0.39215686 0.18431373
0.0039215686 0.39313725 0.18333333
0.0039215686 0.41078431 0.18039216
0.0078431373 0.43137255 0.17647059
0.01372549 0.45245098 0.16764706
0.03627451 0.48039216 0.13333333
0.12156863 0.51568627 0.072058824
0.21568627 0.55294118 0.011764706
0.34705882 0.59656863 0.0039215686
0.46862745 0.63823529 0.0039215686
0.56470588 0.66519608 0.0039215686
0.64901961 0.68627451 0.0078431373
0.71666667 0.70294118 0.016176471
0.77843137 0.72058824 0.033333333
0.82794118 0.73088235 0.047058824
0.85490196 0.73333333 0.050980392
0.87794118 0.73333333 0.054901961
0.89901961 0.73431373 0.059803922
0.91323529 0.74803922 0.070098039
0.92745098 0.75686275 0.078431373
0.93382353 0.76078431 0.070098039
0.9372549 0.75686275 0.06372549
0.9372549 0.75294118 0.062745098
0.9372549 0.75294118 0.058823529
0.025980392 0.39852941 0.19460784
0.019056373 0.40490196 0.19460784
0.0053921569 0.41188725 0.19007353
0 0.43137255 0.18823529
0.0014705882 0.45196078 0.18676471
0.012928922 0.47432598 0.17322304
0.035906863 0.50036765 0.13578431
0.11764706 0.53535539 0.075122549
0.21323529 0.57352941 0.013235294
0.34068627 0.615625 0.003002451
0.46605392 0.65637255 0.0024509804
0.57058824 0.68596814 0.0037377451
0.65343137 0.70686275 0.0098039216
0.72303922 0.72696078 0.024509804
0.78480392 0.74411765 0.041789216
0.83670343 0.75931373 0.057291667
0.86519608 0.76421569 0.067647059
0.88970588 0.76421569 0.074571078
0.91029412 0.76519608 0.077573529
0.92696078 0.7754902 0.083026961
0.94166667 0.78455882 0.083578431
0.94754902 0.78529412 0.080882353
0.95110294 0.7877451 0.082720588
0.95238971 0.78627451 0.083333333
0.95392157 0.78382353 0.083333333
0.035294118 0.40882353 0.20392157
0.02254902 0.41911765 0.20036765
0.0068627451 0.42965686 0.19607843
0.0039215686 0.44803922 0.1935049
0.0044117647 0.47009804 0.18970588
0.0078431373 0.49313725 0.17156863
0.020343137 0.51666667 0.14191176
0.11764706 0.55441176 0.07745098
0.21176471 0.58921569 0.0029411765
0.33529412 0.63039216 0.0039215686
0.45710784 0.66666667 0.0039215686
0.57144608 0.70110294 0.0039215686
0.66323529 0.725 0.0078431373
0.73333333 0.7439951 0.028431373
0.79436275 0.76151961 0.045098039
0.84007353 0.77536765 0.064583333
0.8754902 0.78627451 0.079411765
0.90245098 0.79019608 0.089705882
0.92352941 0.79117647 0.095343137
0.9377451 0.79803922 0.095588235
0.94705882 0.80098039 0.089215686
0.95306373 0.80098039 0.08627451
0.95759804 0.80490196 0.089460784
0.96507353 0.81311275 0.099509804
0.96568627 0.81372549 0.10196078
0.027941176 0.42303922 0.20735294
0.021078431 0.43314951 0.20392157
0.0068627451 0.44448529 0.2
0.0039215686 0.4651348 0.2
0.0078431373 0.48921569 0.18823529
0.011335784 0.5098652 0.16764706
0.010906863 0.53088235 0.14705882
0.11452206 0.56862745 0.082843137
0.21519608 0.60343137 0.0039215686
0.34215686 0.64068627 0.0078431373
0.46164216 0.67781863 0.0078431373
0.57444853 0.71176471 0.0073529412
0.66838235 0.74068627 0.015196078
0.73976716 0.76078431 0.028431373
0.79595588 0.77757353 0.049019608
0.83903186 0.78921569 0.065686275
0.87843137 0.7995098 0.082352941
0.90931373 0.80949755 0.1
0.93382353 0.81470588 0.10931373
0.94417892 0.81519608 0.10245098
0.95073529 0.81495098 0.093872549
0.95686275 0.81176471 0.086703431
0.96335784 0.81813725 0.093137255
0.96617647 0.82303922 0.098039216
0.96862745 0.82352941 0.098529412
0.017647059 0.44117647 0.20784314
0.014460784 0.44362745 0.20539216
0.0053921569 0.45833333 0.20392157
0.0073529412 0.48308824 0.20392157
0.015686275 0.5 0.18627451
0.013480392 0.52083333 0.16813725
0.014705882 0.54656863 0.14754902
0.10294118 0.57892157 0.085784314
0.23333333 0.61568627 0.01372549
0.36593137 0.65490196 0.011764706
0.48921569 0.69117647 0.011764706
0.58970588 0.72205882 0.013480392
0.66960784 0.74705882 0.023529412
0.74656863 0.77156863 0.033823529
0.80196078 0.78676471 0.049019608
0.84779412 0.7995098 0.06495098
0.89215686 0.81372549 0.082352941
0.91911765 0.82083333 0.099019608
0.94019608 0.82745098 0.10980392
0.94852941 0.82573529 0.10416667
0.95490196 0.8254902 0.096078431
0.96102941 0.8254902 0.090196078
0.96470588 0.82941176 0.093627451
0.96862745 0.82941176 0.094117647
0.96862745 0.83137255 0.098039216
0.0078431373 0.45098039 0.20833333
0.0073529412 0.45520833 0.20539216
0.0035539216 0.47009804 0.20392157
0.0073529412 0.49797794 0.20392157
0.021813725 0.51446078 0.18431373
0.024509804 0.5348652 0.16709559
0.030514706 0.5627451 0.13921569
0.10490196 0.59148284 0.083210784
0.25245098 0.62794118 0.028431373
0.39381127 0.66519608 0.011764706
0.50294118 0.69754902 0.013235294
0.59558824 0.72843137 0.023039216
0.67892157 0.75539216 0.029411765
0.75686275 0.77794118 0.039705882
0.8122549 0.79546569 0.050367647
0.85704657 0.80716912 0.065686275
0.89803922 0.82009804 0.078431373
0.92647059 0.82775735 0.095098039
0.94252451 0.83529412 0.10453431
0.95245098 0.83529412 0.098468137
0.95882353 0.83578431 0.094117647
0.96519608 0.83578431 0.090257353
0.96911765 0.83578431 0.094607843
0.97089461 0.83970588 0.098529412
0.97303922 0.83970588 0.098529412
0.0039215686 0.45098039 0.21568627
0.00036764706 0.46421569 0.20894608
0.00098039216 0.4872549 0.20392157
0.0073529412 0.51727941 0.20098039
0.026470588 0.53284314 0.18137255
0.048039216 0.55245098 0.15294118
0.042401961 0.58333333 0.11495098
0.15 0.61421569 0.071078431
0.29019608 0.64509804 0.033333333
0.41470588 0.67598039 0.011764706
0.50980392 0.70784314 0.017401961
0.60245098 0.73529412 0.026102941
0.6877451 0.7622549 0.033333333
0.76715686 0.78529412 0.039705882
0.81960784 0.80196078 0.053921569
0.86262255 0.81323529 0.068137255
0.89803922 0.82647059 0.078431373
0.92892157 0.83492647 0.092647059
0.94607843 0.83921569 0.09877451
0.95539216 0.84215686 0.094240196
0.96568627 0.84215686 0.094117647
0.97205882 0.84313725 0.094485294
0.97843137 0.84607843 0.10098039
0.9814951 0.84816176 0.10698529
0.98627451 0.85 0.10882353
0 0.45637255 0.21960784
0 0.48480392 0.21323529
0.00098039216 0.51507353 0.20686275
0.0086397059 0.54068627 0.1939951
0.038235294 0.5627451 0.15490196
0.094240196 0.58167892 0.12303922
0.12352941 0.60392157 0.091666667
0.20177696 0.63088235 0.05245098
0.33529412 0.66176471 0.014215686
0.43676471 0.69656863 0.011764706
0.53051471 0.72352941 0.014583333
0.61844363 0.75079657 0.021752451
0.69485294 0.77009804 0.033333333
0.77175245 0.79068627 0.043627451
0.82352941 0.80686275 0.053921569
0.86323529 0.81862745 0.068137255
0.89803922 0.83137255 0.078431373
0.9307598 0.84166667 0.08872549
0.95428922 0.84852941 0.098039216
0.96568627 0.85067402 0.099509804
0.97205882 0.85098039 0.098039216
0.97843137 0.85116422 0.098223039
0.98541667 0.85245098 0.10306373
0.98878676 0.85490196 0.10980392
0.99215686 0.85490196 0.1122549
0 0.45882353 0.21960784
0 0.49607843 0.21323529
0 0.5372549 0.21078431
0.0034313725 0.56372549 0.17843137
0.0019607843 0.59019608 0.12156863
0.05245098 0.60784314 0.094607843
0.14607843 0.63039216 0.065686275
0.24901961 0.65 0.029411765
0.36862745 0.67843137 0.0039215686
0.45735294 0.71176471 0.0078431373
0.55 0.74019608 0.011764706
0.63186275 0.76372549 0.019117647
0.70392157 0.78039216 0.031372549
0.7754902 0.79705882 0.043627451
0.82352941 0.81078431 0.053921569
0.86078431 0.82107843 0.068137255
0.89803922 0.83529412 0.078431373
0.93137255 0.84558824 0.08872549
0.95882353 0.85490196 0.099019608
0.97254902 0.85882353 0.10196078
0.97843137 0.85490196 0.10196078
0.98480392 0.85539216 0.10196078
0.99215686 0.85882353 0.10196078
0.99215686 0.85882353 0.10588235
0.99215686 0.85882353 0.10980392
0.011764706 0.010294118 0.014215686
0.011764706 0.010294118 0.014215686
0.016666667 0.010294118 0.015196078
0.030882353 0.015196078 0.01942402
0.047058824 0.024754902 0.024019608
0.063419118 0.031372549 0.02567402
0.080392157 0.035294118 0.023529412
0.097058824 0.040686275 0.019607843
0.12941176 0.047058824 0.015686275
0.18333333 0.06127451 0.010845588
0.23541667 0.071568627 0.006372549
0.28872549 0.079411765 0.006372549
0.34485294 0.089705882 0.0098039216
0.39754902 0.1 0.013541667
0.44767157 0.11029412 0.015686275
0.47598039 0.11519608 0.012683824
0.49656863 0.11911765 0.0078431373
0.52052696 0.12303922 0.006372549
0.5377451 0.12977941 0.010661765
0.5596201 0.13333333 0.018933824
0.56862745 0.1372549 0.023529412
0.57297794 0.13541667 0.019607843
0.58333333 0.13480392 0.017769608
0.59454657 0.13780637 0.016605392
0.60392157 0.14117647 0.015686275
0.011764706 0.014215686 0.019056373
0.011764706 0.013641238 0.018481924
0.020174632 0.014445466 0.018367034
0.030882353 0.021568627 0.022748162
0.047058824 0.028400735 0.025980392
0.061963848 0.034007353 0.02689951
0.080392157 0.038848039 0.026210172
0.10490196 0.046139706 0.024486826
0.14362745 0.053431373 0.019607843
0.19267004 0.062193627 0.012109375
0.24427083 0.074157475 0.0077052696
0.29737286 0.085784314 0.0091835172
0.35242034 0.096078431 0.012990196
0.40735294 0.10637255 0.015992647
0.45274203 0.11666667 0.018688725
0.481947 0.12099418 0.014215686
0.50778186 0.12457108 0.0078431373
0.53137255 0.1290671 0.0048406863
0.54849877 0.13287377 0.01104473
0.56617647 0.13714001 0.018129596
0.57650123 0.13893995 0.022334559
0.58528646 0.13988971 0.01941636
