site/assets/luts/natron-haldclut--fuji-800z--2c9760989.cube
# LUTr-Project: LUTr — LUTrepository
# LUTr-Schema-Version: 1
# LUTr-ID: natron-haldclut--fuji-800z--2c9760989
# LUTr-Title: fuji 800z +
# LUTr-Collection: Natron HaldCLUT
# LUTr-Collection-ID: natron-haldclut-presets
# LUTr-Source: https://github.com/NatronGitHub/clut
# LUTr-Source-File: submissions/natron-haldclut-presets/negative_new/fuji_800z_+.png
# LUTr-Source-Format: PNG
# LUTr-Source-SHA256: 78f6233527d64386ef863008fbfa87e803a86bdb71afe169b436e44650440447
# LUTr-License: CC-BY-SA-4.0
# LUTr-License-URL: https://github.com/NatronGitHub/clut#license
# LUTr-Tags: creative, film, film-emulation, hald-clut, natron, png, cube
# LUTr-Transform-Class: film-emulation
# LUTr-Input-Color-Space: srgb
# LUTr-Output-Color-Space: srgb
# LUTr-Color-Space-Confidence: assumed-display-referred
# LUTr-Conversion-Method: PNG LUT image decoded at 16-bit and sampled to 25x25x25 3D CUBE
# LUTr-Conversion-Date: 2026-07-27
# LUTr-Conversion-Tool: LUTr scripts/convert-all-to-cube.mjs
# LUTr-Conversion-Grid: 25x25x25
# LUTr-Note: Preserve this metadata and the upstream license notices when redistributing.
TITLE "fuji 800z +"
LUT_3D_SIZE 9
DOMAIN_MIN 0 0 0
DOMAIN_MAX 1 1 1
0.12941176 0.10196078 0.082352941
0.19509804 0.10588235 0.094117647
0.26470588 0.087254902 0.075490196
0.39656863 0.07745098 0.093137255
0.54313725 0.039215686 0.074509804
0.71470588 0.014215686 0.057352941
0.84705882 0.028431373 0.042156863
0.9627451 0.031372549 0.031862745
1 0.1372549 0
0.14460784 0.14019608 0.094117647
0.18290441 0.14460784 0.094117647
0.26372549 0.15980392 0.09375
0.38480392 0.15165441 0.074509804
0.53921569 0.13553922 0.074509804
0.70931373 0.12273284 0.046078431
0.84313725 0.12389706 0.023897059
0.94650735 0.15539216 0.011764706
0.99607843 0.21029412 0
0.15686275 0.22352941 0.11764706
0.17598039 0.22058824 0.10539216
0.25759804 0.24411765 0.10784314
0.37732843 0.2627451 0.070588235
0.52794118 0.27352941 0.057352941
0.69178922 0.27561275 0.017647059
0.82843137 0.28553922 0.017647059
0.94362745 0.30196078 0.00085784314
0.98137255 0.31372549 0
0.14901961 0.31176471 0.12009804
0.17990196 0.31354167 0.12824755
0.23272059 0.32340686 0.11862745
0.34859069 0.3661152 0.07745098
0.52107843 0.42034314 0.0051470588
0.68039216 0.42794118 0.0078431373
0.80931373 0.4254902 0.0039215686
0.91648284 0.42598039 0
0.99215686 0.44754902 0
0.13137255 0.42352941 0.14117647
0.16789216 0.41593137 0.15073529
0.21568627 0.40392157 0.1495098
0.31446078 0.44877451 0.12107843
0.47843137 0.50980392 0.046078431
0.65392157 0.55833333 0.0058823529
0.79362745 0.56764706 0.0078431373
0.8995098 0.55294118 0.0078431373
0.97058824 0.56078431 0.0039215686
0.13480392 0.53529412 0.16617647
0.16029412 0.53529412 0.17254902
0.20796569 0.5127451 0.16617647
0.29846814 0.53480392 0.15496324
0.42990196 0.58014706 0.12205882
0.61317402 0.63670343 0.07745098
0.79509804 0.68786765 0.0013480392
0.89166667 0.68008578 0.0078431373
0.94362745 0.68039216 0.0039215686
0.15490196 0.64705882 0.19607843
0.20931373 0.65 0.21372549
0.24509804 0.63455882 0.20588235
0.30122549 0.61813725 0.19791667
0.43039216 0.65539216 0.20686275
0.57352941 0.69362745 0.20245098
0.73333333 0.7372549 0.17181373
0.87242647 0.78382353 0.16960784
0.94607843 0.79607843 0.15294118
0.3245098 0.75882353 0.31176471
0.34319853 0.75925245 0.31960784
0.36887255 0.75490196 0.31188725
0.41832108 0.74675245 0.31568627
0.50171569 0.75686275 0.32990196
0.60294118 0.78333333 0.33578431
0.72904412 0.81813725 0.34852941
0.83676471 0.84901961 0.34901961
0.93627451 0.87941176 0.36764706
0.56862745 0.89411765 0.54509804
0.56470588 0.88627451 0.5372549
0.58333333 0.88627451 0.54411765
0.60637255 0.87598039 0.53480392
0.66078431 0.88627451 0.56078431
0.7127451 0.89803922 0.56862745
0.78235294 0.92156863 0.58333333
0.85196078 0.92990196 0.58088235
0.88627451 0.94117647 0.59607843
0.14509804 0.11372549 0.13235294
0.1872549 0.10588235 0.12892157
0.27806373 0.099019608 0.12855392
0.40802696 0.070220588 0.13235294
0.55857843 0.018382353 0.12843137
0.71715686 0.0065563725 0.1245098
0.8557598 0.00049019608 0.11531863
0.9661152 0.029473039 0.10042892
0.99558824 0.11813725 0.096568627
0.14803922 0.15189951 0.13927696
0.19117647 0.15968903 0.14411765
0.27156863 0.16715686 0.13639706
0.40006127 0.15900735 0.13627451
0.55661765 0.13357843 0.13235294
0.71715686 0.11560202 0.11901042
0.85055147 0.099494485 0.10392157
0.95703891 0.15239737 0.084803922
0.98872549 0.19068627 0.080882353
0.16066176 0.23480392 0.14803922
0.19509804 0.23622855 0.15196078
0.26344975 0.24859069 0.1375
0.38921569 0.26371017 0.12941176
0.53970588 0.26685049 0.11452206
0.70196078 0.27352941 0.087867647
0.83627451 0.27754289 0.074080882
0.94362745 0.29765625 0.05
0.98039216 0.30588235 0.053921569
0.16078431 0.34411765 0.16764706
0.18741575 0.33122702 0.158678
0.2426011 0.33573836 0.15677083
0.37120864 0.3861443 0.12849265
0.53106618 0.42009804 0.089705882
0.68167892 0.42401961 0.042287071
0.80931373 0.42406556 0.018979779
0.91268382 0.42591912 0.018160233
0.99068627 0.44332108 0.0075367647
0.14852941 0.44068627 0.16985294
0.1791973 0.43480392 0.17552083
0.22892157 0.42671569 0.17444853
0.3254902 0.45588235 0.15931373
0.49019608 0.51348039 0.11017157
0.67539828 0.57647059 0.037254902
0.79509804 0.56470588 0.0058823529
0.8995098 0.55122549 0.0037071078
0.97990196 0.55686275 0.0022058824
0.14656863 0.5504902 0.19442402
0.17285539 0.54656863 0.19313725
0.22708333 0.52817096 0.1939951
0.3047258 0.53228401 0.18872549
0.42735907 0.58333333 0.17735907
0.61464461 0.63939951 0.13959099
0.7745098 0.67354473 0.10551471
0.89558824 0.67630974 0.034191176
0.96881127 0.67303922 0.0084558824
0.1995098 0.65870098 0.23639706
0.21355699 0.65355392 0.23235294
0.26691176 0.64304534 0.23541667
0.33489583 0.63818934 0.23543199
0.43382353 0.65588235 0.23651961
0.57869179 0.69731924 0.23613664
0.73333333 0.73992034 0.22925858
0.87598039 0.78656556 0.22414216
0.93872549 0.78688725 0.21421569
0.34025735 0.76623775 0.34368873
0.3506587 0.7627451 0.33481158
0.38443627 0.75882353 0.34221814
0.43449755 0.75226716 0.3401348
0.50266544 0.75710784 0.35196078
0.60686275 0.78567708 0.35065104
0.72107843 0.81421569 0.36006434
0.83633578 0.84509804 0.37947304
0.925 0.86856618 0.39754902
0.5377451 0.875 0.52205882
0.57640931 0.89411765 0.55637255
0.5754902 0.87843137 0.5372549
0.60980392 0.88186275 0.54852941
0.6625 0.89166667 0.57426471
0.71703431 0.90625 0.58615196
0.78492647 0.92414216 0.59852941
0.85245098 0.93817402 0.60870098
0.88235294 0.9377451 0.59215686
0.15686275 0.10294118 0.20196078
0.20588235 0.125 0.20882353
0.28946078 0.11470588 0.2127451
0.43088235 0.066544118 0.2245098
0.59313725 0.0088235294 0.22598039
0.74607843 0.0078431373 0.22561275
0.87254902 0.0078431373 0.22843137
0.97401961 0.0078431373 0.22745098
0.99607843 0.095098039 0.22352941
0.15992647 0.15894608 0.21237745
0.20219056 0.16372549 0.21619179
0.28627451 0.16363358 0.2192402
0.42009804 0.15116422 0.22242647
0.58731618 0.10196078 0.22745098
0.74607843 0.053431373 0.22352941
0.86865809 0.060661765 0.22257966
0.97046569 0.11704963 0.22008272
0.99129902 0.18284314 0.21875
0.16862745 0.25392157 0.22377451
0.20272672 0.26531863 0.23063725
0.27867647 0.259375 0.23455882
0.41691176 0.26651348 0.23137255
0.57708333 0.26568627 0.22647059
0.72362132 0.2575674 0.21887255
0.85545343 0.2658701 0.21151961
0.95039828 0.28970588 0.20379902
0.98823529 0.3127451 0.2
0.16752451 0.38039216 0.22990196
0.21041667 0.3807598 0.24203431
0.27156863 0.36568627 0.24047181
0.39705882 0.39943321 0.23007047
0.55091912 0.41666667 0.21341912
0.69473039 0.42009804 0.19901961
0.81936275 0.42009804 0.1919424
0.92784926 0.428125 0.17953431
0.99546569 0.44509804 0.17990196
0.18872549 0.48284314 0.25
0.209375 0.48241422 0.25379902
0.26372549 0.46764706 0.24718137
0.34773284 0.47310049 0.24509804
0.5122549 0.5375 0.23161765
0.66966912 0.56715686 0.20839461
0.79656863 0.55759804 0.17144608
0.90557598 0.55294118 0.14430147
0.98431373 0.55686275 0.15196078
0.19068627 0.58676471 0.26875
0.2220435 0.58128064 0.26703431
0.2745098 0.5676777 0.26887255
0.33051471 0.5557598 0.2566636
0.44926471 0.59117647 0.26127451
0.61764706 0.64385723 0.25637255
0.7864277 0.68177083 0.24166667
0.89197304 0.67120098 0.20079657
0.97487745 0.66862745 0.17107843
0.24215686 0.68039216 0.30073529
0.27564338 0.67647059 0.30784314
0.30563725 0.66470588 0.30042892
0.35784314 0.65110294 0.29313725
0.45392157 0.66372549 0.29852941
0.58722426 0.70183824 0.3044424
0.7379902 0.74191176 0.31764706
0.88348652 0.79031863 0.32806373
0.96372549 0.79117647 0.30392157
0.37058824 0.77438725 0.4
0.39007353 0.77438725 0.40081189
0.4122549 0.76960784 0.39224877
0.45030637 0.76024816 0.38382353
0.50330882 0.75441176 0.38045343
0.610769 0.78382353 0.40340074
0.72864583 0.81507353 0.41602328
0.84293811 0.84852941 0.43492647
0.9439951 0.88284314 0.45845588
0.56666667 0.89215686 0.56960784
0.58492647 0.89901961 0.58039216
0.57352941 0.87647059 0.55098039
0.62303922 0.89056373 0.58223039
0.65833333 0.88627451 0.58529412
0.71372549 0.8995098 0.59754902
0.77843137 0.9129902 0.5997549
0.85588235 0.93872549 0.62757353
0.90588235 0.94901961 0.63431373
0.18676471 0.11764706 0.31960784
0.22892157 0.12910539 0.32303922
0.31323529 0.12941176 0.34215686
0.440625 0.099509804 0.35490196
0.60073529 0.03627451 0.37181373
0.77205882 0.0039215686 0.37941176
0.89767157 0.0078431373 0.37303922
0.98480392 0.020894608 0.36911765
0.99607843 0.11078431 0.3627451
0.17910539 0.17401961 0.32352941
0.22502298 0.17794118 0.32745098
0.30931373 0.17530637 0.33871017
0.42794118 0.17009804 0.35049786
0.60373775 0.11470588 0.36911765
0.78154871 0.044492953 0.37629442
0.89344363 0.067647059 0.36934743
0.98351716 0.12555147 0.36519608
0.99607843 0.19607843 0.36519608
0.16078431 0.25637255 0.33823529
0.21078431 0.27406556 0.34215686
0.29852941 0.27423407 0.3484375
0.42757353 0.28457414 0.36375613
0.60906863 0.27132353 0.37285539
0.765625 0.25747549 0.37457108
0.87303922 0.26985294 0.3671875
0.9622549 0.29546569 0.36109069
0.99215686 0.32794118 0.36127451
0.13137255 0.41525735 0.35882353
0.17904412 0.417356 0.36256127
0.29370404 0.415625 0.3676777
0.42254902 0.4192019 0.37696078
0.56890319 0.42647059 0.37156863
0.71357996 0.42254902 0.36092984
0.84313725 0.42140012 0.35435049
0.93449755 0.43901654 0.34870558
0.99215686 0.45686275 0.35343137
0.15661765 0.5370098 0.37892157
0.2268076 0.55196078 0.37647059
0.30833333 0.5379902 0.38357843
0.4080576 0.53235294 0.38088235
0.54411765 0.55306373 0.38088235
0.69019608 0.56715686 0.37156863
0.8122549 0.55686275 0.35612745
0.91847426 0.55309436 0.33244485
0.99338235 0.5620098 0.34019608
0.25392157 0.63676471 0.39319853
0.29676777 0.63676471 0.39503676
0.35477941 0.62689951 0.398269
0.40161612 0.60573683 0.37969516
0.48290441 0.60174632 0.36740196
0.64117647 0.65170037 0.38962163
0.79977022 0.68431373 0.39368873
0.89803922 0.67254902 0.37101716
0.97947304 0.66862745 0.34019608
0.33872549 0.70919118 0.41470588
0.34607843 0.70758272 0.41470588
0.38079044 0.70162377 0.41715686
0.42208946 0.68321078 0.4004902
0.48921569 0.67530637 0.38664216
0.60211397 0.70332414 0.40003064
0.75015319 0.74730392 0.42745098
0.88382353 0.79546569 0.45477941
0.96495098 0.79215686 0.4245098
0.42077206 0.79607843 0.47401961
0.43839614 0.79362745 0.48006281
0.45409007 0.78481924 0.47117034
0.48382353 0.77519914 0.45784314
0.53602941 0.76577819 0.45606618
0.61996783 0.78333333 0.46145833
0.72945772 0.81421569 0.48823529
0.8439568 0.85275735 0.5167739
0.94705882 0.89019608 0.54656863
0.58039216 0.89803922 0.61029412
0.59540441 0.90196078 0.61764706
0.60294118 0.89301471 0.60698529
0.63866422 0.9004902 0.62058824
0.65857843 0.88406863 0.61151961
0.71758578 0.8995098 0.63137255
0.78235294 0.91556373 0.64105392
0.84803922 0.92156863 0.63020833
0.93186275 0.95931373 0.67794118
0.20980392 0.12352941 0.46078431
0.26004902 0.13137255 0.46078431
0.34019608 0.13382353 0.47647059
0.45808824 0.12818627 0.49264706
0.60294118 0.090196078 0.51470588
0.75441176 0.010539216 0.52818627
0.90980392 0.0039215686 0.53137255
0.99264706 0.021813725 0.51176471
1 0.17254902 0.50784314
0.21764706 0.17941176 0.4625
0.25980392 0.18333333 0.46470588
0.33903186 0.18112745 0.47843137
0.45989583 0.18961397 0.49142157
0.60110294 0.1807598 0.51482843
0.75980392 0.12411152 0.53014706
0.91170343 0.089215686 0.53088235
0.99022672 0.17699142 0.51176471
1 0.25098039 0.51151961
0.17990196 0.26176471 0.47205882
0.22040441 0.27328431 0.47579657
0.32843137 0.28627451 0.48762255
0.45159314 0.29050245 0.50018382
0.5995098 0.29436275 0.5254902
0.76427696 0.28995098 0.53848039
0.89705882 0.30294118 0.53125
0.97058824 0.32720588 0.52481618
0.99460784 0.36127451 0.51911765
0.11102941 0.39460784 0.48627451
0.18480392 0.40333946 0.48872549
0.30410539 0.41813725 0.49411765
0.43921569 0.42702206 0.5122549
0.58737745 0.43946078 0.53002451
0.72693015 0.45321691 0.53556985
0.87303922 0.45882353 0.5338848
0.9479473 0.46210172 0.53201593
0.99607843 0.47205882 0.53259804
0.067647059 0.56764706 0.51568627
0.16642157 0.56948529 0.51678922
0.31936275 0.56691176 0.51470588
0.44313725 0.55747549 0.5192402
0.57990196 0.56617647 0.53872549
0.70061275 0.57156863 0.53382353
0.82156863 0.5745098 0.51862745
0.92107843 0.57254902 0.50821078
0.98921569 0.57647059 0.51568627
0.29044118 0.67426471 0.53995098
0.34592525 0.67892157 0.53995098
0.40759804 0.66409314 0.53480392
0.48164828 0.65977328 0.53210784
0.55502451 0.64142157 0.52401961
0.67426471 0.66400123 0.53287377
0.80539216 0.68841912 0.54270833
0.89411765 0.67156863 0.50882353
0.97647059 0.675 0.50392157
0.42352941 0.74607843 0.55735294
0.44466912 0.74583333 0.55802696
0.47352941 0.74215686 0.55428922
0.51017157 0.72671569 0.54019608
0.54583333 0.70220588 0.51372549
0.62254902 0.70778186 0.51329657
0.75441176 0.75428922 0.54705882
0.87224265 0.78039216 0.56231618
0.96078431 0.78431373 0.53823529
0.51127451 0.82696078 0.60098039
0.50294118 0.82254902 0.58572304
0.52205882 0.8122549 0.58137255
0.55229779 0.80471814 0.57322304
0.57598039 0.78406863 0.54473039
0.62711397 0.77925858 0.53382353
0.73363971 0.81415441 0.57107843
0.85441176 0.86078431 0.61544118
0.94411765 0.88529412 0.62671569
0.60196078 0.91960784 0.67254902
0.58651961 0.89803922 0.6495098
0.6254902 0.91617647 0.67107843
0.65098039 0.91446078 0.67254902
0.67647059 0.90196078 0.66568627
0.71593137 0.89877451 0.66348039
0.7745098 0.90098039 0.66323529
0.85245098 0.93210784 0.69093137
0.91568627 0.94313725 0.7
0.27352941 0.15441176 0.60343137
0.30067402 0.14264706 0.61501225
0.38284314 0.16519608 0.61875
0.49509804 0.18039216 0.62401961
0.61642157 0.15906863 0.63921569
0.75545343 0.1622549 0.6622549
0.88088235 0.12352941 0.66973039
0.9754902 0.15882353 0.65441176
1 0.25147059 0.65441176
0.26617647 0.19656863 0.60735294
0.30279565 0.2004902 0.61873468
0.37928922 0.19607843 0.62271752
0.48988971 0.20784314 0.6254902
0.61731005 0.22598039 0.64313725
0.75098039 0.21715686 0.65998009
0.88498775 0.2027114 0.67193627
0.98088235 0.24532016 0.66437653
0.9963848 0.30392157 0.65294118
0.23198529 0.27879902 0.61482843
0.26715686 0.28272059 0.61580882
0.3625 0.29255515 0.62058824
0.47892157 0.30454963 0.63227635
0.60833333 0.31593137 0.64797794
0.73959865 0.32843137 0.66170343
0.85854779 0.34693627 0.67046569
0.97348346 0.37598039 0.66764706
0.99607843 0.40686275 0.66764706
0.15545343 0.39503676 0.61372549
0.19479167 0.38529412 0.60980392
0.32522978 0.40490196 0.62095588
0.45588235 0.41934743 0.6372549
0.59286152 0.44368873 0.64856005
0.725 0.46709559 0.665625
0.85536152 0.49054841 0.67254902
0.95392157 0.50539216 0.67647059
0.98915441 0.51862745 0.67647059
0.076715686 0.52794118 0.61813725
0.17696078 0.53161765 0.62205882
0.29019608 0.52598039 0.62598039
0.41963848 0.53140319 0.62794118
0.57659314 0.55735294 0.65073529
0.70980392 0.58382353 0.66378676
0.83363971 0.60343137 0.67794118
0.92647059 0.60612745 0.66936275
0.97647059 0.60343137 0.67132353
0.27095588 0.67107843 0.65594363
0.31459099 0.675 0.65294118
0.40416667 0.67316176 0.65796569
0.50140931 0.67522978 0.65873928
0.60643382 0.67892157 0.66470588
0.71176471 0.69123775 0.67105545
0.80248162 0.69497549 0.67254902
0.89859069 0.69215686 0.66047794
0.975 0.69460784 0.65441176
0.47745098 0.78982843 0.68431373
0.4932598 0.79070159 0.68676471
0.52218137 0.77889093 0.68039216
0.5770527 0.77261029 0.67463235
0.62714461 0.75637255 0.66182598
0.68088235 0.74901961 0.6495098
0.77696078 0.77487745 0.66933211
0.87536765 0.78370098 0.66937806
0.94914216 0.78762255 0.66568627
0.55716912 0.85735294 0.70294118
0.56308977 0.85392157 0.69901961
0.58628983 0.85182292 0.69664522
0.61636029 0.84166667 0.69117647
0.64607843 0.82696078 0.6739277
0.67334559 0.80686275 0.64688266
0.74015012 0.81174939 0.648606
0.85590533 0.86002604 0.6877451
0.93792892 0.88088235 0.70716912
0.63676471 0.92941176 0.74019608
0.63805147 0.92696078 0.73756127
0.65183824 0.92696078 0.73664216
0.66966912 0.92303922 0.73382353
0.6877451 0.90196078 0.72254902
0.72990196 0.91574755 0.72598039
0.77156863 0.89718137 0.70980392
0.85245098 0.9254902 0.73658088
0.92941176 0.94117647 0.75588235
0.34019608 0.18235294 0.74411765
0.375 0.19362745 0.74803922
0.43995098 0.18946078 0.74509804
0.53051471 0.19117647 0.74901961
0.63872549 0.21666667 0.75637255
0.75588235 0.23688725 0.76372549
0.86666667 0.27230392 0.77622549
0.95735294 0.30147059 0.78026961
0.99607843 0.32843137 0.76372549
0.34019608 0.22046569 0.74117647
0.37369792 0.22794118 0.74509804
0.43823529 0.22757353 0.74117647
0.52696078 0.23872549 0.74509804
0.63480392 0.26568627 0.75441176
0.75556066 0.29149816 0.76734069
0.86884191 0.30566789 0.77941176
0.96041667 0.32674632 0.78296569
0.99607843 0.36568627 0.77156863
0.31764706 0.30294118 0.74019608
0.35637255 0.31197917 0.74117647
0.42671569 0.31960784 0.74393382
0.51911765 0.32956495 0.74301471
0.63235294 0.35588235 0.75588235
0.74767157 0.3877451 0.76764706
0.85563725 0.40980392 0.77941176
0.94644608 0.43054534 0.77941176
0.99289216 0.44583333 0.77941176
0.25 0.4004902 0.73051471
0.2823989 0.40441176 0.73325674
0.38259804 0.41801471 0.74047181
0.50098039 0.43823529 0.74803922
0.62598039 0.46127451 0.75588235
0.7399663 0.49215686 0.76588542
0.84607843 0.52515319 0.77576593
0.94198836 0.53811275 0.78333333
0.97708333 0.5495098 0.78186275
0.10294118 0.50147059 0.72303922
0.19430147 0.51084559 0.72303922
0.31017157 0.51531863 0.73039216
0.4495098 0.53609069 0.73627451
0.58970588 0.55784314 0.74534314
0.72647059 0.59264706 0.76127451
0.82843137 0.61789216 0.77156863
0.92297794 0.62953431 0.78333333
0.99313725 0.64607843 0.78970588
0.2442402 0.64448529 0.7435049
0.28333333 0.64558824 0.74154412
0.36727941 0.6453125 0.7435049
0.45568321 0.64581801 0.74129902
0.56219363 0.6495098 0.74129902
0.7049326 0.68025429 0.75634191
0.81332721 0.70245098 0.77184436
0.91507353 0.71813725 0.79033395
0.97352941 0.72303922 0.78333333
0.43553922 0.77328431 0.76446078
0.44754902 0.7754902 0.76372549
0.49509804 0.7754902 0.76764706
0.55772059 0.77558211 0.76608456
0.63272059 0.76409314 0.76372549
0.70882353 0.76666667 0.75952819
0.79681373 0.78431373 0.77175245
0.89359681 0.79610907 0.7861826
0.96176471 0.79509804 0.77254902
0.59227941 0.87941176 0.78370098
0.60392157 0.88333333 0.78987439
0.62398897 0.87974877 0.79022672
0.66634498 0.88333333 0.79419424
0.70637255 0.87745098 0.79148284
0.73272059 0.85602022 0.77095588
0.77205882 0.84145221 0.75346201
0.86470588 0.86792279 0.77555147
0.92683824 0.88296569 0.78676471
0.65980392 0.94215686 0.80196078
0.65588235 0.93088235 0.80196078
0.66666667 0.92377451 0.8002451
0.70147059 0.93970588 0.80588235
0.72843137 0.93627451 0.80294118
0.75931373 0.93284314 0.79754902
0.79509804 0.92720588 0.7872549
0.86384804 0.91764706 0.78627451
0.94215686 0.94117647 0.80588235
0.44852941 0.23578431 0.84852941
0.47156863 0.24117647 0.84460784
0.525 0.25232843 0.84460784
0.59834559 0.27401961 0.84852941
0.68529412 0.28259804 0.85196078
0.77401961 0.3473652 0.85245098
0.87009804 0.39252451 0.85980392
0.94607843 0.41764706 0.86329657
0.99607843 0.41421569 0.85980392
0.44944853 0.29852941 0.84068627
0.47156863 0.28676471 0.84766391
0.52156863 0.30588235 0.84428615
0.59705882 0.30425092 0.84852941
0.68550858 0.33823529 0.85245098
0.781947 0.3713848 0.85199908
0.867356 0.41378676 0.85647978
0.95435049 0.43376991 0.86727175
0.9838848 0.44454657 0.86372549
0.44129902 0.36286765 0.83639706
0.46421569 0.37365196 0.84154412
0.51326593 0.36715686 0.84488358
0.58921569 0.38716299 0.8441636
0.68118873 0.40839461 0.84460784
0.773606 0.43970588 0.84852941
0.86176471 0.47423407 0.85588235
0.94264706 0.50464154 0.86378676
0.98823529 0.5127451 0.86813725
0.40410539 0.44822304 0.83676471
0.42401961 0.45735294 0.83676471
0.49024203 0.46746324 0.84068627
0.575 0.475 0.84123775
0.66930147 0.49641544 0.84313725
0.76949295 0.52568934 0.84852941
0.85405944 0.56626838 0.85277267
0.93431373 0.58453585 0.86372549
0.98480392 0.59264706 0.86764706
0.30710784 0.53039216 0.83284314
0.3379902 0.52843137 0.83112745
0.4122549 0.54117647 0.83088235
0.53514093 0.5614277 0.83602941
0.64595588 0.58088235 0.83848039
0.75196078 0.60759804 0.84460784
0.84460784 0.63848039 0.85330882
0.92454044 0.65238971 0.85980392
0.98602941 0.675 0.86397059
0.24834559 0.6254902 0.82892157
0.29295343 0.62941176 0.8286152
0.36648284 0.62941176 0.82892157
0.44908854 0.63088235 0.825
0.59442402 0.65352328 0.83137255
0.71715686 0.67941176 0.83976716
0.82933517 0.71029412 0.85330882
0.90778186 0.72693781 0.85980392
0.97824755 0.74197304 0.86421569
0.4004902 0.76066176 0.84031863
0.43105086 0.76078431 0.84068627
0.46479779 0.7564951 0.83762255
0.53711703 0.75540748 0.84154412
0.60177696 0.75294118 0.8370098
0.68132659 0.74532782 0.83382353
0.79708946 0.77647059 0.85015319
0.89820772 0.80605086 0.86072304
0.97990196 0.82990196 0.87205882
0.53927696 0.87598039 0.85594363
0.54962469 0.87995558 0.85588235
0.59264706 0.87598039 0.85980392
0.64209559 0.87175245 0.86378676
0.68875613 0.87156863 0.86029412
0.74887408 0.87755821 0.86421569
0.81372549 0.8754902 0.86668199
0.88822763 0.87958027 0.8642693
0.95202206 0.88731618 0.86813725
0.67009804 0.95637255 0.87156863
0.68229167 0.95294118 0.86807598
0.68296569 0.94068627 0.86801471
0.73658088 0.95833333 0.8754902
0.77107843 0.95931373 0.87598039
0.79540441 0.94901961 0.87334559
0.84203431 0.9442402 0.87205882
0.8877451 0.93333333 0.86862745
0.94068627 0.94509804 0.8754902
0.55686275 0.36470588 0.91372549
0.60343137 0.39607843 0.93333333
0.63529412 0.39313725 0.93137255
0.6872549 0.41421569 0.92696078
0.74705882 0.4254902 0.91960784
0.82647059 0.47205882 0.93088235
0.89215686 0.51568627 0.92941176
0.94607843 0.54117647 0.92941176
0.99607843 0.56470588 0.9372549
0.57401961 0.39705882 0.92303922
0.60778186 0.42248775 0.93768382
0.62941176 0.41911765 0.92291667
0.6877451 0.43480392 0.92598039
0.75490196 0.45637255 0.92745098
0.82254902 0.48578431 0.92401961
0.88835784 0.52830882 0.92647059
0.95386029 0.57254902 0.92990196
0.97647059 0.58039216 0.93333333
0.58627451 0.46960784 0.93137255
0.60171569 0.47598039 0.93284314
0.63235294 0.48014706 0.92843137
0.68333333 0.48039216 0.92156863
0.75294118 0.50392157 0.925
0.82254902 0.53431373 0.92879902
0.88823529 0.57083333 0.92941176
0.95 0.59656863 0.92561275
0.98431373 0.60784314 0.93039216
0.57401961 0.54215686 0.93088235
0.56035539 0.53137255 0.91439951
0.62426471 0.54889706 0.93039216
0.66917892 0.54761029 0.92064951
0.74387255 0.56960784 0.9254902
0.81470588 0.59215686 0.9254902
0.8807598 0.62156863 0.92941176
0.94344363 0.63627451 0.9254902
0.99852941 0.65833333 0.93970588
0.49607843 0.59215686 0.92352941
0.53627451 0.60392157 0.9254902
0.59166667 0.6122549 0.92401961
0.65514706 0.62205882 0.92745098
0.72156863 0.62843137 0.91862745
0.8004902 0.6504902 0.925
0.86862745 0.675 0.92156863
0.93039216 0.69411765 0.92181373
0.99215686 0.70980392 0.9372549
0.43529412 0.66323529 0.92696078
0.47616422 0.66715686 0.9254902
0.48921569 0.65968137 0.91188725
0.58872549 0.67352941 0.92156863
0.68137255 0.69044118 0.9254902
0.76917892 0.71029412 0.9254902
0.85294118 0.73333333 0.92941176
0.92647059 0.76158088 0.9346201
0.95588235 0.76127451 0.92058824
0.43431373 0.75686275 0.89509804
0.49117647 0.77205882 0.92892157
0.49901961 0.75686275 0.90588235
0.55098039 0.75723039 0.9122549
0.63872549 0.75980392 0.91617647
0.72169118 0.76703431 0.92794118
0.82156863 0.79509804 0.93333333
0.90980392 0.81813725 0.92941176
0.97941176 0.8372549 0.9254902
0.56960784 0.88382353 0.93676471
0.56960784 0.87205882 0.91764706
0.57316176 0.875 0.89852941
0.62941176 0.86813725 0.92941176
0.66789216 0.87254902 0.9245098
0.73547794 0.86813725 0.92420343
0.78419118 0.85637255 0.91323529
0.89558824 0.88425245 0.92199755
0.97205882 0.90637255 0.94460784
0.64705882 0.96470588 0.9372549
0.64362745 0.95 0.92254902
0.66862745 0.9627451 0.93627451
0.69117647 0.95147059 0.93578431
0.71372549 0.9372549 0.94117647
0.7872549 0.96715686 0.93970588
0.84901961 0.94117647 0.89803922
0.90294118 0.94117647 0.91029412
0.97647059 0.97254902 0.95686275
