site/assets/luts/natron-haldclut--polaroid-px-70-cold--13111e09a.cube
# LUTr-Project: LUTr — LUTrepository
# LUTr-Schema-Version: 1
# LUTr-ID: natron-haldclut--polaroid-px-70-cold--13111e09a
# LUTr-Title: polaroid px-70 cold ++
# LUTr-Collection: Natron HaldCLUT
# LUTr-Collection-ID: natron-haldclut-presets
# LUTr-Source: https://github.com/NatronGitHub/clut
# LUTr-Source-File: submissions/natron-haldclut-presets/instant_consumer/polaroid_px-70_cold_++.png
# LUTr-Source-Format: PNG
# LUTr-Source-SHA256: 6fac71da1cbd8a6bf393694ffac921de63ee513b9347d1bc89afcb0588c66dfa
# LUTr-License: CC-BY-SA-4.0
# LUTr-License-URL: https://github.com/NatronGitHub/clut#license
# LUTr-Tags: creative, film, film-emulation, hald-clut, natron, png, cool, cube
# LUTr-Transform-Class: film-emulation
# LUTr-Input-Color-Space: srgb
# LUTr-Output-Color-Space: srgb
# LUTr-Color-Space-Confidence: assumed-display-referred
# LUTr-Conversion-Method: PNG LUT image decoded at 16-bit and sampled to 25x25x25 3D CUBE
# LUTr-Conversion-Date: 2026-07-27
# LUTr-Conversion-Tool: LUTr scripts/convert-all-to-cube.mjs
# LUTr-Conversion-Grid: 25x25x25
# LUTr-Note: Preserve this metadata and the upstream license notices when redistributing.
TITLE "polaroid px-70 cold ++"
LUT_3D_SIZE 5
DOMAIN_MIN 0 0 0
DOMAIN_MAX 1 1 1
0 0.38039216 0.44313725
0.0078431373 0.38039216 0.44313725
0.24313725 0.39019608 0.44705882
0.60588235 0.43333333 0.45098039
0.8627451 0.55294118 0.46666667
0.0039215686 0.39901961 0.44313725
0 0.39534314 0.44313725
0.28382353 0.42009804 0.44313725
0.63308824 0.4870098 0.44705882
0.8872549 0.61470588 0.46764706
0 0.54509804 0.45882353
0.00049019608 0.5377451 0.45098039
0.33431373 0.56470588 0.44607843
0.65098039 0.6245098 0.44313725
0.86666667 0.69411765 0.46078431
0 0.7754902 0.4872549
0.070833333 0.76764706 0.48431373
0.41421569 0.77941176 0.49117647
0.67058824 0.80196078 0.49901961
0.8245098 0.82058824 0.50686275
0.69019608 0.90196078 0.57647059
0.68333333 0.89803922 0.57254902
0.71764706 0.89607843 0.57254902
0.79705882 0.89411765 0.57647059
0.8745098 0.90196078 0.59215686
0 0.3872549 0.45882353
0.0039215686 0.38431373 0.45
0.23921569 0.38627451 0.45098039
0.63259804 0.45 0.47377451
0.88529412 0.59117647 0.50490196
0.00098039216 0.40759804 0.46176471
0.014276961 0.40686275 0.45490196
0.30196078 0.42303922 0.45784314
0.64803922 0.50435049 0.47279412
0.88259804 0.63333333 0.50171569
0.0039215686 0.55490196 0.47401961
0.011887255 0.54852941 0.47205882
0.36593137 0.57990196 0.47352941
0.66470588 0.63431373 0.47352941
0.86715686 0.70196078 0.49705882
0.067647059 0.77941176 0.50588235
0.20349265 0.77941176 0.50980392
0.43958333 0.79117647 0.5129902
0.67530637 0.80759804 0.51397059
0.84240196 0.8254902 0.52941176
0.67352941 0.89803922 0.57254902
0.69705882 0.89803922 0.57647059
0.72892157 0.89411765 0.57990196
0.79803922 0.89411765 0.58039216
0.86568627 0.88921569 0.57941176
0.0039215686 0.4 0.51372549
0.058333333 0.3995098 0.49803922
0.28039216 0.41568627 0.49803922
0.61911765 0.45098039 0.53235294
0.8745098 0.54509804 0.56078431
0.0039215686 0.42696078 0.50980392
0.094362745 0.42340686 0.50735294
0.34828431 0.46519608 0.51911765
0.66580882 0.50735294 0.54779412
0.88627451 0.65490196 0.57058824
0.0039215686 0.57058824 0.52745098
0.1127451 0.56862745 0.53235294
0.43039216 0.60245098 0.54705882
0.70171569 0.66911765 0.55490196
0.8627451 0.74313725 0.56372549
0.33970588 0.80588235 0.55882353
0.38088235 0.79301471 0.55379902
0.52647059 0.80098039 0.55882353
0.70392157 0.81433824 0.55931373
0.85637255 0.83627451 0.56470588
0.72941176 0.9 0.58627451
0.72352941 0.89411765 0.58578431
0.77745098 0.90196078 0.59215686
0.82303922 0.89803922 0.59607843
0.85882353 0.89411765 0.59607843
0.073529412 0.43039216 0.6127451
0.30980392 0.45269608 0.60588235
0.5745098 0.525 0.60882353
0.74117647 0.64730392 0.60490196
0.87843137 0.66568627 0.61176471
0.17132353 0.48259804 0.6127451
0.34963235 0.50661765 0.6127451
0.58884804 0.59227941 0.60882353
0.74920343 0.69803922 0.60079657
0.85294118 0.70367647 0.60710784
0.013235294 0.64215686 0.60833333
0.21458333 0.63835784 0.60686275
0.55784314 0.68872549 0.60833333
0.74485294 0.77365196 0.60098039
0.86666667 0.79901961 0.6004902
0.36151961 0.80612745 0.59534314
0.41568627 0.80667892 0.59215686
0.58137255 0.81176471 0.59644608
0.76623775 0.84252451 0.59705882
0.86666667 0.85588235 0.59705882
0.74509804 0.89803922 0.59607843
0.75220588 0.89803922 0.6
0.79117647 0.89607843 0.6
0.84411765 0.89803922 0.60490196
0.87941176 0.89509804 0.60392157
0.60392157 0.66666667 0.65098039
0.64901961 0.68039216 0.64705882
0.7627451 0.7627451 0.63529412
0.83235294 0.82058824 0.61960784
0.86666667 0.84705882 0.61960784
0.62352941 0.70882353 0.64705882
0.66495098 0.72745098 0.64338235
0.7627451 0.78578431 0.63382353
0.83137255 0.83210784 0.61960784
0.8745098 0.86666667 0.61960784
0.58627451 0.7745098 0.63921569
0.61519608 0.77352941 0.6377451
0.74803922 0.81372549 0.63137255
0.84411765 0.85931373 0.61960784
0.87058824 0.87058824 0.61568627
0.57843137 0.85196078 0.62647059
0.55686275 0.83627451 0.62352941
0.70637255 0.84803922 0.62352941
0.8252451 0.87083333 0.61960784
0.88235294 0.88627451 0.61666667
0.78823529 0.90196078 0.61960784
0.78529412 0.90196078 0.61960784
0.81372549 0.89803922 0.61960784
0.85980392 0.89803922 0.61960784
0.88235294 0.89803922 0.61960784
