site/assets/luts/natron-haldclut--purple--8884c890c.cube
# LUTr-Project: LUTr — LUTrepository
# LUTr-Schema-Version: 1
# LUTr-ID: natron-haldclut--purple--8884c890c
# LUTr-Title: purple
# LUTr-Collection: Natron HaldCLUT
# LUTr-Collection-ID: natron-haldclut-presets
# LUTr-Source: https://github.com/NatronGitHub/clut
# LUTr-Source-File: submissions/natron-haldclut-presets/various/purple.png
# LUTr-Source-Format: PNG
# LUTr-Source-SHA256: d90ee70eb6599a69afe78a63a3b48cb0cca96ef77cf3157469fb320cdcb12845
# LUTr-License: CC-BY-SA-4.0
# LUTr-License-URL: https://github.com/NatronGitHub/clut#license
# LUTr-Tags: creative, film, film-emulation, hald-clut, natron, png, cube
# LUTr-Transform-Class: film-emulation
# LUTr-Input-Color-Space: srgb
# LUTr-Output-Color-Space: srgb
# LUTr-Color-Space-Confidence: assumed-display-referred
# LUTr-Conversion-Method: PNG LUT image decoded at 16-bit and sampled to 25x25x25 3D CUBE
# LUTr-Conversion-Date: 2026-07-27
# LUTr-Conversion-Tool: LUTr scripts/convert-all-to-cube.mjs
# LUTr-Conversion-Grid: 25x25x25
# LUTr-Note: Preserve this metadata and the upstream license notices when redistributing.
TITLE "purple"
LUT_3D_SIZE 25
DOMAIN_MIN 0 0 0
DOMAIN_MAX 1 1 1
0.031372549 0.031372549 0.49411765
0.085294118 0.028921569 0.49411765
0.15098039 0.023529412 0.49509804
0.21617647 0.020098039 0.49803922
0.27843137 0.01372549 0.49803922
0.34019608 0.0073529412 0.49803922
0.39901961 0.0029411765 0.49803922
0.44509804 0.0078431373 0.49803922
0.49019608 0.011764706 0.49803922
0.5377451 0.015686275 0.49803922
0.58529412 0.015686275 0.49803922
0.63676471 0.015686275 0.49803922
0.68823529 0.025490196 0.49803922
0.73137255 0.035784314 0.49803922
0.76568627 0.043137255 0.50196078
0.79656863 0.037745098 0.49803922
0.82745098 0.031372549 0.49803922
0.85441176 0.021078431 0.49803922
0.88039216 0.015686275 0.49803922
0.90098039 0.015686275 0.49803922
0.92156863 0.019607843 0.49803922
0.94215686 0.019117647 0.49803922
0.95882353 0.015686275 0.49509804
0.97794118 0.010294118 0.49411765
0.99215686 0.0039215686 0.49411765
0.033823529 0.044117647 0.49411765
0.085294118 0.044117647 0.49411765
0.14742647 0.042034314 0.49803922
0.21243873 0.036764706 0.49803922
0.27598039 0.031617647 0.49803922
0.33756127 0.028247549 0.49803922
0.39509804 0.026960784 0.49803922
0.44509804 0.027512255 0.49803922
0.49019608 0.028431373 0.49803922
0.5377451 0.032352941 0.49803922
0.58529412 0.032352941 0.49803922
0.6346201 0.033639706 0.49803922
0.68823529 0.037009804 0.49926471
0.73351716 0.046078431 0.50196078
0.7692402 0.049509804 0.50196078
0.79656863 0.044117647 0.50140931
0.82745098 0.037745098 0.49803922
0.85196078 0.032352941 0.49803922
0.87683824 0.032352941 0.49803922
0.90098039 0.032352941 0.49803922
0.92156863 0.03627451 0.49803922
0.94215686 0.03627451 0.49803922
0.95882353 0.035171569 0.49803922
0.9754902 0.031801471 0.49564951
0.98578431 0.028431373 0.49411765
0.031372549 0.069607843 0.49509804
0.080759804 0.068627451 0.49803922
0.14215686 0.064705882 0.49803922
0.20392157 0.060784314 0.49803922
0.26960784 0.057843137 0.49803922
0.33137255 0.057843137 0.49803922
0.39093137 0.057843137 0.49803922
0.44264706 0.055759804 0.49803922
0.49019608 0.053921569 0.49803922
0.5377451 0.053921569 0.49803922
0.58529412 0.053921569 0.49828431
0.63676471 0.053921569 0.50196078
0.68676471 0.056862745 0.50196078
0.73529412 0.060784314 0.50196078
0.76960784 0.059803922 0.50196078
0.79656863 0.056495098 0.50196078
0.82352941 0.052941176 0.50196078
0.84987745 0.052941176 0.49803922
0.87328431 0.053186275 0.49803922
0.89705882 0.056495098 0.49803922
0.92058824 0.056862745 0.49803922
0.94215686 0.057352941 0.49803922
0.96053922 0.057107843 0.49803922
0.97794118 0.055759804 0.49803922
0.98333333 0.053921569 0.49803922
0.031372549 0.093137255 0.49803922
0.075306373 0.090686275 0.49803922
0.13529412 0.087867647 0.49803922
0.19754902 0.085294118 0.49803922
0.26102941 0.084803922 0.49803922
0.325 0.084803922 0.49803922
0.38627451 0.084803922 0.49803922
0.43921569 0.084803922 0.49803922
0.49019608 0.084803922 0.49803922
0.5377451 0.081066176 0.49803922
0.58529412 0.080882353 0.49803922
0.63676471 0.077879902 0.50196078
0.68823529 0.07745098 0.50196078
0.73872549 0.07745098 0.50196078
0.76666667 0.07745098 0.50196078
0.79295343 0.07745098 0.50196078
0.81960784 0.07745098 0.50196078
0.84442402 0.07745098 0.50165441
0.86997549 0.078308824 0.49803922
0.89313725 0.080882353 0.49803922
0.91764706 0.080882353 0.49803922
0.93823529 0.081372549 0.49803922
0.96188725 0.078308824 0.49803922
0.98008578 0.07745098 0.49803922
0.98039216 0.07745098 0.49803922
0.02745098 0.11568627 0.49803922
0.071078431 0.11372549 0.49803922
0.12941176 0.11176471 0.49803922
0.19117647 0.11176471 0.49803922
0.25490196 0.11372549 0.49803922
0.31862745 0.11568627 0.49803922
0.37892157 0.11568627 0.49803922
0.43553922 0.11568627 0.49803922
0.49019608 0.11176471 0.49803922
0.5377451 0.11176471 0.49803922
0.58921569 0.11127451 0.49803922
0.64044118 0.10784314 0.49803922
0.69215686 0.10784314 0.5
0.73504902 0.10735294 0.50196078
0.76617647 0.10392157 0.50196078
0.79264706 0.10392157 0.50196078
0.81960784 0.10392157 0.50196078
0.84411765 0.10514706 0.50196078
0.86862745 0.10588235 0.50147059
0.89313725 0.10784314 0.49803922
0.91372549 0.10784314 0.49803922
0.93823529 0.10784314 0.49803922
0.95882353 0.10637255 0.49803922
0.9745098 0.10661765 0.49803922
0.9745098 0.10784314 0.49803922
0.023529412 0.13823529 0.49803922
0.067156863 0.13823529 0.49803922
0.12745098 0.13872549 0.49803922
0.18878676 0.13872549 0.49803922
0.25098039 0.14240196 0.49803922
0.3127451 0.14264706 0.49803922
0.3745098 0.14264706 0.49803922
0.43216912 0.14264706 0.49803922
0.48627451 0.14264706 0.49803922
0.54166667 0.14264706 0.49803922
0.59362745 0.13872549 0.49803922
0.64509804 0.13872549 0.49803922
0.69436275 0.13872549 0.49803922
0.73480392 0.13480392 0.49846814
0.76568627 0.13480392 0.50196078
0.79509804 0.13480392 0.50196078
0.81960784 0.13431373 0.50196078
0.84442402 0.13480392 0.50196078
0.86875 0.13480392 0.50196078
0.89313725 0.13480392 0.50196078
0.91568627 0.13480392 0.49803922
0.93823529 0.13872549 0.49803922
0.9557598 0.13872549 0.49803922
0.96421569 0.14050245 0.49803922
0.96470588 0.14264706 0.49803922
0.026470588 0.16568627 0.49803922
0.070710784 0.16568627 0.49803922
0.12745098 0.16593137 0.49803922
0.18921569 0.16960784 0.49803922
0.24705882 0.16960784 0.49803922
0.30894608 0.17095588 0.49803922
0.37156863 0.17352941 0.49803922
0.43088235 0.17352941 0.49803922
0.48627451 0.17352941 0.49803922
0.54411765 0.17169118 0.49509804
0.59779412 0.16960784 0.49509804
0.65147059 0.16960784 0.49509804
0.69803922 0.16617647 0.49803922
0.73186275 0.16568627 0.49803922
0.76348039 0.16568627 0.49877451
0.79264706 0.16568627 0.50196078
0.81960784 0.16176471 0.50196078
0.84656863 0.16237745 0.50196078
0.87181373 0.16568627 0.50196078
0.89313725 0.16568627 0.50196078
0.91764706 0.16568627 0.50147059
0.9377451 0.16960784 0.49803922
0.94901961 0.16960784 0.49803922
0.95539216 0.17352941 0.49803922
0.95784314 0.17352941 0.49803922
0.036764706 0.19656863 0.49803922
0.076470588 0.19803922 0.49803922
0.13137255 0.19865196 0.49803922
0.19068627 0.2004902 0.49803922
0.25098039 0.2004902 0.49803922
0.31029412 0.20067402 0.49803922
0.37058824 0.20196078 0.49803922
0.42935049 0.20441176 0.49803922
0.4877451 0.20196078 0.49411765
0.54558824 0.2004902 0.49411765
0.60134804 0.2004902 0.49411765
0.65637255 0.2004902 0.49411765
0.7 0.19656863 0.49411765
0.73088235 0.19656863 0.49803922
0.76176471 0.19656863 0.49803922
0.79264706 0.19509804 0.49803922
0.81960784 0.19264706 0.50196078
0.84803922 0.19264706 0.50196078
0.87254902 0.19264706 0.50196078
0.89656863 0.19656863 0.50196078
0.91764706 0.19656863 0.50196078
0.93382353 0.2004902 0.50196078
0.94301471 0.2004902 0.50012255
0.94754902 0.20441176 0.49803922
0.94901961 0.20833333 0.49803922
0.043137255 0.23137255 0.50196078
0.082843137 0.23137255 0.49803922
0.13529412 0.23137255 0.49803922
0.19362745 0.23137255 0.49803922
0.25490196 0.23529412 0.49803922
0.3127451 0.23529412 0.49803922
0.3745098 0.23529412 0.49803922
0.43235294 0.23529412 0.49803922
0.49019608 0.23529412 0.49411765
0.54803922 0.23529412 0.49411765
0.60490196 0.23431373 0.49411765
0.65637255 0.23137255 0.49411765
0.69803922 0.23137255 0.49411765
0.73088235 0.22745098 0.49803922
0.76176471 0.22745098 0.49803922
0.79117647 0.22745098 0.49803922
0.81960784 0.22745098 0.49803922
0.84656863 0.22352941 0.50196078
0.87254902 0.22352941 0.50196078
0.89705882 0.22696078 0.50196078
0.91764706 0.22745098 0.50196078
0.92990196 0.23137255 0.50196078
0.93627451 0.23431373 0.50196078
0.94117647 0.23529412 0.50196078
0.94117647 0.23921569 0.50196078
0.043137255 0.26617647 0.4995098
0.084313725 0.26617647 0.49803922
0.13860294 0.26862745 0.49803922
0.19491422 0.26862745 0.49803922
0.25735294 0.26862745 0.49803922
0.31666667 0.26862745 0.49803922
0.37843137 0.26862745 0.49803922
0.43780637 0.26862745 0.49411765
0.49411765 0.26862745 0.49411765
0.55104167 0.26617647 0.49411765
0.60490196 0.26617647 0.49411765
0.6526348 0.26617647 0.49411765
0.69485294 0.26348039 0.49803922
0.73088235 0.2622549 0.49803922
0.76176471 0.2622549 0.49803922
0.79117647 0.26078431 0.49803922
0.81960784 0.26078431 0.50196078
0.84656863 0.25833333 0.50196078
0.87254902 0.25833333 0.50196078
0.89705882 0.25833333 0.50196078
0.91568627 0.25833333 0.50196078
0.9254902 0.2622549 0.50196078
0.92879902 0.26580882 0.50196078
0.93235294 0.26764706 0.50196078
0.93480392 0.27009804 0.50196078
0.035294118 0.30196078 0.49803922
0.077941176 0.30490196 0.49803922
0.13357843 0.30490196 0.49803922
0.19313725 0.30490196 0.49803922
0.25882353 0.30343137 0.49803922
0.32058824 0.30196078 0.49803922
0.38235294 0.30196078 0.49485294
0.44080882 0.30196078 0.49411765
0.49803922 0.30098039 0.49411765
0.55343137 0.30098039 0.49411765
0.60073529 0.30098039 0.49411765
0.64767157 0.29840686 0.49803922
0.69019608 0.29803922 0.49803922
0.73088235 0.29791667 0.49803922
0.76176471 0.29705882 0.49877451
0.79264706 0.29705882 0.50196078
0.81960784 0.29411765 0.50196078
0.84656863 0.29313725 0.50196078
0.87181373 0.29313725 0.50196078
0.89571078 0.2939951 0.50196078
0.91323529 0.29607843 0.50196078
0.92156863 0.29803922 0.50196078
0.9254902 0.3002451 0.50196078
0.92696078 0.30196078 0.50196078
0.92941176 0.30196078 0.50196078
0.027941176 0.33970588 0.49803922
0.071384804 0.34185049 0.49803922
0.13137255 0.34313725 0.49803922
0.19656863 0.33970588 0.49803922
0.26053922 0.33946078 0.49803922
0.3245098 0.33878676 0.49761029
0.38627451 0.33578431 0.49411765
0.44626225 0.33578431 0.49411765
0.50196078 0.33578431 0.49411765
0.55128676 0.33547794 0.49411765
0.59656863 0.33529412 0.49767157
0.64160539 0.33529412 0.49803922
0.68651961 0.33529412 0.49803922
0.7278799 0.33186275 0.49846814
0.76176471 0.33186275 0.50196078
0.79136029 0.33167892 0.50196078
0.81960784 0.33137255 0.50196078
0.84411765 0.33137255 0.50196078
0.86862745 0.33137255 0.50196078
0.89270833 0.33480392 0.50196078
0.91004902 0.3372549 0.50196078
0.92205882 0.33964461 0.50196078
0.92806373 0.34301471 0.50196078
0.92941176 0.34313725 0.50196078
0.92941176 0.34313725 0.50196078
0.025490196 0.38039216 0.49803922
0.073529412 0.37843137 0.49803922
0.13529412 0.37843137 0.49803922
0.19877451 0.37647059 0.49803922
0.26372549 0.3754902 0.49803922
0.32867647 0.37426471 0.49411765
0.39215686 0.37254902 0.49411765
0.4504902 0.37181373 0.49411765
0.50196078 0.37058824 0.49411765
0.54632353 0.36862745 0.49534314
0.59068627 0.36862745 0.49803922
0.63529412 0.36862745 0.49803922
0.68039216 0.36960784 0.49803922
0.72352941 0.37034314 0.50196078
0.76127451 0.36862745 0.50196078
0.78995098 0.36862745 0.50196078
0.81568627 0.36862745 0.50196078
0.84019608 0.37181373 0.50196078
0.86470588 0.37303922 0.50196078
0.88897059 0.37647059 0.50196078
0.90980392 0.38137255 0.50196078
0.92401961 0.38455882 0.50196078
0.93088235 0.38627451 0.50196078
0.93333333 0.38823529 0.50196078
0.93529412 0.38823529 0.50196078
0.035294118 0.42156863 0.49803922
0.078921569 0.41942402 0.49803922
0.13921569 0.41764706 0.49803922
0.20447304 0.41372549 0.49803922
0.26887255 0.41348039 0.49632353
0.33327206 0.40980392 0.49411765
0.39852941 0.40980392 0.49411765
0.45294118 0.40931373 0.49411765
0.49754902 0.40588235 0.49411765
0.54136029 0.40539216 0.49803922
0.58529412 0.40588235 0.49803922
0.63284314 0.40588235 0.49803922
0.67647059 0.40808824 0.49803922
0.71960784 0.4098652 0.50196078
0.76078431 0.41029412 0.50196078
0.7872549 0.41372549 0.50196078
0.81176471 0.41372549 0.50196078
0.83627451 0.41421569 0.50196078
0.86078431 0.41776961 0.50196078
0.88523284 0.42156863 0.50196078
0.90588235 0.42573529 0.50196078
0.92598039 0.42947304 0.50196078
0.93627451 0.43333333 0.50196078
0.93903186 0.43351716 0.50196078
0.94166667 0.43382353 0.50196078
0.039215686 0.46666667 0.50196078
0.08247549 0.4627451 0.49803922
0.14313725 0.45882353 0.49803922
0.20747549 0.45526961 0.49803922
0.27254902 0.45245098 0.49803922
0.33676471 0.45098039 0.49411765
0.40269608 0.45098039 0.49411765
0.45232843 0.44889706 0.49411765
0.49705882 0.44705882 0.49411765
0.54105392 0.44669118 0.49803922
0.5875 0.44705882 0.49803922
0.63321078 0.45 0.49803922
0.67843137 0.45245098 0.49803922
0.72254902 0.45526961 0.50196078
0.75784314 0.45857843 0.50196078
0.7872549 0.46176471 0.50196078
0.81176471 0.46176471 0.50196078
0.83627451 0.46176471 0.50196078
0.85784314 0.46348039 0.50196078
0.88137255 0.46654412 0.50196078
0.90588235 0.47058824 0.50196078
0.92634804 0.47487745 0.50196078
0.93946078 0.47818627 0.50196078
0.94620098 0.47953431 0.50085784
0.94803922 0.48137255 0.49901961
0.043137255 0.51176471 0.50196078
0.082843137 0.50784314 0.50196078
0.14313725 0.50502451 0.49914216
0.20704657 0.50147059 0.49803922
0.26985294 0.49877451 0.49803922
0.33498775 0.49754902 0.49540441
0.39987745 0.49754902 0.49411765
0.45441176 0.49362745 0.49411765
0.50196078 0.49215686 0.49411765
0.54797794 0.49307598 0.49564951
0.59362745 0.4942402 0.49803922
0.63872549 0.49754902 0.49803922
0.68382353 0.50073529 0.49803922
0.72303922 0.50410539 0.49803922
0.75784314 0.50723039 0.50159314
0.78872549 0.50931373 0.50196078
0.81176471 0.50931373 0.50196078
0.83627451 0.50931373 0.50196078
0.85784314 0.51176471 0.50196078
0.88137255 0.51323529 0.50196078
0.90588235 0.51642157 0.50196078
0.92647059 0.51979167 0.5004902
0.9435049 0.52352941 0.49803922
0.95196078 0.525 0.49803922
0.95441176 0.52745098 0.49803922
0.039215686 0.55686275 0.50196078
0.078921569 0.55686275 0.50196078
0.13921569 0.55294118 0.50196078
0.20098039 0.55294118 0.49803922
0.26470588 0.54901961 0.49803922
0.33235294 0.54901961 0.49803922
0.39803922 0.54509804 0.49411765
0.45441176 0.54117647 0.49411765
0.50588235 0.54117647 0.49411765
0.55490196 0.54117647 0.49411765
0.6 0.54215686 0.49509804
0.64509804 0.54509804 0.49803922
0.68627451 0.54901961 0.49803922
0.72303922 0.55294118 0.49803922
0.75686275 0.55588235 0.49803922
0.7872549 0.55686275 0.4995098
0.81568627 0.55686275 0.50196078
0.83872549 0.56078431 0.50196078
0.86078431 0.56078431 0.50196078
0.88137255 0.56078431 0.50196078
0.90588235 0.5627451 0.5
0.92647059 0.56470588 0.49803922
0.94705882 0.56862745 0.49803922
0.95833333 0.57009804 0.49803922
0.96470588 0.57254902 0.49803922
0.028921569 0.60833333 0.50196078
0.07254902 0.60588235 0.50196078
0.1317402 0.60441176 0.50196078
0.19705882 0.60441176 0.49852941
0.26470588 0.6004902 0.49803922
0.33235294 0.6004902 0.49803922
0.39411765 0.59656863 0.49693627
0.45196078 0.59264706 0.49411765
0.50980392 0.59264706 0.49411765
0.56035539 0.59264706 0.49411765
0.60845588 0.59264706 0.49411765
0.65275735 0.59656863 0.49540441
0.68946078 0.59926471 0.49803922
0.72303922 0.60067402 0.49803922
0.75392157 0.60441176 0.49803922
0.78480392 0.60588235 0.49803922
0.81568627 0.60833333 0.4995098
0.84019608 0.60833333 0.50196078
0.86360294 0.60833333 0.4995098
0.88529412 0.60833333 0.49803922
0.90588235 0.60980392 0.49803922
0.92647059 0.60980392 0.49803922
0.94767157 0.61164216 0.49803922
0.96470588 0.61372549 0.49803922
0.97107843 0.61372549 0.49803922
0.024509804 0.65588235 0.50196078
0.070588235 0.65588235 0.50196078
0.13161765 0.65588235 0.50196078
0.19705882 0.65588235 0.49852941
0.26470588 0.65441176 0.49803922
0.33235294 0.65196078 0.49803922
0.39411765 0.64901961 0.49803922
0.45196078 0.64473039 0.49693627
0.50980392 0.64411765 0.49411765
0.56519608 0.64411765 0.49411765
0.61593137 0.64411765 0.49411765
0.65686275 0.64791667 0.49411765
0.69019608 0.65 0.49754902
0.72303922 0.65196078 0.49803922
0.75392157 0.65588235 0.49803922
0.78480392 0.65588235 0.49803922
0.81568627 0.65588235 0.49803922
0.84411765 0.65882353 0.49803922
0.86568627 0.65906863 0.49803922
0.88921569 0.65980392 0.49803922
0.90980392 0.65882353 0.49803922
0.93039216 0.65588235 0.49803922
0.95098039 0.65588235 0.49803922
0.97046569 0.65698529 0.49803922
0.97745098 0.65882353 0.49803922
0.034803922 0.70343137 0.50196078
0.08057598 0.70373775 0.50196078
0.13872549 0.70735294 0.50196078
0.20091912 0.70735294 0.49810049
0.26666667 0.70735294 0.49803922
0.33235294 0.70729167 0.49803922
0.39411765 0.70343137 0.49803922
0.45196078 0.6995098 0.49803922
0.50980392 0.69901961 0.49411765
0.56734069 0.69558824 0.49411765
0.61960784 0.69558824 0.49411765
0.65735294 0.6995098 0.49411765
0.69215686 0.70318627 0.49779412
0.72303922 0.70692402 0.49803922
0.7564951 0.70735294 0.49803922
0.78872549 0.71127451 0.49803922
0.81911765 0.71078431 0.49803922
0.84656863 0.70735294 0.49803922
0.86862745 0.70735294 0.49803922
0.88921569 0.70784314 0.49803922
0.90980392 0.70735294 0.49803922
0.93039216 0.70386029 0.49803922
0.95098039 0.70343137 0.49803922
0.975 0.70343137 0.49803922
0.9877451 0.70392157 0.49803922
0.043137255 0.75490196 0.49803922
0.086764706 0.75490196 0.49803922
0.14705882 0.75539216 0.49803922
0.20710784 0.75882353 0.49803922
0.27058824 0.7627451 0.49803922
0.33627451 0.76078431 0.49803922
0.39656863 0.75735294 0.49803922
0.45514706 0.75416667 0.49803922
0.51372549 0.75098039 0.49803922
0.56911765 0.74705882 0.49411765
0.61813725 0.74705882 0.49411765
0.65710784 0.75098039 0.49583333
0.69215686 0.75588235 0.49803922
0.72696078 0.75906863 0.49803922
0.75784314 0.76421569 0.49803922
0.78872549 0.76666667 0.49803922
0.81960784 0.7627451 0.49803922
0.84803922 0.75882353 0.49803922
0.87254902 0.75882353 0.49803922
0.89313725 0.75882353 0.49803922
0.91372549 0.75882353 0.49803922
0.93431373 0.75490196 0.49803922
0.95490196 0.75098039 0.49803922
0.9754902 0.75098039 0.49803922
0.99411765 0.75098039 0.49803922
0.042647059 0.81029412 0.49803922
0.086580882 0.81029412 0.49803922
0.14803922 0.80502451 0.49803922
0.21323529 0.80974265 0.49803922
0.2745098 0.81813725 0.49852941
0.33676471 0.81770833 0.49803922
0.39803922 0.81164216 0.49803922
0.45833333 0.80882353 0.49803922
0.51372549 0.80245098 0.49803922
0.56862745 0.8 0.49803922
0.61568627 0.79865196 0.49803922
0.65686275 0.8028799 0.49803922
0.69411765 0.81029412 0.49803922
0.7278799 0.81470588 0.49803922
0.76176471 0.8185049 0.49840686
0.79264706 0.81844363 0.50196078
0.81960784 0.81421569 0.49803922
0.8504902 0.81029412 0.49803922
0.87647059 0.80735294 0.49803922
0.89705882 0.81029412 0.49803922
0.91372549 0.81053922 0.49803922
0.93431373 0.80686275 0.49803922
0.95490196 0.80686275 0.49803922
0.975 0.80686275 0.49803922
0.98823529 0.80637255 0.49803922
0.03627451 0.86470588 0.49803922
0.082352941 0.86286765 0.49987745
0.15171569 0.85 0.50098039
0.2192402 0.85441176 0.50098039
0.27843137 0.87107843 0.50196078
0.34019608 0.87254902 0.50183824
0.39901961 0.86887255 0.49803922
0.45833333 0.86176471 0.49803922
0.51372549 0.85784314 0.49803922
0.56519608 0.85392157 0.49803922
0.61176471 0.85392157 0.49803922
0.65294118 0.85772059 0.49803922
0.69411765 0.86372549 0.49803922
0.73088235 0.86997549 0.49803922
0.76176471 0.87352941 0.50196078
0.79264706 0.87352941 0.50196078
0.82352941 0.86862745 0.50098039
0.8504902 0.86176471 0.49803922
0.87426471 0.86102941 0.49803922
0.89705882 0.86556373 0.49803922
0.91372549 0.86862745 0.49803922
0.93431373 0.8682598 0.49803922
0.95269608 0.86470588 0.49803922
0.97156863 0.86470588 0.49803922
0.98823529 0.86470588 0.49803922
0.024509804 0.92254902 0.50196078
0.079901961 0.91078431 0.50196078
0.15196078 0.8939951 0.50196078
0.22058824 0.89773284 0.50196078
0.27843137 0.91960784 0.50196078
0.33627451 0.9286152 0.50196078
0.39803922 0.92205882 0.50196078
0.45441176 0.91568627 0.49803922
0.50980392 0.90931373 0.49803922
0.56127451 0.90539216 0.49803922
0.60784314 0.90637255 0.49803922
0.64901961 0.9127451 0.49803922
0.69019608 0.91715686 0.49803922
0.73088235 0.92518382 0.50196078
0.76568627 0.92892157 0.50196078
0.79509804 0.92745098 0.50196078
0.81960784 0.92107843 0.50196078
0.84656863 0.91715686 0.49803922
0.87254902 0.91605392 0.49803922
0.89313725 0.91930147 0.49803922
0.91372549 0.92107843 0.49803922
0.93431373 0.92371324 0.50196078
0.95098039 0.925 0.50196078
0.97156863 0.925 0.50196078
0.98578431 0.92254902 0.50196078
0.0039215686 0.98039216 0.50196078
0.082352941 0.94558824 0.50196078
0.15490196 0.9254902 0.50196078
0.22058824 0.92892157 0.50196078
0.27843137 0.95098039 0.50196078
0.33235294 0.98333333 0.50196078
0.39411765 0.96568627 0.50196078
0.45196078 0.95539216 0.5004902
0.50588235 0.94901961 0.49803922
0.55735294 0.94901961 0.49803922
0.60392157 0.94901961 0.49803922
0.64509804 0.95245098 0.49803922
0.68627451 0.95882353 0.50196078
0.72745098 0.96911765 0.50196078
0.76470588 0.98235294 0.50196078
0.79264706 0.97107843 0.50196078
0.81960784 0.96078431 0.50196078
0.84411765 0.95686275 0.49803922
0.86960784 0.95686275 0.49803922
0.89313725 0.96029412 0.49803922
0.91764706 0.96078431 0.5
0.93431373 0.96127451 0.50196078
0.95196078 0.96470588 0.50196078
0.97156863 0.96862745 0.50196078
0.98823529 0.97254902 0.50196078
0.031372549 0.031372549 0.49411765
0.081372549 0.02745098 0.49411765
0.14460784 0.023529412 0.49509804
0.21011029 0.019607843 0.49803922
0.27328431 0.01372549 0.49803922
0.33627451 0.010294118 0.49803922
0.39264706 0.0078431373 0.49803922
0.44264706 0.010845588 0.49803922
0.49019608 0.011764706 0.49803922
0.5377451 0.015686275 0.49803922
0.58529412 0.015073529 0.49803922
0.63676471 0.013235294 0.49803922
0.68823529 0.016421569 0.49803922
0.73480392 0.025490196 0.49803922
0.76568627 0.028921569 0.49803922
0.79656863 0.028002451 0.49803922
0.825 0.025 0.49803922
0.8528799 0.019607843 0.49803922
0.88039216 0.015073529 0.49803922
0.90098039 0.015686275 0.49803922
0.92156863 0.016421569 0.49803922
0.94185049 0.015686275 0.49803922
0.95882353 0.012745098 0.49509804
0.97794118 0.0078431373 0.49411765
0.99607843 0.0014705882 0.49411765
0.031372549 0.044117647 0.49411765
0.079840686 0.042241115 0.49411765
0.14212623 0.040196078 0.49803922
0.20637255 0.0363894 0.49803922
0.27159926 0.031617647 0.49803922
0.33474265 0.028431373 0.49803922
0.39241728 0.027879902 0.49803922
0.44264706 0.028431373 0.49803922
0.49019608 0.029963235 0.49803922
0.5377451 0.032352941 0.49803922
0.58529412 0.032352941 0.49803922
0.63676471 0.032352941 0.49803922
0.68823529 0.033823529 0.49803922
0.73480392 0.04185049 0.50055913
0.76937806 0.043520221 0.50104167
0.79656863 0.040747549 0.49957108
0.82408088 0.03682598 0.49803922
0.85196078 0.031395527 0.49803922
0.87660846 0.028431373 0.49803922
0.90078891 0.032238051 0.49803922
0.92156863 0.03504902 0.49803922
0.94166667 0.035286458 0.49803922
0.95882353 0.032582721 0.49803922
0.97583487 0.029963235 0.49564951
0.98823529 0.027879902 0.49411765
0.031372549 0.068627451 0.49509804
0.078691789 0.067478554 0.49803922
0.13921569 0.064246324 0.49803922
0.20208333 0.060784314 0.49803922
0.26605392 0.057843137 0.49803922
0.32953431 0.057843137 0.49803922
0.3893076 0.056954657 0.49803922
0.44264706 0.056449142 0.49803922
0.49019608 0.053921569 0.49803922
0.5377451 0.053921569 0.49803922
0.58529412 0.053921569 0.49803922
0.63676471 0.053385417 0.501731
0.68823529 0.055085784 0.50196078
0.73776042 0.060248162 0.50196078
0.76960784 0.059803922 0.50196078
0.79633885 0.05580576 0.50196078
