site/assets/luts/natron-haldclut--polaroid-px-100uv-warm--9f524b0aa.cube
# LUTr-Project: LUTr — LUTrepository
# LUTr-Schema-Version: 1
# LUTr-ID: natron-haldclut--polaroid-px-100uv-warm--9f524b0aa
# LUTr-Title: polaroid px-100uv+ warm ++
# LUTr-Collection: Natron HaldCLUT
# LUTr-Collection-ID: natron-haldclut-presets
# LUTr-Source: https://github.com/NatronGitHub/clut
# LUTr-Source-File: submissions/natron-haldclut-presets/instant_consumer/polaroid_px-100uv+_warm_++.png
# LUTr-Source-Format: PNG
# LUTr-Source-SHA256: 0da27f155c889014195e7b49100dc6397d423738fed0fa37509efca13a163ce8
# LUTr-License: CC-BY-SA-4.0
# LUTr-License-URL: https://github.com/NatronGitHub/clut#license
# LUTr-Tags: creative, film, film-emulation, hald-clut, natron, png, warm, cube
# LUTr-Transform-Class: film-emulation
# LUTr-Input-Color-Space: srgb
# LUTr-Output-Color-Space: srgb
# LUTr-Color-Space-Confidence: assumed-display-referred
# LUTr-Conversion-Method: PNG LUT image decoded at 16-bit and sampled to 25x25x25 3D CUBE
# LUTr-Conversion-Date: 2026-07-27
# LUTr-Conversion-Tool: LUTr scripts/convert-all-to-cube.mjs
# LUTr-Conversion-Grid: 25x25x25
# LUTr-Note: Preserve this metadata and the upstream license notices when redistributing.
TITLE "polaroid px-100uv+ warm ++"
LUT_3D_SIZE 9
DOMAIN_MIN 0 0 0
DOMAIN_MAX 1 1 1
0.43137255 0.38823529 0.39215686
0.43137255 0.38823529 0.39215686
0.43137255 0.38823529 0.39215686
0.43382353 0.39068627 0.39460784
0.45882353 0.41764706 0.4254902
0.47745098 0.43823529 0.44607843
0.53431373 0.50294118 0.50392157
0.58872549 0.56176471 0.56176471
0.63137255 0.60784314 0.60392157
0.43529412 0.39215686 0.39607843
0.43529412 0.39215686 0.39607843
0.43137255 0.39166667 0.39558824
0.43743873 0.39589461 0.39981618
0.4625 0.425 0.42941176
0.49136029 0.45606618 0.46158088
0.53529412 0.50784314 0.51078431
0.58921569 0.56568627 0.56476716
0.63529412 0.61519608 0.60784314
0.43529412 0.39607843 0.4
0.43529412 0.39607843 0.4
0.43529412 0.39607843 0.4
0.44705882 0.40968137 0.41421569
0.46323529 0.42745098 0.43137255
0.48811275 0.45392157 0.45845588
0.53921569 0.51176471 0.5125
0.59313725 0.56960784 0.56568627
0.63921569 0.61960784 0.61176471
0.43921569 0.4 0.40392157
0.43792892 0.39852941 0.40245098
0.44105392 0.40294118 0.40686275
0.45980392 0.4245098 0.42689951
0.47377451 0.43970588 0.44362745
0.49411765 0.45974265 0.4627451
0.54313725 0.51568627 0.51568627
0.59656863 0.56960784 0.56911765
0.61960784 0.59754902 0.59215686
0.47254902 0.4372549 0.44117647
0.47254902 0.4372549 0.44117647
0.47794118 0.44264706 0.44509804
0.48823529 0.45539216 0.45931373
0.50784314 0.4745098 0.47843137
0.53284314 0.50147059 0.50147059
0.55980392 0.53235294 0.53235294
0.59240196 0.56715686 0.56495098
0.61372549 0.59019608 0.58627451
0.51127451 0.47990196 0.48382353
0.51666667 0.48511029 0.4877451
0.52303922 0.49166667 0.49313725
0.52996324 0.49859069 0.50098039
0.54534314 0.51593137 0.51789216
0.56372549 0.53627451 0.53627451
0.59460784 0.56862745 0.56715686
0.62941176 0.60588235 0.59981618
0.64460784 0.625 0.61715686
0.5754902 0.54803922 0.54705882
0.5745098 0.54411765 0.54411765
0.57058824 0.54313725 0.54313725
0.57352941 0.54497549 0.54497549
0.59215686 0.56470588 0.5627451
0.61127451 0.5877451 0.58382353
0.64215686 0.61862745 0.61078431
0.67205882 0.65208333 0.64154412
0.6754902 0.65588235 0.64803922
0.65637255 0.63284314 0.625
0.65202206 0.62892157 0.62064951
0.64460784 0.62107843 0.61678922
0.64460784 0.6213848 0.61697304
0.65612745 0.63088235 0.6247549
0.67696078 0.65343137 0.64166667
0.70257353 0.68039216 0.6685049
0.71029412 0.69068627 0.67843137
0.70686275 0.69068627 0.675
0.7254902 0.70588235 0.69019608
0.71764706 0.69803922 0.68627451
0.71764706 0.70098039 0.68627451
0.72696078 0.71127451 0.69558824
0.72156863 0.70196078 0.68627451
0.73333333 0.71372549 0.69558824
0.74901961 0.72941176 0.70980392
0.74460784 0.725 0.70588235
0.74117647 0.72156863 0.70196078
0.43921569 0.39607843 0.4
0.43921569 0.39607843 0.4
0.43872549 0.39607843 0.4
0.44136029 0.39981618 0.40373775
0.46470588 0.4254902 0.43112745
0.49920343 0.46519608 0.46942402
0.54301471 0.51433824 0.51556373
0.59613971 0.56960784 0.56911765
0.63921569 0.61911765 0.61176471
0.44313725 0.40300245 0.40692402
0.44308364 0.40300245 0.40692402
0.44264706 0.4 0.40392157
0.44671415 0.40746017 0.41138174
0.47248775 0.43633578 0.44047181
0.5026731 0.46926317 0.47522212
0.54178922 0.51433824 0.51556373
0.59651501 0.57303922 0.56954657
0.64264706 0.62303922 0.61519608
0.44705882 0.40772059 0.41164216
0.44693627 0.40735294 0.41127451
0.44705882 0.40784314 0.41176471
0.45093444 0.41390931 0.41783088
0.47383578 0.44025735 0.44417892
0.50686275 0.4754902 0.47941176
0.54463848 0.51740196 0.51917892
0.60006127 0.57685355 0.57303922
0.64705882 0.62708333 0.6192402
0.45471814 0.41764706 0.42156863
0.45343137 0.41437653 0.41813725
0.45471814 0.41764706 0.42156863
0.45735294 0.42205882 0.42598039
0.48268995 0.44883578 0.45275735
0.515625 0.48333333 0.48633578
0.55742953 0.52997855 0.53056066
0.60398284 0.58045343 0.57653186
0.63872549 0.61519608 0.61096814
0.49166667 0.45637255 0.45857843
0.49166667 0.45637255 0.45857843
0.48995098 0.45637255 0.45857843
0.49197304 0.45793505 0.46185662
0.51323529 0.48186275 0.48578431
0.54019608 0.50906863 0.5127451
0.57107843 0.54234069 0.54362745
0.60784314 0.5825674 0.58039216
0.63651961 0.61127451 0.60710784
0.53186275 0.5004902 0.50294118
0.53216912 0.50079657 0.503125
0.53449755 0.503125 0.50471814
0.53235294 0.503125 0.50490196
0.54598652 0.51764706 0.51853554
0.56757813 0.53970588 0.54012714
0.59852941 0.57140012 0.57084865
0.63491115 0.61138174 0.6060432
0.66372549 0.64050245 0.63265931
0.59105392 0.56360294 0.5622549
0.59073223 0.56323529 0.5622549
0.5890625 0.5622549 0.55842525
0.58622855 0.56038603 0.55856311
0.5997549 0.57359069 0.57034314
0.61372549 0.5877451 0.58382353
0.64117647 0.61544118 0.61078431
0.67205882 0.65240502 0.64143689
0.69068627 0.67107843 0.65968137
0.66415441 0.640625 0.63192402
0.66324295 0.63976716 0.63186275
0.65598958 0.63246017 0.62493873
0.65245098 0.62935049 0.62408088
0.65980392 0.63651961 0.62821691
0.67914369 0.6560432 0.64558824
0.7 0.68039216 0.66502757
0.71421569 0.69460784 0.67984069
0.72156863 0.70245098 0.69019608
0.73333333 0.71372549 0.69803922
0.725 0.70539216 0.69019608
0.72144608 0.70196078 0.68884804
0.72156863 0.70588235 0.69019608
0.71960784 0.70196078 0.68627451
0.73480392 0.71519608 0.6995098
0.74938725 0.72977941 0.71286765
0.74460784 0.7254902 0.70588235
0.74901961 0.73284314 0.71372549
0.44607843 0.40392157 0.40784314
0.44607843 0.40392157 0.40784314
0.44607843 0.40465686 0.40857843
0.44669118 0.40637255 0.41029412
0.47598039 0.44019608 0.44460784
0.51960784 0.48823529 0.49105392
0.56176471 0.5372549 0.5372549
0.61176471 0.58921569 0.58517157
0.65490196 0.63431373 0.62352941
0.45098039 0.41164216 0.41556373
0.45098039 0.41164216 0.41556373
0.45098039 0.41176471 0.41568627
0.454856 0.41724877 0.42117034
0.48296569 0.44828431 0.45220588
0.52022059 0.4904565 0.49437806
0.5625 0.5375 0.5375
0.61499694 0.59215686 0.58786765
0.65747549 0.63529412 0.62647059
0.45490196 0.41568627 0.41960784
0.45490196 0.41568627 0.41960784
0.45839461 0.41954657 0.42346814
0.4676777 0.43223039 0.43615196
0.49509804 0.46286765 0.46678922
0.5294424 0.50018382 0.50318627
0.56936275 0.54436275 0.54454657
0.61663603 0.5950674 0.58918505
0.65784314 0.63602941 0.62745098
0.46911765 0.43284314 0.43566176
0.46911765 0.43013174 0.43382353
0.47205882 0.43520221 0.4377451
0.48276654 0.44898897 0.451394
0.50931373 0.47579657 0.47941176
0.54296875 0.51352635 0.51680453
0.58155637 0.5557598 0.55548407
0.62316176 0.59963235 0.59566483
0.65845588 0.63529412 0.62745098
0.51078431 0.47745098 0.47794118
0.51127451 0.47745098 0.47941176
0.51078431 0.47745098 0.47941176
0.51415441 0.48204657 0.48455882
0.52892157 0.49705882 0.50098039
0.55643382 0.52616422 0.52898284
0.59497549 0.56875 0.56752451
0.63351716 0.609375 0.60410539
0.67009804 0.64656863 0.63872549
0.55379902 0.52414216 0.52414216
0.55551471 0.52634804 0.52634804
0.55490196 0.52634804 0.52634804
0.55490196 0.52703738 0.52703738
0.56838235 0.53952206 0.54044118
0.58402267 0.55595895 0.55634191
0.61715686 0.59068627 0.58722426
0.65261949 0.62855392 0.62354473
0.68737745 0.66384804 0.65428922
0.6129902 0.5870098 0.58161765
0.61446078 0.58921569 0.58529412
0.61035539 0.58529412 0.58082108
0.60882353 0.58373162 0.57833946
0.6189951 0.5935049 0.58884804
0.62870711 0.6044424 0.60009191
0.64828431 0.6247549 0.61764706
0.68382353 0.66029412 0.6515625
0.70980392 0.68946078 0.67769608
0.68235294 0.65980392 0.64803922
0.67941176 0.65882353 0.64716605
0.67166054 0.65101103 0.6395527
0.66764706 0.64710478 0.63627451
0.67150735 0.65098039 0.6401348
0.68272059 0.66090686 0.64946385
0.70257353 0.68026961 0.66829044
0.7174326 0.69557292 0.68333333
0.74068627 0.72205882 0.70637255
0.73333333 0.71372549 0.69803922
0.72941176 0.70980392 0.69411765
0.7254902 0.70906863 0.69411765
0.7254902 0.70980392 0.69411765
0.72156863 0.70343137 0.6877451
0.72303922 0.70343137 0.6877451
0.74117647 0.72156863 0.70294118
0.75196078 0.73284314 0.71666667
0.77156863 0.75588235 0.73627451
0.45098039 0.41176471 0.41568627
0.45704657 0.41783088 0.42175245
0.46519608 0.42843137 0.4317402
0.47156863 0.43480392 0.43872549
0.49852941 0.46519608 0.46715686
0.54172794 0.51219363 0.51427696
0.58590686 0.56127451 0.56029412
0.63449755 0.61470588 0.60704657
0.67696078 0.65735294 0.64313725
0.46470588 0.4254902 0.42941176
0.46707261 0.42925092 0.43177849
0.47464767 0.43723958 0.44019608
0.48402267 0.44865962 0.45238971
0.50588235 0.47107843 0.475
0.54345129 0.51519608 0.51764706
0.58811275 0.56511949 0.56127451
0.63609069 0.61519608 0.60863971
0.67696078 0.65735294 0.64558824
0.47659314 0.43958333 0.44129902
0.4754902 0.43769914 0.44129902
0.48416054 0.44788603 0.45125613
0.50232843 0.4683364 0.47202819
0.52107843 0.49019608 0.49411765
0.55081189 0.52336091 0.5259038
0.59586397 0.57132353 0.56887255
0.63841912 0.6180913 0.61078431
0.67340686 0.65343137 0.64166667
0.49117647 0.45588235 0.45980392
0.49069393 0.45441176 0.45588235
0.49803922 0.4627451 0.46597733
0.51750153 0.48578431 0.48782935
0.53897059 0.50882353 0.51228554
0.56770833 0.54025735 0.54152114
0.60758272 0.58272059 0.57990196
0.64607843 0.62266391 0.61569393
0.6754902 0.65343137 0.64411765
0.53063725 0.49852941 0.49852941
0.53054534 0.49852941 0.49926471
0.52990196 0.49852941 0.49926471
0.54019608 0.50909926 0.51029412
0.55833333 0.52855392 0.53088235
0.58553922 0.55686275 0.55686275
0.62015931 0.59558824 0.59166667
0.65784314 0.63440564 0.62720588
0.6875 0.66519608 0.65416667
0.57493873 0.54748775 0.54564951
0.5754902 0.54803922 0.54656863
0.57587316 0.54842218 0.54656863
0.58073683 0.55386029 0.55202206
0.59316789 0.56571691 0.56421569
0.60931373 0.58243719 0.58039216
0.64019608 0.61441483 0.60882353
0.675 0.65158548 0.64362745
0.6971201 0.67542892 0.66421569
0.63186275 0.60833333 0.6004902
0.63333333 0.60833333 0.60159314
0.63125 0.60634191 0.60003064
0.63163297 0.60810355 0.6004902
0.64313725 0.61868873 0.61194853
0.65188419 0.62794118 0.62051164
0.66715686 0.6439951 0.63578431
0.69914216 0.67843137 0.66666667
0.72107843 0.69901961 0.6872549
0.69099265 0.67009804 0.65588235
0.68752298 0.66764706 0.65569853
0.6872549 0.6676011 0.65530025
0.6872549 0.66617647 0.65441176
0.69322917 0.67245711 0.65897672
0.69803156 0.67774969 0.66575521
0.7064951 0.68587623 0.6722886
0.73039216 0.71078431 0.69751072
0.75343137 0.73645833 0.71844363
0.73970588 0.72009804 0.70196078
0.73333333 0.71617647 0.69803922
0.73333333 0.71556373 0.69803922
0.73970588 0.72156863 0.70533088
0.73651961 0.71887255 0.70245098
0.73578431 0.71617647 0.7004902
0.74117647 0.72218137 0.70588235
0.76127451 0.74381127 0.72598039
0.78431373 0.76617647 0.74656863
0.50588235 0.47058824 0.4745098
0.50980392 0.47794118 0.47843137
0.52156863 0.4877451 0.49019608
0.52941176 0.49803922 0.49803922
0.54215686 0.51176471 0.51372549
0.56421569 0.53676471 0.53676471
0.60735294 0.58382353 0.57990196
0.65563725 0.63602941 0.62622549
0.69803922 0.67843137 0.6627451
0.51372549 0.48186275 0.48235294
0.51764706 0.48556985 0.48627451
0.52928922 0.49669118 0.49791667
0.53832721 0.50802696 0.5096201
0.55085784 0.52328431 0.5252451
0.57049632 0.54445466 0.54460784
0.61433824 0.59185049 0.58707108
0.6578125 0.63820466 0.6296875
0.70196078 0.68235294 0.66666667
0.52941176 0.49705882 0.49803922
0.53069853 0.49803922 0.49932598
0.5372549 0.50588235 0.50588235
0.54883578 0.51948529 0.52064951
0.56053922 0.53333333 0.53480392
0.58137255 0.55753676 0.55588235
0.62071078 0.59901961 0.59473039
0.66151961 0.64209559 0.63382353
0.7 0.68039216 0.66666667
0.53970588 0.50833333 0.50906863
0.53848039 0.50833333 0.50906863
0.54491422 0.51372549 0.51464461
0.55539216 0.52748162 0.52794118
0.57438725 0.54791667 0.54693627
0.60196078 0.57766544 0.5745098
0.63376225 0.61109069 0.60612745
0.66847426 0.64813113 0.6377451
0.7 0.68039216 0.66862745
0.55294118 0.52352941 0.52254902
0.55294118 0.52254902 0.52254902
0.55465686 0.52647059 0.52720588
0.57144608 0.5439951 0.54362745
0.59460784 0.56862745 0.56617647
0.62071078 0.59620098 0.59166667
0.64926471 0.62647059 0.61862745
0.68088235 0.65943627 0.6495098
0.70784314 0.68823529 0.6745098
0.59313725 0.56764706 0.5629902
0.59436275 0.56887255 0.56495098
0.59632353 0.57052696 0.56691176
0.60343137 0.57821691 0.57401961
0.61985294 0.59436275 0.59007353
0.64019608 0.61666667 0.61127451
0.66715686 0.64362745 0.63578431
0.69721201 0.67558211 0.66397059
0.7125 0.69093137 0.67916667
0.64705882 0.62352941 0.61372549
0.64705882 0.62352941 0.61519608
0.64693627 0.62352941 0.61519608
0.65189951 0.63045343 0.62052696
0.66617647 0.64460784 0.63480392
0.67867647 0.65784314 0.64626225
0.69203431 0.67058824 0.65992647
0.71709559 0.69748775 0.68376225
0.73039216 0.71078431 0.69509804
0.70294118 0.68333333 0.66764706
0.70119485 0.68137255 0.66740196
0.70073529 0.68131127 0.66740196
0.70490196 0.68636642 0.67147672
0.71544118 0.69693627 0.68210784
0.71642157 0.69788603 0.68284314
0.72205882 0.70245098 0.68676471
0.74215686 0.72447917 0.70686275
0.75686275 0.7377451 0.72156863
0.75294118 0.7372549 0.71568627
0.74705882 0.72965686 0.71004902
0.74509804 0.72892157 0.70980392
0.75220588 0.73455882 0.71495098
0.75980392 0.74411765 0.7245098
0.75098039 0.73333333 0.71372549
0.75098039 0.73480392 0.71519608
0.76862745 0.75122549 0.73161765
0.77647059 0.76078431 0.74117647
0.57156863 0.54411765 0.54411765
0.57156863 0.54411765 0.54411765
0.57904412 0.54987745 0.55098039
0.59025735 0.56372549 0.5622549
0.60294118 0.57818627 0.5754902
0.61470588 0.58872549 0.58572304
0.63198529 0.60784314 0.60355392
0.67285539 0.65324755 0.64148284
0.70980392 0.69166667 0.67598039
0.5754902 0.54773284 0.54803922
0.57935049 0.55120251 0.55147059
0.58494179 0.55845588 0.55588235
0.59724265 0.5713848 0.56979167
0.61053922 0.58529412 0.58308824
0.62383578 0.60251991 0.59784007
0.64528186 0.62334559 0.61778493
0.68431373 0.66497396 0.65294118
0.71501225 0.69558824 0.67990196
0.58517157 0.55588235 0.55588235
0.5872549 0.55980392 0.55975797
0.59338235 0.56740196 0.56372549
0.6060815 0.58125 0.5777114
0.61954657 0.59656863 0.59209559
0.63762255 0.61617647 0.61055453
0.6567402 0.6375 0.62873775
0.68823529 0.66862745 0.65686275
0.72156863 0.70343137 0.68737745
0.59270833 0.56617647 0.56372549
0.59362745 0.56764706 0.56372549
0.59901961 0.57512255 0.57120098
0.61078431 0.5872549 0.58243719
0.62619485 0.60416667 0.59782475
0.64515931 0.62401961 0.61713388
0.6649663 0.64535846 0.63607537
0.69472273 0.67647059 0.66335018
0.72696078 0.70980392 0.69166667
0.60294118 0.57745098 0.57352941
0.60294118 0.57925858 0.57352941
0.60612745 0.57941176 0.5754902
0.61519608 0.59090074 0.58532475
0.63455882 0.6120098 0.60453431
0.65588235 0.63477328 0.62601103
0.67696078 0.65686275 0.64558824
0.70392157 0.68431373 0.67181373
0.72818627 0.71053922 0.69411765
0.62647059 0.60294118 0.59509804
0.62647059 0.60294118 0.59509804
0.62401961 0.6004902 0.59356618
0.63373928 0.61020987 0.60294118
0.65150123 0.62916667 0.62058824
0.67052696 0.64977022 0.63949908
0.69172794 0.67280944 0.65997243
0.71842831 0.69882047 0.68500306
0.7278799 0.70827206 0.69258578
0.67009804 0.6504902 0.6377451
0.67009804 0.6495098 0.6377451
0.66957721 0.64656863 0.63746936
0.67757353 0.65686275 0.6455576
0.69117647 0.67156863 0.65814951
0.70234375 0.68480392 0.67003676
0.71507353 0.69718137 0.68186275
0.73216912 0.71488971 0.69915748
0.73933824 0.72254902 0.70625
0.72224265 0.70441176 0.68480392
0.72009804 0.70075827 0.6846201
0.72009804 0.70209865 0.68475797
0.72696844 0.70814951 0.69167433
0.73382353 0.71439951 0.69852941
0.73628217 0.71960784 0.70091912
0.74551164 0.72745098 0.70998775
0.7591299 0.74297641 0.72336857
0.7627451 0.746875 0.72598039
0.76862745 0.75294118 0.72941176
0.76078431 0.74509804 0.72175245
0.75441176 0.7372549 0.71764706
0.75686275 0.7372549 0.71764706
0.75882353 0.74117647 0.72156863
0.77009804 0.75349265 0.73180147
0.77009804 0.75294118 0.73088235
0.78578431 0.77009804 0.74656863
0.78431373 0.76862745 0.74509804
0.64117647 0.61764706 0.61078431
0.64117647 0.61764706 0.60980392
0.64509804 0.62156863 0.61372549
0.65294118 0.63186275 0.62401961
0.66862745 0.64901961 0.63921569
0.68370098 0.66470588 0.65294118
0.69705882 0.67745098 0.66544118
0.71176471 0.69252451 0.67683824
0.72647059 0.70686275 0.69117647
0.64509804 0.62156863 0.61372549
0.64509804 0.62156863 0.61372549
0.64901961 0.62613358 0.61829044
0.66060049 0.63779105 0.62941176
0.6723652 0.65140931 0.64246324
0.68431373 0.66613051 0.65404412
0.70073529 0.68137255 0.66936275
0.71605392 0.69946385 0.68377757
0.73039216 0.71458333 0.69767157
0.64901961 0.6247549 0.61764706
0.65284926 0.62904412 0.62156863
0.65686275 0.6338848 0.6254902
0.66835172 0.64708946 0.6372549
0.67757353 0.65686275 0.64840686
0.68808211 0.66945466 0.65796569
0.70428922 0.68504902 0.67181373
0.7236826 0.70726103 0.69090074
0.74117647 0.72254902 0.70588235
0.65294118 0.63002451 0.62156863
0.65686275 0.63333333 0.6254902
0.66078431 0.63936887 0.62941176
0.66862745 0.64901961 0.6372549
0.68131127 0.66078431 0.64993873
0.69463848 0.67585784 0.66303615
0.71102941 0.69188113 0.67720588
0.7317402 0.71519608 0.69901961
0.75183824 0.73615196 0.71654412
0.66470588 0.64117647 0.63137255
0.66470588 0.64362745 0.63333333
0.66470588 0.64117647 0.6317402
0.66862745 0.64810049 0.63707108
0.68455882 0.66421569 0.65245098
0.70079657 0.6814951 0.66856618
0.71605392 0.69681373 0.68223039
0.73088235 0.71127451 0.69558824
0.74215686 0.7245098 0.70637255
0.67401961 0.65441176 0.64117647
0.67401961 0.65441176 0.64227941
0.67401961 0.65404412 0.64227941
0.6810815 0.6598652 0.64771752
0.69632353 0.67671569 0.6629902
0.70977328 0.6921875 0.67826287
0.72380515 0.70695466 0.69154412
0.73837316 0.71904105 0.70307904
0.74546569 0.72647059 0.70833333
0.70098039 0.68431373 0.66862745
0.70098039 0.68210784 0.66862745
0.70392157 0.68431373 0.66862745
0.70891544 0.68939951 0.67536765
0.72156863 0.70392157 0.68823529
0.73137255 0.71369485 0.69690564
0.73768382 0.72199755 0.70373775
0.74751838 0.7317402 0.71415441
0.75784314 0.74215686 0.72254902
0.74264706 0.72598039 0.70637255
0.74264706 0.72598039 0.70637255
0.74301471 0.72696078 0.70735294
0.74656863 0.72990196 0.71115196
0.75177696 0.73480392 0.71519608
0.76217831 0.74595588 0.72575061
0.76418505 0.74941789 0.72696078
0.77423407 0.75870098 0.73785233
0.7817402 0.76605392 0.74252451
0.76078431 0.74509804 0.7245098
0.76470588 0.74901961 0.72892157
0.76176471 0.74509804 0.7254902
0.76078431 0.74509804 0.7254902
0.76911765 0.75147059 0.73039216
0.7807598 0.76507353 0.74154412
0.78357843 0.76862745 0.74509804
0.79215686 0.77745098 0.75294118
0.79215686 0.77745098 0.75294118
0.71127451 0.69509804 0.67941176
0.71127451 0.69509804 0.67941176
0.71127451 0.69509804 0.67941176
0.71862745 0.69901961 0.68333333
0.73039216 0.71078431 0.69509804
0.73823529 0.72254902 0.70294118
0.74571078 0.72990196 0.71029412
0.75042892 0.73431373 0.71470588
0.75343137 0.7377451 0.71813725
0.71470588 0.69509804 0.67941176
0.71519608 0.69901961 0.68333333
0.71862745 0.70176164 0.68558517
0.72628676 0.70686275 0.69099265
0.73039216 0.71467525 0.69831495
0.73952206 0.72254902 0.70422794
0.7495098 0.73382353 0.71421569
0.75697763 0.73855699 0.71856618
0.75735294 0.74166667 0.72205882
0.71519608 0.69546569 0.68333333
0.71862745 0.6993413 0.68333333
0.72254902 0.70294118 0.6872549
0.72647059 0.70900735 0.69117647
0.73431373 0.71470588 0.69901961
0.74215686 0.72562806 0.70686275
0.75343137 0.73431373 0.71556373
0.75773591 0.74166667 0.72205882
0.76813725 0.75208333 0.72990196
0.71862745 0.69901961 0.68333333
0.72489277 0.70528493 0.68939951
0.72254902 0.70294118 0.6872549
0.72647059 0.70686275 0.69117647
0.73406863 0.71470588 0.69862132
0.74344363 0.72616422 0.70814951
0.75477941 0.73782169 0.7182598
0.76519608 0.74607843 0.72644761
0.77665441 0.75863971 0.7377451
0.72647059 0.70686275 0.69117647
0.73039216 0.71078431 0.69463848
0.72647059 0.70686275 0.69117647
0.72647059 0.70793505 0.69117647
0.73431373 0.71556373 0.69889706
0.74577206 0.72775735 0.71029412
0.75870098 0.74178922 0.72218137
0.76519608 0.74558824 0.72598039
0.76936275 0.75343137 0.73382353
0.73400735 0.71470588 0.69852941
0.73431373 0.71470588 0.69855239
0.73039216 0.71078431 0.69509804
0.73431373 0.71610754 0.69890472
0.74344363 0.72616422 0.70735294
0.75440411 0.73852635 0.7189185
0.76358762 0.74693627 0.72732843
0.76911765 0.75343137 0.73382353
0.77696078 0.75882353 0.7377451
0.73786765 0.72218137 0.70257353
0.73909314 0.72329963 0.70379902
0.74178922 0.72340686 0.70637255
0.7501685 0.73132659 0.71332721
0.75741422 0.74166667 0.72205882
0.76127451 0.74558824 0.72598039
0.76519608 0.7495098 0.72990196
0.77438725 0.76095282 0.73818934
0.78872549 0.77303922 0.75036765
0.75735294 0.73866422 0.71862745
0.76175705 0.74601716 0.72555147
0.76960784 0.75392157 0.73382353
0.77303922 0.75606618 0.73409161
0.77653186 0.76084559 0.7377451
0.77696078 0.76127451 0.73817402
0.77738971 0.76251532 0.74123775
0.78561581 0.77271752 0.74918811
0.79307598 0.78039216 0.75686275
0.77303922 0.75735294 0.73382353
0.77696078 0.76127451 0.7377451
0.77659314 0.76078431 0.7377451
0.77696078 0.76127451 0.7377451
0.78259804 0.76691176 0.74509804
0.78823529 0.77303922 0.74920343
0.7935049 0.78039216 0.75686275
0.80006127 0.78823529 0.76127451
0.8004902 0.78823529 0.76127451
0.76862745 0.75294118 0.73333333
0.76911765 0.75294118 0.73333333
0.75980392 0.74411765 0.7245098
0.78284314 0.76715686 0.74362745
0.7745098 0.75686275 0.73529412
0.78578431 0.77009804 0.74656863
0.78823529 0.77254902 0.74901961
0.7877451 0.76862745 0.74901961
0.78823529 0.77254902 0.74901961
0.77647059 0.75686275 0.7372549
0.78045343 0.76084559 0.74123775
0.76470588 0.74509804 0.7254902
0.77647059 0.75716912 0.7372549
0.77205882 0.75441176 0.73284314
0.78216912 0.76433824 0.7432598
0.78431373 0.76862745 0.74509804
0.78823529 0.76911765 0.74901961
0.79166667 0.77598039 0.75294118
0.77254902 0.75294118 0.73333333
0.77340686 0.7564951 0.7372549
0.76862745 0.75294118 0.73333333
0.77254902 0.75539216 0.73333333
0.78039216 0.76470588 0.74117647
0.78884804 0.77254902 0.74963235
0.78431373 0.76789216 0.74509804
0.78823529 0.77254902 0.74901961
0.79607843 0.78039216 0.75686275
0.76862745 0.74901961 0.72941176
0.77224265 0.75294118 0.73333333
0.77254902 0.75294118 0.73333333
0.77408088 0.75686275 0.7372549
0.78039216 0.76151961 0.74117647
0.78431373 0.76862745 0.74509804
0.78431373 0.76862745 0.74791667
0.79215686 0.77647059 0.75324755
0.79754902 0.78186275 0.76078431
0.76862745 0.74901961 0.72941176
0.76862745 0.75294118 0.73333333
0.77254902 0.75441176 0.73333333
0.77647059 0.75686275 0.7372549
0.78039216 0.76470588 0.74117647
0.78823529 0.77254902 0.74901961
0.79460784 0.77892157 0.75686275
0.78848039 0.77254902 0.75294118
0.79215686 0.77647059 0.75294118
0.77254902 0.75294118 0.73333333
0.77647059 0.75686275 0.7372549
0.77647059 0.76078431 0.74056373
0.78039216 0.7622549 0.74117647
0.78431373 0.76862745 0.74509804
0.79215686 0.77647059 0.75294118
0.79607843 0.78039216 0.75686275
0.8 0.78431373 0.76078431
0.80539216 0.78970588 0.76617647
0.78529412 0.76568627 0.74607843
0.78443627 0.76605392 0.74522059
0.78529412 0.76862745 0.74607843
0.78529412 0.76862745 0.74901961
0.78823529 0.77254902 0.74901961
0.78823529 0.77401961 0.75294118
0.79607843 0.78039216 0.75686275
0.8 0.78443627 0.76078431
0.80392157 0.79215686 0.76470588
0.79215686 0.77303922 0.75294118
0.78780637 0.76862745 0.74901961
0.79607843 0.78039216 0.75686275
0.79215686 0.77647059 0.75294118
0.79215686 0.77647059 0.75294118
0.79215686 0.77696078 0.753125
0.79620098 0.78431373 0.75821078
0.80392157 0.79215686 0.76470588
0.80784314 0.79215686 0.76862745
0.80392157 0.78823529 0.76470588
0.79607843 0.78039216 0.75686275
0.79215686 0.77647059 0.75294118
0.79215686 0.77647059 0.75294118
0.79215686 0.78039216 0.75294118
0.79607843 0.78431373 0.75686275
0.80392157 0.78921569 0.76470588
0.81176471 0.8 0.77254902
0.80784314 0.79607843 0.76862745
