site/assets/luts/natron-haldclut--analogfx-sepia-color--e37247340.cube
# LUTr-Project: LUTr — LUTrepository
# LUTr-Schema-Version: 1
# LUTr-ID: natron-haldclut--analogfx-sepia-color--e37247340
# LUTr-Title: analogfx sepia color
# LUTr-Collection: Natron HaldCLUT
# LUTr-Collection-ID: natron-haldclut-presets
# LUTr-Source: https://github.com/NatronGitHub/clut
# LUTr-Source-File: submissions/natron-haldclut-presets/picturefx/analogfx_sepia_color.png
# LUTr-Source-Format: PNG
# LUTr-Source-SHA256: 4cbf82562828886433d7ef80b2d23cfce6ae58e8a67f9dd752c27c5c39b0b77d
# LUTr-License: CC-BY-SA-4.0
# LUTr-License-URL: https://github.com/NatronGitHub/clut#license
# LUTr-Tags: creative, film, film-emulation, hald-clut, natron, png, warm, cube
# LUTr-Transform-Class: film-emulation
# LUTr-Input-Color-Space: srgb
# LUTr-Output-Color-Space: srgb
# LUTr-Color-Space-Confidence: assumed-display-referred
# LUTr-Conversion-Method: PNG LUT image decoded at 16-bit and sampled to 25x25x25 3D CUBE
# LUTr-Conversion-Date: 2026-07-27
# LUTr-Conversion-Tool: LUTr scripts/convert-all-to-cube.mjs
# LUTr-Conversion-Grid: 25x25x25
# LUTr-Note: Preserve this metadata and the upstream license notices when redistributing.
TITLE "analogfx sepia color"
LUT_3D_SIZE 5
DOMAIN_MIN 0 0 0
DOMAIN_MAX 1 1 1
0.011764706 0.0039215686 0
0.12745098 0.061764706 0
0.28823529 0.15294118 0
0.54117647 0.31666667 0
0.85882353 0.51372549 0
0.20098039 0.07254902 0
0.18921569 0.07254902 0
0.32254902 0.15294118 0
0.56764706 0.31102941 0
0.88137255 0.50882353 0
0.46862745 0.15098039 0
0.50196078 0.16078431 0
0.48235294 0.17058824 0
0.66960784 0.30490196 0
0.94313725 0.48431373 0
0.9127451 0.22941176 0
0.94607843 0.24411765 0
0.92009804 0.25784314 0
0.93627451 0.29044118 0
0.99705882 0.3745098 0
1 0.43921569 0
1 0.43529412 0
1 0.43921569 0
1 0.45882353 0
1 0.47843137 0
0.18529412 0.088235294 0
0.18137255 0.095343137 0
0.30931373 0.17009804 0
0.59240196 0.34019608 0
0.89313725 0.52156863 0
0.19166667 0.08995098 0
0.24761029 0.11194853 0
0.3627451 0.17696078 0
0.61862745 0.33529412 0
0.89828431 0.51004902 0
0.50098039 0.16715686 0
0.51960784 0.18480392 0
0.53308824 0.20588235 0
0.74411765 0.34215686 0.0011029412
0.97941176 0.49558824 0
0.97622549 0.2620098 0
0.97898284 0.27303922 0
0.96666667 0.30098039 0
0.98259804 0.34803922 0.0013480392
0.99607843 0.44117647 0.0039215686
1 0.48235294 0.018627451
1 0.49411765 0.017401961
1 0.47843137 0.016666667
1 0.50196078 0.01004902
1 0.53333333 0.032352941
0.4745098 0.2372549 0
0.47058824 0.2372549 0
0.45588235 0.24901961 0
0.62843137 0.36029412 0
0.93333333 0.54509804 0
0.44803922 0.24117647 0
0.47144608 0.24705882 0
0.46151961 0.24509804 0
0.68443627 0.36862745 0
0.98235294 0.5622549 0
0.54117647 0.24215686 0
0.56764706 0.26519608 0.0014705882
0.6127451 0.32941176 0.11960784
0.83088235 0.44926471 0.017156863
0.99411765 0.57058824 0.037254902
0.94117647 0.44852941 0.0044117647
0.93958333 0.47230392 0.027328431
0.95980392 0.50931373 0.088235294
0.97438725 0.52904412 0.094607843
1 0.56568627 0.088235294
1 0.61960784 0.2627451
1 0.64019608 0.30196078
1 0.63137255 0.27647059
1 0.66323529 0.33284314
1 0.67058824 0.35294118
0.90098039 0.47843137 0
0.90098039 0.47843137 0
0.87205882 0.47696078 0
0.84215686 0.49093137 0
0.97058824 0.58627451 0
0.89877451 0.4745098 0
0.89705882 0.48235294 0
0.86593137 0.47990196 0
0.87984069 0.50294118 0
0.9875 0.6 0
0.93431373 0.47892157 0
0.93823529 0.48627451 0
0.95294118 0.51519608 0.0068627451
0.95477941 0.53639706 0.037622549
1 0.60588235 0.090686275
0.96764706 0.52867647 0.016666667
0.98314951 0.55269608 0.071568627
0.97696078 0.60931373 0.33578431
0.99650735 0.6754902 0.490625
1 0.72352941 0.51151961
1 0.69509804 0.40196078
1 0.70980392 0.44901961
0.99607843 0.73823529 0.52843137
1 0.7872549 0.62254902
0.99607843 0.79705882 0.64411765
1 0.68235294 0
1 0.66666667 0
0.99607843 0.66862745 0
0.99607843 0.6754902 0
0.99607843 0.67843137 0
1 0.66764706 0
1 0.65612745 0
0.99362745 0.66568627 0
1 0.68455882 0
1 0.69313725 0
1 0.6745098 0
1 0.68088235 0.0029411765
1 0.6872549 0.01372549
1 0.69215686 0
1 0.68235294 0.01372549
1 0.70294118 0.19509804
1 0.70980392 0.27009804
1 0.73970588 0.43627451
1 0.76691176 0.5372549
1 0.80196078 0.6245098
1 0.76862745 0.55294118
1 0.77647059 0.57647059
1 0.78235294 0.58823529
1 0.8627451 0.76960784
0.98431373 0.89803922 0.86666667
