site/assets/luts/natron-haldclut--fuji-superia-1600--d9ecbb63c.cube
# LUTr-Project: LUTr — LUTrepository
# LUTr-Schema-Version: 1
# LUTr-ID: natron-haldclut--fuji-superia-1600--d9ecbb63c
# LUTr-Title: fuji superia 1600
# LUTr-Collection: Natron HaldCLUT
# LUTr-Collection-ID: natron-haldclut-presets
# LUTr-Source: https://github.com/NatronGitHub/clut
# LUTr-Source-File: submissions/natron-haldclut-presets/negative_old/fuji_superia_1600.png
# LUTr-Source-Format: PNG
# LUTr-Source-SHA256: 744b908685374fb5f303682590757bdc7dadceb93f842d9df78e21190e238637
# LUTr-License: CC-BY-SA-4.0
# LUTr-License-URL: https://github.com/NatronGitHub/clut#license
# LUTr-Tags: creative, film, film-emulation, hald-clut, natron, png, cube
# LUTr-Transform-Class: film-emulation
# LUTr-Input-Color-Space: srgb
# LUTr-Output-Color-Space: srgb
# LUTr-Color-Space-Confidence: assumed-display-referred
# LUTr-Conversion-Method: PNG LUT image decoded at 16-bit and sampled to 25x25x25 3D CUBE
# LUTr-Conversion-Date: 2026-07-27
# LUTr-Conversion-Tool: LUTr scripts/convert-all-to-cube.mjs
# LUTr-Conversion-Grid: 25x25x25
# LUTr-Note: Preserve this metadata and the upstream license notices when redistributing.
TITLE "fuji superia 1600"
LUT_3D_SIZE 9
DOMAIN_MIN 0 0 0
DOMAIN_MAX 1 1 1
0.058823529 0.094117647 0.098039216
0.10098039 0.098039216 0.10588235
0.16568627 0.098039216 0.10588235
0.29068627 0.10980392 0.094117647
0.4745098 0.10784314 0.078431373
0.64803922 0.098039216 0.078431373
0.79215686 0.15392157 0.045098039
0.91078431 0.18186275 0.0044117647
1 0.25882353 0
0.03627451 0.13627451 0.10196078
0.077941176 0.12794118 0.10588235
0.17647059 0.14889706 0.098039216
0.32224265 0.16011029 0.088051471
0.5129902 0.17720588 0.073039216
0.67352941 0.1658701 0.053431373
0.8 0.1877451 0.038848039
0.91127451 0.23186275 0.0079044118
0.99607843 0.28578431 0.0078431373
0.0068627451 0.21862745 0.1127451
0.026960784 0.22352941 0.10490196
0.15980392 0.26078431 0.090196078
0.36813725 0.27977941 0.057843137
0.55588235 0.27598039 0.048529412
0.69938725 0.27843137 0.034803922
0.82254902 0.29534314 0.0078431373
0.91911765 0.32291667 0.0039215686
0.98431373 0.35490196 0.0039215686
0.0078431373 0.37303922 0.1254902
0.0056985294 0.37126225 0.13547794
0.037377451 0.39669118 0.10747549
0.34019608 0.440625 0.032843137
0.59460784 0.4754902 0.0093137255
0.72990196 0.42107843 0.036764706
0.84105392 0.42794118 0.0093137255
0.93069853 0.44528186 0.0039215686
0.98970588 0.46470588 0.0039215686
0 0.52941176 0.16862745
0.0019607843 0.5254902 0.17843137
0.01127451 0.5254902 0.18088235
0.2872549 0.55269608 0.11421569
0.52058824 0.58529412 0.069607843
0.73014706 0.61813725 0.011029412
0.85 0.59754902 0.0093137255
0.94460784 0.57181373 0.015441176
0.97254902 0.5745098 0.033333333
0 0.66470588 0.27107843
0.0044117647 0.66078431 0.26372549
0.071936275 0.66078431 0.25294118
0.31470588 0.66715686 0.24656863
0.49093137 0.68946078 0.24264706
0.67009804 0.72261029 0.16819853
0.8377451 0.75281863 0.10539216
0.92910539 0.7341299 0.16060049
0.98823529 0.725 0.2127451
0.20686275 0.78431373 0.38431373
0.23823529 0.77683824 0.38921569
0.30882353 0.77647059 0.38823529
0.39252451 0.7754902 0.38039216
0.50735294 0.78872549 0.36911765
0.63823529 0.80796569 0.35281863
0.78333333 0.83431373 0.33529412
0.90845588 0.8495098 0.32401961
0.98823529 0.84313725 0.35686275
0.43529412 0.87205882 0.54019608
0.45392157 0.87199755 0.540625
0.48039216 0.87598039 0.53627451
0.52647059 0.87175245 0.53186275
0.5745098 0.87598039 0.52034314
0.66764706 0.88333333 0.51617647
0.76066176 0.89607843 0.52058824
0.84944853 0.90686275 0.50882353
0.96764706 0.92598039 0.50490196
0.61568627 0.94117647 0.68235294
0.63137255 0.94509804 0.69019608
0.64607843 0.94901961 0.69019608
0.65980392 0.94362745 0.68333333
0.69803922 0.95098039 0.7
0.73088235 0.94509804 0.67303922
0.79019608 0.95294118 0.68235294
0.85588235 0.95735294 0.6745098
0.90980392 0.96862745 0.69019608
0.066666667 0.10196078 0.14019608
0.097058824 0.10588235 0.13241422
0.16813725 0.09754902 0.12401961
0.30373775 0.10490196 0.12843137
0.47622549 0.10441176 0.11911765
0.65196078 0.077941176 0.10882353
0.78958333 0.13578431 0.096936275
0.90735294 0.18921569 0.076960784
0.99166667 0.25098039 0.07745098
0.048468137 0.13970588 0.13627451
0.08448989 0.13621324 0.13235294
0.17647059 0.15545343 0.13235294
0.31764706 0.15238971 0.13020833
0.50147059 0.15980392 0.12058824
0.66991422 0.159375 0.10751379
0.79880515 0.18262868 0.096568627
0.90740656 0.23523284 0.07689951
0.98866422 0.28572304 0.084803922
0.011764706 0.22745098 0.14362745
0.027558211 0.23098958 0.14276961
0.16323529 0.25784314 0.13679534
0.37224265 0.29166667 0.11174939
0.55710784 0.26758578 0.10925245
0.69901961 0.27628676 0.09643076
0.81807598 0.29215686 0.088235294
0.91815257 0.31824449 0.075980392
0.97892157 0.3495098 0.07120098
0.0078431373 0.38823529 0.19558824
0.015196078 0.38431373 0.18400735
0.089414828 0.39546569 0.15905331
0.37089461 0.44215686 0.1164905
0.59093137 0.46243873 0.067156863
0.72863051 0.42396599 0.079419424
0.83694853 0.42530637 0.076393995
0.92647059 0.4377451 0.086764706
0.98792892 0.4622549 0.10588235
0.0093137255 0.54068627 0.23995098
0.011734069 0.53137255 0.23780637
0.040563725 0.53327206 0.21452206
0.30775123 0.55530025 0.19298407
0.54681373 0.59215686 0.14031863
0.73563113 0.61681985 0.091023284
0.84607843 0.58927696 0.087316176
0.93458946 0.5708027 0.14901961
0.99166667 0.5879902 0.16470588
0.0021446078 0.66862745 0.30392157
0.027542892 0.67228094 0.30520833
0.1439185 0.66300551 0.30508578
0.34006587 0.66862745 0.29578738
0.50196078 0.68872549 0.27239583
0.66685049 0.71568627 0.24466912
0.83013174 0.74247855 0.18964461
0.93088235 0.73235294 0.22800245
0.99215686 0.7213848 0.26323529
0.23811275 0.78026961 0.42254902
0.27109375 0.7754902 0.41911765
0.32720588 0.7754902 0.41902574
0.40686275 0.7754902 0.40935968
0.5216299 0.7872549 0.40036765
0.64888174 0.80632659 0.39598652
0.77653186 0.82683824 0.37720588
0.90974265 0.848269 0.36127451
0.98443627 0.83921569 0.38431373
0.45343137 0.87941176 0.55098039
0.47336091 0.87598039 0.55576746
0.49123775 0.87205882 0.55490196
0.53429075 0.87205882 0.55100337
0.59411765 0.87380515 0.54684436
0.66862745 0.88511029 0.54313725
0.76421569 0.89607843 0.53529412
0.86029412 0.90735294 0.53056832
0.96329657 0.92598039 0.53137255
0.62303922 0.94460784 0.68970588
0.63529412 0.94558824 0.69460784
0.63884804 0.94166667 0.68590686
0.66501225 0.94362745 0.69246324
0.69044118 0.94142157 0.68627451
0.74362745 0.95294118 0.7036152
0.79448529 0.95686275 0.69448529
0.85588235 0.96078431 0.69319853
0.91029412 0.96862745 0.69411765
0.060784314 0.098039216 0.19607843
0.10490196 0.10441176 0.2
0.17622549 0.10098039 0.19583333
0.32745098 0.092156863 0.20784314
0.5127451 0.025490196 0.1995098
0.66703431 0.011642157 0.18137255
0.78039216 0.11666667 0.18529412
0.89607843 0.1810049 0.18394608
0.98823529 0.25098039 0.19215686
0.025 0.14154412 0.2192402
0.086642157 0.14379596 0.21230086
0.18759191 0.14800858 0.21593137
0.33419118 0.15508578 0.22120098
0.51832108 0.12738971 0.20588235
0.66764706 0.1381587 0.19679841
0.79463848 0.16911765 0.19313725
0.90075061 0.22794118 0.19290748
0.98480392 0.28480392 0.19595588
0.011764706 0.24436275 0.24117647
0.029411765 0.24705882 0.23921569
0.2 0.25686275 0.23651961
0.37288603 0.28367034 0.23734681
0.54914216 0.26997549 0.22205882
0.69117647 0.26749387 0.20857843
0.81151961 0.28284314 0.20778186
0.91593137 0.31957721 0.20392157
0.97647059 0.35294118 0.20686275
0.0090686275 0.41911765 0.29154412
0.098835784 0.41519608 0.29299939
0.20303309 0.40379902 0.27460172
0.39618566 0.43339461 0.26606924
0.57573529 0.44944853 0.24362745
0.71421569 0.42947304 0.23529412
0.82579657 0.42794118 0.2291973
0.92647059 0.43382353 0.22219669
0.98541667 0.46801471 0.23737745
0.10784314 0.56029412 0.34509804
0.14981618 0.5560049 0.34215686
0.23223039 0.54803922 0.32867647
0.36783088 0.55508578 0.31464461
0.5620098 0.59068627 0.29534314
0.72628676 0.60079657 0.27965686
0.83455882 0.57843137 0.26960784
0.93425245 0.56691176 0.27095588
0.97745098 0.58431373 0.28235294
0.19546569 0.67830882 0.40404412
0.22910539 0.67838542 0.40079657
0.29586397 0.67227328 0.39607843
0.39656863 0.66862745 0.3837163
0.5254902 0.68553922 0.37371324
0.67532169 0.71868873 0.36875
0.83403799 0.74617034 0.34093137
0.926731 0.71910233 0.34822304
0.98823529 0.71176471 0.36127451
0.34117647 0.78823529 0.48431373
0.36351103 0.78268995 0.4872549
0.39589461 0.77941176 0.48278186
0.45787377 0.78023897 0.47083333
0.54117647 0.78529412 0.46446078
0.65747549 0.80413603 0.46289828
0.78425245 0.82647059 0.45098039
0.90223652 0.8372549 0.45502451
0.98431373 0.83823529 0.46078431
0.5064951 0.87598039 0.6
0.51372549 0.87640931 0.5995098
0.52791054 0.87503064 0.59215686
0.56029412 0.8689951 0.58828125
0.60392157 0.8754902 0.58431373
0.68314951 0.88351716 0.5846201
0.76678922 0.89901961 0.58039216
0.86205576 0.90687806 0.57696078
0.93676471 0.91470588 0.58823529
0.6372549 0.94313725 0.70784314
0.64705882 0.94509804 0.71372549
0.6627451 0.94534314 0.71691176
0.68137255 0.94620098 0.71776961
0.71078431 0.94901961 0.72205882
0.74987745 0.95183824 0.71911765
0.80196078 0.95392157 0.71740196
0.85980392 0.95992647 0.71348039
0.9245098 0.97156863 0.72745098
0.019607843 0.10196078 0.33627451
0.084497549 0.10324755 0.34166667
0.19068627 0.1127451 0.3377451
0.34803922 0.11764706 0.34558824
0.5254902 0.078186275 0.3495098
0.69607843 0.063664216 0.35294118
0.82352941 0.027205882 0.325
0.92371324 0.018566176 0.29001225
0.99215686 0.20735294 0.30931373
0.012254902 0.13872549 0.3377451
0.05334712 0.14626225 0.34509804
0.2057598 0.15588235 0.34901961
0.3618796 0.16323529 0.35938266
0.54019608 0.16617647 0.36715686
0.69460784 0.14619332 0.35833333
0.81766238 0.12005208 0.33241422
0.92156863 0.15884651 0.30737592
0.99234069 0.28351716 0.32598039
0.0078431373 0.24509804 0.36715686
0.010248162 0.24064032 0.36564032
0.20435049 0.25784314 0.37573529
0.38019301 0.276731 0.3877451
0.55784314 0.28161765 0.37941176
0.69894301 0.27489277 0.35980392
0.81488971 0.27205882 0.33921569
0.91519608 0.30441176 0.33439032
0.98578431 0.33872549 0.34068627
0.015134804 0.42702206 0.4122549
0.059436275 0.42566636 0.41544118
0.25484069 0.42124694 0.41862745
0.42984069 0.42702206 0.40925245
0.5703125 0.42794118 0.40021446
0.69850643 0.42344516 0.38111213
0.81153493 0.42484681 0.37095588
0.91519608 0.4330193 0.36079197
0.9754902 0.46917892 0.36519608
0.25539216 0.58357843 0.47916667
0.30098039 0.58299632 0.47662377
0.36280637 0.57800245 0.46550245
0.44215686 0.56078431 0.44359681
0.58272059 0.57990196 0.43419118
0.71446078 0.58235294 0.42233456
0.81881127 0.571875 0.41660539
0.91804534 0.57843137 0.40588235
0.9745098 0.58039216 0.40588235
0.39895833 0.69368873 0.53431373
0.42261795 0.69552696 0.53039216
0.42598039 0.69022672 0.51531863
0.47254902 0.67401961 0.49264706
0.55931373 0.67723652 0.48060662
0.68431373 0.70294118 0.48033088
0.82706801 0.73284314 0.47526042
0.91869638 0.71597733 0.46911765
0.99160539 0.70784314 0.4721201
0.47303922 0.79901961 0.58823529
0.47544424 0.79791667 0.58209252
0.49221814 0.79178922 0.56951593
0.52457108 0.78333333 0.5560815
0.58272059 0.77567402 0.55441176
0.66960784 0.79840686 0.5504902
0.79865196 0.82858456 0.54938725
0.89852941 0.83431373 0.54362745
0.97708333 0.83468137 0.55330882
0.55931373 0.87971814 0.65735294
0.575 0.88204657 0.66503523
0.58468137 0.88333333 0.65735294
0.60164675 0.87480086 0.64588695
0.64117647 0.87377451 0.63897059
0.69932598 0.88199295 0.63823529
0.78377757 0.89541973 0.64185049
0.86795343 0.90729167 0.6377451
0.96617647 0.92990196 0.6495098
0.67696078 0.95294118 0.75539216
0.68284314 0.95275735 0.75735294
0.68382353 0.94509804 0.74754902
0.69656863 0.94117647 0.74362745
0.72083333 0.94313725 0.74558824
0.75925245 0.94901961 0.75147059
0.80882353 0.95294118 0.74718137
0.8622549 0.95686275 0.7473652
0.92156863 0.96862745 0.75147059
0.0078431373 0.1 0.48627451
0.058088235 0.10171569 0.48431373
0.22058824 0.11666667 0.48578431
0.38284314 0.11691176 0.49852941
0.55 0.12254902 0.50980392
0.70073529 0.1495098 0.52156863
0.82990196 0.23823529 0.52598039
0.93259804 0.24387255 0.50343137
0.97843137 0.2627451 0.48627451
0.011764706 0.15588235 0.49779412
0.041421569 0.15346201 0.49390319
0.22830882 0.15980392 0.4995098
0.39941789 0.17352941 0.50750613
0.5627451 0.19558824 0.51727941
0.70646446 0.23088235 0.52598039
0.82696078 0.29264706 0.53265931
0.92738971 0.28704044 0.4995098
0.98406863 0.2995098 0.48651961
0.0034313725 0.22843137 0.50735294
0.035294118 0.24926471 0.51170343
0.23296569 0.25882353 0.52144608
0.41960784 0.28535539 0.52530637
0.56862745 0.30735294 0.52794118
0.71176471 0.34411765 0.53854167
0.82855392 0.37928922 0.54056373
0.91911765 0.36219363 0.50196078
0.98235294 0.35 0.47843137
0.015686275 0.40490196 0.53259804
0.015686275 0.39724265 0.53186275
0.20208333 0.38988971 0.52941176
0.42601103 0.41421569 0.53409926
0.57965686 0.4379902 0.5372549
0.70223652 0.44754902 0.53434436
0.81256127 0.45477941 0.52297794
0.9109375 0.43661152 0.49181985
0.97843137 0.45955882 0.48480392
0.17058824 0.57156863 0.56666667
0.24779412 0.57181373 0.5745098
0.35980392 0.56862745 0.5745098
0.4817402 0.56666667 0.56605392
0.59509804 0.56862745 0.56029412
0.70588235 0.56544118 0.55098039
0.80686275 0.56715686 0.53431373
0.90343137 0.57303922 0.51948529
0.98235294 0.58333333 0.51862745
0.45220588 0.71691176 0.63627451
0.47034314 0.71681985 0.63449755
0.50330882 0.70851716 0.62873775
0.54947917 0.69684436 0.61228554
0.60269608 0.68063725 0.59264706
0.70980392 0.70811887 0.59044118
0.81488971 0.71893382 0.58284314
0.91397059 0.69852941 0.57337623
0.99191176 0.70392157 0.56960784
0.5622549 0.81078431 0.68970588
0.56053922 0.8122549 0.6814951
0.58578431 0.80490196 0.67879902
0.60122549 0.7997549 0.65759804
0.63039216 0.7875 0.63995098
0.69136029 0.79448529 0.63137255
0.80294118 0.82389706 0.64007353
0.89417892 0.83045343 0.63921569
0.98137255 0.825 0.6377451
0.64779412 0.89117647 0.74411765
0.64503676 0.89117647 0.74044118
0.65471814 0.88596814 0.73406863
0.65980392 0.88553922 0.72132353
0.67745098 0.87598039 0.70428922
0.71534926 0.87726716 0.69901961
0.78351716 0.88823529 0.70294118
0.87205882 0.9049326 0.70692402
0.94656863 0.92254902 0.71470588
0.72352941 0.94901961 0.80392157
0.71421569 0.94166667 0.79436275
0.71764706 0.94215686 0.79068627
0.73529412 0.94901961 0.79485294
0.74215686 0.94019608 0.78039216
0.77009804 0.94117647 0.77769608
0.81519608 0.94705882 0.77794118
0.8752451 0.95882353 0.78651961
0.91568627 0.96470588 0.79019608
0.0078431373 0.11127451 0.61372549
0.08560049 0.11470588 0.61764706
0.25723039 0.11911765 0.62303922
0.42248775 0.1254902 0.6372549
0.58308824 0.14852941 0.64313725
0.70784314 0.21770833 0.64754902
0.81176471 0.25931373 0.64509804
0.92156863 0.35196078 0.66341912
0.98431373 0.42647059 0.66862745
0.0078431373 0.15588235 0.62530637
0.093566176 0.15716912 0.62908241
0.27990196 0.16482843 0.63690257
0.42977941 0.17433364 0.64332108
0.58373162 0.22205882 0.64901961
0.71047794 0.26421569 0.65294118
0.81323529 0.31666667 0.65384498
0.92285539 0.39672947 0.67107843
0.99332108 0.44540441 0.67107843
0.0072303922 0.24852941 0.64117647
0.088403799 0.25130208 0.64117647
0.27585784 0.26568627 0.64457721
0.44486826 0.29264706 0.65215993
0.59558824 0.31605392 0.65294118
0.71421569 0.35588235 0.65294118
0.81305147 0.40058211 0.6591299
0.91390931 0.47063419 0.67651654
0.96960784 0.49448529 0.66727941
0.0078431373 0.3754902 0.6466299
0.017041973 0.36637561 0.64362745
0.2178462 0.38151042 0.64509804
0.42491575 0.40833333 0.64959406
0.59316789 0.43921569 0.65658701
0.71325827 0.47698376 0.66170343
0.81655944 0.51029412 0.66738664
0.91096814 0.55428922 0.67732843
0.98339461 0.53866422 0.64558824
0.018382353 0.52990196 0.65539216
0.10229779 0.52328431 0.65735294
0.26151961 0.5185049 0.65343137
0.41911765 0.52647059 0.65101103
0.57904412 0.54730392 0.65870098
0.70545343 0.58186275 0.67254902
0.81237745 0.61556373 0.67977941
0.89754902 0.60989583 0.65735294
0.98651961 0.58529412 0.63406863
0.36660539 0.69215686 0.69607843
0.40637255 0.69607843 0.70380668
0.46450674 0.69607843 0.7
0.54544271 0.69028033 0.70447304
0.63057598 0.6875 0.69754902
0.71364124 0.69215686 0.68766085
0.80686275 0.70706189 0.69117647
0.89247089 0.69282322 0.66525735
0.97408088 0.69944853 0.65925245
0.59546569 0.82647059 0.76176471
0.60168505 0.82660846 0.76507353
0.6260723 0.82401961 0.76115196
0.65839461 0.81973039 0.75787377
0.68915441 0.80533088 0.74068627
0.72598039 0.79748775 0.72470895
0.80012255 0.80968137 0.72147672
0.90228248 0.82254902 0.72254902
0.95588235 0.81421569 0.71678922
0.69656863 0.90294118 0.81519608
0.69656863 0.9026731 0.80741422
0.70747549 0.895144 0.80784314
0.72493873 0.89117647 0.80350031
0.73324142 0.88872549 0.78872549
0.75 0.8849954 0.77323836
0.80525429 0.89143689 0.77063419
0.88098958 0.90686275 0.77620251
0.95735294 0.91783088 0.78431373
0.77401961 0.95294118 0.86029412
0.7622549 0.94528186 0.84871324
0.77794118 0.95294118 0.85637255
0.78088235 0.94656863 0.84509804
0.78333333 0.94583333 0.83431373
0.79993873 0.94656863 0.82647059
0.83382353 0.95085784 0.82794118
0.87941176 0.95343137 0.8254902
0.93235294 0.95539216 0.82107843
0.14313725 0.13039216 0.74509804
0.21139706 0.12953431 0.74509804
0.34411765 0.12941176 0.75294118
0.47303922 0.16127451 0.75294118
0.60882353 0.18431373 0.75980392
0.73198529 0.26764706 0.76372549
0.82745098 0.31372549 0.76544118
0.90686275 0.36789216 0.75980392
0.98823529 0.4754902 0.77254902
0.14705882 0.1685049 0.74509804
0.23356311 0.17598039 0.75127145
0.34889706 0.1848652 0.75686275
0.48097426 0.20548407 0.75980392
0.60882353 0.25275735 0.76354167
0.72806373 0.307981 0.76741728
0.82647059 0.35692402 0.77156863
0.90686275 0.40458027 0.76732537
0.98737745 0.50502451 0.77941176
0.1372549 0.26764706 0.74901961
0.22619485 0.26246936 0.75980392
0.35588235 0.28296569 0.75686275
0.48480392 0.29754902 0.76216299
0.61666667 0.33137255 0.76470588
0.7286152 0.38492647 0.76853554
0.82328431 0.43621324 0.77101716
0.90343137 0.4953125 0.78235294
0.98039216 0.5627451 0.78946078
0.033946078 0.35625 0.74938725
0.1933364 0.37254902 0.75620404
0.32953431 0.38471201 0.75980392
0.4692402 0.4064951 0.76017157
0.60637255 0.43958333 0.765625
0.72496936 0.48541667 0.77156863
0.8223652 0.52539828 0.77273284
0.89558824 0.55972733 0.77754289
0.97647059 0.63088235 0.79693627
0.026470588 0.49509804 0.75588235
0.022058824 0.48290441 0.75067402
0.21703431 0.48137255 0.74938725
0.42334559 0.50281863 0.75533088
0.57769608 0.54117647 0.76421569
0.709375 0.58400735 0.77156863
0.81470588 0.62267157 0.78186275
0.89901961 0.66127451 0.79356618
0.97156863 0.71078431 0.80833333
0.24546569 0.65490196 0.76911765
0.26605392 0.64829963 0.76911765
0.35707721 0.64607843 0.76911765
0.451394 0.63385417 0.76919424
0.55477941 0.63578431 0.76844363
0.70433517 0.6777114 0.78088235
0.81078431 0.70707721 0.78333333
0.89148284 0.73195466 0.78809743
0.96078431 0.7567402 0.79497549
0.50392157 0.79681373 0.82181373
0.52398897 0.79849877 0.81727941
0.55729167 0.79485294 0.81881127
0.61544118 0.80294118 0.81835172
0.67892157 0.79534314 0.81715686
0.74705882 0.8 0.81541054
0.81770833 0.80165441 0.80759804
0.8877451 0.80392157 0.79898897
0.96470588 0.81470588 0.79313725
0.71470588 0.90686275 0.86519608
0.72561275 0.9095435 0.86813725
0.73786765 0.90698529 0.86620711
0.75776654 0.90306373 0.86519608
0.7841299 0.90392157 0.86127451
0.80747549 0.90183824 0.85735294
0.84721201 0.89837623 0.84672181
0.90304841 0.90686275 0.84558824
0.95343137 0.89816176 0.84080882
0.79313725 0.95686275 0.89509804
0.7935049 0.95330882 0.89509804
0.80392157 0.95367647 0.89509804
0.81029412 0.94901961 0.89117647
0.82843137 0.95294118 0.89166667
0.83272059 0.94362745 0.87830882
0.85686275 0.94436275 0.87573529
0.89595588 0.95980392 0.88039216
0.94607843 0.96568627 0.88431373
0.35931373 0.16617647 0.86813725
0.36623775 0.16139706 0.86813725
0.44571078 0.17794118 0.86286765
0.54852941 0.21862745 0.86421569
0.64607843 0.24681373 0.86421569
0.75 0.32616422 0.86813725
0.84252451 0.40355392 0.87205882
0.91868873 0.46905637 0.86813725
0.98039216 0.49215686 0.86421569
0.33621324 0.22401961 0.86029412
0.37880668 0.22101716 0.86776195
0.4569087 0.22970282 0.87156863
0.5535386 0.24602482 0.86813725
0.65762868 0.31197917 0.86421569
0.75741422 0.3709329 0.86029412
0.84554228 0.42765012 0.86776961
0.91819853 0.48431373 0.87124694
0.97254902 0.53382353 0.86421569
0.34791667 0.30784314 0.86458333
0.37521446 0.30490196 0.86803002
0.46369485 0.32647059 0.86813725
0.55539216 0.33564645 0.87205882
0.66158088 0.37622549 0.86421569
0.75396752 0.43301164 0.86421569
0.84255515 0.48753064 0.86813725
0.91639093 0.54068627 0.87303922
0.97389706 0.57732843 0.87205882
0.30520833 0.40441176 0.86421569
0.34754902 0.4040671 0.86233915
0.43394608 0.42498468 0.86207108
0.53382353 0.43511795 0.86421569
0.64157475 0.46078431 0.86421569
0.7422258 0.50893842 0.86421569
0.8386489 0.56020221 0.87205882
0.90735294 0.59928768 0.86813725
0.96617647 0.63284314 0.86942402
0.06495098 0.47745098 0.85686275
0.17723652 0.49246324 0.85683211
0.33854167 0.50055147 0.85857843
0.49420956 0.5254902 0.86029412
0.61875 0.55343137 0.86041667
0.72720588 0.58985907 0.86421569
0.82689951 0.63529412 0.87205882
0.90294118 0.6754902 0.87181373
0.95294118 0.69656863 0.87181373
0.036948529 0.61078431 0.86029412
0.095396752 0.60821078 0.8603171
0.23584559 0.59901961 0.85791973
0.38632813 0.60391391 0.85655637
0.56127451 0.62965686 0.86029412
0.69754902 0.66793811 0.86421569
0.82222733 0.71911765 0.86867341
0.89901961 0.7526731 0.88006281
0.95686275 0.78333333 0.88088235
0.40637255 0.77205882 0.87683824
0.41095282 0.76519608 0.87683824
0.46265319 0.76127451 0.87359069
0.52366728 0.7623315 0.87259498
0.59534314 0.74748775 0.87689951
0.65640319 0.74229473 0.86404718
0.78915441 0.78495711 0.87591912
0.89430147 0.82216605 0.88860294
0.95245098 0.8372549 0.88345588
0.63333333 0.89074755 0.90729167
0.64558824 0.8877451 0.90343137
0.66360294 0.88772978 0.90686275
0.70639553 0.89011183 0.90751379
0.73826593 0.89093137 0.90686275
0.79634651 0.8877451 0.91497396
0.84209559 0.88742341 0.90692402
0.9151348 0.90294118 0.90692402
0.95643382 0.90343137 0.90343137
0.81078431 0.95686275 0.93382353
0.81568627 0.96078431 0.93033088
0.82058824 0.95821078 0.93002451
0.83020833 0.95557598 0.93020833
0.84877451 0.95686275 0.93382353
0.86096814 0.94705882 0.9286152
0.88737745 0.94509804 0.92598039
0.92254902 0.94901961 0.92598039
0.96127451 0.96078431 0.92647059
0.4627451 0.25490196 0.9254902
0.5245098 0.30931373 0.95637255
0.53137255 0.28137255 0.9245098
0.64509804 0.34852941 0.96176471
0.70784314 0.38039216 0.94313725
0.79117647 0.44313725 0.94754902
0.85784314 0.47843137 0.91960784
0.93382353 0.57696078 0.94509804
0.98431373 0.61960784 0.94509804
0.51323529 0.32892157 0.95637255
0.53284314 0.33584559 0.96421569
0.56470588 0.34129902 0.94840686
0.64019608 0.37058824 0.95441176
0.72107843 0.41666667 0.9622549
0.79528186 0.46568627 0.9495098
0.86862745 0.53051471 0.94509804
0.92738971 0.57028186 0.92573529
0.97696078 0.63137255 0.94558824
0.49901961 0.39019608 0.95686275
0.50992647 0.38970588 0.95
0.56446078 0.40588235 0.94901961
0.63296569 0.42830882 0.95
0.71176471 0.4627451 0.95196078
0.79656863 0.51678922 0.95796569
0.86568627 0.57034314 0.94901961
0.92745098 0.63272059 0.94607843
0.9754902 0.66176471 0.94803922
0.47745098 0.46372549 0.96078431
0.50245098 0.46979167 0.95686275
0.55245098 0.47904412 0.94963235
0.6060049 0.49117647 0.93835784
0.70073529 0.52769608 0.95098039
0.78088235 0.56862745 0.94901961
0.85723039 0.62193627 0.94840686
0.92401961 0.68137255 0.94901961
0.9622549 0.68872549 0.93872549
0.4 0.53333333 0.95686275
0.43627451 0.54460784 0.95906863
0.50441176 0.55245098 0.95539216
0.59289216 0.57303922 0.95686275
0.6745098 0.59509804 0.94509804
0.76715686 0.63284314 0.94828431
0.84754902 0.67401961 0.94215686
0.91862745 0.71617647 0.94313725
0.96666667 0.74509804 0.94509804
0.23872549 0.6122549 0.9622549
0.28890931 0.6158701 0.96219363
0.38370098 0.62193627 0.96115196
0.49417892 0.63823529 0.95147059
0.63431373 0.66446078 0.95612745
0.74264706 0.69460784 0.94754902
0.83958333 0.7372549 0.94754902
0.90294118 0.76666667 0.92254902
0.96470588 0.80294118 0.94509804
0.36568627 0.75784314 0.93235294
0.36519608 0.74215686 0.94068627
0.41666667 0.74313725 0.95294118
0.47389706 0.73823529 0.95085784
0.54558824 0.72794118 0.93186275
0.68627451 0.7567402 0.95453431
0.80980392 0.79583333 0.94901961
0.90208333 0.83394608 0.95
0.94019608 0.85196078 0.95294118
0.60686275 0.8872549 0.92254902
0.61421569 0.87990196 0.94117647
0.62401961 0.87941176 0.96078431
0.66029412 0.88382353 0.95686275
0.69460784 0.88014706 0.95857843
0.7346201 0.86519608 0.9495098
0.80061275 0.86176471 0.94264706
0.8872549 0.88382353 0.95637255
0.94558824 0.90686275 0.94460784
0.76470588 0.96470588 0.96862745
0.76862745 0.95686275 0.95294118
0.78039216 0.96176471 0.96568627
0.78676471 0.94754902 0.95686275
0.81960784 0.95490196 0.9627451
0.86029412 0.95294118 0.95294118
0.88823529 0.96176471 0.96470588
0.92598039 0.95245098 0.94901961
0.96078431 0.95686275 0.9372549
