site/assets/luts/natron-haldclut--fuji-superia-x-tra-800--630125bb9.cube
# LUTr-Project: LUTr — LUTrepository
# LUTr-Schema-Version: 1
# LUTr-ID: natron-haldclut--fuji-superia-x-tra-800--630125bb9
# LUTr-Title: fuji superia x-tra 800
# LUTr-Collection: Natron HaldCLUT
# LUTr-Collection-ID: natron-haldclut-presets
# LUTr-Source: https://github.com/NatronGitHub/clut
# LUTr-Source-File: submissions/natron-haldclut-presets/negative_color/fuji_superia_x-tra_800.png
# LUTr-Source-Format: PNG
# LUTr-Source-SHA256: 7c3f8422890b7396cb1cc6f60dad271bd6c78c9f160b9ed952d2577df4128123
# LUTr-License: CC-BY-SA-4.0
# LUTr-License-URL: https://github.com/NatronGitHub/clut#license
# LUTr-Tags: creative, film, film-emulation, hald-clut, natron, png, cube
# LUTr-Transform-Class: film-emulation
# LUTr-Input-Color-Space: srgb
# LUTr-Output-Color-Space: srgb
# LUTr-Color-Space-Confidence: assumed-display-referred
# LUTr-Conversion-Method: PNG LUT image decoded at 16-bit and sampled to 25x25x25 3D CUBE
# LUTr-Conversion-Date: 2026-07-27
# LUTr-Conversion-Tool: LUTr scripts/convert-all-to-cube.mjs
# LUTr-Conversion-Grid: 25x25x25
# LUTr-Note: Preserve this metadata and the upstream license notices when redistributing.
TITLE "fuji superia x-tra 800"
LUT_3D_SIZE 5
DOMAIN_MIN 0 0 0
DOMAIN_MAX 1 1 1
0.054901961 0.02745098 0.066666667
0.25098039 0.0098039216 0.01372549
0.4745098 0.0098039216 0.0098039216
0.68921569 0.0039215686 0.049019608
0.87843137 0 0.1254902
0.13921569 0.26372549 0.10784314
0.29411765 0.24705882 0.093872549
0.50490196 0.20343137 0.098529412
0.71960784 0.12647059 0.10857843
0.85686275 0.018627451 0.12843137
0.26862745 0.49019608 0.11960784
0.37107843 0.49019608 0.14313725
0.58235294 0.47058824 0.15784314
0.77352941 0.43235294 0.20784314
0.90980392 0.33333333 0.28235294
0.37254902 0.70980392 0.12647059
0.4754902 0.70980392 0.099019608
0.71470588 0.70735294 0.048529412
0.91078431 0.69019608 0.11446078
0.96176471 0.66568627 0.31862745
0.25098039 0.9254902 0.22352941
0.39803922 0.93137255 0.19117647
0.71176471 0.91764706 0.043137255
0.99607843 0.92843137 0
1 0.90980392 0
0.0098039216 0.016666667 0.19705882
0.22818627 0.014705882 0.15955882
0.44705882 0.015686275 0.14803922
0.66666667 0.0039215686 0.14093137
0.85882353 0 0.17941176
0.10196078 0.2627451 0.2627451
0.25625 0.24724265 0.24785539
0.47745098 0.21372549 0.2317402
0.70006127 0.12352941 0.20392157
0.86764706 0.0083333333 0.18529412
0.22156863 0.48970588 0.27647059
0.32365196 0.49166667 0.28039216
0.53333333 0.47843137 0.29803922
0.74215686 0.43602941 0.31666667
0.91960784 0.33333333 0.34019608
0.43161765 0.71985294 0.12058824
0.49583333 0.71764706 0.13474265
0.68210784 0.7127451 0.16446078
0.83376225 0.69019608 0.28670343
0.97745098 0.64705882 0.42843137
0.35 0.92941176 0.20098039
0.47254902 0.93651961 0.17058824
0.74019608 0.93823529 0.050490196
0.97352941 0.92843137 0.01372549
1 0.94019608 0.057843137
0.0078431373 0.019607843 0.34509804
0.22647059 0.027941176 0.30098039
0.43431373 0.0088235294 0.2627451
0.65784314 0 0.24313725
0.84313725 0 0.24509804
0.10441176 0.27941176 0.44019608
0.23921569 0.26727941 0.41985294
0.45441176 0.22156863 0.37843137
0.67389706 0.14620098 0.32965686
0.84509804 0.018627451 0.26568627
0.085294118 0.50490196 0.50588235
0.25269608 0.49607843 0.50196078
0.48627451 0.48823529 0.48627451
0.70637255 0.45269608 0.46617647
0.90196078 0.34215686 0.43333333
0.27009804 0.71764706 0.46617647
0.38051471 0.71666667 0.46617647
0.56470588 0.7127451 0.48357843
0.74914216 0.6939951 0.52156863
0.95196078 0.65196078 0.55686275
0.53921569 0.91176471 0.14901961
0.60098039 0.94313725 0.13921569
0.81764706 0.91764706 0.019607843
0.99509804 0.96568627 0.024509804
1 0.89607843 0.48823529
0.028431373 0.029411765 0.48823529
0.24191176 0.035294118 0.44117647
0.44019608 0.018137255 0.3877451
0.64926471 0 0.34215686
0.82941176 0 0.32745098
0.12352941 0.29411765 0.59607843
0.25514706 0.28014706 0.56979167
0.46041667 0.24215686 0.51997549
0.66452206 0.16960784 0.44828431
0.83284314 0.026960784 0.35539216
0.1377451 0.51421569 0.69019608
0.26078431 0.51029412 0.6745098
0.47867647 0.50294118 0.64240196
0.68529412 0.4622549 0.60098039
0.87303922 0.35931373 0.54117647
0.20294118 0.72058824 0.73235294
0.31960784 0.71593137 0.71691176
0.50870098 0.71519608 0.70943627
0.70061275 0.70232843 0.70042892
0.92671569 0.6627451 0.68235294
0.45392157 0.96764706 0.48921569
0.51568627 0.95686275 0.50588235
0.6377451 0.96862745 0.55539216
0.78137255 0.93333333 0.65612745
0.94411765 0.91960784 0.69117647
0.13333333 0.078431373 0.54901961
0.2872549 0.056862745 0.53333333
0.46078431 0.033333333 0.45882353
0.64607843 0.02254902 0.45686275
0.78823529 0 0.36862745
0.21960784 0.31764706 0.70196078
0.33039216 0.30980392 0.68921569
0.49509804 0.28039216 0.64607843
0.66568627 0.18921569 0.55588235
0.83823529 0.018627451 0.42745098
0.26862745 0.53137255 0.80980392
0.35098039 0.52941176 0.8004902
0.50196078 0.51372549 0.76862745
0.67745098 0.48137255 0.73235294
0.88039216 0.38823529 0.64509804
0.2872549 0.73627451 0.87254902
0.37622549 0.73235294 0.89681373
0.51176471 0.72058824 0.85637255
0.69313725 0.7127451 0.84901961
0.90588235 0.66666667 0.7745098
0.24705882 0.96862745 0.92941176
0.34313725 0.96470588 0.95392157
0.49411765 0.96470588 0.98039216
0.68627451 0.97352941 0.96960784
0.90980392 0.96862745 0.96078431
