site/assets/luts/natron-haldclut--fuji-fp-100c---35dda7e7a.cube
# LUTr-Project: LUTr — LUTrepository
# LUTr-Schema-Version: 1
# LUTr-ID: natron-haldclut--fuji-fp-100c---35dda7e7a
# LUTr-Title: fuji fp-100c --
# LUTr-Collection: Natron HaldCLUT
# LUTr-Collection-ID: natron-haldclut-presets
# LUTr-Source: https://github.com/NatronGitHub/clut
# LUTr-Source-File: submissions/natron-haldclut-presets/instant_pro/fuji_fp-100c_--.png
# LUTr-Source-Format: PNG
# LUTr-Source-SHA256: 97947625838aa43c1ccaba973c80361f266d10c089e2db08672e7947a1b59ab2
# LUTr-License: CC-BY-SA-4.0
# LUTr-License-URL: https://github.com/NatronGitHub/clut#license
# LUTr-Tags: creative, film, film-emulation, hald-clut, natron, png, cube
# LUTr-Transform-Class: film-emulation
# LUTr-Input-Color-Space: srgb
# LUTr-Output-Color-Space: srgb
# LUTr-Color-Space-Confidence: assumed-display-referred
# LUTr-Conversion-Method: PNG LUT image decoded at 16-bit and sampled to 25x25x25 3D CUBE
# LUTr-Conversion-Date: 2026-07-27
# LUTr-Conversion-Tool: LUTr scripts/convert-all-to-cube.mjs
# LUTr-Conversion-Grid: 25x25x25
# LUTr-Note: Preserve this metadata and the upstream license notices when redistributing.
TITLE "fuji fp-100c --"
LUT_3D_SIZE 25
DOMAIN_MIN 0 0 0
DOMAIN_MAX 1 1 1
0 0.0039215686 0
0.018137255 0.0078431373 0.010294118
0.033333333 0.0078431373 0.016666667
0.053921569 0.01127451 0.023039216
0.092156863 0.017647059 0.029411765
0.13921569 0.019117647 0.034803922
0.18039216 0.0058823529 0.024509804
0.22696078 0.0039215686 0.019607843
0.27843137 0.0039215686 0.011764706
0.33382353 0.0014705882 0.0078431373
0.39411765 0.0039215686 0.012745098
0.45245098 0.0039215686 0.019117647
0.51764706 0.0039215686 0.019607843
0.58333333 0.0039215686 0.015686275
0.64509804 0 0.011764706
0.69754902 0 0.011764706
0.74901961 0 0.011764706
0.79411765 0 0.011764706
0.83921569 0 0.011764706
0.87696078 0.0039215686 0.0078431373
0.91176471 0.0078431373 0.011764706
0.94264706 0.0078431373 0.011764706
0.97058824 0.014705882 0.011764706
0.98578431 0.058333333 0.019607843
1 0.10980392 0.023529412
0.006372549 0.028431373 0.010294118
0.020588235 0.026960784 0.012683824
0.039705882 0.028431373 0.016666667
0.060294118 0.028431373 0.020894608
0.098529412 0.032352941 0.024264706
0.14313725 0.031862745 0.024693627
0.18321078 0.021568627 0.018137255
0.23333333 0.020588235 0.013235294
0.2872549 0.018137255 0.0078431373
0.34411765 0.0087622549 0.0078431373
0.40159314 0.0057598039 0.011764706
0.4622549 0.0073529412 0.015379902
0.52794118 0.010294118 0.015686275
0.59362745 0.010294118 0.013051471
0.64963235 0.0049019608 0.011764706
0.70091912 0 0.014767157
0.74901961 0 0.015686275
0.79748775 0 0.012316176
0.83921569 0 0.011151961
0.88039216 0.0012867647 0.0078431373
0.91176471 0.0058823529 0.010539216
0.94264706 0.0076593137 0.009129902
0.97352941 0.0050245098 0.0078431373
0.99123775 0.03682598 0.013235294
0.99607843 0.081372549 0.021078431
0.0088235294 0.053921569 0.019607843
0.016053922 0.053308824 0.022426471
0.042156863 0.052205882 0.015441176
0.066666667 0.05 0.010784314
0.10441176 0.052941176 0.014215686
0.14803922 0.048529412 0.010784314
0.18921569 0.042156863 0.0039215686
0.24362745 0.035784314 0.0039215686
0.29901961 0.028431373 0.0078431373
0.35441176 0.014583333 0.0072303922
0.41053922 0.0039215686 0.0046568627
0.47242647 0.0073529412 0.0077205882
0.53823529 0.015686275 0.010784314
0.59987745 0.011764706 0.0078431373
0.65392157 0.0078431373 0.011519608
0.70428922 0.0039215686 0.015686275
0.75294118 0 0.015686275
0.79803922 0 0.011764706
0.83921569 0 0.010784314
0.88039216 0 0.0069852941
0.91568627 0.0039215686 0.0073529412
0.9435049 0.012990196 0.0078431373
0.97352941 0.021078431 0.0056372549
0.99252451 0.060784314 0.0093137255
0.99607843 0.095098039 0.015686275
0.011764706 0.080882353 0.023529412
0.014215686 0.078737745 0.027267157
0.035661765 0.076960784 0.02120098
0.069117647 0.073958333 0.0048406863
0.10759804 0.076960784 0.0022058824
0.15098039 0.080392157 0.0039215686
0.19473039 0.082965686 0.0035539216
0.25177696 0.074509804 0.0039215686
0.30931373 0.064215686 0.0078431373
0.36470588 0.046262255 0.0052083333
0.42095588 0.028676471 0.0037990196
0.48584559 0.025428922 0.0034926471
0.54681373 0.015686275 0.0039215686
0.60594363 0.0087009804 0.0039828431
0.65784314 0.013848039 0.010784314
0.70882353 0.017156863 0.015686275
0.75637255 0.0034313725 0.011764706
0.80196078 0 0.011764706
0.83921569 0.006372549 0.010784314
0.88039216 0.0034313725 0.0044117647
0.91936275 0.0071078431 0.0022058824
0.94607843 0.046568627 0.0082720588
0.97058824 0.089828431 0.01127451
0.99491422 0.13707108 0.010171569
1 0.15392157 0.012254902
0.0058823529 0.11568627 0.01372549
0.011029412 0.11372549 0.020098039
0.028431373 0.11421569 0.018137255
0.057598039 0.11740196 0.006127451
0.10392157 0.12058824 0.0058823529
0.15514706 0.12573529 0.0041666667
0.1995098 0.13088235 0.0039215686
0.25784314 0.12598039 0.0053921569
0.31764706 0.11568627 0.0078431373
0.37426471 0.10343137 0.0078431373
0.43823529 0.1 0.0053921569
0.50637255 0.096568627 0.0039215686
0.56470588 0.076470588 0.0019607843
0.62009804 0.066911765 0.00049019608
0.67009804 0.070588235 0.0068627451
0.72034314 0.071078431 0.012990196
0.76666667 0.060784314 0.0098039216
0.80784314 0.056862745 0.011029412
0.84460784 0.06372549 0.01127451
0.88431373 0.068382353 0.0078431373
0.91960784 0.079411765 0.0068627451
0.94852941 0.10784314 0.0078431373
0.9754902 0.15196078 0.01127451
0.99362745 0.19068627 0.020588235
1 0.20588235 0.031372549
0.0034313725 0.1504902 0.0034313725
0.010294118 0.15343137 0.0076593137
0.020465686 0.15894608 0.011397059
0.041176471 0.1627451 0.0079044118
0.089215686 0.16495098 0.0078431373
0.15104167 0.17064951 0.0074142157
0.20723039 0.17487745 0.00098039216
0.26617647 0.1713848 0.0039215686
0.32156863 0.17107843 0.0039215686
0.37971814 0.16764706 0.0078431373
0.45477941 0.1689951 0.0078431373
0.52346814 0.16813725 0.0039215686
0.58529412 0.1622549 0
0.64258578 0.15637255 0
0.68982843 0.15245098 0.0039215686
0.73578431 0.14852941 0.0073529412
0.77696078 0.14509804 0.0039215686
0.81568627 0.14362745 0.0076593137
0.85147059 0.14460784 0.01127451
0.88872549 0.14460784 0.01127451
0.92352941 0.16078431 0.011764706
0.95441176 0.18088235 0.0073529412
0.97855392 0.21041667 0.0098039216
0.98970588 0.23823529 0.032169118
1 0.26127451 0.04754902
0 0.19901961 0.0039215686
0.0045343137 0.20147059 0.0074754902
0.0090686275 0.20392157 0.0078431373
0.020588235 0.20392157 0.0078431373
0.065686275 0.20784314 0.0078431373
0.13468137 0.21519608 0.0078431373
0.20220588 0.22181373 0.0039215686
0.26078431 0.22647059 0.0039215686
0.31764706 0.22647059 0.0039215686
0.38762255 0.23125 0.0078431373
0.47156863 0.2372549 0.0078431373
0.54362745 0.2372549 0.0039215686
0.60441176 0.23137255 0.0019607843
0.65637255 0.22536765 0
0.70465686 0.22230392 0.00073529412
0.74791667 0.22058824 0.0039215686
0.7872549 0.22058824 0.00098039216
0.82598039 0.22058824 0.0039215686
0.86078431 0.21666667 0.0049019608
0.89522059 0.21752451 0.0074754902
0.92647059 0.23480392 0.013235294
0.95833333 0.2495098 0.011642157
0.98235294 0.26348039 0.01372549
0.98970588 0.28970588 0.037254902
1 0.31568627 0.053921569
0 0.25588235 0.0078431373
0 0.25441176 0.0078431373
0.0039215686 0.25441176 0.0067401961
0.0024509804 0.24705882 0.0041053922
0.044852941 0.25098039 0.0039215686
0.11813725 0.2627451 0.0078431373
0.18835784 0.27303922 0.0078431373
0.25441176 0.28186275 0.0039215686
0.31372549 0.28578431 0.0039215686
0.39515931 0.29270833 0.0039215686
0.47843137 0.29791667 0.0039215686
0.55735294 0.30275735 0.0039215686
0.6125 0.29705882 0.0039215686
0.66519608 0.29332108 0
0.71666667 0.28970588 0
0.75582108 0.28670343 0.0014705882
0.79607843 0.28333333 0.0014705882
0.83180147 0.2848652 0.0039215686
0.86605392 0.28333333 0.0029411765
0.90018382 0.28676471 0.0034313725
0.93137255 0.29705882 0.01372549
0.96194853 0.30588235 0.015686275
0.98333333 0.3185049 0.017647059
0.99123775 0.33915441 0.039767157
0.99460784 0.35343137 0.054901961
0 0.30980392 0.011764706
0 0.30735294 0.0078431373
0.00098039216 0.30196078 0.00098039216
0.0073529412 0.30196078 0.01127451
0.035294118 0.3 0.0078431373
0.10147059 0.31029412 0.0078431373
0.17352941 0.32058824 0.0049019608
0.24411765 0.33088235 0.0039215686
0.31372549 0.34117647 0
0.38970588 0.34509804 0.0039215686
0.46960784 0.34901961 0.0039215686
0.54215686 0.35245098 0.0039215686
0.60588235 0.35098039 0.0039215686
0.66127451 0.34509804 0.0039215686
0.7127451 0.34215686 0
0.75490196 0.34117647 0.0039215686
0.79607843 0.34117647 0.0039215686
0.83480392 0.34362745 0.011764706
0.87058824 0.34509804 0.011764706
0.90441176 0.34509804 0.015686275
0.93333333 0.35490196 0.019607843
0.9622549 0.36127451 0.019117647
0.98431373 0.36764706 0.017647059
0.98823529 0.37794118 0.038235294
0.99215686 0.38823529 0.058823529
0 0.35882353 0.015686275
0 0.35735294 0.012683824
0.00098039216 0.35637255 0.014215686
0.015012255 0.35343137 0.014215686
0.034558824 0.35343137 0.0058823529
0.083823529 0.35753676 0.0039215686
0.16470588 0.36568627 0.0039215686
0.24166667 0.3745098 0.003370098
0.30588235 0.38235294 0
0.3754902 0.38964461 0.00091911765
0.45183824 0.39301471 0.0039215686
0.52371324 0.39626225 0.0039215686
0.59117647 0.4004902 0.0039215686
0.65520833 0.40030637 0.0039215686
0.70526961 0.39546569 0.0039215686
0.75153186 0.39564951 0.0039215686
0.79607843 0.39656863 0.0078431373
0.83878676 0.39993873 0.020588235
0.87634804 0.40294118 0.026960784
0.90704657 0.40422794 0.035784314
0.93529412 0.41029412 0.040196078
0.96354167 0.41617647 0.034129902
0.98370098 0.42193627 0.048529412
0.98823529 0.42886029 0.065257353
0.99215686 0.43578431 0.074019608
0 0.40392157 0.015686275
0 0.40490196 0.019730392
0.0031862745 0.40710784 0.023529412
0.014705882 0.40404412 0.01997549
0.031372549 0.4004902 0.012745098
0.07745098 0.4 0.012254902
0.15980392 0.40612745 0.0088235294
0.23676471 0.41323529 0.0045343137
0.30196078 0.42352941 0
0.36372549 0.42990196 0
0.43627451 0.43553922 0
0.50453431 0.43921569 0.0025735294
0.57254902 0.44313725 0.0039215686
0.64019608 0.44313725 0.0039215686
0.69509804 0.44313725 0.0039215686
0.74362745 0.44313725 0.0039215686
0.79117647 0.44705882 0.0039215686
0.83627451 0.45098039 0.020588235
0.88039216 0.45588235 0.035294118
0.90870098 0.45882353 0.041666667
0.93529412 0.45931373 0.040196078
0.9622549 0.46764706 0.054779412
0.98333333 0.4745098 0.07622549
0.99031863 0.48088235 0.096936275
0.99607843 0.48333333 0.10490196
0 0.44509804 0.012254902
0 0.4536152 0.032536765
0.00012254902 0.45245098 0.022671569
0.014705882 0.44901961 0.019607843
0.031372549 0.44509804 0.025
0.067156863 0.44160539 0.026041667
0.1495098 0.44509804 0.016176471
0.22647059 0.45079657 0.0099877451
0.29460784 0.46078431 0
0.35998775 0.46764706 0
0.42205882 0.47659314 0
0.48431373 0.48039216 0
0.55196078 0.48088235 0.0019607843
0.61911765 0.48431373 0.0039215686
0.67745098 0.48431373 0.0039215686
0.73333333 0.48431373 0.0024509804
0.78088235 0.48431373 0.0039215686
0.82598039 0.49068627 0.014705882
0.86629902 0.49620098 0.021446078
0.90398284 0.5 0.024509804
0.93357843 0.50563725 0.02254902
0.9622549 0.5122549 0.054289216
0.98688725 0.52205882 0.10245098
0.99344363 0.52873775 0.11813725
0.9995098 0.53480392 0.13186275
0 0.49215686 0.029411765
0.0012254902 0.49926471 0.057598039
0 0.49558824 0.026960784
0.0093137255 0.49411765 0.028676471
0.023529412 0.49019608 0.03627451
0.04877451 0.48627451 0.038970588
0.13284314 0.4877451 0.02745098
0.2129902 0.49166667 0.014705882
0.28431373 0.49803922 0.0039215686
0.35122549 0.50318627 0.0019607843
0.41519608 0.50882353 0.0019607843
0.47352941 0.51740196 0
0.5372549 0.51960784 0
0.60098039 0.51985294 0.0019607843
0.65931373 0.52156863 0.0019607843
0.71789216 0.52230392 0
0.7745098 0.5254902 0
0.8125 0.52941176 0.0058823529
0.8504902 0.53382353 0.0098039216
0.89019608 0.54068627 0.0098039216
0.92745098 0.54607843 0.0049019608
0.96029412 0.55539216 0.060294118
0.98529412 0.56176471 0.11813725
0.99215686 0.57132353 0.13676471
0.99607843 0.57647059 0.14705882
0 0.52794118 0.029411765
0.00030637255 0.53137255 0.033517157
0.0039215686 0.53137255 0.040196078
0.0043504902 0.53137255 0.044056373
0.0078431373 0.53137255 0.049754902
0.022181373 0.52745098 0.054473039
0.11531863 0.52745098 0.040686275
0.20784314 0.53088235 0.026470588
0.28284314 0.53088235 0.012745098
0.34754902 0.53480392 0.0056985294
0.40931373 0.54007353 0.0039215686
0.46764706 0.55 0.0039215686
0.52892157 0.55465686 0.00024509804
0.58976716 0.55833333 0
0.64816176 0.55833333 0
0.70459559 0.55882353 0
0.75637255 0.5622549 0
0.80147059 0.56256127 0.0037377451
0.83872549 0.56752451 0.0074754902
0.87990196 0.57401961 0.0044117647
0.91715686 0.57990196 0.0039215686
0.95392157 0.58627451 0.029840686
0.97794118 0.59656863 0.090196078
0.98970588 0.60704657 0.14105392
0.99607843 0.61372549 0.16127451
0.00098039216 0.56960784 0.052941176
0.0039215686 0.56960784 0.051960784
0.0039215686 0.56960784 0.054901961
0.0077205882 0.56960784 0.057843137
0.01127451 0.56862745 0.058823529
0.020098039 0.56568627 0.055392157
0.11666667 0.56568627 0.047303922
0.20931373 0.56568627 0.040686275
0.28627451 0.56568627 0.029411765
0.34411765 0.56568627 0.012254902
0.40514706 0.57058824 0.0039215686
0.46384804 0.58088235 0.0039215686
0.52009804 0.5872549 0.0039215686
0.57647059 0.59313725 0
0.63455882 0.59313725 0
0.6877451 0.59607843 0
0.73921569 0.59705882 0
0.7872549 0.59705882 0.0035539216
0.82843137 0.60171569 0.0041666667
0.86960784 0.60833333 0.0039215686
0.90686275 0.6127451 0.0039215686
0.94362745 0.61715686 0.01127451
0.97058824 0.62745098 0.049264706
0.98578431 0.63982843 0.11286765
0.99607843 0.64803922 0.15882353
0 0.60196078 0.043627451
0.0039215686 0.60441176 0.057904412
0.0045343137 0.60477941 0.06629902
0.0078431373 0.60459559 0.068321078
0.010539216 0.60441176 0.062990196
0.022181373 0.60177696 0.054227941
0.12254902 0.6004902 0.057843137
0.21954657 0.6004902 0.057843137
0.29019608 0.59803922 0.044607843
0.34166667 0.59957108 0.019178922
0.40159314 0.60441176 0.0039215686
0.45851716 0.61176471 0.0039215686
0.51495098 0.62009804 0.0053921569
0.56960784 0.62420343 0.0036151961
0.62107843 0.62794118 0
0.67254902 0.63186275 0
0.72401961 0.63333333 0
0.77248775 0.63333333 0.0039215686
0.81813725 0.63786765 0.0039215686
0.85931373 0.64099265 0.0039215686
0.89656863 0.64632353 0.0026960784
0.93382353 0.65165441 0.0039215686
0.96482843 0.65833333 0.011519608
0.98633578 0.66862745 0.042585784
0.99607843 0.67745098 0.084803922
0.0039215686 0.64313725 0.078431373
0.0039215686 0.64313725 0.078431373
0.0039215686 0.64313725 0.082352941
0.0039215686 0.64313725 0.082352941
0.0058823529 0.64117647 0.080392157
0.059313725 0.63872549 0.078431373
0.14509804 0.63529412 0.078431373
0.23529412 0.63529412 0.076960784
0.29803922 0.63529412 0.062745098
0.3495098 0.63529412 0.035784314
0.39803922 0.63627451 0.0049019608
0.45588235 0.64656863 0.01127451
0.50980392 0.65294118 0.0098039216
0.56323529 0.65539216 0.0039215686
0.61470588 0.66176471 0
0.66617647 0.66666667 0.0039215686
0.71372549 0.67058824 0.0039215686
0.76127451 0.67058824 0.0039215686
0.80784314 0.6745098 0.0039215686
0.84901961 0.6745098 0.0039215686
0.88627451 0.68039216 0.0039215686
0.92303922 0.68284314 0.00049019608
0.95098039 0.69019608 0.00098039216
0.98088235 0.6995098 0
1 0.70588235 0
0.0039215686 0.68431373 0.11323529
0.0039215686 0.68431373 0.11231618
0.0078431373 0.68333333 0.10833333
0.006372549 0.68039216 0.10539216
0.012254902 0.67916667 0.1002451
0.091176471 0.67383578 0.099019608
0.18026961 0.67009804 0.096078431
0.25839461 0.67009804 0.096017157
0.31470588 0.67009804 0.088235294
0.36617647 0.66862745 0.069117647
0.41666667 0.67071078 0.046078431
0.4591299 0.67616422 0.017953431
0.51102941 0.68186275 0.0073529412
0.56292892 0.68627451 0
0.61115196 0.69362745 0.0039215686
0.66133578 0.69754902 0.0039215686
0.70980392 0.70147059 0.0039215686
0.75582108 0.70147059 0.0039215686
0.8 0.70539216 0.0039215686
0.84117647 0.70931373 0.0039215686
0.87990196 0.7125 0
0.91519608 0.71715686 0
0.94362745 0.72107843 0
0.9745098 0.72947304 0
0.99362745 0.73284314 0
0.012745098 0.72058824 0.12647059
0.0099264706 0.72120098 0.1310049
0.01495098 0.72156863 0.13848039
0.029534314 0.71801471 0.13284314
0.083823529 0.71323529 0.12598039
0.15085784 0.70980392 0.11948529
0.22941176 0.70661765 0.11642157
0.29227941 0.70588235 0.12205882
0.34019608 0.70588235 0.12843137
0.39068627 0.70588235 0.11335784
0.4372549 0.70906863 0.091176471
0.4745098 0.70980392 0.05379902
0.51568627 0.71323529 0.01372549
0.56017157 0.71801471 0.0080882353
0.60784314 0.7245098 0.0098039216
0.65796569 0.72843137 0.0067401961
0.70490196 0.73235294 0.0039215686
0.75061275 0.73235294 0
0.79289216 0.7372549 0.0039215686
0.83370098 0.74019608 0.0039215686
0.87352941 0.74460784 0
0.91029412 0.74938725 0
0.9375 0.75269608 0
0.96519608 0.75735294 0
0.98823529 0.75980392 0
0.019117647 0.75539216 0.14068627
0.038296569 0.75753676 0.1526348
0.080147059 0.75833333 0.15980392
0.11862745 0.75196078 0.159375
0.16813725 0.74926471 0.15
0.21862745 0.74705882 0.14313725
0.27181373 0.74705882 0.13921569
0.31960784 0.74344363 0.1495098
0.36764706 0.74313725 0.15931373
0.41488971 0.74313725 0.15998775
0.45784314 0.74705882 0.13578431
0.49859069 0.74748775 0.10833333
0.53970588 0.75098039 0.084803922
0.57696078 0.75496324 0.069669118
0.61519608 0.75796569 0.046446078
0.65686275 0.75931373 0.016176471
0.70196078 0.76323529 0
0.74362745 0.76323529 0
0.78823529 0.76813725 0.0039215686
0.82941176 0.7745098 0.0039215686
0.86715686 0.77892157 0.0034313725
0.90392157 0.78327206 0
0.93431373 0.78676471 0
0.96911765 0.79197304 0
0.98823529 0.79460784 0
0.14117647 0.79411765 0.18039216
0.16764706 0.79411765 0.18553922
0.18186275 0.79019608 0.18872549
0.20833333 0.78823529 0.18848039
0.24705882 0.78431373 0.18627451
0.2879902 0.78431373 0.18627451
0.3254902 0.78431373 0.19166667
0.36078431 0.78431373 0.19558824
0.40392157 0.78431373 0.20196078
0.44779412 0.78431373 0.20465686
0.48431373 0.78431373 0.19313725
0.52156863 0.78431373 0.17377451
0.5627451 0.7872549 0.15490196
0.59754902 0.79215686 0.14264706
0.63235294 0.79411765 0.12107843
0.66862745 0.79411765 0.070343137
0.70588235 0.79411765 0.019607843
0.74313725 0.79730392 0.010539216
0.78431373 0.80294118 0.01127451
0.82892157 0.81127451 0.0078431373
0.86666667 0.81568627 0.0039215686
0.90171569 0.81764706 0.0058823529
0.93431373 0.82107843 0.0039215686
0.97058824 0.82622549 0.0019607843
0.99215686 0.83137255 0
0.26323529 0.83676471 0.25098039
0.26960784 0.83333333 0.2504902
0.27647059 0.82941176 0.25183824
0.29362745 0.82598039 0.25098039
0.31568627 0.8254902 0.24019608
0.34601716 0.8254902 0.23829657
0.38333333 0.82254902 0.25196078
0.41764706 0.82156863 0.25686275
0.44558824 0.8254902 0.25343137
0.48363971 0.8254902 0.25098039
0.51813725 0.82414216 0.24154412
0.54901961 0.82156863 0.23382353
0.5875 0.8252451 0.21666667
0.62254902 0.82898284 0.21084559
0.65343137 0.82941176 0.20134804
0.68970588 0.83302696 0.16813725
0.72696078 0.83333333 0.13088235
0.75606618 0.83333333 0.096568627
0.78921569 0.83823529 0.060171569
0.82990196 0.84803922 0.021139706
0.86862745 0.85294118 0.0024509804
0.90042892 0.85643382 0.009252451
0.93737745 0.85980392 0.012254902
0.96678922 0.86256127 0.0042279412
0.99215686 0.86862745 0
0.35980392 0.8745098 0.32941176
0.3622549 0.87267157 0.32647059
0.3754902 0.87279412 0.32941176
0.38676471 0.87058824 0.32340686
0.40147059 0.86666667 0.31176471
0.41678922 0.86666667 0.3060049
0.44901961 0.86666667 0.31740196
0.48627451 0.86666667 0.33002451
0.50392157 0.86666667 0.32156863
0.53051471 0.86605392 0.31127451
0.56176471 0.8627451 0.30490196
0.59264706 0.8627451 0.29718137
0.61960784 0.8627451 0.28921569
0.65379902 0.86666667 0.29056373
0.69044118 0.87058824 0.29313725
0.71911765 0.87205882 0.27745098
0.75392157 0.8745098 0.25098039
0.77904412 0.8745098 0.22303922
0.80980392 0.87867647 0.18161765
0.84448529 0.88578431 0.13639706
0.8754902 0.89068627 0.10392157
0.90551471 0.8932598 0.074754902
0.94191176 0.90098039 0.02622549
0.96911765 0.90404412 0.012622549
0.99509804 0.90980392 0
0.45637255 0.91421569 0.40637255
0.45637255 0.91176471 0.4
0.46801471 0.91176471 0.40306373
0.48314951 0.91176471 0.40637255
0.49362745 0.91176471 0.39803922
0.50637255 0.90784314 0.39166667
0.52352941 0.90784314 0.39509804
0.55533088 0.90784314 0.40784314
0.575 0.90784314 0.40245098
0.59803922 0.90484069 0.39754902
0.62205882 0.90784314 0.40147059
0.6504902 0.90784314 0.396875
0.67009804 0.90392157 0.38333333
0.69362745 0.90294118 0.37696078
0.72634804 0.91078431 0.38541667
0.75692402 0.91421569 0.38131127
0.78088235 0.91568627 0.36911765
0.80876225 0.91660539 0.35
0.83443627 0.91960784 0.32144608
0.86421569 0.92303922 0.29264706
0.89117647 0.92671569 0.26323529
0.92058824 0.93008578 0.23039216
0.95147059 0.93713235 0.20637255
0.97843137 0.9401348 0.16470588
0.99607843 0.94558824 0.12941176
0.52941176 0.94509804 0.4627451
0.52941176 0.94117647 0.45882353
0.53921569 0.94215686 0.45980392
0.55637255 0.94509804 0.46666667
0.57058824 0.94901961 0.46862745
0.57647059 0.94117647 0.4622549
0.59313725 0.94117647 0.46568627
0.61715686 0.94509804 0.47696078
0.63137255 0.94117647 0.46666667
0.64803922 0.9372549 0.46666667
0.67254902 0.94117647 0.47254902
0.7004902 0.94509804 0.48578431
0.71568627 0.94117647 0.46862745
0.73431373 0.9372549 0.45882353
0.75784314 0.94117647 0.46176471
0.78333333 0.94754902 0.46519608
0.80784314 0.94901961 0.45490196
0.83235294 0.95294118 0.45245098
0.85686275 0.95686275 0.44411765
0.88137255 0.96029412 0.43529412
0.90588235 0.95686275 0.39803922
0.93088235 0.96127451 0.38088235
0.96176471 0.96764706 0.37843137
0.98872549 0.97009804 0.36323529
0.99607843 0.97254902 0.34117647
0.006372549 0.0039215686 0.016666667
0.019669118 0.0078431373 0.020588235
0.03627451 0.0089460784 0.022058824
0.05 0.0078431373 0.023345588
0.087009804 0.0125 0.028186275
0.13707108 0.013235294 0.028921569
0.18039216 0.0030637255 0.024509804
0.22941176 0.0023897059 0.019607843
0.28235294 0.0039215686 0.018137255
0.33382353 0.0024509804 0.015747549
0.39019608 0 0.021568627
0.44803922 0.0014705882 0.027941176
0.5125 0.0014705882 0.027205882
0.57726716 0.0014705882 0.021568627
0.64117647 0 0.012377451
0.69509804 0 0.017218137
0.74509804 0.0039215686 0.020588235
0.79319853 0.0039215686 0.026041667
0.83921569 0.0039215686 0.027941176
0.87647059 0.0076593137 0.030882353
0.90784314 0.0078431373 0.032352941
0.93872549 0.0078431373 0.030882353
0.96960784 0.0089460784 0.030882353
0.98878676 0.043504902 0.040196078
0.99607843 0.098039216 0.048039216
0.0072916667 0.024509804 0.020588235
0.018367034 0.025428922 0.026041667
0.036642157 0.028431373 0.027129289
0.057659314 0.028431373 0.023031556
0.096109069 0.028707108 0.025520833
0.14233303 0.027941176 0.026462929
0.182981 0.017647059 0.020818015
0.2348269 0.014560355 0.020013787
0.28872549 0.015134804 0.020588235
0.34411765 0.01272212 0.020036765
0.4004902 0.0061427696 0.024096201
0.45840227 0.0039215686 0.028247549
0.52156863 0.0073835784 0.027205882
0.5872549 0.0087622549 0.021568627
0.64676777 0.005591299 0.018734681
0.69942555 0 0.020358456
0.74901961 0.00091911765 0.022058824
0.79599418 0.0035768995 0.024509804
0.83921569 0.0039215686 0.027941176
0.87647059 0.0047257966 0.030882353
0.90903799 0.0078431373 0.031158088
0.93964461 0.0078431373 0.030767463
0.97052696 0.0069240196 0.027879902
0.98970588 0.039682904 0.033823529
0.99515931 0.085416667 0.044117647
0.010661765 0.051102941 0.025980392
0.014215686 0.051102941 0.027359069
0.035784314 0.052941176 0.028278186
0.066237745 0.052941176 0.024188113
0.10563725 0.052941176 0.025551471
0.14964767 0.049417892 0.030652574
0.19188113 0.043045343 0.02567402
0.24362745 0.037178309 0.024509804
0.29901961 0.031127451 0.024509804
0.35617341 0.023360907 0.02489277
0.41041667 0.010569853 0.026960784
0.46956189 0.0084558824 0.024816176
0.53523284 0.010232843 0.023897059
0.59742647 0.013556985 0.020588235
0.65193015 0.0083639706 0.024601716
0.70245098 0.0039215686 0.02489277
0.75294118 0 0.020588235
