site/assets/luts/natron-haldclut--light-blown--0ef22462f.cube
# LUTr-Project: LUTr — LUTrepository
# LUTr-Schema-Version: 1
# LUTr-ID: natron-haldclut--light-blown--0ef22462f
# LUTr-Title: light blown
# LUTr-Collection: Natron HaldCLUT
# LUTr-Collection-ID: natron-haldclut-presets
# LUTr-Source: https://github.com/NatronGitHub/clut
# LUTr-Source-File: submissions/natron-haldclut-presets/various/light_blown.png
# LUTr-Source-Format: PNG
# LUTr-Source-SHA256: e2a7a821235cbf322de8bd958015b8b1a793df1f4d394bf173423f06ae124106
# LUTr-License: CC-BY-SA-4.0
# LUTr-License-URL: https://github.com/NatronGitHub/clut#license
# LUTr-Tags: creative, film, film-emulation, hald-clut, natron, png, cube
# LUTr-Transform-Class: film-emulation
# LUTr-Input-Color-Space: srgb
# LUTr-Output-Color-Space: srgb
# LUTr-Color-Space-Confidence: assumed-display-referred
# LUTr-Conversion-Method: PNG LUT image decoded at 16-bit and sampled to 25x25x25 3D CUBE
# LUTr-Conversion-Date: 2026-07-27
# LUTr-Conversion-Tool: LUTr scripts/convert-all-to-cube.mjs
# LUTr-Conversion-Grid: 25x25x25
# LUTr-Note: Preserve this metadata and the upstream license notices when redistributing.
TITLE "light blown"
LUT_3D_SIZE 25
DOMAIN_MIN 0 0 0
DOMAIN_MAX 1 1 1
0.019607843 0.050980392 0.0039215686
0.042647059 0.034313725 0.010294118
0.069607843 0.01372549 0.016666667
0.10392157 0.0039215686 0.023039216
0.14117647 0.0098039216 0.02745098
0.18186275 0.011764706 0.031862745
0.21960784 0.0088235294 0.035294118
0.26078431 0.0024509804 0.039215686
0.30196078 0 0.043137255
0.36372549 0.012745098 0.071568627
0.42156863 0.028431373 0.1
0.47598039 0.03872549 0.1245098
0.50980392 0.041176471 0.12941176
0.53872549 0.035294118 0.1254902
0.57254902 0.035294118 0.1254902
0.60392157 0.036764706 0.1254902
0.60392157 0.035294118 0.1254902
0.60147059 0.035294118 0.12941176
0.6 0.031372549 0.1254902
0.6 0.031372549 0.1254902
0.6 0.035294118 0.12156863
0.6 0.035294118 0.12156863
0.6 0.035294118 0.12156863
0.6 0.035294118 0.12009804
0.59607843 0.031372549 0.11764706
0.017156863 0.054901961 0.0039215686
0.042647059 0.036764706 0.010294118
0.072058824 0.02377451 0.020220588
0.10637255 0.017647059 0.025796569
0.14362745 0.019117647 0.029901961
0.18235294 0.018137255 0.035294118
0.22242647 0.012377451 0.037745098
0.25931373 0.0049019608 0.039215686
0.30196078 0 0.043137255
0.35827206 0.011213235 0.068566176
0.40784314 0.022058824 0.089093137
0.45196078 0.028431373 0.10422794
0.4872549 0.028921569 0.11004902
0.53284314 0.03314951 0.11942402
0.57254902 0.035294118 0.12156863
0.60484069 0.035294118 0.1254902
0.60392157 0.035294118 0.1254902
0.60147059 0.035294118 0.12794118
0.6 0.031372549 0.1254902
0.6 0.031372549 0.12334559
0.6 0.033333333 0.12156863
0.6 0.03560049 0.12156863
0.6 0.039215686 0.12156863
0.6 0.037745098 0.12009804
0.59607843 0.031372549 0.11764706
0.015686275 0.064705882 0.0039215686
0.04754902 0.070098039 0.020710784
0.082352941 0.071568627 0.038235294
0.11678922 0.068137255 0.045098039
0.15588235 0.061764706 0.049019608
0.19460784 0.055392157 0.049019608
0.23014706 0.045098039 0.049754902
0.2685049 0.03125 0.052941176
0.30784314 0.025490196 0.056862745
0.3564951 0.030882353 0.071691176
0.40196078 0.03627451 0.08627451
0.43958333 0.03627451 0.095588235
0.47941176 0.035294118 0.10196078
0.52487745 0.037132353 0.11115196
0.57254902 0.035539216 0.11985294
0.6060049 0.035294118 0.12267157
0.60392157 0.035294118 0.1254902
0.60147059 0.035294118 0.12830882
0.6 0.02745098 0.1254902
0.6 0.030882353 0.12291667
0.6 0.035294118 0.12254902
0.6 0.039338235 0.12242647
0.60098039 0.040196078 0.12156863
0.6 0.038112745 0.12156863
0.59607843 0.031372549 0.11764706
0.056862745 0.12303922 0.041176471
0.061703431 0.12518382 0.048039216
0.089215686 0.12561275 0.058823529
0.12696078 0.11960784 0.065257353
0.16813725 0.11323529 0.069607843
0.20539216 0.10686275 0.073039216
0.24607843 0.096568627 0.073529412
0.28382353 0.087561275 0.074816176
0.32843137 0.083333333 0.084803922
0.37598039 0.083823529 0.095588235
0.4189951 0.087745098 0.10980392
0.45637255 0.087745098 0.11666667
0.49705882 0.083823529 0.12426471
0.53823529 0.075490196 0.12843137
0.57941176 0.065196078 0.12843137
0.61256127 0.055882353 0.13204657
0.61127451 0.052941176 0.13235294
0.60520833 0.043627451 0.13284314
0.6 0.030882353 0.1254902
0.60343137 0.034803922 0.1254902
0.60367647 0.042647059 0.12892157
0.60392157 0.046568627 0.12849265
0.60392157 0.046568627 0.1254902
0.60214461 0.041666667 0.12371324
0.59607843 0.035294118 0.11764706
0.096078431 0.18039216 0.074509804
0.096078431 0.17843137 0.079656863
0.10735294 0.17745098 0.082352941
0.14313725 0.17107843 0.08627451
0.18235294 0.16666667 0.090196078
0.22156863 0.15857843 0.094117647
0.26078431 0.15147059 0.095588235
0.30392157 0.14509804 0.10147059
0.34705882 0.14117647 0.11176471
0.39142157 0.13995098 0.12009804
0.43676471 0.14313725 0.13431373
0.47647059 0.13970588 0.14289216
0.51470588 0.1372549 0.14901961
0.55882353 0.13284314 0.15539216
0.6 0.12647059 0.1622549
0.63651961 0.12009804 0.16740196
0.64313725 0.11176471 0.16666667
0.63676471 0.097058824 0.16029412
0.63088235 0.082843137 0.15392157
0.62573529 0.076470588 0.14754902
0.6254902 0.074509804 0.14607843
0.62156863 0.074019608 0.14289216
0.61960784 0.069117647 0.13823529
0.61102941 0.055392157 0.13186275
0.60392157 0.045098039 0.1254902
0.13088235 0.23382353 0.10294118
0.12873775 0.23167892 0.10294118
0.13284314 0.22990196 0.10294118
0.16372549 0.22598039 0.10680147
0.20073529 0.22009804 0.11078431
0.23823529 0.21421569 0.11519608
0.27941176 0.20784314 0.12205882
0.32058824 0.20294118 0.12843137
0.36568627 0.19901961 0.13823529
0.40900735 0.1963848 0.14509804
0.45159314 0.19460784 0.15490196
0.49313725 0.19460784 0.16519608
0.53406863 0.19068627 0.17181373
0.57591912 0.18676471 0.18186275
0.62058824 0.18382353 0.19215686
0.66697304 0.1776348 0.19883578
0.67647059 0.17156863 0.19803922
0.67383578 0.16127451 0.19381127
0.6685049 0.14742647 0.18872549
0.66127451 0.13676471 0.18192402
0.65857843 0.12818627 0.17598039
0.6528799 0.12352941 0.17009804
0.6495098 0.11335784 0.16715686
0.63921569 0.09754902 0.15686275
0.62941176 0.084803922 0.14656863
0.16176471 0.28529412 0.12745098
0.16176471 0.28529412 0.12463235
0.1620098 0.28137255 0.12352941
0.18088235 0.27794118 0.12696078
0.21764706 0.275 0.13284314
0.25882353 0.27218137 0.13970588
0.29705882 0.26642157 0.14901961
0.33933824 0.25968137 0.15539216
0.38235294 0.25686275 0.1627451
0.4245098 0.25330882 0.17205882
0.46862745 0.24828431 0.17941176
0.50980392 0.24607843 0.18615196
0.55098039 0.24215686 0.19607843
0.59227941 0.24166667 0.20502451
0.63651961 0.23529412 0.2127451
0.67830882 0.23333333 0.22303922
0.70784314 0.23333333 0.22941176
0.71078431 0.22303922 0.22781863
0.70661765 0.2127451 0.22058824
0.70196078 0.19889706 0.21323529
0.69607843 0.18823529 0.20833333
0.68982843 0.17794118 0.20098039
0.68406863 0.16862745 0.19705882
0.67696078 0.15404412 0.1877451
0.66666667 0.13921569 0.18039216
0.19656863 0.34215686 0.15343137
0.19411765 0.34068627 0.15251225
0.19473039 0.33823529 0.1495098
0.20735294 0.33694853 0.15294118
0.24019608 0.33357843 0.15931373
0.27892157 0.3286152 0.16568627
0.31666667 0.32144608 0.1745098
0.35784314 0.31623775 0.18088235
0.40147059 0.31323529 0.18872549
0.44264706 0.30778186 0.19601716
0.48419118 0.30257353 0.20330882
0.52647059 0.29803922 0.21047794
0.57009804 0.29558824 0.21740196
0.60863971 0.29332108 0.22696078
0.64852941 0.28970588 0.23541667
0.68970588 0.28878676 0.24509804
0.72843137 0.28970588 0.25539216
0.74466912 0.28333333 0.25931373
0.74705882 0.27242647 0.25441176
0.74313725 0.26029412 0.24803922
0.7372549 0.24926471 0.24166667
0.72726716 0.23560049 0.23529412
0.72058824 0.22401961 0.22830882
0.71421569 0.21127451 0.22254902
0.70784314 0.1995098 0.21372549
0.23529412 0.4 0.18431373
0.23529412 0.4 0.18431373
0.23235294 0.39607843 0.18039216
0.23529412 0.39264706 0.18039216
0.26078431 0.39019608 0.18627451
0.29607843 0.38382353 0.19264706
0.3372549 0.37745098 0.19901961
0.37843137 0.37107843 0.20539216
0.41960784 0.36470588 0.21568627
0.46078431 0.36078431 0.22205882
0.50196078 0.35686275 0.22843137
0.54313725 0.35294118 0.23480392
0.58823529 0.34901961 0.24117647
0.625 0.34509804 0.25098039
0.6627451 0.34215686 0.25784314
0.70392157 0.34117647 0.26813725
0.74509804 0.34117647 0.27843137
0.78137255 0.33872549 0.28872549
0.7872549 0.32843137 0.28529412
0.78431373 0.31813725 0.27892157
0.7745098 0.30588235 0.27254902
0.76813725 0.29362745 0.26617647
0.76078431 0.28039216 0.25980392
0.75294118 0.26911765 0.25490196
0.74901961 0.25882353 0.24705882
0.27254902 0.45784314 0.21519608
0.27101716 0.45631127 0.21182598
0.26862745 0.45330882 0.21127451
0.26617647 0.45018382 0.20753676
0.28014706 0.44485294 0.21004902
0.31666667 0.43952206 0.21715686
0.35784314 0.43284314 0.22598039
0.39901961 0.42738971 0.23235294
0.4377451 0.42009804 0.23872549
0.47745098 0.41372549 0.24564951
0.51862745 0.40833333 0.25257353
0.55980392 0.40441176 0.25931373
0.60171569 0.4004902 0.26691176
0.63952206 0.40030637 0.27579657
0.67941176 0.39718137 0.28480392
0.72058824 0.39656863 0.29509804
0.76568627 0.39264706 0.30539216
0.8098652 0.3911152 0.31568627
0.82659314 0.38382353 0.31617647
0.82175245 0.37567402 0.30980392
0.8125 0.36323529 0.30539216
0.80539216 0.35147059 0.29754902
0.79901961 0.34117647 0.29362745
0.79319853 0.33088235 0.28823529
0.79019608 0.3245098 0.28431373
0.30980392 0.51568627 0.24607843
0.30980392 0.51568627 0.2442402
0.30563725 0.51151961 0.24215686
0.30110294 0.50441176 0.23823529
0.29803922 0.49705882 0.23382353
0.33333333 0.49117647 0.24166667
0.37818627 0.4872549 0.2497549
0.41960784 0.48186275 0.25833333
0.45686275 0.4754902 0.26470588
0.49558824 0.46764706 0.27107843
0.53529412 0.4627451 0.27818627
0.57941176 0.45723039 0.28480392
0.61764706 0.45588235 0.29411765
0.65747549 0.45588235 0.30147059
0.69607843 0.45294118 0.31176471
0.73835784 0.45294118 0.32205882
0.78235294 0.44901961 0.33235294
0.8310049 0.44620098 0.34203431
0.86102941 0.44019608 0.34705882
0.85526961 0.43382353 0.34068627
0.84852941 0.42107843 0.33627451
0.84166667 0.40919118 0.32843137
0.83455882 0.39803922 0.3245098
0.82928922 0.38811275 0.31911765
0.82647059 0.38235294 0.31666667
0.35098039 0.57745098 0.27696078
0.34852941 0.57745098 0.27696078
0.34607843 0.57340686 0.27561275
0.33970588 0.56617647 0.26960784
0.33333333 0.55416667 0.26495098
0.35392157 0.54264706 0.26568627
0.39546569 0.53872549 0.27598039
0.43627451 0.53333333 0.28265931
0.47745098 0.52696078 0.28921569
0.51470588 0.52058824 0.296875
0.55588235 0.51776961 0.30453431
0.59705882 0.51470588 0.31182598
0.63455882 0.51127451 0.32034314
0.6754902 0.51127451 0.32843137
0.71666667 0.51078431 0.33872549
0.75784314 0.51078431 0.34901961
0.80294118 0.50735294 0.35931373
0.84460784 0.50686275 0.36746324
0.88321078 0.50196078 0.375
0.88921569 0.49172794 0.37156863
0.88455882 0.48137255 0.36715686
0.87689951 0.46715686 0.35931373
0.86997549 0.45686275 0.35539216
0.86470588 0.44675245 0.35
0.86127451 0.44411765 0.34754902
0.39215686 0.63921569 0.31176471
0.38970588 0.63921569 0.31176471
0.3872549 0.63480392 0.30784314
0.38088235 0.62598039 0.30416667
0.3745098 0.61078431 0.29607843
0.37965686 0.59754902 0.29240196
0.41372549 0.59019608 0.2995098
0.45490196 0.58627451 0.30735294
0.49803922 0.58431373 0.31764706
0.53529412 0.57916667 0.3247549
0.57647059 0.57401961 0.33235294
0.61593137 0.57083333 0.33897059
0.65490196 0.56862745 0.34803922
0.69215686 0.56862745 0.35710784
0.73333333 0.56862745 0.36568627
0.7745098 0.56862745 0.37598039
0.81764706 0.56666667 0.38431373
0.86078431 0.5627451 0.39338235
0.90098039 0.56029412 0.40098039
0.92303922 0.55343137 0.40588235
0.92254902 0.54117647 0.39901961
0.91348039 0.52867647 0.39362745
0.90637255 0.51470588 0.38627451
0.90122549 0.50833333 0.38235294
0.89803922 0.50196078 0.37843137
0.43333333 0.70490196 0.34656863
0.42941176 0.70098039 0.34442402
0.42806373 0.69558824 0.34166667
0.41813725 0.68143382 0.33529412
0.41127451 0.66519608 0.32671569
0.40582108 0.64901961 0.3221201
0.42843137 0.64166667 0.32291667
0.47352941 0.64166667 0.33235294
0.51470588 0.64215686 0.34607843
0.55588235 0.63970588 0.35294118
0.59705882 0.63333333 0.35931373
0.63474265 0.62996324 0.3661152
0.6752451 0.62647059 0.37598039
0.7127451 0.62647059 0.38535539
0.75085784 0.62647059 0.39264706
0.79117647 0.62469363 0.40245098
0.83627451 0.62205882 0.40931373
0.87745098 0.61862745 0.41930147
0.92218137 0.61727941 0.42855392
0.95686275 0.61121324 0.43284314
0.95857843 0.60098039 0.43088235
0.9504902 0.59068627 0.42457108
0.94362745 0.58039216 0.41813725
0.93903186 0.57009804 0.41323529
0.93529412 0.56372549 0.40931373
0.47058824 0.76666667 0.38039216
0.47058824 0.76090686 0.37745098
0.4627451 0.75073529 0.37254902
0.45245098 0.73333333 0.36311275
0.44215686 0.71666667 0.35588235
0.43529412 0.70306373 0.34693627
0.45122549 0.69387255 0.34901961
0.49644608 0.6942402 0.35931373
0.53823529 0.7 0.37352941
0.57647059 0.70036765 0.38088235
0.61764706 0.69289216 0.38921569
0.65490196 0.68835784 0.39656863
0.69411765 0.68529412 0.40294118
0.73284314 0.68431373 0.41286765
0.77058824 0.68431373 0.41960784
0.81176471 0.6810049 0.42879902
0.85686275 0.68039216 0.4372549
0.89803922 0.67683824 0.44656863
0.93946078 0.67328431 0.45367647
0.98051471 0.66875 0.46066176
0.99215686 0.66127451 0.46176471
0.98480392 0.65245098 0.45588235
0.97745098 0.64215686 0.45196078
0.97352941 0.6307598 0.44595588
0.96960784 0.62156863 0.44019608
0.51029412 0.82843137 0.4122549
0.50784314 0.82205882 0.40980392
0.49901961 0.80747549 0.40343137
0.48872549 0.79001225 0.39313725
0.47843137 0.7747549 0.38676471
0.47647059 0.76127451 0.38088235
0.49252451 0.75392157 0.38198529
0.53425245 0.75392157 0.39411765
0.56764706 0.75637255 0.4004902
0.59705882 0.75245098 0.40686275
0.63786765 0.75 0.41568627
0.6754902 0.7463848 0.42352941
0.71397059 0.74607843 0.43112745
0.75343137 0.74215686 0.44001225
0.79117647 0.74068627 0.44656863
0.83235294 0.73676471 0.45447304
0.87352941 0.73431373 0.46323529
0.91807598 0.73284314 0.47205882
0.95943627 0.72892157 0.47990196
0.99117647 0.72518382 0.48658088
1 0.71985294 0.48921569
0.9995098 0.7127451 0.48658088
0.99718137 0.70245098 0.4817402
0.99846814 0.69123775 0.47653186
1 0.67941176 0.47107843
0.54901961 0.88627451 0.44313725
0.54509804 0.87990196 0.44068627
0.53627451 0.86470588 0.43431373
0.52941176 0.84803922 0.42745098
0.52156863 0.83333333 0.42156863
0.52156863 0.82303922 0.41568627
0.53137255 0.81568627 0.41568627
0.56519608 0.81421569 0.42352941
0.58823529 0.81176471 0.42745098
0.61519608 0.80784314 0.43382353
0.65490196 0.80784314 0.44411765
0.69607843 0.80392157 0.4504902
0.73333333 0.80392157 0.46078431
0.77058824 0.80343137 0.46715686
0.81176471 0.79705882 0.4745098
0.85294118 0.79215686 0.47990196
0.89411765 0.78823529 0.49019608
0.93529412 0.78823529 0.49656863
0.9745098 0.78431373 0.50588235
0.99166667 0.78039216 0.50980392
0.99607843 0.77647059 0.51372549
0.99607843 0.76813725 0.51372549
0.99607843 0.75784314 0.50980392
1 0.75147059 0.50588235
0.99607843 0.74509804 0.50588235
0.58382353 0.94803922 0.47401961
0.57898284 0.93621324 0.47009804
0.57352941 0.92071078 0.46519608
0.56715686 0.90557598 0.45863971
0.56593137 0.89387255 0.45441176
0.56488971 0.88480392 0.4504902
0.56776961 0.87745098 0.44938725
0.58431373 0.87205882 0.4504902
0.60490196 0.86715686 0.45196078
0.63186275 0.86323529 0.45833333
0.67303922 0.86323529 0.46862745
0.71292892 0.86323529 0.47892157
0.75073529 0.86176471 0.4877451
0.79117647 0.8591299 0.49540441
0.83235294 0.85245098 0.50085784
0.87352941 0.84908088 0.50778186
0.91862745 0.84607843 0.51470588
0.9588848 0.84270833 0.52408088
0.9877451 0.83933824 0.53039216
0.99215686 0.83235294 0.5341299
0.99485294 0.82916667 0.53823529
0.99607843 0.82352941 0.53823529
0.99607843 0.81862745 0.53860294
0.99607843 0.81323529 0.54068627
0.99607843 0.80686275 0.54068627
0.61666667 1 0.50294118
0.61372549 0.98590686 0.49816176
0.60980392 0.97156863 0.49289216
0.60686275 0.95833333 0.48921569
0.60539216 0.95196078 0.48529412
0.60294118 0.94031863 0.48137255
0.60294118 0.93431373 0.48063725
0.60441176 0.9310049 0.47745098
0.61764706 0.92352941 0.48039216
0.64644608 0.92254902 0.48382353
0.69117647 0.92254902 0.49705882
0.73333333 0.92254902 0.50735294
0.77058824 0.91960784 0.51470588
0.80784314 0.91433824 0.52365196
0.84901961 0.90784314 0.52818627
0.8935049 0.90294118 0.53566176
0.93529412 0.90294118 0.54313725
0.98039216 0.90110294 0.5504902
0.99215686 0.89436275 0.55588235
0.99215686 0.88860294 0.55980392
0.99460784 0.88578431 0.56372549
0.99607843 0.88026961 0.56813725
0.99607843 0.87720588 0.57230392
0.99607843 0.87254902 0.5754902
0.99607843 0.86862745 0.5754902
0.62696078 1 0.50980392
0.63302696 1 0.51323529
0.63431373 0.9995098 0.51323529
0.63431373 0.99515931 0.51280637
0.63431373 0.98921569 0.51102941
0.63382353 0.98278186 0.50876225
0.63382353 0.98235294 0.50833333
0.63382353 0.98216912 0.50490196
0.63431373 0.98186275 0.50490196
0.66029412 0.97794118 0.51078431
0.70502451 0.98137255 0.52156863
0.75 0.97794118 0.5348652
0.79117647 0.97573529 0.54191176
0.82843137 0.96568627 0.54846814
0.86960784 0.9557598 0.55453431
0.91078431 0.94577206 0.56109069
0.95588235 0.93970588 0.57107843
0.98529412 0.93970588 0.5776348
0.99215686 0.95036765 0.58382353
0.99515931 0.95 0.59019608
0.99607843 0.94240196 0.59264706
0.99607843 0.93780637 0.59901961
0.99607843 0.93480392 0.60539216
0.99607843 0.93302696 0.60980392
0.99607843 0.93039216 0.61029412
0.6372549 1 0.51764706
0.64436275 1 0.52205882
0.6495098 1 0.5245098
0.65269608 1 0.52745098
0.65294118 0.99607843 0.52352941
0.64901961 0.99607843 0.52328431
0.64901961 0.99754902 0.52009804
0.64705882 1 0.51960784
0.64509804 1 0.51960784
0.66470588 1 0.52401961
0.70980392 1 0.53627451
0.75294118 1 0.54828431
0.8 0.99901961 0.56078431
0.84509804 0.99166667 0.57303922
0.88970588 0.97941176 0.58186275
0.93137255 0.96789216 0.59166667
0.96862745 0.96470588 0.59803922
0.98284314 0.97230392 0.60441176
0.98921569 0.99166667 0.61078431
0.99607843 0.99828431 0.62303922
0.99607843 0.99019608 0.62647059
0.99607843 0.98602941 0.63186275
0.99607843 0.98431373 0.63872549
0.99607843 0.98823529 0.64191176
0.99607843 0.98823529 0.64509804
0.65147059 1 0.52598039
0.65539216 1 0.52971814
0.6627451 1 0.53345588
0.66280637 1 0.53382353
0.65906863 0.99803922 0.53161765
0.65533088 0.99607843 0.52941176
0.65232843 0.99901961 0.52598039
0.65098039 1 0.5254902
0.65098039 1 0.5254902
0.6658701 1 0.52971814
0.70539216 1 0.54215686
0.74699755 1 0.55245098
0.79754902 1 0.56862745
0.8495098 0.99607843 0.58578431
0.90147059 0.99607843 0.60637255
0.95343137 0.99136029 0.62224265
0.98529412 0.98578431 0.62941176
0.9908701 0.99656863 0.63578431
0.99227941 1 0.64754902
0.99607843 1 0.6651348
0.99607843 0.99607843 0.67328431
0.99607843 0.99607843 0.67745098
0.99607843 0.99914216 0.68394608
0.99607843 1 0.69460784
0.99607843 1 0.70147059
0.65882353 1 0.53235294
0.66237745 1 0.53333333
0.66593137 1 0.5372549
0.66666667 1 0.5372549
0.6627451 1 0.53676471
0.65882353 0.99607843 0.53321078
0.65563725 0.99681373 0.53014706
0.65453431 1 0.52941176
0.65392157 1 0.53235294
0.66372549 1 0.53578431
0.69901961 1 0.54607843
0.74276961 1 0.55894608
0.79411765 1 0.57401961
0.8495098 1 0.59607843
0.90490196 1 0.61666667
0.96176471 1 0.63762255
0.99607843 1 0.65490196
0.99546569 1 0.66666667
0.99607843 1 0.69093137
0.99987745 1 0.72230392
1 1 0.725
0.99865196 1 0.73272059
0.99607843 1 0.74534314
0.99607843 1 0.76139706
0.99607843 1 0.76960784
0.6627451 1 0.53333333
0.6627451 1 0.53333333
0.66666667 1 0.5372549
0.66666667 1 0.5372549
0.6627451 1 0.5372549
0.6622549 0.99607843 0.5372549
0.65882353 0.99607843 0.53480392
0.65582108 0.99607843 0.53572304
0.65490196 0.99607843 0.53872549
0.66280637 1 0.54209559
0.69301471 1 0.55147059
0.73903186 1 0.56390931
0.79215686 1 0.58039216
0.8495098 1 0.60098039
0.90490196 1 0.62046569
0.96029412 1 0.63676471
0.99215686 1 0.65098039
0.99215686 1 0.66464461
0.99313725 1 0.69313725
0.9995098 1 0.72401961
1 1 0.74509804
1 1 0.75931373
0.99607843 1 0.78284314
0.99607843 1 0.81219363
0.99607843 1 0.83137255
0.6627451 1 0.53333333
0.6627451 1 0.53333333
0.66666667 1 0.5372549
0.66666667 1 0.5372549
0.6627451 1 0.5372549
0.6622549 0.99607843 0.5372549
0.65882353 0.99607843 0.5372549
0.65735294 0.99607843 0.54117647
0.65490196 1 0.54117647
0.65882353 1 0.54509804
0.6872549 1 0.55490196
0.73872549 1 0.56813725
0.79019608 1 0.58431373
0.84607843 1 0.60098039
0.90392157 1 0.61862745
0.95637255 1 0.63431373
0.98823529 1 0.64705882
0.99068627 1 0.66372549
0.99313725 1 0.68921569
0.9995098 1 0.72009804
1 1 0.74509804
1 1 0.76176471
0.99607843 1 0.78627451
0.99607843 1 0.8122549
0.99607843 1 0.83137255
0.02745098 0.047058824 0.020588235
0.046568627 0.031862745 0.018137255
0.068995098 0.01372549 0.016666667
0.10018382 0.0039215686 0.020894608
0.14117647 0.0085784314 0.02745098
0.18235294 0.011764706 0.031862745
0.21960784 0.0082107843 0.035294118
0.25931373 0.0024509804 0.039215686
0.30196078 0 0.043137255
0.36127451 0.013664216 0.070098039
0.42156863 0.028431373 0.10098039
0.4786152 0.041360294 0.1245098
0.51421569 0.042401961 0.13333333
0.54540441 0.041666667 0.13265931
0.58235294 0.044117647 0.14215686
0.6 0.044117647 0.13976716
0.6 0.039215686 0.13578431
0.6 0.035294118 0.13033088
0.6 0.031372549 0.12732843
0.6 0.031372549 0.1254902
0.6 0.035294118 0.12156863
0.59754902 0.035294118 0.11893382
0.6 0.035294118 0.12058824
0.6 0.035294118 0.12156863
0.59607843 0.031372549 0.11764706
0.024448529 0.050061275 0.020588235
0.046568627 0.038641238 0.019669118
0.070297181 0.02377451 0.020266544
0.1026348 0.016122855 0.025796569
0.14362745 0.016666667 0.03036152
0.18235294 0.018137255 0.035784314
0.22173713 0.011688113 0.038664216
0.25686275 0.0039445466 0.039215686
0.29803922 0 0.043137255
0.35524663 0.011213235 0.068566176
0.40784314 0.021675858 0.089093137
0.45336244 0.026286765 0.10410539
0.48995098 0.028921569 0.11151961
0.53021599 0.033455882 0.12071844
0.57555147 0.041053922 0.13442096
0.60055147 0.041666667 0.13670343
0.6 0.038296569 0.13186275
0.6 0.035294118 0.12975643
0.6 0.031372549 0.1254902
0.6 0.031372549 0.1254902
0.6 0.035294118 0.12156863
0.5977405 0.035294118 0.11904871
0.6 0.038465074 0.12133885
0.6 0.035294118 0.12044271
0.59607843 0.031372549 0.11764706
0.034313725 0.076960784 0.03002451
0.050030637 0.07432598 0.031311275
0.080055147 0.071568627 0.039613971
0.11505821 0.068137255 0.045098039
0.15392157 0.061764706 0.049019608
0.19460784 0.055392157 0.049096201
0.23014706 0.04463848 0.049019608
0.26629902 0.03125 0.05
0.30539216 0.025490196 0.05502451
0.35500919 0.030882353 0.070618873
0.40134804 0.035202206 0.086397059
0.43904718 0.031954657 0.093443627
0.47941176 0.03192402 0.10116422
0.52357537 0.037254902 0.11407782
0.56801471 0.03872549 0.12303922
0.59901961 0.040609681 0.13088235
0.6 0.037745098 0.12794118
0.6 0.032843137 0.12682292
0.6 0.02745098 0.1254902
0.6 0.031188725 0.12452512
0.6 0.035784314 0.12224265
0.6 0.039215686 0.12156863
0.6 0.040042892 0.12156863
0.6 0.037745098 0.12156863
0.59607843 0.031372549 0.11764706
0.061090686 0.1254902 0.048345588
0.061887255 0.12303922 0.049931066
0.086151961 0.12081801 0.058823529
0.12696078 0.11911765 0.065219056
0.16813725 0.11323529 0.069607843
0.20539216 0.10686275 0.073345588
0.2435049 0.096568627 0.073483456
0.28333333 0.087561275 0.074816176
0.328125 0.083639706 0.084803922
0.37272518 0.085163909 0.096744792
0.41862745 0.087668505 0.10980392
0.45610447 0.083984375 0.11660539
0.49491422 0.080545343 0.12239583
0.53589154 0.078125 0.13061428
0.57567402 0.068014706 0.13391544
0.60942862 0.06115962 0.13743107
0.60833333 0.052941176 0.13627451
0.60398284 0.040372243 0.13050705
0.6 0.029273897 0.1254902
0.60343137 0.036948529 0.12736673
0.60352328 0.044454657 0.12784926
0.6036152 0.046568627 0.12518382
0.60392157 0.046568627 0.1254136
0.60214461 0.041360294 0.12237286
0.59607843 0.034803922 0.11764706
0.096078431 0.17843137 0.079656863
0.092432598 0.17552083 0.078431373
