site/assets/luts/natron-haldclut--polaroid-665--0a5aa202a.cube
# LUTr-Project: LUTr — LUTrepository
# LUTr-Schema-Version: 1
# LUTr-ID: natron-haldclut--polaroid-665--0a5aa202a
# LUTr-Title: polaroid 665
# LUTr-Collection: Natron HaldCLUT
# LUTr-Collection-ID: natron-haldclut-presets
# LUTr-Source: https://github.com/NatronGitHub/clut
# LUTr-Source-File: submissions/natron-haldclut-presets/instant_pro/polaroid_665.png
# LUTr-Source-Format: PNG
# LUTr-Source-SHA256: 907145984f712239fcc27a8a7614ee5b7dc72dca6adbbc37e852a3456278f208
# LUTr-License: CC-BY-SA-4.0
# LUTr-License-URL: https://github.com/NatronGitHub/clut#license
# LUTr-Tags: creative, film, film-emulation, hald-clut, natron, png, cube
# LUTr-Transform-Class: film-emulation
# LUTr-Input-Color-Space: srgb
# LUTr-Output-Color-Space: srgb
# LUTr-Color-Space-Confidence: assumed-display-referred
# LUTr-Conversion-Method: PNG LUT image decoded at 16-bit and sampled to 25x25x25 3D CUBE
# LUTr-Conversion-Date: 2026-07-27
# LUTr-Conversion-Tool: LUTr scripts/convert-all-to-cube.mjs
# LUTr-Conversion-Grid: 25x25x25
# LUTr-Note: Preserve this metadata and the upstream license notices when redistributing.
TITLE "polaroid 665"
LUT_3D_SIZE 9
DOMAIN_MIN 0 0 0
DOMAIN_MAX 1 1 1
0.050980392 0.050980392 0.050980392
0.062745098 0.062745098 0.062745098
0.068627451 0.068627451 0.068627451
0.1122549 0.1122549 0.1122549
0.15686275 0.15686275 0.15686275
0.23039216 0.23039216 0.23039216
0.28823529 0.28823529 0.28823529
0.3622549 0.3622549 0.3622549
0.46666667 0.46666667 0.46666667
0.07745098 0.07745098 0.07745098
0.077941176 0.077941176 0.077941176
0.1004902 0.1004902 0.1004902
0.13186275 0.13186275 0.13186275
0.18382353 0.18382353 0.18382353
0.2495098 0.2495098 0.2495098
0.30735294 0.30735294 0.30735294
0.37745098 0.37745098 0.37745098
0.4745098 0.4745098 0.4745098
0.1245098 0.1245098 0.1245098
0.13088235 0.13088235 0.13088235
0.12818627 0.12818627 0.12818627
0.16801471 0.16801471 0.16801471
0.22254902 0.22254902 0.22254902
0.27830882 0.27830882 0.27830882
0.32720588 0.32720588 0.32720588
0.40833333 0.40833333 0.40833333
0.50098039 0.50098039 0.50098039
0.19558824 0.19558824 0.19558824
0.20471814 0.20471814 0.20471814
0.21127451 0.21127451 0.21127451
0.2221201 0.2221201 0.2221201
0.26519608 0.26519608 0.26519608
0.31519608 0.31519608 0.31519608
0.37303922 0.37303922 0.37303922
0.45490196 0.45490196 0.45490196
0.53039216 0.53039216 0.53039216
0.28431373 0.28431373 0.28431373
0.29215686 0.29215686 0.29215686
0.30539216 0.30539216 0.30539216
0.31887255 0.31887255 0.31887255
0.31960784 0.31960784 0.31960784
0.34215686 0.34215686 0.34215686
0.41617647 0.41617647 0.41617647
0.51544118 0.51544118 0.51544118
0.60392157 0.60392157 0.60392157
0.39019608 0.39019608 0.39019608
0.39803922 0.39803922 0.39803922
0.41164216 0.41164216 0.41164216
0.4254902 0.4254902 0.4254902
0.42083333 0.42083333 0.42083333
0.42156863 0.42156863 0.42156863
0.46176471 0.46176471 0.46176471
0.56960784 0.56960784 0.56960784
0.65784314 0.65784314 0.65784314
0.51470588 0.51470588 0.51470588
0.52254902 0.52254902 0.52254902
0.5375 0.5375 0.5375
0.54852941 0.54852941 0.54852941
0.55392157 0.55392157 0.55392157
0.55992647 0.55992647 0.55992647
0.5745098 0.5745098 0.5745098
0.6254902 0.6254902 0.6254902
0.72745098 0.72745098 0.72745098
0.68480392 0.68480392 0.68480392
0.69656863 0.69656863 0.69656863
0.7004902 0.7004902 0.7004902
0.70079657 0.70079657 0.70079657
0.7122549 0.7122549 0.7122549
0.72028186 0.72028186 0.72028186
0.73578431 0.73578431 0.73578431
0.76029412 0.76029412 0.76029412
0.80147059 0.80147059 0.80147059
0.83137255 0.83137255 0.83137255
0.83921569 0.83921569 0.83921569
0.83529412 0.83529412 0.83529412
0.84313725 0.84313725 0.84313725
0.84901961 0.84901961 0.84901961
0.86666667 0.86666667 0.86666667
0.87058824 0.87058824 0.87058824
0.88676471 0.88676471 0.88676471
0.90196078 0.90196078 0.90196078
0.089215686 0.089215686 0.089215686
0.089215686 0.089215686 0.089215686
0.096568627 0.096568627 0.096568627
0.146875 0.146875 0.146875
0.19534314 0.19534314 0.19534314
0.25735294 0.25735294 0.25735294
0.31127451 0.31127451 0.31127451
0.38480392 0.38480392 0.38480392
0.47401961 0.47401961 0.47401961
0.097058824 0.097058824 0.097058824
0.10484835 0.10484835 0.10484835
0.13125 0.13125 0.13125
0.16991422 0.16991422 0.16991422
0.21295956 0.21295956 0.21295956
0.26866575 0.26866575 0.26866575
0.32651654 0.32651654 0.32651654
0.38829657 0.38829657 0.38829657
0.46966912 0.46966912 0.46966912
0.1504902 0.1504902 0.1504902
0.15306373 0.15306373 0.15306373
0.17331495 0.17331495 0.17331495
0.20490196 0.20490196 0.20490196
0.246875 0.246875 0.246875
0.29558824 0.29558824 0.29558824
0.3458027 0.3458027 0.3458027
0.41950061 0.41950061 0.41950061
0.50490196 0.50490196 0.50490196
0.22009804 0.22009804 0.22009804
0.22663143 0.22663143 0.22663143
0.23739277 0.23739277 0.23739277
0.24577206 0.24577206 0.24577206
0.28348652 0.28348652 0.28348652
0.33450521 0.33450521 0.33450521
0.39255515 0.39255515 0.39255515
0.47587316 0.47587316 0.47587316
0.54822304 0.54822304 0.54822304
0.30343137 0.30343137 0.30343137
0.31124387 0.31124387 0.31124387
0.31911765 0.31911765 0.31911765
0.33333333 0.33333333 0.33333333
0.34264706 0.34264706 0.34264706
0.36534926 0.36534926 0.36534926
0.43897059 0.43897059 0.43897059
0.52889093 0.52889093 0.52889093
0.62303922 0.62303922 0.62303922
0.40539216 0.40539216 0.40539216
0.41305147 0.41305147 0.41305147
0.42313113 0.42313113 0.42313113
0.43841146 0.43841146 0.43841146
0.43921569 0.43921569 0.43921569
0.43823529 0.43823529 0.43823529
0.47990196 0.47990196 0.47990196
0.57914369 0.57914369 0.57914369
0.67175245 0.67175245 0.67175245
0.52990196 0.52990196 0.52990196
0.53414522 0.53414522 0.53414522
0.54586397 0.54586397 0.54586397
0.55980392 0.55980392 0.55980392
0.56911765 0.56911765 0.56911765
0.57057292 0.57057292 0.57057292
0.58023897 0.58023897 0.58023897
0.62815564 0.62815564 0.62815564
0.72647059 0.72647059 0.72647059
0.69307598 0.69307598 0.69307598
0.69656863 0.69656863 0.69656863
0.70343137 0.70343137 0.70343137
0.71568627 0.71568627 0.71568627
0.72181373 0.72181373 0.72181373
0.72751225 0.72751225 0.72751225
0.73321078 0.73321078 0.73321078
0.75674786 0.75674786 0.75674786
0.79803922 0.79803922 0.79803922
0.84313725 0.84313725 0.84313725
0.85055147 0.85055147 0.85055147
0.84607843 0.84607843 0.84607843
0.85441176 0.85441176 0.85441176
0.85661765 0.85661765 0.85661765
0.87990196 0.87990196 0.87990196
0.87193627 0.87193627 0.87193627
0.89411765 0.89411765 0.89411765
0.90588235 0.90588235 0.90588235
0.14313725 0.14313725 0.14313725
0.14178922 0.14178922 0.14178922
0.15073529 0.15073529 0.15073529
0.19546569 0.19546569 0.19546569
0.24362745 0.24362745 0.24362745
0.29215686 0.29215686 0.29215686
0.35 0.35 0.35
0.41973039 0.41973039 0.41973039
0.48235294 0.48235294 0.48235294
0.1495098 0.1495098 0.1495098
0.16138174 0.16138174 0.16138174
0.17668505 0.17668505 0.17668505
0.20749081 0.20749081 0.20749081
0.25165441 0.25165441 0.25165441
0.29914216 0.29914216 0.29914216
0.35772059 0.35772059 0.35772059
0.4192402 0.4192402 0.4192402
0.47487745 0.47487745 0.47487745
0.1745098 0.1745098 0.1745098
0.18501838 0.18501838 0.18501838
0.21660539 0.21660539 0.21660539
0.2497549 0.2497549 0.2497549
0.2872549 0.2872549 0.2872549
0.33394608 0.33394608 0.33394608
0.38651961 0.38651961 0.38651961
0.45392157 0.45392157 0.45392157
0.52647059 0.52647059 0.52647059
0.26029412 0.26029412 0.26029412
0.25831801 0.25831801 0.25831801
0.27371324 0.27371324 0.27371324
0.29443934 0.29443934 0.29443934
0.32401961 0.32401961 0.32401961
0.37225797 0.37225797 0.37225797
0.43023897 0.43023897 0.43023897
0.50735294 0.50735294 0.50735294
0.5932598 0.5932598 0.5932598
0.34607843 0.34607843 0.34607843
0.34987745 0.34987745 0.34987745
0.35502451 0.35502451 0.35502451
0.36550245 0.36550245 0.36550245
0.3747549 0.3747549 0.3747549
0.41170343 0.41170343 0.41170343
0.47794118 0.47794118 0.47794118
0.56519608 0.56519608 0.56519608
0.64411765 0.64411765 0.64411765
0.43480392 0.43480392 0.43480392
0.44001225 0.44001225 0.44001225
0.44568015 0.44568015 0.44568015
0.45939032 0.45939032 0.45939032
0.4713848 0.4713848 0.4713848
0.48125 0.48125 0.48125
0.51617647 0.51617647 0.51617647
0.60980392 0.60980392 0.60980392
0.69031863 0.69031863 0.69031863
0.56397059 0.56397059 0.56397059
0.56764706 0.56764706 0.56764706
0.5747549 0.5747549 0.5747549
0.58394608 0.58394608 0.58394608
0.58823529 0.58823529 0.58823529
0.59938725 0.59938725 0.59938725
0.61158088 0.61158088 0.61158088
0.66087623 0.66087623 0.66087623
0.75 0.75 0.75
0.70833333 0.70833333 0.70833333
0.71257659 0.71257659 0.71257659
0.71691176 0.71691176 0.71691176
0.72794118 0.72794118 0.72794118
0.73707108 0.73707108 0.73707108
0.74656863 0.74656863 0.74656863
0.7504902 0.7504902 0.7504902
0.7627451 0.7627451 0.7627451
0.80147059 0.80147059 0.80147059
0.83529412 0.83529412 0.83529412
0.8439951 0.8439951 0.8439951
0.86323529 0.86323529 0.86323529
0.85637255 0.85637255 0.85637255
0.87745098 0.87745098 0.87745098
0.85845588 0.85845588 0.85845588
0.88210784 0.88210784 0.88210784
0.89803922 0.89803922 0.89803922
0.90196078 0.90196078 0.90196078
0.21127451 0.21127451 0.21127451
0.22647059 0.22647059 0.22647059
0.23982843 0.23982843 0.23982843
0.26470588 0.26470588 0.26470588
0.28921569 0.28921569 0.28921569
0.34117647 0.34117647 0.34117647
0.40392157 0.40392157 0.40392157
0.48069853 0.48069853 0.48069853
0.52892157 0.52892157 0.52892157
0.23823529 0.23823529 0.23823529
0.2495481 0.2495481 0.2495481
0.25784314 0.25784314 0.25784314
0.26551011 0.26551011 0.26551011
0.29534314 0.29534314 0.29534314
0.34871324 0.34871324 0.34871324
0.41433824 0.41433824 0.41433824
0.48431373 0.48431373 0.48431373
0.53903186 0.53903186 0.53903186
0.26519608 0.26519608 0.26519608
0.27696078 0.27696078 0.27696078
0.2877451 0.2877451 0.2877451
0.30758272 0.30758272 0.30758272
0.34068627 0.34068627 0.34068627
0.38033088 0.38033088 0.38033088
0.44117647 0.44117647 0.44117647
0.50686275 0.50686275 0.50686275
0.5814951 0.5814951 0.5814951
0.31568627 0.31568627 0.31568627
0.30650276 0.30650276 0.30650276
0.32388174 0.32388174 0.32388174
0.35700827 0.35700827 0.35700827
0.38943015 0.38943015 0.38943015
0.42992494 0.42992494 0.42992494
0.47843137 0.47843137 0.47843137
0.54676777 0.54676777 0.54676777
0.61758578 0.61758578 0.61758578
0.375 0.375 0.375
0.38431373 0.38431373 0.38431373
0.39730392 0.39730392 0.39730392
0.42181373 0.42181373 0.42181373
0.44607843 0.44607843 0.44607843
0.47230392 0.47230392 0.47230392
0.52303922 0.52303922 0.52303922
0.60606618 0.60606618 0.60606618
0.66127451 0.66127451 0.66127451
0.46231618 0.46231618 0.46231618
0.48491881 0.48491881 0.48491881
0.49208027 0.49208027 0.49208027
0.50435049 0.50435049 0.50435049
0.52150735 0.52150735 0.52150735
0.52303922 0.52303922 0.52303922
0.57257966 0.57257966 0.57257966
0.65863205 0.65863205 0.65863205
0.73235294 0.73235294 0.73235294
0.59742647 0.59742647 0.59742647
0.60491728 0.60491728 0.60491728
0.61393995 0.61393995 0.61393995
0.62081801 0.62081801 0.62081801
0.63290441 0.63290441 0.63290441
0.64036458 0.64036458 0.64036458
0.65294118 0.65294118 0.65294118
0.69852941 0.69852941 0.69852941
0.75686275 0.75686275 0.75686275
0.72990196 0.72990196 0.72990196
0.73731618 0.73731618 0.73731618
0.74987745 0.74987745 0.74987745
0.75343137 0.75343137 0.75343137
0.76519608 0.76519608 0.76519608
0.77058824 0.77058824 0.77058824
0.78200061 0.78200061 0.78200061
0.79656863 0.79656863 0.79656863
0.80588235 0.80588235 0.80588235
0.8495098 0.8495098 0.8495098
0.85863971 0.85863971 0.85863971
0.86556373 0.86556373 0.86556373
0.86035539 0.86035539 0.86035539
0.88284314 0.88284314 0.88284314
0.89767157 0.89767157 0.89767157
0.89117647 0.89117647 0.89117647
0.89344363 0.89344363 0.89344363
0.90980392 0.90980392 0.90980392
0.31960784 0.31960784 0.31960784
0.3254902 0.3254902 0.3254902
0.33088235 0.33088235 0.33088235
0.35735294 0.35735294 0.35735294
0.37156863 0.37156863 0.37156863
0.39117647 0.39117647 0.39117647
0.4754902 0.4754902 0.4754902
0.55612745 0.55612745 0.55612745
0.63137255 0.63137255 0.63137255
0.33480392 0.33480392 0.33480392
0.34828431 0.34828431 0.34828431
0.35441176 0.35441176 0.35441176
0.36617647 0.36617647 0.36617647
0.37720588 0.37720588 0.37720588
0.39852941 0.39852941 0.39852941
0.48504902 0.48504902 0.48504902
0.55983456 0.55983456 0.55983456
0.6254902 0.6254902 0.6254902
0.3754902 0.3754902 0.3754902
0.38198529 0.38198529 0.38198529
0.38713235 0.38713235 0.38713235
0.40098039 0.40098039 0.40098039
0.40882353 0.40882353 0.40882353
0.43333333 0.43333333 0.43333333
0.50710784 0.50710784 0.50710784
0.57910539 0.57910539 0.57910539
0.64803922 0.64803922 0.64803922
0.39852941 0.39852941 0.39852941
0.40775123 0.40775123 0.40775123
0.42156863 0.42156863 0.42156863
0.43550858 0.43550858 0.43550858
0.45330882 0.45330882 0.45330882
0.48207721 0.48207721 0.48207721
0.5375 0.5375 0.5375
0.61063113 0.61063113 0.61063113
0.66544118 0.66544118 0.66544118
0.41078431 0.41078431 0.41078431
0.43088235 0.43088235 0.43088235
0.45098039 0.45098039 0.45098039
0.47401961 0.47401961 0.47401961
0.50784314 0.50784314 0.50784314
0.54926471 0.54926471 0.54926471
0.59289216 0.59289216 0.59289216
0.64877451 0.64877451 0.64877451
0.69901961 0.69901961 0.69901961
0.48897059 0.48897059 0.48897059
0.5143076 0.5143076 0.5143076
0.52640931 0.52640931 0.52640931
0.5583027 0.5583027 0.5583027
0.57892157 0.57892157 0.57892157
0.60441176 0.60441176 0.60441176
0.63780637 0.63780637 0.63780637
0.70735294 0.70735294 0.70735294
0.76176471 0.76176471 0.76176471
0.62990196 0.62990196 0.62990196
0.63897059 0.63897059 0.63897059
0.64889706 0.64889706 0.64889706
0.66525735 0.66525735 0.66525735
0.67990196 0.67990196 0.67990196
0.68676471 0.68676471 0.68676471
0.70441176 0.70441176 0.70441176
0.74748775 0.74748775 0.74748775
0.79362745 0.79362745 0.79362745
0.76102941 0.76102941 0.76102941
0.76102941 0.76102941 0.76102941
0.76599265 0.76599265 0.76599265
0.78030025 0.78030025 0.78030025
0.79191176 0.79191176 0.79191176
0.79592525 0.79592525 0.79592525
0.80465686 0.80465686 0.80465686
0.8252451 0.8252451 0.8252451
0.84460784 0.84460784 0.84460784
0.8745098 0.8745098 0.8745098
0.875 0.875 0.875
0.87107843 0.87107843 0.87107843
0.88823529 0.88823529 0.88823529
0.89117647 0.89117647 0.89117647
0.9004902 0.9004902 0.9004902
0.90588235 0.90588235 0.90588235
0.91348039 0.91348039 0.91348039
0.92941176 0.92941176 0.92941176
0.4504902 0.4504902 0.4504902
0.45686275 0.45686275 0.45686275
0.44901961 0.44901961 0.44901961
0.465625 0.465625 0.465625
0.48039216 0.48039216 0.48039216
0.49454657 0.49454657 0.49454657
0.53039216 0.53039216 0.53039216
0.61096814 0.61096814 0.61096814
0.69705882 0.69705882 0.69705882
0.46568627 0.46568627 0.46568627
0.47224265 0.47224265 0.47224265
0.46783088 0.46783088 0.46783088
0.48223805 0.48223805 0.48223805
0.49175858 0.49175858 0.49175858
0.50343137 0.50343137 0.50343137
0.52598039 0.52598039 0.52598039
0.6187883 0.6187883 0.6187883
0.71421569 0.71421569 0.71421569
0.50294118 0.50294118 0.50294118
0.5069087 0.5069087 0.5069087
0.50686275 0.50686275 0.50686275
0.51757047 0.51757047 0.51757047
0.52254902 0.52254902 0.52254902
0.52647059 0.52647059 0.52647059
0.55520833 0.55520833 0.55520833
0.64143689 0.64143689 0.64143689
0.72990196 0.72990196 0.72990196
0.52653186 0.52653186 0.52653186
0.53743873 0.53743873 0.53743873
0.54105392 0.54105392 0.54105392
0.55138634 0.55138634 0.55138634
0.55735294 0.55735294 0.55735294
0.56427696 0.56427696 0.56427696
0.59989277 0.59989277 0.59989277
0.67879136 0.67879136 0.67879136
0.74803922 0.74803922 0.74803922
0.53284314 0.53284314 0.53284314
0.54941789 0.54941789 0.54941789
0.55655637 0.55655637 0.55655637
0.57846201 0.57846201 0.57846201
0.59803922 0.59803922 0.59803922
0.62202819 0.62202819 0.62202819
0.65949755 0.65949755 0.65949755
0.71305147 0.71305147 0.71305147
0.76446078 0.76446078 0.76446078
0.55091912 0.55091912 0.55091912
0.57186734 0.57186734 0.57186734
0.57536765 0.57536765 0.57536765
0.60475643 0.60475643 0.60475643
0.6372549 0.6372549 0.6372549
0.67943474 0.67943474 0.67943474
0.71012561 0.71012561 0.71012561
0.75814951 0.75814951 0.75814951
0.80140931 0.80140931 0.80140931
0.63529412 0.63529412 0.63529412
0.63529412 0.63529412 0.63529412
0.65894608 0.65894608 0.65894608
0.688894 0.688894 0.688894
0.71323529 0.71323529 0.71323529
0.74829963 0.74829963 0.74829963
0.77215074 0.77215074 0.77215074
0.79590993 0.79590993 0.79590993
0.84497549 0.84497549 0.84497549
0.76666667 0.76666667 0.76666667
0.76685049 0.76685049 0.76685049
0.77789522 0.77789522 0.77789522
0.80410539 0.80410539 0.80410539
0.8245098 0.8245098 0.8245098
0.83645833 0.83645833 0.83645833
0.84397978 0.84397978 0.84397978
0.86203278 0.86203278 0.86203278
0.88069853 0.88069853 0.88069853
0.8745098 0.8745098 0.8745098
0.88578431 0.88578431 0.88578431
0.89411765 0.89411765 0.89411765
0.89803922 0.89803922 0.89803922
0.90196078 0.90196078 0.90196078
0.90036765 0.90036765 0.90036765
0.91188725 0.91188725 0.91188725
0.93106618 0.93106618 0.93106618
0.93333333 0.93333333 0.93333333
0.60490196 0.60490196 0.60490196
0.60882353 0.60882353 0.60882353
0.60490196 0.60490196 0.60490196
0.6127451 0.6127451 0.6127451
0.61666667 0.61666667 0.61666667
0.63345588 0.63345588 0.63345588
0.64485294 0.64485294 0.64485294
0.66323529 0.66323529 0.66323529
0.7627451 0.7627451 0.7627451
0.62009804 0.62009804 0.62009804
0.62058824 0.62058824 0.62058824
0.6127451 0.6127451 0.6127451
0.62611826 0.62611826 0.62611826
0.63204657 0.63204657 0.63204657
0.64019608 0.64019608 0.64019608
0.64411765 0.64411765 0.64411765
0.65968137 0.65968137 0.65968137
0.75441176 0.75441176 0.75441176
0.63921569 0.63921569 0.63921569
0.64215686 0.64215686 0.64215686
0.6408701 0.6408701 0.6408701
0.65061275 0.65061275 0.65061275
0.65637255 0.65637255 0.65637255
0.6627451 0.6627451 0.6627451
0.66666667 0.66666667 0.66666667
0.68054534 0.68054534 0.68054534
0.75294118 0.75294118 0.75294118
0.6622549 0.6622549 0.6622549
0.6649663 0.6649663 0.6649663
0.66911765 0.66911765 0.66911765
0.67303922 0.67303922 0.67303922
0.68480392 0.68480392 0.68480392
0.69370404 0.69370404 0.69370404
0.69822304 0.69822304 0.69822304
0.73118873 0.73118873 0.73118873
0.7995098 0.7995098 0.7995098
0.67892157 0.67892157 0.67892157
0.68278186 0.68278186 0.68278186
0.68982843 0.68982843 0.68982843
0.7 0.7 0.7
0.71642157 0.71642157 0.71642157
0.72745098 0.72745098 0.72745098
0.72855392 0.72855392 0.72855392
0.76348039 0.76348039 0.76348039
0.83137255 0.83137255 0.83137255
0.69448529 0.69448529 0.69448529
0.69411765 0.69411765 0.69411765
0.69960172 0.69960172 0.69960172
0.72064951 0.72064951 0.72064951
0.7375 0.7375 0.7375
0.75274203 0.75274203 0.75274203
0.77104779 0.77104779 0.77104779
0.7977788 0.7977788 0.7977788
0.8504902 0.8504902 0.8504902
0.71372549 0.71372549 0.71372549
0.71470588 0.71470588 0.71470588
0.71004902 0.71004902 0.71004902
0.73517157 0.73517157 0.73517157
0.75919118 0.75919118 0.75919118
0.77867647 0.77867647 0.77867647
0.81721814 0.81721814 0.81721814
0.84754902 0.84754902 0.84754902
0.88504902 0.88504902 0.88504902
0.78676471 0.78676471 0.78676471
0.78627451 0.78627451 0.78627451
0.7950674 0.7950674 0.7950674
0.81194853 0.81194853 0.81194853
0.83566176 0.83566176 0.83566176
0.86043199 0.86043199 0.86043199
0.88538603 0.88538603 0.88538603
0.89607843 0.89607843 0.89607843
0.8995098 0.8995098 0.8995098
0.85784314 0.85784314 0.85784314
0.8682598 0.8682598 0.8682598
0.88529412 0.88529412 0.88529412
0.90098039 0.90098039 0.90098039
0.90392157 0.90392157 0.90392157
0.93517157 0.93517157 0.93517157
0.93897059 0.93897059 0.93897059
0.94901961 0.94901961 0.94901961
0.94607843 0.94607843 0.94607843
0.75490196 0.75490196 0.75490196
0.7627451 0.7627451 0.7627451
0.7627451 0.7627451 0.7627451
0.76323529 0.76323529 0.76323529
0.76127451 0.76127451 0.76127451
0.77205882 0.77205882 0.77205882
0.78370098 0.78370098 0.78370098
0.79025735 0.79025735 0.79025735
0.81764706 0.81764706 0.81764706
0.76323529 0.76323529 0.76323529
0.76753217 0.76753217 0.76753217
0.76666667 0.76666667 0.76666667
0.7745098 0.7745098 0.7745098
0.77472426 0.77472426 0.77472426
0.77886029 0.77886029 0.77886029
0.78627451 0.78627451 0.78627451
0.79374234 0.79374234 0.79374234
0.80245098 0.80245098 0.80245098
0.7745098 0.7745098 0.7745098
0.77757353 0.77757353 0.77757353
0.7814951 0.7814951 0.7814951
0.7817402 0.7817402 0.7817402
0.78314951 0.78314951 0.78314951
0.79015012 0.79015012 0.79015012
0.79411765 0.79411765 0.79411765
0.79803922 0.79803922 0.79803922
0.79264706 0.79264706 0.79264706
0.79656863 0.79656863 0.79656863
0.79656863 0.79656863 0.79656863
0.80196078 0.80196078 0.80196078
0.79882813 0.79882813 0.79882813
0.80833333 0.80833333 0.80833333
0.81206342 0.81206342 0.81206342
0.81367953 0.81367953 0.81367953
0.81568627 0.81568627 0.81568627
0.8372549 0.8372549 0.8372549
0.81372549 0.81372549 0.81372549
0.81519608 0.81519608 0.81519608
0.81495098 0.81495098 0.81495098
0.81559436 0.81559436 0.81559436
0.82806373 0.82806373 0.82806373
0.83480392 0.83480392 0.83480392
0.83529412 0.83529412 0.83529412
0.84093137 0.84093137 0.84093137
0.87352941 0.87352941 0.87352941
0.81715686 0.81715686 0.81715686
0.82156863 0.82156863 0.82156863
0.82838542 0.82838542 0.82838542
0.83295803 0.83295803 0.83295803
0.84460784 0.84460784 0.84460784
0.85011489 0.85011489 0.85011489
0.86162684 0.86162684 0.86162684
0.86519608 0.86519608 0.86519608
0.87518382 0.87518382 0.87518382
0.82647059 0.82647059 0.82647059
0.8290288 0.8290288 0.8290288
0.83287377 0.83287377 0.83287377
0.83547794 0.83547794 0.83547794
0.85294118 0.85294118 0.85294118
0.86237745 0.86237745 0.86237745
0.88921569 0.88921569 0.88921569
0.90392157 0.90392157 0.90392157
0.91531863 0.91531863 0.91531863
0.84068627 0.84068627 0.84068627
0.84074755 0.84074755 0.84074755
0.84422488 0.84422488 0.84422488
0.85351563 0.85351563 0.85351563
0.87276348 0.87276348 0.87276348
0.88878676 0.88878676 0.88878676
0.92745098 0.92745098 0.92745098
0.93436734 0.93436734 0.93436734
0.93866422 0.93866422 0.93866422
0.87941176 0.87941176 0.87941176
0.84417892 0.84417892 0.84417892
0.90098039 0.90098039 0.90098039
0.90030637 0.90030637 0.90030637
0.90245098 0.90245098 0.90245098
0.92303922 0.92303922 0.92303922
0.9495098 0.9495098 0.9495098
0.96127451 0.96127451 0.96127451
0.96519608 0.96519608 0.96519608
0.88627451 0.88627451 0.88627451
0.87843137 0.87843137 0.87843137
0.88823529 0.88823529 0.88823529
0.85833333 0.85833333 0.85833333
0.89607843 0.89607843 0.89607843
0.89166667 0.89166667 0.89166667
0.89411765 0.89411765 0.89411765
0.89460784 0.89460784 0.89460784
0.90588235 0.90588235 0.90588235
0.88676471 0.88676471 0.88676471
0.88976716 0.88976716 0.88976716
0.87463235 0.87463235 0.87463235
0.85441176 0.85441176 0.85441176
0.87867647 0.87867647 0.87867647
0.8995098 0.8995098 0.8995098
0.90147059 0.90147059 0.90147059
0.90196078 0.90196078 0.90196078
0.92107843 0.92107843 0.92107843
0.89313725 0.89313725 0.89313725
0.89791667 0.89791667 0.89791667
0.88039216 0.88039216 0.88039216
0.88137255 0.88137255 0.88137255
0.88921569 0.88921569 0.88921569
0.90208333 0.90208333 0.90208333
0.90588235 0.90588235 0.90588235
0.89767157 0.89767157 0.89767157
0.89117647 0.89117647 0.89117647
0.90588235 0.90588235 0.90588235
0.89656863 0.89656863 0.89656863
0.90343137 0.90343137 0.90343137
0.90196078 0.90196078 0.90196078
0.9 0.9 0.9
0.90588235 0.90588235 0.90588235
0.90134804 0.90134804 0.90134804
0.90618873 0.90618873 0.90618873
0.89509804 0.89509804 0.89509804
0.91372549 0.91372549 0.91372549
0.90465686 0.90465686 0.90465686
0.89509804 0.89509804 0.89509804
0.91421569 0.91421569 0.91421569
0.91960784 0.91960784 0.91960784
0.91102941 0.91102941 0.91102941
0.90196078 0.90196078 0.90196078
0.90833333 0.90833333 0.90833333
0.93529412 0.93529412 0.93529412
0.91911765 0.91911765 0.91911765
0.91519608 0.91519608 0.91519608
0.92156863 0.92156863 0.92156863
0.9254902 0.9254902 0.9254902
0.92426471 0.92426471 0.92426471
0.91856618 0.91856618 0.91856618
0.91127451 0.91127451 0.91127451
0.91960784 0.91960784 0.91960784
0.94509804 0.94509804 0.94509804
0.92647059 0.92647059 0.92647059
0.92647059 0.92647059 0.92647059
0.9254902 0.9254902 0.9254902
0.91936275 0.91936275 0.91936275
0.9377451 0.9377451 0.9377451
0.94178922 0.94178922 0.94178922
0.94607843 0.94607843 0.94607843
0.94607843 0.94607843 0.94607843
0.94803922 0.94803922 0.94803922
0.9372549 0.9372549 0.9372549
0.91415441 0.91415441 0.91415441
0.93382353 0.93382353 0.93382353
0.94362745 0.94362745 0.94362745
0.94509804 0.94509804 0.94509804
0.93039216 0.93039216 0.93039216
0.96470588 0.96470588 0.96470588
0.96911765 0.96911765 0.96911765
0.97303922 0.97303922 0.97303922
0.94901961 0.94901961 0.94901961
0.94117647 0.94117647 0.94117647
0.95196078 0.95196078 0.95196078
0.94117647 0.94117647 0.94117647
0.94901961 0.94901961 0.94901961
0.96715686 0.96715686 0.96715686
0.96470588 0.96470588 0.96470588
0.97696078 0.97696078 0.97696078
0.99607843 0.99607843 0.99607843
