site/assets/luts/natron-haldclut--faded--a0b01eda6.cube
# LUTr-Project: LUTr — LUTrepository
# LUTr-Schema-Version: 1
# LUTr-ID: natron-haldclut--faded--a0b01eda6
# LUTr-Title: faded
# LUTr-Collection: Natron HaldCLUT
# LUTr-Collection-ID: natron-haldclut-presets
# LUTr-Source: https://github.com/NatronGitHub/clut
# LUTr-Source-File: submissions/natron-haldclut-presets/various/faded.png
# LUTr-Source-Format: PNG
# LUTr-Source-SHA256: fd81c3478c1fbf7698d4032ca7ee304e3bf41d0110382ebb3c737a726f84554d
# LUTr-License: CC-BY-SA-4.0
# LUTr-License-URL: https://github.com/NatronGitHub/clut#license
# LUTr-Tags: creative, film, film-emulation, hald-clut, natron, png, vintage, cube
# LUTr-Transform-Class: film-emulation
# LUTr-Input-Color-Space: srgb
# LUTr-Output-Color-Space: srgb
# LUTr-Color-Space-Confidence: assumed-display-referred
# LUTr-Conversion-Method: PNG LUT image decoded at 16-bit and sampled to 25x25x25 3D CUBE
# LUTr-Conversion-Date: 2026-07-27
# LUTr-Conversion-Tool: LUTr scripts/convert-all-to-cube.mjs
# LUTr-Conversion-Grid: 25x25x25
# LUTr-Note: Preserve this metadata and the upstream license notices when redistributing.
TITLE "faded"
LUT_3D_SIZE 5
DOMAIN_MIN 0 0 0
DOMAIN_MAX 1 1 1
0.011764706 0.011764706 0.035294118
0.13137255 0.035294118 0.035294118
0.28039216 0.064705882 0.080392157
0.45 0.091176471 0.10196078
0.58431373 0.11372549 0.11764706
0.089215686 0.20490196 0.089215686
0.23921569 0.24215686 0.13431373
0.4 0.275 0.1627451
0.59215686 0.3254902 0.21985294
0.7245098 0.36862745 0.26568627
0.26470588 0.48627451 0.26078431
0.37745098 0.51519608 0.26176471
0.55882353 0.56568627 0.31666667
0.71568627 0.60098039 0.35539216
0.81176471 0.62745098 0.39803922
0.35588235 0.71666667 0.36764706
0.5245098 0.7627451 0.4254902
0.69019608 0.78921569 0.44852941
0.81789216 0.82181373 0.47156863
0.90980392 0.84117647 0.51960784
0.48627451 0.90588235 0.49019608
0.59803922 0.8627451 0.4745098
0.78823529 0.9372549 0.58823529
0.89411765 0.95588235 0.60882353
0.96862745 0.97647059 0.65098039
0.0068627451 0.0068627451 0.098039216
0.15098039 0.056862745 0.14803922
0.28627451 0.071078431 0.17303922
0.46176471 0.11838235 0.20686275
0.65098039 0.15294118 0.25294118
0.1245098 0.22034314 0.21666667
0.24926471 0.25153186 0.25392157
0.41960784 0.29448529 0.29448529
0.59197304 0.34491422 0.32922794
0.73529412 0.36862745 0.36764706
0.23529412 0.48186275 0.3504902
0.38492647 0.51862745 0.39117647
0.56470588 0.56862745 0.43676471
0.72352941 0.61262255 0.47720588
0.8372549 0.6504902 0.51764706
0.36666667 0.72941176 0.49338235
0.53572304 0.76666667 0.53535539
0.6995098 0.79865196 0.58161765
0.82720588 0.82512255 0.61648284
0.91862745 0.85294118 0.65490196
0.48823529 0.89411765 0.62156863
0.66004902 0.91372549 0.66176471
0.78186275 0.92107843 0.68823529
0.8879902 0.94117647 0.71666667
0.97745098 0.97352941 0.77941176
0.029411765 0.02745098 0.22941176
0.15490196 0.057843137 0.26960784
0.31470588 0.1 0.31470588
0.47303922 0.10980392 0.34117647
0.63137255 0.15294118 0.38039216
0.12745098 0.22745098 0.34705882
0.26568627 0.26973039 0.39117647
0.42990196 0.3125 0.43480392
0.6127451 0.35772059 0.47855392
0.74313725 0.38823529 0.51911765
0.24313725 0.49117647 0.48921569
0.41421569 0.53872549 0.54411765
0.58137255 0.58235294 0.59068627
0.73921569 0.62009804 0.62132353
0.85294118 0.65686275 0.65882353
0.40245098 0.74460784 0.64901961
0.55441176 0.77732843 0.67941176
0.71151961 0.8125 0.71911765
0.83504902 0.83504902 0.74669118
0.91470588 0.85196078 0.77254902
0.49215686 0.88823529 0.73137255
0.67009804 0.91960784 0.7745098
0.79705882 0.9372549 0.79803922
0.90294118 0.95147059 0.83039216
0.95882353 0.97254902 0.85686275
0.038235294 0.045098039 0.36960784
0.16666667 0.07377451 0.40906863
0.31960784 0.1 0.44411765
0.49313725 0.12965686 0.49240196
0.63921569 0.15294118 0.53137255
0.16666667 0.25196078 0.50588235
0.27058824 0.27916667 0.54730392
0.44632353 0.32316176 0.58394608
0.62132353 0.36642157 0.6245098
0.76348039 0.40073529 0.66568627
0.24852941 0.50441176 0.63578431
0.41862745 0.54301471 0.67941176
0.59093137 0.59362745 0.71911765
0.74411765 0.63627451 0.75196078
0.85490196 0.67058824 0.77794118
0.3997549 0.74411765 0.75686275
0.57156863 0.78278186 0.79375
0.72745098 0.82254902 0.82561275
0.84344363 0.84552696 0.83958333
0.91862745 0.85784314 0.86176471
0.54117647 0.89019608 0.8372549
0.66960784 0.9129902 0.86372549
0.80441176 0.94705882 0.88921569
0.91102941 0.96568627 0.91176471
0.96862745 0.97254902 0.92254902
0.074509804 0.074509804 0.45098039
0.16568627 0.065686275 0.54509804
0.32352941 0.096078431 0.57254902
0.50098039 0.1372549 0.61372549
0.64705882 0.16470588 0.62352941
0.14705882 0.25098039 0.65294118
0.29313725 0.29240196 0.66862745
0.46568627 0.33921569 0.71470588
0.63602941 0.37647059 0.73627451
0.78235294 0.41568627 0.7745098
0.30392157 0.5254902 0.74705882
0.42843137 0.55245098 0.7495098
0.60980392 0.60980392 0.80294118
0.75441176 0.63578431 0.84117647
0.84705882 0.66666667 0.85686275
0.41470588 0.74901961 0.84019608
0.57941176 0.79191176 0.87083333
0.73529412 0.82843137 0.89117647
0.85318627 0.84705882 0.90686275
0.92254902 0.86176471 0.93039216
0.54901961 0.89411765 0.91372549
0.69607843 0.94117647 0.94117647
0.82745098 0.96078431 0.94901961
0.91862745 0.97647059 0.97156863
0.97647059 0.98039216 0.96470588
