site/assets/luts/natron-haldclut--kodak-elite-extracolor-100--3e08e0038.cube
# LUTr-Project: LUTr — LUTrepository
# LUTr-Schema-Version: 1
# LUTr-ID: natron-haldclut--kodak-elite-extracolor-100--3e08e0038
# LUTr-Title: kodak elite extracolor 100
# LUTr-Collection: Natron HaldCLUT
# LUTr-Collection-ID: natron-haldclut-presets
# LUTr-Source: https://github.com/NatronGitHub/clut
# LUTr-Source-File: submissions/natron-haldclut-presets/colorslide/kodak_elite_extracolor_100.png
# LUTr-Source-Format: PNG
# LUTr-Source-SHA256: c49d2be5f9e140e58780df6577be341f8fdefbf4d92b212daa0ffd0dcd534d75
# LUTr-License: CC-BY-SA-4.0
# LUTr-License-URL: https://github.com/NatronGitHub/clut#license
# LUTr-Tags: creative, film, film-emulation, hald-clut, natron, png, cube
# LUTr-Transform-Class: film-emulation
# LUTr-Input-Color-Space: srgb
# LUTr-Output-Color-Space: srgb
# LUTr-Color-Space-Confidence: assumed-display-referred
# LUTr-Conversion-Method: PNG LUT image decoded at 16-bit and sampled to 25x25x25 3D CUBE
# LUTr-Conversion-Date: 2026-07-27
# LUTr-Conversion-Tool: LUTr scripts/convert-all-to-cube.mjs
# LUTr-Conversion-Grid: 25x25x25
# LUTr-Note: Preserve this metadata and the upstream license notices when redistributing.
TITLE "kodak elite extracolor 100"
LUT_3D_SIZE 9
DOMAIN_MIN 0 0 0
DOMAIN_MAX 1 1 1
0 0 0
0.1004902 0.02745098 0.012254902
0.1745098 0.019607843 0.030392157
0.26862745 0.0093137255 0.025
0.39607843 0 0.0039215686
0.54166667 0 0.0039215686
0.63431373 0 0.011764706
0.73872549 0 0.0039215686
0.83137255 0 0
0.10098039 0.10441176 0.026960784
0.12352941 0.10006127 0.022977941
0.20833333 0.08872549 0.020098039
0.30098039 0.076960784 0.015502451
0.41911765 0.062990196 0.015686275
0.54920343 0.032352941 0.0099877451
0.6495098 0.006495098 0.0042892157
0.74607843 0.0038602941 0.00042892157
0.82794118 0 0
0.12156863 0.20882353 0.065686275
0.15931373 0.20012255 0.062132353
0.23137255 0.19215686 0.066666667
0.33039216 0.1807598 0.051102941
0.44607843 0.15490196 0.030392157
0.56960784 0.12107843 0.022058824
0.67965686 0.089215686 0.010784314
0.76127451 0.035294118 0.0039215686
0.83431373 0.0039215686 0
0.13970588 0.33382353 0.096568627
0.18578431 0.32990196 0.1004902
0.26862745 0.32205882 0.092647059
0.37156863 0.31029412 0.083272059
0.49901961 0.29460784 0.070343137
0.61715686 0.26568627 0.054411765
0.72977941 0.23088235 0.025980392
0.81372549 0.17598039 0.0078431373
0.86911765 0.10735294 0.0039215686
0.16666667 0.49803922 0.12352941
0.22009804 0.49803922 0.11593137
0.30686275 0.4872549 0.11421569
0.41960784 0.4752451 0.10784314
0.55294118 0.47058824 0.10098039
0.68431373 0.45147059 0.082843137
0.78333333 0.40980392 0.055882353
0.86985294 0.36029412 0.028921569
0.9254902 0.31176471 0.011764706
0.21323529 0.65980392 0.1254902
0.26599265 0.6622549 0.10098039
0.35294118 0.65833333 0.10232843
0.47401961 0.65588235 0.10140931
0.61544118 0.65588235 0.084068627
0.74852941 0.64264706 0.06127451
0.84509804 0.60147059 0.06127451
0.92598039 0.55882353 0.040870098
0.99607843 0.52009804 0.0053921569
0.29705882 0.8127451 0.080392157
0.34227941 0.81531863 0.057352941
0.42352941 0.81960784 0.053676471
0.55355392 0.82352941 0.045098039
0.68823529 0.82009804 0.034313725
0.80183824 0.8127451 0.034313725
0.90196078 0.79926471 0.031127451
0.9870098 0.76973039 0.022181373
0.99607843 0.74803922 0.011764706
0.38578431 0.95490196 0.014705882
0.43970588 0.93186275 0.014705882
0.51666667 0.91948529 0.023039216
0.6245098 0.93480392 0.0039215686
0.73039216 0.94681373 0.0073529412
0.84197304 0.94705882 0.01127451
0.94068627 0.94227941 0.0077205882
0.98431373 0.92401961 0.0078431373
0.99607843 0.92009804 0.0078431373
0.5254902 1 0
0.55980392 0.99264706 0
0.61372549 0.99215686 0
0.69362745 0.99215686 0
0.79607843 0.99411765 0
0.88921569 0.99607843 0
0.95392157 0.99607843 0
0.98088235 0.99558824 0
0.99607843 0.99607843 0
0.028431373 0.012254902 0.081372549
0.069607843 0.0078431373 0.073529412
0.15539216 0.0087009804 0.066544118
0.26078431 0.0078431373 0.061764706
0.38676471 0.0039215686 0.051715686
0.52775735 0 0.034313725
0.63823529 0 0.016544118
0.73480392 0 0.022977941
0.82058824 0 0.015196078
0.070588235 0.10441176 0.10006127
0.11144301 0.096997549 0.096568627
0.18916973 0.08872549 0.092279412
0.28952206 0.078431373 0.082437194
0.41323529 0.061488971 0.066942402
0.54295343 0.040050551 0.044278493
0.64558824 0.017769608 0.023789828
0.73915441 0.0031173407 0.022173713
0.8245098 0 0.015196078
0.10931373 0.20882353 0.12352941
0.1471201 0.20098039 0.12352941
0.22352941 0.18848039 0.11740196
0.32254902 0.17683824 0.10784314
0.44215686 0.16237745 0.090625
0.56576287 0.12892157 0.067156863
0.6794424 0.092156863 0.036488971
0.76007966 0.03393076 0.017156863
0.82806373 0.010784314 0.0099264706
0.13363971 0.3377451 0.15067402
0.17408088 0.32745098 0.14656863
0.25258885 0.320144 0.13877145
0.36379442 0.31550245 0.13461244
0.49402574 0.3015625 0.11470588
0.62254902 0.27567402 0.088855699
0.72334559 0.22659314 0.065548407
0.80980392 0.17608762 0.03995098
0.86783088 0.10098039 0.01127451
0.16102941 0.49411765 0.15637255
0.20297181 0.49803922 0.15245098
0.29227941 0.49589461 0.14846814
0.40808824 0.48627451 0.13789828
0.54718137 0.46960784 0.12879902
0.68039216 0.44803922 0.11764706
0.77941176 0.40196078 0.092830882
0.87156863 0.36155025 0.06372549
0.93333333 0.28627451 0.021078431
0.20147059 0.67156863 0.14283088
0.24574908 0.66991422 0.14001225
0.33737745 0.66573223 0.14220282
0.46483609 0.66049326 0.1245098
0.60646446 0.6513174 0.11390931
0.74246324 0.63939185 0.11176471
0.84122243 0.60931373 0.095940564
0.92941176 0.57326134 0.069117647
0.98952206 0.51764706 0.03872549
0.2817402 0.81568627 0.095220588
0.32389706 0.81654412 0.077022059
0.40698529 0.81654412 0.08471201
0.5426011 0.81412377 0.052619485
0.66911765 0.8127451 0.04810049
0.79183517 0.80882353 0.04754902
0.89610907 0.79414828 0.044699755
0.98981311 0.77757353 0.029733456
0.99215686 0.76029412 0.034681373
0.37892157 0.94607843 0.0043504902
0.42107843 0.93468903 0.0034926471
0.50392157 0.93823529 0.012622549
0.61930147 0.93115043 0
0.73259804 0.93480392 0.0078125
0.83300398 0.934375 0.0036534926
0.93273591 0.92864583 0.014338235
0.99302237 0.92664675 0.0074678309
0.99607843 0.92401961 0.01127451
0.51323529 0.99558824 0
0.54503676 0.99607843 0.0039215686
0.61666667 0.99607843 0
0.70490196 0.99577206 0
0.80367647 0.99607843 0
0.89050245 0.99031863 0
0.96519608 0.99215686 0
0.99564951 1 0
1 0.9995098 0
0.0078431373 0.011764706 0.16176471
0.058823529 0.015686275 0.15784314
0.1375 0.0078431373 0.14240196
0.24938725 0.0020833333 0.13247549
0.37352941 0 0.12107843
0.50784314 0.0039215686 0.11078431
0.63137255 0.0068627451 0.098039216
0.72696078 0 0.064338235
0.80784314 0 0.05
0.03872549 0.10833333 0.18088235
0.09754902 0.1004902 0.17863051
0.16985294 0.092647059 0.1736826
0.27316176 0.078737745 0.15772059
0.4004902 0.065196078 0.13823529
0.52193627 0.037622549 0.11897978
0.63201593 0.0097426471 0.098682598
0.72696078 0.0025735294 0.072273284
0.80784314 0.0039215686 0.056495098
0.10490196 0.20490196 0.2002451
0.13235294 0.2033701 0.20003064
0.19650735 0.19571078 0.2
0.30784314 0.18039216 0.18887868
0.43529412 0.1627451 0.16666667
0.55618873 0.12892157 0.14362745
0.66807598 0.093321078 0.12058824
0.74644608 0.039215686 0.090594363
0.82254902 0.0125 0.060784314
0.1 0.33382353 0.23088235
0.14381127 0.33003983 0.22512255
0.23370098 0.32552083 0.21976103
0.34947917 0.31421569 0.20634191
0.48351716 0.3004902 0.18939951
0.61176471 0.27352941 0.16708027
0.71764706 0.22879902 0.14754902
0.79643076 0.170144 0.11752451
0.86078431 0.098897059 0.076470588
0.11372549 0.49019608 0.25196078
0.16617647 0.49148284 0.24215686
0.26188725 0.49803922 0.23835784
0.39221814 0.4870098 0.22843137
0.53406863 0.46862745 0.21495098
0.66942402 0.44656863 0.19264706
0.77169118 0.41029412 0.16911765
0.8598652 0.36905637 0.14754902
0.92303922 0.30098039 0.10735294
0.13737745 0.67046569 0.25098039
0.1995098 0.67401961 0.24313725
0.30588235 0.67009804 0.23921569
0.43223039 0.66248468 0.23492647
0.58504902 0.65147059 0.22457108
0.71960784 0.63235294 0.2022212
0.82965686 0.6125 0.17941176
0.92388174 0.58970588 0.15098039
0.97107843 0.53345588 0.11470588
0.2245098 0.80808824 0.20955882
0.27604167 0.81170343 0.21078431
0.37745098 0.81348039 0.21348039
0.51176471 0.80882353 0.18808211
0.64252451 0.80796569 0.1877451
0.76960784 0.80098039 0.1604473
0.88039216 0.78921569 0.11905637
0.96752451 0.77303922 0.097855392
0.99828431 0.74411765 0.083333333
0.34166667 0.94007353 0.12352941
0.38337929 0.94287684 0.1092065
0.47261029 0.94497549 0.095833333
0.60441176 0.93921569 0.07622549
0.71617647 0.94515931 0.056495098
0.82536765 0.93370098 0.053921569
0.92797181 0.92303922 0.027971814
0.98915441 0.92781863 0.010631127
1 0.90747549 0.0078431373
0.4872549 1 0.015686275
0.525 1 0.010784314
0.58112745 1 0.006127451
0.70502451 0.99963235 0.00036764706
0.79705882 0.99754902 0.0039215686
0.89558824 0.99607843 0.0068627451
0.97058824 0.99215686 0.0039215686
0.99607843 0.98823529 0
1 0.98823529 0.0078431373
0.0053921569 0.011764706 0.24264706
0.036948529 0.010968137 0.23921569
0.12977941 0.033823529 0.24117647
0.22696078 0.0083946078 0.22058824
0.35759804 0.0078431373 0.21446078
0.50238971 0.0039215686 0.2028799
0.62254902 0.0039215686 0.18284314
0.71666667 0.0039215686 0.15410539
0.80147059 0 0.12352941
0.042156863 0.10441176 0.27352941
0.070588235 0.10095741 0.27224265
0.15349265 0.096752451 0.26659007
0.25392157 0.085791973 0.25080423
0.38446691 0.069270833 0.23823529
0.51519608 0.03627451 0.21323529
0.62455576 0.011458333 0.19419424
0.71911765 0.0078431373 0.16933977
0.7973652 0 0.14411765
0.081372549 0.21176471 0.29938725
0.10208333 0.20784314 0.29901961
0.17447917 0.20070466 0.29546569
0.28379289 0.18578431 0.28780637
0.42132353 0.16593137 0.27199755
0.54676777 0.13270527 0.24803922
0.65971201 0.095251225 0.22380515
0.73743873 0.03760723 0.19264706
0.80747549 0.0040441176 0.15637255
0.056311275 0.33529412 0.32898284
0.091973039 0.33682598 0.33271293
0.19215686 0.34166667 0.32875306
0.32506127 0.32182904 0.32052696
0.45808824 0.29972426 0.30955882
0.58929994 0.26813725 0.28347886
0.7066636 0.23909314 0.25647978
0.78382353 0.16966912 0.22352941
0.83866422 0.10992647 0.18872549
0.017647059 0.49803922 0.36078431
0.095098039 0.50196078 0.35897672
0.21758578 0.50784314 0.35294118
0.35787377 0.49139093 0.35220588
0.51384804 0.46666667 0.34080882
0.64629289 0.44558824 0.31709559
0.75765931 0.42910539 0.29166667
0.84589461 0.38097426 0.25940564
0.91127451 0.3 0.22598039
0.052022059 0.66280637 0.37935049
0.10899969 0.66439951 0.3772595
0.26017157 0.66617647 0.37189032
0.39334406 0.66617647 0.37058824
0.55857843 0.65514706 0.35370711
0.69656863 0.64077053 0.3399663
0.8088848 0.61999081 0.32107843
0.9047258 0.59167433 0.29492188
0.95294118 0.55042892 0.26317402
0.14068627 0.8060049 0.36813725
0.19862132 0.80392157 0.37205882
0.32518382 0.80784314 0.37205882
0.47280944 0.80784314 0.35591299
0.61519608 0.80300245 0.35098039
0.74379596 0.79538909 0.33829657
0.85569853 0.78468137 0.31280637
0.95333946 0.76171875 0.28811275
0.99154412 0.73921569 0.25453431
0.26697304 0.93106618 0.30165441
0.3151731 0.93925398 0.32258732
0.42155331 0.93088235 0.31162684
0.55876225 0.93382353 0.29429381
0.67990196 0.93520221 0.2861826
0.8004902 0.93314951 0.26666667
0.90188419 0.92740502 0.25605086
0.98137255 0.90964308 0.20536918
0.99607843 0.90459559 0.16403186
0.45539216 1 0.10686275
0.49381127 0.99626225 0.088541667
0.56960784 0.99607843 0.085416667
0.68578431 1 0.040686275
0.7870098 0.99730392 0.048284314
0.88768382 0.99852941 0.043259804
0.9627451 0.99607843 0.04754902
1 0.99460784 0.022058824
1 0.99460784 0.014215686
0.0039215686 0.015686275 0.34901961
0.024509804 0.021568627 0.34509804
0.097058824 0.011764706 0.33578431
0.20122549 0.0078431373 0.3254902
0.33823529 0.0078431373 0.31568627
0.47598039 0.0012254902 0.29926471
0.58921569 0.0029411765 0.28970588
0.68970588 0 0.26813725
0.78431373 0 0.24117647
0.017401961 0.11004902 0.37990196
0.049724265 0.10398284 0.37576593
0.12401961 0.096568627 0.37205882
0.22696078 0.08627451 0.35998775
0.36433824 0.069852941 0.34852941
0.49754902 0.040839461 0.33137255
0.60833333 0.011458333 0.30814951
0.69730392 0.0054227941 0.28137255
0.78235294 0.0017156863 0.25833333
0.055882353 0.21421569 0.41078431
0.072058824 0.21176471 0.41372549
0.14375 0.20404412 0.40992647
0.25441176 0.19393382 0.40012255
0.39436275 0.17132353 0.38382353
0.53235294 0.13915441 0.36789216
0.63921569 0.092769608 0.34656863
0.72377451 0.036090686 0.31789216
0.77401961 0.01127451 0.30294118
0.042156863 0.3377451 0.45465686
0.052941176 0.33560049 0.45588235
0.13627451 0.33382353 0.45104167
0.28137255 0.32352941 0.44485294
0.43272059 0.30416667 0.43504902
0.56988358 0.2747549 0.41470588
0.68094363 0.23964461 0.39485294
0.76896446 0.17598039 0.36985294
0.82647059 0.10710784 0.33382353
0.011764706 0.49019608 0.49215686
0.033946078 0.49607843 0.49129902
0.15588235 0.50588235 0.49411765
0.30637255 0.49558824 0.48235294
0.46862745 0.47303922 0.47745098
0.61960784 0.45735294 0.46004902
0.73039216 0.42965686 0.44044118
0.8189951 0.37352941 0.41127451
0.88235294 0.30490196 0.37941176
0.0039215686 0.65833333 0.51519608
0.020588235 0.66332721 0.51519608
0.15863971 0.66409314 0.52107843
0.33995098 0.66544118 0.51988358
0.52083333 0.64497549 0.51262255
0.66568627 0.63872549 0.50091912
0.78069853 0.62352941 0.48088235
0.87696078 0.58121936 0.45376838
0.94901961 0.53553922 0.41789216
0.016176471 0.79852941 0.53578431
0.062806373 0.79607843 0.53872549
0.23921569 0.79693627 0.53921569
0.40900735 0.8 0.52892157
0.58235294 0.79313725 0.52426471
0.71268382 0.78884804 0.50876225
0.82610294 0.77965686 0.48933824
0.92205882 0.75692402 0.46127451
0.9877451 0.73039216 0.43480392
0.11593137 0.91936275 0.50490196
0.18192402 0.91960784 0.51253064
0.3372549 0.92101716 0.50588235
0.49142157 0.92745098 0.49264706
0.64215686 0.92352941 0.47279412
0.76372549 0.92279412 0.46176471
0.87254902 0.91335784 0.459375
0.9622549 0.90441176 0.43385417
0.99607843 0.89436275 0.4122549
0.30196078 1 0.40196078
0.37916667 0.99607843 0.36470588
0.47843137 0.99607843 0.35
0.59803922 0.99338235 0.34901961
0.73137255 0.99803922 0.33235294
0.83529412 0.99607843 0.32867647
0.93921569 0.99362745 0.30735294
0.99632353 0.99803922 0.25
1 0.99607843 0.19019608
0.0039215686 0.019607843 0.46470588
0.0078431373 0.009620098 0.45294118
0.068627451 0.015196078 0.44963235
0.18088235 0.013296569 0.45202206
0.31813725 0.0078431373 0.44313725
0.45147059 0.0039215686 0.42156863
0.56764706 0.0011029412 0.41029412
0.66844363 0 0.38970588
0.75931373 0 0.37058824
0.0078431373 0.1158701 0.49411765
0.026799939 0.10484069 0.49509804
0.090563725 0.096660539 0.4877451
0.19264706 0.087193627 0.4877451
0.32990196 0.068933824 0.48186275
0.47854626 0.035968137 0.46263021
0.58890931 0.015196078 0.43386949
0.67579657 0.0069240196 0.41323529
0.75165441 0.0039215686 0.40147059
0.019240196 0.22389706 0.5372549
0.042784926 0.21746324 0.5372549
0.10585172 0.20784314 0.53342525
0.20796569 0.1977788 0.5254902
0.34797794 0.17843137 0.52224265
0.5064951 0.1439951 0.50856311
0.61479779 0.10401348 0.48609069
0.70226716 0.05625 0.46269914
0.75539216 0.014705882 0.44129902
0.014154412 0.34313725 0.58088235
0.024509804 0.34558824 0.58732384
0.067815564 0.3363511 0.57941176
0.2285769 0.32557445 0.5754902
0.3877451 0.31102941 0.56053922
0.54746477 0.28529412 0.54838388
0.66012561 0.24375 0.53414522
0.74969363 0.1944087 0.50980392
0.80735294 0.10238971 0.4783701
0.0039215686 0.49607843 0.61568627
0.0078431373 0.49984681 0.62417279
0.071017157 0.50196078 0.62297794
0.24090074 0.49139093 0.61887255
0.42794118 0.48039216 0.60882353
0.59068627 0.46666667 0.59264706
0.70465686 0.42598039 0.57990196
0.80245098 0.37230392 0.55514706
0.87058824 0.29485294 0.52352941
0.0024509804 0.6504902 0.65980392
0.010102635 0.65655637 0.6504902
0.03247549 0.66078431 0.66096814
0.27998621 0.65720741 0.65720741
0.46908701 0.65094975 0.64779412
0.63684896 0.64060202 0.63817402
0.75297181 0.61790748 0.62095588
0.85274203 0.58039216 0.60294118
0.93333333 0.52254902 0.57990196
0.0039215686 0.78431373 0.68039216
0.014751838 0.78524816 0.67291667
0.11703431 0.79132966 0.6799326
0.34140625 0.78823529 0.67647059
0.53186275 0.78529412 0.66697304
0.67696078 0.78469669 0.65747549
0.79558824 0.77181373 0.65441176
0.89595588 0.74558824 0.63382353
0.97414216 0.71862745 0.60625
0.0078431373 0.90814951 0.68039216
0.038196998 0.91127451 0.68088235
0.20240502 0.91519608 0.67054228
0.42156863 0.91568627 0.66439951
0.58823529 0.91568627 0.67279412
0.72126225 0.91538756 0.65109528
0.83414522 0.90752145 0.65788909
0.9377451 0.89476869 0.62598039
0.98694853 0.87696078 0.59920343
0.093137255 0.98186275 0.6245098
0.19375 0.98694853 0.60410539
0.35061275 0.99460784 0.59460784
0.49503676 0.98970588 0.61519608
0.64705882 0.98872549 0.58970588
0.75588235 0.99123775 0.61623775
0.87401961 0.98394608 0.59546569
0.97303922 0.98400735 0.56372549
1 0.98921569 0.51078431
0 0.024509804 0.57156863
0 0.0093137255 0.56372549
0.037254902 0.015686275 0.55980392
0.15 0.015686275 0.55980392
0.28529412 0.015686275 0.55
0.42659314 0.0039215686 0.52990196
0.55490196 0.0049019608 0.52745098
0.65159314 0 0.49669118
0.74411765 0 0.48137255
0.0039215686 0.12757353 0.60723039
0.010416667 0.12095588 0.6060049
0.0625 0.11311275 0.59816176
0.16560968 0.098651961 0.59707414
0.29877451 0.075 0.58872549
0.44183517 0.052328431 0.57322304
0.56651348 0.017677696 0.5504902
0.66254596 0 0.53169424
0.73370098 0 0.52009804
0.0078431373 0.23627451 0.64607843
0.018137255 0.2314951 0.64901961
0.070588235 0.22193627 0.64117647
0.16960784 0.20821078 0.63627451
0.32156863 0.19497549 0.62892157
0.47205882 0.15655637 0.60980392
0.60171569 0.11740196 0.59313725
0.68664216 0.061703431 0.57303922
0.74093137 0.0093137255 0.55490196
0 0.35772059 0.68382353
0.014797794 0.36141238 0.68596814
0.030882353 0.35799632 0.68382353
0.16752451 0.34698223 0.67843137
0.35618873 0.33308824 0.66966912
0.51862745 0.30680147 0.65356924
0.64479167 0.26507353 0.63860294
0.73151042 0.19460784 0.6127451
0.79644608 0.10588235 0.58860294
0 0.50637255 0.71470588
0.0039215686 0.50784314 0.72254902
0.012745098 0.51335784 0.72254902
0.17279412 0.50459559 0.72254902
0.38480392 0.49485294 0.71568627
0.5588848 0.48278186 0.69932598
0.68970588 0.43958333 0.68676471
0.78958333 0.38553922 0.66127451
0.85441176 0.31470588 0.64460784
0 0.65931373 0.75343137
0.0039215686 0.65819547 0.75343137
0.0078431373 0.66470588 0.76029412
0.17918199 0.65741422 0.75943627
0.42089461 0.65294118 0.75196078
0.59607843 0.64303002 0.74166667
0.73063725 0.62598039 0.73336397
0.84154412 0.58886336 0.71911765
0.90588235 0.53394608 0.7
0 0.78823529 0.78823529
0 0.78887868 0.78431373
0.017218137 0.78823529 0.79142157
0.24972426 0.78823529 0.78639706
0.47904412 0.78431373 0.77647059
0.64546569 0.78128064 0.76881127
0.76599265 0.76525735 0.76004902
0.87598039 0.74240196 0.75193015
0.95269608 0.71470588 0.73431373
0 0.9060049 0.81482843
0.0039215686 0.90343137 0.80784314
0.048682598 0.90735294 0.80435049
0.31190257 0.90343137 0.80355392
0.52408088 0.90753676 0.79589461
0.6810049 0.90548407 0.78615196
0.80735294 0.89586397 0.77310049
0.91056985 0.89048713 0.7756587
0.95772059 0.87389706 0.75085784
0 0.98333333 0.78823529
0.010784314 0.96911765 0.79693627
0.11519608 0.97058824 0.79338235
0.36066176 0.98762255 0.78529412
0.57352941 0.99411765 0.77647059
0.70404412 0.98578431 0.76752451
0.84313725 0.99607843 0.76176471
0.95772059 0.99215686 0.74607843
1 0.98921569 0.73431373
0 0.055392157 0.66421569
0 0.027941176 0.66029412
0.029901961 0.02745098 0.65330882
0.10686275 0.009620098 0.64460784
0.25245098 0.010294118 0.63480392
0.40471814 0.0080269608 0.62910539
0.53590686 0.010906863 0.62401961
0.63627451 0 0.59313725
0.71764706 0 0.57794118
0 0.14803922 0.69901961
0.0039139093 0.13583793 0.69810049
0.039996936 0.13186275 0.69113051
0.13028493 0.11241575 0.68721661
0.26789216 0.098988971 0.67720588
0.42663143 0.071139706 0.66560202
0.55147059 0.037362132 0.64313725
0.64803922 0.0073529412 0.62401961
0.72015931 0.0039215686 0.60882353
0.0039215686 0.25502451 0.73382353
0.0072457108 0.2511489 0.73382353
0.032843137 0.24335172 0.72990196
0.12098652 0.22803309 0.72990196
0.28504902 0.21439951 0.71813725
0.4495098 0.18333333 0.70208333
0.58578431 0.14117647 0.68287377
0.675 0.073651961 0.66188725
0.74803922 0.011642157 0.64362745
0 0.38529412 0.77254902
0.0039215686 0.3790288 0.7723652
0.015609681 0.37352941 0.7723652
0.067777267 0.36697304 0.77254902
0.30686275 0.35661765 0.76372549
0.4866345 0.33192402 0.74980852
0.62539828 0.29295343 0.73296569
0.7271829 0.22583487 0.71568627
0.78921569 0.13431373 0.69234069
0 0.53578431 0.81176471
0 0.52622549 0.81519608
0.0039215686 0.52990196 0.81887255
0.064460784 0.5276348 0.81764706
0.32585784 0.51617647 0.80735294
0.52999387 0.49901961 0.7986826
0.66568627 0.46936275 0.78480392
0.77527574 0.41519608 0.76418505
0.8372549 0.34534314 0.74264706
0 0.67696078 0.85
0 0.66927849 0.85
0 0.66519608 0.85392157
0.069102328 0.66401654 0.85539216
0.35661765 0.65882353 0.84607843
0.55060509 0.65305607 0.83431373
0.69509804 0.63858762 0.82647059
0.82379749 0.61094516 0.82018229
0.89656863 0.55833333 0.79901961
0 0.79644608 0.88345588
0 0.79215686 0.88492647
0.0037071078 0.79224877 0.88823529
0.084329044 0.78431373 0.88823529
0.40349265 0.78455882 0.88308824
0.59558824 0.78431373 0.86519608
0.73345588 0.77573529 0.85735294
0.85735294 0.75664828 0.85735294
0.93259804 0.72254902 0.83737745
0 0.90343137 0.91176471
0.003002451 0.89994638 0.91955423
0.0061734069 0.90375306 0.9152114
0.1151731 0.90520833 0.91917892
0.43183211 0.90343137 0.90588235
0.63008578 0.89977788 0.88645833
0.76815257 0.89875919 0.87990196
0.88425245 0.89178156 0.8838848
0.9495098 0.87689951 0.87990196
0 0.96470588 0.92745098
0 0.96862745 0.93180147
0.0035539216 0.98296569 0.9192402
0.15784314 0.97598039 0.92334559
0.45122549 0.96813725 0.90980392
0.65098039 0.98792892 0.90275735
0.79117647 0.98431373 0.8877451
0.91519608 0.98780637 0.88474265
0.96862745 0.98431373 0.87990196
0 0.078431373 0.75294118
0 0.044117647 0.72205882
0.014705882 0.046078431 0.73235294
0.071078431 0.043137255 0.7372549
0.21960784 0.021568627 0.72156863
0.38382353 0.02745098 0.71078431
0.52058824 0.015686275 0.68235294
0.61715686 0 0.67745098
0.70980392 0 0.66666667
0 0.17107843 0.77598039
0 0.15931373 0.76764706
0.010784314 0.15232843 0.76801471
0.075183824 0.14460784 0.77696078
0.23504902 0.12156863 0.75588235
0.39901961 0.094914216 0.74705882
0.53970588 0.060784314 0.72389706
0.64019608 0.0073529412 0.70147059
0.68235294 0 0.69313725
0 0.27058824 0.81470588
0.0025735294 0.2745098 0.82205882
0.018382353 0.26666667 0.80588235
0.089215686 0.25637255 0.80379902
0.23529412 0.24264706 0.79901961
0.42990196 0.21421569 0.78909314
0.57769608 0.16691176 0.74093137
0.675 0.11568627 0.74705882
0.73921569 0.017647059 0.69019608
0 0.41617647 0.85588235
0 0.40459559 0.84166667
0.012867647 0.40625 0.84803922
0.0083946078 0.39264706 0.85343137
0.23529412 0.38284314 0.84019608
0.44656863 0.35343137 0.82395833
0.61323529 0.31507353 0.79313725
0.71764706 0.26078431 0.79166667
0.79068627 0.15980392 0.77647059
0 0.56078431 0.90980392
0 0.55882353 0.89215686
0.0034313725 0.55294118 0.88235294
0.014215686 0.54583333 0.88553922
0.23137255 0.54215686 0.88921569
0.47892157 0.52794118 0.86593137
0.64166667 0.49215686 0.85637255
0.7625 0.45196078 0.84093137
0.84509804 0.36862745 0.81764706
0 0.68823529 0.92696078
0 0.68823529 0.93088235
0 0.68284314 0.93406863
0.0078431373 0.67647059 0.91966912
0.23848039 0.67254902 0.91715686
0.50735294 0.66807598 0.89895833
0.67303922 0.65588235 0.90196078
0.79724265 0.62598039 0.89246324
0.87058824 0.57352941 0.86029412
0 0.80294118 0.94607843
0 0.8 0.95379902
0.0029411765 0.79705882 0.94338235
0.015686275 0.79509804 0.95784314
0.24117647 0.79166667 0.93970588
0.55 0.78431373 0.9307598
0.69607843 0.78137255 0.93137255
0.83468137 0.76911765 0.92708333
0.88431373 0.75294118 0.90686275
0 0.90343137 0.97696078
0 0.90343137 0.97303922
0 0.90343137 0.99117647
0.0056985294 0.90949755 0.98645833
0.33039216 0.90710784 0.97647059
0.5622549 0.89901961 0.96813725
0.72696078 0.90343137 0.96176471
0.85 0.89166667 0.95251225
0.96078431 0.86470588 0.91862745
0 0.96078431 0.99607843
0 0.96470588 1
0 0.97647059 1
0.014215686 0.96078431 0.98431373
0.16666667 0.98235294 0.98823529
0.57990196 0.97009804 0.95833333
0.72647059 0.98823529 0.99117647
0.88088235 0.97598039 0.98088235
0.99215686 0.98823529 0.98039216
