site/assets/luts/natron-haldclut--polaroid-px-70-cold--13111e09a.cube
# LUTr-Project: LUTr — LUTrepository
# LUTr-Schema-Version: 1
# LUTr-ID: natron-haldclut--polaroid-px-70-cold--13111e09a
# LUTr-Title: polaroid px-70 cold ++
# LUTr-Collection: Natron HaldCLUT
# LUTr-Collection-ID: natron-haldclut-presets
# LUTr-Source: https://github.com/NatronGitHub/clut
# LUTr-Source-File: submissions/natron-haldclut-presets/instant_consumer/polaroid_px-70_cold_++.png
# LUTr-Source-Format: PNG
# LUTr-Source-SHA256: 6fac71da1cbd8a6bf393694ffac921de63ee513b9347d1bc89afcb0588c66dfa
# LUTr-License: CC-BY-SA-4.0
# LUTr-License-URL: https://github.com/NatronGitHub/clut#license
# LUTr-Tags: creative, film, film-emulation, hald-clut, natron, png, cool, cube
# LUTr-Transform-Class: film-emulation
# LUTr-Input-Color-Space: srgb
# LUTr-Output-Color-Space: srgb
# LUTr-Color-Space-Confidence: assumed-display-referred
# LUTr-Conversion-Method: PNG LUT image decoded at 16-bit and sampled to 25x25x25 3D CUBE
# LUTr-Conversion-Date: 2026-07-27
# LUTr-Conversion-Tool: LUTr scripts/convert-all-to-cube.mjs
# LUTr-Conversion-Grid: 25x25x25
# LUTr-Note: Preserve this metadata and the upstream license notices when redistributing.
TITLE "polaroid px-70 cold ++"
LUT_3D_SIZE 25
DOMAIN_MIN 0 0 0
DOMAIN_MAX 1 1 1
0 0.38039216 0.44313725
0 0.38039216 0.44313725
0.0039215686 0.38039216 0.44313725
0.0039215686 0.38039216 0.44313725
0.0039215686 0.38039216 0.44313725
0.0078431373 0.38039216 0.44313725
0.0078431373 0.38039216 0.44313725
0.0078431373 0.38039216 0.44313725
0.011764706 0.38039216 0.44313725
0.05 0.38284314 0.44313725
0.11568627 0.38431373 0.44313725
0.18088235 0.38823529 0.44705882
0.24313725 0.39019608 0.44705882
0.30490196 0.39264706 0.44705882
0.36666667 0.39901961 0.44705882
0.4245098 0.40392157 0.44852941
0.48627451 0.41176471 0.45098039
0.54411765 0.41813725 0.45098039
0.60588235 0.43333333 0.45098039
0.66764706 0.4504902 0.45490196
0.7254902 0.46862745 0.45490196
0.78186275 0.48382353 0.45490196
0.8127451 0.51078431 0.45882353
0.83823529 0.53235294 0.4627451
0.8627451 0.55294118 0.46666667
0 0.38039216 0.44313725
0 0.38039216 0.44313725
0.0039215686 0.38039216 0.44313725
0.0039215686 0.38039216 0.44313725
0.0039215686 0.38284314 0.44313725
0.0078431373 0.38284314 0.44313725
0.0078431373 0.38284314 0.44313725
0.0087622549 0.38284314 0.44313725
0.018137255 0.38284314 0.44313725
0.059375 0.38431373 0.44313725
0.11813725 0.38492647 0.44313725
0.18137255 0.38823529 0.44705882
0.24313725 0.39019608 0.44705882
0.30490196 0.39264706 0.44705882
0.3627451 0.39901961 0.44705882
0.4245098 0.40392157 0.44852941
0.48382353 0.40784314 0.45098039
0.54411765 0.41568627 0.45098039
0.60588235 0.43333333 0.45098039
0.66764706 0.45392157 0.45490196
0.72794118 0.47303922 0.45490196
0.78235294 0.49362745 0.45490196
0.82022059 0.51813725 0.45882353
0.85392157 0.54656863 0.46421569
0.87941176 0.56715686 0.46666667
0.00098039216 0.38431373 0.44313725
0.00036764706 0.38431373 0.44313725
0.00098039216 0.38431373 0.44313725
0.0039215686 0.38431373 0.44313725
0.0039215686 0.38431373 0.44313725
0.0069852941 0.38431373 0.44313725
0.0078431373 0.38431373 0.44313725
0.012132353 0.38431373 0.44313725
0.028431373 0.38431373 0.44313725
0.072671569 0.38713235 0.44313725
0.12916667 0.38823529 0.44313725
0.19019608 0.38921569 0.44705882
0.24607843 0.39215686 0.44705882
0.30441176 0.39264706 0.44705882
0.3627451 0.39901961 0.44705882
0.4245098 0.4060049 0.44816176
0.48333333 0.41176471 0.45098039
0.54227941 0.41691176 0.45098039
0.60686275 0.43823529 0.45098039
0.66862745 0.4627451 0.45441176
0.72990196 0.48333333 0.45490196
0.78235294 0.50392157 0.45490196
0.82352941 0.52671569 0.45882353
0.85931373 0.55343137 0.46384804
0.88921569 0.57647059 0.46666667
0.0039215686 0.38823529 0.44656863
0.0039215686 0.38823529 0.44442402
0.0039215686 0.3877451 0.44313725
0.0039215686 0.3877451 0.44313725
0.0039215686 0.3877451 0.44313725
0.0039828431 0.3877451 0.44313725
0.0078431373 0.3877451 0.44313725
0.016666667 0.3877451 0.44313725
0.03872549 0.38823529 0.44313725
0.08627451 0.3903799 0.44313725
0.14264706 0.39215686 0.44313725
0.20091912 0.39215686 0.44705882
0.25637255 0.39558824 0.44705882
0.31133578 0.39650735 0.44705882
0.37009804 0.40379902 0.44705882
0.43186275 0.41145833 0.44705882
0.49362745 0.41911765 0.44754902
0.55147059 0.43155637 0.45098039
0.61335784 0.44852941 0.45098039
0.67892157 0.47303922 0.45098039
0.73504902 0.49362745 0.45490196
0.78235294 0.51421569 0.45490196
0.82352941 0.53480392 0.45882353
0.85588235 0.55716912 0.4627451
0.88235294 0.57990196 0.46666667
0.0039215686 0.39215686 0.44705882
0.0039215686 0.39215686 0.44705882
0.0039215686 0.39166667 0.44460784
0.0022058824 0.39019608 0.44313725
0 0.38921569 0.44313725
0.0019607843 0.38823529 0.44313725
0.0039215686 0.38823529 0.44313725
0.012009804 0.38823529 0.44313725
0.047058824 0.39019608 0.44313725
0.099019608 0.39215686 0.44313725
0.15588235 0.39656863 0.44313725
0.21127451 0.39803922 0.44313725
0.26666667 0.40196078 0.44313725
0.32205882 0.40588235 0.44509804
0.37843137 0.41078431 0.44656863
0.44019608 0.41911765 0.44705882
0.5 0.43137255 0.44705882
0.55980392 0.44485294 0.44828431
0.62156863 0.46421569 0.45098039
0.68333333 0.47990196 0.45098039
0.74117647 0.5 0.45098039
0.78602941 0.52058824 0.45490196
0.82009804 0.54264706 0.45882353
0.85220588 0.56568627 0.4627451
0.87647059 0.58431373 0.46666667
0.0039215686 0.39607843 0.44705882
0.0039215686 0.39607843 0.44656863
0.0039215686 0.39607843 0.44313725
0.0034926471 0.39307598 0.44313725
0 0.39264706 0.44313725
0 0.39215686 0.44313725
0 0.39215686 0.44313725
0.010477941 0.39215686 0.44313725
0.051470588 0.39264706 0.44313725
0.10686275 0.39656863 0.44313725
0.16323529 0.40134804 0.44313725
0.22107843 0.40441176 0.44313725
0.27696078 0.40833333 0.44313725
0.33186275 0.4122549 0.44313725
0.38370098 0.41519608 0.44313725
0.44460784 0.42696078 0.44442402
0.50637255 0.44362745 0.44705882
0.56813725 0.45784314 0.44705882
0.62598039 0.47598039 0.44705882
0.6872549 0.490625 0.45091912
0.74509804 0.50686275 0.45098039
0.78584559 0.53094363 0.45490196
0.82095588 0.5557598 0.45882353
0.85716912 0.58039216 0.46421569
0.88627451 0.6004902 0.46666667
0.0039215686 0.39901961 0.44313725
0.0020833333 0.39901961 0.44313725
0.00098039216 0.39901961 0.44313725
0.00012254902 0.39901961 0.44313725
0 0.39901961 0.44313725
0 0.39607843 0.44313725
0 0.39534314 0.44313725
0.006495098 0.39546569 0.44313725
0.057843137 0.39901961 0.44313725
0.11568627 0.40539216 0.44313725
0.17254902 0.41078431 0.44313725
0.22794118 0.41470588 0.44313725
0.28382353 0.42009804 0.44313725
0.33872549 0.42254902 0.44313725
0.39019608 0.4247549 0.44313725
0.45134804 0.43909314 0.44313725
0.51666667 0.45392157 0.44411765
0.57487745 0.47058824 0.44705882
0.63308824 0.4870098 0.44705882
0.69117647 0.50392157 0.44705882
0.74166667 0.5245098 0.4495098
0.78321078 0.54803922 0.45490196
0.82132353 0.57181373 0.45882353
0.85931373 0.59522059 0.46421569
0.8872549 0.61470588 0.46764706
0 0.40147059 0.44313725
0 0.40147059 0.44313725
0 0.40539216 0.44313725
0 0.40667892 0.44313725
0 0.40931373 0.44313725
0 0.40949755 0.44313725
0 0.40686275 0.44313725
0.01127451 0.40833333 0.44313725
0.068137255 0.41470588 0.44313725
0.12352941 0.42107843 0.44313725
0.1810049 0.42745098 0.44313725
0.23823529 0.43253676 0.44313725
0.29362745 0.4375 0.44313725
0.34901961 0.44215686 0.44313725
0.4004902 0.44509804 0.44313725
0.46127451 0.45539216 0.44313725
0.52303922 0.46813725 0.44313725
0.58480392 0.48088235 0.44313725
0.64019608 0.49901961 0.44558824
0.6877451 0.51960784 0.44705882
0.7372549 0.54264706 0.44705882
0.77843137 0.56470588 0.45147059
0.81813725 0.58713235 0.45845588
0.85447304 0.60925245 0.46366422
0.88088235 0.625 0.46666667
0 0.41568627 0.44313725
0 0.41813725 0.44313725
0.00098039216 0.42058824 0.44705882
0.0039215686 0.42696078 0.44705882
0.0039215686 0.42745098 0.44705882
0.0039215686 0.43137255 0.44705882
0.0039215686 0.42843137 0.44705882
0.01372549 0.42892157 0.44558824
0.074509804 0.43529412 0.44313725
0.13627451 0.44166667 0.44313725
0.19411765 0.44705882 0.44313725
0.25196078 0.45098039 0.44313725
0.30392157 0.45686275 0.44313725
0.35931373 0.4627451 0.44313725
0.41372549 0.46568627 0.44313725
0.47156863 0.47598039 0.44313725
0.53333333 0.48627451 0.44313725
0.59117647 0.49901961 0.44313725
0.64019608 0.51568627 0.44313725
0.6877451 0.53627451 0.44313725
0.73333333 0.55686275 0.44509804
0.7745098 0.58137255 0.45098039
0.8127451 0.60196078 0.45784314
0.84901961 0.62254902 0.4627451
0.8745098 0.63529412 0.46666667
0 0.44509804 0.44705882
0 0.44656863 0.44705882
0.0020833333 0.44693627 0.44705882
0.0039215686 0.45018382 0.44705882
0.0039215686 0.45196078 0.44705882
0.0039215686 0.45165441 0.44705882
0.006372549 0.44803922 0.44705882
0.016176471 0.44859069 0.44705882
0.070588235 0.45343137 0.44705882
0.14509804 0.45980392 0.44313725
0.20796569 0.46470588 0.44313725
0.2627451 0.47352941 0.44313725
0.31544118 0.48063725 0.44313725
0.36960784 0.48578431 0.44313725
0.42401961 0.48872549 0.44313725
0.48339461 0.50294118 0.44313725
0.54362745 0.51323529 0.44313725
0.59411765 0.52745098 0.44313725
0.63921569 0.53529412 0.43921569
0.68431373 0.55079657 0.43921569
0.72941176 0.57107843 0.44191176
0.77058824 0.59430147 0.44754902
0.80931373 0.61617647 0.45428922
0.84509804 0.63621324 0.46029412
0.87058824 0.6495098 0.4627451
0 0.47745098 0.45098039
0 0.47745098 0.45098039
0.00098039216 0.47745098 0.45098039
0.0039215686 0.47745098 0.45098039
0.0039215686 0.47745098 0.45098039
0.0039215686 0.47352941 0.44803922
0.006127451 0.47034314 0.44705882
0.014705882 0.46960784 0.44705882
0.073529412 0.47352941 0.44705882
0.15134804 0.4810049 0.4435049
0.21985294 0.48627451 0.44313725
0.27303922 0.49656863 0.44313725
0.32843137 0.50441176 0.44117647
0.37990196 0.51176471 0.43921569
0.43529412 0.51789216 0.43921569
0.49460784 0.5310049 0.44313725
0.54901961 0.54411765 0.44313725
0.59693627 0.55441176 0.44252451
0.63946078 0.56078431 0.43921569
0.68431373 0.56752451 0.43578431
0.7254902 0.58578431 0.43921569
0.76666667 0.60992647 0.44705882
0.80710784 0.63137255 0.45318627
0.84301471 0.64987745 0.45821078
0.86960784 0.66372549 0.4627451
0 0.51176471 0.45490196
0 0.51176471 0.45459559
0 0.5122549 0.45441176
0.0039215686 0.50882353 0.45441176
0.0039215686 0.50833333 0.45098039
0.0039215686 0.50441176 0.45098039
0.0039215686 0.50404412 0.45061275
0.009497549 0.5004902 0.44705882
0.055882353 0.50441176 0.44705882
0.13186275 0.51078431 0.44675245
0.20686275 0.51715686 0.44313725
0.27205882 0.52401961 0.44313725
0.33137255 0.53014706 0.44289216
0.39019608 0.53584559 0.43921569
0.44473039 0.54656863 0.43921569
0.50098039 0.56078431 0.44313725
0.55294118 0.57156863 0.44313725
0.60018382 0.58155637 0.44068627
0.6439951 0.59154412 0.43921569
0.6877451 0.59803922 0.43878676
0.72892157 0.61372549 0.44093137
0.76666667 0.63137255 0.44705882
0.80392157 0.64889706 0.45098039
0.83970588 0.66341912 0.45508578
0.86666667 0.67745098 0.45882353
0 0.54509804 0.45882353
0 0.54509804 0.45686275
0 0.54509804 0.45686275
0.0039215686 0.54338235 0.45686275
0.0039215686 0.54313725 0.45490196
0.0039215686 0.53921569 0.45269608
0.00049019608 0.5377451 0.45098039
0.00073529412 0.53259804 0.44705882
0.035294118 0.53529412 0.44705882
0.1125 0.54240196 0.44705882
0.18970588 0.55196078 0.44705882
0.26519608 0.55857843 0.44705882
0.33431373 0.56470588 0.44607843
0.39681373 0.57279412 0.44509804
0.45196078 0.58137255 0.44509804
0.50735294 0.59166667 0.44313725
0.55686275 0.60588235 0.44313725
0.60514706 0.61617647 0.44313725
0.65098039 0.6245098 0.44313725
0.69240196 0.63308824 0.44313725
0.73529412 0.64901961 0.44607843
0.76666667 0.65955882 0.44705882
0.80098039 0.67352941 0.45245098
0.83578431 0.68504902 0.45686275
0.86666667 0.69411765 0.46078431
0 0.58186275 0.4627451
0 0.57971814 0.4627451
0 0.57843137 0.45931373
0.0039215686 0.57843137 0.45931373
0.0039215686 0.57843137 0.45882353
0.0039215686 0.5745098 0.45539216
0.0039215686 0.5745098 0.45490196
0.00085784314 0.56930147 0.45147059
0.036764706 0.57058824 0.45147059
0.11862745 0.57696078 0.45147059
0.2004902 0.58676471 0.45147059
0.27941176 0.59319853 0.45147059
0.34926471 0.6 0.45147059
0.4033701 0.60980392 0.45098039
0.45821078 0.61666667 0.45098039
0.51323529 0.62696078 0.44754902
0.56127451 0.63676471 0.44754902
0.61011029 0.64705882 0.44705882
0.65625 0.65735294 0.44362745
0.69656863 0.66764706 0.44362745
0.73137255 0.67401961 0.44313725
0.76617647 0.68382353 0.44362745
0.79656863 0.69669118 0.45392157
0.82726716 0.70833333 0.46060049
0.85 0.71470588 0.46666667
0 0.61960784 0.46666667
0 0.61960784 0.46568627
0 0.61887255 0.46568627
0.0035539216 0.61960784 0.46568627
0.0039215686 0.61764706 0.4627451
0.0039215686 0.61568627 0.46176471
0.0068627451 0.61348039 0.45955882
0.019240196 0.61176471 0.45784314
0.071568627 0.61470588 0.45784314
0.14362745 0.61568627 0.45784314
0.22058824 0.62132353 0.45882353
0.2939951 0.62708333 0.45882353
0.35294118 0.63578431 0.45784314
0.4067402 0.64460784 0.45490196
0.46176471 0.65416667 0.45490196
0.51323529 0.66127451 0.45392157
0.56470588 0.67156863 0.45392157
0.61372549 0.68125 0.45036765
0.6620098 0.68823529 0.45
0.7004902 0.69595588 0.45
0.73480392 0.70294118 0.45
0.76862745 0.70821078 0.45306373
0.7872549 0.71764706 0.45710784
0.81213235 0.72561275 0.46605392
0.83627451 0.73529412 0.47352941
0 0.66078431 0.47205882
0 0.65931373 0.47205882
0.0039215686 0.65686275 0.47058824
0.0039215686 0.65686275 0.47058824
0.0039215686 0.65686275 0.46813725
0.0056985294 0.65686275 0.46666667
0.014093137 0.65355392 0.46666667
0.045588235 0.65294118 0.4651348
0.10245098 0.65686275 0.46666667
0.17267157 0.65931373 0.46813725
0.24473039 0.66078431 0.46666667
0.30098039 0.66470588 0.46421569
0.35563725 0.67058824 0.4627451
0.41176471 0.67941176 0.46029412
0.46568627 0.68786765 0.46029412
0.51715686 0.69607843 0.46029412
0.56617647 0.70392157 0.46029412
0.61617647 0.7127451 0.46029412
0.66311275 0.71875 0.46029412
0.70392157 0.72420343 0.46390931
0.7379902 0.72916667 0.46421569
0.76979167 0.73645833 0.46813725
0.79056373 0.74166667 0.46813725
0.80386029 0.74803922 0.47297794
0.82205882 0.75588235 0.47843137
0 0.69803922 0.47843137
0 0.69803922 0.47843137
0.0049019608 0.69803922 0.4745098
0.0078431373 0.69803922 0.4745098
0.0039215686 0.69607843 0.4745098
0.0044117647 0.69411765 0.47058824
0.017647059 0.69411765 0.47058824
0.065196078 0.69411765 0.47058824
0.13333333 0.69803922 0.4745098
0.20294118 0.69803922 0.4745098
0.25980392 0.70196078 0.4745098
0.31127451 0.70588235 0.47058824
0.3627451 0.70980392 0.46666667
0.41421569 0.71421569 0.46666667
0.46568627 0.72058824 0.46666667
0.51715686 0.72941176 0.46813725
0.56862745 0.7372549 0.47058824
0.62009804 0.74117647 0.47058824
0.66666667 0.74607843 0.47156863
0.70441176 0.75245098 0.4745098
0.73921569 0.75686275 0.47843137
0.77009804 0.76127451 0.47892157
0.79411765 0.76862745 0.48235294
0.80931373 0.77254902 0.48382353
0.81568627 0.77647059 0.48627451
0 0.73921569 0.48235294
0.0024509804 0.73676471 0.48235294
0.0084558824 0.73529412 0.48088235
0.014215686 0.73284314 0.48088235
0.010294118 0.73284314 0.47843137
0.0060661765 0.73284314 0.47696078
0.021813725 0.73284314 0.47696078
0.092156863 0.73529412 0.47751225
0.16421569 0.73529412 0.48088235
0.23082108 0.73676471 0.4838848
0.28676471 0.73958333 0.48480392
0.33823529 0.74283088 0.48088235
0.3877451 0.74460784 0.47696078
0.43284314 0.74724265 0.47567402
0.47659314 0.75428922 0.47879902
0.52352941 0.76029412 0.48088235
0.575 0.76813725 0.48088235
0.62493873 0.77205882 0.48333333
0.6685049 0.77598039 0.48480392
0.70655637 0.77959559 0.48823529
0.74117647 0.78259804 0.48995098
0.77009804 0.78792892 0.49264706
0.79803922 0.79276961 0.49264706
0.81568627 0.79797794 0.49411765
0.82205882 0.7995098 0.49656863
0 0.7754902 0.4872549
0.0040441176 0.77365196 0.48627451
0.019852941 0.77156863 0.48651961
0.032720588 0.76776961 0.4872549
0.039215686 0.76764706 0.48431373
0.049632353 0.76764706 0.48431373
0.070833333 0.76764706 0.48431373
0.13235294 0.76764706 0.4872549
0.19705882 0.77156863 0.49117647
0.26078431 0.77218137 0.49117647
0.31691176 0.7754902 0.49117647
0.3682598 0.77634804 0.49117647
0.41421569 0.77941176 0.49117647
0.45845588 0.78333333 0.49117647
0.49632353 0.78627451 0.49215686
0.54056373 0.79264706 0.49509804
0.58921569 0.79901961 0.49607843
0.63039216 0.80196078 0.49607843
0.67058824 0.80196078 0.49901961
0.70833333 0.80196078 0.49987745
0.74313725 0.80588235 0.50294118
0.77107843 0.81029412 0.50392157
0.79877451 0.81593137 0.50686275
0.8192402 0.81875 0.50686275
0.8245098 0.82058824 0.50686275
0.054901961 0.81029412 0.49362745
0.069914216 0.80637255 0.49705882
0.099019608 0.80245098 0.49754902
0.12604167 0.79901961 0.49754902
0.14534314 0.79852941 0.49754902
0.16421569 0.79460784 0.50098039
0.18186275 0.79460784 0.50098039
0.20949755 0.79852941 0.50116422
0.25882353 0.80245098 0.50147059
0.30343137 0.80490196 0.50147059
0.34718137 0.80723039 0.50147059
0.39607843 0.81029412 0.50147059
0.43823529 0.81397059 0.50318627
0.48284314 0.81464461 0.50539216
0.52401961 0.81813725 0.50796569
0.56017157 0.82352941 0.50931373
0.5995098 0.82990196 0.50931373
0.63694853 0.82647059 0.5127451
0.67438725 0.82512255 0.51323529
0.71219363 0.82254902 0.51323529
0.74705882 0.82647059 0.51691176
0.77702206 0.83039216 0.51715686
0.80196078 0.83345588 0.51973039
0.82254902 0.83449755 0.52058824
0.83088235 0.83480392 0.52058824
0.21764706 0.84117647 0.50980392
0.22794118 0.8372549 0.51102941
0.23431373 0.83333333 0.51176471
0.25 0.82941176 0.51372549
0.26666667 0.82745098 0.51372549
0.28480392 0.8254902 0.51568627
0.29509804 0.8254902 0.51568627
0.31151961 0.8254902 0.51568627
0.34313725 0.82941176 0.51568627
0.38039216 0.83333333 0.51568627
0.41519608 0.83529412 0.51568627
0.44583333 0.83529412 0.51568627
0.48039216 0.83627451 0.51666667
0.52156863 0.83946078 0.51960784
0.56078431 0.84313725 0.52156863
0.59534314 0.84705882 0.52352941
0.62156863 0.84901961 0.52352941
0.6504902 0.84705882 0.52671569
0.68382353 0.84509804 0.52745098
0.71985294 0.84313725 0.52941176
0.75588235 0.84313725 0.53137255
0.78161765 0.84509804 0.53161765
0.80588235 0.84705882 0.53333333
0.82769608 0.84901961 0.53529412
0.8372549 0.84901961 0.53529412
0.35441176 0.86372549 0.52598039
0.35833333 0.86372549 0.52598039
0.36372549 0.86029412 0.52647059
0.37401961 0.86029412 0.52990196
0.38823529 0.86004902 0.53014706
0.40104167 0.85631127 0.52990196
0.40784314 0.85294118 0.52990196
0.41942402 0.85196078 0.52990196
0.43970588 0.85588235 0.53039216
0.46354167 0.85588235 0.53039216
0.49117647 0.85196078 0.53002451
0.5122549 0.85196078 0.53039216
0.54215686 0.85196078 0.53210784
0.57653186 0.85545343 0.53431373
0.61041667 0.85931373 0.53688725
0.64197304 0.85980392 0.53823529
0.66470588 0.86323529 0.53823529
0.68137255 0.86109069 0.54166667
0.70637255 0.85980392 0.54166667
0.7372549 0.859375 0.54215686
0.76519608 0.85931373 0.54558824
0.78621324 0.85931373 0.54607843
0.81286765 0.85980392 0.54865196
0.8346201 0.86323529 0.5495098
0.84754902 0.86323529 0.5495098
0.46372549 0.87745098 0.54019608
0.4682598 0.87745098 0.54313725
0.47745098 0.88063725 0.54338235
0.49154412 0.88517157 0.54411765
0.49705882 0.88284314 0.54411765
0.50134804 0.87610294 0.54411765
0.50710784 0.86960784 0.54411765
0.51752451 0.86960784 0.54411765
0.52941176 0.87254902 0.54411765
0.54031863 0.87254902 0.54411765
0.55980392 0.86936275 0.54485294
0.58039216 0.86862745 0.54705882
0.60784314 0.86911765 0.54803922
0.63835784 0.87254902 0.55098039
0.66372549 0.87328431 0.55171569
0.68860294 0.87352941 0.55306373
0.70882353 0.87352941 0.55490196
0.72585784 0.87352941 0.55551471
0.74313725 0.87352941 0.55588235
0.76433824 0.87352941 0.55588235
0.78235294 0.87352941 0.55931373
0.79865196 0.87352941 0.55980392
0.81985294 0.87352941 0.5620098
0.84117647 0.87463235 0.56311275
0.85784314 0.87647059 0.56372549
0.57696078 0.88921569 0.55980392
0.57604167 0.89166667 0.5588848
0.58223039 0.89166667 0.55870098
0.58578431 0.89166667 0.55980392
0.59166667 0.89166667 0.55980392
0.59773284 0.88903186 0.55980392
0.60441176 0.88529412 0.55980392
0.61176471 0.88529412 0.55980392
0.61568627 0.88529412 0.55980392
0.62113971 0.88529412 0.55980392
0.63125 0.88529412 0.56041667
0.64852941 0.88529412 0.5622549
0.67230392 0.88529412 0.56372549
0.69460784 0.88560049 0.56617647
0.71409314 0.8877451 0.56617647
0.73431373 0.8877451 0.56764706
0.7495098 0.8877451 0.57009804
0.76372549 0.8877451 0.57009804
0.77647059 0.88676471 0.57009804
0.7903799 0.88382353 0.57009804
0.80490196 0.88382353 0.57009804
0.81550245 0.88560049 0.57401961
0.83125 0.8877451 0.57401961
0.84754902 0.8877451 0.57794118
0.86421569 0.8877451 0.57794118
0.69019608 0.90196078 0.57647059
0.66176471 0.89803922 0.57254902
0.66078431 0.89803922 0.57254902
0.67009804 0.89803922 0.57254902
0.67254902 0.89803922 0.57254902
0.68284314 0.89803922 0.57254902
0.68333333 0.89803922 0.57254902
0.68235294 0.89803922 0.57254902
0.68627451 0.89803922 0.57254902
0.69019608 0.89558824 0.57254902
0.69509804 0.89411765 0.57254902
0.70539216 0.89411765 0.57254902
0.71764706 0.89607843 0.57254902
0.73039216 0.89411765 0.57647059
0.74705882 0.89411765 0.57647059
0.76617647 0.89656863 0.57647059
0.77647059 0.89411765 0.57647059
0.78676471 0.89411765 0.57647059
0.79705882 0.89411765 0.57647059
0.80735294 0.89411765 0.58039216
0.82156863 0.89411765 0.58039216
0.83186275 0.89411765 0.58039216
0.84607843 0.89411765 0.58431373
0.86029412 0.89803922 0.58823529
0.8745098 0.90196078 0.59215686
0 0.38039216 0.44313725
0 0.38039216 0.44313725
0.0039215686 0.38039216 0.44313725
0.0039215686 0.38039216 0.44313725
0.0039215686 0.38039216 0.44313725
0.0056985294 0.38039216 0.44313725
0.0078431373 0.38039216 0.44313725
0.0078431373 0.38039216 0.44313725
0.014215686 0.38039216 0.44313725
0.054840686 0.38284314 0.44313725
0.11629902 0.38431373 0.44375
0.18137255 0.38823529 0.44705882
0.24313725 0.39019608 0.44705882
0.30490196 0.39264706 0.44705882
0.3627451 0.39901961 0.44705882
0.4245098 0.40539216 0.45006127
0.48627451 0.41176471 0.45098039
0.5504902 0.42150735 0.45098039
0.60980392 0.43909314 0.45490196
0.67009804 0.45655637 0.45490196
0.72867647 0.47303922 0.45612745
0.78235294 0.49362745 0.45882353
0.82022059 0.51813725 0.46066176
0.85153186 0.54356618 0.46366422
0.87696078 0.56323529 0.46666667
0 0.38039216 0.44313725
0 0.38039216 0.44313725
0.0039215686 0.38039216 0.44313725
0.0039215686 0.38039216 0.44313725
0.0039215686 0.38284314 0.44313725
0.0056985294 0.38131127 0.44313725
0.0078431373 0.38039216 0.44313725
0.0087622549 0.38039216 0.44313725
0.019056373 0.38039216 0.44313725
0.063296569 0.38376225 0.44313725
0.12182904 0.3845435 0.44375
0.18156403 0.38823529 0.44705882
0.24313725 0.39019608 0.44705882
0.30226716 0.3922258 0.44705882
0.3627451 0.39901961 0.44705882
0.4245098 0.40539216 0.44910386
0.48627451 0.41176471 0.45098039
0.54803922 0.42058824 0.45098039
0.60833333 0.43909314 0.45490196
0.66875766 0.45784314 0.45490196
0.72745098 0.47742034 0.45490196
0.77892157 0.49674479 0.45601256
0.82173713 0.52130821 0.45882353
0.85637255 0.54806219 0.46421569
0.88333333 0.56960784 0.46666667
0.00098039216 0.38431373 0.44313725
0.00013786765 0.38431373 0.44313725
0.00098039216 0.38431373 0.44313725
0.0039215686 0.38431373 0.44313725
0.0039215686 0.38431373 0.44313725
0.0040594363 0.38431373 0.44313725
0.0078431373 0.38431373 0.44313725
0.012132353 0.38431373 0.44313725
0.028431373 0.38431373 0.44313725
0.076363358 0.38506434 0.44313725
0.13207721 0.38823529 0.44329044
0.19019608 0.38855699 0.44705882
0.24436275 0.39123775 0.44705882
0.30098039 0.39227941 0.44705882
0.36228554 0.39901961 0.44705882
0.4245098 0.4060049 0.44839154
0.48688725 0.41458333 0.45098039
0.5504902 0.42382047 0.45098039
0.60916054 0.44188113 0.45324755
0.66776961 0.46435355 0.45490196
0.72622549 0.48578431 0.45490196
0.78082108 0.5057598 0.45490196
0.82460172 0.52833946 0.45882353
0.86064645 0.55404412 0.46421569
0.89203431 0.57708333 0.46960784
0.0039215686 0.38823529 0.44656863
