site/assets/luts/natron-haldclut--fuji-superia-100---d75d7cddd.cube
# LUTr-Project: LUTr — LUTrepository
# LUTr-Schema-Version: 1
# LUTr-ID: natron-haldclut--fuji-superia-100---d75d7cddd
# LUTr-Title: fuji superia 100 -
# LUTr-Collection: Natron HaldCLUT
# LUTr-Collection-ID: natron-haldclut-presets
# LUTr-Source: https://github.com/NatronGitHub/clut
# LUTr-Source-File: submissions/natron-haldclut-presets/negative_old/fuji_superia_100_-.png
# LUTr-Source-Format: PNG
# LUTr-Source-SHA256: e09e80ef1f935e33d8083902b5a318a59e211977b9084651405007411faa4ccb
# LUTr-License: CC-BY-SA-4.0
# LUTr-License-URL: https://github.com/NatronGitHub/clut#license
# LUTr-Tags: creative, film, film-emulation, hald-clut, natron, png, cube
# LUTr-Transform-Class: film-emulation
# LUTr-Input-Color-Space: srgb
# LUTr-Output-Color-Space: srgb
# LUTr-Color-Space-Confidence: assumed-display-referred
# LUTr-Conversion-Method: PNG LUT image decoded at 16-bit and sampled to 25x25x25 3D CUBE
# LUTr-Conversion-Date: 2026-07-27
# LUTr-Conversion-Tool: LUTr scripts/convert-all-to-cube.mjs
# LUTr-Conversion-Grid: 25x25x25
# LUTr-Note: Preserve this metadata and the upstream license notices when redistributing.
TITLE "fuji superia 100 -"
LUT_3D_SIZE 5
DOMAIN_MIN 0 0 0
DOMAIN_MAX 1 1 1
0.0039215686 0.0039215686 0
0.19411765 0.019607843 0.0068627451
0.50980392 0.074509804 0
0.75980392 0.13823529 0.011764706
0.96862745 0.18823529 0
0 0.25686275 0.019607843
0.18553922 0.27352941 0.013480392
0.55441176 0.29313725 0.019607843
0.78651961 0.30588235 0.0031862745
0.98137255 0.33431373 0.010784314
0 0.59803922 0.2372549
0.025 0.60196078 0.24754902
0.50980392 0.57647059 0.1745098
0.79019608 0.56568627 0.057843137
0.98823529 0.56862745 0.0078431373
0 0.84705882 0.46568627
0.13553922 0.84313725 0.46666667
0.47009804 0.83872549 0.45294118
0.72941176 0.81568627 0.37647059
0.98529412 0.82352941 0.3372549
0.57647059 0.98823529 0.7254902
0.58823529 0.98823529 0.72156863
0.66470588 0.99215686 0.73529412
0.77352941 0.99215686 0.72352941
0.92156863 0.98823529 0.69803922
0.016666667 0.021568627 0.25686275
0.22328431 0.0098039216 0.25
0.5372549 0.010784314 0.22352941
0.75612745 0.030147059 0.19411765
0.97156863 0.16176471 0.17941176
0.011029412 0.26495098 0.28210784
0.24846814 0.27573529 0.27493873
0.55784314 0.27843137 0.25686275
0.77628676 0.27977941 0.21936275
0.97745098 0.31568627 0.20294118
0.20735294 0.59411765 0.41715686
0.26764706 0.59264706 0.39558824
0.52794118 0.56985294 0.34779412
0.79019608 0.55931373 0.29362745
0.98529412 0.56666667 0.26323529
0.28946078 0.84215686 0.54240196
0.35196078 0.83995098 0.54926471
0.50980392 0.83884804 0.53933824
0.74093137 0.81176471 0.4721201
0.98529412 0.82254902 0.42843137
0.63039216 0.99215686 0.76078431
0.64411765 0.99044118 0.7620098
0.69117647 0.99068627 0.76911765
0.78921569 0.99215686 0.75416667
0.93039216 0.98921569 0.73137255
0 0.0039215686 0.59019608
0.26470588 0 0.58039216
0.57156863 0.0019607843 0.57352941
0.78529412 0.14901961 0.50294118
0.98039216 0.094117647 0.4627451
0.0058823529 0.25784314 0.5877451
0.27156863 0.28002451 0.58431373
0.575 0.29730392 0.57401961
0.78345588 0.32120098 0.51078431
0.98137255 0.25637255 0.45686275
0.20980392 0.57352941 0.58823529
0.375 0.57696078 0.58651961
0.56666667 0.56568627 0.57794118
0.77990196 0.54289216 0.51862745
0.97843137 0.52352941 0.48431373
0.51127451 0.83039216 0.69215686
0.56029412 0.82647059 0.7
0.62303922 0.82794118 0.68578431
0.78137255 0.81556373 0.63529412
0.98186275 0.81176471 0.58676471
0.7254902 0.98039216 0.83333333
0.73970588 0.98431373 0.8377451
0.75686275 0.97941176 0.82843137
0.83039216 0.98431373 0.8254902
0.94117647 0.98823529 0.80196078
0.0078431373 0.0039215686 0.83529412
0.27352941 0 0.83823529
0.56078431 0.044607843 0.83088235
0.81397059 0.18823529 0.80465686
0.99215686 0.3 0.76470588
0.059558824 0.28063725 0.83235294
0.29705882 0.28995098 0.83455882
0.56862745 0.31568627 0.82745098
0.8158701 0.35582108 0.80784314
0.97647059 0.39705882 0.76960784
0.090686275 0.54705882 0.82303922
0.34080882 0.55796569 0.825
0.57647059 0.57230392 0.81936275
0.80588235 0.58137255 0.80294118
0.99215686 0.58627451 0.76470588
0.45808824 0.82352941 0.83039216
0.52254902 0.81789216 0.83137255
0.64215686 0.81948529 0.8189951
0.81139706 0.81642157 0.81623775
0.98039216 0.79681373 0.77745098
0.77745098 0.98039216 0.90686275
0.79436275 0.98039216 0.90980392
0.84509804 0.98431373 0.91715686
0.89142157 0.97965686 0.91151961
0.95882353 0.96764706 0.87156863
0.14509804 0.066666667 1
0.31372549 0.1245098 0.99607843
0.55490196 0.19411765 0.98627451
0.78823529 0.31470588 0.99607843
0.99607843 0.40784314 0.99607843
0.23627451 0.30980392 0.98823529
0.34607843 0.32156863 0.98039216
0.57254902 0.35196078 0.9754902
0.79901961 0.41691176 0.98431373
0.99607843 0.4872549 0.9872549
0.2745098 0.55098039 0.98039216
0.39264706 0.56029412 0.98921569
0.58921569 0.58039216 0.99705882
0.80294118 0.62205882 0.98480392
0.99411765 0.66666667 0.99215686
0.4127451 0.79607843 0.98921569
0.46348039 0.78112745 0.98823529
0.59852941 0.79166667 0.98823529
0.81470588 0.81960784 0.98014706
0.98235294 0.85 0.98235294
0.74509804 0.98823529 0.98431373
0.73431373 0.96470588 0.97745098
0.8254902 0.98627451 0.98627451
0.90784314 0.9872549 0.9872549
0.99607843 0.99607843 0.99215686
