site/assets/luts/natron-haldclut--alien-green--394a73e87.cube
# LUTr-Project: LUTr — LUTrepository
# LUTr-Schema-Version: 1
# LUTr-ID: natron-haldclut--alien-green--394a73e87
# LUTr-Title: alien green
# LUTr-Collection: Natron HaldCLUT
# LUTr-Collection-ID: natron-haldclut-presets
# LUTr-Source: https://github.com/NatronGitHub/clut
# LUTr-Source-File: submissions/natron-haldclut-presets/various/alien_green.png
# LUTr-Source-Format: PNG
# LUTr-Source-SHA256: 6cb450d33381e1280802de54a76aa373abadbad93e26b557ed067dfb8ad0da9c
# LUTr-License: CC-BY-SA-4.0
# LUTr-License-URL: https://github.com/NatronGitHub/clut#license
# LUTr-Tags: creative, film, film-emulation, hald-clut, natron, png, cube
# LUTr-Transform-Class: film-emulation
# LUTr-Input-Color-Space: srgb
# LUTr-Output-Color-Space: srgb
# LUTr-Color-Space-Confidence: assumed-display-referred
# LUTr-Conversion-Method: PNG LUT image decoded at 16-bit and sampled to 25x25x25 3D CUBE
# LUTr-Conversion-Date: 2026-07-27
# LUTr-Conversion-Tool: LUTr scripts/convert-all-to-cube.mjs
# LUTr-Conversion-Grid: 25x25x25
# LUTr-Note: Preserve this metadata and the upstream license notices when redistributing.
TITLE "alien green"
LUT_3D_SIZE 25
DOMAIN_MIN 0 0 0
DOMAIN_MAX 1 1 1
0.031372549 0.011764706 0.039215686
0.044117647 0.015686275 0.026470588
0.067647059 0.020588235 0.010784314
0.063235294 0.067156863 0.0078431373
0.098039216 0.10980392 0.0058823529
0.1377451 0.14656863 0.00049019608
0.14215686 0.18137255 0.010784314
0.18039216 0.21372549 0.010294118
0.24705882 0.24705882 0
0.20980392 0.27009804 0.010294118
0.29607843 0.30980392 0.0029411765
0.32892157 0.33235294 0.0034313725
0.34705882 0.35882353 0.0039215686
0.4 0.40441176 0
0.41666667 0.42647059 0.00098039216
0.45245098 0.45245098 0.0024509804
0.49803922 0.50196078 0
0.51960784 0.52352941 0.0039215686
0.56372549 0.55980392 0.00098039216
0.55 0.57352941 0.025980392
0.61176471 0.60784314 0.056862745
0.62647059 0.62598039 0.07254902
0.6872549 0.68333333 0.12058824
0.72058824 0.71813725 0.15490196
0.74509804 0.75294118 0.19215686
0.041176471 0.014215686 0.034313725
0.044485294 0.038235294 0.032291667
0.053431373 0.070588235 0.025
0.040808824 0.093811275 0.01685049
0.049264706 0.12598039 0.014215686
0.079901961 0.15422794 0.014215686
0.10857843 0.18382353 0.016053922
0.13927696 0.21525735 0.015747549
0.16862745 0.24705882 0.014215686
0.18988971 0.27310049 0.011213235
0.2377451 0.30919118 0.014215686
0.26488971 0.33872549 0.014215686
0.26544118 0.35686275 0.018137255
0.32346814 0.39932598 0.012438725
0.34509804 0.42365196 0.010294118
0.3495098 0.44466912 0.013235294
0.39509804 0.47205882 0.014215686
0.45404412 0.51182598 0.020588235
0.47683824 0.53688725 0.01997549
0.49852941 0.56991422 0.031495098
0.52965686 0.59460784 0.041421569
0.55955882 0.62242647 0.071629902
0.59019608 0.65502451 0.10098039
0.61685049 0.68400735 0.13106618
0.6372549 0.71078431 0.15294118
0.081372549 0.01372549 0.01372549
0.082352941 0.044117647 0.030147059
0.073284314 0.079656863 0.054411765
0.052941176 0.10747549 0.049509804
0.032843137 0.13921569 0.051470588
0.044485294 0.16372549 0.056985294
0.050735294 0.19338235 0.034803922
0.069485294 0.22438725 0.025857843
0.094117647 0.25588235 0.028431373
0.13198529 0.28284314 0.025122549
0.16078431 0.31372549 0.028186275
0.18235294 0.34375 0.028063725
0.20098039 0.37107843 0.028431373
0.23480392 0.40232843 0.028063725
0.27352941 0.42941176 0.025490196
0.30465686 0.45637255 0.025490196
0.31078431 0.48333333 0.028431373
0.37352941 0.52107843 0.032352941
0.39779412 0.5502451 0.035294118
0.42659314 0.57855392 0.047058824
0.45833333 0.60098039 0.054901961
0.49203431 0.63394608 0.080882353
0.51593137 0.66176471 0.10686275
0.54828431 0.68921569 0.13272059
0.57058824 0.70588235 0.14901961
0.12303922 0.0068627451 0.0068627451
0.12352941 0.038541667 0.054901961
0.11813725 0.072671569 0.096568627
0.097487745 0.10398284 0.11727941
0.067156863 0.14509804 0.14656863
0.050490196 0.17696078 0.14699755
0.047058824 0.19718137 0.10551471
0.075 0.23529412 0.08560049
0.042156863 0.26617647 0.066176471
0.081495098 0.29656863 0.072855392
0.084681373 0.32401961 0.056740196
0.1125 0.35447304 0.043014706
0.13602941 0.38161765 0.042647059
0.16568627 0.40925245 0.042647059
0.2 0.43970588 0.042156863
0.21519608 0.47040441 0.042156863
0.25294118 0.49754902 0.042647059
0.28198529 0.52794118 0.042647059
0.30355392 0.55490196 0.043504902
0.34558824 0.58235294 0.057781863
0.38602941 0.6129902 0.07377451
0.4002451 0.64754902 0.090625
0.43909314 0.67205882 0.10747549
0.49068627 0.69283088 0.13970588
0.5122549 0.70588235 0.15245098
0.16470588 0.0078431373 0.0039215686
0.16470588 0.035539216 0.075245098
0.15980392 0.058823529 0.14901961
0.13872549 0.08872549 0.17622549
0.10882353 0.12156863 0.1872549
0.074019608 0.14068627 0.18553922
0.066666667 0.18235294 0.17990196
0.063480392 0.23553922 0.1870098
0.066666667 0.27843137 0.17058824
0.068382353 0.31127451 0.15490196
0.081372549 0.3377451 0.12843137
0.086029412 0.36519608 0.10098039
0.085294118 0.39607843 0.073529412
0.10147059 0.425 0.060539216
0.13284314 0.45392157 0.062745098
0.14901961 0.48088235 0.065196078
0.18627451 0.51176471 0.058823529
0.21544118 0.54264706 0.055637255
0.23039216 0.57107843 0.054901961
0.27671569 0.59705882 0.071813725
0.29901961 0.62745098 0.082352941
0.36348039 0.65220588 0.11078431
0.39705882 0.67941176 0.12843137
0.43039216 0.70686275 0.15147059
0.47647059 0.72745098 0.17254902
0.20931373 0.01372549 0.0014705882
0.2096201 0.035294118 0.079901961
0.20539216 0.05502451 0.1627451
0.18823529 0.076041667 0.2127451
0.14926471 0.095098039 0.21323529
0.10202206 0.10159314 0.21721814
0.087745098 0.15159314 0.22696078
0.089705882 0.22469363 0.24577206
0.082843137 0.29117647 0.26470588
0.079411765 0.31911765 0.23155637
0.087745098 0.34754902 0.20183824
0.09754902 0.3754902 0.17401961
0.084558824 0.40637255 0.13921569
0.068566176 0.4372549 0.11023284
0.071568627 0.46813725 0.099142157
0.090808824 0.49509804 0.088051471
0.1127451 0.51862745 0.07254902
0.1372549 0.54932598 0.070894608
0.17977941 0.57990196 0.076470588
0.21121324 0.60735294 0.082843137
0.22671569 0.63627451 0.091176471
0.2995098 0.66035539 0.12254902
0.33872549 0.6877451 0.1432598
0.35827206 0.71862745 0.15814951
0.42401961 0.74558824 0.18872549
0.25 0.041176471 0.041176471
0.25 0.041421569 0.097303922
0.24705882 0.050245098 0.17058824
0.23897059 0.062990196 0.23933824
0.2004902 0.08627451 0.24411765
0.16127451 0.10294118 0.25147059
0.12720588 0.125 0.25661765
0.11139706 0.18590686 0.27794118
0.10686275 0.26372549 0.30294118
0.10110294 0.31409314 0.29387255
0.095588235 0.35269608 0.27892157
0.097058824 0.38578431 0.25551471
0.099509804 0.41960784 0.23480392
0.095955882 0.44754902 0.21323529
0.089215686 0.4745098 0.20441176
0.096078431 0.50539216 0.1754902
0.099019608 0.53235294 0.14803922
0.1064951 0.56286765 0.12414216
0.1129902 0.59019608 0.10808824
0.12291667 0.62107843 0.097916667
0.16519608 0.65 0.10882353
0.19080882 0.67487745 0.12303922
0.25906863 0.70122549 0.15294118
0.30490196 0.73186275 0.17745098
0.34803922 0.75588235 0.19803922
0.28578431 0.020098039 0.015686275
0.28731618 0.044669118 0.069607843
0.28615196 0.06127451 0.14215686
0.27567402 0.070281863 0.22089461
0.25710784 0.078921569 0.28088235
0.22303922 0.10165441 0.29068627
0.18529412 0.12058824 0.29068627
0.14001225 0.13345588 0.28860294
0.13235294 0.20294118 0.30343137
0.12990196 0.27487745 0.31458333
0.125 0.33664216 0.33345588
0.11685049 0.39883578 0.36936275
0.11911765 0.43014706 0.33210784
0.11488971 0.46127451 0.30667892
0.1127451 0.48688725 0.29154412
0.1127451 0.51568627 0.26966912
0.11666667 0.54656863 0.24460784
0.12542892 0.57352941 0.20496324
0.11789216 0.6004902 0.17634804
0.12928922 0.63137255 0.16341912
0.13235294 0.66421569 0.14828431
0.17254902 0.68658088 0.146875
0.21139706 0.71433824 0.17291667
0.25343137 0.74313725 0.19411765
0.28529412 0.77156863 0.21078431
0.3254902 0 0
0.3254902 0.034803922 0.068137255
0.3254902 0.060784314 0.14117647
0.31813725 0.074019608 0.21960784
0.30784314 0.078431373 0.3
0.28480392 0.10294118 0.3254902
0.24705882 0.1245098 0.3254902
0.20196078 0.13480392 0.32696078
0.16862745 0.17254902 0.33333333
0.1622549 0.24460784 0.34607843
0.15588235 0.31568627 0.38333333
0.14558824 0.37009804 0.40343137
0.13529412 0.4372549 0.41764706
0.13333333 0.47205882 0.40294118
0.13333333 0.49901961 0.38529412
0.13333333 0.52990196 0.36960784
0.13333333 0.55686275 0.3372549
0.13333333 0.58382353 0.28823529
0.13431373 0.61470588 0.26078431
0.14068627 0.64215686 0.25098039
0.14705882 0.67254902 0.24117647
0.16568627 0.6995098 0.21127451
0.17941176 0.72745098 0.20392157
0.21519608 0.75735294 0.22156863
0.25882353 0.78431373 0.25882353
0.37303922 0.020588235 0.020588235
0.3745098 0.03627451 0.061948529
0.36960784 0.05625 0.16372549
0.36323529 0.070098039 0.25079657
0.36127451 0.0875 0.31666667
0.34656863 0.10471814 0.36176471
0.31495098 0.13651961 0.36666667
0.26617647 0.14656863 0.36966912
0.23039216 0.17647059 0.3745098
0.20036765 0.21550245 0.37542892
0.18284314 0.27169118 0.39656863
0.17009804 0.32990196 0.4158701
0.15980392 0.39093137 0.44019608
0.16029412 0.46776961 0.46470588
0.1567402 0.50404412 0.46323529
0.15245098 0.53621324 0.46568627
0.15 0.56715686 0.43137255
0.1466299 0.5971201 0.38541667
0.14154412 0.625 0.3622549
0.14283088 0.65588235 0.34656863
0.15661765 0.68676471 0.34362745
0.17285539 0.71372549 0.33039216
0.20294118 0.74068627 0.30245098
0.22408088 0.77156863 0.30159314
0.24607843 0.79460784 0.32058824
0.41176471 0.017647059 0.01372549
0.41531863 0.036519608 0.063602941
0.41176471 0.056127451 0.17132353
0.41139706 0.070955882 0.26213235
0.41176471 0.088235294 0.3372549
0.40428922 0.094607843 0.40919118
0.36666667 0.12254902 0.40857843
0.32303922 0.14558824 0.41176471
0.28333333 0.16666667 0.41568627
0.24607843 0.19117647 0.41286765
0.20931373 0.21691176 0.4122549
0.1872549 0.26519608 0.42843137
0.18235294 0.34215686 0.46029412
0.18235294 0.43713235 0.49656863
0.17941176 0.48946078 0.51029412
0.17414216 0.53676471 0.52279412
0.16666667 0.58137255 0.52843137
0.16666667 0.61041667 0.49754902
0.1627451 0.63921569 0.46985294
0.16617647 0.67107843 0.44963235
0.17843137 0.70147059 0.4377451
0.19509804 0.72745098 0.4182598
0.21862745 0.75122549 0.39803922
0.23492647 0.78296569 0.39276961
0.24411765 0.80490196 0.3872549
0.44901961 0.010294118 0.0034313725
0.45294118 0.034803922 0.078125
0.45294118 0.056862745 0.16568627
0.45294118 0.073590686 0.25876225
0.45294118 0.08627451 0.3372549
0.45238971 0.10153186 0.41507353
0.42487745 0.12218137 0.4442402
0.3846201 0.14264706 0.4504902
0.34558824 0.16078431 0.45686275
0.30098039 0.17892157 0.45422794
0.25502451 0.18970588 0.44816176
0.20569853 0.19920343 0.44295343
0.20294118 0.28333333 0.47573529
0.19901961 0.36029412 0.5033701
0.19558824 0.43223039 0.52990196
0.19362745 0.50373775 0.56960784
0.19068627 0.575 0.60392157
0.18511029 0.61911765 0.59283088
0.1807598 0.65428922 0.57696078
0.18676471 0.6877451 0.55294118
0.19730392 0.71495098 0.52892157
0.21176471 0.73817402 0.50833333
0.22634804 0.76482843 0.49154412
0.24197304 0.79215686 0.4754902
0.25441176 0.81127451 0.4627451
0.49411765 0.019607843 0.011764706
0.49411765 0.040931373 0.07254902
0.49411765 0.056372549 0.1627451
0.49411765 0.068137255 0.26372549
0.49411765 0.090196078 0.33529412
0.49411765 0.10637255 0.4120098
0.48480392 0.11960784 0.48431373
0.45171569 0.14166667 0.49411765
0.41568627 0.16078431 0.5
0.36813725 0.17892157 0.49803922
0.31421569 0.19509804 0.48970588
0.26862745 0.21470588 0.4879902
0.23921569 0.25196078 0.5
0.21666667 0.28823529 0.51078431
0.21323529 0.35833333 0.53921569
0.21911765 0.44632353 0.57573529
0.21764706 0.52745098 0.60784314
0.20808824 0.59362745 0.6379902
0.19852941 0.65735294 0.66421569
0.20367647 0.69828431 0.64460784
0.21470588 0.7254902 0.61960784
0.22794118 0.74852941 0.59730392
0.24215686 0.7754902 0.575
0.25171569 0.80245098 0.55588235
0.25882353 0.82156863 0.54313725
0.53529412 0.010294118 0.0034313725
0.53676471 0.047242647 0.061580882
0.53529412 0.060784314 0.15245098
0.53535539 0.070588235 0.2622549
0.53529412 0.093627451 0.33186275
0.53529412 0.11035539 0.4151348
0.53529412 0.1245098 0.49313725
0.50784314 0.14197304 0.52567402
0.47647059 0.16078431 0.53872549
0.4254902 0.18137255 0.53658088
0.37401961 0.20330882 0.53137255
0.32990196 0.22996324 0.534375
0.29411765 0.25220588 0.53872549
0.26421569 0.27555147 0.54405637
0.2504902 0.32352941 0.56078431
0.24803922 0.38970588 0.58400735
0.24460784 0.47647059 0.61617647
0.23792892 0.5495098 0.64460784
0.2245098 0.6057598 0.66764706
0.22150735 0.68474265 0.70790441
0.23063725 0.73504902 0.70882353
0.24417892 0.76317402 0.68186275
0.26519608 0.7872549 0.65735294
0.27126225 0.81678922 0.64215686
0.2754902 0.82745098 0.63186275
0.57647059 0.011764706 0.0078431373
0.57867647 0.046691176 0.061397059
0.57965686 0.059068627 0.16151961
0.58039216 0.064583333 0.28198529
0.57647059 0.091666667 0.34264706
0.57389706 0.11568627 0.40821078
0.57647059 0.1370098 0.47769608
0.55245098 0.14362745 0.53504902
0.52058824 0.15490196 0.56568627
0.47879902 0.1745098 0.57647059
0.42941176 0.20294118 0.57181373
0.375 0.21715686 0.56875
0.33872549 0.23529412 0.57156863
0.31568627 0.26948529 0.58480392
0.2997549 0.31078431 0.59607843
0.27683824 0.35122549 0.60784314
0.26568627 0.42254902 0.63039216
0.25477941 0.49154412 0.65845588
0.24534314 0.55318627 0.68627451
0.24840686 0.62046569 0.70894608
0.25539216 0.69852941 0.73627451
0.25490196 0.77953431 0.77414216
0.27622549 0.80539216 0.75441176
0.28676471 0.82977941 0.7435049
0.29313725 0.83039216 0.72745098
0.61764706 0.011764706 0.0078431373
0.62156863 0.045098039 0.060232843
0.62156863 0.062745098 0.15563725
0.62009804 0.067156863 0.28057598
0.61495098 0.095098039 0.34362745
0.61372549 0.11568627 0.41648284
0.61764706 0.12303922 0.51813725
0.59901961 0.14074755 0.55735294
0.56960784 0.15441176 0.58970588
0.53621324 0.16623775 0.61464461
0.48713235 0.19068627 0.60980392
0.42892157 0.20098039 0.60588235
0.3877451 0.22401961 0.60784314
0.36519608 0.25735294 0.62058824
0.3372549 0.29117647 0.63088235
0.31072304 0.32303922 0.64025735
0.28137255 0.35980392 0.65
0.27052696 0.42493873 0.67395833
0.26678922 0.49362745 0.70392157
0.2596201 0.55833333 0.73351716
0.26642157 0.63308824 0.75563725
0.28204657 0.71813725 0.78480392
0.29607843 0.77745098 0.7995098
0.30245098 0.83602941 0.81580882
0.31127451 0.84754902 0.80343137
0.65882353 0.015686275 0.0078431373
0.65882353 0.046568627 0.065686275
0.65882353 0.060784314 0.14705882
0.65882353 0.07745098 0.25784314
0.65490196 0.10588235 0.33333333
0.65490196 0.12941176 0.40147059
0.65882353 0.1254902 0.51176471
0.65343137 0.15588235 0.55882353
0.63137255 0.16862745 0.60784314
0.60833333 0.17745098 0.6495098
0.56372549 0.20098039 0.65098039
0.50490196 0.21519608 0.65098039
0.45294118 0.2254902 0.65294118
0.40588235 0.24019608 0.65539216
0.37156863 0.26764706 0.66568627
0.34852941 0.30245098 0.67205882
0.31764706 0.32941176 0.67843137
0.29803922 0.37401961 0.69362745
0.29705882 0.44509804 0.72352941
0.29019608 0.51029412 0.74411765
0.29607843 0.57843137 0.76470588
0.30637255 0.6504902 0.78921569
0.31372549 0.72254902 0.8127451
0.32156863 0.81323529 0.84362745
0.3254902 0.87843137 0.86666667
0.7 0.0049019608 0.0049019608
0.69607843 0.042218137 0.066666667
0.69607843 0.05870098 0.16188725
0.69969363 0.071568627 0.271875
0.69730392 0.095098039 0.35441176
0.69871324 0.11452206 0.42745098
0.70183824 0.11911765 0.52267157
0.7 0.14613971 0.58180147
0.69460784 0.16617647 0.64509804
0.67702206 0.17745098 0.69705882
0.63002451 0.20257353 0.69607843
0.57843137 0.22156863 0.69607843
0.52058824 0.23333333 0.69926471
0.46960784 0.24607843 0.7
0.42696078 0.26617647 0.70110294
0.40055147 0.30245098 0.70839461
0.3754902 0.33333333 0.71323529
0.34552696 0.35484069 0.72052696
0.32977941 0.39791667 0.74019608
0.31844363 0.45490196 0.76096814
0.32254902 0.52377451 0.77892157
0.32647059 0.59509804 0.80214461
0.32757353 0.66531863 0.83333333
0.33278186 0.75386029 0.86629902
0.33823529 0.84166667 0.89411765
0.74019608 0.015686275 0.011764706
0.73664216 0.044730392 0.08247549
0.73431373 0.067647059 0.16887255
0.7372549 0.070588235 0.28002451
0.74068627 0.087254902 0.36176471
0.74117647 0.10735294 0.43823529
0.74411765 0.11764706 0.52745098
0.74117647 0.1377451 0.60196078
0.74117647 0.15784314 0.66666667
0.73235294 0.17843137 0.72561275
0.69142157 0.20686275 0.73480392
0.63627451 0.22303922 0.74068627
0.57990196 0.23529412 0.74362745
0.53186275 0.25281863 0.74460784
0.47794118 0.27181373 0.74117647
0.44166667 0.29754902 0.74620098
0.42352941 0.32352941 0.74803922
0.38529412 0.33210784 0.74803922
0.35882353 0.3627451 0.76078431
0.34852941 0.41776961 0.77745098
0.34313725 0.48235294 0.79411765
0.34215686 0.54803922 0.81911765
0.33921569 0.61666667 0.85220588
0.34460784 0.69522059 0.87990196
0.35392157 0.7754902 0.90294118
0.78921569 0 0.00049019608
0.78186275 0.041666667 0.081862745
0.77806373 0.063235294 0.17316176
0.77843137 0.073590686 0.27481618
0.77843137 0.097794118 0.34754902
0.77892157 0.11764706 0.4245098
0.78235294 0.12536765 0.51973039
0.78609069 0.13627451 0.61354167
0.78137255 0.16666667 0.67058824
0.77224265 0.18743873 0.72990196
0.74816176 0.2122549 0.75772059
0.69362745 0.22303922 0.77401961
0.64338235 0.23872549 0.78284314
0.59405637 0.25931373 0.78235294
0.53529412 0.27303922 0.78235294
0.49528186 0.29393382 0.78235294
0.47794118 0.31666667 0.78235294
0.43296569 0.32107843 0.78235294
0.39656863 0.34227941 0.78480392
0.38327206 0.3911152 0.79803922
0.36568627 0.44460784 0.81078431
0.35631127 0.50300245 0.83578431
0.35882353 0.57463235 0.86409314
0.36372549 0.65165441 0.89234069
0.36764706 0.72401961 0.91715686
0.82352941 0 0
0.82352941 0.03995098 0.092647059
0.82352941 0.049509804 0.19656863
0.82352941 0.069117647 0.27377451
0.82254902 0.097058824 0.3372549
0.82181373 0.11617647 0.42647059
0.82647059 0.125 0.52598039
0.83210784 0.13284314 0.62622549
0.82745098 0.16078431 0.68039216
0.81519608 0.19362745 0.72279412
0.8122549 0.21372549 0.79117647
0.77867647 0.22867647 0.82279412
0.71862745 0.24215686 0.81960784
0.67009804 0.26323529 0.81764706
0.61176471 0.27352941 0.81911765
0.57156863 0.29607843 0.81960784
0.54901961 0.32941176 0.81960784
0.48921569 0.32622549 0.81960784
0.45686275 0.35098039 0.82352941
0.43259804 0.38848039 0.82916667
0.39803922 0.4127451 0.83529412
0.37622549 0.45416667 0.85220588
0.37941176 0.53137255 0.87843137
0.38578431 0.60833333 0.90563725
0.38823529 0.65686275 0.92156863
0.86813725 0.0034313725 0.0034313725
0.86470588 0.038235294 0.099816176
0.86470588 0.051593137 0.19730392
0.86470588 0.070036765 0.25894608
0.86470588 0.08995098 0.33406863
0.86470588 0.10980392 0.44901961
0.86470588 0.12058824 0.54129902
0.86813725 0.13480392 0.61764706
0.86470588 0.16421569 0.66666667
0.86078431 0.19362745 0.71832108
0.86066176 0.20625 0.79546569
0.84166667 0.22941176 0.84852941
0.79093137 0.24289216 0.85612745
0.73425245 0.25539216 0.85637255
0.67941176 0.26911765 0.8567402
0.63382353 0.28823529 0.85686275
0.58627451 0.30539216 0.85686275
0.53480392 0.31960784 0.85686275
0.50490196 0.34705882 0.86041667
0.47401961 0.37107843 0.86078431
0.42769608 0.37769608 0.86078431
0.38455882 0.38590686 0.86262255
0.40245098 0.48112745 0.89620098
0.40214461 0.54589461 0.91942402
0.4127451 0.58431373 0.9254902
0.90588235 0 0.00098039216
0.90404412 0.032352941 0.1057598
0.90588235 0.049019608 0.21127451
0.90588235 0.076470588 0.25882353
0.90588235 0.08627451 0.3627451
0.90588235 0.10036765 0.47267157
0.90294118 0.12352941 0.53921569
0.90588235 0.13186275 0.61237745
0.90588235 0.15098039 0.67352941
0.90551471 0.17953431 0.74117647
0.90318627 0.19117647 0.80392157
0.8814951 0.21568627 0.8564951
0.85245098 0.23578431 0.89901961
0.7995098 0.24889706 0.89803922
0.74705882 0.26176471 0.89803922
0.69816176 0.2875 0.90098039
0.65098039 0.31176471 0.90098039
0.59656863 0.32058824 0.90098039
0.55416667 0.33553922 0.90098039
0.51813725 0.35686275 0.90196078
0.47892157 0.37058824 0.90196078
0.44742647 0.39620098 0.90906863
0.40784314 0.41029412 0.91838235
0.41727941 0.47365196 0.92892157
0.42254902 0.51176471 0.93627451
0.94460784 0 0
0.94313725 0.034803922 0.094178922
0.94019608 0.061887255 0.19448529
0.94675245 0.079473039 0.27561275
0.94166667 0.088235294 0.37990196
0.93137255 0.10784314 0.46715686
0.94509804 0.12058824 0.54264706
0.94650735 0.13143382 0.61568627
0.94068627 0.16666667 0.675
0.94613971 0.17536765 0.76482843
0.94276961 0.19558824 0.82120098
0.94313725 0.21096814 0.9096201
0.91740196 0.22745098 0.94828431
0.871875 0.24803922 0.94264706
0.81372549 0.26176471 0.94178922
0.76764706 0.28823529 0.94460784
0.72107843 0.32941176 0.94166667
0.66862745 0.32156863 0.94852941
0.62058824 0.32990196 0.94852941
0.57579657 0.35196078 0.94491422
0.53431373 0.36985294 0.94387255
0.49558824 0.39154412 0.94454657
0.45698529 0.41090686 0.94522059
0.43112745 0.42965686 0.95042892
0.42892157 0.44215686 0.95196078
0.98823529 0 0
0.97647059 0.041666667 0.072058824
0.96960784 0.066666667 0.18039216
0.98382353 0.066666667 0.3
0.9745098 0.084313725 0.38627451
0.94656863 0.11764706 0.45147059
0.97745098 0.12058824 0.54411765
0.97745098 0.13382353 0.62205882
0.96078431 0.15686275 0.69803922
0.98627451 0.175 0.7877451
0.9745098 0.19705882 0.84509804
0.96127451 0.21127451 0.92156863
0.94901961 0.23137255 0.9627451
0.92745098 0.25147059 0.97254902
0.86568627 0.2627451 0.97254902
0.81470588 0.28431373 0.97990196
0.74117647 0.3254902 0.95294118
0.71813725 0.31519608 0.98382353
0.67745098 0.32352941 0.99117647
0.62598039 0.34803922 0.98431373
0.58627451 0.36666667 0.98627451
0.53921569 0.38921569 0.97598039
0.49117647 0.40980392 0.96568627
0.44509804 0.425 0.96078431
0.43529412 0.42745098 0.96078431
0.033823529 0.018137255 0.062254902
0.048039216 0.018443627 0.037683824
0.068627451 0.010294118 0.0079656863
0.077512255 0.050980392 0.0049019608
0.10441176 0.093872549 0.0078431373
0.1495098 0.11605392 0.0039215686
0.19252451 0.17046569 0.0006127451
0.21905637 0.20588235 0.0039215686
0.24460784 0.21862745 0.0039215686
0.24797794 0.23707108 0.0057598039
0.29730392 0.26519608 0.0029411765
0.33204657 0.29852941 0.0039215686
0.36372549 0.31446078 0.0039215686
0.39577206 0.35833333 0.0034313725
0.4314951 0.40906863 0.00036764706
0.45637255 0.4278799 0
0.48627451 0.44656863 0.0039215686
0.51531863 0.50110294 0.016666667
0.54816176 0.51360294 0.014583333
0.57279412 0.5466299 0.024203431
0.59338235 0.55416667 0.030147059
0.6223652 0.58137255 0.054901961
0.65183824 0.61397059 0.07879902
0.69178922 0.65563725 0.12573529
0.70539216 0.66568627 0.13578431
0.040196078 0.038235294 0.05245098
0.047257966 0.045465686 0.042179841
0.063694853 0.067095588 0.020435049
0.06083027 0.085730699 0.013480392
0.075919118 0.1143076 0.014215686
0.13732384 0.1553845 0.0083869485
0.18057598 0.18753064 0.0039675245
0.20083487 0.21351869 0.006372549
0.21041667 0.23284314 0.010294118
0.23331801 0.25655637 0.0093367034
0.28313419 0.29871324 0.0052542892
0.32917433 0.33880208 0.0048406863
0.36847426 0.37401961 0.0023897059
0.39466912 0.40330882 0.0018918505
0.42651654 0.43360907 0.0020833333
0.45488664 0.46132047 0.0051853554
0.45833333 0.47310049 0.014215686
0.51676624 0.52477788 0.025084252
0.54817708 0.55773591 0.038756127
0.57679994 0.58509498 0.059030331
0.61776961 0.62037377 0.092892157
0.65279565 0.65556066 0.12401195
0.67457108 0.68180147 0.14575674
0.69894301 0.70562194 0.17118566
0.74203431 0.74871324 0.21335784
0.078431373 0.073406863 0.028553922
0.073636642 0.059911152 0.039797794
0.063878676 0.077910539 0.067616422
0.06049326 0.10183824 0.056969975
0.056188725 0.1348652 0.033333333
0.067141544 0.17094056 0.031280637
0.11593137 0.19672181 0.027573529
0.13578431 0.225 0.020036765
0.1564951 0.24963235 0.022058824
0.20056679 0.28455882 0.01875
0.23946078 0.32120098 0.01629902
0.25655637 0.35004596 0.018887868
0.28688725 0.38180147 0.018933824
0.32740502 0.41554841 0.015196078
0.33970588 0.43373162 0.01786152
0.36548713 0.45891544 0.021369485
0.4060049 0.49901961 0.028431373
0.42961091 0.52058824 0.030943627
