site/assets/luts/natron-haldclut--kodak-tmax-3200--2d64cfdbb.cube
# LUTr-Project: LUTr — LUTrepository
# LUTr-Schema-Version: 1
# LUTr-ID: natron-haldclut--kodak-tmax-3200--2d64cfdbb
# LUTr-Title: kodak tmax 3200
# LUTr-Collection: Natron HaldCLUT
# LUTr-Collection-ID: natron-haldclut-presets
# LUTr-Source: https://github.com/NatronGitHub/clut
# LUTr-Source-File: submissions/natron-haldclut-presets/negative_new/kodak_tmax_3200.png
# LUTr-Source-Format: PNG
# LUTr-Source-SHA256: 56ba859a43a8159cff82c4317889c1f4797d4dba887109de26264f88d44f1544
# LUTr-License: CC-BY-SA-4.0
# LUTr-License-URL: https://github.com/NatronGitHub/clut#license
# LUTr-Tags: creative, film, film-emulation, hald-clut, natron, png, cube
# LUTr-Transform-Class: film-emulation
# LUTr-Input-Color-Space: srgb
# LUTr-Output-Color-Space: srgb
# LUTr-Color-Space-Confidence: assumed-display-referred
# LUTr-Conversion-Method: PNG LUT image decoded at 16-bit and sampled to 25x25x25 3D CUBE
# LUTr-Conversion-Date: 2026-07-27
# LUTr-Conversion-Tool: LUTr scripts/convert-all-to-cube.mjs
# LUTr-Conversion-Grid: 25x25x25
# LUTr-Note: Preserve this metadata and the upstream license notices when redistributing.
TITLE "kodak tmax 3200"
LUT_3D_SIZE 5
DOMAIN_MIN 0 0 0
DOMAIN_MAX 1 1 1
0.11764706 0.11764706 0.11764706
0.1254902 0.1254902 0.1254902
0.14901961 0.14901961 0.14901961
0.24509804 0.24509804 0.24509804
0.31372549 0.31372549 0.31372549
0.19705882 0.19705882 0.19705882
0.21053922 0.21053922 0.21053922
0.28529412 0.28529412 0.28529412
0.35098039 0.35098039 0.35098039
0.46372549 0.46372549 0.46372549
0.38823529 0.38823529 0.38823529
0.39509804 0.39509804 0.39509804
0.45882353 0.45882353 0.45882353
0.58480392 0.58480392 0.58480392
0.72352941 0.72352941 0.72352941
0.65588235 0.65588235 0.65588235
0.6745098 0.6745098 0.6745098
0.69607843 0.69607843 0.69607843
0.76568627 0.76568627 0.76568627
0.85980392 0.85980392 0.85980392
0.89803922 0.89803922 0.89803922
0.91764706 0.91764706 0.91764706
0.92745098 0.92745098 0.92745098
0.93823529 0.93823529 0.93823529
0.95686275 0.95686275 0.95686275
0.12058824 0.12058824 0.12058824
0.14338235 0.14338235 0.14338235
0.18186275 0.18186275 0.18186275
0.2629902 0.2629902 0.2629902
0.33333333 0.33333333 0.33333333
0.20196078 0.20196078 0.20196078
0.24387255 0.24387255 0.24387255
0.30490196 0.30490196 0.30490196
0.36623775 0.36623775 0.36623775
0.47156863 0.47156863 0.47156863
0.43431373 0.43431373 0.43431373
0.44914216 0.44914216 0.44914216
0.49901961 0.49901961 0.49901961
0.61446078 0.61446078 0.61446078
0.71764706 0.71764706 0.71764706
0.68921569 0.68921569 0.68921569
0.68921569 0.68921569 0.68921569
0.71531863 0.71531863 0.71531863
0.76544118 0.76544118 0.76544118
0.8754902 0.8754902 0.8754902
0.91862745 0.91862745 0.91862745
0.92573529 0.92573529 0.92573529
0.92598039 0.92598039 0.92598039
0.94117647 0.94117647 0.94117647
0.95686275 0.95686275 0.95686275
0.14313725 0.14313725 0.14313725
0.18872549 0.18872549 0.18872549
0.24313725 0.24313725 0.24313725
0.30637255 0.30637255 0.30637255
0.36078431 0.36078431 0.36078431
0.24166667 0.24166667 0.24166667
0.28137255 0.28137255 0.28137255
0.34142157 0.34142157 0.34142157
0.39178922 0.39178922 0.39178922
0.43627451 0.43627451 0.43627451
0.4245098 0.4245098 0.4245098
0.4754902 0.4754902 0.4754902
0.55490196 0.55490196 0.55490196
0.62254902 0.62254902 0.62254902
0.6754902 0.6754902 0.6754902
0.72941176 0.72941176 0.72941176
0.74607843 0.74607843 0.74607843
0.77230392 0.77230392 0.77230392
0.81078431 0.81078431 0.81078431
0.88333333 0.88333333 0.88333333
0.93333333 0.93333333 0.93333333
0.92156863 0.92156863 0.92156863
0.9372549 0.9372549 0.9372549
0.94705882 0.94705882 0.94705882
0.96470588 0.96470588 0.96470588
0.20588235 0.20588235 0.20588235
0.24313725 0.24313725 0.24313725
0.33480392 0.33480392 0.33480392
0.44705882 0.44705882 0.44705882
0.43627451 0.43627451 0.43627451
0.29313725 0.29313725 0.29313725
0.32671569 0.32671569 0.32671569
0.41862745 0.41862745 0.41862745
0.51568627 0.51568627 0.51568627
0.51838235 0.51838235 0.51838235
0.42941176 0.42941176 0.42941176
0.48039216 0.48039216 0.48039216
0.59730392 0.59730392 0.59730392
0.67071078 0.67071078 0.67071078
0.68088235 0.68088235 0.68088235
0.71764706 0.71764706 0.71764706
0.73180147 0.73180147 0.73180147
0.77365196 0.77365196 0.77365196
0.85 0.85 0.85
0.88039216 0.88039216 0.88039216
0.90882353 0.90882353 0.90882353
0.93995098 0.93995098 0.93995098
0.95294118 0.95294118 0.95294118
0.96176471 0.96176471 0.96176471
0.95686275 0.95686275 0.95686275
0.30196078 0.30196078 0.30196078
0.28627451 0.28627451 0.28627451
0.45686275 0.45686275 0.45686275
0.62745098 0.62745098 0.62745098
0.73333333 0.73333333 0.73333333
0.34705882 0.34705882 0.34705882
0.40784314 0.40784314 0.40784314
0.50490196 0.50490196 0.50490196
0.6875 0.6875 0.6875
0.74411765 0.74411765 0.74411765
0.52156863 0.52156863 0.52156863
0.55588235 0.55588235 0.55588235
0.64705882 0.64705882 0.64705882
0.77598039 0.77598039 0.77598039
0.84705882 0.84705882 0.84705882
0.64313725 0.64313725 0.64313725
0.65392157 0.65392157 0.65392157
0.72647059 0.72647059 0.72647059
0.86568627 0.86568627 0.86568627
0.91862745 0.91862745 0.91862745
0.93333333 0.93333333 0.93333333
0.91470588 0.91470588 0.91470588
0.94901961 0.94901961 0.94901961
0.96078431 0.96078431 0.96078431
0.97647059 0.97647059 0.97647059
