site/assets/luts/natron-haldclut--kodak2383-constlmap--ac96ee693.cube
# LUTr-Project: LUTr — LUTrepository
# LUTr-Schema-Version: 1
# LUTr-ID: natron-haldclut--kodak2383-constlmap--ac96ee693
# LUTr-Title: kodak2383 constlmap
# LUTr-Collection: Natron HaldCLUT
# LUTr-Collection-ID: natron-haldclut-presets
# LUTr-Source: https://github.com/NatronGitHub/clut
# LUTr-Source-File: submissions/natron-haldclut-presets/print/kodak2383_constlmap.png
# LUTr-Source-Format: PNG
# LUTr-Source-SHA256: f96b51f3f3410494b9ba55d18625b1967180354a08a2bc75aefa8a392848847a
# LUTr-License: CC-BY-SA-4.0
# LUTr-License-URL: https://github.com/NatronGitHub/clut#license
# LUTr-Tags: creative, film, film-emulation, hald-clut, natron, png, cube
# LUTr-Transform-Class: film-emulation
# LUTr-Input-Color-Space: srgb
# LUTr-Output-Color-Space: srgb
# LUTr-Color-Space-Confidence: assumed-display-referred
# LUTr-Conversion-Method: PNG LUT image decoded at 16-bit and sampled to 25x25x25 3D CUBE
# LUTr-Conversion-Date: 2026-07-27
# LUTr-Conversion-Tool: LUTr scripts/convert-all-to-cube.mjs
# LUTr-Conversion-Grid: 25x25x25
# LUTr-Note: Preserve this metadata and the upstream license notices when redistributing.
TITLE "kodak2383 constlmap"
LUT_3D_SIZE 9
DOMAIN_MIN 0 0 0
DOMAIN_MAX 1 1 1
0.011764706 0.0039215686 0.0078431373
0.034313725 0.015196078 0.011764706
0.081372549 0.035294118 0.019607843
0.17843137 0.06127451 0.0093137255
0.33529412 0.092156863 0.0098039216
0.46960784 0.12156863 0.014215686
0.52843137 0.13333333 0.00098039216
0.56176471 0.1372549 0.019607843
0.6 0.14509804 0.019607843
0.011764706 0.030882353 0.02745098
0.030882353 0.034803922 0.034803922
0.076470588 0.046936275 0.023529412
0.2158701 0.084129902 0.020894608
0.37794118 0.11911765 0.019607843
0.50018382 0.14197304 0.015502451
0.57647059 0.15245098 0.0074754902
0.61127451 0.16029412 0.019607843
0.61960784 0.16813725 0.02745098
0.014705882 0.07254902 0.049019608
0.016544118 0.08002451 0.047058824
0.08627451 0.10220588 0.042156863
0.23235294 0.13137255 0.036764706
0.42303922 0.17745098 0.02745098
0.55539216 0.19227941 0.023529412
0.63921569 0.20269608 0.016666667
0.67291667 0.22352941 0.023529412
0.67941176 0.22745098 0.026470588
0.02745098 0.15392157 0.092647059
0.015992647 0.1622549 0.081188725
0.084191176 0.2 0.059313725
0.28480392 0.25147059 0.02254902
0.49362745 0.28529412 0.01495098
0.64705882 0.32205882 0.025980392
0.72205882 0.33370098 0.013602941
0.75294118 0.35245098 0.021078431
0.77058824 0.37156863 0.018627451
0.019607843 0.25882353 0.13921569
0.030882353 0.28578431 0.1372549
0.0014705882 0.32598039 0.094117647
0.31862745 0.41666667 0.025735294
0.56764706 0.47254902 0.011764706
0.74313725 0.51323529 0.012254902
0.82009804 0.53823529 0.028921569
0.84509804 0.54754902 0.027205882
0.85294118 0.55490196 0.0098039216
0.011764706 0.36764706 0.17794118
0.016360294 0.38253676 0.17273284
0.022058824 0.45637255 0.13664216
0.34215686 0.56617647 0.010294118
0.63823529 0.65490196 0.0090686275
0.81072304 0.68333333 0.031862745
0.88517157 0.70343137 0.039828431
0.91697304 0.72352941 0.060294118
0.92303922 0.71813725 0.038235294
0.035294118 0.40882353 0.20392157
0.0039215686 0.44803922 0.1935049
0.020343137 0.51666667 0.14191176
0.33529412 0.63039216 0.0039215686
0.66323529 0.725 0.0078431373
0.84007353 0.77536765 0.064583333
0.92352941 0.79117647 0.095343137
0.95306373 0.80098039 0.08627451
0.96568627 0.81372549 0.10196078
0.0078431373 0.45098039 0.20833333
0.0073529412 0.49797794 0.20392157
0.030514706 0.5627451 0.13921569
0.39381127 0.66519608 0.011764706
0.67892157 0.75539216 0.029411765
0.85704657 0.80716912 0.065686275
0.94252451 0.83529412 0.10453431
0.96519608 0.83578431 0.090257353
0.97303922 0.83970588 0.098529412
0 0.45882353 0.21960784
0.0034313725 0.56372549 0.17843137
0.14607843 0.63039216 0.065686275
0.45735294 0.71176471 0.0078431373
0.70392157 0.78039216 0.031372549
0.86078431 0.82107843 0.068137255
0.95882353 0.85490196 0.099019608
0.98480392 0.85539216 0.10196078
0.99215686 0.85882353 0.10980392
0.0078431373 0.026960784 0.034803922
0.030882353 0.023468137 0.03872549
0.080269608 0.035294118 0.03872549
0.20392157 0.058639706 0.031862745
0.37009804 0.080637255 0.015441176
0.49381127 0.091176471 0.010477941
0.55735294 0.10698529 0.017034314
0.59166667 0.11464461 0.016115196
0.61911765 0.11519608 0.023039216
0.0078431373 0.034803922 0.039154412
0.030882353 0.038288909 0.046024816
0.092141544 0.058210784 0.046568627
0.21799173 0.080392157 0.034474571
0.38728554 0.11081495 0.033884804
0.51672794 0.1338848 0.04207261
0.59312194 0.13987439 0.028615196
0.63082874 0.14117647 0.001294424
0.64993873 0.14166667 0.019546569
0.023406863 0.079901961 0.065196078
0.033992034 0.077328431 0.05870098
0.09129902 0.099264706 0.061519608
0.24068627 0.13265931 0.062132353
0.43112745 0.18376225 0.062132353
0.57205882 0.19376532 0.06127451
0.65315564 0.2010723 0.036488971
0.69473039 0.21188725 0.026853554
0.70735294 0.21323529 0.0088235294
0.035294118 0.1622549 0.10637255
0.057023591 0.17025888 0.10653339
0.095542279 0.19889706 0.08359375
0.28780637 0.26010263 0.073529412
0.50186887 0.29779412 0.07567402
0.64460784 0.32420343 0.07745098
0.73480392 0.33916973 0.067279412
0.77990196 0.35592065 0.027144608
0.79724265 0.37156863 0.0078431373
0.034803922 0.27205882 0.1620098
0.069117647 0.28946078 0.15811887
0.092340686 0.33890931 0.13474265
0.30441176 0.42288603 0.081372549
0.58039216 0.48406863 0.082598039
0.74901961 0.5229473 0.082506127
0.82628676 0.53878676 0.065808824
0.86053922 0.55664828 0.02377451
0.87769608 0.57205882 0.02377451
0.040196078 0.36893382 0.20098039
0.064093137 0.39170496 0.19475337
0.088480392 0.46363358 0.16542586
0.31415441 0.5723652 0.086588542
0.63302696 0.65294118 0.077297794
0.82126225 0.70147059 0.10557598
0.89652267 0.7185815 0.11871936
0.92827053 0.72761183 0.069791667
0.94001225 0.73872549 0.063909314
0.029534314 0.41617647 0.22009804
0.01127451 0.45834865 0.21864277
0.057536765 0.52745098 0.17693015
0.30891544 0.64301471 0.051884191
0.66764706 0.73137255 0.060294118
0.85373775 0.789231 0.099387255
0.92745098 0.80260417 0.13713235
0.96056985 0.81237745 0.10980392
0.96948529 0.82058824 0.10980392
0.034313725 0.43327206 0.23180147
0.010730699 0.49319853 0.22744332
0.012745098 0.57009804 0.18616728
0.34293045 0.68243719 0.023177083
0.68893995 0.77303922 0.063480392
0.87238817 0.81760876 0.070366115
0.95130208 0.84041054 0.10347733
0.98007047 0.84668352 0.1127451
0.99172794 0.85055147 0.10588235
0.053431373 0.50147059 0.28872549
0.0083946078 0.56660539 0.2651348
0.0077205882 0.65490196 0.20012255
0.41372549 0.73118873 0.051470588
0.71397059 0.80539216 0.052205882
0.88756127 0.84626225 0.072058824
0.97009804 0.86237745 0.10159314
0.99172794 0.86617647 0.15729167
0.99607843 0.86666667 0.20490196
0.0078431373 0.030392157 0.076470588
0.026960784 0.023529412 0.083823529
0.087990196 0.042892157 0.095833333
0.22009804 0.058823529 0.10392157
0.37058824 0.04754902 0.082843137
0.50404412 0.040318627 0.072426471
0.58210784 0.046813725 0.071323529
0.61875 0.059803922 0.074877451
0.63921569 0.055882353 0.095098039
0.019240196 0.050367647 0.095588235
0.030882353 0.046568627 0.095634191
0.087469363 0.060998775 0.099877451
0.22679228 0.081724877 0.12205882
0.40876225 0.080147059 0.094852941
0.55183824 0.082521446 0.080530025
0.63137255 0.044607843 0.073406863
0.66911765 0.033103554 0.07455576
0.68909314 0.04754902 0.076470588
0.026715686 0.088235294 0.1
0.045833333 0.096078431 0.10686275
0.098223039 0.10906863 0.1122549
0.24497549 0.14178922 0.11663603
0.45171569 0.16470588 0.11887255
0.61418505 0.1640625 0.10441176
0.70128676 0.13357843 0.066666667
0.74500613 0.10579044 0.029993873
0.76764706 0.11397059 0.024754902
0.042769608 0.17561275 0.15012255
0.064705882 0.18154105 0.14803922
0.11485907 0.21185662 0.15379902
0.28157169 0.26752451 0.15022978
0.51960784 0.31194853 0.17003676
0.69042586 0.32492341 0.14914216
0.78155637 0.32267157 0.10113358
0.82856924 0.31799939 0.026960784
0.85061275 0.35 0.02254902
0.046568627 0.2877451 0.20245098
0.085477941 0.30667892 0.20980392
0.14411765 0.34509804 0.20588235
0.31623775 0.43535539 0.19313725
0.59019608 0.50808824 0.19877451
0.7622549 0.53768382 0.19264706
0.85625 0.55012255 0.12941176
0.90441176 0.56323529 0.041973039
0.92009804 0.58431373 0.0088235294
0.041421569 0.3810049 0.24375
0.081280637 0.41470588 0.25788909
0.1504902 0.46871936 0.24463848
0.34223346 0.58900123 0.19685968
0.6375 0.67156863 0.20735294
0.83120404 0.71709559 0.22195159
0.90894608 0.72745098 0.20505515
0.96164216 0.74327512 0.087438725
0.97414216 0.75931373 0.095343137
0.025490196 0.43455882 0.27181373
0.056372549 0.48137255 0.28431373
0.082598039 0.54681373 0.26158088
0.29623162 0.67545956 0.13575368
0.65980392 0.75784314 0.17377451
0.85006127 0.80245098 0.21963848
0.93682598 0.82395833 0.25667892
0.99129902 0.83563113 0.1036152
0.99901961 0.83946078 0.11593137
0.0018382353 0.4745098 0.29742647
0.022931985 0.51393995 0.30804228
0.036764706 0.59420956 0.28685662
0.26942402 0.71188725 0.15926777
0.68296569 0.80343137 0.14068627
0.88529412 0.84803922 0.13431373
0.97064951 0.8622549 0.19083946
0.99607843 0.86662071 0.21867341
1 0.87009804 0.24460784
0.015686275 0.52941176 0.37058824
0.033455882 0.57867647 0.37585784
0.02745098 0.66813725 0.36053922
0.34889706 0.76568627 0.30220588
0.69362745 0.83627451 0.28235294
0.89901961 0.87585784 0.2564951
0.97745098 0.88455882 0.25588235
0.99607843 0.88897059 0.3564951
1 0.88921569 0.37941176
0.0039215686 0.06127451 0.14313725
0.020894608 0.030882353 0.17352941
0.081862745 0.025 0.19595588
0.20441176 0.023529412 0.22009804
0.37205882 0.02622549 0.22867647
0.51176471 0.028370098 0.2254902
0.59313725 0.025980392 0.22794118
0.62775735 0.047058824 0.23449755
0.64705882 0.047058824 0.24607843
0.015686275 0.076776961 0.15784314
0.020772059 0.06027114 0.18398438
0.077037377 0.060906863 0.21092218
0.22469363 0.072610294 0.23785999
0.41519608 0.085294118 0.24730392
0.56176471 0.078431373 0.2377451
0.64590993 0.054044118 0.24211091
0.68167892 0.048874081 0.25784314
0.7004902 0.045281863 0.26568627
0.029901961 0.11482843 0.17745098
0.048621324 0.1217065 0.19540441
0.081372549 0.12454044 0.22778799
0.24713542 0.15157782 0.26617647
0.47064951 0.17647059 0.27867647
0.63431373 0.16421569 0.27431066
0.72634804 0.13161765 0.27117034
0.7652114 0.10900735 0.27928922
0.78137255 0.10379902 0.28284314
0.044607843 0.20196078 0.23431373
0.07243413 0.21176471 0.24086244
0.14082414 0.23549326 0.26294424
0.28702512 0.28065257 0.3088848
0.53976716 0.33091299 0.32794118
0.7303079 0.32248775 0.308678
0.82149203 0.32218137 0.29546569
0.85452665 0.33039216 0.29172794
0.8622549 0.34754902 0.29846814
0.048284314 0.31862745 0.29607843
0.094362745 0.33921569 0.30891544
0.17732843 0.38033088 0.3278799
0.34433211 0.46770833 0.36026348
0.58823529 0.53186275 0.36960784
0.80098039 0.56351103 0.35122549
0.90147059 0.56715686 0.32181373
0.93970588 0.58342525 0.29558824
0.95686275 0.6129902 0.29411765
0.029901961 0.41415441 0.34705882
0.10068934 0.45170037 0.37186734
0.17915135 0.51666667 0.38999694
0.33154871 0.63430607 0.39184283
0.62009804 0.71936275 0.3786152
0.84088542 0.75490196 0.40873928
0.9495098 0.76986826 0.36398591
0.99296109 0.78344822 0.32609528
1 0.79656863 0.33235294
0.034313725 0.46862745 0.38296569
0.065318627 0.51314338 0.4127451
0.11740196 0.58379289 0.41960784
0.2308364 0.70772059 0.40170037
0.64019608 0.80796569 0.37916667
0.89145221 0.86317402 0.3618413
0.9627451 0.86369485 0.43609069
0.99264706 0.86960784 0.41913297
1 0.87291667 0.43088235
0.0060661765 0.50147059 0.42665441
0.0008348652 0.55038297 0.44842218
0.081862745 0.62737439 0.47843137
0.14689798 0.7560049 0.46636029
0.64126838 0.84589461 0.43504902
0.8798943 0.88921569 0.40403646
0.97745098 0.90490196 0.45044424
0.99607843 0.90490196 0.49589461
1 0.90471814 0.49589461
0.0078431373 0.59313725 0.51568627
0.030943627 0.62647059 0.5245098
0.017156863 0.69460784 0.54448529
0.25435049 0.79601716 0.54356618
0.66544118 0.87034314 0.52279412
0.8754902 0.90833333 0.50582108
0.98247549 0.92806373 0.52647059
1 0.92843137 0.57647059
1 0.92794118 0.59362745
0.015686275 0.11568627 0.23333333
0.013970588 0.07745098 0.26740196
0.075490196 0.017156863 0.31862745
0.20955882 0.022794118 0.35612745
0.38039216 0.031372549 0.36568627
0.52205882 0.031372549 0.37401961
0.60931373 0.024509804 0.38284314
0.64191176 0.043137255 0.39240196
0.65882353 0.047058824 0.39607843
0.019117647 0.12671569 0.24264706
0.022120098 0.12674632 0.25220588
0.05067402 0.074754902 0.33872549
0.22058824 0.070098039 0.37558211
0.41911765 0.094607843 0.39473039
0.57352941 0.097058824 0.40548407
0.65245098 0.070404412 0.41323529
0.69534314 0.050919118 0.42129289
0.71666667 0.047058824 0.43676471
0.032843137 0.16911765 0.27941176
0.05435049 0.17279412 0.28719363
0.049509804 0.15098039 0.35134804
0.23572304 0.16985294 0.41813725
0.47352941 0.18504902 0.44313725
0.63976716 0.17469363 0.45306373
0.73235294 0.12745098 0.45661765
0.77254902 0.080821078 0.47156863
0.78627451 0.11764706 0.47745098
0.043137255 0.24901961 0.34068627
0.073192402 0.25686275 0.3502451
0.14368873 0.28259804 0.38088235
0.29384191 0.31688113 0.45977328
0.54215686 0.34620098 0.51752451
0.72965686 0.33897059 0.52331495
0.82077206 0.32769608 0.52034314
0.85554534 0.3361826 0.52867647
0.87279412 0.36911765 0.54019608
0.052941176 0.36960784 0.41862745
0.10686275 0.39313725 0.44068627
0.20514706 0.43921569 0.4747549
0.36176471 0.49742647 0.5185049
0.5872549 0.56960784 0.57745098
0.79877451 0.5935049 0.58492647
0.89901961 0.5995098 0.57671569
0.93382353 0.61593137 0.58235294
0.95196078 0.6372549 0.58823529
0.033088235 0.46642157 0.47671569
0.11096814 0.50009191 0.50030637
0.19675245 0.55980392 0.53970588
0.34681373 0.66786152 0.58805147
0.61470588 0.76017157 0.60404412
0.84188113 0.80147059 0.62015931
0.94822304 0.81084559 0.60955882
0.98014706 0.81348039 0.62117034
0.99093137 0.82696078 0.62107843
0.0083333333 0.52058824 0.51813725
0.038235294 0.56348039 0.54558824
0.10955882 0.62254902 0.58235294
0.23057598 0.74705882 0.62401961
0.60441176 0.8504902 0.63946078
0.84926471 0.88921569 0.63125
0.96066176 0.90232843 0.65257353
0.99246324 0.91286765 0.66446078
1 0.91666667 0.67843137
0.0039215686 0.5745098 0.56715686
0.008057598 0.60980392 0.59261642
0.047303922 0.67156863 0.62745098
0.13581495 0.78201593 0.66936275
0.60306373 0.88468137 0.68112745
0.86053922 0.9254902 0.6770527
0.96973039 0.94362745 0.68357843
0.99215686 0.94705882 0.72083333
1 0.94754902 0.73235294
0.0039215686 0.6 0.60392157
0.021568627 0.66568627 0.65
0.029411765 0.72401961 0.68382353
0.1252451 0.83088235 0.72083333
0.6254902 0.90098039 0.72352941
0.8504902 0.94068627 0.73651961
0.96470588 0.95882353 0.73529412
0.99607843 0.9627451 0.75710784
1 0.9627451 0.77647059
0.0039215686 0.14509804 0.28921569
0.010477941 0.14264706 0.30802696
0.056740196 0.062009804 0.40833333
0.20140931 0.025 0.45055147
0.37647059 0.034803922 0.475
0.53235294 0.049571078 0.49313725
0.61862745 0.039583333 0.50061275
0.65030637 0.044301471 0.50422794
0.6745098 0.039215686 0.51813725
0.019607843 0.16568627 0.31617647
0.021752451 0.16334252 0.32702206
0.026884191 0.1 0.43492647
0.21930147 0.075911458 0.48823529
0.42665441 0.10220588 0.51332721
0.58137255 0.11343444 0.52677696
0.66318934 0.088235294 0.53515625
0.70539216 0.040257353 0.55234375
0.72598039 0.042953431 0.56421569
0.0078431373 0.21127451 0.36666667
0.019791667 0.20735294 0.37057292
0.074356618 0.20784314 0.41253064
0.24004289 0.16481311 0.55603554
0.47469363 0.18731618 0.58308824
0.64607843 0.19411765 0.59601716
0.73581495 0.1495098 0.60686275
0.77892157 0.068826593 0.62009804
0.79742647 0.12843137 0.63823529
0.011213235 0.28817402 0.43229167
0.027757353 0.29754902 0.446875
0.11366422 0.31793811 0.48929228
0.23116575 0.32193627 0.64198836
0.53651961 0.35465686 0.68606005
0.72996324 0.35637255 0.69558824
0.81654412 0.33624387 0.6912837
0.85648744 0.35668658 0.70520833
0.87640931 0.38284314 0.71666667
0.02745098 0.40539216 0.51348039
0.074509804 0.42843137 0.53651961
0.18713235 0.46844363 0.57334559
0.34074755 0.53869485 0.67300858
0.59215686 0.60343137 0.74938725
0.78477328 0.60931373 0.75879289
0.89166667 0.61446078 0.75637255
0.92598039 0.63440564 0.76951593
0.94583333 0.66029412 0.78186275
0.022181373 0.509375 0.58088235
0.11289828 0.53645067 0.60539216
0.1988511 0.59523591 0.64921875
0.3644761 0.69893536 0.72598039
0.59990809 0.79120711 0.79044118
0.8245098 0.82843137 0.80582108
0.94221814 0.84117647 0.80960478
0.97684589 0.85213695 0.81427696
0.98823529 0.86078431 0.81519608
0.0042892157 0.57794118 0.63039216
0.037117034 0.60196078 0.64987745
0.12306985 0.66262255 0.69828431
0.24322917 0.78186275 0.77605699
0.56023284 0.87775735 0.81758578
0.82935049 0.91862745 0.82780331
0.95116422 0.93428309 0.83186275
0.98662684 0.93837316 0.84215686
1 0.94754902 0.83860294
0.019607843 0.6004902 0.64901961
0.015709252 0.64068627 0.68518689
0.053967525 0.70067402 0.73265931
0.10274969 0.81029412 0.80461091
0.5765625 0.90998775 0.84656863
0.83308058 0.94774816 0.8495098
0.95379902 0.96528799 0.84558824
0.98854167 0.97254902 0.86938572
0.99607843 0.97040441 0.87303922
0.013235294 0.63284314 0.67745098
0.048039216 0.69822304 0.7408701
0.031985294 0.75147059 0.78247549
0.091176471 0.85232843 0.85428922
0.60441176 0.92426471 0.88014706
0.83143382 0.95833333 0.87254902
0.94803922 0.9807598 0.88676471
0.98694853 0.98186275 0.88707108
0.99607843 0.98039216 0.89852941
0 0.16960784 0.34215686
0.0035539216 0.16127451 0.35379902
0.0046568627 0.10588235 0.46666667
0.2004902 0.031372549 0.51115196
0.39411765 0.03627451 0.55147059
0.54313725 0.062132353 0.56776961
0.63455882 0.062745098 0.58431373
0.65637255 0.04754902 0.57585784
0.6754902 0.044117647 0.58627451
0 0.19522059 0.36911765
0.010523897 0.19264706 0.38082108
0.03057598 0.13517157 0.47417279
0.2245098 0.040058211 0.57155331
0.43878676 0.059191176 0.59901961
0.59114583 0.085294118 0.6127451
0.67484681 0.084558824 0.62049632
0.71323529 0.073713235 0.63235294
0.73186275 0.059436275 0.64362745
0.0039215686 0.24142157 0.42254902
0.0039215686 0.2448223 0.44191176
0.035232843 0.23419118 0.49822304
0.23792892 0.13538603 0.6518076
0.48480392 0.14963235 0.68333333
0.65738358 0.15588235 0.68976716
0.73370098 0.16764706 0.69093137
0.77901348 0.12503064 0.71323529
0.80269608 0.11348039 0.72843137
0.0039215686 0.31752451 0.49105392
0.0039215686 0.33151042 0.51519608
0.053431373 0.34264706 0.56789216
0.22003676 0.34261642 0.709375
0.5314951 0.35968137 0.77794118
0.73049939 0.34257047 0.78670343
0.82218137 0.34215686 0.79362745
0.85851716 0.35240502 0.80147059
0.8754902 0.38529412 0.80968137
0.015196078 0.43137255 0.57401961
0.013235294 0.446875 0.59528186
0.12732843 0.49227941 0.65379902
0.2057598 0.55251225 0.77518382
0.55465686 0.59583333 0.85661765
0.78517157 0.61838235 0.865625
0.8877451 0.62941176 0.86544118
0.92395833 0.64136029 0.87058824
0.94509804 0.66519608 0.88578431
0.0088235294 0.53333333 0.63982843
0.049494485 0.54689032 0.6622549
0.17242647 0.61740196 0.71222426
0.31167279 0.72291667 0.81974571
0.56243873 0.79926471 0.89417892
0.80931373 0.82843137 0.90577512
0.93186275 0.83998162 0.91323529
0.96956189 0.85441176 0.90539216
0.98186275 0.86017157 0.90931373
0.0017156863 0.59313725 0.67941176
0.048161765 0.6203125 0.70441176
0.15710784 0.68848039 0.76207108
0.25505515 0.7924326 0.84852941
0.55343137 0.88333333 0.91335784
0.8286152 0.93860294 0.93483456
0.94338235 0.94785539 0.93792892
0.98480392 0.95171569 0.93235294
0.99607843 0.96176471 0.93529412
0.02745098 0.61580882 0.6995098
0.0069852941 0.65458027 0.73431373
0.05122549 0.72303922 0.79558824
0.1057598 0.82340686 0.88025429
0.53400735 0.91789216 0.93333333
0.82026654 0.95882353 0.94459252
0.94304534 0.97754289 0.95
0.98512561 0.98088235 0.95
0.99607843 0.98529412 0.95098039
0.019607843 0.65588235 0.73823529
0.017156863 0.70919118 0.78468137
0.066666667 0.76666667 0.83357843
0.10379902 0.85637255 0.90759804
0.56372549 0.92598039 0.93872549
0.83272059 0.9689951 0.95
0.93455882 0.98210784 0.95392157
0.98823529 0.99215686 0.95784314
0.99607843 0.99117647 0.95784314
0 0.17254902 0.35343137
0.00049019608 0.17254902 0.38039216
0.03247549 0.11813725 0.46960784
0.20716912 0.040686275 0.55637255
0.39656863 0.024019608 0.5875
0.55128676 0.048529412 0.60802696
0.63676471 0.066666667 0.60539216
0.66721814 0.06317402 0.61666667
0.6754902 0.063235294 0.62107843
0 0.21084559 0.39993873
0.0069776348 0.20424326 0.41519608
0.0086397059 0.18337929 0.4778799
0.22009804 0.033823529 0.61606924
0.44485294 0.035294118 0.65465686
0.60392157 0.054005821 0.66666667
0.69166667 0.074509804 0.6698989
0.73241422 0.065693934 0.68622089
0.74852941 0.066666667 0.69411765
0 0.25036765 0.44264706
0 0.25539216 0.45540748
0.0055147059 0.24981618 0.51338848
0.2053462 0.12467831 0.69264706
0.4875 0.12077206 0.73553922
0.66715686 0.11444547 0.74705882
0.75701593 0.1245098 0.75119485
0.79460784 0.085661765 0.76360294
0.81813725 0.12205882 0.78186275
0 0.3276348 0.51109069
0 0.34861366 0.54427849
0.0039215686 0.35525429 0.60680147
0.17052696 0.32841605 0.7803845
0.52959559 0.36112132 0.81829044
0.71421569 0.35588235 0.83137255
0.81997549 0.34669118 0.83566176
0.85873928 0.37493873 0.8437883
0.87941176 0.39773284 0.85851716
0.0058823529 0.44362745 0.6002451
0.0078125 0.46467525 0.6254902
0.036948529 0.50324755 0.68339461
0.11099877 0.55980392 0.82426471
0.54375 0.60612745 0.89264706
0.76829044 0.6213848 0.90588235
0.88088235 0.62009804 0.91011029
0.91789216 0.63973652 0.91400123
0.93014706 0.65784314 0.91862745
0.015686275 0.55324755 0.67352941
0.016704963 0.57518382 0.69554994
0.067907475 0.63013174 0.75232843
0.14450061 0.72476256 0.86236979
0.53759191 0.80294118 0.9372549
0.80772825 0.83046109 0.95238205
0.92530637 0.85294118 0.95882353
0.96650582 0.86078431 0.95751379
0.97647059 0.85294118 0.95882353
0.016176471 0.59803922 0.69901961
0.044117647 0.63154105 0.72979473
0.084375 0.68602941 0.77941176
0.18143382 0.79554228 0.88097426
0.52432598 0.89129902 0.95539216
0.82112439 0.93337929 0.97098652
0.94571078 0.95747549 0.98051471
0.98088235 0.95882353 0.98039216
0.99571078 0.9627451 0.98051471
0.019607843 0.62401961 0.71862745
0.022610294 0.66698836 0.76029412
0.023636642 0.72267157 0.80894608
0.074571078 0.82849265 0.90618873
0.52306985 0.91792279 0.96519608
0.81599265 0.96268382 0.97824755
0.93916973 0.98056066 0.98480392
0.97696078 0.98442862 0.98431373
0.99607843 0.98866422 0.98431373
0.035784314 0.67107843 0.76127451
0.009252451 0.71280637 0.80294118
0.061887255 0.77046569 0.85294118
0.085477941 0.85471814 0.92303922
0.54754902 0.92941176 0.96887255
0.81617647 0.97224265 0.98216912
0.93235294 0.98431373 0.98443627
0.98088235 0.99215686 0.98088235
0.99607843 0.99215686 0.98088235
0 0.17647059 0.36470588
0.0039215686 0.17254902 0.40294118
0.034313725 0.10588235 0.52058824
0.22352941 0.035294118 0.59558824
0.43921569 0.039215686 0.65294118
0.57598039 0.05245098 0.64215686
0.67156863 0.070588235 0.65882353
0.69901961 0.070588235 0.65980392
0.75294118 0.078431373 0.70980392
0 0.21911765 0.41519608
0.0039215686 0.21476716 0.44166667
0.02745098 0.17843137 0.51286765
0.23137255 0.0052696078 0.6810049
0.46421569 0.057107843 0.70465686
0.62843137 0.056372549 0.71470588
0.72156863 0.084313725 0.7245098
0.75245098 0.051470588 0.72408088
0.77990196 0.055882353 0.74411765
0 0.26176471 0.45784314
0.0035539216 0.26470588 0.48431373
0.0031862745 0.26544118 0.54509804
0.21801471 0.175 0.72843137
0.49901961 0.17303922 0.76372549
0.68051471 0.16078431 0.78370098
0.77941176 0.15588235 0.79534314
0.81433824 0.16752451 0.80159314
0.83431373 0.18627451 0.81176471
0 0.33137255 0.51715686
0.0039215686 0.35098039 0.55324755
0.0078431373 0.36066176 0.62647059
0.14908088 0.36372549 0.76862745
0.52818627 0.3877451 0.83823529
0.73474265 0.38823529 0.85588235
0.83541667 0.38823529 0.86617647
0.86783088 0.41439951 0.87156863
0.88333333 0.43137255 0.8754902
0 0.45294118 0.60980392
0 0.47034314 0.63651961
0.0039215686 0.50686275 0.6995098
0.087990196 0.57401961 0.84093137
0.53627451 0.61666667 0.90686275
0.78186275 0.63921569 0.92426471
0.88284314 0.63627451 0.92794118
0.91813725 0.65465686 0.93137255
0.94313725 0.68039216 0.93921569
0.017156863 0.55196078 0.67745098
0.016176471 0.5786152 0.7026348
0.0024509804 0.63284314 0.76323529
0.042156863 0.7254902 0.87555147
0.52598039 0.79877451 0.95
0.80882353 0.83327206 0.96617647
0.92352941 0.85294118 0.97107843
0.96666667 0.85949755 0.97401961
0.98186275 0.87009804 0.97794118
0.019607843 0.60098039 0.70294118
0.012254902 0.63529412 0.7372549
0.0046568627 0.68995098 0.7870098
0.10428922 0.79730392 0.8932598
0.50245098 0.89215686 0.96666667
0.80306373 0.93578431 0.98431373
0.93553922 0.94632353 0.98823529
0.97781863 0.94840686 0.98921569
0.99313725 0.9627451 0.99313725
0.01127451 0.62401961 0.72205882
0.016115196 0.67401961 0.76813725
0.0078431373 0.72794118 0.81813725
0.028921569 0.82775735 0.90833333
0.47107843 0.91813725 0.9745098
0.81341912 0.96617647 0.99215686
0.93235294 0.98051471 0.99215686
0.98088235 0.98480392 0.99607843
0.99607843 0.98480392 0.99607843
0.0039215686 0.69019608 0.78039216
0.0034313725 0.71715686 0.80686275
0.0068627451 0.77352941 0.85980392
0.069117647 0.84901961 0.92892157
0.52941176 0.92941176 0.9745098
0.79313725 0.96862745 0.98823529
0.93823529 0.99215686 1
0.97696078 0.99264706 0.99607843
1 1 1
