site/assets/luts/natron-haldclut--ilford-delta-3200--71cf0988b.cube
# LUTr-Project: LUTr — LUTrepository
# LUTr-Schema-Version: 1
# LUTr-ID: natron-haldclut--ilford-delta-3200--71cf0988b
# LUTr-Title: ilford delta 3200
# LUTr-Collection: Natron HaldCLUT
# LUTr-Collection-ID: natron-haldclut-presets
# LUTr-Source: https://github.com/NatronGitHub/clut
# LUTr-Source-File: submissions/natron-haldclut-presets/bw/ilford_delta_3200.png
# LUTr-Source-Format: PNG
# LUTr-Source-SHA256: a702d3358842f6bdc59147884b9240532dc34d0efd4858551f4f71bd0376ac69
# LUTr-License: CC-BY-SA-4.0
# LUTr-License-URL: https://github.com/NatronGitHub/clut#license
# LUTr-Tags: creative, film, film-emulation, hald-clut, natron, png, cube
# LUTr-Transform-Class: film-emulation
# LUTr-Input-Color-Space: srgb
# LUTr-Output-Color-Space: srgb
# LUTr-Color-Space-Confidence: assumed-display-referred
# LUTr-Conversion-Method: PNG LUT image decoded at 16-bit and sampled to 25x25x25 3D CUBE
# LUTr-Conversion-Date: 2026-07-27
# LUTr-Conversion-Tool: LUTr scripts/convert-all-to-cube.mjs
# LUTr-Conversion-Grid: 25x25x25
# LUTr-Note: Preserve this metadata and the upstream license notices when redistributing.
TITLE "ilford delta 3200"
LUT_3D_SIZE 9
DOMAIN_MIN 0 0 0
DOMAIN_MAX 1 1 1
0.031372549 0.031372549 0.031372549
0.033823529 0.033823529 0.033823529
0.1 0.1 0.1
0.15 0.15 0.15
0.17843137 0.17843137 0.17843137
0.275 0.275 0.275
0.38333333 0.38333333 0.38333333
0.49215686 0.49215686 0.49215686
0.58431373 0.58431373 0.58431373
0.093137255 0.093137255 0.093137255
0.10091912 0.10091912 0.10091912
0.13835784 0.13835784 0.13835784
0.18609069 0.18609069 0.18609069
0.22867647 0.22867647 0.22867647
0.30949755 0.30949755 0.30949755
0.4064951 0.4064951 0.4064951
0.50300245 0.50300245 0.50300245
0.59558824 0.59558824 0.59558824
0.15882353 0.15882353 0.15882353
0.16666667 0.16666667 0.16666667
0.18602941 0.18602941 0.18602941
0.23823529 0.23823529 0.23823529
0.28088235 0.28088235 0.28088235
0.35147059 0.35147059 0.35147059
0.44117647 0.44117647 0.44117647
0.53382353 0.53382353 0.53382353
0.61470588 0.61470588 0.61470588
0.22058824 0.22058824 0.22058824
0.22824755 0.22824755 0.22824755
0.24166667 0.24166667 0.24166667
0.29215686 0.29215686 0.29215686
0.34607843 0.34607843 0.34607843
0.40931373 0.40931373 0.40931373
0.4877451 0.4877451 0.4877451
0.56470588 0.56470588 0.56470588
0.6377451 0.6377451 0.6377451
0.3 0.3 0.3
0.30735294 0.30735294 0.30735294
0.33039216 0.33039216 0.33039216
0.3625 0.3625 0.3625
0.40980392 0.40980392 0.40980392
0.46176471 0.46176471 0.46176471
0.52598039 0.52598039 0.52598039
0.59926471 0.59926471 0.59926471
0.6745098 0.6745098 0.6745098
0.38872549 0.38872549 0.38872549
0.40392157 0.40392157 0.40392157
0.42303922 0.42303922 0.42303922
0.44754902 0.44754902 0.44754902
0.47156863 0.47156863 0.47156863
0.51960784 0.51960784 0.51960784
0.57745098 0.57745098 0.57745098
0.64344363 0.64344363 0.64344363
0.68382353 0.68382353 0.68382353
0.48529412 0.48529412 0.48529412
0.5004902 0.5004902 0.5004902
0.51568627 0.51568627 0.51568627
0.53480392 0.53480392 0.53480392
0.55784314 0.55784314 0.55784314
0.58590686 0.58590686 0.58590686
0.63921569 0.63921569 0.63921569
0.70098039 0.70098039 0.70098039
0.74313725 0.74313725 0.74313725
0.57352941 0.57352941 0.57352941
0.60539216 0.60539216 0.60539216
0.60931373 0.60931373 0.60931373
0.63186275 0.63186275 0.63186275
0.65661765 0.65661765 0.65661765
0.67598039 0.67598039 0.67598039
0.71715686 0.71715686 0.71715686
0.76623775 0.76623775 0.76623775
0.81323529 0.81323529 0.81323529
0.66666667 0.66666667 0.66666667
0.70098039 0.70098039 0.70098039
0.72156863 0.72156863 0.72156863
0.73970588 0.73970588 0.73970588
0.74509804 0.74509804 0.74509804
0.7622549 0.7622549 0.7622549
0.78823529 0.78823529 0.78823529
0.8122549 0.8122549 0.8122549
0.84313725 0.84313725 0.84313725
0.058333333 0.058333333 0.058333333
0.069607843 0.069607843 0.069607843
0.11262255 0.11262255 0.11262255
0.16519608 0.16519608 0.16519608
0.21568627 0.21568627 0.21568627
0.29411765 0.29411765 0.29411765
0.38676471 0.38676471 0.38676471
0.48339461 0.48339461 0.48339461
0.57254902 0.57254902 0.57254902
0.1122549 0.1122549 0.1122549
0.12352941 0.12352941 0.12352941
0.15366115 0.15366115 0.15366115
0.20016085 0.20016085 0.20016085
0.24954044 0.24954044 0.24954044
0.32091759 0.32091759 0.32091759
0.40232843 0.40232843 0.40232843
0.49564185 0.49564185 0.49564185
0.5995098 0.5995098 0.5995098
0.17009804 0.17009804 0.17009804
0.18529412 0.18529412 0.18529412
0.20833333 0.20833333 0.20833333
0.25 0.25 0.25
0.29632353 0.29632353 0.29632353
0.36185662 0.36185662 0.36185662
0.44313725 0.44313725 0.44313725
0.52463235 0.52463235 0.52463235
0.60686275 0.60686275 0.60686275
0.22616422 0.22616422 0.22616422
0.24185049 0.24185049 0.24185049
0.26617647 0.26617647 0.26617647
0.30409773 0.30409773 0.30409773
0.35563725 0.35563725 0.35563725
0.41549479 0.41549479 0.41549479
0.4877451 0.4877451 0.4877451
0.56421569 0.56421569 0.56421569
0.63382353 0.63382353 0.63382353
0.30759804 0.30759804 0.30759804
0.31170343 0.31170343 0.31170343
0.33780637 0.33780637 0.33780637
0.36706495 0.36706495 0.36706495
0.41740196 0.41740196 0.41740196
0.46559436 0.46559436 0.46559436
0.52794118 0.52794118 0.52794118
0.60101103 0.60101103 0.60101103
0.67843137 0.67843137 0.67843137
0.4 0.4 0.4
0.40553768 0.40553768 0.40553768
0.42166054 0.42166054 0.42166054
0.44908088 0.44908088 0.44908088
0.47990196 0.47990196 0.47990196
0.53088235 0.53088235 0.53088235
0.58658088 0.58658088 0.58658088
0.653125 0.653125 0.653125
0.71323529 0.71323529 0.71323529
0.49276961 0.49276961 0.49276961
0.50059743 0.50059743 0.50059743
0.51176471 0.51176471 0.51176471
0.53480392 0.53480392 0.53480392
0.56176471 0.56176471 0.56176471
0.60405944 0.60405944 0.60405944
0.65833333 0.65833333 0.65833333
0.7122549 0.7122549 0.7122549
0.7504902 0.7504902 0.7504902
0.58137255 0.58137255 0.58137255
0.60587469 0.60587469 0.60587469
0.61312806 0.61312806 0.61312806
0.62949602 0.62949602 0.62949602
0.65441176 0.65441176 0.65441176
0.68525582 0.68525582 0.68525582
0.72864583 0.72864583 0.72864583
0.77756587 0.77756587 0.77756587
0.82058824 0.82058824 0.82058824
0.68235294 0.68235294 0.68235294
0.71231618 0.71231618 0.71231618
0.71041667 0.71041667 0.71041667
0.73480392 0.73480392 0.73480392
0.7377451 0.7377451 0.7377451
0.76354167 0.76354167 0.76354167
0.79656863 0.79656863 0.79656863
0.82352941 0.82352941 0.82352941
0.8504902 0.8504902 0.8504902
0.070588235 0.070588235 0.070588235
0.097426471 0.097426471 0.097426471
0.13921569 0.13921569 0.13921569
0.18639706 0.18639706 0.18639706
0.23970588 0.23970588 0.23970588
0.32107843 0.32107843 0.32107843
0.41544118 0.41544118 0.41544118
0.51556373 0.51556373 0.51556373
0.6 0.6 0.6
0.12745098 0.12745098 0.12745098
0.1504902 0.1504902 0.1504902
0.18443627 0.18443627 0.18443627
0.22112439 0.22112439 0.22112439
0.27303922 0.27303922 0.27303922
0.34301471 0.34301471 0.34301471
0.42892157 0.42892157 0.42892157
0.52325368 0.52325368 0.52325368
0.61176471 0.61176471 0.61176471
0.20318627 0.20318627 0.20318627
0.20903799 0.20903799 0.20903799
0.23474265 0.23474265 0.23474265
0.26688113 0.26688113 0.26688113
0.32034314 0.32034314 0.32034314
0.38302696 0.38302696 0.38302696
0.46372549 0.46372549 0.46372549
0.54877451 0.54877451 0.54877451
0.62720588 0.62720588 0.62720588
0.26960784 0.26960784 0.26960784
0.26881127 0.26881127 0.26881127
0.28921569 0.28921569 0.28921569
0.32794118 0.32794118 0.32794118
0.37254902 0.37254902 0.37254902
0.42855392 0.42855392 0.42855392
0.49779412 0.49779412 0.49779412
0.57642463 0.57642463 0.57642463
0.64852941 0.64852941 0.64852941
0.33823529 0.33823529 0.33823529
0.34215686 0.34215686 0.34215686
0.3627451 0.3627451 0.3627451
0.39307598 0.39307598 0.39307598
0.43088235 0.43088235 0.43088235
0.48229167 0.48229167 0.48229167
0.54215686 0.54215686 0.54215686
0.61256127 0.61256127 0.61256127
0.68823529 0.68823529 0.68823529
0.42303922 0.42303922 0.42303922
0.42357537 0.42357537 0.42357537
0.43789828 0.43789828 0.43789828
0.46600797 0.46600797 0.46600797
0.4971201 0.4971201 0.4971201
0.54682904 0.54682904 0.54682904
0.6018076 0.6018076 0.6018076
0.66269914 0.66269914 0.66269914
0.72696078 0.72696078 0.72696078
0.51176471 0.51176471 0.51176471
0.52046569 0.52046569 0.52046569
0.52745098 0.52745098 0.52745098
0.5495098 0.5495098 0.5495098
0.57732843 0.57732843 0.57732843
0.61948529 0.61948529 0.61948529
0.67316176 0.67316176 0.67316176
0.7245098 0.7245098 0.7245098
0.77279412 0.77279412 0.77279412
0.61617647 0.61617647 0.61617647
0.62401961 0.62401961 0.62401961
0.62766544 0.62766544 0.62766544
0.64054841 0.64054841 0.64054841
0.6692402 0.6692402 0.6692402
0.70747549 0.70747549 0.70747549
0.74650735 0.74650735 0.74650735
0.79276961 0.79276961 0.79276961
0.8245098 0.8245098 0.8245098
0.70490196 0.70490196 0.70490196
0.71237745 0.71237745 0.71237745
0.7245098 0.7245098 0.7245098
0.74227941 0.74227941 0.74227941
0.72745098 0.72745098 0.72745098
0.76948529 0.76948529 0.76948529
0.81642157 0.81642157 0.81642157
0.83566176 0.83566176 0.83566176
0.85882353 0.85882353 0.85882353
0.083333333 0.083333333 0.083333333
0.13351716 0.13351716 0.13351716
0.17009804 0.17009804 0.17009804
0.21372549 0.21372549 0.21372549
0.28088235 0.28088235 0.28088235
0.3504902 0.3504902 0.3504902
0.43676471 0.43676471 0.43676471
0.53333333 0.53333333 0.53333333
0.61421569 0.61421569 0.61421569
0.15814951 0.15814951 0.15814951
0.17963388 0.17963388 0.17963388
0.21564032 0.21564032 0.21564032
0.25262714 0.25262714 0.25262714
0.30784314 0.30784314 0.30784314
0.36960784 0.36960784 0.36960784
0.44817708 0.44817708 0.44817708
0.5372549 0.5372549 0.5372549
0.61960784 0.61960784 0.61960784
0.23517157 0.23517157 0.23517157
0.23792892 0.23792892 0.23792892
0.2622549 0.2622549 0.2622549
0.29664522 0.29664522 0.29664522
0.34656863 0.34656863 0.34656863
0.40874694 0.40874694 0.40874694
0.48223039 0.48223039 0.48223039
0.56372549 0.56372549 0.56372549
0.63884804 0.63884804 0.63884804
0.30147059 0.30147059 0.30147059
0.29901961 0.29901961 0.29901961
0.3122549 0.3122549 0.3122549
0.35490196 0.35490196 0.35490196
0.39558824 0.39558824 0.39558824
0.45343137 0.45343137 0.45343137
0.51597733 0.51597733 0.51597733
0.59197304 0.59197304 0.59197304
0.66372549 0.66372549 0.66372549
0.36715686 0.36715686 0.36715686
0.37411152 0.37411152 0.37411152
0.38823529 0.38823529 0.38823529
0.42058824 0.42058824 0.42058824
0.45931373 0.45931373 0.45931373
0.5078125 0.5078125 0.5078125
0.56911765 0.56911765 0.56911765
0.63480392 0.63480392 0.63480392
0.70122549 0.70122549 0.70122549
0.44852941 0.44852941 0.44852941
0.45 0.45 0.45
0.46470588 0.46470588 0.46470588
0.49109222 0.49109222 0.49109222
0.52107843 0.52107843 0.52107843
0.56911765 0.56911765 0.56911765
0.62552083 0.62552083 0.62552083
0.68333333 0.68333333 0.68333333
0.74172794 0.74172794 0.74172794
0.53872549 0.53872549 0.53872549
0.54633885 0.54633885 0.54633885
0.55441176 0.55441176 0.55441176
0.57470895 0.57470895 0.57470895
0.60079657 0.60079657 0.60079657
0.63393076 0.63393076 0.63393076
0.68235294 0.68235294 0.68235294
0.73480392 0.73480392 0.73480392
0.78872549 0.78872549 0.78872549
0.64362745 0.64362745 0.64362745
0.65143229 0.65143229 0.65143229
0.65490196 0.65490196 0.65490196
0.66960784 0.66960784 0.66960784
0.69289216 0.69289216 0.69289216
0.72040441 0.72040441 0.72040441
0.75502451 0.75502451 0.75502451
0.80147059 0.80147059 0.80147059
0.83841912 0.83841912 0.83841912
0.74509804 0.74509804 0.74509804
0.7495098 0.7495098 0.7495098
0.73786765 0.73786765 0.73786765
0.75294118 0.75294118 0.75294118
0.76789216 0.76789216 0.76789216
0.78670343 0.78670343 0.78670343
0.82303922 0.82303922 0.82303922
0.85392157 0.85392157 0.85392157
0.88480392 0.88480392 0.88480392
0.16078431 0.16078431 0.16078431
0.1877451 0.1877451 0.1877451
0.2127451 0.2127451 0.2127451
0.26176471 0.26176471 0.26176471
0.3254902 0.3254902 0.3254902
0.38921569 0.38921569 0.38921569
0.46764706 0.46764706 0.46764706
0.55637255 0.55637255 0.55637255
0.6372549 0.6372549 0.6372549
0.20098039 0.20098039 0.20098039
0.22034314 0.22034314 0.22034314
0.24540441 0.24540441 0.24540441
0.29329044 0.29329044 0.29329044
0.34938725 0.34938725 0.34938725
0.40833333 0.40833333 0.40833333
0.48186275 0.48186275 0.48186275
0.56421569 0.56421569 0.56421569
0.64877451 0.64877451 0.64877451
0.27058824 0.27058824 0.27058824
0.27818627 0.27818627 0.27818627
0.29901961 0.29901961 0.29901961
0.33216912 0.33216912 0.33216912
0.38137255 0.38137255 0.38137255
0.44142157 0.44142157 0.44142157
0.50980392 0.50980392 0.50980392
0.58762255 0.58762255 0.58762255
0.66470588 0.66470588 0.66470588
0.33431373 0.33431373 0.33431373
0.33382353 0.33382353 0.33382353
0.36078431 0.36078431 0.36078431
0.38970588 0.38970588 0.38970588
0.42843137 0.42843137 0.42843137
0.48131127 0.48131127 0.48131127
0.54215686 0.54215686 0.54215686
0.61259191 0.61259191 0.61259191
0.68602941 0.68602941 0.68602941
0.40098039 0.40098039 0.40098039
0.40759804 0.40759804 0.40759804
0.42377451 0.42377451 0.42377451
0.45147059 0.45147059 0.45147059
0.49019608 0.49019608 0.49019608
0.53823529 0.53823529 0.53823529
0.59607843 0.59607843 0.59607843
0.6620098 0.6620098 0.6620098
0.7254902 0.7254902 0.7254902
0.47426471 0.47426471 0.47426471
0.48088235 0.48088235 0.48088235
0.49620098 0.49620098 0.49620098
0.52107843 0.52107843 0.52107843
0.55526961 0.55526961 0.55526961
0.59607843 0.59607843 0.59607843
0.64589461 0.64589461 0.64589461
0.70637255 0.70637255 0.70637255
0.76102941 0.76102941 0.76102941
0.55784314 0.55784314 0.55784314
0.57132353 0.57132353 0.57132353
0.58431373 0.58431373 0.58431373
0.60343137 0.60343137 0.60343137
0.63039216 0.63039216 0.63039216
0.66439951 0.66439951 0.66439951
0.69901961 0.69901961 0.69901961
0.75128676 0.75128676 0.75128676
0.80735294 0.80735294 0.80735294
0.65637255 0.65637255 0.65637255
0.66789216 0.66789216 0.66789216
0.67696078 0.67696078 0.67696078
0.68887868 0.68887868 0.68887868
0.71397059 0.71397059 0.71397059
0.74181985 0.74181985 0.74181985
0.76887255 0.76887255 0.76887255
0.80196078 0.80196078 0.80196078
0.84558824 0.84558824 0.84558824
0.74509804 0.74509804 0.74509804
0.7370098 0.7370098 0.7370098
0.75294118 0.75294118 0.75294118
0.7502451 0.7502451 0.7502451
0.77843137 0.77843137 0.77843137
0.80735294 0.80735294 0.80735294
0.83235294 0.83235294 0.83235294
0.85955882 0.85955882 0.85955882
0.91568627 0.91568627 0.91568627
0.18431373 0.18431373 0.18431373
0.22058824 0.22058824 0.22058824
0.25588235 0.25588235 0.25588235
0.30196078 0.30196078 0.30196078
0.36691176 0.36691176 0.36691176
0.4254902 0.4254902 0.4254902
0.49644608 0.49644608 0.49644608
0.5872549 0.5872549 0.5872549
0.66813725 0.66813725 0.66813725
0.23939951 0.23939951 0.23939951
0.26452206 0.26452206 0.26452206
0.29381127 0.29381127 0.29381127
0.33558517 0.33558517 0.33558517
0.39175858 0.39175858 0.39175858
0.44852941 0.44852941 0.44852941
0.51372549 0.51372549 0.51372549
0.59810049 0.59810049 0.59810049
0.67205882 0.67205882 0.67205882
0.31433824 0.31433824 0.31433824
0.32469363 0.32469363 0.32469363
0.34371936 0.34371936 0.34371936
0.37636336 0.37636336 0.37636336
0.4254902 0.4254902 0.4254902
0.47941176 0.47941176 0.47941176
0.54362745 0.54362745 0.54362745
0.61727941 0.61727941 0.61727941
0.68235294 0.68235294 0.68235294
0.38284314 0.38284314 0.38284314
0.38511795 0.38511795 0.38511795
0.40355392 0.40355392 0.40355392
0.43290441 0.43290441 0.43290441
0.46715686 0.46715686 0.46715686
0.51554075 0.51554075 0.51554075
0.57473958 0.57473958 0.57473958
0.64271599 0.64271599 0.64271599
0.70741422 0.70741422 0.70741422
0.44338235 0.44338235 0.44338235
0.44589461 0.44589461 0.44589461
0.46231618 0.46231618 0.46231618
0.49019608 0.49019608 0.49019608
0.52610294 0.52610294 0.52610294
0.56957721 0.56957721 0.56957721
0.62696078 0.62696078 0.62696078
0.69264706 0.69264706 0.69264706
0.74705882 0.74705882 0.74705882
0.51084559 0.51084559 0.51084559
0.51637561 0.51637561 0.51637561
0.532981 0.532981 0.532981
0.55735294 0.55735294 0.55735294
0.59215686 0.59215686 0.59215686
0.63122702 0.63122702 0.63122702
0.676731 0.676731 0.676731
0.73333333 0.73333333 0.73333333
0.77794118 0.77794118 0.77794118
0.59411765 0.59411765 0.59411765
0.60018382 0.60018382 0.60018382
0.61617647 0.61617647 0.61617647
0.63431373 0.63431373 0.63431373
0.66421569 0.66421569 0.66421569
0.69901961 0.69901961 0.69901961
0.73183211 0.73183211 0.73183211
0.77156863 0.77156863 0.77156863
0.81703431 0.81703431 0.81703431
0.68676471 0.68676471 0.68676471
0.6946921 0.6946921 0.6946921
0.70882353 0.70882353 0.70882353
0.71617647 0.71617647 0.71617647
0.73382353 0.73382353 0.73382353
0.76911765 0.76911765 0.76911765
0.79031863 0.79031863 0.79031863
0.8151348 0.8151348 0.8151348
0.8564951 0.8564951 0.8564951
0.7754902 0.7754902 0.7754902
0.78707108 0.78707108 0.78707108
0.77794118 0.77794118 0.77794118
0.7598652 0.7598652 0.7598652
0.80784314 0.80784314 0.80784314
0.82745098 0.82745098 0.82745098
0.83345588 0.83345588 0.83345588
0.86323529 0.86323529 0.86323529
0.89656863 0.89656863 0.89656863
0.24215686 0.24215686 0.24215686
0.27156863 0.27156863 0.27156863
0.31470588 0.31470588 0.31470588
0.35980392 0.35980392 0.35980392
0.41372549 0.41372549 0.41372549
0.46948529 0.46948529 0.46948529
0.52377451 0.52377451 0.52377451
0.60931373 0.60931373 0.60931373
0.68627451 0.68627451 0.68627451
0.30637255 0.30637255 0.30637255
0.31813725 0.31813725 0.31813725
0.3495098 0.3495098 0.3495098
0.38823529 0.38823529 0.38823529
0.44068627 0.44068627 0.44068627
0.4942402 0.4942402 0.4942402
0.54754902 0.54754902 0.54754902
0.62144608 0.62144608 0.62144608
0.68529412 0.68529412 0.68529412
0.37254902 0.37254902 0.37254902
0.37598039 0.37598039 0.37598039
0.39901961 0.39901961 0.39901961
0.42990196 0.42990196 0.42990196
0.4745098 0.4745098 0.4745098
0.5245098 0.5245098 0.5245098
0.57843137 0.57843137 0.57843137
0.6442402 0.6442402 0.6442402
0.69901961 0.69901961 0.69901961
0.43370098 0.43370098 0.43370098
0.43688725 0.43688725 0.43688725
0.45294118 0.45294118 0.45294118
0.4810049 0.4810049 0.4810049
0.51280637 0.51280637 0.51280637
0.56199449 0.56199449 0.56199449
0.61715686 0.61715686 0.61715686
0.67777267 0.67777267 0.67777267
0.72892157 0.72892157 0.72892157
0.49215686 0.49215686 0.49215686
0.49595588 0.49595588 0.49595588
0.51004902 0.51004902 0.51004902
0.53743873 0.53743873 0.53743873
0.57009804 0.57009804 0.57009804
0.61121324 0.61121324 0.61121324
0.66127451 0.66127451 0.66127451
0.71648284 0.71648284 0.71648284
0.76372549 0.76372549 0.76372549
0.55723039 0.55723039 0.55723039
0.56168811 0.56168811 0.56168811
0.57573529 0.57573529 0.57573529
0.59538909 0.59538909 0.59538909
0.62941176 0.62941176 0.62941176
0.66960784 0.66960784 0.66960784
0.71078431 0.71078431 0.71078431
0.75733762 0.75733762 0.75733762
0.79852941 0.79852941 0.79852941
0.63921569 0.63921569 0.63921569
0.64313725 0.64313725 0.64313725
0.65189951 0.65189951 0.65189951
0.67257966 0.67257966 0.67257966
0.69901961 0.69901961 0.69901961
0.73382353 0.73382353 0.73382353
0.76488971 0.76488971 0.76488971
0.80245098 0.80245098 0.80245098
0.83651961 0.83651961 0.83651961
0.72879902 0.72879902 0.72879902
0.73578431 0.73578431 0.73578431
0.73970588 0.73970588 0.73970588
0.74808517 0.74808517 0.74808517
0.76470588 0.76470588 0.76470588
0.79166667 0.79166667 0.79166667
0.8205576 0.8205576 0.8205576
0.8495098 0.8495098 0.8495098
0.88419118 0.88419118 0.88419118
0.80490196 0.80490196 0.80490196
0.81531863 0.81531863 0.81531863
0.8127451 0.8127451 0.8127451
0.80588235 0.80588235 0.80588235
0.82058824 0.82058824 0.82058824
0.8495098 0.8495098 0.8495098
0.86470588 0.86470588 0.86470588
0.89264706 0.89264706 0.89264706
0.93529412 0.93529412 0.93529412
0.33480392 0.33480392 0.33480392
0.34215686 0.34215686 0.34215686
0.37647059 0.37647059 0.37647059
0.42126225 0.42126225 0.42126225
0.46764706 0.46764706 0.46764706
0.51979167 0.51979167 0.51979167
0.55539216 0.55539216 0.55539216
0.64117647 0.64117647 0.64117647
0.71421569 0.71421569 0.71421569
0.38088235 0.38088235 0.38088235
0.38904718 0.38904718 0.38904718
0.41046262 0.41046262 0.41046262
0.44852941 0.44852941 0.44852941
0.49261642 0.49261642 0.49261642
0.54095435 0.54095435 0.54095435
0.59411765 0.59411765 0.59411765
0.65325521 0.65325521 0.65325521
0.71672794 0.71672794 0.71672794
0.43823529 0.43823529 0.43823529
0.43921569 0.43921569 0.43921569
0.45658701 0.45658701 0.45658701
0.48872549 0.48872549 0.48872549
0.52745098 0.52745098 0.52745098
0.5713848 0.5713848 0.5713848
0.62527574 0.62527574 0.62527574
0.68284314 0.68284314 0.68284314
0.73333333 0.73333333 0.73333333
0.49607843 0.49607843 0.49607843
0.49607843 0.49607843 0.49607843
0.50894608 0.50894608 0.50894608
0.5377451 0.5377451 0.5377451
0.5622549 0.5622549 0.5622549
0.60539982 0.60539982 0.60539982
0.65894608 0.65894608 0.65894608
0.70980392 0.70980392 0.70980392
0.75588235 0.75588235 0.75588235
0.55784314 0.55784314 0.55784314
0.55784314 0.55784314 0.55784314
0.56519608 0.56519608 0.56519608
0.58838848 0.58838848 0.58838848
0.61335784 0.61335784 0.61335784
0.64583333 0.64583333 0.64583333
0.69240196 0.69240196 0.69240196
0.74261642 0.74261642 0.74261642
0.78872549 0.78872549 0.78872549
0.61176471 0.61176471 0.61176471
0.61568627 0.61568627 0.61568627
0.62647059 0.62647059 0.62647059
0.6421492 0.6421492 0.6421492
0.66813725 0.66813725 0.66813725
0.70294118 0.70294118 0.70294118
0.74448529 0.74448529 0.74448529
0.78823529 0.78823529 0.78823529
0.82567402 0.82567402 0.82567402
0.68615196 0.68615196 0.68615196
0.69018076 0.69018076 0.69018076
0.70153186 0.70153186 0.70153186
0.71706495 0.71706495 0.71706495
0.73235294 0.73235294 0.73235294
0.76470588 0.76470588 0.76470588
0.7995098 0.7995098 0.7995098
0.83333333 0.83333333 0.83333333
0.85980392 0.85980392 0.85980392
0.76623775 0.76623775 0.76623775
0.77369792 0.77369792 0.77369792
0.78186275 0.78186275 0.78186275
0.79001225 0.79001225 0.79001225
0.80147059 0.80147059 0.80147059
0.82254902 0.82254902 0.82254902
0.8495098 0.8495098 0.8495098
0.87647059 0.87647059 0.87647059
0.89509804 0.89509804 0.89509804
0.83970588 0.83970588 0.83970588
0.84754902 0.84754902 0.84754902
0.84754902 0.84754902 0.84754902
0.86176471 0.86176471 0.86176471
0.85098039 0.85098039 0.85098039
0.85245098 0.85245098 0.85245098
0.89865196 0.89865196 0.89865196
0.92205882 0.92205882 0.92205882
0.93333333 0.93333333 0.93333333
0.4 0.4 0.4
0.40392157 0.40392157 0.40392157
0.42254902 0.42254902 0.42254902
0.46764706 0.46764706 0.46764706
0.52156863 0.52156863 0.52156863
0.57794118 0.57794118 0.57794118
0.57647059 0.57647059 0.57647059
0.66421569 0.66421569 0.66421569
0.75294118 0.75294118 0.75294118
0.44215686 0.44215686 0.44215686
0.44607843 0.44607843 0.44607843
0.45821078 0.45821078 0.45821078
0.49589461 0.49589461 0.49589461
0.53872549 0.53872549 0.53872549
0.59099265 0.59099265 0.59099265
0.62843137 0.62843137 0.62843137
0.69417892 0.69417892 0.69417892
0.76813725 0.76813725 0.76813725
0.49607843 0.49607843 0.49607843
0.49693627 0.49693627 0.49693627
0.5125 0.5125 0.5125
0.54166667 0.54166667 0.54166667
0.57745098 0.57745098 0.57745098
0.62009804 0.62009804 0.62009804
0.66446078 0.66446078 0.66446078
0.7185049 0.7185049 0.7185049
0.76862745 0.76862745 0.76862745
0.55392157 0.55392157 0.55392157
0.55392157 0.55392157 0.55392157
0.56176471 0.56176471 0.56176471
0.58829657 0.58829657 0.58829657
0.60833333 0.60833333 0.60833333
0.64552696 0.64552696 0.64552696
0.69068627 0.69068627 0.69068627
0.73676471 0.73676471 0.73676471
0.78284314 0.78284314 0.78284314
0.61568627 0.61568627 0.61568627
0.61568627 0.61568627 0.61568627
0.62352941 0.62352941 0.62352941
0.63529412 0.63529412 0.63529412
0.65098039 0.65098039 0.65098039
0.67303922 0.67303922 0.67303922
0.72156863 0.72156863 0.72156863
0.76544118 0.76544118 0.76544118
0.80784314 0.80784314 0.80784314
0.66568627 0.66568627 0.66568627
0.66960784 0.66960784 0.66960784
0.68137255 0.68137255 0.68137255
0.69405637 0.69405637 0.69405637
0.70612745 0.70612745 0.70612745
0.72598039 0.72598039 0.72598039
0.76531863 0.76531863 0.76531863
0.80588235 0.80588235 0.80588235
0.84068627 0.84068627 0.84068627
0.73235294 0.73235294 0.73235294
0.73921569 0.73921569 0.73921569
0.75171569 0.75171569 0.75171569
0.75490196 0.75490196 0.75490196
0.76617647 0.76617647 0.76617647
0.7877451 0.7877451 0.7877451
0.82156863 0.82156863 0.82156863
0.85343137 0.85343137 0.85343137
0.86764706 0.86764706 0.86764706
0.80931373 0.80931373 0.80931373
0.81323529 0.81323529 0.81323529
0.81237745 0.81237745 0.81237745
0.81648284 0.81648284 0.81648284
0.82867647 0.82867647 0.82867647
0.84509804 0.84509804 0.84509804
0.87647059 0.87647059 0.87647059
0.89852941 0.89852941 0.89852941
0.89460784 0.89460784 0.89460784
0.88235294 0.88235294 0.88235294
0.89460784 0.89460784 0.89460784
0.86764706 0.86764706 0.86764706
0.86029412 0.86029412 0.86029412
0.85490196 0.85490196 0.85490196
0.86176471 0.86176471 0.86176471
0.93235294 0.93235294 0.93235294
0.92941176 0.92941176 0.92941176
0.9254902 0.9254902 0.9254902
