site/assets/luts/natron-haldclut--kodak2383-cuspclip--57ef0bb43.cube
# LUTr-Project: LUTr — LUTrepository
# LUTr-Schema-Version: 1
# LUTr-ID: natron-haldclut--kodak2383-cuspclip--57ef0bb43
# LUTr-Title: kodak2383 cuspclip
# LUTr-Collection: Natron HaldCLUT
# LUTr-Collection-ID: natron-haldclut-presets
# LUTr-Source: https://github.com/NatronGitHub/clut
# LUTr-Source-File: submissions/natron-haldclut-presets/print/kodak2383_cuspclip.png
# LUTr-Source-Format: PNG
# LUTr-Source-SHA256: d83d75acecd89ac8976fc8e3948f20c8b22f1a366c7bca7a18e3f54e8b815260
# LUTr-License: CC-BY-SA-4.0
# LUTr-License-URL: https://github.com/NatronGitHub/clut#license
# LUTr-Tags: creative, film, film-emulation, hald-clut, natron, png, cube
# LUTr-Transform-Class: film-emulation
# LUTr-Input-Color-Space: srgb
# LUTr-Output-Color-Space: srgb
# LUTr-Color-Space-Confidence: assumed-display-referred
# LUTr-Conversion-Method: PNG LUT image decoded at 16-bit and sampled to 25x25x25 3D CUBE
# LUTr-Conversion-Date: 2026-07-27
# LUTr-Conversion-Tool: LUTr scripts/convert-all-to-cube.mjs
# LUTr-Conversion-Grid: 25x25x25
# LUTr-Note: Preserve this metadata and the upstream license notices when redistributing.
TITLE "kodak2383 cuspclip"
LUT_3D_SIZE 9
DOMAIN_MIN 0 0 0
DOMAIN_MAX 1 1 1
0.0078431373 0.0078431373 0.019607843
0.030882353 0.015686275 0.012254902
0.080392157 0.034313725 0.015686275
0.18480392 0.053431373 0.0093137255
0.36078431 0.076470588 0
0.51323529 0.10343137 0
0.61568627 0.13333333 0
0.63578431 0.14166667 0
0.65098039 0.15686275 0
0.012254902 0.034313725 0.023039216
0.035232843 0.03872549 0.026531863
0.088235294 0.053431373 0.02745098
0.21421569 0.07254902 0.015379902
0.4129902 0.091666667 0.0039215686
0.56617647 0.12383578 0
0.64362745 0.15735294 0.012745098
0.67794118 0.17199755 0.018198529
0.68578431 0.17990196 0.019117647
0 0.069607843 0.039215686
0.016176471 0.081372549 0.043137255
0.095098039 0.095343137 0.03995098
0.25833333 0.13137255 0.013602941
0.45539216 0.1504902 0
0.61458333 0.1877451 0
0.69313725 0.21470588 0.01372549
0.72794118 0.23235294 0.023529412
0.73921569 0.2372549 0.012745098
0 0.20441176 0.10294118
0.0037377451 0.19246324 0.082536765
0.051960784 0.2 0.032843137
0.28970588 0.25490196 0
0.54852941 0.31348039 0
0.70588235 0.33137255 0
0.76911765 0.34583333 0.022671569
0.79607843 0.36439951 0.027144608
0.81519608 0.38333333 0.019607843
0.021568627 0.36862745 0.18627451
0.011764706 0.36666667 0.16544118
0 0.35539216 0.019607843
0.31617647 0.43872549 0.00073529412
0.61568627 0.51176471 0.0049019608
0.79068627 0.54705882 0.017647059
0.84803922 0.54166667 0.021568627
0.87107843 0.55147059 0.0036764706
0.88823529 0.57843137 0.0019607843
0.045588235 0.48676471 0.24460784
0.029411765 0.51109069 0.2346201
0.00098039216 0.51568627 0.13333333
0.30104167 0.60091912 0.010294118
0.66568627 0.69215686 0.0078431373
0.84901961 0.72015931 0.041237745
0.91323529 0.72806373 0.05245098
0.93106618 0.72352941 0.048223039
0.9504902 0.74803922 0.064215686
0.0029411765 0.54313725 0.26372549
0.034681373 0.56911765 0.25245098
0.031862745 0.59215686 0.15220588
0.36544118 0.68382353 0.0028186275
0.70441176 0.77990196 0.012745098
0.87745098 0.80735294 0.068504902
0.93823529 0.80980392 0.082352941
0.96213235 0.81409314 0.087622549
0.96960784 0.81372549 0.091176471
0.026470588 0.56862745 0.27401961
0.034803922 0.59650735 0.24362745
0 0.61875 0.081862745
0.37714461 0.70851716 0.0014705882
0.71421569 0.8002451 0.029411765
0.87647059 0.83547794 0.071752451
0.95 0.84362745 0.090196078
0.97346814 0.84362745 0.094178922
0.98431373 0.84705882 0.10196078
0.0039215686 0.61176471 0.24313725
0.0014705882 0.62990196 0.18529412
0.11470588 0.65980392 0.0078431373
0.49166667 0.74215686 0
0.72745098 0.80784314 0.033333333
0.89068627 0.84705882 0.075980392
0.9627451 0.85588235 0.098039216
0.98431373 0.85833333 0.10588235
0.99607843 0.85882353 0.10588235
0.0078431373 0.015196078 0.03872549
0.034803922 0.030453431 0.046078431
0.08125 0.039215686 0.039705882
0.19479167 0.053431373 0.024509804
0.36078431 0.051960784 0
0.52959559 0.050980392 0
0.61801471 0.06997549 0
0.65098039 0.076470588 0
0.67058824 0.057352941 0
0.019117647 0.038664216 0.042647059
0.034375 0.042210478 0.046132047
0.086887255 0.054411765 0.04620098
0.22350643 0.076470588 0.02042739
0.41280637 0.08213848 0.011979167
0.57306219 0.092156863 0.0021446078
0.65185355 0.089200368 0.0035998775
0.688894 0.10998009 0.00080422794
0.70533088 0.11911765 0.0039215686
0.0078431373 0.083333333 0.063848039
0.016666667 0.080821078 0.057352941
0.094852941 0.10980392 0.058210784
0.24604779 0.12205882 0.041161152
0.46642157 0.14528186 0.0039215686
0.63488051 0.17768076 0
0.70640319 0.17843137 0.0039522059
0.74301471 0.20379902 0.0079044118
0.75539216 0.19754902 0.0077205882
0.0036151961 0.20196078 0.11550245
0.0075367647 0.19618566 0.10255821
0.055009191 0.21122855 0.073529412
0.29968597 0.25153186 0.020228248
0.54721201 0.30303309 0.0039215686
0.71372549 0.325 0.0048406863
0.78275123 0.34068627 0.012117034
0.81648284 0.3530867 0.0089307598
0.82647059 0.37058824 0.027757353
0.017401961 0.37205882 0.20147059
0.015441176 0.38011642 0.18820466
0.011397059 0.37984069 0.095098039
0.29620098 0.43691789 0.0012867647
0.62046569 0.51556373 0
0.80211397 0.54721201 0.0082414216
0.86348039 0.55490196 0.019362745
0.88973652 0.57015931 0.013296569
0.89803922 0.58382353 0.02745098
0.037745098 0.50098039 0.26372549
0.034290748 0.51764706 0.25373775
0.0083333333 0.52999387 0.16309743
0.29362745 0.60343137 0.0036151961
0.68103554 0.70220588 0.0030330882
0.86212469 0.73399969 0.042156863
0.92371324 0.72953431 0.054457721
0.9428079 0.72922794 0.044094669
0.95441176 0.74705882 0.067830882
0.0058823529 0.55392157 0.28676471
0.0067401961 0.582644 0.27982537
0.019485294 0.60355392 0.20487132
0.2944087 0.67745098 0.0013786765
0.69859069 0.77401961 0.01127451
0.88079044 0.81251532 0.068137255
0.94963235 0.81957721 0.08627451
0.97233456 0.82058824 0.094224877
0.98125 0.8245098 0.10294118
0.015257353 0.5838848 0.30882353
0.014705882 0.60784314 0.28970588
0.016268382 0.63082108 0.17734375
0.31874234 0.70774357 0.0054993873
0.70563725 0.80370711 0.015931373
0.89779412 0.8432981 0.07377451
0.96219363 0.84748775 0.088296569
0.98399203 0.85060509 0.098958333
0.99172794 0.85140931 0.13627451
0.030882353 0.61519608 0.34705882
0.015686275 0.63823529 0.30441176
0.00085784314 0.67169118 0.1625
0.43805147 0.75196078 0.0096813725
0.72009804 0.81568627 0.017156863
0.90980392 0.85490196 0.009620098
0.98651961 0.86617647 0.015441176
0.99564951 0.86617647 0.12175245
1 0.86617647 0.16323529
0.0039215686 0.015686275 0.08627451
0.030882353 0.024387255 0.087867647
0.088235294 0.03995098 0.088235294
0.20392157 0.050980392 0.083333333
0.38676471 0.021568627 0.072058824
0.53137255 0 0.063848039
0.62377451 0.0039215686 0.063480392
0.67009804 0.0039215686 0.062254902
0.69019608 0 0.081372549
0.0040441176 0.042647059 0.095098039
0.024387255 0.046568627 0.092922794
0.080453431 0.058333333 0.099877451
0.2182598 0.071078431 0.095098039
0.41507353 0.046507353 0.083394608
0.57365196 0.0058823529 0.059313725
0.66400123 0.0064031863 0.029932598
0.70494792 0.0023897059 0.025980392
0.72352941 0.0039215686 0.051838235
0 0.088235294 0.10686275
0.0038296569 0.098161765 0.11485907
0.080392157 0.10765931 0.11746324
0.25193015 0.13367034 0.11090686
0.46936275 0.13419118 0.09252451
0.64142157 0.095772059 0.03838848
0.72671569 0.048284314 0.0022671569
0.76289828 0.058363971 0.00073529412
0.78063725 0.098284314 0.015686275
0 0.20943627 0.16764706
0 0.22156863 0.16470588
0.040716912 0.22025123 0.14068627
0.28354779 0.26776961 0.12058824
0.54730392 0.29626225 0.069607843
0.74122243 0.30787377 0.0017156863
0.81317402 0.29944853 0
0.84607843 0.31164216 0
0.86666667 0.33823529 0.00036764706
0.018627451 0.40245098 0.27205882
0.014705882 0.40275735 0.25098039
0.017034314 0.40894608 0.20183824
0.28357843 0.44859069 0.098345588
0.62058824 0.51446078 0.037745098
0.81354167 0.54246324 0.045220588
0.89803922 0.53872549 0.0075980392
0.92493873 0.55870098 0.020036765
0.94166667 0.58431373 0.0049019608
0.029901961 0.52107843 0.32218137
0.033455882 0.54154412 0.31867341
0.025919118 0.56167279 0.25272672
0.29787071 0.62094056 0.0020833333
0.66470588 0.69877451 0.01317402
0.87365196 0.73399203 0.031127451
0.95030637 0.74644608 0.035723039
0.97696078 0.75404412 0.0034313725
0.98480392 0.76384804 0.006127451
0.0056372549 0.57034314 0.34877451
0.0064338235 0.59558824 0.3455576
0.024509804 0.62647059 0.29319853
0.2752451 0.68985907 0.0074448529
0.67585784 0.77941176 0.0084558824
0.89077819 0.82417279 0.030208333
0.97316176 0.83553922 0.023223039
0.99880515 0.83924632 0.020618873
0.99901961 0.84313725 0.094607843
0.012254902 0.60379902 0.3935049
0.015073529 0.63039216 0.38272059
0.053308824 0.66167279 0.34154412
0.27671569 0.7214614 0.13946078
0.6872549 0.81017157 0.01182598
0.90925245 0.8564185 0.0072303922
0.98523284 0.8700674 0.11482843
0.99903493 0.86714154 0.14874387
1 0.86973039 0.23051471
0.016666667 0.65 0.45784314
0.053676471 0.69019608 0.45551471
0.0053921569 0.70588235 0.38578431
0.33639706 0.76090686 0.27144608
0.69754902 0.84019608 0.28529412
0.90294118 0.87745098 0.24546569
0.99901961 0.89534314 0.23946078
1 0.88909314 0.30036765
1 0.89215686 0.36960784
0 0.034803922 0.19656863
0.023039216 0.027941176 0.18872549
0.077573529 0.015686275 0.19558824
0.20202206 0.034865196 0.21917892
0.36887255 0.0024509804 0.21985294
0.5283701 0 0.22794118
0.62794118 0 0.23039216
0.67843137 0 0.23088235
0.68235294 0 0.25
0 0.067647059 0.21390931
0.011764706 0.048223039 0.2057981
0.077267157 0.055698529 0.22264093
0.22519914 0.064889706 0.23903186
0.425 0.034558824 0.23872549
0.58498775 0.0052619485 0.24810815
0.67732843 0 0.24197304
0.71192555 0 0.24417892
0.73235294 0 0.26911765
0 0.1372549 0.24693627
0.0039215686 0.15174632 0.26636029
0.055055147 0.12046569 0.25370711
0.25539216 0.14091605 0.26254596
0.47506127 0.14761029 0.28002451
0.65098039 0.10882353 0.26946998
0.73946078 0.068872549 0.26841299
0.77107843 0.073958333 0.27801777
0.79019608 0.10085784 0.29313725
0.00091911765 0.29803922 0.34607843
0.0026348039 0.28082108 0.32941176
0.011029412 0.26300551 0.31606924
0.26121324 0.28200827 0.30775888
0.54261642 0.3208027 0.31179534
0.73480392 0.31374847 0.29475337
0.82107843 0.30980392 0.29693627
0.85178462 0.32273284 0.29204197
0.87009804 0.34601716 0.32156863
0.0098039216 0.45465686 0.42254902
0.0039215686 0.4653799 0.4229473
0.0039215686 0.4716299 0.40404412
0.23563113 0.48780637 0.35082721
0.60036765 0.53713235 0.33198529
0.81473652 0.55931373 0.30983456
0.90526961 0.56660539 0.31525735
0.94142157 0.58045343 0.31387868
0.95563725 0.60392157 0.33235294
0.0039215686 0.57493873 0.46862745
0.031257659 0.59166667 0.47480852
0.028630515 0.61548713 0.45356924
0.14711244 0.65112592 0.36515012
0.63403799 0.72552083 0.33180147
0.87171415 0.76419271 0.31417739
0.9700674 0.7745864 0.29541973
0.99270833 0.78019301 0.2896829
0.99846814 0.79656863 0.31544118
0.018137255 0.62156863 0.50196078
0.020098039 0.64607843 0.51090686
0.01752451 0.6763174 0.49227941
0.1207261 0.7352788 0.39888174
0.6466299 0.81354167 0.37132353
0.88762255 0.86000306 0.32882966
0.99004289 0.87205882 0.32346814
1 0.8769761 0.35531556
1 0.875 0.37340686
0.016973039 0.66047794 0.56078431
0.015356924 0.68118873 0.55817249
0.023529412 0.71328125 0.54563419
0.083402267 0.76244638 0.45963542
0.64626225 0.84715074 0.42123162
0.88069853 0.89283088 0.42096354
0.99042586 0.90882353 0.40225184
1 0.90490196 0.40618873
1 0.90863971 0.47726716
0 0.7004902 0.61617647
0.01127451 0.70931373 0.59068627
0.023651961 0.74656863 0.58676471
0.27015931 0.80827206 0.54442402
0.65833333 0.86911765 0.52303922
0.88333333 0.91280637 0.52334559
0.98406863 0.93112745 0.52720588
1 0.93186275 0.54178922
1 0.92794118 0.54901961
0 0.13529412 0.34313725
0 0.031862745 0.32083333
0.081372549 0.0078431373 0.34117647
0.20882353 0.0039215686 0.36127451
0.40196078 0.0058823529 0.38235294
0.56348039 0 0.3995098
0.66176471 0 0.40784314
0.68480392 0 0.40588235
0.69803922 0 0.40980392
0 0.19117647 0.38333333
0.00024509804 0.1450674 0.36691176
0.071078431 0.018382353 0.36323529
0.22738971 0.021231618 0.39053309
0.4307598 0.027818627 0.41017157
0.59785539 0.0039215686 0.41838235
0.68762255 0.0034313725 0.42071078
0.72328431 0 0.4333027
0.74044118 0.0019607843 0.43676471
0 0.24607843 0.43333333
0 0.24283088 0.4346201
0.0053921569 0.13063725 0.4057598
0.23621324 0.14068627 0.4411152
0.48308824 0.14019608 0.45661765
0.659375 0.091421569 0.46666667
0.74375 0.046078431 0.46409314
0.77892157 0.07377451 0.47003676
0.79411765 0.11470588 0.48088235
0.014215686 0.36078431 0.50294118
0.016023284 0.35995711 0.50588235
0.0057598039 0.33743873 0.50686275
0.22653186 0.31102941 0.50438113
0.54215686 0.33848039 0.52254902
0.73872549 0.33746936 0.52647059
0.81715686 0.33578431 0.53008578
0.85490196 0.34411765 0.53186275
0.87401961 0.37303922 0.54338235
0.0098039216 0.50294118 0.57156863
0.0056372549 0.51544118 0.58492647
0.010539216 0.52818627 0.59093137
0.1497549 0.52218137 0.56041667
0.58039216 0.57009804 0.57303922
0.79558824 0.58688725 0.57610294
0.8997549 0.5997549 0.57647059
0.9377451 0.60735294 0.575
0.95196078 0.64117647 0.58823529
0.0019607843 0.61813725 0.62696078
0.0049938725 0.6372549 0.63529412
0.0053308824 0.66470588 0.64264706
0.067218137 0.69898897 0.60395221
0.59215686 0.76066176 0.60343137
0.84757966 0.79828431 0.60147059
0.95 0.80539216 0.6
0.98627451 0.82371324 0.60490196
0.99877451 0.83259804 0.61446078
0.0083333333 0.66960784 0.65980392
0.018259804 0.68737745 0.65980392
0.006004902 0.72659314 0.67279412
0.059313725 0.77689951 0.64056373
0.60098039 0.85490196 0.63823529
0.86421569 0.89166667 0.64056373
0.97218137 0.90686275 0.6252451
1 0.91764706 0.63265931
1 0.91764706 0.63382353
0.0058823529 0.70073529 0.7004902
0.0078431373 0.72395833 0.70223652
0.0056372549 0.76182598 0.71237745
0.072303922 0.80867034 0.68422181
0.60710784 0.88566176 0.68321078
0.8638174 0.92907475 0.68667279
0.97573529 0.94705882 0.6747549
1 0.9495098 0.66127451
1 0.94754902 0.69460784
0.0039215686 0.73921569 0.74117647
0.0039215686 0.76397059 0.74852941
0.0034313725 0.79313725 0.74607843
0.1252451 0.84142157 0.72941176
0.62745098 0.90294118 0.73039216
0.84877451 0.94264706 0.7379902
0.96470588 0.95588235 0.72303922
1 0.96838235 0.73872549
1 0.96666667 0.74705882
0.0039215686 0.22107843 0.45539216
0.010784314 0.21764706 0.46666667
0.077941176 0.031372549 0.4564951
0.22248775 0.0039215686 0.47653186
0.41053922 0.0026960784 0.50441176
0.58480392 0 0.52745098
0.65735294 0 0.53137255
0.69607843 0 0.54166667
0.70588235 0 0.54166667
0 0.2495098 0.49148284
0.0014705882 0.22926624 0.49405637
0.056188725 0.034129902 0.4872549
0.23376225 0.0039215686 0.51488205
0.44715074 0.0039215686 0.54941789
0.61011795 0 0.55876225
0.69469975 0.0039215686 0.56257659
0.73329504 0.0052083333 0.57559743
0.75196078 0.0012867647 0.58400735
0 0.30870098 0.53970588
0 0.28769914 0.54332108
0.025735294 0.25542279 0.55147059
0.23492647 0.12933517 0.57947304
0.48498775 0.10416667 0.60906863
0.6615962 0.059558824 0.61568627
0.74448529 0.012285539 0.61715686
0.78653493 0.0076133578 0.63137255
0.80196078 0.081740196 0.63419118
0.0015318627 0.40343137 0.60784314
0.0013403799 0.39870558 0.61392463
0.0054534314 0.3814951 0.62924326
0.18711703 0.3316636 0.65582108
0.5370098 0.34341299 0.68186275
0.73535539 0.34607843 0.69070925
0.82069547 0.33468137 0.69405637
0.85699295 0.34766391 0.69872089
0.87794118 0.39068627 0.72058824
0.018872549 0.53088235 0.67745098
0.017064951 0.54166667 0.68578431
0.050919118 0.55747549 0.70698529
0.076164216 0.54393382 0.73066789
0.55747549 0.59056373 0.75208333
0.80073529 0.60885417 0.76029412
0.89754902 0.61084559 0.76574755
0.93219975 0.63422181 0.76813725
0.94509804 0.65808824 0.77401961
0.031372549 0.64270833 0.73382353
0.015992647 0.65490196 0.73743873
0.010906863 0.68633578 0.76130515
0.062078738 0.73584559 0.78137255
0.57037377 0.79246324 0.79420956
0.83668045 0.82205882 0.80006127
0.94031863 0.83627451 0.7935049
0.97824755 0.84142157 0.80685509
0.98823529 0.85196078 0.81127451
0.031004902 0.69264706 0.75870098
0.019653799 0.71393995 0.77192096
0.021629902 0.75122549 0.79298407
0.057291667 0.81164216 0.81392463
0.56691176 0.88333333 0.82291667
0.84408701 0.92254902 0.82732843
0.95490196 0.93648897 0.83039216
0.99238664 0.94068627 0.83135723
1 0.9442402 0.83088235
0.042647059 0.72175245 0.78382353
0.023713235 0.74117647 0.79509804
0.02120098 0.77928922 0.81568627
0.061014093 0.83828891 0.83761489
0.56446078 0.90998775 0.84969363
0.84387255 0.95441176 0.85471814
0.95551471 0.9665288 0.8536152
0.99242494 0.97665441 0.853125
1 0.97843137 0.86519608
0.022058824 0.74656863 0.80833333
0.017156863 0.77077206 0.825
0.022181373 0.80294118 0.83823529
0.096446078 0.85980392 0.85876225
0.59068627 0.92156863 0.87377451
0.83627451 0.95980392 0.86954657
0.95735294 0.97683824 0.875
0.99460784 0.98578431 0.87922794
1 0.98578431 0.87647059
0 0.24803922 0.51470588
0.0039215686 0.2432598 0.52352941
0.0625 0.032843137 0.52426471
0.21911765 0.0014705882 0.55098039
0.42058824 0.0014705882 0.5877451
0.56997549 0 0.60698529
0.67083333 0 0.61838235
0.6995098 0 0.61421569
0.70588235 0 0.62058824
0 0.2814951 0.5495098
0 0.27365196 0.55729167
0.053645833 0.050735294 0.56222426
0.23468137 0.0048866422 0.59522059
0.45165441 0 0.63449755
0.62322304 0 0.65142463
0.70303309 0.0026654412 0.65269608
0.74080882 0.0039215686 0.66443015
0.75980392 0.0049019608 0.67156863
0 0.33921569 0.6
0 0.32401961 0.60294118
0 0.29405637 0.61041667
0.2229473 0.10321691 0.65919118
0.48933824 0.096323529 0.69754902
0.67313113 0.04463848 0.71256127
0.75422794 0.025122549 0.71372549
0.78504902 0 0.72205882
0.80980392 0.085294118 0.73112745
0.0024509804 0.42757353 0.66078431
0.002221201 0.41283701 0.66685049
0.0036764706 0.40465686 0.69080882
0.18671875 0.33843444 0.74771752
0.52064951 0.34785539 0.77898284
0.72519914 0.34529718 0.79362745
0.81853554 0.3372549 0.79362745
0.85882353 0.35298713 0.80147059
0.87794118 0.38982843 0.81323529
0.014215686 0.54558824 0.72647059
0.019791667 0.55275735 0.74123775
0.010906863 0.56507353 0.76458333
0.065073529 0.54944853 0.81770833
0.54215686 0.59803922 0.85098039
0.78780637 0.61801471 0.86593137
0.88431373 0.62843137 0.86911765
0.92591912 0.64031863 0.87303922
0.9377451 0.65980392 0.87303922
0.024387255 0.65392157 0.78676471
0.017447917 0.66505821 0.79197304
0.018045343 0.69264706 0.81351103
0.039430147 0.74393382 0.86064645
0.54730392 0.7995098 0.89607843
0.81813725 0.83426777 0.9095435
0.93186275 0.84901961 0.91020221
0.97401961 0.85686275 0.91421569
0.97794118 0.85232843 0.91384804
0.0017156863 0.69509804 0.80490196
0.026470588 0.71813725 0.81945466
0.018198529 0.75594363 0.84411765
0.032598039 0.81853554 0.88483456
0.53333333 0.89227941 0.91997549
0.82545956 0.9325674 0.92916667
0.94963235 0.95392157 0.93848039
0.98863358 0.95490196 0.93213848
0.99607843 0.95490196 0.93627451
0.0040441176 0.71813725 0.81973039
0.020297181 0.74509804 0.8365962
0.0095894608 0.77990196 0.85931373
0.030376838 0.84050245 0.90075061
0.53547794 0.91887255 0.93529412
0.82941176 0.9652114 0.95
0.94669118 0.98042279 0.94705882
0.98872549 0.98480392 0.94705882
0.99865196 0.98566176 0.95098039
0.012745098 0.74117647 0.83627451
0.016053922 0.76421569 0.84791667
0.02377451 0.80686275 0.87769608
0.058210784 0.86372549 0.91887255
0.57009804 0.92794118 0.94264706
0.82242647 0.96973039 0.95
0.93921569 0.98602941 0.95514706
0.98186275 0.99215686 0.95490196
0.99607843 0.99215686 0.95392157
0 0.2754902 0.55735294
0.0039215686 0.25588235 0.55251225
0.062254902 0.031862745 0.55294118
0.22254902 0.0039215686 0.59117647
0.41666667 0 0.62622549
0.58480392 0 0.64362745
0.67696078 0 0.66029412
0.7151348 0 0.66672794
0.72254902 0 0.66029412
0 0.29019608 0.56954657
0.0069776348 0.29068627 0.58817402
0.0036151961 0.24520527 0.59977022
0.23259804 0.0044117647 0.64005055
0.46029412 0.0034313725 0.67990196
0.62457108 0 0.69567249
0.71245404 0 0.70153186
0.75605852 0.0078967525 0.71060815
0.7716299 0.0044117647 0.71764706
0 0.35539216 0.62990196
0 0.34669118 0.63457414
0.0056066176 0.30186887 0.6442402
0.21240809 0.12012868 0.70418199
0.49019608 0.11973039 0.74068627
0.67469363 0.074142157 0.75553002
0.7640625 0.00625 0.75931373
0.79938725 0.0065104167 0.76720282
0.81776961 0.1120098 0.78284314
0 0.43382353 0.67990196
0.0021829044 0.42941176 0.68956036
0.0048866422 0.40686275 0.71582414
0.15915288 0.34455423 0.78536305
0.52352941 0.35186887 0.82034314
0.72782629 0.35490196 0.83768382
0.82222733 0.34313725 0.83898591
0.86056219 0.35878523 0.84679075
0.87941176 0.40098039 0.85851716
0.015686275 0.55318627 0.74901961
0.021629902 0.55729167 0.75729167
0.0039215686 0.56905637 0.78333333
0.071078431 0.56397059 0.84656863
0.54791667 0.60539216 0.89620098
0.78299632 0.6213848 0.91014093
0.88400735 0.63186275 0.91372549
0.92377451 0.63973652 0.91813725
0.93946078 0.65539216 0.92794118
0.026776961 0.65128676 0.79754902
0.021024816 0.67303922 0.81350337
0.016804534 0.69633885 0.83524816
0.020289522 0.74332874 0.88743873
0.53443627 0.80211397 0.94083946
0.80765931 0.83246783 0.95226716
0.92892157 0.84108456 0.95882353
0.96666667 0.85732996 0.96129749
0.97401961 0.85735294 0.96096814
0.01629902 0.69901961 0.81973039
0.033884804 0.72195159 0.8350337
0.010447304 0.75588235 0.86112132
0.00546875 0.81979167 0.91323529
0.53143382 0.89552696 0.95753676
0.81960784 0.93445159 0.97094056
0.93958333 0.94705882 0.97668505
0.9817402 0.95232843 0.98051471
0.99571078 0.96139706 0.98039216
0.041666667 0.71470588 0.8283701
0.015571385 0.74901961 0.85098039
0.054672181 0.77990196 0.87401961
0.033762255 0.84453125 0.92312347
0.53235294 0.92113971 0.96498162
0.81655944 0.9627451 0.97712163
0.9401348 0.9817402 0.98431373
0.98480392 0.98480392 0.98431373
0.99607843 0.98480392 0.98088235
0.010784314 0.74509804 0.85098039
0.011458333 0.77689951 0.87101716
0.060171569 0.80845588 0.89473039
0.082843137 0.86372549 0.93609069
0.54852941 0.92965686 0.96887255
0.81881127 0.97009804 0.98039216
0.93235294 0.98823529 0.98443627
0.98480392 0.99215686 0.98431373
0.99607843 0.99215686 0.98088235
0 0.31372549 0.59607843
0.0039215686 0.275 0.56862745
0.066666667 0.045098039 0.58823529
0.22647059 0.0039215686 0.62205882
0.43921569 0 0.65882353
0.63186275 0 0.70833333
0.7 0 0.69313725
0.74166667 0 0.70637255
0.77647059 0 0.7372549
0 0.32892157 0.61127451
0.00049019608 0.30196078 0.6033701
0 0.27585784 0.62169118
0.22745098 0.0049019608 0.6745098
0.46813725 0.0017156863 0.72058824
0.64491422 0.012438725 0.73039216
0.72647059 0 0.72843137
0.77248775 0.0044117647 0.74460784
0.79166667 0.034313725 0.75245098
0 0.37058824 0.64607843
0 0.36666667 0.6564951
0.0095588235 0.3245098 0.66372549
0.20980392 0.18982843 0.72708333
0.49901961 0.18872549 0.77303922
0.68627451 0.16433824 0.78884804
0.77352941 0.1127451 0.7872549
0.81433824 0.12720588 0.80073529
0.82941176 0.17352941 0.80882353
0 0.45294118 0.69754902
0 0.43872549 0.69852941
0.0039215686 0.43431373 0.7254902
0.11911765 0.35925245 0.80196078
0.5252451 0.39093137 0.84534314
0.7377451 0.39607843 0.85680147
0.82757353 0.38529412 0.8629902
0.86813725 0.39362745 0.86764706
0.89264706 0.45 0.88872549
0.0019607843 0.55882353 0.76078431
0.029166667 0.56470588 0.76470588
0.0039215686 0.57745098 0.78921569
0.044117647 0.57303922 0.85784314
0.5254902 0.61372549 0.90784314
0.78357843 0.63406863 0.92745098
0.8745098 0.64068627 0.925
0.92009804 0.65514706 0.93137255
0.93921569 0.68039216 0.93921569
0.006372549 0.64607843 0.79607843
0.012254902 0.66930147 0.81715686
0.012867647 0.70110294 0.84362745
0.026041667 0.74258578 0.89656863
0.52769608 0.80318627 0.95245098
0.81727941 0.84025735 0.96617647
0.91776961 0.84264706 0.97107843
0.96648284 0.85735294 0.97401961
0.98186275 0.87254902 0.97794118
0.021568627 0.69901961 0.82352941
0.0091911765 0.72205882 0.84007353
0.018627451 0.75686275 0.86568627
0.027941176 0.82120098 0.92107843
0.50490196 0.89362745 0.96911765
0.80245098 0.9307598 0.98247549
0.93627451 0.94411765 0.98823529
0.98431373 0.96176471 0.99607843
0.98823529 0.94705882 0.98823529
0.026960784 0.72598039 0.83921569
0.02689951 0.7528799 0.85839461
0.029901961 0.78382353 0.87794118
0.036213235 0.84136029 0.92518382
0.50759804 0.91813725 0.9745098
0.80588235 0.96488971 0.98823529
0.94007353 0.9817402 0.99215686
0.98088235 0.98480392 0.99215686
0.99607843 0.98480392 0.99607843
0.0039215686 0.74901961 0.85490196
0.0039215686 0.77205882 0.87401961
0.011764706 0.80784314 0.89705882
0.046568627 0.86372549 0.94754902
0.54901961 0.92941176 0.97647059
0.80490196 0.97009804 0.98970588
0.93235294 0.98921569 0.99607843
0.98431373 0.99607843 0.99215686
1 1 1
