site/assets/luts/natron-haldclut--goldfx-spring-breeze--d2a9c1d6b.cube
# LUTr-Project: LUTr — LUTrepository
# LUTr-Schema-Version: 1
# LUTr-ID: natron-haldclut--goldfx-spring-breeze--d2a9c1d6b
# LUTr-Title: goldfx spring breeze
# LUTr-Collection: Natron HaldCLUT
# LUTr-Collection-ID: natron-haldclut-presets
# LUTr-Source: https://github.com/NatronGitHub/clut
# LUTr-Source-File: submissions/natron-haldclut-presets/picturefx/goldfx_spring_breeze.png
# LUTr-Source-Format: PNG
# LUTr-Source-SHA256: eb122954f76710be3afe87e632ce01c3db75bb18e5f51ad1f5d65f929918644d
# LUTr-License: CC-BY-SA-4.0
# LUTr-License-URL: https://github.com/NatronGitHub/clut#license
# LUTr-Tags: creative, film, film-emulation, hald-clut, natron, png, cube
# LUTr-Transform-Class: film-emulation
# LUTr-Input-Color-Space: srgb
# LUTr-Output-Color-Space: srgb
# LUTr-Color-Space-Confidence: assumed-display-referred
# LUTr-Conversion-Method: PNG LUT image decoded at 16-bit and sampled to 25x25x25 3D CUBE
# LUTr-Conversion-Date: 2026-07-27
# LUTr-Conversion-Tool: LUTr scripts/convert-all-to-cube.mjs
# LUTr-Conversion-Grid: 25x25x25
# LUTr-Note: Preserve this metadata and the upstream license notices when redistributing.
TITLE "goldfx spring breeze"
LUT_3D_SIZE 9
DOMAIN_MIN 0 0 0
DOMAIN_MAX 1 1 1
0.0039215686 0.0078431373 0.0039215686
0.057352941 0.019117647 0.01127451
0.15784314 0.039215686 0.016666667
0.30245098 0.040686275 0.028921569
0.43921569 0.01372549 0.035294118
0.5877451 0.0078431373 0.047058824
0.7372549 0.0039215686 0.058823529
0.86470588 0.076470588 0.078921569
0.99607843 0.2 0.10980392
0.0078431373 0.1122549 0.047058824
0.050490196 0.10441176 0.009252451
0.16176471 0.12046569 0.020220588
0.31421569 0.12401961 0.039215686
0.46617647 0.10833333 0.045098039
0.60557598 0.099816176 0.059313725
0.74117647 0.10833333 0.071078431
0.86813725 0.15588235 0.094546569
0.94754902 0.20784314 0.10588235
0 0.2 0.02254902
0.012254902 0.20882353 0.050857843
0.15294118 0.2120098 0.017401961
0.33235294 0.22414216 0.016666667
0.48382353 0.2372549 0.033823529
0.62598039 0.23529412 0.048529412
0.75269608 0.24607843 0.067401961
0.87254902 0.26727941 0.087745098
0.98039216 0.32156863 0.11764706
0.0039215686 0.31176471 0.041666667
0.0039215686 0.31568627 0.043137255
0.12745098 0.32463235 0.028431373
0.31176471 0.32892157 0.0044730392
0.46764706 0.34534314 0.0125
0.63382353 0.37052696 0.04754902
0.77941176 0.39203431 0.072058824
0.87598039 0.40116422 0.079411765
0.98431373 0.44117647 0.13186275
0 0.41764706 0.041176471
0.0075980392 0.42156863 0.043137255
0.10245098 0.42156863 0.032352941
0.28210784 0.42156863 0.0046568627
0.42647059 0.43137255 0
0.58063725 0.4504902 0.01127451
0.75833333 0.49117647 0.011764706
0.86862745 0.52230392 0.044607843
0.98627451 0.57058824 0.16470588
0 0.52990196 0.023529412
0.0053921569 0.52598039 0.022058824
0.086397059 0.52316176 0.022058824
0.26176471 0.509375 0.0048406863
0.40980392 0.52598039 0.0039215686
0.55398284 0.5377451 0
0.68970588 0.55931373 0.0042892157
0.84234069 0.61305147 0.019607843
0.97254902 0.66862745 0.12647059
0 0.63921569 0.0068627451
0.006372549 0.64215686 0.0039215686
0.12034314 0.6370098 0
0.27634804 0.63026961 0
0.41372549 0.63676471 0
0.55134804 0.65208333 0
0.67843137 0.6627451 0.00073529412
0.80490196 0.68492647 0.0068627451
0.94411765 0.73921569 0
0.16078431 0.79117647 0
0.17506127 0.79117647 0.0039215686
0.24963235 0.79117647 0.0039215686
0.3526348 0.7872549 0.009497549
0.45808824 0.78504902 0.006127451
0.57334559 0.78480392 0
0.71078431 0.8064951 0
0.82297794 0.81078431 0.0039215686
0.93382353 0.82941176 0.0049019608
0.42352941 0.95686275 0.21960784
0.42352941 0.95686275 0.21960784
0.44803922 0.95686275 0.2245098
0.47892157 0.93284314 0.16176471
0.57843137 0.94901961 0.21176471
0.67794118 0.95196078 0.2004902
0.77352941 0.94705882 0.13333333
0.88480392 0.96127451 0.13676471
0.98039216 0.98039216 0.14901961
0.0039215686 0.085784314 0.096568627
0.043566176 0.038296569 0.083884804
0.17254902 0.058333333 0.08872549
0.30637255 0.047058824 0.095281863
0.45294118 0.03504902 0.10490196
0.59558824 0.041666667 0.1122549
0.73431373 0.032720588 0.11323529
0.86470588 0.087683824 0.12058824
0.96911765 0.16911765 0.13627451
0 0.11170343 0.088664216
0.02745098 0.12401961 0.10833333
0.18350184 0.11427696 0.098805147
0.32156863 0.1158701 0.10192249
0.47009804 0.10220588 0.10484069
0.61276808 0.088564645 0.11241575
0.74068627 0.092708333 0.11372549
0.86121324 0.1411152 0.12493873
0.94197304 0.18958333 0.13272059
0.0039215686 0.21666667 0.097058824
0.011810662 0.22009804 0.1
0.16822917 0.23164828 0.10070466
0.34129902 0.23053002 0.086106005
0.48817402 0.22922794 0.090992647
0.63596814 0.22696078 0.11372549
0.75876225 0.23893995 0.1127451
0.8754902 0.25637255 0.1245098
0.98431373 0.31470588 0.14681373
0 0.32696078 0.10067402
0.0014705882 0.33265931 0.090525429
0.13435968 0.34019608 0.079595588
0.32567402 0.34411765 0.054227941
0.48529412 0.34935662 0.037254902
0.65893076 0.36960784 0.09564951
0.77023591 0.38296569 0.089476103
0.8841299 0.40753676 0.12526808
0.98167892 0.43756127 0.15471814
0 0.42843137 0.071078431
0.015471814 0.43284314 0.075
0.10612745 0.42892157 0.06807598
0.28710172 0.4252451 0.032261029
0.4379902 0.43897059 0.0095588235
0.58946078 0.4497549 0.0095588235
0.75741422 0.49607843 0.028186275
0.88186275 0.53382353 0.10125613
0.9875 0.56446078 0.17132353
0 0.52745098 0.029411765
0.0074984681 0.52567402 0.035026042
0.092034314 0.51953125 0.036764706
0.26941636 0.52029718 0.015196078
0.4129902 0.5247549 0.0078431373
0.55029105 0.53248315 0.00080422794
0.70392157 0.56176471 0.0039215686
0.84599418 0.60931373 0.018030025
0.95686275 0.65569853 0.094607843
0.0056372549 0.6439951 0.010416667
0.030591299 0.64750306 0.0042432598
0.11663603 0.64304534 0.0039215686
0.27634804 0.63566176 0.010416667
0.41372549 0.63872549 0.0078431373
0.54883578 0.64705882 0.0037377451
0.67843137 0.65533088 0
0.79480699 0.68590686 0.0071384804
0.89901961 0.72352941 0.025980392
0.16813725 0.79417892 0
0.17554381 0.79117647 0.0044117647
0.24865196 0.79509804 0.0039215686
0.35283395 0.79117647 0.0067784926
0.45631127 0.78483456 0.007567402
0.57959559 0.7908701 0.0039215686
0.70663297 0.80375306 0.0013480392
0.81813725 0.81813725 0.0039751838
0.90055147 0.82107843 0.012745098
0.41323529 0.95343137 0.20980392
0.42267157 0.95643382 0.22181373
0.44129902 0.95441176 0.22083333
0.50520833 0.9564951 0.22279412
0.56813725 0.93897059 0.18308824
0.67757353 0.95667892 0.21102941
0.78259804 0.95870098 0.18468137
0.88860294 0.96905637 0.17573529
0.97941176 0.97892157 0.14068627
0 0.078431373 0.19313725
0.0039215686 0.067769608 0.19779412
0.16593137 0.093137255 0.20784314
0.32169118 0.091544118 0.21360294
0.4754902 0.073529412 0.21862745
0.61960784 0.02254902 0.20453431
0.75122549 0.025490196 0.20735294
0.86727941 0.06629902 0.2127451
0.98333333 0.1754902 0.20980392
0.0039215686 0.15441176 0.21127451
0.010845588 0.14296875 0.2152114
0.15122549 0.15098039 0.22965686
0.34019608 0.1372549 0.22022059
0.4848652 0.089276961 0.20625
0.62536765 0.036488971 0.19430147
0.74460784 0.066145833 0.19313725
0.86727941 0.10441176 0.19718137
0.97659314 0.17745098 0.20612745
0.00098039216 0.24705882 0.21470588
0.0078431373 0.24705882 0.22352941
0.19846814 0.25784314 0.24748775
0.36871936 0.22950368 0.2153799
0.50404412 0.22107843 0.20955882
0.64056373 0.20355392 0.21148897
0.76464461 0.19436275 0.21023284
0.87904412 0.2231924 0.20796569
0.98039216 0.27720588 0.21372549
0 0.37745098 0.20833333
0.0087009804 0.37366728 0.21505821
0.1268076 0.378125 0.2080576
0.3464614 0.36190257 0.18290441
0.51666667 0.36470588 0.19552696
0.66470588 0.37009804 0.21384804
0.78697917 0.3689951 0.21568627
0.88480392 0.37847733 0.21697304
0.96960784 0.41323529 0.22843137
0 0.47843137 0.19607843
0.0041666667 0.47506127 0.18627451
0.094730392 0.46727941 0.17843137
0.296875 0.44754902 0.15637255
0.45588235 0.45122549 0.13137255
0.61660539 0.46470588 0.13284314
0.77071078 0.49901961 0.16593137
0.88278186 0.52156863 0.21617647
0.96911765 0.55392157 0.24852941
0 0.5692402 0.15392157
0.0092371324 0.55932904 0.14626225
0.0828125 0.54898897 0.1432598
0.26605392 0.5310049 0.11709559
0.42696078 0.54068627 0.10539216
0.56384804 0.54238664 0.054779412
0.70980392 0.56626838 0.023223039
0.8557598 0.61265319 0.092156863
0.98088235 0.67401961 0.2435049
0.0078431373 0.66568627 0.083088235
0.016176471 0.66090686 0.086764706
0.091727941 0.65968137 0.079656863
0.26577819 0.64154412 0.06026348
0.40220588 0.63713235 0.047671569
0.53455882 0.65134804 0.018964461
0.67867647 0.6721201 0.010845588
0.82420343 0.70931373 0.01528799
0.94583333 0.74411765 0.01127451
0.1689951 0.80245098 0.0077205882
0.16464461 0.7988511 0.018688725
0.20931373 0.79623162 0.019148284
0.33002451 0.7872549 0.006004902
0.43995098 0.78161765 0.01182598
0.57432598 0.79911152 0.014077819
0.71228554 0.8153799 0.0075980392
0.83676471 0.83403799 0.010738358
0.93468137 0.8372549 0.016176471
0.42156863 0.95588235 0.23529412
0.3995098 0.94632353 0.20931373
0.42794118 0.95441176 0.23357843
0.49460784 0.95392157 0.23370098
0.55 0.93137255 0.18431373
0.66127451 0.94460784 0.19056373
0.77254902 0.94779412 0.15514706
0.88786765 0.96838235 0.18223039
0.98039216 0.97745098 0.15490196
0 0.14068627 0.34411765
0.0078431373 0.14607843 0.36078431
0.088848039 0.13541667 0.36519608
0.34656863 0.15484069 0.38033088
0.49926471 0.16617647 0.38529412
0.65539216 0.16954657 0.39215686
0.77794118 0.10281863 0.36127451
0.89050245 0.02377451 0.32487745
0.97843137 0.11911765 0.31323529
0 0.20098039 0.35343137
0.0099877451 0.18868719 0.36094516
0.10837929 0.18095895 0.37182904
0.3493796 0.19705882 0.39049479
0.50735294 0.17058824 0.37420343
0.65116422 0.14927237 0.36255362
0.78057598 0.10873162 0.36127451
0.88253676 0.027336091 0.31161918
0.96746324 0.085784314 0.31096814
0 0.29901961 0.36384804
0.0039215686 0.28200061 0.35882353
0.12107843 0.27696078 0.37990196
0.39025735 0.28163297 0.39901961
0.53854167 0.25490196 0.37745098
0.66041667 0.21844363 0.34417892
0.78259804 0.17000613 0.32536765
0.89460784 0.12636336 0.3096201
0.97536765 0.18161765 0.31715686
0 0.41617647 0.37751225
0.00091911765 0.41078431 0.37684589
0.050934436 0.42009804 0.39620098
0.39742647 0.4158318 0.41460631
0.55364583 0.37567402 0.3671875
0.66839767 0.34313725 0.334375
0.79178922 0.32781863 0.3305913
0.89118413 0.33370864 0.32421875
0.98676471 0.38535539 0.32892157
0 0.52205882 0.34215686
0 0.52588848 0.33538603
0.024080882 0.53186275 0.33192402
0.31764706 0.51348039 0.33915441
0.49963235 0.49607843 0.32303922
0.65539216 0.4963848 0.31893382
0.79754902 0.50931373 0.3377451
0.89730392 0.51053922 0.34690564
0.96495098 0.54019608 0.3504902
0 0.61623775 0.30189951
0.0037300858 0.61568627 0.29748009
0.018290441 0.61323529 0.28521752
0.26364124 0.59060202 0.27932751
0.43259804 0.57156863 0.25833333
0.59060202 0.58033088 0.23684896
0.73843444 0.58823529 0.2216299
0.87598039 0.63118873 0.28039216
0.97984069 0.67683824 0.37622549
0.0084558824 0.6995098 0.24460784
0.0086856618 0.70111826 0.2457261
0.031832108 0.70134804 0.22622549
0.21654412 0.68003983 0.22100184
0.39197304 0.66911765 0.19509804
0.53607537 0.6756587 0.15490196
0.68921569 0.68235294 0.10643382
0.81709559 0.7004902 0.07143076
0.9502451 0.75012255 0.21311275
0.13872549 0.82009804 0.18707108
0.1408701 0.81619945 0.21376379
0.15068934 0.820144 0.18131127
0.29184283 0.80294884 0.17892157
0.4104473 0.78514093 0.14083946
0.54784007 0.79411765 0.099195772
0.6876685 0.80988051 0.045174632
0.82614124 0.82640931 0.033808211
0.9372549 0.84509804 0.018321078
0.39460784 0.95539216 0.32205882
0.41053922 0.96047794 0.32291667
0.37965686 0.94460784 0.30343137
0.4658701 0.9560049 0.31930147
0.55171569 0.95416667 0.3129902
0.63719363 0.94203431 0.28265931
0.76335784 0.95551471 0.28026961
0.88216912 0.96881127 0.27990196
0.97352941 0.97745098 0.25
0 0.21176471 0.50784314
0.0039215686 0.20392157 0.51348039
0.021078431 0.18627451 0.51911765
0.31838235 0.21348039 0.54558824
0.55588235 0.23529412 0.55686275
0.67598039 0.23995098 0.55490196
0.81421569 0.2872549 0.55882353
0.90147059 0.25980392 0.53480392
0.97843137 0.25294118 0.51372549
0 0.2495098 0.50196078
0.0075980392 0.24564951 0.51148897
0.018627451 0.22156863 0.52352941
0.32647059 0.23946078 0.55588235
0.53480392 0.24178922 0.55306373
0.67509191 0.25245098 0.55867034
0.81102941 0.29571078 0.56617647
0.90539216 0.26403186 0.53094363
0.98431373 0.23921569 0.50588235
0 0.33431373 0.5
0.00042892157 0.33431373 0.50735294
0.03627451 0.31323529 0.53541667
0.34473039 0.32273284 0.56629902
0.55906863 0.32671569 0.56446078
0.68958333 0.30680147 0.54705882
0.81691176 0.34129902 0.55306373
0.90533088 0.2870098 0.50392157
0.98039216 0.26911765 0.48676471
0 0.44705882 0.51495098
0 0.45088848 0.51568627
0.014031863 0.44258578 0.52426471
0.33743873 0.4330576 0.55686275
0.5747549 0.43995098 0.57365196
0.70588235 0.41599265 0.55159314
0.81421569 0.39074755 0.51501225
0.90128676 0.3310049 0.45520833
0.9875 0.31004902 0.44460784
0 0.57254902 0.53137255
0 0.56813725 0.52107843
0.027205882 0.57818627 0.5375
0.30416667 0.57303922 0.55134804
0.55588235 0.56960784 0.56666667
0.69803922 0.54031863 0.53296569
0.80637255 0.4752451 0.46813725
0.8995098 0.47169118 0.46151961
0.97058824 0.48333333 0.45098039
0.0039215686 0.65931373 0.48210784
0.0040134804 0.66495098 0.47034314
0.0098039216 0.67683824 0.47745098
0.20536152 0.67061887 0.47101716
0.44583333 0.63602941 0.45759804
0.61712623 0.6245098 0.43746936
0.77279412 0.63039216 0.43535539
0.88921569 0.65116422 0.46914828
0.97426471 0.65882353 0.48186275
0.014215686 0.75588235 0.41372549
0.015625 0.75533088 0.40894608
0.020710784 0.75159314 0.40245098
0.16862745 0.75098039 0.39215686
0.36544118 0.72377451 0.37769608
0.54080882 0.70594363 0.34509804
0.70931373 0.70343137 0.30085784
0.83363971 0.7151348 0.28425245
0.95441176 0.7627451 0.41029412
0.11715686 0.84681373 0.37034314
0.10928309 0.84356618 0.36372549
0.12071078 0.84705882 0.36341912
0.19984681 0.84050245 0.34721201
0.37745098 0.82120098 0.32647059
0.51308211 0.81185662 0.27754289
0.68351716 0.81813725 0.25490196
0.82622549 0.82576593 0.22303922
0.93480392 0.8377451 0.16740196
0.39607843 0.96862745 0.43137255
0.38431373 0.96470588 0.4254902
0.3872549 0.96372549 0.42892157
0.39387255 0.94754902 0.41029412
0.51176471 0.95686275 0.41764706
0.61911765 0.95637255 0.39607843
0.74460784 0.95931373 0.38088235
0.86544118 0.96176471 0.37132353
0.96666667 0.97254902 0.35490196
0 0.26813725 0.65441176
0.0039215686 0.26176471 0.65833333
0.011151961 0.25147059 0.66617647
0.29699755 0.26813725 0.68823529
0.55 0.30686275 0.70392157
0.6966299 0.32800245 0.70931373
0.82254902 0.35392157 0.71286765
0.90294118 0.41979167 0.71176471
0.98529412 0.50147059 0.71715686
0 0.30765931 0.65441176
0.0039215686 0.31143536 0.66020987
0.015686275 0.28466605 0.67094056
0.29485294 0.29332108 0.69570313
0.53431373 0.31470588 0.70710784
0.70147059 0.34019608 0.71323529
0.81470588 0.35784314 0.707981
0.90324755 0.43213082 0.70757506
0.97095588 0.47457108 0.70214461
0 0.38921569 0.66017157
0 0.38772978 0.66115196
0.022794118 0.36292892 0.68020833
0.29375 0.35539216 0.69889706
0.54301471 0.38382353 0.70680147
0.71213235 0.39986213 0.71568627
0.81862745 0.41219363 0.71161152
0.90709252 0.46741728 0.70723039
0.97218137 0.49019608 0.69901961
0 0.48480392 0.65140931
0.0036151961 0.48626685 0.65140931
0.018397672 0.49362745 0.66556373
0.27851562 0.45547641 0.68653493
0.54071691 0.49041054 0.7088848
0.71456036 0.50833333 0.71695006
0.81954657 0.51323529 0.71009498
0.90557598 0.54571844 0.71109069
0.97009804 0.52009804 0.67352941
0.0039215686 0.59240196 0.64509804
0.0016237745 0.58979779 0.64117647
0.0064338235 0.590625 0.6497549
0.23756127 0.58970588 0.66960784
0.50710784 0.59080882 0.69019608
0.70076593 0.61740196 0.72717525
0.81078431 0.60410539 0.69693627
0.89981618 0.55382966 0.63961397
0.97426471 0.51372549 0.60588235
0.027389706 0.70147059 0.65294118
0.017041973 0.70177696 0.64957108
0.016222426 0.70185355 0.65294118
0.23175551 0.71488205 0.66621477
0.48210784 0.71884191 0.68403799
0.67385876 0.71188725 0.69941023
0.79734988 0.664231 0.64394914
0.89247089 0.62751991 0.6042356
0.96470588 0.61427696 0.5877451
0.091176471 0.81593137 0.62659314
0.043627451 0.80966605 0.610769
0.038848039 0.8122549 0.61115196
0.13376225 0.80813419 0.59872855
0.40477941 0.79093137 0.58621324
0.5533701 0.74607843 0.53541667
0.7182598 0.73933824 0.51167279
0.86239277 0.75071998 0.52688419
0.95171569 0.78235294 0.5879902
0.01372549 0.88903186 0.54785539
0.012009804 0.88956036 0.54830729
0.022977941 0.88860294 0.53455882
0.030736826 0.88676471 0.52696078
0.34108456 0.87221201 0.52769608
0.50521599 0.84951746 0.49074755
0.66827512 0.83970588 0.43382353
0.83151808 0.83903186 0.41584712
0.93186275 0.84656863 0.39344363
0.39019608 0.97647059 0.57843137
0.32953431 0.96292892 0.55428922
0.38296569 0.97438725 0.56715686
0.34411765 0.9622549 0.55692402
0.44583333 0.95882353 0.54387255
0.5528799 0.93615196 0.50055147
0.70330882 0.95441176 0.49938725
0.85177696 0.94932598 0.47904412
0.96421569 0.97598039 0.48529412
0.0039215686 0.36470588 0.78431373
0.015318627 0.3560049 0.78811275
0.031127451 0.33946078 0.80196078
0.24142157 0.34166667 0.81078431
0.50392157 0.3872549 0.81862745
0.70551471 0.45294118 0.84117647
0.81397059 0.4747549 0.82745098
0.89901961 0.51078431 0.82941176
0.96372549 0.59313725 0.82941176
0.0013480392 0.3877451 0.79215686
0.0091911765 0.38284314 0.79831495
0.0064644608 0.35637255 0.80943627
0.25718444 0.36055453 0.81190257
0.49558824 0.39632353 0.81495098
0.70482537 0.45814951 0.8356924
0.81565564 0.48419118 0.83112745
0.90281863 0.49820772 0.83016238
0.96335784 0.59019608 0.82990196
0.0046568627 0.46176471 0.80220588
0.011397059 0.45199142 0.79215686
0.019607843 0.43235294 0.80588235
0.25481005 0.41629902 0.81862745
0.50919118 0.45257353 0.81862745
0.69574142 0.48998162 0.82337623
0.81470588 0.52230392 0.82610294
0.89901961 0.53180147 0.82941176
0.95588235 0.60710784 0.83112745
0.010294118 0.5504902 0.78578431
0.0087622549 0.54560355 0.78186275
0.011672794 0.54365809 0.79656863
0.28252145 0.54117647 0.80202206
0.51482843 0.55490196 0.80833333
0.68932292 0.58578431 0.82936581
0.81185662 0.60882353 0.83431373
0.89255515 0.61764706 0.8282935
0.95404412 0.66323529 0.83431373
0.0078431373 0.64215686 0.76470588
0.0093137255 0.63443627 0.76488971
0.027573529 0.63431373 0.77218137
0.2625 0.63284314 0.7848652
0.4877451 0.64411765 0.79779412
0.67818627 0.67261029 0.82457108
0.81078431 0.69313725 0.83112745
0.88676471 0.69356618 0.81960784
0.94264706 0.72352941 0.83823529
0.011764706 0.74375 0.7754902
0.023345588 0.73688725 0.77193627
0.019393382 0.73599877 0.77303922
0.11813725 0.72598039 0.77526042
0.42904412 0.71905637 0.7846201
0.62794118 0.73480392 0.8134038
0.80211397 0.75462623 0.82331495
0.88337929 0.75942096 0.82109375
0.94522059 0.71176471 0.77536765
0.13946078 0.83431373 0.78014706
0.13360907 0.834375 0.78072917
0.14791667 0.83633578 0.78278186
0.16210172 0.83385417 0.78088235
0.44522059 0.83125 0.78688725
0.60318627 0.83158701 0.79338235
0.77009804 0.83039216 0.81127451
0.87205882 0.78823529 0.76602328
0.93970588 0.7622549 0.73186275
0.34276961 0.91568627 0.76482843
0.34215686 0.91862745 0.7647212
0.32132353 0.91415441 0.75487132
0.29586397 0.91568627 0.73288909
0.43743873 0.9161152 0.75367647
0.54215686 0.90035233 0.7238511
0.67221201 0.8731924 0.68391544
0.82536765 0.86213235 0.65018382
0.9377451 0.8754902 0.69791667
0.41666667 0.96764706 0.73431373
0.4120098 0.97830882 0.72745098
0.40710784 0.97279412 0.72254902
0.42401961 0.97585784 0.72144608
0.44509804 0.98186275 0.71666667
0.54889706 0.97708333 0.69362745
0.67058824 0.95857843 0.66446078
0.80845588 0.95992647 0.64313725
0.94411765 0.97156863 0.63431373
0.0039215686 0.47598039 0.89166667
0.0078431373 0.46862745 0.89215686
0.023529412 0.4377451 0.89852941
0.31145833 0.44362745 0.90165441
0.51127451 0.48259804 0.89901961
0.68578431 0.55128676 0.90294118
0.80686275 0.60306373 0.9060049
0.8872549 0.64166667 0.8995098
0.94460784 0.67647059 0.8995098
0.019607843 0.49160539 0.89166667
0.023475797 0.4868796 0.89558824
0.039384191 0.45696998 0.89938725
0.27509957 0.4587163 0.90079657
0.53091299 0.48409926 0.90465686
0.68235294 0.55147059 0.90686275
0.81862745 0.61781556 0.91464461
0.89117647 0.64215686 0.9033701
0.9411152 0.66819853 0.90294118
0.020098039 0.53664216 0.89166667
0.020710784 0.53541667 0.89166667
0.047886029 0.52230392 0.90401348
0.31599265 0.51727941 0.90294118
0.52647059 0.54283088 0.90165441
0.69007353 0.58321078 0.8993413
0.82205882 0.63973652 0.9114277
0.89552696 0.6402114 0.89989277
0.95245098 0.66372549 0.91029412
0.068811275 0.61029412 0.88511029
0.11481311 0.62009804 0.88560049
0.20209865 0.61868873 0.88961397
0.35747549 0.60882353 0.8944087
0.52377451 0.61577819 0.89901961
0.68696385 0.64587929 0.89957108
0.81832108 0.69327512 0.91078431
0.88872549 0.70343137 0.90557598
0.94068627 0.728125 0.90900735
0.18259804 0.69926471 0.87205882
0.18820466 0.69751838 0.8705576
0.21133578 0.69901961 0.8754902
0.38474265 0.69126838 0.88465074
0.51617647 0.70196078 0.88382353
0.67254902 0.72181373 0.89984681
0.79932598 0.74828431 0.91078431
0.87328431 0.75955882 0.9098652
0.92132353 0.76764706 0.90857843
0.014644608 0.76599265 0.86421569
0.041973039 0.77356771 0.86403186
0.02544424 0.76626838 0.86421569
0.1969133 0.76219363 0.86911765
0.41911765 0.76387868 0.86749387
0.6194087 0.76751685 0.89037224
0.78198529 0.80294118 0.9064951
0.86748621 0.80765931 0.90165441
0.9276348 0.81047794 0.90980392
0.14264706 0.85784314 0.86776961
0.13549326 0.85441176 0.86776961
0.14546569 0.85441176 0.86813725
0.16956189 0.85320159 0.87296262
0.40459559 0.84264706 0.86813725
0.5652114 0.83846507 0.87905944
0.74022672 0.84901961 0.89803922
0.86351103 0.86400123 0.89901961
0.925 0.84178922 0.8754902
0.3651348 0.93431373 0.87990196
0.39118413 0.93099724 0.88050705
0.38039216 0.92794118 0.87303922
0.38592984 0.934375 0.87990196
0.47444853 0.92478554 0.87604167
0.59875153 0.91911765 0.8841299
0.73665748 0.92303922 0.88780637
0.86023284 0.92689951 0.90268842
0.9254902 0.89656863 0.87659314
0.51911765 0.97303922 0.87990196
0.55863971 0.9911152 0.87984069
0.56372549 0.99264706 0.88088235
0.53167892 0.97892157 0.87432598
0.57426471 0.98651961 0.87279412
0.61421569 0.98039216 0.8495098
0.69154412 0.98431373 0.83872549
0.80980392 0.97604167 0.81121324
0.9254902 0.96911765 0.79901961
0.29411765 0.61568627 0.97647059
0.29705882 0.61078431 0.97598039
0.36666667 0.60588235 0.9754902
0.4622549 0.59607843 0.96862745
0.60196078 0.63137255 0.97254902
0.70784314 0.66813725 0.96862745
0.80686275 0.71568627 0.96862745
0.87941176 0.7495098 0.96470588
0.9372549 0.79607843 0.97254902
0.28578431 0.61519608 0.97254902
0.30778186 0.6189951 0.97297794
0.35 0.60710784 0.97254902
0.46115196 0.60753676 0.97273284
0.59534314 0.63039216 0.97230392
0.71029412 0.66078431 0.96127451
0.80943627 0.70686275 0.96078431
0.89160539 0.77346814 0.96905637
0.925 0.77990196 0.96470588
0.3245098 0.65196078 0.96764706
0.33823529 0.65514706 0.96605392
0.40514706 0.65808824 0.97279412
0.46776961 0.63529412 0.96458333
0.59313725 0.65147059 0.9627451
0.70441176 0.67132353 0.95392157
0.8129902 0.7125 0.95490196
0.88823529 0.76176471 0.96090686
0.92941176 0.74901961 0.95098039
0.43088235 0.72352941 0.96862745
0.40177696 0.71360294 0.95949755
0.45012255 0.72291667 0.96507353
0.50765931 0.70876225 0.96660539
0.59289216 0.6997549 0.95882353
0.69846814 0.71109069 0.95085784
0.81017157 0.76323529 0.96470588
0.88694853 0.80490196 0.96960784
0.93088235 0.81176471 0.96470588
0.45686275 0.78039216 0.95686275
0.43651961 0.775 0.95147059
0.45980392 0.77696078 0.95735294
0.51004902 0.76544118 0.95686275
0.58431373 0.75392157 0.95294118
0.69264706 0.76470588 0.9620098
0.79558824 0.79068627 0.96029412
0.86960784 0.80441176 0.95098039
0.92745098 0.85098039 0.97058824
0.43676471 0.84362745 0.95441176
0.42199755 0.83627451 0.953125
0.39031863 0.82647059 0.94509804
0.48143382 0.83339461 0.95594363
0.55808824 0.82058824 0.95294118
0.66617647 0.81170343 0.96072304
0.77438725 0.83382353 0.96323529
0.86029412 0.85422794 0.96439951
0.91764706 0.87990196 0.96862745
0.39313725 0.89901961 0.94901961
0.38762255 0.89987745 0.94987745
0.38872549 0.89681373 0.9497549
0.39803922 0.89607843 0.95257353
0.50490196 0.88431373 0.94901961
0.60772059 0.87389706 0.94852941
0.75784314 0.87941176 0.95882353
0.85882353 0.89522059 0.96470588
0.91764706 0.91862745 0.96862745
0.49558824 0.95392157 0.96078431
0.50343137 0.95435049 0.96078431
0.4939951 0.95477941 0.95686275
0.51035539 0.95998775 0.96525735
0.52058824 0.94779412 0.95465686
0.59276961 0.93431373 0.94589461
0.73333333 0.93039216 0.94938725
0.83235294 0.93780637 0.96905637
0.91666667 0.95686275 0.97941176
0.62352941 0.99607843 0.96862745
0.58676471 0.98823529 0.95686275
0.60686275 0.99215686 0.96470588
0.58431373 0.98872549 0.95392157
0.60784314 0.99215686 0.96470588
0.66715686 0.98823529 0.94509804
0.75588235 0.98823529 0.95980392
0.83627451 0.98872549 0.96176471
0.91764706 0.99607843 0.98823529
