site/assets/luts/natron-haldclut--60s--35949cdee.cube
# LUTr-Project: LUTr — LUTrepository
# LUTr-Schema-Version: 1
# LUTr-ID: natron-haldclut--60s--35949cdee
# LUTr-Title: 60's
# LUTr-Collection: Natron HaldCLUT
# LUTr-Collection-ID: natron-haldclut-presets
# LUTr-Source: https://github.com/NatronGitHub/clut
# LUTr-Source-File: submissions/natron-haldclut-presets/various/60's.png
# LUTr-Source-Format: PNG
# LUTr-Source-SHA256: efd0bc7f643c1f3d0ee2ec1565439077ce0891331502d245ea4688bc3e642c78
# LUTr-License: CC-BY-SA-4.0
# LUTr-License-URL: https://github.com/NatronGitHub/clut#license
# LUTr-Tags: creative, film, film-emulation, hald-clut, natron, png, cube
# LUTr-Transform-Class: film-emulation
# LUTr-Input-Color-Space: srgb
# LUTr-Output-Color-Space: srgb
# LUTr-Color-Space-Confidence: assumed-display-referred
# LUTr-Conversion-Method: PNG LUT image decoded at 16-bit and sampled to 25x25x25 3D CUBE
# LUTr-Conversion-Date: 2026-07-27
# LUTr-Conversion-Tool: LUTr scripts/convert-all-to-cube.mjs
# LUTr-Conversion-Grid: 25x25x25
# LUTr-Note: Preserve this metadata and the upstream license notices when redistributing.
TITLE "60's"
LUT_3D_SIZE 5
DOMAIN_MIN 0 0 0
DOMAIN_MAX 1 1 1
0.42745098 0.11372549 0.45490196
0.49901961 0.12156863 0.48823529
0.76862745 0.14117647 0.48627451
0.91764706 0.1254902 0.48529412
0.76862745 0.13333333 0.49019608
0.41372549 0.28529412 0.46764706
0.47916667 0.28897059 0.49828431
0.77647059 0.31666667 0.49411765
0.9375 0.32352941 0.50392157
0.85588235 0.34313725 0.51176471
0.40980392 0.71960784 0.47647059
0.49313725 0.73529412 0.50833333
0.78333333 0.73921569 0.49705882
0.92941176 0.74754902 0.48529412
0.85686275 0.77843137 0.51176471
0.36764706 0.9127451 0.49607843
0.51568627 0.93995098 0.50367647
0.79656863 0.93921569 0.48137255
0.92622549 0.93921569 0.48921569
0.84313725 0.95784314 0.50294118
0.41960784 0.77647059 0.51372549
0.5254902 0.9 0.51568627
0.84117647 0.84117647 0.53333333
0.96960784 0.85490196 0.5372549
0.93333333 0.92156863 0.54117647
0.33921569 0.23921569 0.53235294
0.43284314 0.19877451 0.54558824
0.75147059 0.21127451 0.55735294
0.90514706 0.22254902 0.56421569
0.88921569 0.22843137 0.61078431
0.35955882 0.26151961 0.56789216
0.47352941 0.30931373 0.60373775
0.80245098 0.32389706 0.6127451
0.94926471 0.33792892 0.63235294
0.9122549 0.37941176 0.64779412
0.35392157 0.725 0.59068627
0.49816176 0.74889706 0.61703431
0.80735294 0.76617647 0.63112745
0.94607843 0.775 0.62058824
0.89607843 0.81323529 0.65735294
0.35661765 0.91985294 0.59705882
0.53106618 0.94221814 0.62352941
0.81997549 0.94607843 0.63333333
0.94509804 0.94215686 0.63609069
0.91764706 0.96568627 0.65171569
0.40980392 0.80784314 0.65980392
0.56666667 0.85661765 0.68112745
0.85980392 0.88088235 0.68382353
0.96936275 0.89117647 0.68406863
0.90980392 0.93333333 0.67254902
0.32745098 0.19411765 0.78039216
0.44460784 0.20539216 0.7872549
0.75294118 0.19411765 0.78431373
0.91862745 0.1877451 0.81078431
0.84313725 0.20588235 0.81176471
0.33676471 0.25980392 0.79803922
0.50637255 0.33517157 0.84620098
0.80539216 0.34117647 0.84926471
0.94558824 0.35012255 0.85257353
0.89705882 0.39166667 0.88970588
0.35196078 0.71666667 0.81470588
0.49583333 0.75588235 0.84215686
0.82254902 0.76960784 0.85980392
0.95 0.78333333 0.86397059
0.90588235 0.82647059 0.89509804
0.35441176 0.92205882 0.82843137
0.51176471 0.94669118 0.85686275
0.82328431 0.95171569 0.86470588
0.95367647 0.94607843 0.86470588
0.90245098 0.97254902 0.8995098
0.4 0.83333333 0.88627451
0.57205882 0.8754902 0.91127451
0.87058824 0.90588235 0.9127451
0.97303922 0.88872549 0.91176471
0.94901961 0.9 0.92352941
0.31568627 0.16078431 0.8754902
0.46078431 0.20808824 0.91004902
0.76715686 0.20294118 0.90931373
0.89191176 0.15833333 0.90294118
0.89117647 0.23137255 0.92647059
0.35686275 0.28480392 0.91446078
0.51721814 0.34681373 0.96176471
0.8245098 0.35110294 0.96176471
0.9466299 0.353125 0.96397059
0.95122549 0.37696078 0.96323529
0.37107843 0.73823529 0.925
0.52058824 0.77254902 0.96176471
0.83112745 0.77843137 0.96936275
0.94460784 0.78786765 0.96605392
0.87990196 0.81764706 0.98039216
0.38137255 0.92769608 0.94901961
0.53572304 0.94234069 0.96176471
0.82242647 0.94607843 0.96678922
0.95367647 0.95392157 0.96979167
0.9004902 0.96715686 0.97745098
0.43333333 0.85490196 0.96666667
0.55367647 0.84558824 0.97254902
0.85147059 0.86519608 0.9754902
0.97156863 0.86715686 0.97818627
0.93921569 0.84215686 0.98431373
0.43137255 0.24705882 0.9254902
0.49313725 0.26666667 0.95
0.80588235 0.21372549 0.98039216
0.92254902 0.28921569 0.9627451
0.8745098 0.3372549 0.96470588
0.49215686 0.33823529 0.96862745
0.54583333 0.36764706 0.99215686
0.82352941 0.36715686 0.99607843
0.94509804 0.36372549 0.99215686
0.88137255 0.39313725 0.99607843
0.52941176 0.7745098 0.98039216
0.55343137 0.79558824 0.98480392
0.82647059 0.79509804 0.99215686
0.93627451 0.79705882 0.99215686
0.82941176 0.80980392 0.99607843
0.54411765 0.94607843 0.98529412
0.54803922 0.95 0.99607843
0.82303922 0.95392157 0.99411765
0.95122549 0.96004902 0.99607843
0.87058824 0.96176471 0.99215686
0.58823529 0.98823529 0.98823529
0.55392157 0.98823529 0.98921569
0.82352941 0.99607843 0.99215686
0.94803922 0.99411765 0.99901961
0.8627451 0.99607843 0.99215686
