site/assets/luts/natron-haldclut--fuji3513-constlclip--7e1a62256.cube
# LUTr-Project: LUTr — LUTrepository
# LUTr-Schema-Version: 1
# LUTr-ID: natron-haldclut--fuji3513-constlclip--7e1a62256
# LUTr-Title: fuji3513 constlclip
# LUTr-Collection: Natron HaldCLUT
# LUTr-Collection-ID: natron-haldclut-presets
# LUTr-Source: https://github.com/NatronGitHub/clut
# LUTr-Source-File: submissions/natron-haldclut-presets/print/fuji3513_constlclip.png
# LUTr-Source-Format: PNG
# LUTr-Source-SHA256: d47b0695c7dd7daad815324cda8ce18f0640240e46fb0b6487c1ca1c35570add
# LUTr-License: CC-BY-SA-4.0
# LUTr-License-URL: https://github.com/NatronGitHub/clut#license
# LUTr-Tags: creative, film, film-emulation, hald-clut, natron, png, cube
# LUTr-Transform-Class: film-emulation
# LUTr-Input-Color-Space: srgb
# LUTr-Output-Color-Space: srgb
# LUTr-Color-Space-Confidence: assumed-display-referred
# LUTr-Conversion-Method: PNG LUT image decoded at 16-bit and sampled to 25x25x25 3D CUBE
# LUTr-Conversion-Date: 2026-07-27
# LUTr-Conversion-Tool: LUTr scripts/convert-all-to-cube.mjs
# LUTr-Conversion-Grid: 25x25x25
# LUTr-Note: Preserve this metadata and the upstream license notices when redistributing.
TITLE "fuji3513 constlclip"
LUT_3D_SIZE 5
DOMAIN_MIN 0 0 0
DOMAIN_MAX 1 1 1
0.0039215686 0.0039215686 0.011764706
0.067647059 0.026470588 0.015686275
0.3 0.074509804 0.015686275
0.47941176 0.090196078 0.00098039216
0.52941176 0.10588235 0.023529412
0.019607843 0.081372549 0.050980392
0.088235294 0.10784314 0.031372549
0.38235294 0.16029412 0.01372549
0.59019608 0.19705882 0.011764706
0.63137255 0.20882353 0.025490196
0.0019607843 0.25098039 0.12156863
0.00049019608 0.30686275 0.087745098
0.49803922 0.43333333 0.0039215686
0.74117647 0.475 0.01127451
0.79019608 0.49607843 0.01372549
0.02254902 0.40980392 0.18137255
0.025735294 0.49681373 0.12843137
0.59656863 0.67009804 0.014705882
0.85906863 0.73651961 0.044117647
0.90686275 0.75098039 0.067647059
0 0.49411765 0.23137255
0.14509804 0.63529412 0.01372549
0.65294118 0.74901961 0.011764706
0.92254902 0.81176471 0.068627451
0.98431373 0.83529412 0.1372549
0 0.026470588 0.075490196
0.075490196 0.034313725 0.087254902
0.34852941 0.00098039216 0.075
0.53823529 0.02745098 0.08627451
0.58431373 0.045098039 0.097058824
0.012009804 0.11004902 0.11372549
0.069546569 0.12647059 0.12377451
0.46531863 0.1502451 0.093504902
0.71648284 0.085723039 0.046017157
0.76936275 0.10882353 0.058088235
0.0078431373 0.30637255 0.21176471
0.028431373 0.37352941 0.18737745
0.58063725 0.49142157 0.066421569
0.8754902 0.51715686 0.0023284314
0.93039216 0.54068627 0
0.01372549 0.46740196 0.30073529
0.049938725 0.55563725 0.29338235
0.63676471 0.76617647 0.0051470588
0.97867647 0.82242647 0.0087009804
0.99730392 0.83431373 0.080882353
0.019607843 0.55490196 0.4127451
0.0073529412 0.68161765 0.41397059
0.65343137 0.83823529 0.38039216
0.98921569 0.89534314 0.34607843
1 0.89215686 0.46764706
0.0039215686 0.11372549 0.23137255
0.085784314 0 0.31078431
0.37941176 0.02254902 0.34313725
0.59215686 0.041176471 0.36372549
0.63137255 0.039215686 0.37254902
0.0034313725 0.20343137 0.31715686
0.030392157 0.17463235 0.38835784
0.49583333 0.17573529 0.46936275
0.7442402 0.11139706 0.46862745
0.79803922 0.13039216 0.48823529
0.0049019608 0.40196078 0.45294118
0.024264706 0.46470588 0.51078431
0.56715686 0.57254902 0.58235294
0.88578431 0.59460784 0.58431373
0.93921569 0.61764706 0.59215686
0.0034313725 0.56568627 0.55882353
0.0034313725 0.66433824 0.61323529
0.58210784 0.85465686 0.66176471
0.96911765 0.90980392 0.66629902
1 0.90588235 0.68823529
0 0.65686275 0.66470588
0 0.76421569 0.74117647
0.58627451 0.90196078 0.77745098
0.96127451 0.95882353 0.77941176
1 0.95882353 0.79607843
0 0.1754902 0.34509804
0.060539216 0.020343137 0.46348039
0.39313725 0.031372549 0.53137255
0.60294118 0.050980392 0.54485294
0.65490196 0.043137255 0.56666667
0 0.26176471 0.45171569
0.0095588235 0.24969363 0.53229167
0.50404412 0.1629902 0.72071078
0.75778186 0.10183824 0.73351716
0.81004902 0.13161765 0.74681373
0.016666667 0.46764706 0.60392157
0.041789216 0.51556373 0.67585784
0.53627451 0.61372549 0.86078431
0.88431373 0.62720588 0.87340686
0.9372549 0.65490196 0.88284314
0.016666667 0.62083333 0.7
0.027267157 0.70882353 0.78039216
0.52463235 0.8997549 0.92242647
0.94338235 0.94779412 0.93995098
1 0.96960784 0.9502451
0.019607843 0.6745098 0.75196078
0.017647059 0.79093137 0.85465686
0.52598039 0.92745098 0.95
0.93627451 0.98529412 0.96740196
0.99607843 0.98823529 0.96568627
0 0.2 0.39215686
0.056862745 0.026470588 0.5754902
0.44901961 0.0039215686 0.66470588
0.67843137 0.033333333 0.6745098
0.70980392 0.031372549 0.6745098
0 0.29705882 0.50490196
0.0075980392 0.28063725 0.59705882
0.50147059 0.24558824 0.79705882
0.78431373 0.19705882 0.81838235
0.8372549 0.2372549 0.8372549
0.049019608 0.48627451 0.63333333
0.0083333333 0.5377451 0.72205882
0.53333333 0.63529412 0.9127451
0.88970588 0.64019608 0.93529412
0.93529412 0.66862745 0.93921569
0.042156863 0.63529412 0.7254902
0.028431373 0.71960784 0.80686275
0.48088235 0.90441176 0.96715686
0.93995098 0.95416667 0.99215686
0.99215686 0.95392157 0.99215686
0 0.68627451 0.77254902
0.037254902 0.79313725 0.86862745
0.52745098 0.93137255 0.97254902
0.93823529 0.99215686 1
0.99607843 1 1
