site/assets/luts/natron-haldclut--polaroid-669--dc17b6669.cube
# LUTr-Project: LUTr — LUTrepository
# LUTr-Schema-Version: 1
# LUTr-ID: natron-haldclut--polaroid-669--dc17b6669
# LUTr-Title: polaroid 669
# LUTr-Collection: Natron HaldCLUT
# LUTr-Collection-ID: natron-haldclut-presets
# LUTr-Source: https://github.com/NatronGitHub/clut
# LUTr-Source-File: submissions/natron-haldclut-presets/colorslide/polaroid_669.png
# LUTr-Source-Format: PNG
# LUTr-Source-SHA256: 75850c511afa7879e924ae7b30dca2aa4bdd7c7376e4d7f9194442cdb4a3eeb5
# LUTr-License: CC-BY-SA-4.0
# LUTr-License-URL: https://github.com/NatronGitHub/clut#license
# LUTr-Tags: creative, film, film-emulation, hald-clut, natron, png, cube
# LUTr-Transform-Class: film-emulation
# LUTr-Input-Color-Space: srgb
# LUTr-Output-Color-Space: srgb
# LUTr-Color-Space-Confidence: assumed-display-referred
# LUTr-Conversion-Method: PNG LUT image decoded at 16-bit and sampled to 25x25x25 3D CUBE
# LUTr-Conversion-Date: 2026-07-27
# LUTr-Conversion-Tool: LUTr scripts/convert-all-to-cube.mjs
# LUTr-Conversion-Grid: 25x25x25
# LUTr-Note: Preserve this metadata and the upstream license notices when redistributing.
TITLE "polaroid 669"
LUT_3D_SIZE 5
DOMAIN_MIN 0 0 0
DOMAIN_MAX 1 1 1
0.011764706 0.0039215686 0.0039215686
0.11862745 0.0068627451 0.010784314
0.31764706 0.0058823529 0.0098039216
0.62745098 0.010784314 0.016666667
0.82745098 0.011764706 0.02745098
0.13529412 0.20392157 0.12843137
0.24607843 0.19705882 0.10784314
0.44068627 0.20392157 0.1245098
0.68921569 0.20098039 0.13235294
0.89019608 0.19705882 0.1627451
0.34313725 0.4745098 0.24901961
0.40833333 0.46862745 0.26029412
0.5745098 0.47254902 0.2754902
0.75 0.4745098 0.27352941
0.90784314 0.46470588 0.31568627
0.6127451 0.70882353 0.45490196
0.64044118 0.7127451 0.44534314
0.7254902 0.72254902 0.46764706
0.81936275 0.7127451 0.45882353
0.92941176 0.72058824 0.48921569
0.81568627 0.88235294 0.66666667
0.83431373 0.88921569 0.6627451
0.85686275 0.88627451 0.66078431
0.89901961 0.88235294 0.65980392
0.97647059 0.89803922 0.69411765
0.0049019608 0.011764706 0.10392157
0.11887255 0.023529412 0.12745098
0.33137255 0.031372549 0.14117647
0.63235294 0.03504902 0.15490196
0.88529412 0.05 0.18529412
0.15098039 0.2125 0.2127451
0.23063725 0.22279412 0.22720588
0.4307598 0.23063725 0.24240196
0.68921569 0.22426471 0.24724265
0.88529412 0.22647059 0.27352941
0.32990196 0.49117647 0.3495098
0.39546569 0.48970588 0.34705882
0.56519608 0.4877451 0.36691176
0.75392157 0.49129902 0.38468137
0.90147059 0.4995098 0.40735294
0.60784314 0.7245098 0.53063725
0.6372549 0.72818627 0.53045343
0.7127451 0.73235294 0.53382353
0.81488971 0.72689951 0.54607843
0.92647059 0.73553922 0.56960784
0.81568627 0.89019608 0.7
0.82426471 0.89019608 0.69926471
0.85196078 0.89215686 0.70490196
0.89509804 0.88235294 0.70098039
0.96372549 0.89215686 0.71470588
0.025490196 0.068627451 0.28823529
0.11176471 0.056862745 0.29558824
0.31470588 0.044117647 0.28823529
0.6245098 0.078431373 0.33137255
0.87647059 0.060784314 0.34117647
0.10392157 0.25 0.38431373
0.19473039 0.25441176 0.39166667
0.40710784 0.27058824 0.41568627
0.6810049 0.26470588 0.43541667
0.8872549 0.25735294 0.45490196
0.26568627 0.51666667 0.51960784
0.36029412 0.52818627 0.52352941
0.54901961 0.53235294 0.53529412
0.74166667 0.52941176 0.55098039
0.89607843 0.5254902 0.56666667
0.58235294 0.75343137 0.66470588
0.60943627 0.75196078 0.65919118
0.69705882 0.76446078 0.66862745
0.80686275 0.76911765 0.68039216
0.92156863 0.75980392 0.69117647
0.81176471 0.91176471 0.77647059
0.82352941 0.91764706 0.78235294
0.84607843 0.91372549 0.78627451
0.89509804 0.91323529 0.78823529
0.95098039 0.9 0.78431373
0.019607843 0.10294118 0.48921569
0.074264706 0.08995098 0.49705882
0.31960784 0.11862745 0.51911765
0.60784314 0.10612745 0.52843137
0.85392157 0.10686275 0.53627451
0.06372549 0.29509804 0.58946078
0.14466912 0.30214461 0.58903186
0.38431373 0.30686275 0.60306373
0.66960784 0.30422794 0.6161152
0.8745098 0.2997549 0.62916667
0.19362745 0.55784314 0.68529412
0.31470588 0.55735294 0.68713235
0.51715686 0.57303922 0.69436275
0.72634804 0.56862745 0.70747549
0.87892157 0.5622549 0.71960784
0.56078431 0.78333333 0.78259804
0.59883578 0.77941176 0.77941176
0.68578431 0.7879902 0.78333333
0.79136029 0.790625 0.79136029
0.91372549 0.79117647 0.80196078
0.80294118 0.93333333 0.86078431
0.81936275 0.9379902 0.86372549
0.84362745 0.93431373 0.86372549
0.8872549 0.9372549 0.86936275
0.92254902 0.9372549 0.87156863
0.0078431373 0.12156863 0.61568627
0.076470588 0.14509804 0.65784314
0.27843137 0.1254902 0.65490196
0.6127451 0.13333333 0.67058824
0.87843137 0.13333333 0.70196078
0.023529412 0.32254902 0.73529412
0.083333333 0.32573529 0.73553922
0.35294118 0.33333333 0.73823529
0.65784314 0.32941176 0.74828431
0.87352941 0.32647059 0.72843137
0.070588235 0.59411765 0.80784314
0.24411765 0.59215686 0.79509804
0.47745098 0.59607843 0.80980392
0.71323529 0.58823529 0.81568627
0.89215686 0.59607843 0.82745098
0.51568627 0.80588235 0.87941176
0.57622549 0.79509804 0.85588235
0.66372549 0.80294118 0.87205882
0.78039216 0.80980392 0.88333333
0.90980392 0.80294118 0.87156863
0.79215686 0.95294118 0.94117647
0.81176471 0.96078431 0.94509804
0.84117647 0.95294118 0.91764706
0.87941176 0.95392157 0.93823529
0.98823529 0.98431373 0.98431373
