site/assets/luts/natron-haldclut--generic-fuji-provia-100--be7ec5e77.cube
# LUTr-Project: LUTr — LUTrepository
# LUTr-Schema-Version: 1
# LUTr-ID: natron-haldclut--generic-fuji-provia-100--be7ec5e77
# LUTr-Title: generic fuji provia 100
# LUTr-Collection: Natron HaldCLUT
# LUTr-Collection-ID: natron-haldclut-presets
# LUTr-Source: https://github.com/NatronGitHub/clut
# LUTr-Source-File: submissions/natron-haldclut-presets/colorslide/generic_fuji_provia_100.png
# LUTr-Source-Format: PNG
# LUTr-Source-SHA256: 5911964215fe0c4681f964b4edb84441aa06f290f10fbf2e554516f40c32d24a
# LUTr-License: CC-BY-SA-4.0
# LUTr-License-URL: https://github.com/NatronGitHub/clut#license
# LUTr-Tags: creative, film, film-emulation, hald-clut, natron, png, cube
# LUTr-Transform-Class: film-emulation
# LUTr-Input-Color-Space: srgb
# LUTr-Output-Color-Space: srgb
# LUTr-Color-Space-Confidence: assumed-display-referred
# LUTr-Conversion-Method: PNG LUT image decoded at 16-bit and sampled to 25x25x25 3D CUBE
# LUTr-Conversion-Date: 2026-07-27
# LUTr-Conversion-Tool: LUTr scripts/convert-all-to-cube.mjs
# LUTr-Conversion-Grid: 25x25x25
# LUTr-Note: Preserve this metadata and the upstream license notices when redistributing.
TITLE "generic fuji provia 100"
LUT_3D_SIZE 25
DOMAIN_MIN 0 0 0
DOMAIN_MAX 1 1 1
0.011764706 0.031372549 0.0039215686
0.041176471 0.028921569 0.010294118
0.07745098 0.026470588 0.015686275
0.1122549 0.016176471 0.011764706
0.14313725 0.0019607843 0.0019607843
0.19068627 0.012254902 0.016176471
0.24215686 0.02254902 0.026470588
0.29362745 0.02745098 0.031372549
0.34901961 0.023529412 0.02745098
0.40686275 0.013235294 0.014705882
0.46764706 0.0029411765 0.0019607843
0.51911765 0.029901961 0.026470588
0.59019608 0.0058823529 0.0039215686
0.64558824 0.0078431373 0.0044117647
0.69705882 0.010784314 0.0078431373
0.75245098 0.0078431373 0.0078431373
0.80784314 0.0039215686 0.0039215686
0.85294118 0.016666667 0.006372549
0.89803922 0.032352941 0.011764706
0.93921569 0.031862745 0.011764706
0.97647059 0.017647059 0.0058823529
1 0.0078431373 0.0044117647
0.99607843 0.011764706 0.010784314
0.99607843 0.015686275 0.015686275
0.99607843 0.015686275 0.015686275
0.0053921569 0.031372549 0.0014705882
0.041176471 0.035355392 0.012745098
0.07745098 0.03872549 0.019117647
0.1122549 0.034987745 0.018321078
0.14509804 0.032107843 0.016666667
0.18823529 0.034803922 0.02254902
0.23860294 0.038112745 0.031004902
0.29025735 0.040196078 0.034742647
0.34509804 0.03872549 0.02745098
0.40349265 0.034803922 0.017156863
0.4622549 0.034803922 0.010294118
0.51911765 0.043443627 0.016482843
0.58186275 0.034803922 0.010294118
0.63921569 0.035110294 0.010477941
0.69313725 0.03872549 0.016544118
0.74699755 0.03817402 0.017218137
0.80147059 0.037254902 0.010294118
0.85202206 0.041176471 0.0087622549
0.89803922 0.052941176 0.0093137255
0.93921569 0.056188725 0.009620098
0.97647059 0.044607843 0.0078431373
0.9973652 0.03872549 0.0081495098
0.99313725 0.03872549 0.014705882
0.99215686 0.03872549 0.019607843
0.98970588 0.03872549 0.019607843
0.026470588 0.061764706 0.012745098
0.043995098 0.064215686 0.018137255
0.07745098 0.065686275 0.023284314
0.1122549 0.065686275 0.020465686
0.14509804 0.065686275 0.032843137
0.18762255 0.065686275 0.032843137
0.2372549 0.066421569 0.036519608
0.28970588 0.069607843 0.035294118
0.34509804 0.069607843 0.02745098
0.40012255 0.069607843 0.021078431
0.45906863 0.069607843 0.018872549
0.51862745 0.069607843 0.013112745
0.57794118 0.067647059 0.0058823529
0.63419118 0.067034314 0.0044117647
0.68921569 0.070343137 0.011764706
0.7439951 0.073529412 0.015686275
0.79607843 0.074509804 0.015686275
0.84656863 0.075612745 0.013235294
0.89509804 0.074264706 0.0075980392
0.93921569 0.076838235 0.0068627451
0.97647059 0.075 0.0073529412
0.9995098 0.069607843 0.0069852941
0.99387255 0.072794118 0.013970588
0.99215686 0.073529412 0.016789216
0.99215686 0.073529412 0.019607843
0.05 0.096078431 0.019117647
0.053247549 0.093137255 0.015992647
0.07745098 0.095710784 0.016176471
0.10833333 0.096568627 0.023039216
0.14166667 0.096568627 0.029656863
0.18676471 0.1 0.035784314
0.23431373 0.1 0.043504902
0.28596814 0.1004902 0.034007353
0.34117647 0.10392157 0.02745098
0.39901961 0.10422794 0.023529412
0.45686275 0.10441176 0.023039216
0.51519608 0.10441176 0.019178922
0.57303922 0.10392157 0.011519608
0.63082108 0.10398284 0.0078431373
0.68566176 0.10784314 0.011764706
0.74068627 0.1096201 0.016973039
0.79215686 0.11176471 0.019117647
0.84148284 0.1096201 0.015379902
0.89117647 0.10698529 0.0077205882
0.93921569 0.10392157 0.0072916667
0.97647059 0.10392157 0.0090686275
0.9995098 0.10441176 0.0074142157
0.99607843 0.10784314 0.011642157
0.99589461 0.11176471 0.015686275
0.99558824 0.11176471 0.015686275
0.060784314 0.12745098 0.011764706
0.060784314 0.12745098 0.0085784314
0.075490196 0.12794118 0.010294118
0.10269608 0.12941176 0.01372549
0.13921569 0.13137255 0.019607843
0.18848039 0.13161765 0.025735294
0.23823529 0.13333333 0.029411765
0.28578431 0.13529412 0.028676471
0.3372549 0.13529412 0.021568627
0.39387255 0.13848039 0.022058824
0.44852941 0.14362745 0.032352941
0.51078431 0.14485294 0.024019608
0.56764706 0.14705882 0.018627451
0.62426471 0.14901961 0.017647059
0.68088235 0.14509804 0.016176471
0.73553922 0.14583333 0.015686275
0.78823529 0.14705882 0.019607843
0.83848039 0.14583333 0.020098039
0.8872549 0.14264706 0.024019608
0.93504902 0.14117647 0.023284314
0.9745098 0.14117647 0.02745098
0.99215686 0.14166667 0.023529412
0.99362745 0.14656863 0.021568627
0.99411765 0.1497549 0.021568627
0.99215686 0.15294118 0.021568627
0.050490196 0.17941176 0.019607843
0.052941176 0.17910539 0.016176471
0.069485294 0.17794118 0.016176471
0.09564951 0.17156863 0.012683824
0.13259804 0.17083333 0.017892157
0.18235294 0.17101716 0.028247549
0.23296569 0.17144608 0.039828431
0.28400735 0.17040441 0.021752451
0.33284314 0.17009804 0.015196078
0.39068627 0.17303922 0.021752451
0.44767157 0.17941176 0.023651961
0.5033701 0.18578431 0.02745098
0.56053922 0.19019608 0.02377451
0.61770833 0.19019608 0.023529412
0.67340686 0.1872549 0.023529412
0.7286152 0.18235294 0.018627451
0.78382353 0.18186275 0.015686275
0.83529412 0.17971814 0.021568627
0.88321078 0.17843137 0.025
0.93088235 0.17800245 0.034865196
0.97647059 0.1745098 0.039460784
0.98823529 0.17892157 0.035784314
0.98823529 0.18529412 0.035294118
0.98841912 0.18805147 0.031372549
0.99215686 0.19068627 0.031372549
0.040196078 0.23431373 0.026470588
0.042647059 0.23186275 0.023529412
0.061764706 0.22941176 0.023284314
0.079779412 0.22303922 0.025980392
0.11372549 0.21862745 0.029411765
0.16519608 0.21862745 0.030392157
0.21666667 0.21862745 0.02745098
0.26813725 0.21470588 0.023161765
0.32254902 0.21470588 0.018627451
0.38370098 0.21862745 0.023161765
0.44117647 0.22279412 0.026715686
0.49644608 0.22745098 0.02745098
0.55539216 0.23137255 0.025490196
0.61164216 0.23137255 0.023529412
0.66887255 0.22843137 0.026470588
0.72316176 0.22536765 0.026470588
0.77745098 0.21960784 0.018627451
0.82647059 0.2192402 0.021078431
0.8754902 0.22254902 0.031372549
0.92401961 0.22254902 0.039093137
0.96666667 0.22107843 0.041666667
0.98823529 0.22647059 0.038848039
0.99044118 0.23039216 0.035294118
0.99215686 0.23823529 0.031372549
0.99215686 0.23921569 0.028431373
0.024509804 0.28578431 0.02745098
0.028431373 0.28186275 0.02745098
0.046078431 0.27794118 0.027818627
0.064215686 0.27432598 0.03627451
0.089705882 0.27009804 0.041421569
0.14099265 0.27009804 0.040686275
0.19718137 0.27009804 0.037377451
0.25441176 0.27009804 0.032291667
0.3122549 0.27009804 0.028921569
0.37401961 0.27009804 0.031372549
0.43186275 0.27401961 0.032843137
0.48970588 0.27401961 0.031372549
0.5502451 0.27401961 0.02622549
0.61060049 0.27254902 0.020098039
0.66421569 0.27365196 0.02745098
0.71568627 0.27401961 0.030453431
0.77107843 0.27009804 0.028921569
0.81862745 0.27310049 0.028921569
0.8622549 0.27401961 0.033455882
0.91011029 0.27058824 0.041360294
0.95147059 0.27401961 0.039215686
0.98498775 0.27794118 0.035110294
0.99362745 0.28186275 0.030269608
0.99607843 0.28670343 0.02745098
0.99607843 0.28823529 0.02745098
0.011764706 0.33333333 0.02745098
0.014215686 0.32941176 0.02745098
0.028431373 0.3254902 0.032352941
0.046078431 0.3254902 0.042647059
0.060784314 0.32156863 0.054901961
0.11323529 0.32156863 0.050490196
0.17843137 0.32156863 0.043137255
0.24019608 0.3254902 0.039215686
0.30196078 0.3254902 0.039215686
0.36372549 0.3254902 0.039215686
0.42156863 0.3254902 0.039215686
0.48333333 0.3254902 0.035294118
0.54117647 0.3254902 0.031372549
0.60245098 0.3254902 0.031372549
0.65392157 0.3254902 0.034313725
0.70539216 0.3254902 0.036764706
0.76078431 0.32156863 0.039215686
0.80980392 0.32401961 0.039215686
0.85196078 0.3254902 0.039215686
0.89607843 0.3254902 0.039215686
0.9372549 0.3254902 0.035294118
0.97794118 0.32941176 0.030882353
0.99901961 0.33333333 0.02745098
1 0.3372549 0.02745098
1 0.3372549 0.031372549
0 0.38088235 0.029901961
0 0.37696078 0.026531863
0.0067401961 0.37696078 0.039705882
0.018137255 0.37696078 0.056372549
0.029901961 0.37303922 0.069117647
0.090012255 0.37352941 0.060477941
0.16078431 0.37696078 0.046568627
0.22352941 0.37941176 0.040747549
0.28529412 0.37941176 0.041666667
0.3528799 0.37696078 0.043137255
0.41875 0.37696078 0.039215686
0.47726716 0.37696078 0.041360294
0.53406863 0.37696078 0.041666667
0.5908701 0.37696078 0.048223039
0.64362745 0.37696078 0.048039216
0.69509804 0.37696078 0.048590686
0.7504902 0.37303922 0.049509804
0.7995098 0.37303922 0.049509804
0.84460784 0.37303922 0.049509804
0.88578431 0.37647059 0.045588235
0.92696078 0.37696078 0.039705882
0.96813725 0.38088235 0.033333333
0.99656863 0.38419118 0.029901961
1 0.38480392 0.032291667
0.99754902 0.38480392 0.033823529
0 0.43235294 0.03627451
0.0028186275 0.42990196 0.03872549
0.0049019608 0.42843137 0.045098039
0.01127451 0.425 0.058333333
0.019607843 0.4245098 0.068137255
0.071936275 0.425 0.062254902
0.13848039 0.43063725 0.051960784
0.20870098 0.43529412 0.043137255
0.27843137 0.43235294 0.043137255
0.3495098 0.42843137 0.04252451
0.41593137 0.42843137 0.039215686
0.47193627 0.42843137 0.043995098
0.52696078 0.42843137 0.053921569
0.58321078 0.42843137 0.063848039
0.6372549 0.42843137 0.063970588
0.68970588 0.42696078 0.062622549
0.74019608 0.4245098 0.060784314
0.79166667 0.4245098 0.059803922
0.83431373 0.4245098 0.058823529
0.8754902 0.42794118 0.05245098
0.91666667 0.42843137 0.046078431
0.95735294 0.43235294 0.039705882
0.98529412 0.43235294 0.038480392
0.99546569 0.43235294 0.040196078
0.99607843 0.43235294 0.040196078
0.0034313725 0.48382353 0.043137255
0.0039215686 0.47990196 0.046568627
0.0074754902 0.47904412 0.051838235
0.0082720588 0.47598039 0.061764706
0.014215686 0.47598039 0.06495098
0.03192402 0.47598039 0.066176471
0.09620098 0.47904412 0.055882353
0.18921569 0.48039216 0.046875
0.26764706 0.47990196 0.043137255
0.34528186 0.48204657 0.039215686
0.41017157 0.48370098 0.040196078
0.46770833 0.47990196 0.053492647
0.52181373 0.47990196 0.064215686
0.57892157 0.47990196 0.077941176
0.63345588 0.47990196 0.077941176
0.68449755 0.47941176 0.074019608
0.73382353 0.47941176 0.074019608
0.78137255 0.47959559 0.070098039
0.82401961 0.47953431 0.065686275
0.86519608 0.47990196 0.059252451
0.90637255 0.47990196 0.052696078
0.94705882 0.48039216 0.04307598
0.975 0.48125 0.045588235
0.99001225 0.48382353 0.050490196
0.99607843 0.48382353 0.050490196
0.0019607843 0.53137255 0.047058824
0.0039215686 0.52941176 0.052205882
0.0078431373 0.52745098 0.057352941
0.0078431373 0.52745098 0.060784314
0.0088235294 0.5254902 0.060784314
0.010784314 0.5254902 0.0625
0.075 0.52696078 0.057843137
0.16936275 0.52745098 0.049509804
0.25294118 0.52745098 0.043137255
0.3372549 0.53137255 0.039215686
0.40539216 0.53137255 0.040686275
0.46004902 0.53137255 0.054411765
0.51568627 0.53137255 0.067647059
0.57132353 0.53137255 0.080637255
0.62598039 0.53137255 0.082352941
0.67794118 0.53529412 0.082352941
0.72745098 0.53529412 0.080392157
0.77254902 0.53333333 0.079166667
0.81764706 0.53137255 0.073039216
0.85882353 0.53137255 0.059558824
0.9 0.53137255 0.052941176
0.93676471 0.53137255 0.046813725
0.96470588 0.53137255 0.05
0.98651961 0.53137255 0.054901961
0.99607843 0.53137255 0.056862745
0 0.57843137 0.047058824
0.0039215686 0.57628676 0.053125
0.0039215686 0.575 0.054901961
0.0039215686 0.575 0.054411765
0.0036764706 0.575 0.054411765
0.0044117647 0.575 0.054411765
0.065196078 0.575 0.050490196
0.15655637 0.575 0.047058824
0.24656863 0.575 0.043137255
0.32892157 0.575 0.040992647
0.39669118 0.57585784 0.044117647
0.45196078 0.57843137 0.050490196
0.50735294 0.57892157 0.060784314
0.56280637 0.57892157 0.074019608
0.61813725 0.5814951 0.074019608
0.66960784 0.5841299 0.077941176
0.71764706 0.58627451 0.081862745
0.76470588 0.58627451 0.081862745
0.80735294 0.58627451 0.073529412
0.85202206 0.58284314 0.063235294
0.89362745 0.58284314 0.052941176
0.93039216 0.58284314 0.047058824
0.95441176 0.58247549 0.05
0.97892157 0.58235294 0.056372549
0.99558824 0.57892157 0.062254902
0 0.62352941 0.047058824
0 0.62352941 0.048039216
0 0.62352941 0.048039216
0 0.62352941 0.048039216
0 0.62352941 0.04754902
0.00012254902 0.62254902 0.044117647
0.058823529 0.62328431 0.044117647
0.14754902 0.62352941 0.04375
0.23627451 0.62254902 0.043137255
0.31862745 0.62071078 0.043137255
0.3872549 0.62254902 0.044117647
0.44166667 0.62352941 0.050980392
0.49705882 0.62352941 0.057352941
0.55294118 0.62389706 0.064215686
0.60784314 0.62720588 0.066911765
0.65931373 0.62745098 0.065196078
0.71078431 0.63039216 0.067647059
0.75588235 0.63039216 0.071568627
0.8002451 0.63137255 0.066666667
0.84215686 0.63137255 0.059803922
0.88333333 0.63137255 0.051470588
0.92352941 0.63039216 0.043627451
0.94411765 0.62745098 0.05
0.96862745 0.62352941 0.054901961
0.98529412 0.62352941 0.058823529
0 0.66470588 0.043137255
0 0.66470588 0.043137255
0 0.66470588 0.043137255
0 0.66470588 0.043137255
0 0.66470588 0.043137255
0.0022671569 0.66648284 0.043137255
0.055269608 0.66862745 0.043137255
0.14117647 0.66862745 0.043137255
0.22598039 0.66862745 0.043137255
0.30833333 0.66617647 0.043137255
0.37659314 0.66678922 0.044117647
0.43137255 0.66862745 0.050796569
0.48872549 0.66936275 0.053431373
0.54626225 0.67009804 0.057352941
0.60147059 0.67254902 0.057352941
0.65202206 0.67254902 0.056433824
0.7004902 0.67254902 0.057352941
0.74803922 0.67254902 0.057352941
0.79068627 0.67254902 0.053431373
0.83186275 0.67254902 0.049509804
0.87303922 0.67254902 0.044362745
0.91372549 0.67107843 0.04185049
0.9377451 0.66862745 0.046078431
0.95441176 0.66715686 0.050061275
0.97352941 0.66470588 0.053431373
0 0.70196078 0.039215686
0 0.70441176 0.039215686
0 0.70588235 0.039215686
0 0.70588235 0.039215686
0 0.70588235 0.041176471
0.0088235294 0.70980392 0.043137255
0.059803922 0.70980392 0.043137255
0.14117647 0.70980392 0.043137255
0.21960784 0.71372549 0.043137255
0.29803922 0.71372549 0.040686275
0.3627451 0.71372549 0.043137255
0.42107843 0.71372549 0.047058824
0.48235294 0.71372549 0.047058824
0.53970588 0.71372549 0.047058824
0.59509804 0.71372549 0.047058824
0.64264706 0.71372549 0.047058824
0.69411765 0.71372549 0.043137255
0.73921569 0.71372549 0.044607843
0.78039216 0.71372549 0.043137255
0.82156863 0.71029412 0.039705882
0.8627451 0.70980392 0.039215686
0.90343137 0.70931373 0.039215686
0.93137255 0.70588235 0.042156863
0.9504902 0.70588235 0.047058824
0.96078431 0.70588235 0.050980392
0.0024509804 0.73921569 0.032843137
0 0.74068627 0.032843137
0 0.74313725 0.032843137
0 0.74313725 0.035294118
0.0039215686 0.74583333 0.037990196
0.0088235294 0.74724265 0.040686275
0.062745098 0.74852941 0.040686275
0.14117647 0.75098039 0.040686275
0.21960784 0.75245098 0.040686275
0.29074755 0.75582108 0.039215686
0.35490196 0.75637255 0.039215686
0.41666667 0.75490196 0.039215686
0.47843137 0.75490196 0.039215686
0.53578431 0.75490196 0.039215686
0.5872549 0.75490196 0.039215686
0.63572304 0.75490196 0.036764706
0.68627451 0.75637255 0.036764706
0.73284314 0.75545343 0.035294118
0.77193627 0.75208333 0.036764706
0.81127451 0.74852941 0.035477941
0.85245098 0.74705882 0.035294118
0.89313725 0.74460784 0.032843137
0.92463235 0.74313725 0.034681373
0.94803922 0.74313725 0.039767157
0.95931373 0.74313725 0.043137255
0.0039215686 0.77647059 0.026470588
0.0020833333 0.77830882 0.026470588
0 0.77941176 0.026470588
0 0.78026961 0.026470588
0 0.78186275 0.030392157
0.0078431373 0.78431373 0.034313725
0.059558824 0.78431373 0.034313725
0.13909314 0.78541667 0.034313725
0.21666667 0.7872549 0.034313725
0.29901961 0.7872549 0.034313725
0.3627451 0.78823529 0.034313725
0.42058824 0.79117647 0.034313725
0.47696078 0.79362745 0.031372549
0.53529412 0.79509804 0.031372549
0.58039216 0.79509804 0.031372549
0.63051471 0.79215686 0.031372549
0.68137255 0.79117647 0.031372549
0.72647059 0.78823529 0.030759804
0.76446078 0.7879902 0.02745098
0.80232843 0.78468137 0.030392157
0.84264706 0.78333333 0.028921569
0.88333333 0.78039216 0.02745098
0.91838235 0.77965686 0.02745098
0.94742647 0.77941176 0.030392157
0.96176471 0.77941176 0.034313725
0.0039215686 0.81372549 0.020098039
0.0039215686 0.81421569 0.020098039
0 0.81421569 0.020098039
0 0.81721814 0.020098039
0 0.81789216 0.020098039
0.0014093137 0.82156863 0.021017157
0.05502451 0.82156863 0.024019608
0.13854167 0.81813725 0.024019608
0.23039216 0.81813725 0.02745098
0.30863971 0.81813725 0.027941176
0.3692402 0.82205882 0.027941176
0.4245098 0.82506127 0.027941176
0.48014706 0.82598039 0.02745098
0.53529412 0.82598039 0.02745098
0.58039216 0.82941176 0.02745098
0.62696078 0.82598039 0.027941176
0.67843137 0.8254902 0.027941176
0.71979167 0.82205882 0.02745098
0.75992647 0.82205882 0.023529412
0.79810049 0.82205882 0.020098039
0.8375 0.82156863 0.020098039
0.87604167 0.81764706 0.020098039
0.91384804 0.81764706 0.020098039
0.94558824 0.81421569 0.020098039
0.96470588 0.81764706 0.024019608
0.0039215686 0.84901961 0.01372549
0.0039215686 0.84901961 0.01372549
0.0039215686 0.84901961 0.01372549
0.0039215686 0.84901961 0.01372549
0.00098039216 0.85294118 0.01372549
0.00073529412 0.85686275 0.011764706
0.065686275 0.85392157 0.013235294
0.15833333 0.85220588 0.016421569
0.24705882 0.85098039 0.017647059
0.31862745 0.85294118 0.017647059
0.3754902 0.85343137 0.021568627
0.43088235 0.85686275 0.021568627
0.48627451 0.85686275 0.023529412
0.53578431 0.85735294 0.023529412
0.58382353 0.86078431 0.023529412
0.62696078 0.86078431 0.023529412
0.6745098 0.85686275 0.023529412
0.71568627 0.85686275 0.022303922
0.75441176 0.85882353 0.019117647
0.79411765 0.85882353 0.013970588
0.83235294 0.85784314 0.01372549
0.86838235 0.85490196 0.01372549
0.90637255 0.85343137 0.012254902
0.94240196 0.85367647 0.0098039216
0.96862745 0.85490196 0.0098039216
0.0039215686 0.87990196 0.0078431373
0.0039215686 0.87990196 0.0078431373
0.0039215686 0.87990196 0.0078431373
0.0039215686 0.88039216 0.0078431373
0.0041666667 0.88382353 0.0078431373
0.020098039 0.88382353 0.0078431373
0.095955882 0.88382353 0.0078431373
0.18186275 0.88382353 0.0060661765
0.26764706 0.88382353 0.0034313725
0.32892157 0.88382353 0.0098039216
0.38541667 0.88468137 0.015196078
0.44068627 0.8877451 0.015686275
0.49436275 0.8877451 0.019117647
0.5401348 0.88823529 0.018688725
0.58737745 0.89166667 0.019117647
0.63333333 0.89166667 0.019117647
0.67058824 0.89166667 0.019117647
0.71145833 0.89197304 0.015686275
0.74901961 0.89301471 0.011764706
0.78670343 0.89515931 0.0083333333
0.8252451 0.89166667 0.0078431373
0.86072304 0.89166667 0.0077818627
0.89889706 0.88823529 0.0073529412
0.93529412 0.88823529 0.0039215686
0.96813725 0.89166667 0.0039215686
0.0039215686 0.91078431 0.0039215686
0.0039215686 0.91078431 0.0039215686
0.0046568627 0.91470588 0.0039215686
0.0078431373 0.91470588 0.0049019608
0.012745098 0.91764706 0.0049019608
0.051470588 0.91727941 0.0049019608
0.13259804 0.91470588 0.0039215686
0.21164216 0.91470588 0.0006127451
0.28137255 0.91764706 0
0.33676471 0.91470588 0.006372549
0.39240196 0.91470588 0.011764706
0.44718137 0.9182598 0.011764706
0.5 0.91862745 0.012745098
0.54620098 0.92254902 0.011764706
0.59191176 0.92254902 0.011029412
0.63333333 0.92254902 0.012132353
0.66764706 0.9254902 0.012745098
0.70784314 0.92647059 0.011764706
0.74436275 0.92647059 0.0088235294
0.78247549 0.92254902 0.0078431373
0.81813725 0.9245098 0.006372549
0.8564951 0.9254902 0.0039215686
0.89191176 0.92254902 0.0039215686
0.93026961 0.92107843 0.0039215686
0.96176471 0.92254902 0.0039215686
0.0039215686 0.94019608 0
0.0039215686 0.9411152 0
0.0049019608 0.94448529 0
0.0078431373 0.94773284 0
0.023039216 0.9495098 0
0.086090686 0.9495098 0.0037377451
0.1557598 0.9495098 0.0024509804
0.22352941 0.95098039 0
0.29166667 0.95490196 0
0.34558824 0.95098039 0.006372549
0.39705882 0.95061275 0.011764706
0.44852941 0.9495098 0.015379902
0.5 0.9495098 0.0125
0.54754902 0.94981618 0.0078431373
0.59607843 0.95343137 0.0039215686
0.63186275 0.95343137 0.0087622549
0.66519608 0.95735294 0.0078431373
0.70300245 0.95735294 0.006372549
0.73909314 0.95526961 0.006372549
0.77696078 0.95343137 0.0076593137
0.8129902 0.95343137 0.0039215686
0.84901961 0.95588235 0.0037377451
0.88688725 0.95441176 0
0.92598039 0.95343137 0
0.95686275 0.95490196 0
0.0078431373 0.95686275 0
0.0078431373 0.95686275 0
0.0078431373 0.95686275 0
0.0078431373 0.95686275 0
0.025490196 0.96078431 0
0.093627451 0.96127451 0
0.16568627 0.97156863 0
0.23235294 0.97794118 0
0.29803922 0.99215686 0
0.3495098 0.98186275 0.010294118
0.4 0.9754902 0.016666667
0.44852941 0.96911765 0.023529412
0.49607843 0.96666667 0.025490196
0.54705882 0.96470588 0.019607843
0.59215686 0.96470588 0.019607843
0.62794118 0.97401961 0.014215686
0.6627451 0.98039216 0.0039215686
0.69754902 0.98039216 0.0024509804
0.73627451 0.9754902 0.0039215686
0.7745098 0.96862745 0.0039215686
0.80980392 0.96666667 0.0039215686
0.84852941 0.96470588 0.0034313725
0.88333333 0.96470588 0
0.92352941 0.97401961 0
0.95686275 0.98431373 0
0.015686275 0.028921569 0.030882353
0.042647059 0.031372549 0.034803922
0.07745098 0.026470588 0.038112745
0.11194853 0.018321078 0.032659314
0.14313725 0.017401961 0.034068627
0.18676471 0.020772059 0.035294118
0.23823529 0.025367647 0.042034314
0.29025735 0.02745098 0.044117647
0.34509804 0.021078431 0.040196078
0.40686275 0.013235294 0.034803922
0.46372549 0.01127451 0.034803922
0.51881127 0.026470588 0.046875
0.58431373 0.018137255 0.034803922
0.64166667 0.016360294 0.034803922
0.6942402 0.014215686 0.036642157
0.75 0.013296569 0.034803922
0.80392157 0.010294118 0.034803922
0.85539216 0.019669118 0.034803922
0.9004902 0.032352941 0.035784314
0.93921569 0.031862745 0.035294118
0.97843137 0.017647059 0.034803922
0.99754902 0.011764706 0.033026961
0.99607843 0.013602941 0.033823529
0.99607843 0.015686275 0.035355392
0.99607843 0.015686275 0.03627451
0.015134804 0.03627451 0.032414216
0.042095588 0.038151042 0.034252451
0.076302083 0.039644608 0.038036152
0.1096201 0.035983456 0.037921262
0.14313725 0.034344363 0.038756127
0.18511795 0.035791973 0.045281863
0.2348652 0.039445466 0.050122549
0.28874847 0.040196078 0.049571078
0.34509804 0.03872549 0.042647059
0.40198376 0.036680453 0.036504289
0.46119792 0.035646446 0.034803922
0.51900276 0.042103248 0.037377451
0.58094363 0.041176471 0.034803922
0.6354856 0.042095588 0.034803922
0.69160539 0.042095588 0.03549326
0.74699755 0.03872549 0.037254902
0.80147059 0.03817402 0.03817402
0.85202206 0.041750919 0.03817402
0.89865196 0.052711397 0.03739277
0.94086244 0.053255208 0.035791973
0.97843137 0.042647059 0.034803922
0.99607843 0.03872549 0.034803922
0.99607843 0.03872549 0.03549326
0.99215686 0.03872549 0.039070159
0.99215686 0.03872549 0.041727941
0.029411765 0.065686275 0.035784314
0.047778799 0.065686275 0.040808824
0.07745098 0.065686275 0.040196078
0.10833333 0.065686275 0.042034314
0.14283088 0.063235294 0.048406863
0.1841299 0.063235294 0.052818627
0.23324142 0.065686275 0.055514706
0.28619792 0.067386642 0.050520833
0.34117647 0.069607843 0.044117647
