site/assets/luts/natron-haldclut--vibrant--0b34c2865.cube
# LUTr-Project: LUTr — LUTrepository
# LUTr-Schema-Version: 1
# LUTr-ID: natron-haldclut--vibrant--0b34c2865
# LUTr-Title: vibrant
# LUTr-Collection: Natron HaldCLUT
# LUTr-Collection-ID: natron-haldclut-presets
# LUTr-Source: https://github.com/NatronGitHub/clut
# LUTr-Source-File: submissions/natron-haldclut-presets/various/vibrant.png
# LUTr-Source-Format: PNG
# LUTr-Source-SHA256: 2a0338351af9a9bf0748b8cd8cded05d9417f1154e35e82df683a1dfe91f850d
# LUTr-License: CC-BY-SA-4.0
# LUTr-License-URL: https://github.com/NatronGitHub/clut#license
# LUTr-Tags: creative, film, film-emulation, hald-clut, natron, png, cube
# LUTr-Transform-Class: film-emulation
# LUTr-Input-Color-Space: srgb
# LUTr-Output-Color-Space: srgb
# LUTr-Color-Space-Confidence: assumed-display-referred
# LUTr-Conversion-Method: PNG LUT image decoded at 16-bit and sampled to 25x25x25 3D CUBE
# LUTr-Conversion-Date: 2026-07-27
# LUTr-Conversion-Tool: LUTr scripts/convert-all-to-cube.mjs
# LUTr-Conversion-Grid: 25x25x25
# LUTr-Note: Preserve this metadata and the upstream license notices when redistributing.
TITLE "vibrant"
LUT_3D_SIZE 9
DOMAIN_MIN 0 0 0
DOMAIN_MAX 1 1 1
0 0.0039215686 0
0.0034313725 0 0.0039215686
0.1245098 0 0
0.42303922 0.0039215686 0.0039215686
0.69215686 0 0
0.8872549 0.0014705882 0
0.99607843 0.0039215686 0
0.99607843 0.0078431373 0.0039215686
0.99607843 0.0039215686 0.0039215686
0.0039215686 0.015196078 0.0083333333
0 0.00042892157 0.0039215686
0.15821078 0.010294118 0.015196078
0.44019608 0.0078431373 0.020588235
0.70147059 0.012990196 0.020833333
0.89754902 0.0039215686 0.0052083333
1 0.0078431373 0.0039215686
0.99607843 0.015196078 0.0039215686
0.99607843 0.014705882 0
0.0039215686 0.11666667 0.0039215686
0.0077205882 0.12414216 0.015196078
0.12745098 0.11666667 0.0088235294
0.43688725 0.11568627 0.006004902
0.69607843 0.1245098 0.0083333333
0.89313725 0.12058824 0.0039215686
0.99632353 0.11838235 0.0039215686
1 0.12316176 0.0039215686
0.99607843 0.12156863 0.00098039216
0 0.31372549 0.0078431373
0.012561275 0.30735294 0.0078431373
0.12389706 0.30845588 0.010294118
0.42542892 0.30980392 0.006372549
0.69411765 0.30710784 0.0058823529
0.87101716 0.31856618 0.011764706
0.99816176 0.2995098 0.0039215686
1 0.30998775 0.0012867647
1 0.31127451 0
0 0.56666667 0.0039215686
0.0036764706 0.54754902 0.0095588235
0.13431373 0.5504902 0.0078431373
0.42254902 0.56470588 0.0098039216
0.7 0.56960784 0.0058823529
0.88382353 0.55735294 0.0058823529
0.97598039 0.54362745 0.0039215686
0.99607843 0.55343137 0
1 0.57058824 0.0039215686
0.0039215686 0.7877451 0.0078431373
0.0053921569 0.78529412 0.0039215686
0.15 0.77205882 0.0039215686
0.41666667 0.77745098 0.0078431373
0.70196078 0.76960784 0.0078431373
0.89215686 0.77015931 0.0039215686
0.98137255 0.77352941 0
0.99607843 0.77028186 0
1 0.76176471 0.0039215686
0.0039215686 0.92156863 0.0078431373
0.0047794118 0.92941176 0.0039215686
0.13210784 0.93259804 0
0.42487745 0.92659314 0.0078431373
0.71127451 0.93039216 0.0014705882
0.89754902 0.92647059 0.0018382353
0.98063725 0.91764706 0
1 0.91666667 0.0035539216
1 0.90686275 0.0039215686
0 1 0.0083333333
0.010845588 0.98872549 0.0078431373
0.14558824 0.98615196 0.0039215686
0.43155637 0.99607843 0.0039215686
0.70563725 0.99093137 0.0039215686
0.88578431 0.98921569 0.0024509804
0.97879902 0.98431373 0.00049019608
0.99607843 0.98523284 0.011764706
1 1 0.0039215686
0 1 0.0039215686
0 1 0.0039215686
0.15 1 0
0.41519608 0.99607843 0.0039215686
0.68627451 0.99607843 0.0039215686
0.88186275 1 0
0.98823529 0.99901961 0.0039215686
0.99215686 0.99607843 0.0078431373
1 1 0.0039215686
0 0.0039215686 0.036764706
0.016115196 0 0.049019608
0.13088235 0 0.036764706
0.43265931 0.0039215686 0.040686275
0.7004902 0.0034313725 0.036764706
0.88609069 0.0014705882 0.032843137
0.9935049 0.0039215686 0.035784314
0.99607843 0.0039215686 0.040686275
0.99607843 0 0.044607843
0.0039215686 0.015686275 0.041605392
0.0034313725 0.0043504902 0.040801164
0.13422181 0.011106005 0.042478554
0.44148284 0.0039215686 0.045549939
0.70343137 0.0097732843 0.054166667
0.88970588 0.0039215686 0.044140625
0.98921569 0.004151348 0.044607843
0.99607843 0.011213235 0.040678615
0.99607843 0.014705882 0.036764706
0.0039215686 0.12022059 0.039828431
0.0043504902 0.11752451 0.044546569
0.13419118 0.11577819 0.040594363
0.43909314 0.10859375 0.040318627
0.7 0.12058824 0.046813725
0.89215686 0.11328125 0.040456495
0.99319853 0.11246936 0.040410539
1 0.11654412 0.047671569
0.99607843 0.12156863 0.037254902
0 0.31372549 0.04442402
0.0093979779 0.30196078 0.040196078
0.13590686 0.30301777 0.041084559
0.42615656 0.31450674 0.048529412
0.71151961 0.30039828 0.044761029
0.88959099 0.31127451 0.040686275
0.98823529 0.30943627 0.041130515
0.99785539 0.31109069 0.05
1 0.30998775 0.036764706
0 0.56862745 0.042647059
0.0039215686 0.55343137 0.042401961
0.13020833 0.5557598 0.03682598
0.43465074 0.55882353 0.042463235
0.70196078 0.54901961 0.053308824
0.89200368 0.55318627 0.03872549
0.97720588 0.55257353 0.046752451
0.99607843 0.55707721 0.040686275
1 0.5625 0.040686275
0.0039215686 0.78137255 0.04442402
0.0093137255 0.77745098 0.040686275
0.14446998 0.76979167 0.037745098
0.42192862 0.77352941 0.036879596
0.70245098 0.76887255 0.042493873
0.8859758 0.76715686 0.040801164
0.97352941 0.77352941 0.045052083
0.99607843 0.77202053 0.036764706
1 0.76127451 0.044607843
0.0039215686 0.92156863 0.040686275
0.0039215686 0.92559743 0.040579044
0.14978554 0.92941176 0.056372549
0.42280944 0.92954963 0.045542279
0.70030637 0.925 0.042156863
0.88818934 0.92054228 0.041528799
0.98235294 0.91776961 0.043627451
0.99774816 0.91844363 0.040487132
1 0.92144608 0.040808824
0 1 0.040686275
0.0113894 0.99651501 0.052941176
0.14552696 0.99586397 0.044117647
0.4343367 0.99611673 0.040196078
0.70238971 0.99678309 0.040196078
0.88752298 0.99264706 0.037032782
0.98062194 0.98468137 0.040686275
0.99650735 0.99645374 0.045588235
1 1 0.046078431
0 1 0.036764706
0.0073529412 1 0.040686275
0.14901961 1 0.040686275
0.43088235 0.99607843 0.038909314
0.69019608 0.99803922 0.044362745
0.88627451 1 0.044607843
0.98382353 0.99901961 0.045588235
0.99607843 0.99607843 0.048590686
1 1 0.040686275
0 0.0039215686 0.18823529
0.0087009804 0.00049019608 0.19117647
0.14705882 0.0039215686 0.19117647
0.42843137 0.0039215686 0.19117647
0.69019608 0.0039215686 0.19117647
0.87401961 0.0024509804 0.19117647
0.98823529 0.0039215686 0.19436275
0.99607843 0.0039215686 0.18823529
1 0 0.19509804
0.0073529412 0.0088235294 0.19509804
0.015088848 0.004028799 0.19473039
0.14543505 0.0140625 0.18746936
0.43970588 0.01127451 0.18592218
0.70281863 0.0023897059 0.19117647
0.88314951 0.018229167 0.19607843
0.98477328 0.0094362745 0.1997549
1 0.011642157 0.19509804
1 0.025612745 0.19117647
0.0078431373 0.12745098 0.19142157
0.014705882 0.12104779 0.19289216
0.14338235 0.11176471 0.19215686
0.42941176 0.1127451 0.19571078
0.69852941 0.12107843 0.19901961
0.88946078 0.1221201 0.19607843
0.98529412 0.1161152 0.19607843
1 0.11666667 0.18823529
1 0.11960784 0.19044118
0.0039215686 0.31911765 0.19571078
0.0096660539 0.31242341 0.19117647
0.14044118 0.30269608 0.19353554
0.42414216 0.31150429 0.19509804
0.71176471 0.30863971 0.19270833
0.9 0.29803922 0.19071691
0.98514093 0.30343137 0.19874387
1 0.3160386 0.19215686
1 0.31127451 0.19460784
0.0039215686 0.56470588 0.19901961
0.01127451 0.5533701 0.19381127
0.15392157 0.56017157 0.19509804
0.43088235 0.5627451 0.19215686
0.70784314 0.55686275 0.19436275
0.88596814 0.55300245 0.19558824
0.99117647 0.56372549 0.19509804
0.99607843 0.56470588 0.18952206
0.99656863 0.56666667 0.1877451
0.0078431373 0.77745098 0.20012255
0.0084558824 0.77735907 0.19122243
0.13995098 0.77745098 0.19117647
0.42843137 0.78036152 0.18892463
0.69908088 0.78039216 0.18823529
0.88993566 0.77444853 0.1928462
0.97833946 0.77352941 0.19436275
0.99607843 0.77726716 0.19154412
0.99607843 0.77205882 0.19154412
0.0039215686 0.9254902 0.19803922
0.0078431373 0.9254902 0.19901961
0.13382353 0.92843137 0.19050245
0.43235294 0.92769608 0.1872549
0.69730392 0.91666667 0.18823529
0.89408701 0.92594975 0.18808211
0.98958333 0.91819853 0.19344363
0.99607843 0.91409314 0.1921875
1 0.9245098 0.19509804
0.0039215686 0.99215686 0.19215686
0.014123775 0.99258578 0.18860294
0.14607843 0.99978554 0.19436275
0.42807904 0.99272365 0.19554228
0.7004902 0.99644608 0.19626225
0.89080882 0.98818934 0.19007353
0.99313725 0.98471201 0.19117647
0.99607843 0.99264706 0.19117647
1 1 0.19509804
0.0039215686 0.99607843 0.19509804
0.0087009804 1 0.19117647
0.14607843 1 0.19191176
0.43051471 1 0.2
0.68627451 1 0.19607843
0.88431373 1 0.19546569
0.99019608 0.99607843 0.19509804
0.99705882 0.99607843 0.19215686
1 0.99607843 0.19117647
0.0039215686 0.0039215686 0.31960784
0.0039215686 0.0026348039 0.32745098
0.12352941 0 0.32806373
0.4127451 0 0.32745098
0.7004902 0 0.32745098
0.89123775 0.0039215686 0.32352941
0.98529412 0.0039215686 0.32389706
0.9963848 0.0039215686 0.32352941
1 0.0039215686 0.31960784
0.0073529412 0.0039215686 0.32303922
0.009129902 0.013687194 0.32771906
0.14486826 0.01573223 0.32745098
0.43118873 0.0086933211 0.325
0.70382966 0.019301471 0.32352941
0.89215686 0.0091988358 0.32352941
0.98944547 0.01127451 0.32352941
1 0.0093979779 0.32334559
1 0.026470588 0.31960784
0.0039215686 0.11813725 0.32352941
0.006372549 0.11666667 0.32352941
0.13762255 0.1127451 0.32352941
0.42806373 0.11666667 0.32745098
0.70563725 0.1185049 0.32855392
0.89215686 0.11764706 0.3272212
0.99451593 0.11893382 0.32745098
1 0.10988051 0.31568627
1 0.12120098 0.31960784
0.0039215686 0.31127451 0.32745098
0.009129902 0.31182598 0.32745098
0.14031863 0.29849877 0.33137255
0.43627451 0.30441176 0.33137255
0.70392157 0.31568627 0.32772672
0.89119945 0.31372549 0.33347886
0.99931066 0.30865502 0.33353248
1 0.31127451 0.32444853
1 0.31672794 0.32352941
0.0039215686 0.55171569 0.33137255
0.017892157 0.55294118 0.32435662
0.14558824 0.55582108 0.32745098
0.43627451 0.55686275 0.32380515
0.69215686 0.56862745 0.32843137
0.89414828 0.55808824 0.33137255
0.98970588 0.54332108 0.32745098
0.9995098 0.55343137 0.32352941
0.99607843 0.56862745 0.32205882
0.0039215686 0.78529412 0.33529412
0.01127451 0.77078738 0.32664675
0.14359681 0.77568934 0.32352941
0.43592984 0.77710631 0.32598039
0.69607843 0.7801777 0.32325368
0.88731618 0.77506127 0.32575061
0.98242953 0.76375613 0.32745098
0.99607843 0.76917892 0.32843903
0.99607843 0.78082108 0.334375
0.0039215686 0.92303922 0.33247549
0.0081648284 0.92504596 0.33043811
0.14059436 0.92843137 0.32598039
0.43627451 0.92866115 0.32689951
0.69117647 0.92156863 0.3247549
0.89117647 0.9245098 0.3222886
0.98345588 0.91372549 0.32745098
0.99620098 0.91787684 0.3308364
1 0.92941176 0.33137255
0.0039215686 0.99607843 0.32745098
0.013641238 0.98872549 0.32385876
0.14076287 0.9935049 0.32745098
0.42058824 0.99302237 0.32578891
0.69911152 0.99607843 0.32745098
0.89148284 0.99607843 0.32352941
0.99633885 0.98921569 0.32745098
0.99607843 0.99307598 0.32745098
1 1 0.33137255
0.0039215686 0.99607843 0.32892157
0.0052083333 0.99981618 0.32616422
0.14105392 1 0.33137255
0.41966912 1 0.33137255
0.69607843 1 0.32745098
0.88431373 1 0.32352941
0.99215686 0.99607843 0.32352941
0.99607843 0.99822304 0.32745098
1 1 0.32745098
0.0078431373 0.0039215686 0.45098039
0.0078431373 0 0.45490196
0.12352941 0 0.44754902
0.41862745 0.0039215686 0.4502451
0.70392157 0.0039215686 0.45882353
0.88970588 0.0039215686 0.45416667
0.98529412 0.0039215686 0.44705882
0.99607843 0.0039215686 0.45490196
0.99607843 0.0039215686 0.45098039
0.0078431373 0.0039215686 0.45098039
0.0078431373 0.01127451 0.45098039
0.14515931 0.011397059 0.45226716
0.43039216 0.011427696 0.45098039
0.70931373 0.0057598039 0.45110294
0.89460784 0.026960784 0.44705882
0.99289216 0.0075980392 0.45098039
1 0.0097732843 0.45055147
1 0.015686275 0.44142157
0.0024509804 0.11715686 0.44901961
0.011090686 0.11354167 0.44295343
0.125 0.10931373 0.45098039
0.42904412 0.11164216 0.44705882
0.70882353 0.10955882 0.44313725
0.89460784 0.1127451 0.44613971
0.99056373 0.11617647 0.45098039
1 0.12058824 0.44895833
0.99656863 0.11911765 0.44656863
0.0039215686 0.30465686 0.45612745
0.012408088 0.30628064 0.45098039
0.14626225 0.30098039 0.45490196
0.43820466 0.31099877 0.44705882
0.70061275 0.31262255 0.4502451
0.8877451 0.31026348 0.45098039
0.99215686 0.31703431 0.44779412
1 0.31170343 0.4495098
0.99607843 0.31691176 0.44705882
0.0039215686 0.54901961 0.45490196
0.014093137 0.54791667 0.45098039
0.14411765 0.55 0.44730392
0.43664216 0.55294118 0.44509804
0.70392157 0.55637255 0.45294118
0.88933824 0.55294118 0.45098039
0.98137255 0.55661765 0.44705882
0.99607843 0.55906863 0.45098039
0.99607843 0.56470588 0.45
0.0039215686 0.77598039 0.45759804
0.0078431373 0.77352941 0.44724265
0.13082108 0.78137255 0.44669118
0.44019608 0.77429534 0.44705882
0.70294118 0.78321078 0.44460784
0.88970588 0.77429534 0.44705882
0.9879902 0.76997549 0.45275735
0.99607843 0.77999387 0.45775123
0.99607843 0.78259804 0.4627451
0.0039215686 0.91715686 0.45490196
0.013970588 0.92457108 0.45104167
0.13884804 0.9254902 0.44705882
0.43915441 0.92150735 0.45294118
0.69681373 0.9254902 0.45490196
0.88431373 0.92481618 0.45098039
0.9935049 0.92193627 0.45563725
0.9966299 0.9216299 0.45857843
1 0.92598039 0.45098039
0 0.99264706 0.44313725
0.0073529412 0.99264706 0.45098039
0.13676471 0.99632353 0.45098039
0.4377451 0.99871324 0.44911152
0.70183824 0.99252451 0.45588235
0.89500613 0.99754902 0.45098039
0.99571078 0.98480392 0.45098039
0.99779412 0.99215686 0.45098039
1 0.99607843 0.44926471
0 1 0.44509804
0.0039215686 1 0.45073529
0.15490196 1 0.45098039
0.43627451 1 0.45098039
0.70882353 1 0.45588235
0.89142157 1 0.45416667
0.98921569 0.99607843 0.45098039
0.99607843 0.99607843 0.45294118
1 1 0.45686275
0.0039215686 0 0.5877451
0.0099877451 0 0.58627451
0.14031863 0 0.5817402
0.43143382 0.0039215686 0.5877451
0.70588235 0.0031862745 0.59803922
0.88731618 0.0039215686 0.59166667
0.98321078 0.0039215686 0.5877451
0.99393382 0.0039215686 0.59166667
0.99607843 0.0039215686 0.59166667
0.0024509804 0.0021446078 0.59166667
0.0041896446 0.012745098 0.58382353
0.13475797 0.018275123 0.58543199
0.43101256 0.0088235294 0.5877451
0.70980392 0.0039215686 0.59181985
0.88970588 0.0099188113 0.58805147
0.98026961 0.0039215686 0.58382353
1 0.0076593137 0.59166667
1 0.010294118 0.58792892
0.0039215686 0.12879902 0.5935049
0.0039215686 0.11801471 0.58958333
0.13615196 0.10943627 0.58820466
0.43627451 0.11090686 0.5877451
0.70484069 0.11053922 0.5877451
0.88837316 0.10997243 0.58849571
0.98091299 0.11712623 0.58627451
1 0.11666667 0.58958333
1 0.12058824 0.59166667
0.0078431373 0.29803922 0.59411765
0.0091988358 0.30343137 0.58793658
0.14852941 0.30735294 0.58843444
0.43290441 0.30769761 0.59166667
0.68943015 0.30315564 0.59120711
0.88823529 0.30978094 0.5877451
0.98137255 0.32941176 0.5877451
0.99754902 0.32892157 0.58694087
1 0.30735294 0.5877451
0.0039215686 0.54901961 0.59166667
0.012254902 0.55196078 0.59019608
0.14001225 0.55588235 0.58504902
0.43284314 0.55759804 0.58578431
0.70465686 0.55196078 0.59387255
0.89215686 0.56001838 0.58655025
0.99307598 0.56127451 0.5877451
0.99607843 0.56822917 0.58504902
1 0.54362745 0.5877451
0.0039215686 0.77113971 0.58921569
0.016536458 0.76972273 0.58921569
0.13915441 0.77029718 0.58529412
0.44411765 0.77018229 0.58682598
0.70738358 0.77745098 0.5877451
0.88823529 0.77745098 0.57990196
0.98483456 0.7783701 0.58941483
0.99607843 0.77653186 0.59558824
0.99846814 0.77990196 0.59859069
0.0039215686 0.92303922 0.59105392
0.0052083333 0.93333333 0.59166667
0.13033088 0.92987132 0.58382353
0.43345588 0.9245098 0.59342831
0.7096201 0.92604167 0.59362745
0.88970588 0.91948529 0.5873315
0.97824755 0.90536152 0.59056373
1 0.90943627 0.60317096
1 0.91433824 0.59460784
0.0039215686 0.99264706 0.58921569
0.0077818627 0.99060202 0.58431373
0.14001225 0.99607843 0.58797488
0.42469363 0.99264706 0.59166667
0.70677083 0.9901348 0.59166667
0.89688266 1 0.58927696
0.99889706 0.99871324 0.5877451
1 0.99404105 0.59558824
1 1 0.59166667
0.0039215686 1 0.59166667
0.0039215686 1 0.58382353
0.15294118 1 0.59068627
0.43235294 0.99607843 0.5995098
0.70980392 0.99607843 0.59558824
0.88131127 1 0.59411765
0.99607843 1 0.59166667
0.99607843 0.99607843 0.59607843
1 1 0.60588235
0.0039215686 0 0.75
0.01127451 0 0.74607843
0.14215686 0 0.74313725
0.44019608 0.0039215686 0.74497549
0.71176471 0.0039215686 0.75833333
0.88039216 0.0039215686 0.75
0.98995098 0.0039215686 0.74215686
1 0 0.75134804
1 0.0039215686 0.75
0.0039215686 0.0083333333 0.75
0.0047794118 0.006495098 0.74313725
0.13465074 0.002879902 0.75094975
0.44019608 0.021262255 0.74446998
0.69632353 0.015808824 0.74270833
0.88431373 0.0073529412 0.74301471
0.98284314 0.0075061275 0.74705882
1 0.0034466912 0.75098039
1 0.0013480392 0.75098039
0.0029411765 0.1254902 0.75098039
0.016819853 0.12193627 0.75098039
0.13688725 0.11268382 0.75392157
0.4364277 0.11185662 0.74378064
0.70502451 0.10980392 0.74313725
0.88296569 0.11237745 0.75208333
0.97843137 0.1127451 0.75189951
1 0.12058824 0.75088848
0.99607843 0.11446078 0.74240196
0.0039215686 0.30012255 0.75490196
0.011182598 0.29558824 0.74705882
0.14004289 0.30710784 0.74690564
0.44227941 0.301731 0.73990502
0.71072304 0.2971201 0.75
0.88970588 0.30735294 0.75166973
0.98137255 0.3096201 0.75490196
0.99607843 0.32303922 0.75085784
0.99607843 0.30796569 0.74669118
0.0039215686 0.54117647 0.75196078
0.0087009804 0.54509804 0.7504902
0.13970588 0.55833333 0.74705882
0.42732843 0.57009804 0.74313725
0.70686275 0.56078431 0.74852941
0.89215686 0.56262255 0.75098039
0.98468137 0.55490196 0.75392157
0.99258578 0.56599265 0.75098039
0.9995098 0.54117647 0.75098039
0.0039215686 0.76813725 0.73823529
0.0077205882 0.77598039 0.74306066
0.15318627 0.76960784 0.74607843
0.4365962 0.77339154 0.74931066
0.69859069 0.77745098 0.74460784
0.88541667 0.77352941 0.73921569
0.98409926 0.77233456 0.75171569
0.99607843 0.77806373 0.75428922
1 0.78051471 0.75098039
0.0039215686 0.91691176 0.75
0.0078431373 0.92797181 0.75098039
0.14993873 0.92530637 0.74761029
0.43419118 0.92156863 0.7481924
0.7057598 0.9245098 0.75392157
0.8888174 0.92156863 0.74215686
0.97408088 0.91819853 0.74632353
0.99721201 0.91764706 0.75719975
1 0.91470588 0.75784314
0.0040441176 1 0.75
0.015471814 0.99264706 0.75085784
0.13783701 0.99007353 0.74810049
0.42843137 0.99607843 0.74362745
0.69583333 0.99258578 0.7466299
0.88933824 0.99630821 0.74705882
0.9893076 0.99264706 0.7502451
1 1 0.75409007
1 0.99313725 0.76176471
0.0078431373 1 0.75098039
0.016176471 1 0.75098039
0.14215686 1 0.75490196
0.44313725 0.99607843 0.74705882
0.70588235 0.99607843 0.74656863
0.88088235 0.99754902 0.75
0.98921569 1 0.75563725
1 0.99607843 0.76311275
1 1 0.76666667
0.0039215686 0 0.92058824
0.015134804 0 0.9245098
0.14595588 0 0.91911765
0.43039216 0.0039215686 0.91666667
0.71568627 0 0.92843137
0.88841912 0 0.92665441
0.98884804 0.0039215686 0.90882353
0.99699755 0.0039215686 0.92015931
1 0 0.9245098
0.0039215686 0.015196078 0.9245098
0.0077282475 0.014705882 0.9241345
0.13627451 0 0.92814032
0.44019608 0.014889706 0.92412684
0.70634191 0.014981618 0.9208027
0.89411765 0.0039215686 0.92058824
0.98664216 0.01127451 0.92064951
1 0.0039215686 0.9241345
1 0.0039215686 0.92015931
0.0039215686 0.1245098 0.92843137
0.0039215686 0.11715686 0.93137255
0.13915441 0.11522672 0.92613358
0.43468137 0.11524203 0.91617647
0.70526961 0.1161152 0.92040441
0.88884804 0.1127451 0.92156863
0.97438725 0.11295956 0.92401961
0.99607843 0.12009804 0.92401961
0.99705882 0.11666667 0.9127451
0.006372549 0.32107843 0.93314951
0.0078431373 0.31361826 0.92401961
0.14492953 0.31053922 0.91659007
0.44258578 0.30980392 0.91662071
0.70799632 0.31020221 0.91911765
0.90410539 0.30981158 0.91421569
0.98939951 0.30294118 0.92009804
0.99607843 0.31078431 0.92015931
1 0.2995098 0.91648284
0.0039215686 0.55686275 0.92794118
0.0078125 0.55686275 0.92282475
0.13651961 0.55490196 0.91446078
0.43529412 0.55677083 0.92049632
0.70784314 0.56642157 0.92634804
0.88808211 0.55768995 0.91887255
0.97830882 0.55698529 0.92420343
0.99607843 0.56470588 0.92401961
0.99607843 0.55147059 0.92009804
0.0039215686 0.77647059 0.92469363
0.0053921569 0.77598039 0.91779259
0.16176471 0.76453738 0.92308517
0.43364737 0.77316942 0.92021293
0.69788603 0.76960784 0.92411152
0.88970588 0.770481 0.92070312
0.9877451 0.76426164 0.92432598
0.99607843 0.77771906 0.92052696
0.99607843 0.77959559 0.92028186
0.0039215686 0.91764706 0.92708333
0.011764706 0.92071078 0.92826287
0.15358456 0.91731005 0.92009804
0.42535233 0.92463235 0.92046569
0.70245098 0.92567402 0.92022059
0.87915135 0.91919424 0.91482843
0.98072917 0.92193627 0.9205576
1 0.92414216 0.92421875
1 0.91360294 0.92303922
0.0039215686 0.99215686 0.92015931
0.0078431373 0.99956342 0.92713695
0.13386949 0.99699755 0.92892157
0.42058824 0.99264706 0.92058824
0.69607843 0.99457721 0.9245098
0.88186275 0.99607843 0.9245098
0.97832414 0.99607843 0.92009804
1 0.9991345 0.91525735
1 0.99613971 0.90441176
0.0039215686 0.99656863 0.92401961
0.0069240196 1 0.92843137
0.13382353 0.99607843 0.93186275
0.42107843 0.99871324 0.9254902
0.70392157 1 0.9247549
0.87401961 1 0.92058824
0.99019608 1 0.92843137
1 0.99656863 0.92401961
1 1 0.93235294
0.0039215686 0 1
0.01127451 0 0.9995098
0.12647059 0 0.99607843
0.42303922 0.0039215686 0.99607843
0.71960784 0 1
0.88970588 0 0.99607843
0.98235294 0.0039215686 0.99215686
1 0.0039215686 1
1 0 0.99607843
0.0039215686 0.015686275 1
0.0069240196 0.017708333 0.99607843
0.13125 0.030392157 0.99607843
0.44969363 0.012745098 0.99607843
0.71004902 0.017156863 0.99607843
0.89491422 0.0060661765 0.99246324
0.99276961 0.0039215686 0.99571078
1 0.0039215686 1
1 0.0034313725 1
0.0039215686 0.1127451 0.99607843
0.0039215686 0.11017157 0.99607843
0.13137255 0.11666667 0.99681373
0.44411765 0.1127451 0.98921569
0.70784314 0.12058824 0.99607843
0.8932598 0.11213235 0.99607843
0.98553922 0.11666667 0.99607843
0.99607843 0.11666667 0.99656863
1 0.1127451 1
0.0039215686 0.30588235 0.99607843
0.0078431373 0.29589461 0.99460784
0.13823529 0.31372549 0.99607843
0.44558824 0.30980392 0.99215686
0.71960784 0.30441176 0.99215686
0.90392157 0.30196078 0.99123775
0.99460784 0.30343137 0.99607843
1 0.29920343 1
1 0.29166667 1
0.0039215686 0.55686275 0.99607843
0.0075980392 0.55318627 0.99607843
0.12647059 0.55098039 0.99754902
0.42107843 0.5502451 0.99607843
0.70588235 0.56960784 0.99607843
0.9002451 0.56078431 1
0.9872549 0.55882353 1
0.99607843 0.56666667 0.99607843
1 0.55294118 0.99607843
0.0053921569 0.78382353 0.99607843
0.015379902 0.77224265 0.99430147
0.14509804 0.7567402 0.98884804
0.43180147 0.77113971 0.99761029
0.70514706 0.77352941 0.99607843
0.88578431 0.76023284 0.99215686
0.99166667 0.76127451 0.99852941
0.99754902 0.77598039 0.99264706
1 0.76960784 0.99607843
0.0068627451 0.92254902 1
0.015686275 0.9245098 0.99129902
0.14901961 0.9127451 0.97843137
0.42156863 0.92046569 0.99068627
0.69705882 0.92794118 0.99607843
0.87794118 0.92585784 0.99607843
0.98137255 0.92843137 0.99436275
1 0.92058824 0.99129902
1 0.9127451 0.99607843
0.0039215686 0.98872549 1
0.011764706 0.99558824 0.98131127
0.12794118 0.99607843 0.99522059
0.42303922 0.98872549 1
0.69803922 0.99264706 0.99607843
0.8776348 0.99264706 0.99607843
0.97745098 0.9935049 0.99742647
1 0.99656863 0.99307598
1 1 1
0.0039215686 0.99607843 1
0.0078431373 0.99607843 1
0.13137255 0.99607843 0.99607843
0.43088235 1 1
0.70196078 1 0.99607843
0.87647059 1 1
0.98627451 1 0.99607843
1 1 0.99607843
1 1 0.99607843
