site/assets/luts/natron-haldclut--polaroid-px-70-warm---fe38ccdf2.cube
# LUTr-Project: LUTr — LUTrepository
# LUTr-Schema-Version: 1
# LUTr-ID: natron-haldclut--polaroid-px-70-warm---fe38ccdf2
# LUTr-Title: polaroid px-70 warm --
# LUTr-Collection: Natron HaldCLUT
# LUTr-Collection-ID: natron-haldclut-presets
# LUTr-Source: https://github.com/NatronGitHub/clut
# LUTr-Source-File: submissions/natron-haldclut-presets/instant_consumer/polaroid_px-70_warm_--.png
# LUTr-Source-Format: PNG
# LUTr-Source-SHA256: 37c06c10f27ad9a68affb1ba3aeefdda07a9f4b8aed963a52e473fd67d163f86
# LUTr-License: CC-BY-SA-4.0
# LUTr-License-URL: https://github.com/NatronGitHub/clut#license
# LUTr-Tags: creative, film, film-emulation, hald-clut, natron, png, warm, cube
# LUTr-Transform-Class: film-emulation
# LUTr-Input-Color-Space: srgb
# LUTr-Output-Color-Space: srgb
# LUTr-Color-Space-Confidence: assumed-display-referred
# LUTr-Conversion-Method: PNG LUT image decoded at 16-bit and sampled to 25x25x25 3D CUBE
# LUTr-Conversion-Date: 2026-07-27
# LUTr-Conversion-Tool: LUTr scripts/convert-all-to-cube.mjs
# LUTr-Conversion-Grid: 25x25x25
# LUTr-Note: Preserve this metadata and the upstream license notices when redistributing.
TITLE "polaroid px-70 warm --"
LUT_3D_SIZE 5
DOMAIN_MIN 0 0 0
DOMAIN_MAX 1 1 1
0 0 0
0.13137255 0.02745098 0.032352941
0.54509804 0.0078431373 0.068627451
0.90196078 0.27352941 0.057843137
1 0.54117647 0.15294118
0.0039215686 0.16176471 0.082352941
0.14019608 0.18406863 0.085294118
0.5622549 0.21813725 0.043137255
0.90588235 0.4 0.023529412
1 0.59117647 0.13431373
0 0.55882353 0.07254902
0.065686275 0.56421569 0.087254902
0.61078431 0.58235294 0.011764706
0.88921569 0.6245098 0.0078431373
1 0.68823529 0.041176471
0.41862745 0.81764706 0.25490196
0.50882353 0.81789216 0.27058824
0.69509804 0.81813725 0.28088235
0.86862745 0.82254902 0.20612745
0.99215686 0.84117647 0.26666667
0.76470588 0.96470588 0.55294118
0.78039216 0.96078431 0.55294118
0.83333333 0.96470588 0.57647059
0.90686275 0.96862745 0.58529412
0.97647059 0.97254902 0.59215686
0.033333333 0.060784314 0.16176471
0.14215686 0.078431373 0.15882353
0.55882353 0.017156863 0.20147059
0.92279412 0.35367647 0.26102941
0.99215686 0.59019608 0.34411765
0.0039215686 0.20098039 0.18602941
0.2 0.20955882 0.19607843
0.61360294 0.25098039 0.20294118
0.91182598 0.4620098 0.23235294
0.99607843 0.63161765 0.32794118
0.06372549 0.57647059 0.22843137
0.28039216 0.57598039 0.23382353
0.64852941 0.59019608 0.20931373
0.88872549 0.6307598 0.17205882
0.99607843 0.70490196 0.26372549
0.51593137 0.82622549 0.34607843
0.57653186 0.82254902 0.35490196
0.71078431 0.82156863 0.36139706
0.86917892 0.82591912 0.34142157
0.99117647 0.8372549 0.34632353
0.77647059 0.96470588 0.57941176
0.79607843 0.96470588 0.58504902
0.83529412 0.96078431 0.59754902
0.91078431 0.97156863 0.61740196
0.98333333 0.97647059 0.62156863
0.14117647 0.12745098 0.37843137
0.36862745 0.17401961 0.38578431
0.64509804 0.3254902 0.39313725
0.90245098 0.32303922 0.4377451
1 0.60392157 0.49803922
0.13872549 0.29264706 0.39607843
0.36862745 0.31666667 0.4
0.67058824 0.45343137 0.4122549
0.90490196 0.48909314 0.45294118
1 0.6745098 0.51421569
0.25490196 0.59215686 0.41372549
0.44485294 0.6 0.41960784
0.70588235 0.62352941 0.44117647
0.88995098 0.67941176 0.45539216
0.99607843 0.7745098 0.52745098
0.63578431 0.81862745 0.49166667
0.68382353 0.82156863 0.5
0.75392157 0.82647059 0.50735294
0.88431373 0.83039216 0.50245098
0.9877451 0.84754902 0.50735294
0.79215686 0.95686275 0.64313725
0.80980392 0.96078431 0.64215686
0.84901961 0.96470588 0.6627451
0.91862745 0.96813725 0.68137255
0.99607843 0.98039216 0.70196078
0.52058824 0.36568627 0.62352941
0.65980392 0.41838235 0.62647059
0.81372549 0.60392157 0.62352941
0.90465686 0.69901961 0.63039216
0.9754902 0.69607843 0.65
0.52647059 0.47843137 0.63039216
0.64803922 0.51292892 0.63039216
0.81764706 0.64117647 0.63137255
0.9 0.71623775 0.6375
0.98823529 0.73431373 0.66568627
0.40735294 0.65098039 0.59901961
0.5495098 0.65992647 0.61286765
0.78455882 0.71740196 0.64215686
0.90036765 0.78431373 0.65882353
0.99117647 0.80343137 0.69264706
0.61862745 0.82254902 0.63137255
0.6629902 0.8254902 0.63192402
0.76764706 0.83039216 0.6504902
0.89313725 0.84705882 0.67922794
0.99191176 0.88112745 0.72156863
0.7872549 0.96078431 0.75392157
0.80588235 0.95980392 0.75220588
0.85686275 0.96078431 0.7627451
0.92647059 0.97254902 0.79411765
0.99607843 0.98039216 0.80686275
0.78431373 0.70588235 0.85490196
0.82156863 0.73921569 0.86568627
0.88431373 0.77647059 0.84313725
0.95392157 0.85196078 0.85784314
0.99607843 0.88235294 0.87058824
0.78039216 0.74019608 0.8627451
0.81078431 0.75514706 0.8627451
0.88431373 0.79803922 0.85882353
0.95710784 0.85980392 0.86176471
0.99215686 0.89019608 0.86764706
0.73137255 0.78235294 0.85882353
0.76568627 0.79166667 0.86323529
0.85490196 0.81960784 0.86470588
0.95196078 0.87941176 0.87254902
0.98823529 0.91764706 0.88039216
0.66078431 0.87254902 0.8745098
0.69877451 0.8629902 0.85
0.77745098 0.87009804 0.86715686
0.93063725 0.90392157 0.90318627
0.98333333 0.93333333 0.89607843
0.78039216 0.98431373 0.9254902
0.79509804 0.98039216 0.90490196
0.8372549 0.98235294 0.92745098
0.91078431 0.98039216 0.93431373
0.99607843 0.97647059 0.9372549
