site/assets/luts/natron-haldclut--lomo--8fb88587c.cube
# LUTr-Project: LUTr — LUTrepository
# LUTr-Schema-Version: 1
# LUTr-ID: natron-haldclut--lomo--8fb88587c
# LUTr-Title: lomo
# LUTr-Collection: Natron HaldCLUT
# LUTr-Collection-ID: natron-haldclut-presets
# LUTr-Source: https://github.com/NatronGitHub/clut
# LUTr-Source-File: submissions/natron-haldclut-presets/various/lomo.png
# LUTr-Source-Format: PNG
# LUTr-Source-SHA256: dde91709a81f13a3dbb30f0b0cb56b6ff158633d2f9f74c7da14d1b68f921ab8
# LUTr-License: CC-BY-SA-4.0
# LUTr-License-URL: https://github.com/NatronGitHub/clut#license
# LUTr-Tags: creative, film, film-emulation, hald-clut, natron, png, cube
# LUTr-Transform-Class: film-emulation
# LUTr-Input-Color-Space: srgb
# LUTr-Output-Color-Space: srgb
# LUTr-Color-Space-Confidence: assumed-display-referred
# LUTr-Conversion-Method: PNG LUT image decoded at 16-bit and sampled to 25x25x25 3D CUBE
# LUTr-Conversion-Date: 2026-07-27
# LUTr-Conversion-Tool: LUTr scripts/convert-all-to-cube.mjs
# LUTr-Conversion-Grid: 25x25x25
# LUTr-Note: Preserve this metadata and the upstream license notices when redistributing.
TITLE "lomo"
LUT_3D_SIZE 5
DOMAIN_MIN 0 0 0
DOMAIN_MAX 1 1 1
0 0 0.11764706
0.13333333 0.0068627451 0.12156863
0.43529412 0.0039215686 0.12352941
0.80196078 0 0.11862745
0.99607843 0 0.13333333
0.0078431373 0.075490196 0.1254902
0.12769608 0.087254902 0.1254902
0.425 0.083333333 0.12156863
0.79509804 0.076470588 0.11764706
1 0.076470588 0.12156863
0.0078431373 0.38823529 0.12156863
0.1372549 0.39019608 0.12745098
0.42745098 0.40196078 0.11960784
0.81372549 0.40392157 0.1254902
1 0.40196078 0.1254902
0.0039215686 0.80980392 0.1254902
0.1254902 0.81446078 0.12156863
0.42352941 0.81862745 0.12156863
0.80686275 0.81985294 0.1252451
0.98823529 0.81568627 0.1254902
0 0.99215686 0.12156863
0.1254902 0.98039216 0.11862745
0.41764706 1 0.12156863
0.79509804 0.98921569 0.1245098
0.99607843 1 0.1254902
0.0039215686 0 0.1745098
0.12941176 0 0.1745098
0.43137255 0 0.17941176
0.81004902 0 0.18235294
1 0.0039215686 0.17941176
0.0078431373 0.090196078 0.1754902
0.12941176 0.078860294 0.1754902
0.42745098 0.080269608 0.17487745
0.81078431 0.088235294 0.17916667
1 0.083333333 0.17843137
0.0078431373 0.39411765 0.1754902
0.12610294 0.39558824 0.17156863
0.42352941 0.39534314 0.1745098
0.80294118 0.40539216 0.1754902
1 0.39509804 0.1754902
0 0.82132353 0.1745098
0.1254902 0.81219363 0.17769608
0.42598039 0.81654412 0.17156863
0.79730392 0.81960784 0.1745098
0.98259804 0.81985294 0.1754902
0 0.99901961 0.17156863
0.12769608 0.99901961 0.17156863
0.42352941 0.99215686 0.17156863
0.79828431 1 0.17156863
1 0.98431373 0.17156863
0 0 0.32745098
0.12941176 0.0039215686 0.33333333
0.41960784 0.00098039216 0.33529412
0.80196078 0.0039215686 0.33137255
0.99607843 0.0039215686 0.32941176
0.0078431373 0.087254902 0.33137255
0.12941176 0.083333333 0.32990196
0.41960784 0.080147059 0.3379902
0.80441176 0.087622549 0.32941176
1 0.076470588 0.3254902
0.0049019608 0.39803922 0.32941176
0.12941176 0.39215686 0.32941176
0.42352941 0.39019608 0.34068627
0.80122549 0.39019608 0.33333333
1 0.39117647 0.3254902
0.0044117647 0.80882353 0.32941176
0.12941176 0.80882353 0.3314951
0.42156863 0.81470588 0.32941176
0.80294118 0.81666667 0.3372549
1 0.80735294 0.32941176
0 0.99803922 0.32941176
0.1254902 0.99607843 0.32941176
0.42647059 0.99607843 0.33333333
0.80196078 1 0.34460784
1 1 0.3254902
0.0039215686 0.0039215686 0.68431373
0.13406863 0.0039215686 0.67034314
0.42352941 0.0039215686 0.65784314
0.80588235 0.0078431373 0.66176471
1 0.0039215686 0.66568627
0.0078431373 0.088235294 0.66960784
0.13039216 0.080943627 0.67034314
0.42316176 0.080759804 0.66715686
0.80643382 0.083884804 0.66574755
1 0.087254902 0.66960784
0.0078431373 0.39411765 0.67352941
0.1254902 0.39803922 0.66176471
0.42328431 0.40784314 0.67156863
0.80294118 0.39803922 0.66960784
0.99607843 0.39411765 0.66323529
0.0041666667 0.81985294 0.67254902
0.1254902 0.81960784 0.67034314
0.42169118 0.81372549 0.67426471
0.80980392 0.81623775 0.66887255
1 0.80490196 0.66470588
0.0078431373 1 0.66568627
0.12622549 1 0.67647059
0.41568627 0.99852941 0.67696078
0.81078431 0.99926471 0.66960784
1 1 0.66568627
0.0039215686 0 1
0.12941176 0.010784314 1
0.43137255 0.0019607843 1
0.80294118 0.0039215686 1
0.99607843 0 1
0 0.07254902 1
0.1254902 0.079411765 1
0.42303922 0.076470588 1
0.7997549 0.080392157 1
0.99901961 0.080392157 1
0 0.38627451 1
0.12941176 0.39019608 0.99558824
0.41960784 0.40196078 0.98431373
0.80196078 0.39754902 0.99215686
1 0.39019608 1
0 0.82352941 1
0.1254902 0.81666667 1
0.41960784 0.82352941 0.99215686
0.81470588 0.80906863 0.99607843
1 0.81176471 0.99607843
0 1 1
0.12843137 0.99607843 1
0.41764706 1 0.99019608
0.81078431 0.99215686 1
1 0.99607843 1
