site/assets/luts/natron-haldclut--fuji-fp-100c--f563865fc.cube
# LUTr-Project: LUTr — LUTrepository
# LUTr-Schema-Version: 1
# LUTr-ID: natron-haldclut--fuji-fp-100c--f563865fc
# LUTr-Title: fuji fp-100c
# LUTr-Collection: Natron HaldCLUT
# LUTr-Collection-ID: natron-haldclut-presets
# LUTr-Source: https://github.com/NatronGitHub/clut
# LUTr-Source-File: submissions/natron-haldclut-presets/instant_pro/fuji_fp-100c.png
# LUTr-Source-Format: PNG
# LUTr-Source-SHA256: 7e27b2e8966a64c08d212bdfa6758dacef20e2e31d8fb6b5447b923a0b115b70
# LUTr-License: CC-BY-SA-4.0
# LUTr-License-URL: https://github.com/NatronGitHub/clut#license
# LUTr-Tags: creative, film, film-emulation, hald-clut, natron, png, cube
# LUTr-Transform-Class: film-emulation
# LUTr-Input-Color-Space: srgb
# LUTr-Output-Color-Space: srgb
# LUTr-Color-Space-Confidence: assumed-display-referred
# LUTr-Conversion-Method: PNG LUT image decoded at 16-bit and sampled to 25x25x25 3D CUBE
# LUTr-Conversion-Date: 2026-07-27
# LUTr-Conversion-Tool: LUTr scripts/convert-all-to-cube.mjs
# LUTr-Conversion-Grid: 25x25x25
# LUTr-Note: Preserve this metadata and the upstream license notices when redistributing.
TITLE "fuji fp-100c"
LUT_3D_SIZE 9
DOMAIN_MIN 0 0 0
DOMAIN_MAX 1 1 1
0.054901961 0.062745098 0.066666667
0.07254902 0.054901961 0.066666667
0.19313725 0.044117647 0.070588235
0.34166667 0.021078431 0.070588235
0.51176471 0.0039215686 0.070588235
0.66617647 0.0014705882 0.064215686
0.80392157 0.0039215686 0.078431373
0.91568627 0.0039215686 0.074509804
0.99607843 0.11764706 0.08627451
0.035294118 0.085784314 0.066666667
0.1004902 0.089705882 0.066666667
0.2182598 0.096568627 0.078553922
0.36470588 0.075490196 0.072058824
0.52328431 0.040196078 0.064705882
0.68823529 0.020098039 0.073345588
0.81519608 0.030147059 0.078553922
0.91954657 0.093198529 0.075490196
0.99607843 0.16666667 0.090196078
0.016666667 0.20098039 0.085294118
0.097058824 0.21176471 0.081862745
0.23529412 0.21176471 0.056127451
0.40196078 0.22144608 0.048406863
0.56176471 0.22156863 0.050490196
0.70441176 0.22156863 0.056862745
0.82745098 0.22965686 0.072794118
0.92696078 0.26127451 0.088357843
0.98529412 0.29411765 0.10098039
0.0039215686 0.34166667 0.079901961
0.061090686 0.34509804 0.074816176
0.21617647 0.36127451 0.04620098
0.39601716 0.37696078 0.014154412
0.56813725 0.38627451 0.0066176471
0.72352941 0.39509804 0.011335784
0.84178922 0.40441176 0.066544118
0.9372549 0.4122549 0.082536765
0.99215686 0.43578431 0.12941176
0 0.47843137 0.08627451
0.0036764706 0.47843137 0.08995098
0.19215686 0.48039216 0.085294118
0.35343137 0.49068627 0.010784314
0.52745098 0.5127451 0.0049019608
0.68504902 0.52426471 0.0053921569
0.82696078 0.5372549 0.035294118
0.93284314 0.55539216 0.093382353
0.99607843 0.56078431 0.18627451
0 0.59411765 0.10343137
0.014215686 0.59166667 0.10882353
0.18872549 0.58872549 0.11188725
0.33474265 0.5872549 0.068627451
0.48137255 0.60637255 0.0026960784
0.64117647 0.63033088 0.0087622549
0.79313725 0.64178922 0.0039215686
0.90998775 0.65196078 0.012071078
0.98823529 0.67107843 0.1127451
0.021568627 0.70588235 0.15098039
0.057230392 0.70526961 0.14816176
0.21960784 0.69485294 0.14534314
0.35980392 0.69019608 0.13578431
0.48480392 0.70539216 0.10343137
0.61875 0.72205882 0.0018382353
0.76151961 0.74019608 0
0.8872549 0.74411765 0
0.98333333 0.7627451 0
0.20833333 0.8254902 0.24558824
0.24025735 0.81764706 0.22898284
0.33186275 0.80882353 0.23982843
0.43627451 0.80735294 0.23480392
0.53946078 0.81151961 0.23431373
0.64393382 0.82518382 0.17401961
0.76556373 0.83676471 0.076960784
0.87303922 0.84509804 0.010232843
0.98088235 0.86029412 0
0.44705882 0.91764706 0.4
0.49509804 0.9377451 0.43627451
0.53333333 0.92843137 0.42941176
0.58235294 0.92009804 0.41911765
0.68431373 0.93137255 0.45686275
0.75588235 0.9372549 0.4377451
0.83431373 0.94117647 0.41470588
0.91911765 0.94558824 0.37205882
0.99607843 0.96078431 0.3372549
0.035784314 0.066666667 0.10490196
0.10435049 0.055821078 0.12015931
0.18676471 0.044117647 0.10870098
0.35165441 0.0078431373 0.11305147
0.51176471 0.0017156863 0.12181373
0.67224265 0.0078431373 0.13578431
0.8 0.0044117647 0.13578431
0.915625 0.0088848039 0.13578431
0.98431373 0.12156863 0.15539216
0.031862745 0.10392157 0.11917892
0.11256893 0.099685968 0.12359069
0.21997549 0.10119485 0.12487745
0.375 0.089705882 0.13137255
0.53872549 0.053431373 0.12794118
0.68903186 0.066666667 0.13186275
0.81041667 0.052251838 0.13535539
0.9221201 0.11917126 0.13632813
0.99908088 0.20104167 0.14803922
0.015686275 0.21421569 0.14276961
0.1006587 0.22207414 0.13615196
0.25143995 0.22233456 0.12818627
0.41470588 0.22904412 0.1251685
0.57689951 0.23676471 0.1435049
0.70868566 0.23579963 0.13962929
0.82720588 0.24568015 0.14828431
0.92991728 0.26997549 0.15044424
0.98786765 0.30159314 0.15833333
0.0039215686 0.36991422 0.15784314
0.060462623 0.37195159 0.15100337
0.24313725 0.37999387 0.14197304
0.41305913 0.38941483 0.086879596
0.58333333 0.4 0.070833333
0.73118873 0.40441176 0.12286305
0.84607843 0.41580882 0.15625
0.93480392 0.42401961 0.16697304
0.9841299 0.43284314 0.17598039
0 0.50147059 0.16127451
0.010814951 0.50533088 0.15906863
0.22107843 0.49362745 0.15753676
0.37778799 0.50373775 0.10900735
0.53590686 0.52426471 0.025122549
0.69666054 0.52910539 0.015931373
0.82941176 0.53988971 0.06685049
0.93507966 0.55906863 0.18259804
0.99264706 0.56862745 0.22009804
0.0012867647 0.60802696 0.16519608
0.0042892157 0.60931373 0.16715686
0.20678615 0.60154718 0.16554841
0.35391391 0.59882812 0.14884344
0.4995098 0.61789216 0.081372549
0.64754902 0.63234528 0.021262255
0.79446998 0.64453125 0.0077971814
0.91534161 0.65539216 0.056640625
0.99246324 0.67892157 0.19344363
0.0049019608 0.7127451 0.19607843
0.071063113 0.71253064 0.19129902
0.24378064 0.70845588 0.20456495
0.36959252 0.69705882 0.19442402
0.48982843 0.71060049 0.15349265
0.61973039 0.7248315 0.064782475
0.75759804 0.74108456 0.015104167
0.8872549 0.75196078 0.0078431373
0.99301471 0.76372549 0.016544118
0.19705882 0.82107843 0.27506127
0.24043352 0.82194393 0.27107843
0.33370098 0.82107843 0.275
0.43453585 0.80508578 0.26682751
0.53946078 0.80980392 0.26326593
0.64720435 0.82647059 0.22205882
0.76444547 0.8377451 0.15294118
0.8838848 0.84552696 0.018987439
0.9754902 0.85637255 0.011335784
0.46666667 0.92941176 0.43921569
0.48627451 0.92990196 0.44313725
0.5310049 0.92990196 0.45
0.60073529 0.92935049 0.459375
0.67671569 0.92745098 0.46102941
0.75526961 0.93302696 0.45073529
0.84142157 0.94522059 0.43431373
0.92303922 0.94901961 0.39417892
0.98382353 0.95686275 0.35931373
0.039215686 0.050980392 0.20490196
0.13909314 0.035906863 0.22696078
0.2745098 0.014705882 0.25122549
0.33382353 0.04252451 0.22647059
0.4995098 0.0083333333 0.23529412
0.66176471 0.0053921569 0.23921569
0.79240196 0.011764706 0.24313725
0.90870098 0.0083333333 0.23223039
0.97058824 0.10490196 0.23627451
0.037254902 0.1004902 0.22058824
0.13137255 0.09731924 0.23828125
0.28268995 0.068719363 0.26393995
0.36384804 0.11868873 0.24250919
0.53988971 0.072181373 0.23823529
0.68884804 0.028416054 0.23267463
0.80392157 0.07588848 0.24007353
0.9147212 0.13255208 0.23852635
0.99644608 0.20588235 0.24019608
0.050245098 0.21176471 0.24877451
0.13063725 0.23753064 0.26461397
0.28431373 0.26004902 0.27683824
0.42889093 0.25882353 0.26973039
0.58002451 0.25208333 0.26666667
0.70995711 0.24718137 0.25784314
0.82181373 0.26305147 0.25490196
0.92377451 0.28477328 0.2502451
0.9872549 0.30882353 0.25416667
0.015686275 0.39767157 0.29031863
0.107981 0.41127451 0.29273897
0.27585784 0.40591299 0.27916667
0.43742341 0.41957721 0.27333027
0.59859069 0.42303922 0.25968137
0.73336397 0.42401961 0.27496936
0.8393076 0.42401961 0.28088235
0.93088235 0.43178615 0.27303922
0.99607843 0.45085784 0.28125
0.0014705882 0.53382353 0.2872549
0.024387255 0.53823529 0.27990196
0.24522059 0.52941176 0.28137255
0.40147059 0.52800245 0.25931373
0.55784314 0.53897059 0.22867647
0.71372549 0.54430147 0.21041667
0.83296569 0.55441176 0.25379902
0.93308824 0.56764706 0.30330882
0.99215686 0.57794118 0.32401961
0.0078431373 0.6377451 0.28811275
0.028140319 0.63480392 0.2803462
0.23563113 0.62356005 0.27843137
0.37529105 0.61557904 0.2662837
0.5151348 0.62689951 0.24166667
0.66723346 0.63970588 0.1842065
0.80428922 0.65220588 0.15291054
0.91527267 0.66360294 0.22492341
0.98321078 0.675 0.29901961
0.023284314 0.72843137 0.29191176
0.074050245 0.72757353 0.28805147
0.25061275 0.71966912 0.28897059
0.38152574 0.71176471 0.28287377
0.50232843 0.71666667 0.26384804
0.62941176 0.72990196 0.22766544
0.76691176 0.74356618 0.14932598
0.89500613 0.74803922 0.050857843
0.99338235 0.76985294 0.21985294
0.20343137 0.82536765 0.34411765
0.24693627 0.8254902 0.34198836
0.33238358 0.82539828 0.33964461
0.43106618 0.81752451 0.33002451
0.54497549 0.81672794 0.33167892
0.65035233 0.825 0.30784314
0.76519608 0.83688725 0.25340074
0.89264706 0.84462316 0.1595435
0.99044118 0.85637255 0.0085784314
0.45490196 0.93039216 0.48235294
0.48161765 0.93333333 0.48529412
0.52671569 0.93651961 0.4875
0.59080882 0.93394608 0.49375
0.66519608 0.9254902 0.49264706
0.75490196 0.93235294 0.4932598
0.83823529 0.94240196 0.48063725
0.92267157 0.94509804 0.43284314
0.97745098 0.95686275 0.41764706
0.044607843 0.040686275 0.35098039
0.14362745 0.016666667 0.36911765
0.32536765 0.0039215686 0.40392157
0.49319853 0.0039215686 0.42892157
0.54387255 0.015931373 0.38210784
0.63143382 0.09810049 0.37696078
0.77794118 0.053308824 0.37022059
0.89969363 0.0075367647 0.353125
0.98039216 0.044117647 0.34068627
0.056862745 0.1004902 0.35735294
0.15079657 0.084803922 0.37647059
0.31844363 0.038679534 0.41458333
0.49971661 0.032766544 0.44070159
0.55612745 0.12622549 0.40189951
0.64835325 0.16814491 0.38694853
0.79099265 0.11585478 0.36813725
0.90909161 0.073697917 0.34665288
0.99148284 0.17714461 0.34852941
0.055882353 0.21176471 0.36666667
0.13431373 0.2254902 0.38492647
0.30110294 0.23946078 0.4200674
0.5149663 0.24348958 0.46470588
0.57432598 0.2911152 0.42205882
0.69134498 0.28016238 0.40012255
0.81590074 0.25646446 0.37956495
0.91519608 0.27418811 0.36568627
0.99607843 0.3182598 0.36605392
0.081311275 0.39546569 0.42346814
0.15288756 0.40766697 0.43179381
0.3 0.43088235 0.45007659
0.4807981 0.44215686 0.45631127
0.61014093 0.45318627 0.4416973
0.71176471 0.44091605 0.42834712
0.82752757 0.4251685 0.41478248
0.92058824 0.42843137 0.39607843
0.99215686 0.44417892 0.39264706
0.024264706 0.56960784 0.46568627
0.12598039 0.56994485 0.46642157
0.30490196 0.57303922 0.45686275
0.44849877 0.57303922 0.43973652
0.58602941 0.57303922 0.42830882
0.73109681 0.58180147 0.43088235
0.83786765 0.58449755 0.44197304
0.92147672 0.58039216 0.43897059
0.97990196 0.58039216 0.43210784
0.1627451 0.67352941 0.46029412
0.22112439 0.67341452 0.45392157
0.29221814 0.66237745 0.42708333
0.41715686 0.65153186 0.418053
0.54460784 0.6546875 0.40882353
0.67800245 0.66233915 0.37589614
0.8127451 0.67104779 0.36482843
0.91893382 0.68431373 0.41734069
0.99068627 0.70098039 0.46415441
0.068995098 0.75441176 0.42291667
0.16165748 0.7504902 0.42002145
0.29077819 0.74656863 0.41963848
0.40117953 0.73480392 0.40551471
0.52401961 0.73088235 0.39895833
0.64117647 0.74088542 0.37647059
0.77438725 0.75168505 0.33520221
0.89764093 0.757981 0.30317096
0.99264706 0.77843137 0.39276961
0.21519608 0.84460784 0.44871324
0.25390625 0.84099265 0.43936121
0.34068627 0.83867953 0.43440564
0.44135263 0.83144148 0.43431373
0.54583333 0.8265625 0.4236826
0.65233609 0.82990962 0.41354167
0.76862745 0.84166667 0.38235294
0.88823529 0.84859069 0.33455882
0.99215686 0.86029412 0.27971814
0.43921569 0.93578431 0.54215686
0.45637255 0.93382353 0.53872549
0.50735294 0.93431373 0.53921569
0.56084559 0.92457108 0.53431373
0.65514706 0.92696078 0.54558824
0.75202206 0.93339461 0.55404412
0.82610294 0.93088235 0.51911765
0.91862745 0.94724265 0.50833333
0.98529412 0.95686275 0.48578431
0.092156863 0.021568627 0.49803922
0.17107843 0.00049019608 0.51544118
0.33333333 0.0039215686 0.54019608
0.55955882 0 0.59779412
0.69607843 0.0039215686 0.59509804
0.71004902 0.017156863 0.53186275
0.75637255 0.19558824 0.51960784
0.86519608 0.24313725 0.51960784
0.96666667 0.20784314 0.50392157
0.10784314 0.092892157 0.50588235
0.1879902 0.075 0.51761642
0.33333333 0.034313725 0.55183824
0.54901961 0.0049938725 0.60098039
0.70379902 0.006495098 0.60759804
0.71593137 0.13596814 0.54525123
0.7627451 0.26194853 0.52671569
0.8745098 0.26026348 0.51568627
0.98210784 0.25612745 0.50588235
0.050490196 0.20931373 0.50441176
0.17843137 0.21838235 0.5185049
0.32683824 0.2310049 0.55196078
0.54099265 0.21072304 0.60055147
0.69607843 0.22573529 0.61495098
0.71323529 0.31452206 0.55704657
0.76948529 0.36335784 0.5375
0.88946078 0.33676471 0.51531863
0.98431373 0.32352941 0.50196078
0.10759804 0.36764706 0.51078431
0.17337623 0.37481618 0.51504289
0.30306373 0.39215686 0.54019608
0.49068627 0.42184436 0.58042279
0.67267157 0.45318627 0.62156863
0.70542279 0.47107843 0.57380515
0.8 0.47034314 0.55300245
0.90539216 0.43789828 0.52352941
0.98627451 0.44338235 0.5
0.14411765 0.54117647 0.56470588
0.23345588 0.54411765 0.56470588
0.3245098 0.56323529 0.57916667
0.48578431 0.5877451 0.59080882
0.62843137 0.60833333 0.60343137
0.72990196 0.61102941 0.59142157
0.8254902 0.59166667 0.57107843
0.91102941 0.57512255 0.54681373
0.98627451 0.57254902 0.52941176
0.17279412 0.68921569 0.60367647
0.25459559 0.68195466 0.59549632
0.36053922 0.68964461 0.59142157
0.47227328 0.68284314 0.57965686
0.59656863 0.69154412 0.58026961
0.70833333 0.69509804 0.56176471
0.82205882 0.7002451 0.57383578
0.91341912 0.69656863 0.56292892
0.98431373 0.70073529 0.57818627
0.26617647 0.77156863 0.59411765
0.30790441 0.77303922 0.58995098
0.36911765 0.77107843 0.5752451
0.45808824 0.76881127 0.56660539
0.55784314 0.75514706 0.54607843
0.66868873 0.75686275 0.53069853
0.78370098 0.76470588 0.51237745
0.90245098 0.77328431 0.49607843
0.9872549 0.79117647 0.55196078
0.3379902 0.85808824 0.59068627
0.3125 0.85637255 0.56862745
0.35814951 0.8528799 0.55686275
0.44313725 0.84926471 0.54632353
0.5567402 0.8377451 0.54203431
0.65701593 0.83553922 0.52696078
0.76911765 0.84852941 0.51746324
0.89215686 0.85661765 0.48946078
0.98848039 0.86593137 0.4379902
0.45490196 0.94901961 0.63333333
0.44044118 0.94166667 0.61813725
0.49754902 0.94313725 0.61813725
0.55882353 0.93651961 0.61740196
0.64411765 0.93235294 0.61372549
0.72573529 0.92009804 0.60637255
0.8254902 0.93333333 0.60882353
0.91102941 0.93897059 0.57916667
0.98235294 0.9627451 0.58235294
0.17058824 0.0039215686 0.63333333
0.23823529 0 0.64509804
0.3745098 0 0.6682598
0.54319853 0.0039215686 0.6995098
0.75343137 0.0026960784 0.74681373
0.84025735 0.010845588 0.72598039
0.85392157 0.087377451 0.67181373
0.87941176 0.28186275 0.64901961
0.93039216 0.35735294 0.64509804
0.18265931 0.067156863 0.6372549
0.24215686 0.059474571 0.64810049
0.36556373 0.015762868 0.67156863
0.53969822 0.00037530637 0.70490196
0.74313725 0.0049938725 0.74166667
0.85127911 0.010117953 0.73591452
0.85098039 0.18363971 0.6756587
0.8754902 0.33295037 0.64901961
0.9372549 0.40147059 0.64509804
0.17585784 0.21862745 0.63333333
0.23756127 0.21078431 0.64473039
0.36271446 0.21151961 0.66626838
0.52954963 0.17941176 0.69914216
0.72622549 0.15435049 0.7375
0.83163297 0.2254902 0.73543199
0.84571078 0.33455882 0.68664216
0.87397365 0.41685049 0.65678615
0.93419118 0.44914216 0.64840686
0.10055147 0.33584559 0.5995098
0.1912454 0.34558824 0.60735294
0.31960784 0.36288297 0.6377451
0.48972886 0.38970588 0.67892157
0.67671569 0.4221201 0.72129289
0.80193781 0.44908088 0.72898284
0.82254902 0.49650735 0.68748468
0.86017923 0.52235754 0.66599265
0.96237745 0.50643382 0.66078431
0.16004902 0.4879902 0.6245098
0.21014093 0.4890625 0.62058824
0.3120098 0.50073529 0.62647059
0.43728554 0.52769608 0.64414828
0.61887255 0.58125 0.69816176
0.76596201 0.61148897 0.72794118
0.80257353 0.62352941 0.69632353
0.87965686 0.60867034 0.67205882
0.93970588 0.58137255 0.65441176
0.26770833 0.64754902 0.66807598
0.29306832 0.64901961 0.67383578
0.3682598 0.66084559 0.67984069
0.49515931 0.67410386 0.68898591
0.62521446 0.70741422 0.71449142
0.72834712 0.72318474 0.71681219
0.81973039 0.72352941 0.71032475
0.90483303 0.70735294 0.69302237
0.96372549 0.69509804 0.67493873
0.31078431 0.78872549 0.72058824
0.33613664 0.7884038 0.71870404
0.40787377 0.78468137 0.70980392
0.50553002 0.7872549 0.70807292
0.61029412 0.79558824 0.70545343
0.70588235 0.78884804 0.68812806
0.80186887 0.79139093 0.68382353
0.90723039 0.7995098 0.67308517
0.97708333 0.79803922 0.68223039
0.37990196 0.87175245 0.72254902
0.40181526 0.86942402 0.71715686
0.45147059 0.86550245 0.71176471
0.51783088 0.86923254 0.70245098
0.58112745 0.86265319 0.67484681
0.68315717 0.85392157 0.66629136
0.78135723 0.85431985 0.65232843
0.89562653 0.86160386 0.62287837
0.98302696 0.87567402 0.62322304
0.50980392 0.9504902 0.75098039
0.51844363 0.95245098 0.746875
0.53578431 0.94705882 0.73664216
0.54748775 0.9161152 0.71323529
0.6254902 0.93480392 0.70392157
0.72352941 0.93872549 0.70637255
0.82046569 0.94227941 0.70147059
0.90735294 0.94528186 0.68020833
0.98431373 0.93039216 0.63137255
0.2754902 0.012745098 0.75686275
0.3245098 0.0040441176 0.76727941
0.42941176 0.00098039216 0.77622549
0.56470588 0.0029411765 0.79571078
0.72696078 0.0034313725 0.8245098
0.89117647 0.0024509804 0.85257353
0.96470588 0.0078431373 0.83995098
0.96409314 0.20012255 0.78517157
0.97745098 0.39019608 0.76372549
0.2754902 0.053431373 0.76078431
0.3269761 0.03794424 0.76776961
0.42962623 0.0071997549 0.77867647
0.56862745 0.0057444853 0.80147059
0.71936275 0.0039215686 0.82334559
0.88178615 0.0091758578 0.84620098
0.96553309 0.019056373 0.84571078
0.95614277 0.26708027 0.78529412
0.96580882 0.41115196 0.76372549
0.25980392 0.21470588 0.74607843
0.31360294 0.20621936 0.75677083
0.41433824 0.20459559 0.76893382
0.54754902 0.19093137 0.79316789
0.70526961 0.16740196 0.82144608
0.87830882 0.13710172 0.85147059
0.94626225 0.26158088 0.83903186
0.94515931 0.39166667 0.790625
0.95784314 0.45906863 0.76764706
0.19411765 0.33958333 0.72990196
0.24511336 0.339231 0.73609069
0.3640625 0.35505515 0.75033701
0.50614277 0.36813725 0.77262561
0.67420343 0.3903799 0.80637255
0.84068627 0.41911765 0.84019608
0.92417279 0.4666973 0.83477328
0.92803309 0.51937806 0.792019
0.94068627 0.55784314 0.77610294
0.056862745 0.44803922 0.69068627
0.15343137 0.45355392 0.69515931
0.27598039 0.46764706 0.70980392
0.44019608 0.50269608 0.74387255
0.61151961 0.53823529 0.78088235
0.7872549 0.57806373 0.82156863
0.89056373 0.61335784 0.83247549
0.90851716 0.63161765 0.79166667
0.92058824 0.62843137 0.77647059
0.19411765 0.59362745 0.7192402
0.23517157 0.59705882 0.725
0.32025123 0.60637255 0.73284314
0.42087929 0.61698836 0.73284314
0.56029412 0.64754902 0.75539216
0.72647059 0.68835784 0.79558824
0.85906863 0.73026961 0.82772672
0.90379902 0.72205882 0.79964767
0.9495098 0.71519608 0.78039216
0.33161765 0.74019608 0.76691176
0.34647672 0.74056373 0.7689951
0.4088848 0.7533701 0.7745098
0.48970588 0.75860907 0.78140319
0.60122549 0.77647059 0.79215686
0.72895221 0.80453431 0.81237745
0.82984069 0.82647059 0.82199755
0.90196078 0.82153799 0.81176471
0.96985294 0.79387255 0.78553922
0.43382353 0.86911765 0.81875
0.44117647 0.87904412 0.82659314
0.48235294 0.87058824 0.81829044
0.56096814 0.87660846 0.82193627
0.634375 0.88345588 0.8189951
0.72696078 0.88377757 0.80784314
0.80839461 0.88039216 0.7911152
0.88468137 0.8838848 0.78753064
0.96421569 0.89203431 0.78419118
0.52647059 0.95294118 0.84607843
0.53921569 0.95698529 0.85
0.55294118 0.94632353 0.84191176
0.61188725 0.95686275 0.83823529
0.65392157 0.94215686 0.82107843
0.73051471 0.95833333 0.81176471
0.81078431 0.9372549 0.79583333
0.8995098 0.95343137 0.79473039
0.97745098 0.97156863 0.78823529
0.41813725 0.0034313725 0.88039216
0.44901961 0.011764706 0.88382353
0.52022059 0.015808824 0.88039216
0.63449755 0.0039215686 0.89430147
0.74779412 0.0098039216 0.90343137
0.88841912 0.010477941 0.92254902
0.99178922 0.0040441176 0.93688725
0.99607843 0.039154412 0.92996324
0.99656863 0.32843137 0.89215686
0.41035539 0.090686275 0.87598039
0.44509804 0.078492647 0.88039216
0.5127451 0.044439338 0.88386949
0.61927849 0.022303922 0.89411765
0.74191176 0.0093137255 0.90710784
0.87738971 0.0067555147 0.92009804
0.97892157 0.0074142157 0.9379136
0.99607843 0.15531556 0.92696078
1 0.3745098 0.88829657
0.39656863 0.23970588 0.86862745
0.42947304 0.22720588 0.87254902
0.50566789 0.22745098 0.87610294
0.60137868 0.20392157 0.88645833
0.73088235 0.19393382 0.90122549
0.86220895 0.18782169 0.92017463
0.98501838 0.20009191 0.93529412
0.99607843 0.32205882 0.92352941
0.99607843 0.46066176 0.89215686
0.31715686 0.35030637 0.85441176
0.37209712 0.36109069 0.85798866
0.45655637 0.36937806 0.86462929
0.56586244 0.36849724 0.87529105
0.69813113 0.37729779 0.89436275
0.8388557 0.39148284 0.91145067
0.9627451 0.42892157 0.93186275
1 0.49008885 0.9221201
0.99264706 0.55441176 0.88431373
0.15122549 0.45392157 0.82573529
0.21979167 0.45536152 0.83115809
0.33578431 0.46439951 0.83694853
0.47671569 0.48694853 0.85098039
0.63639706 0.51029412 0.87242647
0.79197304 0.54108456 0.8989277
0.92420343 0.57965686 0.92132353
0.97202819 0.61639093 0.90536152
0.98676471 0.65294118 0.8877451
0.063235294 0.57843137 0.80557598
0.1254136 0.58000919 0.80713082
0.21465993 0.57339154 0.80035233
0.34952512 0.57990196 0.80949755
0.53979779 0.61283701 0.84132966
0.725 0.6560815 0.87359069
0.88088235 0.69754902 0.90784314
0.95729167 0.73151808 0.91127451
0.97598039 0.74558824 0.89460784
0.23664216 0.71078431 0.83333333
0.26686581 0.71055453 0.83301164
0.32781863 0.70588235 0.83333333
0.43529412 0.72196691 0.83619792
0.5286152 0.72224265 0.83817402
0.6397212 0.73713235 0.83820466
0.80772059 0.78446691 0.88140319
0.93823529 0.8317402 0.91246936
0.94215686 0.83345588 0.89166667
0.40153186 0.84068627 0.88039216
0.44117647 0.8372549 0.86121324
0.47924326 0.84520527 0.8761489
0.55448836 0.84460784 0.86813725
0.63186275 0.85588235 0.87598039
0.71439951 0.86367953 0.8837163
0.81862745 0.88431373 0.89901961
0.91519608 0.90783548 0.90784314
0.94460784 0.90686275 0.90343137
0.56519608 0.96078431 0.93382353
0.56378676 0.95147059 0.92898284
0.59460784 0.95992647 0.92561275
0.6408701 0.95882353 0.92481618
0.69313725 0.95 0.91936275
0.76421569 0.96439951 0.91862745
0.83333333 0.96078431 0.90588235
0.89908088 0.96078431 0.89601716
0.94509804 0.96470588 0.89166667
0.59607843 0.20392157 0.98431373
0.61127451 0.2 0.98382353
0.65196078 0.17647059 0.98039216
0.72401961 0.14068627 0.98578431
0.81372549 0.10392157 0.99215686
0.90784314 0.028431373 0.98823529
0.97745098 0.0088235294 0.98823529
0.99656863 0.023039216 0.99215686
1 0.30196078 0.97647059
0.59362745 0.2622549 0.98137255
0.60245098 0.24460784 0.97555147
0.65625 0.24754902 0.9872549
0.71734069 0.20980392 0.98039216
0.80588235 0.17083333 0.98823529
0.90637255 0.10968137 0.99215686
0.99607843 0.044607843 0.99595588
1 0.019117647 0.99607843
1 0.34852941 0.99215686
0.56960784 0.34901961 0.96862745
0.58137255 0.34129902 0.96482843
0.63112745 0.33970588 0.97156863
0.70686275 0.32598039 0.97647059
0.79558824 0.31960784 0.98529412
0.89852941 0.30367647 0.9939951
0.9747549 0.28921569 0.99240196
1 0.30821078 0.99215686
1 0.44607843 0.99215686
0.55392157 0.46960784 0.97352941
0.54852941 0.45098039 0.95882353
0.60502451 0.45784314 0.9692402
0.66519608 0.44264706 0.96470588
0.76617647 0.44901961 0.97647059
0.87254902 0.44117647 0.98039216
0.95526961 0.44362745 0.98039216
1 0.47058824 0.98216912
1 0.55735294 0.99460784
0.45490196 0.55490196 0.95686275
0.48063725 0.55637255 0.95661765
0.53823529 0.56029412 0.95637255
0.60343137 0.55686275 0.95343137
0.72156863 0.56470588 0.96666667
0.83578431 0.57254902 0.97647059
0.93382353 0.58823529 0.97156863
0.99607843 0.60661765 0.96911765
1 0.65294118 0.98431373
0.36323529 0.66078431 0.94362745
0.37303922 0.64754902 0.93970588
0.42585784 0.64754902 0.94264706
0.51311275 0.64454657 0.95330882
0.63946078 0.65735294 0.95367647
0.7622549 0.66770833 0.95686275
0.89656863 0.69166667 0.96960784
0.98186275 0.72432598 0.96862745
1 0.7495098 0.98284314
0.39313725 0.76666667 0.94117647
0.39338235 0.76066176 0.93713235
0.4370098 0.75759804 0.94117647
0.48982843 0.76139706 0.94276961
0.54068627 0.74117647 0.92009804
0.68321078 0.76409314 0.94448529
0.84730392 0.7872549 0.96985294
0.93872549 0.81519608 0.97254902
0.9872549 0.83823529 0.96372549
0.48823529 0.85637255 0.94901961
0.49761029 0.86023284 0.94417892
0.52463235 0.85551471 0.94816176
0.57040441 0.85392157 0.94295343
0.63676471 0.86421569 0.95514706
0.70245098 0.86439951 0.94754902
0.7754902 0.86029412 0.94117647
0.91568627 0.89166667 0.96862745
0.97254902 0.91470588 0.95735294
0.61568627 0.94509804 0.96470588
0.60637255 0.93872549 0.95784314
0.65294118 0.95196078 0.96862745
0.69019608 0.95441176 0.97254902
0.73529412 0.95882353 0.9745098
0.77401961 0.95686275 0.94754902
0.83823529 0.96078431 0.94607843
0.91470588 0.97254902 0.97254902
0.98039216 0.98823529 0.98823529
