site/assets/luts/natron-haldclut--lomo--8fb88587c.cube
# LUTr-Project: LUTr — LUTrepository
# LUTr-Schema-Version: 1
# LUTr-ID: natron-haldclut--lomo--8fb88587c
# LUTr-Title: lomo
# LUTr-Collection: Natron HaldCLUT
# LUTr-Collection-ID: natron-haldclut-presets
# LUTr-Source: https://github.com/NatronGitHub/clut
# LUTr-Source-File: submissions/natron-haldclut-presets/various/lomo.png
# LUTr-Source-Format: PNG
# LUTr-Source-SHA256: dde91709a81f13a3dbb30f0b0cb56b6ff158633d2f9f74c7da14d1b68f921ab8
# LUTr-License: CC-BY-SA-4.0
# LUTr-License-URL: https://github.com/NatronGitHub/clut#license
# LUTr-Tags: creative, film, film-emulation, hald-clut, natron, png, cube
# LUTr-Transform-Class: film-emulation
# LUTr-Input-Color-Space: srgb
# LUTr-Output-Color-Space: srgb
# LUTr-Color-Space-Confidence: assumed-display-referred
# LUTr-Conversion-Method: PNG LUT image decoded at 16-bit and sampled to 25x25x25 3D CUBE
# LUTr-Conversion-Date: 2026-07-27
# LUTr-Conversion-Tool: LUTr scripts/convert-all-to-cube.mjs
# LUTr-Conversion-Grid: 25x25x25
# LUTr-Note: Preserve this metadata and the upstream license notices when redistributing.
TITLE "lomo"
LUT_3D_SIZE 9
DOMAIN_MIN 0 0 0
DOMAIN_MAX 1 1 1
0 0 0.11764706
0.0078431373 0 0.11764706
0.13333333 0.0068627451 0.12156863
0.26715686 0.0039215686 0.11764706
0.43529412 0.0039215686 0.12352941
0.62058824 0.0039215686 0.12941176
0.80196078 0 0.11862745
0.99264706 0 0.12941176
0.99607843 0 0.13333333
0.0073529412 0.023039216 0.12156863
0.0078431373 0.019117647 0.12156863
0.12855392 0.019607843 0.11801471
0.26323529 0.024509804 0.12156863
0.42573529 0.0095588235 0.11960784
0.6127451 0.018627451 0.12941176
0.79767157 0.014705882 0.11764706
0.99656863 0.014705882 0.12941176
0.99607843 0.018627451 0.12941176
0.0078431373 0.075490196 0.1254902
0.0078431373 0.075490196 0.1254902
0.12769608 0.087254902 0.1254902
0.26323529 0.076470588 0.11764706
0.425 0.083333333 0.12156863
0.61372549 0.086151961 0.1254902
0.79509804 0.076470588 0.11764706
1 0.076470588 0.11776961
1 0.076470588 0.12156863
0.0039215686 0.2004902 0.1254902
0.0073529412 0.20294118 0.1254902
0.12904412 0.19656863 0.13333333
0.26715686 0.21470588 0.1254902
0.42745098 0.20955882 0.1254902
0.61966912 0.20441176 0.12640931
0.81262255 0.20441176 0.1254902
1 0.20196078 0.11764706
1 0.19656863 0.11764706
0.0078431373 0.38823529 0.12156863
0.0075980392 0.39607843 0.12156863
0.1372549 0.39019608 0.12745098
0.27573529 0.39019608 0.1254902
0.42745098 0.40196078 0.11960784
0.62058824 0.40661765 0.12696078
0.81372549 0.40392157 0.1254902
1 0.39240196 0.11764706
1 0.40196078 0.1254902
0.0078431373 0.61813725 0.13088235
0.019117647 0.61813725 0.1254902
0.12941176 0.61960784 0.12941176
0.26715686 0.61960784 0.12941176
0.42745098 0.62867647 0.12794118
0.61127451 0.6377451 0.13333333
0.8064951 0.63382353 0.12843137
1 0.61568627 0.12156863
0.99607843 0.61960784 0.12156863
0.0039215686 0.80980392 0.1254902
0.0087009804 0.82058824 0.11911765
0.1254902 0.81446078 0.12156863
0.26715686 0.81605392 0.12156863
0.42352941 0.81862745 0.12156863
0.60637255 0.81605392 0.13333333
0.80686275 0.81985294 0.1252451
0.97058824 0.82303922 0.1254902
0.98823529 0.81568627 0.1254902
0 0.93088235 0.12156863
0.033394608 0.93780637 0.12156863
0.12941176 0.95098039 0.11764706
0.26862745 0.94442402 0.12371324
0.42352941 0.93921569 0.12156863
0.603125 0.94705882 0.12941176
0.80159314 0.94656863 0.1245098
0.95441176 0.94613971 0.12156863
0.99215686 0.94313725 0.1254902
0 0.99215686 0.12156863
0.022058824 0.99607843 0.11764706
0.1254902 0.98039216 0.11862745
0.26715686 0.98823529 0.12156863
0.41764706 1 0.12156863
0.59313725 0.98431373 0.12941176
0.79509804 0.98921569 0.1245098
0.96519608 1 0.12156863
0.99607843 1 0.1254902
0 0 0.14068627
0.0078431373 0 0.14417892
0.12941176 0.0039215686 0.14460784
0.26078431 0.0014705882 0.14068627
0.43137255 0 0.14068627
0.60275735 0 0.1372549
0.81066176 0 0.14460784
0.99656863 0.0034313725 0.14117647
1 0.0039215686 0.14460784
0.0039215686 0.019117647 0.1411152
0.010899203 0.011328125 0.14117647
0.1254902 0.019117647 0.14068627
0.26135876 0.018650429 0.14460784
0.42570466 0.012775735 0.14068627
0.5969133 0.01685049 0.1372549
0.80911458 0.018198529 0.14342831
1 0.014759498 0.13982077
1 0.019056373 0.14068627
0.0078431373 0.06127451 0.14852941
0.0078431373 0.06127451 0.14852941
0.12901348 0.08627451 0.14166667
0.26323529 0.079779412 0.14068627
0.42352941 0.081862745 0.14068627
0.60882353 0.087791054 0.14068627
0.80943627 0.083333333 0.14417892
1 0.083333333 0.14068627
1 0.080392157 0.14068627
0.011764706 0.19656863 0.14460784
0.026087623 0.2026348 0.14246324
0.12959559 0.19656863 0.13907782
0.27107843 0.2008655 0.14068627
0.42769608 0.20814951 0.14068627
0.61157322 0.20520067 0.14068627
0.81061581 0.20159314 0.1404565
1 0.2004902 0.13937653
1 0.20294118 0.13939951
0.0078431373 0.38627451 0.14068627
0.019117647 0.38848039 0.14068627
0.13161765 0.39411765 0.14093137
0.27107843 0.39803922 0.14077819
0.4254902 0.39607843 0.14068627
0.6127451 0.40848652 0.14068627
0.80594363 0.40343137 0.13786765
0.99828431 0.39411765 0.14068627
1 0.40196078 0.14117647
0.0039215686 0.63088235 0.14246324
0.034474571 0.62179075 0.14460784
0.12941176 0.62205882 0.1377451
0.26335018 0.62205882 0.1372549
0.42279412 0.62990196 0.1372549
0.60409773 0.63921569 0.1372549
0.80588235 0.63720895 0.14068627
0.99871324 0.62071078 0.13831955
0.9872549 0.62205882 0.14068627
0 0.81188725 0.14117647
0.0083792892 0.82316176 0.14149816
0.1254902 0.82058824 0.14080882
0.26715686 0.80623468 0.14460784
0.42591912 0.81096814 0.14080882
0.59937194 0.82322304 0.13907782
0.80003064 0.82058824 0.14117647
0.99571078 0.82090993 0.13713235
0.97708333 0.82058824 0.13982843
0.0039215686 0.94656863 0.14025735
0.0082720588 0.95098039 0.13719363
0.1254902 0.94656863 0.14068627
0.26688879 0.94283088 0.14460784
0.42503064 0.94313725 0.14460784
0.60098039 0.95098039 0.13676471
0.79901961 0.94705882 0.14031863
0.99699755 0.95055147 0.13676471
0.99607843 0.94264706 0.14068627
0.0078431373 0.98480392 0.14068627
0.025551471 0.9838848 0.1372549
0.1254902 0.9995098 0.13676471
0.26078431 0.99607843 0.14068627
0.41568627 0.99803922 0.14068627
0.59705882 0.98431373 0.13676471
0.79803922 0.98823529 0.13811275
1 0.98431373 0.13676471
1 0.99607843 0.14068627
0.0039215686 0 0.1745098
0.019485294 0.0039215686 0.17941176
0.12941176 0 0.1745098
0.26433824 0 0.17843137
0.43137255 0 0.17941176
0.60698529 0 0.17487745
0.81004902 0 0.18235294
1 0.0039215686 0.17941176
1 0.0039215686 0.17941176
0.0034313725 0.014705882 0.1745098
0.018198529 0.018995098 0.17941176
0.1254902 0.030392157 0.17536765
0.26323529 0.015196078 0.18235294
0.42745098 0.018382353 0.17696078
0.5989277 0.015563725 0.17487745
0.80677083 0.015839461 0.17977941
1 0.017769608 0.18460478
1 0.01875 0.18492647
0.0078431373 0.090196078 0.1754902
0.028982843 0.079411765 0.17585784
0.12941176 0.078860294 0.1754902
0.26715686 0.076746324 0.1754902
0.42745098 0.080269608 0.17487745
0.60526961 0.091176471 0.17916667
0.81078431 0.088235294 0.17916667
1 0.083333333 0.17843137
1 0.083333333 0.17843137
0.0039215686 0.19595588 0.1754902
0.038143382 0.20018382 0.17463235
0.13079044 0.20076593 0.1752451
0.26862745 0.19980086 0.17941176
0.425 0.20857843 0.17843137
0.60098039 0.20355392 0.17843137
0.80404412 0.19684436 0.17843137
1 0.20298713 0.1745098
1 0.20441176 0.1754902
0.0078431373 0.39411765 0.1754902
0.028431373 0.39019608 0.17506127
0.12610294 0.39558824 0.17156863
0.27230392 0.39626225 0.17591912
0.42352941 0.39534314 0.1745098
0.60526961 0.41035539 0.17843137
0.80294118 0.40539216 0.1754902
1 0.39197304 0.1745098
1 0.39509804 0.1754902
0.0057598039 0.62352941 0.1745098
0.016666667 0.61034007 0.1745098
0.1254902 0.62132353 0.1754902
0.26715686 0.62426471 0.17267157
0.42665441 0.63529412 0.17303922
0.6060049 0.63480392 0.17843137
0.80257353 0.62735907 0.1745098
0.99571078 0.61715686 0.17156863
0.99571078 0.61960784 0.1754902
0 0.82132353 0.1745098
0.02588848 0.81348039 0.17769608
0.1254902 0.81219363 0.17769608
0.26715686 0.80854779 0.17478554
0.42598039 0.81654412 0.17156863
0.60882353 0.82058824 0.1745098
0.79730392 0.81960784 0.1745098
0.99901961 0.82352941 0.1747549
0.98259804 0.81985294 0.1754902
0 0.94693627 0.17156863
0.02109375 0.94748775 0.17156863
0.1254902 0.94702819 0.17156863
0.26649816 0.93921569 0.1745098
0.42506127 0.94289216 0.17156863
0.60098039 0.94528186 0.17156863
0.79901961 0.94387255 0.17414216
0.99924939 0.94554228 0.17536765
0.99644608 0.95098039 0.17156863
0 0.99901961 0.17156863
0.019485294 0.99901961 0.17156863
0.12769608 0.99901961 0.17156863
0.2622549 1 0.1745098
0.42352941 0.99215686 0.17156863
0.60098039 0.9942402 0.17156863
0.79828431 1 0.17156863
1 0.9995098 0.1745098
1 0.98431373 0.17156863
0.0078431373 0.0039215686 0.23627451
0.01127451 0.0039215686 0.23480392
0.1254902 0.0020833333 0.23627451
0.26715686 0.0039215686 0.23627451
0.42230392 0 0.23480392
0.60398284 0 0.24656863
0.80294118 0.0028186275 0.24203431
1 0 0.23627451
1 0 0.23627451
0.0041053922 0.023039216 0.23265931
0.020664828 0.02254902 0.23449755
0.12602635 0.018673407 0.23590686
0.26715686 0.021568627 0.23627451
0.42352941 0.029901961 0.2385723
0.60478707 0.018933824 0.24656863
0.80289522 0.015012255 0.24264706
1 0.01127451 0.23627451
1 0.01127451 0.23627451
0.0039215686 0.083333333 0.23235294
0.024172794 0.079411765 0.23235294
0.12941176 0.079871324 0.23872549
0.26862745 0.080392157 0.23627451
0.42352941 0.078676471 0.23627451
0.6127451 0.092233456 0.24019608
0.80612745 0.087990196 0.23627451
1 0.079411765 0.23419118
1 0.079411765 0.23235294
0.0039215686 0.19901961 0.24172794
0.016666667 0.20282629 0.23480392
0.1254902 0.20810355 0.23627451
0.26750153 0.19656863 0.23838082
0.42745098 0.19411765 0.24509804
0.60189951 0.19599418 0.24322151
0.79901961 0.2027114 0.23350184
1 0.20379136 0.23480392
1 0.20980392 0.23382353
0.0078431373 0.39338235 0.23553922
0.0078431373 0.3986826 0.23480392
0.1254902 0.39270833 0.23480392
0.26715686 0.38897059 0.23480392
0.42352941 0.39767157 0.23627451
0.60171569 0.40147059 0.23872549
0.80012255 0.39932598 0.23535539
1 0.39715074 0.23216912
1 0.39411765 0.22843137
0.0078431373 0.62990196 0.23235294
0.010416667 0.61599265 0.23235294
0.12941176 0.62428002 0.23365502
0.26715686 0.62205882 0.23235294
0.42503064 0.62643995 0.23627451
0.60971967 0.63045343 0.23422947
0.80473346 0.62653186 0.23235294
1 0.61991422 0.2338848
1 0.60876225 0.2338848
0.0078431373 0.81568627 0.23627451
0.016253064 0.82022059 0.23627451
0.12941176 0.81583946 0.23379289
0.27107843 0.79659926 0.23480392
0.42352941 0.81029412 0.23872549
0.60992647 0.81960784 0.23350184
0.80661765 0.81485907 0.23627451
1 0.80747549 0.23909314
1 0.79889706 0.23909314
0.0021446078 0.95098039 0.23235294
0.023039216 0.93917739 0.24019608
0.12642463 0.94306066 0.23517157
0.27664675 0.93529412 0.23117341
0.42647059 0.94108456 0.23449755
0.60490196 0.94547335 0.23627451
0.80294118 0.93921569 0.23480392
1 0.93878676 0.23841912
1 0.93921569 0.24019608
0 0.98186275 0.22843137
0.012561275 0.99607843 0.24001225
0.1254902 1 0.23235294
0.27990196 1 0.22689951
0.41960784 0.99730392 0.23235294
0.60098039 0.98970588 0.24319853
0.80147059 1 0.23419118
1 0.99981618 0.23235294
1 0.99852941 0.23235294
0 0 0.32745098
0.02377451 0 0.33333333
0.12941176 0.0039215686 0.33333333
0.26470588 0.0039215686 0.33333333
0.41960784 0.00098039216 0.33529412
0.60098039 0.0039215686 0.33529412
0.80196078 0.0039215686 0.33137255
0.99656863 0 0.32745098
0.99607843 0.0039215686 0.32941176
0.0039215686 0.026960784 0.32941176
0.022303922 0.019607843 0.33333333
0.12941176 0.022365196 0.33333333
0.26715686 0.018627451 0.33137255
0.42463235 0.019852941 0.33541667
0.60554534 0.026470588 0.33529412
0.80245098 0.019117647 0.33265931
1 0.01127451 0.32742034
1 0.01127451 0.32377451
0.0078431373 0.087254902 0.33137255
0.015257353 0.083333333 0.33333333
0.12941176 0.083333333 0.32990196
0.26715686 0.083333333 0.32941176
0.41960784 0.080147059 0.3379902
0.60735294 0.084313725 0.33406863
0.80441176 0.087622549 0.32941176
1 0.079411765 0.32922794
1 0.076470588 0.3254902
0.0039215686 0.20392157 0.33259804
0.016421569 0.21216299 0.33333333
0.12941176 0.20471814 0.32941176
0.26715686 0.19898897 0.32867647
0.42585784 0.19644608 0.33651961
0.59705882 0.19929534 0.33848039
0.80214461 0.2026348 0.3372549
1 0.20441176 0.33333333
1 0.20294118 0.33259804
0.0049019608 0.39803922 0.32941176
0.01127451 0.39411765 0.33223039
0.12941176 0.39215686 0.32941176
0.26433824 0.38762255 0.33259804
0.42352941 0.39019608 0.34068627
0.59926471 0.39522059 0.33529412
0.80122549 0.39019608 0.33333333
1 0.39411765 0.33333333
1 0.39117647 0.3254902
0.0031862745 0.62598039 0.32745098
0.022058824 0.62205882 0.33146446
0.12647059 0.62205882 0.33106618
0.26323529 0.62352941 0.3323223
0.42254902 0.62340686 0.33590686
0.60098039 0.6129902 0.33210784
0.80245098 0.6185049 0.33333333
1 0.62941176 0.33308824
1 0.62205882 0.32941176
0.0044117647 0.80882353 0.32941176
0.016176471 0.81109069 0.32941176
0.12941176 0.80882353 0.3314951
0.26415441 0.81219363 0.32941176
0.42156863 0.81470588 0.32941176
0.59852941 0.81960784 0.334375
0.80294118 0.81666667 0.3372549
1 0.82009804 0.33296569
1 0.80735294 0.32941176
0.0036764706 0.94093137 0.32965686
0.020618873 0.94093137 0.32941176
0.1254902 0.94877451 0.33008578
0.26715686 0.94280025 0.32916667
0.42267157 0.94681373 0.33247549
0.60490196 0.94705882 0.34126838
0.8028799 0.94313725 0.34289216
0.97233456 0.94313725 0.33333333
0.99656863 0.93921569 0.33112745
0 0.99803922 0.32941176
0.01495098 1 0.33676471
0.1254902 0.99607843 0.32941176
0.26911765 0.99607843 0.32745098
0.42647059 0.99607843 0.33333333
0.60882353 0.99607843 0.34583333
0.80196078 1 0.34460784
0.96519608 1 0.33308824
1 1 0.3254902
0.0039215686 0.0039215686 0.49117647
0.029901961 0.0039215686 0.49166667
0.12941176 0.00036764706 0.46973039
0.26954657 0.0039215686 0.46917892
0.4254902 0.00073529412 0.46617647
0.6033701 0.0039215686 0.47009804
0.79901961 0.0072303922 0.47009804
1 0.0039215686 0.46568627
0.99215686 0.006372549 0.45833333
0.0078431373 0.023039216 0.47598039
0.015196078 0.019569547 0.47334559
0.12561275 0.015502451 0.48102022
0.26715686 0.015196078 0.47468597
0.42754289 0.014797794 0.46642157
0.60618873 0.021262255 0.47248775
0.80228248 0.023039216 0.47544424
1 0.02432598 0.46933977
0.99969363 0.023039216 0.46354167
0.013235294 0.088235294 0.47732843
0.012729779 0.083777574 0.47732843
0.12941176 0.083333333 0.47218137
0.26715686 0.079411765 0.4682598
0.42352941 0.077941176 0.46740196
0.60660233 0.087622549 0.47363664
0.80376838 0.087254902 0.47941176
1 0.084313725 0.46764706
1 0.084313725 0.47156863
0.0078431373 0.20196078 0.48186275
0.023039216 0.21733303 0.47560509
0.12979473 0.207644 0.46654412
0.26323529 0.19656863 0.47252604
0.42279412 0.20588235 0.47886029
0.60545343 0.20441176 0.47794118
0.79970895 0.20381434 0.46734069
1 0.20686275 0.46861979
1 0.20196078 0.48333333
0.0078431373 0.39803922 0.46960784
0.016421569 0.40514706 0.46734069
0.12886029 0.39411765 0.46979167
0.26323529 0.39485294 0.47748162
0.42352941 0.40196078 0.47941176
0.60413603 0.39923407 0.48333333
0.79901961 0.39681373 0.47248775
0.99871324 0.39411765 0.46657475
0.99607843 0.39411765 0.4754902
0.003002451 0.62745098 0.47248775
0.013419118 0.61205576 0.4622549
0.1254902 0.62421875 0.46294424
0.26715686 0.6307981 0.47105545
0.4254902 0.62398897 0.47794118
0.60545343 0.62261029 0.47941176
0.80232843 0.62444853 0.47617953
1 0.61576287 0.46238511
1 0.62506127 0.47401961
0.0028186275 0.81715686 0.47696078
0.01127451 0.81372549 0.46470588
0.12889093 0.8189951 0.46783088
0.26323529 0.81666667 0.48002451
0.42107843 0.82058824 0.48431373
0.60507047 0.81960784 0.48333333
0.80661765 0.81960784 0.48177083
1 0.81969975 0.47432598
1 0.80306373 0.46727941
0.0039215686 0.94313725 0.4622549
0.020932904 0.94313725 0.46660539
0.1254902 0.94313725 0.48146446
0.26323529 0.94656863 0.48999694
0.41583946 0.946875 0.49181985
0.60679381 0.94313725 0.47794118
0.80196078 0.94313725 0.47438725
0.96666667 0.94279259 0.48265931
0.97598039 0.94313725 0.47745098
0 1 0.46617647
0.022058824 0.99656863 0.47009804
0.12941176 0.99607843 0.48296569
0.26078431 0.99607843 0.4872549
0.41960784 0.99730392 0.48333333
0.61182598 1 0.47310049
0.80625 1 0.47218137
0.99197304 1 0.46617647
0.99754902 1 0.46617647
0.0039215686 0.0039215686 0.68431373
0.017647059 0.0039215686 0.68039216
0.13406863 0.0039215686 0.67034314
0.2692402 0.0039215686 0.66507353
0.42352941 0.0039215686 0.65784314
0.60428922 0.0078431373 0.66176471
0.80588235 0.0078431373 0.66176471
1 0.0039215686 0.67046569
1 0.0039215686 0.66568627
0.0039215686 0.018627451 0.67659314
0.039093137 0.030392157 0.67745098
0.13039216 0.015441176 0.67732843
0.26554841 0.019653799 0.66568627
0.42175245 0.020833333 0.66176471
0.60098039 0.014659926 0.67303922
0.80294118 0.022395833 0.6682598
1 0.019117647 0.6657935
1 0.019117647 0.66568627
0.0078431373 0.088235294 0.66960784
0.023651961 0.091084559 0.66568627
0.13039216 0.080943627 0.67034314
0.26323529 0.076470588 0.66960784
0.42316176 0.080759804 0.66715686
0.60867034 0.084313725 0.66302083
0.80643382 0.083884804 0.66574755
1 0.083333333 0.66764706
1 0.087254902 0.66960784
0.010784314 0.20294118 0.66960784
0.017738971 0.21066176 0.66047794
0.12941176 0.20294118 0.66568627
0.26323529 0.19762561 0.65669424
0.42892157 0.20422794 0.66568627
0.61236213 0.21188725 0.66421569
0.80597426 0.20094975 0.66804534
0.99281556 0.2004902 0.67449449
1 0.20882353 0.65931373
0.0078431373 0.39411765 0.67352941
0.027144608 0.39803922 0.66960784
0.1254902 0.39803922 0.66176471
0.25686275 0.40588235 0.65784314
0.42328431 0.40784314 0.67156863
0.60637255 0.40980392 0.67444853
0.80294118 0.39803922 0.66960784
0.97879902 0.39411765 0.67279412
0.99607843 0.39411765 0.66323529
0.0039215686 0.62352941 0.67561275
0.01127451 0.61421569 0.66864277
0.1254902 0.62928922 0.66295956
0.25931373 0.63382353 0.66176471
0.42352941 0.62843137 0.66960784
0.60882353 0.63382353 0.67352941
0.80376838 0.6276348 0.66706495
0.99411765 0.62205882 0.66470588
0.99607843 0.61813725 0.66862745
0.0041666667 0.81985294 0.67254902
0.0084865196 0.81675858 0.66960784
0.1254902 0.81960784 0.67034314
0.26014093 0.81666667 0.67058824
0.42169118 0.81372549 0.67426471
0.60637255 0.81666667 0.67352941
0.80980392 0.81623775 0.66887255
1 0.8127451 0.66835172
1 0.80490196 0.66470588
0.0078431373 0.94313725 0.66176471
0.014445466 0.94388787 0.67261029
0.1254902 0.94313725 0.67352941
0.26323529 0.94682904 0.67928922
0.41746324 0.94656863 0.68216912
0.6069087 0.94313725 0.67340686
0.80686275 0.94313725 0.67303922
0.99656863 0.94656863 0.67159926
1 0.94693627 0.6692402
0.0078431373 1 0.66568627
0.018137255 1 0.66960784
0.12622549 1 0.67647059
0.26323529 1 0.67647059
0.41568627 0.99852941 0.67696078
0.60919118 0.99607843 0.67254902
0.81078431 0.99926471 0.66960784
0.99914216 0.99914216 0.65882353
1 1 0.66568627
0.00098039216 0 0.89313725
0.019607843 0 0.88578431
0.13333333 0.0078431373 0.89019608
0.26862745 0.0039215686 0.88756127
0.42377451 0.0034313725 0.88627451
0.60098039 0.0052083333 0.88970588
0.80294118 0.0039215686 0.88970588
1 0 0.89362745
1 0 0.89362745
0.011764706 0.026470588 0.88627451
0.034313725 0.018252145 0.89362745
0.12941176 0.01875 0.89394914
0.26323529 0.017233456 0.88986673
0.4200674 0.016697304 0.88970588
0.60087316 0.01584712 0.88970588
0.79901961 0.015150123 0.89362745
0.99221814 0.014759498 0.89405637
1 0.01127451 0.89362745
0.0039215686 0.080269608 0.89362745
0.025765931 0.080269608 0.89319853
0.12941176 0.079411765 0.89362745
0.26073836 0.080070466 0.89362745
0.42352941 0.079411765 0.88970588
0.60067402 0.079733456 0.89051777
0.80168505 0.083333333 0.89298407
0.9807598 0.083333333 0.88676471
0.99607843 0.083333333 0.89375
0.0039215686 0.2096201 0.89362745
0.015196078 0.20032935 0.88988971
0.12780331 0.20294118 0.88970588
0.25931373 0.20307138 0.89362745
0.42352941 0.20318627 0.89371936
0.60981158 0.2004902 0.89314491
0.80477941 0.20160846 0.88970588
0.98232996 0.20447304 0.88447457
1 0.21488971 0.89362745
0.00049019608 0.38995098 0.89534314
0.024724265 0.39757966 0.88973652
0.12941176 0.39405637 0.88621324
0.25949755 0.39803922 0.88587623
0.41960784 0.40281863 0.88578431
0.60226716 0.39803922 0.89234069
0.80294118 0.39803922 0.88235294
0.96102941 0.39240196 0.88970588
0.99632353 0.39411765 0.89387255
0 0.62205882 0.89754902
0.018604473 0.62205882 0.890625
0.1254902 0.62495404 0.88809743
0.26323529 0.62990196 0.88578431
0.42230392 0.63529412 0.88970588
0.6127451 0.62978707 0.89362745
0.80592831 0.62205882 0.88578431
0.98752298 0.62003676 0.88235294
0.99607843 0.63008578 0.89001225
0.0039215686 0.82352941 0.8939951
0.0087009804 0.82020527 0.89362745
0.1254902 0.82058824 0.8916973
0.25931373 0.82058824 0.88970588
0.42150735 0.82077206 0.88970588
0.60428922 0.81634498 0.89362745
0.81078431 0.8127451 0.88627451
1 0.82316176 0.88713235
1 0.8127451 0.89019608
0.0069240196 0.94313725 0.89019608
0.023039216 0.94705882 0.89362745
0.1254902 0.94738051 0.89362745
0.25996477 0.9504902 0.89362745
0.41960784 0.94702819 0.88235294
0.60206801 0.94940257 0.88986673
0.80980392 0.94669118 0.89330576
0.98491881 0.9504902 0.87886029
1 0.95098039 0.89362745
0.0039215686 1 0.89019608
0.01127451 1 0.89362745
0.1254902 0.99705882 0.89754902
0.26078431 1 0.89362745
0.41960784 1 0.88210784
0.61029412 0.99577206 0.88578431
0.81115196 0.99473039 0.89362745
0.97745098 0.98523284 0.89362745
1 0.99656863 0.89362745
0.0039215686 0 1
0.030882353 0 0.9995098
0.12941176 0.010784314 1
0.26470588 0.0053921569 1
0.43137255 0.0019607843 1
0.60490196 0.0039215686 1
0.80294118 0.0039215686 1
1 0 1
0.99607843 0 1
0.0039215686 0.01127451 0.99656863
0.026960784 0.01127451 0.99650735
0.1254902 0.016176471 1
0.26323529 0.013602941 1
0.42181373 0.022794118 0.99803922
0.60490196 0.023039216 0.99607843
0.79901961 0.014705882 1
0.98578431 0.014276961 1
1 0.0073529412 1
0 0.07254902 1
0.023039216 0.075490196 1
0.1254902 0.079411765 1
0.25931373 0.080392157 1
0.42303922 0.076470588 1
0.59754902 0.079411765 1
0.7997549 0.080392157 1
0.96568627 0.083333333 0.99669118
0.99901961 0.080392157 1
0.0014705882 0.20441176 1
0.009129902 0.19411765 1
0.12647059 0.19656863 0.99607843
0.25931373 0.20441176 1
0.41887255 0.20196078 1
0.60637255 0.19901961 1
0.80085784 0.20257353 0.98933824
0.96439951 0.2122549 0.98817402
1 0.22009804 1
0 0.38627451 1
0.01127451 0.39583333 1
0.12941176 0.39019608 0.99558824
0.26323529 0.39926471 0.98897059
0.41960784 0.40196078 0.98431373
0.5997549 0.39485294 0.99730392
0.80196078 0.39754902 0.99215686
0.97058824 0.39019608 1
1 0.39019608 1
0 0.61960784 1
0.018137255 0.62567402 1
0.1254902 0.6185049 1
0.26323529 0.62990196 0.99270833
0.42230392 0.63529412 0.99093137
0.61329657 0.63045343 1
0.80980392 0.62598039 1
1 0.62224265 0.99914216
1 0.63137255 1
0 0.82352941 1
0.0083333333 0.82401961 0.9995098
0.1254902 0.81666667 1
0.26041667 0.82058824 0.99607843
0.41960784 0.82352941 0.99215686
0.60637255 0.81666667 1
0.81470588 0.80906863 0.99607843
1 0.82352941 0.99215686
1 0.81176471 0.99607843
0 0.94656863 1
0.02745098 0.95055147 1
0.1254902 0.95085784 0.99607843
0.26109069 0.9504902 1
0.41764706 0.94705882 0.98872549
0.60196078 0.95098039 1
0.81372549 0.94669118 1
0.99957108 0.9504902 0.9995098
1 0.95098039 1
0 1 1
0.01127451 0.99656863 1
0.12843137 0.99607843 1
0.26323529 0.99852941 1
0.41764706 1 0.99019608
0.60637255 0.98970588 0.98186275
0.81078431 0.99215686 1
0.98088235 0.99607843 1
1 0.99607843 1
