site/assets/luts/natron-haldclut--kodak-portra-400-vc--8336a8694.cube
# LUTr-Project: LUTr — LUTrepository
# LUTr-Schema-Version: 1
# LUTr-ID: natron-haldclut--kodak-portra-400-vc--8336a8694
# LUTr-Title: kodak portra 400 vc
# LUTr-Collection: Natron HaldCLUT
# LUTr-Collection-ID: natron-haldclut-presets
# LUTr-Source: https://github.com/NatronGitHub/clut
# LUTr-Source-File: submissions/natron-haldclut-presets/negative_old/kodak_portra_400_vc.png
# LUTr-Source-Format: PNG
# LUTr-Source-SHA256: 94c9561df90d72cb49ee25cf0a153eaaa5564e8d2e608a0e09f7537447d96b7e
# LUTr-License: CC-BY-SA-4.0
# LUTr-License-URL: https://github.com/NatronGitHub/clut#license
# LUTr-Tags: creative, film, film-emulation, hald-clut, natron, png, cube
# LUTr-Transform-Class: film-emulation
# LUTr-Input-Color-Space: srgb
# LUTr-Output-Color-Space: srgb
# LUTr-Color-Space-Confidence: assumed-display-referred
# LUTr-Conversion-Method: PNG LUT image decoded at 16-bit and sampled to 25x25x25 3D CUBE
# LUTr-Conversion-Date: 2026-07-27
# LUTr-Conversion-Tool: LUTr scripts/convert-all-to-cube.mjs
# LUTr-Conversion-Grid: 25x25x25
# LUTr-Note: Preserve this metadata and the upstream license notices when redistributing.
TITLE "kodak portra 400 vc"
LUT_3D_SIZE 25
DOMAIN_MIN 0 0 0
DOMAIN_MAX 1 1 1
0.023529412 0.039215686 0.043137255
0.044117647 0.049509804 0.047058824
0.068627451 0.054901961 0.050980392
0.093137255 0.058333333 0.050980392
0.11960784 0.058823529 0.047058824
0.14607843 0.058823529 0.042647059
0.18235294 0.058823529 0.03627451
0.24411765 0.064215686 0.031372549
0.30588235 0.070588235 0.023529412
0.36372549 0.070588235 0.017156863
0.42058824 0.066666667 0.010784314
0.47598039 0.063235294 0.00049019608
0.54117647 0.07254902 0.0019607843
0.60294118 0.082843137 0.0039215686
0.66470588 0.090196078 0.0039215686
0.72107843 0.098039216 0.0039215686
0.76470588 0.10196078 0.0039215686
0.79558824 0.10441176 0.0039215686
0.82647059 0.10686275 0.0039215686
0.85735294 0.10980392 0.0039215686
0.89215686 0.11960784 0.0039215686
0.91470588 0.13382353 0.0039215686
0.93529412 0.15098039 0.0039215686
0.95588235 0.17156863 0.0039215686
0.97254902 0.18431373 0.0039215686
0.023529412 0.053431373 0.055882353
0.040196078 0.059803922 0.053431373
0.062254902 0.065808824 0.053431373
0.086580882 0.071262255 0.050980392
0.11323529 0.071568627 0.049019608
0.14313725 0.072058824 0.042647059
0.18970588 0.08125 0.035661765
0.24803922 0.083333333 0.028370098
0.30833333 0.087254902 0.023529412
0.36672794 0.087254902 0.014154412
0.42512255 0.087254902 0.0096813725
0.48921569 0.089705882 0.0039215686
0.55147059 0.088480392 0.0031862745
0.60931373 0.091360294 0.0039215686
0.66531863 0.09375 0.0039215686
0.72107843 0.098039216 0.00091911765
0.76470588 0.10196078 0.0014705882
0.79558824 0.10741422 0.0039215686
0.82647059 0.11568627 0.0039215686
0.86109069 0.12598039 0.0039215686
0.89215686 0.13504902 0.0039215686
0.91734069 0.14675245 0.0039215686
0.93921569 0.16519608 0.0039215686
0.95980392 0.18578431 0.0039215686
0.97647059 0.20098039 0.0039215686
0.018627451 0.064705882 0.067647059
0.035294118 0.074019608 0.06372549
0.055882353 0.079411765 0.057843137
0.077328431 0.083333333 0.051102941
0.10686275 0.087254902 0.047058824
0.14754902 0.092647059 0.041666667
0.19901961 0.10367647 0.031372549
0.25441176 0.10992647 0.023161765
0.31078431 0.1127451 0.018627451
0.37218137 0.11151961 0.018137255
0.43431373 0.11764706 0.01004902
0.5 0.11973039 0.0039215686
0.56323529 0.11421569 0.0039215686
0.62303922 0.11568627 0
0.6745098 0.1127451 0
0.7245098 0.11066176 0
0.76568627 0.1127451 0
0.7995098 0.12696078 0.0024509804
0.83039216 0.1370098 0.0039215686
0.86213235 0.14656863 0.0039215686
0.89215686 0.15686275 0.0039215686
0.91911765 0.16764706 0.0039215686
0.94313725 0.18431373 0.0031862745
0.96433824 0.20098039 0.0033088235
0.98039216 0.21764706 0.0039215686
0.012254902 0.08872549 0.067156863
0.026286765 0.096875 0.062928922
0.049142157 0.1004902 0.058823529
0.070098039 0.10098039 0.051470588
0.1002451 0.10294118 0.045098039
0.15147059 0.11666667 0.035294118
0.20294118 0.13002451 0.025857843
0.25588235 0.13970588 0.016176471
0.31372549 0.14019608 0.011764706
0.37892157 0.14344363 0.010294118
0.44546569 0.14852941 0.0078431373
0.51029412 0.14803922 0.0043504902
0.57205882 0.14362745 0.0039215686
0.63382353 0.13970588 0
0.68492647 0.14227941 0
0.73106618 0.14705882 0.0034313725
0.77205882 0.15098039 0.0034313725
0.80557598 0.15784314 0.0024509804
0.8377451 0.16801471 0.0039215686
0.865625 0.1745098 0.0039215686
0.89387255 0.18259804 0.0039215686
0.91911765 0.19509804 0.0034926471
0.94607843 0.20588235 0
0.96893382 0.22156863 0
0.9877451 0.23431373 0
0.0058823529 0.11960784 0.060784314
0.017401961 0.12352941 0.058823529
0.033333333 0.12990196 0.060784314
0.051960784 0.13333333 0.060784314
0.085294118 0.13921569 0.050980392
0.14607843 0.14754902 0.036519608
0.20441176 0.15784314 0.021568627
0.25833333 0.16813725 0.0083333333
0.31960784 0.17254902 0.0039215686
0.38848039 0.17892157 0.0039215686
0.45735294 0.18823529 0.0039215686
0.52254902 0.18480392 0.0039215686
0.58333333 0.18137255 0.0039215686
0.64166667 0.17843137 0.0058823529
0.68970588 0.18039216 0.0039215686
0.73210784 0.1870098 0.0039215686
0.7745098 0.18823529 0.0039215686
0.8125 0.19338235 0.00073529412
0.84362745 0.19901961 0
0.86960784 0.20759804 0
0.89607843 0.21568627 0
0.92254902 0.22598039 0
0.94656863 0.23627451 0
0.97230392 0.24656863 0
0.99411765 0.25490196 0
0 0.16323529 0.068137255
0.0039215686 0.16323529 0.067830882
0.01127451 0.16666667 0.06752451
0.020710784 0.16617647 0.066727941
0.061519608 0.17205882 0.057352941
0.12745098 0.18327206 0.043137255
0.18884804 0.19705882 0.029411765
0.24901961 0.20392157 0.014215686
0.33333333 0.21421569 0.0044117647
0.40588235 0.22420343 0.0039215686
0.47352941 0.22990196 0.0035539216
0.53480392 0.22984069 0.0043504902
0.59240196 0.22990196 0.010294118
0.64607843 0.22990196 0.012193627
0.6932598 0.22953431 0.0083333333
0.73547794 0.22598039 0.0078431373
0.78039216 0.2254902 0.0039215686
0.81942402 0.2276348 0
0.84901961 0.23382353 0
0.87352941 0.24025735 0.00042892157
0.89803922 0.2504902 0.0039215686
0.92303922 0.25686275 0.0039215686
0.95 0.26715686 0.0039215686
0.9754902 0.27745098 0.0026348039
0.99215686 0.28382353 0
0.0039215686 0.22156863 0.099019608
0.0057598039 0.21973039 0.096568627
0.0078431373 0.21691176 0.090196078
0.0039215686 0.20735294 0.079901961
0.030882353 0.21127451 0.070588235
0.093137255 0.22794118 0.063357843
0.16151961 0.24044118 0.066421569
0.23443627 0.25147059 0.039338235
0.32352941 0.26176471 0.021568627
0.41458333 0.27205882 0.0083333333
0.48651961 0.27745098 0.0031862745
0.54129902 0.27745098 0.010416667
0.59754902 0.28137255 0.018627451
0.65245098 0.28137255 0.022058824
0.69803922 0.27769608 0.01495098
0.74215686 0.27414216 0.010294118
0.78333333 0.27058824 0.0039215686
0.82303922 0.26997549 0
0.85 0.27058824 0.0031862745
0.87610294 0.27414216 0.0039215686
0.9 0.28137255 0.0039215686
0.92647059 0.29031863 0.0039215686
0.95073529 0.29803922 0.0039215686
0.9754902 0.30833333 0.0039215686
0.98921569 0.31176471 0
0.0039215686 0.27941176 0.13137255
0.0078431373 0.27794118 0.12598039
0.0078431373 0.27303922 0.11568627
0.0093137255 0.26636029 0.10294118
0.012254902 0.26617647 0.095098039
0.041360294 0.27303922 0.085110294
0.12401961 0.28333333 0.075122549
0.21574755 0.29601716 0.060294118
0.30686275 0.30931373 0.046078431
0.39466912 0.32205882 0.028492647
0.47598039 0.33921569 0.0093137255
0.53823529 0.34344363 0.011458333
0.59803922 0.34289216 0.016176471
0.65606618 0.33560049 0.020281863
0.70588235 0.32745098 0.012377451
0.74852941 0.32261029 0.0054534314
0.78676471 0.32107843 0.0039215686
0.81911765 0.31715686 0
0.85294118 0.31176471 0.0039215686
0.87873775 0.31176471 0.0039215686
0.90269608 0.31691176 0.0053921569
0.92824755 0.32383578 0.0078431373
0.95428922 0.33284314 0.0049019608
0.9754902 0.33866422 0.0039215686
0.98823529 0.34166667 0
0.0039215686 0.3372549 0.15686275
0.0078431373 0.33088235 0.14803922
0.011764706 0.3254902 0.13529412
0.011764706 0.32156863 0.12598039
0.0058823529 0.31960784 0.11568627
0.010784314 0.31813725 0.10931373
0.097058824 0.33137255 0.096078431
0.18970588 0.34656863 0.084803922
0.27843137 0.36078431 0.070588235
0.37107843 0.37745098 0.04754902
0.46372549 0.40098039 0.017647059
0.53823529 0.41176471 0.0044117647
0.59607843 0.40588235 0.0078431373
0.65392157 0.39558824 0.011764706
0.70882353 0.38529412 0.0078431373
0.75098039 0.375 0.0039215686
0.78431373 0.37254902 0.0039215686
0.81764706 0.36617647 0.0039215686
0.85 0.35686275 0.0039215686
0.88088235 0.35343137 0.0073529412
0.90784314 0.35686275 0.0078431373
0.93088235 0.36078431 0.0078431373
0.95490196 0.36470588 0.0049019608
0.9754902 0.36862745 0.0039215686
0.98823529 0.37254902 0
0.0039215686 0.38480392 0.16078431
0.0078431373 0.37935049 0.15441176
0.0089460784 0.37696078 0.15
0.0078431373 0.37303922 0.14626225
0.0051470588 0.36911765 0.14019608
0.019791667 0.36960784 0.13431373
0.074754902 0.37990196 0.12659314
0.16127451 0.39466912 0.11084559
0.24901961 0.4122549 0.095098039
0.34411765 0.43284314 0.066666667
0.44558824 0.45490196 0.035171569
0.53302696 0.46488971 0.009620098
0.59362745 0.45882353 0.010294118
0.65098039 0.45098039 0.011764706
0.70306373 0.44068627 0.006004902
0.74160539 0.43039216 0.0039215686
0.78039216 0.42254902 0.0039215686
0.81519608 0.41372549 0.003002451
0.85 0.40490196 0.0039215686
0.88088235 0.4004902 0.0073529412
0.91176471 0.39803922 0.0078431373
0.93694853 0.39822304 0.0078431373
0.95882353 0.40134804 0.0049019608
0.97886029 0.40343137 0.0039215686
0.98823529 0.40588235 0
0.0029411765 0.42843137 0.16176471
0.0057598039 0.42745098 0.16176471
0.0071078431 0.4245098 0.16666667
0.0078431373 0.4245098 0.16666667
0.010294118 0.42058824 0.16470588
0.019117647 0.4245098 0.15882353
0.047058824 0.43063725 0.15343137
0.11875 0.44105392 0.13664216
0.2127451 0.45882353 0.11666667
0.31384804 0.47659314 0.097181373
0.41372549 0.49019608 0.067647059
0.50294118 0.5004902 0.039705882
0.57843137 0.50588235 0.019117647
0.64117647 0.50245098 0.010416667
0.69215686 0.49215686 0.0046568627
0.73247549 0.48186275 0.0039215686
0.77647059 0.4754902 0.0039215686
0.81311275 0.46580882 0.0024509804
0.84534314 0.45661765 0.0039215686
0.87990196 0.44852941 0.0073529412
0.91176471 0.43970588 0.0078431373
0.94215686 0.43529412 0.0078431373
0.96372549 0.43823529 0.0039215686
0.98284314 0.43921569 0.0035539216
0.98823529 0.43921569 0
0 0.47254902 0.16470588
0.0039215686 0.47469363 0.17794118
0.0040441176 0.47598039 0.18431373
0.0078431373 0.47254902 0.1872549
0.0078431373 0.47205882 0.1872549
0.0083333333 0.47598039 0.18284314
0.0095588235 0.47892157 0.1754902
0.073161765 0.48939951 0.16078431
0.18186275 0.5 0.14362745
0.28480392 0.51078431 0.12567402
0.38639706 0.52107843 0.10490196
0.47205882 0.53137255 0.071446078
0.55220588 0.54509804 0.03627451
0.62745098 0.55435049 0.0073529412
0.6814951 0.54754902 0.0030637255
0.7276348 0.5372549 0.0039215686
0.77254902 0.52696078 0.0039215686
0.80392157 0.52273284 0.0039215686
0.83835784 0.51384804 0.0039215686
0.87261029 0.5004902 0.0077818627
0.91004902 0.48578431 0.0078431373
0.94564951 0.47647059 0.0043504902
0.97046569 0.47647059 0.0039215686
0.98921569 0.47647059 0.00030637255
0.99215686 0.47647059 0
0.0039215686 0.51764706 0.20196078
0.0039215686 0.51764706 0.20514706
0.0039215686 0.51764706 0.21078431
0.0078431373 0.51764706 0.21372549
0.0078431373 0.51764706 0.21372549
0.0075980392 0.52156863 0.20931373
0.0073529412 0.52156863 0.20441176
0.064215686 0.52622549 0.19387255
0.16470588 0.53529412 0.17647059
0.26446078 0.54166667 0.15980392
0.36078431 0.55196078 0.13970588
0.44705882 0.56593137 0.10563725
0.52941176 0.57647059 0.070588235
0.60710784 0.58872549 0.042156863
0.66568627 0.59068627 0.026470588
0.71568627 0.5875 0.016911765
0.7627451 0.58235294 0.0078431373
0.79754902 0.57720588 0.0039215686
0.83088235 0.56862745 0.0044117647
0.86666667 0.55196078 0.0078431373
0.90392157 0.5372549 0.0068627451
0.94313725 0.52303922 0.0039215686
0.97745098 0.51421569 0.0039215686
0.99289216 0.51372549 0
0.99411765 0.51372549 0
0.0044117647 0.5627451 0.2372549
0.0039215686 0.55931373 0.24068627
0.0039215686 0.55882353 0.24068627
0.0069240196 0.55882353 0.24411765
0.0078431373 0.55833333 0.24411765
0.0079044118 0.55882353 0.24368873
0.021446078 0.55882353 0.24068627
0.083333333 0.56243873 0.23137255
0.16519608 0.56666667 0.21764706
0.253125 0.57647059 0.20343137
0.34411765 0.58284314 0.18480392
0.42996324 0.59313725 0.15729167
0.5125 0.60343137 0.12818627
0.58229167 0.61366422 0.10392157
0.64068627 0.61973039 0.087254902
0.69234069 0.625 0.060784314
0.74754902 0.62941176 0.025490196
0.79117647 0.62959559 0.0047181373
0.82303922 0.61715686 0.0089460784
0.86078431 0.60343137 0.0074142157
0.89803922 0.58872549 0.0034313725
0.93829657 0.5745098 0.003002451
0.97598039 0.56029412 0
0.99558824 0.55392157 0.00018382353
0.99558824 0.55147059 0.00049019608
0.0078431373 0.60098039 0.27156863
0.0072303922 0.60036765 0.27156863
0.0039215686 0.6 0.26862745
0.0039215686 0.59607843 0.26862745
0.006372549 0.59607843 0.26862745
0.013357843 0.59571078 0.26862745
0.049264706 0.59607843 0.26789216
0.1122549 0.59705882 0.26262255
0.18137255 0.60098039 0.25490196
0.25539216 0.60845588 0.24460784
0.33039216 0.61372549 0.23014706
0.40980392 0.62401961 0.21176471
0.49019608 0.63284314 0.18333333
0.55490196 0.64031863 0.16568627
0.60980392 0.64730392 0.14828431
0.66519608 0.65343137 0.12205882
0.72058824 0.66078431 0.087254902
0.77144608 0.66703431 0.063848039
0.81446078 0.6627451 0.036029412
0.85698529 0.65833333 0.0017156863
0.89313725 0.64215686 0
0.92806373 0.62598039 0.0029411765
0.96568627 0.61495098 0.0031862745
0.98529412 0.60539216 0.0039215686
0.98529412 0.60294118 0.0068627451
0.0078431373 0.6372549 0.29705882
0.0087622549 0.6372549 0.29705882
0.0039215686 0.6372549 0.29313725
0.0039215686 0.63578431 0.29313725
0.0046568627 0.63333333 0.29313725
0.026654412 0.63333333 0.29442402
0.09129902 0.63333333 0.29313725
0.16035539 0.63333333 0.29068627
0.22303922 0.63578431 0.28676471
0.27996324 0.64215686 0.27738971
0.33541667 0.64754902 0.26764706
0.39546569 0.65147059 0.25735294
0.46617647 0.65980392 0.23676471
0.5254902 0.66617647 0.22401961
0.58431373 0.67291667 0.21041667
0.63970588 0.67892157 0.19411765
0.69509804 0.68676471 0.16960784
0.74901961 0.69705882 0.14411765
0.79644608 0.69791667 0.11495098
0.84215686 0.69724265 0.054901961
0.88284314 0.69019608 0.033088235
0.91764706 0.67745098 0.031372549
0.95245098 0.66715686 0.0056372549
0.97401961 0.65778186 0.0063112745
0.98039216 0.65294118 0.006372549
0.0078431373 0.67058824 0.31764706
0.011764706 0.67058824 0.32156863
0.0068627451 0.6745098 0.31764706
0 0.67107843 0.31372549
0.029411765 0.67058824 0.31764706
0.084803922 0.66666667 0.32156863
0.14607843 0.66666667 0.32156863
0.21666667 0.66666667 0.32156863
0.2745098 0.67058824 0.31764706
0.32598039 0.6745098 0.31127451
0.37254902 0.67941176 0.30490196
0.41764706 0.68235294 0.29460784
0.45490196 0.68627451 0.28823529
0.50882353 0.69411765 0.27794118
0.56764706 0.69803922 0.26764706
0.61911765 0.70343137 0.25588235
0.6745098 0.70980392 0.23529412
0.72598039 0.72009804 0.21078431
0.77254902 0.7254902 0.18921569
0.81764706 0.72205882 0.14754902
0.8627451 0.72156863 0.11960784
0.90784314 0.72156863 0.10539216
0.94509804 0.71470588 0.075490196
0.9745098 0.70294118 0.02254902
0.98431373 0.69803922 0
0.0078431373 0.70539216 0.34215686
0.056985294 0.70539216 0.34797794
0.077573529 0.70539216 0.34816176
0.084313725 0.70539216 0.34705882
0.12279412 0.70343137 0.35171569
0.1627451 0.70147059 0.35459559
0.20759804 0.70036765 0.35245098
0.26966912 0.70147059 0.35245098
0.31960784 0.70539216 0.34852941
0.36617647 0.70539216 0.35128676
0.40490196 0.70747549 0.34313725
0.44215686 0.70931373 0.33952206
0.47352941 0.71397059 0.33333333
0.5122549 0.72107843 0.32696078
0.56372549 0.72610294 0.31666667
0.60643382 0.73039216 0.30882353
0.65 0.73431373 0.29705882
0.70147059 0.74068627 0.275
0.74840686 0.74705882 0.25833333
0.79313725 0.75 0.23069853
0.84019608 0.75122549 0.20784314
0.89117647 0.75655637 0.19166667
0.93517157 0.7567402 0.16936275
0.96182598 0.74503676 0.12395833
0.97794118 0.73529412 0.095098039
0.16960784 0.7372549 0.38529412
0.19178922 0.74019608 0.38823529
0.20098039 0.73627451 0.38823529
0.21507353 0.73982843 0.38823529
0.23970588 0.73676471 0.38970588
0.25784314 0.73235294 0.39166667
0.28137255 0.73235294 0.38823529
0.31237745 0.73235294 0.38639706
0.35196078 0.73235294 0.38823529
0.39031863 0.73235294 0.38823529
0.42843137 0.73529412 0.38823529
0.45931373 0.73615196 0.38443627
0.48970588 0.74166667 0.37843137
0.52009804 0.74754902 0.37218137
0.55686275 0.75416667 0.36568627
0.59705882 0.75588235 0.35637255
0.63823529 0.75980392 0.35
0.68125 0.76519608 0.33676471
0.7252451 0.77083333 0.32254902
0.77205882 0.77536765 0.3057598
0.81960784 0.77892157 0.28578431
0.87107843 0.78247549 0.26997549
0.91960784 0.78553922 0.25269608
0.95134804 0.78284314 0.22830882
0.97254902 0.77647059 0.20196078
0.275 0.76715686 0.42941176
0.27794118 0.76734069 0.42941176
0.28517157 0.76715686 0.42941176
0.29846814 0.76715686 0.43241422
0.30882353 0.76715686 0.43308824
0.32303922 0.76323529 0.43333333
0.34411765 0.76323529 0.43284314
0.36488971 0.75980392 0.43333333
0.39019608 0.75980392 0.43333333
0.42107843 0.75931373 0.43333333
0.45159314 0.75943627 0.43333333
0.47947304 0.76280637 0.42984069
0.50857843 0.76740196 0.42328431
0.5377451 0.77205882 0.41758578
0.56482843 0.77843137 0.41715686
0.59754902 0.78284314 0.41127451
0.63529412 0.78676471 0.40490196
0.67616422 0.79068627 0.39479167
0.71470588 0.79473039 0.38345588
0.75882353 0.79895833 0.37009804
0.80073529 0.80465686 0.3629902
0.8504902 0.80729167 0.34810049
0.89901961 0.81335784 0.33431373
0.94001225 0.81813725 0.31991422
0.96862745 0.81764706 0.30490196
0.34705882 0.79411765 0.47647059
0.35098039 0.79411765 0.47647059
0.35588235 0.79411765 0.47647059
0.36421569 0.79411765 0.47818627
0.37058824 0.79313725 0.47843137
0.38504902 0.79019608 0.47867647
0.40245098 0.79019608 0.48039216
0.42181373 0.79019608 0.48235294
0.44117647 0.79019608 0.48431373
0.46372549 0.78897059 0.48112745
0.48872549 0.78823529 0.48039216
0.51078431 0.78823529 0.48039216
0.53235294 0.79117647 0.4745098
0.55784314 0.79607843 0.46862745
0.58235294 0.80147059 0.46862745
0.60759804 0.80857843 0.46789216
0.64117647 0.81372549 0.4627451
0.68112745 0.81691176 0.45367647
0.72352941 0.82009804 0.44460784
0.75931373 0.8252451 0.43578431
0.79215686 0.82843137 0.43039216
0.83921569 0.83357843 0.41887255
0.88431373 0.83872549 0.40686275
0.92745098 0.84656863 0.4004902
0.96078431 0.85294118 0.39607843
0.42696078 0.825 0.52843137
0.42959559 0.825 0.52843137
0.43088235 0.825 0.52794118
0.43088235 0.82150735 0.5245098
0.43480392 0.82107843 0.52401961
0.44705882 0.82107843 0.52401961
0.46372549 0.82107843 0.52745098
0.47892157 0.81930147 0.52794118
0.49656863 0.81715686 0.53186275
0.51292892 0.81715686 0.53186275
0.52585784 0.81715686 0.52794118
0.54215686 0.81715686 0.52794118
0.56053922 0.81887255 0.52794118
0.58627451 0.82457108 0.52444853
0.60723039 0.82794118 0.52401961
0.63186275 0.8341299 0.52420343
0.65980392 0.84019608 0.5245098
0.69313725 0.84283088 0.51685049
0.73272059 0.84803922 0.50784314
0.76023284 0.84852941 0.50104167
0.79019608 0.85245098 0.49338235
0.82892157 0.85680147 0.48529412
0.87009804 0.86409314 0.47794118
0.91078431 0.87175245 0.47254902
0.94019608 0.8754902 0.47009804
0.50294118 0.85588235 0.59019608
0.50294118 0.85588235 0.58835784
0.50294118 0.85269608 0.58553922
0.50294118 0.85196078 0.57977941
0.50392157 0.85196078 0.57647059
0.51139706 0.85196078 0.57463235
0.52254902 0.8497549 0.57769608
0.53676471 0.84803922 0.57879902
0.55098039 0.84803922 0.58235294
0.5622549 0.84803922 0.58333333
0.57254902 0.84803922 0.57941176
0.58370098 0.84803922 0.57941176
0.59754902 0.84803922 0.57941176
0.61372549 0.85208333 0.58235294
0.6372549 0.85514706 0.57941176
0.66029412 0.86017157 0.58051471
0.6872549 0.86470588 0.58333333
0.71127451 0.87046569 0.57990196
0.74534314 0.8754902 0.57254902
0.77303922 0.87634804 0.56323529
0.79852941 0.87941176 0.55686275
0.82414216 0.88345588 0.55098039
0.8627451 0.89019608 0.54779412
0.90183824 0.89656863 0.54276961
0.91960784 0.9 0.54215686
0.56960784 0.88284314 0.64509804
0.56960784 0.88284314 0.64411765
0.56813725 0.88284314 0.63872549
0.56960784 0.88284314 0.63872549
0.57352941 0.88284314 0.63872549
0.57794118 0.88284314 0.63841912
0.58823529 0.87990196 0.63627451
0.59460784 0.87892157 0.63719363
0.60343137 0.87745098 0.63872549
0.61372549 0.87653186 0.63872549
0.62401961 0.87781863 0.64019608
0.63431373 0.87892157 0.64019608
0.64852941 0.87892157 0.64289216
0.66145833 0.88284314 0.64411765
0.67879902 0.88284314 0.64227941
0.69693627 0.88676471 0.64019608
0.71813725 0.89068627 0.64019608
0.73872549 0.89797794 0.64019608
0.7627451 0.90245098 0.63566176
0.79019608 0.90637255 0.62892157
0.81323529 0.90637255 0.62058824
0.8377451 0.91060049 0.61666667
0.86519608 0.91715686 0.61666667
0.89650735 0.92297794 0.61421569
0.9004902 0.9245098 0.6127451
0.61568627 0.90588235 0.68627451
0.61568627 0.90588235 0.68627451
0.61568627 0.90490196 0.67843137
0.61911765 0.90588235 0.67843137
0.62941176 0.90980392 0.68823529
0.63529412 0.90980392 0.68970588
0.63529412 0.90588235 0.68235294
0.63921569 0.90196078 0.68235294
0.64705882 0.90196078 0.68235294
0.65343137 0.9004902 0.68235294
0.66372549 0.90196078 0.68627451
0.67401961 0.90196078 0.68970588
0.69019608 0.90588235 0.69607843
0.70980392 0.91323529 0.70882353
0.71666667 0.90980392 0.69509804
0.72843137 0.90980392 0.68872549
0.74509804 0.91372549 0.68627451
0.76176471 0.92009804 0.68872549
0.78627451 0.93039216 0.69509804
0.80343137 0.92990196 0.68333333
0.82352941 0.93137255 0.6745098
0.84803922 0.93382353 0.67058824
0.87156863 0.94117647 0.6745098
0.88627451 0.94509804 0.6745098
0.88627451 0.94117647 0.67058824
0.023529412 0.045588235 0.062254902
0.041115196 0.049509804 0.06372549
0.062867647 0.054901961 0.067647059
0.086764706 0.058823529 0.067647059
0.11446078 0.058823529 0.06372549
0.14295343 0.056188725 0.059313725
0.18578431 0.049509804 0.051470588
0.24411765 0.05 0.045036765
0.30343137 0.053921569 0.040196078
0.36525735 0.073345588 0.03627451
0.42401961 0.077573529 0.030269608
0.48204657 0.056862745 0.028431373
0.54240196 0.060294118 0.019852941
0.59901961 0.061764706 0.014215686
0.65894608 0.066176471 0.014215686
0.71715686 0.071078431 0.010294118
0.75833333 0.076470588 0.010294118
0.78921569 0.085294118 0.010294118
0.82463235 0.098651961 0.0074754902
0.85735294 0.10931373 0.0039215686
0.89215686 0.11838235 0.0039215686
0.91470588 0.13167892 0.0039215686
0.93529412 0.15098039 0.0039215686
0.95980392 0.17156863 0.0039215686
0.97647059 0.18431373 0.0039215686
0.031127451 0.057414216 0.067708333
0.04230239 0.060033701 0.068282782
0.060401348 0.06450674 0.067647059
0.082728248 0.069806985 0.066842831
0.11023284 0.070036765 0.0625
0.14306832 0.069232537 0.057912071
0.18817402 0.073039216 0.051087623
0.2469133 0.072120098 0.04285386
0.30588235 0.072120098 0.038664216
0.36695772 0.086948529 0.033249081
0.42863051 0.087867647 0.028201593
0.48970588 0.079220282 0.024816176
0.55223652 0.083792892 0.015625
0.60931373 0.084995404 0.011098346
0.66421569 0.083884804 0.010294118
0.71715686 0.080859375 0.010294118
0.7598652 0.085355392 0.010294118
0.79446232 0.10032169 0.0065793505
0.82823223 0.11392463 0.0039215686
0.86127451 0.12212776 0.0039215686
0.89215686 0.13308824 0.0039215686
0.91862745 0.14675245 0.0039215686
0.94036458 0.16409314 0.0039215686
0.96133578 0.18431373 0.0039215686
0.97647059 0.19852941 0.0039215686
0.015686275 0.06372549 0.067647059
0.033455882 0.070695466 0.065977328
0.054503676 0.078033088 0.065104167
0.076792279 0.083103554 0.061902574
0.10343137 0.085416667 0.058272059
0.14453125 0.08872549 0.053523284
0.19546569 0.096568627 0.048223039
0.25196078 0.099770221 0.040977328
0.31078431 0.10245098 0.033455882
0.37254902 0.10598958 0.035033701
