site/assets/luts/natron-haldclut--fuji-provia-100f--d7f6ecd63.cube
# LUTr-Project: LUTr — LUTrepository
# LUTr-Schema-Version: 1
# LUTr-ID: natron-haldclut--fuji-provia-100f--d7f6ecd63
# LUTr-Title: fuji provia 100f
# LUTr-Collection: Natron HaldCLUT
# LUTr-Collection-ID: natron-haldclut-presets
# LUTr-Source: https://github.com/NatronGitHub/clut
# LUTr-Source-File: submissions/natron-haldclut-presets/colorslide/fuji_provia_100f.png
# LUTr-Source-Format: PNG
# LUTr-Source-SHA256: f77063246c8f98860378b9c997df5cc567b11182036265267821c2088167214d
# LUTr-License: CC-BY-SA-4.0
# LUTr-License-URL: https://github.com/NatronGitHub/clut#license
# LUTr-Tags: creative, film, film-emulation, hald-clut, natron, png, cube
# LUTr-Transform-Class: film-emulation
# LUTr-Input-Color-Space: srgb
# LUTr-Output-Color-Space: srgb
# LUTr-Color-Space-Confidence: assumed-display-referred
# LUTr-Conversion-Method: PNG LUT image decoded at 16-bit and sampled to 25x25x25 3D CUBE
# LUTr-Conversion-Date: 2026-07-27
# LUTr-Conversion-Tool: LUTr scripts/convert-all-to-cube.mjs
# LUTr-Conversion-Grid: 25x25x25
# LUTr-Note: Preserve this metadata and the upstream license notices when redistributing.
TITLE "fuji provia 100f"
LUT_3D_SIZE 5
DOMAIN_MIN 0 0 0
DOMAIN_MAX 1 1 1
0.02745098 0.062745098 0.019607843
0.23137255 0.016666667 0.021568627
0.50784314 0.033333333 0.0078431373
0.82843137 0.030392157 0.0039215686
0.99607843 0.0078431373 0
0.074509804 0.23921569 0.12058824
0.25171569 0.23308824 0.12647059
0.51715686 0.22745098 0.1
0.83235294 0.20294118 0.06372549
1 0.17647059 0.014705882
0.11960784 0.51176471 0.24705882
0.27892157 0.51176471 0.24558824
0.53627451 0.50980392 0.23431373
0.84803922 0.49607843 0.20147059
1 0.47254902 0.11764706
0.22941176 0.80490196 0.42647059
0.35514706 0.80392157 0.41470588
0.58529412 0.80490196 0.39901961
0.85661765 0.80098039 0.36666667
0.99705882 0.78921569 0.3127451
0.56862745 0.99607843 0.61176471
0.60588235 0.99117647 0.59607843
0.74313725 0.99215686 0.58823529
0.9245098 0.98823529 0.53921569
1 0.99607843 0.52941176
0.0088235294 0.0088235294 0.11960784
0.19313725 0.011764706 0.11176471
0.47352941 0.006372549 0.083333333
0.80588235 0.0036764706 0.042156863
0.99215686 0.0078431373 0.034313725
0.065931373 0.21960784 0.22671569
0.21531863 0.21960784 0.21960784
0.48517157 0.20159314 0.20539216
0.81372549 0.18302696 0.15661765
1 0.13602941 0.080147059
0.06372549 0.50441176 0.34705882
0.24215686 0.49607843 0.33590686
0.51715686 0.49632353 0.32377451
0.82843137 0.48357843 0.28762255
0.99803922 0.45294118 0.23823529
0.19215686 0.80098039 0.49044118
0.32077206 0.8 0.4872549
0.57254902 0.79914216 0.46605392
0.84730392 0.8 0.45098039
0.99607843 0.79313725 0.42769608
0.55784314 0.99607843 0.66568627
0.6 0.99607843 0.66102941
0.73137255 0.99215686 0.64901961
0.91176471 0.9879902 0.62058824
0.99509804 0.98823529 0.60980392
0.0019607843 0 0.28039216
0.13431373 0.0039215686 0.25098039
0.42745098 0.0039215686 0.24313725
0.76617647 0.0039215686 0.21127451
0.99607843 0 0.18039216
0.032352941 0.18823529 0.36519608
0.16703431 0.18198529 0.35931373
0.4504902 0.16519608 0.34877451
0.78186275 0.13823529 0.32058824
0.99607843 0.11372549 0.28235294
0.019607843 0.47647059 0.48627451
0.15955882 0.47965686 0.48186275
0.47107843 0.47205882 0.47843137
0.79019608 0.45955882 0.45294118
1 0.44803922 0.4254902
0.032843137 0.78921569 0.62009804
0.22512255 0.78872549 0.62120098
0.51593137 0.78333333 0.61764706
0.80502451 0.78284314 0.59803922
0.99607843 0.77058824 0.56568627
0.48823529 0.98823529 0.76666667
0.54558824 0.98823529 0.76323529
0.67843137 0.9754902 0.74803922
0.90245098 0.99509804 0.75588235
0.99607843 0.98823529 0.70784314
0.0039215686 0.016666667 0.46568627
0.067892157 0.0039215686 0.43333333
0.36176471 0 0.4127451
0.71078431 0.0029411765 0.40220588
0.98921569 0 0.3754902
0.018627451 0.12352941 0.52647059
0.10526961 0.12377451 0.52941176
0.38897059 0.10637255 0.52598039
0.72469363 0.072181373 0.49509804
0.99117647 0.031372549 0.46053922
0.0058823529 0.44215686 0.65
0.061397059 0.43872549 0.64522059
0.41862745 0.43431373 0.64166667
0.74117647 0.41470588 0.62757353
0.99607843 0.3872549 0.59901961
0.0088235294 0.76789216 0.77720588
0.067892157 0.76568627 0.77095588
0.45441176 0.76139706 0.76715686
0.76078431 0.75741422 0.76078431
0.98529412 0.74117647 0.74215686
0.43137255 0.99215686 0.9
0.50073529 0.99534314 0.90392157
0.62352941 0.98186275 0.89019608
0.85588235 0.99019608 0.88921569
0.97745098 0.97352941 0.86568627
0 0 0.61176471
0.011764706 0 0.60392157
0.28627451 0 0.60392157
0.65294118 0 0.5872549
0.97647059 0 0.54509804
0 0.057843137 0.67254902
0.05 0.051960784 0.67058824
0.31176471 0.024509804 0.67843137
0.65906863 0.0090686275 0.66568627
0.98039216 0.0039215686 0.61960784
0 0.39019608 0.80980392
0.014215686 0.37647059 0.7995098
0.33333333 0.3745098 0.79901961
0.69362745 0.34901961 0.77745098
0.99411765 0.31372549 0.75882353
0 0.72254902 0.92352941
0.018627451 0.73455882 0.89436275
0.3627451 0.72303922 0.90098039
0.70392157 0.71936275 0.90490196
0.96470588 0.69705882 0.88823529
0.34117647 0.99607843 0.99607843
0.40588235 0.98921569 0.98921569
0.58431373 0.98627451 0.98823529
0.80490196 0.97745098 0.98039216
0.94117647 0.98431373 0.98431373
