site/assets/luts/natron-haldclut--generic-fuji-provia-100--be7ec5e77.cube
# LUTr-Project: LUTr — LUTrepository
# LUTr-Schema-Version: 1
# LUTr-ID: natron-haldclut--generic-fuji-provia-100--be7ec5e77
# LUTr-Title: generic fuji provia 100
# LUTr-Collection: Natron HaldCLUT
# LUTr-Collection-ID: natron-haldclut-presets
# LUTr-Source: https://github.com/NatronGitHub/clut
# LUTr-Source-File: submissions/natron-haldclut-presets/colorslide/generic_fuji_provia_100.png
# LUTr-Source-Format: PNG
# LUTr-Source-SHA256: 5911964215fe0c4681f964b4edb84441aa06f290f10fbf2e554516f40c32d24a
# LUTr-License: CC-BY-SA-4.0
# LUTr-License-URL: https://github.com/NatronGitHub/clut#license
# LUTr-Tags: creative, film, film-emulation, hald-clut, natron, png, cube
# LUTr-Transform-Class: film-emulation
# LUTr-Input-Color-Space: srgb
# LUTr-Output-Color-Space: srgb
# LUTr-Color-Space-Confidence: assumed-display-referred
# LUTr-Conversion-Method: PNG LUT image decoded at 16-bit and sampled to 25x25x25 3D CUBE
# LUTr-Conversion-Date: 2026-07-27
# LUTr-Conversion-Tool: LUTr scripts/convert-all-to-cube.mjs
# LUTr-Conversion-Grid: 25x25x25
# LUTr-Note: Preserve this metadata and the upstream license notices when redistributing.
TITLE "generic fuji provia 100"
LUT_3D_SIZE 9
DOMAIN_MIN 0 0 0
DOMAIN_MAX 1 1 1
0.011764706 0.031372549 0.0039215686
0.1122549 0.016176471 0.011764706
0.24215686 0.02254902 0.026470588
0.40686275 0.013235294 0.014705882
0.59019608 0.0058823529 0.0039215686
0.75245098 0.0078431373 0.0078431373
0.89803922 0.032352941 0.011764706
1 0.0078431373 0.0044117647
0.99607843 0.015686275 0.015686275
0.05 0.096078431 0.019117647
0.10833333 0.096568627 0.023039216
0.23431373 0.1 0.043504902
0.39901961 0.10422794 0.023529412
0.57303922 0.10392157 0.011519608
0.74068627 0.1096201 0.016973039
0.89117647 0.10698529 0.0077205882
0.9995098 0.10441176 0.0074142157
0.99558824 0.11176471 0.015686275
0.040196078 0.23431373 0.026470588
0.079779412 0.22303922 0.025980392
0.21666667 0.21862745 0.02745098
0.38370098 0.21862745 0.023161765
0.55539216 0.23137255 0.025490196
0.72316176 0.22536765 0.026470588
0.8754902 0.22254902 0.031372549
0.98823529 0.22647059 0.038848039
0.99215686 0.23921569 0.028431373
0 0.38088235 0.029901961
0.018137255 0.37696078 0.056372549
0.16078431 0.37696078 0.046568627
0.3528799 0.37696078 0.043137255
0.53406863 0.37696078 0.041666667
0.69509804 0.37696078 0.048590686
0.84460784 0.37303922 0.049509804
0.96813725 0.38088235 0.033333333
0.99754902 0.38480392 0.033823529
0.0019607843 0.53137255 0.047058824
0.0078431373 0.52745098 0.060784314
0.075 0.52696078 0.057843137
0.3372549 0.53137255 0.039215686
0.51568627 0.53137255 0.067647059
0.67794118 0.53529412 0.082352941
0.81764706 0.53137255 0.073039216
0.93676471 0.53137255 0.046813725
0.99607843 0.53137255 0.056862745
0 0.66470588 0.043137255
0 0.66470588 0.043137255
0.055269608 0.66862745 0.043137255
0.30833333 0.66617647 0.043137255
0.48872549 0.66936275 0.053431373
0.65202206 0.67254902 0.056433824
0.79068627 0.67254902 0.053431373
0.91372549 0.67107843 0.04185049
0.97352941 0.66470588 0.053431373
0.0039215686 0.77647059 0.026470588
0 0.78026961 0.026470588
0.059558824 0.78431373 0.034313725
0.29901961 0.7872549 0.034313725
0.47696078 0.79362745 0.031372549
0.63051471 0.79215686 0.031372549
0.76446078 0.7879902 0.02745098
0.88333333 0.78039216 0.02745098
0.96176471 0.77941176 0.034313725
0.0039215686 0.87990196 0.0078431373
0.0039215686 0.88039216 0.0078431373
0.095955882 0.88382353 0.0078431373
0.32892157 0.88382353 0.0098039216
0.49436275 0.8877451 0.019117647
0.63333333 0.89166667 0.019117647
0.74901961 0.89301471 0.011764706
0.86072304 0.89166667 0.0077818627
0.96813725 0.89166667 0.0039215686
0.0078431373 0.95686275 0
0.0078431373 0.95686275 0
0.16568627 0.97156863 0
0.3495098 0.98186275 0.010294118
0.49607843 0.96666667 0.025490196
0.62794118 0.97401961 0.014215686
0.73627451 0.9754902 0.0039215686
0.84852941 0.96470588 0.0034313725
0.95686275 0.98431373 0
0.016176471 0.016176471 0.096568627
0.10441176 0.031372549 0.099571078
0.23688725 0.028921569 0.10392157
0.40441176 0.017830882 0.10441176
0.57647059 0.035784314 0.10392157
0.74852941 0.013541667 0.10441176
0.90637255 0.026838235 0.10441176
0.99607843 0.015686275 0.10042892
0.99607843 0.019607843 0.096568627
0.050490196 0.10349265 0.1004902
0.11574755 0.099624694 0.1004902
0.22651654 0.10032169 0.10274203
0.39512102 0.10741422 0.10441176
0.57496936 0.1004902 0.10392157
0.73682598 0.10441176 0.11149663
0.88763787 0.10784314 0.10831801
0.98432138 0.10784314 0.10429687
0.98823529 0.10833333 0.10392157
0.055514706 0.22303922 0.10441176
0.084681373 0.22254902 0.10441176
0.21176471 0.22254902 0.10441176
0.38541667 0.21591605 0.10742953
0.56170343 0.22892157 0.10067402
0.72928922 0.22205882 0.1122549
0.87625613 0.22245711 0.1122549
0.98098958 0.2347886 0.10752145
0.98823529 0.2495098 0.10441176
0.019117647 0.37481618 0.096875
0.020052083 0.37352941 0.094692096
0.15796569 0.37642463 0.097058824
0.35949755 0.37341452 0.11009498
0.54362745 0.37303922 0.10465686
0.70589001 0.37303922 0.10067402
0.845144 0.37696078 0.10441176
0.97140778 0.38635876 0.10065104
0.99607843 0.39442402 0.1004902
0.0078431373 0.52745098 0.099264706
0.0078431373 0.52352941 0.093137255
0.096507353 0.52745098 0.1
0.34852941 0.53137255 0.1122549
0.51764706 0.52941176 0.09497549
0.67598039 0.53152574 0.093627451
0.82156863 0.53137255 0.093137255
0.94411765 0.53529412 0.096629902
0.99607843 0.5372549 0.10392157
0 0.66862745 0.08560049
0.0039215686 0.66470588 0.081372549
0.093137255 0.66470588 0.081004902
0.31280637 0.66991422 0.083823529
0.49617034 0.66617647 0.087745098
0.65766697 0.67310049 0.08560049
0.79460784 0.67254902 0.085646446
0.90980392 0.67254902 0.085133272
0.98431373 0.66862745 0.087254902
0.00049019608 0.77683824 0.057230392
0.0039215686 0.78688725 0.059926471
0.03314951 0.79117647 0.057444853
0.30084252 0.78431373 0.062882966
0.47843137 0.79166667 0.079227941
0.63717831 0.7939951 0.068627451
0.77120098 0.79117647 0.064705882
0.88296569 0.7912837 0.061167279
0.97598039 0.79473039 0.064215686
0 0.87598039 0.022058824
0 0.88070619 0.014705882
0.13206189 0.88382353 0.026470588
0.32647059 0.88570006 0.02745098
0.50196078 0.8877451 0.023805147
0.63691023 0.88776808 0.045098039
0.75289522 0.89166667 0.018137255
0.86372549 0.89166667 0.02689951
0.97156863 0.89166667 0.0078431373
0.0078431373 0.95686275 0.025490196
0.0078431373 0.96035539 0.025
0.17340686 0.96078431 0.021691176
0.34803922 0.97530637 0.040379902
0.5 0.97990196 0.049509804
0.62941176 0.98192402 0.047058824
0.7372549 0.97169118 0.040686275
0.84895833 0.96127451 0.025367647
0.95735294 0.98480392 0.040196078
0.026470588 0.014705882 0.22254902
0.11875 0.012745098 0.22610294
0.24607843 0.0125 0.22352941
0.40894608 0.021078431 0.21960784
0.58823529 0.014215686 0.22352941
0.75539216 0.018627451 0.22254902
0.91470588 0.016176471 0.22254902
0.99313725 0.01997549 0.21862745
0.99607843 0.026470588 0.21470588
0.054289216 0.10012255 0.22647059
0.11654412 0.1004902 0.23039216
0.23088235 0.10134804 0.22647059
0.39528186 0.10441176 0.22254902
0.56844363 0.10441176 0.22671569
0.74068627 0.10404412 0.23529412
0.89231005 0.10428922 0.22380515
0.98480392 0.1082261 0.21481311
0.98480392 0.10833333 0.21568627
0.06372549 0.21470588 0.22156863
0.098376225 0.21862745 0.22359069
0.2091299 0.21862745 0.22647059
0.38734681 0.21651348 0.22193627
0.55882353 0.22193627 0.22647059
0.72892157 0.22693015 0.22745098
0.87647059 0.22689951 0.22254902
0.98088235 0.23823529 0.22310049
0.98431373 0.23823529 0.21960784
0.025 0.37095588 0.2189951
0.021507353 0.37303922 0.21470588
0.16645221 0.36963848 0.21973039
0.37133885 0.37696078 0.21331189
0.54460784 0.37303922 0.21954657
0.70294118 0.37303922 0.22071078
0.85088848 0.38088235 0.22647059
0.97046569 0.38872549 0.23226103
0.99215686 0.38872549 0.21568627
0.011764706 0.52745098 0.21470588
0.013051471 0.52352941 0.21470588
0.1122549 0.52426471 0.21470588
0.35 0.52745098 0.20582108
0.52254902 0.52745098 0.21911765
0.67328431 0.53137255 0.2153799
0.82254902 0.53688725 0.21960784
0.93829657 0.53921569 0.21868873
0.99607843 0.5372549 0.20686275
0.0039215686 0.67254902 0.20870098
0.0039215686 0.67254902 0.20709252
0.059068627 0.66862745 0.2073223
0.3194087 0.66862745 0.20700061
0.50245098 0.66617647 0.20753676
0.65778186 0.66747855 0.19578738
0.79543505 0.67254902 0.20122549
0.90980392 0.67254902 0.20160846
0.98615196 0.66862745 0.20686275
0.0039215686 0.78039216 0.19338235
0.0039215686 0.78789828 0.18946078
0.055943627 0.79117647 0.19491422
0.29264706 0.7872549 0.19411765
0.48431373 0.78897059 0.19411765
0.64102328 0.79117647 0.19384191
0.77156863 0.79436275 0.19136029
0.88789828 0.79224877 0.19433211
0.97622549 0.79142157 0.19877451
0.0039215686 0.88039216 0.19411765
0.0077205882 0.88382353 0.19718137
0.13180147 0.88382353 0.20101103
0.32637868 0.88382353 0.20232843
0.49479167 0.8877451 0.20232843
0.63155637 0.88788297 0.20988051
0.75291054 0.89280025 0.19718137
0.8669424 0.8877451 0.20125613
0.96678922 0.8872549 0.20502451
0.0039215686 0.95392157 0.19803922
0.0039215686 0.95784314 0.20686275
0.18529412 0.9629902 0.21372549
0.35453431 0.97046569 0.22156863
0.50392157 0.98627451 0.21372549
0.63125 0.98039216 0.21372549
0.74338235 0.98235294 0.20980392
0.85245098 0.95980392 0.21372549
0.92941176 0.96764706 0.21372549
0.053921569 0.032843137 0.38872549
0.12401961 0.0053921569 0.38872549
0.25 0.011764706 0.38370098
0.4122549 0.019607843 0.38480392
0.59607843 0.011764706 0.38480392
0.7651348 0.0083946078 0.38572304
0.91470588 0.011764706 0.38370098
0.99607843 0.012254902 0.38039216
0.99607843 0.023529412 0.37303922
0.043137255 0.090502451 0.38872549
0.11027114 0.0942019 0.38876379
0.23762255 0.10044424 0.3872549
0.3991345 0.10343903 0.38180147
0.5747549 0.1004902 0.37726716
0.74509804 0.10403646 0.37941176
0.89938725 0.1042739 0.37991728
0.98823529 0.10655637 0.37630974
0.98823529 0.10833333 0.36911765
0.054901961 0.21752451 0.37794118
0.10085784 0.2192402 0.38088235
0.22389706 0.2192402 0.38443627
0.38910846 0.22329963 0.38480392
0.56023284 0.22199755 0.38357843
0.73359375 0.22745098 0.38595282
0.88394608 0.22270221 0.38088235
0.98431373 0.23039216 0.37647059
0.98823529 0.23823529 0.3685049
0.0068627451 0.37696078 0.37941176
0.019607843 0.37303922 0.37696078
0.18036152 0.36911765 0.37696078
0.37753523 0.37399663 0.37941176
0.54387255 0.37380515 0.38042279
0.70931373 0.374303 0.38235294
0.85637255 0.38088235 0.37806373
0.98596048 0.38480392 0.38216912
0.99607843 0.38872549 0.37303922
0.0066176471 0.5254902 0.37426471
0.0046568627 0.52221201 0.37803309
0.13094363 0.52647059 0.37757353
0.34852941 0.53091299 0.37941176
0.52610294 0.52941176 0.37696078
0.67674632 0.52791054 0.36911765
0.82886029 0.53241422 0.37647059
0.94108456 0.53921569 0.37588848
1 0.53921569 0.38088235
0.0054534314 0.67009804 0.37457108
0.015747549 0.66917892 0.37696078
0.062561275 0.67009804 0.37734375
0.32303922 0.66862745 0.37457108
0.50637255 0.66862745 0.37594975
0.65778186 0.6622549 0.3754902
0.80231311 0.66614583 0.37941176
0.91856618 0.67009804 0.36930913
0.99160539 0.67254902 0.37696078
0.011764706 0.7872549 0.36519608
0.015686275 0.79094669 0.36519608
0.053829657 0.79117647 0.37230392
0.3004902 0.78434436 0.37585784
0.49430147 0.78333333 0.37585784
0.64264706 0.78284314 0.37696078
0.76764706 0.78823529 0.37487745
0.8872549 0.79203431 0.36996017
0.98223039 0.78970588 0.37365196
0.011764706 0.87971814 0.36127451
0.011764706 0.87990196 0.3678079
0.13627451 0.87990196 0.37954963
0.34754902 0.88529412 0.38088235
0.4963848 0.88471201 0.38480392
0.63658854 0.89166667 0.38088235
0.75281863 0.89558824 0.38351716
0.86856618 0.8877451 0.38351716
0.95373775 0.8877451 0.38137255
0.015686275 0.95539216 0.35343137
0.044914216 0.94754902 0.36470588
0.20085784 0.96875 0.38382353
0.36035539 0.95349265 0.39264706
0.50906863 0.97573529 0.38088235
0.63578431 0.9848652 0.38480392
0.74411765 0.97855392 0.38872549
0.85275735 0.98431373 0.39264706
0.92794118 0.98823529 0.39264706
0.0078431373 0.0019607843 0.54313725
0.12769608 0.011764706 0.54509804
0.2495098 0.0093137255 0.54460784
0.42132353 0.017647059 0.55098039
0.60294118 0.0078431373 0.54705882
0.7629902 0.015686275 0.53921569
0.92401961 0.0058823529 0.54509804
0.99607843 0.04877451 0.53872549
0.99607843 0.021568627 0.53529412
0.075490196 0.092647059 0.54705882
0.11639093 0.09653799 0.54313725
0.23958333 0.10367647 0.54338235
0.40579044 0.10284926 0.54338235
0.58627451 0.096691176 0.54117647
0.7463848 0.10441176 0.53529412
0.90343137 0.11176471 0.53939951
0.99607843 0.11179534 0.53180147
0.99607843 0.1120098 0.52745098
0.054411765 0.22647059 0.53921569
0.07935049 0.225 0.53535539
0.22904412 0.22254902 0.53529412
0.3932598 0.22444853 0.53921569
0.57107843 0.22647059 0.54191176
0.73713235 0.22665441 0.53921569
0.88370098 0.22904412 0.53247549
0.98872549 0.23137255 0.52696078
0.99607843 0.22892157 0.52352941
0.012009804 0.375 0.53137255
0.016176471 0.36911765 0.53137255
0.18229167 0.37303922 0.53137255
0.38088235 0.37696078 0.53697917
0.55723039 0.37696078 0.54411765
0.72181373 0.37892157 0.54090074
0.85637255 0.38088235 0.53057598
0.98137255 0.38480392 0.52352941
0.99215686 0.3879902 0.52083333
0.0078431373 0.5254902 0.53333333
0.0039215686 0.52745098 0.53137255
0.13357843 0.53112745 0.53137255
0.34656863 0.53370098 0.53198529
0.5372549 0.53039216 0.53529412
0.68835784 0.52843137 0.53529412
0.82598039 0.53259804 0.53137255
0.95281863 0.53639706 0.52745098
0.99607843 0.53921569 0.52745098
0.0078431373 0.67132353 0.53455882
0.0078431373 0.66862745 0.53137255
0.10741422 0.66862745 0.52745098
0.32576593 0.66862745 0.52429534
0.51458333 0.66544118 0.53063725
0.67012868 0.66617647 0.52895221
0.80392157 0.66617647 0.53014706
0.9254902 0.67386642 0.52852328
0.99607843 0.67647059 0.52671569
0.0088235294 0.79117647 0.525
0.0088235294 0.7872549 0.5252451
0.063848039 0.79117647 0.52745098
0.31384804 0.78351716 0.52745098
0.49803922 0.78333333 0.52794118
0.65349265 0.79117647 0.52745098
0.77781863 0.79215686 0.52769608
0.89466912 0.79552696 0.53112745
0.98382353 0.79362745 0.52401961
0.019607843 0.88602941 0.52352941
0.017677696 0.88382353 0.52916667
0.15042892 0.88088235 0.53137255
0.34926471 0.87990196 0.53529412
0.50526961 0.88382353 0.53333333
0.64739583 0.8877451 0.53137255
0.7625 0.89166667 0.53333333
0.87401961 0.8879902 0.53529412
0.97107843 0.8877451 0.53161765
0.025490196 0.97843137 0.52352941
0.069362745 0.97867647 0.52745098
0.20980392 0.95882353 0.53137255
0.37573529 0.95882353 0.53333333
0.51764706 0.97647059 0.53039216
0.64436275 0.97622549 0.52745098
0.75441176 0.95833333 0.53137255
0.85686275 0.9747549 0.53553922
0.9627451 0.98431373 0.5372549
0.020588235 0.0088235294 0.68578431
0.13137255 0.018627451 0.68039216
0.2557598 0.0072303922 0.68762255
0.43431373 0.015686275 0.68970588
0.60465686 0.011029412 0.68823529
0.7627451 0.028063725 0.68523284
0.92254902 0.014705882 0.68615196
0.99607843 0.039031863 0.67990196
1 0.011764706 0.68284314
0.081372549 0.097855392 0.68431373
0.12009804 0.092915135 0.68404565
0.24554228 0.099877451 0.68445159
0.41574755 0.1004902 0.68823529
0.59053309 0.10033701 0.68201593
0.75323223 0.10569853 0.68186275
0.90992647 0.10833333 0.68435968
0.99607843 0.10833333 0.68186275
0.99607843 0.10833333 0.67254902
0.069117647 0.22254902 0.68039216
0.10251225 0.21875 0.67683824
0.2231924 0.22647059 0.67647059
0.40140931 0.225 0.68186275
0.57665441 0.22254902 0.67720588
0.74474571 0.22647059 0.68039216
0.89117647 0.23039216 0.67766544
0.9908701 0.232981 0.67308517
0.99607843 0.21960784 0.66862745
0.027941176 0.3661152 0.67401961
0.032169118 0.36519608 0.67254902
0.1754902 0.37912071 0.67254902
0.3803079 0.38480392 0.67738971
0.56449142 0.37303922 0.68039216
0.725 0.38480392 0.67947304
0.8605239 0.38480392 0.6705576
0.975 0.37629442 0.66470588
0.98823529 0.36856618 0.66078431
0.0078431373 0.52941176 0.68039216
0.0078431373 0.52745098 0.68039216
0.12426471 0.52910539 0.67647059
0.36176471 0.53287377 0.67478554
0.53921569 0.53014706 0.67647059
0.69289216 0.53406863 0.67647059
0.83333333 0.53333333 0.66862745
0.95245098 0.53244485 0.66470588
0.99411765 0.52598039 0.66470588
0.0048406863 0.67254902 0.67647059
0.0086473652 0.66862745 0.67254902
0.12892157 0.66470588 0.66862745
0.33927696 0.66560202 0.6692019
0.52037377 0.66317402 0.67601103
0.67647059 0.66862745 0.67254902
0.81029412 0.66824449 0.67101716
0.92156863 0.67009804 0.66929381
0.99215686 0.66862745 0.66378676
0.0078431373 0.78578431 0.67365196
0.0078431373 0.79007353 0.67365196
0.10260417 0.78979779 0.66862745
0.33065257 0.78333333 0.66862745
0.50416667 0.78431373 0.66917892
0.66058517 0.78615196 0.66576287
0.79117647 0.78615196 0.67254902
0.90245098 0.79509804 0.66862745
0.98431373 0.78541667 0.66078431
0.0039215686 0.87843137 0.67254902
0.020304841 0.88382353 0.67009804
0.17941176 0.88560049 0.66862745
0.36568627 0.88382353 0.66991422
0.51577819 0.88382353 0.66847426
0.64901961 0.8841299 0.66862745
0.77397365 0.88909314 0.67254902
0.88537837 0.89166667 0.6720818
0.98039216 0.88823529 0.66470588
0.0024509804 0.97647059 0.67401961
0.076470588 0.96746324 0.66648284
0.22794118 0.975 0.67009804
0.37996324 0.9588848 0.67101716
0.52426471 0.97181373 0.66470588
0.65294118 0.97892157 0.66862745
0.76764706 0.95159314 0.6689951
0.86029412 0.98480392 0.67254902
0.97794118 0.96568627 0.67009804
0.075490196 0.052941176 0.8
0.14264706 0.022916667 0.80784314
0.26176471 0.013970588 0.81470588
0.43321078 0.022181373 0.81078431
0.61568627 0.014705882 0.80539216
0.77414216 0.020833333 0.80686275
0.92622549 0.015686275 0.80392157
0.99656863 0.014705882 0.80392157
1 0.015686275 0.79901961
0.076470588 0.10833333 0.80392157
0.12519914 0.096139706 0.80390625
0.26176471 0.10343137 0.80698529
0.42424939 0.10441176 0.80686275
0.60220588 0.10796569 0.80931373
0.76479779 0.10833333 0.80359988
0.91507353 0.10824142 0.80297181
0.99215686 0.10784314 0.80294118
0.99215686 0.10833333 0.79607843
0.075245098 0.22916667 0.80392157
0.10441176 0.22573529 0.80392157
0.23884804 0.22647059 0.80392157
0.41550245 0.22971814 0.80686275
0.58639706 0.22463235 0.80392157
0.7495098 0.22977941 0.80294118
0.89473039 0.22647059 0.79926471
0.98345588 0.22352941 0.79558824
0.98431373 0.22352941 0.78823529
0.038848039 0.36911765 0.80392157
0.0060508578 0.3761489 0.80511642
0.19332108 0.38480392 0.8015625
0.39362745 0.38051471 0.80330882
0.57401961 0.37696078 0.80502451
0.72647059 0.38267463 0.80183824
0.8643076 0.38088235 0.79607843
0.97745098 0.37365196 0.792019
0.99215686 0.37303922 0.78823529
0.0058823529 0.52303922 0.8
0.0073529412 0.52352941 0.79607843
0.15 0.53088235 0.79289216
0.36905637 0.53425245 0.79215686
0.54264706 0.53529412 0.79681373
0.69877451 0.53498775 0.79791667
0.84215686 0.53639706 0.8
0.95637255 0.52990196 0.79601716
0.99607843 0.52352941 0.78823529
0.0039215686 0.66862745 0.79607843
0.0087009804 0.66862745 0.79509804
0.10952819 0.66862745 0.79509804
0.34748775 0.66862745 0.79607843
0.51813725 0.67254902 0.79901961
0.68039216 0.66862745 0.795481
0.81887255 0.67156863 0.7939951
0.9254902 0.67254902 0.79157475
0.99215686 0.67254902 0.78786765
0.0078431373 0.78039216 0.79117647
0.0039215686 0.78397672 0.79108456
0.12383578 0.79117647 0.79381127
0.33088235 0.79117647 0.79571078
0.50637255 0.78823529 0.79436275
0.66617647 0.78504902 0.79136029
0.79509804 0.7872549 0.79215686
0.90269608 0.79509804 0.78495711
0.98357843 0.79607843 0.78039216
0.0039215686 0.87610294 0.7872549
0.035079657 0.88382353 0.78333333
0.17974877 0.88382353 0.7872549
0.37357537 0.88382353 0.79215686
0.52352941 0.88792892 0.79172794
0.66556373 0.8877451 0.78837316
0.78026961 0.8877451 0.79191176
0.88258272 0.89558824 0.79203431
0.97647059 0.89166667 0.78333333
0.032352941 0.9745098 0.78823529
0.10147059 0.97205882 0.7872549
0.24534314 0.98039216 0.79044118
0.39019608 0.97794118 0.78933824
0.53137255 0.98137255 0.79215686
0.6557598 0.97977941 0.79117647
0.76397059 0.9754902 0.79117647
0.86470588 0.98639706 0.79117647
0.98039216 0.97745098 0.7872549
0.019607843 0.0039215686 0.91127451
0.13529412 0.019607843 0.91078431
0.26960784 0.013112745 0.90821078
0.43057598 0.025490196 0.90735294
0.61176471 0.034803922 0.90343137
0.78400735 0.014215686 0.90471814
0.93198529 0.0079656863 0.90821078
0.99564951 0.015686275 0.90692402
0.99558824 0.019607843 0.90392157
0.058333333 0.10392157 0.90735294
0.12875306 0.092647059 0.91078431
0.26181066 0.099509804 0.90863971
0.42432598 0.10827206 0.90675551
0.60045956 0.11155025 0.90735294
0.77205882 0.10833333 0.90343137
0.91856618 0.10827206 0.90343137
0.98517923 0.10784314 0.90343137
0.98823529 0.11182598 0.90343137
0.063602941 0.22340686 0.90343137
0.10778186 0.2182598 0.90735294
0.25392157 0.22542892 0.90735294
0.42254902 0.23431373 0.90735294
0.59264706 0.22647059 0.90735294
0.75343137 0.23039216 0.90638787
0.8997549 0.22647059 0.90269608
0.9879136 0.22357537 0.90343137
0.98823529 0.22745098 0.8995098
0.026286765 0.36256127 0.90196078
0.015686275 0.36519608 0.90343137
0.20850184 0.37303922 0.90343137
0.40140931 0.38088235 0.90343137
0.57205882 0.37696078 0.90343137
0.73450521 0.37744332 0.9006204
0.87254902 0.37696078 0.89558824
0.97722886 0.37696078 0.89558824
0.99215686 0.37696078 0.8973652
0.0078431373 0.51593137 0.8995098
0.015196078 0.52352941 0.8995098
0.16145833 0.52696078 0.89558824
0.38030025 0.53137255 0.8995098
0.5432598 0.53333333 0.8995098
0.70382966 0.53137255 0.89558824
0.84901961 0.53137255 0.8995098
0.96029412 0.53458946 0.89751838
0.98823529 0.53137255 0.89191176
0.0078431373 0.6622549 0.89589461
0.0041896446 0.66617647 0.89166667
0.1377451 0.66862745 0.89166667
0.34920343 0.66862745 0.89558824
0.52098652 0.66991422 0.8995098
0.68039216 0.67254902 0.8917356
0.82205882 0.66862745 0.89558824
0.92677696 0.67289369 0.89558824
0.99166667 0.67665441 0.89558824
0.0078431373 0.7754902 0.89166667
0.015471814 0.78688725 0.89080882
0.11470588 0.79117647 0.89166667
0.34031863 0.7872549 0.89558824
0.51703431 0.78817402 0.89583333
0.6740962 0.7872549 0.89558824
0.79828431 0.7872549 0.89558824
0.90637255 0.79117647 0.89166667
0.98431373 0.79509804 0.89558824
0.0088235294 0.87604167 0.8877451
0.049678309 0.88344822 0.8838848
0.20392157 0.88002451 0.8877451
0.37741268 0.88253676 0.89166667
0.53143382 0.8877451 0.89166667
0.67254902 0.88382353 0.89166667
0.78736213 0.8877451 0.89558824
0.89118413 0.88822763 0.89515931
0.97647059 0.89166667 0.88823529
0.054901961 0.97990196 0.88333333
0.12745098 0.97647059 0.8877451
0.25784314 0.97561275 0.8877451
0.39675245 0.97647059 0.88645833
0.5372549 0.98186275 0.8877451
0.66078431 0.96862745 0.89166667
0.77561275 0.95294118 0.89166667
0.87254902 0.96862745 0.89166667
0.98039216 0.96421569 0.8877451
0.02745098 0.0078431373 0.94901961
0.13921569 0.0044117647 0.9872549
0.28137255 0.018627451 0.98529412
0.44607843 0.013235294 0.98676471
0.61764706 0.0078431373 0.99411765
0.77990196 0.013235294 0.97892157
0.91372549 0.018627451 0.97352941
0.9995098 0.0078431373 0.99558824
0.99607843 0.015686275 0.98823529
0.054901961 0.08872549 0.99901961
0.13970588 0.096568627 0.96176471
0.27352941 0.10428922 0.97990196
0.43057598 0.10441176 0.98008578
0.59828431 0.10612745 0.98431373
0.76832108 0.10833333 0.9786152
0.91862745 0.10441176 0.98480392
0.9838848 0.10441176 0.98431373
0.98431373 0.11519608 0.98039216
0.048039216 0.21960784 0.98431373
0.12892157 0.21482843 0.9872549
0.24926471 0.21862745 0.98897059
0.42254902 0.22205882 0.99154412
0.58872549 0.22647059 0.98823529
0.75245098 0.22757353 0.98284314
0.9 0.23137255 0.97647059
0.98921569 0.22745098 0.98823529
0.99509804 0.23921569 0.99117647
0.0093137255 0.36519608 0.97794118
0.0094362745 0.37518382 0.98823529
0.2060049 0.37303922 0.97928922
0.40294118 0.37696078 0.97591912
0.56813725 0.37941176 0.97647059
0.73039216 0.38088235 0.97892157
0.87953431 0.38296569 0.9692402
0.97303922 0.38088235 0.97910539
0.99362745 0.38088235 0.98431373
0.019607843 0.5254902 0.97647059
0.01004902 0.52745098 0.98970588
0.15343137 0.52941176 0.98823529
0.38210784 0.53137255 0.98823529
0.54509804 0.53039216 0.98039216
0.70735294 0.52818627 0.98186275
0.84901961 0.53137255 0.98382353
0.96985294 0.5372549 0.99019608
0.98627451 0.53137255 0.98039216
0.0024509804 0.67009804 0.98970588
0.0078431373 0.66127451 0.98039216
0.11985294 0.6689951 0.98860294
0.35833333 0.66862745 0.98523284
0.52598039 0.67107843 0.98627451
0.68039216 0.67009804 0.97794118
0.81911765 0.67254902 0.9685049
0.92536765 0.67647059 0.96942402
0.96862745 0.67794118 0.98186275
0.0078431373 0.7754902 0.98039216
0.0049019608 0.78333333 0.98247549
0.15882353 0.78112745 0.96936275
0.35441176 0.78394608 0.98333333
0.52794118 0.78431373 0.98039216
0.67585784 0.7872549 0.98431373
0.79828431 0.79044118 0.9872549
0.91029412 0.79215686 0.98431373
0.96862745 0.79509804 0.98431373
0.016176471 0.88039216 0.98039216
0.028247549 0.88382353 0.98088235
0.22169118 0.88382353 0.98002451
0.38137255 0.88431373 0.97647059
0.53357843 0.88382353 0.98382353
0.66991422 0.88382353 0.97647059
0.79117647 0.8877451 0.98443627
0.89123775 0.89166667 0.98039216
0.99264706 0.89166667 0.99264706
0.050980392 0.9372549 0.96470588
0.12794118 0.97990196 0.9872549
0.26470588 0.97843137 0.97843137
0.40294118 0.97598039 0.97058824
0.54117647 0.96666667 0.97254902
0.66078431 0.97009804 0.98186275
0.7872549 0.93823529 0.98039216
0.8754902 0.97745098 0.98872549
0.98039216 0.95294118 0.94509804
