site/assets/luts/natron-haldclut--fuji-superia-400--b8c05d708.cube
# LUTr-Project: LUTr — LUTrepository
# LUTr-Schema-Version: 1
# LUTr-ID: natron-haldclut--fuji-superia-400--b8c05d708
# LUTr-Title: fuji superia 400
# LUTr-Collection: Natron HaldCLUT
# LUTr-Collection-ID: natron-haldclut-presets
# LUTr-Source: https://github.com/NatronGitHub/clut
# LUTr-Source-File: submissions/natron-haldclut-presets/negative_old/fuji_superia_400.png
# LUTr-Source-Format: PNG
# LUTr-Source-SHA256: cf3b9266d12fc79453babc33d05de399fd15e700f3ced3b532c0f86662b82bd4
# LUTr-License: CC-BY-SA-4.0
# LUTr-License-URL: https://github.com/NatronGitHub/clut#license
# LUTr-Tags: creative, film, film-emulation, hald-clut, natron, png, cube
# LUTr-Transform-Class: film-emulation
# LUTr-Input-Color-Space: srgb
# LUTr-Output-Color-Space: srgb
# LUTr-Color-Space-Confidence: assumed-display-referred
# LUTr-Conversion-Method: PNG LUT image decoded at 16-bit and sampled to 25x25x25 3D CUBE
# LUTr-Conversion-Date: 2026-07-27
# LUTr-Conversion-Tool: LUTr scripts/convert-all-to-cube.mjs
# LUTr-Conversion-Grid: 25x25x25
# LUTr-Note: Preserve this metadata and the upstream license notices when redistributing.
TITLE "fuji superia 400"
LUT_3D_SIZE 5
DOMAIN_MIN 0 0 0
DOMAIN_MAX 1 1 1
0 0.039215686 0.035294118
0.17254902 0.053921569 0.044117647
0.53137255 0 0.015686275
0.86960784 0.010784314 0.0039215686
1 0.21960784 0
0.011764706 0.20784314 0.089215686
0.17352941 0.2372549 0.051960784
0.56372549 0.24705882 0.0044117647
0.86666667 0.25098039 0
0.99215686 0.32156863 0.0078431373
0.01372549 0.48627451 0.19803922
0.11911765 0.50098039 0.17794118
0.55882353 0.61960784 0.0068627451
0.87598039 0.60441176 0.0078431373
0.98823529 0.55882353 0
0.29705882 0.74509804 0.41176471
0.36862745 0.74117647 0.4127451
0.54803922 0.76960784 0.41862745
0.83504902 0.84215686 0.34705882
0.99215686 0.83823529 0.17352941
0.70980392 0.9254902 0.73333333
0.73333333 0.92941176 0.74117647
0.77254902 0.92941176 0.74313725
0.85588235 0.94901961 0.74803922
0.90980392 0.96078431 0.73333333
0.0039215686 0.070588235 0.18823529
0.16176471 0.069607843 0.17941176
0.54117647 0.020588235 0.19901961
0.87058824 0.054411765 0.20686275
1 0.26176471 0.20098039
0.012745098 0.21764706 0.23137255
0.21685049 0.24025735 0.21917892
0.58921569 0.25110294 0.21323529
0.8745098 0.2752451 0.1872549
0.99215686 0.35612745 0.17279412
0.11715686 0.53529412 0.33333333
0.27598039 0.53664216 0.34473039
0.58161765 0.61764706 0.29509804
0.86421569 0.57034314 0.13431373
0.99607843 0.5627451 0.064215686
0.38553922 0.75906863 0.49509804
0.43921569 0.75196078 0.49883578
0.57806373 0.76960784 0.50085784
0.82720588 0.83762255 0.48651961
0.99607843 0.84313725 0.40416667
0.73627451 0.93333333 0.75980392
0.74019608 0.92622549 0.75588235
0.78627451 0.93039216 0.77254902
0.85906863 0.95 0.7754902
0.95196078 0.97156863 0.77058824
0.017647059 0.074509804 0.53529412
0.21078431 0.085294118 0.53186275
0.56176471 0.075490196 0.54117647
0.84117647 0.1745098 0.53431373
0.98431373 0.27254902 0.52156863
0.00049019608 0.22009804 0.56568627
0.2435049 0.26960784 0.57585784
0.58235294 0.31764706 0.56911765
0.84803922 0.35784314 0.55392157
0.99607843 0.41764706 0.54607843
0.030392157 0.57352941 0.56862745
0.31862745 0.57132353 0.59068627
0.61470588 0.60539216 0.6
0.84093137 0.5997549 0.55980392
0.99509804 0.61568627 0.54509804
0.52647059 0.78333333 0.65686275
0.57254902 0.78578431 0.66666667
0.6629902 0.78480392 0.6620098
0.83431373 0.83137255 0.66911765
0.99166667 0.82205882 0.60637255
0.75098039 0.92941176 0.80196078
0.75686275 0.9245098 0.79705882
0.80392157 0.93431373 0.81176471
0.86421569 0.94558824 0.81960784
0.95490196 0.97058824 0.82745098
0.1872549 0.096078431 0.80294118
0.38063725 0.10465686 0.80686275
0.64509804 0.22156863 0.79754902
0.85 0.35686275 0.78431373
0.99215686 0.46470588 0.7872549
0.22058824 0.28235294 0.80686275
0.39901961 0.30294118 0.80686275
0.65196078 0.38529412 0.80686275
0.846875 0.46740196 0.79883578
0.98014706 0.54681373 0.79877451
0.010784314 0.52990196 0.79607843
0.25723039 0.54068627 0.79901961
0.61813725 0.59387255 0.80294118
0.84068627 0.6627451 0.81078431
0.98137255 0.70294118 0.80490196
0.46764706 0.79926471 0.80196078
0.54001225 0.79981618 0.80447304
0.68627451 0.80196078 0.81115196
0.84681373 0.83137255 0.82959559
0.98259804 0.83504902 0.81936275
0.78333333 0.94019608 0.87156863
0.80294118 0.94509804 0.87941176
0.84117647 0.94117647 0.88333333
0.88431373 0.94289216 0.88357843
0.95686275 0.96372549 0.89509804
0.55686275 0.34901961 0.97254902
0.62156863 0.3754902 0.96862745
0.75490196 0.46666667 0.96470588
0.89215686 0.58627451 0.94607843
0.96862745 0.67058824 0.94509804
0.56862745 0.46078431 0.97254902
0.61764706 0.4745098 0.96446078
0.75490196 0.53529412 0.96078431
0.89313725 0.64485294 0.95294118
0.9754902 0.7127451 0.94509804
0.50980392 0.60784314 0.96862745
0.59166667 0.62794118 0.97009804
0.73235294 0.6627451 0.95490196
0.88039216 0.73039216 0.94901961
0.95686275 0.78235294 0.94313725
0.47352941 0.79313725 0.96470588
0.52843137 0.78333333 0.95588235
0.62303922 0.77843137 0.94215686
0.8497549 0.83333333 0.95196078
0.96568627 0.88431373 0.95686275
0.75294118 0.94509804 0.92941176
0.74215686 0.93235294 0.95392157
0.83333333 0.95490196 0.94705882
0.89607843 0.96568627 0.96568627
0.97647059 0.97254902 0.97254902
