site/assets/luts/natron-haldclut--sunny-warm--c01398314.cube
# LUTr-Project: LUTr — LUTrepository
# LUTr-Schema-Version: 1
# LUTr-ID: natron-haldclut--sunny-warm--c01398314
# LUTr-Title: sunny warm
# LUTr-Collection: Natron HaldCLUT
# LUTr-Collection-ID: natron-haldclut-presets
# LUTr-Source: https://github.com/NatronGitHub/clut
# LUTr-Source-File: submissions/natron-haldclut-presets/various/sunny_warm.png
# LUTr-Source-Format: PNG
# LUTr-Source-SHA256: 351ea2bb5b33cf3647f669baf0b849b4e8b17be9d1e2ba403fb59de09d3916a2
# LUTr-License: CC-BY-SA-4.0
# LUTr-License-URL: https://github.com/NatronGitHub/clut#license
# LUTr-Tags: creative, film, film-emulation, hald-clut, natron, png, warm, cube
# LUTr-Transform-Class: film-emulation
# LUTr-Input-Color-Space: srgb
# LUTr-Output-Color-Space: srgb
# LUTr-Color-Space-Confidence: assumed-display-referred
# LUTr-Conversion-Method: PNG LUT image decoded at 16-bit and sampled to 25x25x25 3D CUBE
# LUTr-Conversion-Date: 2026-07-27
# LUTr-Conversion-Tool: LUTr scripts/convert-all-to-cube.mjs
# LUTr-Conversion-Grid: 25x25x25
# LUTr-Note: Preserve this metadata and the upstream license notices when redistributing.
TITLE "sunny warm"
LUT_3D_SIZE 9
DOMAIN_MIN 0 0 0
DOMAIN_MAX 1 1 1
0.015686275 0.019607843 0.011764706
0.14313725 0.023529412 0.039705882
0.28235294 0.032352941 0.020588235
0.42647059 0.055392157 0.023529412
0.5627451 0.088235294 0.02745098
0.67107843 0.11078431 0.037745098
0.78823529 0.11568627 0.010784314
0.87303922 0.13137255 0.028431373
0.98039216 0.16078431 0.023529412
0.062254902 0.12352941 0.0083333333
0.22849265 0.17892157 0.03627451
0.34791667 0.17254902 0.023406863
0.52873775 0.24166667 0.068933824
0.60686275 0.21911765 0.019362745
0.71078431 0.23039216 0.021568627
0.80379902 0.23946078 0.025735294
0.89558824 0.26127451 0.043627451
0.94509804 0.25588235 0.010294118
0.1372549 0.27647059 0.014705882
0.28480392 0.31213235 0.021936275
0.39411765 0.30563725 0.019607843
0.50906863 0.31838235 0.010661765
0.61127451 0.32352941 0.010294118
0.71715686 0.34264706 0.026960784
0.83333333 0.38529412 0.024264706
0.90772059 0.39558824 0.024509804
0.96862745 0.41666667 0.059803922
0.21029412 0.41519608 0.017156863
0.38235294 0.4754902 0.044607843
0.49840686 0.49056373 0.045098039
0.56329657 0.45741422 0.01317402
0.67720588 0.48259804 0.041421569
0.75839461 0.49221814 0.036335784
0.86127451 0.51764706 0.02879902
0.91519608 0.51636029 0.028921569
0.96715686 0.5245098 0.034803922
0.30392157 0.54705882 0.017647059
0.39779412 0.55661765 0.012009804
0.54656863 0.60833333 0.036764706
0.60220588 0.56936275 0.013235294
0.70294118 0.59117647 0.011764706
0.81715686 0.63186275 0.035294118
0.85931373 0.61323529 0.019607843
0.91911765 0.61446078 0.018382353
0.9745098 0.64313725 0.029411765
0.37794118 0.67107843 0.023529412
0.47843137 0.68137255 0.042647059
0.5682598 0.68676471 0.036397059
0.66813725 0.69454657 0.042095588
0.74460784 0.7004902 0.026715686
0.81470588 0.71329657 0.023529412
0.88860294 0.72696078 0.035294118
0.93676471 0.72352941 0.024816176
0.96862745 0.73627451 0.041666667
0.4372549 0.77156863 0.020588235
0.55208333 0.79901961 0.023039216
0.63333333 0.79509804 0.024509804
0.73088235 0.81752451 0.039215686
0.80196078 0.81960784 0.03872549
0.85343137 0.81421569 0.045098039
0.91642157 0.82647059 0.043872549
0.97303922 0.85379902 0.049509804
0.96862745 0.82647059 0.031372549
0.50588235 0.86764706 0.018627451
0.6221201 0.89859069 0.034803922
0.67708333 0.88296569 0.019607843
0.76568627 0.89460784 0.027941176
0.8245098 0.8995098 0.017892157
0.88235294 0.90520833 0.023223039
0.91029412 0.88676471 0.01004902
0.94160539 0.88768382 0.023468137
0.96029412 0.89117647 0.024019608
0.55686275 0.94117647 0.0039215686
0.68382353 0.98284314 0.012254902
0.76176471 0.98333333 0.049019608
0.82205882 0.97009804 0.047058824
0.87254902 0.96666667 0.045098039
0.89607843 0.94803922 0.028921569
0.95490196 0.97058824 0.039215686
0.95637255 0.94803922 0.019117647
0.95686275 0.94901961 0.015686275
0.026470588 0.015196078 0.11568627
0.16476716 0.045588235 0.11121324
0.2995098 0.045833333 0.11164216
0.43792892 0.066176471 0.10900735
0.5627451 0.082352941 0.10980392
0.70422794 0.13167892 0.13345588
0.78382353 0.11531863 0.10477941
0.92781863 0.17340686 0.14883578
0.98970588 0.18137255 0.14411765
0.087254902 0.14215686 0.1
0.24125306 0.19033395 0.13641238
0.38737745 0.2134038 0.14330576
0.5066636 0.22464001 0.13734681
0.62723652 0.23973652 0.13602941
0.70044424 0.22025888 0.10501685
0.80735294 0.24093137 0.11259191
0.90228248 0.26711091 0.12189798
0.98082108 0.30386029 0.13572304
0.16715686 0.29264706 0.11519608
0.31859681 0.33852635 0.14453125
0.44301471 0.35382966 0.1432598
0.53363971 0.34295343 0.11922488
0.65300245 0.36593137 0.12928922
0.76556373 0.39007353 0.14448529
0.80811887 0.36295956 0.094393382
0.9209712 0.40695466 0.12700674
0.9692402 0.42022059 0.13186275
0.2528799 0.42916667 0.11544118
0.37693781 0.46962316 0.13617494
0.46398591 0.4489277 0.10943627
0.57660846 0.4660769 0.11551777
0.68091299 0.48523284 0.12012868
0.75421262 0.48067555 0.097342218
0.84082414 0.50111826 0.10762868
0.93429075 0.53514859 0.12973346
0.9754902 0.55508578 0.13792892
0.30514706 0.55637255 0.10367647
0.4083027 0.56271446 0.10585172
0.52573529 0.57922794 0.11151961
0.6536152 0.62092525 0.14577206
0.72401961 0.60919118 0.12291667
0.81053922 0.62401961 0.13308824
0.8689951 0.61893382 0.11997549
0.9421875 0.64341299 0.12769608
0.96911765 0.64730392 0.12573529
0.38069853 0.66421569 0.099816176
0.47625613 0.67554381 0.10450368
0.5877451 0.69845282 0.12303922
0.68529412 0.71156556 0.12971814
0.76191789 0.71583946 0.12588848
0.82537531 0.71403952 0.11489737
0.90196078 0.73897059 0.1319087
0.95651808 0.74693627 0.13269761
0.97665441 0.75 0.13676471
0.45931373 0.78198529 0.10943627
0.56792279 0.80746017 0.13458946
0.64494485 0.79898897 0.11957721
0.7408701 0.82366728 0.13982843
0.78854167 0.80055147 0.11066176
0.85055147 0.80916054 0.111106
0.93416054 0.84298407 0.14935662
0.93711703 0.81272978 0.1057598
0.98872549 0.84607843 0.13235294
0.54993873 0.89068627 0.12254902
0.61083793 0.88409161 0.11219363
0.6870098 0.88688725 0.11079963
0.75955882 0.88933824 0.11078431
0.86302083 0.92941176 0.14384191
0.89838388 0.91685049 0.13223039
0.9401348 0.91922488 0.13180147
0.98138787 0.93488051 0.14793964
0.98235294 0.93235294 0.13731618
0.64362745 0.99313725 0.15196078
0.7 0.97941176 0.14117647
0.76568627 0.97941176 0.14313725
0.81501225 0.96176471 0.12156863
0.86372549 0.95759804 0.11813725
0.91550245 0.96715686 0.12647059
0.95159314 0.96801471 0.12218137
0.95294118 0.94944853 0.10741422
0.96078431 0.95343137 0.096568627
0.026470588 0.021568627 0.22647059
0.15747549 0.026593137 0.23002451
0.29264706 0.033578431 0.22328431
0.45563725 0.077941176 0.23835784
0.55980392 0.092647059 0.21568627
0.66960784 0.08504902 0.21776961
0.76911765 0.10294118 0.20931373
0.88014706 0.1439951 0.22769608
0.95 0.16666667 0.23137255
0.13026961 0.16654412 0.23860294
0.25183824 0.19384191 0.25899203
0.36268382 0.18483456 0.23811275
0.49453125 0.20729167 0.24258578
0.64779412 0.25870098 0.27965686
0.7310815 0.25277267 0.25657169
0.8135723 0.25695466 0.24286152
0.89584865 0.26481311 0.23195466
0.97365196 0.30110294 0.25245098
0.1879902 0.30490196 0.24436275
0.28897059 0.30658701 0.22922794
0.45422794 0.36219363 0.27034314
0.52469363 0.33063725 0.22610294
0.64963235 0.36237745 0.24080882
0.75579044 0.38556985 0.25431985
0.84908088 0.4 0.25122549
0.93367034 0.42202819 0.2620098
0.97769608 0.43235294 0.25661765
0.25281863 0.44166667 0.24656863
0.3636489 0.45148591 0.23958333
0.50392157 0.48296569 0.26164216
0.604856 0.49149816 0.25571385
0.6997549 0.50392157 0.25471814
0.76452206 0.48829657 0.23111213
0.84503676 0.50459559 0.23023897
0.95366115 0.55537684 0.27094056
0.96078431 0.52291667 0.22928922
0.325 0.56372549 0.23284314
0.41832108 0.56495098 0.22512255
0.56764706 0.61164216 0.26752451
0.62279412 0.58045343 0.22971814
0.73186275 0.61519608 0.25318627
0.80134804 0.61158088 0.23970588
0.88026961 0.63247549 0.24546569
0.92843137 0.62389706 0.23394608
0.96764706 0.63284314 0.23431373
0.43480392 0.70894608 0.26568627
0.52005208 0.71551777 0.2689951
0.57818627 0.68409926 0.22533701
0.69100797 0.71188725 0.24901961
0.77585784 0.72420343 0.25453431
0.84882047 0.73776042 0.25879289
0.90934436 0.7435049 0.25591299
0.92939645 0.72017463 0.22948836
0.9807598 0.75343137 0.25821078
0.46666667 0.77843137 0.23039216
0.56130515 0.7950674 0.24139093
0.6682598 0.82126225 0.25827206
0.7502451 0.82389706 0.25971201
0.80980392 0.82267157 0.25183824
0.85520833 0.80909926 0.2372549
0.92371324 0.83112745 0.25116422
0.94617034 0.81960784 0.23244485
0.98333333 0.85196078 0.25465686
0.55882353 0.88492647 0.2372549
0.63071385 0.89852941 0.24620098
0.69068627 0.88213848 0.2260723
0.79365809 0.91741728 0.25857843
0.8653799 0.92879902 0.26495098
0.91089154 0.92536765 0.2658701
0.92221201 0.90248162 0.2377451
0.98206189 0.9363511 0.26956189
0.98590686 0.93284314 0.26127451
0.59313725 0.9372549 0.21764706
0.70147059 0.97340686 0.26421569
0.78823529 0.98333333 0.2752451
0.81311275 0.95330882 0.24705882
0.84460784 0.94705882 0.21176471
0.91115196 0.95735294 0.24264706
0.9745098 0.98210784 0.27058824
0.94852941 0.94718137 0.21948529
0.97941176 0.9754902 0.25686275
0.082352941 0.040686275 0.36715686
0.1723652 0.035968137 0.35686275
0.32610294 0.069730392 0.36188725
0.49252451 0.11182598 0.39448529
0.55343137 0.071813725 0.3377451
0.69068627 0.115625 0.35790441
0.78848039 0.13517157 0.34828431
0.89313725 0.1495098 0.36060049
0.97009804 0.15931373 0.36127451
0.098835784 0.15441176 0.34969363
0.26324295 0.19679841 0.38628217
0.39852941 0.21845895 0.38186275
0.49906556 0.21127451 0.36267616
0.61838235 0.22882966 0.37000613
0.72745098 0.24772518 0.36929381
0.8198989 0.25859375 0.36446078
0.89985447 0.2719133 0.3591682
0.97156863 0.30667892 0.38118873
0.17830882 0.29509804 0.35232843
0.30338542 0.31305147 0.36171875
0.43103554 0.33186275 0.35833333
0.54739583 0.34886642 0.36259191
0.66887255 0.38014706 0.37892157
0.75960478 0.38356311 0.37244179
0.83005515 0.38434436 0.35768995
0.92101716 0.41064645 0.37297794
0.98946078 0.44656863 0.39178922
0.24117647 0.41862745 0.34313725
0.39921109 0.47781097 0.3877451
0.48566176 0.46213235 0.35661765
0.59195772 0.47708333 0.36370251
0.69237132 0.49485294 0.36498162
0.80409007 0.52894455 0.39019608
0.87418811 0.52843137 0.3792739
0.94178922 0.54595588 0.38376225
0.98039216 0.55490196 0.38327206
0.32352941 0.56078431 0.35098039
0.4448223 0.58183211 0.36590074
0.55171569 0.59405637 0.37015931
0.63360907 0.58900123 0.35563725
0.77193627 0.64803922 0.40306373
0.80217525 0.61372549 0.36228554
0.91102941 0.66262255 0.39607843
0.94754902 0.64852941 0.3768076
0.95955882 0.62181373 0.34142157
0.41078431 0.67990196 0.35588235
0.51060815 0.69999234 0.37303922
0.59339767 0.69257047 0.35816483
0.71078431 0.73024663 0.38740043
0.77892157 0.72619485 0.3776348
0.8290671 0.71568627 0.35692402
0.88590686 0.7196538 0.354519
0.9740962 0.76625306 0.39517463
0.97340686 0.74699755 0.37444853
0.49497549 0.78370098 0.35245098
0.58345588 0.80952819 0.37709865
0.65775123 0.80441176 0.36476716
0.74742647 0.82107843 0.37529105
0.79583333 0.80281863 0.35588235
0.88049939 0.83431373 0.38442096
0.92815564 0.83581495 0.37965686
0.94373468 0.82081801 0.36053922
0.98247549 0.84877451 0.39080882
0.54957108 0.88566176 0.3557598
0.62669271 0.88714767 0.35664062
0.70926777 0.89269301 0.35992647
0.7792356 0.89650735 0.36060049
0.84114583 0.90162377 0.36207108
0.90391391 0.91207108 0.37450214
0.92552083 0.90064338 0.35796569
0.9634421 0.91711857 0.37624847
0.96047794 0.89105392 0.34644608
0.64509804 0.97745098 0.3872549
0.71060049 0.98216912 0.38676471
0.80772059 0.99644608 0.40870098
0.85098039 0.9872549 0.38529412
0.88897059 0.97598039 0.37794118
0.94007353 0.97935049 0.38223039
0.95637255 0.9689951 0.37843137
0.97273284 0.97254902 0.36470588
0.98823529 0.97647059 0.39019608
0.043137255 0.019607843 0.47058824
0.19534314 0.054166667 0.4877451
0.3254902 0.06372549 0.48627451
0.45661765 0.07745098 0.47892157
0.58039216 0.10294118 0.47745098
0.68897059 0.11323529 0.47279412
0.7877451 0.12990196 0.47401961
0.88014706 0.1627451 0.47083333
0.96470588 0.18627451 0.48431373
0.11372549 0.15784314 0.47230392
0.25723039 0.18737745 0.48832721
0.38805147 0.203125 0.49160539
0.50603554 0.21666667 0.49209559
0.64669118 0.26066176 0.51078431
0.74494485 0.26911765 0.50367647
0.85680147 0.29987745 0.51709559
0.91222426 0.2872549 0.49093137
0.95147059 0.28431373 0.48406863
0.22107843 0.32058824 0.49117647
0.33529412 0.34313725 0.50392157
0.45183824 0.35 0.49497549
0.56256127 0.36329657 0.49607843
0.68333333 0.39166667 0.51004902
0.77910539 0.4088848 0.51256127
0.87218137 0.42671569 0.51482843
0.92046569 0.41703431 0.48921569
0.96470588 0.41960784 0.48823529
0.26029412 0.43259804 0.47328431
0.39558824 0.46813725 0.50113358
0.52113971 0.49571078 0.50778186
0.5953125 0.47843137 0.48207721
0.7245098 0.52696078 0.51556373
0.77938113 0.50536152 0.48848039
0.8439951 0.50459559 0.47310049
0.90670956 0.51348039 0.46715686
0.97328431 0.55245098 0.49681373
0.3254902 0.55294118 0.46372549
0.47095588 0.60281863 0.50698529
0.54338235 0.58235294 0.47867647
0.65992647 0.61164216 0.5002451
0.7372549 0.61029412 0.48921569
0.82389706 0.6317402 0.50294118
0.8995098 0.6504902 0.51004902
0.93529412 0.64056373 0.48566176
0.97156863 0.65686275 0.49607843
0.42990196 0.69877451 0.50098039
0.52996324 0.7125 0.50171569
0.61280637 0.70496324 0.49252451
0.73039216 0.74139093 0.51933211
0.78345588 0.73088235 0.50159314
0.82604167 0.71155025 0.47202819
0.91397059 0.74577206 0.5028799
0.96896446 0.76323529 0.50965074
0.97303922 0.74411765 0.48995098
0.46813725 0.77205882 0.46617647
0.59534314 0.81458333 0.50465686
0.66862745 0.80894608 0.49571078
0.74724265 0.81397059 0.4911152
0.8252451 0.82328431 0.50098039
0.86053922 0.81170343 0.48039216
0.92365196 0.82696078 0.49460784
0.95870098 0.83498775 0.49307598
0.97696078 0.85343137 0.50931373
0.55416667 0.87205882 0.47107843
0.64074755 0.89019608 0.47938113
0.71960784 0.89613971 0.48731618
0.80551471 0.9169424 0.50615809
0.83664216 0.89031863 0.47352941
0.90955882 0.91485907 0.49598652
0.93602941 0.90367647 0.48137255
0.95640319 0.9020527 0.48097426
0.97083333 0.90735294 0.48259804
0.63921569 0.9627451 0.49411765
0.69460784 0.95686275 0.47401961
0.8004902 0.98235294 0.51764706
0.8629902 0.98823529 0.51960784
0.90098039 0.97745098 0.50588235
0.95735294 0.99117647 0.52205882
0.94705882 0.95735294 0.48627451
0.98455882 0.98039216 0.5122549
0.97058824 0.96666667 0.48431373
0.11323529 0.081862745 0.6627451
0.18253676 0.03939951 0.59430147
0.33860294 0.064093137 0.61262255
0.47205882 0.099203431 0.60533088
0.57230392 0.092892157 0.58210784
0.70526961 0.13376225 0.60625
0.77647059 0.125 0.57904412
0.89528186 0.16605392 0.60606618
0.95441176 0.16568627 0.59019608
0.14050245 0.16323529 0.59901961
0.24306832 0.16783854 0.58662684
0.40686275 0.22107843 0.62371324
0.53455882 0.24105392 0.63290441
0.65058211 0.26072304 0.63342525
0.73694853 0.25973499 0.62107843
0.86216299 0.30379902 0.64413297
0.89890472 0.27493873 0.60151654
0.98265931 0.3254902 0.63529412
0.18835784 0.29803922 0.59411765
0.29863664 0.29708946 0.58318015
0.45772059 0.35327819 0.625
0.55098039 0.34784007 0.59963235
0.69142157 0.40116422 0.63547794
0.76473652 0.39244792 0.61438419
0.84558824 0.4020527 0.60879289
0.93731618 0.43449755 0.62893689
0.95882353 0.4189951 0.60134804
0.26317402 0.43094363 0.59264706
0.40881587 0.47768076 0.62799479
0.49024203 0.46478248 0.59640012
0.61135876 0.49166667 0.61380974
0.69142157 0.48746936 0.60272672
0.77730545 0.50014553 0.59893536
0.8738511 0.53091299 0.62074142
0.93560815 0.5444087 0.61894148
0.95441176 0.53278186 0.59944853
0.35441176 0.56764706 0.59460784
0.47098652 0.59745711 0.61976103
0.57622549 0.60980392 0.62794118
0.64120711 0.59071691 0.60398284
0.72401961 0.59754902 0.59656863
0.81421569 0.62107843 0.61277574
0.91207108 0.66035539 0.63970588
0.96176471 0.66700368 0.63367034
0.95147059 0.63039216 0.58995098
0.41041667 0.66862745 0.59074755
0.5127451 0.68731618 0.5988894
0.61053922 0.6964614 0.60759804
0.71331955 0.72312347 0.6209329
0.77794118 0.71636029 0.61148897
0.83834252 0.71885723 0.60752145
0.915625 0.74575674 0.6256587
0.96604626 0.76292126 0.63578431
0.98039216 0.76819853 0.62696078
0.52855392 0.82316176 0.64178922
0.59485294 0.80784314 0.62222733
0.64473039 0.77640931 0.58621324
0.7852788 0.84295343 0.64589461
0.8557598 0.85324755 0.64981618
0.89814645 0.84442402 0.63468137
0.91859681 0.8208027 0.61106005
0.98069853 0.86272978 0.64200368
0.9689951 0.82291667 0.59901961
0.59791667 0.91164216 0.62604167
0.67463235 0.91646752 0.63743873
0.75752145 0.925 0.63400735
0.79184283 0.89643076 0.60710018
0.87077206 0.91979167 0.62714461
0.93040748 0.93529412 0.63805147
0.91398591 0.88590686 0.5847886
0.95808824 0.90459559 0.60492494
0.9846201 0.92677696 0.62598039
0.67892157 0.97941176 0.63235294
0.7403799 0.98265931 0.63431373
0.79816176 0.98051471 0.62879902
0.83627451 0.97346814 0.60588235
0.87647059 0.94901961 0.61372549
0.9598652 0.99613971 0.64270833
0.95404412 0.9622549 0.6060049
0.96256127 0.96256127 0.59773284
0.96078431 0.95147059 0.59019608
0.11960784 0.092156863 0.77058824
0.18664216 0.035661765 0.71360294
0.31372549 0.042156863 0.70122549
0.50122549 0.11789216 0.76348039
0.59215686 0.11911765 0.72009804
0.69044118 0.12965686 0.71348039
0.78823529 0.12867647 0.71470588
0.88382353 0.19362745 0.72058824
0.94607843 0.15882353 0.71862745
0.16409314 0.18615196 0.74068627
0.25605086 0.18085172 0.71824449
0.41914828 0.22990196 0.7560049
0.53956801 0.24451593 0.75565257
0.62518382 0.23333333 0.72941176
0.75281863 0.26997549 0.7537837
0.81801471 0.26908701 0.72536765
0.94356618 0.32193627 0.767356
0.95379902 0.29129902 0.7245098
0.21960784 0.30784314 0.71642157
0.33572304 0.33158701 0.73921569
0.45655637 0.34699755 0.73517157
0.58158701 0.37830882 0.74518995
0.66507353 0.37156863 0.72977941
0.75257353 0.38161765 0.72999387
0.83645833 0.39491422 0.72708333
0.91363358 0.41397059 0.72858456
0.99240196 0.45808824 0.76495098
0.30012255 0.45882353 0.7432598
0.39710478 0.45565257 0.72254902
0.52331495 0.49083946 0.74157475
0.6105239 0.48442096 0.72990196
0.71666667 0.51121324 0.74436275
0.79825368 0.52045037 0.74018076
0.86813725 0.52843137 0.7356924
0.93952206 0.54848346 0.74214154
0.99215686 0.57205882 0.76188725
0.34901961 0.55588235 0.70784314
0.47463235 0.59834559 0.74448529
0.54693627 0.56997549 0.71029412
0.6838848 0.62536765 0.75839461
0.75073529 0.62034314 0.74142157
0.83033088 0.63578431 0.74589461
0.91176471 0.66078431 0.75870098
0.93939951 0.64405637 0.73278186
0.98529412 0.67254902 0.75490196
0.46348039 0.70698529 0.74963235
0.55488664 0.72363664 0.75839461
0.61660539 0.70012255 0.72625613
0.72504596 0.73079044 0.75318627
0.8002451 0.73504902 0.75349265
0.86058517 0.74178922 0.74914216
0.89969363 0.73020833 0.72889093
0.95929841 0.75729167 0.74557292
0.98884804 0.77254902 0.75539216
0.50392157 0.78333333 0.72083333
0.62346814 0.83177083 0.75848652
0.67371324 0.80140931 0.72941176
0.77882966 0.83606005 0.75526961
0.84730392 0.84105392 0.75919118
0.87438725 0.81887255 0.72686887
0.90183824 0.80484069 0.71458333
0.94672181 0.82239583 0.72303922
0.98137255 0.85196078 0.74411765
0.60845588 0.91544118 0.75625
0.68279718 0.9198989 0.75730699
0.75401348 0.91819853 0.75110294
0.81533395 0.91311275 0.74381127
0.88241422 0.92757353 0.75588235
0.90605086 0.90816483 0.73442096
0.93685662 0.9080576 0.73051471
0.9734375 0.9238511 0.74822304
0.99227941 0.93958333 0.76213235
0.68431373 0.98529412 0.75196078
0.74754902 0.98786765 0.75392157
0.76078431 0.94607843 0.72279412
0.87438725 0.98676471 0.76360294
0.88627451 0.9627451 0.72745098
0.9372549 0.97107843 0.74865196
0.95294118 0.96078431 0.73627451
0.99767157 0.99620098 0.77279412
0.96470588 0.94901961 0.71862745
0.082843137 0.055882353 0.84117647
0.20196078 0.046139706 0.8495098
0.34117647 0.074142157 0.84154412
0.46372549 0.075980392 0.83333333
0.59313725 0.11764706 0.84362745
0.69283088 0.12665441 0.83137255
0.78946078 0.12659314 0.84203431
0.86697304 0.1379902 0.82389706
0.98382353 0.20343137 0.8754902
0.13290441 0.16623775 0.8372549
0.28154871 0.20006127 0.85502451
0.4028799 0.21187194 0.84895833
0.55294118 0.25786612 0.88498775
0.64117647 0.25514706 0.86127451
0.74433977 0.2696921 0.86086091
0.82886029 0.27990196 0.85894608
0.89319853 0.27467831 0.83965227
0.975 0.33370098 0.87886029
0.20698529 0.30637255 0.84767157
0.32591912 0.32412684 0.84782475
0.48005515 0.36816789 0.87536765
0.55894608 0.351394 0.83762255
0.68419118 0.3901348 0.86556373
0.7654565 0.39450061 0.85773591
0.84463848 0.40346201 0.85471814
0.91193321 0.41443015 0.84635417
0.95784314 0.425 0.85098039
0.29669118 0.44375 0.84540441
0.40747549 0.46456036 0.85355392
0.53026961 0.49050245 0.87161458
0.61597733 0.4872549 0.85104167
0.70637255 0.50245098 0.85441176
0.77261795 0.49668352 0.83438266
0.84883578 0.50525429 0.83803615
0.94468444 0.55526961 0.86435355
0.98216912 0.5627451 0.87383578
0.36813725 0.57009804 0.8370098
0.48602941 0.59751838 0.86464461
0.57083333 0.58946078 0.84632353
0.66920956 0.60940564 0.85719975
0.76642157 0.63394608 0.87512255
0.8426777 0.64929534 0.87895221
0.89307598 0.64215686 0.85925245
0.92356005 0.63069853 0.83875613
0.96642157 0.65416667 0.85612745
0.43400735 0.68284314 0.83970588
0.53167126 0.69109222 0.84567249
0.64460784 0.72071078 0.87009804
0.74147518 0.73601409 0.87621017
0.80214461 0.73832721 0.86905637
0.85116422 0.7318704 0.85644148
0.92352941 0.75232843 0.87158395
0.95573683 0.75353094 0.8627068
0.98008578 0.7622549 0.86960784
0.56593137 0.82818627 0.88382353
0.62265625 0.82058824 0.87740502
0.68272059 0.80343137 0.85330882
0.76868873 0.81783088 0.86337316
0.84791667 0.83578431 0.87512255
0.89520527 0.83655025 0.86963848
0.94215686 0.84509804 0.87156863
0.9816636 0.86276042 0.88530944
0.96568627 0.82696078 0.84595588
0.60147059 0.8995098 0.86078431
0.66254596 0.89054075 0.84833027
0.77990196 0.93147978 0.88615196
0.82555147 0.92261029 0.87261029
0.88357843 0.92374387 0.87674632
0.89901961 0.89758732 0.84765625
0.9317402 0.89644608 0.84214154
0.96230852 0.91269148 0.85435815
0.98382353 0.92941176 0.86764706
0.6872549 0.98480392 0.88480392
0.73872549 0.97107843 0.87493873
0.8057598 0.9685049 0.87696078
0.85686275 0.97352941 0.86862745
0.90588235 0.97843137 0.86470588
0.93284314 0.96519608 0.84969363
0.98639706 0.99117647 0.88370098
0.97254902 0.97598039 0.86035539
0.97254902 0.94852941 0.84558824
0.078431373 0.035294118 0.96078431
0.20882353 0.045588235 0.95637255
0.37745098 0.098039216 0.96470588
0.45539216 0.078431373 0.9372549
0.59215686 0.096078431 0.95490196
0.72009804 0.14705882 0.95882353
0.80392157 0.14705882 0.93823529
0.86470588 0.13921569 0.94411765
0.96078431 0.16862745 0.95686275
0.1877451 0.20686275 0.96617647
0.30931373 0.22401961 0.97303922
0.44473039 0.24362745 0.97352941
0.56501225 0.27022059 0.97432598
0.65490196 0.26568627 0.96838235
0.75422794 0.28167892 0.97334559
0.82009804 0.26666667 0.95085784
0.93921569 0.31709559 0.98572304
0.99558824 0.34264706 0.99558824
0.24901961 0.3245098 0.94607843
0.36519608 0.35036765 0.97769608
0.45 0.33014706 0.92352941
0.60833333 0.39693627 0.97843137
0.71029412 0.41078431 0.97843137
0.79522059 0.42254902 0.9692402
0.83308824 0.39019608 0.9254902
0.94056373 0.45147059 0.97536765
0.97647059 0.45784314 0.96862745
0.29166667 0.43823529 0.95539216
0.42107843 0.4745098 0.97193627
0.55012255 0.50306373 0.97659314
0.66280637 0.53039216 0.98241422
0.72990196 0.52426471 0.9622549
0.82401961 0.55 0.97947304
0.8870098 0.54828431 0.96801471
0.96813725 0.57843137 0.99068627
0.99215686 0.58382353 0.97401961
0.38627451 0.57058824 0.94705882
0.50735294 0.61862745 0.97156863
0.57598039 0.59117647 0.94803922
0.70269608 0.64044118 0.98602941
0.78627451 0.65 0.97058824
0.83333333 0.6377451 0.96838235
0.86029412 0.60637255 0.94607843
0.93235294 0.6377451 0.94387255
0.99607843 0.68431373 0.98823529
0.45147059 0.68039216 0.94117647
0.57977941 0.73351716 0.98792892
0.62242647 0.69105392 0.93406863
0.75238971 0.7495098 0.98731618
0.82156863 0.75735294 0.97230392
0.88082108 0.75588235 0.9807598
0.89705882 0.73039216 0.95073529
0.96439951 0.75949755 0.97677696
0.99362745 0.77696078 0.97794118
0.52058824 0.78823529 0.94019608
0.6377451 0.83112745 0.97671569
0.7127451 0.82573529 0.98259804
0.78002451 0.82352941 0.95894608
0.86078431 0.84313725 0.97892157
0.87830882 0.81568627 0.93186275
0.94901961 0.84901961 0.96691176
0.98480392 0.86482843 0.98835784
0.98921569 0.85784314 0.96666667
0.62401961 0.91813725 0.9872549
0.68829657 0.90931373 0.96372549
0.77156863 0.92009804 0.98431373
0.83449755 0.9245098 0.978125
0.90612745 0.94387255 0.98186275
0.95655637 0.9557598 0.98909314
0.96568627 0.93137255 0.95588235
0.99264706 0.94650735 0.97689951
0.99607843 0.94264706 0.98088235
0.72156863 0.98823529 0.98823529
0.73921569 0.96764706 0.96323529
0.81666667 0.97647059 0.9754902
0.88088235 0.98578431 0.96617647
0.92941176 0.98431373 0.98039216
0.95196078 0.98578431 0.98431373
0.96764706 0.97058824 0.95882353
0.96911765 0.96127451 0.94509804
0.97254902 0.97647059 0.96862745
