site/assets/luts/natron-haldclut--smooth-fade--551a62c92.cube
# LUTr-Project: LUTr — LUTrepository
# LUTr-Schema-Version: 1
# LUTr-ID: natron-haldclut--smooth-fade--551a62c92
# LUTr-Title: smooth fade
# LUTr-Collection: Natron HaldCLUT
# LUTr-Collection-ID: natron-haldclut-presets
# LUTr-Source: https://github.com/NatronGitHub/clut
# LUTr-Source-File: submissions/natron-haldclut-presets/various/smooth_fade.png
# LUTr-Source-Format: PNG
# LUTr-Source-SHA256: 3c31d743610572f80e492d26e16d7a40f8b470b116ce0325bf82483b7f98f91c
# LUTr-License: CC-BY-SA-4.0
# LUTr-License-URL: https://github.com/NatronGitHub/clut#license
# LUTr-Tags: creative, film, film-emulation, hald-clut, natron, png, cube
# LUTr-Transform-Class: film-emulation
# LUTr-Input-Color-Space: srgb
# LUTr-Output-Color-Space: srgb
# LUTr-Color-Space-Confidence: assumed-display-referred
# LUTr-Conversion-Method: PNG LUT image decoded at 16-bit and sampled to 25x25x25 3D CUBE
# LUTr-Conversion-Date: 2026-07-27
# LUTr-Conversion-Tool: LUTr scripts/convert-all-to-cube.mjs
# LUTr-Conversion-Grid: 25x25x25
# LUTr-Note: Preserve this metadata and the upstream license notices when redistributing.
TITLE "smooth fade"
LUT_3D_SIZE 9
DOMAIN_MIN 0 0 0
DOMAIN_MAX 1 1 1
0.16862745 0.23529412 0.24313725
0.27696078 0.23529412 0.2622549
0.40784314 0.21666667 0.25588235
0.54166667 0.17156863 0.22647059
0.67254902 0.16078431 0.21960784
0.77843137 0.17352941 0.23235294
0.87941176 0.15 0.20392157
0.94215686 0.16470588 0.2
0.99607843 0.16862745 0.18431373
0.15686275 0.28872549 0.23137255
0.265625 0.30098039 0.24754902
0.38480392 0.29656863 0.23578431
0.51617647 0.27040441 0.21979167
0.64926471 0.25318627 0.20637255
0.76176471 0.24558824 0.2096201
0.86568627 0.24509804 0.20306373
0.93474265 0.23376225 0.19264706
0.99803922 0.21862745 0.17254902
0.14803922 0.39901961 0.22352941
0.24656863 0.38921569 0.21776961
0.36470588 0.38529412 0.20980392
0.49669118 0.37683824 0.20392157
0.63186275 0.36519608 0.20784314
0.7495098 0.36078431 0.2060049
0.85490196 0.3497549 0.18504902
0.93039216 0.34203431 0.17352941
0.97352941 0.33431373 0.16862745
0.16519608 0.50637255 0.23970588
0.23382353 0.50392157 0.20588235
0.34901961 0.49644608 0.2
0.47947304 0.48878676 0.20392157
0.61838235 0.48039216 0.20784314
0.73621324 0.47401961 0.19908088
0.84215686 0.46801471 0.17647059
0.93823529 0.45422794 0.15128676
0.95294118 0.45686275 0.15294118
0.1254902 0.62941176 0.19607843
0.21421569 0.62352941 0.19240196
0.33529412 0.6122549 0.18823529
0.46666667 0.60392157 0.19607843
0.6 0.59509804 0.19803922
0.72279412 0.5875 0.18946078
0.83039216 0.57990196 0.17156863
0.92279412 0.57058824 0.14852941
0.95686275 0.56862745 0.14509804
0.10686275 0.74313725 0.18431373
0.19068627 0.73431373 0.16911765
0.31764706 0.72990196 0.17107843
0.45147059 0.71660539 0.175
0.58676471 0.70784314 0.17107843
0.71121324 0.69852941 0.16715686
0.81862745 0.69007353 0.15441176
0.90980392 0.68039216 0.1372549
0.96617647 0.67892157 0.12794118
0.099019608 0.83431373 0.17647059
0.1814951 0.83039216 0.17156863
0.29779412 0.82647059 0.15612745
0.42732843 0.82254902 0.14056373
0.55980392 0.81470588 0.13872549
0.69117647 0.80355392 0.13627451
0.80220588 0.79509804 0.1245098
0.89558824 0.78688725 0.1127451
0.98529412 0.78333333 0.096078431
0.09754902 0.91862745 0.17647059
0.17064951 0.9221201 0.14558824
0.27708333 0.91911765 0.13321078
0.40147059 0.91096814 0.12941176
0.53676471 0.90318627 0.13161765
0.66813725 0.8995098 0.10459559
0.77990196 0.88370098 0.11470588
0.87898284 0.87990196 0.10931373
0.94019608 0.87205882 0.094117647
0.066666667 0.99215686 0.17254902
0.15539216 0.96127451 0.14558824
0.25588235 0.97058824 0.12254902
0.38088235 0.9754902 0.13431373
0.52156863 0.95882353 0.13529412
0.64117647 0.97107843 0.099509804
0.76372549 0.93431373 0.11666667
0.86862745 0.96127451 0.081862745
0.90196078 0.96078431 0.082352941
0.19166667 0.20882353 0.34313725
0.27647059 0.20833333 0.34754902
0.4 0.20404412 0.34460784
0.52745098 0.19215686 0.32371324
0.66127451 0.16838235 0.31617647
0.77873775 0.16078431 0.30814951
0.88125 0.15686275 0.30036765
0.94908088 0.15735294 0.29264706
0.99215686 0.15343137 0.28480392
0.17346814 0.28523284 0.33578431
0.26170343 0.28480392 0.32886029
0.38088235 0.28480392 0.32359069
0.50833333 0.26666667 0.31380974
0.64338235 0.25318627 0.30441176
0.76289062 0.24928768 0.29275429
0.86090686 0.2442402 0.28523284
0.93818168 0.23290441 0.28045343
0.99215686 0.22591912 0.27702206
0.17365196 0.39215686 0.32107843
0.24869792 0.38921569 0.31204044
0.36176471 0.38529412 0.30211397
0.49105392 0.37647059 0.29620098
0.62818627 0.36341912 0.28835784
0.75159314 0.35752145 0.28443627
0.85392157 0.35294118 0.26902574
0.94215686 0.34473039 0.2622549
0.99215686 0.33296569 0.25735294
0.14430147 0.50784314 0.30588235
0.23351716 0.50392157 0.29814645
0.34901961 0.49607843 0.28667279
0.48131127 0.48823529 0.2767693
0.61568627 0.47916667 0.26896446
0.73829657 0.47254902 0.26408548
0.84215686 0.46585478 0.26024816
0.93476563 0.45422794 0.24947151
0.97990196 0.446875 0.24528186
0.1245098 0.62745098 0.28872549
0.21443015 0.61960784 0.28651961
0.33529412 0.61176471 0.27653186
0.46960784 0.60392157 0.26397059
0.60171569 0.59509804 0.25330882
0.72147672 0.58553922 0.24926471
0.82892157 0.57794118 0.24681373
0.92083333 0.56666667 0.23553922
0.96813725 0.56127451 0.23161765
0.10588235 0.74166667 0.2754902
0.19458487 0.73529412 0.26922488
0.31239277 0.72806373 0.25989583
0.44846814 0.71679688 0.24939491
0.58284314 0.70318627 0.23765319
0.70803462 0.69472273 0.23235294
0.81862745 0.68786765 0.22843137
0.90735294 0.67865349 0.22205882
0.96599265 0.675 0.21795343
0.098039216 0.83811275 0.26115196
0.17804841 0.83431373 0.25637255
0.29249387 0.83039216 0.24632353
0.4245864 0.82009804 0.23374694
0.55680147 0.80759804 0.22463235
0.6872549 0.7990962 0.21801471
0.80003064 0.79191176 0.21222426
0.89848346 0.78429841 0.20625
0.97732843 0.78039216 0.20147059
0.090196078 0.91862745 0.24117647
0.16678156 0.92303156 0.23682598
0.27316176 0.91875 0.22984069
0.40147059 0.90359222 0.22175245
0.53284314 0.89751838 0.21397059
0.66029412 0.89558824 0.20631127
0.77630208 0.88676471 0.20228248
0.87941176 0.87555147 0.19460784
0.94803922 0.87205882 0.18670343
0.062254902 0.99705882 0.22598039
0.15588235 0.96078431 0.22898284
0.25882353 0.95330882 0.22561275
0.37696078 0.97303922 0.21029412
0.51029412 0.96470588 0.21397059
0.64117647 0.97990196 0.19332108
0.75294118 0.96029412 0.19068627
0.8651348 0.95294118 0.17892157
0.91715686 0.9495098 0.17107843
0.19705882 0.18431373 0.44411765
0.27254902 0.17977941 0.44313725
0.39607843 0.17671569 0.43627451
0.52745098 0.17647059 0.4245098
0.65098039 0.17990196 0.41813725
0.77120098 0.16470588 0.40882353
0.88235294 0.14583333 0.40784314
0.95772059 0.14117647 0.39963235
0.99901961 0.13333333 0.39215686
0.17696078 0.28860294 0.42855392
0.26170343 0.28043811 0.4314951
0.3765625 0.27454044 0.42555147
0.50678615 0.267019 0.41804534
0.64705882 0.25490196 0.41053922
0.76358762 0.25111826 0.3972886
0.87000613 0.24154412 0.38967525
0.95392157 0.23382353 0.38550858
0.99264706 0.22941176 0.37794118
0.15490196 0.39607843 0.42377451
0.24914216 0.38921569 0.41351103
0.3625 0.38431373 0.40827206
0.49105392 0.37254902 0.40052083
0.62843137 0.35931373 0.3939951
0.7520527 0.35045956 0.38575368
0.85392157 0.34920343 0.37389706
0.94417892 0.3411152 0.36559436
0.99607843 0.33112745 0.3627451
0.14129902 0.51568627 0.40490196
0.22798713 0.50569853 0.40208333
0.34629289 0.49816176 0.3908701
0.48062194 0.48901654 0.37786458
0.61446078 0.47696078 0.37291667
0.73944547 0.46793811 0.37291667
0.84215686 0.46078431 0.36424632
0.93517157 0.45030637 0.35384498
0.9942402 0.43872549 0.34718137
0.10833333 0.63333333 0.39117647
0.20637255 0.62328431 0.38743873
0.33431373 0.61176471 0.37953431
0.47003676 0.60392157 0.36568627
0.59803922 0.59705882 0.36151961
0.71795343 0.5875 0.35931373
0.83088235 0.57218137 0.35196078
0.92150735 0.56292892 0.33970588
0.98578431 0.55294118 0.33578431
0.11372549 0.7377451 0.37352941
0.19345895 0.73144914 0.37144608
0.31164216 0.72352941 0.36237745
0.44454657 0.71199449 0.35091912
0.57800245 0.70153186 0.34430147
0.70281863 0.69460784 0.33745404
0.81577819 0.68823529 0.32892157
0.90588235 0.67628676 0.32438725
0.97830882 0.66470588 0.32254902
0.085539216 0.84215686 0.36151961
0.17794118 0.83823529 0.35398284
0.28682598 0.82671569 0.34846814
0.41681985 0.81332721 0.3390625
0.54803922 0.80306373 0.33026961
0.67941176 0.79653799 0.32245711
0.79846814 0.79117647 0.31464461
0.89485294 0.77962623 0.30906863
0.96862745 0.76936275 0.30661765
0.090196078 0.92254902 0.34203431
0.16666667 0.92259498 0.3377451
0.27046569 0.91213235 0.33382353
0.39803922 0.8995098 0.32544424
0.52181373 0.89552696 0.31856618
0.65326287 0.89166667 0.31239277
0.77242647 0.88342525 0.30514706
0.87598039 0.87135417 0.29492953
0.96029412 0.86519608 0.28676471
0.078431373 0.98529412 0.32941176
0.14803922 0.98345588 0.32254902
0.25490196 0.96764706 0.31960784
0.37843137 0.9682598 0.31470588
0.50196078 0.97598039 0.30735294
0.63872549 0.95747549 0.30294118
0.75980392 0.94901961 0.30122549
0.86078431 0.94901961 0.28590686
0.94117647 0.94901961 0.27156863
0.175 0.18921569 0.55245098
0.27518382 0.19607843 0.54852941
0.39215686 0.18039216 0.54129902
0.52898284 0.17009804 0.52800245
0.65735294 0.16617647 0.51838235
0.76966912 0.16170343 0.51176471
0.87683824 0.15196078 0.51323529
0.94607843 0.14509804 0.50520833
0.98970588 0.1372549 0.49754902
0.18302696 0.29246324 0.54099265
0.26174173 0.285072 0.53707108
0.37254902 0.27280944 0.52803309
0.51078431 0.26175705 0.52119332
0.64577206 0.25327819 0.5106924
0.7627451 0.24558824 0.50177696
0.8622549 0.23639706 0.49626225
0.9442019 0.22598039 0.48981311
0.98805147 0.22205882 0.48449755
0.16078431 0.39705882 0.52561275
0.24367341 0.39313725 0.51997549
0.35346201 0.38063725 0.51029412
0.49091605 0.36747855 0.5049326
0.63045343 0.35686275 0.49816176
0.75159314 0.34584865 0.49031863
0.84298407 0.34145221 0.4814951
0.93457414 0.33288909 0.47231924
0.99607843 0.32156863 0.46507353
0.14172794 0.52199755 0.50686275
0.22726716 0.50657169 0.50539216
0.34117647 0.49252451 0.49293811
0.47346814 0.48059896 0.48390778
0.60885417 0.47058824 0.47990196
0.73621324 0.46323529 0.47493873
0.83823529 0.4551011 0.46917892
0.92352175 0.44509804 0.46107537
0.9848652 0.4372549 0.45140931
0.12671569 0.63210784 0.48578431
0.21216299 0.61969975 0.48578431
0.3254902 0.60802696 0.47769608
0.45955882 0.59923407 0.46467525
0.58921569 0.59215686 0.46348039
0.71446078 0.57965686 0.46106005
0.82720588 0.56832108 0.4497549
0.91372549 0.55686275 0.44436275
0.98431373 0.54901961 0.43676471
0.09564951 0.74313725 0.47738971
0.19675245 0.72664675 0.47028952
0.30874694 0.71629902 0.46614583
0.44270833 0.70334712 0.4527114
0.57208946 0.69460784 0.44810049
0.69852941 0.68976716 0.443053
0.80968137 0.68287377 0.43333333
0.90643382 0.67136949 0.42537531
0.9966299 0.66470588 0.41764706
0.09129902 0.83431373 0.46580882
0.17401961 0.8287837 0.46188725
0.28529412 0.81724877 0.45667892
0.41666667 0.80179228 0.44512868
0.54607843 0.79509804 0.43572304
0.6754902 0.79192708 0.42797181
0.79099265 0.78679534 0.41832108
0.89068627 0.77530637 0.41311275
0.97156863 0.76372549 0.41090686
0.08627451 0.91911765 0.44871324
0.15931373 0.91693474 0.44479167
0.26617647 0.90712316 0.44073223
0.39148284 0.89558824 0.43157169
0.52107843 0.89059436 0.42126225
0.65245098 0.88763021 0.41341912
0.77152267 0.87726716 0.40716912
0.87248775 0.87001379 0.39932598
0.96029412 0.86421569 0.39148284
0.074509804 0.98823529 0.43333333
0.14773284 0.98216912 0.42696078
0.25098039 0.97647059 0.42303922
0.37058824 0.97254902 0.41519608
0.49803922 0.96936275 0.40857843
0.6338848 0.9533701 0.40496324
0.75686275 0.94901961 0.3995098
0.86029412 0.95294118 0.38382353
0.93872549 0.94901961 0.37598039
0.18431373 0.21568627 0.65098039
0.2745098 0.20808824 0.64901961
0.39215686 0.16813725 0.64313725
0.5247549 0.16936275 0.63529412
0.65882353 0.15882353 0.6254902
0.76911765 0.15612745 0.61887255
0.86127451 0.15294118 0.61764706
0.93431373 0.14460784 0.60980392
0.99215686 0.12745098 0.60196078
0.17303922 0.3002451 0.64338235
0.26106005 0.2872549 0.64120711
0.36911765 0.26875 0.63553922
0.50358456 0.25704657 0.62647059
0.64742647 0.2442402 0.61862745
0.7653799 0.24093137 0.60735294
0.85349265 0.22990196 0.60416667
0.93409926 0.22205882 0.59803922
0.99215686 0.21421569 0.58848039
0.14754902 0.40098039 0.62647059
0.24123775 0.38939951 0.62426471
0.35147059 0.37671569 0.61666667
0.48602941 0.3591299 0.61439951
0.62696078 0.3495098 0.60808824
0.75379902 0.34571078 0.59264706
0.84607843 0.3372549 0.58872549
0.93088235 0.3254902 0.58216912
0.98823529 0.31862745 0.57647059
0.14509804 0.51176471 0.61053922
0.22941176 0.50009191 0.60367647
0.3379902 0.48921569 0.59681373
0.46862745 0.47401961 0.59362745
0.60343137 0.46642157 0.58933824
0.73284314 0.46078431 0.57916667
0.83823529 0.45012255 0.57506127
0.9268076 0.43979779 0.56804534
0.98823529 0.43210784 0.56151961
0.13333333 0.62058824 0.58921569
0.21397059 0.61286765 0.58247549
0.31960784 0.60416667 0.57769608
0.44669118 0.59485294 0.56997549
0.58186275 0.58431373 0.56715686
0.70808824 0.57573529 0.56568627
0.81691176 0.56421569 0.55563725
0.91213235 0.5564951 0.54571078
0.99019608 0.54509804 0.53823529
0.11102941 0.72990196 0.57573529
0.19770221 0.72098652 0.57377451
0.29810049 0.71568627 0.57058824
0.4323223 0.7 0.56124387
0.56495098 0.68946078 0.55453431
0.69022672 0.68376225 0.5495098
0.79846814 0.67328431 0.53743873
0.9018076 0.66780025 0.52696078
0.98480392 0.66078431 0.52205882
0.091176471 0.83137255 0.56666667
0.17401961 0.82254902 0.5627451
0.28186275 0.81102941 0.55870098
0.41109069 0.79509804 0.55153186
0.54240196 0.7875 0.54362745
0.67156863 0.78670343 0.53602941
0.78406863 0.77352941 0.52058824
0.88529412 0.77205882 0.51305147
0.96862745 0.77205882 0.50735294
0.082107843 0.91691176 0.55637255
0.15974265 0.90928309 0.55119485
0.26237745 0.89914216 0.54705882
0.38397672 0.88921569 0.5377451
0.51715686 0.88382353 0.52818627
0.64852941 0.87892157 0.52058824
0.77120098 0.86415441 0.51102941
0.87205882 0.86400123 0.50392157
0.95220588 0.86593137 0.49779412
0.060784314 0.99215686 0.5372549
0.15147059 0.98431373 0.53529412
0.25098039 0.97352941 0.53137255
0.36544118 0.97254902 0.52034314
0.49509804 0.95882353 0.51568627
0.62941176 0.94117647 0.50784314
0.75294118 0.93578431 0.50147059
0.85808824 0.93921569 0.49019608
0.91764706 0.94117647 0.48431373
0.17647059 0.18039216 0.75735294
0.26470588 0.18805147 0.75343137
0.38039216 0.18860294 0.74987745
0.51329657 0.18039216 0.74221814
0.64436275 0.1752451 0.73382353
0.77542892 0.13878676 0.72352941
0.85723039 0.14509804 0.72316176
0.93970588 0.14479167 0.71550245
1 0.13480392 0.70637255
0.15735294 0.28333333 0.74185049
0.25300245 0.27696078 0.73952206
0.36519608 0.26875 0.73823529
0.50030637 0.25716146 0.73255208
0.6375 0.24558824 0.72303922
0.76519608 0.23333333 0.71047794
0.85539216 0.22977941 0.71070772
0.94234069 0.22205882 0.7040288
0.98823529 0.21942402 0.69871324
0.14865196 0.39105392 0.72806373
0.23737745 0.3817402 0.72250306
0.3497549 0.37279412 0.71911765
0.4845435 0.35723039 0.71629902
0.62205882 0.34607843 0.71151961
0.74987745 0.34330576 0.70199142
0.85027574 0.33679534 0.69249387
0.93662684 0.32918199 0.6877451
0.98823529 0.32254902 0.68382353
0.14509804 0.50392157 0.71476716
0.22560509 0.49345129 0.70795803
0.33656556 0.48431373 0.7
0.46617647 0.47254902 0.7
0.60101103 0.46151961 0.69880515
0.72745098 0.45686275 0.68846507
0.83186275 0.45081189 0.675
0.92843137 0.43941483 0.66862745
0.99852941 0.43333333 0.66078431
0.1372549 0.61568627 0.69534314
0.21136642 0.60799632 0.6895527
0.31207108 0.59852941 0.68357843
0.43998162 0.5916973 0.68161765
0.57941176 0.58198529 0.67806373
0.70003064 0.57254902 0.66957721
0.80827206 0.5622549 0.65563725
0.90931373 0.55294118 0.64411765
0.98553922 0.54779412 0.63848039
0.1122549 0.72598039 0.67984069
0.19594822 0.71599265 0.67591912
0.29693627 0.70845588 0.67431066
0.42252604 0.69908088 0.67107843
0.55612745 0.68704044 0.66519608
0.68376225 0.67649357 0.65170037
0.79571078 0.66757047 0.63762255
0.89822304 0.66715686 0.62390472
0.98284314 0.66323529 0.62310049
0.08627451 0.8314951 0.67107843
0.17596507 0.81875 0.66715686
0.28137255 0.81078431 0.66351103
0.40136336 0.79901961 0.65718444
0.53676471 0.78743873 0.65067402
0.66764706 0.77610294 0.63826593
0.78121936 0.76764706 0.62092525
0.88337929 0.76862745 0.6122549
0.95404412 0.77254902 0.6122549
0.084987745 0.91127451 0.65882353
0.1627451 0.90782016 0.65120251
0.26360294 0.9004902 0.64754902
0.38186275 0.88822763 0.64320619
0.51608456 0.88382353 0.63422181
0.64852941 0.87598039 0.62383578
0.7685049 0.86435355 0.60929841
0.87156863 0.86421569 0.60408241
0.95147059 0.86813725 0.6004902
0.08627451 0.95931373 0.64754902
0.15410539 0.97990196 0.63970588
0.2435049 0.98382353 0.62941176
0.36127451 0.96470588 0.62794118
0.49485294 0.96078431 0.61887255
0.62941176 0.95294118 0.61133578
0.75539216 0.95477941 0.5995098
0.86029412 0.93265931 0.59264706
0.94656863 0.94901961 0.58480392
0.16666667 0.17745098 0.85686275
0.26507353 0.20098039 0.85036765
0.38210784 0.17254902 0.85171569
0.51176471 0.17610294 0.84607843
0.64166667 0.17009804 0.83872549
0.7627451 0.15183824 0.83431373
0.8627451 0.14436275 0.82573529
0.95882353 0.14938725 0.81421569
1 0.15196078 0.81078431
0.14852941 0.27696078 0.85012255
0.24590993 0.27314645 0.84275429
0.36862745 0.26482843 0.83835784
0.50399816 0.25079657 0.83088235
0.63921569 0.24160539 0.82518382
0.76073836 0.23151042 0.8196538
0.85784314 0.22594975 0.81191789
0.95098039 0.2254902 0.80251225
0.98480392 0.2254902 0.79901961
0.14411765 0.38431373 0.83063725
0.23382353 0.37965686 0.82426471
0.3497549 0.37254902 0.81868873
0.4877451 0.35502451 0.81176471
0.62598039 0.34362745 0.81078431
0.74678309 0.33651961 0.80603554
0.85 0.33333333 0.79270833
0.93823529 0.33333333 0.78333333
0.96397059 0.33333333 0.78039216
0.14227941 0.5 0.81507353
0.2230239 0.4886489 0.81083027
0.33088235 0.4807598 0.80330882
0.46378676 0.47254902 0.8004902
0.60465686 0.45759804 0.79810049
0.72653186 0.45294118 0.78831189
0.83186275 0.44901961 0.77487745
0.93057598 0.4372549 0.76778493
0.95159314 0.44154412 0.76127451
0.13137255 0.61568627 0.79754902
0.20441176 0.60784314 0.79515931
0.30747549 0.59607843 0.79007353
0.43848039 0.5870098 0.78547794
0.58039216 0.57647059 0.78137255
0.70514706 0.56648284 0.77083333
0.81286765 0.56188725 0.75588235
0.91170343 0.55686275 0.74436275
0.9622549 0.55294118 0.73431373
0.11078431 0.72598039 0.78394608
0.19050245 0.71568627 0.78223039
0.29301471 0.71066176 0.77830882
0.41917892 0.70091912 0.77179841
0.55220588 0.6875 0.7629902
0.68676471 0.67869179 0.75193015
0.7981924 0.67107843 0.7403799
0.8995098 0.66862745 0.73097426
0.97830882 0.66715686 0.72732843
0.091176471 0.82622549 0.76764706
0.17693015 0.81862745 0.76700368
0.27935049 0.81470588 0.76317402
0.40196078 0.80686275 0.75698529
0.53676471 0.79117647 0.74754902
0.66470588 0.78250613 0.73673407
0.78333333 0.77628676 0.72714461
0.88382353 0.7754902 0.71985294
0.95980392 0.77156863 0.71593137
0.072426471 0.91776961 0.75588235
0.15931373 0.91078431 0.74921875
0.26161152 0.90343137 0.74803922
0.38481924 0.89590993 0.74206495
0.51893382 0.8877451 0.73278186
0.64852941 0.87719056 0.72313113
0.76792279 0.87205882 0.715625
0.86813725 0.86813725 0.7057598
0.94595588 0.86764706 0.70061275
0.065686275 0.97843137 0.74803922
0.15147059 0.96519608 0.74117647
0.24705882 0.97156863 0.73651961
0.35980392 0.96911765 0.72843137
0.49607843 0.95833333 0.72058824
0.62941176 0.96323529 0.70980392
0.75514706 0.94191176 0.70563725
0.85245098 0.94509804 0.6939951
0.92745098 0.94117647 0.68921569
0.21127451 0.18823529 0.92254902
0.25741422 0.17898284 0.934375
0.38039216 0.18088235 0.91519608
0.51158088 0.1745098 0.92420343
0.65514706 0.14289216 0.94240196
0.76127451 0.14754902 0.92254902
0.87254902 0.13039216 0.91813725
0.94166667 0.15594363 0.89908088
0.99607843 0.12892157 0.90735294
0.16219363 0.27647059 0.91029412
0.24172028 0.27647059 0.91127451
0.3689951 0.26605392 0.91862745
0.50418964 0.25155484 0.92254902
0.63900123 0.2377451 0.91715686
0.7536152 0.22987898 0.91121324
0.85381434 0.22598039 0.90206801
0.93511795 0.22598039 0.8830193
0.98131127 0.22205882 0.88431373
0.13468137 0.38394608 0.91029412
0.23344056 0.37745098 0.90326287
0.34607843 0.37426471 0.9140625
0.48524816 0.35922181 0.90441176
0.62579657 0.34117647 0.90386029
0.74375 0.33333333 0.89901961
0.84607843 0.33026961 0.88848039
0.9338848 0.33296569 0.87173713
0.97696078 0.32904412 0.87340686
0.14497549 0.49607843 0.90686275
0.22303922 0.49001225 0.90686275
0.32954963 0.48270527 0.90490196
0.46359528 0.47310049 0.89797794
0.60254289 0.45695466 0.89313725
0.72433364 0.44901961 0.88382353
0.83186275 0.44420956 0.87166054
0.93039216 0.4346201 0.8661152
0.96176471 0.43676471 0.85833333
0.11544118 0.61568627 0.90563725
0.2004902 0.60784314 0.89558824
0.30539216 0.6 0.88645833
0.43529412 0.58912377 0.88382353
0.57647059 0.5745098 0.87892157
0.70799632 0.56004902 0.86813725
0.81715686 0.55618873 0.85588235
0.90906863 0.55294118 0.8448223
0.96078431 0.54901961 0.83284314
0.10539216 0.72205882 0.88645833
0.18284314 0.71599265 0.88251379
0.28681066 0.71029412 0.87487745
0.41317402 0.70091912 0.87058824
0.54935662 0.68946078 0.85891544
0.68419884 0.67647059 0.85098039
0.80183824 0.66708027 0.84483762
0.89411765 0.66452206 0.83660386
0.96862745 0.66452206 0.83314951
0.096691176 0.82254902 0.86727941
0.17095588 0.81470588 0.86715686
0.27374387 0.8125 0.86130515
0.39964767 0.80344669 0.85183824
0.5346201 0.79234069 0.84068627
0.66239277 0.78615196 0.83676471
0.78014706 0.78036152 0.83195466
0.88022365 0.77544424 0.82489277
0.95992647 0.77120098 0.82022059
0.082291667 0.91127451 0.85196078
0.15582108 0.90735294 0.84852941
0.2622549 0.90343137 0.8458027
0.38229167 0.89918045 0.83834252
0.51372549 0.88676471 0.82892157
0.64117647 0.87990196 0.82526808
0.760769 0.87581189 0.81988358
0.86721814 0.86813725 0.80974265
0.94460784 0.86372549 0.80490196
0.078921569 0.97647059 0.84117647
0.14411765 0.98039216 0.8411152
0.24313725 0.97303922 0.84068627
0.36617647 0.96292892 0.83039216
0.49068627 0.96372549 0.81715686
0.62156863 0.95539216 0.81354167
0.74166667 0.95245098 0.80845588
0.84509804 0.94901961 0.79797794
0.91813725 0.9372549 0.78970588
0.15294118 0.16862745 0.95294118
0.25343137 0.17647059 0.95294118
0.37647059 0.19901961 0.93823529
0.50784314 0.19362745 0.93578431
0.64705882 0.15294118 0.95098039
0.75882353 0.14754902 0.93578431
0.86568627 0.13823529 0.92156863
0.93431373 0.1372549 0.93333333
0.99607843 0.11764706 0.94901961
0.17794118 0.27647059 0.94117647
0.23823529 0.27303922 0.94901961
0.3689951 0.27696078 0.94595588
0.50392157 0.26568627 0.94852941
0.63921569 0.2377451 0.94313725
0.75735294 0.228125 0.921875
0.85428922 0.22598039 0.90992647
0.92696078 0.22598039 0.9254902
0.98823529 0.22156863 0.9372549
0.13627451 0.38431373 0.94607843
0.22696078 0.37647059 0.94852941
0.3497549 0.37647059 0.95220588
0.48713235 0.3622549 0.94509804
0.62745098 0.34117647 0.94313725
0.74767157 0.33223039 0.92120098
0.84705882 0.32647059 0.92058824
0.93039216 0.32941176 0.93590686
0.99117647 0.32254902 0.9372549
0.13088235 0.5 0.94117647
0.21783088 0.49607843 0.94460784
0.32696078 0.48823529 0.94901961
0.46078431 0.47647059 0.94901961
0.5995098 0.46078431 0.95294118
0.72107843 0.44810049 0.94509804
0.83039216 0.4372549 0.94117647
0.92824755 0.43069853 0.94656863
0.99754902 0.42156863 0.94264706
0.11176471 0.61568627 0.94509804
0.19460784 0.61176471 0.94901961
0.30735294 0.60392157 0.94901961
0.43529412 0.59215686 0.94828431
0.5745098 0.57647059 0.94705882
0.70980392 0.56078431 0.93529412
0.81715686 0.55294118 0.92941176
0.90906863 0.54877451 0.9254902
0.98039216 0.54509804 0.9254902
0.098039216 0.72205882 0.94117647
0.17892157 0.71813725 0.94099265
0.28517157 0.71237745 0.94509804
0.4122549 0.70300245 0.94509804
0.54828431 0.69338235 0.93186275
0.68431373 0.67892157 0.9254902
0.80183824 0.66470588 0.9254902
0.89411765 0.66078431 0.92156863
0.975 0.65686275 0.92647059
0.085294118 0.82254902 0.94509804
0.16617647 0.81470588 0.94203431
0.27132353 0.81470588 0.94509804
0.39313725 0.80625 0.93480392
0.52892157 0.79313725 0.91127451
0.66041667 0.78333333 0.90588235
0.77647059 0.7754902 0.92230392
0.87990196 0.77156863 0.91580882
0.96078431 0.76764706 0.88137255
0.070588235 0.91911765 0.94509804
0.15496324 0.90778186 0.94068627
0.25490196 0.8995098 0.93419118
0.37273284 0.89558824 0.93351716
0.50955882 0.87769608 0.91176471
0.64460784 0.87205882 0.90980392
0.76029412 0.87205882 0.90980392
0.86421569 0.87113971 0.90147059
0.94852941 0.86029412 0.86666667
0.047058824 1 0.95294118
0.13970588 0.99215686 0.9372549
0.24313725 0.96666667 0.93039216
0.3627451 0.93333333 0.93333333
0.49607843 0.93921569 0.90980392
0.6254902 0.94754902 0.91372549
0.75294118 0.9127451 0.90686275
0.86029412 0.90637255 0.90147059
0.94901961 0.94509804 0.89019608
