site/assets/luts/natron-haldclut--goldfx-spring-breeze--d2a9c1d6b.cube
# LUTr-Project: LUTr — LUTrepository
# LUTr-Schema-Version: 1
# LUTr-ID: natron-haldclut--goldfx-spring-breeze--d2a9c1d6b
# LUTr-Title: goldfx spring breeze
# LUTr-Collection: Natron HaldCLUT
# LUTr-Collection-ID: natron-haldclut-presets
# LUTr-Source: https://github.com/NatronGitHub/clut
# LUTr-Source-File: submissions/natron-haldclut-presets/picturefx/goldfx_spring_breeze.png
# LUTr-Source-Format: PNG
# LUTr-Source-SHA256: eb122954f76710be3afe87e632ce01c3db75bb18e5f51ad1f5d65f929918644d
# LUTr-License: CC-BY-SA-4.0
# LUTr-License-URL: https://github.com/NatronGitHub/clut#license
# LUTr-Tags: creative, film, film-emulation, hald-clut, natron, png, cube
# LUTr-Transform-Class: film-emulation
# LUTr-Input-Color-Space: srgb
# LUTr-Output-Color-Space: srgb
# LUTr-Color-Space-Confidence: assumed-display-referred
# LUTr-Conversion-Method: PNG LUT image decoded at 16-bit and sampled to 25x25x25 3D CUBE
# LUTr-Conversion-Date: 2026-07-27
# LUTr-Conversion-Tool: LUTr scripts/convert-all-to-cube.mjs
# LUTr-Conversion-Grid: 25x25x25
# LUTr-Note: Preserve this metadata and the upstream license notices when redistributing.
TITLE "goldfx spring breeze"
LUT_3D_SIZE 5
DOMAIN_MIN 0 0 0
DOMAIN_MAX 1 1 1
0.0039215686 0.0078431373 0.0039215686
0.15784314 0.039215686 0.016666667
0.43921569 0.01372549 0.035294118
0.7372549 0.0039215686 0.058823529
0.99607843 0.2 0.10980392
0 0.2 0.02254902
0.15294118 0.2120098 0.017401961
0.48382353 0.2372549 0.033823529
0.75269608 0.24607843 0.067401961
0.98039216 0.32156863 0.11764706
0 0.41764706 0.041176471
0.10245098 0.42156863 0.032352941
0.42647059 0.43137255 0
0.75833333 0.49117647 0.011764706
0.98627451 0.57058824 0.16470588
0 0.63921569 0.0068627451
0.12034314 0.6370098 0
0.41372549 0.63676471 0
0.67843137 0.6627451 0.00073529412
0.94411765 0.73921569 0
0.42352941 0.95686275 0.21960784
0.44803922 0.95686275 0.2245098
0.57843137 0.94901961 0.21176471
0.77352941 0.94705882 0.13333333
0.98039216 0.98039216 0.14901961
0 0.078431373 0.19313725
0.16593137 0.093137255 0.20784314
0.4754902 0.073529412 0.21862745
0.75122549 0.025490196 0.20735294
0.98333333 0.1754902 0.20980392
0.00098039216 0.24705882 0.21470588
0.19846814 0.25784314 0.24748775
0.50404412 0.22107843 0.20955882
0.76464461 0.19436275 0.21023284
0.98039216 0.27720588 0.21372549
0 0.47843137 0.19607843
0.094730392 0.46727941 0.17843137
0.45588235 0.45122549 0.13137255
0.77071078 0.49901961 0.16593137
0.96911765 0.55392157 0.24852941
0.0078431373 0.66568627 0.083088235
0.091727941 0.65968137 0.079656863
0.40220588 0.63713235 0.047671569
0.67867647 0.6721201 0.010845588
0.94583333 0.74411765 0.01127451
0.42156863 0.95588235 0.23529412
0.42794118 0.95441176 0.23357843
0.55 0.93137255 0.18431373
0.77254902 0.94779412 0.15514706
0.98039216 0.97745098 0.15490196
0 0.21176471 0.50784314
0.021078431 0.18627451 0.51911765
0.55588235 0.23529412 0.55686275
0.81421569 0.2872549 0.55882353
0.97843137 0.25294118 0.51372549
0 0.33431373 0.5
0.03627451 0.31323529 0.53541667
0.55906863 0.32671569 0.56446078
0.81691176 0.34129902 0.55306373
0.98039216 0.26911765 0.48676471
0 0.57254902 0.53137255
0.027205882 0.57818627 0.5375
0.55588235 0.56960784 0.56666667
0.80637255 0.4752451 0.46813725
0.97058824 0.48333333 0.45098039
0.014215686 0.75588235 0.41372549
0.020710784 0.75159314 0.40245098
0.36544118 0.72377451 0.37769608
0.70931373 0.70343137 0.30085784
0.95441176 0.7627451 0.41029412
0.39607843 0.96862745 0.43137255
0.3872549 0.96372549 0.42892157
0.51176471 0.95686275 0.41764706
0.74460784 0.95931373 0.38088235
0.96666667 0.97254902 0.35490196
0.0039215686 0.36470588 0.78431373
0.031127451 0.33946078 0.80196078
0.50392157 0.3872549 0.81862745
0.81397059 0.4747549 0.82745098
0.96372549 0.59313725 0.82941176
0.0046568627 0.46176471 0.80220588
0.019607843 0.43235294 0.80588235
0.50919118 0.45257353 0.81862745
0.81470588 0.52230392 0.82610294
0.95588235 0.60710784 0.83112745
0.0078431373 0.64215686 0.76470588
0.027573529 0.63431373 0.77218137
0.4877451 0.64411765 0.79779412
0.81078431 0.69313725 0.83112745
0.94264706 0.72352941 0.83823529
0.13946078 0.83431373 0.78014706
0.14791667 0.83633578 0.78278186
0.44522059 0.83125 0.78688725
0.77009804 0.83039216 0.81127451
0.93970588 0.7622549 0.73186275
0.41666667 0.96764706 0.73431373
0.40710784 0.97279412 0.72254902
0.44509804 0.98186275 0.71666667
0.67058824 0.95857843 0.66446078
0.94411765 0.97156863 0.63431373
0.29411765 0.61568627 0.97647059
0.36666667 0.60588235 0.9754902
0.60196078 0.63137255 0.97254902
0.80686275 0.71568627 0.96862745
0.9372549 0.79607843 0.97254902
0.3245098 0.65196078 0.96764706
0.40514706 0.65808824 0.97279412
0.59313725 0.65147059 0.9627451
0.8129902 0.7125 0.95490196
0.92941176 0.74901961 0.95098039
0.45686275 0.78039216 0.95686275
0.45980392 0.77696078 0.95735294
0.58431373 0.75392157 0.95294118
0.79558824 0.79068627 0.96029412
0.92745098 0.85098039 0.97058824
0.39313725 0.89901961 0.94901961
0.38872549 0.89681373 0.9497549
0.50490196 0.88431373 0.94901961
0.75784314 0.87941176 0.95882353
0.91764706 0.91862745 0.96862745
0.62352941 0.99607843 0.96862745
0.60686275 0.99215686 0.96470588
0.60784314 0.99215686 0.96470588
0.75588235 0.98823529 0.95980392
0.91764706 0.99607843 0.98823529
