site/assets/luts/natron-haldclut--fuji3513-constlmap--d4d2ff55a.cube
# LUTr-Project: LUTr — LUTrepository
# LUTr-Schema-Version: 1
# LUTr-ID: natron-haldclut--fuji3513-constlmap--d4d2ff55a
# LUTr-Title: fuji3513 constlmap
# LUTr-Collection: Natron HaldCLUT
# LUTr-Collection-ID: natron-haldclut-presets
# LUTr-Source: https://github.com/NatronGitHub/clut
# LUTr-Source-File: submissions/natron-haldclut-presets/print/fuji3513_constlmap.png
# LUTr-Source-Format: PNG
# LUTr-Source-SHA256: e28dd8e64358fabc8a9df82541361ac5118091bcb50cb93442594f56e348931e
# LUTr-License: CC-BY-SA-4.0
# LUTr-License-URL: https://github.com/NatronGitHub/clut#license
# LUTr-Tags: creative, film, film-emulation, hald-clut, natron, png, cube
# LUTr-Transform-Class: film-emulation
# LUTr-Input-Color-Space: srgb
# LUTr-Output-Color-Space: srgb
# LUTr-Color-Space-Confidence: assumed-display-referred
# LUTr-Conversion-Method: PNG LUT image decoded at 16-bit and sampled to 25x25x25 3D CUBE
# LUTr-Conversion-Date: 2026-07-27
# LUTr-Conversion-Tool: LUTr scripts/convert-all-to-cube.mjs
# LUTr-Conversion-Grid: 25x25x25
# LUTr-Note: Preserve this metadata and the upstream license notices when redistributing.
TITLE "fuji3513 constlmap"
LUT_3D_SIZE 5
DOMAIN_MIN 0 0 0
DOMAIN_MAX 1 1 1
0.0039215686 0.0078431373 0.015686275
0.069607843 0.031372549 0.019607843
0.29019608 0.062745098 0.0058823529
0.46078431 0.08627451 0.014705882
0.50980392 0.094117647 0.019607843
0.015686275 0.088235294 0.05
0.080637255 0.11764706 0.040196078
0.39411765 0.17009804 0.0078431373
0.58259804 0.19411765 0.0039215686
0.64509804 0.2127451 0.0078431373
0 0.25098039 0.12156863
0.034313725 0.31715686 0.08627451
0.51176471 0.44117647 0.0058823529
0.74509804 0.47303922 0.0044117647
0.78235294 0.49019608 0.019607843
0.0068627451 0.41666667 0.18137255
0.052205882 0.50098039 0.1254902
0.6 0.67990196 0.00049019608
0.8625 0.73921569 0.056617647
0.92941176 0.7627451 0.070588235
0 0.48235294 0.21960784
0.14705882 0.62254902 0.062745098
0.65686275 0.75098039 0.0098039216
0.91862745 0.81078431 0.082352941
0.96862745 0.82352941 0.098039216
0.0078431373 0.035294118 0.065686275
0.083333333 0.031372549 0.080392157
0.33872549 0.03627451 0.087254902
0.54607843 0.026470588 0.094117647
0.5872549 0.030392157 0.10882353
0.011764706 0.10857843 0.11544118
0.10661765 0.12585784 0.11917892
0.44227941 0.1872549 0.13333333
0.69172794 0.146875 0.083578431
0.75784314 0.11593137 0.059068627
0.025490196 0.31470588 0.21911765
0.15306373 0.36568627 0.21593137
0.55784314 0.49460784 0.21691176
0.84669118 0.52732843 0.12720588
0.91568627 0.54215686 0.030882353
0.031372549 0.46985294 0.3
0.068443627 0.55857843 0.29313725
0.62745098 0.75539216 0.16629902
0.94001225 0.81219363 0.23609069
0.99436275 0.82671569 0.1745098
0.0029411765 0.56862745 0.43235294
0.020343137 0.68897059 0.4254902
0.65539216 0.83627451 0.36568627
0.97990196 0.88651961 0.3252451
1 0.88921569 0.45098039
0.0039215686 0.10784314 0.22352941
0.062745098 0.042156863 0.29803922
0.3754902 0.047058824 0.34019608
0.5995098 0.029901961 0.36519608
0.64313725 0.043137255 0.38235294
0.0068627451 0.20098039 0.31372549
0.11041667 0.20343137 0.34938725
0.47573529 0.22205882 0.45
0.74705882 0.12083333 0.46862745
0.79166667 0.15735294 0.49166667
0.017647059 0.40882353 0.45882353
0.19828431 0.46421569 0.50269608
0.58235294 0.57254902 0.59166667
0.89117647 0.59607843 0.58431373
0.94411765 0.6245098 0.59509804
0 0.56764706 0.55980392
0.096691176 0.65159314 0.61568627
0.5754902 0.85416667 0.66421569
0.95490196 0.90367647 0.69080882
1 0.90980392 0.69852941
0 0.65490196 0.65882353
0 0.7627451 0.7372549
0.59705882 0.90294118 0.77843137
0.96127451 0.95539216 0.76470588
1 0.96078431 0.80980392
0.0039215686 0.16176471 0.32647059
0.054901961 0.046813725 0.45392157
0.40588235 0.064215686 0.54117647
0.61495098 0.069607843 0.55710784
0.65490196 0.044117647 0.56666667
0.00098039216 0.26862745 0.45784314
0.042156863 0.25784314 0.52028186
0.49865196 0.1752451 0.71433824
0.74583333 0.18039216 0.71691176
0.79901961 0.13553922 0.74117647
0.0039215686 0.48333333 0.6245098
0.14166667 0.5192402 0.67156863
0.53946078 0.61985294 0.85882353
0.88370098 0.6314951 0.86776961
0.9372549 0.64803922 0.88627451
0.012009804 0.62867647 0.70318627
0.11354167 0.71176471 0.77941176
0.525 0.89289216 0.92230392
0.94724265 0.95042892 0.94411765
0.99607843 0.95392157 0.95
0 0.67941176 0.75392157
0.021568627 0.78014706 0.84289216
0.54509804 0.93137255 0.95
0.94607843 0.98602941 0.96348039
0.99607843 0.99215686 0.96176471
0 0.2 0.39215686
0.040196078 0.11372549 0.55784314
0.45490196 0.045098039 0.67254902
0.67156863 0.074509804 0.6627451
0.7372549 0.082352941 0.71372549
0 0.28039216 0.48137255
0.00073529412 0.29926471 0.575
0.50392157 0.23970588 0.79558824
0.7872549 0.2127451 0.81838235
0.82941176 0.24117647 0.8254902
0 0.49411765 0.63529412
0.020588235 0.54117647 0.72745098
0.52352941 0.62843137 0.91078431
0.87892157 0.6504902 0.93333333
0.9372549 0.67254902 0.9372549
0.011764706 0.63921569 0.72941176
0.078431373 0.71740196 0.80514706
0.47843137 0.8995098 0.96519608
0.94705882 0.95882353 0.98823529
0.99215686 0.95490196 0.98431373
0.011764706 0.68235294 0.76470588
0.014705882 0.80980392 0.88431373
0.50980392 0.93333333 0.97254902
0.93235294 0.99215686 0.99705882
0.99607843 1 1
