site/assets/luts/natron-haldclut--agfa-apx-25--8c3849d95.cube
# LUTr-Project: LUTr — LUTrepository
# LUTr-Schema-Version: 1
# LUTr-ID: natron-haldclut--agfa-apx-25--8c3849d95
# LUTr-Title: agfa apx 25
# LUTr-Collection: Natron HaldCLUT
# LUTr-Collection-ID: natron-haldclut-presets
# LUTr-Source: https://github.com/NatronGitHub/clut
# LUTr-Source-File: submissions/natron-haldclut-presets/bw/agfa_apx_25.png
# LUTr-Source-Format: PNG
# LUTr-Source-SHA256: 911b76b85480ef2d6e16e24f6561256de359ca581cd2c3b7ad1366df158dae95
# LUTr-License: CC-BY-SA-4.0
# LUTr-License-URL: https://github.com/NatronGitHub/clut#license
# LUTr-Tags: creative, film, film-emulation, hald-clut, natron, png, black-and-white, cube
# LUTr-Transform-Class: film-emulation
# LUTr-Input-Color-Space: srgb
# LUTr-Output-Color-Space: srgb
# LUTr-Color-Space-Confidence: assumed-display-referred
# LUTr-Conversion-Method: PNG LUT image decoded at 16-bit and sampled to 25x25x25 3D CUBE
# LUTr-Conversion-Date: 2026-07-27
# LUTr-Conversion-Tool: LUTr scripts/convert-all-to-cube.mjs
# LUTr-Conversion-Grid: 25x25x25
# LUTr-Note: Preserve this metadata and the upstream license notices when redistributing.
TITLE "agfa apx 25"
LUT_3D_SIZE 5
DOMAIN_MIN 0 0 0
DOMAIN_MAX 1 1 1
0.023529412 0.023529412 0.023529412
0.02745098 0.02745098 0.02745098
0.11568627 0.11568627 0.11568627
0.2745098 0.2745098 0.2745098
0.5254902 0.5254902 0.5254902
0.15196078 0.15196078 0.15196078
0.19509804 0.19509804 0.19509804
0.29068627 0.29068627 0.29068627
0.44705882 0.44705882 0.44705882
0.60882353 0.60882353 0.60882353
0.44117647 0.44117647 0.44117647
0.47941176 0.47941176 0.47941176
0.54705882 0.54705882 0.54705882
0.59803922 0.59803922 0.59803922
0.72156863 0.72156863 0.72156863
0.72156863 0.72156863 0.72156863
0.7254902 0.7254902 0.7254902
0.75392157 0.75392157 0.75392157
0.77941176 0.77941176 0.77941176
0.83333333 0.83333333 0.83333333
0.92156863 0.92156863 0.92156863
0.90588235 0.90588235 0.90588235
0.91372549 0.91372549 0.91372549
0.91764706 0.91764706 0.91764706
0.94901961 0.94901961 0.94901961
0.050980392 0.050980392 0.050980392
0.075980392 0.075980392 0.075980392
0.14852941 0.14852941 0.14852941
0.31862745 0.31862745 0.31862745
0.56764706 0.56764706 0.56764706
0.22254902 0.22254902 0.22254902
0.25294118 0.25294118 0.25294118
0.34117647 0.34117647 0.34117647
0.47879902 0.47879902 0.47879902
0.64191176 0.64191176 0.64191176
0.49313725 0.49313725 0.49313725
0.51666667 0.51666667 0.51666667
0.56176471 0.56176471 0.56176471
0.63578431 0.63578431 0.63578431
0.74117647 0.74117647 0.74117647
0.72941176 0.72941176 0.72941176
0.73823529 0.73823529 0.73823529
0.75931373 0.75931373 0.75931373
0.79957108 0.79957108 0.79957108
0.84509804 0.84509804 0.84509804
0.91764706 0.91764706 0.91764706
0.90980392 0.90980392 0.90980392
0.9254902 0.9254902 0.9254902
0.92941176 0.92941176 0.92941176
0.96078431 0.96078431 0.96078431
0.08627451 0.08627451 0.08627451
0.13627451 0.13627451 0.13627451
0.21372549 0.21372549 0.21372549
0.41764706 0.41764706 0.41764706
0.62156863 0.62156863 0.62156863
0.29460784 0.29460784 0.29460784
0.32928922 0.32928922 0.32928922
0.41838235 0.41838235 0.41838235
0.53333333 0.53333333 0.53333333
0.675 0.675 0.675
0.54509804 0.54509804 0.54509804
0.57034314 0.57034314 0.57034314
0.60490196 0.60490196 0.60490196
0.67916667 0.67916667 0.67916667
0.76568627 0.76568627 0.76568627
0.75735294 0.75735294 0.75735294
0.76911765 0.76911765 0.76911765
0.79166667 0.79166667 0.79166667
0.82218137 0.82218137 0.82218137
0.87156863 0.87156863 0.87156863
0.9254902 0.9254902 0.9254902
0.92107843 0.92107843 0.92107843
0.91960784 0.91960784 0.91960784
0.94313725 0.94313725 0.94313725
0.94509804 0.94509804 0.94509804
0.18627451 0.18627451 0.18627451
0.26397059 0.26397059 0.26397059
0.36568627 0.36568627 0.36568627
0.51764706 0.51764706 0.51764706
0.6754902 0.6754902 0.6754902
0.42156863 0.42156863 0.42156863
0.45759804 0.45759804 0.45759804
0.53039216 0.53039216 0.53039216
0.62077206 0.62077206 0.62077206
0.72058824 0.72058824 0.72058824
0.63039216 0.63039216 0.63039216
0.64215686 0.64215686 0.64215686
0.68627451 0.68627451 0.68627451
0.73737745 0.73737745 0.73737745
0.80588235 0.80588235 0.80588235
0.80294118 0.80294118 0.80294118
0.81397059 0.81397059 0.81397059
0.83039216 0.83039216 0.83039216
0.85373775 0.85373775 0.85373775
0.89142157 0.89142157 0.89142157
0.94901961 0.94901961 0.94901961
0.9372549 0.9372549 0.9372549
0.94901961 0.94901961 0.94901961
0.95294118 0.95294118 0.95294118
0.96960784 0.96960784 0.96960784
0.36862745 0.36862745 0.36862745
0.45784314 0.45784314 0.45784314
0.52156863 0.52156863 0.52156863
0.63823529 0.63823529 0.63823529
0.75294118 0.75294118 0.75294118
0.56862745 0.56862745 0.56862745
0.57769608 0.57769608 0.57769608
0.62303922 0.62303922 0.62303922
0.69779412 0.69779412 0.69779412
0.77941176 0.77941176 0.77941176
0.69607843 0.69607843 0.69607843
0.71127451 0.71127451 0.71127451
0.75588235 0.75588235 0.75588235
0.79068627 0.79068627 0.79068627
0.82352941 0.82352941 0.82352941
0.84117647 0.84117647 0.84117647
0.85906863 0.85906863 0.85906863
0.86813725 0.86813725 0.86813725
0.88333333 0.88333333 0.88333333
0.90686275 0.90686275 0.90686275
0.96470588 0.96470588 0.96470588
0.96176471 0.96176471 0.96176471
0.94901961 0.94901961 0.94901961
0.95686275 0.95686275 0.95686275
0.97254902 0.97254902 0.97254902
