site/assets/luts/natron-haldclut--polaroid-665--0a5aa202a.cube
# LUTr-Project: LUTr — LUTrepository
# LUTr-Schema-Version: 1
# LUTr-ID: natron-haldclut--polaroid-665--0a5aa202a
# LUTr-Title: polaroid 665
# LUTr-Collection: Natron HaldCLUT
# LUTr-Collection-ID: natron-haldclut-presets
# LUTr-Source: https://github.com/NatronGitHub/clut
# LUTr-Source-File: submissions/natron-haldclut-presets/instant_pro/polaroid_665.png
# LUTr-Source-Format: PNG
# LUTr-Source-SHA256: 907145984f712239fcc27a8a7614ee5b7dc72dca6adbbc37e852a3456278f208
# LUTr-License: CC-BY-SA-4.0
# LUTr-License-URL: https://github.com/NatronGitHub/clut#license
# LUTr-Tags: creative, film, film-emulation, hald-clut, natron, png, cube
# LUTr-Transform-Class: film-emulation
# LUTr-Input-Color-Space: srgb
# LUTr-Output-Color-Space: srgb
# LUTr-Color-Space-Confidence: assumed-display-referred
# LUTr-Conversion-Method: PNG LUT image decoded at 16-bit and sampled to 25x25x25 3D CUBE
# LUTr-Conversion-Date: 2026-07-27
# LUTr-Conversion-Tool: LUTr scripts/convert-all-to-cube.mjs
# LUTr-Conversion-Grid: 25x25x25
# LUTr-Note: Preserve this metadata and the upstream license notices when redistributing.
TITLE "polaroid 665"
LUT_3D_SIZE 25
DOMAIN_MIN 0 0 0
DOMAIN_MAX 1 1 1
0.050980392 0.050980392 0.050980392
0.057352941 0.057352941 0.057352941
0.062745098 0.062745098 0.062745098
0.062745098 0.062745098 0.062745098
0.066666667 0.066666667 0.066666667
0.062745098 0.062745098 0.062745098
0.068627451 0.068627451 0.068627451
0.085294118 0.085294118 0.085294118
0.10196078 0.10196078 0.10196078
0.1122549 0.1122549 0.1122549
0.12254902 0.12254902 0.12254902
0.12892157 0.12892157 0.12892157
0.15686275 0.15686275 0.15686275
0.18186275 0.18186275 0.18186275
0.20588235 0.20588235 0.20588235
0.23039216 0.23039216 0.23039216
0.25098039 0.25098039 0.25098039
0.27156863 0.27156863 0.27156863
0.28823529 0.28823529 0.28823529
0.30539216 0.30539216 0.30539216
0.32745098 0.32745098 0.32745098
0.3622549 0.3622549 0.3622549
0.4 0.4 0.4
0.4372549 0.4372549 0.4372549
0.46666667 0.46666667 0.46666667
0.050980392 0.050980392 0.050980392
0.057352941 0.057352941 0.057352941
0.062745098 0.062745098 0.062745098
0.066482843 0.066482843 0.066482843
0.067892157 0.067892157 0.067892157
0.069117647 0.069117647 0.069117647
0.075980392 0.075980392 0.075980392
0.091666667 0.091666667 0.091666667
0.10588235 0.10588235 0.10588235
0.11862745 0.11862745 0.11862745
0.12892157 0.12892157 0.12892157
0.14264706 0.14264706 0.14264706
0.16323529 0.16323529 0.16323529
0.1877451 0.1877451 0.1877451
0.21164216 0.21164216 0.21164216
0.23431373 0.23431373 0.23431373
0.25490196 0.25490196 0.25490196
0.27457108 0.27457108 0.27457108
0.29460784 0.29460784 0.29460784
0.3127451 0.3127451 0.3127451
0.33578431 0.33578431 0.33578431
0.36488971 0.36488971 0.36488971
0.4 0.4 0.4
0.4372549 0.4372549 0.4372549
0.47058824 0.47058824 0.47058824
0.059803922 0.059803922 0.059803922
0.062254902 0.062254902 0.062254902
0.066911765 0.066911765 0.066911765
0.071446078 0.071446078 0.071446078
0.075 0.075 0.075
0.079901961 0.079901961 0.079901961
0.090196078 0.090196078 0.090196078
0.10257353 0.10257353 0.10257353
0.11470588 0.11470588 0.11470588
0.125 0.125 0.125
0.13823529 0.13823529 0.13823529
0.15294118 0.15294118 0.15294118
0.17352941 0.17352941 0.17352941
0.19803922 0.19803922 0.19803922
0.21936275 0.21936275 0.21936275
0.23921569 0.23921569 0.23921569
0.2627451 0.2627451 0.2627451
0.28039216 0.28039216 0.28039216
0.30098039 0.30098039 0.30098039
0.32156863 0.32156863 0.32156863
0.34362745 0.34362745 0.34362745
0.37009804 0.37009804 0.37009804
0.40392157 0.40392157 0.40392157
0.44007353 0.44007353 0.44007353
0.4754902 0.4754902 0.4754902
0.07745098 0.07745098 0.07745098
0.07745098 0.07745098 0.07745098
0.077573529 0.077573529 0.077573529
0.077941176 0.077941176 0.077941176
0.078431373 0.078431373 0.078431373
0.090196078 0.090196078 0.090196078
0.1004902 0.1004902 0.1004902
0.11470588 0.11470588 0.11470588
0.12156863 0.12156863 0.12156863
0.13186275 0.13186275 0.13186275
0.14301471 0.14301471 0.14301471
0.16323529 0.16323529 0.16323529
0.18382353 0.18382353 0.18382353
0.20441176 0.20441176 0.20441176
0.2254902 0.2254902 0.2254902
0.2495098 0.2495098 0.2495098
0.26666667 0.26666667 0.26666667
0.2872549 0.2872549 0.2872549
0.30735294 0.30735294 0.30735294
0.32843137 0.32843137 0.32843137
0.35245098 0.35245098 0.35245098
0.37745098 0.37745098 0.37745098
0.40833333 0.40833333 0.40833333
0.44491422 0.44491422 0.44491422
0.4745098 0.4745098 0.4745098
0.094117647 0.094117647 0.094117647
0.094117647 0.094117647 0.094117647
0.091666667 0.091666667 0.091666667
0.088480392 0.088480392 0.088480392
0.08627451 0.08627451 0.08627451
0.096568627 0.096568627 0.096568627
0.11078431 0.11078431 0.11078431
0.12107843 0.12107843 0.12107843
0.13137255 0.13137255 0.13137255
0.14044118 0.14044118 0.14044118
0.15098039 0.15098039 0.15098039
0.17156863 0.17156863 0.17156863
0.19411765 0.19411765 0.19411765
0.21666667 0.21666667 0.21666667
0.23921569 0.23921569 0.23921569
0.25588235 0.25588235 0.25588235
0.27254902 0.27254902 0.27254902
0.29117647 0.29117647 0.29117647
0.31176471 0.31176471 0.31176471
0.33406863 0.33406863 0.33406863
0.35784314 0.35784314 0.35784314
0.38382353 0.38382353 0.38382353
0.41764706 0.41764706 0.41764706
0.4495098 0.4495098 0.4495098
0.47647059 0.47647059 0.47647059
0.11078431 0.11078431 0.11078431
0.11029412 0.11029412 0.11029412
0.10686275 0.10686275 0.10686275
0.10686275 0.10686275 0.10686275
0.10906863 0.10906863 0.10906863
0.11078431 0.11078431 0.11078431
0.11715686 0.11715686 0.11715686
0.12745098 0.12745098 0.12745098
0.1377451 0.1377451 0.1377451
0.15226716 0.15226716 0.15226716
0.16764706 0.16764706 0.16764706
0.1877451 0.1877451 0.1877451
0.20833333 0.20833333 0.20833333
0.22892157 0.22892157 0.22892157
0.2495098 0.2495098 0.2495098
0.26617647 0.26617647 0.26617647
0.28284314 0.28284314 0.28284314
0.29705882 0.29705882 0.29705882
0.31580882 0.31580882 0.31580882
0.34019608 0.34019608 0.34019608
0.36715686 0.36715686 0.36715686
0.39460784 0.39460784 0.39460784
0.42892157 0.42892157 0.42892157
0.46158088 0.46158088 0.46158088
0.49117647 0.49117647 0.49117647
0.1245098 0.1245098 0.1245098
0.1245098 0.1245098 0.1245098
0.12745098 0.12745098 0.12745098
0.13088235 0.13088235 0.13088235
0.13137255 0.13137255 0.13137255
0.13137255 0.13137255 0.13137255
0.12818627 0.12818627 0.12818627
0.13382353 0.13382353 0.13382353
0.15098039 0.15098039 0.15098039
0.16801471 0.16801471 0.16801471
0.18504902 0.18504902 0.18504902
0.20490196 0.20490196 0.20490196
0.22254902 0.22254902 0.22254902
0.24227941 0.24227941 0.24227941
0.26078431 0.26078431 0.26078431
0.27830882 0.27830882 0.27830882
0.29313725 0.29313725 0.29313725
0.30919118 0.30919118 0.30919118
0.32720588 0.32720588 0.32720588
0.35355392 0.35355392 0.35355392
0.38088235 0.38088235 0.38088235
0.40833333 0.40833333 0.40833333
0.43921569 0.43921569 0.43921569
0.47401961 0.47401961 0.47401961
0.50098039 0.50098039 0.50098039
0.13872549 0.13872549 0.13872549
0.14319853 0.14319853 0.14319853
0.14840686 0.14840686 0.14840686
0.15196078 0.15196078 0.15196078
0.15465686 0.15465686 0.15465686
0.15343137 0.15343137 0.15343137
0.15012255 0.15012255 0.15012255
0.15189951 0.15189951 0.15189951
0.16617647 0.16617647 0.16617647
0.18431373 0.18431373 0.18431373
0.20061275 0.20061275 0.20061275
0.22009804 0.22009804 0.22009804
0.23823529 0.23823529 0.23823529
0.25735294 0.25735294 0.25735294
0.27610294 0.27610294 0.27610294
0.29160539 0.29160539 0.29160539
0.30735294 0.30735294 0.30735294
0.32401961 0.32401961 0.32401961
0.34276961 0.34276961 0.34276961
0.36881127 0.36881127 0.36881127
0.39436275 0.39436275 0.39436275
0.42254902 0.42254902 0.42254902
0.4495098 0.4495098 0.4495098
0.48039216 0.48039216 0.48039216
0.50735294 0.50735294 0.50735294
0.16470588 0.16470588 0.16470588
0.16862745 0.16862745 0.16862745
0.17352941 0.17352941 0.17352941
0.17647059 0.17647059 0.17647059
0.18039216 0.18039216 0.18039216
0.18039216 0.18039216 0.18039216
0.18039216 0.18039216 0.18039216
0.18431373 0.18431373 0.18431373
0.18823529 0.18823529 0.18823529
0.19852941 0.19852941 0.19852941
0.21372549 0.21372549 0.21372549
0.23088235 0.23088235 0.23088235
0.25098039 0.25098039 0.25098039
0.27156863 0.27156863 0.27156863
0.28823529 0.28823529 0.28823529
0.30490196 0.30490196 0.30490196
0.32156863 0.32156863 0.32156863
0.33823529 0.33823529 0.33823529
0.35882353 0.35882353 0.35882353
0.38333333 0.38333333 0.38333333
0.40980392 0.40980392 0.40980392
0.43676471 0.43676471 0.43676471
0.46078431 0.46078431 0.46078431
0.49068627 0.49068627 0.49068627
0.51764706 0.51764706 0.51764706
0.19558824 0.19558824 0.19558824
0.19650735 0.19650735 0.19650735
0.2004902 0.2004902 0.2004902
0.20471814 0.20471814 0.20471814
0.20735294 0.20735294 0.20735294
0.2091299 0.2091299 0.2091299
0.21127451 0.21127451 0.21127451
0.21519608 0.21519608 0.21519608
0.21911765 0.21911765 0.21911765
0.2221201 0.2221201 0.2221201
0.22879902 0.22879902 0.22879902
0.24460784 0.24460784 0.24460784
0.26519608 0.26519608 0.26519608
0.28186275 0.28186275 0.28186275
0.2995098 0.2995098 0.2995098
0.31519608 0.31519608 0.31519608
0.33186275 0.33186275 0.33186275
0.35098039 0.35098039 0.35098039
0.37303922 0.37303922 0.37303922
0.3973652 0.3973652 0.3973652
0.42401961 0.42401961 0.42401961
0.45490196 0.45490196 0.45490196
0.48321078 0.48321078 0.48321078
0.50588235 0.50588235 0.50588235
0.53039216 0.53039216 0.53039216
0.22254902 0.22254902 0.22254902
0.22647059 0.22647059 0.22647059
0.22965686 0.22965686 0.22965686
0.23382353 0.23382353 0.23382353
0.2377451 0.2377451 0.2377451
0.23872549 0.23872549 0.23872549
0.24215686 0.24215686 0.24215686
0.24607843 0.24607843 0.24607843
0.24607843 0.24607843 0.24607843
0.25 0.25 0.25
0.25490196 0.25490196 0.25490196
0.26127451 0.26127451 0.26127451
0.27598039 0.27598039 0.27598039
0.29215686 0.29215686 0.29215686
0.30882353 0.30882353 0.30882353
0.32512255 0.32512255 0.32512255
0.34215686 0.34215686 0.34215686
0.3627451 0.3627451 0.3627451
0.3872549 0.3872549 0.3872549
0.41262255 0.41262255 0.41262255
0.43921569 0.43921569 0.43921569
0.47401961 0.47401961 0.47401961
0.50661765 0.50661765 0.50661765
0.5317402 0.5317402 0.5317402
0.54901961 0.54901961 0.54901961
0.25343137 0.25343137 0.25343137
0.25588235 0.25588235 0.25588235
0.25833333 0.25833333 0.25833333
0.26127451 0.26127451 0.26127451
0.26519608 0.26519608 0.26519608
0.26960784 0.26960784 0.26960784
0.27303922 0.27303922 0.27303922
0.27696078 0.27696078 0.27696078
0.28039216 0.28039216 0.28039216
0.28333333 0.28333333 0.28333333
0.28872549 0.28872549 0.28872549
0.28872549 0.28872549 0.28872549
0.29289216 0.29289216 0.29289216
0.30245098 0.30245098 0.30245098
0.31654412 0.31654412 0.31654412
0.33216912 0.33216912 0.33216912
0.35245098 0.35245098 0.35245098
0.37518382 0.37518382 0.37518382
0.40110294 0.40110294 0.40110294
0.42898284 0.42898284 0.42898284
0.45980392 0.45980392 0.45980392
0.49460784 0.49460784 0.49460784
0.52941176 0.52941176 0.52941176
0.56243873 0.56243873 0.56243873
0.58333333 0.58333333 0.58333333
0.28431373 0.28431373 0.28431373
0.28676471 0.28676471 0.28676471
0.28823529 0.28823529 0.28823529
0.29215686 0.29215686 0.29215686
0.29607843 0.29607843 0.29607843
0.3004902 0.3004902 0.3004902
0.30539216 0.30539216 0.30539216
0.30857843 0.30857843 0.30857843
0.31372549 0.31372549 0.31372549
0.31887255 0.31887255 0.31887255
0.32352941 0.32352941 0.32352941
0.32352941 0.32352941 0.32352941
0.31960784 0.31960784 0.31960784
0.31985294 0.31985294 0.31985294
0.32647059 0.32647059 0.32647059
0.34215686 0.34215686 0.34215686
0.3627451 0.3627451 0.3627451
0.38848039 0.38848039 0.38848039
0.41617647 0.41617647 0.41617647
0.44362745 0.44362745 0.44362745
0.47745098 0.47745098 0.47745098
0.51544118 0.51544118 0.51544118
0.55294118 0.55294118 0.55294118
0.58480392 0.58480392 0.58480392
0.60392157 0.60392157 0.60392157
0.31519608 0.31519608 0.31519608
0.31911765 0.31911765 0.31911765
0.32046569 0.32046569 0.32046569
0.32346814 0.32346814 0.32346814
0.32916667 0.32916667 0.32916667
0.3348652 0.3348652 0.3348652
0.33909314 0.33909314 0.33909314
0.34442402 0.34442402 0.34442402
0.3504902 0.3504902 0.3504902
0.35471814 0.35471814 0.35471814
0.35747549 0.35747549 0.35747549
0.35441176 0.35441176 0.35441176
0.3504902 0.3504902 0.3504902
0.34656863 0.34656863 0.34656863
0.34362745 0.34362745 0.34362745
0.35422794 0.35422794 0.35422794
0.37745098 0.37745098 0.37745098
0.40410539 0.40410539 0.40410539
0.43088235 0.43088235 0.43088235
0.46133578 0.46133578 0.46133578
0.49509804 0.49509804 0.49509804
0.53578431 0.53578431 0.53578431
0.57058824 0.57058824 0.57058824
0.60147059 0.60147059 0.60147059
0.62401961 0.62401961 0.62401961
0.35 0.35 0.35
0.35294118 0.35294118 0.35294118
0.35465686 0.35465686 0.35465686
0.36041667 0.36041667 0.36041667
0.36519608 0.36519608 0.36519608
0.36997549 0.36997549 0.36997549
0.37573529 0.37573529 0.37573529
0.3807598 0.3807598 0.3807598
0.38529412 0.38529412 0.38529412
0.39105392 0.39105392 0.39105392
0.39142157 0.39142157 0.39142157
0.38835784 0.38835784 0.38835784
0.38480392 0.38480392 0.38480392
0.38125 0.38125 0.38125
0.37818627 0.37818627 0.37818627
0.38247549 0.38247549 0.38247549
0.39411765 0.39411765 0.39411765
0.41752451 0.41752451 0.41752451
0.44485294 0.44485294 0.44485294
0.47855392 0.47855392 0.47855392
0.51568627 0.51568627 0.51568627
0.55294118 0.55294118 0.55294118
0.59019608 0.59019608 0.59019608
0.62058824 0.62058824 0.62058824
0.64117647 0.64117647 0.64117647
0.39019608 0.39019608 0.39019608
0.39264706 0.39264706 0.39264706
0.39411765 0.39411765 0.39411765
0.39803922 0.39803922 0.39803922
0.40122549 0.40122549 0.40122549
0.40618873 0.40618873 0.40618873
0.41164216 0.41164216 0.41164216
0.41672794 0.41672794 0.41672794
0.42156863 0.42156863 0.42156863
0.4254902 0.4254902 0.4254902
0.4254902 0.4254902 0.4254902
0.42401961 0.42401961 0.42401961
0.42083333 0.42083333 0.42083333
0.41764706 0.41764706 0.41764706
0.41617647 0.41617647 0.41617647
0.42156863 0.42156863 0.42156863
0.4254902 0.4254902 0.4254902
0.43192402 0.43192402 0.43192402
0.46176471 0.46176471 0.46176471
0.49901961 0.49901961 0.49901961
0.53431373 0.53431373 0.53431373
0.56960784 0.56960784 0.56960784
0.60747549 0.60747549 0.60747549
0.63872549 0.63872549 0.63872549
0.65784314 0.65784314 0.65784314
0.43137255 0.43137255 0.43137255
0.43137255 0.43137255 0.43137255
0.43529412 0.43529412 0.43529412
0.43872549 0.43872549 0.43872549
0.44117647 0.44117647 0.44117647
0.44313725 0.44313725 0.44313725
0.44705882 0.44705882 0.44705882
0.45245098 0.45245098 0.45245098
0.45882353 0.45882353 0.45882353
0.4627451 0.4627451 0.4627451
0.4627451 0.4627451 0.4627451
0.45882353 0.45882353 0.45882353
0.45686275 0.45686275 0.45686275
0.45490196 0.45490196 0.45490196
0.45490196 0.45490196 0.45490196
0.4627451 0.4627451 0.4627451
0.46666667 0.46666667 0.46666667
0.47058824 0.47058824 0.47058824
0.48529412 0.48529412 0.48529412
0.51617647 0.51617647 0.51617647
0.55098039 0.55098039 0.55098039
0.58627451 0.58627451 0.58627451
0.6245098 0.6245098 0.6245098
0.65931373 0.65931373 0.65931373
0.67843137 0.67843137 0.67843137
0.46862745 0.46862745 0.46862745
0.47254902 0.47254902 0.47254902
0.47352941 0.47352941 0.47352941
0.47647059 0.47647059 0.47647059
0.48161765 0.48161765 0.48161765
0.48431373 0.48431373 0.48431373
0.48823529 0.48823529 0.48823529
0.49215686 0.49215686 0.49215686
0.49607843 0.49607843 0.49607843
0.5 0.5 0.5
0.5 0.5 0.5
0.50245098 0.50245098 0.50245098
0.50245098 0.50245098 0.50245098
0.50030637 0.50030637 0.50030637
0.50245098 0.50245098 0.50245098
0.50692402 0.50692402 0.50692402
0.51176471 0.51176471 0.51176471
0.51813725 0.51813725 0.51813725
0.52634804 0.52634804 0.52634804
0.53970588 0.53970588 0.53970588
0.56764706 0.56764706 0.56764706
0.60294118 0.60294118 0.60294118
0.64117647 0.64117647 0.64117647
0.67598039 0.67598039 0.67598039
0.70294118 0.70294118 0.70294118
0.51470588 0.51470588 0.51470588
0.51752451 0.51752451 0.51752451
0.51887255 0.51887255 0.51887255
0.52254902 0.52254902 0.52254902
0.52843137 0.52843137 0.52843137
0.53431373 0.53431373 0.53431373
0.5375 0.5375 0.5375
0.54215686 0.54215686 0.54215686
0.54607843 0.54607843 0.54607843
0.54852941 0.54852941 0.54852941
0.55 0.55 0.55
0.55355392 0.55355392 0.55355392
0.55392157 0.55392157 0.55392157
0.55392157 0.55392157 0.55392157
0.55686275 0.55686275 0.55686275
0.55992647 0.55992647 0.55992647
0.5627451 0.5627451 0.5627451
0.56960784 0.56960784 0.56960784
0.5745098 0.5745098 0.5745098
0.58088235 0.58088235 0.58088235
0.59264706 0.59264706 0.59264706
0.6254902 0.6254902 0.6254902
0.66568627 0.66568627 0.66568627
0.70183824 0.70183824 0.70183824
0.72745098 0.72745098 0.72745098
0.57009804 0.57009804 0.57009804
0.57352941 0.57352941 0.57352941
0.57745098 0.57745098 0.57745098
0.58094363 0.58094363 0.58094363
0.58357843 0.58357843 0.58357843
0.58927696 0.58927696 0.58927696
0.5935049 0.5935049 0.5935049
0.59509804 0.59509804 0.59509804
0.59754902 0.59754902 0.59754902
0.59754902 0.59754902 0.59754902
0.60147059 0.60147059 0.60147059
0.60539216 0.60539216 0.60539216
0.60539216 0.60539216 0.60539216
0.60582108 0.60582108 0.60582108
0.60931373 0.60931373 0.60931373
0.61323529 0.61323529 0.61323529
0.61715686 0.61715686 0.61715686
0.62107843 0.62107843 0.62107843
0.62855392 0.62855392 0.62855392
0.63235294 0.63235294 0.63235294
0.64264706 0.64264706 0.64264706
0.66966912 0.66966912 0.66966912
0.70392157 0.70392157 0.70392157
0.73627451 0.73627451 0.73627451
0.75196078 0.75196078 0.75196078
0.62745098 0.62745098 0.62745098
0.63063725 0.63063725 0.63063725
0.63529412 0.63529412 0.63529412
0.63897059 0.63897059 0.63897059
0.64117647 0.64117647 0.64117647
0.64509804 0.64509804 0.64509804
0.64705882 0.64705882 0.64705882
0.64901961 0.64901961 0.64901961
0.64901961 0.64901961 0.64901961
0.64901961 0.64901961 0.64901961
0.65294118 0.65294118 0.65294118
0.65686275 0.65686275 0.65686275
0.66078431 0.66078431 0.66078431
0.66102941 0.66102941 0.66102941
0.66470588 0.66470588 0.66470588
0.66740196 0.66740196 0.66740196
0.67058824 0.67058824 0.67058824
0.67573529 0.67573529 0.67573529
0.68088235 0.68088235 0.68088235
0.6877451 0.6877451 0.6877451
0.69705882 0.69705882 0.69705882
0.7129902 0.7129902 0.7129902
0.74215686 0.74215686 0.74215686
0.76495098 0.76495098 0.76495098
0.77647059 0.77647059 0.77647059
0.68480392 0.68480392 0.68480392
0.68743873 0.68743873 0.68743873
0.69276961 0.69276961 0.69276961
0.69656863 0.69656863 0.69656863
0.69877451 0.69877451 0.69877451
0.7004902 0.7004902 0.7004902
0.7004902 0.7004902 0.7004902
0.7004902 0.7004902 0.7004902
0.7004902 0.7004902 0.7004902
0.70079657 0.70079657 0.70079657
0.70441176 0.70441176 0.70441176
0.70833333 0.70833333 0.70833333
0.7122549 0.7122549 0.7122549
0.71617647 0.71617647 0.71617647
0.7192402 0.7192402 0.7192402
0.72028186 0.72028186 0.72028186
0.72401961 0.72401961 0.72401961
0.73039216 0.73039216 0.73039216
0.73578431 0.73578431 0.73578431
0.73970588 0.73970588 0.73970588
0.7495098 0.7495098 0.7495098
0.76029412 0.76029412 0.76029412
0.78039216 0.78039216 0.78039216
0.79295343 0.79295343 0.79295343
0.80147059 0.80147059 0.80147059
0.74313725 0.74313725 0.74313725
0.74411765 0.74411765 0.74411765
0.74877451 0.74877451 0.74877451
0.75196078 0.75196078 0.75196078
0.75196078 0.75196078 0.75196078
0.75196078 0.75196078 0.75196078
0.75196078 0.75196078 0.75196078
0.75196078 0.75196078 0.75196078
0.75196078 0.75196078 0.75196078
0.75588235 0.75588235 0.75588235
0.75661765 0.75661765 0.75661765
0.75980392 0.75980392 0.75980392
0.76568627 0.76568627 0.76568627
0.76813725 0.76813725 0.76813725
0.77156863 0.77156863 0.77156863
0.7754902 0.7754902 0.7754902
0.77941176 0.77941176 0.77941176
0.78333333 0.78333333 0.78333333
0.78823529 0.78823529 0.78823529
0.79117647 0.79117647 0.79117647
0.80098039 0.80098039 0.80098039
0.80833333 0.80833333 0.80833333
0.82230392 0.82230392 0.82230392
0.8317402 0.8317402 0.8317402
0.83627451 0.83627451 0.83627451
0.79558824 0.79558824 0.79558824
0.7971201 0.7971201 0.7971201
0.80012255 0.80012255 0.80012255
0.80196078 0.80196078 0.80196078
0.80196078 0.80196078 0.80196078
0.7995098 0.7995098 0.7995098
0.80134804 0.80134804 0.80134804
0.80196078 0.80196078 0.80196078
0.80343137 0.80343137 0.80343137
0.80588235 0.80588235 0.80588235
0.80796569 0.80796569 0.80796569
0.80980392 0.80980392 0.80980392
0.81372549 0.81372549 0.81372549
0.81783088 0.81783088 0.81783088
0.82267157 0.82267157 0.82267157
0.82696078 0.82696078 0.82696078
0.83088235 0.83088235 0.83088235
0.83480392 0.83480392 0.83480392
0.8372549 0.8372549 0.8372549
0.84117647 0.84117647 0.84117647
0.84705882 0.84705882 0.84705882
0.85343137 0.85343137 0.85343137
0.86372549 0.86372549 0.86372549
0.8716299 0.8716299 0.8716299
0.87254902 0.87254902 0.87254902
0.83137255 0.83137255 0.83137255
0.83529412 0.83529412 0.83529412
0.83921569 0.83921569 0.83921569
0.83921569 0.83921569 0.83921569
0.83529412 0.83529412 0.83529412
0.83529412 0.83529412 0.83529412
0.83529412 0.83529412 0.83529412
0.83676471 0.83676471 0.83676471
0.83921569 0.83921569 0.83921569
0.84313725 0.84313725 0.84313725
0.84313725 0.84313725 0.84313725
0.84656863 0.84656863 0.84656863
0.84901961 0.84901961 0.84901961
0.85490196 0.85490196 0.85490196
0.85882353 0.85882353 0.85882353
0.86666667 0.86666667 0.86666667
0.87058824 0.87058824 0.87058824
0.87058824 0.87058824 0.87058824
0.87058824 0.87058824 0.87058824
0.8745098 0.8745098 0.8745098
0.87843137 0.87843137 0.87843137
0.88676471 0.88676471 0.88676471
0.89313725 0.89313725 0.89313725
0.8995098 0.8995098 0.8995098
0.90196078 0.90196078 0.90196078
0.055882353 0.055882353 0.055882353
0.059803922 0.059803922 0.059803922
0.065196078 0.065196078 0.065196078
0.069117647 0.069117647 0.069117647
0.069852941 0.069852941 0.069852941
0.073039216 0.073039216 0.073039216
0.078921569 0.078921569 0.078921569
0.094117647 0.094117647 0.094117647
0.10980392 0.10980392 0.10980392
0.12254902 0.12254902 0.12254902
0.13284314 0.13284314 0.13284314
0.146875 0.146875 0.146875
0.16642157 0.16642157 0.16642157
0.18823529 0.18823529 0.18823529
0.2122549 0.2122549 0.2122549
0.23676471 0.23676471 0.23676471
0.25735294 0.25735294 0.25735294
0.27401961 0.27401961 0.27401961
0.29178922 0.29178922 0.29178922
0.3091299 0.3091299 0.3091299
0.32990196 0.32990196 0.32990196
0.3622549 0.3622549 0.3622549
0.39889706 0.39889706 0.39889706
0.4372549 0.4372549 0.4372549
0.46666667 0.46666667 0.46666667
0.055882353 0.055882353 0.055882353
0.059803922 0.059803922 0.059803922
0.065808824 0.065808824 0.065808824
0.071262255 0.071262255 0.071262255
0.074724265 0.074724265 0.074724265
0.075980392 0.075980392 0.075980392
0.08627451 0.08627451 0.08627451
0.10104167 0.10104167 0.10104167
0.11617647 0.11617647 0.11617647
0.12892157 0.12892157 0.12892157
0.13921569 0.13921569 0.13921569
0.15324755 0.15324755 0.15324755
0.17126225 0.17126225 0.17126225
0.19418658 0.19418658 0.19418658
0.21686581 0.21686581 0.21686581
0.23976716 0.23976716 0.23976716
0.26035539 0.26035539 0.26035539
0.27943474 0.27943474 0.27943474
0.29705882 0.29705882 0.29705882
0.31531097 0.31531097 0.31531097
0.33624387 0.33624387 0.33624387
0.36588542 0.36588542 0.36588542
0.40061275 0.40061275 0.40061275
0.4372549 0.4372549 0.4372549
0.46758578 0.46758578 0.46758578
0.062622549 0.062622549 0.062622549
0.065073529 0.065073529 0.065073529
0.070373775 0.070373775 0.070373775
0.074862132 0.074862132 0.074862132
0.079105392 0.079105392 0.079105392
0.085416667 0.085416667 0.085416667
0.096568627 0.096568627 0.096568627
0.11078431 0.11078431 0.11078431
0.12401961 0.12401961 0.12401961
0.13529412 0.13529412 0.13529412
0.1479473 0.1479473 0.1479473
0.16346507 0.16346507 0.16346507
0.18137255 0.18137255 0.18137255
0.20219056 0.20219056 0.20219056
0.225 0.225 0.225
0.24558824 0.24558824 0.24558824
0.26617647 0.26617647 0.26617647
0.28638174 0.28638174 0.28638174
0.30490196 0.30490196 0.30490196
0.32512255 0.32512255 0.32512255
0.34589461 0.34589461 0.34589461
0.37107843 0.37107843 0.37107843
0.40416667 0.40416667 0.40416667
0.43984375 0.43984375 0.43984375
