site/assets/luts/natron-haldclut--agfa-apx-100--d5051a815.cube
# LUTr-Project: LUTr — LUTrepository
# LUTr-Schema-Version: 1
# LUTr-ID: natron-haldclut--agfa-apx-100--d5051a815
# LUTr-Title: agfa apx 100
# LUTr-Collection: Natron HaldCLUT
# LUTr-Collection-ID: natron-haldclut-presets
# LUTr-Source: https://github.com/NatronGitHub/clut
# LUTr-Source-File: submissions/natron-haldclut-presets/bw/agfa_apx_100.png
# LUTr-Source-Format: PNG
# LUTr-Source-SHA256: cfdef13d710086636fc021b187e0d8c3aac3f283ed774701a280d379598902f6
# LUTr-License: CC-BY-SA-4.0
# LUTr-License-URL: https://github.com/NatronGitHub/clut#license
# LUTr-Tags: creative, film, film-emulation, hald-clut, natron, png, black-and-white, cube
# LUTr-Transform-Class: film-emulation
# LUTr-Input-Color-Space: srgb
# LUTr-Output-Color-Space: srgb
# LUTr-Color-Space-Confidence: assumed-display-referred
# LUTr-Conversion-Method: PNG LUT image decoded at 16-bit and sampled to 25x25x25 3D CUBE
# LUTr-Conversion-Date: 2026-07-27
# LUTr-Conversion-Tool: LUTr scripts/convert-all-to-cube.mjs
# LUTr-Conversion-Grid: 25x25x25
# LUTr-Note: Preserve this metadata and the upstream license notices when redistributing.
TITLE "agfa apx 100"
LUT_3D_SIZE 5
DOMAIN_MIN 0 0 0
DOMAIN_MAX 1 1 1
0.019607843 0.019607843 0.019607843
0.082352941 0.082352941 0.082352941
0.14313725 0.14313725 0.14313725
0.24313725 0.24313725 0.24313725
0.44705882 0.44705882 0.44705882
0.29019608 0.29019608 0.29019608
0.32083333 0.32083333 0.32083333
0.37352941 0.37352941 0.37352941
0.46078431 0.46078431 0.46078431
0.62058824 0.62058824 0.62058824
0.56666667 0.56666667 0.56666667
0.59215686 0.59215686 0.59215686
0.64509804 0.64509804 0.64509804
0.68186275 0.68186275 0.68186275
0.75294118 0.75294118 0.75294118
0.80980392 0.80980392 0.80980392
0.81764706 0.81764706 0.81764706
0.84117647 0.84117647 0.84117647
0.84828431 0.84828431 0.84828431
0.86470588 0.86470588 0.86470588
0.94901961 0.94901961 0.94901961
0.9372549 0.9372549 0.9372549
0.94509804 0.94509804 0.94509804
0.9372549 0.9372549 0.9372549
0.95294118 0.95294118 0.95294118
0.099019608 0.099019608 0.099019608
0.14705882 0.14705882 0.14705882
0.24117647 0.24117647 0.24117647
0.35 0.35 0.35
0.53627451 0.53627451 0.53627451
0.35416667 0.35416667 0.35416667
0.37395833 0.37395833 0.37395833
0.43333333 0.43333333 0.43333333
0.53137255 0.53137255 0.53137255
0.67083333 0.67083333 0.67083333
0.62598039 0.62598039 0.62598039
0.63737745 0.63737745 0.63737745
0.68333333 0.68333333 0.68333333
0.73186275 0.73186275 0.73186275
0.77598039 0.77598039 0.77598039
0.8247549 0.8247549 0.8247549
0.83161765 0.83161765 0.83161765
0.84509804 0.84509804 0.84509804
0.86335784 0.86335784 0.86335784
0.87647059 0.87647059 0.87647059
0.94411765 0.94411765 0.94411765
0.94509804 0.94509804 0.94509804
0.95294118 0.95294118 0.95294118
0.95294118 0.95294118 0.95294118
0.96862745 0.96862745 0.96862745
0.20588235 0.20588235 0.20588235
0.27745098 0.27745098 0.27745098
0.35098039 0.35098039 0.35098039
0.47745098 0.47745098 0.47745098
0.61176471 0.61176471 0.61176471
0.4627451 0.4627451 0.4627451
0.49203431 0.49203431 0.49203431
0.54411765 0.54411765 0.54411765
0.63468137 0.63468137 0.63468137
0.72990196 0.72990196 0.72990196
0.70882353 0.70882353 0.70882353
0.72647059 0.72647059 0.72647059
0.74019608 0.74019608 0.74019608
0.77941176 0.77941176 0.77941176
0.8127451 0.8127451 0.8127451
0.85833333 0.85833333 0.85833333
0.86311275 0.86311275 0.86311275
0.87205882 0.87205882 0.87205882
0.88223039 0.88223039 0.88223039
0.8995098 0.8995098 0.8995098
0.95294118 0.95294118 0.95294118
0.96078431 0.96078431 0.96078431
0.95 0.95 0.95
0.96470588 0.96470588 0.96470588
0.96862745 0.96862745 0.96862745
0.37352941 0.37352941 0.37352941
0.43627451 0.43627451 0.43627451
0.51470588 0.51470588 0.51470588
0.60980392 0.60980392 0.60980392
0.71960784 0.71960784 0.71960784
0.60686275 0.60686275 0.60686275
0.65091912 0.65091912 0.65091912
0.68468137 0.68468137 0.68468137
0.73504902 0.73504902 0.73504902
0.78112745 0.78112745 0.78112745
0.79705882 0.79705882 0.79705882
0.79705882 0.79705882 0.79705882
0.80906863 0.80906863 0.80906863
0.84068627 0.84068627 0.84068627
0.85392157 0.85392157 0.85392157
0.89681373 0.89681373 0.89681373
0.89534314 0.89534314 0.89534314
0.89901961 0.89901961 0.89901961
0.90802696 0.90802696 0.90802696
0.91642157 0.91642157 0.91642157
0.96960784 0.96960784 0.96960784
0.96495098 0.96495098 0.96495098
0.96470588 0.96470588 0.96470588
0.97647059 0.97647059 0.97647059
0.97745098 0.97745098 0.97745098
0.64313725 0.64313725 0.64313725
0.70098039 0.70098039 0.70098039
0.73137255 0.73137255 0.73137255
0.77352941 0.77352941 0.77352941
0.82745098 0.82745098 0.82745098
0.75490196 0.75490196 0.75490196
0.75490196 0.75490196 0.75490196
0.77843137 0.77843137 0.77843137
0.82671569 0.82671569 0.82671569
0.85 0.85 0.85
0.85294118 0.85294118 0.85294118
0.85686275 0.85686275 0.85686275
0.87156863 0.87156863 0.87156863
0.88480392 0.88480392 0.88480392
0.9 0.9 0.9
0.92254902 0.92254902 0.92254902
0.93039216 0.93039216 0.93039216
0.93039216 0.93039216 0.93039216
0.93504902 0.93504902 0.93504902
0.94215686 0.94215686 0.94215686
0.98039216 0.98039216 0.98039216
0.97254902 0.97254902 0.97254902
0.95686275 0.95686275 0.95686275
0.98823529 0.98823529 0.98823529
0.99215686 0.99215686 0.99215686
