site/assets/luts/natron-haldclut--goldfx-hot-summer-heat--03ae0182b.cube
# LUTr-Project: LUTr — LUTrepository
# LUTr-Schema-Version: 1
# LUTr-ID: natron-haldclut--goldfx-hot-summer-heat--03ae0182b
# LUTr-Title: goldfx hot summer heat
# LUTr-Collection: Natron HaldCLUT
# LUTr-Collection-ID: natron-haldclut-presets
# LUTr-Source: https://github.com/NatronGitHub/clut
# LUTr-Source-File: submissions/natron-haldclut-presets/picturefx/goldfx_hot_summer_heat.png
# LUTr-Source-Format: PNG
# LUTr-Source-SHA256: 57143695f93ab9c5b56f0c3b9f75a35d9d9c7d00fd9e8bd449d85cddf1d1c699
# LUTr-License: CC-BY-SA-4.0
# LUTr-License-URL: https://github.com/NatronGitHub/clut#license
# LUTr-Tags: creative, film, film-emulation, hald-clut, natron, png, cube
# LUTr-Transform-Class: film-emulation
# LUTr-Input-Color-Space: srgb
# LUTr-Output-Color-Space: srgb
# LUTr-Color-Space-Confidence: assumed-display-referred
# LUTr-Conversion-Method: PNG LUT image decoded at 16-bit and sampled to 25x25x25 3D CUBE
# LUTr-Conversion-Date: 2026-07-27
# LUTr-Conversion-Tool: LUTr scripts/convert-all-to-cube.mjs
# LUTr-Conversion-Grid: 25x25x25
# LUTr-Note: Preserve this metadata and the upstream license notices when redistributing.
TITLE "goldfx hot summer heat"
LUT_3D_SIZE 25
DOMAIN_MIN 0 0 0
DOMAIN_MAX 1 1 1
0 0.0039215686 0.0039215686
0.014215686 0.014215686 0.022058824
0.028431373 0.024509804 0.040196078
0.042647059 0.034803922 0.057843137
0.07254902 0.031372549 0.049019608
0.099509804 0.030882353 0.038235294
0.13039216 0.024509804 0.024509804
0.18921569 0.022058824 0.036764706
0.24705882 0.019607843 0.047058824
0.30882353 0.013235294 0.050980392
0.38137255 0.011764706 0.055882353
0.46666667 0.011764706 0.062254902
0.54509804 0.0098039216 0.064705882
0.61519608 0.0073529412 0.066666667
0.68431373 0.0039215686 0.066666667
0.75 0.035294118 0.065196078
0.81176471 0.10980392 0.058823529
0.87352941 0.18578431 0.05245098
0.9245098 0.25686275 0.050980392
0.94803922 0.31470588 0.058333333
0.96862745 0.36666667 0.064705882
0.98872549 0.41813725 0.071568627
0.99509804 0.45980392 0.091176471
0.99607843 0.5 0.11813725
0.99607843 0.53333333 0.14509804
0.0024509804 0.024509804 0.024509804
0.013296569 0.02935049 0.030882353
0.030514706 0.034436275 0.03872549
0.052144608 0.039031863 0.048161765
0.075735294 0.038480392 0.045098039
0.10557598 0.035110294 0.034803922
0.13676471 0.035661765 0.029901961
0.1877451 0.031433824 0.036764706
0.24705882 0.022058824 0.047058824
0.3033701 0.013235294 0.050980392
0.37745098 0.011764706 0.054901961
0.46617647 0.009620098 0.062254902
0.54705882 0.0090686275 0.066666667
0.61893382 0.0099877451 0.066666667
0.6872549 0.0039215686 0.066666667
0.75392157 0.03682598 0.065196078
0.81176471 0.10980392 0.058823529
0.87107843 0.18278186 0.05245098
0.9245098 0.25294118 0.048039216
0.94803922 0.31096814 0.058333333
0.96617647 0.36666667 0.064705882
0.98480392 0.41813725 0.075
0.99154412 0.46458333 0.095710784
0.99607843 0.5033701 0.12150735
0.99607843 0.53578431 0.14509804
0.0039215686 0.045098039 0.045098039
0.010294118 0.048651961 0.046936275
0.028431373 0.052205882 0.051960784
0.053431373 0.049509804 0.047181373
0.080392157 0.04754902 0.041176471
0.11127451 0.044240196 0.035294118
0.14215686 0.048039216 0.035294118
0.18713235 0.046936275 0.036764706
0.24803922 0.037254902 0.043137255
0.30686275 0.028553922 0.049509804
0.38406863 0.017401961 0.055882353
0.47156863 0.0079656863 0.062254902
0.54754902 0.01127451 0.062745098
0.62009804 0.01875 0.066544118
0.69215686 0.016421569 0.065686275
0.75490196 0.051593137 0.062377451
0.81568627 0.12941176 0.057843137
0.87389706 0.20245098 0.050367647
0.92377451 0.26666667 0.041421569
0.94509804 0.32058824 0.048651961
0.96568627 0.3754902 0.058823529
0.98480392 0.42647059 0.066666667
0.98897059 0.46666667 0.097058824
0.99362745 0.51066176 0.12487745
0.99607843 0.54215686 0.14607843
0.0039215686 0.065686275 0.061764706
0.006372549 0.065686275 0.062254902
0.02120098 0.070465686 0.05870098
0.042647059 0.07310049 0.054473039
0.073529412 0.067156863 0.044607843
0.10827206 0.065196078 0.039154412
0.14522059 0.063112745 0.035294118
0.18529412 0.062071078 0.03314951
0.25441176 0.06127451 0.043137255
0.32990196 0.06127451 0.050796569
0.4060049 0.046568627 0.058455882
0.48186275 0.025551471 0.059313725
0.55441176 0.044607843 0.059313725
0.62696078 0.060784314 0.059313725
0.69852941 0.070588235 0.059313725
0.76127451 0.10441176 0.053921569
0.81960784 0.1745098 0.04754902
0.87714461 0.24197304 0.037438725
0.92365196 0.29669118 0.027941176
0.94803922 0.34209559 0.032291667
0.97205882 0.38970588 0.03995098
0.98780637 0.43284314 0.052941176
0.99215686 0.47401961 0.084191176
0.99344363 0.51305147 0.12254902
0.99607843 0.55245098 0.14901961
0.0039215686 0.096078431 0.068627451
0.0039215686 0.096078431 0.068627451
0.0083333333 0.098529412 0.064705882
0.018872549 0.1 0.061029412
0.052941176 0.10098039 0.057843137
0.093872549 0.1 0.05245098
0.13333333 0.098039216 0.045588235
0.19142157 0.1 0.038480392
0.26862745 0.098039216 0.043137255
0.34583333 0.096813725 0.053431373
0.42107843 0.085294118 0.058333333
0.49656863 0.080392157 0.053186275
0.56568627 0.092156863 0.053921569
0.63651961 0.1122549 0.052941176
0.70343137 0.1254902 0.051470588
0.76495098 0.15955882 0.044362745
0.82352941 0.21568627 0.035294118
0.875 0.27230392 0.02377451
0.92352941 0.32401961 0.012254902
0.94803922 0.3629902 0.017401961
0.9754902 0.40392157 0.02254902
0.99215686 0.44313725 0.037009804
0.99215686 0.48039216 0.07254902
0.99607843 0.52156863 0.11102941
0.99607843 0.55686275 0.14705882
0.0034313725 0.12647059 0.074509804
0.0039215686 0.12696078 0.074509804
0.0039215686 0.12708333 0.070955882
0.0039215686 0.12745098 0.067585784
0.038235294 0.13333333 0.067156863
0.075490196 0.13921569 0.063664216
0.12352941 0.14215686 0.059436275
0.19656863 0.14883578 0.05
0.27843137 0.14754902 0.050980392
0.35490196 0.14117647 0.054901961
0.43186275 0.13186275 0.053553922
0.50686275 0.12794118 0.047487745
0.57867647 0.13921569 0.046813725
0.64613971 0.15594363 0.046568627
0.70833333 0.17953431 0.042647059
0.76960784 0.20814951 0.033333333
0.82352941 0.25637255 0.023039216
0.875 0.30392157 0.0093137255
0.92046569 0.34963235 0.00098039216
0.9471201 0.3877451 0.0078431373
0.97426471 0.4252451 0.011764706
0.99215686 0.45735294 0.025
0.99215686 0.49203431 0.066176471
0.99607843 0.53039216 0.10392157
0.99607843 0.56127451 0.1372549
0 0.15392157 0.078431373
0.0028186275 0.15784314 0.078431373
0.0039215686 0.1625 0.07745098
0.0073529412 0.1682598 0.07745098
0.019607843 0.17107843 0.07745098
0.055759804 0.17659314 0.076960784
0.12254902 0.18333333 0.070588235
0.20294118 0.19656863 0.060294118
0.28235294 0.19901961 0.054901961
0.36409314 0.19558824 0.053063725
0.44117647 0.18235294 0.047058824
0.51323529 0.17291667 0.040686275
0.58382353 0.18039216 0.040196078
0.65 0.20134804 0.03627451
0.71397059 0.22769608 0.029411765
0.77316176 0.25147059 0.023039216
0.82352941 0.29117647 0.012745098
0.87316176 0.34166667 0.0078431373
0.91593137 0.3872549 0.0039215686
0.94362745 0.42254902 0.0078431373
0.96911765 0.45441176 0.011764706
0.98872549 0.48051471 0.016789216
0.99509804 0.5125 0.052696078
0.99607843 0.54754902 0.098529412
0.99607843 0.5745098 0.1372549
0 0.19215686 0.082352941
0.0015318627 0.20006127 0.083272059
0.0039215686 0.20882353 0.08627451
0.0073529412 0.21127451 0.08627451
0.0098039216 0.21053922 0.087745098
0.045098039 0.21617647 0.085784314
0.12218137 0.2310049 0.075490196
0.20300245 0.24411765 0.065196078
0.28627451 0.25588235 0.053431373
0.37254902 0.25980392 0.043137255
0.45147059 0.24852941 0.035661765
0.52352941 0.23088235 0.033823529
0.58970588 0.22867647 0.029901961
0.65392157 0.25471814 0.027267157
0.71568627 0.28431373 0.022426471
0.77598039 0.30925245 0.017218137
0.82352941 0.33676471 0.011764706
0.87107843 0.38284314 0.0078431373
0.91127451 0.42340686 0.0053921569
0.93841912 0.45753676 0.0078431373
0.9620098 0.48284314 0.0090686275
0.98511029 0.50606618 0.0086397059
0.99509804 0.53333333 0.037377451
0.99607843 0.56758578 0.083762255
0.99607843 0.58970588 0.12254902
0 0.2745098 0.08627451
0 0.27843137 0.08627451
0.0039215686 0.28235294 0.08627451
0.0039215686 0.28235294 0.08627451
0.0078431373 0.28039216 0.090196078
0.022058824 0.28284314 0.08627451
0.091176471 0.29607843 0.079411765
0.17254902 0.30735294 0.065196078
0.27058824 0.31764706 0.050980392
0.375 0.32156863 0.032843137
0.45784314 0.32058824 0.02254902
0.52990196 0.30980392 0.019607843
0.59803922 0.31568627 0.019607843
0.66176471 0.33039216 0.019607843
0.72352941 0.35392157 0.019607843
0.77598039 0.37009804 0.015686275
0.82352941 0.38431373 0.011764706
0.87107843 0.42156863 0.0078431373
0.90882353 0.46176471 0.0049019608
0.93235294 0.48921569 0.0078431373
0.95686275 0.51372549 0.0078431373
0.98088235 0.53431373 0.0044117647
0.99215686 0.55784314 0.023529412
0.99607843 0.58333333 0.068627451
0.99607843 0.60392157 0.10588235
0 0.35686275 0.08627451
0 0.35778186 0.08627451
0.00098039216 0.36078431 0.08627451
0.0039215686 0.35863971 0.08627451
0.0058823529 0.35759804 0.08627451
0.010171569 0.35851716 0.086458333
0.050612745 0.3627451 0.079411765
0.13523284 0.37303922 0.066115196
0.25 0.37941176 0.047058824
0.35386029 0.38578431 0.029473039
0.45514706 0.39178922 0.010171569
0.53596814 0.39558824 0.0088235294
0.60637255 0.40073529 0.0125
0.67205882 0.40851716 0.013235294
0.73088235 0.42512255 0.013235294
0.77935049 0.43186275 0.011764706
0.82745098 0.43823529 0.0078431373
0.87254902 0.46121324 0.0044730392
0.90428922 0.49620098 0.0039215686
0.92843137 0.52009804 0.0039215686
0.9504902 0.54460784 0.0078431373
0.97107843 0.56127451 0.0052083333
0.99056373 0.57941176 0.0094362745
0.99607843 0.60539216 0.054901961
0.99607843 0.62843137 0.10196078
0 0.42941176 0.090196078
0 0.42941176 0.090196078
0 0.42941176 0.087254902
0.0039215686 0.42941176 0.08627451
0.0039215686 0.42941176 0.084313725
0.0039215686 0.42647059 0.082352941
0.012745098 0.4254902 0.079166667
0.11568627 0.43480392 0.06372549
0.23529412 0.44117647 0.047058824
0.35306373 0.44754902 0.029289216
0.45661765 0.45392157 0.0125
0.54117647 0.46421569 0.0079656863
0.61421569 0.4754902 0.0053921569
0.6810049 0.48186275 0.0068627451
0.73627451 0.49215686 0.0068627451
0.78235294 0.49607843 0.0078431373
0.82745098 0.49607843 0.0039215686
0.87254902 0.50085784 0.0014705882
0.89926471 0.52745098 0.0039215686
0.92058824 0.55098039 0.0039215686
0.94460784 0.57156863 0.0078431373
0.96568627 0.59080882 0.0039215686
0.98627451 0.60563725 0
0.99607843 0.6245098 0.032843137
0.99607843 0.64509804 0.083333333
0 0.49117647 0.094117647
0 0.49117647 0.094117647
0 0.49117647 0.093627451
0.0039215686 0.49117647 0.089767157
0.0039215686 0.49117647 0.08627451
0.0034926471 0.49117647 0.082352941
0.0029411765 0.49375 0.079289216
0.11354167 0.49656863 0.065196078
0.23921569 0.50294118 0.050490196
0.35980392 0.51060049 0.032536765
0.45625 0.51568627 0.022058824
0.54117647 0.5254902 0.015196078
0.61372549 0.53848039 0.0075980392
0.68229167 0.55042892 0.0034926471
0.73639706 0.55392157 0.0039215686
0.78235294 0.55373775 0.0087009804
0.82401961 0.5504902 0.0078431373
0.86648284 0.5504902 0.0052083333
0.89705882 0.56470588 0.0039215686
0.92058824 0.58572304 0.0069240196
0.94117647 0.60637255 0.0078431373
0.96568627 0.62254902 0.0039215686
0.98370098 0.63321078 0.0039215686
0.99393382 0.64362745 0.016666667
0.99607843 0.65833333 0.049019608
0 0.55294118 0.1
0 0.55294118 0.10196078
0 0.55245098 0.099509804
0.0056372549 0.54901961 0.096078431
0.0058823529 0.55196078 0.089215686
0.0017156863 0.55735294 0.084068627
0 0.56372549 0.079411765
0.11323529 0.56470588 0.065196078
0.24313725 0.56862745 0.050980392
0.36176471 0.57377451 0.03872549
0.45343137 0.575 0.028431373
0.5372549 0.57818627 0.020098039
0.6127451 0.58921569 0.014705882
0.67892157 0.59828431 0.0098039216
0.73039216 0.60147059 0.0083333333
0.7752451 0.60196078 0.011764706
0.81960784 0.6 0.011764706
0.85882353 0.60441176 0.0093137255
0.89117647 0.61078431 0.0078431373
0.92009804 0.62303922 0.0041666667
0.94117647 0.63823529 0.0078431373
0.96176471 0.65343137 0.0078431373
0.97892157 0.6622549 0.0078431373
0.99093137 0.66813725 0.0125
0.99607843 0.67843137 0.031372549
0 0.61078431 0.10637255
0 0.61078431 0.10637255
0 0.61078431 0.10625
0.0034313725 0.60729167 0.1028799
0.015441176 0.60637255 0.098529412
0.02064951 0.61078431 0.094178922
0.055147059 0.61678922 0.090686275
0.15863971 0.61813725 0.085784314
0.28039216 0.62156863 0.072058824
0.38008578 0.62205882 0.059129902
0.45968137 0.62561275 0.042156863
0.53731618 0.63333333 0.025
0.60955882 0.63970588 0.019852941
0.66862745 0.64509804 0.016176471
0.72401961 0.64509804 0.015808824
0.77028186 0.64901961 0.011764706
0.81519608 0.64558824 0.011764706
0.8504902 0.65196078 0.01127451
0.88492647 0.65821078 0.01127451
0.91574755 0.66427696 0.0078431373
0.94093137 0.67034314 0.0039215686
0.96176471 0.68082108 0.0043504902
0.9754902 0.6877451 0.0078431373
0.98578431 0.69166667 0.0076593137
0.99607843 0.69901961 0.010784314
0 0.66862745 0.1127451
0 0.66960784 0.1127451
0 0.66862745 0.1127451
0.00085784314 0.66605392 0.1127451
0.01372549 0.66470588 0.10882353
0.027328431 0.66482843 0.10490196
0.1372549 0.66789216 0.11004902
0.23272059 0.66960784 0.1122549
0.33235294 0.66960784 0.10686275
0.4125 0.66960784 0.089828431
0.48161765 0.67377451 0.069607843
0.54803922 0.67830882 0.049019608
0.61029412 0.68480392 0.036764706
0.66139706 0.68627451 0.031985294
0.71666667 0.68627451 0.027205882
0.76519608 0.69019608 0.013602941
0.81176471 0.69019608 0.0078431373
0.84656863 0.69767157 0.0067401961
0.87916667 0.70196078 0.0078431373
0.9122549 0.70281863 0.0078431373
0.9377451 0.70637255 0.0039215686
0.96176471 0.71127451 0.0013480392
0.97867647 0.71544118 0.0071078431
0.98578431 0.71862745 0.010416667
0.99313725 0.72254902 0.014705882
0.026960784 0.71960784 0.12352941
0.029411765 0.72205882 0.12745098
0.029166667 0.72205882 0.12745098
0.028431373 0.71991422 0.12598039
0.060539216 0.71495098 0.12671569
0.12659314 0.7122549 0.13137255
0.22242647 0.71813725 0.13713235
0.3028799 0.72015931 0.14705882
0.38480392 0.72352941 0.14558824
0.44509804 0.71715686 0.12738971
0.50686275 0.71568627 0.1122549
0.56862745 0.71568627 0.099509804
0.62573529 0.71813725 0.089215686
0.67058824 0.72205882 0.07745098
0.71911765 0.72536765 0.064215686
0.7651348 0.73045343 0.038235294
0.81176471 0.73382353 0.014215686
0.84264706 0.73474265 0.012806373
0.87806373 0.73811275 0.01004902
0.90833333 0.73921569 0.0093137255
0.93455882 0.74166667 0.012254902
0.96207108 0.74166667 0.011335784
0.97647059 0.74460784 0.028308824
0.98578431 0.74859069 0.056372549
0.99215686 0.7495098 0.075490196
0.19215686 0.76078431 0.16862745
0.18088235 0.75833333 0.17107843
0.17941176 0.75784314 0.17156863
0.19558824 0.75735294 0.16862745
0.22156863 0.75294118 0.16862745
0.25637255 0.75245098 0.16862745
0.29705882 0.74901961 0.1754902
0.37107843 0.75441176 0.18431373
0.42352941 0.75686275 0.18823529
0.47107843 0.75441176 0.17941176
0.52745098 0.75196078 0.16764706
0.58921569 0.74901961 0.15735294
0.63921569 0.75294118 0.14509804
0.68431373 0.75686275 0.13284314
0.72941176 0.76078431 0.11568627
0.77058824 0.76470588 0.099019608
0.81176471 0.76470588 0.08627451
0.83872549 0.76470588 0.075980392
0.87352941 0.76862745 0.061764706
0.90441176 0.76862745 0.062254902
0.92941176 0.77058824 0.076470588
0.95784314 0.77254902 0.086764706
0.9754902 0.77647059 0.1
0.98578431 0.78039216 0.12205882
0.99215686 0.78039216 0.14117647
0.33872549 0.79313725 0.20980392
0.3127451 0.79166667 0.21617647
0.31127451 0.79166667 0.21666667
0.33572304 0.79313725 0.21029412
0.33970588 0.78970588 0.20588235
0.34430147 0.78382353 0.20606618
0.37365196 0.78051471 0.2127451
0.42598039 0.78382353 0.22156863
0.46715686 0.78529412 0.2254902
0.50980392 0.7877451 0.2254902
0.55343137 0.78737745 0.22365196
0.60980392 0.78382353 0.21519608
0.65588235 0.7877451 0.20490196
0.69852941 0.79166667 0.19068627
0.7372549 0.79166667 0.18039216
0.77604167 0.79166667 0.165625
0.80784314 0.79166667 0.15833333
0.83627451 0.79558824 0.15196078
0.86507353 0.79558824 0.14375
0.89411765 0.79705882 0.14460784
0.92745098 0.8002451 0.15122549
0.95410539 0.80343137 0.15637255
0.97156863 0.8067402 0.17352941
0.98333333 0.81127451 0.19503676
0.99607843 0.81519608 0.21568627
0.40294118 0.81764706 0.25098039
0.39681373 0.81764706 0.2567402
0.39387255 0.81764706 0.25710784
0.40294118 0.81764706 0.24754902
0.41029412 0.81470588 0.24313725
0.42340686 0.81372549 0.24705882
0.44387255 0.81078431 0.25392157
0.47843137 0.81470588 0.26090686
0.51960784 0.81470588 0.26666667
0.55698529 0.81470588 0.26666667
0.59215686 0.81764706 0.27058824
0.62855392 0.81764706 0.27144608
0.66764706 0.81862745 0.2627451
0.70490196 0.82156863 0.25257353
0.74289216 0.82156863 0.24240196
0.77904412 0.81973039 0.23223039
0.80784314 0.82156863 0.22647059
0.83480392 0.82254902 0.22365196
0.86078431 0.82254902 0.22156863
0.88872549 0.8254902 0.22156863
0.92254902 0.82941176 0.22156863
0.95294118 0.83039216 0.22058824
0.96985294 0.83333333 0.23039216
0.98088235 0.8372549 0.24669118
0.9872549 0.8372549 0.25784314
0.47156863 0.84215686 0.29558824
0.475 0.84215686 0.29607843
0.47156863 0.84215686 0.29865196
0.475 0.84172794 0.29172794
0.47867647 0.84166667 0.28431373
0.48523284 0.84166667 0.28480392
0.51139706 0.84166667 0.29509804
0.53890931 0.84558824 0.30539216
0.57401961 0.84558824 0.30784314
0.59901961 0.84215686 0.31176471
0.62892157 0.84215686 0.31531863
0.65980392 0.84215686 0.31868873
0.6870098 0.84583333 0.31911765
0.71819853 0.84607843 0.31421569
0.7495098 0.84607843 0.30441176
0.78088235 0.84607843 0.29754902
0.81127451 0.84607843 0.29117647
0.83841912 0.8495098 0.2872549
0.86164216 0.8495098 0.28333333
0.88872549 0.84993873 0.27990196
0.91617647 0.85367647 0.27941176
0.94313725 0.85735294 0.27941176
0.96678922 0.86041667 0.28272059
0.97665441 0.86158088 0.28970588
0.97696078 0.86127451 0.28872549
0.54509804 0.86666667 0.3372549
0.54705882 0.86789216 0.3372549
0.55539216 0.87058824 0.34117647
0.55686275 0.86862745 0.3375
0.55 0.86666667 0.33137255
0.55 0.86495098 0.33186275
0.57352941 0.86813725 0.34019608
0.59779412 0.87328431 0.35171569
0.61960784 0.87058824 0.35490196
0.64019608 0.86862745 0.35808824
0.66666667 0.86862745 0.3627451
0.69068627 0.86862745 0.36446078
0.7127451 0.86960784 0.36764706
0.73872549 0.87058824 0.37009804
0.76568627 0.87254902 0.36323529
0.79191176 0.87058824 0.35416667
0.81764706 0.87058824 0.34705882
0.84142157 0.87181373 0.34191176
0.86519608 0.87254902 0.33921569
0.89093137 0.87426471 0.3375
0.91470588 0.87745098 0.33627451
0.94044118 0.88235294 0.33553922
0.96666667 0.88578431 0.3372549
0.97132353 0.88357843 0.33333333
0.97254902 0.88235294 0.33137255
0.61078431 0.89166667 0.38333333
0.61452206 0.89166667 0.38676471
0.62205882 0.89509804 0.38811275
0.62248775 0.89509804 0.39068627
0.61421569 0.89117647 0.38480392
0.61470588 0.89117647 0.38676471
0.62757353 0.89117647 0.39068627
0.64264706 0.89509804 0.39981618
0.65686275 0.89117647 0.40245098
0.68088235 0.89117647 0.40637255
0.69754902 0.89166667 0.41029412
0.71813725 0.89166667 0.41378676
0.74264706 0.89509804 0.41642157
0.7627451 0.89509804 0.42205882
0.78333333 0.89558824 0.41948529
0.80637255 0.89393382 0.40980392
0.82794118 0.89509804 0.40637255
0.84901961 0.89558824 0.40294118
0.8692402 0.89546569 0.39803922
0.89356618 0.89552696 0.39503676
0.91789216 0.90122549 0.39509804
0.94215686 0.90386029 0.39901961
0.9627451 0.90686275 0.39901961
0.97432598 0.90686275 0.39901961
0.97647059 0.90686275 0.39558824
0.66862745 0.91862745 0.44509804
0.66960784 0.91862745 0.44509804
0.67352941 0.91862745 0.44534314
0.67009804 0.91605392 0.44264706
0.66715686 0.91519608 0.43823529
0.66580882 0.91176471 0.43823529
0.67647059 0.91397059 0.44215686
0.68492647 0.91568627 0.44754902
0.70196078 0.91568627 0.45392157
0.71678922 0.91568627 0.45968137
0.73063725 0.91568627 0.4625
0.75245098 0.9182598 0.4682598
0.77205882 0.91911765 0.47303922
0.78333333 0.91617647 0.47009804
0.80392157 0.92181373 0.47720588
0.82193627 0.91666667 0.46053922
0.84117647 0.91960784 0.46470588
0.8627451 0.92254902 0.46580882
0.88235294 0.91862745 0.45514706
0.9 0.91911765 0.44901961
0.92156863 0.925 0.4622549
0.94509804 0.92745098 0.46372549
0.9627451 0.92965686 0.46372549
0.97757353 0.93137255 0.46764706
0.98039216 0.93137255 0.46764706
0.725 0.94411765 0.50539216
0.725 0.94411765 0.50294118
0.725 0.94166667 0.50294118
0.72156863 0.94166667 0.50165441
0.72107843 0.93897059 0.49754902
0.71979167 0.93627451 0.49509804
0.72291667 0.93627451 0.49693627
0.73039216 0.9377451 0.50202206
0.74313725 0.94019608 0.50931373
0.75343137 0.94166667 0.51415441
0.76519608 0.94019608 0.51617647
0.78351716 0.94381127 0.52579657
0.79779412 0.94215686 0.52696078
0.80373775 0.93676471 0.51488971
0.82058824 0.94522059 0.53296569
0.83376225 0.93523284 0.5057598
0.85637255 0.94558824 0.52794118
0.8745098 0.94558824 0.52702206
0.88933824 0.93921569 0.50637255
0.90508578 0.93841912 0.5004902
0.92696078 0.95 0.52843137
0.94607843 0.95196078 0.53039216
0.96311275 0.95196078 0.5314951
0.98033088 0.95435049 0.53578431
0.98823529 0.95588235 0.53823529
0.78039216 0.96862745 0.56470588
0.77009804 0.96470588 0.55441176
0.76862745 0.96176471 0.55
0.76862745 0.96127451 0.5495098
0.7627451 0.95882353 0.54509804
0.76078431 0.95686275 0.54117647
0.76078431 0.95686275 0.54117647
0.77009804 0.95686275 0.54656863
0.78039216 0.96078431 0.55294118
0.79068627 0.96323529 0.56323529
0.8 0.96372549 0.56764706
0.81470588 0.96813725 0.58284314
0.81568627 0.95882353 0.56078431
0.81323529 0.94558824 0.53480392
0.8372549 0.9627451 0.57254902
0.84166667 0.9495098 0.53823529
0.87058824 0.97254902 0.59607843
0.88333333 0.9622549 0.57156863
0.89509804 0.95588235 0.55098039
0.9127451 0.95637255 0.54411765
0.93137255 0.96862745 0.57843137
0.9495098 0.97254902 0.58431373
0.96666667 0.97254902 0.5872549
0.98186275 0.97254902 0.59215686
0.99215686 0.97647059 0.59607843
0.006372549 0.018137255 0.032352941
0.014215686 0.019056373 0.034803922
0.028431373 0.024509804 0.044117647
0.042647059 0.031066176 0.058333333
0.067401961 0.031372549 0.055392157
0.097058824 0.02745098 0.045404412
0.13517157 0.02745098 0.044117647
0.18921569 0.023529412 0.049509804
0.25098039 0.019607843 0.059803922
0.31127451 0.015686275 0.06372549
0.38676471 0.011764706 0.067647059
0.47040441 0.0093137255 0.069117647
0.5502451 0.0078431373 0.073039216
0.62156863 0.0078431373 0.075183824
0.68786765 0.0067401961 0.069485294
0.75300245 0.037745098 0.065196078
0.81323529 0.11764706 0.06127451
0.87015931 0.18970588 0.06127451
0.91911765 0.25686275 0.056740196
0.95410539 0.31519608 0.056188725
0.97377451 0.37058824 0.064705882
0.98872549 0.42028186 0.071078431
0.99571078 0.4627451 0.091176471
0.99607843 0.49944853 0.11905637
0.99607843 0.53333333 0.14901961
0.0039215686 0.030882353 0.03872549
0.013089767 0.032582721 0.041176471
0.027650123 0.036642157 0.048406863
0.049080882 0.037745098 0.050865502
0.074234069 0.038020833 0.049019608
0.10454197 0.035110294 0.041551777
0.13970588 0.033823529 0.043137255
0.18921569 0.030476409 0.051937806
0.24705882 0.022058824 0.059803922
0.30847886 0.015686275 0.063151042
0.38382353 0.011764706 0.06473652
0.47254902 0.0079120711 0.068933824
0.54978554 0.0078431373 0.069852941
0.62156863 0.0086473652 0.070404412
0.68993566 0.0032322304 0.06796875
0.75487898 0.03682598 0.065196078
0.81476716 0.11672794 0.06127451
0.87073376 0.19123775 0.06127451
0.91911765 0.25686275 0.056372549
0.95184589 0.31501225 0.054901961
0.97254902 0.37058824 0.063480392
0.98480392 0.42156863 0.071859681
0.99215686 0.4649663 0.094408701
0.99607843 0.50371477 0.12263327
0.99607843 0.53578431 0.14901961
0.0039215686 0.046936275 0.048039216
0.0093137255 0.048651961 0.049571078
0.025765931 0.052205882 0.05379902
0.053431373 0.049433211 0.04754902
0.081188725 0.044301471 0.040134804
0.11193321 0.043581495 0.03560049
0.14779412 0.045772059 0.043137255
0.19074755 0.04541973 0.049280025
0.25159314 0.037254902 0.055882353
0.31286765 0.028630515 0.059574142
0.38893995 0.016421569 0.063112745
