site/assets/luts/natron-haldclut--mono-tinted--55fc93a36.cube
# LUTr-Project: LUTr — LUTrepository
# LUTr-Schema-Version: 1
# LUTr-ID: natron-haldclut--mono-tinted--55fc93a36
# LUTr-Title: mono tinted
# LUTr-Collection: Natron HaldCLUT
# LUTr-Collection-ID: natron-haldclut-presets
# LUTr-Source: https://github.com/NatronGitHub/clut
# LUTr-Source-File: submissions/natron-haldclut-presets/various/mono_tinted.png
# LUTr-Source-Format: PNG
# LUTr-Source-SHA256: 3fdc8278960d96c24460dcf88cb6ed188c97886db18e5203d7ee2887034e87a2
# LUTr-License: CC-BY-SA-4.0
# LUTr-License-URL: https://github.com/NatronGitHub/clut#license
# LUTr-Tags: creative, film, film-emulation, hald-clut, natron, png, black-and-white, cube
# LUTr-Transform-Class: film-emulation
# LUTr-Input-Color-Space: srgb
# LUTr-Output-Color-Space: srgb
# LUTr-Color-Space-Confidence: assumed-display-referred
# LUTr-Conversion-Method: PNG LUT image decoded at 16-bit and sampled to 25x25x25 3D CUBE
# LUTr-Conversion-Date: 2026-07-27
# LUTr-Conversion-Tool: LUTr scripts/convert-all-to-cube.mjs
# LUTr-Conversion-Grid: 25x25x25
# LUTr-Note: Preserve this metadata and the upstream license notices when redistributing.
TITLE "mono tinted"
LUT_3D_SIZE 25
DOMAIN_MIN 0 0 0
DOMAIN_MAX 1 1 1
0.16862745 0.10196078 0.10196078
0.16617647 0.10196078 0.099509804
0.16470588 0.098039216 0.098039216
0.16470588 0.098039216 0.098039216
0.17058824 0.10392157 0.10392157
0.18480392 0.11470588 0.11421569
0.19509804 0.12843137 0.1245098
0.20539216 0.13872549 0.13480392
0.21176471 0.14509804 0.14117647
0.21813725 0.15147059 0.14754902
0.2245098 0.15784314 0.15392157
0.23088235 0.16421569 0.16029412
0.24705882 0.1745098 0.17058824
0.26323529 0.18431373 0.18039216
0.27352941 0.18823529 0.18431373
0.27990196 0.19215686 0.18578431
0.29411765 0.20392157 0.19607843
0.31470588 0.21666667 0.21029412
0.33137255 0.23235294 0.22058824
0.34852941 0.24264706 0.23431373
0.36470588 0.25686275 0.24509804
0.38088235 0.26715686 0.25147059
0.39117647 0.27745098 0.26176471
0.40539216 0.28627451 0.26666667
0.41176471 0.29019608 0.27058824
0.16862745 0.10196078 0.10196078
0.16862745 0.10196078 0.10196078
0.16470588 0.098039216 0.098039216
0.16470588 0.098039216 0.098039216
0.17377451 0.10637255 0.10392157
0.18511029 0.11844363 0.11666667
0.19865196 0.13088235 0.12843137
0.21029412 0.14209559 0.13817402
0.21813725 0.15 0.14607843
0.2245098 0.15784314 0.15300245
0.23235294 0.16458333 0.15882353
0.23841912 0.17175245 0.1653799
0.25980392 0.18651961 0.17941176
0.28020833 0.20177696 0.19362745
0.29595588 0.21066176 0.20098039
0.30686275 0.21666667 0.20882353
0.32107843 0.22696078 0.21666667
0.334375 0.23480392 0.22395833
0.35159314 0.24901961 0.23480392
0.36734069 0.26145833 0.24754902
0.38333333 0.27352941 0.25784314
0.39785539 0.28382353 0.26568627
0.41176471 0.29411765 0.2745098
0.42297794 0.30441176 0.28180147
0.43235294 0.31078431 0.2872549
0.16764706 0.10196078 0.10098039
0.16862745 0.10196078 0.10196078
0.16862745 0.10220588 0.10196078
0.17046569 0.10379902 0.10294118
0.18235294 0.11666667 0.11372549
0.20257353 0.13676471 0.12928922
0.21764706 0.15098039 0.14289216
0.23186275 0.16458333 0.15637255
0.24215686 0.1745098 0.1627451
0.25183824 0.18296569 0.17303922
0.25882353 0.19215686 0.17941176
0.27267157 0.20245098 0.19056373
0.28970588 0.21666667 0.20392157
0.30980392 0.23002451 0.21556373
0.32647059 0.24117647 0.2254902
0.33982843 0.24754902 0.23480392
0.35196078 0.25784314 0.24215686
0.36617647 0.26421569 0.24852941
0.38039216 0.2745098 0.25784314
0.39460784 0.28480392 0.26813725
0.40882353 0.29803922 0.2745098
0.42218137 0.30833333 0.28480392
0.43553922 0.31495098 0.29191176
0.44656863 0.325 0.30110294
0.45294118 0.33137255 0.30784314
0.16470588 0.098039216 0.098039216
0.16862745 0.10410539 0.10196078
0.18039216 0.11458333 0.11029412
0.19068627 0.1278799 0.12009804
0.20686275 0.14362745 0.13431373
0.22745098 0.16078431 0.15245098
0.24754902 0.1810049 0.1692402
0.25882353 0.19215686 0.17696078
0.26911765 0.19901961 0.18333333
0.27941176 0.20931373 0.19362745
0.28970588 0.21911765 0.2
0.30392157 0.23290441 0.21421569
0.32377451 0.24754902 0.22818627
0.34068627 0.25784314 0.23915441
0.35735294 0.26862745 0.24987745
0.37254902 0.27843137 0.25931373
0.38284314 0.28529412 0.26568627
0.39705882 0.29509804 0.2754902
0.41127451 0.30539216 0.28235294
0.4254902 0.31568627 0.29215686
0.44142157 0.32598039 0.29901961
0.45735294 0.33627451 0.30539216
0.47071078 0.34656863 0.31568627
0.48186275 0.35637255 0.32205882
0.49215686 0.3627451 0.32843137
0.17058824 0.10392157 0.10392157
0.18529412 0.12132353 0.11617647
0.20098039 0.13872549 0.13039216
0.21495098 0.15416667 0.14411765
0.22941176 0.16960784 0.15490196
0.24411765 0.18504902 0.16911765
0.26470588 0.20196078 0.18284314
0.28063725 0.21593137 0.19558824
0.29411765 0.2254902 0.20392157
0.30245098 0.23382353 0.21029412
0.31568627 0.24460784 0.22058824
0.33431373 0.26004902 0.23480392
0.35490196 0.2745098 0.24901961
0.37132353 0.28872549 0.26323529
0.38676471 0.29754902 0.27352941
0.4002451 0.30539216 0.28235294
0.41372549 0.31568627 0.29019608
0.42794118 0.32279412 0.29656863
0.44264706 0.33235294 0.30441176
0.45808824 0.34264706 0.31323529
0.47352941 0.35392157 0.32058824
0.48921569 0.36715686 0.32990196
0.50637255 0.37745098 0.33823529
0.52377451 0.38848039 0.34656863
0.53529412 0.39803922 0.35490196
0.19362745 0.13872549 0.12696078
0.20606618 0.14724265 0.13676471
0.22156863 0.16286765 0.14803922
0.23578431 0.18039216 0.16127451
0.25 0.19534314 0.1754902
0.26470588 0.209375 0.18578431
0.28137255 0.22352941 0.19865196
0.29656863 0.23382353 0.20980392
0.31078431 0.24460784 0.21666667
0.325 0.25490196 0.22696078
0.34068627 0.27009804 0.24080882
0.36127451 0.28676471 0.25533088
0.38161765 0.30147059 0.26960784
0.39846814 0.31568627 0.28339461
0.4122549 0.32598039 0.29362745
0.42775735 0.33578431 0.3004902
0.44460784 0.34656863 0.31078431
0.46127451 0.35686275 0.32107843
0.47708333 0.36715686 0.32794118
0.49166667 0.37745098 0.33823529
0.50784314 0.3877451 0.34460784
0.52444853 0.39803922 0.35441176
0.54080882 0.40882353 0.36090686
0.55765931 0.42254902 0.37107843
0.57009804 0.43235294 0.37696078
0.22058824 0.16960784 0.15098039
0.22794118 0.17598039 0.15845588
0.24215686 0.19019608 0.17083333
0.25637255 0.20441176 0.18186275
0.27205882 0.22107843 0.19411765
0.28529412 0.23382353 0.20637255
0.30196078 0.24705882 0.21666667
0.31715686 0.25833333 0.22696078
0.33137255 0.27156863 0.2372549
0.34914216 0.28578431 0.24754902
0.36764706 0.3 0.26102941
0.38823529 0.31507353 0.2754902
0.40735294 0.33088235 0.28872549
0.42512255 0.3439951 0.3004902
0.43921569 0.35392157 0.31078431
0.45490196 0.36433824 0.32107843
0.4754902 0.37745098 0.33137255
0.49509804 0.3877451 0.3435049
0.5125 0.40098039 0.35490196
0.52977941 0.4122549 0.36519608
0.54558824 0.42254902 0.37205882
0.55882353 0.43284314 0.37843137
0.5754902 0.44313725 0.38529412
0.59068627 0.45526961 0.39056373
0.59411765 0.45980392 0.39411765
0.24215686 0.2004902 0.1754902
0.25153186 0.20686275 0.18186275
0.26372549 0.21997549 0.19215686
0.27696078 0.23351716 0.20245098
0.29240196 0.24681373 0.2127451
0.30588235 0.25851716 0.22303922
0.32254902 0.27193627 0.23333333
0.33921569 0.28578431 0.24754902
0.35735294 0.30098039 0.25784314
0.37493873 0.31519608 0.26813725
0.39313725 0.33088235 0.28235294
0.41372549 0.34491422 0.29264706
0.43308824 0.35931373 0.30686275
0.45067402 0.37352941 0.32107843
0.46580882 0.38382353 0.33137255
0.48578431 0.39803922 0.34166667
0.50637255 0.40833333 0.35196078
0.52696078 0.42254902 0.36617647
0.54754902 0.43492647 0.38039216
0.56470588 0.44705882 0.38707108
0.57965686 0.45735294 0.39240196
0.59332108 0.46911765 0.39773284
0.60735294 0.47941176 0.40294118
0.61709559 0.48676471 0.40778186
0.62009804 0.48676471 0.41078431
0.26666667 0.23137255 0.19607843
0.27303922 0.23382353 0.20245098
0.28431373 0.24803922 0.2127451
0.29754902 0.25833333 0.22303922
0.31176471 0.27254902 0.23333333
0.32647059 0.28676471 0.24362745
0.34705882 0.3 0.25392157
0.36372549 0.31519608 0.26421569
0.38039216 0.32941176 0.27843137
0.40098039 0.34362745 0.28872549
0.41764706 0.35882353 0.3
0.43823529 0.37205882 0.31323529
0.45686275 0.38823529 0.32745098
0.4754902 0.40098039 0.3377451
0.49607843 0.41470588 0.35196078
0.51666667 0.42892157 0.3622549
0.5372549 0.44313725 0.37254902
0.55784314 0.45735294 0.38676471
0.57843137 0.46862745 0.39705882
0.59901961 0.48186275 0.40392157
0.61372549 0.49215686 0.40980392
0.62794118 0.50245098 0.41617647
0.63823529 0.5127451 0.42254902
0.64313725 0.51764706 0.425
0.64313725 0.51764706 0.42745098
0.2872549 0.25833333 0.22058824
0.29362745 0.26317402 0.22303922
0.30392157 0.275 0.23272059
0.31813725 0.28658088 0.24117647
0.33431373 0.2995098 0.25073529
0.35098039 0.31372549 0.26207108
0.3682598 0.32794118 0.2745098
0.38768382 0.34215686 0.28480392
0.40490196 0.35637255 0.29509804
0.42401961 0.37150735 0.30631127
0.44215686 0.38688725 0.31960784
0.4627451 0.40030637 0.33118873
0.48186275 0.41593137 0.34411765
0.50245098 0.43186275 0.35833333
0.52414216 0.44852941 0.37156863
0.54754902 0.46372549 0.38284314
0.56813725 0.47794118 0.39313725
0.58872549 0.49068627 0.40343137
0.60931373 0.50306373 0.41311275
0.62990196 0.51666667 0.42156863
0.64779412 0.52941176 0.42843137
0.6627451 0.53939951 0.43627451
0.66727941 0.54460784 0.44019608
0.67009804 0.54460784 0.44166667
0.67009804 0.54460784 0.44166667
0.30882353 0.28921569 0.24117647
0.31176471 0.29105392 0.24117647
0.3247549 0.30196078 0.25
0.34215686 0.31482843 0.26029412
0.35735294 0.32794118 0.27058824
0.3754902 0.34105392 0.28088235
0.39240196 0.35490196 0.29117647
0.40980392 0.37022059 0.30147059
0.42941176 0.38333333 0.31470588
0.44644608 0.39938725 0.32598039
0.46666667 0.41495098 0.3370098
0.4872549 0.42941176 0.3504902
0.50882353 0.44607843 0.36470588
0.53333333 0.46372549 0.37892157
0.55686275 0.48333333 0.39240196
0.57941176 0.4995098 0.40625
0.6 0.51372549 0.41372549
0.62058824 0.52757353 0.42218137
0.64117647 0.53897059 0.43039216
0.66213235 0.55147059 0.43982843
0.68137255 0.5627451 0.44705882
0.69313725 0.57156863 0.45294118
0.69534314 0.57377451 0.45588235
0.69607843 0.5754902 0.45625
0.69607843 0.5754902 0.45686275
0.33235294 0.32009804 0.26176471
0.33449755 0.32224265 0.26176471
0.34865196 0.33284314 0.27058824
0.36623775 0.34656863 0.2838848
0.38284314 0.35906863 0.29460784
0.39993873 0.37542892 0.30533088
0.41752451 0.38921569 0.31519608
0.43547794 0.4 0.32420343
0.45343137 0.41421569 0.33235294
0.47058824 0.42714461 0.34264706
0.49068627 0.44362745 0.35686275
0.51476716 0.46029412 0.37058824
0.53970588 0.48088235 0.38529412
0.56421569 0.50098039 0.39993873
0.58872549 0.52156863 0.41372549
0.61323529 0.54068627 0.42794118
0.63382353 0.55490196 0.43823529
0.65441176 0.56519608 0.44589461
0.675 0.57941176 0.45355392
0.69558824 0.58970588 0.46084559
0.71397059 0.59656863 0.46568627
0.72009804 0.60245098 0.46960784
0.72303922 0.60588235 0.47352941
0.72401961 0.60637255 0.47352941
0.72401961 0.60637255 0.47352941
0.35490196 0.35294118 0.28235294
0.35931373 0.35735294 0.2875
0.37598039 0.37058824 0.29754902
0.39338235 0.38382353 0.30931373
0.40980392 0.39803922 0.31862745
0.42647059 0.41053922 0.32794118
0.44411765 0.42254902 0.33823529
0.4629902 0.43676471 0.34852941
0.48039216 0.45098039 0.35882353
0.49705882 0.46372549 0.36715686
0.52156863 0.48039216 0.37794118
0.54779412 0.50098039 0.39338235
0.57254902 0.52156863 0.40882353
0.59901961 0.54215686 0.42401961
0.62303922 0.55931373 0.4377451
0.64803922 0.57941176 0.45245098
0.67058824 0.59607843 0.46470588
0.69117647 0.61029412 0.475
0.71176471 0.62254902 0.48137255
0.73235294 0.63284314 0.4877451
0.74803922 0.64313725 0.49313725
0.75906863 0.65294118 0.5
0.76078431 0.65294118 0.50294118
0.76078431 0.65563725 0.50392157
0.76470588 0.65686275 0.50392157
0.37794118 0.38627451 0.30686275
0.38431373 0.39264706 0.30949755
0.40294118 0.40784314 0.32352941
0.42052696 0.42493873 0.33431373
0.44044118 0.43921569 0.34803922
0.45729167 0.45343137 0.35790441
0.47401961 0.46409314 0.36519608
0.49283088 0.478125 0.3754902
0.51127451 0.49215686 0.38578431
0.53186275 0.50667892 0.39344363
0.55379902 0.52463235 0.40330882
0.58039216 0.54221814 0.41660539
0.60539216 0.5627451 0.43259804
0.63039216 0.58333333 0.44852941
0.65735294 0.60098039 0.46188725
0.68069853 0.62058824 0.47696078
0.70392157 0.6372549 0.4877451
0.72824755 0.65392157 0.50147059
0.74889706 0.66580882 0.51090686
0.76568627 0.67604167 0.5151348
0.77990196 0.68627451 0.52058824
0.79411765 0.70006127 0.52745098
0.80196078 0.70441176 0.53468137
0.80588235 0.70588235 0.53480392
0.80588235 0.70833333 0.53480392
0.40196078 0.42352941 0.32745098
0.41017157 0.42990196 0.33382353
0.42745098 0.44509804 0.34509804
0.44803922 0.46311275 0.36090686
0.46764706 0.48039216 0.37401961
0.48431373 0.49460784 0.38578431
0.50490196 0.50857843 0.39607843
0.52156863 0.52242647 0.40343137
0.54215686 0.5372549 0.4127451
0.56458333 0.55110294 0.42009804
0.5872549 0.56666667 0.42941176
0.61164216 0.5872549 0.44068627
0.63823529 0.60392157 0.45490196
0.66470588 0.6245098 0.46948529
0.68823529 0.64509804 0.48333333
0.71372549 0.66176471 0.49754902
0.73823529 0.67843137 0.51176471
0.7627451 0.69509804 0.52487745
0.78235294 0.70710784 0.53529412
0.79656863 0.71727941 0.53884804
0.81078431 0.72941176 0.54460784
0.8254902 0.74166667 0.55441176
0.83921569 0.75196078 0.5625
0.84705882 0.75735294 0.56568627
0.84705882 0.75980392 0.56862745
0.42647059 0.45686275 0.35196078
0.43529412 0.46660539 0.35441176
0.45343137 0.48235294 0.36960784
0.47401961 0.50165441 0.38627451
0.49460784 0.51960784 0.3997549
0.51372549 0.53627451 0.41145833
0.53186275 0.55 0.42303922
0.55245098 0.56568627 0.43186275
0.5745098 0.57990196 0.43970588
0.59754902 0.59564951 0.44607843
0.61813725 0.61078431 0.45245098
0.64246324 0.62843137 0.46127451
0.66715686 0.64509804 0.4754902
0.69215686 0.66568627 0.49019608
0.71911765 0.68333333 0.50392157
0.74368873 0.69901961 0.5151348
0.76519608 0.71421569 0.52696078
0.78970588 0.72935049 0.53817402
0.80992647 0.74411765 0.54865196
0.82352941 0.75441176 0.55539216
0.83970588 0.76862745 0.56568627
0.85618873 0.78284314 0.57598039
0.87303922 0.79705882 0.59019608
0.88731618 0.80827206 0.59748775
0.89215686 0.81127451 0.6004902
0.44705882 0.49019608 0.36862745
0.45980392 0.5004902 0.37745098
0.47647059 0.51960784 0.39313725
0.50098039 0.54019608 0.40735294
0.52156863 0.55686275 0.42352941
0.54215686 0.57745098 0.43970588
0.5627451 0.59411765 0.45
0.58333333 0.60931373 0.45637255
0.60784314 0.62352941 0.4627451
0.62843137 0.6377451 0.47058824
0.64901961 0.65196078 0.4754902
0.66960784 0.66617647 0.48235294
0.69607843 0.68627451 0.49607843
0.72254902 0.70294118 0.51029412
0.74705882 0.72352941 0.5245098
0.77156863 0.73872549 0.53480392
0.79607843 0.75294118 0.54509804
0.81666667 0.76568627 0.55147059
0.8372549 0.78137255 0.56176471
0.85392157 0.79509804 0.57205882
0.86862745 0.80784314 0.58627451
0.88333333 0.82058824 0.59656863
0.90392157 0.8372549 0.61078431
0.92058824 0.85245098 0.625
0.93333333 0.8627451 0.63137255
0.46764706 0.525 0.38676471
0.48039216 0.53529412 0.39558824
0.50098039 0.55404412 0.41078431
0.52156863 0.57352941 0.4276348
0.54534314 0.59411765 0.44485294
0.56666667 0.61470588 0.46078431
0.58970588 0.6317402 0.47340686
0.61421569 0.64895833 0.48088235
0.63627451 0.66470588 0.4872549
0.65931373 0.67892157 0.49362745
0.67928922 0.69313725 0.49901961
0.69803922 0.70471814 0.50294118
0.72058824 0.72107843 0.51348039
0.75 0.74166667 0.53088235
0.77696078 0.76078431 0.54509804
0.80245098 0.77598039 0.55539216
0.82303922 0.79019608 0.56568627
0.84509804 0.80349265 0.57205882
0.86568627 0.81678922 0.58125
0.88480392 0.83498775 0.59969363
0.8995098 0.84828431 0.60808824
0.91421569 0.86145833 0.61715686
0.93088235 0.8754902 0.63039216
0.94362745 0.8872549 0.64558824
0.95392157 0.89754902 0.65588235
0.48823529 0.55588235 0.40490196
0.50098039 0.56862745 0.41409314
0.52156863 0.58627451 0.43039216
0.54571078 0.6060049 0.44803922
0.56666667 0.62647059 0.46421569
0.59117647 0.64705882 0.48088235
0.61642157 0.66764706 0.49485294
0.64056373 0.68431373 0.50392157
0.66470588 0.70098039 0.51176471
0.68627451 0.71580882 0.51568627
0.70686275 0.72965686 0.52058824
0.72659314 0.74362745 0.52438725
0.74607843 0.75637255 0.53186275
0.77683824 0.77647059 0.55147059
0.80392157 0.79411765 0.56568627
0.82879902 0.80870098 0.57598039
0.85 0.82254902 0.58627451
0.87058824 0.83284314 0.59301471
0.89019608 0.84803922 0.60465686
0.91078431 0.86862745 0.62316176
0.92941176 0.88921569 0.63235294
0.94460784 0.90245098 0.63431373
0.95392157 0.91176471 0.65098039
0.96213235 0.91813725 0.66617647
0.96960784 0.9245098 0.67647059
0.50539216 0.58676471 0.41911765
0.52156863 0.603125 0.43155637
0.54313725 0.62009804 0.44803922
0.56666667 0.6372549 0.46476716
0.59093137 0.65735294 0.48161765
0.6122549 0.67444853 0.49761029
0.64007353 0.69767157 0.51213235
0.66813725 0.71519608 0.5245098
0.68921569 0.73186275 0.53235294
0.71323529 0.74981618 0.53872549
0.73431373 0.76507353 0.54497549
0.75790441 0.7783701 0.55490196
0.77892157 0.79240196 0.55955882
0.80349265 0.80735294 0.56862745
0.83088235 0.825 0.58541667
0.85422794 0.84068627 0.59656863
0.87696078 0.85343137 0.60686275
0.89411765 0.86372549 0.61715686
0.91078431 0.87892157 0.62745098
0.93137255 0.8995098 0.64166667
0.94828431 0.91617647 0.64803922
0.96078431 0.92892157 0.65876225
0.97107843 0.94178922 0.68455882
0.97959559 0.95147059 0.69479167
0.9872549 0.95882353 0.69705882
0.52352941 0.61764706 0.43333333
0.54338235 0.63431373 0.44877451
0.56666667 0.65098039 0.46617647
0.59093137 0.66813725 0.48186275
0.6127451 0.68823529 0.49901961
0.63651961 0.70490196 0.51470588
0.66421569 0.7254902 0.53137255
0.69387255 0.74730392 0.54264706
0.71764706 0.76666667 0.55294118
0.74142157 0.78333333 0.5620098
0.76519608 0.8 0.57205882
0.78921569 0.81495098 0.58210784
0.80980392 0.82745098 0.5872549
0.83063725 0.83995098 0.59264706
0.85637255 0.85490196 0.60294118
0.88014706 0.87009804 0.61715686
0.90196078 0.88431373 0.62745098
0.91862745 0.89460784 0.6377451
0.93088235 0.90882353 0.65196078
0.94828431 0.92279412 0.6622549
0.96176471 0.93529412 0.67254902
0.97107843 0.94583333 0.68284314
0.98137255 0.95980392 0.69803922
0.99166667 0.97401961 0.70931373
1 0.98431373 0.71568627
0.55441176 0.66078431 0.46029412
0.56666667 0.66930147 0.47040441
0.58823529 0.68615196 0.48823529
0.61176471 0.70251225 0.50245098
0.63431373 0.71936275 0.51862745
0.66078431 0.73578431 0.53431373
0.68823529 0.75637255 0.54509804
0.71783088 0.77696078 0.55931373
0.74264706 0.79754902 0.56960784
0.76930147 0.81568627 0.58363971
0.79509804 0.83382353 0.59803922
0.81617647 0.84803922 0.60490196
0.83676471 0.86053922 0.6129902
0.86078431 0.87254902 0.61758578
0.88186275 0.88578431 0.62352941
0.90588235 0.89852941 0.63382353
0.92647059 0.91127451 0.64411765
0.94068627 0.925 0.65833333
0.95098039 0.93529412 0.67254902
0.96127451 0.94558824 0.68284314
0.975 0.95612745 0.69313725
0.9848652 0.96617647 0.70343137
0.99166667 0.97647059 0.71372549
0.9973652 0.98431373 0.72383578
1 0.98431373 0.73039216
0.58529412 0.70196078 0.49117647
0.59227941 0.70833333 0.49460784
0.60882353 0.72034314 0.50882353
0.63235294 0.7372549 0.52267157
0.65686275 0.75196078 0.5372549
0.68137255 0.76617647 0.54852941
0.70882353 0.78406863 0.56176471
0.73970588 0.80784314 0.57598039
0.76666667 0.82843137 0.5872549
0.79362745 0.84509804 0.59938725
0.81960784 0.86470588 0.61470588
0.84276961 0.87855392 0.625
0.86470588 0.89019608 0.63382353
0.88566176 0.90343137 0.64117647
0.90882353 0.91446078 0.64509804
0.9314951 0.92794118 0.6504902
0.94705882 0.93921569 0.66470588
0.95735294 0.9495098 0.67892157
0.96764706 0.95661765 0.69093137
0.97794118 0.96911765 0.70343137
0.98921569 0.98039216 0.71372549
0.99522059 0.98639706 0.72365196
0.99607843 0.9872549 0.73137255
0.99607843 0.9872549 0.7377451
0.99607843 0.98431373 0.74411765
0.61470588 0.74313725 0.51813725
0.61617647 0.74558824 0.51813725
0.62843137 0.75441176 0.52610294
0.65245098 0.76862745 0.53970588
0.67671569 0.78137255 0.55245098
0.69834559 0.79166667 0.5627451
0.72941176 0.81176471 0.57634804
0.76029412 0.83480392 0.58964461
0.79117647 0.85539216 0.60147059
0.81568627 0.8745098 0.61421569
0.84019608 0.89019608 0.62806373
0.86452206 0.90410539 0.64019608
0.88529412 0.91470588 0.64926471
0.90588235 0.9276348 0.65980392
0.92830882 0.93921569 0.67009804
0.94803922 0.95196078 0.68094363
0.96078431 0.95980392 0.69068627
0.96954657 0.96862745 0.70098039
0.98002451 0.97647059 0.70980392
0.99166667 0.98921569 0.71881127
1 0.99607843 0.72818627
0.99969363 0.99215686 0.73529412
0.99607843 0.98921569 0.74558824
0.99607843 0.98823529 0.75196078
0.99607843 0.98431373 0.75833333
0.63529412 0.77647059 0.5372549
0.63921569 0.77647059 0.5372549
0.64509804 0.78529412 0.54215686
0.66911765 0.79166667 0.55245098
0.69019608 0.80196078 0.5627451
0.71470588 0.8122549 0.57303922
0.74509804 0.83235294 0.5872549
0.77696078 0.85392157 0.60147059
0.80784314 0.87843137 0.61176471
0.83480392 0.89656863 0.62598039
0.85686275 0.90784314 0.6372549
0.87745098 0.92107843 0.6504902
0.89803922 0.93137255 0.6627451
0.92254902 0.94215686 0.675
0.94607843 0.95882353 0.68529412
0.97156863 0.97401961 0.6995098
0.98039216 0.98039216 0.70980392
0.98284314 0.98039216 0.71617647
0.98823529 0.98529412 0.72156863
0.99558824 0.99166667 0.7254902
1 0.99607843 0.73137255
1 0.99215686 0.74166667
0.99607843 0.99215686 0.75196078
0.99607843 0.98823529 0.7622549
0.99607843 0.98823529 0.77254902
0.16617647 0.10196078 0.10196078
0.16470588 0.098590686 0.098590686
0.16470588 0.098039216 0.098039216
0.16470588 0.098039216 0.098039216
0.17181373 0.10514706 0.10392157
0.18480392 0.11813725 0.11421569
0.19509804 0.12843137 0.1245098
0.20539216 0.13872549 0.13480392
0.21421569 0.14509804 0.14362745
0.21960784 0.15294118 0.15055147
0.22806373 0.16139706 0.15747549
0.23854167 0.17058824 0.16666667
0.25735294 0.18357843 0.18088235
0.27303922 0.19246324 0.19068627
0.27990196 0.19460784 0.19068627
0.28872549 0.19852941 0.19460784
0.30441176 0.21029412 0.20490196
0.32352941 0.2245098 0.21819853
0.34129902 0.23872549 0.23088235
0.35833333 0.25294118 0.24117647
0.37303922 0.26323529 0.25147059
0.3872549 0.275 0.26176471
0.40147059 0.28382353 0.26813725
0.41176471 0.2911152 0.2745098
0.41813725 0.29411765 0.27843137
0.16862745 0.10196078 0.10196078
0.16640625 0.10138634 0.10138634
0.16470588 0.098039216 0.098039216
0.16470588 0.098039216 0.098039216
0.17058824 0.10392157 0.10392157
0.18511029 0.11844363 0.11678156
0.20071998 0.13272059 0.12996324
0.21364124 0.1466299 0.14117647
0.22150735 0.15484069 0.15
0.22904412 0.16121324 0.15671722
0.23578431 0.16888787 0.16366422
0.24688266 0.17929688 0.17384344
0.26617647 0.19362745 0.18771446
0.28658088 0.20772825 0.2
0.29901961 0.21444547 0.2067402
0.31323529 0.22246477 0.2127451
0.32745098 0.23088235 0.22303922
0.34189645 0.24328278 0.23333333
0.35758272 0.25539216 0.24362745
0.375 0.26697304 0.25392157
0.38970588 0.27990196 0.26421569
0.40403646 0.29019608 0.27286305
0.41752451 0.2993413 0.28102022
0.42877604 0.30778186 0.28759957
0.43627451 0.31415441 0.29362745
0.16715686 0.10196078 0.10159314
0.16862745 0.10196078 0.10196078
0.16862745 0.10196078 0.10196078
0.16750919 0.10110294 0.099877451
0.18051471 0.11384804 0.11176471
0.20257353 0.13590686 0.12928922
0.21985294 0.15318627 0.14571078
0.23411458 0.16744792 0.15637255
0.24509804 0.17732843 0.16666667
0.25428922 0.18555453 0.17510723
0.26246936 0.1939951 0.18333333
0.27677696 0.20482537 0.19362745
0.29405637 0.21758578 0.20710784
0.31314338 0.23272059 0.22005208
0.32882966 0.24163603 0.22858456
0.342356 0.25091912 0.23679534
0.35588235 0.25968137 0.24509804
0.36954657 0.26997549 0.25392157
0.38449755 0.28026961 0.26360294
0.39834559 0.29056373 0.27109375
0.41348039 0.30085784 0.28088235
0.42682292 0.311106 0.29033395
0.4403799 0.32107843 0.29782475
0.45294118 0.32892157 0.30654105
0.45931373 0.33529412 0.31176471
0.16844363 0.10196078 0.10177696
0.17157629 0.10644148 0.1051011
0.18039216 0.11372549 0.11185662
