site/assets/luts/natron-haldclut--kodak-portra-400--a3dd778d7.cube
# LUTr-Project: LUTr — LUTrepository
# LUTr-Schema-Version: 1
# LUTr-ID: natron-haldclut--kodak-portra-400--a3dd778d7
# LUTr-Title: kodak portra 400 ++
# LUTr-Collection: Natron HaldCLUT
# LUTr-Collection-ID: natron-haldclut-presets
# LUTr-Source: https://github.com/NatronGitHub/clut
# LUTr-Source-File: submissions/natron-haldclut-presets/negative_new/kodak_portra_400_++.png
# LUTr-Source-Format: PNG
# LUTr-Source-SHA256: 7b8969c964ea3efee244742459b38c0b13c118b770cf547009aa8c2f5fc947a6
# LUTr-License: CC-BY-SA-4.0
# LUTr-License-URL: https://github.com/NatronGitHub/clut#license
# LUTr-Tags: creative, film, film-emulation, hald-clut, natron, png, cube
# LUTr-Transform-Class: film-emulation
# LUTr-Input-Color-Space: srgb
# LUTr-Output-Color-Space: srgb
# LUTr-Color-Space-Confidence: assumed-display-referred
# LUTr-Conversion-Method: PNG LUT image decoded at 16-bit and sampled to 25x25x25 3D CUBE
# LUTr-Conversion-Date: 2026-07-27
# LUTr-Conversion-Tool: LUTr scripts/convert-all-to-cube.mjs
# LUTr-Conversion-Grid: 25x25x25
# LUTr-Note: Preserve this metadata and the upstream license notices when redistributing.
TITLE "kodak portra 400 ++"
LUT_3D_SIZE 9
DOMAIN_MIN 0 0 0
DOMAIN_MAX 1 1 1
0.074509804 0.094117647 0.074509804
0.1245098 0.090196078 0.067156863
0.24215686 0.093137255 0.058823529
0.41470588 0.035784314 0.054901961
0.61372549 0.0078431373 0.033333333
0.79705882 0 0.006372549
0.92058824 0.021568627 0
0.99607843 0.19313725 0
1 0.27843137 0
0.066666667 0.12107843 0.074509804
0.10539216 0.12794118 0.078431373
0.23051471 0.13884804 0.058823529
0.41715686 0.13284314 0.033333333
0.61985294 0.10710784 0.010294118
0.79344363 0.11746324 0.0029411765
0.90490196 0.17254902 0
0.98529412 0.24650735 0
1 0.30882353 0
0.011764706 0.21666667 0.093137255
0.051470588 0.21617647 0.089215686
0.19607843 0.23995098 0.075245098
0.3935049 0.26066176 0.014705882
0.60637255 0.27107843 0.0083333333
0.77009804 0.28970588 0
0.88333333 0.32254902 0
0.96911765 0.36139706 0
0.99509804 0.38921569 0
0.0039215686 0.32352941 0.1122549
0.003247549 0.32352941 0.11617647
0.12647059 0.34215686 0.087867647
0.32052696 0.3838848 0.019546569
0.54803922 0.4129902 0.011029412
0.73284314 0.440625 0.0039215686
0.84754902 0.45686275 0.0039215686
0.93363971 0.47303922 0.0039215686
0.99362745 0.49754902 0
0 0.46666667 0.14705882
0 0.46715686 0.15245098
0.0078431373 0.45098039 0.1495098
0.24583333 0.48602941 0.098529412
0.48235294 0.53333333 0.010784314
0.69093137 0.56813725 0.0098039216
0.81372549 0.5745098 0.0039215686
0.93063725 0.58431373 0.0034313725
0.97058824 0.59019608 0
0 0.60196078 0.18186275
0.0039215686 0.59442402 0.21060049
0 0.57303922 0.20392157
0.20539216 0.59019608 0.18535539
0.43039216 0.61813725 0.14509804
0.63333333 0.65147059 0.072977941
0.78284314 0.67107843 0.0039215686
0.91029412 0.68676471 0.0078431373
0.99117647 0.69215686 0
0.0039215686 0.70882353 0.28529412
0.025367647 0.70588235 0.28872549
0.12965686 0.69509804 0.30196078
0.27928922 0.68137255 0.29803922
0.44656863 0.69852941 0.28480392
0.60245098 0.725 0.24178922
0.74411765 0.75196078 0.15588235
0.8754902 0.77193627 0.078431373
0.98137255 0.7872549 0.0039215686
0.25931373 0.81323529 0.41862745
0.29221814 0.80931373 0.42248775
0.35833333 0.80196078 0.43823529
0.42959559 0.79166667 0.43841912
0.51348039 0.79387255 0.44215686
0.61697304 0.81341912 0.43480392
0.71813725 0.83026961 0.40159314
0.83676471 0.84901961 0.34558824
0.95637255 0.87205882 0.30343137
0.52156863 0.92156863 0.62352941
0.53333333 0.92156863 0.62352941
0.55980392 0.91862745 0.63235294
0.59460784 0.90735294 0.63921569
0.64117647 0.90588235 0.64313725
0.70098039 0.92156863 0.65343137
0.75882353 0.93039216 0.63921569
0.83676471 0.94166667 0.62303922
0.92941176 0.96470588 0.60784314
0.070588235 0.098039216 0.12401961
0.13088235 0.094607843 0.1348652
0.24546569 0.060661765 0.12340686
0.43253676 0.015012255 0.12922794
0.63480392 0.0044117647 0.10808824
0.79509804 0.0039215686 0.074509804
0.92058824 0.023039216 0.062377451
0.99607843 0.14797794 0
1 0.25490196 0
0.070588235 0.13578431 0.11666667
0.11612286 0.13890165 0.12439491
0.24204963 0.14480699 0.13529412
0.43020833 0.10686275 0.11982996
0.63134191 0.078400735 0.088511029
0.79068627 0.074731924 0.063970588
0.91361826 0.14967831 0.016896446
0.99570312 0.23088235 0.0039215686
0.99656863 0.28572304 0.0073529412
0.015318627 0.24215686 0.14227941
0.065854779 0.24345895 0.13959865
0.19558824 0.24656863 0.13072917
0.41262255 0.26942402 0.10392157
0.62530637 0.27254902 0.040134804
0.78030025 0.27731311 0.015196078
0.89010417 0.32254902 0.0073529412
0.98143382 0.35344669 0.0029411765
0.99607843 0.38664216 0.0029411765
0.0041053922 0.36783088 0.15196078
0.0054764093 0.36209406 0.1622549
0.13365502 0.36609988 0.15623468
0.35931373 0.39538909 0.10791207
0.58146446 0.43520221 0.026378676
0.7448989 0.44496783 0.0099877451
0.86113664 0.45686275 0.0027726716
0.95490196 0.47273284 0.0074601716
0.99607843 0.49215686 0
0.0017156863 0.49754902 0.18333333
0 0.4916973 0.19656863
0.062990196 0.48180147 0.19387255
0.28137255 0.5002451 0.17729779
0.50955882 0.54313725 0.094240196
0.70122549 0.5770527 0.0074448529
0.82285539 0.58039216 0.006127451
0.93284314 0.58455882 0.0073529412
0.97622549 0.59019608 0.0019607843
0.0078431373 0.61323529 0.24656863
0.0038832721 0.60786612 0.23721661
0.036519608 0.59362745 0.24509804
0.25569853 0.59882812 0.23952972
0.43651961 0.61666667 0.20098039
0.64852941 0.65539216 0.11795343
0.79410233 0.6817402 0.040747549
0.9093367 0.69068627 0.0041053922
0.97401961 0.69068627 0.0056985294
0.0084558824 0.71752451 0.31875
0.027113971 0.71360294 0.31917892
0.15772059 0.70251225 0.32689951
0.3180913 0.68953738 0.32981005
0.4504902 0.69803922 0.31519608
0.59526654 0.725 0.28762255
0.74313725 0.75196078 0.22588848
0.88334865 0.77979473 0.14655331
0.99056373 0.7872549 0.017892157
0.26666667 0.81323529 0.4377451
0.30527727 0.81328891 0.44166667
0.36568627 0.80556066 0.44998468
0.43834252 0.79381127 0.45373775
0.51764706 0.7916973 0.46541054
0.60749847 0.80949755 0.45241268
0.72429534 0.83414522 0.44117647
0.83376225 0.85294118 0.38681832
0.96764706 0.87598039 0.33976716
0.51421569 0.91764706 0.61960784
0.52542892 0.91764706 0.62303922
0.56397059 0.92169118 0.64203431
0.59050245 0.90557598 0.63854167
0.65269608 0.9120098 0.66813725
0.70343137 0.92156863 0.66832108
0.76360294 0.9377451 0.66262255
0.84068627 0.94993873 0.64007353
0.92843137 0.96421569 0.62254902
0.048039216 0.085294118 0.22941176
0.12990196 0.089338235 0.25747549
0.2875 0.049754902 0.27254902
0.46041667 0.011764706 0.27352941
0.65784314 0.0039215686 0.2622549
0.81421569 0.0028186275 0.25257353
0.92843137 0.019852941 0.23553922
0.99644608 0.12781863 0.21960784
1 0.21372549 0.19901961
0.022058824 0.15453431 0.22781863
0.11715686 0.15183824 0.24652267
0.27582721 0.13921569 0.2640625
0.45539216 0.11393995 0.26907169
0.66568627 0.034129902 0.27175245
0.81727941 0.026731005 0.24540441
0.92095588 0.12772672 0.23259804
0.99221814 0.22647059 0.21306679
0.99607843 0.28468137 0.19607843
0.0085784314 0.29019608 0.25686275
0.016666667 0.27879902 0.25382966
0.25140931 0.27898284 0.26176471
0.45291054 0.27490809 0.25698529
0.65098039 0.26078431 0.24448529
0.79730392 0.2731924 0.22512255
0.90196078 0.30925245 0.20392157
0.98517157 0.35 0.17598039
0.99607843 0.37745098 0.16862745
0.0024509804 0.44276961 0.29203431
0.022870711 0.43334865 0.28419118
0.2185049 0.42990196 0.2877451
0.39921875 0.43088235 0.26161152
0.60980392 0.44185049 0.21568627
0.76729473 0.44754902 0.16948529
0.875 0.46014093 0.15064338
0.9665288 0.47647059 0.11629902
1 0.4872549 0.10012255
0.0083333333 0.55490196 0.31862745
0.0017156863 0.55490196 0.30827206
0.13602941 0.52745098 0.29901961
0.34381127 0.52107843 0.29154412
0.53382353 0.55245098 0.25098039
0.71378676 0.58596814 0.19932598
0.83946078 0.5877451 0.12046569
0.94246324 0.58848039 0.053676471
0.99558824 0.59019608 0.042647059
0.0039215686 0.65735294 0.35539216
0.01372549 0.64679841 0.3386489
0.15487132 0.62401961 0.33517157
0.3198989 0.61127451 0.33494179
0.47205882 0.62843137 0.31470588
0.65441176 0.66285233 0.27676164
0.79705882 0.6833027 0.22340686
0.91243873 0.69068627 0.12959559
0.99509804 0.68492647 0.012990196
0.024509804 0.73921569 0.38529412
0.11390931 0.73465074 0.38648897
0.2473652 0.72040441 0.39509804
0.35882353 0.70557598 0.39764093
0.47009804 0.70428922 0.39129902
0.61384804 0.72892157 0.36881127
0.74313725 0.75251225 0.33529412
0.87156863 0.77395833 0.27156863
0.98431373 0.78333333 0.18627451
0.30355392 0.82536765 0.48615196
0.33409926 0.82178309 0.49025735
0.38808211 0.81335784 0.49166667
0.4573989 0.80284926 0.5004902
0.5286152 0.79405637 0.50618873
0.61715686 0.8089614 0.49852941
0.71773897 0.83382353 0.47855392
0.83638174 0.85294118 0.4504902
0.96372549 0.87585784 0.42806373
0.51862745 0.9254902 0.63921569
0.53370098 0.92585784 0.64644608
0.55588235 0.92156863 0.64534314
0.59522059 0.91372549 0.65490196
0.65539216 0.91617647 0.68039216
0.70159314 0.91580882 0.67414216
0.76593137 0.93333333 0.66960784
0.84068627 0.94889706 0.65588235
0.92156863 0.96078431 0.6372549
0.0078431373 0.11764706 0.40539216
0.09754902 0.091176471 0.4254902
0.33002451 0.024019608 0.46078431
0.52009804 0.0044730392 0.47990196
0.67867647 0.0051470588 0.47205882
0.83670343 0.009375 0.45882353
0.93235294 0.011764706 0.43578431
0.99264706 0.018627451 0.41930147
1 0.15098039 0.41078431
0.0065563725 0.16697304 0.39901961
0.074509804 0.15383732 0.41067708
0.31421569 0.13541667 0.4542739
0.5363894 0.073299632 0.48565411
0.70343137 0.027144608 0.48275123
0.83197763 0.026409314 0.46219363
0.9314951 0.047089461 0.43855699
0.99019608 0.16488971 0.42401961
0.99607843 0.31292892 0.42665441
0.0039215686 0.28284314 0.38529412
0.013572304 0.28137255 0.4004902
0.26004902 0.28636642 0.43872549
0.50784314 0.28901654 0.46875
0.68946078 0.27156863 0.46973039
0.80839461 0.2790288 0.45698529
0.90572917 0.31727941 0.44249387
0.98809743 0.36853554 0.42758885
1 0.39166667 0.40392157
0 0.475 0.44215686
0.0026348039 0.45703891 0.43731618
0.17279412 0.47136949 0.45078125
0.45896906 0.46738664 0.45573683
0.63992034 0.46446078 0.44384191
0.77598039 0.46176471 0.4283701
0.87745098 0.46882659 0.41580882
0.96316636 0.49607843 0.3917356
1 0.49515931 0.37941176
0.0058823529 0.62573529 0.48529412
0.014859069 0.61666667 0.47411152
0.26605392 0.60692402 0.47297794
0.42181373 0.57742034 0.45539216
0.57487745 0.57892157 0.44117647
0.73259804 0.59656863 0.41050858
0.84356618 0.59019608 0.40196078
0.94460784 0.59411765 0.36363358
0.99607843 0.59803922 0.33039216
0.18688725 0.6995098 0.50147059
0.26708027 0.6948989 0.50091912
0.31196385 0.67941176 0.4805913
0.41135876 0.65126379 0.46828278
0.52303922 0.64319853 0.4551777
0.66926317 0.67052696 0.44475337
0.80343137 0.68737745 0.41574755
0.91372549 0.69068627 0.35735294
0.99068627 0.68284314 0.29460784
0.28909314 0.76519608 0.52205882
0.30779718 0.76127451 0.51164216
0.34200368 0.75067402 0.49497549
0.42892157 0.73350184 0.49419424
0.51219363 0.71881127 0.48596814
0.62303922 0.7332261 0.48627451
0.74568015 0.75814951 0.46443015
0.87941176 0.78247549 0.43541667
0.98823529 0.78431373 0.39117647
0.35508578 0.84283088 0.55410539
0.38186275 0.83921569 0.55784314
0.42218137 0.83181679 0.55569853
0.48462776 0.81826746 0.55980392
0.55137868 0.80784314 0.56332721
0.63411458 0.81323529 0.56372549
0.725 0.82990196 0.55159314
0.84622396 0.85610447 0.53216912
0.95765931 0.86942402 0.50606618
0.52009804 0.93186275 0.66372549
0.52990196 0.93167892 0.66372549
0.55465686 0.92573529 0.66727941
0.59852941 0.92064951 0.67696078
0.65171569 0.91519608 0.69289216
0.70343137 0.91464461 0.69117647
0.77058824 0.93627451 0.70392157
0.84460784 0.94362745 0.68676471
0.91617647 0.95294118 0.66911765
0.011764706 0.10588235 0.58039216
0.094117647 0.1 0.58970588
0.34754902 0.037254902 0.61813725
0.59534314 0.0039215686 0.66372549
0.76372549 0.011764706 0.6745098
0.85588235 0.011764706 0.64828431
0.93137255 0.010784314 0.63872549
1 0.086029412 0.62156863
0.99607843 0.22745098 0.60196078
0.011764706 0.17671569 0.57058824
0.07466299 0.16715686 0.58189338
0.33627451 0.15 0.61470588
0.58480392 0.099509804 0.65857843
0.75539216 0.058333333 0.67745098
0.83921569 0.074601716 0.66029412
0.92800245 0.11507353 0.64411765
0.98550858 0.22579657 0.61887255
0.99779412 0.30490196 0.60784314
0.0058823529 0.28627451 0.54607843
0.032046569 0.28406863 0.56764706
0.28026961 0.29276961 0.59031863
0.54068627 0.29944853 0.63406863
0.73063725 0.32181373 0.6622549
0.81911765 0.32352941 0.64699755
0.90735294 0.33835784 0.63541667
0.97726716 0.37622549 0.61813725
1 0.39607843 0.60490196
0 0.43161765 0.53823529
0.0089154412 0.43627451 0.54558824
0.20379902 0.44166667 0.55882353
0.4700674 0.46323529 0.59852941
0.67009804 0.4935049 0.6370098
0.78823529 0.48777574 0.62503064
0.87873775 0.49865196 0.61145833
0.95897672 0.51896446 0.60196078
0.99607843 0.5254902 0.59289216
0.0098039216 0.62156863 0.59803922
0.0098039216 0.62144608 0.60465686
0.23529412 0.6122549 0.59803922
0.45477941 0.60784314 0.60245098
0.6254902 0.61960784 0.61715686
0.74693627 0.61458333 0.60355392
0.84803922 0.61176471 0.59142157
0.9375 0.61384804 0.57598039
0.98529412 0.61568627 0.55490196
0.053431373 0.7504902 0.63578431
0.20214461 0.74108456 0.63161765
0.35386029 0.73088235 0.62745098
0.5049326 0.71029412 0.61960784
0.57892157 0.69240196 0.60416667
0.69041054 0.69659926 0.59607843
0.81495098 0.7033701 0.57616422
0.91764706 0.69319853 0.54770221
0.99215686 0.68676471 0.52671569
0.36372549 0.80343137 0.64754902
0.3973652 0.79754902 0.64362745
0.46139706 0.79068627 0.64117647
0.53112745 0.7752451 0.63045343
0.57058824 0.74534314 0.60612745
0.64552696 0.74264706 0.59460784
0.75845588 0.76715686 0.58860294
0.87935049 0.78351716 0.56960784
0.97254902 0.78333333 0.56372549
0.46568627 0.86593137 0.66519608
0.49044118 0.86397059 0.665625
0.4877451 0.85876225 0.65153186
0.52858456 0.84770221 0.64157475
0.58762255 0.82892157 0.63811275
0.64451593 0.8143076 0.63048407
0.73229167 0.83382353 0.62910539
0.84702819 0.85661765 0.61519608
0.96372549 0.87990196 0.61740196
0.55490196 0.94117647 0.71764706
0.56078431 0.9375 0.71764706
0.57352941 0.93333333 0.71372549
0.60073529 0.93431373 0.7120098
0.65196078 0.92254902 0.71862745
0.71421569 0.91911765 0.7375
0.77058824 0.92745098 0.73235294
0.84460784 0.94191176 0.71862745
0.92941176 0.9627451 0.72352941
0.048529412 0.11519608 0.71029412
0.21439951 0.10814951 0.71783088
0.39607843 0.070098039 0.73284314
0.59901961 0.0039215686 0.75833333
0.76715686 0.01372549 0.77892157
0.884375 0.03872549 0.79509804
0.93468137 0.097794118 0.76960784
0.99607843 0.24313725 0.75686275
1 0.29852941 0.74313725
0.027941176 0.18431373 0.70637255
0.18284314 0.18829657 0.71158088
0.38858762 0.1654565 0.72904412
0.59147518 0.14656863 0.75207567
0.76176471 0.15695466 0.7776348
0.87059589 0.22047335 0.78381587
0.93570772 0.2442402 0.77045037
0.99307598 0.29942555 0.75686275
1 0.35196078 0.74313725
0.016053922 0.29803922 0.68529412
0.089568015 0.30004596 0.69963235
0.34433211 0.30526961 0.7158701
0.55147059 0.31666667 0.74056373
0.72181373 0.35079657 0.7651348
0.84784007 0.39036458 0.78042279
0.91666667 0.40980392 0.76237745
0.98324142 0.42696078 0.75079657
1 0.44313725 0.74705882
0.010784314 0.43333333 0.65741422
0.025421262 0.43241422 0.67009804
0.26392463 0.43973652 0.68193934
0.48186275 0.46773131 0.71421569
0.67401961 0.50738358 0.74509804
0.81127451 0.53970588 0.76666667
0.88578431 0.54584865 0.75
0.96372549 0.54725797 0.74332108
0.99607843 0.54908088 0.73584559
0.0078431373 0.58235294 0.67818627
0.0056372549 0.58088235 0.67567402
0.2096201 0.57322304 0.66372549
0.42990196 0.58137255 0.68189338
0.61568627 0.61004902 0.71090686
0.77132353 0.64264706 0.74509804
0.85526961 0.64442402 0.74460784
0.94059436 0.64264706 0.73005515
0.98578431 0.64264706 0.72034314
0.033823529 0.72506127 0.7151348
0.17157629 0.72094822 0.71501991
0.33353248 0.7189185 0.71568627
0.47624081 0.72148437 0.71329657
0.59996936 0.70952819 0.71007966
0.72148437 0.71811428 0.72182904
0.82814032 0.71813725 0.71646752
0.9221201 0.71469822 0.70784314
0.96770833 0.71176471 0.70784314
0.32598039 0.83431373 0.74448529
0.37740502 0.83757659 0.7495098
0.44595588 0.82303922 0.74203431
0.54425551 0.81842831 0.7377451
0.62003676 0.80275735 0.73088235
0.69303002 0.77990196 0.71162684
0.77754289 0.77962623 0.70183824
0.89407169 0.79028799 0.69174326
0.98578431 0.77941176 0.67009804
0.46715686 0.89656863 0.75343137
0.48578431 0.89656863 0.75692402
0.52843137 0.88877145 0.75392157
0.58019301 0.88106618 0.74443168
0.62573529 0.86216299 0.72426471
0.68854167 0.84296109 0.71862745
0.75151654 0.8372549 0.7102788
0.85418964 0.86437653 0.71121324
0.96047794 0.87598039 0.70294118
0.56078431 0.95833333 0.7754902
0.56078431 0.95079657 0.7754902
0.58909314 0.95232843 0.77941176
0.62935049 0.94901961 0.7754902
0.67009804 0.93480392 0.76568627
0.72058824 0.93480392 0.77156863
0.77806373 0.92009804 0.76617647
0.85637255 0.94742647 0.78155637
0.93872549 0.92941176 0.74803922
0.27156863 0.14509804 0.81470588
0.34411765 0.17794118 0.81862745
0.46789216 0.13431373 0.82647059
0.61764706 0.12585784 0.83823529
0.74901961 0.14215686 0.85147059
0.87904412 0.25147059 0.87401961
0.94705882 0.30490196 0.87352941
0.99607843 0.32536765 0.86519608
0.99607843 0.37058824 0.84607843
0.26764706 0.22843137 0.81078431
0.33247549 0.22009804 0.81470588
0.45726103 0.21614583 0.81890319
0.59796262 0.21577819 0.83062194
0.74074755 0.25061275 0.8495098
0.870144 0.33835784 0.87231924
0.94417892 0.3703125 0.8666973
0.99957108 0.37928922 0.85713848
0.99607843 0.40404412 0.85343137
0.19019608 0.32426471 0.79901961
0.27009804 0.33011642 0.79987745
0.42126225 0.33039216 0.81078431
0.57552083 0.34852941 0.82454044
0.71801471 0.39669118 0.8432598
0.84261642 0.45395221 0.86332721
0.93272059 0.48627451 0.86936275
0.98872549 0.49972426 0.85382966
0.99607843 0.50392157 0.85392157
0.037745098 0.45061275 0.77009804
0.17585784 0.45 0.77365196
0.3504902 0.46360294 0.78507966
0.52585784 0.47990196 0.80317096
0.68308824 0.52113971 0.8283701
0.81026348 0.5685049 0.84980086
0.90775123 0.59718137 0.85765931
0.96213235 0.59754902 0.84640012
0.99460784 0.60147059 0.84031863
0.0068627451 0.57647059 0.75980392
0.0072916667 0.56507353 0.74405637
0.21397059 0.56348039 0.74301471
0.44307598 0.58155637 0.7661152
0.63039216 0.6122549 0.80686275
0.78039216 0.6622549 0.8379902
0.88517157 0.68627451 0.85355392
0.94650735 0.67591912 0.84301471
0.99607843 0.6754902 0.83088235
0.010906863 0.68578431 0.76666667
0.11171875 0.6872549 0.76783088
0.27953431 0.68333333 0.76715686
0.42555147 0.67954963 0.76462929
0.55839461 0.684375 0.76844363
0.71568627 0.7166973 0.80588235
0.86075368 0.75824142 0.84460784
0.93681066 0.7493413 0.82928922
0.9942402 0.74509804 0.82647059
0.29803922 0.80686275 0.80294118
0.34019608 0.80686275 0.80294118
0.40802696 0.80294118 0.79901961
0.51213235 0.80980392 0.81004902
0.60612745 0.80612745 0.80686275
0.71495098 0.81277574 0.81488971
0.82034314 0.81176471 0.81568627
0.90928309 0.81421569 0.81078431
0.98823529 0.81102941 0.80710784
0.45159314 0.91519608 0.83737745
0.46764706 0.92267157 0.84140625
0.51482843 0.90995711 0.83275123
0.57971814 0.91971507 0.84117647
0.65245098 0.90465686 0.82922794
0.72953431 0.89105392 0.82536765
0.79460784 0.86534926 0.81078431
0.87291667 0.87248775 0.80767463
0.96470588 0.8877451 0.81078431
0.53921569 0.97254902 0.84215686
0.5504902 0.97598039 0.84215686
0.57843137 0.97279412 0.84117647
0.62659314 0.96568627 0.84117647
0.69068627 0.96715686 0.84509804
0.74080882 0.95147059 0.8372549
0.79509804 0.92867647 0.8254902
0.86519608 0.93909314 0.8307598
0.91960784 0.95686275 0.8372549
0.41764706 0.28088235 0.89558824
0.46764706 0.24215686 0.8995098
0.53933824 0.26323529 0.90343137
0.6495098 0.26911765 0.91078431
0.75098039 0.29509804 0.92254902
0.84705882 0.36568627 0.93431373
0.94803922 0.43431373 0.94693627
0.98480392 0.45496324 0.93131127
0.99607843 0.45637255 0.93431373
0.41721814 0.29693627 0.8995098
0.45582874 0.30680913 0.89859069
0.53578431 0.30637255 0.9060049
0.63925398 0.3223652 0.91357996
0.74292279 0.35343137 0.92254902
0.84313725 0.40814951 0.93057598
0.94276961 0.47561275 0.94215686
0.98474265 0.4881204 0.9338848
0.99607843 0.49852941 0.93039216
0.3995098 0.39117647 0.89129902
0.43333333 0.39385723 0.89522059
0.51724877 0.40294118 0.89846814
0.61925551 0.42892157 0.90396752
0.72058824 0.4497549 0.91568627
0.82856924 0.50159314 0.92287071
0.92720588 0.55189951 0.93795956
0.98480392 0.56634498 0.93780637
0.99607843 0.56801471 0.93345588
0.33707108 0.50539216 0.87598039
0.37497702 0.49460784 0.87775735
0.46715686 0.50249694 0.88382353
0.58461244 0.52420343 0.8944087
0.69322917 0.54754902 0.90588235
0.80324755 0.59362745 0.91709559
0.90459559 0.63235294 0.93039216
0.98049939 0.64460784 0.93578431
0.99607843 0.64852941 0.93216912
0.15147059 0.59534314 0.84877451
0.26495098 0.59463848 0.85269608
0.37279412 0.59681373 0.85870098
0.51715686 0.60833333 0.87417279
0.65637255 0.62977941 0.89068627
0.78146446 0.67224265 0.90971201
0.88504902 0.70251225 0.92254902
0.9580576 0.71179534 0.92647059
0.99607843 0.71029412 0.92254902
0.018504902 0.67696078 0.83676471
0.098307292 0.67518382 0.83823529
0.25061275 0.67285539 0.83805147
0.41921722 0.67683824 0.84577206
0.56632966 0.6877451 0.85637255
0.7183364 0.71943168 0.87909773
0.85845588 0.75730699 0.91337316
0.95032935 0.78382353 0.92238817
0.99246324 0.77775735 0.90980392
0.25477941 0.7877451 0.86470588
0.30692402 0.78688725 0.86519608
0.37772672 0.78103554 0.86191789
0.46470588 0.77602635 0.86181066
0.55968137 0.77598039 0.86084559
0.65663297 0.7712163 0.85700061
0.80784314 0.80848652 0.88431373
0.92990196 0.84166667 0.91078431
0.98823529 0.84558824 0.90306373
0.41323529 0.89509804 0.89509804
0.43578431 0.89901961 0.89859069
0.47875306 0.89515931 0.89166667
0.55471814 0.89509804 0.89875153
0.63970588 0.90490196 0.90297181
0.70686275 0.88339461 0.89166667
0.79603248 0.88394608 0.89215686
0.90735294 0.90343137 0.90735294
0.97604167 0.90735294 0.90686275
0.49754902 0.96862745 0.91127451
0.5088848 0.97990196 0.91862745
0.55490196 0.98468137 0.91470588
0.61813725 0.98216912 0.91501225
0.6877451 0.97867647 0.91495098
0.75441176 0.96617647 0.91341912
0.81764706 0.96127451 0.90992647
0.88425245 0.96035539 0.90643382
0.96568627 0.95686275 0.89901961
0.56470588 0.42352941 0.98431373
0.57205882 0.41911765 0.97647059
0.60980392 0.41176471 0.96568627
0.67401961 0.40637255 0.96078431
0.75686275 0.44901961 0.98039216
0.83186275 0.47990196 0.98431373
0.93137255 0.48137255 0.96960784
0.99215686 0.55686275 0.99215686
0.99607843 0.57254902 0.99607843
0.54901961 0.45441176 0.97990196
0.57156863 0.45343137 0.97647059
0.61776961 0.46188725 0.98039216
0.6754902 0.46746324 0.97616422
0.74730392 0.47916667 0.98210784
0.82794118 0.5122549 0.98609069
0.91764706 0.5377451 0.98333333
0.98480392 0.56519608 0.98431373
0.99215686 0.56323529 0.97598039
0.5372549 0.51176471 0.97254902
0.56127451 0.51911765 0.97340686
0.60980392 0.52941176 0.98039216
0.66433824 0.53137255 0.97647059
0.73676471 0.53970588 0.97598039
0.82009804 0.56421569 0.97647059
0.90563725 0.59926471 0.98602941
0.98394608 0.62193627 0.98823529
0.99607843 0.63039216 0.98529412
0.51372549 0.5877451 0.96470588
0.53645833 0.58351716 0.96421569
0.58480392 0.59411765 0.96862745
0.65196078 0.60735294 0.97346814
0.72107843 0.6127451 0.97009804
0.80441176 0.63235294 0.97310049
0.89313725 0.65980392 0.98370098
0.9745098 0.67726716 0.98431373
0.99215686 0.6754902 0.97647059
0.49607843 0.66666667 0.96470588
0.49803922 0.65882353 0.95882353
0.55147059 0.66078431 0.9627451
0.59411765 0.65735294 0.9495098
0.69117647 0.66960784 0.95686275
0.78235294 0.6877451 0.9622549
0.88137255 0.71470588 0.97254902
0.95735294 0.73333333 0.98039216
0.99607843 0.75098039 0.99019608
0.39460784 0.72205882 0.94117647
0.43841912 0.728125 0.94901961
0.47487745 0.72389706 0.94387255
0.54895833 0.72058824 0.94362745
0.64166667 0.72230392 0.94338235
0.75588235 0.7471201 0.96715686
0.86176471 0.77046569 0.97254902
0.95245098 0.7995098 0.975
0.99607843 0.80686275 0.97254902
0.4 0.80294118 0.95098039
0.42769608 0.80588235 0.95625
0.45392157 0.79901961 0.94117647
0.51237745 0.79571078 0.95061275
0.59852941 0.79460784 0.95490196
0.69742647 0.79460784 0.94607843
0.81862745 0.82083333 0.94901961
0.93737745 0.85343137 0.96960784
0.99117647 0.87156863 0.97941176
0.43529412 0.89166667 0.95637255
0.42794118 0.8877451 0.92640931
0.47352941 0.88762255 0.95245098
0.54656863 0.89166667 0.96488971
0.61617647 0.8877451 0.9629902
0.69540441 0.88645833 0.95716912
0.775 0.87904412 0.96176471
0.90735294 0.91127451 0.97205882
0.98382353 0.91862745 0.95343137
0.47843137 0.98039216 0.98039216
0.49019608 0.96127451 0.94607843
0.5245098 0.97843137 0.98137255
0.56960784 0.94215686 0.96862745
0.64901961 0.97843137 0.97843137
0.74166667 0.97647059 0.95539216
0.8254902 0.97647059 0.96078431
0.8995098 0.98333333 0.98284314
0.98431373 0.98431373 0.98431373
