site/assets/luts/natron-haldclut--polaroid-px-680---52e9af14f.cube
# LUTr-Project: LUTr — LUTrepository
# LUTr-Schema-Version: 1
# LUTr-ID: natron-haldclut--polaroid-px-680---52e9af14f
# LUTr-Title: polaroid px-680 -
# LUTr-Collection: Natron HaldCLUT
# LUTr-Collection-ID: natron-haldclut-presets
# LUTr-Source: https://github.com/NatronGitHub/clut
# LUTr-Source-File: submissions/natron-haldclut-presets/instant_consumer/polaroid_px-680_-.png
# LUTr-Source-Format: PNG
# LUTr-Source-SHA256: 95a36465ecd762344ad023cf43874e3d2e9091c315663338dae524a8e9a78afc
# LUTr-License: CC-BY-SA-4.0
# LUTr-License-URL: https://github.com/NatronGitHub/clut#license
# LUTr-Tags: creative, film, film-emulation, hald-clut, natron, png, cube
# LUTr-Transform-Class: film-emulation
# LUTr-Input-Color-Space: srgb
# LUTr-Output-Color-Space: srgb
# LUTr-Color-Space-Confidence: assumed-display-referred
# LUTr-Conversion-Method: PNG LUT image decoded at 16-bit and sampled to 25x25x25 3D CUBE
# LUTr-Conversion-Date: 2026-07-27
# LUTr-Conversion-Tool: LUTr scripts/convert-all-to-cube.mjs
# LUTr-Conversion-Grid: 25x25x25
# LUTr-Note: Preserve this metadata and the upstream license notices when redistributing.
TITLE "polaroid px-680 -"
LUT_3D_SIZE 5
DOMAIN_MIN 0 0 0
DOMAIN_MAX 1 1 1
0 0.10196078 0.15686275
0.12647059 0.10980392 0.16372549
0.50196078 0.14117647 0.16470588
0.85882353 0.31078431 0.18921569
0.99215686 0.50196078 0.29803922
0 0.17941176 0.16372549
0.12058824 0.21470588 0.17254902
0.55343137 0.2745098 0.16078431
0.84607843 0.39705882 0.18014706
0.96666667 0.53039216 0.2872549
0 0.48627451 0.18823529
0.0098039216 0.49705882 0.19460784
0.50294118 0.57352941 0.18431373
0.80882353 0.59607843 0.18823529
0.94509804 0.64705882 0.29019608
0 0.71666667 0.27745098
0.0125 0.7127451 0.29215686
0.4377451 0.73970588 0.31519608
0.73161765 0.7754902 0.36764706
0.89901961 0.81470588 0.41862745
0.51372549 0.89803922 0.50588235
0.54019608 0.89411765 0.50882353
0.64117647 0.90196078 0.5372549
0.76666667 0.91372549 0.56470588
0.84705882 0.92941176 0.58823529
0.0078431373 0.10980392 0.22156863
0.1254902 0.12867647 0.22843137
0.5504902 0.055882353 0.2622549
0.85392157 0.33529412 0.34730392
0.96176471 0.57843137 0.44411765
0.0078431373 0.24387255 0.2627451
0.17806373 0.24123775 0.26691176
0.59901961 0.32745098 0.29803922
0.84534314 0.47254902 0.35784314
0.95 0.60416667 0.43627451
0.023039216 0.5127451 0.30980392
0.045098039 0.53235294 0.29718137
0.53897059 0.58431373 0.32034314
0.8127451 0.59889706 0.32536765
0.93431373 0.66617647 0.3995098
0.0058823529 0.71960784 0.35220588
0.14166667 0.7245098 0.35686275
0.48186275 0.74166667 0.39803922
0.73866422 0.77843137 0.43235294
0.90122549 0.8129902 0.47156863
0.52647059 0.89803922 0.52156863
0.55122549 0.89730392 0.5245098
0.63872549 0.89558824 0.54411765
0.76666667 0.91372549 0.57720588
0.8745098 0.93333333 0.61960784
0.019607843 0.15098039 0.45098039
0.33382353 0.2122549 0.46617647
0.60196078 0.36470588 0.48627451
0.83235294 0.37156863 0.51764706
0.94901961 0.6 0.56666667
0.0093137255 0.30784314 0.48382353
0.33431373 0.35098039 0.49362745
0.6379902 0.48333333 0.51151961
0.82291667 0.51335784 0.53406863
0.94166667 0.66715686 0.58039216
0.0049019608 0.53529412 0.46666667
0.29166667 0.55392157 0.47769608
0.6245098 0.62352941 0.5245098
0.80980392 0.67916667 0.54705882
0.92254902 0.74705882 0.58823529
0.31568627 0.71421569 0.48137255
0.44117647 0.72708333 0.49693627
0.58823529 0.75 0.51813725
0.76556373 0.7872549 0.54963235
0.90294118 0.81764706 0.56568627
0.54509804 0.89019608 0.56666667
0.54852941 0.86960784 0.55
0.65196078 0.89705882 0.58235294
0.77303922 0.9127451 0.61764706
0.86470588 0.9 0.62352941
0.4372549 0.37647059 0.65
0.55318627 0.4247549 0.65686275
0.73137255 0.60098039 0.65686275
0.82156863 0.6745098 0.66078431
0.91666667 0.68921569 0.67254902
0.44019608 0.4754902 0.65294118
0.55471814 0.51151961 0.65686275
0.72892157 0.63333333 0.65686275
0.82941176 0.71642157 0.66807598
0.90171569 0.71078431 0.6754902
0.21323529 0.59362745 0.62205882
0.41323529 0.61115196 0.62781863
0.69093137 0.68284314 0.65318627
0.82095588 0.76973039 0.67573529
0.90196078 0.77647059 0.69019608
0.33235294 0.7245098 0.59411765
0.41783088 0.73400735 0.60122549
0.59987745 0.75220588 0.61862745
0.79828431 0.81078431 0.67279412
0.90196078 0.84901961 0.69289216
0.48235294 0.89313725 0.62843137
0.51470588 0.88627451 0.63235294
0.64313725 0.89803922 0.6504902
0.77132353 0.91470588 0.68823529
0.89019608 0.94019608 0.74509804
0.71764706 0.68627451 0.79607843
0.74901961 0.70294118 0.79705882
0.81176471 0.73921569 0.78627451
0.87058824 0.82058824 0.79509804
0.89019608 0.8627451 0.79607843
0.71470588 0.71764706 0.80784314
0.74583333 0.72916667 0.80465686
0.80686275 0.75882353 0.79068627
0.86764706 0.82843137 0.79215686
0.89705882 0.85294118 0.79019608
0.62745098 0.73921569 0.79019608
0.68627451 0.75490196 0.79754902
0.78431373 0.78627451 0.80392157
0.86372549 0.85 0.80392157
0.89019608 0.88235294 0.80784314
0.51078431 0.81862745 0.78921569
0.54779412 0.8129902 0.78039216
0.66470588 0.82058824 0.79117647
0.83063725 0.86372549 0.81176471
0.90196078 0.90980392 0.82352941
0.53333333 0.92941176 0.80392157
0.55588235 0.9245098 0.80294118
0.63333333 0.9254902 0.80588235
0.7627451 0.93823529 0.82941176
0.90196078 0.94509804 0.84705882
