site/assets/luts/natron-haldclut--fuji-neopan-1600--a6e03d054.cube
# LUTr-Project: LUTr — LUTrepository
# LUTr-Schema-Version: 1
# LUTr-ID: natron-haldclut--fuji-neopan-1600--a6e03d054
# LUTr-Title: fuji neopan 1600
# LUTr-Collection: Natron HaldCLUT
# LUTr-Collection-ID: natron-haldclut-presets
# LUTr-Source: https://github.com/NatronGitHub/clut
# LUTr-Source-File: submissions/natron-haldclut-presets/negative_old/fuji_neopan_1600.png
# LUTr-Source-Format: PNG
# LUTr-Source-SHA256: 2436f96f36e1108e6897aa34cc7074326fc9e69b0602918ec1fa4771ffc57a21
# LUTr-License: CC-BY-SA-4.0
# LUTr-License-URL: https://github.com/NatronGitHub/clut#license
# LUTr-Tags: creative, film, film-emulation, hald-clut, natron, png, black-and-white, cube
# LUTr-Transform-Class: film-emulation
# LUTr-Input-Color-Space: srgb
# LUTr-Output-Color-Space: srgb
# LUTr-Color-Space-Confidence: assumed-display-referred
# LUTr-Conversion-Method: PNG LUT image decoded at 16-bit and sampled to 25x25x25 3D CUBE
# LUTr-Conversion-Date: 2026-07-27
# LUTr-Conversion-Tool: LUTr scripts/convert-all-to-cube.mjs
# LUTr-Conversion-Grid: 25x25x25
# LUTr-Note: Preserve this metadata and the upstream license notices when redistributing.
TITLE "fuji neopan 1600"
LUT_3D_SIZE 5
DOMAIN_MIN 0 0 0
DOMAIN_MAX 1 1 1
0.023529412 0.023529412 0.023529412
0.050980392 0.050980392 0.050980392
0.049019608 0.049019608 0.049019608
0.19607843 0.19607843 0.19607843
0.47058824 0.47058824 0.47058824
0.10686275 0.10686275 0.10686275
0.10882353 0.10882353 0.10882353
0.20098039 0.20098039 0.20098039
0.35392157 0.35392157 0.35392157
0.54901961 0.54901961 0.54901961
0.3254902 0.3254902 0.3254902
0.35784314 0.35784314 0.35784314
0.4254902 0.4254902 0.4254902
0.5245098 0.5245098 0.5245098
0.64901961 0.64901961 0.64901961
0.6 0.6 0.6
0.62352941 0.62352941 0.62352941
0.65833333 0.65833333 0.65833333
0.70588235 0.70588235 0.70588235
0.78627451 0.78627451 0.78627451
0.83921569 0.83921569 0.83921569
0.83431373 0.83431373 0.83431373
0.84705882 0.84705882 0.84705882
0.87058824 0.87058824 0.87058824
0.88627451 0.88627451 0.88627451
0.031372549 0.031372549 0.031372549
0.050245098 0.050245098 0.050245098
0.13235294 0.13235294 0.13235294
0.28823529 0.28823529 0.28823529
0.50490196 0.50490196 0.50490196
0.15294118 0.15294118 0.15294118
0.18094363 0.18094363 0.18094363
0.25698529 0.25698529 0.25698529
0.4 0.4 0.4
0.56593137 0.56593137 0.56593137
0.37990196 0.37990196 0.37990196
0.40294118 0.40294118 0.40294118
0.45588235 0.45588235 0.45588235
0.55735294 0.55735294 0.55735294
0.67696078 0.67696078 0.67696078
0.63039216 0.63039216 0.63039216
0.64644608 0.64644608 0.64644608
0.67696078 0.67696078 0.67696078
0.72506127 0.72506127 0.72506127
0.79019608 0.79019608 0.79019608
0.83921569 0.83921569 0.83921569
0.85465686 0.85465686 0.85465686
0.86176471 0.86176471 0.86176471
0.88553922 0.88553922 0.88553922
0.89019608 0.89019608 0.89019608
0.096078431 0.096078431 0.096078431
0.12745098 0.12745098 0.12745098
0.22352941 0.22352941 0.22352941
0.36617647 0.36617647 0.36617647
0.58627451 0.58627451 0.58627451
0.23872549 0.23872549 0.23872549
0.28627451 0.28627451 0.28627451
0.35 0.35 0.35
0.48529412 0.48529412 0.48529412
0.63627451 0.63627451 0.63627451
0.45196078 0.45196078 0.45196078
0.47303922 0.47303922 0.47303922
0.52794118 0.52794118 0.52794118
0.61960784 0.61960784 0.61960784
0.71666667 0.71666667 0.71666667
0.66764706 0.66764706 0.66764706
0.68713235 0.68713235 0.68713235
0.73088235 0.73088235 0.73088235
0.76519608 0.76519608 0.76519608
0.81519608 0.81519608 0.81519608
0.86862745 0.86862745 0.86862745
0.87058824 0.87058824 0.87058824
0.88137255 0.88137255 0.88137255
0.90245098 0.90245098 0.90245098
0.88235294 0.88235294 0.88235294
0.21862745 0.21862745 0.21862745
0.27941176 0.27941176 0.27941176
0.3754902 0.3754902 0.3754902
0.49191176 0.49191176 0.49191176
0.64901961 0.64901961 0.64901961
0.40392157 0.40392157 0.40392157
0.42775735 0.42775735 0.42775735
0.49031863 0.49031863 0.49031863
0.59099265 0.59099265 0.59099265
0.69411765 0.69411765 0.69411765
0.58039216 0.58039216 0.58039216
0.60392157 0.60392157 0.60392157
0.64264706 0.64264706 0.64264706
0.70588235 0.70588235 0.70588235
0.76764706 0.76764706 0.76764706
0.76470588 0.76470588 0.76470588
0.75980392 0.75980392 0.75980392
0.77598039 0.77598039 0.77598039
0.81176471 0.81176471 0.81176471
0.85686275 0.85686275 0.85686275
0.89117647 0.89117647 0.89117647
0.89117647 0.89117647 0.89117647
0.91078431 0.91078431 0.91078431
0.92647059 0.92647059 0.92647059
0.92352941 0.92352941 0.92352941
0.45098039 0.45098039 0.45098039
0.48235294 0.48235294 0.48235294
0.54509804 0.54509804 0.54509804
0.6372549 0.6372549 0.6372549
0.71764706 0.71764706 0.71764706
0.5627451 0.5627451 0.5627451
0.57058824 0.57058824 0.57058824
0.63137255 0.63137255 0.63137255
0.70416667 0.70416667 0.70416667
0.76568627 0.76568627 0.76568627
0.70588235 0.70588235 0.70588235
0.68970588 0.68970588 0.68970588
0.74019608 0.74019608 0.74019608
0.76764706 0.76764706 0.76764706
0.8372549 0.8372549 0.8372549
0.82156863 0.82156863 0.82156863
0.83235294 0.83235294 0.83235294
0.84117647 0.84117647 0.84117647
0.86544118 0.86544118 0.86544118
0.90686275 0.90686275 0.90686275
0.93333333 0.93333333 0.93333333
0.94215686 0.94215686 0.94215686
0.93333333 0.93333333 0.93333333
0.95 0.95 0.95
0.97647059 0.97647059 0.97647059
