site/assets/luts/natron-haldclut--60s--35949cdee.cube
# LUTr-Project: LUTr — LUTrepository
# LUTr-Schema-Version: 1
# LUTr-ID: natron-haldclut--60s--35949cdee
# LUTr-Title: 60's
# LUTr-Collection: Natron HaldCLUT
# LUTr-Collection-ID: natron-haldclut-presets
# LUTr-Source: https://github.com/NatronGitHub/clut
# LUTr-Source-File: submissions/natron-haldclut-presets/various/60's.png
# LUTr-Source-Format: PNG
# LUTr-Source-SHA256: efd0bc7f643c1f3d0ee2ec1565439077ce0891331502d245ea4688bc3e642c78
# LUTr-License: CC-BY-SA-4.0
# LUTr-License-URL: https://github.com/NatronGitHub/clut#license
# LUTr-Tags: creative, film, film-emulation, hald-clut, natron, png, cube
# LUTr-Transform-Class: film-emulation
# LUTr-Input-Color-Space: srgb
# LUTr-Output-Color-Space: srgb
# LUTr-Color-Space-Confidence: assumed-display-referred
# LUTr-Conversion-Method: PNG LUT image decoded at 16-bit and sampled to 25x25x25 3D CUBE
# LUTr-Conversion-Date: 2026-07-27
# LUTr-Conversion-Tool: LUTr scripts/convert-all-to-cube.mjs
# LUTr-Conversion-Grid: 25x25x25
# LUTr-Note: Preserve this metadata and the upstream license notices when redistributing.
TITLE "60's"
LUT_3D_SIZE 25
DOMAIN_MIN 0 0 0
DOMAIN_MAX 1 1 1
0.42745098 0.11372549 0.45490196
0.4377451 0.12401961 0.47303922
0.44803922 0.12941176 0.48627451
0.45098039 0.12598039 0.48235294
0.44705882 0.12156863 0.47058824
0.46078431 0.11813725 0.47156863
0.49901961 0.12156863 0.48823529
0.5377451 0.12303922 0.50735294
0.58431373 0.1254902 0.51372549
0.63970588 0.12696078 0.51372549
0.68333333 0.12647059 0.5127451
0.72745098 0.13284314 0.50245098
0.76862745 0.14117647 0.48627451
0.80588235 0.13676471 0.49460784
0.84411765 0.12647059 0.51176471
0.87745098 0.12696078 0.52156863
0.90196078 0.12941176 0.51764706
0.90980392 0.12941176 0.50490196
0.91764706 0.1254902 0.48529412
0.92156863 0.12843137 0.48137255
0.91568627 0.14313725 0.5
0.90147059 0.13333333 0.50588235
0.8872549 0.13039216 0.50294118
0.84460784 0.13088235 0.5004902
0.76862745 0.13333333 0.49019608
0.44019608 0.13039216 0.4754902
0.44258578 0.13131127 0.48125
0.44705882 0.13333333 0.48811275
0.44491422 0.13204657 0.48498775
0.44068627 0.13431373 0.48210784
0.46029412 0.13431373 0.47745098
0.49558824 0.13431373 0.48529412
0.53529412 0.13578431 0.50006127
0.58431373 0.13823529 0.50490196
0.63578431 0.14215686 0.50980392
0.68235294 0.14215686 0.50637255
0.72714461 0.13970588 0.49607843
0.77107843 0.14313725 0.48431373
0.80931373 0.13970588 0.4908701
0.84129902 0.13970588 0.50245098
0.875 0.14215686 0.50882353
0.90196078 0.14215686 0.50735294
0.9122549 0.14607843 0.49368873
0.91862745 0.14669118 0.48235294
0.92156863 0.15 0.48449755
0.91764706 0.15073529 0.49485294
0.91127451 0.1473652 0.50343137
0.89460784 0.14607843 0.50379902
0.86047794 0.14607843 0.50140931
0.83039216 0.14607843 0.49754902
0.44803922 0.14607843 0.48529412
0.44852941 0.14705882 0.48872549
0.44313725 0.14803922 0.49509804
0.43578431 0.15061275 0.49901961
0.43235294 0.14852941 0.49803922
0.45894608 0.15098039 0.48566176
0.48946078 0.15098039 0.47745098
0.53284314 0.15208333 0.48639706
0.58431373 0.15490196 0.49313725
0.63615196 0.15882353 0.49669118
0.68235294 0.15882353 0.49632353
0.72696078 0.15882353 0.49056373
0.77205882 0.15980392 0.48235294
0.8067402 0.15980392 0.48676471
0.84093137 0.16372549 0.49264706
0.875 0.15943627 0.49276961
0.90588235 0.16176471 0.49215686
0.91617647 0.16335784 0.48345588
0.91764706 0.17058824 0.48235294
0.92022059 0.17414216 0.48627451
0.91715686 0.17254902 0.48921569
0.91629902 0.1627451 0.49754902
0.9004902 0.15882353 0.50196078
0.8627451 0.1627451 0.50061275
0.84607843 0.1627451 0.49803922
0.45490196 0.16029412 0.47156863
0.45098039 0.16636029 0.48566176
0.44227941 0.1754902 0.50159314
0.43578431 0.17506127 0.5088848
0.43848039 0.175 0.50392157
0.45980392 0.17150735 0.48572304
0.48468137 0.16764706 0.4689951
0.53284314 0.17156863 0.475
0.58431373 0.1754902 0.48284314
0.63970588 0.17794118 0.48314951
0.68578431 0.17941176 0.48382353
0.72738971 0.18284314 0.48651961
0.76862745 0.19264706 0.4879902
0.80931373 0.19068627 0.49362745
0.84362745 0.19068627 0.49105392
0.875 0.18547794 0.48480392
0.90980392 0.17941176 0.4754902
0.91372549 0.18578431 0.48088235
0.91507353 0.19203431 0.48235294
0.91421569 0.19509804 0.48235294
0.9120098 0.19313725 0.47892157
0.91029412 0.18762255 0.48768382
0.90269608 0.1935049 0.50134804
0.86102941 0.19803922 0.50067402
0.79117647 0.19460784 0.48823529
0.45490196 0.18235294 0.46470588
0.44779412 0.19460784 0.48529412
0.43529412 0.20294118 0.50490196
0.43504902 0.20588235 0.50808824
0.44509804 0.20882353 0.49803922
0.46127451 0.20563725 0.48627451
0.48284314 0.20392157 0.48284314
0.52965686 0.20784314 0.47720588
0.58431373 0.20392157 0.47843137
0.64093137 0.20196078 0.47328431
0.68627451 0.20882353 0.47941176
0.72745098 0.21740196 0.48602941
0.76960784 0.2245098 0.49313725
0.81348039 0.225 0.5004902
0.8495098 0.22156863 0.50098039
0.88161765 0.21838235 0.49460784
0.90784314 0.22745098 0.48431373
0.92083333 0.22426471 0.49068627
0.92303922 0.22352941 0.49313725
0.91789216 0.22352941 0.48676471
0.90980392 0.22156863 0.47647059
0.90171569 0.22573529 0.48284314
0.89705882 0.22745098 0.49313725
0.88455882 0.22745098 0.49681373
0.86078431 0.22745098 0.49607843
0.43039216 0.2377451 0.47794118
0.43400735 0.24148284 0.48498775
0.42622549 0.24313725 0.50355392
0.42696078 0.24515931 0.49803922
0.43651961 0.24485294 0.48357843
0.45104167 0.24025735 0.49810049
0.48186275 0.24411765 0.49644608
0.52892157 0.24920343 0.48872549
0.58382353 0.2495098 0.48235294
0.63578431 0.25165441 0.48106618
0.69019608 0.25404412 0.49534314
0.73137255 0.26470588 0.48670343
0.77303922 0.26691176 0.49583333
0.81764706 0.26029412 0.50637255
0.85625 0.25257353 0.51409314
0.88529412 0.26243873 0.50490196
0.90637255 0.27696078 0.49411765
0.92401961 0.27843137 0.49264706
0.93480392 0.26801471 0.50698529
0.93780637 0.26807598 0.51078431
0.92401961 0.27892157 0.49264706
0.90661765 0.27738971 0.48848039
0.88394608 0.27659314 0.48982843
0.86507353 0.26875 0.50110294
0.81862745 0.27745098 0.4995098
0.41372549 0.28529412 0.46764706
0.41164216 0.28811275 0.47083333
0.4252451 0.30269608 0.50098039
0.42401961 0.2939951 0.48860294
0.4245098 0.28235294 0.47156863
0.45110294 0.28566176 0.48835784
0.47916667 0.28897059 0.49828431
0.525 0.29705882 0.48872549
0.57745098 0.29705882 0.48627451
0.63431373 0.30098039 0.48627451
0.69117647 0.30588235 0.48823529
0.73786765 0.31360294 0.48247549
0.77647059 0.31666667 0.49411765
0.81764706 0.31813725 0.50637255
0.85882353 0.31764706 0.51666667
0.88529412 0.32230392 0.50833333
0.90980392 0.32843137 0.49411765
0.92794118 0.33345588 0.48970588
0.9375 0.32352941 0.50392157
0.94117647 0.32634804 0.51078431
0.93578431 0.3372549 0.50539216
0.92156863 0.34166667 0.49656863
0.87892157 0.32916667 0.48480392
0.86004902 0.32904412 0.49583333
0.85588235 0.34313725 0.51176471
0.41176471 0.37009804 0.47990196
0.41268382 0.37009804 0.48082108
0.42120098 0.37414216 0.49460784
0.41991422 0.36550245 0.48492647
0.42279412 0.36348039 0.48529412
0.44705882 0.36078431 0.49375
0.48296569 0.35747549 0.49448529
0.525 0.35294118 0.49019608
0.57794118 0.35686275 0.4877451
0.63278186 0.36170343 0.48529412
0.69154412 0.36678922 0.47990196
0.74313725 0.37205882 0.47941176
0.78039216 0.38431373 0.49485294
0.81764706 0.39656863 0.51029412
0.85551471 0.4 0.51764706
0.88229167 0.39944853 0.50594363
0.90980392 0.39460784 0.49411765
0.92941176 0.39215686 0.48535539
0.93333333 0.39669118 0.49301471
0.93578431 0.39981618 0.50018382
0.93848039 0.40514706 0.50196078
0.93811275 0.41176471 0.50410539
0.89877451 0.40992647 0.49656863
0.87267157 0.41470588 0.49705882
0.82696078 0.42352941 0.4995098
0.41568627 0.4627451 0.49411765
0.41568627 0.4627451 0.49411765
0.41960784 0.45784314 0.49803922
0.41960784 0.45147059 0.50147059
0.42352941 0.45098039 0.50392157
0.44117647 0.44705882 0.50539216
0.48627451 0.44019608 0.49803922
0.53137255 0.43921569 0.49264706
0.58039216 0.44313725 0.49019608
0.63578431 0.45098039 0.49558824
0.69117647 0.45392157 0.48921569
0.73921569 0.45441176 0.48578431
0.78039216 0.46666667 0.49803922
0.81764706 0.48284314 0.51764706
0.85196078 0.48333333 0.51764706
0.87892157 0.47843137 0.50441176
0.90588235 0.4745098 0.49411765
0.92794118 0.4745098 0.49411765
0.93333333 0.47843137 0.49901961
0.92941176 0.48186275 0.49803922
0.9254902 0.48627451 0.49803922
0.9245098 0.49411765 0.49803922
0.90980392 0.49705882 0.49803922
0.90392157 0.50588235 0.50196078
0.85882353 0.51372549 0.49803922
0.40931373 0.53382353 0.49411765
0.41415441 0.54117647 0.49957108
0.41776961 0.54117647 0.5064951
0.41746324 0.54117647 0.5096201
0.42230392 0.54044118 0.51102941
0.45490196 0.53314951 0.50539216
0.49264706 0.52941176 0.49620098
0.5377451 0.52794118 0.48872549
0.58676471 0.53186275 0.48627451
0.63970588 0.53817402 0.49466912
0.69056373 0.5372549 0.49558824
0.73743873 0.5346201 0.49129902
0.78039216 0.54509804 0.49558824
0.81734069 0.55618873 0.51145833
0.85196078 0.55833333 0.51409314
0.8783701 0.55686275 0.50588235
0.90196078 0.55441176 0.50098039
0.92401961 0.55686275 0.50098039
0.93370098 0.56115196 0.50588235
0.92990196 0.56470588 0.50637255
0.91568627 0.57058824 0.49338235
0.90471814 0.58039216 0.4846201
0.8995098 0.57794118 0.49705882
0.87144608 0.58241422 0.50349265
0.84117647 0.59852941 0.50686275
0.40490196 0.59509804 0.48431373
0.41323529 0.61029412 0.49803922
0.40980392 0.62083333 0.51053922
0.42009804 0.61384804 0.51372549
0.42843137 0.6122549 0.51372549
0.45588235 0.61078431 0.50931373
0.49779412 0.61078431 0.49901961
0.5442402 0.61470588 0.48578431
0.59215686 0.61764706 0.48235294
0.64068627 0.61372549 0.48627451
0.68823529 0.61470588 0.48848039
0.73872549 0.61568627 0.48186275
0.78039216 0.62254902 0.4872549
0.81715686 0.62156863 0.49705882
0.85196078 0.62156863 0.50318627
0.87953431 0.62696078 0.4995098
0.90588235 0.63431373 0.48921569
0.92683824 0.63529412 0.48492647
0.92843137 0.63651961 0.49215686
0.92291667 0.63333333 0.49313725
0.91715686 0.63627451 0.49068627
0.91078431 0.64166667 0.49362745
0.90122549 0.6497549 0.50563725
0.87696078 0.65968137 0.50245098
0.8745098 0.68333333 0.52843137
0.41176471 0.66323529 0.47107843
0.41519608 0.67058824 0.4877451
0.41911765 0.67598039 0.50428922
0.42389706 0.67941176 0.51329657
0.42598039 0.68284314 0.51372549
0.44601716 0.68284314 0.50931373
0.4932598 0.67941176 0.50281863
0.54442402 0.67420343 0.49393382
0.59607843 0.6754902 0.48970588
0.65067402 0.67892157 0.49001225
0.69497549 0.68039216 0.48615196
0.74221814 0.68676471 0.47892157
0.78235294 0.6875 0.48210784
0.81764706 0.68333333 0.49019608
0.85196078 0.68333333 0.49068627
0.88284314 0.68872549 0.48921569
0.90931373 0.69901961 0.48235294
0.9254902 0.7036152 0.47824755
0.92892157 0.69816176 0.48247549
0.92892157 0.69509804 0.48284314
0.92745098 0.69485294 0.49313725
0.91317402 0.70300245 0.49417892
0.89215686 0.71323529 0.4872549
0.87481618 0.72303922 0.49724265
0.8745098 0.72745098 0.52205882
0.40980392 0.71960784 0.47647059
0.42132353 0.72352941 0.48602941
0.42941176 0.72843137 0.4995098
0.42745098 0.73112745 0.50392157
0.4254902 0.73921569 0.50392157
0.44705882 0.74093137 0.50808824
0.49313725 0.73529412 0.50833333
0.54534314 0.73210784 0.50392157
0.60392157 0.7372549 0.49607843
0.66372549 0.74632353 0.49093137
0.70343137 0.74215686 0.4877451
0.74313725 0.73529412 0.48455882
0.78333333 0.73921569 0.49705882
0.82107843 0.74117647 0.49558824
0.85490196 0.74460784 0.48529412
0.88529412 0.74901961 0.47720588
0.90588235 0.74509804 0.48431373
0.92401961 0.74509804 0.48823529
0.92941176 0.74754902 0.48529412
0.93308824 0.75441176 0.475
0.92745098 0.75588235 0.48039216
0.91666667 0.75318627 0.49191176
0.90196078 0.76176471 0.50196078
0.88112745 0.76887255 0.50808824
0.85686275 0.77843137 0.51176471
0.3995098 0.775 0.50294118
0.40392157 0.77714461 0.50508578
0.42352941 0.77843137 0.50355392
0.42738971 0.77843137 0.49019608
0.42745098 0.78063725 0.48946078
0.45729167 0.78235294 0.49810049
0.4942402 0.78272059 0.5127451
0.54430147 0.78253676 0.51421569
0.60343137 0.78627451 0.50637255
0.6591299 0.78970588 0.49344363
0.70588235 0.78529412 0.48615196
0.74313725 0.77935049 0.48621324
0.78431373 0.79191176 0.50931373
0.82113971 0.79319853 0.50447304
0.85625 0.79019608 0.49117647
0.88529412 0.79001225 0.48431373
0.90588235 0.78970588 0.49068627
0.92254902 0.78596814 0.49675245
0.92941176 0.79105392 0.48970588
0.93284314 0.7971201 0.48333333
0.93137255 0.79779412 0.49068627
0.91666667 0.80545343 0.48970588
0.90294118 0.80931373 0.48835784
0.89675245 0.80882353 0.50410539
0.83039216 0.82843137 0.49803922
0.38529412 0.82647059 0.51960784
0.39105392 0.82352941 0.51188725
0.4127451 0.81985294 0.49411765
0.42009804 0.82352941 0.48296569
0.42941176 0.82352941 0.4754902
0.46078431 0.82745098 0.49509804
0.49803922 0.82745098 0.5127451
0.54068627 0.82928922 0.52303922
0.59705882 0.82745098 0.50980392
0.65245098 0.8245098 0.49558824
0.70367647 0.82352941 0.48137255
0.74705882 0.82316176 0.47892157
0.78627451 0.82794118 0.49411765
0.82536765 0.82843137 0.50281863
0.85980392 0.82745098 0.49509804
0.88529412 0.8245098 0.4935049
0.90588235 0.8245098 0.49705882
0.92254902 0.82389706 0.49803922
0.92647059 0.82843137 0.49632353
0.92647059 0.83137255 0.49068627
0.92794118 0.83235294 0.48921569
0.92046569 0.83933824 0.49056373
0.91960784 0.84313725 0.49926471
0.93137255 0.8435049 0.50134804
0.88235294 0.85196078 0.50196078
0.39901961 0.85539216 0.50441176
0.40055147 0.85931373 0.49264706
0.41372549 0.85747549 0.48517157
0.42395833 0.8596201 0.48780637
0.42671569 0.86127451 0.48921569
0.45520833 0.86470588 0.50392157
0.49522059 0.86360294 0.51556373
0.54607843 0.86176471 0.51617647
0.59754902 0.85931373 0.50833333
0.65147059 0.85931373 0.49466912
0.70294118 0.85931373 0.47928922
0.75098039 0.85931373 0.47156863
0.78823529 0.86323529 0.48431373
0.82910539 0.86323529 0.49675245
0.86482843 0.86139706 0.50012255
0.88921569 0.86078431 0.49987745
0.90588235 0.86078431 0.49411765
0.92009804 0.86078431 0.49656863
0.9254902 0.86360294 0.49375
0.9254902 0.86715686 0.49019608
0.92303922 0.86715686 0.48186275
0.93284314 0.87107843 0.49509804
0.93553922 0.87401961 0.50637255
0.91219363 0.88039216 0.50925245
0.86078431 0.88431373 0.50441176
0.39607843 0.88627451 0.50196078
0.4 0.88872549 0.4877451
0.4127451 0.89019608 0.48235294
0.41911765 0.89362745 0.49362745
0.4254902 0.89607843 0.50392157
0.4495098 0.89803922 0.50980392
0.50098039 0.89509804 0.50686275
0.55245098 0.89019608 0.50588235
0.60392157 0.88627451 0.50196078
0.65539216 0.88872549 0.49166667
0.70588235 0.88921569 0.48431373
0.75098039 0.88627451 0.48186275
0.79215686 0.89019608 0.48431373
0.82941176 0.89019608 0.49460784
0.86764706 0.89313725 0.50098039
0.88921569 0.89411765 0.49264706
0.90980392 0.89411765 0.48627451
0.92009804 0.89803922 0.48627451
0.92745098 0.89803922 0.49509804
0.93676471 0.89803922 0.49803922
0.93921569 0.89803922 0.49607843
0.94558824 0.89803922 0.50196078
0.95 0.90098039 0.50588235
0.93382353 0.90735294 0.50588235
0.84313725 0.91372549 0.50196078
0.37401961 0.90980392 0.50735294
0.38284314 0.91323529 0.50196078
0.40379902 0.91470588 0.49313725
0.41911765 0.91470588 0.48786765
0.43578431 0.91862745 0.49362745
0.46960784 0.92254902 0.50392157
0.51188725 0.92107843 0.50294118
0.56127451 0.91807598 0.49503676
0.61029412 0.91470588 0.49166667
0.66023284 0.91470588 0.48719363
0.70588235 0.91470588 0.48590686
0.75098039 0.91323529 0.48609069
0.79338235 0.91470588 0.48627451
0.83284314 0.91501225 0.49068627
0.86372549 0.91715686 0.49742647
0.88768382 0.9216299 0.48872549
0.90980392 0.92401961 0.47696078
0.92101716 0.92310049 0.48572304
0.93468137 0.92291667 0.49656863
0.94607843 0.92647059 0.50686275
0.94656863 0.92328431 0.50294118
0.94295343 0.92205882 0.49822304
0.94607843 0.92156863 0.50490196
0.91525735 0.92947304 0.50588235
0.85098039 0.93823529 0.50196078
0.36764706 0.9127451 0.49607843
0.37671569 0.92879902 0.5057598
0.39411765 0.93529412 0.49705882
0.41470588 0.93823529 0.48125
0.44313725 0.93921569 0.49166667
0.47401961 0.93958333 0.50343137
0.51568627 0.93995098 0.50367647
0.56715686 0.93921569 0.49362745
0.61568627 0.93823529 0.48333333
0.66360294 0.93823529 0.48296569
0.70784314 0.93823529 0.48872549
0.75196078 0.93921569 0.48394608
0.79656863 0.93921569 0.48137255
0.83284314 0.93921569 0.48676471
0.86372549 0.93921569 0.50098039
0.89129902 0.93921569 0.50245098
0.90980392 0.93823529 0.48627451
0.92009804 0.93823529 0.48480392
0.92622549 0.93921569 0.48921569
0.93186275 0.94178922 0.48921569
0.93235294 0.94068627 0.48872549
0.93823529 0.93921569 0.49105392
0.95294118 0.93921569 0.50171569
0.91213235 0.94754902 0.50588235
0.84313725 0.95784314 0.50294118
0.3745098 0.93333333 0.49901961
0.37714461 0.94558824 0.50851716
0.39497549 0.95245098 0.50833333
0.4151348 0.95245098 0.50147059
0.42598039 0.95808824 0.50686275
0.45435049 0.95980392 0.51323529
0.50796569 0.95637255 0.50943627
0.56421569 0.95245098 0.50735294
0.61911765 0.94852941 0.49362745
0.66685049 0.95226716 0.49001225
0.71066176 0.95245098 0.4939951
0.75490196 0.95245098 0.49019608
0.8 0.95294118 0.47990196
0.83284314 0.95637255 0.4872549
0.86421569 0.95637255 0.50404412
0.89344363 0.95618873 0.50882353
0.90588235 0.95245098 0.49019608
0.91764706 0.95245098 0.48627451
0.92254902 0.95245098 0.48627451
0.9254902 0.95545343 0.48627451
0.9254902 0.95637255 0.48210784
0.93780637 0.95637255 0.49068627
0.95245098 0.95637255 0.50098039
0.9432598 0.96029412 0.50735294
0.92156863 0.96078431 0.50931373
0.35882353 0.94901961 0.49411765
0.3747549 0.95931373 0.50759804
0.40245098 0.96470588 0.52205882
0.41176471 0.96470588 0.51642157
0.4245098 0.96862745 0.5127451
0.45563725 0.97034314 0.5120098
0.51421569 0.96519608 0.51862745
0.56813725 0.96004902 0.52083333
0.61960784 0.96078431 0.50196078
0.66862745 0.9627451 0.49191176
0.71421569 0.9627451 0.49803922
0.75882353 0.95906863 0.50269608
0.8 0.95686275 0.49215686
0.83284314 0.95514706 0.49240196
0.85980392 0.96029412 0.49705882
0.8879902 0.96666667 0.49534314
0.90980392 0.96666667 0.48431373
0.91764706 0.96666667 0.48357843
0.92598039 0.9627451 0.48921569
0.93112745 0.96078431 0.49387255
0.93039216 0.95980392 0.49117647
0.93651961 0.96323529 0.49926471
0.9377451 0.96666667 0.49215686
0.9377451 0.97205882 0.50269608
0.8627451 0.98039216 0.50392157
0.36470588 0.97401961 0.50245098
0.37352941 0.97745098 0.51096814
0.39656863 0.97561275 0.52107843
0.41078431 0.97297794 0.51770833
0.43553922 0.97696078 0.50147059
0.46960784 0.97689951 0.4971201
0.52058824 0.96960784 0.50784314
0.56813725 0.96256127 0.51145833
0.62352941 0.96911765 0.50147059
0.67156863 0.97696078 0.48333333
0.71764706 0.97205882 0.49068627
0.75925245 0.96519608 0.50098039
0.80392157 0.95735294 0.50245098
0.83676471 0.94895833 0.49846814
0.86127451 0.95833333 0.49803922
0.88578431 0.96960784 0.48872549
0.91029412 0.97990196 0.4754902
0.92089461 0.97383578 0.48952206
0.93223039 0.96764706 0.5
0.94117647 0.96470588 0.50637255
0.93186275 0.96642157 0.49656863
0.9254902 0.97254902 0.48627451
0.92414216 0.97634804 0.48492647
0.94056373 0.98057598 0.5
0.85147059 0.9877451 0.49558824
0.37156863 0.97058824 0.50980392
0.37463235 0.97659314 0.51519608
0.39019608 0.97254902 0.52009804
0.41458333 0.9692402 0.51164216
0.43921569 0.97401961 0.49558824
0.47267157 0.97401961 0.49007353
0.51691176 0.96887255 0.49632353
0.56813725 0.96801471 0.49571078
0.62941176 0.96666667 0.50588235
0.67794118 0.97806373 0.48517157
0.7245098 0.97230392 0.49093137
0.76948529 0.95870098 0.50441176
0.8122549 0.94754902 0.5127451
0.84068627 0.94166667 0.50147059
0.86838235 0.94191176 0.49803922
0.89252451 0.96262255 0.49485294
0.91666667 0.96960784 0.5
0.93480392 0.96164216 0.50698529
0.94730392 0.96470588 0.51960784
0.94803922 0.95281863 0.51409314
0.94705882 0.96127451 0.50686275
0.94301471 0.96875 0.49963235
0.93921569 0.96936275 0.49779412
0.93529412 0.97487745 0.50588235
0.86470588 0.98039216 0.50196078
0.39264706 0.88333333 0.51372549
0.3875 0.92696078 0.52009804
0.39816176 0.9379902 0.51911765
0.41979167 0.93982843 0.51305147
0.44166667 0.9377451 0.5127451
0.4692402 0.94920343 0.50453431
0.51421569 0.94730392 0.50453431
0.57959559 0.92506127 0.51691176
0.64362745 0.94411765 0.52205882
0.69362745 0.94466912 0.51029412
0.74019608 0.96470588 0.50232843
0.78511029 0.91262255 0.51813725
0.82573529 0.90098039 0.52303922
0.84969363 0.92193627 0.51029412
0.87401961 0.91862745 0.49338235
0.90300245 0.94295343 0.50692402
0.92990196 0.91764706 0.52058824
0.9504902 0.90833333 0.5245098
0.95735294 0.91666667 0.52708333
0.95833333 0.90275735 0.51960784
0.96151961 0.93480392 0.51397059
0.96176471 0.95686275 0.50784314
0.95441176 0.95502451 0.5122549
0.9223652 0.94405637 0.49448529
0.90882353 0.94460784 0.4995098
0.41960784 0.77647059 0.51372549
0.38872549 0.90882353 0.52009804
0.42745098 0.82843137 0.53039216
0.42843137 0.88039216 0.52598039
0.45490196 0.86470588 0.52352941
0.49117647 0.85196078 0.52107843
0.5254902 0.9 0.51568627
0.60245098 0.82401961 0.53627451
0.6745098 0.90588235 0.55294118
0.71421569 0.82892157 0.53088235
0.74901961 0.90882353 0.51568627
0.80098039 0.86372549 0.52794118
0.84117647 0.84117647 0.53333333
0.87205882 0.85441176 0.53333333
0.90980392 0.83137255 0.54019608
0.90686275 0.93970588 0.51323529
0.95294118 0.83529412 0.54117647
0.96862745 0.84509804 0.53872549
0.96960784 0.85490196 0.5372549
0.96862745 0.86372549 0.52598039
0.96470588 0.90784314 0.52352941
0.96470588 0.84754902 0.53235294
0.96470588 0.9372549 0.51568627
0.94607843 0.87303922 0.53382353
0.93333333 0.92156863 0.54117647
0.44411765 0.12794118 0.48970588
0.45471814 0.12947304 0.490625
0.45416667 0.13651961 0.49718137
0.45870098 0.12855392 0.49528186
0.45343137 0.13112745 0.48921569
0.46029412 0.13180147 0.4877451
0.49620098 0.11862745 0.49852941
0.53529412 0.12542892 0.5088848
0.58431373 0.13186275 0.51372549
0.63823529 0.12935049 0.51372549
0.68529412 0.12622549 0.51372549
0.72794118 0.13449755 0.50882353
0.77181373 0.13284314 0.4997549
0.80588235 0.13431373 0.50067402
0.84411765 0.12365196 0.51237745
0.87745098 0.12689951 0.52156863
0.90196078 0.1254902 0.52009804
0.91862745 0.13186275 0.51372549
0.925 0.14877451 0.50796569
0.92794118 0.16194853 0.50441176
0.91568627 0.13995098 0.50710784
0.90520833 0.13333333 0.50992647
0.89031863 0.13370098 0.50723039
0.86213235 0.13670343 0.50686275
0.81617647 0.1372549 0.50833333
0.44105392 0.13339461 0.49307598
0.44501379 0.13465839 0.49512102
0.4486826 0.13915441 0.4933364
0.45075061 0.13735447 0.49498315
0.4450674 0.13746936 0.49163603
0.46029412 0.13828125 0.48988971
0.49296875 0.13140319 0.49443934
0.53376225 0.13691023 0.50098039
0.58431373 0.14307598 0.50735294
0.63635876 0.14362745 0.50980392
0.68051471 0.14612439 0.50980392
0.72756587 0.14215686 0.50490196
0.77208946 0.13970588 0.49779412
0.80931373 0.13952206 0.49705882
0.84313725 0.13823529 0.50421262
0.87557445 0.14117647 0.50978094
0.90196078 0.14215686 0.50827206
0.91862745 0.14818474 0.50496324
0.92725184 0.16446078 0.50372243
0.92794118 0.16978401 0.50360754
0.91887255 0.15196078 0.50487132
0.91158088 0.1475337 0.50833333
0.89816176 0.14829963 0.50768995
0.86946232 0.14699755 0.50856311
0.84791667 0.14754902 0.50931373
0.4502451 0.14644608 0.49852941
0.44491422 0.1495098 0.49901961
0.45098039 0.14831495 0.50036765
0.43797488 0.15098039 0.50147059
0.43088235 0.14852941 0.50042892
0.45931373 0.15105699 0.49474571
0.4872549 0.15343137 0.49090074
0.53002451 0.15467218 0.49375
0.58431373 0.15882353 0.50012255
0.63578431 0.15882353 0.50943627
0.68489583 0.15882353 0.5104473
0.72570466 0.15882353 0.50335478
0.77285539 0.15980392 0.49901961
0.81015625 0.16286765 0.49906556
0.84384191 0.16629902 0.50303309
0.87575061 0.16519608 0.50012255
0.90294118 0.16580882 0.49803922
0.92009804 0.16934743 0.49901961
0.92794118 0.17990196 0.50294118
0.92708333 0.1810049 0.50294118
0.92169118 0.17401961 0.50349265
0.91799939 0.16617647 0.50686275
0.90422794 0.16182598 0.50686275
0.87103248 0.1657935 0.51101409
0.83946078 0.16617647 0.51323529
0.46139706 0.16243873 0.48253676
0.45354626 0.16950061 0.49267004
