site/assets/luts/natron-haldclut--polaroid-time-zero-expired-cold---8388280cf.cube
# LUTr-Project: LUTr — LUTrepository
# LUTr-Schema-Version: 1
# LUTr-ID: natron-haldclut--polaroid-time-zero-expired-cold---8388280cf
# LUTr-Title: polaroid time zero (expired) cold -
# LUTr-Collection: Natron HaldCLUT
# LUTr-Collection-ID: natron-haldclut-presets
# LUTr-Source: https://github.com/NatronGitHub/clut
# LUTr-Source-File: submissions/natron-haldclut-presets/instant_consumer/polaroid_time_zero_(expired)_cold_-.png
# LUTr-Source-Format: PNG
# LUTr-Source-SHA256: 18bda8d78c492af331f7e574fb30f0856f7f2c3db10b36701841adc9814bf835
# LUTr-License: CC-BY-SA-4.0
# LUTr-License-URL: https://github.com/NatronGitHub/clut#license
# LUTr-Tags: creative, film, film-emulation, hald-clut, natron, png, cool, cube
# LUTr-Transform-Class: film-emulation
# LUTr-Input-Color-Space: srgb
# LUTr-Output-Color-Space: srgb
# LUTr-Color-Space-Confidence: assumed-display-referred
# LUTr-Conversion-Method: PNG LUT image decoded at 16-bit and sampled to 25x25x25 3D CUBE
# LUTr-Conversion-Date: 2026-07-27
# LUTr-Conversion-Tool: LUTr scripts/convert-all-to-cube.mjs
# LUTr-Conversion-Grid: 25x25x25
# LUTr-Note: Preserve this metadata and the upstream license notices when redistributing.
TITLE "polaroid time zero (expired) cold -"
LUT_3D_SIZE 25
DOMAIN_MIN 0 0 0
DOMAIN_MAX 1 1 1
0.38431373 0.18823529 0.074509804
0.38431373 0.18823529 0.074509804
0.39313725 0.1872549 0.074509804
0.40343137 0.18431373 0.074509804
0.40980392 0.18431373 0.078431373
0.41960784 0.18039216 0.078431373
0.42647059 0.18039216 0.078431373
0.43578431 0.18039216 0.078431373
0.4627451 0.17647059 0.074509804
0.48970588 0.17647059 0.074509804
0.5127451 0.17254902 0.070588235
0.53627451 0.16862745 0.070588235
0.55882353 0.16862745 0.068627451
0.59362745 0.18137255 0.075
0.6245098 0.19509804 0.082352941
0.65784314 0.20931373 0.08627451
0.68627451 0.21568627 0.094117647
0.71323529 0.21960784 0.094117647
0.73921569 0.22352941 0.094117647
0.76715686 0.22745098 0.094117647
0.79411765 0.2372549 0.1
0.825 0.25147059 0.11029412
0.85882353 0.26176471 0.11666667
0.89068627 0.27205882 0.12303922
0.92156863 0.28235294 0.1254902
0.38431373 0.18823529 0.074509804
0.38431373 0.18823529 0.074509804
0.39313725 0.18786765 0.074509804
0.40343137 0.18676471 0.074509804
0.41102941 0.18676471 0.077205882
0.42009804 0.18676471 0.078125
0.42892157 0.18860294 0.074877451
0.44313725 0.18829657 0.072058824
0.4627451 0.18676471 0.070588235
0.48970588 0.18431373 0.069056373
0.5127451 0.18284314 0.067769608
0.53627451 0.18137255 0.066666667
0.56519608 0.18210784 0.068627451
0.59626225 0.18743873 0.072365196
0.62843137 0.20085784 0.079534314
0.65931373 0.21084559 0.083823529
0.68627451 0.21568627 0.087745098
0.71323529 0.21960784 0.091115196
0.74019608 0.22352941 0.091666667
0.76746324 0.22696078 0.090196078
0.79803922 0.23848039 0.1
0.82892157 0.25177696 0.11029412
0.85980392 0.26752451 0.11875
0.89068627 0.27843137 0.12303922
0.91519608 0.28872549 0.1254902
0.38039216 0.18823529 0.074509804
0.38284314 0.18823529 0.072426471
0.39313725 0.18921569 0.074509804
0.40343137 0.19313725 0.074509804
0.41470588 0.19558824 0.074509804
0.425 0.19840686 0.074387255
0.43529412 0.20098039 0.070588235
0.45061275 0.20098039 0.068504902
0.46666667 0.19705882 0.065686275
0.48970588 0.19460784 0.062745098
0.51568627 0.19338235 0.062745098
0.54105392 0.19705882 0.066544118
0.57058824 0.19803922 0.068137255
0.59840686 0.19705882 0.070588235
0.62843137 0.20294118 0.072794118
0.65784314 0.21213235 0.078921569
0.68627451 0.21960784 0.085294118
0.71323529 0.22414216 0.08627451
0.74093137 0.22843137 0.089460784
0.77107843 0.22928922 0.090196078
0.79852941 0.24460784 0.1
0.82892157 0.26041667 0.10637255
0.85686275 0.2745098 0.11666667
0.88627451 0.28872549 0.12193627
0.91078431 0.29901961 0.12647059
0.38382353 0.19852941 0.067156863
0.38627451 0.19883578 0.067156863
0.39705882 0.20294118 0.067156863
0.40735294 0.20686275 0.067156863
0.41764706 0.21102941 0.067156863
0.4283701 0.21476716 0.067095588
0.44473039 0.21482843 0.063235294
0.45980392 0.21127451 0.063051471
0.47401961 0.20735294 0.059313725
0.49117647 0.20343137 0.058823529
0.51654412 0.20735294 0.060171569
0.54405637 0.21121324 0.06317402
0.57426471 0.21470588 0.066666667
0.60140931 0.21121324 0.066666667
0.62843137 0.20772059 0.067034314
0.6591299 0.21666667 0.072365196
0.68627451 0.22696078 0.078921569
0.71666667 0.23823529 0.084987745
0.74411765 0.24313725 0.087254902
0.77457108 0.25343137 0.090196078
0.80367647 0.26372549 0.098039216
0.83278186 0.27493873 0.10637255
0.86323529 0.28860294 0.11666667
0.89411765 0.3026348 0.12303922
0.91764706 0.31323529 0.12941176
0.39411765 0.22745098 0.056862745
0.39656863 0.2254902 0.056862745
0.40294118 0.22352941 0.056862745
0.41323529 0.2252451 0.056862745
0.42352941 0.22843137 0.056862745
0.43382353 0.23161765 0.056862745
0.44754902 0.23186275 0.055392157
0.4629902 0.22867647 0.052941176
0.48039216 0.2254902 0.052941176
0.49705882 0.2254902 0.052941176
0.52009804 0.22598039 0.055392157
0.54754902 0.23137255 0.058823529
0.5754902 0.23137255 0.062745098
0.60514706 0.23137255 0.062745098
0.63235294 0.23284314 0.065686275
0.66127451 0.2379902 0.071323529
0.69019608 0.24705882 0.078431373
0.71789216 0.25735294 0.083578431
0.74803922 0.26764706 0.087254902
0.77696078 0.27401961 0.093627451
0.80784314 0.28431373 0.098039216
0.83676471 0.29460784 0.10416667
0.86764706 0.30637255 0.1127451
0.89852941 0.31715686 0.12034314
0.92352941 0.32745098 0.12745098
0.40441176 0.25588235 0.046568627
0.40441176 0.25373775 0.046568627
0.41323529 0.25110294 0.050490196
0.42003676 0.24810049 0.050490196
0.42941176 0.24803922 0.046568627
0.43970588 0.24846814 0.046568627
0.45306373 0.24889706 0.046568627
0.47009804 0.24822304 0.046568627
0.48676471 0.25196078 0.047058824
0.50735294 0.25245098 0.047058824
0.52806373 0.25245098 0.050612745
0.55245098 0.25202206 0.054411765
0.57892157 0.25588235 0.056617647
0.6088848 0.2528799 0.058823529
0.63627451 0.25894608 0.062622549
0.66323529 0.26390931 0.067953431
0.69411765 0.27156863 0.074019608
0.72156863 0.28186275 0.080882353
0.75196078 0.28823529 0.08627451
0.78284314 0.29509804 0.090196078
0.81372549 0.30294118 0.095833333
0.8411152 0.31127451 0.10153186
0.87120098 0.32414216 0.10882353
0.89656863 0.33578431 0.11734069
0.91715686 0.34607843 0.125
0.41078431 0.28039216 0.03627451
0.41323529 0.27977941 0.03627451
0.42034314 0.27867647 0.037254902
0.42990196 0.2754902 0.037254902
0.43627451 0.27156863 0.03627451
0.44264706 0.26862745 0.03627451
0.45980392 0.27083333 0.03627451
0.48039216 0.27365196 0.039583333
0.5 0.27941176 0.040196078
0.51764706 0.28223039 0.043137255
0.54215686 0.27941176 0.044852941
0.5627451 0.27683824 0.047916667
0.58578431 0.27647059 0.051470588
0.61188725 0.27953431 0.05502451
0.63946078 0.28406863 0.059558824
0.66715686 0.29154412 0.064215686
0.69705882 0.29901961 0.070588235
0.725 0.30539216 0.075122549
0.75588235 0.3125 0.079411765
0.78590686 0.31948529 0.083333333
0.81372549 0.325 0.087745098
0.84411765 0.33186275 0.095588235
0.86568627 0.34215686 0.10490196
0.88958333 0.35453431 0.1122549
0.90686275 0.3627451 0.11862745
0.41568627 0.30882353 0.020588235
0.41813725 0.30729167 0.021507353
0.42598039 0.3060049 0.022671569
0.43627451 0.30245098 0.025980392
0.44534314 0.30122549 0.026715686
0.45471814 0.3 0.030085784
0.47009804 0.30183824 0.029901961
0.49068627 0.30300245 0.029901961
0.50980392 0.30637255 0.033823529
0.53131127 0.31029412 0.03627451
0.55245098 0.31029412 0.037745098
0.57303922 0.30784314 0.041666667
0.59558824 0.30906863 0.046323529
0.61862745 0.31176471 0.051286765
0.64558824 0.31421569 0.054901961
0.67199755 0.31905637 0.059742647
0.6995098 0.3245098 0.065196078
0.72892157 0.33235294 0.065196078
0.75588235 0.33872549 0.06372549
0.78676471 0.34773284 0.067156863
0.81495098 0.35465686 0.071078431
0.84068627 0.36127451 0.081862745
0.86470588 0.36813725 0.095588235
0.88137255 0.37395833 0.10680147
0.9004902 0.38333333 0.1122549
0.41960784 0.3372549 0.0039215686
0.42205882 0.3372549 0.006372549
0.43333333 0.33333333 0.011764706
0.44656863 0.33333333 0.015686275
0.45686275 0.33333333 0.021568627
0.47107843 0.33382353 0.024019608
0.48431373 0.3372549 0.023529412
0.50098039 0.3372549 0.022058824
0.51764706 0.3372549 0.023529412
0.53823529 0.34117647 0.023529412
0.55980392 0.34117647 0.02745098
0.58333333 0.34117647 0.034803922
0.60588235 0.34509804 0.041176471
0.62892157 0.34558824 0.04754902
0.65588235 0.34901961 0.050980392
0.68137255 0.35294118 0.054901961
0.70588235 0.35294118 0.058823529
0.73039216 0.35931373 0.05245098
0.75588235 0.36568627 0.043137255
0.78676471 0.37598039 0.047058824
0.81372549 0.38235294 0.056862745
0.84019608 0.38872549 0.071078431
0.86470588 0.39509804 0.085294118
0.88382353 0.40147059 0.099509804
0.89411765 0.40392157 0.10588235
0.43235294 0.36813725 0
0.43480392 0.36813725 0
0.44656863 0.36813725 0.006004902
0.45931373 0.36813725 0.011458333
0.47107843 0.36813725 0.018382353
0.48400735 0.37058824 0.021078431
0.49914216 0.37205882 0.019607843
0.51464461 0.37205882 0.014767157
0.53186275 0.37205882 0.013235294
0.54852941 0.37542892 0.012316176
0.57193627 0.37598039 0.018137255
0.59362745 0.37843137 0.028431373
0.61813725 0.37990196 0.037990196
0.63921569 0.37990196 0.043321078
0.66433824 0.38382353 0.048161765
0.6877451 0.38382353 0.050980392
0.7122549 0.38382353 0.05245098
0.73376225 0.3877451 0.038235294
0.75882353 0.39375 0.026102941
0.78676471 0.40079657 0.026470588
0.81176471 0.40931373 0.040686275
0.83676471 0.41568627 0.057046569
0.86372549 0.42242647 0.071078431
0.88529412 0.42935049 0.086764706
0.9004902 0.43480392 0.099509804
0.44803922 0.40294118 0
0.44901961 0.4 0
0.46078431 0.40294118 0.0049019608
0.47107843 0.40294118 0.01127451
0.48529412 0.40343137 0.014705882
0.4995098 0.40686275 0.014705882
0.5129902 0.40686275 0.0125
0.52941176 0.40686275 0.0096813725
0.54607843 0.40784314 0.0039215686
0.5627451 0.40784314 0
0.58333333 0.41078431 0.0088235294
0.60477941 0.41433824 0.022058824
0.62843137 0.41470588 0.030882353
0.64901961 0.41470588 0.03872549
0.67328431 0.41544118 0.042892157
0.69803922 0.41678922 0.043137255
0.71862745 0.41862745 0.047058824
0.74215686 0.41960784 0.030392157
0.76053922 0.42254902 0.01372549
0.78676471 0.42634804 0.010171569
0.8122549 0.43627451 0.026960784
0.83762255 0.44607843 0.043137255
0.86397059 0.45294118 0.055882353
0.88529412 0.45931373 0.06372549
0.90098039 0.46470588 0.075490196
0.4622549 0.43382353 0.0039215686
0.46439951 0.43382353 0.0012867647
0.47107843 0.43382353 0.0039215686
0.48480392 0.4372549 0.0078431373
0.49730392 0.4377451 0.011764706
0.51329657 0.44123775 0.0083333333
0.52696078 0.44166667 0.0078431373
0.54215686 0.44166667 0.0042279412
0.55637255 0.44166667 0.0039215686
0.57303922 0.44166667 0
0.59362745 0.44522059 0.0088235294
0.61764706 0.44558824 0.019117647
0.63872549 0.44901961 0.025735294
0.65931373 0.44901961 0.032291667
0.68370098 0.45208333 0.044852941
0.70833333 0.45471814 0.048345588
0.72892157 0.45686275 0.054411765
0.7495098 0.45735294 0.03627451
0.77009804 0.46078431 0.025367647
0.79068627 0.46078431 0.018627451
0.81544118 0.46715686 0.023284314
0.840625 0.47696078 0.03192402
0.86727941 0.48382353 0.036151961
0.88921569 0.49019608 0.041666667
0.89803922 0.49264706 0.048529412
0.47647059 0.46862745 0.0019607843
0.47647059 0.46862745 0
0.48137255 0.46862745 0.0024509804
0.49558824 0.47058824 0.0056372549
0.50980392 0.47254902 0.0058823529
0.52426471 0.4747549 0.0039215686
0.53970588 0.47647059 0.0039215686
0.55392157 0.47647059 0.0039215686
0.57058824 0.47647059 0.0039215686
0.5872549 0.47647059 0.0039215686
0.60441176 0.47696078 0.0049019608
0.62843137 0.48039216 0.015196078
0.64901961 0.48235294 0.02254902
0.66960784 0.48259804 0.025980392
0.69411765 0.4872549 0.039705882
0.71862745 0.49289216 0.057107843
0.73921569 0.49411765 0.064705882
0.76372549 0.49803922 0.056372549
0.78431373 0.5004902 0.05
0.80490196 0.50171569 0.043382353
0.8254902 0.50490196 0.039215686
0.84632353 0.50833333 0.032598039
0.87058824 0.51470588 0.019117647
0.89289216 0.52034314 0.018382353
0.89803922 0.52352941 0.023529412
0.49117647 0.4995098 0
0.49117647 0.50214461 0
0.49301471 0.50343137 0
0.50931373 0.50343137 0.003002451
0.52401961 0.50563725 0.0039215686
0.53829657 0.50735294 0.0039215686
0.55245098 0.50784314 0.0039215686
0.56685049 0.51127451 0.0039215686
0.58137255 0.51127451 0.0039215686
0.59932598 0.51127451 0.0039215686
0.61813725 0.51127451 0.0078431373
0.63872549 0.51476716 0.010845588
0.65931373 0.51519608 0.015196078
0.67990196 0.51525735 0.019607843
0.70343137 0.51911765 0.03247549
0.72647059 0.52696078 0.057046569
0.7495098 0.53137255 0.075
0.77401961 0.53529412 0.076960784
0.79460784 0.53872549 0.071568627
0.81519608 0.53921569 0.064215686
0.83578431 0.54093137 0.057843137
0.85631127 0.54356618 0.04754902
0.87696078 0.54963235 0.03125
0.89558824 0.55226716 0.025980392
0.89803922 0.55441176 0.029901961
0.51176471 0.53431373 0.0039215686
0.51176471 0.53431373 0.0033088235
0.5127451 0.53431373 0.0022058824
0.52303922 0.53811275 0
0.53627451 0.53823529 0.0039215686
0.55159314 0.54129902 0.0039215686
0.56642157 0.54215686 0.0039215686
0.58088235 0.54215686 0.0039215686
0.59509804 0.54215686 0.0039215686
0.61286765 0.5439951 0.0039215686
0.63210784 0.54607843 0.0071078431
0.64901961 0.54607843 0.0049019608
0.66960784 0.54607843 0.0049019608
0.69019608 0.55 0.0093137255
0.71078431 0.55294118 0.016666667
0.73529412 0.55784314 0.029779412
0.75980392 0.56568627 0.069607843
0.78431373 0.57316176 0.094240196
0.80416667 0.57426471 0.088970588
0.82156863 0.57647059 0.081740196
0.84215686 0.57745098 0.075
0.86237745 0.58051471 0.071446078
0.88039216 0.58357843 0.073039216
0.89558824 0.58639706 0.07745098
0.90196078 0.58921569 0.081372549
0.53235294 0.56519608 0.0039215686
0.53235294 0.5661152 0.0039215686
0.53443627 0.56911765 0.0039215686
0.54019608 0.56911765 0.0039215686
0.55122549 0.57181373 0.0039215686
0.56452206 0.57303922 0.0039215686
0.57990196 0.5745098 0.0039215686
0.59356618 0.57696078 0.0039215686
0.60931373 0.57696078 0.0039215686
0.62653186 0.57696078 0.0039215686
0.64375 0.57696078 0.0039215686
0.66109069 0.57696078 0.0039215686
0.67990196 0.58088235 0.0039215686
0.7004902 0.58088235 0.0042279412
0.72107843 0.58419118 0.006372549
0.74166667 0.58927696 0.006372549
0.76617647 0.59656863 0.016176471
0.78921569 0.60294118 0.067647059
0.80980392 0.60833333 0.098406863
0.83039216 0.6096201 0.097058824
0.85098039 0.6129902 0.10196078
0.86501225 0.61617647 0.1096201
0.8807598 0.61727941 0.11862745
0.89613971 0.62064951 0.125
0.90588235 0.62401961 0.13137255
0.55294118 0.6 0.0078431373
0.55294118 0.6 0.0078431373
0.55686275 0.60098039 0.0039215686
0.56078431 0.60392157 0.0039215686
0.57058824 0.60392157 0.0039215686
0.58088235 0.60784314 0.0039215686
0.59411765 0.60784314 0.0039215686
0.60686275 0.60931373 0.0039215686
0.62352941 0.61176471 0.0039215686
0.64019608 0.61176471 0.0039215686
0.65686275 0.61176471 0.0039215686
0.67352941 0.61176471 0.00049019608
0.69411765 0.61176471 0.0039215686
0.71078431 0.6122549 0.0039215686
0.73137255 0.61568627 0.0039215686
0.75343137 0.62107843 0.0039215686
0.77647059 0.62745098 0.0039215686
0.79313725 0.63137255 0.033333333
0.81470588 0.63627451 0.07745098
0.83823529 0.64656863 0.13137255
0.85882353 0.65098039 0.14705882
0.87107843 0.65098039 0.15343137
0.88529412 0.65098039 0.15980392
0.8995098 0.65490196 0.17009804
0.90980392 0.65490196 0.17647059
0.57352941 0.63088235 0.0078431373
0.57689951 0.63333333 0.0078431373
0.57806373 0.63480392 0.0078431373
0.58137255 0.6372549 0.0042279412
0.58921569 0.6379902 0.0039215686
0.59754902 0.63872549 0.0039215686
0.60784314 0.64056373 0.0039215686
0.62052696 0.64264706 0.0039215686
0.63627451 0.64264706 0.0039215686
0.65196078 0.64264706 0.0039215686
0.6689951 0.64264706 0.0039215686
0.68645833 0.64264706 0
0.70441176 0.64264706 0.0039215686
0.725 0.64656863 0.0039215686
0.74558824 0.64840686 0.0039215686
0.76470588 0.65349265 0.0039215686
0.78284314 0.66078431 0.0039215686
0.80343137 0.665625 0.019669118
0.82401961 0.67071078 0.069117647
0.84589461 0.67745098 0.12794118
0.86593137 0.68455882 0.17965686
0.87892157 0.68578431 0.19460784
0.89166667 0.68578431 0.20196078
0.90643382 0.68578431 0.21372549
0.92009804 0.68970588 0.22156863
0.59803922 0.66568627 0.0078431373
0.59803922 0.66568627 0.0078431373
0.5997549 0.66960784 0.0078431373
0.60539216 0.66960784 0.0078431373
0.60980392 0.66960784 0.0078431373
0.61678922 0.67058824 0.0074754902
0.6245098 0.67352941 0.0049019608
0.63590686 0.67352941 0.0039215686
0.64901961 0.67352941 0.0039215686
0.66507353 0.67352941 0.0039215686
0.68137255 0.67352941 0.0039215686
0.69816176 0.67352941 0.00049019608
0.71862745 0.67598039 0.0014705882
0.73615196 0.67757353 0.0039215686
0.75588235 0.68137255 0.0039215686
0.77647059 0.68676471 0.0018382353
0.79607843 0.69313725 0
0.81372549 0.69705882 0.010171569
0.83259804 0.70098039 0.059558824
0.85098039 0.70477941 0.11776961
0.87107843 0.70784314 0.18039216
0.88688725 0.71188725 0.22169118
0.9002451 0.71642157 0.24093137
0.91556373 0.71813725 0.25637255
0.92647059 0.72058824 0.26666667
0.61862745 0.69656863 0.0083333333
0.61862745 0.69656863 0.011580882
0.62254902 0.7004902 0.010416667
0.62598039 0.70441176 0.0078431373
0.63039216 0.70220588 0.0078431373
0.63480392 0.70441176 0.0078431373
0.64509804 0.70098039 0.0078431373
0.65539216 0.70441176 0.0076593137
0.66568627 0.70441176 0.0039215686
0.68020833 0.70441176 0.0039215686
0.69546569 0.70441176 0.0039215686
0.7122549 0.70784314 0.00049019608
0.72892157 0.70833333 0
0.7495098 0.71182598 0.00049019608
0.76973039 0.71519608 0.00012254902
0.78676471 0.71764706 0.0012867647
0.80343137 0.72009804 0.0039215686
0.82401961 0.72647059 0.0042279412
0.8432598 0.72892157 0.042156863
0.85827206 0.73186275 0.10692402
0.87622549 0.73235294 0.17671569
0.8911152 0.73670343 0.22892157
0.90747549 0.74276961 0.26323529
0.92273284 0.74773284 0.29166667
0.93676471 0.75147059 0.31127451
0.63921569 0.7254902 0.0078431373
0.63921569 0.72745098 0.0090686275
0.64313725 0.73137255 0.0078431373
0.64681373 0.73529412 0.0078431373
0.65098039 0.73235294 0.0078431373
0.65539216 0.73137255 0.0078431373
0.66176471 0.73137255 0.0078431373
0.67205882 0.73137255 0.0078431373
0.68235294 0.73137255 0.0078431373
0.69656863 0.73529412 0.0039215686
0.70931373 0.73627451 0.0039215686
0.7247549 0.73921569 0.00049019608
0.74313725 0.73921569 0
0.76151961 0.74313725 0
0.78039216 0.74460784 0.0029411765
0.79705882 0.74705882 0.0039215686
0.81764706 0.75098039 0.0039215686
0.83431373 0.75416667 0.0058823529
0.85098039 0.75686275 0.041176471
0.86764706 0.75686275 0.10833333
0.88333333 0.75784314 0.1745098
0.89877451 0.76127451 0.23186275
0.91470588 0.76764706 0.27843137
0.92965686 0.77254902 0.31495098
0.94117647 0.7745098 0.34117647
0.65980392 0.75441176 0.0078431373
0.65980392 0.75814951 0.0078431373
0.66372549 0.76188725 0.0078431373
0.66758578 0.7622549 0.0078431373
0.66960784 0.7620098 0.0078431373
0.6754902 0.75833333 0.0078431373
0.68235294 0.75833333 0.0078431373
0.69215686 0.75833333 0.0080269608
0.70245098 0.76176471 0.0083333333
0.71323529 0.7622549 0.0078431373
0.72708333 0.76617647 0.0042892157
0.74074755 0.77003676 0.0039215686
0.75563725 0.77401961 0
0.77401961 0.77401961 0.00006127451
0.79203431 0.77365196 0.0039215686
0.80998775 0.77371324 0.0039215686
0.82794118 0.77745098 0.0078431373
0.84460784 0.77794118 0.021691176
0.86029412 0.77745098 0.074509804
0.8745098 0.77745098 0.13627451
0.89068627 0.78137255 0.20196078
0.90686275 0.78186275 0.25931373
0.92107843 0.78823529 0.30735294
0.93480392 0.79050245 0.34705882
0.94117647 0.79313725 0.3622549
0.67745098 0.78235294 0.0049019608
0.68039216 0.78529412 0.0078431373
0.68431373 0.78921569 0.0078431373
0.6877451 0.79019608 0.011642157
0.68872549 0.78921569 0.0093137255
0.69264706 0.78615196 0.0078431373
0.69926471 0.78529412 0.0078431373
0.70931373 0.78529412 0.011764706
0.71960784 0.78627451 0.011764706
0.73051471 0.78811275 0.011151961
0.74411765 0.79019608 0.0078431373
0.75539216 0.79411765 0.0042892157
0.76960784 0.79852941 0.0019607843
0.78431373 0.79889706 0.00049019608
0.80490196 0.79803922 0.0039215686
0.82340686 0.79914216 0.0074754902
0.83823529 0.80196078 0.0039215686
0.85490196 0.80196078 0.039093137
0.87058824 0.80196078 0.10980392
0.88431373 0.80098039 0.18088235
0.8995098 0.80196078 0.24313725
0.91372549 0.80245098 0.29620098
0.92818627 0.80588235 0.34215686
0.93835784 0.80980392 0.37794118
0.94411765 0.80980392 0.38627451
0.69705882 0.81078431 0.0039215686
0.69859069 0.81078431 0.0039215686
0.70159314 0.81078431 0.0088235294
0.70471814 0.81452206 0.013051471
0.70808824 0.81078431 0.010539216
0.71145833 0.81078431 0.0078431373
0.71813725 0.81078431 0.010784314
0.7245098 0.80686275 0.011764706
0.73480392 0.80686275 0.015686275
0.74362745 0.80539216 0.012316176
0.75330882 0.80502451 0.011151961
0.76176471 0.80392157 0.0078431373
0.7752451 0.80465686 0.0039215686
0.79509804 0.81372549 0.0039215686
0.81911765 0.82156863 0
0.83670343 0.82401961 0.0059436275
0.85245098 0.82647059 0.036764706
0.86574755 0.82346814 0.09185049
0.87977941 0.82254902 0.1564951
0.89460784 0.82254902 0.22616422
0.90931373 0.82254902 0.28627451
0.92224265 0.82285539 0.33186275
0.93566176 0.82647059 0.37696078
0.94509804 0.82947304 0.40533088
0.94509804 0.82892157 0.40686275
0.70980392 0.82745098 0
0.7122549 0.82745098 0.0039215686
0.71372549 0.82745098 0.0088235294
0.71764706 0.82745098 0.019117647
0.72156863 0.82745098 0.01372549
0.72205882 0.82745098 0.0078431373
0.72843137 0.8245098 0.010784314
0.73480392 0.81960784 0.013235294
0.74117647 0.81568627 0.015686275
0.74754902 0.81176471 0.015686275
0.75392157 0.80784314 0.011764706
0.76421569 0.80784314 0.0078431373
0.78039216 0.80980392 0.0039215686
0.80490196 0.82009804 0.0039215686
0.8254902 0.83039216 0.0039215686
0.84607843 0.83921569 0.017156863
0.86666667 0.84313725 0.1254902
0.87696078 0.84068627 0.16911765
0.8872549 0.83921569 0.2127451
0.90147059 0.83921569 0.26813725
0.91568627 0.83921569 0.32156863
0.92990196 0.83921569 0.3627451
0.94313725 0.84313725 0.40392157
0.94901961 0.84558824 0.42745098
0.94901961 0.84313725 0.42352941
0.38676471 0.18823529 0.084803922
0.38976716 0.18823529 0.082352941
0.39669118 0.18823529 0.080882353
0.40373775 0.1846201 0.080882353
0.41102941 0.18431373 0.080882353
0.41960784 0.18039216 0.078431373
0.42647059 0.18039216 0.078431373
0.43578431 0.17738971 0.078431373
0.4627451 0.17647059 0.076960784
0.49270833 0.17647059 0.077879902
0.5185049 0.17647059 0.079411765
0.54019608 0.175 0.079411765
0.56397059 0.17696078 0.080882353
0.59362745 0.18480392 0.084803922
0.6245098 0.19620098 0.08872549
0.65539216 0.20931373 0.094117647
0.68627451 0.21568627 0.1004902
0.71078431 0.21960784 0.1004902
0.73921569 0.22352941 0.1004902
0.76715686 0.23088235 0.1026348
0.79803922 0.24117647 0.11029412
0.82892157 0.25177696 0.11881127
0.85980392 0.26531863 0.12696078
0.89068627 0.27598039 0.13186275
0.91519608 0.28480392 0.13578431
0.38676471 0.18823529 0.084803922
0.38921569 0.18823529 0.080882353
0.39669118 0.18823529 0.080882353
0.40354626 0.18775276 0.080882353
0.41253064 0.18676471 0.080116422
0.42009804 0.18676471 0.078431373
0.42892157 0.18676471 0.075949755
0.44160539 0.18829657 0.074165135
0.4627451 0.18676471 0.073590686
0.49096967 0.18676471 0.076041667
0.51629902 0.18621324 0.076960784
0.54012714 0.18609835 0.076960784
0.5674326 0.1872549 0.080147059
0.59754902 0.1919807 0.082176777
0.62843137 0.20147059 0.085906863
0.65784314 0.21084559 0.091115196
0.68627451 0.21568627 0.096568627
0.71266085 0.21960784 0.097694547
0.74019608 0.22352941 0.098728554
0.76880362 0.22959559 0.10037531
0.79803922 0.24117647 0.10955882
0.82892157 0.25558364 0.12058824
0.85980392 0.27020527 0.1277114
0.89068627 0.28235294 0.13278186
0.91427696 0.29264706 0.13578431
0.38676471 0.18884804 0.080882353
0.38768382 0.18884804 0.080882353
0.39558824 0.18967525 0.080882353
0.40404412 0.1930913 0.080346201
0.41470588 0.19528186 0.07935049
