site/assets/luts/natron-haldclut--fuji-fp-100c---35dda7e7a.cube
# LUTr-Project: LUTr — LUTrepository
# LUTr-Schema-Version: 1
# LUTr-ID: natron-haldclut--fuji-fp-100c---35dda7e7a
# LUTr-Title: fuji fp-100c --
# LUTr-Collection: Natron HaldCLUT
# LUTr-Collection-ID: natron-haldclut-presets
# LUTr-Source: https://github.com/NatronGitHub/clut
# LUTr-Source-File: submissions/natron-haldclut-presets/instant_pro/fuji_fp-100c_--.png
# LUTr-Source-Format: PNG
# LUTr-Source-SHA256: 97947625838aa43c1ccaba973c80361f266d10c089e2db08672e7947a1b59ab2
# LUTr-License: CC-BY-SA-4.0
# LUTr-License-URL: https://github.com/NatronGitHub/clut#license
# LUTr-Tags: creative, film, film-emulation, hald-clut, natron, png, cube
# LUTr-Transform-Class: film-emulation
# LUTr-Input-Color-Space: srgb
# LUTr-Output-Color-Space: srgb
# LUTr-Color-Space-Confidence: assumed-display-referred
# LUTr-Conversion-Method: PNG LUT image decoded at 16-bit and sampled to 25x25x25 3D CUBE
# LUTr-Conversion-Date: 2026-07-27
# LUTr-Conversion-Tool: LUTr scripts/convert-all-to-cube.mjs
# LUTr-Conversion-Grid: 25x25x25
# LUTr-Note: Preserve this metadata and the upstream license notices when redistributing.
TITLE "fuji fp-100c --"
LUT_3D_SIZE 9
DOMAIN_MIN 0 0 0
DOMAIN_MAX 1 1 1
0 0.0039215686 0
0.053921569 0.01127451 0.023039216
0.18039216 0.0058823529 0.024509804
0.33382353 0.0014705882 0.0078431373
0.51764706 0.0039215686 0.019607843
0.69754902 0 0.011764706
0.83921569 0 0.011764706
0.94264706 0.0078431373 0.011764706
1 0.10980392 0.023529412
0.011764706 0.080882353 0.023529412
0.069117647 0.073958333 0.0048406863
0.19473039 0.082965686 0.0035539216
0.36470588 0.046262255 0.0052083333
0.54681373 0.015686275 0.0039215686
0.70882353 0.017156863 0.015686275
0.83921569 0.006372549 0.010784314
0.94607843 0.046568627 0.0082720588
1 0.15392157 0.012254902
0 0.19901961 0.0039215686
0.020588235 0.20392157 0.0078431373
0.20220588 0.22181373 0.0039215686
0.38762255 0.23125 0.0078431373
0.60441176 0.23137255 0.0019607843
0.74791667 0.22058824 0.0039215686
0.86078431 0.21666667 0.0049019608
0.95833333 0.2495098 0.011642157
1 0.31568627 0.053921569
0 0.35882353 0.015686275
0.015012255 0.35343137 0.014215686
0.16470588 0.36568627 0.0039215686
0.3754902 0.38964461 0.00091911765
0.59117647 0.4004902 0.0039215686
0.75153186 0.39564951 0.0039215686
0.87634804 0.40294118 0.026960784
0.96354167 0.41617647 0.034129902
0.99215686 0.43578431 0.074019608
0 0.49215686 0.029411765
0.0093137255 0.49411765 0.028676471
0.13284314 0.4877451 0.02745098
0.35122549 0.50318627 0.0019607843
0.5372549 0.51960784 0
0.71789216 0.52230392 0
0.8504902 0.53382353 0.0098039216
0.96029412 0.55539216 0.060294118
0.99607843 0.57647059 0.14705882
0 0.60196078 0.043627451
0.0078431373 0.60459559 0.068321078
0.12254902 0.6004902 0.057843137
0.34166667 0.59957108 0.019178922
0.51495098 0.62009804 0.0053921569
0.67254902 0.63186275 0
0.81813725 0.63786765 0.0039215686
0.93382353 0.65165441 0.0039215686
0.99607843 0.67745098 0.084803922
0.012745098 0.72058824 0.12647059
0.029534314 0.71801471 0.13284314
0.22941176 0.70661765 0.11642157
0.39068627 0.70588235 0.11335784
0.51568627 0.71323529 0.01372549
0.65796569 0.72843137 0.0067401961
0.79289216 0.7372549 0.0039215686
0.91029412 0.74938725 0
0.98823529 0.75980392 0
0.26323529 0.83676471 0.25098039
0.29362745 0.82598039 0.25098039
0.38333333 0.82254902 0.25196078
0.48363971 0.8254902 0.25098039
0.5875 0.8252451 0.21666667
0.68970588 0.83302696 0.16813725
0.78921569 0.83823529 0.060171569
0.90042892 0.85643382 0.009252451
0.99215686 0.86862745 0
0.52941176 0.94509804 0.4627451
0.55637255 0.94509804 0.46666667
0.59313725 0.94117647 0.46568627
0.64803922 0.9372549 0.46666667
0.71568627 0.94117647 0.46862745
0.78333333 0.94754902 0.46519608
0.85686275 0.95686275 0.44411765
0.93088235 0.96127451 0.38088235
0.99607843 0.97254902 0.34117647
0.023039216 0.0039215686 0.069117647
0.072120098 0.0078431373 0.080392157
0.19460784 0.0078431373 0.084313725
0.34166667 0.0078431373 0.084313725
0.51764706 0 0.084803922
0.69362745 0.0039215686 0.092156863
0.83823529 0.0039215686 0.10036765
0.93137255 0.0073529412 0.09307598
0.99607843 0.067647059 0.10441176
0.0088235294 0.077389706 0.088664216
0.076156556 0.083509498 0.09564185
0.20364583 0.087270221 0.087882966
0.36846661 0.065686275 0.090870098
0.54261642 0.026072304 0.091452206
0.71508885 0.0047411152 0.092156863
0.83909314 0.0034313725 0.09620098
0.93861826 0.069056373 0.096139706
0.99564951 0.17892157 0.11960784
0.0039215686 0.21813725 0.11482843
0.024019608 0.21937806 0.10784314
0.21651348 0.23676471 0.091268382
0.40833333 0.24099265 0.07098652
0.60098039 0.24221814 0.086764706
0.74215686 0.22824755 0.10257353
0.85729167 0.22843137 0.10784314
0.94963235 0.24914216 0.11090686
0.99607843 0.30931373 0.13578431
0 0.37696078 0.11832108
0.0036151961 0.37647059 0.12696078
0.18653493 0.37977941 0.11092218
0.40637255 0.39785539 0.045159314
0.60508578 0.40569853 0.030759804
0.76243873 0.40894608 0.087936581
0.87224265 0.40441176 0.12571998
0.95637255 0.41243873 0.13400735
0.98167892 0.425 0.14558824
0 0.50759804 0.13897059
0.0041666667 0.50955882 0.13578431
0.15686275 0.49938725 0.1221201
0.36216299 0.51158088 0.069791667
0.55281863 0.5254902 0.0035539216
0.72803309 0.52941176 0.0056372549
0.85857843 0.53903186 0.030821078
0.96109069 0.55735294 0.16550245
0.99215686 0.57058824 0.2122549
0.0036151961 0.61354167 0.13823529
0.0060661765 0.6154182 0.14358915
0.16470588 0.60628064 0.14767157
0.36078431 0.60766697 0.12401961
0.51942402 0.62181373 0.050827206
0.67892157 0.63626685 0.0086473652
0.82205882 0.64332108 0.0077971814
0.93537837 0.6530867 0.033402267
0.99460784 0.68265931 0.1942402
0.01127451 0.72928922 0.1877451
0.052466299 0.72418811 0.18109681
0.23373162 0.71660539 0.17760417
0.39425551 0.7127451 0.16911765
0.52628676 0.71470588 0.11372549
0.66047794 0.73043811 0.032276348
0.79509804 0.74108456 0.0087316176
0.91029412 0.74970895 0.004028799
0.99117647 0.76715686 0.00085784314
0.25980392 0.83333333 0.27996324
0.29362745 0.82941176 0.27260263
0.3877451 0.82941176 0.27161458
0.48382353 0.82522212 0.26942402
0.58823529 0.82156863 0.25931373
0.69209559 0.83333333 0.22696078
0.79558824 0.84473039 0.12288603
0.89994638 0.85734528 0.023230699
0.97745098 0.86862745 0.016176471
0.5495098 0.95294118 0.48235294
0.5598652 0.94901961 0.48137255
0.59411765 0.94375 0.47781863
0.6591299 0.94852941 0.49656863
0.70416667 0.92965686 0.45539216
0.78186275 0.94381127 0.47156863
0.85821078 0.95772059 0.46176471
0.93431373 0.96470588 0.42585784
0.99607843 0.97205882 0.37401961
0.00098039216 0.00098039216 0.2
0.078431373 0.0069852941 0.22512255
0.25980392 0.0068627451 0.25980392
0.32291667 0.051102941 0.2245098
0.49656863 0.03627451 0.22254902
0.675 0.0039215686 0.22647059
0.82818627 0.0039215686 0.21568627
0.92659314 0.020220588 0.21568627
0.99215686 0.080392157 0.21568627
0.00049019608 0.080882353 0.21911765
0.075658701 0.076960784 0.23382353
0.26188725 0.057843137 0.26087623
0.34339767 0.12389706 0.2381587
0.53707108 0.08370098 0.23186275
0.70159314 0.02846201 0.22254902
0.83011642 0.032689951 0.22303922
0.92996324 0.084313725 0.21917892
0.97647059 0.14742647 0.22046569
0 0.22941176 0.24828431
0.0515625 0.23946078 0.25989583
0.24724265 0.25882353 0.26746324
0.42374387 0.27254902 0.26614583
0.60294118 0.26029412 0.26237745
0.73823529 0.23854167 0.24617034
0.84234069 0.24019608 0.23878676
0.93884804 0.259375 0.23125
0.99509804 0.30784314 0.24215686
0.0006127451 0.40980392 0.28529412
0.0063878676 0.41813725 0.29607843
0.23465074 0.41320466 0.28137255
0.4448989 0.43065257 0.2495098
0.63167892 0.43235294 0.25042892
0.76450674 0.42503064 0.27182904
0.86421569 0.41470588 0.26102941
0.94410233 0.41659007 0.25343137
0.99546569 0.44693627 0.26911765
0.0034313725 0.54166667 0.26813725
0.0078431373 0.55018382 0.28443627
0.20208333 0.53823529 0.27659314
0.40612745 0.53302696 0.25833333
0.58186275 0.53970588 0.20784314
0.74019608 0.54607843 0.19944853
0.85906863 0.55637255 0.22843137
0.95220588 0.56599265 0.29987745
0.99166667 0.57009804 0.30392157
0.014215686 0.64656863 0.29313725
0.011948529 0.64509804 0.27648591
0.2120098 0.63480392 0.26960784
0.38506434 0.62696078 0.25183824
0.53627451 0.63278186 0.22395833
0.6944087 0.6467065 0.15392157
0.82818627 0.65220588 0.091176471
0.9372549 0.66372549 0.2069087
0.99252451 0.68431373 0.31372549
0.013480392 0.73946078 0.2879902
0.073560049 0.73627451 0.28357843
0.26746324 0.72977941 0.28314951
0.4073223 0.72012868 0.2723652
0.54117647 0.72169118 0.25183824
0.66580882 0.73382353 0.20505515
0.7963848 0.74411765 0.1036152
0.91433824 0.75245098 0.015931373
0.99681373 0.7754902 0.20245098
0.27144608 0.84375 0.34803922
0.30833333 0.83768382 0.34578738
0.3939951 0.83676471 0.35061275
0.48823529 0.82691483 0.34460784
0.58560049 0.82457108 0.33578431
0.69215686 0.8372549 0.30543811
0.79378064 0.84788603 0.24911152
0.90075061 0.86029412 0.17320772
0.99215686 0.87205882 0.025857843
0.53529412 0.94607843 0.51568627
0.55355392 0.94901961 0.51580882
0.59485294 0.94828431 0.51960784
0.64583333 0.94289216 0.52316176
0.70686275 0.9377451 0.52107843
0.78517157 0.94693627 0.52022059
0.85490196 0.95735294 0.50465686
0.93431373 0.96727941 0.46948529
0.99117647 0.97254902 0.42843137
0.0078431373 0.011764706 0.35735294
0.057843137 0.0080269608 0.37647059
0.29803922 0.0039215686 0.42022059
0.4877451 0.003002451 0.43578431
0.53455882 0.036029412 0.37941176
0.64019608 0.08817402 0.37604167
0.79460784 0.012132353 0.36458333
0.91568627 0.0042279412 0.34558824
0.99607843 0.017156863 0.32990196
0.0039215686 0.080882353 0.36519608
0.059658395 0.069117647 0.38039216
0.28926164 0.026439951 0.42400429
0.48736979 0.03738511 0.43511029
0.5622549 0.10245098 0.40318627
0.66715686 0.1368796 0.38222273
0.80672488 0.065916054 0.35882353
0.92797947 0.02935049 0.33727788
0.99479167 0.13664216 0.33627451
0 0.21151961 0.35134804
0.03080576 0.22941176 0.38198529
0.26914828 0.2453125 0.42745098
0.51634498 0.25170037 0.46830576
0.57089461 0.29264706 0.42383578
0.71666667 0.2636489 0.39301471
0.82794118 0.24947917 0.37610294
0.92728248 0.24705882 0.36127451
0.99546569 0.27696078 0.35147059
0.0072916667 0.40533088 0.42640931
0.047610294 0.41292892 0.43479626
0.26948529 0.43365502 0.44224877
0.49803922 0.46289063 0.47113971
0.63088235 0.45827206 0.44240196
0.75588235 0.43192402 0.425
0.85091912 0.41686581 0.40012255
0.93549326 0.41636029 0.38872549
0.99215686 0.43817402 0.38780637
0.011764706 0.57401961 0.45735294
0.065655637 0.58039216 0.46960784
0.30147059 0.58327206 0.46721814
0.46470588 0.5754902 0.44803922
0.62328431 0.57426471 0.4192402
0.75631127 0.57472426 0.41470588
0.86023284 0.57769608 0.43155637
0.94093137 0.57058824 0.43226103
0.99362745 0.57990196 0.43137255
0.14901961 0.675 0.45539216
0.21731005 0.67990196 0.45379136
0.32622549 0.67311581 0.44313725
0.44348192 0.65749847 0.4192019
0.58213848 0.65514706 0.4078125
0.71421569 0.65818781 0.36807598
0.83676471 0.66712623 0.35453431
0.93362439 0.68174786 0.41127451
0.98823529 0.69944853 0.46176471
0.091666667 0.75943627 0.42095588
0.17455576 0.75833333 0.42009804
0.30698529 0.75229779 0.41305147
0.43676471 0.74375 0.4088848
0.56292892 0.73627451 0.39289216
0.67979473 0.74457721 0.36372549
0.79901961 0.75477941 0.32022059
0.91127451 0.76024816 0.28872549
0.99497549 0.78517157 0.38970588
0.26096814 0.85098039 0.4408701
0.32107843 0.84856771 0.44558824
0.39136029 0.84724265 0.43944547
0.48743873 0.8395144 0.44069393
0.58553922 0.83219975 0.43367034
0.69117647 0.83775276 0.41372549
0.79558824 0.8495098 0.3807598
0.89924173 0.86051624 0.3321921
0.98823529 0.86844363 0.27567402
0.52892157 0.95588235 0.57254902
0.55251225 0.95772059 0.57438725
0.58235294 0.95330882 0.57107843
0.63235294 0.94509804 0.56960784
0.70122549 0.94362745 0.57279412
0.77058824 0.94264706 0.56954657
0.84938725 0.95330882 0.55931373
0.92696078 0.96341912 0.52843137
0.99460784 0.97352941 0.49460784
0.0039215686 0.0058823529 0.50588235
0.061519608 0 0.51372549
0.30490196 0.0019607843 0.55196078
0.58088235 0 0.60882353
0.7254902 0.0039215686 0.60686275
0.73161765 0.033088235 0.53382353
0.77843137 0.16372549 0.51568627
0.87843137 0.19779412 0.50784314
0.98235294 0.18823529 0.50392157
0.0039215686 0.084068627 0.51151961
0.086305147 0.061060049 0.52279412
0.30698529 0.020159314 0.55980392
0.56568627 0.0076593137 0.60971201
0.71764706 0.012009804 0.6067402
0.73636642 0.071323529 0.54298407
0.77886029 0.24050245 0.52346814
0.89145221 0.22772672 0.50934436
0.99215686 0.21666667 0.50392157
0.0019607843 0.21176471 0.50539216
0.060661765 0.22254902 0.52028186
0.29338235 0.22708333 0.55588235
0.5408701 0.20882353 0.60214461
0.72401961 0.18186275 0.62132353
0.74276961 0.2841299 0.56286765
0.79166667 0.33921569 0.53039216
0.90318627 0.31372549 0.50851716
0.99166667 0.30098039 0.49607843
0.0039215686 0.35784314 0.50490196
0.043566176 0.37107843 0.52083333
0.26011029 0.39632353 0.53731618
0.49705882 0.42527574 0.58088235
0.68333333 0.45085784 0.61691176
0.7283701 0.46868873 0.57941176
0.8213848 0.45392157 0.54607843
0.92352941 0.41666667 0.51053922
0.98627451 0.42843137 0.50073529
0.066666667 0.53235294 0.55686275
0.17818627 0.55085784 0.57267157
0.33431373 0.55931373 0.58039216
0.50294118 0.58982843 0.59509804
0.65245098 0.6004902 0.60098039
0.75465686 0.60845588 0.59534314
0.84264706 0.58529412 0.56960784
0.92377451 0.56666667 0.54681373
0.98921569 0.56470588 0.53039216
0.16593137 0.69019608 0.60392157
0.26740196 0.69607843 0.60450368
0.38480392 0.6963848 0.60643382
0.51130515 0.69534314 0.59607843
0.62855392 0.69509804 0.58112745
0.73599877 0.69433211 0.57184436
0.84136029 0.69901961 0.55992647
0.92598039 0.6984375 0.56985294
0.97794118 0.70465686 0.58137255
0.31862745 0.78088235 0.59166667
0.35196078 0.77892157 0.5903799
0.42708333 0.77892157 0.5877451
0.48247549 0.77273284 0.55931373
0.59803922 0.76078431 0.54607843
0.69411765 0.76078431 0.52800245
0.81078431 0.76568627 0.50490196
0.91115196 0.77328431 0.4875
0.99068627 0.79852941 0.55833333
0.34803922 0.86421569 0.57843137
0.38875613 0.86375613 0.58259804
0.42653186 0.85900735 0.56936275
0.49460784 0.85441176 0.55628064
0.59644608 0.84558824 0.54828431
0.69656863 0.84246324 0.54304534
0.79362745 0.85245098 0.51568627
0.89905025 0.8651348 0.48088235
0.99019608 0.87598039 0.45441176
0.51960784 0.95882353 0.64901961
0.52916667 0.95294118 0.64289216
0.54754902 0.94313725 0.62941176
0.60857843 0.94754902 0.63186275
0.68529412 0.94509804 0.63529412
0.75367647 0.93357843 0.625
0.84362745 0.95196078 0.63137255
0.91911765 0.96127451 0.60392157
0.98431373 0.9745098 0.59019608
0.0039215686 0 0.63480392
0.15147059 0.0036151961 0.64117647
0.34901961 0.0039215686 0.66764706
0.55196078 0 0.70582108
0.77156863 0 0.74607843
0.86470588 0.0039215686 0.72745098
0.86531863 0.0091911765 0.66029412
0.89754902 0.24301471 0.64117647
0.96470588 0.35196078 0.64901961
0.052941176 0.060968137 0.63694853
0.18752298 0.039644608 0.65310202
0.34497549 0.0030790441 0.67535233
0.55104167 0.0060661765 0.70497089
0.7622549 0.0039215686 0.74264706
0.86655178 0.0060661765 0.73217678
0.87094056 0.14162071 0.66960784
0.8978171 0.29188879 0.64826134
0.96109069 0.37401961 0.64901961
0.069117647 0.21078431 0.63186275
0.16096814 0.21078431 0.64541973
0.3310049 0.20465686 0.66626838
0.53431373 0.16536458 0.69836091
0.75410539 0.15514706 0.73841912
0.85923713 0.17291667 0.73535539
0.85793505 0.31985294 0.67205882
0.88690257 0.4036152 0.65588235
0.95539216 0.43468137 0.65232843
0.0024509804 0.33866422 0.62156863
0.030514706 0.34166667 0.61666667
0.27938113 0.36721814 0.64388787
0.49160539 0.38431373 0.6783701
0.70269608 0.41176471 0.72447917
0.82064951 0.43676471 0.72840839
0.8432598 0.47487745 0.68595282
0.89356618 0.49247089 0.66071538
0.95539216 0.49797794 0.64172794
0.047303922 0.48676471 0.62058824
0.13814338 0.48667279 0.62288603
0.29411765 0.50392157 0.63382353
0.46369485 0.53602941 0.65582108
0.64558824 0.57193627 0.69583333
0.78483456 0.60196078 0.72503064
0.83363971 0.61145833 0.69479167
0.89142157 0.59234069 0.66176471
0.97230392 0.57622549 0.6379902
0.26887255 0.64362745 0.66715686
0.30820313 0.64332108 0.66704197
0.40258885 0.66248468 0.68186275
0.51756281 0.6783701 0.69313725
0.63921569 0.69509804 0.69702819
0.76764706 0.72240349 0.72205882
0.84163603 0.72536765 0.71470588
0.90961244 0.69772518 0.684375
0.98376225 0.67738971 0.66170343
0.34558824 0.78909314 0.71752451
0.40030637 0.78811275 0.71511949
0.46351103 0.79463848 0.71887255
0.55392157 0.79232537 0.71029412
0.64142157 0.79166667 0.70042892
0.72970282 0.7877451 0.68088235
0.81580882 0.79647672 0.68299632
0.9089614 0.80096507 0.67647059
0.96948529 0.81078431 0.69754902
0.43872549 0.87726716 0.72009804
0.45692402 0.87571232 0.71960784
0.50988051 0.87205882 0.71176471
0.5580193 0.87094822 0.69761795
0.63872549 0.86798407 0.69004289
0.71158088 0.85784314 0.66770833
0.7990962 0.86216299 0.65343137
0.89789369 0.87018229 0.62567402
0.97824755 0.88529412 0.6372549
0.56078431 0.96323529 0.75735294
0.56384804 0.96078431 0.75128676
0.57696078 0.96078431 0.73480392
0.61813725 0.96078431 0.72990196
0.65392157 0.93676471 0.70269608
0.7495098 0.95196078 0.71176471
0.83333333 0.95441176 0.70931373
0.91109069 0.96158088 0.69852941
0.95833333 0.96470588 0.67647059
0.21078431 0 0.75686275
0.30147059 0 0.76458333
0.40906863 0 0.77156863
0.57977941 0 0.79301471
0.74656863 0 0.81960784
0.90894608 0 0.84938725
0.96078431 0.0088235294 0.81764706
0.97144608 0.14154412 0.77242647
0.98921569 0.37058824 0.75588235
0.2372549 0.039338235 0.76078431
0.30076593 0.025490196 0.76372549
0.42144608 0.01127451 0.7754902
0.57679228 0.0040134804 0.79362745
0.73762255 0 0.81617647
0.90767463 0.0039215686 0.846875
0.95867034 0.012530637 0.82570466
0.9745098 0.20801164 0.78909314
0.98186275 0.39068627 0.76458333
0.21446078 0.19803922 0.74509804
0.28186275 0.19546569 0.75582108
0.4 0.18627451 0.76844363
0.56240809 0.14286152 0.78786765
0.72843137 0.1254902 0.81348039
0.88970588 0.090073529 0.83970588
0.96556373 0.22444853 0.83333333
0.96271446 0.36078431 0.78468137
0.97745098 0.4752451 0.76764706
0.057965686 0.31776961 0.72696078
0.18196998 0.3325674 0.73414522
0.32573529 0.33878676 0.74485294
0.51741728 0.35153186 0.76764706
0.68952206 0.36415441 0.79644608
0.84817708 0.39411765 0.82757353
0.93210784 0.44252451 0.82156863
0.936106 0.49977022 0.77598039
0.95931373 0.5629902 0.77156863
0.015196078 0.44705882 0.70735294
0.01807598 0.4463848 0.69393382
0.22083333 0.45980392 0.71078431
0.43694853 0.48553922 0.73474265
0.63137255 0.52401961 0.77696078
0.80238971 0.5598652 0.81372549
0.90147059 0.59852941 0.82254902
0.92230392 0.6122549 0.79166667
0.95196078 0.63039216 0.77009804
0.11078431 0.58394608 0.71323529
0.20960478 0.58676471 0.71470588
0.31605392 0.59644608 0.725
0.43480392 0.60738358 0.72892157
0.56973039 0.63333333 0.74620098
0.74270833 0.67990196 0.78820466
0.86666667 0.72089461 0.81498162
0.91524203 0.71776961 0.79068627
0.96973039 0.6995098 0.76862745
0.34828431 0.73259804 0.75612745
0.38302696 0.73982843 0.76427696
0.43890931 0.74411765 0.77040441
0.54387255 0.75379902 0.77156863
0.63137255 0.77414216 0.78676471
0.74987745 0.80088848 0.80698529
0.84534314 0.83125 0.82414216
0.90652574 0.81789216 0.7979473
0.96004902 0.80784314 0.79215686
0.47205882 0.88370098 0.82598039
0.49080882 0.8745098 0.82064951
0.53651961 0.87512255 0.81534926
0.59206495 0.88080576 0.81974571
0.66862745 0.87598039 0.81078431
0.74509804 0.87575061 0.79522059
0.81525735 0.88140319 0.78679534
0.89880515 0.88823529 0.77254902
0.97941176 0.90821078 0.8004902
0.56568627 0.96078431 0.84607843
0.56495098 0.95318627 0.8435049
0.60392157 0.96568627 0.84019608
0.6377451 0.95625 0.83186275
0.68627451 0.9504902 0.82647059
0.75735294 0.96078431 0.81360294
0.82867647 0.96102941 0.80294118
0.90330882 0.96482843 0.79080882
0.99509804 0.98333333 0.78039216
0.41078431 0 0.86813725
0.45294118 0.0074142157 0.86813725
0.5314951 0.0074754902 0.87254902
0.62481618 0.0039215686 0.8786152
0.75612745 0 0.89754902
0.89607843 0 0.91881127
0.96715686 0.0078431373 0.91127451
1 0.00049019608 0.91911765
1 0.30490196 0.87696078
0.40729167 0.044546569 0.86813725
0.44552696 0.024004289 0.86813725
0.51703431 0.011289828 0.8725337
0.62696078 0.015196078 0.88382353
0.75413603 0.006372549 0.89558824
0.88825827 0.0063342525 0.91488971
0.97830882 0.0081648284 0.92765012
1 0.081058517 0.92035846
1 0.34319853 0.8838848
0.39215686 0.21617647 0.86041667
0.42625613 0.2041973 0.86421569
0.50661765 0.19641544 0.86853554
0.61243873 0.16568627 0.87893689
0.74479167 0.12647059 0.89362745
0.8808364 0.11403186 0.9122549
0.99034926 0.13771446 0.92696078
0.99607843 0.29863664 0.90833333
0.99607843 0.43235294 0.88823529
0.32352941 0.34148284 0.84656863
0.36432292 0.34362745 0.84656863
0.45735294 0.34362745 0.85597426
0.58480392 0.34155178 0.86568627
0.71485907 0.35082721 0.88063725
0.8508655 0.37145374 0.90079657
0.96372549 0.40816483 0.92259498
0.98872549 0.47352941 0.90165441
1 0.54785539 0.87647059
0.041176471 0.43995098 0.81568627
0.14990809 0.43844975 0.82352941
0.31170343 0.44914216 0.83039216
0.49592525 0.47803309 0.84295343
0.65686275 0.4995098 0.86433824
0.80318627 0.52696078 0.89019608
0.93241422 0.56721814 0.91280637
0.9791973 0.60484069 0.90367647
0.98872549 0.64264706 0.87843137
0.036887255 0.57089461 0.80147059
0.05714614 0.56688879 0.7990579
0.20413603 0.56674326 0.79540441
0.3627451 0.56960784 0.80098039
0.56020221 0.60260417 0.82729779
0.74215686 0.6433364 0.86470588
0.88310355 0.69126838 0.89768689
0.95328585 0.72401961 0.89604013
0.97696078 0.73578431 0.87598039
0.25845588 0.70245098 0.81813725
0.30268076 0.70729167 0.8251685
0.36164216 0.70291054 0.82561275
0.46309743 0.71421569 0.82575061
0.56256127 0.71942402 0.82205882
0.65733762 0.72190564 0.82758885
0.8185049 0.77950368 0.87931985
0.92352941 0.82391238 0.89693627
0.95870098 0.8307598 0.8877451
0.45294118 0.84503676 0.87205882
0.47904412 0.83763021 0.86421569
0.52046569 0.8446538 0.8651348
0.57714461 0.85245098 0.87224265
0.65174632 0.85462623 0.87009804
0.73807445 0.8720818 0.88051471
0.82303922 0.88803615 0.89215686
0.9142693 0.91470588 0.90729167
0.98033088 0.9151348 0.9033701
0.58872549 0.96029412 0.91862745
0.58921569 0.95686275 0.91862745
0.59791667 0.93958333 0.90588235
0.65704657 0.96960784 0.92922794
0.70343137 0.95980392 0.91421569
0.76764706 0.97383578 0.91862745
0.82941176 0.96470588 0.8995098
0.89558824 0.97647059 0.89558824
0.98872549 0.98480392 0.88382353
0.60784314 0.13333333 0.97254902
0.61519608 0.12598039 0.96862745
0.67058824 0.081372549 0.97745098
0.72892157 0.024019608 0.975
0.80980392 0.0039215686 0.97254902
0.90637255 0.0024509804 0.96078431
0.99607843 0 0.99509804
1 0.0078431373 0.97696078
1 0.24705882 0.98039216
0.5995098 0.19803922 0.96813725
0.61176471 0.19117647 0.96519608
0.66421569 0.175 0.97561275
0.73596814 0.13915441 0.9786152
0.81544118 0.028676471 0.97818627
0.90900735 0.016176471 0.97518382
0.98921569 0.01127451 0.98823529
1 0.0049019608 0.9877451
1 0.29656863 0.98382353
0.58333333 0.30882353 0.96764706
0.60085784 0.30637255 0.96470588
0.64730392 0.29313725 0.96666667
0.72107843 0.28039216 0.97218137
0.80490196 0.25 0.97647059
0.90453431 0.22745098 0.98541667
0.98897059 0.18308824 0.98431373
0.99620098 0.22708333 0.98872549
1 0.42156863 0.99509804
0.53872549 0.42303922 0.95686275
0.57469363 0.43088235 0.96384804
0.61286765 0.41360294 0.95392157
0.67941176 0.40196078 0.95686275
0.78137255 0.40318627 0.96740196
0.87794118 0.38627451 0.96764706
0.97267157 0.4 0.97745098
0.99607843 0.43204657 0.99430147
1 0.52107843 0.97107843
0.46862745 0.53333333 0.94901961
0.50367647 0.5375 0.95122549
0.55686275 0.53333333 0.95490196
0.62867647 0.52867647 0.95220588
0.73333333 0.52941176 0.95686275
0.83872549 0.53480392 0.96691176
0.94215686 0.55392157 0.97156863
0.99436275 0.58112745 0.98823529
0.99607843 0.63137255 0.9745098
0.37598039 0.63970588 0.93970588
0.40257353 0.63756127 0.94019608
0.44215686 0.62977941 0.93517157
0.53878676 0.63094363 0.94515931
0.66887255 0.64044118 0.95171569
0.78026961 0.65140931 0.95343137
0.90196078 0.67634804 0.97107843
0.98137255 0.71795343 0.96960784
0.99215686 0.73921569 0.96519608
0.41470588 0.75588235 0.9372549
0.43002451 0.7564951 0.93382353
0.46053922 0.75196078 0.92965686
0.51544118 0.75232843 0.93664216
0.58235294 0.73578431 0.92941176
0.69852941 0.74166667 0.95318627
0.84117647 0.77328431 0.96176471
0.94938725 0.81556373 0.96568627
0.99705882 0.83823529 0.98529412
0.52254902 0.86372549 0.94852941
0.51862745 0.85245098 0.94117647
0.56053922 0.86813725 0.94963235
0.56881127 0.84656863 0.9158701
0.63480392 0.85098039 0.92794118
0.71029412 0.85686275 0.92843137
0.79901961 0.86433824 0.92990196
0.90245098 0.89172794 0.96127451
0.98431373 0.91470588 0.97303922
0.63921569 0.96078431 0.97647059
0.63382353 0.95245098 0.96813725
0.65980392 0.95882353 0.9754902
0.67009804 0.95 0.96323529
0.70196078 0.9372549 0.95882353
0.75980392 0.9504902 0.95294118
0.82941176 0.96372549 0.95686275
0.89166667 0.9495098 0.96470588
0.98823529 0.96862745 0.98431373
