site/assets/luts/natron-haldclut--rollei-retro-100-tonal--40a1dc808.cube
# LUTr-Project: LUTr — LUTrepository
# LUTr-Schema-Version: 1
# LUTr-ID: natron-haldclut--rollei-retro-100-tonal--40a1dc808
# LUTr-Title: rollei retro 100 tonal
# LUTr-Collection: Natron HaldCLUT
# LUTr-Collection-ID: natron-haldclut-presets
# LUTr-Source: https://github.com/NatronGitHub/clut
# LUTr-Source-File: submissions/natron-haldclut-presets/bw/rollei_retro_100_tonal.png
# LUTr-Source-Format: PNG
# LUTr-Source-SHA256: d2b55c51fb7df245b68c30958b32ac4bcf6e8502200475795eb3a8f230d7a9d6
# LUTr-License: CC-BY-SA-4.0
# LUTr-License-URL: https://github.com/NatronGitHub/clut#license
# LUTr-Tags: creative, film, film-emulation, hald-clut, natron, png, vintage, cube
# LUTr-Transform-Class: film-emulation
# LUTr-Input-Color-Space: srgb
# LUTr-Output-Color-Space: srgb
# LUTr-Color-Space-Confidence: assumed-display-referred
# LUTr-Conversion-Method: PNG LUT image decoded at 16-bit and sampled to 25x25x25 3D CUBE
# LUTr-Conversion-Date: 2026-07-27
# LUTr-Conversion-Tool: LUTr scripts/convert-all-to-cube.mjs
# LUTr-Conversion-Grid: 25x25x25
# LUTr-Note: Preserve this metadata and the upstream license notices when redistributing.
TITLE "rollei retro 100 tonal"
LUT_3D_SIZE 5
DOMAIN_MIN 0 0 0
DOMAIN_MAX 1 1 1
0.058823529 0.058823529 0.058823529
0.058823529 0.058823529 0.058823529
0.056862745 0.056862745 0.056862745
0.070588235 0.070588235 0.070588235
0.035294118 0.035294118 0.035294118
0.20882353 0.20882353 0.20882353
0.18308824 0.18308824 0.18308824
0.19166667 0.19166667 0.19166667
0.19338235 0.19338235 0.19338235
0.19803922 0.19803922 0.19803922
0.38627451 0.38627451 0.38627451
0.37696078 0.37696078 0.37696078
0.38039216 0.38039216 0.38039216
0.39019608 0.39019608 0.39019608
0.39803922 0.39803922 0.39803922
0.60392157 0.60392157 0.60392157
0.6 0.6 0.6
0.60784314 0.60784314 0.60784314
0.61176471 0.61176471 0.61176471
0.62745098 0.62745098 0.62745098
0.80784314 0.80784314 0.80784314
0.81960784 0.81960784 0.81960784
0.83921569 0.83921569 0.83921569
0.83529412 0.83529412 0.83529412
0.81960784 0.81960784 0.81960784
0.13529412 0.13529412 0.13529412
0.13039216 0.13039216 0.13039216
0.15147059 0.15147059 0.15147059
0.16053922 0.16053922 0.16053922
0.19019608 0.19019608 0.19019608
0.26568627 0.26568627 0.26568627
0.26721814 0.26721814 0.26721814
0.28235294 0.28235294 0.28235294
0.29093137 0.29093137 0.29093137
0.30882353 0.30882353 0.30882353
0.42843137 0.42843137 0.42843137
0.43995098 0.43995098 0.43995098
0.45171569 0.45171569 0.45171569
0.46017157 0.46017157 0.46017157
0.46764706 0.46764706 0.46764706
0.6372549 0.6372549 0.6372549
0.64828431 0.64828431 0.64828431
0.65183824 0.65183824 0.65183824
0.64509804 0.64509804 0.64509804
0.66102941 0.66102941 0.66102941
0.82647059 0.82647059 0.82647059
0.83357843 0.83357843 0.83357843
0.85098039 0.85098039 0.85098039
0.85171569 0.85171569 0.85171569
0.85686275 0.85686275 0.85686275
0.26862745 0.26862745 0.26862745
0.27598039 0.27598039 0.27598039
0.3 0.3 0.3
0.29852941 0.29852941 0.29852941
0.31568627 0.31568627 0.31568627
0.39558824 0.39558824 0.39558824
0.39914216 0.39914216 0.39914216
0.4127451 0.4127451 0.4127451
0.42585784 0.42585784 0.42585784
0.43872549 0.43872549 0.43872549
0.55490196 0.55490196 0.55490196
0.5502451 0.5502451 0.5502451
0.55098039 0.55098039 0.55098039
0.56078431 0.56078431 0.56078431
0.57254902 0.57254902 0.57254902
0.72401961 0.72401961 0.72401961
0.72487745 0.72487745 0.72487745
0.72720588 0.72720588 0.72720588
0.73039216 0.73039216 0.73039216
0.72794118 0.72794118 0.72794118
0.87058824 0.87058824 0.87058824
0.87647059 0.87647059 0.87647059
0.89607843 0.89607843 0.89607843
0.88235294 0.88235294 0.88235294
0.88039216 0.88039216 0.88039216
0.45490196 0.45490196 0.45490196
0.47034314 0.47034314 0.47034314
0.48921569 0.48921569 0.48921569
0.50196078 0.50196078 0.50196078
0.51176471 0.51176471 0.51176471
0.54681373 0.54681373 0.54681373
0.56176471 0.56176471 0.56176471
0.57303922 0.57303922 0.57303922
0.59840686 0.59840686 0.59840686
0.59705882 0.59705882 0.59705882
0.68235294 0.68235294 0.68235294
0.69142157 0.69142157 0.69142157
0.69607843 0.69607843 0.69607843
0.70171569 0.70171569 0.70171569
0.71568627 0.71568627 0.71568627
0.81568627 0.81568627 0.81568627
0.81568627 0.81568627 0.81568627
0.82034314 0.82034314 0.82034314
0.82426471 0.82426471 0.82426471
0.83137255 0.83137255 0.83137255
0.92941176 0.92941176 0.92941176
0.93039216 0.93039216 0.93039216
0.91568627 0.91568627 0.91568627
0.91862745 0.91862745 0.91862745
0.89803922 0.89803922 0.89803922
0.65098039 0.65098039 0.65098039
0.62647059 0.62647059 0.62647059
0.66666667 0.66666667 0.66666667
0.68235294 0.68235294 0.68235294
0.69019608 0.69019608 0.69019608
0.7 0.7 0.7
0.73039216 0.73039216 0.73039216
0.74166667 0.74166667 0.74166667
0.74411765 0.74411765 0.74411765
0.75588235 0.75588235 0.75588235
0.80784314 0.80784314 0.80784314
0.80980392 0.80980392 0.80980392
0.80196078 0.80196078 0.80196078
0.82205882 0.82205882 0.82205882
0.84509804 0.84509804 0.84509804
0.87843137 0.87843137 0.87843137
0.89117647 0.89117647 0.89117647
0.87156863 0.87156863 0.87156863
0.90318627 0.90318627 0.90318627
0.91470588 0.91470588 0.91470588
0.93333333 0.93333333 0.93333333
0.96372549 0.96372549 0.96372549
0.95098039 0.95098039 0.95098039
0.96078431 0.96078431 0.96078431
0.92941176 0.92941176 0.92941176
