site/assets/luts/natron-haldclut--agfa-vista-200--b8ffd6682.cube
# LUTr-Project: LUTr — LUTrepository
# LUTr-Schema-Version: 1
# LUTr-ID: natron-haldclut--agfa-vista-200--b8ffd6682
# LUTr-Title: agfa vista 200
# LUTr-Collection: Natron HaldCLUT
# LUTr-Collection-ID: natron-haldclut-presets
# LUTr-Source: https://github.com/NatronGitHub/clut
# LUTr-Source-File: submissions/natron-haldclut-presets/negative_color/agfa_vista_200.png
# LUTr-Source-Format: PNG
# LUTr-Source-SHA256: a572463e9a6f1380918ce3a866f2064402401ad983f790d9b03f1abbf80079e8
# LUTr-License: CC-BY-SA-4.0
# LUTr-License-URL: https://github.com/NatronGitHub/clut#license
# LUTr-Tags: creative, film, film-emulation, hald-clut, natron, png, cube
# LUTr-Transform-Class: film-emulation
# LUTr-Input-Color-Space: srgb
# LUTr-Output-Color-Space: srgb
# LUTr-Color-Space-Confidence: assumed-display-referred
# LUTr-Conversion-Method: PNG LUT image decoded at 16-bit and sampled to 25x25x25 3D CUBE
# LUTr-Conversion-Date: 2026-07-27
# LUTr-Conversion-Tool: LUTr scripts/convert-all-to-cube.mjs
# LUTr-Conversion-Grid: 25x25x25
# LUTr-Note: Preserve this metadata and the upstream license notices when redistributing.
TITLE "agfa vista 200"
LUT_3D_SIZE 5
DOMAIN_MIN 0 0 0
DOMAIN_MAX 1 1 1
0.031372549 0.0039215686 0.0039215686
0.16470588 0.015686275 0.015686275
0.46666667 0.0039215686 0
0.78039216 0.011764706 0
1 0 0
0.065686275 0.21862745 0.053921569
0.19019608 0.19215686 0.040441176
0.52205882 0.1495098 0.0049019608
0.80686275 0.091176471 0.0022058824
0.99411765 0.014705882 0
0.0078431373 0.56470588 0.12156863
0.24803922 0.55931373 0.11421569
0.60588235 0.53921569 0.082352941
0.86470588 0.50294118 0.06372549
0.99607843 0.43921569 0.019607843
0.32745098 0.81960784 0.2
0.47156863 0.81862745 0.17303922
0.70294118 0.80686275 0.14411765
0.91838235 0.79705882 0.10563725
1 0.77647059 0.081372549
0.63137255 0.98039216 0.29019608
0.66666667 0.96568627 0.28529412
0.7745098 0.93921569 0.24901961
0.95882353 0.95588235 0.24117647
1 0.97254902 0.2
0.0039215686 0.015686275 0.12254902
0.1254902 0.0039215686 0.092156863
0.45098039 0.00098039216 0.050980392
0.76004902 0.0039215686 0.021813725
0.98039216 0 0
0.055882353 0.17156863 0.17941176
0.15741422 0.16470588 0.16372549
0.49509804 0.12352941 0.11654412
0.78094363 0.076164216 0.076164216
0.97034314 0.026470588 0.043382353
0.0078431373 0.5495098 0.28627451
0.18639706 0.55012255 0.27303922
0.58137255 0.53823529 0.24068627
0.83970588 0.4939951 0.20294118
0.99313725 0.42401961 0.16176471
0.225 0.81568627 0.38627451
0.41354167 0.82199755 0.37359069
0.66176471 0.80747549 0.35490196
0.88161765 0.79607843 0.32610294
0.99607843 0.77745098 0.29705882
0.58137255 0.98039216 0.4627451
0.63455882 0.97720588 0.45490196
0.76176471 0.96862745 0.43921569
0.93553922 0.97254902 0.43137255
1 0.97156863 0.40392157
0 0.011764706 0.35490196
0.068627451 0.0039215686 0.33382353
0.40294118 0 0.28529412
0.72107843 0 0.23921569
0.94117647 0 0.20784314
0.0078431373 0.13235294 0.43480392
0.096691176 0.12058824 0.41813725
0.43235294 0.086519608 0.38431373
0.72683824 0.048651961 0.3377451
0.93088235 0.0068627451 0.30637255
0 0.52941176 0.54705882
0.038480392 0.53259804 0.54656863
0.51421569 0.49803922 0.50980392
0.78235294 0.45980392 0.47794118
0.97647059 0.35980392 0.4372549
0.042647059 0.81715686 0.64068627
0.28921569 0.8125 0.62941176
0.59166667 0.80392157 0.60637255
0.82622549 0.79215686 0.58602941
0.98823529 0.77303922 0.57205882
0.49411765 0.98431373 0.68431373
0.53823529 0.96568627 0.67647059
0.70196078 0.97647059 0.66470588
0.88529412 0.97647059 0.65686275
0.98627451 0.9745098 0.64509804
0 0 0.58137255
0.016911765 0.0039215686 0.58431373
0.33970588 0 0.55098039
0.6620098 0 0.52058824
0.89117647 0 0.47745098
0 0.066666667 0.65294118
0.028247549 0.054901961 0.64901961
0.3627451 0.020833333 0.60784314
0.67034314 0.01317402 0.56642157
0.88235294 0.006127451 0.53921569
0 0.46862745 0.75882353
0.015686275 0.46164216 0.74644608
0.45196078 0.42769608 0.70563725
0.73431373 0.38051471 0.67953431
0.93284314 0.25980392 0.6372549
0.0041666667 0.79142157 0.82745098
0.13161765 0.7997549 0.82034314
0.52352941 0.78431373 0.80036765
0.78296569 0.76936275 0.77573529
0.98431373 0.74117647 0.75392157
0.40294118 0.99215686 0.87352941
0.48039216 0.98848039 0.86887255
0.64803922 0.98431373 0.85392157
0.84117647 0.98921569 0.84509804
0.98529412 0.97745098 0.82647059
0 0 0.78823529
0.0039215686 0 0.77745098
0.26078431 0 0.74313725
0.62745098 0 0.70882353
0.8627451 0 0.64705882
0 0.010784314 0.82254902
0.0039215686 0.0039215686 0.80392157
0.28921569 0 0.7754902
0.62254902 0 0.73161765
0.8254902 0 0.70490196
0 0.35098039 0.87843137
0.016666667 0.29607843 0.89019608
0.37352941 0.25490196 0.84607843
0.6745098 0.18823529 0.80343137
0.86666667 0.045098039 0.76470588
0.0078431373 0.75 0.96470588
0.018627451 0.75784314 0.95588235
0.46323529 0.74754902 0.93284314
0.73431373 0.71495098 0.92230392
0.93137255 0.66470588 0.89607843
0.1372549 0.97647059 0.99607843
0.32843137 0.98627451 0.99607843
0.5627451 0.98627451 0.99019608
0.7872549 0.96078431 0.96176471
0.98823529 0.99215686 0.98823529
