site/assets/luts/natron-haldclut--lomo--8fb88587c.cube
# LUTr-Project: LUTr — LUTrepository
# LUTr-Schema-Version: 1
# LUTr-ID: natron-haldclut--lomo--8fb88587c
# LUTr-Title: lomo
# LUTr-Collection: Natron HaldCLUT
# LUTr-Collection-ID: natron-haldclut-presets
# LUTr-Source: https://github.com/NatronGitHub/clut
# LUTr-Source-File: submissions/natron-haldclut-presets/various/lomo.png
# LUTr-Source-Format: PNG
# LUTr-Source-SHA256: dde91709a81f13a3dbb30f0b0cb56b6ff158633d2f9f74c7da14d1b68f921ab8
# LUTr-License: CC-BY-SA-4.0
# LUTr-License-URL: https://github.com/NatronGitHub/clut#license
# LUTr-Tags: creative, film, film-emulation, hald-clut, natron, png, cube
# LUTr-Transform-Class: film-emulation
# LUTr-Input-Color-Space: srgb
# LUTr-Output-Color-Space: srgb
# LUTr-Color-Space-Confidence: assumed-display-referred
# LUTr-Conversion-Method: PNG LUT image decoded at 16-bit and sampled to 25x25x25 3D CUBE
# LUTr-Conversion-Date: 2026-07-27
# LUTr-Conversion-Tool: LUTr scripts/convert-all-to-cube.mjs
# LUTr-Conversion-Grid: 25x25x25
# LUTr-Note: Preserve this metadata and the upstream license notices when redistributing.
TITLE "lomo"
LUT_3D_SIZE 25
DOMAIN_MIN 0 0 0
DOMAIN_MAX 1 1 1
0 0 0.11764706
0.0039215686 0.0039215686 0.11764706
0.0039215686 0.0029411765 0.11764706
0.0078431373 0 0.11764706
0.047058824 0.0039215686 0.11960784
0.092156863 0.0039215686 0.12156863
0.13333333 0.0068627451 0.12156863
0.17843137 0.006372549 0.12156863
0.22352941 0.0039215686 0.12156863
0.26715686 0.0039215686 0.11764706
0.31568627 0 0.11764706
0.37352941 0.0034313725 0.12107843
0.43529412 0.0039215686 0.12352941
0.49705882 0.0039215686 0.1254902
0.55588235 0.0039215686 0.12941176
0.62058824 0.0039215686 0.12941176
0.68235294 0.0039215686 0.1254902
0.74166667 0 0.12156863
0.80196078 0 0.11862745
0.86764706 0 0.12156863
0.93529412 0 0.12745098
0.99264706 0 0.12941176
0.99607843 0 0.12941176
0.99607843 0 0.12941176
0.99607843 0 0.13333333
0.0024509804 0.0078431373 0.11764706
0.0039215686 0.0078431373 0.11764706
0.0039215686 0.0074754902 0.12009804
0.0078431373 0.006372549 0.12156863
0.047058824 0.0071078431 0.12156863
0.088419118 0.0081495098 0.12156863
0.13333333 0.010294118 0.12156863
0.17506127 0.010294118 0.12156863
0.21960784 0.0078431373 0.12156863
0.26470588 0.0078431373 0.12156863
0.31568627 0.0057598039 0.12046569
0.37383578 0.0039215686 0.12156863
0.43210784 0.0039215686 0.12156863
0.49313725 0.0039215686 0.1254902
0.55490196 0.0039215686 0.12941176
0.61721814 0.0039215686 0.12941176
0.68235294 0.0039215686 0.1254902
0.74019608 0 0.12156863
0.80012255 0 0.11801471
0.86715686 0 0.12156863
0.93529412 0 0.12745098
0.99264706 0 0.12941176
0.99963235 0 0.12941176
0.99607843 0 0.12941176
0.99607843 0 0.12941176
0.0039215686 0.016666667 0.12156863
0.0039215686 0.013848039 0.12046569
0.0071078431 0.012745098 0.12156863
0.010416667 0.0091911765 0.12536765
0.047058824 0.012745098 0.12156863
0.088235294 0.013112745 0.12156863
0.12941176 0.015686275 0.12156863
0.17389706 0.015686275 0.12156863
0.21568627 0.016666667 0.12156863
0.26323529 0.016053922 0.12156863
0.31544118 0.011029412 0.12156863
0.37267157 0.0052696078 0.12156863
0.42745098 0.006372549 0.12156863
0.48921569 0.0078431373 0.1254902
0.55098039 0.0078431373 0.12941176
0.6127451 0.0049019608 0.13186275
0.67745098 0.0039215686 0.1254902
0.73627451 0.00098039216 0.12156863
0.79509804 0 0.11764706
0.86715686 0 0.12156863
0.93529412 0 0.1254902
0.99656863 0.00012254902 0.12941176
1 0.00098039216 0.12941176
0.99607843 0.0042892157 0.12941176
0.99607843 0.0049019608 0.12941176
0.0073529412 0.023039216 0.12156863
0.0073529412 0.023039216 0.12156863
0.0066176471 0.019117647 0.11776961
0.0078431373 0.019117647 0.12156863
0.043382353 0.019117647 0.12156863
0.084375 0.019178922 0.11764706
0.12855392 0.019607843 0.11801471
0.17058824 0.023039216 0.12156863
0.21568627 0.026960784 0.12156863
0.26323529 0.024509804 0.12156863
0.31470588 0.018137255 0.12156863
0.36960784 0.011335784 0.11770833
0.42573529 0.0095588235 0.11960784
0.48529412 0.014767157 0.1254902
0.5504902 0.017769608 0.12855392
0.6127451 0.018627451 0.12941176
0.6745098 0.018627451 0.1254902
0.73627451 0.014705882 0.12156863
0.79767157 0.014705882 0.11764706
0.86715686 0.014705882 0.12156863
0.9372549 0.014705882 0.1254902
0.99656863 0.014705882 0.12941176
0.99705882 0.015073529 0.12941176
0.99607843 0.018627451 0.12941176
0.99607843 0.018627451 0.12941176
0.0078431373 0.031372549 0.12156863
0.0078431373 0.031372549 0.12156863
0.0078431373 0.028921569 0.11911765
0.0078431373 0.02745098 0.11764706
0.044117647 0.02745098 0.11960784
0.084313725 0.027696078 0.11764706
0.1254902 0.030882353 0.11764706
0.17058824 0.036029412 0.12156863
0.21568627 0.041176471 0.12156863
0.26323529 0.040686275 0.12156863
0.3127451 0.034313725 0.12107843
0.36593137 0.031372549 0.11764706
0.42352941 0.032352941 0.12058824
0.48921569 0.035539216 0.12377451
0.55098039 0.039215686 0.12696078
0.61421569 0.039215686 0.12941176
0.67843137 0.039215686 0.1254902
0.74019608 0.036764706 0.12156863
0.80245098 0.035294118 0.11764706
0.87107843 0.035294118 0.12107843
0.93823529 0.035294118 0.12254902
0.99656863 0.035294118 0.1254902
0.99656863 0.035294118 0.12696078
0.99607843 0.037254902 0.12745098
0.99607843 0.037254902 0.12745098
0.0078431373 0.051960784 0.12156863
0.0078431373 0.051960784 0.12156863
0.0078431373 0.051960784 0.12156863
0.0078431373 0.051960784 0.12156863
0.043137255 0.055882353 0.12205882
0.084313725 0.056372549 0.12199755
0.1254902 0.056372549 0.12156863
0.17058824 0.056188725 0.12156863
0.21568627 0.055882353 0.12156863
0.26323529 0.059313725 0.12107843
0.31090686 0.05502451 0.11764706
0.36617647 0.055453431 0.12113971
0.42352941 0.058088235 0.12156863
0.48578431 0.060294118 0.1254902
0.55098039 0.06372549 0.1254902
0.61666667 0.062438725 0.1254902
0.67843137 0.059803922 0.1254902
0.73756127 0.057352941 0.12156863
0.79889706 0.055882353 0.11764706
0.86758578 0.055882353 0.11764706
0.93921569 0.055882353 0.12107843
0.99699755 0.055882353 0.12156863
1 0.055882353 0.12414216
0.99607843 0.055882353 0.125
0.99607843 0.055882353 0.125
0.0078431373 0.075490196 0.1254902
0.0078431373 0.075490196 0.1254902
0.0078431373 0.075490196 0.1254902
0.0078431373 0.075490196 0.1254902
0.043137255 0.079901961 0.1254902
0.084313725 0.084681373 0.1254902
0.12769608 0.087254902 0.1254902
0.17058824 0.083946078 0.12340686
0.21568627 0.079411765 0.12156863
0.26323529 0.076470588 0.11764706
0.31470588 0.077205882 0.11838235
0.36997549 0.080269608 0.12156863
0.425 0.083333333 0.12156863
0.48541667 0.087254902 0.1254902
0.55098039 0.088235294 0.1254902
0.61372549 0.086151961 0.1254902
0.6754902 0.083333333 0.12254902
0.73627451 0.079779412 0.12156863
0.79509804 0.076470588 0.11764706
0.86715686 0.076470588 0.11764706
0.9372549 0.076470588 0.11764706
1 0.076470588 0.11776961
1 0.076470588 0.12083333
1 0.076470588 0.12156863
1 0.076470588 0.12156863
0.0078431373 0.11176471 0.1254902
0.006372549 0.11176471 0.1254902
0.0039215686 0.11176471 0.1254902
0.0073529412 0.11176471 0.1254902
0.043137255 0.1129902 0.12745098
0.086948529 0.11599265 0.12941176
0.12941176 0.11813725 0.12941176
0.17205882 0.11568627 0.12640931
0.21568627 0.11568627 0.1254902
0.26323529 0.11868873 0.12003676
0.31470588 0.11715686 0.11973039
0.37009804 0.11568627 0.12156863
0.42622549 0.11102941 0.12352941
0.48529412 0.11060049 0.1254902
0.55 0.1127451 0.1254902
0.61329657 0.11421569 0.1254902
0.67843137 0.11568627 0.12156863
0.74019608 0.11568627 0.12156863
0.80232843 0.11568627 0.11911765
0.87126225 0.11568627 0.11764706
0.94191176 0.11568627 0.11764706
1 0.11519608 0.11764706
1 0.11176471 0.11764706
1 0.10784314 0.11856618
1 0.10784314 0.12156863
0.0039215686 0.15294118 0.1254902
0.0039215686 0.15294118 0.1254902
0.0039215686 0.15294118 0.1254902
0.0073529412 0.15294118 0.1254902
0.043137255 0.15294118 0.12941176
0.084313725 0.15294118 0.12990196
0.12843137 0.15294118 0.13333333
0.17058824 0.15294118 0.13186275
0.21568627 0.15686275 0.12941176
0.26470588 0.16715686 0.12303922
0.31568627 0.16862745 0.12156863
0.37009804 0.16127451 0.12156863
0.42745098 0.15490196 0.1254902
0.48529412 0.14901961 0.1254902
0.55098039 0.14901961 0.1254902
0.61666667 0.15441176 0.1254902
0.68235294 0.15686275 0.1254902
0.74411765 0.16078431 0.1254902
0.80686275 0.16078431 0.12156863
0.875 0.16078431 0.12156863
0.94313725 0.15686275 0.11960784
1 0.15686275 0.11764706
1 0.15294118 0.11764706
1 0.15147059 0.11764706
1 0.14901961 0.11764706
0.0039215686 0.2004902 0.1254902
0.0039215686 0.2004902 0.1254902
0.0039215686 0.2004902 0.1254902
0.0073529412 0.20294118 0.1254902
0.043137255 0.2004902 0.12941176
0.084620098 0.20018382 0.12990196
0.12904412 0.19656863 0.13333333
0.17058824 0.19558824 0.1348652
0.21960784 0.20441176 0.13186275
0.26715686 0.21470588 0.1254902
0.31862745 0.22009804 0.12156863
0.37352941 0.21519608 0.12156863
0.42745098 0.20955882 0.1254902
0.49166667 0.20686275 0.1254902
0.55453431 0.20686275 0.1254902
0.61966912 0.20441176 0.12640931
0.68480392 0.20441176 0.12794118
0.74803922 0.20441176 0.12640931
0.81262255 0.20441176 0.1254902
0.8776348 0.20441176 0.121875
0.94313725 0.20318627 0.11887255
1 0.20196078 0.11764706
1 0.19865196 0.11764706
1 0.19656863 0.11764706
1 0.19656863 0.11764706
0.0039215686 0.25196078 0.1254902
0.0039215686 0.25294118 0.1254902
0.0039215686 0.25588235 0.1254902
0.0073529412 0.25588235 0.1254902
0.043627451 0.25441176 0.12745098
0.088357843 0.25294118 0.12977941
0.13039216 0.25294118 0.13333333
0.17487745 0.25294118 0.13333333
0.22058824 0.25686275 0.13333333
0.27107843 0.26617647 0.12757353
0.31862745 0.27328431 0.1245098
0.37009804 0.27647059 0.12156863
0.42745098 0.27058824 0.12156863
0.49313725 0.26862745 0.1254902
0.55808824 0.26789216 0.1254902
0.62267157 0.26323529 0.12696078
0.68627451 0.25784314 0.12941176
0.74803922 0.25392157 0.12941176
0.81151961 0.25392157 0.1254902
0.87892157 0.25392157 0.1254902
0.94166667 0.25343137 0.12156863
1 0.25294118 0.11764706
1 0.25392157 0.11764706
1 0.25392157 0.11862745
1 0.25686275 0.12156863
0.0078431373 0.31421569 0.1254902
0.0073529412 0.31421569 0.1254902
0.0039215686 0.31470588 0.1254902
0.0073529412 0.31813725 0.1254902
0.047058824 0.31642157 0.12573529
0.092156863 0.31470588 0.12941176
0.13676471 0.31813725 0.12977941
0.17843137 0.31862745 0.13333333
0.22696078 0.31862745 0.12941176
0.2723652 0.32254902 0.12726716
0.31862745 0.32794118 0.1245098
0.37009804 0.3377451 0.12156863
0.42745098 0.33431373 0.12156863
0.49313725 0.33039216 0.12205882
0.55882353 0.33039216 0.1254902
0.6245098 0.32990196 0.1254902
0.68627451 0.32990196 0.12941176
0.74803922 0.32941176 0.12941176
0.81372549 0.32598039 0.1254902
0.87941176 0.32598039 0.1254902
0.94509804 0.32598039 0.12156863
1 0.32205882 0.11764706
1 0.325 0.12156863
1 0.32598039 0.12156863
1 0.32598039 0.12156863
0.0078431373 0.38823529 0.12156863
0.0078431373 0.39019608 0.12156863
0.0073529412 0.39264706 0.12156863
0.0075980392 0.39607843 0.12156863
0.048039216 0.39313725 0.12254902
0.092647059 0.39019608 0.1254902
0.1372549 0.39019608 0.12745098
0.18235294 0.39019608 0.12941176
0.22745098 0.39019608 0.12941176
0.27573529 0.39019608 0.1254902
0.32254902 0.39264706 0.12156863
0.37009804 0.3997549 0.11813725
0.42745098 0.40196078 0.11960784
0.49142157 0.40196078 0.12156863
0.55637255 0.40343137 0.1254902
0.62058824 0.40661765 0.12696078
0.68235294 0.40784314 0.12941176
0.74803922 0.40784314 0.12941176
0.81372549 0.40392157 0.1254902
0.87941176 0.40196078 0.1254902
0.94509804 0.39607843 0.12156863
1 0.39240196 0.11764706
1 0.39705882 0.12156863
1 0.39803922 0.12303922
1 0.40196078 0.1254902
0.0078431373 0.46617647 0.12156863
0.0078431373 0.46648284 0.12156863
0.0078431373 0.47107843 0.12071078
0.0082720588 0.47751225 0.11813725
0.04877451 0.47205882 0.12156863
0.092585784 0.46660539 0.1254902
0.13713235 0.46617647 0.1254902
0.17971814 0.46666667 0.12941176
0.22696078 0.46617647 0.12941176
0.27469363 0.4627451 0.1254902
0.32120098 0.46629902 0.12463235
0.37009804 0.47352941 0.12205882
0.42745098 0.4745098 0.12205882
0.48921569 0.47794118 0.12248775
0.55355392 0.4810049 0.1254902
0.61666667 0.48596814 0.12941176
0.68186275 0.48970588 0.12941176
0.74656863 0.48627451 0.12941176
0.81372549 0.48223039 0.1254902
0.87941176 0.475 0.12205882
0.94509804 0.46813725 0.12156863
1 0.4622549 0.11764706
1 0.46617647 0.12156863
1 0.47009804 0.12285539
1 0.47352941 0.1254902
0.0078431373 0.54215686 0.1254902
0.0078431373 0.54215686 0.1254902
0.0085784314 0.54607843 0.1245098
0.014215686 0.54607843 0.1245098
0.048529412 0.54607843 0.12156863
0.089583333 0.54473039 0.1254902
0.13333333 0.54215686 0.1254902
0.17659314 0.54509804 0.12941176
0.22352941 0.54215686 0.12941176
0.2692402 0.54178922 0.12843137
0.31862745 0.54509804 0.12843137
0.37009804 0.54865196 0.12843137
0.42745098 0.55 0.12843137
0.48921569 0.55428922 0.12843137
0.55098039 0.55759804 0.12916667
0.61482843 0.56286765 0.12941176
0.67843137 0.56568627 0.12941176
0.74473039 0.56470588 0.12941176
0.81004902 0.56004902 0.1254902
0.87634804 0.55306373 0.12205882
0.94166667 0.54166667 0.12156863
1 0.53088235 0.11764706
1 0.5372549 0.12058824
1 0.54215686 0.12156863
1 0.54215686 0.12156863
0.0078431373 0.61813725 0.13088235
0.010845588 0.61813725 0.12996324
0.012132353 0.61813725 0.12879902
0.019117647 0.61813725 0.1254902
0.051715686 0.61813725 0.1254902
0.091666667 0.61813725 0.12567402
0.12941176 0.61960784 0.12941176
0.17150735 0.62205882 0.12941176
0.21813725 0.62205882 0.12941176
0.26715686 0.61960784 0.12941176
0.31862745 0.62242647 0.12904412
0.37009804 0.62696078 0.12794118
0.42745098 0.62867647 0.12794118
0.48921569 0.63167892 0.12941176
0.55098039 0.63492647 0.12941176
0.61127451 0.6377451 0.13333333
0.6745098 0.64166667 0.13333333
0.74019608 0.6377451 0.12941176
0.8064951 0.63382353 0.12843137
0.87156863 0.62647059 0.1254902
0.93921569 0.61960784 0.12156863
1 0.61568627 0.12156863
1 0.61568627 0.12156863
0.99944853 0.61868873 0.12156863
0.99607843 0.61960784 0.12156863
0.0078431373 0.69019608 0.13333333
0.010294118 0.69019608 0.13088235
0.011764706 0.68921569 0.12941176
0.019117647 0.68627451 0.1254902
0.050980392 0.68823529 0.1254902
0.091666667 0.69019608 0.1254902
0.12941176 0.69019608 0.12941176
0.16813725 0.69411765 0.12941176
0.21568627 0.69411765 0.12941176
0.26715686 0.69656863 0.1254902
0.31862745 0.70196078 0.1254902
0.37009804 0.70588235 0.12156863
0.42745098 0.70980392 0.12156863
0.48529412 0.70980392 0.1254902
0.54705882 0.70980392 0.12941176
0.60882353 0.70980392 0.13333333
0.67058824 0.70980392 0.13333333
0.73872549 0.70588235 0.12941176
0.80588235 0.70588235 0.12941176
0.87156863 0.70588235 0.12598039
0.94117647 0.70392157 0.1254902
1 0.70196078 0.1254902
1 0.70196078 0.1254902
0.99852941 0.69803922 0.1254902
0.99607843 0.69803922 0.1254902
0.0053921569 0.75196078 0.12941176
0.0069240196 0.75441176 0.12941176
0.0082107843 0.75588235 0.1254902
0.012745098 0.75588235 0.12303922
0.047794118 0.75588235 0.12156863
0.088235294 0.75588235 0.12303922
0.12757353 0.75196078 0.12303922
0.16813725 0.75435049 0.12395833
0.21568627 0.75588235 0.1254902
0.26715686 0.75833333 0.1254902
0.31862745 0.76801471 0.12156863
0.37009804 0.77775735 0.11813725
0.42426471 0.77892157 0.11960784
0.48265931 0.77303922 0.1254902
0.54313725 0.76911765 0.12941176
0.60490196 0.76911765 0.13333333
0.67058824 0.76911765 0.13333333
0.73964461 0.7661152 0.12941176
0.8064951 0.76409314 0.1254902
0.87156863 0.76519608 0.1254902
0.93921569 0.77107843 0.1254902
0.99540441 0.77647059 0.1254902
0.99754902 0.77193627 0.1254902
0.99362745 0.76856618 0.1254902
0.99362745 0.76764706 0.1254902
0.0039215686 0.80980392 0.1254902
0.0039215686 0.81164216 0.1254902
0.0046568627 0.81691176 0.12622549
0.0087009804 0.82058824 0.11911765
0.047058824 0.81862745 0.11960784
0.084313725 0.81666667 0.12242647
0.1254902 0.81446078 0.12156863
0.16813725 0.81372549 0.12058824
0.21666667 0.81666667 0.12156863
0.26715686 0.81605392 0.12156863
0.31862745 0.81593137 0.12156863
0.37009804 0.81875 0.12156863
0.42352941 0.81862745 0.12156863
0.48137255 0.81568627 0.1254902
0.54313725 0.81568627 0.12867647
0.60637255 0.81605392 0.13333333
0.6745098 0.81960784 0.12941176
0.74019608 0.82058824 0.12696078
0.80686275 0.81985294 0.1252451
0.875 0.81666667 0.12156863
0.93480392 0.82058824 0.12156863
0.97058824 0.82303922 0.1254902
0.98921569 0.81960784 0.1254902
0.99117647 0.81666667 0.1254902
0.98823529 0.81568627 0.1254902
0 0.86764706 0.12156863
0 0.86764706 0.12156863
0.0049019608 0.87083333 0.12573529
0.022058824 0.86519608 0.1254902
0.04877451 0.86470588 0.12132353
0.087745098 0.8651348 0.12156863
0.1254902 0.86862745 0.11862745
0.16813725 0.86862745 0.11764706
0.21960784 0.86470588 0.12156863
0.26844363 0.86207108 0.12156863
0.31862745 0.85980392 0.12156863
0.37009804 0.85686275 0.12156863
0.42352941 0.85686275 0.12156863
0.48137255 0.85686275 0.1254902
0.54313725 0.86029412 0.12941176
0.60508578 0.86078431 0.12990196
0.67107843 0.86078431 0.12941176
0.74019608 0.86470588 0.1254902
0.80686275 0.86862745 0.12193627
0.875 0.86819853 0.11856618
0.92426471 0.86862745 0.11985294
0.94705882 0.86770833 0.1216299
0.96764706 0.86433824 0.1254902
0.98480392 0.86078431 0.1254902
0.98823529 0.86078431 0.1254902
0 0.90784314 0.11764706
0 0.90588235 0.11764706
0.0098039216 0.90784314 0.11764706
0.032352941 0.90955882 0.12156863
0.056862745 0.90784314 0.12156863
0.088235294 0.90980392 0.12156863
0.12941176 0.90980392 0.12156863
0.17058824 0.90980392 0.11911765
0.21960784 0.90588235 0.12156863
0.26789216 0.90465686 0.12352941
0.31862745 0.90147059 0.12156863
0.37009804 0.89803922 0.12156863
0.42352941 0.89803922 0.12352941
0.48137255 0.89828431 0.1254902
0.54313725 0.90196078 0.12941176
0.60490196 0.90269608 0.12941176
0.67058824 0.90588235 0.12941176
0.7375 0.90833333 0.1254902
0.80441176 0.90980392 0.12156863
0.87156863 0.91151961 0.11985294
0.92156863 0.91078431 0.12058824
0.94411765 0.90759804 0.12181373
0.96470588 0.90588235 0.1254902
0.98186275 0.90196078 0.1254902
0.98823529 0.90196078 0.1254902
0 0.93088235 0.12156863
0 0.93088235 0.12156863
0.0088235294 0.93468137 0.12156863
0.033394608 0.93780637 0.12156863
0.064215686 0.94460784 0.12156863
0.092585784 0.95055147 0.12064951
0.12941176 0.95098039 0.11764706
0.1723652 0.95098039 0.11893382
0.21960784 0.94705882 0.12156863
0.26862745 0.94442402 0.12371324
0.31862745 0.94313725 0.12156863
0.37009804 0.93927696 0.12156863
0.42352941 0.93921569 0.12156863
0.48137255 0.94313725 0.1254902
0.54276961 0.94313725 0.12843137
0.603125 0.94705882 0.12941176
0.66666667 0.94705882 0.12941176
0.73449755 0.94705882 0.1254902
0.80159314 0.94656863 0.1245098
0.86764706 0.94699755 0.12156863
0.92598039 0.94877451 0.12328431
0.95441176 0.94613971 0.12156863
0.97463235 0.94313725 0.1254902
0.98578431 0.94313725 0.1254902
0.99215686 0.94313725 0.1254902
0 0.95490196 0.12156863
0 0.95490196 0.12156863
0.0058823529 0.96176471 0.12230392
0.027328431 0.96139706 0.12156863
0.060784314 0.96862745 0.12156863
0.093014706 0.975 0.11764706
0.12941176 0.98014706 0.11764706
0.1745098 0.98125 0.11764706
0.21960784 0.97843137 0.12156863
0.2682598 0.97745098 0.12156863
0.31862745 0.98137255 0.12156863
0.37009804 0.98051471 0.11862745
0.42352941 0.98039216 0.12156863
0.4810049 0.98137255 0.12291667
0.53921569 0.97843137 0.1254902
0.59803922 0.97879902 0.12941176
0.6627451 0.97941176 0.12941176
0.72904412 0.97843137 0.1254902
0.79828431 0.97843137 0.1245098
0.86715686 0.98137255 0.12156863
0.93431373 0.98431373 0.11813725
0.96164216 0.98137255 0.12156863
0.9754902 0.98039216 0.12230392
0.98933824 0.9807598 0.1254902
0.99607843 0.98431373 0.1254902
0 0.97941176 0.12156863
0 0.97941176 0.12156863
0.00098039216 0.97941176 0.12009804
0.024509804 0.98284314 0.12009804
0.056862745 0.98504902 0.12156863
0.091666667 0.98382353 0.12126225
0.12610294 0.98039216 0.11764706
0.17205882 0.98339461 0.11764706
0.21960784 0.98431373 0.12156863
0.26715686 0.98823529 0.12156863
0.3182598 0.99313725 0.12058824
0.36862745 0.9995098 0.11764706
0.42156863 1 0.11960784
0.47726716 0.99344363 0.12205882
0.53529412 0.98860294 0.1254902
0.59650735 0.98431373 0.12941176
0.65882353 0.98186275 0.12941176
0.72604167 0.98431373 0.1254902
0.79509804 0.98860294 0.1245098
0.86715686 0.99558824 0.12156863
0.9372549 1 0.11764706
0.96305147 1 0.12156863
0.97843137 1 0.12156863
0.98970588 1 0.1254902
0.99852941 1 0.1254902
0 0.99215686 0.12156863
0 0.99607843 0.11764706
0 0.99705882 0.11764706
0.022058824 0.99607843 0.11764706
0.056862745 0.98823529 0.12156863
0.088235294 0.98382353 0.12156863
0.1254902 0.98039216 0.11862745
0.17058824 0.98186275 0.11911765
0.21960784 0.98431373 0.12156863
0.26715686 0.98823529 0.12156863
0.31470588 0.99313725 0.12156863
0.36617647 0.9995098 0.11813725
0.41764706 1 0.12156863
0.47352941 0.99558824 0.12205882
0.53529412 0.98921569 0.1254902
0.59313725 0.98431373 0.12941176
0.65882353 0.98431373 0.12941176
0.7245098 0.98676471 0.1254902
0.79509804 0.98921569 0.1245098
0.86715686 0.99558824 0.12156863
0.9372549 0.99803922 0.11960784
0.96519608 1 0.12156863
0.97941176 1 0.12156863
0.98970588 1 0.1254902
0.99607843 1 0.1254902
0 0 0.12009804
0.0024509804 0 0.12310049
0.0039215686 0 0.12401961
0.0073529412 0 0.1254902
0.045833333 0.0039215686 0.12794118
0.088235294 0.0039215686 0.12794118
0.13272059 0.0039215686 0.12794118
0.17598039 0.0039215686 0.12493873
0.21960784 0.0039215686 0.12401961
0.26715686 0.0023897059 0.12064951
0.31507353 0 0.12009804
0.37352941 0 0.12156863
0.43284314 0.0039215686 0.1254902
0.49442402 0.0039215686 0.128125
0.55490196 0.0039215686 0.12941176
0.61666667 0.0039215686 0.13094363
0.67990196 0.0039215686 0.12794118
0.74019608 0 0.12401961
0.80257353 0 0.12107843
0.8713848 0.0021446078 0.12530637
0.93970588 0 0.12941176
0.99264706 0 0.12941176
1 0 0.13186275
0.99944853 0 0.13333333
0.99852941 0 0.13333333
0.0024509804 0.0069240196 0.12101716
0.0039215686 0.006372549 0.12367494
0.0039215686 0.0059895833 0.12424939
0.0078431373 0.0039215686 0.12683058
0.044332108 0.0066482843 0.1254902
0.088235294 0.0081495098 0.1254902
0.12982537 0.010294118 0.12480086
0.1745098 0.010294118 0.12401961
0.21960784 0.0078431373 0.12401961
0.26413143 0.0069240196 0.12344516
0.31568627 0.0046109069 0.12153799
0.3736443 0.0039215686 0.12310049
0.43137255 0.0039215686 0.12429534
0.4914905 0.0039215686 0.12666973
0.55153186 0.0039215686 0.12941176
0.61398591 0.0039215686 0.13151808
0.67843137 0.0039215686 0.12794118
0.73923866 0 0.12306219
0.80150123 0 0.12046569
0.86967678 0.0021446078 0.12450214
0.93848039 0 0.12867647
0.99601716 0 0.12941176
1 0 0.12941176
0.99944853 0 0.13090533
0.99852941 0 0.13333333
0.0039215686 0.016666667 0.12401961
0.0039215686 0.013158701 0.12401961
0.0049019608 0.011580882 0.12594975
0.010952819 0.0088235294 0.12904412
0.043688725 0.010845588 0.12622549
0.084451593 0.013112745 0.12401961
0.12925858 0.015686275 0.12401961
0.17251838 0.013848039 0.12401961
0.21568627 0.014215686 0.12401961
0.26323529 0.016053922 0.12401961
0.31498162 0.010876225 0.12401961
0.37106311 0.0052696078 0.12348346
0.42745098 0.0048406863 0.12248775
0.48832721 0.006004902 0.12579657
0.546875 0.0049019608 0.12987132
0.60885417 0.004151348 0.13291973
0.67389706 0.0039215686 0.12830882
0.73543199 0.00059742647 0.12262561
0.79739583 0 0.12009804
0.86960784 0.0024509804 0.12401961
0.93848039 0.00049019608 0.12671569
0.99656863 0.00012254902 0.12941176
1 0.00098039216 0.12941176
0.99722733 0.0039215686 0.12941176
0.99607843 0.0049019608 0.12941176
0.0052083333 0.023039216 0.12530637
0.0039215686 0.021698836 0.12530637
0.0074295343 0.019117647 0.12535233
0.0099877451 0.015418199 0.12575827
0.043137255 0.016329657 0.12411152
0.084313725 0.019140625 0.1218367
0.12686887 0.019378064 0.12124694
0.17058824 0.021507353 0.12401961
0.21568627 0.026654412 0.12401961
0.26323529 0.023590686 0.12401961
0.31470588 0.018137255 0.12401961
0.36960784 0.011297488 0.12028186
0.42622549 0.0095588235 0.12083333
0.48529412 0.01472886 0.12552849
0.54682904 0.017769608 0.12941176
0.60911458 0.018627451 0.13278186
