site/assets/luts/natron-haldclut--fuji-provia-400f--663fb3bee.cube
# LUTr-Project: LUTr — LUTrepository
# LUTr-Schema-Version: 1
# LUTr-ID: natron-haldclut--fuji-provia-400f--663fb3bee
# LUTr-Title: fuji provia 400f
# LUTr-Collection: Natron HaldCLUT
# LUTr-Collection-ID: natron-haldclut-presets
# LUTr-Source: https://github.com/NatronGitHub/clut
# LUTr-Source-File: submissions/natron-haldclut-presets/colorslide/fuji_provia_400f.png
# LUTr-Source-Format: PNG
# LUTr-Source-SHA256: 9cd489cbad71513cc7e9b5e4126b68f4148c2b42d7394f511fd8d0d28f271ad9
# LUTr-License: CC-BY-SA-4.0
# LUTr-License-URL: https://github.com/NatronGitHub/clut#license
# LUTr-Tags: creative, film, film-emulation, hald-clut, natron, png, cube
# LUTr-Transform-Class: film-emulation
# LUTr-Input-Color-Space: srgb
# LUTr-Output-Color-Space: srgb
# LUTr-Color-Space-Confidence: assumed-display-referred
# LUTr-Conversion-Method: PNG LUT image decoded at 16-bit and sampled to 25x25x25 3D CUBE
# LUTr-Conversion-Date: 2026-07-27
# LUTr-Conversion-Tool: LUTr scripts/convert-all-to-cube.mjs
# LUTr-Conversion-Grid: 25x25x25
# LUTr-Note: Preserve this metadata and the upstream license notices when redistributing.
TITLE "fuji provia 400f"
LUT_3D_SIZE 9
DOMAIN_MIN 0 0 0
DOMAIN_MAX 1 1 1
0.0078431373 0.0078431373 0
0.065686275 0.015686275 0.011764706
0.15392157 0.0078431373 0.0049019608
0.28823529 0.018137255 0.0039215686
0.43529412 0.035294118 0.0039215686
0.56666667 0.044607843 0.0039215686
0.67352941 0.050980392 0
0.77009804 0.058823529 0
0.85882353 0.066666667 0
0.053921569 0.080882353 0.046078431
0.1 0.08872549 0.046997549
0.18480392 0.084803922 0.024509804
0.31109069 0.074816176 0.023039216
0.43872549 0.065686275 0.019117647
0.56666667 0.054411765 0.006372549
0.67745098 0.050980392 0
0.76666667 0.054963235 0
0.85882353 0.066666667 0
0.090196078 0.20686275 0.11470588
0.14301471 0.20686275 0.10992647
0.23039216 0.19583333 0.078431373
0.34509804 0.1872549 0.064705882
0.46568627 0.1627451 0.041176471
0.58823529 0.13578431 0.0078431373
0.6875 0.093137255 0.0039215686
0.76911765 0.067279412 0
0.8627451 0.066666667 0
0.11029412 0.37303922 0.20588235
0.19381127 0.36911765 0.20214461
0.28884804 0.35833333 0.19056373
0.39117647 0.34258578 0.17205882
0.51862745 0.3370098 0.13014706
0.63339461 0.29656863 0.074448529
0.71519608 0.22598039 0.046568627
0.79558824 0.14479167 0.0088235294
0.85490196 0.092647059 0.0039215686
0.21764706 0.51960784 0.30784314
0.27156863 0.52328431 0.3
0.35441176 0.51568627 0.28823529
0.44583333 0.50392157 0.28382353
0.5627451 0.49215686 0.24411765
0.67573529 0.48039216 0.20514706
0.76127451 0.43823529 0.18921569
0.84460784 0.37892157 0.13651961
0.89607843 0.21960784 0.052941176
0.31813725 0.64901961 0.40588235
0.36832108 0.65294118 0.39675245
0.42389706 0.65294118 0.38872549
0.50441176 0.64117647 0.37843137
0.60490196 0.64852941 0.35416667
0.70392157 0.63872549 0.32898284
0.79558824 0.61323529 0.30085784
0.88118873 0.55716912 0.26176471
0.92990196 0.53039216 0.25441176
0.41862745 0.76372549 0.49607843
0.46078431 0.76764706 0.48835784
0.50612745 0.77156863 0.48063725
0.56556373 0.76862745 0.46568627
0.65 0.76470588 0.45637255
0.73872549 0.76078431 0.43884804
0.82647059 0.75294118 0.41862745
0.90441176 0.72156863 0.39203431
0.97647059 0.69509804 0.38333333
0.50784314 0.87254902 0.57401961
0.53823529 0.87640931 0.58137255
0.56862745 0.87254902 0.57794118
0.62941176 0.88039216 0.5622549
0.69509804 0.87990196 0.55833333
0.76942402 0.87254902 0.54528186
0.85441176 0.86862745 0.52745098
0.93131127 0.86770833 0.50778186
0.99558824 0.85294118 0.49215686
0.60392157 0.98039216 0.65882353
0.61176471 0.97647059 0.65882353
0.64117647 0.9754902 0.65490196
0.68872549 0.98186275 0.64852941
0.74117647 0.97647059 0.64509804
0.80686275 0.97892157 0.64166667
0.87745098 0.96862745 0.63137255
0.94558824 0.96862745 0.61176471
1 0.98823529 0.60784314
0.026960784 0.015686275 0.034803922
0.054411765 0.015686275 0.023529412
0.14411765 0.010416667 0.010416667
0.2872549 0.023529412 0.015686275
0.43529412 0.039215686 0.011764706
0.55882353 0.039705882 0.0039215686
0.66617647 0.040563725 0
0.76317402 0.047977941 0
0.85147059 0.059313725 0.0034313725
0.065686275 0.088664216 0.088296569
0.088350184 0.08872549 0.084313725
0.17683824 0.081862745 0.061642157
0.30969669 0.073039216 0.032437194
0.43507966 0.061764706 0.021292892
0.55753676 0.058333333 0.0024509804
0.66311275 0.046951593 0.00075061275
0.76242341 0.047977941 0.00037530637
0.85202206 0.062745098 0.0039215686
0.08627451 0.21470588 0.16433824
0.13013174 0.21078431 0.15654105
0.22181373 0.20294118 0.13811275
0.34215686 0.18944547 0.10735294
0.46176471 0.16752451 0.077818627
0.57768076 0.13965993 0.041666667
0.66933211 0.089215686 0.014307598
0.7582261 0.050275735 0.0066482843
0.81764706 0.05625 0.011642157
0.10931373 0.36911765 0.24981618
0.17189798 0.36552543 0.24226409
0.27561275 0.35735294 0.22792586
0.38792126 0.34313725 0.2
0.51078431 0.32460172 0.17058824
0.61753217 0.28884038 0.13382353
0.70765931 0.22397365 0.069071691
0.78273591 0.15686275 0.047571998
0.84430147 0.084313725 0.021078431
0.21151961 0.5120098 0.35392157
0.25245098 0.51568627 0.34678309
0.34001225 0.51397059 0.32745098
0.44528186 0.51675858 0.29828431
0.55796569 0.5 0.28026961
0.66176471 0.48373162 0.25646446
0.75416667 0.44509804 0.21740196
0.8325674 0.37083333 0.1671875
0.88259804 0.24215686 0.10784314
0.31421569 0.64509804 0.43743873
0.34947151 0.64558824 0.43856464
0.41020221 0.64348958 0.42316176
0.496875 0.64117647 0.40055147
0.59828431 0.64518995 0.3877451
0.69393382 0.63333333 0.36352635
0.78872549 0.61715686 0.34477635
0.87395833 0.56704963 0.30637255
0.93627451 0.49834559 0.26550245
0.40821078 0.76078431 0.52009804
0.44215686 0.76115196 0.51617647
0.4895527 0.76106005 0.50906863
0.55883885 0.76654412 0.49656863
0.63958333 0.76470588 0.48063725
0.72745098 0.76078431 0.46501225
0.81960784 0.75220588 0.45015319
0.90430453 0.72205882 0.42120098
0.97683824 0.69117647 0.39558824
0.50735294 0.87254902 0.60882353
0.53131127 0.87254902 0.60146293
0.56170343 0.87254902 0.58621324
0.62552849 0.87673866 0.58137255
0.69509804 0.8799326 0.57352941
0.76848192 0.87892157 0.55765931
0.8504902 0.87254902 0.54914216
0.92352941 0.86819853 0.53463542
0.98045343 0.8495098 0.51905637
0.59215686 0.96862745 0.68186275
0.6 0.96127451 0.67359069
0.64080882 0.98688725 0.6810049
0.68333333 0.97647059 0.66617647
0.74117647 0.98039216 0.66029412
0.80557598 0.98333333 0.653125
0.87745098 0.98382353 0.64963235
0.94564951 0.98290441 0.63039216
0.98039216 0.95637255 0.60294118
0.015686275 0.011764706 0.080392157
0.033578431 0.006495098 0.067279412
0.12622549 0.0068627451 0.044362745
0.26813725 0.010661765 0.030759804
0.41666667 0.03627451 0.031372549
0.54019608 0.020588235 0.0024509804
0.64803922 0.02745098 0.0068627451
0.74264706 0.032352941 0.010784314
0.81568627 0.040196078 0.015686275
0.055269608 0.092647059 0.15637255
0.076792279 0.087974877 0.14869792
0.16519608 0.074387255 0.12732843
0.29937194 0.079947917 0.091620711
0.42303922 0.056495098 0.048529412
0.54203431 0.056020221 0.042248775
0.64779412 0.042738971 0.028278186
0.74362745 0.032352941 0.014705882
0.82303922 0.039338235 0.018627451
0.07377451 0.21862745 0.24509804
0.11072304 0.21470588 0.23382353
0.21213235 0.21133578 0.21397059
0.33529412 0.20110294 0.18026961
0.45428922 0.1627451 0.13345588
0.56127451 0.13284314 0.098682598
0.65392157 0.082720588 0.059620098
0.74359681 0.035294118 0.025030637
0.79117647 0.039215686 0.02254902
0.095098039 0.36911765 0.33198529
0.15343137 0.36542586 0.32254902
0.26188725 0.36127451 0.30416667
0.38088235 0.36066176 0.28431373
0.49828431 0.33039216 0.24479167
0.6057598 0.29590993 0.20821078
0.69757966 0.23909314 0.15854779
0.77259498 0.15992647 0.11011029
0.80882353 0.075857843 0.063848039
0.19705882 0.50980392 0.41715686
0.23590686 0.50906863 0.40949755
0.31948529 0.51568627 0.40098039
0.42867647 0.50784314 0.37585784
0.54068627 0.50269608 0.3504902
0.64626225 0.47696078 0.32261029
0.74215686 0.45012255 0.29497549
0.81911765 0.37922794 0.24332108
0.86323529 0.26078431 0.17990196
0.30637255 0.6372549 0.49509804
0.32611826 0.64232537 0.49272365
0.39102328 0.6372549 0.48370098
0.47757353 0.6372549 0.46666667
0.58811275 0.64509804 0.44724265
0.68137255 0.63633578 0.42843137
0.77696078 0.61813725 0.40539216
0.86139706 0.56685049 0.36764706
0.92696078 0.50416667 0.3252451
0.39509804 0.75220588 0.56960784
0.41519608 0.7497549 0.56887255
0.46801471 0.75294118 0.56102941
0.54316789 0.75603554 0.54546569
0.63333333 0.76151961 0.53578431
0.71927083 0.76124387 0.51700368
0.80465686 0.75275735 0.49901961
0.88927696 0.72398897 0.475
0.95857843 0.69215686 0.45220588
0.49693627 0.86568627 0.6504902
0.51482843 0.86438419 0.64624694
0.54485294 0.86041667 0.63501838
0.61101409 0.86556373 0.62728248
0.68553922 0.8721201 0.61893382
0.75784314 0.87647059 0.60625
0.83946078 0.87328431 0.5911152
0.91127451 0.86556373 0.57608762
0.96911765 0.84914216 0.56433824
0.59117647 0.9754902 0.7245098
0.59607843 0.96078431 0.71568627
0.62279412 0.96470588 0.7127451
0.67193627 0.97254902 0.70821078
0.72598039 0.96568627 0.69313725
0.79154412 0.97254902 0.68529412
0.86642157 0.98137255 0.68137255
0.93602941 0.97046569 0.66213235
0.98529412 0.97647059 0.65392157
0.0053921569 0.0093137255 0.16568627
0.039031863 0.016666667 0.16764706
0.12585784 0.021691176 0.16164216
0.25294118 0.011764706 0.11715686
0.38578431 0.017156863 0.10098039
0.50931373 0.015686275 0.076470588
0.62683824 0.012132353 0.041666667
0.72322304 0.019607843 0.041666667
0.81323529 0.025 0.03627451
0.027144608 0.10177696 0.2504902
0.073858762 0.092647059 0.2377451
0.15281863 0.083333333 0.21519608
0.27898284 0.067041973 0.17794118
0.40490196 0.068474265 0.14338235
0.51697304 0.049517463 0.11408548
0.62401961 0.028921569 0.084007353
0.71742494 0.021078431 0.066666667
0.81372549 0.025 0.047365196
0.04754902 0.22316176 0.3377451
0.098161765 0.21862745 0.32254902
0.18872549 0.21878064 0.2995098
0.32124694 0.21124387 0.26973039
0.44436275 0.17689951 0.22132353
0.54814645 0.14261642 0.18296569
0.63835784 0.086764706 0.13602941
0.71827512 0.019607843 0.088020833
0.79705882 0.024632353 0.079534314
0.062745098 0.36911765 0.41525735
0.1346201 0.36911765 0.41078431
0.23526348 0.36888787 0.39215686
0.36542586 0.36911765 0.36911765
0.48480392 0.33869485 0.32693015
0.59486826 0.31219363 0.29166667
0.67915135 0.24212623 0.24117647
0.75146293 0.1412454 0.17333793
0.80098039 0.070588235 0.13376225
0.16029412 0.50980392 0.49313725
0.221875 0.50857843 0.48848039
0.3004902 0.5125 0.47610294
0.40977328 0.50980392 0.45784314
0.52169118 0.49803922 0.43088235
0.63137255 0.47107843 0.39681373
0.72401961 0.44607843 0.365625
0.80490196 0.37794118 0.31397059
0.8627451 0.23431373 0.23406863
0.27009804 0.63186275 0.56770833
0.3108992 0.63333333 0.55998009
0.37647059 0.64117647 0.54938725
0.46666667 0.6372549 0.533678
0.56222426 0.6372549 0.51960784
0.66617647 0.6254902 0.4946921
0.76127451 0.61421569 0.475
0.84577206 0.56604626 0.43304228
0.91813725 0.50539216 0.390625
0.37941176 0.74448529 0.63823529
0.40214461 0.74497549 0.63039216
0.45306373 0.75058211 0.61960784
0.52973346 0.75012255 0.60700061
0.62107843 0.75349265 0.59509804
0.70366115 0.75796569 0.5810815
0.79362745 0.74984681 0.56372549
0.87843137 0.72532169 0.53676471
0.96176471 0.69215686 0.50796569
0.48008578 0.85814951 0.70931373
0.49660692 0.86045496 0.70392157
0.53382353 0.85686275 0.69250919
0.59895833 0.85648744 0.67905178
0.67205882 0.8645527 0.66976103
0.74307598 0.87303156 0.66420803
0.82414216 0.86862745 0.64829963
0.90504749 0.85643382 0.62941176
0.97518382 0.8377451 0.60784314
0.57254902 0.9622549 0.76715686
0.5877451 0.96439951 0.76715686
0.61580882 0.96862745 0.76384804
0.66127451 0.96862745 0.75447304
0.71151961 0.95416667 0.73382353
0.77941176 0.97794118 0.73823529
0.85110294 0.97794118 0.72585784
0.92714461 0.96801471 0.70490196
0.99460784 0.98284314 0.70294118
0.011764706 0.01372549 0.28235294
0.020833333 0.01372549 0.28235294
0.10441176 0.0058823529 0.24117647
0.23137255 0.0078431373 0.20147059
0.35882353 0.0098039216 0.17843137
0.48235294 0.0078431373 0.15735294
0.59803922 0.0078431373 0.12254902
0.70367647 0.01004902 0.10171569
0.80784314 0.011764706 0.090196078
0.027205882 0.091911765 0.34166667
0.040134804 0.084099265 0.33431373
0.14442402 0.094362745 0.31151961
0.26804534 0.082843137 0.27254902
0.39166667 0.083823529 0.23823529
0.49803922 0.051378676 0.1986826
0.60098039 0.0047794118 0.15349265
0.69757966 0.015471814 0.140625
0.78455882 0.01372549 0.12107843
0.039705882 0.23480392 0.42107843
0.080882353 0.23241422 0.4158701
0.1754902 0.22659314 0.39215686
0.30612745 0.21862745 0.35827206
0.43186275 0.19632353 0.31862745
0.53676471 0.16390931 0.27935049
0.62156863 0.086764706 0.225
0.70269608 0.045588235 0.18872549
0.775 0.015686275 0.15441176
0.022303922 0.3745098 0.5002451
0.11577819 0.37058824 0.48936887
0.21574755 0.37058824 0.47665441
0.3453125 0.36911765 0.45
0.46973039 0.34754902 0.41446078
0.57941176 0.32331495 0.37984069
0.66207108 0.25980392 0.33155637
0.73995098 0.17867647 0.27417279
0.79779412 0.05245098 0.19803922
0.1372549 0.50784314 0.56862745
0.20257353 0.50392157 0.56090686
0.28308824 0.50588235 0.5504902
0.39154412 0.5129902 0.53897059
0.50490196 0.5004902 0.51176471
0.61262255 0.48480392 0.48088235
0.70784314 0.45 0.44289216
0.79436275 0.40281863 0.3997549
0.85196078 0.28823529 0.33627451
0.25612745 0.62941176 0.6370098
0.2995098 0.63333333 0.63048407
0.36446078 0.63651961 0.62107843
0.45147059 0.63186275 0.60686275
0.55159314 0.63517157 0.59313725
0.6497549 0.62941176 0.56933211
0.74362745 0.60637255 0.54068627
0.83210784 0.575 0.50572917
0.90147059 0.5127451 0.46397059
0.36372549 0.74411765 0.7
0.39240196 0.74411765 0.69607843
0.44215686 0.74901961 0.68713235
0.51734069 0.74509804 0.6716299
0.60857843 0.7504902 0.65882353
0.69142157 0.75294118 0.6439951
0.77647059 0.74546569 0.6254902
0.8629902 0.72463235 0.59852941
0.92843137 0.69509804 0.5754902
0.46862745 0.85637255 0.76176471
0.48943015 0.85594363 0.76176471
0.52359069 0.85496324 0.75465686
0.58890931 0.85677083 0.73832721
0.66053922 0.86446078 0.72671569
0.73284314 0.8643076 0.71479779
0.80882353 0.86470588 0.70618873
0.89411765 0.85294118 0.68287377
0.9754902 0.83946078 0.66004902
0.5627451 0.95490196 0.81568627
0.57230392 0.95073529 0.81176471
0.59313725 0.94754902 0.80588235
0.64877451 0.96078431 0.80147059
0.70784314 0.96862745 0.79607843
0.76519608 0.95833333 0.77720588
0.8377451 0.96666667 0.77401961
0.91887255 0.95833333 0.7504902
0.99215686 0.94117647 0.72352941
0.011764706 0.019607843 0.37941176
0.020588235 0.019607843 0.3754902
0.10870098 0.012377451 0.3432598
0.22156863 0.012316176 0.29117647
0.34117647 0.0078431373 0.25392157
0.47015931 0.0069240196 0.23768382
0.57610294 0 0.20588235
0.68167892 0.0026348039 0.17941176
0.73823529 0.006372549 0.1754902
0.02745098 0.10931373 0.43088235
0.043137255 0.10882353 0.42647059
0.14437806 0.10355392 0.40004596
0.25637255 0.094232537 0.36145833
0.37971814 0.079074755 0.32126225
0.4911152 0.062806373 0.2877451
0.58587623 0.01729473 0.24462316
0.67859222 0.014767157 0.21764706
0.75753676 0.0039215686 0.19607843
0.035906863 0.24852941 0.50441176
0.062254902 0.25539216 0.50801164
0.16078431 0.2450674 0.48112745
0.29301471 0.22899816 0.44607843
0.42046569 0.209375 0.40827206
0.52892157 0.19039522 0.37084865
0.61363358 0.11170343 0.31715686
0.68769914 0.057521446 0.2723652
0.76715686 0.011151961 0.22696078
0.014767157 0.38327206 0.58186275
0.082912071 0.38535539 0.57665441
0.1988511 0.38927696 0.56476716
0.33235294 0.38013174 0.5372549
0.45588235 0.36424632 0.50122549
0.56617647 0.34299173 0.46672794
0.65359988 0.28480392 0.41803002
0.72433364 0.17990196 0.35098805
0.77898284 0.049754902 0.27536765
0.11029412 0.51372549 0.64607843
0.18226103 0.5104473 0.63578431
0.27696078 0.51642157 0.62647059
0.38143382 0.52156863 0.61470588
0.49240196 0.51568627 0.59154412
0.59929534 0.5 0.55784314
0.69148284 0.46446078 0.52267157
0.78465074 0.42068015 0.47901348
0.83921569 0.29607843 0.40882353
0.25539216 0.63333333 0.70392157
0.28002451 0.63578431 0.70080423
0.35686275 0.6372549 0.68823529
0.4471201 0.6372549 0.67647059
0.5458027 0.63817402 0.65882353
0.63691023 0.63241422 0.63874847
0.72506127 0.61121324 0.60882353
0.81715686 0.58731618 0.5754902
0.88872549 0.52794118 0.53578431
0.35294118 0.7372549 0.76078431
0.39031863 0.74411765 0.75784314
0.43207721 0.74803922 0.75098039
0.51058517 0.74901961 0.73823529
0.59571078 0.74852941 0.72058824
0.67797181 0.74901961 0.7057598
0.75931373 0.74019608 0.68406863
0.84558824 0.72526042 0.66227022
0.88970588 0.71017157 0.64620098
0.46470588 0.84901961 0.81568627
0.48943781 0.85245098 0.81568627
0.51813725 0.85686275 0.81176471
0.58019301 0.86047794 0.8
0.64705882 0.86185662 0.78823529
0.72419577 0.86439951 0.775
0.79460784 0.85660233 0.75870098
0.87673866 0.85294118 0.74072457
0.94981618 0.84166667 0.72028186
0.55147059 0.93970588 0.86029412
0.56421569 0.94117647 0.85784314
0.59509804 0.95257353 0.85968137
0.63927696 0.96170343 0.85539216
0.69411765 0.96397059 0.84852941
0.75980392 0.96470588 0.83676471
0.8254902 0.95159314 0.81764706
0.91109069 0.97254902 0.81078431
0.975 0.975 0.79901961
0.0039215686 0.015686275 0.44509804
0.022058824 0.012132353 0.43823529
0.10465686 0.032598039 0.43137255
0.21556373 0.014705882 0.37745098
0.34509804 0.018137255 0.34215686
0.45931373 0.022058824 0.31703431
0.55906863 0.0039215686 0.27965686
0.65931373 0 0.26911765
0.72647059 0 0.25686275
0.023406863 0.14362745 0.51556373
0.055989583 0.14019608 0.5080576
0.1377451 0.1489277 0.49313725
0.25232843 0.12990196 0.45530025
0.37579657 0.091176471 0.40931373
0.48604473 0.065073529 0.36907169
0.57411152 0.022640931 0.32230392
0.65539216 0 0.28468137
0.74509804 0.0034313725 0.26813725
0.031372549 0.2754902 0.58897059
0.075980392 0.2791973 0.58376225
0.16151961 0.27867647 0.57015931
0.28333333 0.26173407 0.53517157
0.41078431 0.23296569 0.49215686
0.525 0.20931373 0.45306373
0.60545343 0.14166667 0.40251225
0.67487745 0.067248775 0.3450674
0.74411765 0.019607843 0.30294118
0.034436275 0.40294118 0.65490196
0.088357843 0.40404412 0.64839154
0.20572917 0.3997549 0.63210784
0.31813725 0.39532782 0.61286765
0.44558824 0.38848039 0.58143382
0.56049326 0.36862745 0.54509804
0.64598652 0.31752451 0.5026348
0.71960784 0.2251685 0.44220282
0.77683824 0.056862745 0.34718137
0.10441176 0.52401961 0.71176471
0.17916667 0.5254902 0.70398284
0.27022059 0.52598039 0.69620098
0.3745098 0.52628676 0.68039216
0.48308824 0.52647059 0.65980392
0.58970588 0.51182598 0.63039216
0.68235294 0.48578431 0.59901961
0.77205882 0.44117647 0.55330882
0.84313725 0.32941176 0.48627451
0.2372549 0.6372549 0.76960784
0.28089767 0.63615196 0.75819547
0.34675245 0.64117647 0.75392157
0.4377451 0.645481 0.74215686
0.53523284 0.64454657 0.7245098
0.62290135 0.6439951 0.70617341
0.71421569 0.62622549 0.67843137
0.80294118 0.59607843 0.64509804
0.86813725 0.55428922 0.61029412
0.34509804 0.73627451 0.81789216
0.37947304 0.74117647 0.81415441
0.4245098 0.74748775 0.80839461
0.50070466 0.74901961 0.7989277
0.58137255 0.74865196 0.78431373
0.66421569 0.75058211 0.76862745
0.74730392 0.74748775 0.7497549
0.83455882 0.73026961 0.725
0.89705882 0.71372549 0.70196078
0.46078431 0.84509804 0.86911765
0.4754902 0.85202206 0.86960784
0.51421569 0.85615809 0.86568627
0.56666667 0.85686275 0.85784314
0.63118873 0.85661765 0.84607843
0.7089614 0.86078431 0.832981
0.78360907 0.85707721 0.81571691
0.86862745 0.85294118 0.79509804
0.96176471 0.8377451 0.77071078
0.55 0.9372549 0.91176471
0.56164216 0.9495098 0.91948529
0.59117647 0.95 0.91568627
0.62953431 0.95196078 0.90784314
0.68431373 0.9627451 0.90588235
0.74914216 0.96764706 0.89178922
0.81764706 0.95318627 0.87254902
0.90208333 0.97156863 0.86458333
0.96666667 0.97254902 0.85196078
0 0.02745098 0.5504902
0.012683824 0.034129902 0.52395833
0.1060049 0.040318627 0.5
0.221875 0.038235294 0.46813725
0.3372549 0.0073529412 0.41862745
0.44773284 0.010477941 0.38253676
0.54411765 0.0044117647 0.35036765
0.64068627 0.0039215686 0.33817402
0.72892157 0 0.32205882
0.019117647 0.1745098 0.6122549
0.037752757 0.17843137 0.59613971
0.13676471 0.19139093 0.58137255
0.2526348 0.18047641 0.5504902
0.37573529 0.14338235 0.50392157
0.47955729 0.085784314 0.45343137
0.56715686 0.044715074 0.40566789
0.64841452 0.010952819 0.36078431
0.72408088 0.0039215686 0.33823529
0.019607843 0.31421569 0.67401961
0.039093137 0.31164216 0.6689185
0.15588235 0.31948529 0.65413603
0.27941176 0.31079963 0.6245098
0.4098652 0.29050245 0.58921569
0.52438725 0.24773284 0.53713235
0.60490196 0.20159314 0.49460784
0.67058824 0.10441176 0.42821691
0.73713235 0.014215686 0.36862745
0.037745098 0.43137255 0.73155637
0.07154565 0.42990196 0.7276348
0.20047488 0.43400735 0.71188725
0.31905637 0.43248315 0.69019608
0.44558824 0.42328431 0.66029412
0.55728401 0.3973652 0.62384344
0.63578431 0.34460784 0.57904412
0.71214767 0.27009804 0.52428768
0.77352941 0.14460784 0.44920343
0.10784314 0.53970588 0.78137255
0.18480392 0.54684436 0.7754902
0.2754902 0.54797794 0.76623775
0.37533701 0.54715074 0.74690564
0.48125 0.54730392 0.73039216
0.58284314 0.53691789 0.70539216
0.6745098 0.5151348 0.6747549
0.75980392 0.46323529 0.62745098
0.83161765 0.38480392 0.57352941
0.24920343 0.63970588 0.81960784
0.27428768 0.64744179 0.82356771
0.34546569 0.64900429 0.81568627
0.43382353 0.65305607 0.80127911
0.52647059 0.65539216 0.79019608
0.61764706 0.64901961 0.76715686
0.70588235 0.6442402 0.74808517
0.79460784 0.61485141 0.71312806
0.86617647 0.57628676 0.67843137
0.35330882 0.74154412 0.87647059
0.37107843 0.74541973 0.86960784
0.42843137 0.75196078 0.86960784
0.49767157 0.75298713 0.857981
0.57598039 0.75269608 0.84564951
0.65623468 0.75240502 0.82928922
0.7372549 0.75588235 0.81372549
0.82463235 0.73993566 0.78699449
0.89889706 0.71862745 0.76078431
0.46421569 0.84901961 0.92346814
0.47205116 0.85159314 0.91954657
0.51017157 0.85249694 0.91954657
0.56666667 0.85639553 0.91176471
0.6245098 0.85686275 0.90193015
0.69916513 0.86078431 0.89064798
0.77478554 0.86470588 0.87941176
0.85680147 0.85202206 0.85637255
0.92598039 0.84509804 0.83425245
0.55294118 0.9372549 0.95392157
0.55245098 0.93633578 0.95386029
0.57977941 0.93762255 0.95772059
0.62647059 0.95667892 0.96734069
0.6745098 0.95098039 0.94754902
0.74019608 0.96323529 0.94852941
0.81335784 0.96960784 0.93909314
0.89166667 0.95686275 0.91421569
0.98039216 0.97254902 0.90343137
0 0.047058824 0.6
0.049509804 0.089215686 0.59215686
0.12254902 0.079411765 0.54705882
0.23333333 0.038235294 0.5372549
0.34313725 0.023529412 0.46470588
0.44754902 0.011764706 0.45588235
0.54803922 0.011764706 0.42647059
0.64068627 0.015686275 0.3995098
0.72941176 0 0.36470588
0.026960784 0.20931373 0.67696078
0.053431373 0.22101716 0.67310049
0.13909314 0.23688725 0.66580882
0.25245098 0.20637255 0.61568627
0.37377451 0.17965686 0.57083333
0.48235294 0.146875 0.54264706
0.57487745 0.10931373 0.49473039
0.64846814 0.018198529 0.42990196
0.68676471 0.0073529412 0.40735294
0.020588235 0.35392157 0.74411765
0.04252451 0.34558824 0.72904412
0.15612745 0.35 0.72132353
0.27941176 0.34215686 0.68921569
0.41127451 0.33529412 0.67058824
0.52046569 0.2995098 0.62365196
0.60882353 0.24803922 0.57647059
0.67487745 0.14901961 0.50588235
0.72745098 0.011764706 0.40784314
0.031372549 0.45441176 0.79068627
0.090686275 0.45833333 0.78939951
0.20379902 0.45833333 0.77169118
0.32058824 0.46078431 0.75631127
0.44166667 0.45098039 0.73088235
0.55196078 0.43186275 0.6966299
0.63676471 0.38529412 0.64313725
0.72322304 0.34117647 0.61354167
0.77892157 0.17352941 0.51666667
0.10392157 0.54901961 0.8254902
0.18504902 0.55882353 0.8370098
0.27843137 0.56666667 0.82843137
0.37720588 0.55882353 0.79338235
0.47647059 0.56078431 0.79117647
0.57965686 0.55882353 0.77303922
0.66764706 0.52647059 0.71470588
0.74852941 0.48529412 0.68970588
0.83333333 0.44117647 0.66078431
0.24901961 0.64362745 0.85392157
0.27058824 0.65098039 0.85245098
0.34718137 0.65931373 0.87316176
0.42990196 0.65931373 0.85294118
0.52181373 0.66323529 0.84926471
0.60827206 0.65447304 0.82107843
0.69852941 0.65686275 0.80833333
0.78333333 0.63020833 0.7723652
0.87058824 0.59803922 0.73872549
0.36372549 0.75196078 0.93235294
0.37904412 0.74901961 0.91139706
0.43210784 0.75906863 0.92745098
0.49705882 0.75980392 0.91323529
0.57205882 0.75980392 0.90588235
0.64705882 0.75686275 0.88284314
0.73161765 0.75980392 0.85808824
0.81421569 0.74901961 0.84595588
0.8745098 0.73039216 0.81568627
0.46813725 0.85245098 0.96519608
0.47898284 0.85245098 0.95741422
0.51286765 0.85637255 0.95735294
0.5627451 0.85637255 0.946875
0.61838235 0.85245098 0.9372549
0.69019608 0.86029412 0.93529412
0.76458333 0.86458333 0.93198529
0.85251225 0.85637255 0.90202206
0.91078431 0.85686275 0.89509804
0.56078431 0.94117647 0.98823529
0.56862745 0.94901961 0.99607843
0.59117647 0.94901961 0.98529412
0.62205882 0.94656863 0.97009804
0.66666667 0.9372549 0.95294118
0.73627451 0.96078431 0.97009804
0.80588235 0.96764706 0.98235294
0.8877451 0.96078431 0.94901961
0.98431373 0.98039216 0.94901961
