site/assets/luts/natron-haldclut--polaroid-time-zero-expired-cold---71c69846f.cube
# LUTr-Project: LUTr — LUTrepository
# LUTr-Schema-Version: 1
# LUTr-ID: natron-haldclut--polaroid-time-zero-expired-cold---71c69846f
# LUTr-Title: polaroid time zero (expired) cold --
# LUTr-Collection: Natron HaldCLUT
# LUTr-Collection-ID: natron-haldclut-presets
# LUTr-Source: https://github.com/NatronGitHub/clut
# LUTr-Source-File: submissions/natron-haldclut-presets/instant_consumer/polaroid_time_zero_(expired)_cold_--.png
# LUTr-Source-Format: PNG
# LUTr-Source-SHA256: ce43b78880dcf5f9b3c850d6ed0a81043e6e430ff633a21911f7558fe6016456
# LUTr-License: CC-BY-SA-4.0
# LUTr-License-URL: https://github.com/NatronGitHub/clut#license
# LUTr-Tags: creative, film, film-emulation, hald-clut, natron, png, cool, cube
# LUTr-Transform-Class: film-emulation
# LUTr-Input-Color-Space: srgb
# LUTr-Output-Color-Space: srgb
# LUTr-Color-Space-Confidence: assumed-display-referred
# LUTr-Conversion-Method: PNG LUT image decoded at 16-bit and sampled to 25x25x25 3D CUBE
# LUTr-Conversion-Date: 2026-07-27
# LUTr-Conversion-Tool: LUTr scripts/convert-all-to-cube.mjs
# LUTr-Conversion-Grid: 25x25x25
# LUTr-Note: Preserve this metadata and the upstream license notices when redistributing.
TITLE "polaroid time zero (expired) cold --"
LUT_3D_SIZE 9
DOMAIN_MIN 0 0 0
DOMAIN_MAX 1 1 1
0.25882353 0.098039216 0.039215686
0.25882353 0.094117647 0.031372549
0.28921569 0.079411765 0.031372549
0.34068627 0.064215686 0.02745098
0.44901961 0.023529412 0.019607843
0.5745098 0.0078431373 0.015686275
0.71372549 0.015686275 0.015686275
0.84509804 0.0078431373 0.011764706
0.96470588 0.08627451 0.023529412
0.25882353 0.11764706 0.024019608
0.25882353 0.098039216 0.02745098
0.29693627 0.10012255 0.024877451
0.35490196 0.09754902 0.019607843
0.46642157 0.081372549 0.019607843
0.59362745 0.031678922 0.011764706
0.72598039 0.033823529 0.015686275
0.86078431 0.037683824 0.0039215686
0.96127451 0.15931373 0.019117647
0.26862745 0.16862745 0.011764706
0.28786765 0.17352941 0.011764706
0.33333333 0.17745098 0.011764706
0.39607843 0.18137255 0.0088235294
0.5127451 0.18529412 0.0088235294
0.63235294 0.16862745 0.0078431373
0.75196078 0.17328431 0.0078431373
0.87169118 0.2 0.0013480392
0.94607843 0.26372549 0.03627451
0.32647059 0.29215686 0.011764706
0.3377451 0.28823529 0.0039215686
0.38615196 0.28823529 0.0039215686
0.45300245 0.29460784 0
0.56102941 0.30637255 0.0039215686
0.66268382 0.31084559 0.0039215686
0.77107843 0.32205882 0
0.86783088 0.34607843 0.0039215686
0.93578431 0.37941176 0.0053921569
0.38039216 0.4254902 0.0078431373
0.40906863 0.42916667 0.0039215686
0.45294118 0.43676471 0
0.53284314 0.44240196 0.0039215686
0.6254902 0.45196078 0.0039215686
0.71421569 0.46617647 0.0039215686
0.80490196 0.47647059 0.0039215686
0.87745098 0.49044118 0.0078431373
0.94117647 0.51372549 0.0078431373
0.44215686 0.57598039 0
0.47696078 0.56666667 0.0039215686
0.52071078 0.57058824 0.0039215686
0.59460784 0.58927696 0
0.67794118 0.59681373 0.0039215686
0.75490196 0.60680147 0.0039215686
0.83370098 0.62438725 0.0039215686
0.89246324 0.62959559 0.014522059
0.94754902 0.64117647 0.020098039
0.52843137 0.66960784 0.0039215686
0.55539216 0.67352941 0.0088235294
0.6002451 0.67352941 0.011764706
0.65147059 0.68884804 0.012377451
0.70686275 0.69656863 0.011764706
0.77977941 0.70882353 0.0078431373
0.84901961 0.72132353 0.035294118
0.89509804 0.73921569 0.27034314
0.9372549 0.74411765 0.3245098
0.62107843 0.77009804 0.0078431373
0.64411765 0.77401961 0.011703431
0.67487745 0.77401961 0.011764706
0.70931373 0.77794118 0.017830882
0.75171569 0.78186275 0.021568627
0.80735294 0.79491422 0.012254902
0.86421569 0.80490196 0.13063725
0.90686275 0.80539216 0.33823529
0.9377451 0.82058824 0.50294118
0.71764706 0.86666667 0
0.72156863 0.86666667 0.0039215686
0.73627451 0.85980392 0.0078431373
0.75931373 0.85882353 0.0078431373
0.79803922 0.8627451 0.021568627
0.84852941 0.87696078 0.13529412
0.89509804 0.87745098 0.34803922
0.93382353 0.87794118 0.49117647
0.95294118 0.8745098 0.58039216
0.25490196 0.090196078 0.046568627
0.26182598 0.083272059 0.042647059
0.28431373 0.075490196 0.042647059
0.35980392 0.068137255 0.056556373
0.46862745 0.0375 0.05
0.59509804 0.015686275 0.046078431
0.73676471 0.0078431373 0.043137255
0.85686275 0.0078431373 0.057843137
0.95686275 0.10539216 0.081372549
0.25839461 0.10588235 0.038786765
0.2622549 0.10539216 0.035723039
0.30343137 0.10894608 0.042647059
0.37532935 0.10143229 0.046568627
0.47401961 0.086764706 0.048039216
0.606947 0.048797488 0.042486213
0.74192708 0.015686275 0.038357843
0.86733303 0.054296875 0.053982843
0.94656863 0.15379902 0.073529412
0.26960784 0.16960784 0.028308824
0.28480392 0.17352941 0.016237745
0.33039216 0.1739277 0.030882353
0.40245098 0.17838542 0.024019608
0.5127451 0.17659314 0.029840686
0.63627451 0.17126225 0.021568627
0.75934436 0.17647059 0.0095894608
0.87581189 0.21009498 0.032352941
0.96139706 0.27463235 0.054411765
0.31127451 0.2846201 0.023223039
0.33382353 0.29456955 0.0039215686
0.38982843 0.29981618 0.0048866422
0.46403952 0.30245098 0.010470282
0.56568627 0.31029412 0.009129902
0.66960784 0.31421569 0.0039215686
0.78195466 0.32561275 0.0074754902
0.87205882 0.35016085 0.009129902
0.94883578 0.38627451 0.0066789216
0.37303922 0.4254902 0.01004902
0.40318627 0.43483456 0.0039215686
0.45294118 0.44246324 0.0034926471
0.53645833 0.44617034 0.0039215686
0.63333333 0.46053922 0.0039215686
0.71724877 0.46862745 0.0049938725
0.80784314 0.47647059 0.0039215686
0.87984069 0.49068627 0.0054534314
0.9377451 0.51372549 0.0039215686
0.44607843 0.56421569 0.0039215686
0.47824755 0.57058824 0.0076593137
0.52794118 0.57835478 0.0039215686
0.59349724 0.59019608 0
0.68170956 0.60171569 0.0039215686
0.76115962 0.60869332 0.0023360907
0.8372549 0.62438725 0.041360294
0.89482996 0.62753523 0.048981311
0.94540441 0.63756127 0.091544118
0.53627451 0.68970588 0.0040441176
0.55931373 0.69276961 0.0078431373
0.60395221 0.68872549 0.012745098
0.65170037 0.6930913 0.011764706
0.71078431 0.69895833 0.011764706
0.78310355 0.71024816 0.0078431373
0.84911152 0.72769608 0.05557598
0.89852941 0.73933824 0.30422794
0.93627451 0.74411765 0.33615196
0.62843137 0.78186275 0.0078431373
0.64325214 0.78615962 0.0083333333
0.67058824 0.77794118 0.02254902
0.70931373 0.78186275 0.015686275
0.7497549 0.78529412 0.027941176
0.80784314 0.79867494 0.019393382
0.86416973 0.80539216 0.16346507
0.90686275 0.80887714 0.36077665
0.93039216 0.81666667 0.46709559
0.71372549 0.86666667 0.040686275
0.72248775 0.8685049 0.046078431
0.74068627 0.87022059 0.06127451
0.76715686 0.871875 0
0.79607843 0.86446078 0.017647059
0.8463848 0.8745098 0.16678922
0.89117647 0.87095588 0.34852941
0.92640931 0.87107843 0.48780637
0.95735294 0.87892157 0.60147059
0.26960784 0.08627451 0.083333333
0.28137255 0.093259804 0.084313725
0.29142157 0.081617647 0.082598039
0.3692402 0.074509804 0.10355392
0.46862745 0.049019608 0.11519608
0.60343137 0.015686275 0.12647059
0.7497549 0.0039215686 0.13431373
0.875 0.0039215686 0.14215686
0.95392157 0.11960784 0.17254902
0.27647059 0.10441176 0.080759804
0.28829657 0.10931373 0.080392157
0.31911765 0.11179534 0.091911765
0.3834712 0.10784314 0.10733762
0.49246324 0.095098039 0.11691176
0.62610294 0.045726103 0.11501225
0.75582108 0.048253676 0.12941176
0.87598039 0.038893995 0.13098958
0.95735294 0.17598039 0.15833333
0.2875 0.16936275 0.075735294
0.30747549 0.17745098 0.080392157
0.34564951 0.18376225 0.084129902
0.41697304 0.18357843 0.09653799
0.52389706 0.17647059 0.095098039
0.6510723 0.16862745 0.099295343
0.78180147 0.17647059 0.10404412
0.88275123 0.20753676 0.11920956
0.92720588 0.25196078 0.13921569
0.30845588 0.28431373 0.057352941
0.34174326 0.29469975 0.043137255
0.39494485 0.30245098 0.058026961
0.4787837 0.30729167 0.050597426
0.58235294 0.31029412 0.053186275
0.68186275 0.31383272 0.043397672
0.79344363 0.33409926 0.061488971
0.88639706 0.35392157 0.08760723
0.95539216 0.39558824 0.14178922
0.36470588 0.43333333 0.0049019608
0.39515931 0.44093137 0.0047794118
0.44803922 0.44509804 0
0.53707108 0.44901961 0.0036151961
0.64117647 0.46323529 0.020833333
0.73063725 0.47598039 0.076593137
0.81139706 0.48112745 0.039215686
0.88370098 0.49093137 0.036519608
0.94411765 0.5127451 0.10882353
0.44938725 0.57107843 0.0078431373
0.47696078 0.58151042 0.0044117647
0.52463235 0.58235294 0.0049019608
0.5939185 0.58235294 0.0078431373
0.68186275 0.59803922 0.011151961
0.76819853 0.61049326 0.054718137
0.83844975 0.6296875 0.19083946
0.89117647 0.62156863 0.16066176
0.92990196 0.63051471 0.19411765
0.54387255 0.70882353 0.0039215686
0.55833333 0.70499387 0.0047794118
0.59240196 0.69632353 0.0095588235
0.64371936 0.69705882 0.015686275
0.70882353 0.70453431 0.011764706
0.78514093 0.71421569 0.019454657
0.8497549 0.72622549 0.20931373
0.89509804 0.74019608 0.37129289
0.9372549 0.74411765 0.38529412
0.62855392 0.79227941 0.0087009804
0.64051777 0.79362745 0.015073529
0.66295956 0.79362745 0.011366422
0.70147059 0.78970588 0.015333946
0.74589461 0.79117647 0.015012255
0.80735294 0.80116422 0.031954657
0.86384804 0.80502451 0.26130515
0.90637255 0.8127451 0.40681679
0.9372549 0.82058824 0.53676471
0.72843137 0.87352941 0.24607843
0.73026961 0.87058824 0.22058824
0.74803922 0.87352941 0.22132353
0.76752451 0.87095588 0.17671569
0.79558824 0.87401961 0.11029412
0.84571078 0.87389706 0.23590686
0.89044118 0.87352941 0.39485294
0.92598039 0.87058824 0.51433824
0.94117647 0.87058824 0.57352941
0.31176471 0.080882353 0.16911765
0.32990196 0.091666667 0.18449755
0.35294118 0.094117647 0.19019608
0.39748775 0.092647059 0.19264706
0.48357843 0.083333333 0.19436275
0.62156863 0.022058824 0.2372549
0.75477941 0.0078431373 0.26139706
0.86795343 0.067647059 0.28302696
0.95441176 0.22107843 0.30392157
0.34019608 0.12745098 0.18449755
0.34932598 0.13106618 0.18627451
0.37259498 0.13480392 0.19759498
0.42419577 0.13480392 0.20196078
0.50925245 0.11715686 0.20229779
0.63928462 0.081862745 0.23583793
0.76727941 0.082490809 0.26070772
0.87941176 0.15169271 0.27205882
0.96096814 0.26721814 0.29901961
0.36029412 0.19105392 0.18627451
0.37843137 0.19901961 0.18713235
0.41151961 0.20916054 0.19384191
0.46865809 0.20865502 0.2122549
0.55018382 0.19785539 0.21593137
0.66764706 0.18861826 0.22855392
0.7879902 0.20989583 0.24105392
0.8877451 0.25004596 0.25245098
0.96127451 0.30747549 0.27855392
0.36084559 0.29215686 0.17506127
0.3872549 0.29607843 0.17370558
0.43921569 0.30598958 0.18313419
0.50547641 0.31421569 0.19748775
0.60266544 0.31859681 0.20879289
0.70882353 0.31813725 0.20230545
0.80839461 0.3407935 0.2100337
0.89117647 0.36488205 0.23682598
0.94509804 0.40441176 0.27254902
0.39436275 0.42156863 0.15539216
0.42328431 0.43382353 0.15082721
0.47604167 0.45245098 0.15373775
0.54733456 0.45294118 0.14534314
0.65196078 0.47022059 0.1932598
0.74699755 0.48403799 0.22478554
0.81654412 0.48069853 0.20214461
0.89117647 0.49298407 0.22671569
0.94901961 0.52671569 0.27892157
0.45294118 0.57990196 0.13186275
0.47863051 0.58547028 0.13314185
0.53344056 0.59019608 0.12892157
0.59348192 0.59207261 0.098062194
0.68186275 0.60045956 0.13091299
0.76911765 0.61822151 0.2407935
0.83333333 0.6301011 0.29921875
0.88854167 0.62205882 0.28517923
0.94117647 0.64270833 0.30006127
0.56127451 0.70490196 0.16237745
0.56997549 0.70494792 0.1446538
0.59877451 0.70490196 0.11835172
0.64463848 0.70310968 0.10479473
0.70686275 0.71004902 0.048590686
0.78541667 0.71666667 0.20087316
0.84463848 0.73069853 0.34359681
0.88811275 0.74019608 0.43529412
0.92193627 0.74019608 0.4372549
0.64050245 0.79362745 0.20949755
0.65038297 0.79518229 0.21070006
0.66634498 0.79705882 0.2009038
0.70166207 0.7973652 0.16960784
0.74200368 0.80113358 0.10621936
0.80735294 0.80275735 0.22622549
0.86115196 0.80592831 0.36631434
0.90294118 0.81321232 0.49224112
0.93167892 0.82273284 0.58768382
0.73186275 0.86666667 0.36666667
0.73707108 0.87028186 0.36648284
0.74411765 0.86568627 0.34901961
0.76807598 0.87058824 0.33327206
0.79607843 0.87058824 0.29779412
0.83039216 0.8627451 0.29944853
0.88370098 0.87058824 0.44558824
0.92205882 0.87058824 0.55165441
0.95441176 0.87990196 0.64852941
0.39803922 0.076470588 0.3372549
0.41519608 0.088235294 0.34289216
0.45147059 0.10343137 0.3622549
0.48970588 0.10710784 0.36911765
0.5627451 0.11568627 0.37843137
0.66323529 0.044852941 0.37647059
0.76617647 0.018137255 0.40980392
0.87598039 0.10073529 0.43161765
0.94901961 0.23529412 0.45686275
0.44240196 0.15343137 0.35245098
0.44656863 0.15563725 0.34877451
0.46911765 0.14846814 0.36115196
0.52083333 0.16559436 0.38661152
0.57720588 0.16176471 0.36507353
0.66700368 0.12285539 0.36372549
0.77181373 0.093504902 0.40588235
0.87380515 0.17037377 0.42990196
0.94093137 0.27352941 0.44926471
0.46666667 0.24019608 0.35735294
0.48872549 0.24626225 0.35992647
0.51568627 0.24607843 0.37156863
0.56151961 0.2625 0.38431373
0.60367647 0.25759804 0.36568627
0.68621324 0.24044118 0.375
0.7872549 0.22598039 0.39865196
0.87898284 0.26862745 0.42408088
0.94705882 0.36029412 0.44754902
0.47892157 0.31127451 0.36078431
0.49721201 0.31936275 0.35759804
0.54411765 0.3403799 0.35833333
0.59016544 0.35928309 0.3716299
0.65012255 0.3754902 0.38039216
0.72012868 0.35885417 0.37356005
0.80759804 0.3526348 0.38988971
0.88756127 0.39911152 0.40569853
0.94509804 0.4629902 0.42818627
0.47156863 0.4372549 0.31960784
0.48811275 0.44289216 0.32340686
0.54264706 0.4620098 0.33382353
0.59938725 0.47083333 0.34497549
0.67352941 0.48970588 0.3622549
0.74877451 0.49276961 0.3627451
0.82156863 0.49632353 0.35980392
0.89117647 0.51507353 0.38088235
0.93137255 0.54313725 0.40588235
0.51004902 0.58235294 0.32156863
0.53177083 0.57843137 0.32303922
0.57058824 0.58566176 0.32892157
0.61228554 0.59803922 0.32941176
0.69129902 0.60808824 0.33345588
0.76911765 0.62003676 0.36219363
0.83333333 0.63333333 0.42107843
0.88504902 0.62941176 0.39442402
0.93112745 0.64166667 0.42303922
0.57205882 0.69705882 0.34117647
0.5846201 0.70490196 0.34215686
0.62365196 0.70490196 0.35625
0.65974265 0.70165441 0.34295343
0.71862745 0.7127451 0.31446078
0.7814951 0.72420343 0.35882353
0.84301471 0.73553922 0.46213235
0.88811275 0.74393382 0.52254902
0.92156863 0.74852941 0.50784314
0.6622549 0.7875 0.3997549
0.66789216 0.79142157 0.40101103
0.68504902 0.79313725 0.39460784
0.71053922 0.79313725 0.37401961
0.75245098 0.79620098 0.36176471
0.7995098 0.80098039 0.36470588
0.85729167 0.80882353 0.46495098
0.89923407 0.81715686 0.56642157
0.92156863 0.8245098 0.62230392
0.7372549 0.8627451 0.49215686
0.74117647 0.8629902 0.48823529
0.75 0.86127451 0.48480392
0.76985294 0.86862745 0.47647059
0.79411765 0.86078431 0.44607843
0.825 0.84632353 0.41372549
0.87254902 0.85392157 0.49068627
0.91813725 0.86887255 0.59754902
0.95098039 0.87843137 0.67647059
0.52990196 0.11911765 0.53088235
0.53529412 0.11960784 0.53284314
0.5625 0.15098039 0.53713235
0.60686275 0.16911765 0.5627451
0.65147059 0.20392157 0.56421569
0.71176471 0.19895833 0.55545343
0.7872549 0.17401961 0.54669118
0.871875 0.17794118 0.56764706
0.92794118 0.21421569 0.60196078
0.55833333 0.1841299 0.54215686
0.56617647 0.19675245 0.5437117
0.58762255 0.22241115 0.54105392
0.62598039 0.23382353 0.56029412
0.66813725 0.24411765 0.56390931
0.72334559 0.23920803 0.53976716
0.78604473 0.2251685 0.52415748
0.86813725 0.24068627 0.56221661
0.92401961 0.275 0.59393382
0.58921569 0.30919118 0.53492647
0.61017157 0.31029412 0.54430147
0.62625613 0.32441789 0.54718137
0.65294118 0.33835784 0.55568321
0.69093137 0.34748775 0.56421569
0.73321078 0.34820772 0.54460784
0.80542279 0.3325674 0.55278799
0.8754902 0.32058824 0.57522978
0.9314951 0.3622549 0.59509804
0.62647059 0.38578431 0.53829657
0.62892157 0.40813419 0.5341299
0.66101409 0.42352941 0.54330576
0.68684896 0.43927696 0.54887408
0.71939338 0.4620098 0.55245098
0.75435049 0.45490196 0.54028033
0.81372549 0.42610294 0.542356
0.878125 0.42365962 0.57136949
0.92401961 0.465625 0.57689951
0.59411765 0.47598039 0.52132353
0.61216299 0.49724265 0.50900735
0.65147059 0.5064951 0.52058824
0.69901961 0.53011642 0.52696078
0.73431373 0.55134804 0.53480392
0.77107843 0.55340074 0.53507966
0.82322304 0.55300245 0.52849265
0.87941176 0.53382353 0.54803922
0.92401961 0.5745098 0.55686275
0.59319853 0.59411765 0.48094363
0.6085095 0.59650735 0.48718597
0.65363051 0.6127451 0.5004136
0.68586857 0.61223192 0.50055147
0.72815564 0.62426471 0.50735294
0.78333333 0.65181526 0.53523284
0.83258272 0.64370404 0.52961091
0.87941176 0.64129136 0.53736213
0.91525735 0.65 0.54558824
0.6317402 0.69460784 0.49068627
0.63884804 0.70098039 0.49375
0.66568627 0.70490196 0.49298407
0.69901961 0.70098039 0.49705882
0.7372549 0.71421569 0.50906863
0.78333333 0.72561275 0.51234681
0.8379902 0.7370098 0.56660539
0.88579963 0.73982843 0.58137255
0.90980392 0.74019608 0.58566176
0.68088235 0.78137255 0.52696078
0.68480392 0.78576134 0.52481618
0.70294118 0.78970588 0.52824755
0.72978707 0.79185049 0.53057598
0.75716912 0.79338235 0.53299632
0.80165441 0.80098039 0.52807138
0.8510723 0.80882353 0.55935968
0.89164369 0.81666667 0.63186275
0.91421569 0.82303922 0.66881127
0.74509804 0.85490196 0.58480392
0.74509804 0.85882353 0.59264706
0.75502451 0.86372549 0.59963235
0.76078431 0.85490196 0.57359069
0.79607843 0.87181373 0.59068627
0.82647059 0.86629902 0.56966912
0.86764706 0.86384804 0.57904412
0.91813725 0.87579657 0.65490196
0.94509804 0.8745098 0.71666667
0.65392157 0.2627451 0.68627451
0.64620098 0.25196078 0.6754902
0.66470588 0.24877451 0.68921569
0.69166667 0.28921569 0.69411765
0.72156863 0.31421569 0.69705882
0.75968137 0.35392157 0.6877451
0.79901961 0.38235294 0.67352941
0.86372549 0.3745098 0.66960784
0.92156863 0.37058824 0.68921569
0.66519608 0.29313725 0.69313725
0.66911765 0.31585478 0.68235294
0.68115809 0.3122549 0.68655025
0.70330882 0.33734681 0.69313725
0.73308824 0.36795343 0.69430147
0.76510417 0.40508578 0.69692096
0.80876225 0.40370711 0.67438725
0.86017157 0.3850337 0.66311275
0.92414216 0.40784314 0.69656863
0.69607843 0.40808824 0.68529412
0.69996936 0.41960784 0.68082108
0.71452206 0.41960784 0.68609069
0.73284314 0.43848039 0.69313725
0.75196078 0.45698529 0.69019608
0.78201593 0.48370098 0.69831495
0.81691176 0.47867647 0.68210784
0.86731005 0.46470588 0.68109681
0.91078431 0.46568627 0.69779412
0.72058824 0.51029412 0.67205882
0.7245098 0.51654412 0.67579657
0.74148284 0.52567402 0.67953431
0.75588235 0.53532475 0.68483456
0.775 0.55392157 0.68988971
0.79613971 0.56646752 0.68950674
0.82429534 0.56752451 0.68581495
0.87045037 0.54166667 0.69313725
0.89987745 0.52892157 0.69705882
0.70539216 0.56862745 0.65882353
0.72426471 0.57941176 0.66464461
0.7435049 0.59031863 0.66862745
0.77469363 0.61991422 0.67058824
0.79044118 0.62892157 0.67647059
0.80759804 0.64136029 0.68327206
0.83284314 0.63333333 0.67843137
0.87064951 0.60637255 0.6786152
0.91813725 0.59901961 0.7
0.69987745 0.63835784 0.65441176
0.71256127 0.64914216 0.6504902
0.73321078 0.65278799 0.65772059
0.75343137 0.6622549 0.65735294
0.78731618 0.68137255 0.66231618
0.817356 0.69601716 0.6745098
0.84117647 0.69227941 0.6754902
0.87518382 0.67303922 0.67481618
0.90196078 0.66813725 0.67696078
0.70784314 0.72058824 0.64215686
0.70364583 0.71731005 0.63921569
0.72647059 0.72058824 0.63903186
0.74705882 0.7245098 0.6361826
0.77156863 0.73235294 0.64767157
0.80401348 0.74068627 0.65821078
0.8372549 0.74258578 0.65882353
0.87941176 0.74803922 0.66838235
0.89803922 0.74803922 0.67083333
0.72401961 0.78529412 0.63223039
0.72696078 0.78921569 0.63578431
0.73737745 0.78664216 0.64191176
0.75655637 0.78707108 0.63970588
0.77941176 0.79338235 0.65079657
0.80782782 0.80098039 0.66178002
0.84053309 0.8127451 0.65625
0.8877451 0.82193627 0.70243566
0.90894608 0.82536765 0.72794118
0.76176471 0.85490196 0.68137255
0.76176471 0.85882353 0.68823529
0.76789216 0.85171569 0.67671569
0.77745098 0.8557598 0.67683824
0.79460784 0.86372549 0.68627451
0.82610294 0.86666667 0.68529412
0.8627451 0.87328431 0.6745098
0.90147059 0.86960784 0.70968137
0.93039216 0.86764706 0.75392157
0.73431373 0.39558824 0.78921569
0.73823529 0.41470588 0.78621324
0.75036765 0.43333333 0.78958333
0.76029412 0.44460784 0.78939951
0.77941176 0.47156863 0.79166667
0.80196078 0.50557598 0.79313725
0.82892157 0.56470588 0.80110294
0.86366422 0.5627451 0.79313725
0.90147059 0.53235294 0.77794118
0.75 0.46029412 0.78970588
0.75 0.45637255 0.78933058
0.76164216 0.46813725 0.7901348
0.77350643 0.49384957 0.78970588
0.78875613 0.51715686 0.78970588
0.8082261 0.54250153 0.7908318
0.8314951 0.57107843 0.80232843
0.85985754 0.56758578 0.7897595
0.88578431 0.56666667 0.78921569
0.76556373 0.53296569 0.7814951
0.76862745 0.53595282 0.78186275
0.77647059 0.54613971 0.78250613
0.78782169 0.55200674 0.78707108
0.80006127 0.57432598 0.79362745
0.81727941 0.5932598 0.79652267
0.83673407 0.60833333 0.79745711
0.86323529 0.60882353 0.78578431
0.88578431 0.59754902 0.78578431
0.78743873 0.61243873 0.77401961
0.78921569 0.61813725 0.7776348
0.796875 0.62598039 0.77794118
0.80305607 0.62941176 0.78087469
0.81479779 0.64068627 0.78946078
0.82886029 0.65752911 0.79313725
0.84402574 0.66132047 0.79362745
0.86699602 0.65708487 0.78594516
0.88609069 0.63921569 0.78186275
0.8004902 0.66789216 0.77794118
0.80073529 0.66960784 0.77444853
0.80790441 0.67371324 0.77401961
0.81348039 0.68137255 0.77141544
0.825 0.69215686 0.7817402
0.83823529 0.70686275 0.78970588
0.8497549 0.71660539 0.79491422
0.87061887 0.70315564 0.78158701
0.88039216 0.69338235 0.77401961
0.78382353 0.70441176 0.76881127
0.78747702 0.7096201 0.76835938
0.80439645 0.71141238 0.7734375
0.81588542 0.72254902 0.77566636
0.83186275 0.73357843 0.77729779
0.84601716 0.74705882 0.78400735
0.85963542 0.75540748 0.78921569
0.87542892 0.74471507 0.7790671
0.89019608 0.7372549 0.77941176
0.76997549 0.75183824 0.76605392
0.77578125 0.75183824 0.76230086
0.78504902 0.7551777 0.76528799
0.80047488 0.7595435 0.76763174
0.81764706 0.76881127 0.76397059
0.84811581 0.77807904 0.77794118
0.86749387 0.78979779 0.78226103
0.88252145 0.78970588 0.78186275
0.88676471 0.78713235 0.78186275
0.77352941 0.80140931 0.74705882
0.76966146 0.80098039 0.74351256
0.7761489 0.80372243 0.75441176
0.79716605 0.80927543 0.7627451
0.80833333 0.81102941 0.76642157
0.83333333 0.81636029 0.7743413
0.86029412 0.82570466 0.77581189
0.89466146 0.83584559 0.79362745
0.91023284 0.83976716 0.79754902
0.79264706 0.85882353 0.77009804
0.80006127 0.85539216 0.77009804
0.8004902 0.85098039 0.76752451
0.8122549 0.85833333 0.77647059
0.81568627 0.84460784 0.77009804
0.8372549 0.85667892 0.77794118
0.8567402 0.87487745 0.78578431
0.89852941 0.87849265 0.7901348
0.92107843 0.88235294 0.80784314
0.80392157 0.58823529 0.8627451
0.80441176 0.58578431 0.85980392
0.80882353 0.59313725 0.85980392
0.81813725 0.61029412 0.86519608
0.8254902 0.62352941 0.86078431
0.83676471 0.63676471 0.85882353
0.85196078 0.65196078 0.85784314
0.87107843 0.675 0.85882353
0.88235294 0.67843137 0.85882353
0.81078431 0.61715686 0.86568627
0.80692402 0.60294118 0.85490196
0.81470588 0.61605392 0.85919118
0.81960784 0.62156863 0.85704657
0.82745098 0.63333333 0.85710784
0.84068627 0.65459559 0.8627451
0.85196078 0.66617647 0.86139706
0.87107843 0.67892157 0.8627451
0.88235294 0.68970588 0.8627451
0.81568627 0.64215686 0.85098039
0.82340686 0.65870098 0.85968137
0.81887255 0.64828431 0.8502451
0.82745098 0.65894608 0.85490196
0.83823529 0.6745098 0.86029412
0.84313725 0.67377451 0.85404412
0.85588235 0.68946078 0.85980392
0.87071078 0.69448529 0.85490196
0.88235294 0.70196078 0.85490196
0.83137255 0.69901961 0.85490196
0.81599265 0.66942402 0.82616422
0.82892157 0.69068627 0.84215686
0.83682598 0.70386029 0.85490196
0.84313725 0.70759804 0.85490196
0.85398284 0.72009804 0.859375
0.85882353 0.71519608 0.84607843
0.87107843 0.7127451 0.83970588
0.89019608 0.73039216 0.85882353
0.83921569 0.7372549 0.85294118
0.8372549 0.73333333 0.84705882
0.84558824 0.74166667 0.85196078
0.84901961 0.74705882 0.85686275
0.85 0.73921569 0.84509804
0.85955882 0.7504902 0.85245098
0.86372549 0.74656863 0.84313725
0.88235294 0.7622549 0.85833333
0.89215686 0.75294118 0.84705882
0.84313725 0.7622549 0.85490196
0.83529412 0.75833333 0.84332108
0.84644608 0.76409314 0.84852941
0.85643382 0.77555147 0.85490196
0.85882353 0.77009804 0.84387255
0.86721814 0.78033088 0.85
0.87843137 0.78909314 0.85490196
0.88805147 0.78596814 0.85030637
0.90588235 0.8 0.86666667
0.82254902 0.78529412 0.8372549
0.82745098 0.78921569 0.85588235
0.8372549 0.79215686 0.84607843
0.84497549 0.79313725 0.84767157
0.85882353 0.8004902 0.8495098
0.87267157 0.80490196 0.84656863
0.88333333 0.80980392 0.83504902
0.90196078 0.82794118 0.86617647
0.90980392 0.82352941 0.85490196
0.81176471 0.82058824 0.82794118
0.82352941 0.82843137 0.85055147
0.82745098 0.82794118 0.84620098
0.83921569 0.828125 0.85618873
0.85269608 0.83578431 0.86078431
0.87156863 0.83970588 0.85618873
0.89473039 0.84718137 0.86323529
0.91164216 0.85245098 0.86464461
0.92205882 0.85931373 0.87107843
0.82745098 0.87058824 0.85882353
0.82401961 0.86323529 0.84411765
0.83529412 0.87058824 0.8627451
0.84313725 0.87058824 0.86519608
0.85294118 0.87254902 0.8627451
0.86666667 0.86519608 0.85343137
0.89117647 0.87941176 0.8754902
0.91421569 0.88284314 0.8754902
0.91372549 0.88235294 0.86666667
