site/assets/luts/natron-haldclut--kodak-tri-x-400---f4e6c0225.cube
# LUTr-Project: LUTr — LUTrepository
# LUTr-Schema-Version: 1
# LUTr-ID: natron-haldclut--kodak-tri-x-400---f4e6c0225
# LUTr-Title: kodak tri-x 400 -
# LUTr-Collection: Natron HaldCLUT
# LUTr-Collection-ID: natron-haldclut-presets
# LUTr-Source: https://github.com/NatronGitHub/clut
# LUTr-Source-File: submissions/natron-haldclut-presets/negative_new/kodak_tri-x_400_-.png
# LUTr-Source-Format: PNG
# LUTr-Source-SHA256: f187a62cd6421f9756abdc466eedd164b904c540b877ad2ca7c97d1cb7420b40
# LUTr-License: CC-BY-SA-4.0
# LUTr-License-URL: https://github.com/NatronGitHub/clut#license
# LUTr-Tags: creative, film, film-emulation, hald-clut, natron, png, cube
# LUTr-Transform-Class: film-emulation
# LUTr-Input-Color-Space: srgb
# LUTr-Output-Color-Space: srgb
# LUTr-Color-Space-Confidence: assumed-display-referred
# LUTr-Conversion-Method: PNG LUT image decoded at 16-bit and sampled to 25x25x25 3D CUBE
# LUTr-Conversion-Date: 2026-07-27
# LUTr-Conversion-Tool: LUTr scripts/convert-all-to-cube.mjs
# LUTr-Conversion-Grid: 25x25x25
# LUTr-Note: Preserve this metadata and the upstream license notices when redistributing.
TITLE "kodak tri-x 400 -"
LUT_3D_SIZE 5
DOMAIN_MIN 0 0 0
DOMAIN_MAX 1 1 1
0.035294118 0.035294118 0.035294118
0.056862745 0.056862745 0.056862745
0.17058824 0.17058824 0.17058824
0.32745098 0.32745098 0.32745098
0.49411765 0.49411765 0.49411765
0.15 0.15 0.15
0.2129902 0.2129902 0.2129902
0.32990196 0.32990196 0.32990196
0.41470588 0.41470588 0.41470588
0.56176471 0.56176471 0.56176471
0.37254902 0.37254902 0.37254902
0.37843137 0.37843137 0.37843137
0.50980392 0.50980392 0.50980392
0.62352941 0.62352941 0.62352941
0.74901961 0.74901961 0.74901961
0.63137255 0.63137255 0.63137255
0.6245098 0.6245098 0.6245098
0.65637255 0.65637255 0.65637255
0.76470588 0.76470588 0.76470588
0.8872549 0.8872549 0.8872549
0.90588235 0.90588235 0.90588235
0.89411765 0.89411765 0.89411765
0.90196078 0.90196078 0.90196078
0.92941176 0.92941176 0.92941176
0.98039216 0.98039216 0.98039216
0.078431373 0.078431373 0.078431373
0.15980392 0.15980392 0.15980392
0.3 0.3 0.3
0.34926471 0.34926471 0.34926471
0.47254902 0.47254902 0.47254902
0.2375 0.2375 0.2375
0.26096814 0.26096814 0.26096814
0.33002451 0.33002451 0.33002451
0.43112745 0.43112745 0.43112745
0.55588235 0.55588235 0.55588235
0.45882353 0.45882353 0.45882353
0.44485294 0.44485294 0.44485294
0.50588235 0.50588235 0.50588235
0.62696078 0.62696078 0.62696078
0.74068627 0.74068627 0.74068627
0.67132353 0.67132353 0.67132353
0.66568627 0.66568627 0.66568627
0.67071078 0.67071078 0.67071078
0.77591912 0.77591912 0.77591912
0.89289216 0.89289216 0.89289216
0.91372549 0.91372549 0.91372549
0.91764706 0.91764706 0.91764706
0.89803922 0.89803922 0.89803922
0.94142157 0.94142157 0.94142157
0.98235294 0.98235294 0.98235294
0.26666667 0.26666667 0.26666667
0.32647059 0.32647059 0.32647059
0.40882353 0.40882353 0.40882353
0.58137255 0.58137255 0.58137255
0.64509804 0.64509804 0.64509804
0.32843137 0.32843137 0.32843137
0.3817402 0.3817402 0.3817402
0.45588235 0.45588235 0.45588235
0.59558824 0.59558824 0.59558824
0.65098039 0.65098039 0.65098039
0.51372549 0.51372549 0.51372549
0.54877451 0.54877451 0.54877451
0.56764706 0.56764706 0.56764706
0.63210784 0.63210784 0.63210784
0.70392157 0.70392157 0.70392157
0.76960784 0.76960784 0.76960784
0.76813725 0.76813725 0.76813725
0.73137255 0.73137255 0.73137255
0.80392157 0.80392157 0.80392157
0.90490196 0.90490196 0.90490196
0.94509804 0.94509804 0.94509804
0.94117647 0.94117647 0.94117647
0.93431373 0.93431373 0.93431373
0.95294118 0.95294118 0.95294118
0.97254902 0.97254902 0.97254902
0.48529412 0.48529412 0.48529412
0.5245098 0.5245098 0.5245098
0.59362745 0.59362745 0.59362745
0.67843137 0.67843137 0.67843137
0.79411765 0.79411765 0.79411765
0.52058824 0.52058824 0.52058824
0.5627451 0.5627451 0.5627451
0.62745098 0.62745098 0.62745098
0.70171569 0.70171569 0.70171569
0.82745098 0.82745098 0.82745098
0.56078431 0.56078431 0.56078431
0.6 0.6 0.6
0.67034314 0.67034314 0.67034314
0.75637255 0.75637255 0.75637255
0.87254902 0.87254902 0.87254902
0.78529412 0.78529412 0.78529412
0.79473039 0.79473039 0.79473039
0.82303922 0.82303922 0.82303922
0.83553922 0.83553922 0.83553922
0.92058824 0.92058824 0.92058824
0.97647059 0.97647059 0.97647059
0.97745098 0.97745098 0.97745098
0.97009804 0.97009804 0.97009804
0.97647059 0.97647059 0.97647059
0.98039216 0.98039216 0.98039216
0.79215686 0.79215686 0.79215686
0.80882353 0.80882353 0.80882353
0.83333333 0.83333333 0.83333333
0.89509804 0.89509804 0.89509804
0.9254902 0.9254902 0.9254902
0.80784314 0.80784314 0.80784314
0.81642157 0.81642157 0.81642157
0.84509804 0.84509804 0.84509804
0.89509804 0.89509804 0.89509804
0.93333333 0.93333333 0.93333333
0.81372549 0.81372549 0.81372549
0.84166667 0.84166667 0.84166667
0.86862745 0.86862745 0.86862745
0.90686275 0.90686275 0.90686275
0.93921569 0.93921569 0.93921569
0.86568627 0.86568627 0.86568627
0.87328431 0.87328431 0.87328431
0.89313725 0.89313725 0.89313725
0.93921569 0.93921569 0.93921569
0.96862745 0.96862745 0.96862745
0.98431373 0.98431373 0.98431373
0.98431373 0.98431373 0.98431373
0.98823529 0.98823529 0.98823529
0.98039216 0.98039216 0.98039216
0.98431373 0.98431373 0.98431373
