site/assets/luts/natron-haldclut--goldfx-summer-heat--d33ebe832.cube
# LUTr-Project: LUTr — LUTrepository
# LUTr-Schema-Version: 1
# LUTr-ID: natron-haldclut--goldfx-summer-heat--d33ebe832
# LUTr-Title: goldfx summer heat
# LUTr-Collection: Natron HaldCLUT
# LUTr-Collection-ID: natron-haldclut-presets
# LUTr-Source: https://github.com/NatronGitHub/clut
# LUTr-Source-File: submissions/natron-haldclut-presets/picturefx/goldfx_summer_heat.png
# LUTr-Source-Format: PNG
# LUTr-Source-SHA256: 0987c67addf130ecd62f13cb77fd0d83308d7b3f936536b6b95600fb1ff27845
# LUTr-License: CC-BY-SA-4.0
# LUTr-License-URL: https://github.com/NatronGitHub/clut#license
# LUTr-Tags: creative, film, film-emulation, hald-clut, natron, png, cube
# LUTr-Transform-Class: film-emulation
# LUTr-Input-Color-Space: srgb
# LUTr-Output-Color-Space: srgb
# LUTr-Color-Space-Confidence: assumed-display-referred
# LUTr-Conversion-Method: PNG LUT image decoded at 16-bit and sampled to 25x25x25 3D CUBE
# LUTr-Conversion-Date: 2026-07-27
# LUTr-Conversion-Tool: LUTr scripts/convert-all-to-cube.mjs
# LUTr-Conversion-Grid: 25x25x25
# LUTr-Note: Preserve this metadata and the upstream license notices when redistributing.
TITLE "goldfx summer heat"
LUT_3D_SIZE 9
DOMAIN_MIN 0 0 0
DOMAIN_MAX 1 1 1
0.0039215686 0.02745098 0.058823529
0.053431373 0.027941176 0.043627451
0.1372549 0.030392157 0.034313725
0.30735294 0.025 0.053431373
0.54117647 0.0039215686 0.070588235
0.76421569 0.015686275 0.066666667
0.90294118 0.24607843 0.053921569
0.98823529 0.40980392 0.075490196
0.99607843 0.54509804 0.15686275
0.0078431373 0.065686275 0.070098039
0.050919118 0.06127451 0.027022059
0.14901961 0.070955882 0.035661765
0.31127451 0.063235294 0.053125
0.53897059 0.062254902 0.055392157
0.76176471 0.13841912 0.05
0.90882353 0.29497549 0.035784314
0.99215686 0.425 0.044607843
0.99607843 0.55147059 0.14852941
0.010784314 0.16176471 0.090196078
0.012254902 0.16041667 0.089215686
0.11862745 0.18039216 0.073529412
0.32058824 0.19473039 0.05245098
0.55588235 0.2127451 0.031862745
0.76090686 0.26813725 0.020588235
0.89583333 0.37352941 0.010784314
0.98872549 0.49019608 0.010784314
0.99607843 0.57941176 0.12941176
0.0078431373 0.34264706 0.082352941
0.0044117647 0.33872549 0.08627451
0.072671569 0.35441176 0.082720588
0.33333333 0.37702206 0.045159314
0.5875 0.40735294 0.0125
0.77150735 0.43339461 0.011764706
0.88921569 0.47156863 0.0089460784
0.97107843 0.55882353 0.0039215686
0.99607843 0.63235294 0.097058824
0.0039215686 0.55098039 0.066666667
0.0039215686 0.54509804 0.081862745
0.015196078 0.55833333 0.076470588
0.32647059 0.57254902 0.043382353
0.59803922 0.59019608 0.0049019608
0.77205882 0.6 0.011764706
0.8872549 0.60784314 0.0078431373
0.95784314 0.63823529 0.0078431373
0.99215686 0.6745098 0.011764706
0.029901961 0.71960784 0.12352941
0.049019608 0.71991422 0.12616422
0.27977941 0.72071078 0.14460784
0.45441176 0.71176471 0.12591912
0.63480392 0.72156863 0.10294118
0.7745098 0.73382353 0.03627451
0.87536765 0.73529412 0.01875
0.9526348 0.74344363 0.024203431
0.99215686 0.75343137 0.041666667
0.40686275 0.81764706 0.25098039
0.41948529 0.81764706 0.25196078
0.46102941 0.81078431 0.2620098
0.5754902 0.81470588 0.26764706
0.67843137 0.8254902 0.27303922
0.77303922 0.82254902 0.24362745
0.86568627 0.82573529 0.21838235
0.94203431 0.83431373 0.22242647
0.99215686 0.83823529 0.25588235
0.61764706 0.89117647 0.3872549
0.61372549 0.89117647 0.39852941
0.63664216 0.89117647 0.40245098
0.68890931 0.89136029 0.41029412
0.74215686 0.89117647 0.41421569
0.81145833 0.89509804 0.40931373
0.86911765 0.90036765 0.40784314
0.94215686 0.91078431 0.41519608
0.99215686 0.91470588 0.40637255
0.76470588 0.96078431 0.55294118
0.76960784 0.96519608 0.55784314
0.77156863 0.96078431 0.55196078
0.79852941 0.9622549 0.56470588
0.82156863 0.95686275 0.5627451
0.85637255 0.96078431 0.57254902
0.89901961 0.96862745 0.58137255
0.95392157 0.97696078 0.59705882
0.99215686 0.97254902 0.58823529
0.0039215686 0.02745098 0.081372549
0.037806373 0.023039216 0.069178922
0.13431373 0.03872549 0.085294118
0.29705882 0.050490196 0.11127451
0.54681373 0.026715686 0.12647059
0.76832108 0.11911765 0.13186275
0.91323529 0.29803922 0.11875
0.984375 0.43284314 0.14068627
0.99607843 0.54460784 0.20294118
0.0039215686 0.069607843 0.093137255
0.057352941 0.076907169 0.096997549
0.15643382 0.084252451 0.10070466
0.32832414 0.079411765 0.1127451
0.56568627 0.084344363 0.11231618
0.77352941 0.18445925 0.10735294
0.91262255 0.31441483 0.10790441
0.99172794 0.44803922 0.12107843
0.99607843 0.55545343 0.19852941
0.0039215686 0.18688725 0.10796569
0.016222426 0.17216605 0.11321998
0.15260417 0.18342525 0.10931373
0.36029412 0.21181066 0.10490196
0.58137255 0.2158701 0.080821078
0.77205882 0.28477328 0.062178309
0.90465686 0.38946078 0.04810049
0.98443627 0.49448529 0.071936275
0.99301471 0.57181373 0.16409314
0.0078431373 0.35410539 0.11403186
0.013909314 0.35757506 0.11662837
0.059620098 0.36251532 0.11090686
0.35630362 0.38529412 0.067156863
0.60857843 0.40441176 0.022120098
0.78344822 0.4233992 0.019301471
0.89705882 0.48615196 0.019117647
0.98556219 0.56564798 0.0088771446
0.99607843 0.6245098 0.12352941
0.0039215686 0.56078431 0.10392157
0.017156863 0.55340074 0.1120098
0.033088235 0.56011029 0.10196078
0.35931373 0.5765625 0.064797794
0.60747549 0.58921569 0.020220588
0.77981005 0.59411765 0.010692402
0.89307598 0.60882353 0.0078431373
0.9666973 0.64166667 0.019148284
0.99387255 0.67058824 0.032352941
0.035477941 0.71746324 0.13039216
0.0682981 0.71606924 0.13678768
0.22510723 0.70784314 0.14803922
0.4631204 0.71568627 0.15050551
0.63284314 0.72215074 0.10514706
0.77150735 0.7283701 0.061588542
0.88417586 0.73863358 0.027757353
0.96187194 0.74558824 0.0145144
0.99607843 0.75 0.053921569
0.41605392 0.81862745 0.25845588
0.4238511 0.81894914 0.25522365
0.47671569 0.81764706 0.26568627
0.57621017 0.82250306 0.28546262
0.67254902 0.82254902 0.28186275
0.76366422 0.82254902 0.25093444
0.86862745 0.82647059 0.2221201
0.94166667 0.83333333 0.22156863
0.98480392 0.83468137 0.25637255
0.61421569 0.89117647 0.38676471
0.61341146 0.89117647 0.39068627
0.63117341 0.89117647 0.39852941
0.68153339 0.89279259 0.41060049
0.74240196 0.89163603 0.4216299
0.80392157 0.89509804 0.41078431
0.87389706 0.89912684 0.4069087
0.94215686 0.90294118 0.39859069
0.98823529 0.91170343 0.40729167
0.74264706 0.95343137 0.52696078
0.76078431 0.96078431 0.54852941
0.77806373 0.96556373 0.5620098
0.78707108 0.95949755 0.5596201
0.82156863 0.96421569 0.57818627
0.85998775 0.96470588 0.58645833
0.89852941 0.9622549 0.56384804
0.94908088 0.96427696 0.57083333
0.98480392 0.97254902 0.58872549
0.014705882 0.049019608 0.15392157
0.067647059 0.065196078 0.15772059
0.12965686 0.069607843 0.15490196
0.29803922 0.049019608 0.17022059
0.55490196 0.01127451 0.19362745
0.79105392 0.087377451 0.20772059
0.92034314 0.35171569 0.23529412
0.97389706 0.47022059 0.25845588
0.99607843 0.57156863 0.29803922
0.0078431373 0.084436275 0.16654412
0.047426471 0.099509804 0.17282475
0.15931373 0.10428922 0.17928922
0.34456189 0.082337623 0.1810049
0.58382353 0.0094362745 0.18792892
0.8022212 0.18128064 0.21064645
0.91973039 0.35232843 0.22745098
0.98802083 0.47504596 0.24793199
0.99607843 0.57634804 0.29411765
0.0039215686 0.19803922 0.18210784
0.014705882 0.18468137 0.1859375
0.19944853 0.20569853 0.19307598
0.40481005 0.21400123 0.19077819
0.61727941 0.21078431 0.18480392
0.78848039 0.30284926 0.18367034
0.91568627 0.42052696 0.1908701
0.98079044 0.52328431 0.22564338
0.99607843 0.60490196 0.27867647
0.0084558824 0.38235294 0.19767157
0.022686887 0.38088235 0.19661458
0.11810662 0.38434436 0.19166667
0.40819547 0.39624694 0.18039216
0.62003676 0.39473039 0.14448529
0.79143689 0.42800245 0.12241115
0.90373775 0.50833333 0.13357843
0.97303922 0.588894 0.1722886
0.99215686 0.64276961 0.24607843
0.0024509804 0.5754902 0.18235294
0.0375 0.57352941 0.18860294
0.10036765 0.57254902 0.1810049
0.40496324 0.57377451 0.18284314
0.63137255 0.58039216 0.13627451
0.78627451 0.58897059 0.090379902
0.89607843 0.60906863 0.07745098
0.97303922 0.64276961 0.081004902
0.99215686 0.68186275 0.17990196
0.14362745 0.71176471 0.21470588
0.20874694 0.72144608 0.20939032
0.31424632 0.71666667 0.22564338
0.46852022 0.71415441 0.24460784
0.62696078 0.71960784 0.20980392
0.77303922 0.72990196 0.15735294
0.88382353 0.73137255 0.14359681
0.95614277 0.74010417 0.16106005
0.99215686 0.74705882 0.18835784
0.46691176 0.82156863 0.30196078
0.44019608 0.80983456 0.29509804
0.49362745 0.81446078 0.30214461
0.58970588 0.82074142 0.3239277
0.67671569 0.82156863 0.32647059
0.76617647 0.82254902 0.3064951
0.86960784 0.82573529 0.28259804
0.94607843 0.83333333 0.27990196
0.99215686 0.8372549 0.29926471
0.63247549 0.89166667 0.41323529
0.61335784 0.8872549 0.41193321
0.61663603 0.87941176 0.40514706
0.68435968 0.89117647 0.43057598
0.74264706 0.89295343 0.43376225
0.80307904 0.89509804 0.42683824
0.87303922 0.89923407 0.42892157
0.94215686 0.90294118 0.41617647
0.99473039 0.91470588 0.4254902
0.77058824 0.96568627 0.55882353
0.77659314 0.96629902 0.56482843
0.76102941 0.95612745 0.55220588
0.76973039 0.94901961 0.54264706
0.8245098 0.96421569 0.58333333
0.85637255 0.96470588 0.5872549
0.90073529 0.96568627 0.58137255
0.9495098 0.96127451 0.56838235
0.97254902 0.97254902 0.59117647
0.0014705882 0.070588235 0.24656863
0.11568627 0.092463235 0.25686275
0.22647059 0.10796569 0.26078431
0.37297794 0.13137255 0.27346814
0.54264706 0.093137255 0.2877451
0.7716299 0.058823529 0.30631127
0.92659314 0.30379902 0.32990196
0.9846201 0.47910539 0.36519608
0.99607843 0.64019608 0.4254902
0.030208333 0.11421569 0.26439951
0.087561275 0.12677696 0.26971507
0.22879902 0.15490196 0.27990196
0.39215686 0.17961091 0.28382353
0.57745098 0.10677083 0.29362745
0.78879442 0.041452206 0.30447304
0.9254902 0.2669424 0.32173713
0.98856464 0.48741575 0.36331955
0.99607843 0.63088235 0.41813725
0.006004902 0.21752451 0.28370098
0.025980392 0.21371017 0.28423713
0.21115196 0.22205882 0.29237132
0.45 0.27869179 0.30045956
0.63057598 0.24834559 0.3036152
0.80036765 0.28858762 0.30784314
0.93504902 0.39329044 0.32699142
0.98835784 0.56162684 0.36983762
0.99607843 0.62745098 0.39411765
0.010294118 0.40839461 0.29515931
0.0061963848 0.39754902 0.29908088
0.16698836 0.3872549 0.3
0.46856618 0.42130821 0.30784314
0.65707721 0.42254902 0.30119485
0.81037837 0.46975337 0.30147059
0.91130515 0.54192708 0.31176471
0.96637561 0.6158701 0.34784007
0.99607843 0.68333333 0.39074755
0.22941176 0.59338235 0.31642157
0.19705882 0.58137255 0.30818015
0.26599265 0.57696078 0.30294118
0.48553922 0.58584559 0.32083333
0.65183824 0.59656863 0.2939951
0.80833333 0.61102941 0.27325368
0.896875 0.61574755 0.25588235
0.96176471 0.66593137 0.29289216
0.99607843 0.71348039 0.34828431
0.4028799 0.71960784 0.334375
0.42107077 0.72383578 0.33829657
0.41698836 0.71499694 0.32961091
0.5285769 0.71926317 0.33768382
0.65885417 0.72671569 0.33627451
0.79117647 0.73382353 0.30931373
0.88492647 0.73529412 0.29094669
0.96329657 0.72990196 0.28026195
0.99607843 0.74558824 0.2814951
0.53566176 0.81764706 0.38186275
0.52847733 0.82241115 0.36675858
0.52503064 0.82000613 0.36599265
0.61666667 0.82610294 0.3904565
0.69589461 0.8254902 0.39307598
0.77627145 0.8254902 0.38468137
0.8734375 0.83002451 0.36881127
0.95145527 0.83333333 0.36286765
0.98823529 0.83431373 0.36078431
0.6653799 0.89295343 0.45753676
0.65177696 0.89121477 0.4657935
0.64134498 0.88002451 0.44607843
0.69393382 0.88939951 0.46226256
0.75 0.89509804 0.47745098
0.80654871 0.89821538 0.48167126
0.87365196 0.8990962 0.47352941
0.94260876 0.90296415 0.47025888
0.99215686 0.91078431 0.4713848
0.77254902 0.96078431 0.575
0.7776348 0.96341912 0.58155637
0.75723039 0.94718137 0.56066176
0.76525735 0.94417892 0.55686275
0.81764706 0.95955882 0.59534314
0.85484069 0.9622549 0.60392157
0.89901961 0.96286765 0.60110294
0.9473652 0.96697304 0.61011029
0.99460784 0.97892157 0.63480392
0.13333333 0.1254902 0.38039216
0.21985294 0.13872549 0.37647059
0.34803922 0.17156863 0.38039216
0.51813725 0.24338235 0.38946078
0.64509804 0.32058824 0.39411765
0.75710784 0.27598039 0.40735294
0.91470588 0.32892157 0.4372549
0.98431373 0.4747549 0.4495098
0.99607843 0.60784314 0.48627451
0.12794118 0.16813725 0.38406863
0.17401961 0.17898284 0.38431373
0.33216912 0.21096814 0.38688725
0.54019608 0.2989277 0.39215686
0.64681373 0.32879902 0.39779412
0.76151961 0.28872549 0.40857843
0.91341912 0.33529412 0.43382353
0.98431373 0.46911765 0.44978554
0.99607843 0.60147059 0.47647059
0.13186275 0.25735294 0.39754902
0.11721814 0.25275735 0.39981618
0.31115196 0.27843137 0.39803922
0.54454657 0.35140931 0.40808824
0.66568627 0.41568627 0.40710784
0.78676471 0.39068627 0.4223652
0.9127451 0.42181373 0.43468137
0.98112745 0.51568627 0.446875
0.99607843 0.61960784 0.48235294
0.026715686 0.42328431 0.40196078
0.016482843 0.42092525 0.40196078
0.18069853 0.40490196 0.40857843
0.48777574 0.45196078 0.41737132
0.67941176 0.49522059 0.42279412
0.81617647 0.50073529 0.43137255
0.92156863 0.54920343 0.43633578
0.97873775 0.63118873 0.46421569
0.99607843 0.71642157 0.51421569
0.23431373 0.59019608 0.41372549
0.2254902 0.58627451 0.41372549
0.27794118 0.58308824 0.41372549
0.49460784 0.59044118 0.42340686
0.68431373 0.61568627 0.43823529
0.81102941 0.64068627 0.42377451
0.90833333 0.65220588 0.41495098
0.96727941 0.70551471 0.44301471
0.99607843 0.74117647 0.48921569
0.45980392 0.71887255 0.43480392
0.45603554 0.71960784 0.43088235
0.45410539 0.71568627 0.42941176
0.56887255 0.72745098 0.43333333
0.69338235 0.73382353 0.43321078
0.8004902 0.7377451 0.41568627
0.8877451 0.73351716 0.39497549
0.96176471 0.73765319 0.39500613
0.98946078 0.75294118 0.41519608
0.63627451 0.82156863 0.47009804
0.6091299 0.81231618 0.46568627
0.61237745 0.82083333 0.45637255
0.64411765 0.82616422 0.45980392
0.70980392 0.8254902 0.46372549
0.79264706 0.82616422 0.47040441
0.87745098 0.83223039 0.44742647
0.95392157 0.82689951 0.43504902
0.98823529 0.82058824 0.43823529
0.71127451 0.89142157 0.52647059
0.71102941 0.89117647 0.53060662
0.69577206 0.89117647 0.51482843
0.71390931 0.89549632 0.51764706
0.75759804 0.89901961 0.53063725
0.81167279 0.90015319 0.53318015
0.88045343 0.90294118 0.53131127
0.95 0.90490196 0.52153799
0.99387255 0.9129902 0.52352941
0.78235294 0.9627451 0.60392157
0.78872549 0.96887255 0.61421569
0.76862745 0.94754902 0.59264706
0.77892157 0.95490196 0.60122549
0.81764706 0.96078431 0.61960784
0.86029412 0.96544118 0.64509804
0.9 0.96617647 0.64656863
0.94607843 0.9622549 0.63455882
0.99411765 0.97843137 0.65882353
0.30539216 0.1872549 0.50392157
0.35686275 0.19932598 0.4963848
0.47941176 0.25784314 0.50183824
0.64019608 0.32996324 0.50245098
0.74558824 0.49068627 0.50784314
0.81127451 0.51954657 0.51029412
0.8877451 0.50784314 0.52598039
0.96795343 0.54148284 0.54215686
0.98970588 0.59411765 0.55735294
0.3122549 0.24215686 0.50753676
0.3500383 0.25392157 0.50376072
0.48223039 0.27696078 0.51078431
0.63173254 0.37273284 0.50772825
0.74785539 0.50122549 0.51176471
0.81764706 0.52850031 0.51469822
0.89276961 0.51029412 0.52696078
0.96926317 0.53972886 0.54215686
0.99215686 0.60802696 0.55606618
0.31617647 0.33835784 0.51176471
0.3426011 0.34901961 0.51176471
0.46629902 0.35514706 0.51443015
0.61813725 0.43445159 0.51245404
0.73976716 0.5379902 0.5129902
0.82290135 0.57964154 0.52398897
0.89972426 0.5504902 0.52990196
0.97175245 0.56213235 0.54166667
0.99607843 0.61715686 0.55551471
0.24509804 0.465625 0.50784314
0.26549479 0.46372549 0.5091299
0.38713235 0.45813419 0.51476716
0.57981771 0.49475337 0.51963082
0.74139093 0.58480392 0.52598039
0.82702206 0.6498315 0.53604473
0.89143689 0.61470588 0.53382353
0.96794577 0.6298943 0.54741881
0.99215686 0.67947304 0.56672794
0.28063725 0.6 0.50441176
0.27999387 0.59249387 0.50637255
0.30306373 0.60098039 0.50637255
0.53026961 0.60196078 0.5245098
0.70747549 0.63676471 0.53615196
0.82598039 0.70125613 0.54509804
0.90281863 0.69246324 0.53651961
0.9640625 0.72245711 0.55530025
0.99142157 0.75612745 0.58333333
0.45833333 0.71813725 0.5151348
0.45588235 0.71568627 0.51561734
0.46870404 0.72352941 0.51855086
0.55210631 0.72745098 0.52990196
0.69534314 0.73651961 0.5377451
0.81617647 0.76799173 0.54466912
0.89607843 0.75660233 0.5277114
0.96568627 0.77194393 0.53883272
0.99215686 0.79117647 0.56090686
0.61176471 0.81470588 0.54901961
0.61079963 0.81470588 0.54318321
0.61443015 0.81838235 0.54408701
0.65006127 0.82571998 0.53872549
0.71666667 0.82310049 0.54626225
0.8004902 0.83333333 0.55363051
0.87827819 0.83039216 0.53235294
0.95352328 0.82383578 0.5189951
0.99607843 0.82757353 0.51409314
0.7254902 0.89509804 0.59626225
0.72303922 0.89509804 0.58823529
0.72898284 0.89848346 0.58739277
0.73775276 0.89901961 0.58179381
0.75980392 0.90324755 0.57784926
0.81519608 0.90195313 0.59282322
0.88039216 0.90335478 0.59656863
0.94215686 0.90637255 0.59028033
0.98431373 0.8995098 0.59264706
0.79215686 0.96078431 0.66176471
0.7995098 0.96421569 0.66568627
0.80539216 0.96470588 0.6689951
0.80539216 0.96470588 0.66323529
0.8125 0.95955882 0.65073529
0.84699755 0.95686275 0.66323529
0.89607843 0.96568627 0.68590686
0.94577206 0.96685049 0.69117647
0.97401961 0.9504902 0.66470588
0.52352941 0.33137255 0.62352941
0.54522059 0.34558824 0.61617647
0.62377451 0.39019608 0.61176471
0.73039216 0.46433824 0.61568627
0.80735294 0.5754902 0.62303922
0.86164216 0.67794118 0.62745098
0.90392157 0.69803922 0.63137255
0.94301471 0.67892157 0.63970588
0.99117647 0.70098039 0.66176471
0.51605392 0.36556373 0.62732843
0.53742341 0.37510723 0.61960784
0.61678922 0.40701593 0.61761642
0.72268689 0.48345588 0.61948529
0.80980392 0.58676471 0.62481618
0.86164216 0.67081801 0.63394608
0.90392157 0.68011642 0.63137255
0.95257353 0.67843137 0.63846507
0.98333333 0.68578431 0.64742647
0.51862745 0.43627451 0.62745098
0.53088235 0.43722426 0.62745098
0.60122549 0.47175245 0.62352941
0.69773284 0.52889093 0.62352941
0.80281863 0.60968137 0.62708333
0.86081495 0.70232843 0.63431373
0.90919118 0.71084559 0.63768382
0.94923407 0.67745098 0.62659314
0.98259804 0.69926471 0.64926471
0.52303922 0.54154412 0.62647059
0.52789522 0.54362745 0.62745098
0.55551471 0.53186275 0.62745098
0.66565564 0.57463235 0.62578125
0.7848652 0.64448529 0.62696078
0.8533701 0.72610294 0.63639706
0.9 0.73946078 0.64313725
0.94215686 0.71703431 0.6346201
0.98933824 0.72843137 0.66176471
0.4254902 0.63137255 0.60980392
0.41415441 0.63339461 0.60784314
0.44522059 0.63284314 0.61323529
0.57628676 0.64785539 0.61807598
0.75098039 0.6872549 0.63161765
0.84264706 0.73939951 0.64338235
0.90735294 0.77254902 0.64889706
0.94552696 0.75882353 0.64699755
0.98872549 0.7627451 0.66617647
0.48737745 0.73088235 0.61470588
0.47745098 0.72598039 0.61078431
0.49301471 0.72634804 0.61580882
0.55332414 0.72806373 0.61885723
0.65490196 0.72677696 0.62254902
0.80839461 0.76870404 0.6442402
0.90392157 0.80980392 0.66639093
0.96168811 0.80232843 0.66407782
0.98823529 0.80257353 0.66960784
0.61568627 0.82254902 0.62352941
0.61204044 0.82254902 0.62349877
0.6125 0.82254902 0.62745098
0.61479779 0.81862745 0.62490809
0.7004902 0.82156863 0.63357843
0.79656863 0.8314951 0.64672181
0.88823529 0.8375 0.65569853
0.96164216 0.84120711 0.64764093
0.98823529 0.85367647 0.65686275
0.71519608 0.89558824 0.66580882
0.71519608 0.89901961 0.6627451
0.71510417 0.89905025 0.67049632
0.71813725 0.89932598 0.6627451
0.75539216 0.89920343 0.66795343
0.81034007 0.90071998 0.67058824
0.88431373 0.9073223 0.67545956
0.95477941 0.91181066 0.675
0.99215686 0.90343137 0.67009804
0.80392157 0.96862745 0.73627451
0.8 0.96556373 0.73223039
0.79289216 0.96151961 0.73529412
0.79963235 0.96470588 0.73137255
0.81421569 0.96127451 0.72254902
0.84558824 0.95784314 0.72058824
0.89509804 0.95784314 0.73406863
0.94607843 0.97254902 0.75490196
0.98823529 0.97156863 0.75686275
0.66813725 0.50490196 0.72352941
0.68382353 0.52015931 0.73137255
0.725 0.55 0.73186275
0.79411765 0.60471814 0.73529412
0.85171569 0.68406863 0.7370098
0.89607843 0.74901961 0.74313725
0.92696078 0.80539216 0.7439951
0.96127451 0.80490196 0.75441176
0.98431373 0.79362745 0.7622549
0.66819853 0.53180147 0.73529412
0.67205882 0.53056066 0.72745098
0.725 0.56459865 0.73394608
0.78861826 0.61905637 0.73529412
0.85150123 0.69188113 0.7424326
0.89393382 0.74744179 0.74471507
0.92696078 0.79803922 0.74705882
0.95784314 0.79760263 0.74787071
0.97303922 0.78970588 0.75140931
0.66078431 0.57781863 0.73884804
0.66040135 0.57401961 0.73754596
0.71519608 0.59901961 0.73909314
0.7745098 0.63743873 0.73867953
0.84025735 0.69534314 0.74313725
0.88855699 0.76257659 0.74963235
0.92454044 0.80548407 0.74656863
0.95392157 0.79362745 0.74264706
0.96213235 0.78615196 0.73921569
0.66421569 0.63020833 0.73529412
0.66470588 0.64170496 0.73921569
0.6808364 0.64577206 0.74407169
0.75380668 0.67468597 0.73952206
0.8247549 0.71412377 0.73192402
0.88167892 0.77481618 0.74448529
0.92659314 0.82192096 0.75562194
0.9571921 0.82322304 0.75866268
0.98155637 0.80784314 0.76127451
0.62230392 0.70294118 0.73186275
0.62227328 0.69926471 0.73354779
0.6497549 0.69730392 0.73946078
0.71706495 0.71161152 0.74313725
0.79767157 0.73823529 0.74485294
0.86813725 0.78814338 0.75459559
0.92346814 0.83186275 0.76053922
0.95321691 0.82254902 0.75487132
0.98823529 0.83039216 0.77230392
0.51801471 0.75030637 0.71354167
0.5314951 0.74852941 0.71964614
0.5263174 0.74998468 0.71983762
0.58756127 0.75527727 0.72775735
0.71764706 0.77279412 0.74460784
0.82009804 0.7928462 0.75343137
0.91078431 0.84215686 0.77156863
0.96331955 0.85343137 0.77575827
0.98823529 0.85343137 0.78186275
0.61556373 0.82953431 0.7245098
0.6060049 0.82598039 0.72403493
0.61933211 0.83152574 0.74411765
0.6269761 0.83333333 0.7432598
0.68284314 0.8307598 0.74411765
0.76090686 0.82000613 0.74157475
0.88085172 0.8573223 0.77518382
0.95772059 0.89134498 0.79854473
0.98823529 0.88909314 0.79901961
0.70294118 0.90294118 0.74748775
0.7033701 0.90294118 0.75539216
0.70723039 0.90686275 0.77757353
0.69936428 0.90300245 0.77107843
0.72619485 0.89947917 0.76473652
0.77947304 0.89901961 0.76323529
0.86040135 0.89554228 0.77941176
0.94607843 0.91813725 0.80202206
0.99515931 0.92604167 0.825
0.76421569 0.95294118 0.79754902
0.76813725 0.95680147 0.79748775
0.77610294 0.96605392 0.80539216
0.77647059 0.96519608 0.80931373
0.79362745 0.96862745 0.80882353
0.83253676 0.96470588 0.80931373
0.89215686 0.97316176 0.82254902
0.94215686 0.97254902 0.83284314
0.99166667 0.98039216 0.84411765
0.77647059 0.69019608 0.84705882
0.79558824 0.72107843 0.86666667
0.80686275 0.71666667 0.85392157
0.84411765 0.74509804 0.85098039
0.88039216 0.77254902 0.84705882
0.91911765 0.81323529 0.85343137
0.95 0.84509804 0.85490196
0.97303922 0.87107843 0.85098039
0.98431373 0.88235294 0.85490196
0.77647059 0.70147059 0.85441176
0.77910539 0.70631127 0.85318627
0.79068627 0.69558824 0.83125
0.83707108 0.73621324 0.84356618
0.87647059 0.77009804 0.8370098
0.91666667 0.80931373 0.84852941
0.95 0.84411765 0.85098039
0.97696078 0.88327206 0.85925245
0.97696078 0.85980392 0.82843137
0.7754902 0.71960784 0.85490196
0.75759804 0.69607843 0.83419118
0.78946078 0.71593137 0.84019608
0.8377451 0.76041667 0.86029412
0.87647059 0.79166667 0.8622549
0.91127451 0.81323529 0.84705882
0.94313725 0.84044118 0.84117647
0.97401961 0.88296569 0.85257353
0.98039216 0.88529412 0.85686275
0.76470588 0.74362745 0.85882353
0.76470588 0.74509804 0.85882353
0.77414216 0.74620098 0.8560049
0.82297794 0.77591912 0.86758578
0.85882353 0.78406863 0.84019608
0.89748775 0.80643382 0.82408088
0.93884804 0.84656863 0.83235294
0.96911765 0.87058824 0.84313725
0.99215686 0.89264706 0.87156863
0.7372549 0.77058824 0.85686275
0.75245098 0.77230392 0.86813725
0.75098039 0.77401961 0.8627451
0.78602941 0.78210784 0.86593137
0.82745098 0.78823529 0.8372549
0.89509804 0.82892157 0.85759804
0.94607843 0.86568627 0.86862745
0.97254902 0.88039216 0.85441176
0.98627451 0.89411765 0.86666667
0.67598039 0.79607843 0.84901961
0.69178922 0.80128676 0.85698529
0.70612745 0.8057598 0.86985294
0.7158701 0.80441176 0.86341912
0.78529412 0.81323529 0.86029412
0.86666667 0.83676471 0.87843137
0.93321078 0.87156863 0.87598039
0.97518382 0.90980392 0.8877451
0.98970588 0.91519608 0.88137255
0.6627451 0.85294118 0.86372549
0.63811275 0.84914216 0.84558824
0.64803922 0.85220588 0.85588235
0.63284314 0.8432598 0.83872549
0.71078431 0.85098039 0.86078431
0.78002451 0.85735294 0.8754902
0.89215686 0.87941176 0.8872549
0.95735294 0.9064951 0.87928922
0.98823529 0.93333333 0.88921569
0.71078431 0.91862745 0.87843137
0.70386029 0.915625 0.89068627
0.70686275 0.91862745 0.89497549
0.70343137 0.91862745 0.89411765
0.72058824 0.91078431 0.87598039
0.76452206 0.90471814 0.88431373
0.83872549 0.90343137 0.89546569
0.93039216 0.92696078 0.89761029
0.97990196 0.94901961 0.89019608
0.77254902 0.97647059 0.90980392
0.76911765 0.97303922 0.90294118
0.75980392 0.96470588 0.91372549
0.77254902 0.97647059 0.91372549
0.77254902 0.96862745 0.89215686
0.79754902 0.95147059 0.89656863
0.87254902 0.9754902 0.91960784
0.93431373 0.97254902 0.91029412
0.97254902 0.98431373 0.94117647
