site/assets/luts/natron-haldclut--sunny-warm--c01398314.cube
# LUTr-Project: LUTr — LUTrepository
# LUTr-Schema-Version: 1
# LUTr-ID: natron-haldclut--sunny-warm--c01398314
# LUTr-Title: sunny warm
# LUTr-Collection: Natron HaldCLUT
# LUTr-Collection-ID: natron-haldclut-presets
# LUTr-Source: https://github.com/NatronGitHub/clut
# LUTr-Source-File: submissions/natron-haldclut-presets/various/sunny_warm.png
# LUTr-Source-Format: PNG
# LUTr-Source-SHA256: 351ea2bb5b33cf3647f669baf0b849b4e8b17be9d1e2ba403fb59de09d3916a2
# LUTr-License: CC-BY-SA-4.0
# LUTr-License-URL: https://github.com/NatronGitHub/clut#license
# LUTr-Tags: creative, film, film-emulation, hald-clut, natron, png, warm, cube
# LUTr-Transform-Class: film-emulation
# LUTr-Input-Color-Space: srgb
# LUTr-Output-Color-Space: srgb
# LUTr-Color-Space-Confidence: assumed-display-referred
# LUTr-Conversion-Method: PNG LUT image decoded at 16-bit and sampled to 25x25x25 3D CUBE
# LUTr-Conversion-Date: 2026-07-27
# LUTr-Conversion-Tool: LUTr scripts/convert-all-to-cube.mjs
# LUTr-Conversion-Grid: 25x25x25
# LUTr-Note: Preserve this metadata and the upstream license notices when redistributing.
TITLE "sunny warm"
LUT_3D_SIZE 25
DOMAIN_MIN 0 0 0
DOMAIN_MAX 1 1 1
0.015686275 0.019607843 0.011764706
0.052941176 0.023529412 0.028431373
0.098039216 0.02254902 0.047058824
0.14313725 0.023529412 0.039705882
0.18823529 0.021568627 0.019607843
0.23382353 0.024509804 0.016176471
0.28235294 0.032352941 0.020588235
0.32254902 0.030392157 0.015686275
0.38039216 0.047058824 0.02745098
0.42647059 0.055392157 0.023529412
0.49607843 0.10980392 0.023529412
0.53578431 0.11078431 0.02745098
0.5627451 0.088235294 0.02745098
0.59019608 0.064215686 0.020098039
0.63137255 0.088235294 0.030392157
0.67107843 0.11078431 0.037745098
0.70196078 0.090196078 0.023529412
0.7377451 0.085784314 0.011764706
0.78823529 0.11568627 0.010784314
0.82303922 0.12941176 0.01127451
0.83333333 0.10392157 0.0058823529
0.87303922 0.13137255 0.028431373
0.91764706 0.1627451 0.049019608
0.9495098 0.16470588 0.037745098
0.98039216 0.16078431 0.023529412
0.020098039 0.031862745 0.0088235294
0.073039216 0.05245098 0.02689951
0.12843137 0.070955882 0.044117647
0.17775735 0.078921569 0.043627451
0.22352941 0.07745098 0.03504902
0.27714461 0.087928922 0.040379902
0.31960784 0.091666667 0.02120098
0.34852941 0.078492647 0.015134804
0.38529412 0.078921569 0.015686275
0.434375 0.089276961 0.017218137
0.49607843 0.11703431 0.021078431
0.53823529 0.12469363 0.024816176
0.57303922 0.12083333 0.025490196
0.61029412 0.12058824 0.027267157
0.64117647 0.12169118 0.02745098
0.67591912 0.13039216 0.028370098
0.71323529 0.13235294 0.025980392
0.75833333 0.14417892 0.024509804
0.80036765 0.15686275 0.022303922
0.82677696 0.15784314 0.017463235
0.87818627 0.18406863 0.039215686
0.92928922 0.21458333 0.060968137
0.93688725 0.20833333 0.051960784
0.9495098 0.19803922 0.038664216
0.96372549 0.19166667 0.023529412
0.055882353 0.08627451 0.018627451
0.10404412 0.10294118 0.029534314
0.16004902 0.1245098 0.03995098
0.21139706 0.13737745 0.042279412
0.24901961 0.12696078 0.039215686
0.29644608 0.13259804 0.043995098
0.3495098 0.14362745 0.034313725
0.38468137 0.14460784 0.01875
0.40686275 0.13137255 0.01372549
0.45012255 0.1370098 0.017401961
0.51666667 0.16446078 0.02745098
0.54705882 0.15980392 0.023529412
0.59019608 0.17156863 0.02254902
0.62696078 0.17365196 0.022671569
0.66176471 0.17671569 0.025735294
0.69264706 0.17781863 0.026838235
0.73921569 0.19411765 0.028431373
0.78468137 0.21053922 0.031985294
0.81985294 0.21838235 0.048039216
0.8435049 0.21360294 0.040563725
0.87401961 0.21960784 0.040686275
0.91911765 0.24460784 0.057352941
0.92426471 0.23651961 0.050735294
0.93921569 0.22401961 0.027083333
0.95196078 0.21764706 0.010784314
0.062254902 0.12352941 0.0083333333
0.11960784 0.14785539 0.025980392
0.18137255 0.17218137 0.039215686
0.22849265 0.17892157 0.03627451
0.25637255 0.1627451 0.020343137
0.28235294 0.14601716 0.0029411765
0.34791667 0.17254902 0.023406863
0.39969363 0.19019608 0.030882353
0.45196078 0.20392157 0.041176471
0.52873775 0.24166667 0.068933824
0.51519608 0.19583333 0.021323529
0.56084559 0.20790441 0.029963235
0.60686275 0.21911765 0.019362745
0.64454657 0.2254902 0.016176471
0.67879902 0.22892157 0.023529412
0.71078431 0.23039216 0.021568627
0.75294118 0.24509804 0.027941176
0.78792892 0.253125 0.029227941
0.80379902 0.23946078 0.025735294
0.88976716 0.29718137 0.069607843
0.89142157 0.27769608 0.054411765
0.89558824 0.26127451 0.043627451
0.90845588 0.25392157 0.029901961
0.92892157 0.2495098 0.013235294
0.94509804 0.25588235 0.010294118
0.096078431 0.17647059 0.01372549
0.14215686 0.19632353 0.024019608
0.2004902 0.21666667 0.033333333
0.24313725 0.21960784 0.029901961
0.27254902 0.20490196 0.014705882
0.31004902 0.20073529 0.014215686
0.36323529 0.21911765 0.02745098
0.41446078 0.23284314 0.036029412
0.46470588 0.24705882 0.041176471
0.49142157 0.23651961 0.024754902
0.52303922 0.23529412 0.015196078
0.59362745 0.27156863 0.044607843
0.65392157 0.3 0.061764706
0.65416667 0.26985294 0.031127451
0.68480392 0.26862745 0.027941176
0.71691176 0.27279412 0.024754902
0.75294118 0.28235294 0.023529412
0.78382353 0.28946078 0.021568627
0.80294118 0.27843137 0.012254902
0.8370098 0.28504902 0.027696078
0.89313725 0.31862745 0.059803922
0.88848039 0.29338235 0.032352941
0.90392157 0.28823529 0.018137255
0.92990196 0.29901961 0.02254902
0.95098039 0.31372549 0.037254902
0.10588235 0.22156863 0.0073529412
0.16078431 0.24264706 0.015196078
0.21531863 0.25686275 0.018627451
0.25343137 0.25686275 0.01127451
0.29509804 0.25686275 0.01372549
0.33578431 0.25386029 0.019607843
0.38382353 0.26752451 0.029901961
0.42990196 0.27824755 0.035110294
0.46715686 0.28039216 0.030392157
0.50196078 0.28039216 0.020588235
0.52818627 0.27230392 0.006127451
0.58394608 0.29669118 0.025061275
0.63970588 0.31936275 0.046813725
0.65104167 0.29859069 0.030453431
0.67855392 0.29558824 0.031372549
0.71519608 0.30490196 0.031372549
0.75294118 0.31960784 0.02745098
0.78431373 0.32567402 0.014705882
0.81752451 0.33039216 0.0050245098
0.86476716 0.35441176 0.041176471
0.89093137 0.35955882 0.050735294
0.88970588 0.33033088 0.017585784
0.90379902 0.33026961 0.014583333
0.93609069 0.35490196 0.042830882
0.96176471 0.37156863 0.059803922
0.1372549 0.27647059 0.014705882
0.19007353 0.29595588 0.024019608
0.24705882 0.31176471 0.028431373
0.28480392 0.31213235 0.021936275
0.31666667 0.30343137 0.015196078
0.3495098 0.29803922 0.015686275
0.39411765 0.30563725 0.019607843
0.44914216 0.32512255 0.033823529
0.47352941 0.31470588 0.01372549
0.50906863 0.31838235 0.010661765
0.55784314 0.33529412 0.021568627
0.59289216 0.3370098 0.022916667
0.61127451 0.32352941 0.010294118
0.65821078 0.34044118 0.026470588
0.69387255 0.35098039 0.03504902
0.71715686 0.34264706 0.026960784
0.75294118 0.35392157 0.020588235
0.78958333 0.36654412 0.018627451
0.83333333 0.38529412 0.024264706
0.8754902 0.40980392 0.038602941
0.90784314 0.41617647 0.043627451
0.90772059 0.39558824 0.024509804
0.93504902 0.40490196 0.040441176
0.96654412 0.42426471 0.061519608
0.96862745 0.41666667 0.059803922
0.17156863 0.32892157 0.023529412
0.21617647 0.34656863 0.032352941
0.28713235 0.37340686 0.044607843
0.32598039 0.37401961 0.043321078
0.35220588 0.3629902 0.029656863
0.3754902 0.3495098 0.016666667
0.4060049 0.34914216 0.013357843
0.47469363 0.37818627 0.03247549
0.51078431 0.38186275 0.027941176
0.53247549 0.37120098 0.017769608
0.59068627 0.39889706 0.034436275
0.6372549 0.41568627 0.042156863
0.65637255 0.40392157 0.035784314
0.6872549 0.4091299 0.038541667
0.70453431 0.39644608 0.026960784
0.72297794 0.38780637 0.017218137
0.75441176 0.39411765 0.017156863
0.7995098 0.41133578 0.018137255
0.84460784 0.43235294 0.026960784
0.88431373 0.45441176 0.039031863
0.90808824 0.45588235 0.038970588
0.92726716 0.45606618 0.040196078
0.975 0.48186275 0.065686275
0.975 0.46574755 0.052941176
0.96862745 0.44362745 0.034803922
0.19215686 0.37647059 0.019607843
0.23921569 0.39411765 0.032352941
0.31666667 0.42647059 0.048039216
0.36715686 0.43578431 0.04754902
0.39215686 0.4254902 0.041176471
0.42107843 0.41960784 0.034803922
0.44509804 0.40980392 0.024509804
0.46029412 0.39313725 0.0049019608
0.54509804 0.44313725 0.039215686
0.55931373 0.42254902 0.02254902
0.60294118 0.43921569 0.029411765
0.66421569 0.46960784 0.05
0.67843137 0.45686275 0.049019608
0.68333333 0.43480392 0.029901961
0.7 0.4245098 0.0088235294
0.73137255 0.43284314 0.017156863
0.77254902 0.44705882 0.023529412
0.80980392 0.45735294 0.013235294
0.84705882 0.47156863 0.017647059
0.88088235 0.48578431 0.034803922
0.89019608 0.4745098 0.02745098
0.89215686 0.45637255 0.0093137255
0.94019608 0.4872549 0.043137255
0.96078431 0.4872549 0.034803922
0.96470588 0.46666667 0.0039215686
0.21029412 0.41519608 0.017156863
0.26372549 0.43376225 0.02935049
0.33321078 0.46176471 0.043504902
0.38235294 0.4754902 0.044607843
0.42205882 0.48063725 0.047058824
0.46421569 0.48737745 0.049509804
0.49840686 0.49056373 0.045098039
0.51084559 0.46911765 0.028492647
0.53284314 0.45931373 0.019607843
0.56329657 0.45741422 0.01317402
0.60134804 0.46507353 0.015196078
0.65 0.48382353 0.035784314
0.67720588 0.48259804 0.041421569
0.69197304 0.471875 0.020220588
0.72058824 0.475 0.018137255
0.75839461 0.49221814 0.036335784
0.78039216 0.48970588 0.02745098
0.81979167 0.50220588 0.029718137
0.86127451 0.51764706 0.02879902
0.90116422 0.5372549 0.032659314
0.91470588 0.53235294 0.026715686
0.91519608 0.51636029 0.028921569
0.93455882 0.52107843 0.044240196
0.95741422 0.52598039 0.043566176
0.96715686 0.5245098 0.034803922
0.22941176 0.45196078 0.0088235294
0.28284314 0.4689951 0.025245098
0.33651961 0.48529412 0.033578431
0.37843137 0.49558824 0.033333333
0.42107843 0.50098039 0.035784314
0.47352941 0.52071078 0.042647059
0.52573529 0.53848039 0.05
0.53933824 0.52340686 0.035294118
0.55 0.50098039 0.018627451
0.57512255 0.49411765 0.0099264706
0.60784314 0.49509804 0.0095588235
0.64644608 0.50698529 0.021936275
0.68186275 0.51568627 0.028431373
0.72303922 0.52892157 0.038357843
0.77671569 0.55808824 0.067156863
0.79313725 0.55392157 0.054901961
0.79411765 0.52647059 0.02745098
0.8122549 0.52120098 0.016053922
0.8620098 0.55098039 0.030637255
0.9060049 0.57365196 0.030514706
0.92009804 0.56813725 0.027941176
0.92377451 0.55490196 0.033823529
0.94534314 0.56495098 0.054166667
0.97144608 0.5817402 0.05245098
0.97843137 0.58235294 0.047058824
0.25245098 0.4995098 0.01127451
0.29019608 0.50422794 0.014705882
0.33345588 0.50968137 0.01629902
0.37800245 0.51617647 0.016666667
0.42107843 0.52205882 0.024019608
0.48431373 0.55245098 0.032352941
0.53051471 0.56764706 0.039338235
0.54264706 0.55116422 0.025
0.56029412 0.53529412 0.015686275
0.59068627 0.53529412 0.015196078
0.62071078 0.53529412 0.011764706
0.64944853 0.53572304 0.0083333333
0.69558824 0.55539216 0.024019608
0.73921569 0.57555147 0.040257353
0.78039216 0.59007353 0.048039216
0.80490196 0.59264706 0.044607843
0.81078431 0.57401961 0.02745098
0.82334559 0.56439951 0.020404412
0.86066176 0.58357843 0.023651961
0.88970588 0.59117647 0.024019608
0.90269608 0.58186275 0.019852941
0.91170343 0.57291667 0.01372549
0.94509804 0.59644608 0.035661765
0.98088235 0.62628676 0.040012255
0.99901961 0.63676471 0.039705882
0.30392157 0.54705882 0.017647059
0.325 0.54901961 0.018382353
0.35490196 0.54803922 0.014215686
0.39779412 0.55661765 0.012009804
0.44901961 0.57254902 0.019607843
0.50073529 0.59338235 0.029656863
0.54656863 0.60833333 0.036764706
0.56568627 0.59387255 0.036519608
0.58235294 0.57843137 0.025490196
0.60220588 0.56936275 0.013235294
0.63284314 0.56960784 0.011764706
0.66691176 0.57990196 0.01372549
0.70294118 0.59117647 0.011764706
0.73921569 0.60441176 0.020833333
0.78039216 0.61911765 0.035784314
0.81715686 0.63186275 0.035294118
0.82941176 0.62352941 0.033333333
0.84534314 0.61813725 0.032598039
0.85931373 0.61323529 0.019607843
0.87720588 0.61348039 0.013235294
0.90196078 0.61568627 0.029411765
0.91911765 0.61446078 0.018382353
0.95294118 0.63823529 0.037254902
0.98039216 0.65931373 0.046813725
0.9745098 0.64313725 0.029411765
0.34607843 0.59019608 0.019607843
0.34901961 0.59019608 0.019914216
0.38713235 0.59901961 0.024019608
0.42745098 0.60588235 0.016666667
0.46936275 0.61348039 0.0095588235
0.51268382 0.62591912 0.027941176
0.55735294 0.63664216 0.042156863
0.59460784 0.63970588 0.05
0.60539216 0.6254902 0.035784314
0.61550245 0.60520833 0.013051471
0.64803922 0.61078431 0.015808824
0.68529412 0.62107843 0.019607843
0.71666667 0.62941176 0.014460784
0.74748775 0.63731618 0.01317402
0.78480392 0.65147059 0.030392157
0.81323529 0.65833333 0.033333333
0.82303922 0.64411765 0.023039216
0.86317402 0.66237745 0.042769608
0.88357843 0.66703431 0.041176471
0.89454657 0.66078431 0.025
0.92254902 0.66544118 0.029411765
0.94362745 0.67444853 0.044178922
0.9745098 0.69473039 0.058823529
0.97401961 0.68382353 0.05245098
0.96470588 0.66078431 0.032352941
0.36764706 0.63137255 0.023529412
0.38272059 0.63676471 0.03247549
0.42745098 0.65098039 0.045098039
0.4622549 0.65220588 0.034313725
0.49019608 0.65098039 0.014705882
0.52218137 0.65343137 0.024509804
0.56446078 0.66372549 0.039215686
0.60906863 0.67365196 0.056004902
0.62941176 0.66666667 0.053921569
0.64154412 0.65036765 0.030514706
0.66568627 0.64901961 0.016666667
0.70208333 0.65931373 0.019607843
0.73431373 0.66862745 0.026470588
0.75992647 0.67463235 0.022181373
0.78921569 0.68014706 0.023529412
0.80931373 0.68002451 0.024509804
0.8254902 0.6745098 0.02254902
0.86691176 0.69828431 0.042769608
0.89779412 0.70857843 0.052696078
0.91262255 0.7067402 0.037009804
0.93137255 0.70637255 0.028431373
0.95245098 0.71458333 0.046078431
0.98333333 0.73529412 0.066666667
0.97892157 0.72647059 0.064828431
0.96862745 0.70588235 0.046078431
0.37794118 0.67107843 0.023529412
0.40490196 0.67352941 0.031433824
0.44816176 0.68529412 0.046568627
0.47843137 0.68137255 0.042647059
0.51470588 0.68946078 0.031127451
0.54166667 0.6908701 0.023039216
0.5682598 0.68676471 0.036397059
0.61666667 0.7 0.053921569
0.64460784 0.69705882 0.057352941
0.66813725 0.69454657 0.042095588
0.67904412 0.68002451 0.011519608
0.70980392 0.68970588 0.017340686
0.74460784 0.7004902 0.026715686
0.77107843 0.70637255 0.022855392
0.7935049 0.70821078 0.015073529
0.81470588 0.71329657 0.023529412
0.83676471 0.71421569 0.025980392
0.86286765 0.71973039 0.033026961
0.88860294 0.72696078 0.035294118
0.90214461 0.72322304 0.028921569
0.91617647 0.71789216 0.020588235
0.93676471 0.72352941 0.024816176
0.95980392 0.73627451 0.037132353
0.96770833 0.73927696 0.045588235
0.96862745 0.73627451 0.041666667
0.39215686 0.70588235 0.023529412
0.4127451 0.6995098 0.013235294
0.45588235 0.71078431 0.024509804
0.5 0.72107843 0.031372549
0.53137255 0.72156863 0.019607843
0.5627451 0.72598039 0.016666667
0.60098039 0.73333333 0.037254902
0.6372549 0.7372549 0.053921569
0.6627451 0.73333333 0.050980392
0.68480392 0.73088235 0.039705882
0.70882353 0.7254902 0.02254902
0.72843137 0.7254902 0.015686275
0.75294118 0.73137255 0.019607843
0.77745098 0.73333333 0.019117647
0.79803922 0.7372549 0.015686275
0.81862745 0.7372549 0.011764706
0.83921569 0.74117647 0.011764706
0.85735294 0.73872549 0.013235294
0.87647059 0.74117647 0.011764706
0.9004902 0.74803922 0.019117647
0.91764706 0.74705882 0.019607843
0.93823529 0.75343137 0.023529412
0.95196078 0.75686275 0.02254902
0.9622549 0.76078431 0.023529412
0.96470588 0.76078431 0.023529412
0.40588235 0.73529412 0.010294118
0.45006127 0.74466912 0.023590686
0.48860294 0.75196078 0.020588235
0.52696078 0.76096814 0.023529412
0.55906863 0.76470588 0.021323529
0.58694853 0.76421569 0.020955882
0.62205882 0.76862745 0.035906863
0.65539216 0.77052696 0.04754902
0.68333333 0.77205882 0.047058824
0.70238971 0.76813725 0.035232843
0.7245098 0.76813725 0.020098039
0.74656863 0.76685049 0.019301471
0.76446078 0.76470588 0.01495098
0.78253676 0.76292892 0.0083333333
0.80686275 0.76666667 0.016053922
0.82745098 0.76911765 0.015196078
0.84411765 0.76666667 0.0049019608
0.865625 0.77058824 0.01182598
0.88970588 0.77708333 0.019240196
0.92352941 0.79803922 0.041666667
0.94411765 0.80441176 0.046568627
0.95618873 0.80618873 0.037561275
0.9689951 0.80833333 0.033823529
0.97261029 0.80594363 0.04754902
0.96715686 0.79166667 0.022058824
0.4372549 0.77156863 0.020588235
0.47512255 0.78186275 0.023529412
0.51568627 0.79534314 0.017647059
0.55208333 0.79901961 0.023039216
0.57745098 0.79852941 0.031862745
0.60539216 0.79767157 0.032965686
0.63333333 0.79509804 0.024509804
0.66004902 0.79485294 0.021691176
0.70392157 0.8127451 0.043137255
0.73088235 0.81752451 0.039215686
0.74240196 0.80735294 0.019852941
0.77585784 0.81715686 0.032352941
0.80196078 0.81960784 0.03872549
0.82058824 0.82156863 0.038848039
0.84068627 0.82254902 0.050245098
0.85343137 0.81421569 0.045098039
0.86372549 0.80784314 0.026470588
0.88382353 0.81029412 0.022671569
0.91642157 0.82647059 0.043872549
0.95245098 0.84901961 0.068382353
0.96372549 0.85 0.06372549
0.97303922 0.85379902 0.049509804
0.97941176 0.8497549 0.039215686
0.975 0.83860294 0.037745098
0.96862745 0.82647059 0.031372549
0.46127451 0.80588235 0.026960784
0.50030637 0.81795343 0.032169118
0.53627451 0.82696078 0.023039216
0.58609069 0.85275735 0.030392157
0.6 0.83676471 0.025245098
0.62310049 0.8254902 0.027022059
0.64803922 0.82598039 0.024387255
0.67941176 0.83235294 0.031556373
0.72843137 0.85343137 0.050490196
0.74381127 0.84558824 0.035294118
0.77291667 0.85147059 0.031862745
0.82352941 0.88192402 0.046078431
0.82696078 0.86519608 0.039705882
0.81286765 0.83443627 0.017279412
0.82916667 0.83137255 0.024142157
0.85784314 0.84215686 0.034803922
0.87401961 0.84166667 0.019607843
0.89834559 0.84803922 0.024509804
0.92892157 0.86409314 0.044607843
0.9627451 0.8872549 0.058823529
0.97205882 0.88651961 0.053431373
0.96868873 0.87303922 0.04307598
0.96813725 0.8622549 0.035416667
0.96911765 0.86029412 0.034007353
0.96862745 0.85392157 0.031372549
0.49607843 0.84313725 0.033333333
0.51789216 0.84828431 0.030882353
0.55441176 0.85931373 0.029901961
0.61151961 0.8872549 0.035294118
0.64901961 0.89411765 0.038235294
0.67132353 0.88431373 0.039705882
0.66813725 0.85833333 0.027941176
0.70980392 0.87352941 0.053921569
0.73137255 0.87254902 0.043137255
0.73333333 0.85196078 0.013480392
0.77156863 0.86568627 0.021078431
0.82941176 0.90294118 0.038970588
0.8254902 0.88235294 0.025490196
0.81642157 0.85833333 0.0095588235
0.83676471 0.85980392 0.014215686
0.86642157 0.87009804 0.02622549
0.88823529 0.87254902 0.021568627
0.90098039 0.87254902 0.022794118
0.92205882 0.87843137 0.032352941
0.97794118 0.92745098 0.044852941
0.96862745 0.90588235 0.040196078
0.94901961 0.87598039 0.031127451
0.95392157 0.87401961 0.031372549
0.95955882 0.86789216 0.019362745
0.96666667 0.8745098 0.021568627
0.50588235 0.86764706 0.018627451
0.55098039 0.88872549 0.033333333
0.60269608 0.91004902 0.043627451
0.6221201 0.89859069 0.034803922
0.66078431 0.90808824 0.037009804
0.69522059 0.91868873 0.040747549
0.67708333 0.88296569 0.019607843
0.71011029 0.88676471 0.029718137
0.73431373 0.8877451 0.023529412
0.76568627 0.89460784 0.027941176
0.79203431 0.90122549 0.025735294
0.80790441 0.89914216 0.01629902
0.8245098 0.8995098 0.017892157
0.84509804 0.9 0.024448529
0.86188725 0.9 0.019730392
0.88235294 0.90520833 0.023223039
0.90294118 0.90784314 0.027941176
0.90686275 0.89754902 0.023345588
0.91029412 0.88676471 0.01004902
0.93786765 0.90404412 0.035355392
0.95661765 0.91593137 0.033333333
0.94160539 0.88768382 0.023468137
0.94803922 0.89117647 0.026102941
0.95655637 0.88756127 0.018321078
0.96029412 0.89117647 0.024019608
0.53921569 0.91470588 0.020588235
0.60845588 0.95514706 0.054411765
0.62647059 0.94338235 0.041421569
0.61017157 0.89387255 0.0125
0.65539216 0.91127451 0.029901961
0.68664216 0.91997549 0.038235294
0.69411765 0.90392157 0.020588235
0.72058824 0.90882353 0.01372549
0.76960784 0.93235294 0.037254902
0.82009804 0.95968137 0.063602941
0.84166667 0.96102941 0.062009804
0.82732843 0.93272059 0.027941176
0.83578431 0.92303922 0.020588235
0.85294118 0.92107843 0.024509804
0.87279412 0.92745098 0.019852941
0.89718137 0.93455882 0.022181373
0.92352941 0.94901961 0.042156863
0.92892157 0.94019608 0.036887255
0.92058824 0.91985294 0.024509804
0.9317402 0.9185049 0.022426471
0.95392157 0.92647059 0.031372549
0.94767157 0.91519608 0.020098039
0.94583333 0.91176471 0.01372549
0.95 0.91176471 0.017156863
0.95392157 0.91176471 0.02745098
0.55441176 0.93480392 0.018137255
0.6004902 0.9533701 0.034803922
0.61642157 0.93504902 0.021936275
0.64362745 0.93284314 0.015379902
0.67107843 0.9372549 0.029411765
0.68872549 0.93186275 0.038051471
0.7245098 0.94215686 0.032843137
0.76078431 0.95091912 0.027941176
0.80294118 0.96911765 0.050980392
0.83088235 0.97555147 0.062806373
0.83345588 0.96127451 0.045098039
0.82647059 0.94001225 0.010294118
0.85147059 0.94558824 0.029656863
0.85992647 0.94050245 0.025306373
0.86470588 0.93235294 0.013480392
0.89761029 0.94411765 0.027389706
0.92941176 0.96470588 0.047058824
0.93909314 0.9622549 0.044607843
0.94546569 0.95772059 0.035784314
0.96390931 0.96390931 0.028921569
0.96740196 0.95735294 0.029411765
0.95392157 0.93970588 0.018627451
0.94215686 0.92683824 0.0013480392
0.94748775 0.92990196 0.010232843
0.95294118 0.93382353 0.019607843
0.55686275 0.94117647 0.0039215686
0.59166667 0.94754902 0.014215686
0.63235294 0.95882353 0.015686275
0.68382353 0.98284314 0.012254902
0.70784314 0.97647059 0.041176471
0.73823529 0.98039216 0.073039216
0.76176471 0.98333333 0.049019608
0.79509804 0.99068627 0.036764706
0.80784314 0.98039216 0.043137255
0.82205882 0.97009804 0.047058824
0.82352941 0.95588235 0.029411765
0.82352941 0.94166667 0.0088235294
0.87254902 0.96666667 0.045098039
0.91372549 0.98480392 0.066666667
0.86470588 0.9372549 0.010784314
0.89607843 0.94803922 0.028921569
0.92941176 0.96078431 0.043137255
0.93333333 0.95833333 0.044607843
0.95490196 0.97058824 0.039215686
0.98284314 0.99117647 0.035784314
0.97254902 0.97254902 0.029411765
0.95637255 0.94803922 0.019117647
0.94215686 0.92745098 0.0049019608
0.94901961 0.93627451 0.0093137255
0.95686275 0.94901961 0.015686275
0.025980392 0.033823529 0.034803922
0.057781863 0.028370098 0.039644608
0.091666667 0.016176471 0.044117647
0.14234069 0.022732843 0.04185049
0.20098039 0.035784314 0.047058824
0.25569853 0.04375 0.052941176
0.31715686 0.064338235 0.062745098
0.38106618 0.085906863 0.077512255
0.39117647 0.056372549 0.045588235
0.42591912 0.047855392 0.034252451
0.48125 0.077328431 0.041176471
0.52910539 0.089276961 0.044117647
0.56151961 0.079901961 0.044117647
0.60471814 0.087745098 0.054718137
0.64362745 0.094730392 0.058210784
0.66862745 0.095588235 0.044117647
0.69803922 0.083823529 0.029901961
0.74656863 0.11127451 0.038786765
0.81237745 0.14252451 0.065441176
0.85355392 0.15502451 0.069730392
0.84411765 0.11960784 0.038235294
0.8838848 0.13921569 0.044056373
0.90992647 0.14473039 0.047058824
0.9401348 0.15042892 0.043504902
0.97892157 0.17352941 0.064705882
0.023468137 0.040134804 0.030821078
0.075467218 0.0557981 0.04475337
0.12604167 0.064414828 0.053860294
0.17873775 0.075980392 0.055093444
0.23290441 0.085784314 0.059589461
0.28137255 0.091237745 0.061711091
0.33717831 0.10401348 0.066498162
0.38567708 0.11259957 0.068344056
0.40398284 0.095526961 0.043566176
0.43621324 0.090908395 0.029779412
0.49908088 0.11842831 0.048238358
0.53816636 0.11880362 0.043619792
0.57306985 0.11963848 0.044883578
0.60759038 0.11954657 0.047671569
0.64540441 0.12545956 0.043474265
0.6807981 0.13096661 0.037132353
0.71764706 0.13639706 0.03939951
0.751731 0.14186581 0.036680453
0.7803462 0.14227941 0.030438113
0.81362592 0.14780944 0.029810049
0.87068015 0.18033088 0.053094363
0.92286305 0.20700061 0.071216299
0.9254902 0.19142157 0.056556373
0.93887102 0.18471967 0.048383885
0.96617647 0.20196078 0.059865196
0.052083333 0.085784314 0.035416667
0.10562194 0.10706189 0.049402574
0.16688113 0.13072917 0.061764706
