site/assets/luts/natron-haldclut--fuji-160c---c3201a506.cube
# LUTr-Project: LUTr — LUTrepository
# LUTr-Schema-Version: 1
# LUTr-ID: natron-haldclut--fuji-160c---c3201a506
# LUTr-Title: fuji 160c -
# LUTr-Collection: Natron HaldCLUT
# LUTr-Collection-ID: natron-haldclut-presets
# LUTr-Source: https://github.com/NatronGitHub/clut
# LUTr-Source-File: submissions/natron-haldclut-presets/negative_new/fuji_160c_-.png
# LUTr-Source-Format: PNG
# LUTr-Source-SHA256: dc94fec0dff369a1575f77fd8dd80a3f0e41e19da0d5c3a275e6d57eb322ecfa
# LUTr-License: CC-BY-SA-4.0
# LUTr-License-URL: https://github.com/NatronGitHub/clut#license
# LUTr-Tags: creative, film, film-emulation, hald-clut, natron, png, cube
# LUTr-Transform-Class: film-emulation
# LUTr-Input-Color-Space: srgb
# LUTr-Output-Color-Space: srgb
# LUTr-Color-Space-Confidence: assumed-display-referred
# LUTr-Conversion-Method: PNG LUT image decoded at 16-bit and sampled to 25x25x25 3D CUBE
# LUTr-Conversion-Date: 2026-07-27
# LUTr-Conversion-Tool: LUTr scripts/convert-all-to-cube.mjs
# LUTr-Conversion-Grid: 25x25x25
# LUTr-Note: Preserve this metadata and the upstream license notices when redistributing.
TITLE "fuji 160c -"
LUT_3D_SIZE 5
DOMAIN_MIN 0 0 0
DOMAIN_MAX 1 1 1
0 0 0
0.29313725 0.0078431373 0.031372549
0.60980392 0.0039215686 0.015686275
0.85 0.0068627451 0.026470588
0.96470588 0.21568627 0.070588235
0.0039215686 0.26960784 0.015686275
0.21960784 0.27745098 0.023529412
0.60735294 0.25686275 0.0044117647
0.83431373 0.2752451 0.0071078431
0.99705882 0.36176471 0.044117647
0 0.5372549 0.0078431373
0.076470588 0.52941176 0.04754902
0.50784314 0.52941176 0.0088235294
0.77843137 0.52941176 0.0078431373
0.97254902 0.5627451 0.0058823529
0.0039215686 0.73627451 0.17058824
0.12941176 0.72843137 0.17745098
0.46470588 0.7245098 0.17009804
0.70882353 0.72867647 0.14705882
0.95098039 0.77352941 0.12647059
0.20784314 0.96078431 0.35294118
0.31470588 0.96372549 0.35980392
0.5 0.95490196 0.38235294
0.70588235 0.94509804 0.36862745
0.92941176 0.98431373 0.41568627
0.031372549 0.051960784 0.2627451
0.31176471 0.022303922 0.25784314
0.63137255 0.011764706 0.25686275
0.84289216 0.17647059 0.29411765
0.99215686 0.31568627 0.3245098
0.012745098 0.29828431 0.27671569
0.32916667 0.30784314 0.28137255
0.61605392 0.30061275 0.29117647
0.83020833 0.33823529 0.29074755
0.98921569 0.40171569 0.30269608
0.095588235 0.55490196 0.29313725
0.27328431 0.55 0.29019608
0.54313725 0.53921569 0.27598039
0.7810049 0.54080882 0.25784314
0.97647059 0.5745098 0.24558824
0.068627451 0.74117647 0.30686275
0.25765931 0.73235294 0.31397059
0.4877451 0.7245098 0.30784314
0.72113971 0.73982843 0.30765931
0.94803922 0.77181373 0.29632353
0.20392157 0.96372549 0.40980392
0.31078431 0.95098039 0.4127451
0.49460784 0.95392157 0.43431373
0.70882353 0.97034314 0.4497549
0.91960784 0.9627451 0.45882353
0.21176471 0.092156863 0.53921569
0.36666667 0.10882353 0.53333333
0.62843137 0.1372549 0.53921569
0.84215686 0.16029412 0.5254902
0.96470588 0.27254902 0.53921569
0.21764706 0.30441176 0.52745098
0.38676471 0.32340686 0.54068627
0.62794118 0.34926471 0.55367647
0.82892157 0.35196078 0.53713235
0.99215686 0.41617647 0.55490196
0.21176471 0.55392157 0.54313725
0.37279412 0.56568627 0.55098039
0.59362745 0.57058824 0.55098039
0.79656863 0.57769608 0.55416667
0.98823529 0.59705882 0.54901961
0.31372549 0.76078431 0.55882353
0.39019608 0.76372549 0.55183824
0.53504902 0.75392157 0.5372549
0.73970588 0.75085784 0.52156863
0.96862745 0.77401961 0.51372549
0.21764706 0.96470588 0.56078431
0.30441176 0.9377451 0.55294118
0.49509804 0.95882353 0.56666667
0.70294118 0.96323529 0.57696078
0.9254902 0.97058824 0.59215686
0.42745098 0.20980392 0.74411765
0.50686275 0.23627451 0.75269608
0.67352941 0.27009804 0.75588235
0.84534314 0.31568627 0.76544118
0.98431373 0.33921569 0.74803922
0.40857843 0.34313725 0.74191176
0.50612745 0.35490196 0.74957108
0.66997549 0.38823529 0.75588235
0.83118873 0.42352941 0.76004902
0.99215686 0.42941176 0.75294118
0.30294118 0.51470588 0.72058824
0.41960784 0.52340686 0.72928922
0.61372549 0.55882353 0.74436275
0.81519608 0.59129902 0.76936275
0.97352941 0.59803922 0.75637255
0.30588235 0.76078431 0.74901961
0.39356618 0.76789216 0.75686275
0.5627451 0.75245098 0.75012255
0.78633578 0.78333333 0.77530637
0.98039216 0.78014706 0.75808824
0.33333333 0.98627451 0.78333333
0.40980392 0.97745098 0.77941176
0.55490196 0.97254902 0.7754902
0.72647059 0.97352941 0.76372549
0.94901961 0.9627451 0.77156863
0.61960784 0.42352941 0.96470588
0.66568627 0.42745098 0.96568627
0.75686275 0.45882353 0.96078431
0.88431373 0.48431373 0.93823529
0.99607843 0.5372549 0.97647059
0.60490196 0.47647059 0.95294118
0.64534314 0.48823529 0.95294118
0.75196078 0.51862745 0.96911765
0.88039216 0.55269608 0.95833333
0.99607843 0.57941176 0.96960784
0.5254902 0.59411765 0.96470588
0.57843137 0.60392157 0.96078431
0.71078431 0.62745098 0.9627451
0.85735294 0.66372549 0.96421569
0.99215686 0.68627451 0.97058824
0.3754902 0.75980392 0.96078431
0.43946078 0.74877451 0.94534314
0.58039216 0.75539216 0.96519608
0.79509804 0.78333333 0.95661765
0.99705882 0.83431373 0.97745098
0.34117647 0.98039216 0.98039216
0.40294118 0.97352941 0.9627451
0.55686275 0.95686275 0.95882353
0.76470588 0.94509804 0.97647059
0.99215686 0.99215686 0.99215686
