site/assets/luts/natron-haldclut--light-blown--0ef22462f.cube
# LUTr-Project: LUTr — LUTrepository
# LUTr-Schema-Version: 1
# LUTr-ID: natron-haldclut--light-blown--0ef22462f
# LUTr-Title: light blown
# LUTr-Collection: Natron HaldCLUT
# LUTr-Collection-ID: natron-haldclut-presets
# LUTr-Source: https://github.com/NatronGitHub/clut
# LUTr-Source-File: submissions/natron-haldclut-presets/various/light_blown.png
# LUTr-Source-Format: PNG
# LUTr-Source-SHA256: e2a7a821235cbf322de8bd958015b8b1a793df1f4d394bf173423f06ae124106
# LUTr-License: CC-BY-SA-4.0
# LUTr-License-URL: https://github.com/NatronGitHub/clut#license
# LUTr-Tags: creative, film, film-emulation, hald-clut, natron, png, cube
# LUTr-Transform-Class: film-emulation
# LUTr-Input-Color-Space: srgb
# LUTr-Output-Color-Space: srgb
# LUTr-Color-Space-Confidence: assumed-display-referred
# LUTr-Conversion-Method: PNG LUT image decoded at 16-bit and sampled to 25x25x25 3D CUBE
# LUTr-Conversion-Date: 2026-07-27
# LUTr-Conversion-Tool: LUTr scripts/convert-all-to-cube.mjs
# LUTr-Conversion-Grid: 25x25x25
# LUTr-Note: Preserve this metadata and the upstream license notices when redistributing.
TITLE "light blown"
LUT_3D_SIZE 9
DOMAIN_MIN 0 0 0
DOMAIN_MAX 1 1 1
0.019607843 0.050980392 0.0039215686
0.10392157 0.0039215686 0.023039216
0.21960784 0.0088235294 0.035294118
0.36372549 0.012745098 0.071568627
0.50980392 0.041176471 0.12941176
0.60392157 0.036764706 0.1254902
0.6 0.031372549 0.1254902
0.6 0.035294118 0.12156863
0.59607843 0.031372549 0.11764706
0.056862745 0.12303922 0.041176471
0.12696078 0.11960784 0.065257353
0.24607843 0.096568627 0.073529412
0.37598039 0.083823529 0.095588235
0.49705882 0.083823529 0.12426471
0.61256127 0.055882353 0.13204657
0.6 0.030882353 0.1254902
0.60392157 0.046568627 0.12849265
0.59607843 0.035294118 0.11764706
0.16176471 0.28529412 0.12745098
0.18088235 0.27794118 0.12696078
0.29705882 0.26642157 0.14901961
0.4245098 0.25330882 0.17205882
0.55098039 0.24215686 0.19607843
0.67830882 0.23333333 0.22303922
0.70661765 0.2127451 0.22058824
0.68982843 0.17794118 0.20098039
0.66666667 0.13921569 0.18039216
0.27254902 0.45784314 0.21519608
0.26617647 0.45018382 0.20753676
0.35784314 0.43284314 0.22598039
0.47745098 0.41372549 0.24564951
0.60171569 0.4004902 0.26691176
0.72058824 0.39656863 0.29509804
0.82659314 0.38382353 0.31617647
0.80539216 0.35147059 0.29754902
0.79019608 0.3245098 0.28431373
0.39215686 0.63921569 0.31176471
0.38088235 0.62598039 0.30416667
0.41372549 0.59019608 0.2995098
0.53529412 0.57916667 0.3247549
0.65490196 0.56862745 0.34803922
0.7745098 0.56862745 0.37598039
0.90098039 0.56029412 0.40098039
0.91348039 0.52867647 0.39362745
0.89803922 0.50196078 0.37843137
0.51029412 0.82843137 0.4122549
0.48872549 0.79001225 0.39313725
0.49252451 0.75392157 0.38198529
0.59705882 0.75245098 0.40686275
0.71397059 0.74607843 0.43112745
0.83235294 0.73676471 0.45447304
0.95943627 0.72892157 0.47990196
0.9995098 0.7127451 0.48658088
1 0.67941176 0.47107843
0.61666667 1 0.50294118
0.60686275 0.95833333 0.48921569
0.60294118 0.93431373 0.48063725
0.64644608 0.92254902 0.48382353
0.77058824 0.91960784 0.51470588
0.8935049 0.90294118 0.53566176
0.99215686 0.89436275 0.55588235
0.99607843 0.88026961 0.56813725
0.99607843 0.86862745 0.5754902
0.65147059 1 0.52598039
0.66280637 1 0.53382353
0.65232843 0.99901961 0.52598039
0.6658701 1 0.52971814
0.79754902 1 0.56862745
0.95343137 0.99136029 0.62224265
0.99227941 1 0.64754902
0.99607843 0.99607843 0.67745098
0.99607843 1 0.70147059
0.6627451 1 0.53333333
0.66666667 1 0.5372549
0.65882353 0.99607843 0.5372549
0.65882353 1 0.54509804
0.79019608 1 0.58431373
0.95637255 1 0.63431373
0.99313725 1 0.68921569
1 1 0.76176471
0.99607843 1 0.83137255
0.012745098 0.027941176 0.053921569
0.11470588 0.030330882 0.064215686
0.23480392 0.034313725 0.080882353
0.37107843 0.036764706 0.10931373
0.52990196 0.058088235 0.15612745
0.61519608 0.064705882 0.17794118
0.6064951 0.049142157 0.14620098
0.6 0.039215686 0.125
0.6 0.035294118 0.125
0.080392157 0.14607843 0.09564951
0.13431373 0.13393842 0.099080882
0.25 0.10816483 0.10349265
0.38480392 0.1087163 0.13333333
0.49656863 0.087193627 0.13918505
0.60236673 0.067011336 0.15147059
0.60647978 0.048651961 0.14290748
0.6 0.039644608 0.12467831
0.59607843 0.031372549 0.11764706
0.16139706 0.28615196 0.13921569
0.17305453 0.2745098 0.13132659
0.29607843 0.26663603 0.1575674
0.42784926 0.25870098 0.18916973
0.55098039 0.24803922 0.21715686
0.67058824 0.23007047 0.22659314
0.69610907 0.20885417 0.21960784
0.68982843 0.17881434 0.20441176
0.66666667 0.14276961 0.18137255
0.27383578 0.45784314 0.22647059
0.28633578 0.4504902 0.22502298
0.34459252 0.42317708 0.22045037
0.47745098 0.40980392 0.25189185
0.60098039 0.39656863 0.2734375
0.71978401 0.39129136 0.29790901
0.80343137 0.38235294 0.30899203
0.79567249 0.34362745 0.28927696
0.7786152 0.31292892 0.27794118
0.39019608 0.63529412 0.31960784
0.38063725 0.61813725 0.30983456
0.40251225 0.58762255 0.2995098
0.52769608 0.5752451 0.32794118
0.65208333 0.56470588 0.35085784
0.76495098 0.5629902 0.37025123
0.90079657 0.55269608 0.39681373
0.90759804 0.525 0.38973652
0.89044118 0.49411765 0.3745098
0.50392157 0.8153799 0.41617647
0.48480392 0.78243719 0.39699755
0.47060355 0.7536152 0.37696078
0.58234528 0.74227175 0.40153952
0.70113358 0.7346201 0.42328431
0.8223652 0.73021599 0.44773284
0.96109069 0.72022059 0.47397365
0.98235294 0.69885876 0.4776348
0.98235294 0.67941176 0.47107843
0.60294118 0.96482843 0.49607843
0.59924939 0.95790441 0.48921569
0.59255515 0.93235294 0.47745098
0.64068627 0.91568627 0.48003983
0.75839461 0.90716912 0.50465686
0.88074449 0.89220282 0.52621017
0.9768076 0.87981005 0.55294118
0.99215686 0.87604167 0.57156863
0.99215686 0.86470588 0.57254902
0.6588848 1 0.53333333
0.66285999 1 0.5372549
0.64765625 0.99607843 0.5256587
0.66560202 0.99607843 0.52955729
0.79019608 0.99607843 0.56323529
0.94456955 0.99607843 0.60686275
0.97794118 0.99307598 0.6379136
0.99607843 1 0.67321538
0.99607843 1 0.69797794
0.65931373 1 0.53333333
0.6627451 1 0.5372549
0.65882353 0.99607843 0.54117647
0.65490196 1 0.54724265
0.78627451 1 0.58210784
0.94803922 1 0.621875
0.98921569 1 0.68921569
0.99607843 1 0.77352941
0.99607843 1 0.83088235
0.056862745 0.10980392 0.15686275
0.14215686 0.085294118 0.16127451
0.26568627 0.088970588 0.18039216
0.39313725 0.088235294 0.20281863
0.55147059 0.11764706 0.25
0.63860294 0.12352941 0.26617647
0.63823529 0.10392157 0.23431373
0.63431373 0.090808824 0.21531863
0.63431373 0.091176471 0.21176471
0.10870098 0.19571078 0.18860294
0.16251532 0.1817402 0.1884038
0.27696078 0.16424632 0.19647672
0.40663297 0.14661458 0.211106
0.53229167 0.15612745 0.2372549
0.62241115 0.13284314 0.24224877
0.64080882 0.10321691 0.22417279
0.63039216 0.081740196 0.20614277
0.63333333 0.084681373 0.20784314
0.18112745 0.32352941 0.22352941
0.19681373 0.3239277 0.22545956
0.3158701 0.30710784 0.2375
0.44019608 0.28667279 0.24751838
0.56237745 0.27242647 0.26703431
0.68079044 0.25520833 0.28137255
0.71372549 0.23572304 0.27591912
0.70474877 0.20098039 0.25367647
0.68259804 0.16691176 0.22352941
0.2872549 0.48480392 0.29007353
0.29558824 0.47446385 0.28439032
0.36470588 0.45606618 0.2856924
0.48261336 0.43137255 0.29515931
0.60931373 0.42205882 0.32009804
0.72850797 0.41113664 0.34065564
0.79996936 0.39313725 0.34166667
0.79803922 0.3511489 0.3113511
0.77561275 0.31568627 0.28590686
0.39313725 0.64411765 0.35392157
0.38186275 0.62285539 0.34099265
0.39767157 0.59509804 0.32634804
0.52107843 0.58529412 0.34632353
0.65098039 0.57303922 0.35955882
0.76709559 0.56476716 0.38578431
0.89338235 0.55686275 0.4182598
0.90367647 0.51844363 0.39656863
0.88480392 0.48431373 0.37058824
0.49852941 0.80735294 0.42365196
0.48429841 0.78488051 0.41150429
0.47650123 0.75784314 0.39460784
0.56960784 0.74215686 0.40718444
0.69203431 0.73480392 0.42898284
0.81522672 0.725 0.45441176
0.94430147 0.71617647 0.48875613
0.97712929 0.68921569 0.48137255
0.97254902 0.6682598 0.46715686
0.60294118 0.97083333 0.51862745
0.5870098 0.93602941 0.49485294
0.56452206 0.91838235 0.46862745
0.62745098 0.90686275 0.47735907
0.74448529 0.89411765 0.5
0.86348039 0.87797181 0.51789216
0.97843137 0.8745098 0.55496324
0.98835784 0.86470588 0.57147672
0.99142157 0.84926471 0.56544118
0.65490196 0.99914216 0.52941176
0.65104167 0.99613971 0.52990196
0.63970588 0.99705882 0.52892157
0.66818321 0.99607843 0.52971814
0.78431373 0.99693627 0.55502451
0.9216299 0.98123468 0.6026348
0.99586397 0.99914216 0.63189338
0.99644608 1 0.67391238
1 0.99607843 0.68186275
0.65490196 1 0.52941176
0.65490196 1 0.5372549
0.65784314 0.99607843 0.54901961
0.66519608 0.99607843 0.54509804
0.78627451 0.99215686 0.57058824
0.93676471 0.99607843 0.62647059
0.99607843 1 0.69240196
1 1 0.77745098
1 1 0.79313725
0.090196078 0.175 0.25588235
0.16390931 0.13841912 0.2504902
0.30306373 0.14718137 0.27990196
0.46023284 0.16813725 0.32261029
0.59656863 0.18137255 0.3504902
0.66819853 0.18137255 0.36029412
0.68664216 0.17352941 0.35
0.68088235 0.16960784 0.33498775
0.68088235 0.17205882 0.33529412
0.13431373 0.24185049 0.27873775
0.19172794 0.23039216 0.28088235
0.30490196 0.21272978 0.29232537
0.42756587 0.20068168 0.30343137
0.56911765 0.21436887 0.3359375
0.65227482 0.18088235 0.33707108
0.67659314 0.15392157 0.32002145
0.67303922 0.15091912 0.31372549
0.66942402 0.15294118 0.30459559
0.22941176 0.38823529 0.33088235
0.24166667 0.37259498 0.32369792
0.33900123 0.35557598 0.33161765
0.4622549 0.33624387 0.33933824
0.58872549 0.32083333 0.35735294
0.70502451 0.31072304 0.37979473
0.75511642 0.2807598 0.37303922
0.73235294 0.24397978 0.34215686
0.70894608 0.21176471 0.31519608
0.32506127 0.54656863 0.39209559
0.31960784 0.52481618 0.37745098
0.38483456 0.50588235 0.37696078
0.50582108 0.48529412 0.38872549
0.63088235 0.46495098 0.4
0.75161612 0.4522212 0.41911765
0.82794118 0.42835478 0.41911765
0.82451746 0.39320619 0.39685968
0.81133578 0.37401961 0.38088235
0.42401961 0.69705882 0.44656863
0.41617647 0.67794118 0.43201593
0.43290441 0.64908088 0.41917892
0.54509804 0.63382353 0.42892157
0.66985294 0.61544118 0.43933824
0.7879902 0.59387255 0.45692402
0.90251225 0.57824755 0.47022059
0.91878064 0.54754902 0.45441176
0.90955882 0.5245098 0.43480392
0.52542892 0.85539216 0.50833333
0.51060049 0.83235294 0.4891008
0.5189951 0.80202206 0.47303922
0.58359375 0.77577359 0.4661152
0.70196078 0.76127451 0.48406863
0.82696078 0.74040288 0.49991575
0.94264706 0.72647059 0.51470588
0.98448989 0.70104167 0.51183364
0.97647059 0.6716299 0.48480392
0.62365196 1 0.56519608
0.59906556 0.96164216 0.54362745
0.5888174 0.9504902 0.53446691
0.63140319 0.92624081 0.5189185
0.74068627 0.90631127 0.52916667
0.86744792 0.89515931 0.54419424
0.98342525 0.88125 0.56510417
0.99215686 0.85539216 0.56666667
0.99607843 0.82598039 0.55588235
0.67303922 1 0.57794118
0.65441176 0.99607843 0.56078431
0.64656863 0.99420956 0.55802696
0.6721201 1 0.5446155
0.78324142 0.99175858 0.58324142
0.90949755 0.96942402 0.61035539
0.99215686 0.98356311 0.63026961
1 0.99656863 0.64313725
1 0.98314951 0.66470588
0.66911765 1 0.56813725
0.6591299 1 0.56305147
0.6627451 0.99852941 0.56360294
0.66366422 0.99607843 0.54264706
0.7752451 0.99534314 0.58161765
0.90539216 0.99699755 0.61862745
0.9942402 1 0.68039216
1 1 0.75196078
1 1 0.80637255
0.10196078 0.19411765 0.32941176
0.1995098 0.19779412 0.34656863
0.35 0.21470588 0.38872549
0.46495098 0.21568627 0.40539216
0.60490196 0.23039216 0.43431373
0.7252451 0.24313725 0.4745098
0.72745098 0.23921569 0.45392157
0.72156863 0.23529412 0.43946078
0.72352941 0.23921569 0.44509804
0.16519608 0.2877451 0.36568627
0.21862745 0.28060662 0.37303922
0.33872549 0.27205882 0.38952206
0.46338848 0.2614277 0.40931373
0.58419118 0.24767157 0.42034314
0.69469975 0.22833946 0.43382353
0.71194853 0.22303922 0.42107843
0.71026348 0.2122549 0.41029412
0.71176471 0.21397059 0.41029412
0.26176471 0.44166667 0.4254902
0.27420343 0.43045343 0.42095588
0.37352941 0.4125 0.42843137
0.49313725 0.39344363 0.43553922
0.61642157 0.37401961 0.45147059
0.73094363 0.36011029 0.46985294
0.78026961 0.33321078 0.46078431
0.76237745 0.29289216 0.43137255
0.75147059 0.27156863 0.41960784
0.36617647 0.61151961 0.49705882
0.35637255 0.58137255 0.47377451
0.40955882 0.55551471 0.46507353
0.53186275 0.53753064 0.47818627
0.65539216 0.5185049 0.49227941
0.77745098 0.49852941 0.50784314
0.87267157 0.47941176 0.51268382
0.86029412 0.44509804 0.4888174
0.84852941 0.42671569 0.47622549
0.46372549 0.75882353 0.54607843
0.44754902 0.72990196 0.52193627
0.4502451 0.69803922 0.50196078
0.57058824 0.68112745 0.51691176
0.69656863 0.66666667 0.53823529
0.81764706 0.64754902 0.55036765
0.92990196 0.62867647 0.55931373
0.94877451 0.5995098 0.54681373
0.93921569 0.57843137 0.52843137
0.56789216 0.91470588 0.60759804
0.54411765 0.88039216 0.58186275
0.5338848 0.85147059 0.5533701
0.61590074 0.8291973 0.56148897
0.73161765 0.81151961 0.57928922
0.85637255 0.79803922 0.59613971
0.97089461 0.77892157 0.61035539
0.99607843 0.75588235 0.60652574
0.98431373 0.72892157 0.58333333
0.66960784 0.99215686 0.67254902
0.64558824 0.97720588 0.64632353
0.61323529 0.98370098 0.61029412
0.66017157 0.97052696 0.60968137
0.77009804 0.95465686 0.61911765
0.89117647 0.93848039 0.63578431
0.98921569 0.92267157 0.64509804
0.99607843 0.90594363 0.65490196
0.99607843 0.88431373 0.64901961
0.73284314 1 0.70514706
0.71639093 0.99849877 0.68627451
0.68137255 1 0.64803922
0.69283088 1 0.63474265
0.82867647 0.99607843 0.67058824
0.95441176 0.98783701 0.69460784
0.99313725 0.97892157 0.71403186
1 0.99264706 0.73088235
1 0.99264706 0.72156863
0.71764706 1 0.67058824
0.70980392 1 0.6627451
0.70441176 1 0.64754902
0.69019608 1 0.61911765
0.77843137 1 0.63235294
0.93259804 1 0.69387255
0.99313725 1 0.73578431
1 1 0.80882353
1 1 0.86078431
0.1254902 0.23137255 0.37009804
0.21127451 0.22892157 0.38921569
0.33688725 0.23468137 0.4254902
0.49705882 0.25735294 0.46911765
0.64436275 0.28235294 0.51446078
0.74074755 0.28621324 0.52843137
0.75625 0.2877451 0.52414216
0.75441176 0.2877451 0.52714461
0.75686275 0.29019608 0.54117647
0.18627451 0.32254902 0.42303922
0.23719363 0.31519608 0.433678
0.35611213 0.31227022 0.46332721
0.48462776 0.31175705 0.48265931
0.62401961 0.32466299 0.50931373
0.74179688 0.29815411 0.52952665
0.75441176 0.28903186 0.51723346
0.74705882 0.27979473 0.50667892
0.74136029 0.26078431 0.49393382
0.29803922 0.49816176 0.52046569
0.29594056 0.48178615 0.50972733
0.40392157 0.46666667 0.52086397
0.51709559 0.44114583 0.51527267
0.64185049 0.43039216 0.54564951
0.74538909 0.41715686 0.55623468
0.81323529 0.39148284 0.54938725
0.79068627 0.34656863 0.52095588
0.78284314 0.31960784 0.50441176
0.40490196 0.66617647 0.59754902
0.40140165 0.64344363 0.5745098
0.44650735 0.61040135 0.55925245
0.56240043 0.5901348 0.56952359
0.6791973 0.57552083 0.58606005
0.79783241 0.55729167 0.60124081
0.91262255 0.53823529 0.61078431
0.89068627 0.496875 0.5783701
0.87941176 0.47310049 0.56133578
0.50343137 0.82058824 0.65220588
0.48970588 0.79166667 0.6245098
0.50226716 0.75667892 0.60122549
0.60147059 0.73823529 0.61151961
0.72107843 0.72279412 0.63088235
0.84145221 0.70686275 0.64632353
0.95759804 0.68627451 0.65539216
0.97956495 0.6536152 0.63921569
0.96666667 0.6245098 0.61617647
0.59411765 0.93829657 0.70147059
0.57634038 0.9131204 0.6745098
0.55840993 0.90147059 0.6432598
0.63962163 0.88445925 0.65236673
0.7583027 0.86176471 0.67254902
0.88333333 0.84803922 0.68878676
0.97953431 0.83529412 0.70036765
0.9926394 0.80968903 0.70109528
0.98670343 0.78137255 0.67794118
0.70539216 0.99938725 0.77401961
0.68265931 0.99446998 0.74509804
0.65808824 0.99715074 0.70983456
0.68561581 0.97598039 0.69434743
0.79460784 0.97628676 0.70735294
0.91813725 0.97443321 0.72095588
0.99607843 0.97205882 0.74460784
0.99742647 0.96812194 0.76092218
1 0.9432598 0.74852941
0.80784314 1 0.8377451
0.79953278 1 0.81685049
0.77509191 1 0.7910386
0.76041667 1 0.75979626
0.88088235 0.99626225 0.78946078
0.97738205 1 0.79178156
0.99607843 0.99722733 0.8319087
1 0.99869026 0.86452206
1 0.99479167 0.87843137
0.78088235 1 0.79166667
0.78088235 1 0.79001225
0.78480392 1 0.79166667
0.76672794 1 0.76029412
0.88602941 1 0.79754902
0.98731618 1 0.85496324
0.99362745 1 0.89852941
1 1 0.94117647
1 1 0.9877451
0.1254902 0.22647059 0.37254902
0.20490196 0.23137255 0.39558824
0.3370098 0.24313725 0.43039216
0.48676471 0.25735294 0.46973039
0.61715686 0.27647059 0.50784314
0.75085784 0.29411765 0.54154412
0.76470588 0.30196078 0.54509804
0.76470588 0.30588235 0.54607843
0.75686275 0.29019608 0.54509804
0.17892157 0.31115196 0.42205882
0.22804841 0.30615809 0.43258272
0.34708946 0.29623162 0.45358456
0.4680913 0.29117647 0.47990196
0.59969363 0.27953431 0.50392157
0.72610294 0.30062806 0.53872549
0.76366422 0.30183824 0.54767157
0.7620864 0.29846814 0.54085478
0.75686275 0.29019608 0.53737745
0.28235294 0.47573529 0.51372549
0.2950674 0.47328431 0.51461397
0.40269608 0.45821078 0.52910539
0.52760417 0.45367647 0.55343137
0.64558824 0.44166667 0.57254902
0.75686275 0.43121936 0.59068627
0.83939951 0.42285539 0.60269608
0.81329657 0.37987132 0.58186275
0.80392157 0.35980392 0.56740196
0.39803922 0.66715686 0.61875
0.39313725 0.6504902 0.6
0.46277574 0.62352941 0.59656863
0.57734375 0.61507353 0.61801471
0.69546569 0.60502451 0.64019608
0.81470588 0.60225184 0.66931679
0.91246936 0.56519608 0.66568627
0.91813725 0.54215686 0.66585478
0.9127451 0.53088235 0.65735294
0.51960784 0.85294118 0.71176471
0.50808824 0.83167892 0.69871324
0.54215686 0.80257353 0.6877451
0.625 0.77598039 0.6872549
0.74166667 0.76666667 0.70735294
0.86856618 0.75955882 0.73425245
0.96617647 0.73039216 0.73137255
0.97996324 0.69283088 0.72310049
0.97058824 0.67401961 0.71568627
0.63223039 1 0.80036765
0.60620404 0.97833946 0.77046569
0.58970588 0.95376838 0.74411765
0.66478248 0.93252145 0.74546569
0.78431373 0.91415441 0.75863971
0.91176471 0.89891238 0.77561275
0.98137255 0.88284314 0.78921569
0.99385723 0.86015625 0.79011949
1 0.82794118 0.77303922
0.76838235 1 0.89485294
0.74068627 0.99620098 0.86427696
0.69577206 0.99387255 0.8151348
0.71277574 0.99901961 0.79402574
0.83615196 0.99387255 0.81470588
0.95793505 0.99607843 0.83422181
0.98995098 0.98995098 0.84828431
1 0.99264706 0.86176471
1 0.94877451 0.84411765
0.89178922 1 0.99362745
0.86041667 1 0.9283701
0.8583027 1 0.93529412
0.85503983 1 0.9118413
0.9346201 1 0.91954657
0.99209559 1 0.93628983
1 1 0.94757966
1 1 0.97715993
1 0.99607843 0.97671569
0.88529412 1 0.97156863
0.85772059 1 0.90833333
0.86862745 1 0.9379902
0.85208333 1 0.9064951
0.93186275 1 0.91813725
0.99607843 1 0.96678922
1 1 0.99436275
1 1 0.99607843
1 1 0.99607843
0.11764706 0.20784314 0.36470588
0.18970588 0.21911765 0.3877451
0.34448529 0.23823529 0.43333333
0.49430147 0.25735294 0.47303922
0.61740196 0.27647059 0.50784314
0.75147059 0.29540441 0.54264706
0.76470588 0.30992647 0.55306373
0.76862745 0.30545343 0.55643382
0.76078431 0.29019608 0.54901961
0.175 0.30343137 0.42205882
0.21666667 0.29558824 0.4263557
0.34019608 0.28785233 0.44987745
0.46011029 0.27865349 0.4723269
0.58844975 0.28140319 0.50392157
0.72334559 0.29197304 0.53872549
0.75821078 0.30202206 0.54961703
0.76862745 0.30196844 0.55300245
0.76078431 0.29019608 0.54901961
0.27585784 0.46960784 0.51078431
0.2872549 0.46165748 0.50772059
0.39411765 0.45 0.52573529
0.51619179 0.44473039 0.54852941
0.64025735 0.43547794 0.57401961
0.75672488 0.42156863 0.59460784
0.82401961 0.41237745 0.60833333
0.81573223 0.38224571 0.59394914
0.8 0.35502451 0.5814951
0.39019608 0.65686275 0.60765931
0.37908241 0.63872549 0.59934896
0.44866728 0.61996017 0.6037837
0.56753217 0.61599265 0.62696078
0.69656863 0.60628064 0.65318627
0.81304381 0.59479167 0.67431066
0.92061887 0.57637868 0.69157475
0.91623775 0.54352022 0.67794118
0.90147059 0.52990196 0.67401961
0.51372549 0.84705882 0.70392157
0.50217525 0.82377451 0.69564951
0.52297794 0.79436275 0.68817402
0.61608456 0.7752451 0.70113358
0.73897059 0.77058824 0.72745098
0.86927083 0.75971201 0.75245098
0.98333333 0.73909314 0.7723652
0.99365809 0.71519608 0.77276348
0.99019608 0.70196078 0.77058824
0.62696078 1 0.79178922
0.61241575 0.97587316 0.78137255
0.59227941 0.96636029 0.77290135
0.66734835 0.94215686 0.77849265
0.79396446 0.93529412 0.80098039
0.92323836 0.92206648 0.8292356
0.99607843 0.90526961 0.84834559
0.99607843 0.88959865 0.85475643
0.99607843 0.87254902 0.85245098
0.81029412 0.99865196 0.92156863
0.76317402 1 0.91813725
0.74791667 0.99629289 0.91136642
0.75053615 0.99584865 0.88276654
0.86881127 0.99607843 0.90686275
0.96822917 0.99839154 0.91951593
0.99656863 0.99705882 0.95566789
1 1 0.96127451
0.99705882 0.99656863 0.94852941
0.93431373 0.99607843 1
0.96341146 1 0.99607843
0.896875 1 0.99215686
0.9122932 1 0.9837163
0.97518382 0.99656863 0.98921569
0.99607843 1 0.99607843
1 1 0.99215686
1 1 0.99564951
1 1 0.99215686
0.94558824 0.99607843 0.99607843
0.93872549 0.99607843 0.98131127
0.93431373 1 0.99607843
0.92665441 1 0.99215686
0.96789216 1 0.99264706
0.99607843 1 0.99215686
1 1 0.99215686
1 1 0.99215686
1 1 0.99215686
0.10980392 0.20392157 0.36470588
0.18578431 0.21519608 0.3877451
0.32843137 0.23431373 0.4254902
0.46470588 0.25343137 0.46372549
0.59215686 0.2745098 0.50392157
0.71568627 0.29019608 0.53480392
0.76862745 0.30196078 0.55
0.76470588 0.30196078 0.55294118
0.76078431 0.29019608 0.54901961
0.16715686 0.29509804 0.41421569
0.21268382 0.2877451 0.42156863
0.33676471 0.28137255 0.44595588
0.45275735 0.26893382 0.46685049
0.58431373 0.27794118 0.50171569
0.71176471 0.29411765 0.53480392
0.76507353 0.30294118 0.55
0.76078431 0.29454657 0.54944853
0.76078431 0.28627451 0.54901961
0.27941176 0.47647059 0.51078431
0.27205882 0.45 0.49901961
0.38627451 0.44215686 0.51936275
0.5064951 0.43823529 0.54460784
0.62941176 0.4254902 0.56813725
0.74901961 0.41409314 0.59068627
0.80171569 0.39387255 0.59387255
0.80098039 0.36666667 0.58627451
0.80098039 0.35980392 0.58529412
0.39411765 0.66568627 0.61127451
0.37843137 0.63088235 0.59215686
0.43443627 0.6122549 0.59669118
0.55680147 0.61078431 0.62303922
0.6879902 0.60245098 0.65
0.80686275 0.58033088 0.66672794
0.92536765 0.56875 0.68786765
0.9127451 0.54148284 0.67794118
0.89362745 0.52598039 0.67401961
0.51372549 0.84705882 0.70392157
0.49828431 0.81666667 0.68872549
0.48284314 0.78088235 0.67254902
0.60196078 0.7745098 0.7004902
0.73333333 0.76470588 0.72647059
0.86470588 0.74632353 0.74852941
0.96372549 0.73088235 0.76666667
0.97867647 0.70563725 0.76666667
0.98039216 0.69607843 0.76666667
0.63480392 0.99607843 0.79656863
0.60637255 0.98106618 0.78088235
0.59546569 0.95637255 0.76911765
0.66372549 0.93376225 0.78033088
0.78651961 0.93039216 0.80367647
0.91954657 0.92107843 0.83333333
0.99362745 0.90294118 0.8557598
0.99607843 0.88890931 0.86911765
0.99215686 0.88578431 0.87107843
0.80588235 0.99607843 0.91372549
0.75379902 0.99607843 0.88676471
0.71544118 0.99681373 0.87083333
0.74558824 0.99644608 0.87193627
0.86862745 0.99607843 0.90686275
0.96041667 0.98921569 0.93872549
1 0.99313725 0.96176471
1 0.99742647 0.98664216
1 1 0.99313725
0.9495098 0.99607843 1
0.96868873 0.99607843 1
0.93627451 1 0.98884804
0.94822304 1 0.99117647
1 1 1
0.99607843 1 0.99607843
1 1 0.99215686
1 1 0.98823529
1 1 0.98823529
0.96862745 0.99607843 1
0.96862745 0.99607843 1
0.96470588 1 0.99607843
0.96470588 1 0.99607843
0.99215686 1 0.99607843
0.99607843 1 0.99607843
1 1 0.99215686
1 1 0.98872549
1 1 0.98431373
