site/assets/luts/natron-haldclut--rollei-ortho-25--3c4f87a3e.cube
# LUTr-Project: LUTr — LUTrepository
# LUTr-Schema-Version: 1
# LUTr-ID: natron-haldclut--rollei-ortho-25--3c4f87a3e
# LUTr-Title: rollei ortho 25
# LUTr-Collection: Natron HaldCLUT
# LUTr-Collection-ID: natron-haldclut-presets
# LUTr-Source: https://github.com/NatronGitHub/clut
# LUTr-Source-File: submissions/natron-haldclut-presets/bw/rollei_ortho_25.png
# LUTr-Source-Format: PNG
# LUTr-Source-SHA256: b1adacf51d7c7f773ee25072626668f897dcc6516709e306311881d4d5446262
# LUTr-License: CC-BY-SA-4.0
# LUTr-License-URL: https://github.com/NatronGitHub/clut#license
# LUTr-Tags: creative, film, film-emulation, hald-clut, natron, png, cube
# LUTr-Transform-Class: film-emulation
# LUTr-Input-Color-Space: srgb
# LUTr-Output-Color-Space: srgb
# LUTr-Color-Space-Confidence: assumed-display-referred
# LUTr-Conversion-Method: PNG LUT image decoded at 16-bit and sampled to 25x25x25 3D CUBE
# LUTr-Conversion-Date: 2026-07-27
# LUTr-Conversion-Tool: LUTr scripts/convert-all-to-cube.mjs
# LUTr-Conversion-Grid: 25x25x25
# LUTr-Note: Preserve this metadata and the upstream license notices when redistributing.
TITLE "rollei ortho 25"
LUT_3D_SIZE 9
DOMAIN_MIN 0 0 0
DOMAIN_MAX 1 1 1
0 0 0
0.010294118 0.010294118 0.010294118
0.026470588 0.026470588 0.026470588
0.0078431373 0.0078431373 0.0078431373
0.021568627 0.021568627 0.021568627
0.0039215686 0.0039215686 0.0039215686
0.010784314 0.010784314 0.010784314
0.021078431 0.021078431 0.021078431
0.011764706 0.011764706 0.011764706
0.045588235 0.045588235 0.045588235
0.05 0.05 0.05
0.053921569 0.053921569 0.053921569
0.055698529 0.055698529 0.055698529
0.06004902 0.06004902 0.06004902
0.079105392 0.079105392 0.079105392
0.072058824 0.072058824 0.072058824
0.073468137 0.073468137 0.073468137
0.074019608 0.074019608 0.074019608
0.11176471 0.11176471 0.11176471
0.12463235 0.12463235 0.12463235
0.13529412 0.13529412 0.13529412
0.12242647 0.12242647 0.12242647
0.12696078 0.12696078 0.12696078
0.13039216 0.13039216 0.13039216
0.13504902 0.13504902 0.13504902
0.13835784 0.13835784 0.13835784
0.14411765 0.14411765 0.14411765
0.17352941 0.17352941 0.17352941
0.18137255 0.18137255 0.18137255
0.17843137 0.17843137 0.17843137
0.18529412 0.18529412 0.18529412
0.19313725 0.19313725 0.19313725
0.20098039 0.20098039 0.20098039
0.19522059 0.19522059 0.19522059
0.20490196 0.20490196 0.20490196
0.20098039 0.20098039 0.20098039
0.25686275 0.25686275 0.25686275
0.25710784 0.25710784 0.25710784
0.26470588 0.26470588 0.26470588
0.25759804 0.25759804 0.25759804
0.26960784 0.26960784 0.26960784
0.27107843 0.27107843 0.27107843
0.27303922 0.27303922 0.27303922
0.27671569 0.27671569 0.27671569
0.28431373 0.28431373 0.28431373
0.34460784 0.34460784 0.34460784
0.3495098 0.3495098 0.3495098
0.35735294 0.35735294 0.35735294
0.35251225 0.35251225 0.35251225
0.35735294 0.35735294 0.35735294
0.3588848 0.3588848 0.3588848
0.36764706 0.36764706 0.36764706
0.36930147 0.36930147 0.36930147
0.37156863 0.37156863 0.37156863
0.48235294 0.48235294 0.48235294
0.4817402 0.4817402 0.4817402
0.48823529 0.48823529 0.48823529
0.48823529 0.48823529 0.48823529
0.49264706 0.49264706 0.49264706
0.49987745 0.49987745 0.49987745
0.50686275 0.50686275 0.50686275
0.51666667 0.51666667 0.51666667
0.52254902 0.52254902 0.52254902
0.70441176 0.70441176 0.70441176
0.71176471 0.71176471 0.71176471
0.70490196 0.70490196 0.70490196
0.70637255 0.70637255 0.70637255
0.71862745 0.71862745 0.71862745
0.71470588 0.71470588 0.71470588
0.7245098 0.7245098 0.7245098
0.71617647 0.71617647 0.71617647
0.73137255 0.73137255 0.73137255
0.85490196 0.85490196 0.85490196
0.83921569 0.83921569 0.83921569
0.84803922 0.84803922 0.84803922
0.84313725 0.84313725 0.84313725
0.85098039 0.85098039 0.85098039
0.85588235 0.85588235 0.85588235
0.85196078 0.85196078 0.85196078
0.85588235 0.85588235 0.85588235
0.86666667 0.86666667 0.86666667
0.06127451 0.06127451 0.06127451
0.061764706 0.061764706 0.061764706
0.066544118 0.066544118 0.066544118
0.08370098 0.08370098 0.08370098
0.083823529 0.083823529 0.083823529
0.077757353 0.077757353 0.077757353
0.081372549 0.081372549 0.081372549
0.085294118 0.085294118 0.085294118
0.087254902 0.087254902 0.087254902
0.1122549 0.1122549 0.1122549
0.11568627 0.11568627 0.11568627
0.11660539 0.11660539 0.11660539
0.12356771 0.12356771 0.12356771
0.12772672 0.12772672 0.12772672
0.12839308 0.12839308 0.12839308
0.13529412 0.13529412 0.13529412
0.13621324 0.13621324 0.13621324
0.13927696 0.13927696 0.13927696
0.16176471 0.16176471 0.16176471
0.16144301 0.16144301 0.16144301
0.16568627 0.16568627 0.16568627
0.16617647 0.16617647 0.16617647
0.17095588 0.17095588 0.17095588
0.1720435 0.1720435 0.1720435
0.17757353 0.17757353 0.17757353
0.1814951 0.1814951 0.1814951
0.18272059 0.18272059 0.18272059
0.22352941 0.22352941 0.22352941
0.22401961 0.22401961 0.22401961
0.22745098 0.22745098 0.22745098
0.22352941 0.22352941 0.22352941
0.23161765 0.23161765 0.23161765
0.23959099 0.23959099 0.23959099
0.24281556 0.24281556 0.24281556
0.23970588 0.23970588 0.23970588
0.23578431 0.23578431 0.23578431
0.29534314 0.29534314 0.29534314
0.28679534 0.28679534 0.28679534
0.30098039 0.30098039 0.30098039
0.29641544 0.29641544 0.29641544
0.30122549 0.30122549 0.30122549
0.30775123 0.30775123 0.30775123
0.30618873 0.30618873 0.30618873
0.31081495 0.31081495 0.31081495
0.31127451 0.31127451 0.31127451
0.38106618 0.38106618 0.38106618
0.38186275 0.38186275 0.38186275
0.38382353 0.38382353 0.38382353
0.38712469 0.38712469 0.38712469
0.38431373 0.38431373 0.38431373
0.39980852 0.39980852 0.39980852
0.40439645 0.40439645 0.40439645
0.40528493 0.40528493 0.40528493
0.41145833 0.41145833 0.41145833
0.52830882 0.52830882 0.52830882
0.53411458 0.53411458 0.53411458
0.52959559 0.52959559 0.52959559
0.53685662 0.53685662 0.53685662
0.54748775 0.54748775 0.54748775
0.5495098 0.5495098 0.5495098
0.55940564 0.55940564 0.55940564
0.56263787 0.56263787 0.56263787
0.57058824 0.57058824 0.57058824
0.73474265 0.73474265 0.73474265
0.73088235 0.73088235 0.73088235
0.73013174 0.73013174 0.73013174
0.73638174 0.73638174 0.73638174
0.73333333 0.73333333 0.73333333
0.73529412 0.73529412 0.73529412
0.73829657 0.73829657 0.73829657
0.74662224 0.74662224 0.74662224
0.74656863 0.74656863 0.74656863
0.85833333 0.85833333 0.85833333
0.85545343 0.85545343 0.85545343
0.85490196 0.85490196 0.85490196
0.85882353 0.85882353 0.85882353
0.8625 0.8625 0.8625
0.86746324 0.86746324 0.86746324
0.86519608 0.86519608 0.86519608
0.87058824 0.87058824 0.87058824
0.87794118 0.87794118 0.87794118
0.11862745 0.11862745 0.11862745
0.12352941 0.12352941 0.12352941
0.13186275 0.13186275 0.13186275
0.14044118 0.14044118 0.14044118
0.14215686 0.14215686 0.14215686
0.13970588 0.13970588 0.13970588
0.14436275 0.14436275 0.14436275
0.14705882 0.14705882 0.14705882
0.16372549 0.16372549 0.16372549
0.17389706 0.17389706 0.17389706
0.17352941 0.17352941 0.17352941
0.17487745 0.17487745 0.17487745
0.18160233 0.18160233 0.18160233
0.18572304 0.18572304 0.18572304
0.19067096 0.19067096 0.19067096
0.19362745 0.19362745 0.19362745
0.19630821 0.19630821 0.19630821
0.20134804 0.20134804 0.20134804
0.21960784 0.21960784 0.21960784
0.22349877 0.22349877 0.22349877
0.22745098 0.22745098 0.22745098
0.2245098 0.2245098 0.2245098
0.22745098 0.22745098 0.22745098
0.23529412 0.23529412 0.23529412
0.23921569 0.23921569 0.23921569
0.24019608 0.24019608 0.24019608
0.25 0.25 0.25
0.27561275 0.27561275 0.27561275
0.28517157 0.28517157 0.28517157
0.28639706 0.28639706 0.28639706
0.28921569 0.28921569 0.28921569
0.28529412 0.28529412 0.28529412
0.28958333 0.28958333 0.28958333
0.29803922 0.29803922 0.29803922
0.30882353 0.30882353 0.30882353
0.3067402 0.3067402 0.3067402
0.34509804 0.34509804 0.34509804
0.34454657 0.34454657 0.34454657
0.35294118 0.35294118 0.35294118
0.36256127 0.36256127 0.36256127
0.3622549 0.3622549 0.3622549
0.36862745 0.36862745 0.36862745
0.37058824 0.37058824 0.37058824
0.38039216 0.38039216 0.38039216
0.37745098 0.37745098 0.37745098
0.44718137 0.44718137 0.44718137
0.44673713 0.44673713 0.44673713
0.45088848 0.45088848 0.45088848
0.45784314 0.45784314 0.45784314
0.46384804 0.46384804 0.46384804
0.46761642 0.46761642 0.46761642
0.47117034 0.47117034 0.47117034
0.473606 0.473606 0.473606
0.49816176 0.49816176 0.49816176
0.62965686 0.62965686 0.62965686
0.62092525 0.62092525 0.62092525
0.6372549 0.6372549 0.6372549
0.62665441 0.62665441 0.62665441
0.63921569 0.63921569 0.63921569
0.64635417 0.64635417 0.64635417
0.64552696 0.64552696 0.64552696
0.66102941 0.66102941 0.66102941
0.67254902 0.67254902 0.67254902
0.77267157 0.77267157 0.77267157
0.77732843 0.77732843 0.77732843
0.76632966 0.76632966 0.76632966
0.77264093 0.77264093 0.77264093
0.78259804 0.78259804 0.78259804
0.78293505 0.78293505 0.78293505
0.78164828 0.78164828 0.78164828
0.78866422 0.78866422 0.78866422
0.79963235 0.79963235 0.79963235
0.87843137 0.87843137 0.87843137
0.87843137 0.87843137 0.87843137
0.87745098 0.87745098 0.87745098
0.87352941 0.87352941 0.87352941
0.88137255 0.88137255 0.88137255
0.88345588 0.88345588 0.88345588
0.88308824 0.88308824 0.88308824
0.88786765 0.88786765 0.88786765
0.89705882 0.89705882 0.89705882
0.18382353 0.18382353 0.18382353
0.1908701 0.1908701 0.1908701
0.20134804 0.20134804 0.20134804
0.1995098 0.1995098 0.1995098
0.20612745 0.20612745 0.20612745
0.20643382 0.20643382 0.20643382
0.21482843 0.21482843 0.21482843
0.2153799 0.2153799 0.2153799
0.21519608 0.21519608 0.21519608
0.23970588 0.23970588 0.23970588
0.24297641 0.24297641 0.24297641
0.24577206 0.24577206 0.24577206
0.25080423 0.25080423 0.25080423
0.25530025 0.25530025 0.25530025
0.2591299 0.2591299 0.2591299
0.26309743 0.26309743 0.26309743
0.26914063 0.26914063 0.26914063
0.27107843 0.27107843 0.27107843
0.29558824 0.29558824 0.29558824
0.29526654 0.29526654 0.29526654
0.29558824 0.29558824 0.29558824
0.2995098 0.2995098 0.2995098
0.30735294 0.30735294 0.30735294
0.30902267 0.30902267 0.30902267
0.31617647 0.31617647 0.31617647
0.31997549 0.31997549 0.31997549
0.32696078 0.32696078 0.32696078
0.35006127 0.35006127 0.35006127
0.36127451 0.36127451 0.36127451
0.3592065 0.3592065 0.3592065
0.36519608 0.36519608 0.36519608
0.36911765 0.36911765 0.36911765
0.37058824 0.37058824 0.37058824
0.37696078 0.37696078 0.37696078
0.37733609 0.37733609 0.37733609
0.3838848 0.3838848 0.3838848
0.43137255 0.43137255 0.43137255
0.43921569 0.43921569 0.43921569
0.44264706 0.44264706 0.44264706
0.44286152 0.44286152 0.44286152
0.45257353 0.45257353 0.45257353
0.46348039 0.46348039 0.46348039
0.46868873 0.46868873 0.46868873
0.47794118 0.47794118 0.47794118
0.47696078 0.47696078 0.47696078
0.57892157 0.57892157 0.57892157
0.58479626 0.58479626 0.58479626
0.57938113 0.57938113 0.57938113
0.58578431 0.58578431 0.58578431
0.59338235 0.59338235 0.59338235
0.59959406 0.59959406 0.59959406
0.61666667 0.61666667 0.61666667
0.61606158 0.61606158 0.61606158
0.62745098 0.62745098 0.62745098
0.72830882 0.72830882 0.72830882
0.72830882 0.72830882 0.72830882
0.72582721 0.72582721 0.72582721
0.73394608 0.73394608 0.73394608
0.73596814 0.73596814 0.73596814
0.73970588 0.73970588 0.73970588
0.7424326 0.7424326 0.7424326
0.74813113 0.74813113 0.74813113
0.75294118 0.75294118 0.75294118
0.82205882 0.82205882 0.82205882
0.82205882 0.82205882 0.82205882
0.82182904 0.82182904 0.82182904
0.82156863 0.82156863 0.82156863
0.82647059 0.82647059 0.82647059
0.83088235 0.83088235 0.83088235
0.83382353 0.83382353 0.83382353
0.83118873 0.83118873 0.83118873
0.83137255 0.83137255 0.83137255
0.90441176 0.90441176 0.90441176
0.90226716 0.90226716 0.90226716
0.90551471 0.90551471 0.90551471
0.89901961 0.89901961 0.89901961
0.90759804 0.90759804 0.90759804
0.90833333 0.90833333 0.90833333
0.9064951 0.9064951 0.9064951
0.91029412 0.91029412 0.91029412
0.90441176 0.90441176 0.90441176
0.26078431 0.26078431 0.26078431
0.27058824 0.27058824 0.27058824
0.27205882 0.27205882 0.27205882
0.28235294 0.28235294 0.28235294
0.28333333 0.28333333 0.28333333
0.29411765 0.29411765 0.29411765
0.29460784 0.29460784 0.29460784
0.3 0.3 0.3
0.30588235 0.30588235 0.30588235
0.31911765 0.31911765 0.31911765
0.32843137 0.32843137 0.32843137
0.33137255 0.33137255 0.33137255
0.33676471 0.33676471 0.33676471
0.34129902 0.34129902 0.34129902
0.34632353 0.34632353 0.34632353
0.35784314 0.35784314 0.35784314
0.36004902 0.36004902 0.36004902
0.37352941 0.37352941 0.37352941
0.38578431 0.38578431 0.38578431
0.38560049 0.38560049 0.38560049
0.39558824 0.39558824 0.39558824
0.39883578 0.39883578 0.39883578
0.40588235 0.40588235 0.40588235
0.41734069 0.41734069 0.41734069
0.41335784 0.41335784 0.41335784
0.42377451 0.42377451 0.42377451
0.43039216 0.43039216 0.43039216
0.47132353 0.47132353 0.47132353
0.46314338 0.46314338 0.46314338
0.47058824 0.47058824 0.47058824
0.47745098 0.47745098 0.47745098
0.48884804 0.48884804 0.48884804
0.4953125 0.4953125 0.4953125
0.50625 0.50625 0.50625
0.51525735 0.51525735 0.51525735
0.525 0.525 0.525
0.59411765 0.59411765 0.59411765
0.59007353 0.59007353 0.59007353
0.59779412 0.59779412 0.59779412
0.6002451 0.6002451 0.6002451
0.61666667 0.61666667 0.61666667
0.62953431 0.62953431 0.62953431
0.63504902 0.63504902 0.63504902
0.64607843 0.64607843 0.64607843
0.65392157 0.65392157 0.65392157
0.71617647 0.71617647 0.71617647
0.71314338 0.71314338 0.71314338
0.72401961 0.72401961 0.72401961
0.72086397 0.72086397 0.72086397
0.7252451 0.7252451 0.7252451
0.73578431 0.73578431 0.73578431
0.74362745 0.74362745 0.74362745
0.74313725 0.74313725 0.74313725
0.74828431 0.74828431 0.74828431
0.8004902 0.8004902 0.8004902
0.80196078 0.80196078 0.80196078
0.79583333 0.79583333 0.79583333
0.80318627 0.80318627 0.80318627
0.8004902 0.8004902 0.8004902
0.80900735 0.80900735 0.80900735
0.80514706 0.80514706 0.80514706
0.80980392 0.80980392 0.80980392
0.81764706 0.81764706 0.81764706
0.86960784 0.86960784 0.86960784
0.86810662 0.86810662 0.86810662
0.86789216 0.86789216 0.86789216
0.87092525 0.87092525 0.87092525
0.87071078 0.87071078 0.87071078
0.87034314 0.87034314 0.87034314
0.87745098 0.87745098 0.87745098
0.87723652 0.87723652 0.87723652
0.8754902 0.8754902 0.8754902
0.93137255 0.93137255 0.93137255
0.93088235 0.93088235 0.93088235
0.93137255 0.93137255 0.93137255
0.9254902 0.9254902 0.9254902
0.92941176 0.92941176 0.92941176
0.93602941 0.93602941 0.93602941
0.93529412 0.93529412 0.93529412
0.93921569 0.93921569 0.93921569
0.94117647 0.94117647 0.94117647
0.36127451 0.36127451 0.36127451
0.37040441 0.37040441 0.37040441
0.37634804 0.37634804 0.37634804
0.38535539 0.38535539 0.38535539
0.39093137 0.39093137 0.39093137
0.39803922 0.39803922 0.39803922
0.40637255 0.40637255 0.40637255
0.41292892 0.41292892 0.41292892
0.42058824 0.42058824 0.42058824
0.44050245 0.44050245 0.44050245
0.453125 0.453125 0.453125
0.45669424 0.45669424 0.45669424
0.46489737 0.46489737 0.46489737
0.47490809 0.47490809 0.47490809
0.490625 0.490625 0.490625
0.50589767 0.50589767 0.50589767
0.50751379 0.50751379 0.50751379
0.52254902 0.52254902 0.52254902
0.53186275 0.53186275 0.53186275
0.54718137 0.54718137 0.54718137
0.5473652 0.5473652 0.5473652
0.56060049 0.56060049 0.56060049
0.57794118 0.57794118 0.57794118
0.58638174 0.58638174 0.58638174
0.59537377 0.59537377 0.59537377
0.61164216 0.61164216 0.61164216
0.62205882 0.62205882 0.62205882
0.65539216 0.65539216 0.65539216
0.65784314 0.65784314 0.65784314
0.65870098 0.65870098 0.65870098
0.66926317 0.66926317 0.66926317
0.67717525 0.67717525 0.67717525
0.68137255 0.68137255 0.68137255
0.69036458 0.69036458 0.69036458
0.69558824 0.69558824 0.69558824
0.69944853 0.69944853 0.69944853
0.74705882 0.74705882 0.74705882
0.73823529 0.73823529 0.73823529
0.74099265 0.74099265 0.74099265
0.73970588 0.73970588 0.73970588
0.75367647 0.75367647 0.75367647
0.75735294 0.75735294 0.75735294
0.76231618 0.76231618 0.76231618
0.76127451 0.76127451 0.76127451
0.77573529 0.77573529 0.77573529
0.80741422 0.80741422 0.80741422
0.80833333 0.80833333 0.80833333
0.80810355 0.80810355 0.80810355
0.80980392 0.80980392 0.80980392
0.80980392 0.80980392 0.80980392
0.81542586 0.81542586 0.81542586
0.81303615 0.81303615 0.81303615
0.81764706 0.81764706 0.81764706
0.82794118 0.82794118 0.82794118
0.85980392 0.85980392 0.85980392
0.86321998 0.86321998 0.86321998
0.86090686 0.86090686 0.86090686
0.8622549 0.8622549 0.8622549
0.86556373 0.86556373 0.86556373
0.86764706 0.86764706 0.86764706
0.86838235 0.86838235 0.86838235
0.87179841 0.87179841 0.87179841
0.87904412 0.87904412 0.87904412
0.91176471 0.91176471 0.91176471
0.90790441 0.90790441 0.90790441
0.91144301 0.91144301 0.91144301
0.90784314 0.90784314 0.90784314
0.9122549 0.9122549 0.9122549
0.9122549 0.9122549 0.9122549
0.91568627 0.91568627 0.91568627
0.91568627 0.91568627 0.91568627
0.91960784 0.91960784 0.91960784
0.95441176 0.95441176 0.95441176
0.95422794 0.95422794 0.95422794
0.95441176 0.95441176 0.95441176
0.95441176 0.95441176 0.95441176
0.95955882 0.95955882 0.95955882
0.95833333 0.95833333 0.95833333
0.95796569 0.95796569 0.95796569
0.95833333 0.95833333 0.95833333
0.9622549 0.9622549 0.9622549
0.52352941 0.52352941 0.52352941
0.54203431 0.54203431 0.54203431
0.55514706 0.55514706 0.55514706
0.56813725 0.56813725 0.56813725
0.58921569 0.58921569 0.58921569
0.59828431 0.59828431 0.59828431
0.6127451 0.6127451 0.6127451
0.62794118 0.62794118 0.62794118
0.62058824 0.62058824 0.62058824
0.65245098 0.65245098 0.65245098
0.65882353 0.65882353 0.65882353
0.66565564 0.66565564 0.66565564
0.67017463 0.67017463 0.67017463
0.68425245 0.68425245 0.68425245
0.69166667 0.69166667 0.69166667
0.69852941 0.69852941 0.69852941
0.71752451 0.71752451 0.71752451
0.72071078 0.72071078 0.72071078
0.71960784 0.71960784 0.71960784
0.71960784 0.71960784 0.71960784
0.72886029 0.72886029 0.72886029
0.73909314 0.73909314 0.73909314
0.74080882 0.74080882 0.74080882
0.75245098 0.75245098 0.75245098
0.75490196 0.75490196 0.75490196
0.76400123 0.76400123 0.76400123
0.77058824 0.77058824 0.77058824
0.77254902 0.77254902 0.77254902
0.78463542 0.78463542 0.78463542
0.78121936 0.78121936 0.78121936
0.78970588 0.78970588 0.78970588
0.79381127 0.79381127 0.79381127
0.78731618 0.78731618 0.78731618
0.80539216 0.80539216 0.80539216
0.80507047 0.80507047 0.80507047
0.81323529 0.81323529 0.81323529
0.81617647 0.81617647 0.81617647
0.82745098 0.82745098 0.82745098
0.83137255 0.83137255 0.83137255
0.82892157 0.82892157 0.82892157
0.83137255 0.83137255 0.83137255
0.84142157 0.84142157 0.84142157
0.84117647 0.84117647 0.84117647
0.84675245 0.84675245 0.84675245
0.84705882 0.84705882 0.84705882
0.86617647 0.86617647 0.86617647
0.86732537 0.86732537 0.86732537
0.86764706 0.86764706 0.86764706
0.87156863 0.87156863 0.87156863
0.87401961 0.87401961 0.87401961
0.87904412 0.87904412 0.87904412
0.87950368 0.87950368 0.87950368
0.88488051 0.88488051 0.88488051
0.88296569 0.88296569 0.88296569
0.90882353 0.90882353 0.90882353
0.90784314 0.90784314 0.90784314
0.90839461 0.90839461 0.90839461
0.91176471 0.91176471 0.91176471
0.91176471 0.91176471 0.91176471
0.91596201 0.91596201 0.91596201
0.91550245 0.91550245 0.91550245
0.91504289 0.91504289 0.91504289
0.91568627 0.91568627 0.91568627
0.93872549 0.93872549 0.93872549
0.93872549 0.93872549 0.93872549
0.93872549 0.93872549 0.93872549
0.94264706 0.94264706 0.94264706
0.93872549 0.93872549 0.93872549
0.94375 0.94375 0.94375
0.9450674 0.9450674 0.9450674
0.94270833 0.94270833 0.94270833
0.94693627 0.94693627 0.94693627
0.97647059 0.97647059 0.97647059
0.97352941 0.97352941 0.97352941
0.97720588 0.97720588 0.97720588
0.98039216 0.98039216 0.98039216
0.97352941 0.97352941 0.97352941
0.97622549 0.97622549 0.97622549
0.97965686 0.97965686 0.97965686
0.97781863 0.97781863 0.97781863
0.98431373 0.98431373 0.98431373
0.73529412 0.73529412 0.73529412
0.7564951 0.7564951 0.7564951
0.75269608 0.75269608 0.75269608
0.75735294 0.75735294 0.75735294
0.76642157 0.76642157 0.76642157
0.77009804 0.77009804 0.77009804
0.77622549 0.77622549 0.77622549
0.78535539 0.78535539 0.78535539
0.78578431 0.78578431 0.78578431
0.78921569 0.78921569 0.78921569
0.78529412 0.78529412 0.78529412
0.78921569 0.78921569 0.78921569
0.7937883 0.7937883 0.7937883
0.79856005 0.79856005 0.79856005
0.80860141 0.80860141 0.80860141
0.81977635 0.81977635 0.81977635
0.81257659 0.81257659 0.81257659
0.81666667 0.81666667 0.81666667
0.82794118 0.82794118 0.82794118
0.81999081 0.81999081 0.81999081
0.82202819 0.82202819 0.82202819
0.83186275 0.83186275 0.83186275
0.83443627 0.83443627 0.83443627
0.83555453 0.83555453 0.83555453
0.84313725 0.84313725 0.84313725
0.8471201 0.8471201 0.8471201
0.85882353 0.85882353 0.85882353
0.85618873 0.85618873 0.85618873
0.85441176 0.85441176 0.85441176
0.85588235 0.85588235 0.85588235
0.8622549 0.8622549 0.8622549
0.86210172 0.86210172 0.86210172
0.87009804 0.87009804 0.87009804
0.87428002 0.87428002 0.87428002
0.87171415 0.87171415 0.87171415
0.87941176 0.87941176 0.87941176
0.88529412 0.88529412 0.88529412
0.88529412 0.88529412 0.88529412
0.88872549 0.88872549 0.88872549
0.8879902 0.8879902 0.8879902
0.88921569 0.88921569 0.88921569
0.89157475 0.89157475 0.89157475
0.90098039 0.90098039 0.90098039
0.90490196 0.90490196 0.90490196
0.90857843 0.90857843 0.90857843
0.92401961 0.92401961 0.92401961
0.92401961 0.92401961 0.92401961
0.92401961 0.92401961 0.92401961
0.92401961 0.92401961 0.92401961
0.92760417 0.92760417 0.92760417
0.92745098 0.92745098 0.92745098
0.93560049 0.93560049 0.93560049
0.93562347 0.93562347 0.93562347
0.93921569 0.93921569 0.93921569
0.9504902 0.9504902 0.9504902
0.94693627 0.94693627 0.94693627
0.94693627 0.94693627 0.94693627
0.94963235 0.94963235 0.94963235
0.94822304 0.94822304 0.94822304
0.95062806 0.95062806 0.95062806
0.95441176 0.95441176 0.95441176
0.94978554 0.94978554 0.94978554
0.95747549 0.95747549 0.95747549
0.97003676 0.97003676 0.97003676
0.96960784 0.96960784 0.96960784
0.96992953 0.96992953 0.96992953
0.97352941 0.97352941 0.97352941
0.97352941 0.97352941 0.97352941
0.97352941 0.97352941 0.97352941
0.97696078 0.97696078 0.97696078
0.9770144 0.9770144 0.9770144
0.98137255 0.98137255 0.98137255
0.99264706 0.99264706 0.99264706
0.98872549 0.98872549 0.98872549
0.98823529 0.98823529 0.98823529
0.98854167 0.98854167 0.98854167
1 1 1
0.9908701 0.9908701 0.9908701
0.98431373 0.98431373 0.98431373
0.99215686 0.99215686 0.99215686
1 1 1
0.83921569 0.83921569 0.83921569
0.84362745 0.84362745 0.84362745
0.85392157 0.85392157 0.85392157
0.85343137 0.85343137 0.85343137
0.8627451 0.8627451 0.8627451
0.8627451 0.8627451 0.8627451
0.86568627 0.86568627 0.86568627
0.86666667 0.86666667 0.86666667
0.87843137 0.87843137 0.87843137
0.86960784 0.86960784 0.86960784
0.87359069 0.87359069 0.87359069
0.87794118 0.87794118 0.87794118
0.87953431 0.87953431 0.87953431
0.87769608 0.87769608 0.87769608
0.88578431 0.88578431 0.88578431
0.89240196 0.89240196 0.89240196
0.88578431 0.88578431 0.88578431
0.89901961 0.89901961 0.89901961
0.9 0.9 0.9
0.89313725 0.89313725 0.89313725
0.89877451 0.89877451 0.89877451
0.89828431 0.89828431 0.89828431
0.9004902 0.9004902 0.9004902
0.90490196 0.90490196 0.90490196
0.90906863 0.90906863 0.90906863
0.90894608 0.90894608 0.90894608
0.91960784 0.91960784 0.91960784
0.91568627 0.91568627 0.91568627
0.90980392 0.90980392 0.90980392
0.91948529 0.91948529 0.91948529
0.92101716 0.92101716 0.92101716
0.92205882 0.92205882 0.92205882
0.93333333 0.93333333 0.93333333
0.9372549 0.9372549 0.9372549
0.93186275 0.93186275 0.93186275
0.9377451 0.9377451 0.9377451
0.94901961 0.94901961 0.94901961
0.93921569 0.93921569 0.93921569
0.94509804 0.94509804 0.94509804
0.94705882 0.94705882 0.94705882
0.94215686 0.94215686 0.94215686
0.94068627 0.94068627 0.94068627
0.95147059 0.95147059 0.95147059
0.95122549 0.95122549 0.95122549
0.95490196 0.95490196 0.95490196
0.9504902 0.9504902 0.9504902
0.96078431 0.96078431 0.96078431
0.95784314 0.95784314 0.95784314
0.96078431 0.96078431 0.96078431
0.96813725 0.96813725 0.96813725
0.97009804 0.97009804 0.97009804
0.96617647 0.96617647 0.96617647
0.97009804 0.97009804 0.97009804
0.97647059 0.97647059 0.97647059
0.96960784 0.96960784 0.96960784
0.96960784 0.96960784 0.96960784
0.97573529 0.97573529 0.97573529
0.98321078 0.98321078 0.98321078
0.98431373 0.98431373 0.98431373
0.98578431 0.98578431 0.98578431
0.98823529 0.98823529 0.98823529
0.98823529 0.98823529 0.98823529
0.99215686 0.99215686 0.99215686
0.98872549 0.98872549 0.98872549
0.98872549 0.98872549 0.98872549
0.99522059 0.99522059 0.99522059
1 1 1
0.99264706 0.99264706 0.99264706
0.98823529 0.98823529 0.98823529
0.98823529 0.98823529 0.98823529
0.98823529 0.98823529 0.98823529
0.99215686 0.99215686 0.99215686
1 1 1
0.99607843 0.99607843 0.99607843
0.99607843 0.99607843 0.99607843
0.99607843 0.99607843 0.99607843
1 1 1
0.99215686 0.99215686 0.99215686
0.98823529 0.98823529 0.98823529
0.99215686 0.99215686 0.99215686
0.99607843 0.99607843 0.99607843
