site/assets/luts/natron-haldclut--golden-mono--7bed6c03a.cube
# LUTr-Project: LUTr — LUTrepository
# LUTr-Schema-Version: 1
# LUTr-ID: natron-haldclut--golden-mono--7bed6c03a
# LUTr-Title: golden mono
# LUTr-Collection: Natron HaldCLUT
# LUTr-Collection-ID: natron-haldclut-presets
# LUTr-Source: https://github.com/NatronGitHub/clut
# LUTr-Source-File: submissions/natron-haldclut-presets/various/golden_mono.png
# LUTr-Source-Format: PNG
# LUTr-Source-SHA256: c628dbc3183a27152235865cff8da5d18e8e7d5416f97fb02fa1f63270fb48a8
# LUTr-License: CC-BY-SA-4.0
# LUTr-License-URL: https://github.com/NatronGitHub/clut#license
# LUTr-Tags: creative, film, film-emulation, hald-clut, natron, png, black-and-white, cube
# LUTr-Transform-Class: film-emulation
# LUTr-Input-Color-Space: srgb
# LUTr-Output-Color-Space: srgb
# LUTr-Color-Space-Confidence: assumed-display-referred
# LUTr-Conversion-Method: PNG LUT image decoded at 16-bit and sampled to 25x25x25 3D CUBE
# LUTr-Conversion-Date: 2026-07-27
# LUTr-Conversion-Tool: LUTr scripts/convert-all-to-cube.mjs
# LUTr-Conversion-Grid: 25x25x25
# LUTr-Note: Preserve this metadata and the upstream license notices when redistributing.
TITLE "golden mono"
LUT_3D_SIZE 9
DOMAIN_MIN 0 0 0
DOMAIN_MAX 1 1 1
0 0 0
0.046568627 0.031372549 0.011764706
0.088235294 0.065686275 0.030392157
0.14068627 0.10294118 0.053431373
0.21960784 0.15490196 0.084313725
0.27990196 0.19754902 0.10588235
0.34019608 0.2372549 0.13039216
0.40539216 0.28333333 0.16127451
0.45098039 0.31372549 0.17647059
0.065686275 0.046568627 0.023039216
0.054411765 0.038296569 0.015257353
0.092156863 0.065686275 0.03125
0.12910539 0.095098039 0.049509804
0.21936275 0.15661765 0.084313725
0.28137255 0.19754902 0.10716912
0.34901961 0.24252451 0.13137255
0.41231618 0.28682598 0.16470588
0.48970588 0.34068627 0.18823529
0.11960784 0.081372549 0.042156863
0.12303922 0.085171569 0.043014706
0.13848039 0.093872549 0.050735294
0.1622549 0.1122549 0.060294118
0.21813725 0.15294118 0.084313725
0.28137255 0.19509804 0.11029412
0.35392157 0.24411765 0.1379902
0.42156863 0.29215686 0.16519608
0.4754902 0.33039216 0.18529412
0.19166667 0.13431373 0.073039216
0.19558824 0.13431373 0.073039216
0.19595588 0.13529412 0.079779412
0.23480392 0.16421569 0.08872549
0.23578431 0.16323529 0.090196078
0.28284314 0.19509804 0.10974265
0.34460784 0.24019608 0.13431373
0.41844363 0.29117647 0.16519608
0.45735294 0.31764706 0.18039216
0.28823529 0.2 0.11176471
0.28480392 0.2 0.11176471
0.29460784 0.20539216 0.11617647
0.28995098 0.20245098 0.11176471
0.3 0.20784314 0.1127451
0.32352941 0.22745098 0.12352941
0.34803922 0.24705882 0.13431373
0.42843137 0.29852941 0.16519608
0.47058824 0.3254902 0.18431373
0.38088235 0.26176471 0.14656863
0.38970588 0.27058824 0.1504902
0.4127451 0.28970588 0.16164216
0.40496324 0.28192402 0.15588235
0.39803922 0.275 0.15196078
0.3838848 0.27015931 0.14803922
0.40441176 0.28529412 0.15833333
0.4153799 0.29068627 0.16501225
0.46127451 0.32156863 0.17892157
0.48529412 0.33921569 0.18627451
0.53811275 0.37291667 0.20845588
0.49607843 0.34926471 0.19534314
0.49607843 0.34852941 0.19313725
0.50098039 0.34607843 0.19362745
0.48578431 0.34411765 0.18982843
0.49411765 0.34705882 0.19313725
0.50490196 0.35147059 0.19362745
0.50294118 0.35196078 0.19411765
0.59362745 0.41666667 0.23186275
0.60281863 0.42493873 0.23578431
0.60245098 0.42156863 0.23321078
0.59981618 0.4245098 0.23235294
0.61666667 0.42794118 0.23970588
0.61979167 0.42892157 0.24019608
0.60245098 0.42022059 0.23627451
0.60189951 0.42058824 0.23578431
0.6127451 0.42843137 0.23970588
0.69411765 0.49019608 0.26666667
0.73970588 0.51666667 0.28578431
0.71568627 0.49901961 0.2754902
0.69411765 0.48627451 0.26911765
0.66666667 0.4627451 0.2627451
0.71911765 0.4995098 0.28235294
0.7254902 0.50588235 0.28627451
0.72009804 0.50882353 0.28137255
0.71764706 0.50588235 0.27843137
0.089215686 0.061764706 0.03872549
0.097487745 0.070036765 0.03872549
0.13578431 0.093995098 0.050857843
0.14852941 0.10686275 0.057352941
0.21985294 0.15514706 0.084313725
0.27616422 0.19362745 0.10735294
0.3432598 0.24117647 0.13431373
0.40882353 0.28676471 0.16127451
0.45833333 0.31764706 0.17647059
0.10490196 0.074019608 0.042647059
0.14264706 0.096997549 0.053117341
0.17702206 0.12046569 0.06573223
0.20234375 0.14215686 0.07745098
0.26887255 0.18746936 0.10321691
0.34166667 0.23921569 0.12990196
0.42487745 0.29456189 0.16164216
0.52419577 0.36421569 0.19607843
0.59411765 0.41029412 0.23039216
0.12352941 0.089215686 0.049632353
0.18566176 0.12830882 0.070036765
0.20980392 0.14427083 0.078308824
0.25056679 0.17267157 0.095772059
0.32506127 0.22726716 0.12303922
0.41125919 0.28762255 0.15681679
0.50346201 0.34825368 0.19264706
0.58284314 0.40686275 0.22696078
0.65931373 0.46556373 0.25870098
0.22175245 0.15392157 0.084803922
0.26946232 0.18480392 0.10398284
0.31292892 0.21426164 0.11968444
0.32756587 0.2254902 0.12468597
0.34240196 0.2361826 0.13161765
0.40207567 0.27678462 0.15520833
0.4932598 0.34129902 0.19215686
0.57150735 0.39901961 0.22432598
0.64381127 0.44656863 0.25343137
0.30220588 0.20980392 0.11568627
0.34463848 0.23946078 0.13431373
0.41960784 0.2901348 0.16305147
0.44117647 0.30407475 0.16853554
0.43480392 0.30134804 0.16593137
0.44028799 0.30579044 0.17107843
0.49234069 0.34546569 0.19607843
0.56761642 0.39509804 0.22303922
0.64019608 0.44117647 0.2497549
0.39264706 0.27352941 0.15177696
0.44705882 0.31127451 0.17352941
0.53051471 0.36960784 0.20821078
0.53155637 0.37009804 0.20699295
0.53529412 0.37362132 0.20603554
0.53627451 0.3736443 0.20802696
0.52584252 0.36986826 0.2122549
0.58382353 0.4062883 0.22824755
0.64019608 0.44509804 0.25
0.48137255 0.33529412 0.18627451
0.5708027 0.39411765 0.22009804
0.63284314 0.43982843 0.2481924
0.64250919 0.44803922 0.25292586
0.64460784 0.44718137 0.25098039
0.64217218 0.44840686 0.25084252
0.64488358 0.44905025 0.25462623
0.65245098 0.45588235 0.2557598
0.65637255 0.45894608 0.25588235
0.59803922 0.41758578 0.23235294
0.675 0.46715686 0.2627451
0.74600184 0.51623775 0.28965993
0.76078431 0.52843137 0.29883578
0.75245098 0.52156863 0.29362745
0.76599265 0.53284314 0.29754902
0.76017157 0.52892157 0.2971201
0.76415441 0.53321844 0.2979856
0.77156863 0.53976716 0.30147059
0.74509804 0.51764706 0.28970588
0.78333333 0.54068627 0.30196078
0.86617647 0.59754902 0.3310049
0.85018382 0.58707108 0.33137255
0.87058824 0.60612745 0.34436275
0.88743873 0.61158088 0.34019608
0.87585784 0.60894608 0.34019608
0.87941176 0.61372549 0.34019608
0.87156863 0.60980392 0.33627451
0.19901961 0.13823529 0.080392157
0.19901961 0.13823529 0.080392157
0.20784314 0.14534314 0.081372549
0.19411765 0.13051471 0.072058824
0.21862745 0.15245098 0.082352941
0.27071078 0.19019608 0.10343137
0.34313725 0.24019608 0.13333333
0.40392157 0.28578431 0.15735294
0.43823529 0.30588235 0.17156863
0.20306373 0.14607843 0.081372549
0.25176164 0.17598039 0.096783088
0.28308824 0.19607843 0.10799632
0.29080882 0.20194547 0.1122549
0.29172794 0.20447304 0.11403186
0.36617647 0.25539216 0.14197304
0.43599877 0.30294118 0.16911765
0.52064951 0.36421569 0.20268076
0.58186275 0.40980392 0.22941176
0.19901961 0.14583333 0.080392157
0.26204044 0.18480392 0.10064338
0.32573529 0.22702206 0.12647059
0.37990196 0.2625 0.14972426
0.4 0.27512255 0.15723039
0.46311275 0.32300858 0.1794424
0.54430147 0.37941176 0.21176471
0.63170956 0.44117647 0.24684436
0.70588235 0.49289216 0.27745098
0.2120098 0.14865196 0.080882353
0.27328431 0.19227941 0.10502451
0.3432598 0.24292279 0.13409926
0.44425551 0.30994179 0.17254902
0.48468137 0.33841912 0.18995098
0.52879902 0.36752451 0.20625
0.63480392 0.44292279 0.24987745
0.73463542 0.5115962 0.28970588
0.82279412 0.57034314 0.32242647
0.30784314 0.21519608 0.11911765
0.35416667 0.24656863 0.13872549
0.42267157 0.29852941 0.16568627
0.50551471 0.35392157 0.19656863
0.57230392 0.3997549 0.22205882
0.60208333 0.41868873 0.23529412
0.64865196 0.45183824 0.25453431
0.74068627 0.51452206 0.28872549
0.82745098 0.57205882 0.31960784
0.39362745 0.27745098 0.15441176
0.45569853 0.3158701 0.17745098
0.52959559 0.37025123 0.20833333
0.60585172 0.42394301 0.23676471
0.68051471 0.47254902 0.26439951
0.70473346 0.48768382 0.27617953
0.70196078 0.48676471 0.27120098
0.75392157 0.52259498 0.28890931
0.83333333 0.57647059 0.32254902
0.48529412 0.33995098 0.18921569
0.55931373 0.39019608 0.21715686
0.64583333 0.44803922 0.25563725
0.72693015 0.50572917 0.28676471
0.78921569 0.54669118 0.30821078
0.81703431 0.56666667 0.32058824
0.82083333 0.56838235 0.32040441
0.82843137 0.57460172 0.32184436
0.84215686 0.5875 0.32843137
0.59816176 0.41715686 0.23235294
0.675 0.46715686 0.26156556
0.76372549 0.52879902 0.29791667
0.85154718 0.58676471 0.33074449
0.91182598 0.62990196 0.35159314
0.91470588 0.63382353 0.35565257
0.92181373 0.64433211 0.3604473
0.9377451 0.65255821 0.36715686
0.93786765 0.65723039 0.36727941
0.7372549 0.50980392 0.28235294
0.78186275 0.54019608 0.30147059
0.87745098 0.59901961 0.33627451
0.95098039 0.65392157 0.36617647
0.975 0.71029412 0.40147059
0.9754902 0.72303922 0.40490196
0.98039216 0.72156863 0.40196078
0.99215686 0.72561275 0.40588235
0.99215686 0.72941176 0.40588235
0.34558824 0.24509804 0.13823529
0.35294118 0.24656863 0.13823529
0.34203431 0.23970588 0.13431373
0.32947304 0.22990196 0.12794118
0.34093137 0.2372549 0.13039216
0.35251225 0.24417892 0.13431373
0.35625 0.24362745 0.13676471
0.43382353 0.30422794 0.17040441
0.48088235 0.3372549 0.18823529
0.34558824 0.24656863 0.13823529
0.38676471 0.27130055 0.15294118
0.41559436 0.29183517 0.16223958
0.43167892 0.3026348 0.16892616
0.42990196 0.30030637 0.16862745
0.43039216 0.3004902 0.16862745
0.44296875 0.30723039 0.17156863
0.51731771 0.36394761 0.20343137
0.59050245 0.41452206 0.23088235
0.35098039 0.2504902 0.13823529
0.4067402 0.28690257 0.15850184
0.46813725 0.32784926 0.18431373
0.53546262 0.37513787 0.20914522
0.53553922 0.37310049 0.20876225
0.52856924 0.36862745 0.20784314
0.53838848 0.37239583 0.20784314
0.62598039 0.4372549 0.24278493
0.7127451 0.49117647 0.28039216
0.35343137 0.24901961 0.13823529
0.40783548 0.28658088 0.15882353
0.47487745 0.33656556 0.18713235
0.56266085 0.39452359 0.21911765
0.63707108 0.44408701 0.24806985
0.64432445 0.44699755 0.25202206
0.65804228 0.45844056 0.25755208
0.73431373 0.51421569 0.28640472
0.83088235 0.56960784 0.32647059
0.3627451 0.25588235 0.14215686
0.39822304 0.27288603 0.15392157
0.4848652 0.34264706 0.19166667
0.55759804 0.3921875 0.21911765
0.65061275 0.4560049 0.25428922
0.71887255 0.5 0.28039216
0.76011029 0.52640931 0.29871324
0.85784314 0.59387255 0.3364277
0.93823529 0.64852941 0.3627451
0.37542892 0.27052696 0.14803922
0.46421569 0.32272518 0.18056832
0.52470895 0.36776961 0.20588235
0.62448683 0.4377451 0.2459329
0.69215686 0.48921569 0.27083333
0.81681219 0.56813725 0.31926317
0.88209252 0.60868566 0.34385723
0.92854626 0.64619332 0.36452972
0.95931373 0.67696078 0.37892157
0.49411765 0.34705882 0.19129902
0.560769 0.39313725 0.21729473
0.64411765 0.45015319 0.25098039
0.73653493 0.5127451 0.28970588
0.81390931 0.56642157 0.31697304
0.90441176 0.62659314 0.35225184
0.97533701 0.6801777 0.38443627
0.9790288 0.68720895 0.3877451
0.98811275 0.70061275 0.39411765
0.59852941 0.41715686 0.23235294
0.675 0.47058824 0.26043964
0.75980392 0.52843137 0.29376532
0.84852941 0.58890931 0.32892157
0.93299632 0.64803922 0.36323529
0.99362745 0.70599724 0.39803922
0.9935049 0.73956801 0.41720282
0.9999617 0.75365349 0.42285539
1 0.76176471 0.42677696
0.74019608 0.51519608 0.28382353
0.78333333 0.54411765 0.30147059
0.85980392 0.59411765 0.33235294
0.95490196 0.65833333 0.36715686
0.99215686 0.71446078 0.40196078
0.99215686 0.77696078 0.43431373
0.99215686 0.82401961 0.46188725
0.99264706 0.8346201 0.46734069
0.99607843 0.83872549 0.46764706
0.49215686 0.34705882 0.19607843
0.49191176 0.34681373 0.19607843
0.50588235 0.35441176 0.19852941
0.49607843 0.34779412 0.19289216
0.50882353 0.35490196 0.19705882
0.49803922 0.34705882 0.19215686
0.4995098 0.34705882 0.19215686
0.4877451 0.33921569 0.18995098
0.48431373 0.33921569 0.19019608
0.47671569 0.33946078 0.18823529
0.55716912 0.39074755 0.21519608
0.57794118 0.40294118 0.22303922
0.59617034 0.41446078 0.23088235
0.58651961 0.40870098 0.23039216
0.58088235 0.40867034 0.22696078
0.59264706 0.41452206 0.2317402
0.58627451 0.41072304 0.23039216
0.62622549 0.43823529 0.24485294
0.48382353 0.34460784 0.19166667
0.5536152 0.39074755 0.21813725
0.63553922 0.4442402 0.24607843
0.70147059 0.4875 0.27052696
0.70416667 0.49117647 0.27352941
0.69607843 0.4872549 0.27254902
0.69460784 0.48431373 0.27144608
0.69552696 0.48578431 0.26960784
0.6995098 0.48578431 0.26862745
0.47598039 0.33676471 0.18578431
0.56063113 0.39313725 0.21911765
0.64160539 0.44901961 0.25
0.7379902 0.51397059 0.28480392
0.81384804 0.56568627 0.31348039
0.81642157 0.56568627 0.31862745
0.81280637 0.56783088 0.31691176
0.80196078 0.56421569 0.31348039
0.81960784 0.57083333 0.32254902
0.49803922 0.35 0.19411765
0.56911765 0.39522059 0.22291667
0.64779412 0.45294118 0.25392157
0.73125 0.51078431 0.28517157
0.82843137 0.5745098 0.31960784
0.9120098 0.63026961 0.3560049
0.93382353 0.64607843 0.36372549
0.93161765 0.64926471 0.36580882
0.93235294 0.65588235 0.37058824
0.50637255 0.35343137 0.19607843
0.56960784 0.39917279 0.22166054
0.64926471 0.45686275 0.25392157
0.73581495 0.51498162 0.28872549
0.82156863 0.56960784 0.31507353
0.91568627 0.63550858 0.35242034
0.97971814 0.6872549 0.38602941
0.98440564 0.73514093 0.4140625
0.96960784 0.73970588 0.41862745
0.50588235 0.35245098 0.19362745
0.56715686 0.4002451 0.21770833
0.65723039 0.4620098 0.25588235
0.76029412 0.53082108 0.2995098
0.84779412 0.58995098 0.33039216
0.93639706 0.65618873 0.36636029
0.97977941 0.70943627 0.39938725
0.99479167 0.76329657 0.43137255
0.99607843 0.79313725 0.44705882
0.60539216 0.42107843 0.23578431
0.67129289 0.47064951 0.25909926
0.75042892 0.52150735 0.29411765
0.85441176 0.59298407 0.33627451
0.94068627 0.65502451 0.36629902
0.97273284 0.70269608 0.39411765
0.99313725 0.76764706 0.43155637
0.99800858 0.81917892 0.45980392
0.99607843 0.8504902 0.47720588
0.69607843 0.48431373 0.26862745
0.76691176 0.53406863 0.29730392
0.86568627 0.6 0.33382353
0.94583333 0.65392157 0.36715686
0.98823529 0.71176471 0.39803922
0.98823529 0.75857843 0.425
0.99460784 0.83137255 0.46764706
0.99607843 0.87916667 0.49068627
0.99607843 0.94117647 0.52156863
0.65196078 0.45686275 0.25784314
0.64215686 0.4504902 0.25410539
0.64656863 0.45147059 0.25392157
0.65441176 0.45686275 0.25392157
0.65318627 0.45686275 0.25392157
0.64258578 0.4504902 0.24754902
0.65159314 0.45539216 0.25
0.64234069 0.44901961 0.25
0.64264706 0.45294118 0.25392157
0.66096814 0.46519608 0.2596201
0.72892157 0.51035539 0.28216912
0.7558364 0.52598039 0.29257047
0.7622549 0.53001685 0.29656863
0.75147059 0.52245711 0.29500613
0.75373775 0.52616422 0.2931296
0.75499387 0.52308517 0.29607843
0.76824449 0.53474265 0.3004902
0.76746324 0.5377451 0.30018382
0.64656863 0.45355392 0.25392157
0.72205882 0.50392157 0.28235294
0.81004902 0.56470588 0.31568627
0.88754596 0.61162684 0.33921569
0.87273284 0.60373775 0.34313725
0.87225797 0.60787377 0.34031863
0.8752451 0.60686275 0.34031863
0.87291667 0.60821078 0.34252451
0.88394608 0.61568627 0.34313725
0.66133578 0.46078431 0.25784314
0.72493873 0.50477175 0.28480392
0.80882353 0.56078431 0.31568627
0.91176471 0.63151808 0.35083487
0.97037377 0.67325368 0.37205882
0.95349265 0.68921569 0.38578431
0.97310049 0.69212623 0.38578431
0.96900276 0.6928462 0.38609069
0.9848652 0.69859069 0.38970588
0.65833333 0.45612745 0.25784314
0.73314951 0.50949755 0.28480392
0.82481618 0.57457108 0.32181373
0.91813725 0.63970588 0.35833333
0.96372549 0.68823529 0.38210784
0.98823529 0.74191176 0.41890319
0.99215686 0.76397059 0.42990196
0.99215686 0.76210172 0.42778799
0.99093137 0.76911765 0.43161765
0.67064951 0.465625 0.26176471
0.72922794 0.51078431 0.2838848
0.82918199 0.58002451 0.32329963
0.91329657 0.63823529 0.35680147
0.94954044 0.68507966 0.38014706
0.98235294 0.74215686 0.41617647
0.99584865 0.80729167 0.45490196
0.99215686 0.83491881 0.4702742
0.99215686 0.84019608 0.47199755
0.67512255 0.47046569 0.26176471
0.73319547 0.51127451 0.28480392
0.8111826 0.56470588 0.31568627
0.90859375 0.63786765 0.35833333
0.96715686 0.68976716 0.38529412
0.99569547 0.74160539 0.41617647
0.99215686 0.79889706 0.45098039
0.99607843 0.85784314 0.48209252
0.99754902 0.90098039 0.50588235
0.65410539 0.45686275 0.25520833
0.74721967 0.51877298 0.29221814
0.81897978 0.56875 0.32378983
0.8995098 0.63192402 0.35752911
0.96412377 0.69166667 0.3854473
0.98197763 0.7537454 0.42058824
0.99607843 0.80943627 0.45490196
0.99607843 0.86862745 0.48841912
0.99754902 0.92628676 0.51911765
0.69411765 0.49019608 0.27058824
0.78529412 0.54901961 0.30508578
0.89264706 0.61911765 0.34558824
0.94509804 0.66666667 0.37254902
0.96813725 0.70563725 0.39436275
0.99754902 0.78088235 0.43823529
1 0.83088235 0.46519608
0.99607843 0.90245098 0.50441176
0.99607843 0.94656863 0.52941176
0.84019608 0.58431373 0.32745098
0.83382353 0.58039216 0.32745098
0.81004902 0.56960784 0.32058824
0.83247549 0.58284314 0.32352941
0.84754902 0.58872549 0.32401961
0.82941176 0.5810049 0.32352941
0.82058824 0.57328431 0.31642157
0.8127451 0.56776961 0.31188725
0.80490196 0.57647059 0.3245098
0.84105392 0.58431373 0.32830882
0.89609375 0.62587316 0.35006127
0.92738971 0.64960172 0.36311275
0.92884498 0.64992341 0.36202512
0.92310049 0.64558824 0.35833333
0.92757353 0.65252757 0.36202512
0.93278186 0.6495098 0.36176471
0.94031863 0.65343137 0.36182598
0.94375 0.65735294 0.36703431
0.83039216 0.57818627 0.32377451
0.90539216 0.63422181 0.35441176
0.98302696 0.69215686 0.38602941
0.97463235 0.72352941 0.40186887
0.99080882 0.73039216 0.40808824
0.99607843 0.73403799 0.4109375
0.98841912 0.72965686 0.40490196
0.99215686 0.7265625 0.4051777
0.99142157 0.73039216 0.40882353
0.82941176 0.57892157 0.32634804
0.90894608 0.63039216 0.35526961
0.98529412 0.6939951 0.39231005
0.98820466 0.75091912 0.4194087
0.99577206 0.77941176 0.4348652
0.99607843 0.80392157 0.45110294
0.9924326 0.79607843 0.44362745
0.98867953 0.79281556 0.44362745
0.99607843 0.80061275 0.44754902
0.83039216 0.57696078 0.3245098
0.90931373 0.63039216 0.35441176
0.97965686 0.69607843 0.38921569
0.99571078 0.75502451 0.42401961
0.99289216 0.79852941 0.4502451
0.99215686 0.85741422 0.47965686
0.99215686 0.86188725 0.48382353
0.98823529 0.86568627 0.48449755
0.99607843 0.87058824 0.48823529
0.84056373 0.58431373 0.32745098
0.91323529 0.63431373 0.35441176
0.98511029 0.69901961 0.38921569
0.99607843 0.75330882 0.42401961
0.99246324 0.79901961 0.45098039
0.99607843 0.84963235 0.48085172
0.99215686 0.9020527 0.50490196
0.99094669 0.94019608 0.525
0.99215686 0.93737745 0.525
0.84730392 0.58823529 0.33063725
0.90462623 0.63367034 0.35441176
0.98008578 0.69044118 0.38921569
0.98823529 0.74420956 0.41700368
0.99264706 0.8 0.44816176
0.99607843 0.85183824 0.47794118
0.99215686 0.90447304 0.50490196
0.99341299 0.95686275 0.53651961
0.99926471 0.99215686 0.5627451
0.83247549 0.59166667 0.33137255
0.9122549 0.63431373 0.35833333
0.97843137 0.6872549 0.38921569
0.98137255 0.74348958 0.42009804
0.9911152 0.80294118 0.45012255
1 0.85877757 0.47794118
0.99607843 0.91078431 0.50882353
1 0.96421569 0.54002757
1 0.98480392 0.55392157
0.8372549 0.58823529 0.3245098
0.90539216 0.63431373 0.35441176
0.95980392 0.68431373 0.38529412
0.9942402 0.74718137 0.42009804
0.98921569 0.80294118 0.45
1 0.86078431 0.48186275
1 0.91470588 0.5127451
1 0.9745098 0.54607843
1 0.9745098 0.54607843
0.98529412 0.7 0.39313725
0.99656863 0.69264706 0.38921569
1 0.71433824 0.40490196
0.98841912 0.71078431 0.39675245
0.99583333 0.70710784 0.38921569
0.98088235 0.70606618 0.39313725
0.99522059 0.7060049 0.39571078
0.97401961 0.68872549 0.38621324
0.93872549 0.7 0.39313725
0.9651348 0.70392157 0.39313725
0.98872549 0.72598805 0.40784314
0.99607843 0.75675551 0.42696078
0.99215686 0.76143536 0.42401961
0.9924326 0.76476716 0.42356005
0.98196998 0.76503523 0.42748928
0.99232537 0.76170343 0.42401961
0.99601716 0.75864737 0.42058824
0.99607843 0.76954657 0.43186275
0.9935049 0.70343137 0.39301471
0.99215686 0.74595588 0.41617647
0.99215686 0.80052083 0.44696691
0.99215686 0.84246324 0.47009804
0.99607843 0.84264706 0.47058824
0.99595588 0.83909314 0.47000613
0.99457721 0.83517157 0.46568627
0.99215686 0.82374387 0.45919118
0.99607843 0.83480392 0.46666667
0.99295343 0.70392157 0.39362745
0.99215686 0.7495098 0.42052696
0.98872549 0.80182292 0.45098039
0.99215686 0.85962776 0.48137255
0.99500613 0.89191176 0.49828431
0.99607843 0.90441176 0.50539216
0.99607843 0.90350797 0.50502451
0.99607843 0.89705882 0.50147059
0.99607843 0.90079657 0.50539216
0.99632353 0.70343137 0.39313725
0.99264706 0.74564951 0.41835172
0.98823529 0.80214461 0.45098039
0.99215686 0.85744485 0.47858456
0.99607843 0.90379902 0.50870098
0.99500613 0.93970588 0.5260723
0.99264706 0.96795343 0.540625
0.99607843 0.96663603 0.5421875
1 0.98210784 0.55
0.99264706 0.69393382 0.38707108
0.99001225 0.74650735 0.41617647
0.99215686 0.80392157 0.45098039
0.99215686 0.85753676 0.48186275
0.99607843 0.90505515 0.50882353
0.99607843 0.94159773 0.53448989
0.99215686 0.96671262 0.55618873
0.99215686 0.99607843 0.57058824
0.99607843 0.99215686 0.57058824
1 0.70245098 0.39313725
0.99607843 0.75 0.42009804
0.99249387 0.80481005 0.45101103
0.99607843 0.85384498 0.48186275
0.99607843 0.90784314 0.50882353
1 0.95984988 0.53970588
0.99607843 0.97325368 0.56262255
0.99226409 0.99607843 0.58180147
0.99607843 0.99215686 0.59754902
0.96323529 0.7161152 0.40447304
0.98785999 0.75386029 0.42401961
0.99607843 0.80713848 0.45484069
0.99215686 0.85392157 0.48229167
0.99782475 0.90784314 0.5127451
1 0.95147059 0.53578431
1 0.98169424 0.5627451
0.99607843 0.99607843 0.58572304
0.99650735 0.99307598 0.59613971
0.99215686 0.6995098 0.38921569
0.99215686 0.73872549 0.41617647
0.99215686 0.79865196 0.44705882
0.99558824 0.8536152 0.48186275
0.99607843 0.90735294 0.50882353
1 0.95 0.53578431
1 0.97745098 0.5627451
1 0.9995098 0.58088235
1 0.99607843 0.58480392
0.99215686 0.81960784 0.45490196
0.99215686 0.80098039 0.44754902
0.99607843 0.8 0.45098039
0.99215686 0.77794118 0.43284314
0.99215686 0.75882353 0.42156863
0.99215686 0.79754902 0.44460784
0.99607843 0.80490196 0.45196078
1 0.81519608 0.45882353
1 0.79607843 0.45098039
0.99215686 0.8127451 0.45147059
0.99215686 0.84264706 0.47009804
0.99607843 0.87426471 0.49215686
0.99215686 0.85098039 0.47530637
0.99411765 0.85147059 0.47352941
0.99822304 0.87205882 0.48952206
0.99607843 0.86139706 0.48186275
1 0.86813725 0.48529412
1 0.86911765 0.48921569
0.99607843 0.78039216 0.4372549
0.99901961 0.85257353 0.47794118
0.99607843 0.89411765 0.49705882
0.99607843 0.90943627 0.50551471
0.99607843 0.94460784 0.52254902
0.99607843 0.93909314 0.51960784
1 0.94019608 0.52377451
0.99607843 0.91568627 0.5122549
0.99607843 0.92745098 0.52058824
0.99607843 0.81862745 0.4627451
0.99607843 0.84411765 0.47794118
0.99607843 0.89718137 0.50098039
0.99607843 0.93578431 0.52156863
0.99607843 0.97696078 0.54558824
0.99607843 0.99307598 0.55631127
0.99607843 0.975 0.5439951
0.99607843 0.98823529 0.55294118
0.99607843 0.98431373 0.55147059
0.99607843 0.77058824 0.43333333
0.99436275 0.83627451 0.47009804
0.99215686 0.90196078 0.50490196
0.99215686 0.94166667 0.52671569
0.99607843 0.97941176 0.54803922
0.99607843 0.98823529 0.55686275
0.99607843 0.99607843 0.56666667
0.99607843 0.99411765 0.5627451
1 0.99803922 0.55882353
0.99215686 0.83382353 0.46666667
0.99215686 0.84705882 0.47322304
0.99215686 0.90477941 0.50747549
0.99215686 0.94362745 0.52941176
0.99607843 0.97058824 0.54313725
0.99607843 0.98970588 0.56372549
0.99607843 0.99215686 0.59791667
0.99607843 0.99607843 0.59705882
0.99607843 0.99607843 0.58970588
1 0.79803922 0.44901961
1 0.85159314 0.47781863
0.99607843 0.90490196 0.50882353
0.99607843 0.95 0.53578431
0.99852941 0.98284314 0.55343137
1 1 0.57009804
0.99607843 0.99607843 0.60490196
0.99607843 0.99607843 0.62352941
0.99607843 0.99607843 0.63333333
1 0.78431373 0.44313725
1 0.82205882 0.46182598
0.99607843 0.90735294 0.50870098
0.9995098 0.95686275 0.53952206
1 0.99607843 0.56862745
0.9995098 0.99607843 0.57665441
1 0.99607843 0.59705882
0.99650735 0.99607843 0.62009804
0.99607843 0.99607843 0.63529412
0.99607843 0.80784314 0.45098039
0.99607843 0.85784314 0.47794118
0.99215686 0.9127451 0.51078431
0.99607843 0.94754902 0.53578431
0.99607843 0.98039216 0.5627451
0.99607843 1 0.59215686
1 0.99705882 0.60098039
1 0.9995098 0.61176471
0.99607843 0.99607843 0.61960784
