site/assets/luts/natron-haldclut--kodak-t-max-400--5fe7ba013.cube
# LUTr-Project: LUTr — LUTrepository
# LUTr-Schema-Version: 1
# LUTr-ID: natron-haldclut--kodak-t-max-400--5fe7ba013
# LUTr-Title: kodak t-max 400
# LUTr-Collection: Natron HaldCLUT
# LUTr-Collection-ID: natron-haldclut-presets
# LUTr-Source: https://github.com/NatronGitHub/clut
# LUTr-Source-File: submissions/natron-haldclut-presets/bw/kodak_t-max_400.png
# LUTr-Source-Format: PNG
# LUTr-Source-SHA256: a0cfcb97477e58d152e3bfb59453ad2be4b13f409d79e87321219cec747d7148
# LUTr-License: CC-BY-SA-4.0
# LUTr-License-URL: https://github.com/NatronGitHub/clut#license
# LUTr-Tags: creative, film, film-emulation, hald-clut, natron, png, cube
# LUTr-Transform-Class: film-emulation
# LUTr-Input-Color-Space: srgb
# LUTr-Output-Color-Space: srgb
# LUTr-Color-Space-Confidence: assumed-display-referred
# LUTr-Conversion-Method: PNG LUT image decoded at 16-bit and sampled to 25x25x25 3D CUBE
# LUTr-Conversion-Date: 2026-07-27
# LUTr-Conversion-Tool: LUTr scripts/convert-all-to-cube.mjs
# LUTr-Conversion-Grid: 25x25x25
# LUTr-Note: Preserve this metadata and the upstream license notices when redistributing.
TITLE "kodak t-max 400"
LUT_3D_SIZE 25
DOMAIN_MIN 0 0 0
DOMAIN_MAX 1 1 1
0.031372549 0.031372549 0.031372549
0.031372549 0.031372549 0.031372549
0.031372549 0.031372549 0.031372549
0.027941176 0.027941176 0.027941176
0.02745098 0.02745098 0.02745098
0.02745098 0.02745098 0.02745098
0.024509804 0.024509804 0.024509804
0.023529412 0.023529412 0.023529412
0.019607843 0.019607843 0.019607843
0.019607843 0.019607843 0.019607843
0.015686275 0.015686275 0.015686275
0.012254902 0.012254902 0.012254902
0.01372549 0.01372549 0.01372549
0.019607843 0.019607843 0.019607843
0.023529412 0.023529412 0.023529412
0.02745098 0.02745098 0.02745098
0.031372549 0.031372549 0.031372549
0.031372549 0.031372549 0.031372549
0.031372549 0.031372549 0.031372549
0.031372549 0.031372549 0.031372549
0.031372549 0.031372549 0.031372549
0.031372549 0.031372549 0.031372549
0.031372549 0.031372549 0.031372549
0.02745098 0.02745098 0.02745098
0.02745098 0.02745098 0.02745098
0.031372549 0.031372549 0.031372549
0.031372549 0.031372549 0.031372549
0.031372549 0.031372549 0.031372549
0.031372549 0.031372549 0.031372549
0.031372549 0.031372549 0.031372549
0.033823529 0.033823529 0.033823529
0.03627451 0.03627451 0.03627451
0.031433824 0.031433824 0.031433824
0.025980392 0.025980392 0.025980392
0.022058824 0.022058824 0.022058824
0.01752451 0.01752451 0.01752451
0.012254902 0.012254902 0.012254902
0.0125 0.0125 0.0125
0.019914216 0.019914216 0.019914216
0.027083333 0.027083333 0.027083333
0.033823529 0.033823529 0.033823529
0.040196078 0.040196078 0.040196078
0.043198529 0.043198529 0.043198529
0.045220588 0.045220588 0.045220588
0.041973039 0.041973039 0.041973039
0.037745098 0.037745098 0.037745098
0.033823529 0.033823529 0.033823529
0.031372549 0.031372549 0.031372549
0.02745098 0.02745098 0.02745098
0.02745098 0.02745098 0.02745098
0.031372549 0.031372549 0.031372549
0.031985294 0.031985294 0.031985294
0.03627451 0.03627451 0.03627451
0.039705882 0.039705882 0.039705882
0.042647059 0.042647059 0.042647059
0.048161765 0.048161765 0.048161765
0.05122549 0.05122549 0.05122549
0.052941176 0.052941176 0.052941176
0.046078431 0.046078431 0.046078431
0.039338235 0.039338235 0.039338235
0.032598039 0.032598039 0.032598039
0.026838235 0.026838235 0.026838235
0.026470588 0.026470588 0.026470588
0.034681373 0.034681373 0.034681373
0.044117647 0.044117647 0.044117647
0.053308824 0.053308824 0.053308824
0.060784314 0.060784314 0.060784314
0.065318627 0.065318627 0.065318627
0.067647059 0.067647059 0.067647059
0.06127451 0.06127451 0.06127451
0.054901961 0.054901961 0.054901961
0.047671569 0.047671569 0.047671569
0.038235294 0.038235294 0.038235294
0.030882353 0.030882353 0.030882353
0.02745098 0.02745098 0.02745098
0.041666667 0.041666667 0.041666667
0.048223039 0.048223039 0.048223039
0.053553922 0.053553922 0.053553922
0.057781863 0.057781863 0.057781863
0.061764706 0.061764706 0.061764706
0.065686275 0.065686275 0.065686275
0.06875 0.06875 0.06875
0.069791667 0.069791667 0.069791667
0.069607843 0.069607843 0.069607843
0.063235294 0.063235294 0.063235294
0.057720588 0.057720588 0.057720588
0.057352941 0.057352941 0.057352941
0.057352941 0.057352941 0.057352941
0.061335784 0.061335784 0.061335784
0.068627451 0.068627451 0.068627451
0.078431373 0.078431373 0.078431373
0.085294118 0.085294118 0.085294118
0.091360294 0.091360294 0.091360294
0.089215686 0.089215686 0.089215686
0.081862745 0.081862745 0.081862745
0.075490196 0.075490196 0.075490196
0.068688725 0.068688725 0.068688725
0.058823529 0.058823529 0.058823529
0.048529412 0.048529412 0.048529412
0.041176471 0.041176471 0.041176471
0.076470588 0.076470588 0.076470588
0.078921569 0.078921569 0.078921569
0.084313725 0.084313725 0.084313725
0.087745098 0.087745098 0.087745098
0.089215686 0.089215686 0.089215686
0.08995098 0.08995098 0.08995098
0.089705882 0.089705882 0.089705882
0.090196078 0.090196078 0.090196078
0.090196078 0.090196078 0.090196078
0.087745098 0.087745098 0.087745098
0.084313725 0.084313725 0.084313725
0.084313725 0.084313725 0.084313725
0.087254902 0.087254902 0.087254902
0.08872549 0.08872549 0.08872549
0.095098039 0.095098039 0.095098039
0.10343137 0.10343137 0.10343137
0.11176471 0.11176471 0.11176471
0.11495098 0.11495098 0.11495098
0.1127451 0.1127451 0.1127451
0.10612745 0.10612745 0.10612745
0.10098039 0.10098039 0.10098039
0.095588235 0.095588235 0.095588235
0.08872549 0.08872549 0.08872549
0.082352941 0.082352941 0.082352941
0.082352941 0.082352941 0.082352941
0.10735294 0.10735294 0.10735294
0.10949755 0.10949755 0.10949755
0.1122549 0.1122549 0.1122549
0.115625 0.115625 0.115625
0.12107843 0.12107843 0.12107843
0.12303922 0.12303922 0.12303922
0.11960784 0.11960784 0.11960784
0.11764706 0.11764706 0.11764706
0.11127451 0.11127451 0.11127451
0.11078431 0.11078431 0.11078431
0.11090686 0.11090686 0.11090686
0.11470588 0.11470588 0.11470588
0.11519608 0.11519608 0.11519608
0.11911765 0.11911765 0.11911765
0.12291667 0.12291667 0.12291667
0.12824755 0.12824755 0.12824755
0.13480392 0.13480392 0.13480392
0.13823529 0.13823529 0.13823529
0.13431373 0.13431373 0.13431373
0.13088235 0.13088235 0.13088235
0.13235294 0.13235294 0.13235294
0.12303922 0.12303922 0.12303922
0.11960784 0.11960784 0.11960784
0.12322304 0.12322304 0.12322304
0.12352941 0.12352941 0.12352941
0.13431373 0.13431373 0.13431373
0.14007353 0.14007353 0.14007353
0.14681373 0.14681373 0.14681373
0.15257353 0.15257353 0.15257353
0.15735294 0.15735294 0.15735294
0.16041667 0.16041667 0.16041667
0.15686275 0.15686275 0.15686275
0.15294118 0.15294118 0.15294118
0.14901961 0.14901961 0.14901961
0.14056373 0.14056373 0.14056373
0.14142157 0.14142157 0.14142157
0.14595588 0.14595588 0.14595588
0.14754902 0.14754902 0.14754902
0.15 0.15 0.15
0.15073529 0.15073529 0.15073529
0.15428922 0.15428922 0.15428922
0.15882353 0.15882353 0.15882353
0.15992647 0.15992647 0.15992647
0.15882353 0.15882353 0.15882353
0.15882353 0.15882353 0.15882353
0.15784314 0.15784314 0.15784314
0.15698529 0.15698529 0.15698529
0.16004902 0.16004902 0.16004902
0.1622549 0.1622549 0.1622549
0.16470588 0.16470588 0.16470588
0.17843137 0.17843137 0.17843137
0.18143382 0.18143382 0.18143382
0.18664216 0.18664216 0.18664216
0.19362745 0.19362745 0.19362745
0.19607843 0.19607843 0.19607843
0.19803922 0.19803922 0.19803922
0.19803922 0.19803922 0.19803922
0.19503676 0.19503676 0.19503676
0.19019608 0.19019608 0.19019608
0.18682598 0.18682598 0.18682598
0.18382353 0.18382353 0.18382353
0.18382353 0.18382353 0.18382353
0.18627451 0.18627451 0.18627451
0.18627451 0.18627451 0.18627451
0.18627451 0.18627451 0.18627451
0.18480392 0.18480392 0.18480392
0.18088235 0.18088235 0.18088235
0.18480392 0.18480392 0.18480392
0.18909314 0.18909314 0.18909314
0.19019608 0.19019608 0.19019608
0.19411765 0.19411765 0.19411765
0.19803922 0.19803922 0.19803922
0.20098039 0.20098039 0.20098039
0.20343137 0.20343137 0.20343137
0.20588235 0.20588235 0.20588235
0.22352941 0.22352941 0.22352941
0.22745098 0.22745098 0.22745098
0.23137255 0.23137255 0.23137255
0.23529412 0.23529412 0.23529412
0.23921569 0.23921569 0.23921569
0.24313725 0.24313725 0.24313725
0.23921569 0.23921569 0.23921569
0.23921569 0.23921569 0.23921569
0.23529412 0.23529412 0.23529412
0.23137255 0.23137255 0.23137255
0.22745098 0.22745098 0.22745098
0.22745098 0.22745098 0.22745098
0.22745098 0.22745098 0.22745098
0.22745098 0.22745098 0.22745098
0.22352941 0.22352941 0.22352941
0.22352941 0.22352941 0.22352941
0.22352941 0.22352941 0.22352941
0.22598039 0.22598039 0.22598039
0.22843137 0.22843137 0.22843137
0.23137255 0.23137255 0.23137255
0.23529412 0.23529412 0.23529412
0.23921569 0.23921569 0.23921569
0.24313725 0.24313725 0.24313725
0.24705882 0.24705882 0.24705882
0.24705882 0.24705882 0.24705882
0.27254902 0.27254902 0.27254902
0.27254902 0.27254902 0.27254902
0.27536765 0.27536765 0.27536765
0.28020833 0.28020833 0.28020833
0.28357843 0.28357843 0.28357843
0.28431373 0.28431373 0.28431373
0.28431373 0.28431373 0.28431373
0.28192402 0.28192402 0.28192402
0.28039216 0.28039216 0.28039216
0.27647059 0.27647059 0.27647059
0.27254902 0.27254902 0.27254902
0.27126225 0.27126225 0.27126225
0.26862745 0.26862745 0.26862745
0.26862745 0.26862745 0.26862745
0.26862745 0.26862745 0.26862745
0.26862745 0.26862745 0.26862745
0.26862745 0.26862745 0.26862745
0.27015931 0.27015931 0.27015931
0.27316176 0.27316176 0.27316176
0.27647059 0.27647059 0.27647059
0.27965686 0.27965686 0.27965686
0.28302696 0.28302696 0.28302696
0.28786765 0.28786765 0.28786765
0.29215686 0.29215686 0.29215686
0.29215686 0.29215686 0.29215686
0.32156863 0.32156863 0.32156863
0.32156863 0.32156863 0.32156863
0.32181373 0.32181373 0.32181373
0.32512255 0.32512255 0.32512255
0.32941176 0.32941176 0.32941176
0.33039216 0.33039216 0.33039216
0.32941176 0.32941176 0.32941176
0.32610294 0.32610294 0.32610294
0.32254902 0.32254902 0.32254902
0.32156863 0.32156863 0.32156863
0.31838235 0.31838235 0.31838235
0.31507353 0.31507353 0.31507353
0.31372549 0.31372549 0.31372549
0.31372549 0.31372549 0.31372549
0.31372549 0.31372549 0.31372549
0.31078431 0.31078431 0.31078431
0.31078431 0.31078431 0.31078431
0.31433824 0.31433824 0.31433824
0.31862745 0.31862745 0.31862745
0.32242647 0.32242647 0.32242647
0.32647059 0.32647059 0.32647059
0.33088235 0.33088235 0.33088235
0.33651961 0.33651961 0.33651961
0.33823529 0.33823529 0.33823529
0.33823529 0.33823529 0.33823529
0.37009804 0.37009804 0.37009804
0.37009804 0.37009804 0.37009804
0.37009804 0.37009804 0.37009804
0.37009804 0.37009804 0.37009804
0.37230392 0.37230392 0.37230392
0.3745098 0.3745098 0.3745098
0.37414216 0.37414216 0.37414216
0.37058824 0.37058824 0.37058824
0.36666667 0.36666667 0.36666667
0.36636029 0.36636029 0.36636029
0.3627451 0.3627451 0.3627451
0.36231618 0.36231618 0.36231618
0.35882353 0.35882353 0.35882353
0.35876225 0.35876225 0.35876225
0.35833333 0.35833333 0.35833333
0.35490196 0.35490196 0.35490196
0.35490196 0.35490196 0.35490196
0.36096814 0.36096814 0.36096814
0.36360294 0.36360294 0.36360294
0.36966912 0.36966912 0.36966912
0.37426471 0.37426471 0.37426471
0.38186275 0.38186275 0.38186275
0.38492647 0.38492647 0.38492647
0.38578431 0.38578431 0.38578431
0.38578431 0.38578431 0.38578431
0.41764706 0.41764706 0.41764706
0.41764706 0.41764706 0.41764706
0.41568627 0.41568627 0.41568627
0.41568627 0.41568627 0.41568627
0.41666667 0.41666667 0.41666667
0.41960784 0.41960784 0.41960784
0.41813725 0.41813725 0.41813725
0.41495098 0.41495098 0.41495098
0.41372549 0.41372549 0.41372549
0.41176471 0.41176471 0.41176471
0.40980392 0.40980392 0.40980392
0.40808824 0.40808824 0.40808824
0.40686275 0.40686275 0.40686275
0.40563725 0.40563725 0.40563725
0.40392157 0.40392157 0.40392157
0.40196078 0.40196078 0.40196078
0.40196078 0.40196078 0.40196078
0.40710784 0.40710784 0.40710784
0.4122549 0.4122549 0.4122549
0.41740196 0.41740196 0.41740196
0.42352941 0.42352941 0.42352941
0.42965686 0.42965686 0.42965686
0.43137255 0.43137255 0.43137255
0.43137255 0.43137255 0.43137255
0.43137255 0.43137255 0.43137255
0.46519608 0.46519608 0.46519608
0.46519608 0.46519608 0.46519608
0.46470588 0.46470588 0.46470588
0.46127451 0.46127451 0.46127451
0.46127451 0.46127451 0.46127451
0.46470588 0.46470588 0.46470588
0.46470588 0.46470588 0.46470588
0.46109069 0.46109069 0.46109069
0.46078431 0.46078431 0.46078431
0.45735294 0.45735294 0.45735294
0.45735294 0.45735294 0.45735294
0.45692402 0.45692402 0.45692402
0.45343137 0.45343137 0.45343137
0.4533701 0.4533701 0.4533701
0.45036765 0.45036765 0.45036765
0.4495098 0.4495098 0.4495098
0.4495098 0.4495098 0.4495098
0.45588235 0.45588235 0.45588235
0.46127451 0.46127451 0.46127451
0.46519608 0.46519608 0.46519608
0.47254902 0.47254902 0.47254902
0.47647059 0.47647059 0.47647059
0.47647059 0.47647059 0.47647059
0.475 0.475 0.475
0.47254902 0.47254902 0.47254902
0.51372549 0.51372549 0.51372549
0.51311275 0.51311275 0.51311275
0.5127451 0.5127451 0.5127451
0.50980392 0.50980392 0.50980392
0.50882353 0.50882353 0.50882353
0.50980392 0.50980392 0.50980392
0.50980392 0.50980392 0.50980392
0.50772059 0.50772059 0.50772059
0.50588235 0.50588235 0.50588235
0.50526961 0.50526961 0.50526961
0.50490196 0.50490196 0.50490196
0.50490196 0.50490196 0.50490196
0.50196078 0.50196078 0.50196078
0.50098039 0.50098039 0.50098039
0.50098039 0.50098039 0.50098039
0.49803922 0.49803922 0.49803922
0.50098039 0.50098039 0.50098039
0.50490196 0.50490196 0.50490196
0.50980392 0.50980392 0.50980392
0.51360294 0.51360294 0.51360294
0.51715686 0.51715686 0.51715686
0.51764706 0.51764706 0.51764706
0.51764706 0.51764706 0.51764706
0.51617647 0.51617647 0.51617647
0.51372549 0.51372549 0.51372549
0.55882353 0.55882353 0.55882353
0.55882353 0.55882353 0.55882353
0.55821078 0.55821078 0.55821078
0.55490196 0.55490196 0.55490196
0.55490196 0.55490196 0.55490196
0.55490196 0.55490196 0.55490196
0.55490196 0.55490196 0.55490196
0.55490196 0.55490196 0.55490196
0.55245098 0.55245098 0.55245098
0.55245098 0.55245098 0.55245098
0.55245098 0.55245098 0.55245098
0.55245098 0.55245098 0.55245098
0.55245098 0.55245098 0.55245098
0.55067402 0.55067402 0.55067402
0.54852941 0.54852941 0.54852941
0.54852941 0.54852941 0.54852941
0.55245098 0.55245098 0.55245098
0.55490196 0.55490196 0.55490196
0.55637255 0.55637255 0.55637255
0.55882353 0.55882353 0.55882353
0.55882353 0.55882353 0.55882353
0.55882353 0.55882353 0.55882353
0.55882353 0.55882353 0.55882353
0.55882353 0.55882353 0.55882353
0.55490196 0.55490196 0.55490196
0.6 0.6 0.6
0.6 0.6 0.6
0.6 0.6 0.6
0.59607843 0.59607843 0.59607843
0.59607843 0.59607843 0.59607843
0.59607843 0.59607843 0.59607843
0.59607843 0.59607843 0.59607843
0.59607843 0.59607843 0.59607843
0.6 0.6 0.6
0.6 0.6 0.6
0.6 0.6 0.6
0.6 0.6 0.6
0.6 0.6 0.6
0.6 0.6 0.6
0.6 0.6 0.6
0.6 0.6 0.6
0.6 0.6 0.6
0.6 0.6 0.6
0.6 0.6 0.6
0.6 0.6 0.6
0.6 0.6 0.6
0.6 0.6 0.6
0.6 0.6 0.6
0.6 0.6 0.6
0.6 0.6 0.6
0.64117647 0.64117647 0.64117647
0.64117647 0.64117647 0.64117647
0.64117647 0.64117647 0.64117647
0.6372549 0.6372549 0.6372549
0.6372549 0.6372549 0.6372549
0.6372549 0.6372549 0.6372549
0.6372549 0.6372549 0.6372549
0.64117647 0.64117647 0.64117647
0.64362745 0.64362745 0.64362745
0.64509804 0.64509804 0.64509804
0.64571078 0.64571078 0.64571078
0.64754902 0.64754902 0.64754902
0.64754902 0.64754902 0.64754902
0.64754902 0.64754902 0.64754902
0.64754902 0.64754902 0.64754902
0.64754902 0.64754902 0.64754902
0.64509804 0.64509804 0.64509804
0.64509804 0.64509804 0.64509804
0.64117647 0.64117647 0.64117647
0.64117647 0.64117647 0.64117647
0.64117647 0.64117647 0.64117647
0.64117647 0.64117647 0.64117647
0.64117647 0.64117647 0.64117647
0.64117647 0.64117647 0.64117647
0.64117647 0.64117647 0.64117647
0.68235294 0.68235294 0.68235294
0.68235294 0.68235294 0.68235294
0.68235294 0.68235294 0.68235294
0.68235294 0.68235294 0.68235294
0.67892157 0.67892157 0.67892157
0.67843137 0.67843137 0.67843137
0.67916667 0.67916667 0.67916667
0.68235294 0.68235294 0.68235294
0.68627451 0.68627451 0.68627451
0.69019608 0.69019608 0.69019608
0.69044118 0.69044118 0.69044118
0.69375 0.69375 0.69375
0.69411765 0.69411765 0.69411765
0.69411765 0.69411765 0.69411765
0.69411765 0.69411765 0.69411765
0.69019608 0.69019608 0.69019608
0.68627451 0.68627451 0.68627451
0.68627451 0.68627451 0.68627451
0.68627451 0.68627451 0.68627451
0.68247549 0.68247549 0.68247549
0.68235294 0.68235294 0.68235294
0.68333333 0.68333333 0.68333333
0.68333333 0.68333333 0.68333333
0.68333333 0.68333333 0.68333333
0.68333333 0.68333333 0.68333333
0.72352941 0.72352941 0.72352941
0.72352941 0.72352941 0.72352941
0.72352941 0.72352941 0.72352941
0.72352941 0.72352941 0.72352941
0.72352941 0.72352941 0.72352941
0.72310049 0.72310049 0.72310049
0.72340686 0.72340686 0.72340686
0.725 0.725 0.725
0.72745098 0.72745098 0.72745098
0.73137255 0.73137255 0.73137255
0.73529412 0.73529412 0.73529412
0.73529412 0.73529412 0.73529412
0.73921569 0.73921569 0.73921569
0.73921569 0.73921569 0.73921569
0.73615196 0.73615196 0.73615196
0.73137255 0.73137255 0.73137255
0.72745098 0.72745098 0.72745098
0.72745098 0.72745098 0.72745098
0.72352941 0.72352941 0.72352941
0.72352941 0.72352941 0.72352941
0.7254902 0.7254902 0.7254902
0.72745098 0.72745098 0.72745098
0.72745098 0.72745098 0.72745098
0.72745098 0.72745098 0.72745098
0.72745098 0.72745098 0.72745098
0.7627451 0.7627451 0.7627451
0.76470588 0.76470588 0.76470588
0.76470588 0.76470588 0.76470588
0.76470588 0.76470588 0.76470588
0.76470588 0.76470588 0.76470588
0.76470588 0.76470588 0.76470588
0.76470588 0.76470588 0.76470588
0.76862745 0.76862745 0.76862745
0.77254902 0.77254902 0.77254902
0.775 0.775 0.775
0.77647059 0.77647059 0.77647059
0.78014706 0.78014706 0.78014706
0.78039216 0.78039216 0.78039216
0.78039216 0.78039216 0.78039216
0.77696078 0.77696078 0.77696078
0.77254902 0.77254902 0.77254902
0.76862745 0.76862745 0.76862745
0.76617647 0.76617647 0.76617647
0.76470588 0.76470588 0.76470588
0.76470588 0.76470588 0.76470588
0.76470588 0.76470588 0.76470588
0.76691176 0.76691176 0.76691176
0.76862745 0.76862745 0.76862745
0.76862745 0.76862745 0.76862745
0.76862745 0.76862745 0.76862745
0.80147059 0.80147059 0.80147059
0.80177696 0.80177696 0.80177696
0.80196078 0.80196078 0.80196078
0.80196078 0.80196078 0.80196078
0.80196078 0.80196078 0.80196078
0.80196078 0.80196078 0.80196078
0.8057598 0.8057598 0.8057598
0.80735294 0.80735294 0.80735294
0.80980392 0.80980392 0.80980392
0.81372549 0.81372549 0.81372549
0.81458333 0.81458333 0.81458333
0.81715686 0.81715686 0.81715686
0.81764706 0.81764706 0.81764706
0.81764706 0.81764706 0.81764706
0.81715686 0.81715686 0.81715686
0.81372549 0.81372549 0.81372549
0.80980392 0.80980392 0.80980392
0.80735294 0.80735294 0.80735294
0.80588235 0.80588235 0.80588235
0.80588235 0.80588235 0.80588235
0.80588235 0.80588235 0.80588235
0.80588235 0.80588235 0.80588235
0.80588235 0.80588235 0.80588235
0.80588235 0.80588235 0.80588235
0.80588235 0.80588235 0.80588235
0.83627451 0.83627451 0.83627451
0.83921569 0.83921569 0.83921569
0.84019608 0.84019608 0.84019608
0.84276961 0.84276961 0.84276961
0.84313725 0.84313725 0.84313725
0.84313725 0.84313725 0.84313725
0.84387255 0.84387255 0.84387255
0.84705882 0.84705882 0.84705882
0.84803922 0.84803922 0.84803922
0.84987745 0.84987745 0.84987745
0.85098039 0.85098039 0.85098039
0.85196078 0.85196078 0.85196078
0.85196078 0.85196078 0.85196078
0.85196078 0.85196078 0.85196078
0.85196078 0.85196078 0.85196078
0.85098039 0.85098039 0.85098039
0.84803922 0.84803922 0.84803922
0.84705882 0.84705882 0.84705882
0.84632353 0.84632353 0.84632353
0.84313725 0.84313725 0.84313725
0.84313725 0.84313725 0.84313725
0.84313725 0.84313725 0.84313725
0.84313725 0.84313725 0.84313725
0.84313725 0.84313725 0.84313725
0.84313725 0.84313725 0.84313725
0.87107843 0.87107843 0.87107843
0.87107843 0.87107843 0.87107843
0.875 0.875 0.875
0.8786152 0.8786152 0.8786152
0.88039216 0.88039216 0.88039216
0.88069853 0.88069853 0.88069853
0.88284314 0.88284314 0.88284314
0.88284314 0.88284314 0.88284314
0.88284314 0.88284314 0.88284314
0.88192402 0.88192402 0.88192402
0.88137255 0.88137255 0.88137255
0.88137255 0.88137255 0.88137255
0.88284314 0.88284314 0.88284314
0.88284314 0.88284314 0.88284314
0.88284314 0.88284314 0.88284314
0.88284314 0.88284314 0.88284314
0.88284314 0.88284314 0.88284314
0.88284314 0.88284314 0.88284314
0.88284314 0.88284314 0.88284314
0.87910539 0.87910539 0.87910539
0.87892157 0.87892157 0.87892157
0.87892157 0.87892157 0.87892157
0.87561275 0.87561275 0.87561275
0.875 0.875 0.875
0.87352941 0.87352941 0.87352941
0.89411765 0.89411765 0.89411765
0.89656863 0.89656863 0.89656863
0.89901961 0.89901961 0.89901961
0.90196078 0.90196078 0.90196078
0.90980392 0.90980392 0.90980392
0.91372549 0.91372549 0.91372549
0.90980392 0.90980392 0.90980392
0.90588235 0.90588235 0.90588235
0.90588235 0.90588235 0.90588235
0.90588235 0.90588235 0.90588235
0.90588235 0.90588235 0.90588235
0.90588235 0.90588235 0.90588235
0.90588235 0.90588235 0.90588235
0.90588235 0.90588235 0.90588235
0.90588235 0.90588235 0.90588235
0.90588235 0.90588235 0.90588235
0.90588235 0.90588235 0.90588235
0.90588235 0.90588235 0.90588235
0.90588235 0.90588235 0.90588235
0.90588235 0.90588235 0.90588235
0.90588235 0.90588235 0.90588235
0.90196078 0.90196078 0.90196078
0.89803922 0.89803922 0.89803922
0.89803922 0.89803922 0.89803922
0.89803922 0.89803922 0.89803922
0.028921569 0.028921569 0.028921569
0.02745098 0.02745098 0.02745098
0.02745098 0.02745098 0.02745098
0.02745098 0.02745098 0.02745098
0.02745098 0.02745098 0.02745098
0.026960784 0.026960784 0.026960784
0.023529412 0.023529412 0.023529412
0.023529412 0.023529412 0.023529412
0.019607843 0.019607843 0.019607843
0.019607843 0.019607843 0.019607843
0.015686275 0.015686275 0.015686275
0.015686275 0.015686275 0.015686275
0.018137255 0.018137255 0.018137255
0.019914216 0.019914216 0.019914216
0.023529412 0.023529412 0.023529412
0.02745098 0.02745098 0.02745098
0.031372549 0.031372549 0.031372549
0.031372549 0.031372549 0.031372549
0.030759804 0.030759804 0.030759804
0.028737745 0.028737745 0.028737745
0.031372549 0.031372549 0.031372549
0.031066176 0.031066176 0.031066176
0.027818627 0.027818627 0.027818627
0.02745098 0.02745098 0.02745098
0.02745098 0.02745098 0.02745098
0.028921569 0.028921569 0.028921569
0.029878983 0.029878983 0.029878983
0.030453431 0.030453431 0.030453431
0.030453431 0.030453431 0.030453431
0.03091299 0.03091299 0.03091299
0.033823529 0.033823529 0.033823529
0.033823529 0.033823529 0.033823529
0.031433824 0.031433824 0.031433824
0.025980392 0.025980392 0.025980392
0.022058824 0.022058824 0.022058824
0.017907475 0.017907475 0.017907475
0.017218137 0.017218137 0.017218137
0.018137255 0.018137255 0.018137255
0.021369485 0.021369485 0.021369485
0.02823223 0.02823223 0.02823223
0.033823529 0.033823529 0.033823529
0.040196078 0.040196078 0.040196078
0.043543199 0.043543199 0.043543199
0.044117647 0.044117647 0.044117647
0.041168811 0.041168811 0.041168811
0.037285539 0.037285539 0.037285539
0.033517157 0.033517157 0.033517157
0.030683211 0.030683211 0.030683211
0.02745098 0.02745098 0.02745098
0.02745098 0.02745098 0.02745098
0.032352941 0.032352941 0.032352941
0.034114583 0.034114583 0.034114583
0.036427696 0.036427696 0.036427696
0.040058211 0.040058211 0.040058211
0.042647059 0.042647059 0.042647059
0.048085172 0.048085172 0.048085172
0.05122549 0.05122549 0.05122549
0.051608456 0.051608456 0.051608456
0.046078431 0.046078431 0.046078431
0.040487132 0.040487132 0.040487132
0.03560049 0.03560049 0.03560049
0.032843137 0.032843137 0.032843137
0.034313725 0.034313725 0.034313725
0.038143382 0.038143382 0.038143382
0.045557598 0.045557598 0.045557598
0.053998162 0.053998162 0.053998162
0.060784314 0.060784314 0.060784314
0.065318627 0.065318627 0.065318627
0.066268382 0.066268382 0.066268382
0.06127451 0.06127451 0.06127451
