site/assets/luts/natron-haldclut--polaroid-px-70-cold--15881955e.cube
# LUTr-Project: LUTr — LUTrepository
# LUTr-Schema-Version: 1
# LUTr-ID: natron-haldclut--polaroid-px-70-cold--15881955e
# LUTr-Title: polaroid px-70 cold +
# LUTr-Collection: Natron HaldCLUT
# LUTr-Collection-ID: natron-haldclut-presets
# LUTr-Source: https://github.com/NatronGitHub/clut
# LUTr-Source-File: submissions/natron-haldclut-presets/instant_consumer/polaroid_px-70_cold_+.png
# LUTr-Source-Format: PNG
# LUTr-Source-SHA256: b8387102b58bb65100b40f0b070ef02772380035e204b85419dc5510a829755a
# LUTr-License: CC-BY-SA-4.0
# LUTr-License-URL: https://github.com/NatronGitHub/clut#license
# LUTr-Tags: creative, film, film-emulation, hald-clut, natron, png, cool, cube
# LUTr-Transform-Class: film-emulation
# LUTr-Input-Color-Space: srgb
# LUTr-Output-Color-Space: srgb
# LUTr-Color-Space-Confidence: assumed-display-referred
# LUTr-Conversion-Method: PNG LUT image decoded at 16-bit and sampled to 25x25x25 3D CUBE
# LUTr-Conversion-Date: 2026-07-27
# LUTr-Conversion-Tool: LUTr scripts/convert-all-to-cube.mjs
# LUTr-Conversion-Grid: 25x25x25
# LUTr-Note: Preserve this metadata and the upstream license notices when redistributing.
TITLE "polaroid px-70 cold +"
LUT_3D_SIZE 9
DOMAIN_MIN 0 0 0
DOMAIN_MAX 1 1 1
0 0.23921569 0.31764706
0 0.23921569 0.31764706
0.0078431373 0.23529412 0.31372549
0.011764706 0.22745098 0.31372549
0.1627451 0.22941176 0.31372549
0.49852941 0.25245098 0.30980392
0.74705882 0.33235294 0.30882353
0.91519608 0.42598039 0.30686275
0.99607843 0.54117647 0.3372549
0 0.23921569 0.31372549
0 0.23921569 0.31372549
0.0039215686 0.24276961 0.31372549
0 0.23137255 0.30980392
0.22034314 0.24485294 0.30980392
0.52077206 0.275 0.30980392
0.76727941 0.34656863 0.30588235
0.91568627 0.45637255 0.30680147
0.96911765 0.5254902 0.32990196
0 0.23137255 0.30980392
0.0037990196 0.25355392 0.30980392
0.0039215686 0.26887255 0.31004902
0.035171569 0.26960784 0.30980392
0.28970588 0.29607843 0.30980392
0.5372549 0.32071078 0.30196078
0.76568627 0.4 0.29901961
0.9122549 0.50931373 0.31666667
0.98333333 0.58137255 0.33627451
0 0.34705882 0.31617647
0 0.34558824 0.31764706
0.0014705882 0.34313725 0.31372549
0.078431373 0.35833333 0.30980392
0.37598039 0.40588235 0.30980392
0.59558824 0.45294118 0.30196078
0.77144608 0.49080882 0.30232843
0.90373775 0.58106618 0.321875
0.97401961 0.63627451 0.33480392
0 0.47647059 0.32156863
0.0039215686 0.48431373 0.32328431
0.014705882 0.49558824 0.32352941
0.07254902 0.5004902 0.31764706
0.41764706 0.54019608 0.31372549
0.64387255 0.58651961 0.30392157
0.78921569 0.62598039 0.29558824
0.88382353 0.65735294 0.31397059
0.95098039 0.68039216 0.32156863
0.0039215686 0.67401961 0.35196078
0.0065563725 0.65618873 0.35067402
0.0068627451 0.67009804 0.3504902
0.23921569 0.68186275 0.34957108
0.47303922 0.69436275 0.34730392
0.65833333 0.725 0.3504902
0.78823529 0.74595588 0.34264706
0.87990196 0.7591299 0.36047794
0.95686275 0.77303922 0.39117647
0.092156863 0.81470588 0.39019608
0.16960784 0.81421569 0.39448529
0.27965686 0.80294118 0.40980392
0.41568627 0.80784314 0.41654412
0.55686275 0.81862745 0.41470588
0.67303922 0.82757353 0.40894608
0.79215686 0.83357843 0.41960784
0.87561275 0.84129902 0.44227941
0.94803922 0.85294118 0.46078431
0.52941176 0.89460784 0.4877451
0.53333333 0.89117647 0.4877451
0.57058824 0.89460784 0.4942402
0.62352941 0.8963848 0.4995098
0.68308824 0.89117647 0.4995098
0.74215686 0.90245098 0.51078431
0.81911765 0.90245098 0.51568627
0.88382353 0.89901961 0.52261029
0.92205882 0.89901961 0.53039216
0.77647059 0.9372549 0.56470588
0.78039216 0.9372549 0.56470588
0.80196078 0.94117647 0.57156863
0.81029412 0.9372549 0.56862745
0.83529412 0.9372549 0.5745098
0.8745098 0.94117647 0.58039216
0.89509804 0.9372549 0.57647059
0.92990196 0.9372549 0.58039216
0.96862745 0.94509804 0.59607843
0 0.23137255 0.31764706
0 0.23137255 0.31764706
0 0.23137255 0.31764706
0.0029411765 0.22352941 0.31372549
0.19558824 0.23333333 0.31936275
0.51127451 0.26421569 0.32285539
0.76715686 0.3245098 0.325
0.92058824 0.45643382 0.34025735
0.99215686 0.55637255 0.37205882
0 0.24307598 0.31764706
0 0.2457644 0.31764706
0.0039215686 0.24281556 0.31764706
0.0099877451 0.23496477 0.31372549
0.23795956 0.24460784 0.31565564
0.52300092 0.28275888 0.31807598
0.77022059 0.35845588 0.325
0.93050705 0.47935815 0.33719363
0.98823529 0.57107843 0.36813725
0 0.25735294 0.31764706
0 0.26868873 0.32107843
0.0070772059 0.27610294 0.31764706
0.036519608 0.27089461 0.31372549
0.30441176 0.28890931 0.31372549
0.56715686 0.33823529 0.31715686
0.78970588 0.42046569 0.32107843
0.92348346 0.52118566 0.33676471
0.98039216 0.58247549 0.35637255
0 0.3495098 0.3254902
0 0.34185049 0.32371324
0.00018382353 0.35355392 0.32371324
0.082352941 0.36452972 0.31979167
0.3754902 0.40392157 0.31740196
0.5991345 0.44100031 0.31323529
0.78872549 0.50022978 0.31685049
0.915625 0.58658088 0.32941176
0.98431373 0.65147059 0.37420343
0 0.49387255 0.33112745
0.0017156863 0.49754902 0.33676471
0.0073529412 0.50686275 0.33872549
0.13357843 0.52377451 0.33676471
0.43125 0.54473039 0.33198529
0.63431373 0.58259804 0.32313113
0.79865196 0.63235294 0.32359069
0.89754902 0.66151961 0.33746936
0.95980392 0.69852941 0.36838235
0.0073529412 0.67401961 0.35931373
0.009620098 0.67344516 0.35945925
0.024157475 0.67709865 0.3622549
0.27464001 0.68578431 0.36268382
0.48961397 0.69803922 0.36731005
0.66189491 0.72591912 0.35539216
0.79189645 0.7504136 0.36234681
0.88756127 0.76305147 0.37575827
0.95386029 0.77634804 0.40214461
0.22757353 0.82610294 0.4185049
0.25392157 0.82254902 0.41426164
0.30514706 0.81176471 0.41470588
0.4377451 0.81729473 0.42389706
0.56764706 0.82254902 0.43033088
0.67806373 0.83167892 0.43284314
0.79151348 0.83887868 0.43786765
0.88290441 0.84509804 0.44656863
0.93235294 0.84901961 0.46813725
0.53676471 0.89460784 0.49466912
0.55717678 0.89810049 0.49944853
0.5877451 0.89117647 0.5033701
0.63590686 0.89509804 0.51089154
0.69414828 0.89810049 0.51449142
0.75909161 0.89901961 0.51846661
0.82991728 0.90245098 0.52254902
0.89477635 0.90164675 0.52647059
0.92205882 0.90245098 0.53082108
0.77254902 0.9372549 0.56470588
0.79166667 0.93768382 0.56862745
0.79558824 0.9372549 0.56948529
0.81403186 0.9372549 0.57254902
0.8502451 0.94117647 0.58210784
0.86764706 0.9372549 0.57647059
0.90392157 0.94203431 0.58394608
0.92990196 0.93333333 0.57604167
0.95686275 0.92941176 0.56911765
0 0.21666667 0.31764706
0.0037990196 0.22352941 0.32536765
0.010784314 0.22745098 0.32843137
0.028063725 0.225 0.3254902
0.22009804 0.23186275 0.33235294
0.53382353 0.22757353 0.34227941
0.77745098 0.29681373 0.36372549
0.92512255 0.47855392 0.40637255
0.99215686 0.59019608 0.44019608
0 0.24558824 0.32536765
0 0.23874081 0.32774203
0.0039215686 0.23921569 0.32941176
0.0093596814 0.23137255 0.32843137
0.26550245 0.24852941 0.33670343
0.5553462 0.28566176 0.35111826
0.79191176 0.37843137 0.3754902
0.93002451 0.50502451 0.40637255
0.99607843 0.59509804 0.43235294
0 0.27745098 0.33553922
0 0.26681985 0.33161765
0.0039215686 0.26789216 0.33216912
0.068780637 0.28170956 0.33811275
0.34387255 0.30134804 0.3439951
0.59757966 0.3497549 0.3544424
0.80839461 0.44240196 0.3713848
0.93553922 0.55260417 0.40189951
0.99117647 0.63602941 0.44019608
0 0.35343137 0.34411765
0 0.35453431 0.34656863
0.0047487745 0.3700674 0.3504902
0.13523284 0.38517157 0.3504902
0.40735294 0.40931373 0.35042892
0.63007047 0.45029105 0.35176164
0.81115196 0.52625613 0.36648284
0.91256127 0.60121017 0.38690257
0.96213235 0.65441176 0.41507353
0.0058823529 0.5127451 0.37352941
0.0041053922 0.51648284 0.36979167
0.0039215686 0.51997549 0.36960784
0.2067402 0.5377451 0.36960784
0.47009804 0.56666667 0.36666667
0.6557598 0.5872549 0.36127451
0.80343137 0.63161765 0.36715686
0.89926471 0.67101716 0.38241422
0.95343137 0.70637255 0.4127451
0.0093137255 0.68872549 0.3995098
0.0078431373 0.69027267 0.39656863
0.098590686 0.68480392 0.39656863
0.33313419 0.69546569 0.4028799
0.52230392 0.7127451 0.40343137
0.68131127 0.73270527 0.40157782
0.79653799 0.7520527 0.40098039
0.88769914 0.76519608 0.41029412
0.95980392 0.78051471 0.43333333
0.3129902 0.83333333 0.44803922
0.31531863 0.82282475 0.44515931
0.37340686 0.81078431 0.44785539
0.47766544 0.82254902 0.45588235
0.5877451 0.83002451 0.45980392
0.69905025 0.83651961 0.46764706
0.8 0.84117647 0.46078431
0.88771446 0.85229779 0.47662377
0.94705882 0.85686275 0.49901961
0.57156863 0.89460784 0.51078431
0.58252145 0.89509804 0.51383272
0.6073223 0.89460784 0.51691176
0.66176471 0.89473039 0.52438725
0.70814951 0.89901961 0.52818627
0.7682598 0.90245098 0.53310355
0.82647059 0.90248162 0.53431373
0.8995098 0.90245098 0.53693321
0.95343137 0.91078431 0.54865196
0.79215686 0.9372549 0.57647059
0.79522059 0.9372549 0.57303922
0.80612745 0.9372549 0.5747549
0.81862745 0.9372549 0.5754902
0.82990196 0.93480392 0.5745098
0.86311275 0.93333333 0.57647059
0.89583333 0.93333333 0.57720588
0.93370098 0.93333333 0.58026961
0.95686275 0.92156863 0.55980392
0 0.22352941 0.35147059
0.0039215686 0.23137255 0.35931373
0.0039215686 0.23529412 0.35539216
0.011764706 0.2377451 0.35147059
0.2122549 0.24044118 0.36127451
0.51666667 0.24019608 0.39068627
0.78872549 0.26801471 0.42009804
0.94460784 0.41372549 0.45392157
0.99607843 0.59117647 0.49656863
0 0.24264706 0.35539216
0 0.24109222 0.3591299
0.0039215686 0.24963235 0.36176471
0.021009498 0.25294118 0.35539216
0.24901961 0.25686275 0.37126225
0.5495098 0.27469363 0.39852941
0.80562194 0.34220282 0.43284314
0.93823529 0.4814568 0.46803002
0.99442402 0.65159314 0.51666667
0 0.28321078 0.36507353
0 0.28284314 0.37218137
0.0016544118 0.28072917 0.37117034
0.11983762 0.30882353 0.37346814
0.35680147 0.31936275 0.39234069
0.60340074 0.3498315 0.41384804
0.81593137 0.44724265 0.44583333
0.93132659 0.60084252 0.4915288
0.97794118 0.67169118 0.50686275
0 0.37101716 0.38382353
0 0.38694853 0.39509804
0.016436887 0.38872549 0.39313725
0.19901961 0.39789369 0.39895833
0.44264706 0.4377451 0.41323529
0.65775888 0.47996324 0.42990196
0.817019 0.56554841 0.45539216
0.91470588 0.64685968 0.48235294
0.97401961 0.71415441 0.50294118
0 0.54240196 0.4252451
0.00018382353 0.53391544 0.41871936
0.11734069 0.53658088 0.42224265
0.30438113 0.55098039 0.43039216
0.50147059 0.57316176 0.42708333
0.67254902 0.60588235 0.43134191
0.81053922 0.64558824 0.43719363
0.90637255 0.7002451 0.4627451
0.94509804 0.72377451 0.47328431
0.19460784 0.71231618 0.46127451
0.21403952 0.70227482 0.45735294
0.29151348 0.69460784 0.45458027
0.41436121 0.70518536 0.45735294
0.54460784 0.7161152 0.46127451
0.68653493 0.73621324 0.46070006
0.80461091 0.7551011 0.45735294
0.89300705 0.77480086 0.47274816
0.95 0.79362745 0.49117647
0.40232843 0.82647059 0.49215686
0.42691483 0.83333333 0.48904718
0.46556373 0.82481618 0.49059436
0.53488051 0.82608762 0.49437806
0.62248775 0.82843137 0.50122549
0.71139706 0.83831189 0.50314032
0.80603554 0.84534314 0.50291054
0.89117647 0.85637255 0.50943627
0.94901961 0.85686275 0.52316176
0.61862745 0.8872549 0.53627451
0.61960784 0.89509804 0.53257506
0.64362745 0.89852941 0.53641238
0.67892923 0.89901961 0.5403799
0.72852328 0.90229779 0.54632353
0.78607537 0.90294118 0.55202972
0.83694853 0.90212929 0.55214461
0.90735294 0.90245098 0.55765931
0.95294118 0.90637255 0.56372549
0.80098039 0.93578431 0.57892157
0.80882353 0.9372549 0.57892157
0.81960784 0.9372549 0.57745098
0.82990196 0.9372549 0.58039216
0.85588235 0.93823529 0.58529412
0.88719363 0.93970588 0.59215686
0.91078431 0.9372549 0.59215686
0.94185049 0.94136029 0.6
0.97107843 0.94754902 0.60245098
0 0.22941176 0.39803922
0.0078431373 0.24289216 0.42107843
0.021078431 0.24509804 0.41421569
0.1504902 0.27622549 0.41495098
0.3372549 0.29705882 0.43235294
0.53431373 0.29681373 0.45514706
0.7745098 0.32303922 0.49901961
0.92916667 0.42794118 0.52598039
0.98823529 0.55686275 0.53921569
0.0019607843 0.24411765 0.40343137
0.0039215686 0.25416667 0.42454044
0.011764706 0.25637255 0.41458333
0.2 0.28244485 0.42647059
0.36568627 0.31066176 0.43688725
0.55906863 0.33020833 0.46283701
0.79540441 0.36642157 0.50471814
0.93529412 0.4745098 0.52962623
0.9879902 0.58676471 0.54313725
0 0.30392157 0.43431373
0 0.31372549 0.4411152
0.011519608 0.30551471 0.43627451
0.26464461 0.35220588 0.44803922
0.43210784 0.38210784 0.45906863
0.60379902 0.40863971 0.47941176
0.81151961 0.45232843 0.51078431
0.93719363 0.56170343 0.53351716
0.98529412 0.67598039 0.55098039
0 0.41176471 0.45612745
0.0030943627 0.40833333 0.45735294
0.010355392 0.41237745 0.46127451
0.2921875 0.44044118 0.47107843
0.49129902 0.49019608 0.48419118
0.6598652 0.52377451 0.49831495
0.82052696 0.59117647 0.52438725
0.92401961 0.65784314 0.54142157
0.97254902 0.75514706 0.5627451
0.0039215686 0.55686275 0.48039216
0.0019607843 0.55294118 0.47953431
0.11642157 0.55171569 0.48039216
0.34301471 0.56360294 0.48823529
0.54313725 0.59705882 0.50196078
0.70857843 0.64276961 0.51642157
0.82573529 0.68382353 0.51887255
0.90882353 0.74093137 0.53553922
0.95980392 0.78921569 0.55196078
0.17083333 0.7120098 0.50612745
0.24666054 0.7120098 0.50735294
0.35931373 0.70968137 0.50790441
0.48428309 0.71887255 0.51492034
0.60122549 0.72745098 0.51911765
0.71614583 0.74313725 0.51838235
0.81378676 0.75925245 0.51501225
0.89666054 0.78685662 0.52876838
0.94289216 0.80563725 0.54068627
0.48627451 0.83039216 0.53627451
0.50735294 0.82996324 0.53382353
0.52941176 0.83039216 0.53235294
0.58921569 0.82647059 0.53235294
0.65735294 0.83333333 0.53627451
0.73566176 0.83762255 0.53792892
0.82156863 0.84926471 0.54019608
0.8997549 0.85588235 0.54068627
0.94215686 0.85882353 0.54803922
0.68088235 0.89852941 0.56127451
0.67671569 0.89831495 0.55931373
0.69405637 0.89871324 0.55931373
0.71510417 0.89852941 0.55931373
0.75257353 0.89852941 0.56311275
0.8010723 0.90294118 0.56896446
0.85367647 0.90637255 0.57113971
0.91519608 0.90465686 0.57303922
0.95686275 0.90637255 0.575
0.8254902 0.9372549 0.58823529
0.82156863 0.93553922 0.58627451
0.83480392 0.9372549 0.58627451
0.8372549 0.93333333 0.58627451
0.86176471 0.93529412 0.59019608
0.89632353 0.9379902 0.59607843
0.91617647 0.9372549 0.59656863
0.94338235 0.94117647 0.60367647
0.95882353 0.93921569 0.6
0.0053921569 0.25637255 0.51568627
0.0071691176 0.25226716 0.50637255
0.175 0.28284314 0.51176471
0.38578431 0.31372549 0.52297794
0.55980392 0.40490196 0.53382353
0.68143382 0.45974265 0.54803922
0.77401961 0.44362745 0.55870098
0.91029412 0.50998775 0.578125
0.97009804 0.5745098 0.58186275
0.011764706 0.27892157 0.51813725
0.019431679 0.27546722 0.5182981
0.17660846 0.2995098 0.51960784
0.40117188 0.33853401 0.52738205
0.575 0.42386642 0.5388174
0.6983992 0.49993873 0.55196078
0.80490196 0.50284926 0.56631434
0.91519608 0.54973192 0.57941176
0.98627451 0.63988971 0.58578431
0.0078431373 0.33970588 0.5310049
0.011182598 0.34068627 0.53639706
0.17401961 0.35321691 0.53630515
0.42800245 0.40905331 0.54276961
0.60042892 0.48682598 0.54859069
0.70758272 0.5564951 0.55712316
0.80082721 0.55147059 0.56617647
0.91109069 0.60931373 0.578125
0.975 0.69362745 0.58578431
0.0087622549 0.46764706 0.54166667
0.019784007 0.46403186 0.54558824
0.1518076 0.4627451 0.54914216
0.41834406 0.49754902 0.55196078
0.62034314 0.56770833 0.55664828
0.72984069 0.64515931 0.56372549
0.81176471 0.64450061 0.57176777
0.90588235 0.67647059 0.57794118
0.96807598 0.74852941 0.58578431
0.00073529412 0.59901961 0.54607843
0.010631127 0.59264706 0.54681373
0.12371324 0.58670343 0.54877451
0.39313725 0.60539216 0.55318627
0.60796569 0.64252451 0.56372549
0.74234069 0.70168505 0.56617647
0.83020833 0.73455882 0.57481618
0.90686275 0.76412377 0.58186275
0.96004902 0.81029412 0.58823529
0.2377451 0.73284314 0.55680147
0.27216605 0.7283701 0.55833333
0.37095588 0.72069547 0.55657169
0.4971201 0.73102788 0.5622549
0.63627451 0.73875613 0.56617647
0.74273131 0.76756281 0.56764706
0.8314951 0.78785233 0.5694087
0.90778186 0.81519608 0.57500766
0.95686275 0.84215686 0.58186275
0.47892157 0.83431373 0.5622549
0.50306373 0.83057598 0.5622549
0.55294118 0.82974877 0.56590074
0.6127451 0.83039216 0.57009804
0.69338235 0.8372549 0.57009804
0.7682598 0.84523591 0.57107843
0.84280025 0.85294118 0.57401961
0.90894608 0.86188725 0.57401961
0.94620098 0.87095588 0.57794118
0.68137255 0.89724265 0.57696078
0.68856464 0.89509804 0.57794118
0.71519608 0.89901961 0.57665441
0.74355852 0.89901961 0.57977175
0.78921569 0.89901961 0.58449755
0.83448989 0.90245098 0.58841912
0.87683824 0.90681679 0.58609069
0.92303922 0.91029412 0.58872549
0.95686275 0.90814951 0.58609069
0.8495098 0.9372549 0.59607843
0.81783088 0.92990196 0.59215686
0.85906863 0.94007353 0.59607843
0.8622549 0.93670343 0.59852941
0.87647059 0.9372549 0.6
0.8971201 0.93333333 0.6
0.92365196 0.9372549 0.60539216
0.95294118 0.94117647 0.61176471
0.9622549 0.93186275 0.59607843
0.20784314 0.31372549 0.60686275
0.29031863 0.31666667 0.60698529
0.43333333 0.32941176 0.61666667
0.58688725 0.38333333 0.61703431
0.71519608 0.49166667 0.60980392
0.80772059 0.6307598 0.61066176
0.85098039 0.66838235 0.60416667
0.89644608 0.64987745 0.60490196
0.96666667 0.69313725 0.60784314
0.20686275 0.33933824 0.61078431
0.30991115 0.34750306 0.61678922
0.44105392 0.37555147 0.61372549
0.59060968 0.42388174 0.61372549
0.7254902 0.52849265 0.6127451
0.79987745 0.65784314 0.60490196
0.85392157 0.70542279 0.60490196
0.9120098 0.69074755 0.60784314
0.9377451 0.69754902 0.60526961
0.20980392 0.40563725 0.62254902
0.29546569 0.41329657 0.62071078
0.4372549 0.43786765 0.61838235
0.60490196 0.49215686 0.61973039
0.72990196 0.59411765 0.61078431
0.80928309 0.71320466 0.60490196
0.85490196 0.73357843 0.60416667
0.91038603 0.71372549 0.60392157
0.94877451 0.74289216 0.60490196
0.20257353 0.53676471 0.61764706
0.2717065 0.53230699 0.61703431
0.41639093 0.5372549 0.61703431
0.57742034 0.57020527 0.61666667
0.72971814 0.65435049 0.61029412
0.8127451 0.74483762 0.60384498
0.85811887 0.76936275 0.60208333
0.89541973 0.76078431 0.60392157
0.95588235 0.78296569 0.60784314
0.025 0.6504902 0.60735294
0.040318627 0.64270833 0.60539216
0.30796569 0.64227941 0.60686275
0.50968137 0.65753676 0.60716912
0.69338235 0.71127451 0.60490196
0.80165441 0.77144608 0.60098039
0.85245098 0.79632353 0.6
0.8997549 0.80637255 0.60098039
0.95490196 0.82058824 0.60392157
0.2877451 0.75343137 0.60098039
0.32156863 0.74701287 0.59955576
0.40137868 0.74375 0.59705882
0.51433824 0.7504902 0.59705882
0.64258578 0.7629902 0.60098039
0.7751685 0.80539216 0.60061275
0.86636029 0.8377451 0.60088848
0.91948529 0.84693627 0.6029565
0.96078431 0.86127451 0.60490196
0.52230392 0.84534314 0.59313725
0.53109681 0.83746936 0.59313725
0.56488971 0.83296569 0.59234069
0.62941176 0.83841912 0.59313725
0.70919118 0.84522059 0.59705882
0.78048407 0.8504902 0.59926471
0.87352941 0.87628676 0.60042892
0.92405025 0.87647059 0.60392157
0.95784314 0.89044118 0.60490196
0.68970588 0.90245098 0.5935049
0.69667586 0.90245098 0.5935049
0.72267157 0.90248162 0.59313725
0.75686275 0.90379902 0.59673713
0.7995098 0.90294118 0.60098039
0.84603248 0.90476409 0.60058211
0.88976716 0.90836397 0.60404412
0.93941483 0.91421569 0.60494792
0.96213235 0.91556373 0.60882353
0.83333333 0.93431373 0.60392157
0.83909314 0.93639706 0.60404412
0.85196078 0.9372549 0.60784314
0.86335784 0.9372549 0.60882353
0.875 0.93382353 0.60882353
0.90098039 0.93664216 0.61176471
0.93431373 0.94117647 0.61740196
0.95698529 0.94080882 0.61960784
0.96862745 0.93431373 0.61666667
0.56372549 0.45490196 0.66666667
0.58584559 0.47401961 0.6627451
0.64754902 0.49362745 0.65882353
0.73057598 0.55588235 0.65116422
0.81470588 0.64166667 0.64338235
0.86127451 0.74313725 0.63008578
0.90343137 0.80110294 0.62401961
0.93382353 0.82009804 0.62401961
0.9495098 0.80147059 0.62009804
0.54209559 0.47996324 0.66280637
0.575 0.48828891 0.65931373
0.6430913 0.5189951 0.65582108
0.73668045 0.58600643 0.64883578
0.80906863 0.67254902 0.63946078
0.86519608 0.77032016 0.62794118
0.90467218 0.82414216 0.62352941
0.93382353 0.82837776 0.62401961
0.94515931 0.81231618 0.62009804
0.5245098 0.55 0.65490196
0.56029412 0.54644608 0.65657169
0.6356924 0.5801777 0.65232843
0.7270527 0.63676471 0.64710478
0.81470588 0.71470588 0.63921569
0.86648284 0.77598039 0.63008578
0.9080576 0.83832721 0.62202819
0.93429841 0.8466299 0.62009804
0.95208333 0.83529412 0.62009804
0.53431373 0.6463848 0.65116422
0.5473652 0.63098958 0.64770987
0.61821385 0.64313725 0.64705882
0.71648284 0.68988971 0.64099265
0.80572917 0.7510723 0.63357843
0.86881127 0.81011029 0.62794118
0.90735294 0.84496017 0.62389706
0.9377451 0.86327359 0.62009804
0.95471814 0.8504902 0.62009804
0.43406863 0.71862745 0.6375
0.48403799 0.71302083 0.63753064
0.56372549 0.71256127 0.63578431
0.68014706 0.73529412 0.6364277
0.78161765 0.77659314 0.6314951
0.8622549 0.82647059 0.62401961
0.91127451 0.86764706 0.62009804
0.93973652 0.87913603 0.62009804
0.96102941 0.86960784 0.62009804
0.40392157 0.78118873 0.62616422
0.42424173 0.78137255 0.62620251
0.48702512 0.77775735 0.62455576
0.58020833 0.78253676 0.62401961
0.7129902 0.80548407 0.6239277
0.83540901 0.84136029 0.62383578
0.90343137 0.87348346 0.62352941
0.93823529 0.88710937 0.62401961
0.96470588 0.88854167 0.62401961
0.58480392 0.85686275 0.61875
0.57761949 0.85341605 0.61875
0.60343137 0.85036765 0.61617647
0.65931373 0.85503983 0.61617647
0.71758578 0.85343137 0.61617647
0.8004902 0.86176471 0.61617647
0.88927696 0.88851103 0.62009804
0.94215686 0.90605086 0.62444853
0.97254902 0.91421569 0.62794118
0.71268382 0.90637255 0.61574755
0.72009804 0.90680913 0.61306679
0.73491115 0.90637255 0.61568627
0.76160386 0.91029412 0.61252298
0.80713848 0.90664828 0.61660539
0.85343137 0.90508578 0.61966912
0.90087316 0.91127451 0.62052696
0.95 0.92555147 0.62794118
0.97647059 0.92640931 0.63229167
0.84313725 0.9372549 0.62401961
0.85140931 0.9377451 0.62401961
0.85882353 0.94117647 0.62009804
0.8745098 0.9408701 0.62401961
0.89779412 0.94509804 0.62794118
0.9026348 0.93363971 0.62794118
0.93296569 0.93333333 0.63137255
0.96078431 0.94074755 0.63621324
0.97696078 0.94509804 0.64362745
0.74509804 0.69803922 0.6745098
0.75245098 0.70147059 0.67058824
0.77647059 0.71568627 0.66764706
0.82205882 0.76078431 0.6627451
0.86862745 0.80196078 0.65686275
0.9127451 0.84362745 0.64705882
0.93823529 0.86764706 0.64313725
0.96078431 0.89019608 0.63921569
0.97647059 0.90588235 0.64313725
0.72941176 0.69411765 0.67058824
0.74852941 0.71323529 0.67058824
0.78333333 0.73982843 0.66666667
0.82205882 0.77058824 0.6627451
0.86862745 0.80931373 0.65490196
0.91109069 0.84656863 0.64705882
0.93517157 0.87107843 0.63921569
0.96127451 0.89454657 0.63964461
0.96470588 0.89019608 0.63921569
0.73627451 0.73529412 0.66666667
0.76066176 0.75183824 0.66666667
0.78848039 0.77181373 0.6627451
0.82953431 0.79644608 0.65882353
0.86813725 0.81862745 0.65098039
0.91164216 0.85453431 0.64705882
0.93406863 0.87352941 0.63897059
0.96115196 0.90098039 0.63921569
0.96470588 0.89803922 0.63921569
0.73480392 0.775 0.66421569
0.75324755 0.77922794 0.66452206
0.77156863 0.78578431 0.65882353
0.81329657 0.80245098 0.65490196
0.86740196 0.83651961 0.65098039
0.91519608 0.86819853 0.64859069
0.94607843 0.89227941 0.64460784
0.96256127 0.90980392 0.63939951
0.96862745 0.90833333 0.64313725
0.72352941 0.80784314 0.65882353
0.74117647 0.81397059 0.66078431
0.75294118 0.80931373 0.65833333
0.80098039 0.82720588 0.65367647
0.85588235 0.84705882 0.65098039
0.9127451 0.87598039 0.64705882
0.93627451 0.89117647 0.63921569
0.96495098 0.91372549 0.64313725
0.97254902 0.91764706 0.64705882
0.65980392 0.83284314 0.65098039
0.67683824 0.83284314 0.65471814
0.6995098 0.83676471 0.65281863
0.74166667 0.83676471 0.64705882
0.8252451 0.85759804 0.64828431
0.8877451 0.87745098 0.64705882
0.9372549 0.8995098 0.64215686
0.96519608 0.91813725 0.64491422
0.97401961 0.92303922 0.64705882
0.68921569 0.8754902 0.64705882
0.69963235 0.87941176 0.65098039
0.70490196 0.87328431 0.64705882
0.725 0.86801471 0.63921569
0.75980392 0.86960784 0.63529412
0.87107843 0.89227941 0.64644608
0.9254902 0.90686275 0.64705882
0.96127451 0.9254902 0.64705882
0.97647059 0.93039216 0.65098039
0.79362745 0.91813725 0.64705882
0.78970588 0.91813725 0.64705882
0.78872549 0.91421569 0.63872549
0.81176471 0.91421569 0.64185049
0.84632353 0.91642157 0.64338235
0.87156863 0.91029412 0.63578431
0.91176471 0.91519608 0.63529412
0.96176471 0.93339461 0.64754902
0.98039216 0.94117647 0.65490196
0.87058824 0.94509804 0.65098039
0.88333333 0.94901961 0.65147059
0.85882353 0.94117647 0.62745098
0.89705882 0.94509804 0.65245098
0.89019608 0.9372549 0.65098039
0.92941176 0.94509804 0.65490196
0.93823529 0.9372549 0.64607843
0.96127451 0.94166667 0.65490196
0.99215686 0.95686275 0.67058824
