site/assets/luts/natron-haldclut--ilford-delta-3200--71cf0988b.cube
# LUTr-Project: LUTr — LUTrepository
# LUTr-Schema-Version: 1
# LUTr-ID: natron-haldclut--ilford-delta-3200--71cf0988b
# LUTr-Title: ilford delta 3200
# LUTr-Collection: Natron HaldCLUT
# LUTr-Collection-ID: natron-haldclut-presets
# LUTr-Source: https://github.com/NatronGitHub/clut
# LUTr-Source-File: submissions/natron-haldclut-presets/bw/ilford_delta_3200.png
# LUTr-Source-Format: PNG
# LUTr-Source-SHA256: a702d3358842f6bdc59147884b9240532dc34d0efd4858551f4f71bd0376ac69
# LUTr-License: CC-BY-SA-4.0
# LUTr-License-URL: https://github.com/NatronGitHub/clut#license
# LUTr-Tags: creative, film, film-emulation, hald-clut, natron, png, cube
# LUTr-Transform-Class: film-emulation
# LUTr-Input-Color-Space: srgb
# LUTr-Output-Color-Space: srgb
# LUTr-Color-Space-Confidence: assumed-display-referred
# LUTr-Conversion-Method: PNG LUT image decoded at 16-bit and sampled to 25x25x25 3D CUBE
# LUTr-Conversion-Date: 2026-07-27
# LUTr-Conversion-Tool: LUTr scripts/convert-all-to-cube.mjs
# LUTr-Conversion-Grid: 25x25x25
# LUTr-Note: Preserve this metadata and the upstream license notices when redistributing.
TITLE "ilford delta 3200"
LUT_3D_SIZE 5
DOMAIN_MIN 0 0 0
DOMAIN_MAX 1 1 1
0.031372549 0.031372549 0.031372549
0.1 0.1 0.1
0.17843137 0.17843137 0.17843137
0.38333333 0.38333333 0.38333333
0.58431373 0.58431373 0.58431373
0.15882353 0.15882353 0.15882353
0.18602941 0.18602941 0.18602941
0.28088235 0.28088235 0.28088235
0.44117647 0.44117647 0.44117647
0.61470588 0.61470588 0.61470588
0.3 0.3 0.3
0.33039216 0.33039216 0.33039216
0.40980392 0.40980392 0.40980392
0.52598039 0.52598039 0.52598039
0.6745098 0.6745098 0.6745098
0.48529412 0.48529412 0.48529412
0.51568627 0.51568627 0.51568627
0.55784314 0.55784314 0.55784314
0.63921569 0.63921569 0.63921569
0.74313725 0.74313725 0.74313725
0.66666667 0.66666667 0.66666667
0.72156863 0.72156863 0.72156863
0.74509804 0.74509804 0.74509804
0.78823529 0.78823529 0.78823529
0.84313725 0.84313725 0.84313725
0.070588235 0.070588235 0.070588235
0.13921569 0.13921569 0.13921569
0.23970588 0.23970588 0.23970588
0.41544118 0.41544118 0.41544118
0.6 0.6 0.6
0.20318627 0.20318627 0.20318627
0.23474265 0.23474265 0.23474265
0.32034314 0.32034314 0.32034314
0.46372549 0.46372549 0.46372549
0.62720588 0.62720588 0.62720588
0.33823529 0.33823529 0.33823529
0.3627451 0.3627451 0.3627451
0.43088235 0.43088235 0.43088235
0.54215686 0.54215686 0.54215686
0.68823529 0.68823529 0.68823529
0.51176471 0.51176471 0.51176471
0.52745098 0.52745098 0.52745098
0.57732843 0.57732843 0.57732843
0.67316176 0.67316176 0.67316176
0.77279412 0.77279412 0.77279412
0.70490196 0.70490196 0.70490196
0.7245098 0.7245098 0.7245098
0.72745098 0.72745098 0.72745098
0.81642157 0.81642157 0.81642157
0.85882353 0.85882353 0.85882353
0.16078431 0.16078431 0.16078431
0.2127451 0.2127451 0.2127451
0.3254902 0.3254902 0.3254902
0.46764706 0.46764706 0.46764706
0.6372549 0.6372549 0.6372549
0.27058824 0.27058824 0.27058824
0.29901961 0.29901961 0.29901961
0.38137255 0.38137255 0.38137255
0.50980392 0.50980392 0.50980392
0.66470588 0.66470588 0.66470588
0.40098039 0.40098039 0.40098039
0.42377451 0.42377451 0.42377451
0.49019608 0.49019608 0.49019608
0.59607843 0.59607843 0.59607843
0.7254902 0.7254902 0.7254902
0.55784314 0.55784314 0.55784314
0.58431373 0.58431373 0.58431373
0.63039216 0.63039216 0.63039216
0.69901961 0.69901961 0.69901961
0.80735294 0.80735294 0.80735294
0.74509804 0.74509804 0.74509804
0.75294118 0.75294118 0.75294118
0.77843137 0.77843137 0.77843137
0.83235294 0.83235294 0.83235294
0.91568627 0.91568627 0.91568627
0.24215686 0.24215686 0.24215686
0.31470588 0.31470588 0.31470588
0.41372549 0.41372549 0.41372549
0.52377451 0.52377451 0.52377451
0.68627451 0.68627451 0.68627451
0.37254902 0.37254902 0.37254902
0.39901961 0.39901961 0.39901961
0.4745098 0.4745098 0.4745098
0.57843137 0.57843137 0.57843137
0.69901961 0.69901961 0.69901961
0.49215686 0.49215686 0.49215686
0.51004902 0.51004902 0.51004902
0.57009804 0.57009804 0.57009804
0.66127451 0.66127451 0.66127451
0.76372549 0.76372549 0.76372549
0.63921569 0.63921569 0.63921569
0.65189951 0.65189951 0.65189951
0.69901961 0.69901961 0.69901961
0.76488971 0.76488971 0.76488971
0.83651961 0.83651961 0.83651961
0.80490196 0.80490196 0.80490196
0.8127451 0.8127451 0.8127451
0.82058824 0.82058824 0.82058824
0.86470588 0.86470588 0.86470588
0.93529412 0.93529412 0.93529412
0.4 0.4 0.4
0.42254902 0.42254902 0.42254902
0.52156863 0.52156863 0.52156863
0.57647059 0.57647059 0.57647059
0.75294118 0.75294118 0.75294118
0.49607843 0.49607843 0.49607843
0.5125 0.5125 0.5125
0.57745098 0.57745098 0.57745098
0.66446078 0.66446078 0.66446078
0.76862745 0.76862745 0.76862745
0.61568627 0.61568627 0.61568627
0.62352941 0.62352941 0.62352941
0.65098039 0.65098039 0.65098039
0.72156863 0.72156863 0.72156863
0.80784314 0.80784314 0.80784314
0.73235294 0.73235294 0.73235294
0.75171569 0.75171569 0.75171569
0.76617647 0.76617647 0.76617647
0.82156863 0.82156863 0.82156863
0.86764706 0.86764706 0.86764706
0.88235294 0.88235294 0.88235294
0.86764706 0.86764706 0.86764706
0.85490196 0.85490196 0.85490196
0.93235294 0.93235294 0.93235294
0.9254902 0.9254902 0.9254902
