site/assets/luts/natron-haldclut--kodak-portra-400-nc---d669454b9.cube
# LUTr-Project: LUTr — LUTrepository
# LUTr-Schema-Version: 1
# LUTr-ID: natron-haldclut--kodak-portra-400-nc---d669454b9
# LUTr-Title: kodak portra 400 nc -
# LUTr-Collection: Natron HaldCLUT
# LUTr-Collection-ID: natron-haldclut-presets
# LUTr-Source: https://github.com/NatronGitHub/clut
# LUTr-Source-File: submissions/natron-haldclut-presets/negative_old/kodak_portra_400_nc_-.png
# LUTr-Source-Format: PNG
# LUTr-Source-SHA256: 109729ae131b5e1622bb6c496cbe253305cd3217bd7dbcd5e69b42406514acf0
# LUTr-License: CC-BY-SA-4.0
# LUTr-License-URL: https://github.com/NatronGitHub/clut#license
# LUTr-Tags: creative, film, film-emulation, hald-clut, natron, png, cube
# LUTr-Transform-Class: film-emulation
# LUTr-Input-Color-Space: srgb
# LUTr-Output-Color-Space: srgb
# LUTr-Color-Space-Confidence: assumed-display-referred
# LUTr-Conversion-Method: PNG LUT image decoded at 16-bit and sampled to 25x25x25 3D CUBE
# LUTr-Conversion-Date: 2026-07-27
# LUTr-Conversion-Tool: LUTr scripts/convert-all-to-cube.mjs
# LUTr-Conversion-Grid: 25x25x25
# LUTr-Note: Preserve this metadata and the upstream license notices when redistributing.
TITLE "kodak portra 400 nc -"
LUT_3D_SIZE 25
DOMAIN_MIN 0 0 0
DOMAIN_MAX 1 1 1
0.0078431373 0.023529412 0.011764706
0.014215686 0.017156863 0.022058824
0.033333333 0.012745098 0.02745098
0.06127451 0.015686275 0.020098039
0.092156863 0.015686275 0.01372549
0.11911765 0.011764706 0.0039215686
0.15784314 0.014705882 0
0.22990196 0.025 0.0014705882
0.29803922 0.039215686 0
0.36372549 0.036764706 0
0.43039216 0.021568627 0
0.50245098 0.0044117647 0
0.5627451 0.0019607843 0.0019607843
0.61421569 0.0083333333 0.012254902
0.66960784 0.015686275 0.018627451
0.725 0.021078431 0.023529412
0.77254902 0.023529412 0.023529412
0.80980392 0.023529412 0.017156863
0.84607843 0.025490196 0.0039215686
0.87696078 0.046078431 0.0039215686
0.90784314 0.070588235 0.0039215686
0.93480392 0.095098039 0.0039215686
0.96568627 0.11862745 0.00098039216
0.99264706 0.14166667 0
1 0.14901961 0
0.0039215686 0.023529412 0.0078431373
0.015747549 0.019607843 0.016605392
0.037867647 0.022671569 0.021078431
0.065196078 0.028125 0.019791667
0.096078431 0.028431373 0.01372549
0.12598039 0.028921569 0.0076593137
0.17193627 0.035906863 0.006372549
0.23480392 0.039276961 0.0039215686
0.29803922 0.045588235 0
0.36280637 0.043137255 0
0.43394608 0.030392157 0.0039215686
0.50490196 0.015686275 0
0.56519608 0.01127451 0.0039215686
0.61844363 0.014705882 0.0098039216
0.67316176 0.021078431 0.016789216
0.72892157 0.024448529 0.021997549
0.775 0.042647059 0.023529412
0.81280637 0.046568627 0.013786765
0.84607843 0.046446078 0.0039215686
0.87696078 0.065196078 0.0039215686
0.90784314 0.089705882 0.0039215686
0.93480392 0.11029412 0.0036151961
0.96568627 0.12843137 0.00036764706
0.99264706 0.14564951 0
1 0.14901961 0
0.0039215686 0.02745098 0.0068627451
0.019485294 0.026960784 0.011397059
0.045098039 0.034313725 0.01495098
0.069240196 0.041053922 0.015686275
0.1 0.045098039 0.015686275
0.13762255 0.053431373 0.012745098
0.18529412 0.063970588 0.011764706
0.24362745 0.066053922 0.0078431373
0.30196078 0.071568627 0.0039215686
0.37107843 0.072058824 0.0028186275
0.44411765 0.065686275 0.0039215686
0.51875 0.058946078 0.0039215686
0.57598039 0.053921569 0.0044117647
0.62830882 0.046568627 0.0078431373
0.68235294 0.035294118 0.011519608
0.73345588 0.040563725 0.015073529
0.77647059 0.073529412 0.015686275
0.81580882 0.089828431 0.012867647
0.85 0.092892157 0.0039215686
0.88088235 0.1127451 0.0029411765
0.90784314 0.12941176 0
0.93480392 0.14852941 0
0.96568627 0.1620098 0
0.99080882 0.17156863 0
0.99607843 0.17156863 0
0 0.030882353 0.00049019608
0.020588235 0.044607843 0.0078431373
0.045098039 0.058333333 0.012745098
0.066176471 0.068198529 0.015686275
0.098284314 0.074509804 0.015686275
0.1466299 0.084803922 0.015686275
0.19509804 0.095098039 0.015686275
0.24656863 0.10539216 0.010294118
0.30588235 0.11568627 0.0039215686
0.38382353 0.11697304 0.0039215686
0.46078431 0.11041667 0.0039215686
0.53290441 0.10392157 0.0039215686
0.58970588 0.10367647 0.0078431373
0.64117647 0.094669118 0.0078431373
0.69264706 0.080514706 0.0090686275
0.73743873 0.084987745 0.0083333333
0.77647059 0.10441176 0.0083333333
0.82107843 0.12647059 0.0080269608
0.85392157 0.1372549 0.00036764706
0.88131127 0.15392157 0
0.90784314 0.16887255 0
0.93480392 0.18290441 0
0.96311275 0.19362745 0
0.9872549 0.19852941 0
0.99215686 0.19901961 0
0 0.090196078 0.017647059
0.010784314 0.091421569 0.016421569
0.031372549 0.1004902 0.013235294
0.053676471 0.10931373 0.011764706
0.090196078 0.11568627 0.010784314
0.14166667 0.12622549 0.011764706
0.19509804 0.14019608 0.011764706
0.24803922 0.15245098 0.010294118
0.31764706 0.16666667 0.0078431373
0.39411765 0.16544118 0.0039215686
0.47598039 0.15637255 0.0039215686
0.54803922 0.15294118 0.0039215686
0.60392157 0.15098039 0.0068627451
0.65539216 0.14632353 0.0078431373
0.70392157 0.1377451 0.0078431373
0.74509804 0.14656863 0.0078431373
0.78431373 0.15490196 0.0039215686
0.8247549 0.16397059 0.0026960784
0.85784314 0.17598039 0
0.88308824 0.18970588 0
0.90882353 0.20294118 0
0.93823529 0.21421569 0
0.9627451 0.22303922 0
0.98455882 0.2247549 0
0.98823529 0.2254902 0
0 0.14803922 0.035784314
0.0058823529 0.14803922 0.035784314
0.020098039 0.14754902 0.02254902
0.037316176 0.14620098 0.0044730392
0.07622549 0.15318627 0.0039215686
0.13535539 0.17156863 0.0078431373
0.19105392 0.18872549 0.010784314
0.2495098 0.20392157 0.0078431373
0.33333333 0.21813725 0.0078431373
0.40618873 0.21862745 0.0053921569
0.48590686 0.21776961 0.0039215686
0.55833333 0.21519608 0
0.61446078 0.2129902 0.0039215686
0.66960784 0.20637255 0.0078431373
0.71715686 0.19901961 0.0078431373
0.75569853 0.20392157 0.0060661765
0.79656863 0.21029412 0.0039215686
0.83088235 0.21421569 0
0.86090686 0.21776961 0
0.88572304 0.225 0
0.9122549 0.23872549 0
0.94215686 0.24901961 0
0.96580882 0.25245098 0
0.98314951 0.25245098 0
0.98823529 0.25245098 0
0 0.20588235 0.052941176
0 0.20294118 0.05
0.010784314 0.20196078 0.042892157
0.02745098 0.1942402 0.021568627
0.067647059 0.20245098 0.0068627451
0.12928922 0.22352941 0.0078431373
0.1872549 0.24338235 0.0080882353
0.25281863 0.25870098 0.0078431373
0.33627451 0.27352941 0.0078431373
0.41862745 0.28431373 0.0053921569
0.49705882 0.28431373 0.0031862745
0.57120098 0.28431373 0
0.62794118 0.27843137 0.0039215686
0.67696078 0.26813725 0.0039215686
0.72745098 0.25857843 0.0039215686
0.76813725 0.25894608 0.0039215686
0.80294118 0.26470588 0.00098039216
0.83480392 0.26384804 0
0.86176471 0.2627451 0
0.89166667 0.26654412 0
0.91911765 0.27352941 0
0.94607843 0.28370098 0
0.96666667 0.28627451 0
0.975 0.28664216 0
0.98529412 0.2872549 0
0.0039215686 0.26372549 0.078921569
0.0039215686 0.26372549 0.075551471
0.0049019608 0.25980392 0.074387255
0.017647059 0.25980392 0.070404412
0.065196078 0.26568627 0.043872549
0.12665441 0.28020833 0.014031863
0.18627451 0.29595588 0.0045343137
0.25637255 0.3122549 0.0039215686
0.34117647 0.32892157 0.0078431373
0.42653186 0.34313725 0.0063112745
0.51164216 0.35428922 0.0029411765
0.58676471 0.35539216 0
0.6379902 0.34338235 0.0024509804
0.68627451 0.32990196 0.0024509804
0.73627451 0.31960784 0.0024509804
0.77935049 0.315625 0
0.80931373 0.31568627 0
0.83872549 0.31231618 0
0.86568627 0.30931373 0
0.89656863 0.31145833 0
0.92745098 0.31372549 0
0.95128676 0.31960784 0
0.9622549 0.32144608 0.0014705882
0.96862745 0.32352941 0.0044730392
0.975 0.32598039 0.0053921569
0.0078431373 0.3254902 0.11372549
0.0078431373 0.3254902 0.10980392
0.0078431373 0.3254902 0.10588235
0.01127451 0.3254902 0.10588235
0.058823529 0.33137255 0.080392157
0.12058824 0.3377451 0.045098039
0.18235294 0.34803922 0.0039215686
0.25882353 0.36617647 0.0078431373
0.3372549 0.38039216 0.011764706
0.42352941 0.39460784 0.0093137255
0.50980392 0.40882353 0.0039215686
0.58529412 0.41568627 0
0.6372549 0.40196078 0
0.68480392 0.3877451 0
0.73627451 0.38137255 0
0.77843137 0.37107843 0
0.81176471 0.36470588 0
0.84019608 0.3622549 0.0039215686
0.86960784 0.36078431 0.0039215686
0.9004902 0.36078431 0.0039215686
0.93137255 0.36078431 0.0039215686
0.95343137 0.35686275 0.00049019608
0.95686275 0.35980392 0.0068627451
0.9622549 0.36078431 0.011764706
0.96862745 0.36470588 0.011764706
0.014215686 0.38480392 0.14460784
0.011764706 0.3872549 0.14068627
0.011397059 0.3872549 0.13186275
0.0078431373 0.3872549 0.12303922
0.051715686 0.39191176 0.10539216
0.13382353 0.396875 0.087928922
0.20294118 0.4004902 0.067647059
0.26133578 0.41427696 0.03939951
0.32696078 0.42941176 0.022058824
0.40294118 0.43970588 0.0093137255
0.48186275 0.45183824 0.0039215686
0.55392157 0.45686275 0.0039215686
0.61666667 0.45343137 0.0039215686
0.66813725 0.43921569 0.0039215686
0.71666667 0.42892157 0.0039215686
0.76176471 0.42009804 0.0039215686
0.80294118 0.42009804 0.0039215686
0.83627451 0.41617647 0.006372549
0.86507353 0.41409314 0.0067401961
0.89411765 0.4122549 0.0078431373
0.92352941 0.41029412 0.0078431373
0.95 0.40392157 0.0039215686
0.96372549 0.39803922 0.0039215686
0.97254902 0.40042892 0.0053921569
0.98137255 0.40343137 0.0068627451
0.015686275 0.44019608 0.17058824
0.013235294 0.44411765 0.16875
0.0125 0.44803922 0.1627451
0.015318627 0.44803922 0.15245098
0.074509804 0.44656863 0.14901961
0.15085784 0.45110294 0.14166667
0.21960784 0.45196078 0.1254902
0.275 0.46127451 0.09375
0.33039216 0.4745098 0.049019608
0.38848039 0.48480392 0.0079656863
0.45588235 0.49411765 0.0049019608
0.52438725 0.49803922 0.0078431373
0.59166667 0.49803922 0.0078431373
0.64754902 0.48676471 0.0078431373
0.69509804 0.47647059 0.0078431373
0.74117647 0.47156863 0.0078431373
0.78627451 0.47156863 0.0078431373
0.82561275 0.47156863 0.0078431373
0.85759804 0.46838235 0.0095588235
0.8877451 0.46764706 0.011764706
0.91862745 0.46127451 0.012254902
0.94607843 0.45147059 0.0039215686
0.96666667 0.44338235 0.0039215686
0.97892157 0.44313725 0.0029411765
0.98921569 0.44313725 0
0.015686275 0.49166667 0.19509804
0.019301471 0.49558824 0.19479167
0.010539216 0.50085784 0.18982843
0.057352941 0.50300245 0.19019608
0.12303922 0.4995098 0.19411765
0.18094363 0.4995098 0.18970588
0.23333333 0.49987745 0.17904412
0.28186275 0.50539216 0.15373775
0.33333333 0.51568627 0.11764706
0.38609069 0.52383578 0.078553922
0.4377451 0.53235294 0.040073529
0.50042892 0.53878676 0.019546569
0.56960784 0.54289216 0.0095588235
0.62303922 0.53431373 0.0078431373
0.6745098 0.52438725 0.0078431373
0.721875 0.52303922 0.0078431373
0.76568627 0.52303922 0.0078431373
0.81292892 0.52303922 0.0078431373
0.8504902 0.52303922 0.011764706
0.884375 0.51954657 0.015625
0.91568627 0.50931373 0.015441176
0.94607843 0.4995098 0.0073529412
0.96666667 0.49264706 0.0039215686
0.98186275 0.48645833 0
0.99215686 0.48431373 0
0.01372549 0.54313725 0.21960784
0.043382353 0.54117647 0.22598039
0.074019608 0.54117647 0.22843137
0.11715686 0.54485294 0.23504902
0.17058824 0.54509804 0.23431373
0.21936275 0.54509804 0.23088235
0.25686275 0.54509804 0.22058824
0.29142157 0.54509804 0.20563725
0.3372549 0.55098039 0.18431373
0.38480392 0.55808824 0.15735294
0.43627451 0.56568627 0.13088235
0.48946078 0.57401961 0.073529412
0.54607843 0.58333333 0.016666667
0.60073529 0.58014706 0.01004902
0.65392157 0.5745098 0.011764706
0.70392157 0.5745098 0.0078431373
0.75098039 0.5745098 0.0078431373
0.79852941 0.5745098 0.0085784314
0.83872549 0.57401961 0.012254902
0.8747549 0.56887255 0.015686275
0.90980392 0.55882353 0.01372549
0.94411765 0.54877451 0.0075980392
0.96666667 0.54019608 0.0039215686
0.98455882 0.53259804 0.0012254902
0.99215686 0.52941176 0
0.082352941 0.58186275 0.26078431
0.10330882 0.58186275 0.26323529
0.14313725 0.57843137 0.26960784
0.18915441 0.58229167 0.27990196
0.23333333 0.58235294 0.27818627
0.26617647 0.58235294 0.27156863
0.2939951 0.58578431 0.25870098
0.31813725 0.58578431 0.24754902
0.34264706 0.58578431 0.2372549
0.39068627 0.59215686 0.22107843
0.43676471 0.59852941 0.20441176
0.4877451 0.60533088 0.15931373
0.53921569 0.6129902 0.092401961
0.58627451 0.61807598 0.051960784
0.6372549 0.62193627 0.013357843
0.68743873 0.6254902 0.01060049
0.73676471 0.6254902 0.016666667
0.78792892 0.62205882 0.0078431373
0.82683824 0.62193627 0.0088235294
0.86421569 0.61470588 0.015196078
0.8995098 0.60784314 0.012009804
0.93431373 0.59803922 0.0078431373
0.95882353 0.5877451 0.0068627451
0.98284314 0.58137255 0.0042279412
0.99215686 0.57843137 0
0.16862745 0.61666667 0.30882353
0.17855392 0.61666667 0.30588235
0.20122549 0.61666667 0.30612745
0.23762255 0.61960784 0.31421569
0.27647059 0.61960784 0.3122549
0.30428922 0.62058824 0.30551471
0.32843137 0.62058824 0.29607843
0.34901961 0.6185049 0.28872549
0.37058824 0.61960784 0.28235294
0.40490196 0.62303922 0.27107843
0.44705882 0.62867647 0.25147059
0.49117647 0.63578431 0.22414216
0.53578431 0.64215686 0.17990196
0.57561275 0.64852941 0.15220588
0.61985294 0.65882353 0.11176471
0.67144608 0.66188725 0.06997549
0.72352941 0.66666667 0.03627451
0.7754902 0.67058824 0.0053921569
0.81568627 0.66887255 0.0056372549
0.85392157 0.6622549 0.012622549
0.88921569 0.65294118 0.017156863
0.92794118 0.64571078 0.01127451
0.95588235 0.63921569 0.0068627451
0.97941176 0.63039216 0.006372549
0.99509804 0.62647059 0
0.26176471 0.65294118 0.35637255
0.26574755 0.65294118 0.35245098
0.27156863 0.65539216 0.34816176
0.28498775 0.65539216 0.34577206
0.3122549 0.65686275 0.34362745
0.33872549 0.65539216 0.33921569
0.35931373 0.65355392 0.33590686
0.37935049 0.65147059 0.33137255
0.39656863 0.65147059 0.32598039
0.41721814 0.65539216 0.31807598
0.45637255 0.65931373 0.29742647
0.49626225 0.66323529 0.275
0.53602941 0.67107843 0.25122549
0.571875 0.67941176 0.23314951
0.60784314 0.68639706 0.21176471
0.65238971 0.69068627 0.1721201
0.70147059 0.69705882 0.12303922
0.76078431 0.71127451 0.03125
0.80637255 0.71176471 0.016421569
0.84773284 0.70980392 0.0037377451
0.88161765 0.6995098 0.017647059
0.91960784 0.69344363 0.012561275
0.95453431 0.68676471 0.0039215686
0.97640931 0.68039216 0.0054534314
0.99607843 0.67401961 0
0.31764706 0.68627451 0.39215686
0.32401961 0.68872549 0.38823529
0.33431373 0.69019608 0.3872549
0.34068627 0.69019608 0.38088235
0.35098039 0.69019608 0.38039216
0.36960784 0.68970588 0.37647059
0.39019608 0.68627451 0.37647059
0.40686275 0.68235294 0.37107843
0.42352941 0.68627451 0.36470588
0.44411765 0.68627451 0.3622549
0.46960784 0.69019608 0.34705882
0.50784314 0.69362745 0.32647059
0.54313725 0.7 0.31176471
0.5745098 0.70637255 0.29754902
0.60882353 0.7127451 0.27745098
0.64754902 0.71764706 0.24509804
0.68627451 0.72156863 0.21176471
0.73627451 0.73186275 0.15147059
0.78921569 0.74215686 0.08627451
0.8372549 0.74901961 0.039705882
0.87058824 0.73921569 0.052941176
0.91176471 0.73333333 0.05
0.94705882 0.73039216 0.035294118
0.97156863 0.72401961 0.035294118
0.99215686 0.71764706 0.031372549
0.3627451 0.72107843 0.42303922
0.37003676 0.72107843 0.41911765
0.37904412 0.72107843 0.41911765
0.38578431 0.72107843 0.42156863
0.39607843 0.72107843 0.42156863
0.40606618 0.72058824 0.41715686
0.42107843 0.71715686 0.41188725
0.43627451 0.71715686 0.40680147
0.45441176 0.71715686 0.40833333
0.47346814 0.71715686 0.40343137
0.48921569 0.71813725 0.39497549
0.51599265 0.7223652 0.37794118
0.5495098 0.72965686 0.36960784
0.58039216 0.7346201 0.36109069
0.61176471 0.74007353 0.34558824
0.64754902 0.74515931 0.31470588
0.68235294 0.74852941 0.28627451
0.71807598 0.75545343 0.25202206
0.76862745 0.7627451 0.19632353
0.8127451 0.76697304 0.15637255
0.85392157 0.76495098 0.14558824
0.89381127 0.76029412 0.13627451
0.93517157 0.76421569 0.11862745
0.95882353 0.75790441 0.11464461
0.97401961 0.75490196 0.10980392
0.41176471 0.75588235 0.45392157
0.41629902 0.75196078 0.45453431
0.42377451 0.75196078 0.45808824
0.43088235 0.75098039 0.45882353
0.44068627 0.75098039 0.45882353
0.44705882 0.74803922 0.45441176
0.45073529 0.74803922 0.44803922
0.46862745 0.74803922 0.45098039
0.48627451 0.74803922 0.45196078
0.50343137 0.74803922 0.44742647
0.51764706 0.75122549 0.43921569
0.52794118 0.75196078 0.42892157
0.55686275 0.75686275 0.42401961
0.58676471 0.7627451 0.41654412
0.61544118 0.76666667 0.40882353
0.64816176 0.77058824 0.38039216
0.67843137 0.7745098 0.35980392
0.70931373 0.78125 0.33921569
0.74877451 0.78627451 0.30490196
0.79215686 0.78713235 0.27009804
0.8372549 0.79068627 0.24264706
0.87977941 0.79166667 0.22254902
0.92058824 0.79509804 0.20196078
0.94693627 0.79571078 0.19080882
0.96176471 0.79215686 0.1872549
0.45686275 0.78284314 0.49215686
0.46060049 0.78284314 0.49589461
0.46568627 0.77892157 0.49607843
0.47205882 0.77892157 0.49957108
0.48039216 0.77892157 0.49803922
0.48480392 0.77892157 0.49558824
0.49509804 0.77634804 0.49215686
0.50686275 0.77892157 0.49577206
0.52352941 0.77892157 0.49607843
0.53645833 0.77892157 0.49577206
0.54938725 0.77892157 0.49068627
0.56268382 0.77892157 0.48039216
0.57916667 0.78284314 0.47034314
0.60098039 0.78682598 0.46378676
0.62879902 0.79019608 0.45735294
0.65490196 0.79479167 0.4377451
0.68578431 0.79901961 0.41715686
0.71666667 0.80539216 0.4026348
0.74411765 0.81078431 0.38713235
0.78235294 0.81421569 0.36182598
0.82401961 0.81813725 0.33308824
0.86911765 0.82254902 0.30790441
0.91029412 0.82892157 0.28431373
0.9495098 0.83333333 0.26176471
0.96813725 0.83333333 0.25539216
0.50392157 0.80980392 0.5372549
0.50784314 0.80980392 0.5372549
0.51421569 0.80784314 0.54166667
0.51593137 0.80637255 0.53946078
0.51960784 0.80588235 0.5372549
0.52941176 0.80588235 0.5372549
0.53627451 0.80588235 0.5372549
0.5504902 0.80588235 0.53872549
0.5627451 0.80588235 0.54117647
0.57303922 0.80588235 0.54117647
0.58333333 0.80588235 0.53872549
0.59730392 0.80588235 0.52990196
0.61176471 0.80882353 0.52058824
0.62622549 0.81004902 0.51176471
0.64362745 0.81323529 0.50490196
0.66764706 0.81838235 0.49191176
0.69607843 0.82352941 0.47843137
0.72892157 0.83186275 0.46421569
0.75686275 0.8372549 0.45147059
0.78480392 0.84093137 0.4379902
0.82352941 0.84607843 0.41568627
0.8627451 0.85318627 0.39117647
0.90196078 0.85980392 0.36764706
0.94313725 0.86617647 0.34338235
0.97843137 0.87058824 0.32352941
0.55539216 0.83676471 0.58284314
0.55784314 0.83676471 0.58284314
0.55931373 0.83627451 0.58235294
0.55931373 0.83627451 0.57935049
0.5629902 0.83676471 0.57843137
0.57107843 0.83670343 0.57843137
0.58137255 0.83370098 0.57843137
0.59166667 0.83284314 0.58235294
0.60196078 0.83284314 0.58284314
0.60833333 0.83284314 0.58284314
0.61813725 0.83272059 0.58235294
0.62843137 0.83278186 0.5754902
0.64264706 0.83455882 0.56911765
0.65343137 0.83676471 0.5627451
0.66715686 0.84068627 0.55637255
0.6841299 0.84460784 0.55018382
0.71470588 0.85245098 0.54019608
0.74558824 0.86011029 0.52990196
0.77144608 0.86409314 0.51593137
0.79509804 0.86764706 0.50533088
0.83014706 0.87401961 0.48946078
0.86819853 0.88033088 0.46911765
0.90551471 0.88676471 0.44595588
0.94117647 0.89295343 0.4245098
0.96372549 0.89558824 0.40833333
0.60686275 0.86372549 0.63039216
0.60747549 0.86372549 0.63039216
0.60857843 0.86372549 0.62720588
0.61078431 0.86372549 0.62647059
0.61127451 0.86617647 0.62647059
0.61519608 0.86715686 0.62647059
0.6254902 0.86372549 0.62647059
0.63578431 0.86372549 0.63039216
0.64313725 0.86372549 0.63039216
0.65061275 0.86188725 0.63039216
0.65588235 0.85980392 0.62720588
0.66519608 0.86237745 0.62683824
0.67647059 0.86372549 0.62205882
0.69068627 0.86764706 0.61727941
0.70196078 0.87156863 0.61151961
0.71556373 0.8754902 0.6064951
0.73529412 0.88333333 0.60196078
0.76617647 0.88970588 0.59522059
0.78823529 0.89411765 0.57941176
0.80931373 0.8942402 0.56617647
0.84362745 0.90343137 0.55980392
0.87156863 0.90784314 0.54166667
0.8997549 0.91151961 0.52745098
0.92941176 0.9189951 0.51188725
0.94019608 0.91960784 0.50098039
0.65833333 0.89313725 0.67647059
0.6598652 0.89313725 0.67794118
0.6622549 0.89460784 0.67794118
0.6622549 0.89460784 0.67794118
0.6629902 0.89460784 0.67794118
0.66666667 0.89460784 0.67794118
0.67585784 0.89460784 0.67904412
0.68278186 0.89460784 0.68039216
0.68823529 0.89460784 0.67794118
0.69460784 0.89460784 0.68094363
0.70245098 0.89460784 0.68394608
0.71145833 0.89607843 0.68363971
0.72156863 0.89852941 0.67867647
0.73167892 0.89852941 0.67352941
0.74068627 0.90245098 0.66654412
0.75098039 0.90637255 0.66525735
0.76519608 0.91421569 0.66372549
0.78823529 0.91966912 0.65735294
0.80637255 0.92107843 0.64411765
0.825 0.925 0.63658088
0.85367647 0.93308824 0.62990196
0.87518382 0.9341299 0.61764706
0.89509804 0.93958333 0.60845588
0.91372549 0.94411765 0.59852941
0.91862745 0.94166667 0.58970588
0.69411765 0.91372549 0.70980392
0.69411765 0.91372549 0.7122549
0.69901961 0.91764706 0.71470588
0.70196078 0.91764706 0.71764706
0.70588235 0.92156863 0.72156863
0.71372549 0.9254902 0.7254902
0.71666667 0.92254902 0.72254902
0.71764706 0.91764706 0.72009804
0.72156863 0.91764706 0.71764706
0.73186275 0.91764706 0.72156863
0.74215686 0.92254902 0.73039216
0.75588235 0.92892157 0.74068627
0.75686275 0.9254902 0.72352941
0.76127451 0.9254902 0.71715686
0.76764706 0.9254902 0.71078431
0.77794118 0.93088235 0.70980392
0.79215686 0.9372549 0.71372549
0.81029412 0.94901961 0.71666667
0.8245098 0.95196078 0.71078431
0.84215686 0.95588235 0.70882353
0.85882353 0.95490196 0.69019608
0.8754902 0.95686275 0.67794118
0.89215686 0.95980392 0.67058824
0.90196078 0.96078431 0.66666667
0.90588235 0.96078431 0.6627451
0.0078431373 0.017156863 0.018137255
0.014215686 0.013235294 0.022058824
0.030392157 0.011764706 0.02745098
0.06127451 0.015379902 0.023835784
0.092156863 0.015686275 0.018137255
0.11911765 0.011764706 0.016482843
0.16421569 0.0078431373 0.015563725
0.23382353 0.0098651961 0.0079044118
0.29803922 0.020098039 0.0039215686
0.36372549 0.016176471 0.0039215686
0.43431373 0.0083333333 0.006372549
0.50275735 0.0017769608 0.0072303922
0.56397059 0.0019607843 0.0071078431
0.61844363 0.0080269608 0.012254902
0.675 0.012867647 0.018627451
0.72892157 0.017156863 0.021997549
0.77254902 0.019607843 0.023529412
0.80980392 0.019607843 0.013235294
0.84607843 0.022671569 0.0039215686
0.87696078 0.042156863 0.0039215686
0.90588235 0.060294118 0.0039215686
0.93480392 0.082659314 0.0039215686
0.96213235 0.1064951 0.0039215686
0.9872549 0.13474265 0
0.99607843 0.14509804 0
0.0078431373 0.018688725 0.016605392
0.014790135 0.018344056 0.019837623
0.03638174 0.021599265 0.023529412
0.065196078 0.02678462 0.022242647
0.096078431 0.028890931 0.017371324
0.1269761 0.02678462 0.014330576
0.17807904 0.02689951 0.016666667
0.24117647 0.027106311 0.014276961
0.30140931 0.028921569 0.006372549
0.36525735 0.026508885 0.0039215686
0.43584559 0.018872549 0.0070618873
0.50601256 0.010922181 0.0082261029
0.5661152 0.0092830882 0.006372549
0.62150735 0.011879596 0.011029412
0.67643995 0.016375613 0.016099877
0.73160233 0.01842065 0.019814645
0.77254902 0.028370098 0.020159314
0.81014859 0.030821078 0.013235294
0.84607843 0.032781863 0.0039215686
0.87696078 0.053370098 0.0023897059
0.90585172 0.081096814 0.0039215686
0.93480392 0.10392157 0.0036151961
0.96213235 0.12120098 0.00036764706
0.98872549 0.14138327 0
0.99607843 0.15147059 0
0.0057598039 0.024509804 0.017279412
0.017647059 0.028400735 0.01875
0.042432598 0.036979167 0.019332108
0.069163603 0.04051777 0.018704044
0.096262255 0.042463235 0.015686275
0.13676471 0.048039216 0.014721201
0.19096201 0.0546875 0.018137255
0.25003064 0.057613358 0.016896446
0.30894608 0.061764706 0.012745098
0.37522978 0.063204657 0.0095128676
0.44705882 0.057567402 0.010294118
0.51911765 0.05356924 0.0083333333
0.57671569 0.050061275 0.0072916667
0.63088235 0.040196078 0.0080729167
0.68419118 0.028921569 0.011764706
0.73529412 0.034191176 0.014705882
0.77647059 0.057843137 0.014705882
0.81257659 0.068550858 0.0097732843
0.84644608 0.074754902 0.0024816176
0.87700674 0.093137255 0
0.90661765 0.1161152 0
0.93480392 0.13835784 0
0.96384804 0.15456495 0
0.98858762 0.16911765 0
0.99607843 0.17156863 0
