site/assets/luts/natron-haldclut--warm-yellow--b4fc5258a.cube
# LUTr-Project: LUTr — LUTrepository
# LUTr-Schema-Version: 1
# LUTr-ID: natron-haldclut--warm-yellow--b4fc5258a
# LUTr-Title: warm yellow
# LUTr-Collection: Natron HaldCLUT
# LUTr-Collection-ID: natron-haldclut-presets
# LUTr-Source: https://github.com/NatronGitHub/clut
# LUTr-Source-File: submissions/natron-haldclut-presets/various/warm_yellow.png
# LUTr-Source-Format: PNG
# LUTr-Source-SHA256: 6527bb271af3febd0a8d3197b5474d12b699eaa471d04dea1414b4eb19b29076
# LUTr-License: CC-BY-SA-4.0
# LUTr-License-URL: https://github.com/NatronGitHub/clut#license
# LUTr-Tags: creative, film, film-emulation, hald-clut, natron, png, warm, cube
# LUTr-Transform-Class: film-emulation
# LUTr-Input-Color-Space: srgb
# LUTr-Output-Color-Space: srgb
# LUTr-Color-Space-Confidence: assumed-display-referred
# LUTr-Conversion-Method: PNG LUT image decoded at 16-bit and sampled to 25x25x25 3D CUBE
# LUTr-Conversion-Date: 2026-07-27
# LUTr-Conversion-Tool: LUTr scripts/convert-all-to-cube.mjs
# LUTr-Conversion-Grid: 25x25x25
# LUTr-Note: Preserve this metadata and the upstream license notices when redistributing.
TITLE "warm yellow"
LUT_3D_SIZE 9
DOMAIN_MIN 0 0 0
DOMAIN_MAX 1 1 1
0.047058824 0.019607843 0.0078431373
0.21666667 0.0039215686 0.0039215686
0.39901961 0 0
0.57303922 0 0
0.69019608 0.0039215686 0
0.79656863 0.0039215686 0
0.88039216 0 0
0.94166667 0.011764706 0.0078431373
0.99607843 0 0
0.11617647 0.07745098 0.0078431373
0.2283701 0.073039216 0.0069240196
0.4067402 0.058333333 0.0039215686
0.57303922 0.056862745 0
0.69803922 0.039705882 0
0.8004902 0.037254902 0
0.88137255 0.065808824 0
0.94215686 0.064276961 0.0039215686
0.98480392 0.045098039 0.0034313725
0.2127451 0.19509804 0.042156863
0.23455882 0.19215686 0.0056372549
0.4129902 0.19436275 0.011029412
0.57303922 0.19117647 0.0039215686
0.70539216 0.18186275 0
0.8004902 0.17254902 0
0.88039216 0.1872549 0
0.94215686 0.16960784 0
0.97647059 0.16568627 0
0.29362745 0.36764706 0.076960784
0.31666667 0.37009804 0.033026961
0.4192402 0.37156863 0.019607843
0.56911765 0.37303922 0
0.70318627 0.34681373 0
0.8004902 0.35680147 0
0.88039216 0.34166667 0
0.94215686 0.33351716 0
0.9872549 0.34803922 0
0.39215686 0.56862745 0.11960784
0.39362745 0.57254902 0.063480392
0.44901961 0.57352941 0.023529412
0.57058824 0.56936275 0.0085784314
0.70588235 0.55490196 0.00098039216
0.80441176 0.55808824 0
0.87745098 0.54313725 0
0.94583333 0.56985294 0
0.98235294 0.56078431 0
0.47745098 0.75 0.14901961
0.46734069 0.75245098 0.094607843
0.50392157 0.75245098 0.046568627
0.57745098 0.75637255 0.011764706
0.70196078 0.76029412 0.0053921569
0.80202206 0.75098039 0.0014705882
0.88039216 0.73676471 0
0.94607843 0.73265931 0
0.98039216 0.72892157 0
0.57156863 0.87352941 0.23431373
0.53419118 0.87745098 0.12769608
0.55784314 0.8745098 0.069607843
0.62340686 0.87745098 0.051838235
0.70098039 0.87745098 0.024019608
0.80441176 0.87745098 0.0067401961
0.88039216 0.87034314 0
0.94558824 0.8627451 0
0.99313725 0.8754902 0
0.64852941 0.95 0.33529412
0.61115196 0.95 0.18547794
0.62144608 0.95 0.12022059
0.65226716 0.9473652 0.059007353
0.71617647 0.9495098 0.031862745
0.79656863 0.94215686 0.01372549
0.87254902 0.94215686 0.0078431373
0.94166667 0.94558824 0
0.98382353 0.94215686 0
0.70980392 0.98823529 0.41960784
0.6745098 0.98872549 0.26813725
0.65980392 0.98039216 0.15882353
0.7004902 0.99215686 0.093137255
0.74313725 0.98823529 0.039215686
0.79901961 0.99215686 0.0014705882
0.86862745 0.98823529 0.0039215686
0.93431373 0.98431373 0
0.99215686 0.98431373 0
0.10392157 0.030882353 0.046078431
0.22058824 0.019607843 0.046078431
0.40294118 0.015686275 0.039583333
0.56960784 0.0039215686 0.031678922
0.69803922 0.0058823529 0.016911765
0.8004902 0.0039215686 0.018627451
0.88039216 0.0039215686 0.031862745
0.94558824 0.0039215686 0.042585784
0.98039216 0.0078431373 0.034313725
0.091666667 0.084313725 0.046017157
0.22493873 0.080507047 0.046078431
0.40588235 0.062254902 0.038235294
0.56911765 0.0473269 0.02432598
0.71130515 0.011519608 0.0019301471
0.80443474 0.018198529 0.0073529412
0.88039216 0.019240196 0.011764706
0.94215686 0.016551777 0.012193627
0.98694853 0.0091911765 0.0082720588
0.16678922 0.19215686 0.062622549
0.27261029 0.19509804 0.060784314
0.40686275 0.1919424 0.042922794
0.57696078 0.15574449 0.011703431
0.69534314 0.13020833 0.0047794118
0.80441176 0.10245098 0
0.88039216 0.098069853 0.0035539216
0.94215686 0.09263174 0
0.99215686 0.084313725 0
0.27493873 0.37530637 0.1
0.38018536 0.37160692 0.10330882
0.43051471 0.37023591 0.057797181
0.57585018 0.37314645 0.014820772
0.70572917 0.31421569 0.0060661765
0.80521599 0.26813725 0.0039215686
0.88039216 0.24722733 0
0.94215686 0.23981311 0
0.99430147 0.22205882 0
0.35980392 0.57426471 0.14240196
0.459375 0.56862745 0.15395221
0.48988971 0.5745098 0.093627451
0.58014706 0.57205882 0.042156863
0.7057598 0.56629902 0.012867647
0.8004902 0.52132353 0.0039215686
0.88039216 0.4745098 0.0039215686
0.94558824 0.4502451 0
0.98431373 0.43357843 0
0.43609069 0.75637255 0.19607843
0.56063879 0.75524663 0.22403493
0.55784314 0.74560355 0.14273897
0.60343137 0.75637255 0.075
0.69803922 0.75245098 0.025398284
0.8004902 0.74761029 0.0078431373
0.88039216 0.71717218 0.0039215686
0.94215686 0.69283088 0.0038832721
0.975 0.66550245 0.0012867647
0.54497549 0.87745098 0.2877451
0.62375919 0.87749694 0.30660233
0.6169424 0.8698223 0.19117647
0.64255515 0.87745098 0.10992647
0.70612745 0.88039216 0.048590686
0.78678002 0.87843137 0.006908701
0.87720588 0.87058824 0
0.94215686 0.85055147 0.0034926471
0.97647059 0.84656863 0.0039215686
0.60588235 0.94957108 0.37352941
0.68841912 0.94607843 0.40294884
0.67810968 0.95 0.27438725
0.69253983 0.94969363 0.16421569
0.73333333 0.94954044 0.077205882
0.79509804 0.94607843 0.029901961
0.87254902 0.94606311 0.014828431
0.93823529 0.94215686 0
0.99172794 0.93823529 0
0.66764706 0.99558824 0.47696078
0.75116422 0.99417892 0.52242647
0.72977941 0.99215686 0.34693627
0.72481618 0.97824755 0.1995098
0.74509804 0.97647059 0.088970588
0.80294118 0.97665441 0.03939951
0.86862745 0.98823529 0.014215686
0.93088235 0.98039216 0
0.98823529 0.96078431 0
0.1372549 0.053921569 0.11568627
0.24840686 0.025980392 0.12156863
0.41446078 0.020588235 0.11470588
0.57303922 0.0039215686 0.10294118
0.70147059 0.0039215686 0.095098039
0.80379902 0.0039215686 0.10796569
0.88039216 0.0041666667 0.10686275
0.94215686 0.0039215686 0.10686275
0.9754902 0 0.10392157
0.15784314 0.10392157 0.11862745
0.2592065 0.099632353 0.12578125
0.41764706 0.081219363 0.11951593
0.56911765 0.060876225 0.10565257
0.70018382 0.035355392 0.091176471
0.8004902 0.014215686 0.073897059
0.87745098 0.022303922 0.072089461
0.94215686 0.0073529412 0.057781863
0.98137255 0.0025735294 0.057843137
0.11740196 0.19215686 0.11642157
0.26715686 0.19874387 0.12328431
0.42328431 0.19215686 0.11954657
0.5685049 0.16127451 0.098406863
0.71078431 0.11507353 0.067156863
0.8004902 0.096844363 0.060784314
0.87959559 0.065870098 0.03627451
0.94215686 0.054442402 0.030055147
0.99142157 0.027696078 0.010784314
0.21605392 0.37340686 0.14620098
0.34430147 0.37009804 0.15949755
0.48385417 0.37092525 0.1622549
0.57196691 0.36095282 0.094117647
0.7 0.31041667 0.071752451
0.80464154 0.25359988 0.052573529
0.88431373 0.2111826 0.034436275
0.94581801 0.17598039 0.02254902
0.98676471 0.14166667 0.016666667
0.3127451 0.57352941 0.19803922
0.4245098 0.56868873 0.21323529
0.55134804 0.57745098 0.22328431
0.59632353 0.56881127 0.13946078
0.69803922 0.55980392 0.073284314
0.80067402 0.50318627 0.054411765
0.88210784 0.44117647 0.031617647
0.94558824 0.38039216 0.016482843
0.98627451 0.3377451 0.01372549
0.39460784 0.75796569 0.26102941
0.51776961 0.75886949 0.28431373
0.63667279 0.75784314 0.31740196
0.64172794 0.74889706 0.20150123
0.7036152 0.75153186 0.1096201
0.80117953 0.74469975 0.056081495
0.88137255 0.69068627 0.029166667
0.94215686 0.64767157 0.014123775
0.9872549 0.58480392 0.014705882
0.48186275 0.87818627 0.35073529
0.59347426 0.87159926 0.38097426
0.69166667 0.86960784 0.41109069
0.69157475 0.87352941 0.27696078
0.72904412 0.87598039 0.16127451
0.79785539 0.87306985 0.081127451
0.88039216 0.87359069 0.03682598
0.94215686 0.83259804 0.014491422
0.97156863 0.82156863 0.012990196
0.56372549 0.94987745 0.4435049
0.66715686 0.95 0.48186275
0.7495098 0.94656863 0.52463235
0.74073223 0.95 0.3658701
0.7622549 0.94993873 0.22156863
0.80343137 0.94607843 0.12205882
0.87637868 0.95 0.058272059
0.94188113 0.94258578 0.01372549
0.98762255 0.9317402 0.014705882
0.62254902 0.99509804 0.55294118
0.72107843 0.99313725 0.58970588
0.79877451 0.99509804 0.63872549
0.78382353 0.99154412 0.44644608
0.78921569 0.98970588 0.29411765
0.82218137 0.98676471 0.16519608
0.86862745 0.98921569 0.07745098
0.93039216 0.98823529 0.03370098
0.98823529 0.98333333 0.0068627451
0.20637255 0.073039216 0.25539216
0.30116422 0.053921569 0.24754902
0.42892157 0.030882353 0.24362745
0.57003676 0.014767157 0.24362745
0.70392157 0.0085784314 0.23235294
0.80349265 0.011764706 0.2372549
0.88039216 0.0039215686 0.23762255
0.94215686 0.0012867647 0.21685049
0.98823529 0 0.1627451
0.1903799 0.13088235 0.24411765
0.31601563 0.12910539 0.24362745
0.43693321 0.10415135 0.24816176
0.57384344 0.081188725 0.24454657
0.70294118 0.054411765 0.22867647
0.80079657 0.034022672 0.20827206
0.87651654 0.022058824 0.18069853
0.94215686 0.00026807598 0.14785539
0.98854167 0.0037377451 0.14393382
0.17904412 0.22990196 0.24718137
0.31433824 0.23272059 0.24693627
0.45873162 0.23272059 0.24473039
0.57843137 0.19532782 0.2370864
0.70588235 0.15386029 0.21844363
0.8004902 0.11922488 0.18970588
0.88039216 0.0921875 0.15882353
0.94215686 0.067233456 0.12794118
0.9939951 0.041789216 0.099142157
0.18314951 0.3713848 0.24607843
0.31241575 0.36741728 0.24750306
0.44738051 0.37009804 0.24546569
0.5814568 0.36037837 0.23578431
0.70588235 0.31709559 0.20052083
0.80349265 0.2685432 0.16519608
0.88039216 0.2183364 0.13523284
0.94607843 0.17254902 0.11232384
0.99215686 0.13921569 0.091176471
0.2504902 0.5752451 0.29362745
0.37922794 0.56691176 0.30646446
0.51770833 0.56862745 0.31470588
0.62573529 0.575 0.30646446
0.70453431 0.56960784 0.20428922
0.80318627 0.50928309 0.16106005
0.88161765 0.44748775 0.12622549
0.94215686 0.38333333 0.099846814
0.99215686 0.3372549 0.079901961
0.33731618 0.75189951 0.35539216
0.46795343 0.7511106 0.36844363
0.59042586 0.75091912 0.39117647
0.69411765 0.74740349 0.40655637
0.72818627 0.75591299 0.27815564
0.8004902 0.74311428 0.16975337
0.8810049 0.69143689 0.11862745
0.94215686 0.63841912 0.093512561
0.98131127 0.59699755 0.078492647
0.42414216 0.87843137 0.44019608
0.54803922 0.870144 0.46090686
0.66715686 0.87815564 0.49166667
0.74715074 0.87745098 0.51813725
0.75900735 0.87745098 0.36029412
0.79940257 0.87768076 0.22296262
0.87965686 0.86731005 0.12922794
0.94607843 0.84227941 0.089705882
0.99215686 0.80098039 0.076470588
0.52273284 0.9495098 0.5403799
0.62404259 0.9495098 0.56390931
0.72107843 0.94607843 0.6004136
0.79692862 0.95 0.63015472
0.80229779 0.95 0.46706495
0.81882659 0.9495098 0.30550705
0.87463235 0.9495098 0.17777267
0.94215686 0.94564951 0.096875
0.98400735 0.92873775 0.079901961
0.62352941 0.99215686 0.64117647
0.68645833 0.99264706 0.66568627
0.77267157 0.99276961 0.70539216
0.83192402 0.9872549 0.71746324
0.82990196 0.98578431 0.54313725
0.84613971 0.99221814 0.39969363
0.87647059 0.9939951 0.24215686
0.93854167 0.98253676 0.12794118
0.97794118 0.98039216 0.074019608
0.2627451 0.10196078 0.43137255
0.35318627 0.080637255 0.42941176
0.46470588 0.052941176 0.43970588
0.58823529 0.025735294 0.44117647
0.70980392 0.011764706 0.43137255
0.80171569 0.0058823529 0.43210784
0.87647059 0.0053921569 0.41666667
0.94215686 0 0.41666667
0.99411765 0 0.4254902
0.25098039 0.16715686 0.43333333
0.3745098 0.16691176 0.43676471
0.47849265 0.13878676 0.44117647
0.58823529 0.10514706 0.4372549
0.70968137 0.078431373 0.43296569
0.80220588 0.054411765 0.40906863
0.87873775 0.035110294 0.38118873
0.94387255 0.014460784 0.34659926
0.98995098 0.0039215686 0.31740196
0.23333333 0.26862745 0.43480392
0.36488971 0.28014706 0.43333333
0.50698529 0.28394608 0.44031863
0.59993873 0.23596814 0.4372549
0.70318627 0.19338235 0.4247549
0.80079657 0.15514706 0.40925245
0.87696078 0.11715686 0.37120098
0.94258578 0.08872549 0.32984069
0.99068627 0.068627451 0.28529412
0.22867647 0.41348039 0.43504902
0.35015319 0.41602328 0.43333333
0.48848039 0.41764706 0.43284314
0.6120098 0.41614583 0.43753064
0.70747549 0.3747549 0.42904412
0.80294118 0.31691176 0.39096201
0.88039216 0.25680147 0.3502451
0.94558824 0.21372549 0.30278799
0.99215686 0.17132353 0.25637255
0.20784314 0.5872549 0.44803922
0.34387255 0.5745098 0.43995098
0.48921569 0.57647059 0.44117647
0.60821078 0.57843137 0.44240196
0.7127451 0.58676471 0.42352941
0.80551471 0.52083333 0.37156863
0.88039216 0.45588235 0.31053922
0.94607843 0.39730392 0.26580882
0.99215686 0.34509804 0.22745098
0.30269608 0.75563725 0.48995098
0.41911765 0.75245098 0.49877451
0.55324755 0.74852941 0.50637255
0.66130515 0.74929534 0.51712623
0.75294118 0.75245098 0.51960784
0.80759804 0.74761029 0.38036152
0.88039216 0.69221814 0.29834559
0.94558824 0.64926471 0.25220588
0.9872549 0.59142157 0.22352941
0.3627451 0.87745098 0.56764706
0.50220588 0.87401961 0.57328431
0.6254902 0.87745098 0.59375
0.72046569 0.87745098 0.61727941
0.79656863 0.87352941 0.62843137
0.83296569 0.87745098 0.46764706
0.88039216 0.86813725 0.31470588
0.94215686 0.83088235 0.24656863
0.99215686 0.80147059 0.20686275
0.47377451 0.9497549 0.65245098
0.57594975 0.94757966 0.66614583
0.68817402 0.94865196 0.69136029
0.77254902 0.95 0.71985294
0.8379902 0.95 0.7372549
0.846875 0.95 0.58783701
0.87996324 0.95 0.3997549
0.94215686 0.94564951 0.24846814
0.9745098 0.92867647 0.21715686
0.5254902 0.98431373 0.72745098
0.64289216 0.98823529 0.74264706
0.74558824 0.99558824 0.78382353
0.81470588 0.99215686 0.80637255
0.86960784 0.99313725 0.82745098
0.87254902 0.99215686 0.68186275
0.89313725 0.98823529 0.48529412
0.93995098 0.99166667 0.32303922
0.99215686 0.98039216 0.19803922
0.31372549 0.1254902 0.64166667
0.40147059 0.10232843 0.64969363
0.50343137 0.074877451 0.65784314
0.60643382 0.051531863 0.64859069
0.71323529 0.034313725 0.64558824
0.8004902 0.017830882 0.64859069
0.87683824 0.0014705882 0.63198529
0.94215686 0 0.64264706
0.97254902 0 0.62990196
0.309375 0.20392157 0.64791667
0.42865349 0.20915288 0.65490196
0.52691483 0.18120404 0.65695466
0.61655178 0.14515931 0.65350031
0.71930147 0.10765931 0.64960172
0.80441176 0.081372549 0.63823529
0.87768076 0.057965686 0.64313725
0.94215686 0.039215686 0.60051317
0.99185049 0.01127451 0.56176471
0.28186275 0.32169118 0.65392157
0.41629902 0.32745098 0.65735294
0.54739583 0.33483456 0.65618873
0.63699449 0.28811275 0.65281863
0.71715686 0.23921569 0.64883578
0.80525429 0.19993873 0.64529718
0.88039216 0.15845588 0.62965686
0.94215686 0.11773897 0.59764093
0.98823529 0.096568627 0.55833333
0.28278186 0.46317402 0.65159314
0.40226716 0.46764706 0.65189951
0.53696385 0.47732843 0.64682904
0.65343137 0.48878676 0.66014859
0.72818627 0.42913603 0.65220588
0.80294118 0.37156863 0.65189951
0.88039216 0.30980392 0.61992953
0.94589461 0.25343137 0.56708793
0.98970588 0.21372549 0.53137255
0.24681373 0.61666667 0.6495098
0.38235294 0.61666667 0.64558824
0.52977941 0.62432598 0.66207108
0.63900123 0.62591912 0.65193015
0.73480392 0.62279412 0.64987745
0.80441176 0.57527574 0.6426777
0.88112745 0.5127451 0.60833333
0.94215686 0.44828431 0.55294118
0.98823529 0.39313725 0.49117647
0.22726716 0.75784314 0.65183824
0.38180147 0.7573606 0.65893842
0.52205882 0.7549326 0.65804228
0.64806219 0.7627451 0.66462163
0.74264706 0.76148897 0.66519608
0.81709559 0.75245098 0.65435049
0.88039216 0.71703431 0.58676471
0.94558824 0.65814185 0.53872549
0.99160539 0.60055147 0.46813725
0.32058824 0.87745098 0.70943627
0.45651042 0.8794424 0.71034007
0.57840074 0.87352941 0.72095588
0.69019608 0.87745098 0.72866115
0.77806373 0.88137255 0.7379902
0.84166667 0.87889093 0.73331801
0.8801777 0.87420343 0.5760723
0.94215686 0.83480392 0.4995098
0.98676471 0.80845588 0.46433824
0.4088848 0.94981618 0.76550245
0.53118873 0.94607843 0.77559743
0.64754902 0.9495098 0.78872549
0.75060509 0.95 0.7966299
0.81470588 0.9495098 0.82254902
0.87310049 0.95 0.82640931
0.9004902 0.9495098 0.67068015
0.94215686 0.94542739 0.47491575
0.99215686 0.92647059 0.43658088
0.48480392 0.99215686 0.83088235
0.6028799 0.98860294 0.83817402
0.69963235 0.98823529 0.84901961
0.79564951 0.99368873 0.87205882
0.85882353 0.99215686 0.89901961
0.8995098 0.98970588 0.89460784
0.90943627 0.9814951 0.7432598
0.93560049 0.99430147 0.59509804
0.98039216 0.98823529 0.47745098
0.36470588 0.1754902 0.84509804
0.45183824 0.13566176 0.85453431
0.54411765 0.10416667 0.84485294
0.63578431 0.072794118 0.84473039
0.72843137 0.06372549 0.84803922
0.80784314 0.030882353 0.85134804
0.88210784 0.015686275 0.84558824
0.94215686 0.0078431373 0.83186275
0.99313725 0.0019607843 0.83823529
0.35588235 0.25539216 0.84803922
0.48507966 0.25931373 0.84578738
0.57181373 0.23501838 0.84411765
0.65098039 0.18088235 0.84865196
0.73382353 0.14197304 0.84748775
0.80530025 0.107981 0.84446998
0.88137255 0.080116422 0.8479473
0.94215686 0.056985294 0.83665748
0.97254902 0.043137255 0.81115196
0.34681373 0.37622549 0.84681373
0.46954657 0.38893995 0.84828431
0.59693627 0.39632353 0.84803922
0.66764706 0.34411765 0.84803922
0.7372549 0.28676471 0.84411765
0.80833333 0.24056373 0.84509804
0.88112745 0.19607843 0.84491422
0.94215686 0.15343137 0.83284314
0.99044118 0.1245098 0.80857843
0.32941176 0.52009804 0.84558824
0.45525429 0.5276348 0.85134804
0.57953431 0.5372549 0.84803922
0.68800551 0.54060968 0.84693627
0.75484069 0.48878676 0.84509804
0.81752451 0.42401961 0.84088542
0.88431373 0.36764706 0.83875613
0.94215686 0.30588235 0.81734069
0.98823529 0.26875 0.79938725
0.31568627 0.66568627 0.84607843
0.43633578 0.66666667 0.84117647
0.56764706 0.67193627 0.84803922
0.67745098 0.67647059 0.84264706
0.76102941 0.67745098 0.84779412
0.82254902 0.6286152 0.84509804
0.88431373 0.57022059 0.83259804
0.94215686 0.50980392 0.81292892
0.99019608 0.45490196 0.7872549
0.29485294 0.78517157 0.85196078
0.42117034 0.78628983 0.84523591
0.55364583 0.78578431 0.84494485
0.66715686 0.79117647 0.84803922
0.76176471 0.79362745 0.84901961
0.82683824 0.78592218 0.84509804
0.88431373 0.75199142 0.83697917
0.94215686 0.70355392 0.8089614
0.97254902 0.67463235 0.78627451
0.2879902 0.88431373 0.85588235
0.41246936 0.88039216 0.85306373
0.55612745 0.88118873 0.85588235
0.6752451 0.88431373 0.86090686
0.7685049 0.88137255 0.85906863
0.83756127 0.88823529 0.87328431
0.88823529 0.87671569 0.86207108
0.94215686 0.85147059 0.78434436
0.98357843 0.83137255 0.74828431
0.35735294 0.95 0.89105392
0.4847886 0.94607843 0.89375
0.61176471 0.94800858 0.8942402
0.7127451 0.9495098 0.89007353
0.79822304 0.9495098 0.8939951
0.86213235 0.9495098 0.91011029
0.90343137 0.9495098 0.89338235
0.94575674 0.93823529 0.79508272
0.99166667 0.92647059 0.72696078
0.44117647 0.98823529 0.92352941
0.57120098 0.99473039 0.93786765
0.6754902 0.99215686 0.93529412
0.75147059 0.98823529 0.93321078
0.83823529 0.99215686 0.95
0.89215686 0.98823529 0.95784314
0.92965686 0.98823529 0.9372549
0.9504902 0.98823529 0.8564951
0.98921569 0.99215686 0.72156863
0.43970588 0.19411765 0.97696078
0.50104167 0.17408088 0.96960784
0.58284314 0.13688725 0.9682598
0.66666667 0.10508578 0.96305147
0.75122549 0.073039216 0.96764706
0.81881127 0.050183824 0.96813725
0.88431373 0.031004902 0.96654412
0.94215686 0.014031863 0.96482843
0.97990196 0.0039215686 0.96568627
0.40882353 0.30490196 0.97310049
0.53272825 0.31666667 0.96665901
0.60980392 0.27869179 0.95951287
0.67974112 0.22371324 0.96145833
0.75514706 0.18504902 0.96176471
0.8221201 0.13823529 0.96750153
0.8847886 0.10784314 0.96688113
0.9421492 0.080882353 0.95827972
0.98817402 0.057904412 0.96960784
0.41887255 0.44264706 0.96519608
0.52020527 0.45453431 0.95816483
0.63918505 0.46219363 0.96596201
0.70245098 0.40882353 0.96556373
0.76470588 0.34828431 0.97218137
0.82446385 0.29019608 0.96176471
0.88823529 0.2372549 0.96032475
0.94215686 0.19520527 0.95392157
0.98247549 0.1622549 0.96470588
0.37659314 0.58155637 0.97107843
0.502428 0.58723192 0.96519608
0.62406556 0.59693627 0.96145833
0.72352175 0.60349265 0.97303922
0.77803309 0.55147059 0.96038603
0.83069853 0.49643842 0.97480086
0.88860294 0.42994792 0.9613511
0.94558824 0.36372549 0.96372549
0.98988971 0.31403186 0.96764706
0.35416667 0.71053922 0.97303922
0.48676471 0.71421569 0.95588235
0.61053922 0.71838235 0.9627451
0.71504289 0.73030025 0.96807598
0.78762255 0.72843137 0.97426471
0.84166667 0.6770527 0.96265319
0.88860294 0.63069853 0.9622549
0.94215686 0.57034314 0.9674326
0.98235294 0.53382353 0.97303922
0.3435049 0.81813725 0.97420343
0.46922488 0.82028186 0.9562883
0.59560355 0.82058824 0.94987745
0.70147825 0.8245098 0.96469822
0.78480392 0.82843137 0.9627451
0.84890472 0.82684589 0.96647518
0.88872549 0.79117647 0.96654412
0.94558824 0.75622702 0.96584712
0.97518382 0.71893382 0.95177696
0.32683824 0.89656863 0.96519608
0.45615809 0.89656863 0.95903799
0.5877451 0.89849877 0.95278799
0.69411765 0.89914216 0.96806066
0.77671569 0.89656863 0.96568627
0.84656863 0.9 0.96600797
0.89607843 0.89071691 0.96960784
0.94607843 0.87728248 0.96174939
0.99509804 0.84362745 0.96041667
0.30073529 0.95 0.97689951
0.44993873 0.95 0.96911765
0.58843444 0.94957108 0.96300551
0.69409467 0.94973192 0.96599265
0.78039216 0.94954044 0.97052696
0.84577206 0.95042892 0.97508425
0.90418199 0.95 0.97738971
0.94650735 0.95032169 0.96557904
0.97248775 0.93915441 0.94270833
0.36323529 0.97990196 0.98088235
0.51078431 0.98866422 0.98088235
0.62990196 0.99068627 0.98345588
0.72971814 0.98823529 0.98480392
0.80906863 0.9879902 0.98259804
0.86930147 0.98823529 0.98480392
0.92598039 0.99129902 0.98823529
0.95735294 0.98033088 0.97996324
0.97598039 0.98382353 0.93235294
0.45490196 0.22745098 0.99607843
0.53235294 0.19705882 1
0.61666667 0.15980392 1
0.68823529 0.11666667 0.99607843
0.77058824 0.094117647 0.99803922
0.83039216 0.069117647 0.99754902
0.88823529 0.046078431 0.9872549
0.94215686 0.019117647 0.98039216
0.97647059 0.019607843 0.98823529
0.49215686 0.35539216 0.99607843
0.56887255 0.36488971 0.99522059
0.6377451 0.31409314 0.99607843
0.70490196 0.24969363 0.99822304
0.77254902 0.21691176 0.99607843
0.83431373 0.17696078 0.99607843
0.88823529 0.13823529 0.99215686
0.94215686 0.10784314 0.99166667
0.99558824 0.07745098 0.9995098
0.41666667 0.45882353 0.98431373
0.5622549 0.50526961 0.99558824
0.66666667 0.51151961 0.99583333
0.72316176 0.44534314 0.99068627
0.79019608 0.40098039 1
0.83823529 0.33345588 0.99607843
0.89215686 0.28333333 0.99215686
0.94215686 0.23590686 0.99215686
0.98529412 0.18529412 0.98137255
0.43284314 0.6122549 0.99068627
0.54920343 0.63988971 0.99558824
0.66090686 0.65012255 0.99607843
0.74368873 0.6466299 0.99460784
0.80122549 0.60539216 0.99607843
0.84607843 0.54509804 0.99607843
0.89607843 0.49546569 0.99791667
0.94558824 0.42401961 0.99215686
0.99068627 0.35980392 0.99460784
0.39607843 0.74901961 1
0.52916667 0.75465686 0.99607843
0.64607843 0.76323529 0.99460784
0.74411765 0.7752451 1
0.81176471 0.76666667 1
0.85441176 0.74215686 0.99509804
0.89607843 0.66862745 0.99607843
0.94607843 0.61887255 0.99607843
0.99215686 0.55686275 1
0.37352941 0.83578431 0.99607843
0.51372549 0.84705882 0.99607843
0.63026961 0.84754902 0.99215686
0.72745098 0.84460784 0.99699755
0.81029412 0.85392157 0.99607843
0.86084559 0.84362745 0.99607843
0.90833333 0.82058824 0.99607843
0.9495098 0.79577206 1
0.99215686 0.73284314 1
0.36078431 0.91176471 1
0.49473039 0.91164216 0.99607843
0.62720588 0.91568627 0.99607843
0.70686275 0.90784314 0.98823529
0.78529412 0.90931373 0.98872549
0.86176471 0.91862745 0.99607843
0.91078431 0.91715686 0.99607843
0.95343137 0.89264706 0.99607843
0.99215686 0.8745098 1
0.34460784 0.95392157 0.99607843
0.47990196 0.95735294 0.99607843
0.60441176 0.95870098 0.99607843
0.69754902 0.95343137 0.99215686
0.7745098 0.9497549 0.98823529
0.85147059 0.9591299 0.99577206
0.90784314 0.96127451 0.99607843
0.95343137 0.95692402 0.99209559
0.98431373 0.94607843 0.99215686
0.34117647 0.97647059 0.99607843
0.47205882 0.98431373 1
0.6 0.97647059 0.99607843
0.70539216 0.99215686 1
0.78235294 0.98823529 0.99607843
0.85637255 0.98823529 1
0.90686275 0.98529412 1
0.95343137 0.98823529 0.99607843
0.99607843 0.99607843 1
