site/assets/luts/natron-haldclut--kodak2393-constlclip--90604e797.cube
# LUTr-Project: LUTr — LUTrepository
# LUTr-Schema-Version: 1
# LUTr-ID: natron-haldclut--kodak2393-constlclip--90604e797
# LUTr-Title: kodak2393 constlclip
# LUTr-Collection: Natron HaldCLUT
# LUTr-Collection-ID: natron-haldclut-presets
# LUTr-Source: https://github.com/NatronGitHub/clut
# LUTr-Source-File: submissions/natron-haldclut-presets/print/kodak2393_constlclip.png
# LUTr-Source-Format: PNG
# LUTr-Source-SHA256: b39546b1c527754035450079293ce3433fbbfed70169f7bff06914b21b9aad8d
# LUTr-License: CC-BY-SA-4.0
# LUTr-License-URL: https://github.com/NatronGitHub/clut#license
# LUTr-Tags: creative, film, film-emulation, hald-clut, natron, png, cube
# LUTr-Transform-Class: film-emulation
# LUTr-Input-Color-Space: srgb
# LUTr-Output-Color-Space: srgb
# LUTr-Color-Space-Confidence: assumed-display-referred
# LUTr-Conversion-Method: PNG LUT image decoded at 16-bit and sampled to 25x25x25 3D CUBE
# LUTr-Conversion-Date: 2026-07-27
# LUTr-Conversion-Tool: LUTr scripts/convert-all-to-cube.mjs
# LUTr-Conversion-Grid: 25x25x25
# LUTr-Note: Preserve this metadata and the upstream license notices when redistributing.
TITLE "kodak2393 constlclip"
LUT_3D_SIZE 25
DOMAIN_MIN 0 0 0
DOMAIN_MAX 1 1 1
0.0078431373 0.015686275 0.019607843
0.010294118 0.015686275 0.019607843
0.020588235 0.020588235 0.020588235
0.030882353 0.02745098 0.023529412
0.041176471 0.031372549 0.021568627
0.051470588 0.031372549 0.015686275
0.061764706 0.031372549 0.011764706
0.077941176 0.032843137 0.0039215686
0.1254902 0.047058824 0.0039215686
0.17058824 0.06127451 0.0039215686
0.20784314 0.070588235 0.0039215686
0.24166667 0.074509804 0.0039215686
0.27647059 0.080392157 0.0039215686
0.32794118 0.090686275 0.0078431373
0.37941176 0.097058824 0.011764706
0.40686275 0.098039216 0.006372549
0.43137255 0.098039216 0
0.45441176 0.10196078 0.006372549
0.47254902 0.10588235 0.012745098
0.48970588 0.10931373 0.019607843
0.50392157 0.10980392 0.015686275
0.51372549 0.10980392 0.011764706
0.51764706 0.10980392 0.011764706
0.52156863 0.11372549 0.011764706
0.52156863 0.11372549 0.011764706
0.011764706 0.018137255 0.023529412
0.013296569 0.019056373 0.022610294
0.020588235 0.023529412 0.019607843
0.030882353 0.02745098 0.019607843
0.041176471 0.032598039 0.022303922
0.055392157 0.035294118 0.025490196
0.065686275 0.035294118 0.017279412
0.086764706 0.039215686 0.0072916667
0.1254902 0.050980392 0.0039215686
0.16966912 0.06127451 0.0039215686
0.21176471 0.071568627 0.0042892157
0.25177696 0.077941176 0.0076593137
0.29509804 0.086764706 0.0090686275
0.34215686 0.09442402 0.01439951
0.38676471 0.099877451 0.012745098
0.42107843 0.10441176 0.006372549
0.44803922 0.10833333 0.0039215686
0.46862745 0.11078431 0.0054534314
0.48676471 0.11323529 0.012745098
0.50373775 0.11403186 0.015686275
0.51666667 0.11617647 0.015686275
0.5245098 0.11666667 0.011764706
0.52977941 0.12009804 0.011764706
0.5348652 0.12156863 0.014767157
0.53823529 0.12401961 0.015686275
0.011764706 0.024509804 0.024509804
0.014583333 0.024509804 0.023529412
0.020588235 0.02745098 0.019607843
0.02745098 0.031004902 0.019607843
0.040686275 0.035294118 0.019607843
0.055514706 0.036642157 0.022181373
0.075 0.042401961 0.016421569
0.098529412 0.047426471 0.010784314
0.13333333 0.055882353 0.0068627451
0.16875 0.065196078 0.0039215686
0.21372549 0.074754902 0.0049019608
0.26605392 0.082843137 0.0078431373
0.31568627 0.093137255 0.011764706
0.36078431 0.10036765 0.016053922
0.39877451 0.10686275 0.012745098
0.43713235 0.1122549 0.0057598039
0.46470588 0.11470588 0
0.48529412 0.12107843 0.006372549
0.50490196 0.12352941 0.011029412
0.5189951 0.12389706 0.014338235
0.53235294 0.12647059 0.015686275
0.53958333 0.12696078 0.015686275
0.54607843 0.13039216 0.016421569
0.55208333 0.13431373 0.019607843
0.55490196 0.13529412 0.019607843
0.011764706 0.030882353 0.02745098
0.015686275 0.031188725 0.025
0.023529412 0.034803922 0.023406863
0.030882353 0.034803922 0.019607843
0.039215686 0.037009804 0.015931373
0.055882353 0.042708333 0.015257353
0.076102941 0.046936275 0.0093137255
0.098529412 0.052267157 0.0042279412
0.1372549 0.062254902 0.0039215686
0.17794118 0.07254902 0.0039215686
0.22843137 0.08627451 0.0049019608
0.28284314 0.096568627 0.0078431373
0.33259804 0.10343137 0.011764706
0.37745098 0.11366422 0.015686275
0.41862745 0.11973039 0.012745098
0.45459559 0.12469363 0.0060661765
0.48529412 0.12892157 0
0.50588235 0.13137255 0.0039215686
0.52254902 0.13639706 0.0078431373
0.53578431 0.13676471 0.011335784
0.54656863 0.13848039 0.015686275
0.55594363 0.1411152 0.019178922
0.56286765 0.14460784 0.023039216
0.56942402 0.14852941 0.023529412
0.57156863 0.14852941 0.023529412
0.011764706 0.035294118 0.029411765
0.018137255 0.037254902 0.02745098
0.023529412 0.041176471 0.025490196
0.02745098 0.044852941 0.02377451
0.03627451 0.049019608 0.019607843
0.053921569 0.052941176 0.015196078
0.075980392 0.056372549 0.0078431373
0.10196078 0.060294118 0
0.14509804 0.07254902 0.0019607843
0.18995098 0.086764706 0.0039215686
0.24460784 0.098039216 0.0078431373
0.2995098 0.11127451 0.01127451
0.34901961 0.11960784 0.011764706
0.39411765 0.12598039 0.015686275
0.43529412 0.13333333 0.012745098
0.47181373 0.13995098 0.0090686275
0.50196078 0.14313725 0.0039215686
0.5245098 0.14313725 0.0026960784
0.54215686 0.14705882 0.0024509804
0.55637255 0.15073529 0.0075980392
0.56470588 0.15490196 0.017647059
0.57107843 0.15906863 0.02745098
0.57941176 0.16078431 0.02745098
0.58823529 0.16470588 0.02745098
0.59215686 0.16862745 0.021568627
0.011764706 0.04754902 0.035294118
0.015502451 0.048039216 0.031862745
0.019607843 0.05245098 0.031862745
0.023529412 0.055821078 0.031433824
0.033333333 0.063235294 0.025490196
0.047610294 0.067218137 0.015686275
0.075857843 0.071446078 0.0091911765
0.1122549 0.079105392 0.0039215686
0.1495098 0.087254902 0.00049019608
0.1932598 0.097365196 0.0021446078
0.25747549 0.1127451 0.0049019608
0.31911765 0.12941176 0.01127451
0.36936275 0.14019608 0.011764706
0.41911765 0.15091912 0.011703431
0.45992647 0.15392157 0.01127451
0.49344363 0.15931373 0.0078431373
0.52303922 0.1622549 0.0083333333
0.54577206 0.1622549 0.0056985294
0.56409314 0.16580882 0.0039215686
0.58045343 0.17003676 0.0073529412
0.5875 0.17573529 0.017401961
0.59319853 0.17794118 0.026960784
0.6004902 0.1817402 0.024019608
0.61029412 0.18547794 0.019117647
0.6127451 0.18921569 0.01127451
0.011764706 0.061764706 0.042156863
0.012377451 0.064705882 0.042156863
0.016666667 0.065686275 0.038970588
0.020465686 0.069485294 0.038235294
0.023039216 0.075490196 0.025490196
0.037745098 0.081740196 0.015686275
0.078676471 0.088970588 0.012009804
0.11678922 0.09754902 0.006372549
0.15980392 0.10784314 0.0039215686
0.2127451 0.12438725 0.0024509804
0.28112745 0.1377451 0.0078431373
0.33247549 0.14742647 0.0078431373
0.38970588 0.16421569 0.0088235294
0.44313725 0.17708333 0.0074754902
0.48357843 0.17671569 0.0049019608
0.51727941 0.1817402 0.0093137255
0.55 0.18627451 0.018627451
0.57095588 0.18921569 0.012867647
0.58823529 0.19019608 0.0075980392
0.60404412 0.19669118 0.0078431373
0.61176471 0.1995098 0.012254902
0.61813725 0.20232843 0.019607843
0.6245098 0.20808824 0.015931373
0.63272059 0.2127451 0.010661765
0.6372549 0.21372549 0.00098039216
0.0078431373 0.075980392 0.048529412
0.011764706 0.078982843 0.047610294
0.014215686 0.081372549 0.046446078
0.014215686 0.084987745 0.041176471
0.0095588235 0.090441176 0.02745098
0.024203431 0.096078431 0.015686275
0.070220588 0.10784314 0.011764706
0.11917892 0.11954657 0.0039215686
0.17941176 0.14558824 0.0039215686
0.23633578 0.16219363 0.0039215686
0.29411765 0.16666667 0.006004902
0.346875 0.171875 0.0078431373
0.4127451 0.19264706 0.0051470588
0.46764706 0.20441176 0.0024509804
0.50637255 0.20306373 0
0.54215686 0.20882353 0.0093137255
0.57303922 0.21519608 0.019607843
0.5966299 0.21973039 0.019607843
0.61176471 0.22009804 0.015073529
0.62598039 0.22383578 0.013235294
0.63602941 0.23014706 0.015686275
0.64166667 0.23137255 0.015686275
0.65196078 0.24166667 0.011764706
0.66078431 0.25140931 0.0093137255
0.66715686 0.25833333 0.0093137255
0.0078431373 0.090196078 0.054901961
0.0078431373 0.098039216 0.054901961
0.0078431373 0.10294118 0.054901961
0.0078431373 0.10588235 0.051470588
0.0019607843 0.10980392 0.035294118
0.014215686 0.12254902 0.019117647
0.065686275 0.14313725 0.012745098
0.12009804 0.15980392 0.006372549
0.19215686 0.18039216 0.0039215686
0.25392157 0.19852941 0.0039215686
0.3127451 0.20882353 0.0078431373
0.38088235 0.22647059 0.0044117647
0.43921569 0.23333333 0.0019607843
0.49215686 0.24019608 0
0.5372549 0.25392157 0
0.57303922 0.26029412 0.0053921569
0.60392157 0.26666667 0.011764706
0.62843137 0.26666667 0.015686275
0.64019608 0.2627451 0.015686275
0.65441176 0.26617647 0.019117647
0.66862745 0.27647059 0.025490196
0.67892157 0.28676471 0.019117647
0.68921569 0.29411765 0.0088235294
0.69558824 0.30196078 0.011764706
0.69803922 0.30588235 0.015686275
0.0078431373 0.12107843 0.069117647
0.0053921569 0.12591912 0.069117647
0.0039215686 0.12892157 0.065196078
0 0.13106618 0.06372549
0.0071078431 0.14460784 0.053921569
0.014889706 0.16372549 0.03872549
0.043259804 0.1807598 0.01372549
0.11182598 0.20098039 0.0078431373
0.19362745 0.21519608 0.0039215686
0.26329657 0.23333333 0.0039215686
0.33786765 0.25551471 0.0039215686
0.41047794 0.27665441 0.0039215686
0.47401961 0.29117647 0.0039215686
0.52990196 0.30116422 0.006372549
0.57267157 0.30784314 0.006372549
0.60784314 0.3151348 0.0039215686
0.63480392 0.31421569 0.0039215686
0.66323529 0.31568627 0.0053921569
0.67843137 0.32156863 0.012745098
0.69295343 0.32843137 0.023039216
0.70465686 0.33235294 0.032107843
0.71372549 0.34068627 0.020098039
0.72401961 0.34852941 0.0049019608
0.73192402 0.35490196 0.0063112745
0.73529412 0.36372549 0.0093137255
0.0078431373 0.14803922 0.079411765
0.0078431373 0.1504902 0.079411765
0.0039215686 0.16323529 0.081862745
0.0047794118 0.16813725 0.076838235
0.0083333333 0.17745098 0.075980392
0.015686275 0.19803922 0.059191176
0.020833333 0.21862745 0.016911765
0.099509804 0.24031863 0.0098039216
0.18921569 0.25980392 0.0088235294
0.2810049 0.28382353 0.006004902
0.36593137 0.31053922 0.0039215686
0.44252451 0.33431373 0.0039215686
0.50686275 0.34901961 0.0058823529
0.56127451 0.35796569 0.0068627451
0.60612745 0.36470588 0.0046568627
0.64019608 0.37144608 0.0033088235
0.67352941 0.3754902 0.00098039216
0.69411765 0.37512255 0.0028186275
0.71470588 0.38333333 0.012990196
0.7314951 0.39019608 0.026593137
0.73823529 0.39607843 0.028921569
0.74460784 0.39791667 0.013848039
0.75098039 0.40073529 0.00073529412
0.76127451 0.4127451 0.0042892157
0.76764706 0.42156863 0.0078431373
0.0078431373 0.17156863 0.089705882
0.0078431373 0.17616422 0.089705882
0.0078431373 0.19166667 0.090563725
0.0078431373 0.20496324 0.093137255
0.0080882353 0.21568627 0.089705882
0.012254902 0.23780637 0.068627451
0.022058824 0.25539216 0.033455882
0.10686275 0.28480392 0.025490196
0.1995098 0.31519608 0.019117647
0.2995098 0.34215686 0.011458333
0.3872549 0.3689951 0.006495098
0.46617647 0.39215686 0.0039215686
0.53406863 0.40735294 0.0039215686
0.58572304 0.41666667 0.0034926471
0.63382353 0.41703431 0.00012254902
0.66979167 0.42990196 0.0036151961
0.70098039 0.44019608 0.0039215686
0.725 0.44393382 0.0076593137
0.74558824 0.45073529 0.020098039
0.75925245 0.44852941 0.030821078
0.77083333 0.45416667 0.029411765
0.77892157 0.45980392 0.014705882
0.78578431 0.46617647 0.0073529412
0.79540441 0.47628676 0.009129902
0.79852941 0.47941176 0.011764706
0.011764706 0.20588235 0.10588235
0.0093137255 0.20955882 0.10588235
0.0058823529 0.22647059 0.10588235
0.0058823529 0.24068627 0.10588235
0.0078431373 0.25784314 0.1
0.012254902 0.28137255 0.079411765
0.018627451 0.30490196 0.062254902
0.10416667 0.33504902 0.040931373
0.20784314 0.36666667 0.029411765
0.31470588 0.4 0.017156863
0.40588235 0.42352941 0.010784314
0.48455882 0.44607843 0.0044117647
0.55588235 0.46372549 0.0019607843
0.61446078 0.475 0.00024509804
0.66764706 0.4872549 0.0088235294
0.70563725 0.49754902 0.0098039216
0.73333333 0.50392157 0.011764706
0.75735294 0.50980392 0.014215686
0.77254902 0.50980392 0.024019608
0.78946078 0.50808824 0.032843137
0.80196078 0.51470588 0.032352941
0.81029412 0.52573529 0.025245098
0.82205882 0.5372549 0.018627451
0.82769608 0.54411765 0.016911765
0.83137255 0.54705882 0.0098039216
0.016176471 0.23676471 0.12205882
0.013235294 0.24344363 0.12205882
0.0068627451 0.26127451 0.12205882
0.0034926471 0.275 0.12205882
0.0039215686 0.29583333 0.11029412
0.0034313725 0.32058824 0.093688725
0.0051470588 0.34509804 0.076960784
0.098835784 0.37910539 0.052267157
0.2122549 0.41372549 0.035294118
0.3254902 0.44491422 0.021568627
0.42009804 0.47193627 0.014828431
0.49944853 0.49558824 0.0087622549
0.5754902 0.51593137 0.0039215686
0.63964461 0.53284314 0.0044117647
0.69840686 0.55343137 0.015073529
0.74295343 0.56501225 0.021752451
0.76617647 0.56715686 0.015196078
0.78921569 0.56979167 0.01127451
0.80772059 0.57156863 0.016053922
0.8245098 0.57506127 0.019117647
0.8370098 0.58186275 0.018627451
0.84460784 0.59117647 0.02310049
0.84852941 0.59509804 0.030392157
0.85735294 0.60392157 0.02432598
0.86421569 0.61078431 0.0039215686
0.02254902 0.26372549 0.13235294
0.016789216 0.27463235 0.13419118
0.0098039216 0.29215686 0.13627451
0.00036764706 0.30637255 0.13627451
0.0053921569 0.33039216 0.12254902
0.006004902 0.35625 0.10784314
0.0073529412 0.38333333 0.088235294
0.10245098 0.4182598 0.05625
0.21862745 0.45490196 0.035294118
0.33247549 0.48970588 0.026838235
0.43333333 0.51887255 0.018627451
0.51580882 0.5439951 0.012254902
0.59607843 0.56421569 0.0058823529
0.66629902 0.58394608 0.0040441176
0.71862745 0.60196078 0.0093137255
0.76531863 0.61617647 0.011642157
0.79411765 0.61862745 0.0049019608
0.82009804 0.62610294 0.0049019608
0.84215686 0.63112745 0.0058823529
0.85882353 0.64068627 0.0050245098
0.86960784 0.64705882 0.0049019608
0.87291667 0.64963235 0.016544118
0.8754902 0.64926471 0.031127451
0.88186275 0.65539216 0.026593137
0.88823529 0.66176471 0.017647059
0.025980392 0.28676471 0.14264706
0.021997549 0.30196078 0.14509804
0.016544118 0.31580882 0.14656863
0.018137255 0.33529412 0.14656863
0.021078431 0.35588235 0.1375
0.015686275 0.38627451 0.11960784
0.0094362745 0.41715686 0.099019608
0.10631127 0.4528799 0.059252451
0.225 0.49068627 0.020588235
0.34215686 0.52156863 0.018137255
0.45098039 0.5567402 0.01752451
0.53627451 0.58872549 0.012254902
0.61593137 0.61127451 0.0058823529
0.6877451 0.63008578 0.0039215686
0.73921569 0.64522059 0.0050245098
0.78284314 0.65980392 0.0035539216
0.82107843 0.67107843 0.0044117647
0.84705882 0.67800245 0.0068627451
0.86948529 0.68321078 0.0039215686
0.88088235 0.68823529 0.015686275
0.88970588 0.68946078 0.025245098
0.89362745 0.6908701 0.034620098
0.90098039 0.69963235 0.030392157
0.90490196 0.70392157 0.035784314
0.90490196 0.70392157 0.042156863
0.019607843 0.30980392 0.15294118
0.019607843 0.32009804 0.15294118
0.023529412 0.33823529 0.15686275
0.023529412 0.35588235 0.15294118
0.029411765 0.37843137 0.14705882
0.034803922 0.40931373 0.13578431
0.045098039 0.44313725 0.10588235
0.11911765 0.47892157 0.055392157
0.23529412 0.51372549 0.011764706
0.35245098 0.55098039 0.011764706
0.46078431 0.58823529 0.011764706
0.55294118 0.62205882 0.011764706
0.63137255 0.64901961 0.0058823529
0.70490196 0.67156863 0
0.75686275 0.68921569 0.0068627451
0.80196078 0.69558824 0.021078431
0.83921569 0.70588235 0.031372549
0.8622549 0.70980392 0.02745098
0.88333333 0.71764706 0.032352941
0.90098039 0.72892157 0.042647059
0.90588235 0.72941176 0.050980392
0.91029412 0.72598039 0.058823529
0.91764706 0.73333333 0.054901961
0.92156863 0.7372549 0.056372549
0.92156863 0.7372549 0.062745098
0.015686275 0.33039216 0.15686275
0.016605392 0.33584559 0.15839461
0.019607843 0.35306373 0.16262255
0.017156863 0.37009804 0.15949755
0.018627451 0.39901961 0.15098039
0.022365196 0.42775735 0.13970588
0.012132353 0.46372549 0.10588235
0.11960784 0.49797794 0.050367647
0.24558824 0.53823529 0.006372549
0.3627451 0.57794118 0.011213235
0.4689951 0.61458333 0.011764706
0.56292892 0.64901961 0.0080269608
0.64607843 0.67671569 0.0071078431
0.71911765 0.7 0.0039215686
0.77046569 0.71372549 0.016544118
0.8122549 0.72647059 0.036764706
0.85343137 0.73431373 0.049509804
0.87647059 0.73921569 0.051960784
0.8939951 0.74669118 0.05625
0.9091299 0.75128676 0.061090686
0.91568627 0.75147059 0.065931373
0.921875 0.75177696 0.069117647
0.92794118 0.75502451 0.069117647
0.93033088 0.75784314 0.066666667
0.93186275 0.75784314 0.066666667
0.015686275 0.35 0.16568627
0.015686275 0.35343137 0.16568627
0.015686275 0.36691176 0.16789216
0.015686275 0.38872549 0.16213235
0.006372549 0.41519608 0.15490196
0.0055147059 0.44313725 0.13578431
0.015686275 0.48039216 0.10098039
0.10796569 0.51151961 0.060171569
0.25098039 0.55392157 0.01372549
0.37843137 0.59901961 0.013602941
0.48039216 0.63553922 0.011519608
0.56960784 0.67009804 0.0078431373
0.65147059 0.69509804 0.0078431373
0.72463235 0.71666667 0.0091911765
0.77720588 0.73259804 0.02254902
0.82254902 0.74632353 0.043137255
0.85980392 0.75784314 0.059803922
0.88541667 0.7627451 0.067647059
0.89926471 0.76568627 0.067647059
0.91409314 0.76666667 0.067647059
0.92205882 0.76666667 0.071078431
0.93039216 0.76973039 0.074509804
0.93651961 0.77279412 0.072303922
0.93933824 0.7745098 0.071568627
0.94215686 0.7745098 0.071568627
0.012254902 0.36421569 0.17254902
0.01439951 0.36685049 0.17254902
0.015686275 0.3814951 0.17120098
0.015686275 0.40588235 0.1651348
0.018627451 0.43259804 0.15857843
0.022610294 0.46323529 0.13872549
0.025980392 0.49718137 0.09754902
0.12254902 0.53069853 0.062254902
0.24705882 0.56813725 0.030882353
0.37714461 0.60931373 0.014522059
0.4872549 0.64914216 0.0078431373
0.57947304 0.68039216 0.0078431373
0.66029412 0.70735294 0.0078431373
0.72800245 0.72990196 0.012193627
0.78296569 0.74656863 0.025490196
0.82677696 0.75784314 0.046078431
0.86666667 0.76813725 0.062745098
0.8908701 0.77598039 0.070588235
0.90637255 0.77990196 0.074019608
0.92015931 0.77990196 0.074509804
0.93088235 0.78161765 0.074509804
0.9372549 0.78425245 0.077941176
0.94362745 0.7877451 0.077941176
0.94852941 0.79166667 0.077941176
0.94852941 0.79166667 0.077941176
0.0078431373 0.37058824 0.17647059
0.011029412 0.38210784 0.1752451
0.015686275 0.39803922 0.17205882
0.019362745 0.42230392 0.16519608
0.02254902 0.45196078 0.15784314
0.029411765 0.47990196 0.12303922
0.029411765 0.50931373 0.076960784
0.13651961 0.54240196 0.043872549
0.26470588 0.57843137 0.019607843
0.38823529 0.62083333 0.0085784314
0.49705882 0.65980392 0.0078431373
0.58602941 0.69068627 0.0078431373
0.66862745 0.71666667 0.0078431373
0.73210784 0.73627451 0.018137255
0.7872549 0.75343137 0.029901961
0.83333333 0.76813725 0.049264706
0.87254902 0.77843137 0.064705882
0.89583333 0.78872549 0.071813725
0.91078431 0.79117647 0.075
0.9247549 0.79411765 0.078431373
0.9372549 0.79411765 0.080392157
0.94362745 0.79828431 0.082352941
0.95098039 0.80196078 0.082352941
0.95490196 0.80392157 0.080392157
0.95686275 0.80392157 0.082352941
0.0039215686 0.38872549 0.17647059
0.006372549 0.39540441 0.17647059
0.016666667 0.41384804 0.17291667
0.015257353 0.44221814 0.1651348
0.015441176 0.47377451 0.15073529
0.066237745 0.50042892 0.11084559
0.075367647 0.53125 0.064093137
0.16390931 0.55833333 0.025
0.29215686 0.58970588 0
0.40459559 0.63382353 0.006372549
0.50686275 0.66960784 0.0088235294
0.59301471 0.69705882 0.0087622549
0.66642157 0.72156863 0.014215686
0.73192402 0.74215686 0.024509804
0.7877451 0.76017157 0.034803922
0.83903186 0.77579657 0.052634804
0.875 0.78872549 0.066666667
0.90294118 0.79901961 0.074509804
0.91519608 0.80134804 0.078431373
0.92935049 0.80441176 0.08192402
0.94362745 0.80833333 0.08627451
0.94993873 0.80833333 0.08627451
0.9560049 0.80833333 0.08627451
0.95863971 0.80833333 0.08627451
0.96078431 0.80833333 0.08627451
0.0029411765 0.40882353 0.18235294
0.0053921569 0.41727941 0.18051471
0.016666667 0.44313725 0.17254902
0.015196078 0.47132353 0.15490196
0.020588235 0.49901961 0.13872549
0.096446078 0.52132353 0.10196078
0.12132353 0.55343137 0.053186275
0.22512255 0.58394608 0.019730392
0.34019608 0.61764706 0
0.43835784 0.65306373 0.0039215686
0.52254902 0.68014706 0.0078431373
0.60196078 0.70392157 0.011764706
0.66960784 0.72843137 0.018137255
0.73529412 0.74901961 0.030882353
0.79411765 0.76666667 0.041911765
0.84509804 0.78296569 0.055759804
0.87843137 0.79509804 0.066666667
0.9064951 0.80539216 0.076960784
0.9254902 0.81078431 0.081617647
0.93958333 0.81433824 0.086151961
0.95098039 0.81519608 0.089215686
0.95637255 0.81556373 0.090196078
0.95980392 0.81470588 0.090196078
0.96409314 0.81470588 0.090196078
0.96470588 0.81470588 0.090196078
0.0039215686 0.43039216 0.19362745
0.014215686 0.45189951 0.19509804
0.021078431 0.47696078 0.18186275
0.027144608 0.50490196 0.13400735
0.040441176 0.53063725 0.092892157
0.070955882 0.55833333 0.080085784
0.16666667 0.57990196 0.033946078
0.26893382 0.60735294 0.015747549
0.38235294 0.64068627 0.0053921569
0.46715686 0.66911765 0.0053921569
0.54375 0.69571078 0.0078431373
0.61764706 0.71813725 0.006372549
0.68651961 0.73872549 0.012254902
0.746875 0.75882353 0.026654412
0.8004902 0.77303922 0.045098039
0.84993873 0.78817402 0.060294118
0.88382353 0.8 0.070588235
0.91470588 0.81176471 0.080882353
0.93578431 0.81715686 0.087745098
0.95 0.82107843 0.090196078
0.96029412 0.82230392 0.090196078
0.96617647 0.82481618 0.091666667
0.96617647 0.82107843 0.091666667
0.96709559 0.81960784 0.094117647
0.96862745 0.81960784 0.095588235
0 0.44313725 0.2
0.014215686 0.46372549 0.2
0.023529412 0.49117647 0.19019608
0.030882353 0.53529412 0.1622549
0.049019608 0.55294118 0.082352941
0.096568627 0.58039216 0.021568627
0.22352941 0.60098039 0.0049019608
0.30735294 0.62647059 0.0078431373
0.41568627 0.65490196 0.011764706
0.48382353 0.68186275 0.0078431373
0.55196078 0.70784314 0.0039215686
0.62794118 0.7245098 0.0039215686
0.69803922 0.74509804 0.0039215686
0.75539216 0.76519608 0.024019608
0.80686275 0.77941176 0.041176471
0.85294118 0.79117647 0.060294118
0.89019608 0.80392157 0.074509804
0.92254902 0.81813725 0.084803922
0.94607843 0.82352941 0.093137255
0.95637255 0.82745098 0.094117647
0.96666667 0.82745098 0.092156863
0.97254902 0.83088235 0.094117647
0.97254902 0.8245098 0.094117647
0.96862745 0.82205882 0.095588235
0.96862745 0.81960784 0.098039216
0.0078431373 0.013235294 0.019607843
0.010294118 0.014767157 0.019607843
0.020588235 0.020588235 0.020588235
0.030882353 0.027144608 0.023529412
0.041176471 0.031372549 0.023529412
0.051776961 0.031372549 0.01942402
0.067156863 0.033210784 0.014583333
0.088296569 0.035294118 0.006372549
0.1254902 0.044607843 0.0039215686
0.17058824 0.057352941 0.0039215686
0.20968137 0.067034314 0.006372549
0.2403799 0.074019608 0.006372549
0.27818627 0.079166667 0.0071078431
0.3346201 0.090686275 0.012071078
0.38284314 0.098039216 0.014215686
0.41170343 0.098039216 0.009375
0.43921569 0.098039216 0.006372549
0.45980392 0.1028799 0.010294118
0.4754902 0.10588235 0.015686275
0.48939951 0.10588235 0.019607843
0.50318627 0.10735294 0.014460784
0.51813725 0.10588235 0.0093137255
0.53272059 0.10919118 0.011151961
0.53731618 0.10980392 0.012683824
0.53578431 0.11372549 0.015686275
0.010294118 0.018137255 0.023529412
0.011764706 0.019056373 0.020526961
0.020588235 0.022426471 0.019607843
0.030882353 0.02745098 0.02254136
0.041176471 0.032598039 0.023529412
0.055392157 0.035294118 0.025605086
0.068596814 0.035294118 0.018428309
0.091873468 0.040134804 0.0099494485
0.12794118 0.049509804 0.0039215686
0.17058824 0.060355392 0.0039215686
0.21191789 0.06875 0.0067401961
0.25098805 0.076654412 0.0078431373
0.29632353 0.085232843 0.010294118
0.34178156 0.093137255 0.015203738
0.38344056 0.099877451 0.014583333
0.42312347 0.10345435 0.0074984681
0.45104167 0.10588235 0.006372549
0.4716299 0.10925245 0.010294118
