site/assets/luts/natron-haldclut--bleach-bypass--8b573b96c.cube
# LUTr-Project: LUTr — LUTrepository
# LUTr-Schema-Version: 1
# LUTr-ID: natron-haldclut--bleach-bypass--8b573b96c
# LUTr-Title: bleach bypass
# LUTr-Collection: Natron HaldCLUT
# LUTr-Collection-ID: natron-haldclut-presets
# LUTr-Source: https://github.com/NatronGitHub/clut
# LUTr-Source-File: submissions/natron-haldclut-presets/various/bleach_bypass.png
# LUTr-Source-Format: PNG
# LUTr-Source-SHA256: 21cdfec3bc004259ac915a1909e2b7878531d1650337a2e243afe873e50007bf
# LUTr-License: CC-BY-SA-4.0
# LUTr-License-URL: https://github.com/NatronGitHub/clut#license
# LUTr-Tags: creative, film, film-emulation, hald-clut, natron, png, cube
# LUTr-Transform-Class: film-emulation
# LUTr-Input-Color-Space: srgb
# LUTr-Output-Color-Space: srgb
# LUTr-Color-Space-Confidence: assumed-display-referred
# LUTr-Conversion-Method: PNG LUT image decoded at 16-bit and sampled to 25x25x25 3D CUBE
# LUTr-Conversion-Date: 2026-07-27
# LUTr-Conversion-Tool: LUTr scripts/convert-all-to-cube.mjs
# LUTr-Conversion-Grid: 25x25x25
# LUTr-Note: Preserve this metadata and the upstream license notices when redistributing.
TITLE "bleach bypass"
LUT_3D_SIZE 25
DOMAIN_MIN 0 0 0
DOMAIN_MAX 1 1 1
0.0078431373 0.0078431373 0.0078431373
0.0078431373 0.0078431373 0.0078431373
0.0078431373 0.0039215686 0.0078431373
0.0078431373 0.0039215686 0.0078431373
0.0039215686 0.0039215686 0.0078431373
0.0039215686 0.0039215686 0.0039215686
0.0039215686 0.0039215686 0.0039215686
0.0093137255 0.0039215686 0.0039215686
0.019607843 0.0039215686 0.0039215686
0.025980392 0.0078431373 0.0039215686
0.032352941 0.0078431373 0.0078431373
0.035294118 0.011764706 0.0078431373
0.037254902 0.011764706 0.0078431373
0.030882353 0.0078431373 0.0039215686
0.024509804 0.0078431373 0.0039215686
0.015686275 0.0039215686 0.0039215686
0.0078431373 0.0039215686 0
0.0078431373 0.0024509804 0
0.0078431373 0.0039215686 0.0039215686
0.0078431373 0.0039215686 0.0039215686
0.0078431373 0.0039215686 0.0039215686
0.011764706 0.0039215686 0.0039215686
0.011764706 0.0039215686 0.0039215686
0.011764706 0.0039215686 0.0039215686
0.011764706 0.0039215686 0.0039215686
0.0078431373 0.0078431373 0.0078431373
0.0078431373 0.0078431373 0.0078431373
0.0078431373 0.0068627451 0.0078431373
0.0056985294 0.0039215686 0.0078431373
0.0039215686 0.0039215686 0.0066176471
0.0039215686 0.0039215686 0.0039215686
0.0039215686 0.0039215686 0.0039215686
0.0093137255 0.0039215686 0.0039215686
0.015686275 0.0039215686 0.0039215686
0.025980392 0.0078431373 0.0039215686
0.031740196 0.0078431373 0.0078431373
0.035294118 0.011764706 0.0078431373
0.037254902 0.011764706 0.0078431373
0.030882353 0.0078431373 0.0039215686
0.024509804 0.0078431373 0.0039215686
0.014767157 0.0039215686 0.0039215686
0.0078431373 0.0039215686 0
0.0078431373 0 0
0.0078431373 0.0039215686 0.00098039216
0.0078431373 0.0039215686 0.0039215686
0.0078431373 0.0039215686 0.0039215686
0.009620098 0.0039215686 0.0039215686
0.0099264706 0.0039215686 0.0039215686
0.0078431373 0.0039215686 0.0039215686
0.0078431373 0.0039215686 0.0039215686
0.0078431373 0.0078431373 0.0078431373
0.0078431373 0.0078431373 0.0078431373
0.0078431373 0.0078431373 0.0078431373
0.0039215686 0.0040441176 0.0078431373
0.0039215686 0.0039215686 0.0039215686
0.0039215686 0.0039215686 0.0039215686
0.0039215686 0.00098039216 0.0039215686
0.0078431373 0.0014705882 0.0039215686
0.015686275 0.0039215686 0.0039215686
0.025367647 0.0078431373 0.0039215686
0.031372549 0.0078431373 0.0039215686
0.035294118 0.010416667 0.0078431373
0.036764706 0.01127451 0.0078431373
0.030882353 0.0078431373 0.0039215686
0.024509804 0.0078431373 0.0039215686
0.014215686 0.0039215686 0.0039215686
0.0078431373 0 0
0.0039215686 0 0
0.0071078431 0.0039215686 0.00073529412
0.0078431373 0.0039215686 0.0039215686
0.0078431373 0.0039215686 0.0039215686
0.0091911765 0.0039215686 0.0039215686
0.011764706 0.0046568627 0.0039215686
0.012132353 0.006004902 0.0039215686
0.012745098 0.0078431373 0.0039215686
0.0078431373 0.01127451 0.0078431373
0.0078431373 0.0078431373 0.0078431373
0.0078431373 0.0078431373 0.0078431373
0.0039215686 0.0078431373 0.0048406863
0.0039215686 0.0039215686 0.0039215686
0.0039215686 0.0039215686 0.0039215686
0.0039215686 0.00098039216 0.0039215686
0.0053921569 0.0014705882 0.0039215686
0.015686275 0.0039215686 0.0039215686
0.022242647 0.0065563725 0.0039215686
0.02879902 0.0078431373 0.0039215686
0.035294118 0.0078431373 0.0043504902
0.035294118 0.0078431373 0.006127451
0.030882353 0.0078431373 0.0039215686
0.023529412 0.0078431373 0.0039215686
0.014215686 0.0039215686 0.0039215686
0.0078431373 0 0
0.0039215686 0 0
0.0039215686 0.0013480392 0
0.0078431373 0.0039215686 0.0039215686
0.0095588235 0.0039215686 0.0039215686
0.011764706 0.0073529412 0.0039215686
0.015196078 0.0078431373 0.0039215686
0.016973039 0.0078431373 0.0039215686
0.019117647 0.0078431373 0.0039215686
0.0078431373 0.011764706 0.0078431373
0.0078431373 0.0093137255 0.0078431373
0.0053921569 0.0078431373 0.0073529412
0.0039215686 0.0078431373 0.0039215686
0.0039215686 0.0078431373 0.0039215686
0.0039215686 0.0039215686 0.0039215686
0.00049019608 0.00098039216 0.0024509804
0.0046568627 0 0
0.011764706 0.0039215686 0.0039215686
0.022058824 0.0039215686 0.0039215686
0.028431373 0.0078431373 0.0039215686
0.03504902 0.0078431373 0.0039215686
0.035294118 0.0078431373 0.0039215686
0.030882353 0.0078431373 0.0039215686
0.022058824 0.0049019608 0.0039215686
0.014215686 0.0039215686 0.0039215686
0.0039215686 0 0
0.0039215686 0 0
0.0044117647 0.0024509804 0
0.0078431373 0.0039215686 0.0039215686
0.012745098 0.0068627451 0.0039215686
0.017892157 0.0078431373 0.0039215686
0.021078431 0.01127451 0.0053921569
0.021568627 0.011764706 0.0066176471
0.021568627 0.011764706 0.0078431373
0.0073529412 0.011764706 0.0073529412
0.0052083333 0.011764706 0.0052083333
0.0039215686 0.0078431373 0.0039215686
0.0039215686 0.0078431373 0.0039215686
0.0039215686 0.0078431373 0.0039215686
0.0039215686 0.0074142157 0.0038602941
0 0.0039215686 0
0.0014705882 0.00018382353 0
0.011764706 0.0039215686 0
0.022058824 0.006372549 0.0039215686
0.032352941 0.0078431373 0.0039215686
0.035723039 0.0078431373 0.0039215686
0.0375 0.0078431373 0.0039215686
0.031801471 0.0078431373 0.0039215686
0.024509804 0.0052696078 0.0039215686
0.014215686 0.0039215686 0.0024509804
0.0039215686 0 0
0.0024509804 0 0
0.0079656863 0.0039215686 0.00098039216
0.012193627 0.0073529412 0.0039215686
0.017892157 0.0078431373 0.0039215686
0.023590686 0.011764706 0.0039828431
0.024019608 0.011764706 0.0078431373
0.023529412 0.011764706 0.0078431373
0.023529412 0.011764706 0.0078431373
0.0039215686 0.011764706 0.0039215686
0.0039215686 0.0093137255 0.0039215686
0.0039215686 0.0078431373 0.0039215686
0.0039215686 0.0078431373 0.0039215686
0.0039215686 0.0078431373 0.0039215686
0.0034313725 0.0078431373 0.00085784314
0 0.0046568627 0
0.0014705882 0.0039215686 0
0.011764706 0.0039215686 0
0.022058824 0.0078431373 0.0039215686
0.031617647 0.0078431373 0.0039215686
0.036151961 0.0078431373 0.0039215686
0.040686275 0.0078431373 0.0039215686
0.035171569 0.0078431373 0.0039215686
0.028431373 0.0078431373 0.0039215686
0.018137255 0.0039215686 0.0039215686
0.010784314 0.0039215686 0
0.0068627451 0.0035539216 0
0.011029412 0.0039215686 0.0039215686
0.015563725 0.0077205882 0.0039215686
0.019607843 0.0078431373 0.0039215686
0.024019608 0.0083333333 0.0044117647
0.02745098 0.011764706 0.0078431373
0.025367647 0.011764706 0.0078431373
0.020588235 0.011764706 0.0078431373
0.0039215686 0.0078431373 0.0039215686
0.0039215686 0.0078431373 0.0039215686
0.0039215686 0.0078431373 0.0039215686
0.0039215686 0.0078431373 0.0039215686
0.0039215686 0.0078431373 0.0024509804
0.0021446078 0.0078431373 0
0 0.0049019608 0
0.0014705882 0.0039215686 0
0.011764706 0.0078431373 0
0.021139706 0.0078431373 0.0039215686
0.026960784 0.0078431373 0.0039215686
0.033517157 0.0078431373 0.0039215686
0.041911765 0.0098039216 0.0039215686
0.036090686 0.0078431373 0.0039215686
0.026960784 0.0078431373 0.0039215686
0.019607843 0.0078431373 0.0039215686
0.019607843 0.0078431373 0.0039215686
0.013235294 0.0063112745 0.00055147059
0.011764706 0.0039215686 0.0028186275
0.013909314 0.006372549 0.0039215686
0.017647059 0.0078431373 0.0039215686
0.024509804 0.0083333333 0.0044117647
0.031372549 0.011764706 0.0078431373
0.024509804 0.011764706 0.0072916667
0.018137255 0.0078431373 0.0039215686
0.0039215686 0.0039215686 0.0039215686
0.0039215686 0.0039215686 0.0039215686
0 0.0039215686 0
0 0.0073529412 0
0.0019607843 0.011764706 0
0 0.01127451 0
0 0.0039215686 0
0.0014705882 0.0039215686 0
0.011764706 0.0078431373 0
0.019607843 0.011764706 0
0.020588235 0.0078431373 0.0039215686
0.030392157 0.0039215686 0.0039215686
0.052941176 0.0098039216 0.0039215686
0.038235294 0.0078431373 0.0039215686
0.020588235 0.0039215686 0.0039215686
0.017156863 0.0053921569 0.0039215686
0.023529412 0.011764706 0.0039215686
0.017156863 0.0078431373 0.0014705882
0.0078431373 0.0039215686 0
0.01127451 0.0039215686 0
0.019607843 0.0058823529 0.0039215686
0.027941176 0.0083333333 0.0039215686
0.031372549 0.011764706 0.0078431373
0.018137255 0.0078431373 0.0039215686
0.011764706 0.0039215686 0.0039215686
0 0.006372549 0
0 0.0024509804 0
0 0.0012254902 0
0.0021446078 0.018321078 0
0.0039215686 0.028186275 0
0.0037377451 0.026470588 0
0.0006127451 0.014338235 0
0.0023897059 0.0048406863 0
0.023039216 0.025490196 0
0.036703431 0.036703431 0
0.029289216 0.021446078 0
0.041176471 0.0081495098 0.0039215686
0.073529412 0.010539216 0.0071078431
0.056556373 0.01372549 0.0039215686
0.021691176 0.0034313725 0.0039215686
0.01807598 0.0053921569 0.0039215686
0.032352941 0.014215686 0.0039215686
0.021078431 0.0093137255 0.0039215686
0.0012254902 0.0006127451 0
0.018321078 0.006372549 0.0021446078
0.036029412 0.011519608 0.0039215686
0.036764706 0.010784314 0.0042279412
0.037622549 0.015196078 0.0078431373
0.016727941 0.0079044118 0.0039215686
0.0014705882 0 0
0 0.080392157 0
0 0.080392157 0
0.00098039216 0.088235294 0
0.0039215686 0.091666667 0
0.0078431373 0.10392157 0
0.011887255 0.10943627 0
0.014215686 0.09754902 0
0.046936275 0.092156863 0
0.085294118 0.10686275 0
0.097181373 0.10686275 0
0.094852941 0.076470588 0.0031862745
0.089338235 0.031372549 0.0039215686
0.095588235 0.0098039216 0.0078431373
0.098529412 0.038848039 0.0078431373
0.093137255 0.049019608 0.0049019608
0.085906863 0.039215686 0.0053921569
0.098039216 0.043137255 0.0078431373
0.1 0.045220588 0.0088235294
0.095343137 0.043382353 0.012990196
0.083455882 0.035416667 0.012745098
0.082843137 0.028431373 0.0034313725
0.083946078 0.026470588 0.0045343137
0.096813725 0.044362745 0.020343137
0.092156863 0.044117647 0.02254902
0.092156863 0.043137255 0.02254902
0 0.18333333 0
0 0.18578431 0
0.00098039216 0.19117647 0
0.0073529412 0.19460784 0
0.011519608 0.19166667 0
0.012254902 0.19215686 0
0.027941176 0.18909314 0
0.089705882 0.19166667 0
0.15392157 0.19215686 0
0.16605392 0.17205882 0
0.17745098 0.14215686 0.00012254902
0.17604167 0.11035539 0.0039215686
0.18112745 0.10196078 0.0080882353
0.19607843 0.11470588 0.0074142157
0.19056373 0.10147059 0.0039215686
0.17077206 0.075183824 0.00049019608
0.17696078 0.080392157 0.0078431373
0.19301471 0.090379902 0.017647059
0.19656863 0.095588235 0.03002451
0.184375 0.084803922 0.026960784
0.16078431 0.068627451 0.018872549
0.15692402 0.068198529 0.026041667
0.17193627 0.079779412 0.040196078
0.18560049 0.088235294 0.049509804
0.19117647 0.088235294 0.046078431
0 0.29215686 0.0039215686
0 0.29607843 0.0039215686
0.00098039216 0.3 0.0039215686
0.0095588235 0.3002451 0.0022058824
0.016666667 0.29705882 0
0.021568627 0.2879902 0
0.046568627 0.28676471 0
0.11936275 0.29754902 0
0.19019608 0.3 0
0.24313725 0.28529412 0
0.25882353 0.24803922 0.00049019608
0.27794118 0.22818627 0.0039215686
0.28627451 0.21372549 0.0078431373
0.29632353 0.18480392 0.006372549
0.28823529 0.1622549 0.015196078
0.26838235 0.14411765 0.018382353
0.2627451 0.1372549 0.031372549
0.26470588 0.14191176 0.043627451
0.26617647 0.14411765 0.05245098
0.27794118 0.15269608 0.068137255
0.27254902 0.14705882 0.068627451
0.26078431 0.14730392 0.076960784
0.26911765 0.15196078 0.08872549
0.29240196 0.16838235 0.1122549
0.30784314 0.18431373 0.12941176
0 0.40637255 0.0039215686
0 0.41011029 0.0039215686
0.0049019608 0.41323529 0.0039215686
0.019117647 0.41023284 0.0039215686
0.030147059 0.41323529 0.0019607843
0.044178922 0.40980392 0
0.078308824 0.40980392 0
0.14920343 0.41323529 0
0.23333333 0.40980392 0
0.32205882 0.40588235 0
0.36580882 0.38970588 0.0013480392
0.38878676 0.35698529 0.0034926471
0.38946078 0.32303922 0.01004902
0.38137255 0.28578431 0.029411765
0.38823529 0.25784314 0.046568627
0.38431373 0.24215686 0.058026961
0.3745098 0.23186275 0.073039216
0.3745098 0.22665441 0.090992647
0.38480392 0.23823529 0.10772059
0.40753676 0.25796569 0.14129902
0.39828431 0.25196078 0.13823529
0.38339461 0.24460784 0.14460784
0.39595588 0.25281863 0.15710784
0.41372549 0.26109069 0.17990196
0.425 0.2745098 0.20294118
0 0.53921569 0.0039215686
0 0.54264706 0.0039215686
0.0041666667 0.53627451 0.0039215686
0.01875 0.52941176 0.0039215686
0.038235294 0.52941176 0.0019607843
0.054901961 0.53039216 0
0.10490196 0.53039216 0
0.18639706 0.53333333 0
0.2745098 0.53333333 0
0.36188725 0.52757353 0
0.45637255 0.53014706 0.0039215686
0.51139706 0.50919118 0.006495098
0.50343137 0.45392157 0.020098039
0.50183824 0.41875 0.046078431
0.50416667 0.38431373 0.070588235
0.51139706 0.35416667 0.1
0.50686275 0.34019608 0.12058824
0.5057598 0.33051471 0.14117647
0.51862745 0.34436275 0.16495098
0.52843137 0.35477941 0.18627451
0.53039216 0.35637255 0.20196078
0.53480392 0.36090686 0.21715686
0.53382353 0.35563725 0.2252451
0.51801471 0.34791667 0.2372549
0.51372549 0.34705882 0.25392157
0 0.67941176 0.0039215686
0 0.67941176 0.0039215686
0.0039215686 0.66911765 0.0039215686
0.006372549 0.65882353 0.0039215686
0.021078431 0.65514706 0
0.053002451 0.65471814 0
0.14068627 0.65833333 0
0.23382353 0.65925245 0
0.33039216 0.65833333 0
0.41911765 0.65533088 0
0.51311275 0.65502451 0.00098039216
0.60790441 0.65435049 0.009497549
0.62132353 0.61421569 0.033333333
0.63529412 0.57843137 0.063235294
0.64607843 0.54301471 0.10073529
0.66568627 0.50784314 0.15790441
0.6627451 0.47941176 0.17745098
0.66482843 0.46525735 0.19264706
0.66029412 0.4627451 0.21715686
0.66372549 0.46470588 0.23903186
0.65539216 0.45637255 0.26372549
0.67696078 0.471875 0.28560049
0.64828431 0.44865196 0.28541667
0.62463235 0.43045343 0.28872549
0.61176471 0.42794118 0.30196078
0 0.82352941 0.0039215686
0 0.82107843 0
0.0039215686 0.80980392 0
0.0039215686 0.79656863 0
0 0.79215686 0
0.057843137 0.79166667 0
0.18823529 0.79607843 0
0.28088235 0.78921569 0
0.38431373 0.78823529 0
0.48088235 0.79215686 0.0024509804
0.5872549 0.79215686 0.0029411765
0.70392157 0.7995098 0
0.74509804 0.77647059 0.043137255
0.78137255 0.75539216 0.083823529
0.79803922 0.71372549 0.12843137
0.81029412 0.66568627 0.18382353
0.8 0.61568627 0.21568627
0.79509804 0.59264706 0.24264706
0.77254902 0.55980392 0.26862745
0.77990196 0.56029412 0.29264706
0.76666667 0.54705882 0.31764706
0.76911765 0.5495098 0.33823529
0.76176471 0.54215686 0.34509804
0.76764706 0.54656863 0.36127451
0.78431373 0.55686275 0.38823529
0 0.96519608 0
0 0.9591299 0
0.0039215686 0.92647059 0
0.0039215686 0.90116422 0
0.0046568627 0.88676471 0
0.084191176 0.88792892 0
0.21176471 0.89313725 0
0.34068627 0.90245098 0
0.43823529 0.93039216 0.0039215686
0.53633578 0.95220588 0.0054534314
0.64901961 0.91372549 0.016176471
0.76011029 0.88707108 0.029901961
0.85686275 0.91789216 0.066911765
0.94938725 0.95006127 0.10520833
0.94987745 0.89031863 0.15294118
0.9495098 0.81862745 0.19901961
0.94411765 0.76470588 0.24264706
0.94270833 0.74503676 0.29356618
0.91360294 0.7057598 0.32132353
0.89528186 0.68382353 0.34724265
0.9627451 0.71102941 0.39607843
0.92469363 0.68449755 0.41783088
0.90980392 0.66519608 0.42107843
0.90447304 0.66985294 0.43645833
0.9122549 0.68676471 0.45931373
0 0.98823529 0.00098039216
0.0006127451 0.98823529 0.00098039216
0.0039215686 0.98039216 0.00024509804
0.00049019608 0.97634804 0
0.0014705882 0.9745098 0
0.097058824 0.97009804 0
0.21691176 0.95882353 0
0.3689951 0.96813725 0
0.51764706 0.98529412 0
0.60539216 0.98811275 0.014828431
0.70784314 0.98088235 0.033578431
0.82144608 0.96568627 0.054901961
0.92352941 0.98186275 0.084313725
0.97794118 0.98823529 0.12071078
0.98504902 0.97573529 0.16887255
0.98958333 0.96678922 0.21617647
0.99019608 0.94019608 0.26372549
0.98419118 0.90637255 0.30882353
0.96519608 0.86960784 0.34338235
0.97181373 0.83713235 0.39313725
0.99705882 0.82303922 0.43627451
0.98590686 0.8182598 0.45882353
0.96740196 0.80343137 0.47965686
0.97659314 0.81188725 0.51556373
0.99705882 0.8127451 0.52352941
0.0039215686 0.98823529 0.0039215686
0.0039215686 0.9903799 0.0039215686
0.0039215686 0.99166667 0.0039215686
0.0034926471 0.99601716 0.00049019608
0.011029412 1 0
0.11813725 0.99993873 0
0.23480392 0.99987745 0
0.37714461 0.99969363 0.0034313725
0.52647059 1 0.0034313725
0.65067402 0.9973652 0.0058823529
0.76789216 0.99558824 0.030882353
0.90692402 0.99515931 0.057843137
0.98602941 0.99534314 0.089705882
0.9877451 0.99215686 0.13523284
0.98811275 0.99215686 0.18284314
0.99754902 1 0.23020833
0.99607843 0.99607843 0.28872549
0.99607843 0.99803922 0.32745098
0.99473039 0.98602941 0.3754902
0.98872549 0.93241422 0.43045343
0.99019608 0.91029412 0.47058824
0.99957108 0.91384804 0.49791667
0.9995098 0.93308824 0.55796569
0.99607843 0.95128676 0.60686275
1 0.94656863 0.61911765
0.0039215686 0.99215686 0.0039215686
0.0039215686 0.99215686 0.0039215686
0.0039215686 0.99460784 0.0039215686
0.0058823529 0.99607843 0.0039215686
0.02745098 1 0
0.14411765 1 0.0039215686
0.27794118 1 0.0039215686
0.40465686 1 0.0039215686
0.53921569 1 0.0058823529
0.68137255 1 0.014705882
0.8245098 1 0.039705882
0.96421569 1 0.067401961
0.99901961 1 0.1127451
0.99583333 0.9997549 0.15269608
0.99264706 0.99803922 0.19068627
0.99607843 0.99926471 0.24362745
0.99607843 0.99607843 0.31764706
0.99607843 0.99411765 0.37745098
0.99215686 0.98823529 0.43088235
0.99215686 0.99019608 0.46666667
0.99215686 0.97941176 0.51470588
0.99607843 0.95980392 0.56911765
1 0.97058824 0.63039216
1 0.99240196 0.67107843
1 1 0.69215686
0.0034313725 0.99607843 0.0078431373
0.0012867647 0.99607843 0.0056985294
0.0034313725 0.99607843 0.0039215686
0.0069240196 0.9995098 0.0039215686
0.045098039 1 0.00049019608
0.17487745 1 0.0039215686
0.32928922 1 0.0039215686
0.45373775 1 0.0056985294
0.57892157 1 0.011764706
0.73498775 1 0.028921569
0.89865196 1 0.049142157
0.98743873 1 0.088664216
0.99215686 1 0.14411765
0.99607843 1 0.19025735
0.99607843 1 0.21544118
0.99607843 1 0.26648284
0.99607843 0.99656863 0.34607843
0.99607843 0.99607843 0.428125
0.99607843 0.99607843 0.47965686
0.99307598 1 0.50539216
0.99607843 1 0.56960784
0.99607843 0.99522059 0.63284314
0.99901961 0.98921569 0.69595588
1 0.99785539 0.73137255
1 1 0.74411765
0 0.99901961 0.0078431373
0 0.99901961 0.0078431373
0 0.99901961 0.006127451
0.0034313725 1 0.0039215686
0.089215686 1 0.0039215686
0.2254902 1 0.00012254902
0.36813725 1 0.0039215686
0.50171569 1 0.0078431373
0.6372549 1 0.015686275
0.79117647 1 0.030882353
0.95514706 1 0.055147059
0.99656863 1 0.10882353
0.99362745 1 0.16470588
0.99607843 1 0.20870098
0.99607843 1 0.2502451
0.99607843 1 0.29963235
0.99607843 1 0.36568627
0.99607843 1 0.42683824
0.99607843 0.99901961 0.47916667
0.99607843 1 0.5379902
0.99607843 1 0.62990196
0.99607843 0.99607843 0.66727941
0.9997549 1 0.73627451
1 1 0.78982843
1 1 0.80490196
0.0039215686 1 0.0078431373
0.0039215686 1 0.0078431373
0.0011029412 1 0.0068627451
0.0034313725 1 0.0039215686
0.11838235 1 0.0039215686
0.26599265 1 0
0.40367647 1 0.0018382353
0.53872549 1 0.0048406863
0.68676471 1 0.015686275
0.85606618 1 0.029289216
0.94546569 1 0.074509804
0.99497549 1 0.12598039
0.99607843 1 0.17990196
0.99607843 1 0.23155637
0.99607843 1 0.28431373
0.99754902 1 0.33333333
1 1 0.39117647
0.99754902 1 0.43927696
0.99607843 1 0.47990196
0.99607843 1 0.55147059
1 1 0.6377451
1 1 0.6872549
1 1 0.75012255
1 1 0.83290441
1 1 0.89558824
0.0078431373 1 0.0078431373
0.0053921569 1 0.0078431373
0.0029411765 1 0.0068627451
0.0034313725 1 0.0039215686
0.12156863 1 0.0039215686
0.26519608 1 0
0.4127451 1 0
0.57794118 1 0
0.70588235 1 0.019607843
0.84852941 1 0.050490196
1 1 0.087254902
0.99607843 1 0.13872549
0.99411765 1 0.18431373
0.99607843 1 0.23823529
0.99607843 1 0.29607843
0.99754902 1 0.35784314
1 1 0.41568627
1 1 0.4504902
0.99607843 1 0.48529412
0.99607843 1 0.54215686
0.99803922 1 0.61764706
1 1 0.68970588
1 1 0.7754902
1 1 0.875
1 1 0.96862745
0.010294118 0.010294118 0.011764706
0.010294118 0.010294118 0.011764706
0.0096813725 0.0078431373 0.011764706
0.0078431373 0.0078431373 0.010294118
0.0078431373 0.0071078431 0.010294118
0.0078431373 0.0060661765 0.0099877451
0.010294118 0.0039215686 0.0078431373
0.014767157 0.0039215686 0.0078431373
0.022058824 0.0039215686 0.0078431373
0.028982843 0.0078431373 0.0078431373
0.034191176 0.0078431373 0.0078431373
0.039031863 0.011764706 0.0078431373
0.039215686 0.011764706 0.0078431373
0.034803922 0.0078431373 0.0078431373
0.026348039 0.0078431373 0.0067401961
0.019056373 0.0039215686 0.0039215686
0.014215686 0.0039215686 0.0039215686
0.010845588 0.0039215686 0.0039215686
0.010294118 0.0039215686 0.0039215686
0.0078431373 0.0039215686 0.0039215686
0.0078431373 0.0039215686 0.0039215686
0.011764706 0.0039215686 0.0039215686
0.011764706 0.0039215686 0.0039215686
0.010845588 0.0039215686 0.0039215686
0.0078431373 0.0039215686 0.0039215686
0.010294118 0.011213235 0.011764706
0.010294118 0.010294118 0.011764706
0.0085324755 0.0089920343 0.011397059
0.0078431373 0.0078431373 0.010294118
0.0078431373 0.0071078431 0.010294118
0.0078431373 0.0060661765 0.0086473652
0.010294118 0.0039215686 0.0078431373
0.014767157 0.0039215686 0.0078431373
0.022058824 0.0039215686 0.0078431373
0.028982843 0.0078431373 0.0078431373
0.034191176 0.0078431373 0.0078431373
0.039031863 0.011573223 0.0078431373
0.039215686 0.011764706 0.0078431373
0.033999694 0.0078431373 0.0078431373
0.026348039 0.0078431373 0.0067401961
0.018481924 0.0039215686 0.0039215686
0.012683824 0.0039215686 0.0039215686
0.010500919 0.0035768995 0.0039215686
0.0096813725 0.0039215686 0.0039215686
0.0078431373 0.0039215686 0.0039215686
0.0078431373 0.0039215686 0.0039215686
0.0078431373 0.0039215686 0.0039215686
0.0078431373 0.0039215686 0.0039215686
0.0078431373 0.0039215686 0.0039215686
0.0078431373 0.0039215686 0.0039215686
0.010294118 0.012377451 0.011764706
0.009911152 0.011994485 0.010707721
0.0078431373 0.010569853 0.010294118
0.0078431373 0.0086856618 0.010294118
0.0078431373 0.0078431373 0.0087622549
0.0078431373 0.0060661765 0.0078431373
0.0092218137 0.0039215686 0.0078431373
0.012683824 0.0039215686 0.0078431373
0.019607843 0.0039215686 0.0078431373
0.02689951 0.0078431373 0.0078431373
0.033731618 0.0078431373 0.0078431373
0.037438725 0.0078431373 0.0078431373
0.039031863 0.010355392 0.0078431373
0.033517157 0.0078431373 0.0078431373
0.02588848 0.0078431373 0.0067401961
0.018137255 0.0039215686 0.0039215686
0.011764706 0.0039215686 0.0039215686
0.010294118 0.0011488971 0.0024509804
0.0078431373 0.0039215686 0.0036458333
0.0078431373 0.0039215686 0.0039215686
0.0078431373 0.0039215686 0.0039215686
0.0079656863 0.0039215686 0.0039215686
0.011305147 0.0039215686 0.0039215686
0.011764706 0.0049019608 0.0039215686
0.012745098 0.0078431373 0.0039215686
0.010294118 0.015502451 0.010294118
0.0078431373 0.014215686 0.010294118
0.0078431373 0.013909314 0.010294118
0.0078431373 0.011580882 0.0078814338
0.0078431373 0.0089154412 0.0078431373
0.0065563725 0.006372549 0.0078431373
0.0075214461 0.0039215686 0.0078431373
0.011764706 0.0039215686 0.006372549
0.018321078 0.0039215686 0.006372549
0.025980392 0.0065563725 0.0073606005
0.031985294 0.0078431373 0.0078431373
