site/assets/luts/natron-haldclut--fuji-ilford-hp5--c77eca275.cube
# LUTr-Project: LUTr — LUTrepository
# LUTr-Schema-Version: 1
# LUTr-ID: natron-haldclut--fuji-ilford-hp5--c77eca275
# LUTr-Title: fuji ilford hp5
# LUTr-Collection: Natron HaldCLUT
# LUTr-Collection-ID: natron-haldclut-presets
# LUTr-Source: https://github.com/NatronGitHub/clut
# LUTr-Source-File: submissions/natron-haldclut-presets/negative_new/fuji_ilford_hp5.png
# LUTr-Source-Format: PNG
# LUTr-Source-SHA256: a28c49e216dec0e91e95611157359f1c450229529f2a7d2b8aa33aae65218898
# LUTr-License: CC-BY-SA-4.0
# LUTr-License-URL: https://github.com/NatronGitHub/clut#license
# LUTr-Tags: creative, film, film-emulation, hald-clut, natron, png, cube
# LUTr-Transform-Class: film-emulation
# LUTr-Input-Color-Space: srgb
# LUTr-Output-Color-Space: srgb
# LUTr-Color-Space-Confidence: assumed-display-referred
# LUTr-Conversion-Method: PNG LUT image decoded at 16-bit and sampled to 25x25x25 3D CUBE
# LUTr-Conversion-Date: 2026-07-27
# LUTr-Conversion-Tool: LUTr scripts/convert-all-to-cube.mjs
# LUTr-Conversion-Grid: 25x25x25
# LUTr-Note: Preserve this metadata and the upstream license notices when redistributing.
TITLE "fuji ilford hp5"
LUT_3D_SIZE 9
DOMAIN_MIN 0 0 0
DOMAIN_MAX 1 1 1
0.062745098 0.062745098 0.062745098
0.074509804 0.074509804 0.074509804
0.074509804 0.074509804 0.074509804
0.14607843 0.14607843 0.14607843
0.2372549 0.2372549 0.2372549
0.3245098 0.3245098 0.3245098
0.41470588 0.41470588 0.41470588
0.4995098 0.4995098 0.4995098
0.58823529 0.58823529 0.58823529
0.085784314 0.085784314 0.085784314
0.10147059 0.10147059 0.10147059
0.14301471 0.14301471 0.14301471
0.20214461 0.20214461 0.20214461
0.28112745 0.28112745 0.28112745
0.35459559 0.35459559 0.35459559
0.42892157 0.42892157 0.42892157
0.51127451 0.51127451 0.51127451
0.61862745 0.61862745 0.61862745
0.14117647 0.14117647 0.14117647
0.15428922 0.15428922 0.15428922
0.21176471 0.21176471 0.21176471
0.27352941 0.27352941 0.27352941
0.35637255 0.35637255 0.35637255
0.43137255 0.43137255 0.43137255
0.49803922 0.49803922 0.49803922
0.57904412 0.57904412 0.57904412
0.65784314 0.65784314 0.65784314
0.25686275 0.25686275 0.25686275
0.26078431 0.26078431 0.26078431
0.28811275 0.28811275 0.28811275
0.35042892 0.35042892 0.35042892
0.43431373 0.43431373 0.43431373
0.50104167 0.50104167 0.50104167
0.56470588 0.56470588 0.56470588
0.64932598 0.64932598 0.64932598
0.72254902 0.72254902 0.72254902
0.37254902 0.37254902 0.37254902
0.37426471 0.37426471 0.37426471
0.38186275 0.38186275 0.38186275
0.4252451 0.4252451 0.4252451
0.48627451 0.48627451 0.48627451
0.55196078 0.55196078 0.55196078
0.63578431 0.63578431 0.63578431
0.72279412 0.72279412 0.72279412
0.79607843 0.79607843 0.79607843
0.49215686 0.49215686 0.49215686
0.48823529 0.48823529 0.48823529
0.48431373 0.48431373 0.48431373
0.50882353 0.50882353 0.50882353
0.56127451 0.56127451 0.56127451
0.62696078 0.62696078 0.62696078
0.70502451 0.70502451 0.70502451
0.79215686 0.79215686 0.79215686
0.85 0.85 0.85
0.61568627 0.61568627 0.61568627
0.61654412 0.61654412 0.61654412
0.62352941 0.62352941 0.62352941
0.63026961 0.63026961 0.63026961
0.66568627 0.66568627 0.66568627
0.72242647 0.72242647 0.72242647
0.78039216 0.78039216 0.78039216
0.84203431 0.84203431 0.84203431
0.8872549 0.8872549 0.8872549
0.75147059 0.75147059 0.75147059
0.75882353 0.75882353 0.75882353
0.75931373 0.75931373 0.75931373
0.7653799 0.7653799 0.7653799
0.78235294 0.78235294 0.78235294
0.83057598 0.83057598 0.83057598
0.86078431 0.86078431 0.86078431
0.8877451 0.8877451 0.8877451
0.92647059 0.92647059 0.92647059
0.88627451 0.88627451 0.88627451
0.88235294 0.88235294 0.88235294
0.87058824 0.87058824 0.87058824
0.87843137 0.87843137 0.87843137
0.9 0.9 0.9
0.90735294 0.90735294 0.90735294
0.92156863 0.92156863 0.92156863
0.94166667 0.94166667 0.94166667
0.96862745 0.96862745 0.96862745
0.065686275 0.065686275 0.065686275
0.085784314 0.085784314 0.085784314
0.11531863 0.11531863 0.11531863
0.17273284 0.17273284 0.17273284
0.24681373 0.24681373 0.24681373
0.32971814 0.32971814 0.32971814
0.41384804 0.41384804 0.41384804
0.50042892 0.50042892 0.50042892
0.58823529 0.58823529 0.58823529
0.10441176 0.10441176 0.10441176
0.12439491 0.12439491 0.12439491
0.15140931 0.15140931 0.15140931
0.20784314 0.20784314 0.20784314
0.28112745 0.28112745 0.28112745
0.35486366 0.35486366 0.35486366
0.43247549 0.43247549 0.43247549
0.52254902 0.52254902 0.52254902
0.61519608 0.61519608 0.61519608
0.17303922 0.17303922 0.17303922
0.18786765 0.18786765 0.18786765
0.22239583 0.22239583 0.22239583
0.28079044 0.28079044 0.28079044
0.3620098 0.3620098 0.3620098
0.43137255 0.43137255 0.43137255
0.50122549 0.50122549 0.50122549
0.57988664 0.57988664 0.57988664
0.65625 0.65625 0.65625
0.27616422 0.27616422 0.27616422
0.27745098 0.27745098 0.27745098
0.30330882 0.30330882 0.30330882
0.35804228 0.35804228 0.35804228
0.4375 0.4375 0.4375
0.5085095 0.5085095 0.5085095
0.57634804 0.57634804 0.57634804
0.6567019 0.6567019 0.6567019
0.73382353 0.73382353 0.73382353
0.38210784 0.38210784 0.38210784
0.38406863 0.38406863 0.38406863
0.39068627 0.39068627 0.39068627
0.43382353 0.43382353 0.43382353
0.49362745 0.49362745 0.49362745
0.55824142 0.55824142 0.55824142
0.63823529 0.63823529 0.63823529
0.72303922 0.72303922 0.72303922
0.7997549 0.7997549 0.7997549
0.50343137 0.50343137 0.50343137
0.50577512 0.50577512 0.50577512
0.50735294 0.50735294 0.50735294
0.5207644 0.5207644 0.5207644
0.56911765 0.56911765 0.56911765
0.63088235 0.63088235 0.63088235
0.70723039 0.70723039 0.70723039
0.79215686 0.79215686 0.79215686
0.84852941 0.84852941 0.84852941
0.62830882 0.62830882 0.62830882
0.62696078 0.62696078 0.62696078
0.63223039 0.63223039 0.63223039
0.64117647 0.64117647 0.64117647
0.67426471 0.67426471 0.67426471
0.72320772 0.72320772 0.72320772
0.78039216 0.78039216 0.78039216
0.8372549 0.8372549 0.8372549
0.86789216 0.86789216 0.86789216
0.76623775 0.76623775 0.76623775
0.76709559 0.76709559 0.76709559
0.76323529 0.76323529 0.76323529
0.77459406 0.77459406 0.77459406
0.79191176 0.79191176 0.79191176
0.82067249 0.82067249 0.82067249
0.85735294 0.85735294 0.85735294
0.88817402 0.88817402 0.88817402
0.92689951 0.92689951 0.92689951
0.84019608 0.84019608 0.84019608
0.85839461 0.85839461 0.85839461
0.88578431 0.88578431 0.88578431
0.88333333 0.88333333 0.88333333
0.89044118 0.89044118 0.89044118
0.89754902 0.89754902 0.89754902
0.9185049 0.9185049 0.9185049
0.94558824 0.94558824 0.94558824
0.97598039 0.97598039 0.97598039
0.10490196 0.10490196 0.10490196
0.13872549 0.13872549 0.13872549
0.16470588 0.16470588 0.16470588
0.21752451 0.21752451 0.21752451
0.28921569 0.28921569 0.28921569
0.34705882 0.34705882 0.34705882
0.41691176 0.41691176 0.41691176
0.5 0.5 0.5
0.60294118 0.60294118 0.60294118
0.15784314 0.15784314 0.15784314
0.17696078 0.17696078 0.17696078
0.2004902 0.2004902 0.2004902
0.24198836 0.24198836 0.24198836
0.30778186 0.30778186 0.30778186
0.36075368 0.36075368 0.36075368
0.43419118 0.43419118 0.43419118
0.52647059 0.52647059 0.52647059
0.62120098 0.62120098 0.62120098
0.20490196 0.20490196 0.20490196
0.22696078 0.22696078 0.22696078
0.26158088 0.26158088 0.26158088
0.29745711 0.29745711 0.29745711
0.36176471 0.36176471 0.36176471
0.42405025 0.42405025 0.42405025
0.49730392 0.49730392 0.49730392
0.58382353 0.58382353 0.58382353
0.67352941 0.67352941 0.67352941
0.30441176 0.30441176 0.30441176
0.30994179 0.30994179 0.30994179
0.34010417 0.34010417 0.34010417
0.38460478 0.38460478 0.38460478
0.45018382 0.45018382 0.45018382
0.50833333 0.50833333 0.50833333
0.57264093 0.57264093 0.57264093
0.65004596 0.65004596 0.65004596
0.73039216 0.73039216 0.73039216
0.41666667 0.41666667 0.41666667
0.41991422 0.41991422 0.41991422
0.42953431 0.42953431 0.42953431
0.45643382 0.45643382 0.45643382
0.52058824 0.52058824 0.52058824
0.58235294 0.58235294 0.58235294
0.64705882 0.64705882 0.64705882
0.71954657 0.71954657 0.71954657
0.79313725 0.79313725 0.79313725
0.53823529 0.53823529 0.53823529
0.54208027 0.54208027 0.54208027
0.5448223 0.5448223 0.5448223
0.54944853 0.54944853 0.54944853
0.59558824 0.59558824 0.59558824
0.65232843 0.65232843 0.65232843
0.72028186 0.72028186 0.72028186
0.78823529 0.78823529 0.78823529
0.84791667 0.84791667 0.84791667
0.66176471 0.66176471 0.66176471
0.66568627 0.66568627 0.66568627
0.66176471 0.66176471 0.66176471
0.66176471 0.66176471 0.66176471
0.6872549 0.6872549 0.6872549
0.73057598 0.73057598 0.73057598
0.790625 0.790625 0.790625
0.84583333 0.84583333 0.84583333
0.89019608 0.89019608 0.89019608
0.78933824 0.78933824 0.78933824
0.79292279 0.79292279 0.79292279
0.78529412 0.78529412 0.78529412
0.7839614 0.7839614 0.7839614
0.79595588 0.79595588 0.79595588
0.82201287 0.82201287 0.82201287
0.86807598 0.86807598 0.86807598
0.8995098 0.8995098 0.8995098
0.93382353 0.93382353 0.93382353
0.85882353 0.85882353 0.85882353
0.87659314 0.87659314 0.87659314
0.89411765 0.89411765 0.89411765
0.89019608 0.89019608 0.89019608
0.89411765 0.89411765 0.89411765
0.90882353 0.90882353 0.90882353
0.93259804 0.93259804 0.93259804
0.94914216 0.94914216 0.94914216
0.96862745 0.96862745 0.96862745
0.20343137 0.20343137 0.20343137
0.21862745 0.21862745 0.21862745
0.25343137 0.25343137 0.25343137
0.29761029 0.29761029 0.29761029
0.34215686 0.34215686 0.34215686
0.40238971 0.40238971 0.40238971
0.46568627 0.46568627 0.46568627
0.54785539 0.54785539 0.54785539
0.64166667 0.64166667 0.64166667
0.23792892 0.23792892 0.23792892
0.25108762 0.25108762 0.25108762
0.27647059 0.27647059 0.27647059
0.30735294 0.30735294 0.30735294
0.35735294 0.35735294 0.35735294
0.41420037 0.41420037 0.41420037
0.47991728 0.47991728 0.47991728
0.5531633 0.5531633 0.5531633
0.63952206 0.63952206 0.63952206
0.27806373 0.27806373 0.27806373
0.29718137 0.29718137 0.29718137
0.32352941 0.32352941 0.32352941
0.36211703 0.36211703 0.36211703
0.4091299 0.4091299 0.4091299
0.45252757 0.45252757 0.45252757
0.51078431 0.51078431 0.51078431
0.58483456 0.58483456 0.58483456
0.67352941 0.67352941 0.67352941
0.35343137 0.35343137 0.35343137
0.35735294 0.35735294 0.35735294
0.38598346 0.38598346 0.38598346
0.42794118 0.42794118 0.42794118
0.46348039 0.46348039 0.46348039
0.51282935 0.51282935 0.51282935
0.57115502 0.57115502 0.57115502
0.64148284 0.64148284 0.64148284
0.72493873 0.72493873 0.72493873
0.44754902 0.44754902 0.44754902
0.45710784 0.45710784 0.45710784
0.47181373 0.47181373 0.47181373
0.4995098 0.4995098 0.4995098
0.53713235 0.53713235 0.53713235
0.59436275 0.59436275 0.59436275
0.65189951 0.65189951 0.65189951
0.71495098 0.71495098 0.71495098
0.78578431 0.78578431 0.78578431
0.56519608 0.56519608 0.56519608
0.57352175 0.57352175 0.57352175
0.58310355 0.58310355 0.58310355
0.58782935 0.58782935 0.58782935
0.62104779 0.62104779 0.62104779
0.675 0.675 0.675
0.73431373 0.73431373 0.73431373
0.79234069 0.79234069 0.79234069
0.86176471 0.86176471 0.86176471
0.68872549 0.68872549 0.68872549
0.69964767 0.69964767 0.69964767
0.6921875 0.6921875 0.6921875
0.68987439 0.68987439 0.68987439
0.70588235 0.70588235 0.70588235
0.74296875 0.74296875 0.74296875
0.79044118 0.79044118 0.79044118
0.85 0.85 0.85
0.89509804 0.89509804 0.89509804
0.80569853 0.80569853 0.80569853
0.80569853 0.80569853 0.80569853
0.80418199 0.80418199 0.80418199
0.8 0.8 0.8
0.81593137 0.81593137 0.81593137
0.83823529 0.83823529 0.83823529
0.86888787 0.86888787 0.86888787
0.90547641 0.90547641 0.90547641
0.92990196 0.92990196 0.92990196
0.88235294 0.88235294 0.88235294
0.89001225 0.89001225 0.89001225
0.89411765 0.89411765 0.89411765
0.90833333 0.90833333 0.90833333
0.90833333 0.90833333 0.90833333
0.92156863 0.92156863 0.92156863
0.9372549 0.9372549 0.9372549
0.94117647 0.94117647 0.94117647
0.96078431 0.96078431 0.96078431
0.30588235 0.30588235 0.30588235
0.31911765 0.31911765 0.31911765
0.35343137 0.35343137 0.35343137
0.39264706 0.39264706 0.39264706
0.41568627 0.41568627 0.41568627
0.45784314 0.45784314 0.45784314
0.51617647 0.51617647 0.51617647
0.62107843 0.62107843 0.62107843
0.69803922 0.69803922 0.69803922
0.33088235 0.33088235 0.33088235
0.34607843 0.34607843 0.34607843
0.37303922 0.37303922 0.37303922
0.40563725 0.40563725 0.40563725
0.42683824 0.42683824 0.42683824
0.47058824 0.47058824 0.47058824
0.54754902 0.54754902 0.54754902
0.62843137 0.62843137 0.62843137
0.68602941 0.68602941 0.68602941
0.36176471 0.36176471 0.36176471
0.38088235 0.38088235 0.38088235
0.41078431 0.41078431 0.41078431
0.44215686 0.44215686 0.44215686
0.47401961 0.47401961 0.47401961
0.51752451 0.51752451 0.51752451
0.57352941 0.57352941 0.57352941
0.6432598 0.6432598 0.6432598
0.71127451 0.71127451 0.71127451
0.40808824 0.40808824 0.40808824
0.42794118 0.42794118 0.42794118
0.45833333 0.45833333 0.45833333
0.48851103 0.48851103 0.48851103
0.52095588 0.52095588 0.52095588
0.56170343 0.56170343 0.56170343
0.60980392 0.60980392 0.60980392
0.67009804 0.67009804 0.67009804
0.73406863 0.73406863 0.73406863
0.48137255 0.48137255 0.48137255
0.48995098 0.48995098 0.48995098
0.51078431 0.51078431 0.51078431
0.54754902 0.54754902 0.54754902
0.57941176 0.57941176 0.57941176
0.62254902 0.62254902 0.62254902
0.66593137 0.66593137 0.66593137
0.71985294 0.71985294 0.71985294
0.78823529 0.78823529 0.78823529
0.58823529 0.58823529 0.58823529
0.59607843 0.59607843 0.59607843
0.61219363 0.61219363 0.61219363
0.62429534 0.62429534 0.62429534
0.65502451 0.65502451 0.65502451
0.69411765 0.69411765 0.69411765
0.74920343 0.74920343 0.74920343
0.79754902 0.79754902 0.79754902
0.85122549 0.85122549 0.85122549
0.71176471 0.71176471 0.71176471
0.71893382 0.71893382 0.71893382
0.72328431 0.72328431 0.72328431
0.73210784 0.73210784 0.73210784
0.74411765 0.74411765 0.74411765
0.75931373 0.75931373 0.75931373
0.80147059 0.80147059 0.80147059
0.85735294 0.85735294 0.85735294
0.89754902 0.89754902 0.89754902
0.82132353 0.82132353 0.82132353
0.82303922 0.82303922 0.82303922
0.82457108 0.82457108 0.82457108
0.83088235 0.83088235 0.83088235
0.83872549 0.83872549 0.83872549
0.84322917 0.84322917 0.84322917
0.87040441 0.87040441 0.87040441
0.91106005 0.91106005 0.91106005
0.93602941 0.93602941 0.93602941
0.91176471 0.91176471 0.91176471
0.91004902 0.91004902 0.91004902
0.90980392 0.90980392 0.90980392
0.91372549 0.91372549 0.91372549
0.91372549 0.91372549 0.91372549
0.92303922 0.92303922 0.92303922
0.93823529 0.93823529 0.93823529
0.95710784 0.95710784 0.95710784
0.96862745 0.96862745 0.96862745
0.42156863 0.42156863 0.42156863
0.42941176 0.42941176 0.42941176
0.45196078 0.45196078 0.45196078
0.48284314 0.48284314 0.48284314
0.51617647 0.51617647 0.51617647
0.54221814 0.54221814 0.54221814
0.56838235 0.56838235 0.56838235
0.67616422 0.67616422 0.67616422
0.75441176 0.75441176 0.75441176
0.44068627 0.44068627 0.44068627
0.45196078 0.45196078 0.45196078
0.46969975 0.46969975 0.46969975
0.50403646 0.50403646 0.50403646
0.53514093 0.53514093 0.53514093
0.56243873 0.56243873 0.56243873
0.59448529 0.59448529 0.59448529
0.67726716 0.67726716 0.67726716
0.75833333 0.75833333 0.75833333
0.47254902 0.47254902 0.47254902
0.48494179 0.48494179 0.48494179
0.50772059 0.50772059 0.50772059
0.53921569 0.53921569 0.53921569
0.56764706 0.56764706 0.56764706
0.59258578 0.59258578 0.59258578
0.62625613 0.62625613 0.62625613
0.69661458 0.69661458 0.69661458
0.76666667 0.76666667 0.76666667
0.50245098 0.50245098 0.50245098
0.51292126 0.51292126 0.51292126
0.53543199 0.53543199 0.53543199
0.57009804 0.57009804 0.57009804
0.60098039 0.60098039 0.60098039
0.62555147 0.62555147 0.62555147
0.66037071 0.66037071 0.66037071
0.72794118 0.72794118 0.72794118
0.7848652 0.7848652 0.7848652
0.54803922 0.54803922 0.54803922
0.55324755 0.55324755 0.55324755
0.57058824 0.57058824 0.57058824
0.60585172 0.60585172 0.60585172
0.63958333 0.63958333 0.63958333
0.6620098 0.6620098 0.6620098
0.70594363 0.70594363 0.70594363
0.75971201 0.75971201 0.75971201
0.80612745 0.80612745 0.80612745
0.61911765 0.61911765 0.61911765
0.62225797 0.62225797 0.62225797
0.63797488 0.63797488 0.63797488
0.65743719 0.65743719 0.65743719
0.69656863 0.69656863 0.69656863
0.72745098 0.72745098 0.72745098
0.76507353 0.76507353 0.76507353
0.81323529 0.81323529 0.81323529
0.85447304 0.85447304 0.85447304
0.72879902 0.72879902 0.72879902
0.72843137 0.72843137 0.72843137
0.74019608 0.74019608 0.74019608
0.75680147 0.75680147 0.75680147
0.77230392 0.77230392 0.77230392
0.79313725 0.79313725 0.79313725
0.82794118 0.82794118 0.82794118
0.87049632 0.87049632 0.87049632
0.89607843 0.89607843 0.89607843
0.83284314 0.83284314 0.83284314
0.83284314 0.83284314 0.83284314
0.83676471 0.83676471 0.83676471
0.84761029 0.84761029 0.84761029
0.85765931 0.85765931 0.85765931
0.86930147 0.86930147 0.86930147
0.89215686 0.89215686 0.89215686
0.92270987 0.92270987 0.92270987
0.93952206 0.93952206 0.93952206
0.92009804 0.92009804 0.92009804
0.92371324 0.92371324 0.92371324
0.92843137 0.92843137 0.92843137
0.92941176 0.92941176 0.92941176
0.92696078 0.92696078 0.92696078
0.9338848 0.9338848 0.9338848
0.94718137 0.94718137 0.94718137
0.96470588 0.96470588 0.96470588
0.98431373 0.98431373 0.98431373
0.55784314 0.55784314 0.55784314
0.56176471 0.56176471 0.56176471
0.58039216 0.58039216 0.58039216
0.60245098 0.60245098 0.60245098
0.63137255 0.63137255 0.63137255
0.6627451 0.6627451 0.6627451
0.6872549 0.6872549 0.6872549
0.71066176 0.71066176 0.71066176
0.77352941 0.77352941 0.77352941
0.57340686 0.57340686 0.57340686
0.5807598 0.5807598 0.5807598
0.59877451 0.59877451 0.59877451
0.61711091 0.61711091 0.61711091
0.64436275 0.64436275 0.64436275
0.67420343 0.67420343 0.67420343
0.69105392 0.69105392 0.69105392
0.71360294 0.71360294 0.71360294
0.78480392 0.78480392 0.78480392
0.59901961 0.59901961 0.59901961
0.61078431 0.61078431 0.61078431
0.62254902 0.62254902 0.62254902
0.64371936 0.64371936 0.64371936
0.66875 0.66875 0.66875
0.69433211 0.69433211 0.69433211
0.71292892 0.71292892 0.71292892
0.73507966 0.73507966 0.73507966
0.80882353 0.80882353 0.80882353
0.62205882 0.62205882 0.62205882
0.62990196 0.62990196 0.62990196
0.64791667 0.64791667 0.64791667
0.67058824 0.67058824 0.67058824
0.6995098 0.6995098 0.6995098
0.71404718 0.71404718 0.71404718
0.73213848 0.73213848 0.73213848
0.75816483 0.75816483 0.75816483
0.82634804 0.82634804 0.82634804
0.63627451 0.63627451 0.63627451
0.64436275 0.64436275 0.64436275
0.6627451 0.6627451 0.6627451
0.69589461 0.69589461 0.69589461
0.72352941 0.72352941 0.72352941
0.74270833 0.74270833 0.74270833
0.76458333 0.76458333 0.76458333
0.80177696 0.80177696 0.80177696
0.85441176 0.85441176 0.85441176
0.68823529 0.68823529 0.68823529
0.69117647 0.69117647 0.69117647
0.69901961 0.69901961 0.69901961
0.72781863 0.72781863 0.72781863
0.75631127 0.75631127 0.75631127
0.78921569 0.78921569 0.78921569
0.80943627 0.80943627 0.80943627
0.83823529 0.83823529 0.83823529
0.87058824 0.87058824 0.87058824
0.75392157 0.75392157 0.75392157
0.75392157 0.75392157 0.75392157
0.76470588 0.76470588 0.76470588
0.78213848 0.78213848 0.78213848
0.7995098 0.7995098 0.7995098
0.82401961 0.82401961 0.82401961
0.85821078 0.85821078 0.85821078
0.88575368 0.88575368 0.88575368
0.89901961 0.89901961 0.89901961
0.84460784 0.84460784 0.84460784
0.84143689 0.84143689 0.84143689
0.84779412 0.84779412 0.84779412
0.85526961 0.85526961 0.85526961
0.87598039 0.87598039 0.87598039
0.89330576 0.89330576 0.89330576
0.90879289 0.90879289 0.90879289
0.93383885 0.93383885 0.93383885
0.94215686 0.94215686 0.94215686
0.92647059 0.92647059 0.92647059
0.92169118 0.92169118 0.92169118
0.93039216 0.93039216 0.93039216
0.93333333 0.93333333 0.93333333
0.94068627 0.94068627 0.94068627
0.95294118 0.95294118 0.95294118
0.95710784 0.95710784 0.95710784
0.96862745 0.96862745 0.96862745
0.97647059 0.97647059 0.97647059
0.70833333 0.70833333 0.70833333
0.7122549 0.7122549 0.7122549
0.72352941 0.72352941 0.72352941
0.73137255 0.73137255 0.73137255
0.74901961 0.74901961 0.74901961
0.78382353 0.78382353 0.78382353
0.80686275 0.80686275 0.80686275
0.81715686 0.81715686 0.81715686
0.82058824 0.82058824 0.82058824
0.7122549 0.7122549 0.7122549
0.71955423 0.71955423 0.71955423
0.7301777 0.7301777 0.7301777
0.74268536 0.74268536 0.74268536
0.7625 0.7625 0.7625
0.79144455 0.79144455 0.79144455
0.81323529 0.81323529 0.81323529
0.81328891 0.81328891 0.81328891
0.8245098 0.8245098 0.8245098
0.73431373 0.73431373 0.73431373
0.73825061 0.73825061 0.73825061
0.74905025 0.74905025 0.74905025
0.75845588 0.75845588 0.75845588
0.77530637 0.77530637 0.77530637
0.8010723 0.8010723 0.8010723
0.81816789 0.81816789 0.81816789
0.82570466 0.82570466 0.82570466
0.84068627 0.84068627 0.84068627
0.7495098 0.7495098 0.7495098
0.75098039 0.75098039 0.75098039
0.76038603 0.76038603 0.76038603
0.77372855 0.77372855 0.77372855
0.79304534 0.79304534 0.79304534
0.81623775 0.81623775 0.81623775
0.82953431 0.82953431 0.82953431
0.84099265 0.84099265 0.84099265
0.86764706 0.86764706 0.86764706
0.74926471 0.74926471 0.74926471
0.75465686 0.75465686 0.75465686
0.77401961 0.77401961 0.77401961
0.79420956 0.79420956 0.79420956
0.8122549 0.8122549 0.8122549
0.83137255 0.83137255 0.83137255
0.84620098 0.84620098 0.84620098
0.86182598 0.86182598 0.86182598
0.87745098 0.87745098 0.87745098
0.76911765 0.76911765 0.76911765
0.77565104 0.77565104 0.77565104
0.79446998 0.79446998 0.79446998
0.81415441 0.81415441 0.81415441
0.83161765 0.83161765 0.83161765
0.84882047 0.84882047 0.84882047
0.87365196 0.87365196 0.87365196
0.89264706 0.89264706 0.89264706
0.89920343 0.89920343 0.89920343
0.82561275 0.82561275 0.82561275
0.83311887 0.83311887 0.83311887
0.83088235 0.83088235 0.83088235
0.83814338 0.83814338 0.83814338
0.85900735 0.85900735 0.85900735
0.87424939 0.87424939 0.87424939
0.89791667 0.89791667 0.89791667
0.91519608 0.91519608 0.91519608
0.91519608 0.91519608 0.91519608
0.88823529 0.88823529 0.88823529
0.88463542 0.88463542 0.88463542
0.89456189 0.89456189 0.89456189
0.8877451 0.8877451 0.8877451
0.89901961 0.89901961 0.89901961
0.90814951 0.90814951 0.90814951
0.93921569 0.93921569 0.93921569
0.94607843 0.94607843 0.94607843
0.94650735 0.94650735 0.94650735
0.94460784 0.94460784 0.94460784
0.93425245 0.93425245 0.93425245
0.93823529 0.93823529 0.93823529
0.9377451 0.9377451 0.9377451
0.94117647 0.94117647 0.94117647
0.94246324 0.94246324 0.94246324
0.96948529 0.96948529 0.96948529
0.97647059 0.97647059 0.97647059
0.98039216 0.98039216 0.98039216
0.83529412 0.83529412 0.83529412
0.84313725 0.84313725 0.84313725
0.85098039 0.85098039 0.85098039
0.86519608 0.86519608 0.86519608
0.86078431 0.86078431 0.86078431
0.86323529 0.86323529 0.86323529
0.9 0.9 0.9
0.90931373 0.90931373 0.90931373
0.90196078 0.90196078 0.90196078
0.84264706 0.84264706 0.84264706
0.8504902 0.8504902 0.8504902
0.85588235 0.85588235 0.85588235
0.8627451 0.8627451 0.8627451
0.8745098 0.8745098 0.8745098
0.89577206 0.89577206 0.89577206
0.88676471 0.88676471 0.88676471
0.90631127 0.90631127 0.90631127
0.90588235 0.90588235 0.90588235
0.86470588 0.86470588 0.86470588
0.85012255 0.85012255 0.85012255
0.86176471 0.86176471 0.86176471
0.87058824 0.87058824 0.87058824
0.87794118 0.87794118 0.87794118
0.89460784 0.89460784 0.89460784
0.91004902 0.91004902 0.91004902
0.92598039 0.92598039 0.92598039
0.9245098 0.9245098 0.9245098
0.87696078 0.87696078 0.87696078
0.86145833 0.86145833 0.86145833
0.86519608 0.86519608 0.86519608
0.87941176 0.87941176 0.87941176
0.88627451 0.88627451 0.88627451
0.89803922 0.89803922 0.89803922
0.90980392 0.90980392 0.90980392
0.92156863 0.92156863 0.92156863
0.93970588 0.93970588 0.93970588
0.88431373 0.88431373 0.88431373
0.87426471 0.87426471 0.87426471
0.87843137 0.87843137 0.87843137
0.8870098 0.8870098 0.8870098
0.89607843 0.89607843 0.89607843
0.90784314 0.90784314 0.90784314
0.92303922 0.92303922 0.92303922
0.93137255 0.93137255 0.93137255
0.93529412 0.93529412 0.93529412
0.87205882 0.87205882 0.87205882
0.87990196 0.87990196 0.87990196
0.88235294 0.88235294 0.88235294
0.89656863 0.89656863 0.89656863
0.90661765 0.90661765 0.90661765
0.91519608 0.91519608 0.91519608
0.92843137 0.92843137 0.92843137
0.94295343 0.94295343 0.94295343
0.95294118 0.95294118 0.95294118
0.89901961 0.89901961 0.89901961
0.89803922 0.89803922 0.89803922
0.90122549 0.90122549 0.90122549
0.90980392 0.90980392 0.90980392
0.91568627 0.91568627 0.91568627
0.92977941 0.92977941 0.92977941
0.94607843 0.94607843 0.94607843
0.95294118 0.95294118 0.95294118
0.95294118 0.95294118 0.95294118
0.9254902 0.9254902 0.9254902
0.92591912 0.92591912 0.92591912
0.92205882 0.92205882 0.92205882
0.91060049 0.91060049 0.91060049
0.92818627 0.92818627 0.92818627
0.94509804 0.94509804 0.94509804
0.95698529 0.95698529 0.95698529
0.965625 0.965625 0.965625
0.96862745 0.96862745 0.96862745
0.94117647 0.94117647 0.94117647
0.94901961 0.94901961 0.94901961
0.96078431 0.96078431 0.96078431
0.95686275 0.95686275 0.95686275
0.94509804 0.94509804 0.94509804
0.94509804 0.94509804 0.94509804
0.96568627 0.96568627 0.96568627
0.98823529 0.98823529 0.98823529
0.98823529 0.98823529 0.98823529
