site/assets/luts/natron-haldclut--generic-fuji-provia-100--be7ec5e77.cube
# LUTr-Project: LUTr — LUTrepository
# LUTr-Schema-Version: 1
# LUTr-ID: natron-haldclut--generic-fuji-provia-100--be7ec5e77
# LUTr-Title: generic fuji provia 100
# LUTr-Collection: Natron HaldCLUT
# LUTr-Collection-ID: natron-haldclut-presets
# LUTr-Source: https://github.com/NatronGitHub/clut
# LUTr-Source-File: submissions/natron-haldclut-presets/colorslide/generic_fuji_provia_100.png
# LUTr-Source-Format: PNG
# LUTr-Source-SHA256: 5911964215fe0c4681f964b4edb84441aa06f290f10fbf2e554516f40c32d24a
# LUTr-License: CC-BY-SA-4.0
# LUTr-License-URL: https://github.com/NatronGitHub/clut#license
# LUTr-Tags: creative, film, film-emulation, hald-clut, natron, png, cube
# LUTr-Transform-Class: film-emulation
# LUTr-Input-Color-Space: srgb
# LUTr-Output-Color-Space: srgb
# LUTr-Color-Space-Confidence: assumed-display-referred
# LUTr-Conversion-Method: PNG LUT image decoded at 16-bit and sampled to 25x25x25 3D CUBE
# LUTr-Conversion-Date: 2026-07-27
# LUTr-Conversion-Tool: LUTr scripts/convert-all-to-cube.mjs
# LUTr-Conversion-Grid: 25x25x25
# LUTr-Note: Preserve this metadata and the upstream license notices when redistributing.
TITLE "generic fuji provia 100"
LUT_3D_SIZE 5
DOMAIN_MIN 0 0 0
DOMAIN_MAX 1 1 1
0.011764706 0.031372549 0.0039215686
0.24215686 0.02254902 0.026470588
0.59019608 0.0058823529 0.0039215686
0.89803922 0.032352941 0.011764706
0.99607843 0.015686275 0.015686275
0.040196078 0.23431373 0.026470588
0.21666667 0.21862745 0.02745098
0.55539216 0.23137255 0.025490196
0.8754902 0.22254902 0.031372549
0.99215686 0.23921569 0.028431373
0.0019607843 0.53137255 0.047058824
0.075 0.52696078 0.057843137
0.51568627 0.53137255 0.067647059
0.81764706 0.53137255 0.073039216
0.99607843 0.53137255 0.056862745
0.0039215686 0.77647059 0.026470588
0.059558824 0.78431373 0.034313725
0.47696078 0.79362745 0.031372549
0.76446078 0.7879902 0.02745098
0.96176471 0.77941176 0.034313725
0.0078431373 0.95686275 0
0.16568627 0.97156863 0
0.49607843 0.96666667 0.025490196
0.73627451 0.9754902 0.0039215686
0.95686275 0.98431373 0
0.026470588 0.014705882 0.22254902
0.24607843 0.0125 0.22352941
0.58823529 0.014215686 0.22352941
0.91470588 0.016176471 0.22254902
0.99607843 0.026470588 0.21470588
0.06372549 0.21470588 0.22156863
0.2091299 0.21862745 0.22647059
0.55882353 0.22193627 0.22647059
0.87647059 0.22689951 0.22254902
0.98431373 0.23823529 0.21960784
0.011764706 0.52745098 0.21470588
0.1122549 0.52426471 0.21470588
0.52254902 0.52745098 0.21911765
0.82254902 0.53688725 0.21960784
0.99607843 0.5372549 0.20686275
0.0039215686 0.78039216 0.19338235
0.055943627 0.79117647 0.19491422
0.48431373 0.78897059 0.19411765
0.77156863 0.79436275 0.19136029
0.97622549 0.79142157 0.19877451
0.0039215686 0.95392157 0.19803922
0.18529412 0.9629902 0.21372549
0.50392157 0.98627451 0.21372549
0.74338235 0.98235294 0.20980392
0.92941176 0.96764706 0.21372549
0.0078431373 0.0019607843 0.54313725
0.2495098 0.0093137255 0.54460784
0.60294118 0.0078431373 0.54705882
0.92401961 0.0058823529 0.54509804
0.99607843 0.021568627 0.53529412
0.054411765 0.22647059 0.53921569
0.22904412 0.22254902 0.53529412
0.57107843 0.22647059 0.54191176
0.88370098 0.22904412 0.53247549
0.99607843 0.22892157 0.52352941
0.0078431373 0.5254902 0.53333333
0.13357843 0.53112745 0.53137255
0.5372549 0.53039216 0.53529412
0.82598039 0.53259804 0.53137255
0.99607843 0.53921569 0.52745098
0.0088235294 0.79117647 0.525
0.063848039 0.79117647 0.52745098
0.49803922 0.78333333 0.52794118
0.77781863 0.79215686 0.52769608
0.98382353 0.79362745 0.52401961
0.025490196 0.97843137 0.52352941
0.20980392 0.95882353 0.53137255
0.51764706 0.97647059 0.53039216
0.75441176 0.95833333 0.53137255
0.9627451 0.98431373 0.5372549
0.075490196 0.052941176 0.8
0.26176471 0.013970588 0.81470588
0.61568627 0.014705882 0.80539216
0.92622549 0.015686275 0.80392157
1 0.015686275 0.79901961
0.075245098 0.22916667 0.80392157
0.23884804 0.22647059 0.80392157
0.58639706 0.22463235 0.80392157
0.89473039 0.22647059 0.79926471
0.98431373 0.22352941 0.78823529
0.0058823529 0.52303922 0.8
0.15 0.53088235 0.79289216
0.54264706 0.53529412 0.79681373
0.84215686 0.53639706 0.8
0.99607843 0.52352941 0.78823529
0.0078431373 0.78039216 0.79117647
0.12383578 0.79117647 0.79381127
0.50637255 0.78823529 0.79436275
0.79509804 0.7872549 0.79215686
0.98357843 0.79607843 0.78039216
0.032352941 0.9745098 0.78823529
0.24534314 0.98039216 0.79044118
0.53137255 0.98137255 0.79215686
0.76397059 0.9754902 0.79117647
0.98039216 0.97745098 0.7872549
0.02745098 0.0078431373 0.94901961
0.28137255 0.018627451 0.98529412
0.61764706 0.0078431373 0.99411765
0.91372549 0.018627451 0.97352941
0.99607843 0.015686275 0.98823529
0.048039216 0.21960784 0.98431373
0.24926471 0.21862745 0.98897059
0.58872549 0.22647059 0.98823529
0.9 0.23137255 0.97647059
0.99509804 0.23921569 0.99117647
0.019607843 0.5254902 0.97647059
0.15343137 0.52941176 0.98823529
0.54509804 0.53039216 0.98039216
0.84901961 0.53137255 0.98382353
0.98627451 0.53137255 0.98039216
0.0078431373 0.7754902 0.98039216
0.15882353 0.78112745 0.96936275
0.52794118 0.78431373 0.98039216
0.79828431 0.79044118 0.9872549
0.96862745 0.79509804 0.98431373
0.050980392 0.9372549 0.96470588
0.26470588 0.97843137 0.97843137
0.54117647 0.96666667 0.97254902
0.7872549 0.93823529 0.98039216
0.98039216 0.95294118 0.94509804
