site/assets/luts/natron-haldclut--polaroid-time-zero-expired-cold---71c69846f.cube
# LUTr-Project: LUTr — LUTrepository
# LUTr-Schema-Version: 1
# LUTr-ID: natron-haldclut--polaroid-time-zero-expired-cold---71c69846f
# LUTr-Title: polaroid time zero (expired) cold --
# LUTr-Collection: Natron HaldCLUT
# LUTr-Collection-ID: natron-haldclut-presets
# LUTr-Source: https://github.com/NatronGitHub/clut
# LUTr-Source-File: submissions/natron-haldclut-presets/instant_consumer/polaroid_time_zero_(expired)_cold_--.png
# LUTr-Source-Format: PNG
# LUTr-Source-SHA256: ce43b78880dcf5f9b3c850d6ed0a81043e6e430ff633a21911f7558fe6016456
# LUTr-License: CC-BY-SA-4.0
# LUTr-License-URL: https://github.com/NatronGitHub/clut#license
# LUTr-Tags: creative, film, film-emulation, hald-clut, natron, png, cool, cube
# LUTr-Transform-Class: film-emulation
# LUTr-Input-Color-Space: srgb
# LUTr-Output-Color-Space: srgb
# LUTr-Color-Space-Confidence: assumed-display-referred
# LUTr-Conversion-Method: PNG LUT image decoded at 16-bit and sampled to 25x25x25 3D CUBE
# LUTr-Conversion-Date: 2026-07-27
# LUTr-Conversion-Tool: LUTr scripts/convert-all-to-cube.mjs
# LUTr-Conversion-Grid: 25x25x25
# LUTr-Note: Preserve this metadata and the upstream license notices when redistributing.
TITLE "polaroid time zero (expired) cold --"
LUT_3D_SIZE 5
DOMAIN_MIN 0 0 0
DOMAIN_MAX 1 1 1
0.25882353 0.098039216 0.039215686
0.28921569 0.079411765 0.031372549
0.44901961 0.023529412 0.019607843
0.71372549 0.015686275 0.015686275
0.96470588 0.08627451 0.023529412
0.26862745 0.16862745 0.011764706
0.33333333 0.17745098 0.011764706
0.5127451 0.18529412 0.0088235294
0.75196078 0.17328431 0.0078431373
0.94607843 0.26372549 0.03627451
0.38039216 0.4254902 0.0078431373
0.45294118 0.43676471 0
0.6254902 0.45196078 0.0039215686
0.80490196 0.47647059 0.0039215686
0.94117647 0.51372549 0.0078431373
0.52843137 0.66960784 0.0039215686
0.6002451 0.67352941 0.011764706
0.70686275 0.69656863 0.011764706
0.84901961 0.72132353 0.035294118
0.9372549 0.74411765 0.3245098
0.71764706 0.86666667 0
0.73627451 0.85980392 0.0078431373
0.79803922 0.8627451 0.021568627
0.89509804 0.87745098 0.34803922
0.95294118 0.8745098 0.58039216
0.26960784 0.08627451 0.083333333
0.29142157 0.081617647 0.082598039
0.46862745 0.049019608 0.11519608
0.7497549 0.0039215686 0.13431373
0.95392157 0.11960784 0.17254902
0.2875 0.16936275 0.075735294
0.34564951 0.18376225 0.084129902
0.52389706 0.17647059 0.095098039
0.78180147 0.17647059 0.10404412
0.92720588 0.25196078 0.13921569
0.36470588 0.43333333 0.0049019608
0.44803922 0.44509804 0
0.64117647 0.46323529 0.020833333
0.81139706 0.48112745 0.039215686
0.94411765 0.5127451 0.10882353
0.54387255 0.70882353 0.0039215686
0.59240196 0.69632353 0.0095588235
0.70882353 0.70453431 0.011764706
0.8497549 0.72622549 0.20931373
0.9372549 0.74411765 0.38529412
0.72843137 0.87352941 0.24607843
0.74803922 0.87352941 0.22132353
0.79558824 0.87401961 0.11029412
0.89044118 0.87352941 0.39485294
0.94117647 0.87058824 0.57352941
0.39803922 0.076470588 0.3372549
0.45147059 0.10343137 0.3622549
0.5627451 0.11568627 0.37843137
0.76617647 0.018137255 0.40980392
0.94901961 0.23529412 0.45686275
0.46666667 0.24019608 0.35735294
0.51568627 0.24607843 0.37156863
0.60367647 0.25759804 0.36568627
0.7872549 0.22598039 0.39865196
0.94705882 0.36029412 0.44754902
0.47156863 0.4372549 0.31960784
0.54264706 0.4620098 0.33382353
0.67352941 0.48970588 0.3622549
0.82156863 0.49632353 0.35980392
0.93137255 0.54313725 0.40588235
0.57205882 0.69705882 0.34117647
0.62365196 0.70490196 0.35625
0.71862745 0.7127451 0.31446078
0.84301471 0.73553922 0.46213235
0.92156863 0.74852941 0.50784314
0.7372549 0.8627451 0.49215686
0.75 0.86127451 0.48480392
0.79411765 0.86078431 0.44607843
0.87254902 0.85392157 0.49068627
0.95098039 0.87843137 0.67647059
0.65392157 0.2627451 0.68627451
0.66470588 0.24877451 0.68921569
0.72156863 0.31421569 0.69705882
0.79901961 0.38235294 0.67352941
0.92156863 0.37058824 0.68921569
0.69607843 0.40808824 0.68529412
0.71452206 0.41960784 0.68609069
0.75196078 0.45698529 0.69019608
0.81691176 0.47867647 0.68210784
0.91078431 0.46568627 0.69779412
0.70539216 0.56862745 0.65882353
0.7435049 0.59031863 0.66862745
0.79044118 0.62892157 0.67647059
0.83284314 0.63333333 0.67843137
0.91813725 0.59901961 0.7
0.70784314 0.72058824 0.64215686
0.72647059 0.72058824 0.63903186
0.77156863 0.73235294 0.64767157
0.8372549 0.74258578 0.65882353
0.89803922 0.74803922 0.67083333
0.76176471 0.85490196 0.68137255
0.76789216 0.85171569 0.67671569
0.79460784 0.86372549 0.68627451
0.8627451 0.87328431 0.6745098
0.93039216 0.86764706 0.75392157
0.80392157 0.58823529 0.8627451
0.80882353 0.59313725 0.85980392
0.8254902 0.62352941 0.86078431
0.85196078 0.65196078 0.85784314
0.88235294 0.67843137 0.85882353
0.81568627 0.64215686 0.85098039
0.81887255 0.64828431 0.8502451
0.83823529 0.6745098 0.86029412
0.85588235 0.68946078 0.85980392
0.88235294 0.70196078 0.85490196
0.83921569 0.7372549 0.85294118
0.84558824 0.74166667 0.85196078
0.85 0.73921569 0.84509804
0.86372549 0.74656863 0.84313725
0.89215686 0.75294118 0.84705882
0.82254902 0.78529412 0.8372549
0.8372549 0.79215686 0.84607843
0.85882353 0.8004902 0.8495098
0.88333333 0.80980392 0.83504902
0.90980392 0.82352941 0.85490196
0.82745098 0.87058824 0.85882353
0.83529412 0.87058824 0.8627451
0.85294118 0.87254902 0.8627451
0.89117647 0.87941176 0.8754902
0.91372549 0.88235294 0.86666667
