site/assets/luts/natron-haldclut--polaroid-time-zero-expired-cold---8388280cf.cube
# LUTr-Project: LUTr — LUTrepository
# LUTr-Schema-Version: 1
# LUTr-ID: natron-haldclut--polaroid-time-zero-expired-cold---8388280cf
# LUTr-Title: polaroid time zero (expired) cold -
# LUTr-Collection: Natron HaldCLUT
# LUTr-Collection-ID: natron-haldclut-presets
# LUTr-Source: https://github.com/NatronGitHub/clut
# LUTr-Source-File: submissions/natron-haldclut-presets/instant_consumer/polaroid_time_zero_(expired)_cold_-.png
# LUTr-Source-Format: PNG
# LUTr-Source-SHA256: 18bda8d78c492af331f7e574fb30f0856f7f2c3db10b36701841adc9814bf835
# LUTr-License: CC-BY-SA-4.0
# LUTr-License-URL: https://github.com/NatronGitHub/clut#license
# LUTr-Tags: creative, film, film-emulation, hald-clut, natron, png, cool, cube
# LUTr-Transform-Class: film-emulation
# LUTr-Input-Color-Space: srgb
# LUTr-Output-Color-Space: srgb
# LUTr-Color-Space-Confidence: assumed-display-referred
# LUTr-Conversion-Method: PNG LUT image decoded at 16-bit and sampled to 25x25x25 3D CUBE
# LUTr-Conversion-Date: 2026-07-27
# LUTr-Conversion-Tool: LUTr scripts/convert-all-to-cube.mjs
# LUTr-Conversion-Grid: 25x25x25
# LUTr-Note: Preserve this metadata and the upstream license notices when redistributing.
TITLE "polaroid time zero (expired) cold -"
LUT_3D_SIZE 5
DOMAIN_MIN 0 0 0
DOMAIN_MAX 1 1 1
0.38431373 0.18823529 0.074509804
0.42647059 0.18039216 0.078431373
0.55882353 0.16862745 0.068627451
0.73921569 0.22352941 0.094117647
0.92156863 0.28235294 0.1254902
0.41078431 0.28039216 0.03627451
0.45980392 0.27083333 0.03627451
0.58578431 0.27647059 0.051470588
0.75588235 0.3125 0.079411765
0.90686275 0.3627451 0.11862745
0.47647059 0.46862745 0.0019607843
0.53970588 0.47647059 0.0039215686
0.64901961 0.48235294 0.02254902
0.78431373 0.5004902 0.05
0.89803922 0.52352941 0.023529412
0.59803922 0.66568627 0.0078431373
0.6245098 0.67352941 0.0049019608
0.71862745 0.67598039 0.0014705882
0.83259804 0.70098039 0.059558824
0.92647059 0.72058824 0.26666667
0.70980392 0.82745098 0
0.72843137 0.8245098 0.010784314
0.78039216 0.80980392 0.0039215686
0.8872549 0.83921569 0.2127451
0.94901961 0.84313725 0.42352941
0.40392157 0.17745098 0.13627451
0.44191176 0.18823529 0.14705882
0.57647059 0.21176471 0.17598039
0.74803922 0.25784314 0.18921569
0.92254902 0.30882353 0.20882353
0.43235294 0.27156863 0.13823529
0.4807598 0.2872549 0.14313725
0.60330882 0.30379902 0.15882353
0.75974265 0.32389706 0.16691176
0.90490196 0.37034314 0.19730392
0.49901961 0.47254902 0.08872549
0.54203431 0.48039216 0.07254902
0.66029412 0.48921569 0.13529412
0.78823529 0.50637255 0.15637255
0.90539216 0.53137255 0.15588235
0.57769608 0.67426471 0.0039215686
0.62040441 0.68137255 0.015257353
0.71470588 0.68529412 0.0042892157
0.83431373 0.70753676 0.18253676
0.92941176 0.72058824 0.31960784
0.72941176 0.83921569 0.14901961
0.74411765 0.84215686 0.10931373
0.79803922 0.83921569 0.035784314
0.89117647 0.84142157 0.28112745
0.96078431 0.84705882 0.51078431
0.5254902 0.23137255 0.34509804
0.55196078 0.24852941 0.35196078
0.62941176 0.27843137 0.35392157
0.76519608 0.29607843 0.36911765
0.91176471 0.35882353 0.39803922
0.56813725 0.33382353 0.34362745
0.58676471 0.34460784 0.34313725
0.64803922 0.36421569 0.34583333
0.77659314 0.37058824 0.35784314
0.92156863 0.40833333 0.39607843
0.57352941 0.47352941 0.30392157
0.60686275 0.49583333 0.31642157
0.69068627 0.5127451 0.32794118
0.79681373 0.51397059 0.3375
0.92843137 0.54509804 0.35784314
0.61470588 0.67745098 0.29460784
0.63517157 0.68137255 0.29840686
0.71470588 0.68995098 0.27696078
0.83357843 0.71066176 0.36629902
0.93235294 0.7245098 0.40392157
0.7254902 0.82745098 0.3627451
0.74901961 0.84068627 0.36764706
0.79607843 0.8372549 0.33137255
0.87843137 0.83333333 0.39901961
0.94901961 0.83921569 0.56078431
0.68529412 0.35980392 0.59117647
0.70073529 0.37867647 0.58897059
0.74117647 0.40343137 0.60588235
0.81470588 0.43112745 0.59681373
0.91470588 0.42254902 0.59117647
0.71862745 0.45882353 0.59215686
0.7341299 0.46979167 0.59454657
0.76409314 0.49056373 0.60073529
0.81764706 0.49883578 0.58314951
0.92230392 0.48357843 0.60759804
0.71666667 0.56862745 0.57156863
0.75098039 0.58284314 0.57242647
0.79289216 0.61862745 0.57720588
0.8372549 0.62254902 0.58039216
0.91568627 0.59313725 0.59019608
0.70784314 0.70490196 0.53651961
0.71960784 0.69969363 0.53259804
0.77328431 0.7127451 0.54313725
0.853125 0.73333333 0.55998775
0.92622549 0.72745098 0.56470588
0.76960784 0.83137255 0.56372549
0.77745098 0.82671569 0.55980392
0.8122549 0.83137255 0.56470588
0.87156863 0.83235294 0.56397059
0.95196078 0.85 0.66666667
0.81960784 0.58431373 0.75686275
0.82352941 0.5872549 0.75980392
0.84313725 0.60784314 0.75294118
0.87058824 0.64215686 0.76666667
0.88627451 0.64705882 0.75294118
0.83529412 0.64901961 0.74901961
0.83823529 0.64215686 0.74901961
0.85098039 0.65735294 0.75294118
0.8754902 0.67843137 0.75710784
0.90196078 0.68529412 0.75196078
0.85490196 0.71176471 0.74509804
0.86078431 0.72205882 0.74558824
0.87156863 0.73235294 0.74901961
0.88627451 0.74362745 0.75343137
0.90196078 0.73921569 0.74509804
0.84215686 0.77352941 0.73235294
0.86176471 0.77352941 0.74509804
0.87205882 0.78431373 0.7372549
0.90612745 0.80392157 0.76078431
0.92647059 0.80588235 0.76568627
0.85882353 0.84313725 0.76078431
0.85392157 0.81176471 0.74509804
0.87254902 0.8372549 0.75490196
0.90588235 0.84411765 0.76568627
0.94509804 0.85490196 0.78039216
