site/assets/luts/natron-haldclut--kodak-portra-400-vc---057ab3e58.cube
# LUTr-Project: LUTr — LUTrepository
# LUTr-Schema-Version: 1
# LUTr-ID: natron-haldclut--kodak-portra-400-vc---057ab3e58
# LUTr-Title: kodak portra 400 vc -
# LUTr-Collection: Natron HaldCLUT
# LUTr-Collection-ID: natron-haldclut-presets
# LUTr-Source: https://github.com/NatronGitHub/clut
# LUTr-Source-File: submissions/natron-haldclut-presets/negative_old/kodak_portra_400_vc_-.png
# LUTr-Source-Format: PNG
# LUTr-Source-SHA256: c50908cbe6d457459c00091ee50c8479a853161d7641ee91fd333f8dab2c71e7
# LUTr-License: CC-BY-SA-4.0
# LUTr-License-URL: https://github.com/NatronGitHub/clut#license
# LUTr-Tags: creative, film, film-emulation, hald-clut, natron, png, cube
# LUTr-Transform-Class: film-emulation
# LUTr-Input-Color-Space: srgb
# LUTr-Output-Color-Space: srgb
# LUTr-Color-Space-Confidence: assumed-display-referred
# LUTr-Conversion-Method: PNG LUT image decoded at 16-bit and sampled to 25x25x25 3D CUBE
# LUTr-Conversion-Date: 2026-07-27
# LUTr-Conversion-Tool: LUTr scripts/convert-all-to-cube.mjs
# LUTr-Conversion-Grid: 25x25x25
# LUTr-Note: Preserve this metadata and the upstream license notices when redistributing.
TITLE "kodak portra 400 vc -"
LUT_3D_SIZE 5
DOMAIN_MIN 0 0 0
DOMAIN_MAX 1 1 1
0.0039215686 0.019607843 0.0078431373
0.1872549 0.011764706 0.02745098
0.53529412 0.0098039216 0
0.80294118 0.045098039 0
1 0.17647059 0
0 0.19509804 0.040196078
0.15098039 0.24019608 0.0098039216
0.59019608 0.24901961 0.006372549
0.82647059 0.24803922 0.0029411765
0.99901961 0.29803922 0
0 0.49411765 0.20588235
0.0068627451 0.49803922 0.21421569
0.51862745 0.55294118 0.15294118
0.81960784 0.54607843 0.011764706
0.98823529 0.5 0
0.11176471 0.71666667 0.37254902
0.27181373 0.71372549 0.38333333
0.45882353 0.72696078 0.37352941
0.7252451 0.75980392 0.31348039
0.97156863 0.77352941 0.21078431
0.57254902 0.91372549 0.65882353
0.60686275 0.91764706 0.66666667
0.66666667 0.91568627 0.67647059
0.77058824 0.93039216 0.65882353
0.89019608 0.95686275 0.64705882
0.0039215686 0.026470588 0.24607843
0.20612745 0.017401961 0.24534314
0.54852941 0.016176471 0.21862745
0.78823529 0.1122549 0.18553922
0.98823529 0.19509804 0.13823529
0.0039215686 0.26397059 0.27745098
0.22279412 0.27181373 0.27665441
0.5872549 0.26862745 0.24276961
0.81004902 0.27022059 0.19178922
0.98529412 0.30980392 0.13063725
0.093137255 0.53627451 0.35784314
0.24681373 0.53039216 0.36127451
0.54142157 0.55686275 0.32205882
0.82205882 0.53529412 0.20980392
0.98235294 0.51470588 0.13137255
0.275 0.72843137 0.4627451
0.36145833 0.72352941 0.45790441
0.50392157 0.72683824 0.45428922
0.73547794 0.76372549 0.4192402
0.98063725 0.78431373 0.35367647
0.60294118 0.91764706 0.68921569
0.6254902 0.92058824 0.69289216
0.68333333 0.91764706 0.70098039
0.78235294 0.93039216 0.68627451
0.90294118 0.92647059 0.62156863
0 0.084313725 0.5372549
0.14852941 0.13235294 0.53627451
0.56862745 0.098039216 0.54215686
0.825 0.14852941 0.48921569
0.99411765 0.092156863 0.40980392
0.0039215686 0.29901961 0.54509804
0.19705882 0.31286765 0.56078431
0.58970588 0.34142157 0.5622549
0.82254902 0.33026961 0.50085784
0.97696078 0.29558824 0.43088235
0.15392157 0.57352941 0.56862745
0.36568627 0.57254902 0.57352941
0.59362745 0.57843137 0.57990196
0.80490196 0.54240196 0.525
0.97254902 0.53627451 0.46568627
0.47745098 0.76127451 0.63676471
0.52647059 0.75735294 0.63688725
0.59877451 0.7497549 0.62696078
0.76176471 0.76470588 0.60330882
0.975 0.77254902 0.55490196
0.64117647 0.92156863 0.74901961
0.65588235 0.92156863 0.75098039
0.70980392 0.9254902 0.75490196
0.79362745 0.92254902 0.74509804
0.9372549 0.92352941 0.69607843
0.0088235294 0.21862745 0.77156863
0.19926471 0.22965686 0.78333333
0.56372549 0.27401961 0.77990196
0.82156863 0.34019608 0.76764706
0.95588235 0.38529412 0.7372549
0.014460784 0.36176471 0.77941176
0.26488971 0.37506127 0.77941176
0.58394608 0.40441176 0.77941176
0.81470588 0.43602941 0.77714461
0.97083333 0.48823529 0.74485294
0.092647059 0.56764706 0.75980392
0.33284314 0.5745098 0.76764706
0.58455882 0.58676471 0.7754902
0.79509804 0.61433824 0.78333333
0.96911765 0.6245098 0.75343137
0.46004902 0.77843137 0.78014706
0.49528186 0.77156863 0.78314951
0.62879902 0.77156863 0.7872549
0.79957108 0.77628676 0.7872549
0.95269608 0.7620098 0.75269608
0.6745098 0.94117647 0.84803922
0.69803922 0.94117647 0.8497549
0.75588235 0.94607843 0.85098039
0.82647059 0.94215686 0.84901961
0.95784314 0.97352941 0.84509804
0.36078431 0.43529412 0.94117647
0.48431373 0.46666667 0.95686275
0.65098039 0.49019608 0.94509804
0.8254902 0.54215686 0.94117647
0.99607843 0.60784314 0.95294118
0.43137255 0.52352941 0.95784314
0.48823529 0.52352941 0.94901961
0.65294118 0.5495098 0.94509804
0.82647059 0.59534314 0.93823529
0.98529412 0.63235294 0.94607843
0.47058824 0.66470588 0.95098039
0.52156863 0.66078431 0.9504902
0.64509804 0.65294118 0.93431373
0.82254902 0.69068627 0.94117647
0.96078431 0.7 0.91372549
0.45392157 0.79901961 0.92156863
0.48823529 0.7875 0.91470588
0.61372549 0.80637255 0.95588235
0.80294118 0.79509804 0.92352941
0.98431373 0.83333333 0.96372549
0.64313725 0.98039216 0.97647059
0.65784314 0.96372549 0.96372549
0.7254902 0.97058824 0.97058824
0.85294118 0.96078431 0.94509804
0.94901961 0.94901961 0.9372549
