site/assets/luts/natron-haldclut--fuji-160c--db6b89e12.cube
# LUTr-Project: LUTr — LUTrepository
# LUTr-Schema-Version: 1
# LUTr-ID: natron-haldclut--fuji-160c--db6b89e12
# LUTr-Title: fuji 160c ++
# LUTr-Collection: Natron HaldCLUT
# LUTr-Collection-ID: natron-haldclut-presets
# LUTr-Source: https://github.com/NatronGitHub/clut
# LUTr-Source-File: submissions/natron-haldclut-presets/negative_new/fuji_160c_++.png
# LUTr-Source-Format: PNG
# LUTr-Source-SHA256: 750230a6bad7433148dc63d0c062d9409db9bd426d6d0d5f5608721ee28dfcff
# LUTr-License: CC-BY-SA-4.0
# LUTr-License-URL: https://github.com/NatronGitHub/clut#license
# LUTr-Tags: creative, film, film-emulation, hald-clut, natron, png, cube
# LUTr-Transform-Class: film-emulation
# LUTr-Input-Color-Space: srgb
# LUTr-Output-Color-Space: srgb
# LUTr-Color-Space-Confidence: assumed-display-referred
# LUTr-Conversion-Method: PNG LUT image decoded at 16-bit and sampled to 25x25x25 3D CUBE
# LUTr-Conversion-Date: 2026-07-27
# LUTr-Conversion-Tool: LUTr scripts/convert-all-to-cube.mjs
# LUTr-Conversion-Grid: 25x25x25
# LUTr-Note: Preserve this metadata and the upstream license notices when redistributing.
TITLE "fuji 160c ++"
LUT_3D_SIZE 25
DOMAIN_MIN 0 0 0
DOMAIN_MAX 1 1 1
0.062745098 0.070588235 0.054901961
0.079411765 0.074509804 0.06127451
0.1 0.078431373 0.067647059
0.1245098 0.078431373 0.070588235
0.15490196 0.076470588 0.064705882
0.18578431 0.074019608 0.053921569
0.22058824 0.067647059 0.040196078
0.27009804 0.072058824 0.043137255
0.31764706 0.078431373 0.047058824
0.36911765 0.078921569 0.047058824
0.4245098 0.055882353 0.043137255
0.47941176 0.032352941 0.039705882
0.53137255 0.021568627 0.039215686
0.58284314 0.019607843 0.039215686
0.6372549 0.012745098 0.03627451
0.68431373 0.013235294 0.036764706
0.72941176 0.015686275 0.039215686
0.7745098 0.0078431373 0.032843137
0.81372549 0.023529412 0.031372549
0.84166667 0.064705882 0.03872549
0.87254902 0.10588235 0.045098039
0.90343137 0.14313725 0.046568627
0.93823529 0.18039216 0.043137255
0.96862745 0.20931373 0.040686275
0.96862745 0.21176471 0.043137255
0.058823529 0.093627451 0.054901961
0.073039216 0.094546569 0.058823529
0.093627451 0.095710784 0.064828431
0.11764706 0.095098039 0.067953431
0.14852941 0.095098039 0.060784314
0.17971814 0.091176471 0.050796569
0.21960784 0.091176471 0.049509804
0.26862745 0.087254902 0.044669118
0.31764706 0.092647059 0.044607843
0.36911765 0.087745098 0.046139706
0.4245098 0.063235294 0.045588235
0.47971814 0.041176471 0.039705882
0.53137255 0.030882353 0.039215686
0.58547794 0.030943627 0.052696078
0.63823529 0.012745098 0.034068627
0.68823529 0.012683824 0.034313725
0.72941176 0.020588235 0.039215686
0.77359069 0.030392157 0.032843137
0.81188725 0.049877451 0.02745098
0.84166667 0.084129902 0.032659314
0.87254902 0.12573529 0.036764706
0.90343137 0.16354167 0.039215686
0.93541667 0.20098039 0.042156863
0.96464461 0.22745098 0.048590686
0.97254902 0.23235294 0.047058824
0.058823529 0.11960784 0.054901961
0.064215686 0.11960784 0.056740196
0.079411765 0.11960784 0.057843137
0.10379902 0.11960784 0.057843137
0.13872549 0.11568627 0.054901961
0.17843137 0.11666667 0.056372549
0.22279412 0.11593137 0.056862745
0.27009804 0.11029412 0.049509804
0.31764706 0.10392157 0.039215686
0.37156863 0.09754902 0.042769608
0.4254902 0.086029412 0.045343137
0.47990196 0.07879902 0.039583333
0.53529412 0.068627451 0.035294118
0.58676471 0.054411765 0.035171569
0.64142157 0.038970588 0.031372549
0.68676471 0.04375 0.031372549
0.7254902 0.06372549 0.035294118
0.7685049 0.084313725 0.035294118
0.80759804 0.10098039 0.032352941
0.84166667 0.12414216 0.033578431
0.87254902 0.15392157 0.030392157
0.90343137 0.18909314 0.031372549
0.93137255 0.22254902 0.045098039
0.96127451 0.24742647 0.050980392
0.97745098 0.25784314 0.05
0.055392157 0.14362745 0.050980392
0.058823529 0.14148284 0.050980392
0.065563725 0.14019608 0.051102941
0.093137255 0.14019608 0.051041667
0.13333333 0.14019608 0.052941176
0.17843137 0.14362745 0.063235294
0.22352941 0.14068627 0.059803922
0.27009804 0.13578431 0.049509804
0.31764706 0.12794118 0.039215686
0.37156863 0.12530637 0.03560049
0.4254902 0.12267157 0.035784314
0.48333333 0.11660539 0.035784314
0.53529412 0.10980392 0.031862745
0.5872549 0.099938725 0.031372549
0.64215686 0.099019608 0.031372549
0.6846201 0.10226716 0.031372549
0.7254902 0.11862745 0.035294118
0.76666667 0.13578431 0.035294118
0.80392157 0.15159314 0.035294118
0.84117647 0.1661152 0.032291667
0.87598039 0.18480392 0.021813725
0.90343137 0.21617647 0.021078431
0.93137255 0.24669118 0.045098039
0.96127451 0.26862745 0.050980392
0.9877451 0.28480392 0.047058824
0.049019608 0.17058824 0.050980392
0.051470588 0.16666667 0.047794118
0.053921569 0.1622549 0.042647059
0.08627451 0.16617647 0.044852941
0.12745098 0.17156863 0.049019608
0.17254902 0.1747549 0.050980392
0.21666667 0.17647059 0.049509804
0.26348039 0.17377451 0.039705882
0.31372549 0.16862745 0.033333333
0.37156863 0.16617647 0.030147059
0.4254902 0.16029412 0.026960784
0.47990196 0.15514706 0.025490196
0.53529412 0.15196078 0.024509804
0.59068627 0.15490196 0.027696078
0.63823529 0.15490196 0.029411765
0.68431373 0.15637255 0.031372549
0.7254902 0.1745098 0.031372549
0.76544118 0.1879902 0.037745098
0.80294118 0.1995098 0.03627451
0.8377451 0.21127451 0.025980392
0.87647059 0.22156863 0.010784314
0.90735294 0.24240196 0.015196078
0.93431373 0.26813725 0.039215686
0.96519608 0.29117647 0.047058824
0.99411765 0.30980392 0.039215686
0.025980392 0.20588235 0.067156863
0.032843137 0.20324755 0.05814951
0.039705882 0.20196078 0.04620098
0.063296569 0.20238971 0.043137255
0.1125 0.20784314 0.043137255
0.16182598 0.20974265 0.03872549
0.20723039 0.20931373 0.034803922
0.25410539 0.20931373 0.030882353
0.31372549 0.20931373 0.02745098
0.36911765 0.20588235 0.024816176
0.42536765 0.20110294 0.019485294
0.47990196 0.19803922 0.015686275
0.53504902 0.2002451 0.021323529
0.58676471 0.20588235 0.023529412
0.63823529 0.20625 0.027328431
0.68431373 0.20784314 0.026960784
0.725 0.22156863 0.02745098
0.76243873 0.23186275 0.030882353
0.79865196 0.24215686 0.026102941
0.83682598 0.25245098 0.019607843
0.87205882 0.2627451 0.006127451
0.90294118 0.27352941 0.0088235294
0.93125 0.29754902 0.032843137
0.96078431 0.32028186 0.042647059
0.98431373 0.33480392 0.039215686
0.0088235294 0.24411765 0.071568627
0.019117647 0.24607843 0.060294118
0.028676471 0.24632353 0.050735294
0.040196078 0.24705882 0.047058824
0.080392157 0.24754902 0.042647059
0.13223039 0.24705882 0.035294118
0.18627451 0.24411765 0.028431373
0.24901961 0.24644608 0.022426471
0.30980392 0.25 0.020588235
0.36801471 0.25098039 0.016666667
0.4245098 0.24681373 0.012745098
0.47683824 0.24607843 0.015686275
0.53137255 0.24656863 0.019607843
0.58382353 0.25098039 0.023529412
0.63431373 0.25318627 0.023529412
0.68137255 0.25637255 0.022426471
0.72156863 0.26568627 0.020588235
0.75698529 0.27598039 0.020588235
0.79534314 0.28333333 0.020343137
0.82953431 0.29362745 0.013235294
0.86323529 0.30392157 0.0078431373
0.89656863 0.31433824 0.012254902
0.92671569 0.32916667 0.023284314
0.95735294 0.34791667 0.035294118
0.98039216 0.36176471 0.03627451
0.0078431373 0.28578431 0.065196078
0.010294118 0.28823529 0.060294118
0.012745098 0.28823529 0.053921569
0.016176471 0.28694853 0.04754902
0.043137255 0.2875 0.043137255
0.10018382 0.28823529 0.034803922
0.16372549 0.28933824 0.028431373
0.23088235 0.29215686 0.021139706
0.3004902 0.29607843 0.014215686
0.36072304 0.29754902 0.0069240196
0.41727941 0.29754902 0.0067401961
0.471875 0.29362745 0.011580882
0.52671569 0.29362745 0.018872549
0.58106618 0.29607843 0.021752451
0.63039216 0.29938725 0.019607843
0.67647059 0.30447304 0.018137255
0.71617647 0.31176471 0.015686275
0.75398284 0.32052696 0.015686275
0.78970588 0.32781863 0.013235294
0.82420343 0.33480392 0.010294118
0.85808824 0.34509804 0.006372549
0.89019608 0.35539216 0.012254902
0.92218137 0.36568627 0.019240196
0.95343137 0.37898284 0.026531863
0.98039216 0.39264706 0.029901961
0.0078431373 0.32941176 0.058823529
0.0053921569 0.32941176 0.054901961
0.0039215686 0.32941176 0.050980392
0 0.3254902 0.047058824
0.011764706 0.3254902 0.041176471
0.074019608 0.32941176 0.034803922
0.14215686 0.33333333 0.02745098
0.21029412 0.3372549 0.019607843
0.27843137 0.3372549 0.011764706
0.34411765 0.34362745 0.0039215686
0.40980392 0.34509804 0.0049019608
0.46421569 0.34166667 0.011764706
0.51960784 0.34117647 0.015686275
0.575 0.34068627 0.015196078
0.63039216 0.34117647 0.011764706
0.67254902 0.34656863 0.0078431373
0.70980392 0.35686275 0.011764706
0.74852941 0.36470588 0.011764706
0.78431373 0.37254902 0.0068627451
0.81813725 0.37647059 0.0039215686
0.85294118 0.38235294 0.0019607843
0.88382353 0.39264706 0.0083333333
0.91470588 0.40294118 0.018627451
0.9495098 0.41323529 0.021078431
0.97647059 0.42352941 0.023529412
0.0053921569 0.37058824 0.048529412
0.0039215686 0.37058824 0.044607843
0.0029411765 0.37058824 0.040686275
0 0.37058824 0.036764706
0.0098039216 0.36985294 0.036029412
0.052941176 0.37322304 0.028737745
0.11862745 0.3745098 0.022058824
0.18823529 0.37843137 0.015686275
0.25539216 0.38235294 0.0078431373
0.32598039 0.38480392 0.0072916667
0.39595588 0.3872549 0.015196078
0.45753676 0.39234069 0.024203431
0.51446078 0.39142157 0.025980392
0.56862745 0.38578431 0.017340686
0.62365196 0.38235294 0.0049019608
0.66617647 0.3911152 0.0039215686
0.70588235 0.39803922 0.0078431373
0.74368873 0.40833333 0.0078431373
0.77977941 0.41433824 0.0078431373
0.81764706 0.41979167 0.006372549
0.84901961 0.42230392 0.006372549
0.87745098 0.42745098 0.0083333333
0.90833333 0.4377451 0.015073529
0.93921569 0.44803922 0.017156863
0.96617647 0.45441176 0.017156863
0.0039215686 0.4127451 0.034313725
0.0039215686 0.4127451 0.031495098
0.0039215686 0.4127451 0.030392157
0.0047794118 0.4127451 0.030392157
0.011764706 0.41568627 0.026960784
0.035294118 0.41568627 0.026102941
0.098039216 0.41568627 0.015686275
0.16580882 0.4189951 0.0093137255
0.2372549 0.42352941 0.0078431373
0.30992647 0.42536765 0.011764706
0.38137255 0.42843137 0.020588235
0.44607843 0.43394608 0.03125
0.50441176 0.43284314 0.029901961
0.55833333 0.42745098 0.018627451
0.61372549 0.42745098 0.0019607843
0.65588235 0.43382353 0.0042892157
0.69705882 0.44313725 0.0078431373
0.73823529 0.44987745 0.010661765
0.77647059 0.45588235 0.012745098
0.81323529 0.46139706 0.012745098
0.84411765 0.4622549 0.011764706
0.87463235 0.46666667 0.011764706
0.90294118 0.47279412 0.0088235294
0.93676471 0.47953431 0.0078431373
0.96078431 0.48627451 0.0068627451
0.0039215686 0.45686275 0.020098039
0.0039215686 0.45686275 0.016666667
0.0049019608 0.45686275 0.020098039
0.0078431373 0.45686275 0.020098039
0.011764706 0.45686275 0.019852941
0.012438725 0.45686275 0.015686275
0.056985294 0.45943627 0.017156863
0.14852941 0.45704657 0.0017769608
0.22009804 0.46078431 0.0078431373
0.29607843 0.46470588 0.0083333333
0.36727941 0.46519608 0.013235294
0.42898284 0.46519608 0.023529412
0.4872549 0.46887255 0.024264706
0.54803922 0.47248775 0.018627451
0.60343137 0.47242647 0.00098039216
0.64932598 0.48008578 0.0039215686
0.68676471 0.4877451 0.0078431373
0.73008578 0.49215686 0.011764706
0.77254902 0.49705882 0.015686275
0.80686275 0.5 0.016115196
0.8375 0.5 0.015686275
0.86819853 0.50398284 0.014767157
0.8995098 0.51078431 0.011764706
0.93382353 0.5158701 0.006372549
0.95735294 0.52009804 0.0034313725
0 0.50392157 0.0058823529
0.0039215686 0.50196078 0.0090686275
0.0058823529 0.49803922 0.015686275
0.0078431373 0.49803922 0.015686275
0.0078431373 0.49803922 0.015686275
0.0056372549 0.49779412 0.01127451
0.0049019608 0.49411765 0.0024509804
0.10637255 0.49926471 0.011029412
0.20392157 0.49803922 0.0039215686
0.28308824 0.50122549 0.0026960784
0.35294118 0.50196078 0.0058823529
0.41470588 0.50196078 0.011519608
0.47647059 0.50490196 0.01372549
0.5377451 0.51029412 0.01127451
0.59607843 0.51666667 0.00098039216
0.63921569 0.52156863 0.0053921569
0.68039216 0.52745098 0.0078431373
0.72156863 0.53333333 0.011764706
0.7622549 0.5372549 0.014215686
0.79656863 0.5372549 0.015686275
0.83039216 0.5372549 0.015686275
0.8622549 0.53946078 0.015686275
0.89313725 0.54460784 0.011764706
0.92401961 0.54779412 0.0090686275
0.94313725 0.55098039 0.0078431373
0 0.54313725 0.0044117647
0.0024509804 0.54050245 0.010477941
0.0039215686 0.53872549 0.015686275
0.0039215686 0.53872549 0.015686275
0.0039215686 0.53529412 0.015686275
0.0039215686 0.53529412 0.01127451
0.006495098 0.53529412 0.0049019608
0.082352941 0.53529412 0.0039215686
0.17941176 0.53529412 0.0044117647
0.27009804 0.53872549 0.0056985294
0.34656863 0.53872549 0.0052696078
0.40490196 0.53915441 0.01127451
0.46617647 0.54093137 0.015686275
0.52401961 0.5466299 0.011703431
0.58284314 0.55343137 0.0078431373
0.6286152 0.55833333 0.009620098
0.67009804 0.56617647 0.011764706
0.71127451 0.57224265 0.0083333333
0.75110294 0.57401961 0.011764706
0.78627451 0.57401961 0.014767157
0.82107843 0.57401961 0.015686275
0.85588235 0.57493873 0.015196078
0.88676471 0.57794118 0.015196078
0.91243873 0.57971814 0.011764706
0.93284314 0.58235294 0.011764706
0 0.58039216 0.0078431373
0.0024509804 0.57855392 0.014215686
0.0039215686 0.57647059 0.019607843
0.0039215686 0.57389706 0.016176471
0.0039215686 0.57647059 0.015686275
0.0039215686 0.57610294 0.01127451
0 0.57352941 0.0046568627
0.056985294 0.57291667 0.0044117647
0.1627451 0.57352941 0.010784314
0.2564951 0.57352941 0.011764706
0.3370098 0.57352941 0.0078431373
0.39840686 0.57647059 0.01127451
0.45735294 0.57745098 0.014215686
0.51372549 0.58088235 0.01127451
0.56862745 0.5875 0.0078431373
0.61470588 0.59068627 0.011764706
0.65686275 0.59313725 0.011764706
0.69803922 0.59987745 0.0078431373
0.73823529 0.60269608 0.0095588235
0.77941176 0.60784314 0.011764706
0.8122549 0.60882353 0.011764706
0.84595588 0.61188725 0.011764706
0.87720588 0.6127451 0.011764706
0.90698529 0.61605392 0.010661765
0.9254902 0.61960784 0.0078431373
0 0.61764706 0.0078431373
0.0015318627 0.61764706 0.015134804
0.0039215686 0.61372549 0.029289216
0.0039215686 0.61372549 0.023345588
0.0024509804 0.61372549 0.011029412
0.0042279412 0.61372549 0.010477941
0.0098039216 0.61372549 0.01875
0.071078431 0.61317402 0.027941176
0.16372549 0.6122549 0.027941176
0.24761029 0.61372549 0.020098039
0.32696078 0.61335784 0.0089460784
0.39344363 0.61354167 0.0076593137
0.44754902 0.61495098 0.010294118
0.50294118 0.61636029 0.0060661765
0.55330882 0.62009804 0.0057598039
0.6004902 0.62009804 0.011764706
0.64558824 0.62401961 0.0078431373
0.68676471 0.62738971 0.0039215686
0.72794118 0.63284314 0.0078431373
0.76911765 0.64099265 0.0078431373
0.80514706 0.64436275 0.0078431373
0.84068627 0.64754902 0.0076593137
0.87046569 0.64865196 0.006372549
0.89650735 0.65202206 0.0083946078
0.91323529 0.65539216 0.010784314
0 0.65490196 0.0039215686
0 0.65490196 0.024509804
0.0039215686 0.65098039 0.048039216
0.00049019608 0.65098039 0.040196078
0 0.65490196 0.017647059
0.0044117647 0.65490196 0.01372549
0.017647059 0.65490196 0.048039216
0.093137255 0.65098039 0.056372549
0.18823529 0.64705882 0.054901961
0.26029412 0.64705882 0.044607843
0.32843137 0.64705882 0.029411765
0.38970588 0.64705882 0.026960784
0.44509804 0.65098039 0.029411765
0.49656863 0.65098039 0.023039216
0.54411765 0.65098039 0.019607843
0.5877451 0.65098039 0.018137255
0.63137255 0.65490196 0.011764706
0.67647059 0.65735294 0.0024509804
0.71764706 0.66372549 0.016666667
0.7622549 0.67401961 0.023529412
0.79803922 0.67843137 0.01372549
0.83676471 0.68235294 0.0034313725
0.86176471 0.68235294 0.0029411765
0.87205882 0.68627451 0.018627451
0.88627451 0.68627451 0.031372549
0 0.68970588 0.031862745
0 0.68970588 0.04754902
0.0039215686 0.68578431 0.064705882
0.0026348039 0.68578431 0.062745098
0 0.68578431 0.053431373
0.0017769608 0.68578431 0.051470588
0.030514706 0.68578431 0.070588235
0.12702206 0.68431373 0.085723039
0.21029412 0.68186275 0.088235294
0.27843137 0.68186275 0.080943627
0.3435049 0.68186275 0.072181373
0.39626225 0.68186275 0.072365196
0.44509804 0.68186275 0.082107843
0.49607843 0.68186275 0.065992647
0.54117647 0.68186275 0.061151961
0.58474265 0.68186275 0.059313725
0.62892157 0.68578431 0.055392157
0.67101716 0.68578431 0.049938725
0.70980392 0.69007353 0.053921569
0.75245098 0.69852941 0.064215686
0.78970588 0.70416667 0.054166667
0.82696078 0.70949755 0.047242647
0.85686275 0.71262255 0.05502451
0.87113971 0.71470588 0.067156863
0.88872549 0.71715686 0.078921569
0 0.7245098 0.082352941
0.0039215686 0.72095588 0.085171569
0.0039215686 0.71985294 0.094852941
0.0039215686 0.71666667 0.10098039
0.0039215686 0.71666667 0.095098039
0.0034313725 0.71666667 0.08504902
0.061764706 0.71666667 0.095098039
0.15036765 0.71666667 0.11139706
0.23333333 0.7127451 0.12058824
0.29509804 0.71335784 0.11875
0.35808824 0.71666667 0.11372549
0.40294118 0.71666667 0.11286765
0.45 0.71323529 0.10735294
0.49693627 0.7127451 0.099509804
0.54044118 0.7127451 0.10588235
0.58235294 0.71482843 0.10686275
0.62745098 0.71666667 0.10294118
0.66862745 0.71666667 0.099019608
0.70588235 0.72058824 0.1
0.74607843 0.7245098 0.10637255
0.78186275 0.72990196 0.1122549
0.81666667 0.73541667 0.11470588
0.84877451 0.73995098 0.11764706
0.87990196 0.74497549 0.12892157
0.90392157 0.75196078 0.13529412
0 0.75539216 0.12352941
0.00030637255 0.75294118 0.12745098
0.0030637255 0.75147059 0.12757353
0.0039215686 0.75104167 0.12794118
0.016421569 0.74926471 0.12401961
0.069117647 0.74754902 0.1278799
0.11446078 0.74754902 0.13394608
0.17585784 0.74754902 0.14117647
0.2504902 0.74754902 0.15147059
0.31568627 0.74754902 0.15508578
0.37291667 0.74754902 0.15147059
0.41709559 0.74754902 0.15104167
0.4622549 0.74754902 0.1504902
0.50343137 0.74754902 0.15441176
0.54117647 0.74754902 0.15735294
0.58382353 0.74754902 0.15833333
0.62745098 0.74754902 0.15098039
0.66862745 0.74969363 0.14705882
0.70588235 0.75147059 0.1504902
0.7401348 0.75539216 0.15398284
0.77671569 0.75931373 0.15490196
0.81023284 0.76329657 0.15882353
0.84718137 0.76752451 0.16433824
0.8877451 0.77254902 0.18707108
0.9245098 0.78676471 0.19313725
0 0.78627451 0.16470588
0.0036764706 0.78627451 0.16470588
0.019607843 0.78431373 0.16568627
0.022794118 0.78235294 0.15931373
0.096078431 0.78235294 0.16666667
0.15098039 0.78235294 0.17303922
0.18676471 0.78039216 0.17941176
0.23210784 0.77843137 0.18308824
0.27843137 0.77843137 0.18431373
0.33627451 0.77843137 0.1875
0.38872549 0.77843137 0.18823529
0.43137255 0.77843137 0.19387255
0.47254902 0.78137255 0.2
0.51151961 0.78235294 0.20759804
0.5495098 0.78235294 0.20588235
0.5875 0.78039216 0.20392157
0.62745098 0.78235294 0.19803922
0.66740196 0.78235294 0.19534314
0.70343137 0.78627451 0.19901961
0.73946078 0.78627451 0.20539216
0.77352941 0.78823529 0.20784314
0.80931373 0.79411765 0.2122549
0.84411765 0.79803922 0.21862745
0.88235294 0.80343137 0.23480392
0.91176471 0.81176471 0.24509804
0.075 0.82156863 0.22254902
0.079227941 0.82156863 0.22224265
0.095710784 0.81764706 0.21862745
0.13229167 0.81764706 0.21862745
0.19289216 0.81740196 0.21862745
0.22003676 0.81372549 0.22254902
0.25698529 0.81323529 0.22634804
0.29442402 0.81323529 0.22647059
0.33186275 0.80980392 0.22647059
0.36832108 0.80980392 0.22401961
0.40490196 0.80980392 0.22830882
0.44558824 0.81366422 0.24160539
0.48284314 0.81715686 0.25196078
0.52009804 0.81764706 0.26176471
0.55833333 0.81727941 0.25490196
0.59460784 0.81372549 0.24852941
0.63137255 0.81323529 0.24166667
0.66617647 0.81372549 0.24491422
0.70110294 0.81458333 0.25490196
0.73578431 0.81715686 0.26519608
0.77254902 0.81936275 0.27009804
0.80931373 0.8254902 0.27401961
0.8439951 0.83186275 0.28088235
0.87843137 0.83431373 0.29068627
0.90196078 0.84019608 0.29705882
0.16764706 0.85882353 0.28431373
0.17732843 0.85882353 0.28186275
0.18995098 0.85563725 0.27965686
0.22291667 0.85490196 0.27647059
0.24901961 0.85343137 0.27892157
0.27107843 0.85098039 0.28088235
0.30122549 0.85098039 0.2872549
0.33590686 0.85098039 0.29117647
0.37254902 0.85098039 0.29117647
0.40379902 0.85098039 0.28933824
0.43063725 0.84730392 0.28921569
0.4627451 0.85061275 0.2995098
0.49656863 0.85343137 0.31078431
0.53382353 0.85490196 0.31960784
0.56862745 0.85490196 0.31666667
0.60490196 0.85159314 0.31029412
0.63823529 0.84117647 0.29313725
0.67193627 0.8504902 0.30772059
0.70784314 0.85490196 0.32352941
0.74227941 0.85490196 0.33125
0.7745098 0.85588235 0.33676471
0.80931373 0.86017157 0.34227941
0.84093137 0.86593137 0.34901961
0.875 0.87058824 0.35539216
0.89803922 0.87058824 0.35784314
0.25637255 0.89607843 0.34068627
0.26519608 0.89515931 0.33915441
0.27340686 0.89215686 0.33823529
0.2877451 0.89215686 0.33823529
0.3122549 0.89142157 0.34019608
0.33137255 0.88823529 0.34246324
0.35085784 0.88823529 0.34571078
0.37591912 0.89068627 0.35300245
0.40588235 0.89215686 0.35784314
0.43584559 0.88970588 0.35392157
0.45796569 0.88394608 0.35208333
0.48560049 0.88431373 0.36127451
0.51470588 0.88872549 0.36764706
0.54803922 0.89246324 0.37794118
0.58284314 0.89215686 0.37843137
0.61372549 0.88290441 0.36464461
0.64313725 0.87107843 0.34754902
0.67702206 0.88382353 0.36672794
0.71311275 0.89705882 0.39411765
0.74724265 0.89871324 0.39834559
0.77843137 0.89607843 0.40294118
0.80931373 0.89871324 0.40882353
0.84129902 0.90183824 0.41568627
0.875 0.90784314 0.42745098
0.8995098 0.91176471 0.43382353
0.3372549 0.92941176 0.39215686
0.33872549 0.92696078 0.38970588
0.33823529 0.9254902 0.38529412
0.35196078 0.9254902 0.39166667
0.36666667 0.92352941 0.39215686
0.37745098 0.91764706 0.38823529
0.39411765 0.91764706 0.39117647
0.41470588 0.92156863 0.39754902
0.43921569 0.9254902 0.40784314
0.45980392 0.91911765 0.40539216
0.48039216 0.90980392 0.39607843
0.50441176 0.90980392 0.40343137
0.53137255 0.91372549 0.40980392
0.5622549 0.92205882 0.4245098
0.59313725 0.92352941 0.42941176
0.61862745 0.90441176 0.40098039
0.64705882 0.89803922 0.39607843
0.68186275 0.91078431 0.41127451
0.71666667 0.93333333 0.44803922
0.75098039 0.92990196 0.45098039
0.78235294 0.92941176 0.45294118
0.81323529 0.92941176 0.45882353
0.84411765 0.93235294 0.46862745
0.875 0.93872549 0.48137255
0.90588235 0.94509804 0.49411765
0.058823529 0.068137255 0.054901961
0.079411765 0.076041667 0.06372549
0.1 0.078431373 0.069485294
0.121875 0.076286765 0.070588235
0.15171569 0.074509804 0.064705882
0.18578431 0.07432598 0.057352941
0.22058824 0.073039216 0.059803922
0.27254902 0.074509804 0.06127451
0.32401961 0.078431373 0.06372549
0.3754902 0.078002451 0.06372549
0.42904412 0.056862745 0.06372549
0.48235294 0.03872549 0.062254902
0.53382353 0.026715686 0.062254902
0.58676471 0.023345588 0.062254902
0.64007353 0.016666667 0.05870098
0.68823529 0.017156863 0.059803922
0.73186275 0.019607843 0.062254902
0.7745098 0.019669118 0.058333333
0.81078431 0.040196078 0.058333333
0.84166667 0.079227941 0.061764706
0.87254902 0.12254902 0.069607843
0.90343137 0.15931373 0.069791667
0.93578431 0.19166667 0.070098039
0.96464461 0.21807598 0.07310049
0.97254902 0.22598039 0.074019608
0.06127451 0.092095588 0.059803922
0.073613664 0.094546569 0.06372549
0.093627451 0.097625613 0.069117647
0.11421569 0.095098039 0.068137255
0.14779412 0.093903186 0.065012255
0.18449755 0.091176471 0.061205576
0.22311581 0.091176471 0.060723039
0.27101716 0.090831801 0.06127451
0.32401961 0.091727941 0.062806373
0.3754902 0.087745098 0.06372549
0.43019301 0.067907475 0.06473652
0.48363971 0.049578738 0.061029412
0.53529412 0.038480392 0.060723039
0.58695619 0.035860907 0.067463235
0.642019 0.018811275 0.057184436
0.68823529 0.019607843 0.059229473
0.73033088 0.034252451 0.066176471
0.7745098 0.042501532 0.058884804
0.81078431 0.062254902 0.054411765
0.84166667 0.1004902 0.055698529
0.87254902 0.14090074 0.061764706
0.90343137 0.17696844 0.06372549
0.93431373 0.20718444 0.066176471
0.96014859 0.2283701 0.070442708
0.96862745 0.23719363 0.074019608
0.061642157 0.11605392 0.06372549
0.068336397 0.11605392 0.065196078
0.085784314 0.11822917 0.06786152
0.10819547 0.11960784 0.064292279
