site/assets/luts/natron-haldclut--zilverfx-vintage-b-w--dae33e626.cube
# LUTr-Project: LUTr — LUTrepository
# LUTr-Schema-Version: 1
# LUTr-ID: natron-haldclut--zilverfx-vintage-b-w--dae33e626
# LUTr-Title: zilverfx vintage b w
# LUTr-Collection: Natron HaldCLUT
# LUTr-Collection-ID: natron-haldclut-presets
# LUTr-Source: https://github.com/NatronGitHub/clut
# LUTr-Source-File: submissions/natron-haldclut-presets/picturefx/zilverfx_vintage_b_w.png
# LUTr-Source-Format: PNG
# LUTr-Source-SHA256: 8cd7eef88b6591cc1c60a560690600dffffdded84412bc1a403b14e2e2d7f28d
# LUTr-License: CC-BY-SA-4.0
# LUTr-License-URL: https://github.com/NatronGitHub/clut#license
# LUTr-Tags: creative, film, film-emulation, hald-clut, natron, png, vintage, cube
# LUTr-Transform-Class: film-emulation
# LUTr-Input-Color-Space: srgb
# LUTr-Output-Color-Space: srgb
# LUTr-Color-Space-Confidence: assumed-display-referred
# LUTr-Conversion-Method: PNG LUT image decoded at 16-bit and sampled to 25x25x25 3D CUBE
# LUTr-Conversion-Date: 2026-07-27
# LUTr-Conversion-Tool: LUTr scripts/convert-all-to-cube.mjs
# LUTr-Conversion-Grid: 25x25x25
# LUTr-Note: Preserve this metadata and the upstream license notices when redistributing.
TITLE "zilverfx vintage b w"
LUT_3D_SIZE 5
DOMAIN_MIN 0 0 0
DOMAIN_MAX 1 1 1
0.011764706 0.011764706 0.011764706
0.076470588 0.076470588 0.07254902
0.19411765 0.18627451 0.17843137
0.42647059 0.39901961 0.37156863
0.57647059 0.53333333 0.49411765
0.16470588 0.15784314 0.15392157
0.21470588 0.20759804 0.19607843
0.29264706 0.27745098 0.26568627
0.49093137 0.45882353 0.42745098
0.57156863 0.53235294 0.49313725
0.45490196 0.4254902 0.40196078
0.49117647 0.45882353 0.43088235
0.54607843 0.51372549 0.48039216
0.63823529 0.59509804 0.55196078
0.7 0.66862745 0.63921569
0.70784314 0.67058824 0.63823529
0.72058824 0.68921569 0.6625
0.73627451 0.71078431 0.69117647
0.83112745 0.81568627 0.80686275
0.85196078 0.8372549 0.82941176
0.78431373 0.76078431 0.74117647
0.80392157 0.78039216 0.76372549
0.80392157 0.78823529 0.77254902
0.84019608 0.82843137 0.82058824
0.8627451 0.85490196 0.84705882
0.045098039 0.044117647 0.044117647
0.10784314 0.10465686 0.10392157
0.22058824 0.20882353 0.19754902
0.44313725 0.41397059 0.3872549
0.57254902 0.52941176 0.49411765
0.17352941 0.16936275 0.16176471
0.2254902 0.21544118 0.20667892
0.31862745 0.2995098 0.28382353
0.50122549 0.46905637 0.43768382
0.57352941 0.52818627 0.48897059
0.46617647 0.43676471 0.40931373
0.51004902 0.47745098 0.44803922
0.55490196 0.51960784 0.48627451
0.63823529 0.59436275 0.55196078
0.71519608 0.6872549 0.6622549
0.73235294 0.69387255 0.65882353
0.73627451 0.7002451 0.66960784
0.7627451 0.73333333 0.71041667
0.82818627 0.81329657 0.80490196
0.85661765 0.84803922 0.84019608
0.81862745 0.79901961 0.78333333
0.83431373 0.81764706 0.80196078
0.83333333 0.81813725 0.80833333
0.8620098 0.85098039 0.84411765
0.91666667 0.90882353 0.90098039
0.15686275 0.14901961 0.14313725
0.19117647 0.18333333 0.17254902
0.29215686 0.27647059 0.25980392
0.46764706 0.43627451 0.40490196
0.58431373 0.54117647 0.50196078
0.28137255 0.26813725 0.25441176
0.31017157 0.29460784 0.27708333
0.3877451 0.36372549 0.34215686
0.53026961 0.49068627 0.45539216
0.59901961 0.55441176 0.5127451
0.51960784 0.48627451 0.45490196
0.54607843 0.51078431 0.47598039
0.59607843 0.55588235 0.51666667
0.65661765 0.61691176 0.57965686
0.72941176 0.70588235 0.68137255
0.75196078 0.7245098 0.69803922
0.77745098 0.74926471 0.72144608
0.81127451 0.79215686 0.77892157
0.89227941 0.88296569 0.87598039
0.92254902 0.91813725 0.91421569
0.90588235 0.89607843 0.88823529
0.91519608 0.90588235 0.90196078
0.92647059 0.92156863 0.91764706
0.92303922 0.91911765 0.91715686
0.99215686 0.99215686 0.99215686
0.38823529 0.36764706 0.34411765
0.39191176 0.36666667 0.34705882
0.44901961 0.42107843 0.39166667
0.54313725 0.50318627 0.46470588
0.58137255 0.5372549 0.49509804
0.44387255 0.41568627 0.39215686
0.44969363 0.42224265 0.39607843
0.50735294 0.47365196 0.44117647
0.57984069 0.53688725 0.49491422
0.62181373 0.5745098 0.53235294
0.57156863 0.53235294 0.49656863
0.60122549 0.5627451 0.52561275
0.64093137 0.59632353 0.55318627
0.68737745 0.65490196 0.62904412
0.74901961 0.72941176 0.71372549
0.77745098 0.75955882 0.74313725
0.81047794 0.79681373 0.78394608
0.86568627 0.85477941 0.84865196
0.95998775 0.95171569 0.95349265
0.99607843 0.99191176 0.99215686
0.96568627 0.96176471 0.95784314
0.98039216 0.97328431 0.97720588
0.99607843 0.99607843 0.99607843
0.99215686 0.9872549 0.98897059
0.99607843 0.98823529 0.99215686
0.46666667 0.43529412 0.40784314
0.46666667 0.43823529 0.40784314
0.5 0.46470588 0.43333333
0.55686275 0.51372549 0.4745098
0.59607843 0.54509804 0.50196078
0.48235294 0.45098039 0.42254902
0.50392157 0.47254902 0.43897059
0.53823529 0.50196078 0.46372549
0.59117647 0.54411765 0.50490196
0.62254902 0.57941176 0.54313725
0.60392157 0.5627451 0.52745098
0.62892157 0.58382353 0.54117647
0.65980392 0.62745098 0.59509804
0.70441176 0.6754902 0.64901961
0.77647059 0.7627451 0.75098039
0.76862745 0.75588235 0.74117647
0.82647059 0.80784314 0.79215686
0.89607843 0.88872549 0.88088235
0.97818627 0.96960784 0.9745098
0.99607843 0.98823529 0.99215686
1 0.99607843 0.99607843
1 0.99607843 0.99607843
0.99019608 0.98823529 0.98823529
0.98431373 0.97647059 0.98039216
1 0.98823529 1
