site/assets/luts/natron-haldclut--fuji-400h--f49570408.cube
# LUTr-Project: LUTr — LUTrepository
# LUTr-Schema-Version: 1
# LUTr-ID: natron-haldclut--fuji-400h--f49570408
# LUTr-Title: fuji 400h ++
# LUTr-Collection: Natron HaldCLUT
# LUTr-Collection-ID: natron-haldclut-presets
# LUTr-Source: https://github.com/NatronGitHub/clut
# LUTr-Source-File: submissions/natron-haldclut-presets/negative_new/fuji_400h_++.png
# LUTr-Source-Format: PNG
# LUTr-Source-SHA256: 821bcf23bea5891810b10d7925418bfc7130735fabe5e4850ead33031b52eb06
# LUTr-License: CC-BY-SA-4.0
# LUTr-License-URL: https://github.com/NatronGitHub/clut#license
# LUTr-Tags: creative, film, film-emulation, hald-clut, natron, png, cube
# LUTr-Transform-Class: film-emulation
# LUTr-Input-Color-Space: srgb
# LUTr-Output-Color-Space: srgb
# LUTr-Color-Space-Confidence: assumed-display-referred
# LUTr-Conversion-Method: PNG LUT image decoded at 16-bit and sampled to 25x25x25 3D CUBE
# LUTr-Conversion-Date: 2026-07-27
# LUTr-Conversion-Tool: LUTr scripts/convert-all-to-cube.mjs
# LUTr-Conversion-Grid: 25x25x25
# LUTr-Note: Preserve this metadata and the upstream license notices when redistributing.
TITLE "fuji 400h ++"
LUT_3D_SIZE 5
DOMAIN_MIN 0 0 0
DOMAIN_MAX 1 1 1
0.054901961 0.090196078 0.02745098
0.24117647 0.094117647 0.042156863
0.58431373 0.033333333 0.0078431373
0.86568627 0.061764706 0.0068627451
0.98039216 0.21568627 0
0.00098039216 0.24313725 0.030392157
0.20294118 0.25392157 0.01495098
0.59362745 0.26666667 0.0039215686
0.85392157 0.29117647 0.00073529412
0.98431373 0.36568627 0.0039215686
0 0.51372549 0.0098039216
0.071078431 0.50147059 0.0058823529
0.51862745 0.51176471 0.0078431373
0.79803922 0.54509804 0.0078431373
0.98823529 0.57254902 0
0.0039215686 0.73627451 0.1127451
0.20612745 0.72867647 0.12769608
0.49166667 0.7245098 0.11813725
0.7370098 0.74411765 0.014460784
0.95294118 0.77941176 0.0039215686
0.40784314 0.9372549 0.4627451
0.45294118 0.9254902 0.46176471
0.5745098 0.92745098 0.48235294
0.73235294 0.9372549 0.49019608
0.88235294 0.9372549 0.44705882
0.10784314 0.10980392 0.2
0.25710784 0.1252451 0.20686275
0.61323529 0.0058823529 0.2122549
0.87647059 0.079656863 0.23137255
0.99607843 0.25196078 0.24509804
0.0093137255 0.27352941 0.21862745
0.27156863 0.28082108 0.2223652
0.61556373 0.26568627 0.21862745
0.85729167 0.29803922 0.21053922
0.99607843 0.39215686 0.2379902
0.016666667 0.54607843 0.24362745
0.23602941 0.53125 0.24019608
0.55833333 0.5377451 0.19754902
0.8127451 0.54546569 0.12205882
0.98529412 0.57254902 0.10392157
0.11004902 0.74803922 0.29289216
0.29411765 0.74356618 0.29644608
0.51764706 0.73235294 0.30257353
0.74405637 0.74730392 0.24883578
0.95269608 0.7754902 0.19828431
0.42745098 0.9372549 0.50882353
0.47303922 0.93308824 0.52230392
0.58970588 0.94019608 0.55686275
0.73627451 0.94583333 0.55171569
0.90784314 0.94215686 0.49901961
0.16666667 0.12941176 0.50392157
0.35441176 0.1254902 0.51960784
0.64901961 0.033333333 0.54509804
0.87401961 0.012254902 0.53137255
0.99019608 0.23137255 0.5372549
0.10441176 0.26960784 0.51568627
0.34889706 0.28627451 0.53443627
0.64607843 0.29754902 0.55098039
0.86568627 0.28492647 0.53958333
0.98921569 0.4 0.55490196
0.031372549 0.56176471 0.54705882
0.31838235 0.55784314 0.54509804
0.61078431 0.56372549 0.55490196
0.82426471 0.575 0.54509804
0.98039216 0.60196078 0.54313725
0.33627451 0.77745098 0.57696078
0.4254902 0.77659314 0.56323529
0.58676471 0.76004902 0.55955882
0.75343137 0.76372549 0.54938725
0.96617647 0.7754902 0.5122549
0.46862745 0.94509804 0.64117647
0.50196078 0.94460784 0.63676471
0.59607843 0.92156863 0.63039216
0.74411765 0.9245098 0.64166667
0.93333333 0.95882353 0.65294118
0.40294118 0.15294118 0.76470588
0.50808824 0.1747549 0.76372549
0.70294118 0.21078431 0.76764706
0.86642157 0.2752451 0.78431373
0.97647059 0.28137255 0.76470588
0.40196078 0.31593137 0.76004902
0.50159314 0.32181373 0.76452206
0.68602941 0.35306373 0.77156863
0.85729167 0.40631127 0.78314951
0.98014706 0.43039216 0.7629902
0.26764706 0.50980392 0.74509804
0.39411765 0.51102941 0.74803922
0.64191176 0.56862745 0.76764706
0.82487745 0.61041667 0.78333333
0.99705882 0.61078431 0.76764706
0.32941176 0.76838235 0.76764706
0.42720588 0.7713848 0.76691176
0.60588235 0.77156863 0.77352941
0.79044118 0.79025735 0.77941176
0.97254902 0.79215686 0.76470588
0.44705882 0.93431373 0.77941176
0.51887255 0.95759804 0.79803922
0.64754902 0.96078431 0.80196078
0.77254902 0.95392157 0.79509804
0.94705882 0.95 0.79117647
0.60392157 0.34117647 0.92156863
0.66078431 0.39117647 0.92941176
0.76078431 0.44901961 0.93529412
0.88529412 0.53431373 0.94117647
0.96470588 0.55294118 0.93333333
0.61470588 0.46666667 0.93235294
0.6625 0.4875 0.94117647
0.75098039 0.51078431 0.93480392
0.88039216 0.58480392 0.94730392
0.99901961 0.6127451 0.94803922
0.56666667 0.61176471 0.9372549
0.61911765 0.62254902 0.94117647
0.72843137 0.65 0.94607843
0.86078431 0.68627451 0.93970588
0.97647059 0.68627451 0.91372549
0.44117647 0.76078431 0.92352941
0.50490196 0.76764706 0.92573529
0.62941176 0.76715686 0.93088235
0.81764706 0.7997549 0.9372549
0.97941176 0.83333333 0.94117647
0.46666667 0.96470588 0.95294118
0.50882353 0.96862745 0.94313725
0.62156863 0.95098039 0.95490196
0.79509804 0.96764706 0.95588235
0.99215686 0.97254902 0.94117647
