site/assets/luts/natron-haldclut--kodak-portra-400--a3dd778d7.cube
# LUTr-Project: LUTr — LUTrepository
# LUTr-Schema-Version: 1
# LUTr-ID: natron-haldclut--kodak-portra-400--a3dd778d7
# LUTr-Title: kodak portra 400 ++
# LUTr-Collection: Natron HaldCLUT
# LUTr-Collection-ID: natron-haldclut-presets
# LUTr-Source: https://github.com/NatronGitHub/clut
# LUTr-Source-File: submissions/natron-haldclut-presets/negative_new/kodak_portra_400_++.png
# LUTr-Source-Format: PNG
# LUTr-Source-SHA256: 7b8969c964ea3efee244742459b38c0b13c118b770cf547009aa8c2f5fc947a6
# LUTr-License: CC-BY-SA-4.0
# LUTr-License-URL: https://github.com/NatronGitHub/clut#license
# LUTr-Tags: creative, film, film-emulation, hald-clut, natron, png, cube
# LUTr-Transform-Class: film-emulation
# LUTr-Input-Color-Space: srgb
# LUTr-Output-Color-Space: srgb
# LUTr-Color-Space-Confidence: assumed-display-referred
# LUTr-Conversion-Method: PNG LUT image decoded at 16-bit and sampled to 25x25x25 3D CUBE
# LUTr-Conversion-Date: 2026-07-27
# LUTr-Conversion-Tool: LUTr scripts/convert-all-to-cube.mjs
# LUTr-Conversion-Grid: 25x25x25
# LUTr-Note: Preserve this metadata and the upstream license notices when redistributing.
TITLE "kodak portra 400 ++"
LUT_3D_SIZE 25
DOMAIN_MIN 0 0 0
DOMAIN_MAX 1 1 1
0.074509804 0.094117647 0.074509804
0.087254902 0.1004902 0.076960784
0.10686275 0.097058824 0.074509804
0.1245098 0.090196078 0.067156863
0.14509804 0.080392157 0.060784314
0.19068627 0.086764706 0.058823529
0.24215686 0.093137255 0.058823529
0.29362745 0.098039216 0.054901961
0.34901961 0.074509804 0.054901961
0.41470588 0.035784314 0.054901961
0.48039216 0.0039215686 0.05
0.54607843 0.0039215686 0.043137255
0.61372549 0.0078431373 0.033333333
0.67745098 0.0039215686 0.019117647
0.73921569 0.0039215686 0.012745098
0.79705882 0 0.006372549
0.84705882 0.0039215686 0
0.88431373 0.0039215686 0
0.92058824 0.021568627 0
0.94754902 0.086764706 0
0.97647059 0.15098039 0
0.99607843 0.19313725 0
0.99901961 0.21764706 0
1 0.24754902 0
1 0.27843137 0
0.074509804 0.094117647 0.074509804
0.085723039 0.10140931 0.078431373
0.10147059 0.10343137 0.080882353
0.12058824 0.096752451 0.077267157
0.14313725 0.095833333 0.065931373
0.19068627 0.095098039 0.060968137
0.24215686 0.096568627 0.058823529
0.28878676 0.098039216 0.054901961
0.34656863 0.076960784 0.054901961
0.41415441 0.057352941 0.053370098
0.48137255 0.040196078 0.044240196
0.55 0.029901961 0.03939951
0.61887255 0.013480392 0.030882353
0.68137255 0.0039215686 0.016973039
0.73982843 0.006372549 0.011764706
0.79613971 0.0024509804 0.006372549
0.84460784 0.0088235294 0
0.87941176 0.038296569 0
0.91421569 0.067156863 0
0.94509804 0.10747549 0
0.97843137 0.15416667 0
0.99607843 0.19577206 0
0.99718137 0.22303922 0
1 0.25392157 0
1 0.28088235 0
0.070588235 0.10392157 0.074509804
0.07879902 0.11041667 0.078063725
0.091176471 0.11372549 0.082352941
0.11176471 0.10784314 0.082720588
0.14019608 0.11568627 0.068627451
0.18676471 0.11568627 0.062745098
0.2372549 0.11176471 0.058823529
0.28406863 0.1067402 0.054534314
0.34901961 0.10196078 0.05
0.41678922 0.094607843 0.044730392
0.48112745 0.081372549 0.033333333
0.5495098 0.067647059 0.026838235
0.62156863 0.042647059 0.024019608
0.68872549 0.019117647 0.014705882
0.74019608 0.035294118 0.015686275
0.79558824 0.048651961 0.006372549
0.84313725 0.068627451 0
0.87401961 0.095588235 0
0.90784314 0.12328431 0
0.93970588 0.15539216 0
0.97352941 0.18627451 0
0.99522059 0.21176471 0
0.99607843 0.23602941 0
1 0.26482843 0
1 0.29117647 0
0.066666667 0.12107843 0.074509804
0.069607843 0.12089461 0.074509804
0.084313725 0.12107843 0.075857843
0.10539216 0.12794118 0.078431373
0.12990196 0.13455882 0.068627451
0.17941176 0.13627451 0.062745098
0.23051471 0.13884804 0.058823529
0.28547794 0.13970588 0.049816176
0.34901961 0.13921569 0.039705882
0.41715686 0.13284314 0.033333333
0.48039216 0.12340686 0.02254902
0.5495098 0.11568627 0.016605392
0.61985294 0.10710784 0.010294118
0.68529412 0.098529412 0.00098039216
0.74019608 0.10539216 0.0044117647
0.79344363 0.11746324 0.0029411765
0.83970588 0.13431373 0
0.87058824 0.15147059 0
0.90490196 0.17254902 0
0.93578431 0.19705882 0
0.96691176 0.22573529 0
0.98529412 0.24650735 0
0.99129902 0.26703431 0
0.99626225 0.2877451 0
1 0.30882353 0
0.058823529 0.14313725 0.076470588
0.06004902 0.13995098 0.074019608
0.07254902 0.14019608 0.073039216
0.093137255 0.14877451 0.074509804
0.12156863 0.15490196 0.068627451
0.17328431 0.16323529 0.062254902
0.22794118 0.17058824 0.053921569
0.28382353 0.17647059 0.039705882
0.34313725 0.17647059 0.029411765
0.41127451 0.17132353 0.023039216
0.48137255 0.17058824 0.019607843
0.5495098 0.16715686 0.015686275
0.61666667 0.16078431 0.0098039216
0.67892157 0.15710784 0
0.73235294 0.16372549 0.0029411765
0.7870098 0.1747549 0
0.83333333 0.18627451 0
0.86740196 0.20294118 0
0.8995098 0.21960784 0
0.93186275 0.24019608 0
0.96078431 0.26568627 0
0.975 0.28333333 0
0.98382353 0.30392157 0
0.99093137 0.32254902 0
0.99803922 0.33529412 0
0.029411765 0.18578431 0.090196078
0.036764706 0.17959559 0.084313725
0.051960784 0.17536765 0.082843137
0.07254902 0.18186275 0.079411765
0.10539216 0.18823529 0.078921569
0.15882353 0.19803922 0.071078431
0.21666667 0.20453431 0.054779412
0.27322304 0.21078431 0.034129902
0.32892157 0.21372549 0.018627451
0.40490196 0.21372549 0.015686275
0.47745098 0.21764706 0.015686275
0.54607843 0.21813725 0.015257353
0.61151961 0.21470588 0.0098039216
0.67303922 0.21470588 0.0034926471
0.72843137 0.22156863 0.0025735294
0.77794118 0.23137255 0
0.81911765 0.24166667 0
0.85765931 0.25588235 0
0.89362745 0.27107843 0
0.93088235 0.28731618 0
0.96053922 0.30784314 0
0.9721201 0.32444853 0
0.97941176 0.34068627 0
0.98952206 0.35196078 0
0.99607843 0.36176471 0
0.011764706 0.21666667 0.093137255
0.017279412 0.2127451 0.093137255
0.02745098 0.20882353 0.089215686
0.051470588 0.21617647 0.089215686
0.091666667 0.2254902 0.090686275
0.1377451 0.23284314 0.091666667
0.19607843 0.23995098 0.075245098
0.25392157 0.24522059 0.048529412
0.31568627 0.25196078 0.021568627
0.3935049 0.26066176 0.014705882
0.47058824 0.26568627 0.011764706
0.54007353 0.26568627 0.011764706
0.60637255 0.27107843 0.0083333333
0.66960784 0.27647059 0.0039215686
0.72843137 0.27941176 0
0.77009804 0.28970588 0
0.80882353 0.29705882 0
0.84607843 0.31090686 0
0.88333333 0.32254902 0
0.92058824 0.33578431 0
0.95441176 0.34705882 0
0.96911765 0.36139706 0
0.97941176 0.37254902 0
0.98762255 0.38284314 0
0.99509804 0.38921569 0
0.0078431373 0.24362745 0.098039216
0.006372549 0.24362745 0.096507353
0.0066176471 0.23970588 0.094117647
0.034313725 0.24705882 0.095588235
0.075490196 0.25735294 0.099509804
0.11568627 0.26764706 0.10165441
0.17046569 0.27401961 0.089705882
0.23333333 0.28131127 0.058884804
0.29901961 0.29215686 0.032843137
0.37107843 0.30245098 0.01807598
0.4504902 0.31164216 0.014705882
0.52696078 0.32058824 0.0078431373
0.59191176 0.32426471 0.0071078431
0.65949755 0.32941176 0.0036151961
0.72254902 0.33676471 0
0.7588848 0.34368873 0.00055147059
0.79460784 0.35098039 0.0039215686
0.83333333 0.36127451 0.0039215686
0.87205882 0.37156863 0.0039215686
0.90900735 0.38186275 0.0039215686
0.93897059 0.38823529 0
0.96011029 0.39705882 0
0.97512255 0.40735294 0
0.98970588 0.41911765 0
0.99607843 0.42794118 0
0.0039215686 0.28235294 0.10588235
0.0039215686 0.27990196 0.10343137
0.00098039216 0.27941176 0.10196078
0.014705882 0.28235294 0.10588235
0.043137255 0.29019608 0.10980392
0.085294118 0.29852941 0.10539216
0.14705882 0.30882353 0.088235294
0.2127451 0.31911765 0.066176471
0.27843137 0.32941176 0.039215686
0.34656863 0.34362745 0.021078431
0.42352941 0.35392157 0.011764706
0.50196078 0.36421569 0.0083333333
0.56862745 0.36862745 0.0078431373
0.64264706 0.37696078 0.0039215686
0.70588235 0.38431373 0
0.74705882 0.38970588 0.0039215686
0.78431373 0.39607843 0.0039215686
0.82156863 0.40637255 0.0039215686
0.85882353 0.41568627 0.0039215686
0.89607843 0.42303922 0.0039215686
0.9254902 0.42745098 0.0039215686
0.94607843 0.43578431 0.0034313725
0.96666667 0.44607843 0
0.98333333 0.45245098 0
1 0.4627451 0
0.0039215686 0.32352941 0.1122549
0.0039215686 0.32352941 0.1122549
0.0039215686 0.32536765 0.1122549
0.003247549 0.32352941 0.11617647
0.0044117647 0.32107843 0.11617647
0.060784314 0.32941176 0.10520833
0.12647059 0.34215686 0.087867647
0.19215686 0.35484069 0.067647059
0.25392157 0.36813725 0.045588235
0.32052696 0.3838848 0.019546569
0.39448529 0.39509804 0.014215686
0.4713848 0.40165441 0.014215686
0.54803922 0.4129902 0.011029412
0.62469363 0.4245098 0.0073529412
0.69068627 0.43517157 0.0006127451
0.73284314 0.440625 0.0039215686
0.77401961 0.44754902 0.0039215686
0.81127451 0.45238971 0.0039215686
0.84754902 0.45686275 0.0039215686
0.88235294 0.46078431 0.0039215686
0.9120098 0.46666667 0.0039215686
0.93363971 0.47303922 0.0039215686
0.95637255 0.4814951 0.00098039216
0.97696078 0.490625 0
0.99362745 0.49754902 0
0 0.36960784 0.12254902
0 0.37352941 0.12156863
0 0.37745098 0.11936275
0 0.37487745 0.12242647
0 0.36666667 0.12647059
0.02745098 0.36519608 0.12303922
0.092156863 0.37769608 0.10882353
0.16397059 0.39080882 0.098529412
0.23333333 0.40392157 0.080392157
0.29473039 0.41776961 0.046568627
0.36960784 0.43235294 0.020343137
0.44546569 0.44264706 0.014828431
0.52352941 0.45490196 0.0078431373
0.60588235 0.47512255 0.0039215686
0.67843137 0.4879902 0
0.72218137 0.49117647 0.0011029412
0.75980392 0.49411765 0.0039215686
0.79705882 0.49411765 0.0039215686
0.83431373 0.49803922 0.0039215686
0.87156863 0.49803922 0.0039215686
0.90196078 0.50343137 0.0039215686
0.92696078 0.51017157 0.0039215686
0.95098039 0.51740196 0.00073529412
0.97512255 0.5245098 0
0.9872549 0.52843137 0
0 0.42107843 0.13284314
0 0.42156863 0.13235294
0 0.42634804 0.12892157
0 0.42598039 0.13235294
0.0019607843 0.41519608 0.13676471
0.0089460784 0.409375 0.13676471
0.050980392 0.41323529 0.12941176
0.125 0.42714461 0.12941176
0.20882353 0.44117647 0.11617647
0.26960784 0.45177696 0.074019608
0.34607843 0.46703431 0.041789216
0.4245098 0.48039216 0.012683824
0.50294118 0.49607843 0.0039215686
0.58480392 0.51666667 0.0039215686
0.66078431 0.53468137 0.0034313725
0.70833333 0.53529412 0.0012867647
0.74558824 0.53529412 0.0039215686
0.78676471 0.53529412 0.0039215686
0.82401961 0.53541667 0.0039215686
0.86476716 0.53878676 0.0039215686
0.9 0.54117647 0.0039215686
0.92996324 0.5471201 0.0034926471
0.95098039 0.55134804 0
0.97028186 0.55667892 0
0.97696078 0.55931373 0
0 0.46666667 0.14705882
0 0.46666667 0.14705882
0 0.47058824 0.14901961
0 0.46715686 0.15245098
0 0.45980392 0.15294118
0 0.45465686 0.15098039
0.0078431373 0.45098039 0.1495098
0.083088235 0.4622549 0.1377451
0.16666667 0.47254902 0.11960784
0.24583333 0.48602941 0.098529412
0.32303922 0.50147059 0.062745098
0.4004902 0.51862745 0.025245098
0.48235294 0.53333333 0.010784314
0.56078431 0.54779412 0.015931373
0.63480392 0.56176471 0.014705882
0.69093137 0.56813725 0.0098039216
0.73529412 0.57254902 0.0058823529
0.77401961 0.57254902 0.0039215686
0.81372549 0.5745098 0.0039215686
0.85490196 0.57647059 0.0039215686
0.89607843 0.57941176 0.0039215686
0.93063725 0.58431373 0.0034313725
0.95490196 0.58970588 0
0.96740196 0.59142157 0
0.97058824 0.59019608 0
0 0.51176471 0.16127451
0 0.51207108 0.16372549
0 0.51568627 0.16666667
0 0.51182598 0.17261029
0 0.50416667 0.17156863
0 0.49558824 0.16960784
0.00036764706 0.48786765 0.16654412
0.062745098 0.48952206 0.15618873
0.14460784 0.50343137 0.14215686
0.22665441 0.51764706 0.11960784
0.30490196 0.53186275 0.094240196
0.38339461 0.54607843 0.077512255
0.46176471 0.5622549 0.053676471
0.53621324 0.57843137 0.036213235
0.60441176 0.58872549 0.028063725
0.66256127 0.59724265 0.020404412
0.71666667 0.60539216 0.012254902
0.7622549 0.60931373 0.0078431373
0.80343137 0.60931373 0.0039215686
0.84460784 0.6127451 0.0039215686
0.8879902 0.61740196 0.0039215686
0.93045343 0.62205882 0.00042892157
0.95588235 0.62806373 0
0.9622549 0.6254902 0
0.96862745 0.625 0
0 0.55686275 0.17156863
0 0.55686275 0.17732843
0 0.56078431 0.18651961
0 0.55735294 0.19019608
0 0.54705882 0.19068627
0 0.53284314 0.18713235
0.0029411765 0.52622549 0.18406863
0.058333333 0.52696078 0.17303922
0.13823529 0.5372549 0.16176471
0.21421569 0.54963235 0.15147059
0.29044118 0.5627451 0.14093137
0.36703431 0.57659314 0.12990196
0.44460784 0.59166667 0.10441176
0.51776961 0.60539216 0.077328431
0.58651961 0.61568627 0.053676471
0.64509804 0.62598039 0.034681373
0.7 0.63333333 0.02254902
0.75085784 0.63909314 0.0093137255
0.79313725 0.64019608 0.0039215686
0.83431373 0.64411765 0.0039215686
0.87941176 0.65 0.0039215686
0.92058824 0.65637255 0.0037990196
0.95514706 0.66372549 0
0.96911765 0.65980392 0
0.97941176 0.65980392 0
0 0.60196078 0.18186275
0 0.60196078 0.19123775
0.0020833333 0.59803922 0.20245098
0.0039215686 0.59442402 0.21060049
0.0026960784 0.58946078 0.21078431
0 0.58204657 0.20686275
0 0.57303922 0.20392157
0.045588235 0.57352941 0.19810049
0.12794118 0.58235294 0.19264706
0.20539216 0.59019608 0.18535539
0.27806373 0.59509804 0.17598039
0.35539216 0.60392157 0.16568627
0.43039216 0.61813725 0.14509804
0.5 0.63088235 0.12794118
0.57205882 0.64117647 0.10735294
0.63333333 0.65147059 0.072977941
0.6872549 0.66176471 0.035784314
0.73719363 0.66660539 0.011335784
0.78284314 0.67107843 0.0039215686
0.82401961 0.675 0.0039215686
0.86715686 0.68088235 0.0046568627
0.91029412 0.68676471 0.0078431373
0.94460784 0.69031863 0.0053921569
0.97457108 0.69215686 0.003002451
0.99117647 0.69215686 0
0 0.63921569 0.20392157
0.0039215686 0.63921569 0.21029412
0.0049019608 0.63529412 0.2245098
0.0078431373 0.63137255 0.23480392
0.0039215686 0.62941176 0.23529412
0.0039215686 0.62352941 0.23137255
0.0068627451 0.61960784 0.23137255
0.058823529 0.61568627 0.22745098
0.1372549 0.61960784 0.22352941
0.21568627 0.62598039 0.21960784
0.28921569 0.63137255 0.21078431
0.35735294 0.63529412 0.2004902
0.41960784 0.64509804 0.19215686
0.48970588 0.65539216 0.1754902
0.55784314 0.66568627 0.15490196
0.62303922 0.67598039 0.12745098
0.6745098 0.68627451 0.078431373
0.72205882 0.69264706 0.030882353
0.76862745 0.69901961 0
0.81372549 0.70539216 0.0034313725
0.85490196 0.70980392 0.0098039216
0.8995098 0.71421569 0.011764706
0.93039216 0.71764706 0.0078431373
0.96519608 0.72156863 0.006372549
0.99215686 0.7254902 0.0039215686
0.0039215686 0.67401961 0.24901961
0.009375 0.67401961 0.24509804
0.014215686 0.67009804 0.25147059
0.014215686 0.66862745 0.26176471
0.011029412 0.66862745 0.26617647
0.015625 0.66470588 0.26617647
0.059803922 0.65784314 0.26617647
0.12009804 0.65202206 0.265625
0.1745098 0.6504902 0.2622549
0.24411765 0.65349265 0.25833333
0.31372549 0.65833333 0.25196078
0.37843137 0.6622549 0.24558824
0.43112745 0.66960784 0.23921569
0.48952206 0.67843137 0.22696078
0.55245098 0.68909314 0.20992647
0.61519608 0.7004902 0.18676471
0.66421569 0.70931373 0.14656863
0.71323529 0.71807598 0.09754902
0.75833333 0.72708333 0.058946078
0.80079657 0.73284314 0.04129902
0.84656863 0.73946078 0.030637255
0.88970588 0.74460784 0.020098039
0.92401961 0.74852941 0.012377451
0.94613971 0.75 0.011213235
0.97156863 0.75245098 0.0078431373
0.0039215686 0.70882353 0.28529412
0.010906863 0.70698529 0.28345588
0.021323529 0.70588235 0.28210784
0.025367647 0.70588235 0.28872549
0.026470588 0.70735294 0.29509804
0.060906863 0.70453431 0.29840686
0.12965686 0.69509804 0.30196078
0.18921569 0.68982843 0.30196078
0.23333333 0.68529412 0.30196078
0.27928922 0.68137255 0.29803922
0.33897059 0.68455882 0.29411765
0.39571078 0.68909314 0.29031863
0.44656863 0.69852941 0.28480392
0.4935049 0.70526961 0.27365196
0.54338235 0.71470588 0.26078431
0.60245098 0.725 0.24178922
0.65294118 0.73529412 0.21078431
0.70085784 0.74375 0.18186275
0.74411765 0.75196078 0.15588235
0.78786765 0.75931373 0.13186275
0.83333333 0.76519608 0.10637255
0.8754902 0.77193627 0.078431373
0.91666667 0.77843137 0.049264706
0.95379902 0.78370098 0.01629902
0.98137255 0.7872549 0.0039215686
0 0.74313725 0.31617647
0.024203431 0.73970588 0.31832108
0.044240196 0.74056373 0.31960784
0.039093137 0.74313725 0.31617647
0.08995098 0.73970588 0.32598039
0.15104167 0.73921569 0.33621324
0.21360294 0.73284314 0.34227941
0.25998775 0.72745098 0.34313725
0.29117647 0.72352941 0.34656863
0.32892157 0.7158701 0.34283088
0.37083333 0.7122549 0.33823529
0.41666667 0.71960784 0.33529412
0.46372549 0.72622549 0.33480392
0.50643382 0.73235294 0.32254902
0.54460784 0.74007353 0.30845588
0.58823529 0.7495098 0.29785539
0.63970588 0.75931373 0.28284314
0.68743873 0.76746324 0.26599265
0.73125 0.77647059 0.24509804
0.775 0.78327206 0.22107843
0.81666667 0.78921569 0.19215686
0.86127451 0.79558824 0.17193627
0.90245098 0.80551471 0.13382353
0.94754902 0.8122549 0.082843137
0.98529412 0.81862745 0.045098039
0.10392157 0.77647059 0.3627451
0.14828431 0.77647059 0.36789216
0.15539216 0.7745098 0.36960784
0.175 0.77622549 0.36666667
0.21568627 0.77352941 0.37254902
0.25857843 0.77034314 0.38063725
0.29411765 0.76715686 0.38627451
0.3245098 0.76397059 0.39019608
0.34901961 0.75882353 0.39019608
0.38186275 0.75367647 0.3870098
0.41421569 0.74901961 0.38431373
0.44362745 0.75294118 0.38431373
0.48235294 0.76078431 0.38627451
0.52156863 0.76495098 0.37598039
0.56078431 0.77058824 0.36911765
0.5997549 0.77990196 0.36593137
0.63529412 0.78627451 0.35490196
0.67769608 0.79411765 0.33946078
0.71960784 0.80098039 0.32401961
0.76078431 0.80931373 0.30318627
0.80196078 0.81470588 0.27843137
0.84705882 0.82205882 0.25367647
0.89117647 0.83088235 0.22303922
0.93529412 0.83995098 0.18921569
0.96862745 0.84705882 0.1745098
0.25931373 0.81323529 0.41862745
0.27009804 0.81323529 0.42254902
0.2689951 0.80931373 0.42242647
0.29221814 0.80931373 0.42248775
0.31323529 0.80955882 0.42671569
0.33382353 0.80582108 0.43431373
0.35833333 0.80196078 0.43823529
0.38284314 0.80018382 0.44215686
0.40686275 0.79411765 0.43872549
0.42959559 0.79166667 0.43841912
0.45588235 0.79007353 0.43823529
0.48290441 0.79019608 0.43823529
0.51348039 0.79387255 0.44215686
0.5411152 0.79846814 0.44172794
0.58137255 0.80453431 0.43872549
0.61697304 0.81341912 0.43480392
0.64019608 0.81764706 0.43088235
0.67567402 0.82371324 0.41715686
0.71813725 0.83026961 0.40159314
0.75588235 0.83676471 0.38572304
0.79387255 0.84240196 0.36519608
0.83676471 0.84901961 0.34558824
0.88051471 0.85894608 0.32757353
0.92303922 0.86568627 0.31029412
0.95637255 0.87205882 0.30343137
0.34803922 0.84705882 0.48039216
0.35257353 0.84742647 0.48370098
0.35710784 0.84632353 0.48333333
0.37156863 0.84411765 0.48688725
0.38529412 0.84705882 0.49166667
0.40625 0.8439951 0.4995098
0.43039216 0.84313725 0.50367647
0.44987745 0.83921569 0.50686275
0.46862745 0.83529412 0.50686275
0.48529412 0.83284314 0.51017157
0.50318627 0.82745098 0.50686275
0.52830882 0.82745098 0.50428922
0.55294118 0.82990196 0.50735294
0.57794118 0.83541667 0.51078431
0.60882353 0.84215686 0.51078431
0.64068627 0.84852941 0.51078431
0.66764706 0.85490196 0.50686275
0.69522059 0.85943627 0.49705882
0.73455882 0.86446078 0.48210784
0.76360294 0.87107843 0.47401961
0.79558824 0.875 0.45980392
0.83198529 0.87990196 0.44546569
0.86838235 0.8872549 0.43431373
0.9127451 0.89656863 0.42009804
0.94607843 0.90294118 0.40980392
0.44460784 0.88823529 0.55294118
0.44852941 0.88823529 0.55386029
0.44852941 0.88431373 0.55294118
0.45441176 0.88431373 0.55539216
0.46470588 0.88431373 0.56127451
0.48186275 0.88431373 0.56764706
0.4995098 0.88431373 0.57291667
0.51372549 0.88039216 0.57408088
0.53431373 0.88039216 0.57892157
0.54613971 0.87401961 0.58045343
0.56164216 0.87046569 0.58284314
0.58039216 0.86862745 0.58039216
0.5995098 0.86862745 0.58039216
0.62040441 0.87303922 0.58480392
0.64791667 0.88333333 0.59178922
0.6754902 0.88915441 0.58976716
0.69852941 0.89215686 0.58284314
0.71819853 0.89552696 0.57947304
0.74558824 0.90061275 0.57193627
0.77254902 0.90606618 0.56648284
0.80343137 0.91102941 0.55245098
0.83284314 0.91439951 0.54215686
0.86556373 0.92107843 0.53333333
0.90245098 0.92745098 0.52303922
0.93578431 0.93382353 0.5127451
0.52156863 0.92156863 0.62352941
0.5254902 0.92156863 0.62352941
0.52941176 0.92156863 0.62352941
0.53333333 0.92156863 0.62352941
0.53921569 0.92156863 0.6254902
0.55392157 0.92205882 0.63235294
0.55980392 0.91862745 0.63235294
0.56764706 0.91372549 0.62892157
0.58823529 0.91372549 0.63921569
0.59460784 0.90735294 0.63921569
0.60980392 0.90588235 0.64019608
0.62696078 0.90588235 0.64705882
0.64117647 0.90588235 0.64313725
0.65980392 0.91029412 0.65098039
0.68333333 0.91666667 0.66176471
0.70098039 0.92156863 0.65343137
0.72156863 0.92156863 0.64313725
0.73823529 0.92401961 0.63921569
0.75882353 0.93039216 0.63921569
0.78284314 0.93676471 0.63921569
0.80784314 0.94117647 0.63333333
0.83676471 0.94166667 0.62303922
0.86372549 0.94803922 0.6127451
0.89852941 0.95441176 0.60784314
0.92941176 0.96470588 0.60784314
0.074509804 0.098039216 0.074509804
0.085723039 0.10594363 0.079963235
0.10147059 0.10563725 0.084436275
0.12205882 0.094607843 0.079595588
0.15147059 0.084313725 0.079411765
0.19442402 0.080208333 0.075490196
0.24215686 0.086764706 0.07254902
0.29215686 0.092218137 0.06317402
0.35147059 0.068137255 0.062254902
0.41715686 0.029963235 0.062254902
0.48321078 0.0018382353 0.057352941
0.54981618 0.0039215686 0.048529412
0.61764706 0.0046568627 0.038235294
0.68137255 0.0039215686 0.024509804
0.73921569 0.0039215686 0.024509804
0.79313725 0.0039215686 0.023039216
0.84313725 0.0039215686 0.010294118
0.88186275 0.0039215686 0.0039215686
0.92058824 0.014215686 0
0.94754902 0.078247549 0
0.9745098 0.13946078 0
0.99264706 0.18069853 0
0.99607843 0.20845588 0
1 0.23780637 0
1 0.26421569 0
0.074509804 0.094117647 0.074509804
0.085148591 0.10328585 0.080537684
0.1004136 0.10435049 0.084574142
0.12058824 0.094538909 0.080193015
0.15147059 0.092647059 0.07622549
0.19442402 0.092761949 0.075068934
0.24031863 0.093887868 0.069730392
0.28878676 0.094669118 0.06317402
0.34993873 0.073590686 0.062254902
0.41868873 0.050980392 0.062254902
0.48699449 0.033440564 0.057352941
0.55373775 0.018382353 0.048529412
0.62009804 0.0070772059 0.036243873
0.68451287 0.0039215686 0.020879289
0.74019608 0.0061734069 0.021691176
0.79405637 0.0075597426 0.020013787
0.84313725 0.010355392 0.010294118
0.88002451 0.030736826 0.0044960172
0.91459865 0.060646446 0
0.9466299 0.10313266 0
0.9752451 0.14905025 0
0.9952742 0.18578431 0
0.99607843 0.21556373 0
0.99942555 0.24515931 0
1 0.27058824 0
0.06997549 0.10392157 0.075122549
0.079488358 0.10968137 0.080882353
0.094117647 0.11106005 0.084803922
0.11176471 0.10611213 0.082720588
0.14656863 0.11084559 0.075306373
0.19171262 0.11305147 0.071568627
0.23786765 0.11038603 0.067647059
0.2846201 0.10712316 0.06317402
0.35147059 0.095588235 0.062254902
0.42038909 0.085294118 0.06026348
0.4877451 0.071905637 0.053707108
0.55588235 0.057123162 0.043704044
0.62279412 0.035355392 0.029411765
0.68872549 0.01395527 0.015012255
0.74019608 0.031004902 0.018045343
0.79221814 0.045634191 0.016436887
0.84215686 0.055392157 0.0093137255
0.8751685 0.082843137 0.006372549
0.90928309 0.11519608 0.0029411765
0.9432598 0.14949449 0
0.97401961 0.18204657 0
0.99522059 0.207981 0
0.99607843 0.2325674 0
1 0.25868566 0
1 0.28088235 0
0.064522059 0.12647059 0.080392157
0.069607843 0.125 0.084022672
0.084803922 0.12473958 0.086412377
0.10533088 0.12820925 0.081495098
0.13627451 0.13235294 0.07622549
0.18155637 0.13627451 0.071568627
0.23074449 0.13769914 0.068259804
0.28333333 0.13970588 0.06317402
0.34901961 0.13547794 0.058333333
0.42114737 0.12647059 0.056257659
0.4877451 0.11827512 0.049509804
0.55588235 0.11119026 0.035784314
0.62279412 0.10523897 0.017892157
0.68872549 0.098062194 0.00081954657
0.74019608 0.10133272 0.008838848
0.79244792 0.10735294 0.013120404
0.83921569 0.12371324 0.006372549
0.87401961 0.14472273 0.001294424
0.90579044 0.16634498 0.00022977941
0.93841912 0.19438572 0
0.96700368 0.22230392 0
0.98529412 0.24234069 0
0.9926011 0.26292892 0
0.99645374 0.2830193 0.0024509804
