site/assets/luts/natron-haldclut--purple--8884c890c.cube
# LUTr-Project: LUTr — LUTrepository
# LUTr-Schema-Version: 1
# LUTr-ID: natron-haldclut--purple--8884c890c
# LUTr-Title: purple
# LUTr-Collection: Natron HaldCLUT
# LUTr-Collection-ID: natron-haldclut-presets
# LUTr-Source: https://github.com/NatronGitHub/clut
# LUTr-Source-File: submissions/natron-haldclut-presets/various/purple.png
# LUTr-Source-Format: PNG
# LUTr-Source-SHA256: d90ee70eb6599a69afe78a63a3b48cb0cca96ef77cf3157469fb320cdcb12845
# LUTr-License: CC-BY-SA-4.0
# LUTr-License-URL: https://github.com/NatronGitHub/clut#license
# LUTr-Tags: creative, film, film-emulation, hald-clut, natron, png, cube
# LUTr-Transform-Class: film-emulation
# LUTr-Input-Color-Space: srgb
# LUTr-Output-Color-Space: srgb
# LUTr-Color-Space-Confidence: assumed-display-referred
# LUTr-Conversion-Method: PNG LUT image decoded at 16-bit and sampled to 25x25x25 3D CUBE
# LUTr-Conversion-Date: 2026-07-27
# LUTr-Conversion-Tool: LUTr scripts/convert-all-to-cube.mjs
# LUTr-Conversion-Grid: 25x25x25
# LUTr-Note: Preserve this metadata and the upstream license notices when redistributing.
TITLE "purple"
LUT_3D_SIZE 9
DOMAIN_MIN 0 0 0
DOMAIN_MAX 1 1 1
0.031372549 0.031372549 0.49411765
0.21617647 0.020098039 0.49803922
0.39901961 0.0029411765 0.49803922
0.5377451 0.015686275 0.49803922
0.68823529 0.025490196 0.49803922
0.79656863 0.037745098 0.49803922
0.88039216 0.015686275 0.49803922
0.94215686 0.019117647 0.49803922
0.99215686 0.0039215686 0.49411765
0.031372549 0.093137255 0.49803922
0.19754902 0.085294118 0.49803922
0.38627451 0.084803922 0.49803922
0.5377451 0.081066176 0.49803922
0.68823529 0.07745098 0.50196078
0.79295343 0.07745098 0.50196078
0.86997549 0.078308824 0.49803922
0.93823529 0.081372549 0.49803922
0.98039216 0.07745098 0.49803922
0.026470588 0.16568627 0.49803922
0.18921569 0.16960784 0.49803922
0.37156863 0.17352941 0.49803922
0.54411765 0.17169118 0.49509804
0.69803922 0.16617647 0.49803922
0.79264706 0.16568627 0.50196078
0.87181373 0.16568627 0.50196078
0.9377451 0.16960784 0.49803922
0.95784314 0.17352941 0.49803922
0.043137255 0.26617647 0.4995098
0.19491422 0.26862745 0.49803922
0.37843137 0.26862745 0.49803922
0.55104167 0.26617647 0.49411765
0.69485294 0.26348039 0.49803922
0.79117647 0.26078431 0.49803922
0.87254902 0.25833333 0.50196078
0.9254902 0.2622549 0.50196078
0.93480392 0.27009804 0.50196078
0.025490196 0.38039216 0.49803922
0.19877451 0.37647059 0.49803922
0.39215686 0.37254902 0.49411765
0.54632353 0.36862745 0.49534314
0.68039216 0.36960784 0.49803922
0.78995098 0.36862745 0.50196078
0.86470588 0.37303922 0.50196078
0.92401961 0.38455882 0.50196078
0.93529412 0.38823529 0.50196078
0.043137255 0.51176471 0.50196078
0.20704657 0.50147059 0.49803922
0.39987745 0.49754902 0.49411765
0.54797794 0.49307598 0.49564951
0.68382353 0.50073529 0.49803922
0.78872549 0.50931373 0.50196078
0.85784314 0.51176471 0.50196078
0.92647059 0.51979167 0.5004902
0.95441176 0.52745098 0.49803922
0.024509804 0.65588235 0.50196078
0.19705882 0.65588235 0.49852941
0.39411765 0.64901961 0.49803922
0.56519608 0.64411765 0.49411765
0.69019608 0.65 0.49754902
0.78480392 0.65588235 0.49803922
0.86568627 0.65906863 0.49803922
0.93039216 0.65588235 0.49803922
0.97745098 0.65882353 0.49803922
0.042647059 0.81029412 0.49803922
0.21323529 0.80974265 0.49803922
0.39803922 0.81164216 0.49803922
0.56862745 0.8 0.49803922
0.69411765 0.81029412 0.49803922
0.79264706 0.81844363 0.50196078
0.87647059 0.80735294 0.49803922
0.93431373 0.80686275 0.49803922
0.98823529 0.80637255 0.49803922
0.0039215686 0.98039216 0.50196078
0.22058824 0.92892157 0.50196078
0.39411765 0.96568627 0.50196078
0.55735294 0.94901961 0.49803922
0.68627451 0.95882353 0.50196078
0.79264706 0.97107843 0.50196078
0.86960784 0.95686275 0.49803922
0.93431373 0.96127451 0.50196078
0.98823529 0.97254902 0.50196078
0.023529412 0.024019608 0.49411765
0.19362745 0.019607843 0.49754902
0.37855392 0.019240196 0.49803922
0.53253676 0.015686275 0.49803922
0.68823529 0.0044117647 0.49803922
0.79295343 0.015870098 0.49803922
0.87745098 0.0078431373 0.49803922
0.93474265 0.015686275 0.49803922
0.98088235 0.011764706 0.49411765
0.024019608 0.085723039 0.49803922
0.19313725 0.085294118 0.49803922
0.37844669 0.084803922 0.49803922
0.53382353 0.082498468 0.49803922
0.69215686 0.080882353 0.49852941
0.79656863 0.080882353 0.50196078
0.87578125 0.080989583 0.49803922
0.93779871 0.084857537 0.49803922
0.96868873 0.088296569 0.49803922
0.0084558824 0.16568627 0.50183824
0.18546262 0.16666667 0.49803922
0.36666667 0.16960784 0.49803922
0.54166667 0.16960784 0.49411765
0.69411765 0.16568627 0.49466912
0.79154412 0.16568627 0.49808517
0.87276348 0.16933211 0.50196078
0.93442096 0.17316176 0.50061275
0.95392157 0.17352941 0.49803922
0.035294118 0.2622549 0.50196078
0.20067402 0.26488971 0.49803922
0.38275123 0.26617647 0.49803922
0.5495098 0.26617647 0.49411765
0.69411765 0.26608456 0.49803922
0.79209559 0.26459099 0.49803922
0.86974571 0.26174939 0.50196078
0.9254902 0.26256127 0.50196078
0.93088235 0.26617647 0.50196078
0.01127451 0.36862745 0.49803922
0.19705882 0.37254902 0.49803922
0.39019608 0.36862745 0.49803922
0.54436275 0.37254902 0.49803922
0.68137255 0.37340686 0.49803922
0.79264706 0.37254902 0.50196078
0.86470588 0.37689951 0.50196078
0.92598039 0.38823529 0.50196078
0.94656863 0.38455882 0.5002451
0.027941176 0.50018382 0.50196078
0.19360447 0.49019608 0.49803922
0.38627451 0.49362745 0.49803922
0.54957874 0.50140165 0.49803922
0.68627451 0.50539216 0.49803922
0.79106158 0.5096201 0.50196078
0.86168811 0.50788909 0.50196078
0.92647059 0.51606924 0.50196078
0.96078431 0.52107843 0.49803922
0.0093137255 0.65196078 0.50490196
0.19324449 0.65196078 0.50098039
0.38235294 0.64803922 0.49803922
0.55735294 0.64754902 0.49701287
0.68645833 0.64822304 0.49803922
0.78627451 0.65526961 0.49803922
0.86862745 0.65588235 0.49803922
0.93039216 0.65588235 0.49803922
0.96960784 0.65588235 0.49803922
0.024448529 0.81029412 0.49852941
0.21279871 0.81158854 0.49852941
0.39186581 0.79900429 0.49803922
0.56390931 0.80637255 0.49803922
0.68823529 0.80686275 0.49803922
0.78872549 0.80702359 0.49803922
0.87647059 0.81384804 0.49803922
0.93431373 0.81464461 0.49803922
0.98088235 0.81078431 0.49803922
0.025490196 0.96715686 0.50196078
0.21231618 0.95294118 0.50196078
0.39803922 0.92634804 0.49901961
0.56127451 0.95900735 0.49803922
0.68455882 0.95710784 0.49803922
0.78529412 0.93167892 0.49803922
0.87254902 0.96948529 0.49803922
0.9377451 0.97113971 0.50196078
0.98088235 0.95735294 0.50196078
0.02254902 0.034313725 0.49411765
0.18137255 0.034313725 0.49411765
0.35882353 0.028186275 0.49803922
0.53627451 0.015686275 0.49803922
0.69019608 0.016176471 0.49803922
0.79264706 0.015686275 0.49803922
0.87352941 0.011764706 0.49803922
0.93431373 0.015686275 0.49803922
0.96470588 0.019607843 0.49803922
0.013112745 0.081372549 0.49803922
0.18529412 0.085294118 0.49803922
0.36639093 0.084803922 0.49803922
0.54116115 0.084803922 0.49803922
0.69019608 0.088848039 0.49803922
0.79348958 0.085294118 0.49803922
0.87647059 0.084803922 0.49803922
0.93026961 0.08872549 0.49803922
0.95698529 0.089215686 0.49803922
0.031617647 0.16960784 0.50098039
0.19390319 0.16666667 0.49803922
0.37689951 0.16960784 0.49803922
0.54914216 0.16960784 0.49803922
0.69411765 0.17279412 0.49803922
0.79016544 0.16960784 0.49803922
0.87352941 0.17352941 0.50196078
0.92990196 0.17487745 0.50183824
0.95514706 0.17745098 0.49803922
0.0093137255 0.25833333 0.50196078
0.2004902 0.2622549 0.50196078
0.39203431 0.26409314 0.49803922
0.55522365 0.26617647 0.49803922
0.69411765 0.26862745 0.49803922
0.79048713 0.26770833 0.5009038
0.86960784 0.2622549 0.50196078
0.93405331 0.2627451 0.50196078
0.96556373 0.26617647 0.49803922
0.035294118 0.36470588 0.49803922
0.20098039 0.36862745 0.49803922
0.38627451 0.37647059 0.49803922
0.54705882 0.38039216 0.49803922
0.68137255 0.37647059 0.49803922
0.79025735 0.37254902 0.50196078
0.86862745 0.37426471 0.50196078
0.93431373 0.38039216 0.50196078
0.9754902 0.37892157 0.49803922
0.024387255 0.49607843 0.50196078
0.20784314 0.49607843 0.49981618
0.39010417 0.5 0.49803922
0.54964767 0.50876225 0.50104167
0.68235294 0.51176471 0.50196078
0.78541667 0.50692402 0.50196078
0.86862745 0.50428922 0.50196078
0.93195466 0.51176471 0.50196078
0.95980392 0.51213235 0.49803922
0.024509804 0.65196078 0.50098039
0.19476103 0.65196078 0.5002451
0.38235294 0.65196078 0.49803922
0.55989583 0.65196078 0.50588235
0.67892157 0.65563725 0.50196078
0.77867647 0.65196078 0.50196078
0.86703431 0.65196078 0.50196078
0.93382353 0.6520527 0.4986826
0.96960784 0.65269608 0.49411765
0.045588235 0.81470588 0.49803922
0.21257659 0.81470588 0.49803922
0.39019608 0.81326593 0.49803922
0.55821078 0.81421569 0.50196078
0.67886029 0.81378676 0.50183824
0.78088235 0.81029412 0.50098039
0.87254902 0.81078431 0.49803922
0.93383885 0.80992647 0.49803922
0.97647059 0.80686275 0.49460784
0.014705882 0.93823529 0.49803922
0.20098039 0.95379902 0.49803922
0.39191176 0.96446078 0.50196078
0.55441176 0.96568627 0.49803922
0.68039216 0.95490196 0.49803922
0.78382353 0.93345588 0.49803922
0.86960784 0.95808824 0.49803922
0.93517157 0.96041667 0.50196078
0.97254902 0.95196078 0.50196078
0.025 0.032843137 0.49803922
0.18529412 0.042830882 0.49803922
0.36556373 0.039215686 0.49803922
0.54503676 0.017156863 0.49803922
0.68897059 0.01495098 0.49803922
0.79564951 0.0039215686 0.49411765
0.86678922 0.011764706 0.49803922
0.94001225 0.0052083333 0.49803922
0.95686275 0.0093137255 0.49803922
0.024509804 0.081862745 0.49803922
0.19297641 0.07745098 0.49411765
0.37432598 0.086902574 0.49803922
0.54944087 0.084803922 0.49803922
0.69004289 0.08872549 0.49803922
0.78890931 0.084918811 0.49803922
0.86960784 0.084803922 0.49803922
0.93807445 0.0848269 0.49803922
0.96078431 0.091360294 0.49803922
0.031372549 0.16960784 0.49803922
0.19866728 0.16568627 0.49803922
0.38982843 0.16568627 0.49803922
0.55735294 0.16776961 0.49803922
0.69215686 0.16997549 0.5004902
0.78480392 0.16983762 0.50159314
0.87254902 0.16914828 0.50196078
0.93431373 0.17095588 0.50061275
0.96862745 0.18137255 0.49803922
0.03192402 0.2622549 0.50196078
0.20213695 0.2622549 0.50196078
0.39803922 0.2622549 0.50196078
0.55735294 0.26413143 0.50083487
0.69139093 0.26862745 0.49803922
0.78480392 0.26675092 0.50008425
0.87254902 0.25833333 0.50196078
0.93823529 0.25882353 0.50013021
0.98284314 0.27009804 0.49803922
0.019117647 0.36666667 0.49803922
0.2020527 0.37141544 0.49803922
0.39411765 0.37941176 0.50122549
0.54705882 0.37647059 0.49803922
0.68823529 0.37254902 0.49803922
0.78526348 0.37254902 0.49803922
0.86568627 0.36862745 0.50196078
0.93431373 0.36862745 0.49803922
0.98578431 0.36936275 0.49803922
0.015747549 0.49908088 0.50196078
0.21096814 0.49988511 0.50104167
0.39434743 0.50484069 0.49803922
0.54928002 0.50484069 0.49803922
0.68235294 0.50931373 0.50042892
0.78480392 0.50204504 0.50196078
0.86862745 0.49846814 0.50196078
0.9377451 0.50055147 0.50196078
0.98284314 0.50631127 0.49803922
0.023039216 0.6495098 0.49558824
0.20098039 0.65196078 0.49796262
0.39347426 0.65196078 0.49803922
0.5627451 0.65196078 0.49803922
0.67616422 0.65214461 0.50196078
0.78088235 0.65085784 0.50196078
0.86752451 0.64620098 0.50196078
0.93431373 0.64780944 0.49964767
0.98431373 0.64803922 0.49411765
0.02567402 0.81421569 0.49803922
0.20490196 0.81029412 0.49803922
0.39411765 0.81144301 0.49803922
0.55452665 0.81421569 0.49803922
0.6752451 0.81519608 0.50196078
0.78130362 0.81433058 0.50196078
0.86862745 0.81070772 0.50196078
0.93039216 0.80637255 0.49803922
0.97628676 0.80637255 0.49460784
0.023529412 0.93578431 0.50196078
0.20441176 0.95863971 0.49803922
0.39019608 0.94105392 0.49803922
0.54852941 0.9622549 0.49803922
0.67720588 0.95563725 0.50196078
0.78872549 0.96568627 0.50196078
0.87144608 0.95183824 0.5004902
0.93431373 0.95441176 0.50196078
0.98284314 0.97107843 0.50196078
0.017647059 0.0058823529 0.49803922
0.20465686 0.025 0.49803922
0.38480392 0.031372549 0.49803922
0.5495098 0.020343137 0.49803922
0.69313725 0.016666667 0.49803922
0.79264706 0.015686275 0.49803922
0.86862745 0.019607843 0.49803922
0.93431373 0.015686275 0.49803922
0.9745098 0.011764706 0.50196078
0.033333333 0.07745098 0.49803922
0.20710784 0.07745098 0.49803922
0.39387255 0.086580882 0.49803922
0.56210172 0.087009804 0.49911152
0.69411765 0.08872549 0.50196078
0.79264706 0.083517157 0.49803922
0.87254902 0.081372549 0.49803922
0.93431373 0.084803922 0.49828431
0.97254902 0.092647059 0.50196078
0.016666667 0.16568627 0.49803922
0.19705882 0.16568627 0.49803922
0.39411765 0.16421569 0.49803922
0.56145833 0.16568627 0.50196078
0.69215686 0.16666667 0.50196078
0.78480392 0.16568627 0.50196078
0.87254902 0.16568627 0.50196078
0.93339461 0.17095588 0.50196078
0.97205882 0.18137255 0.50196078
0.022303922 0.26029412 0.50196078
0.20343137 0.2622549 0.50196078
0.39803922 0.26096814 0.50196078
0.55735294 0.2622549 0.50196078
0.68823529 0.26470588 0.50196078
0.78526348 0.25909926 0.50196078
0.87254902 0.25441176 0.50196078
0.93805147 0.25882353 0.49803922
0.97647059 0.27009804 0.49877451
0.031372549 0.37254902 0.50196078
0.20465686 0.37254902 0.50196078
0.39411765 0.37647059 0.50196078
0.55220588 0.37401961 0.50196078
0.68627451 0.37254902 0.50196078
0.78872549 0.36985294 0.50196078
0.86960784 0.36470588 0.50196078
0.93823529 0.36078431 0.49803922
0.97156863 0.36862745 0.50196078
0.029166667 0.50465686 0.50196078
0.20401348 0.50465686 0.50196078
0.3903799 0.50520833 0.50196078
0.55790441 0.50707721 0.49803922
0.68039216 0.49877451 0.50196078
0.78360907 0.49754902 0.50343137
0.86862745 0.49362745 0.50435049
0.93431373 0.49215686 0.50214461
0.98431373 0.49754902 0.50588235
0.022058824 0.64803922 0.49411765
0.21862745 0.64430147 0.49558824
0.40477941 0.64558824 0.49803922
0.56243873 0.64803922 0.49803922
0.67254902 0.64215686 0.50196078
0.78088235 0.64411765 0.50588235
0.86715686 0.64448529 0.5057598
0.93039216 0.64411765 0.50196078
0.97941176 0.64411765 0.50196078
0.043627451 0.80857843 0.49803922
0.21470588 0.80637255 0.49803922
0.39626225 0.80343137 0.49803922
0.55661765 0.80392157 0.49803922
0.67071078 0.8 0.50196078
0.78088235 0.80922181 0.50196078
0.86862745 0.81078431 0.50196078
0.93039216 0.80640319 0.50196078
0.97647059 0.80857843 0.50196078
0.029411765 0.97058824 0.50196078
0.19901961 0.95686275 0.50196078
0.38333333 0.93039216 0.50196078
0.54705882 0.9504902 0.50196078
0.6745098 0.92352941 0.50196078
0.78088235 0.95563725 0.50196078
0.87254902 0.96029412 0.50196078
0.93039216 0.94926471 0.50196078
0.98431373 0.96862745 0.50392157
0.018137255 0.006372549 0.49803922
0.20471814 0.015686275 0.49803922
0.39301471 0.015686275 0.50196078
0.56574755 0.010294118 0.50196078
0.7 0.017156863 0.50196078
0.79264706 0.019607843 0.5004902
0.87009804 0.019607843 0.49803922
0.93039216 0.020894608 0.50196078
0.98284314 0.013235294 0.50196078
0.026470588 0.07745098 0.49803922
0.20536918 0.081372549 0.49803922
0.39154412 0.081372549 0.50196078
0.56439185 0.084995404 0.50196078
0.69828431 0.081372549 0.50196078
0.79276195 0.081372549 0.50196078
0.87254902 0.089077819 0.501731
0.930553 0.08872549 0.50196078
0.97892157 0.092647059 0.50196078
0.047181373 0.16568627 0.49803922
0.20098039 0.16279105 0.49803922
0.39019608 0.1635723 0.4995098
0.56127451 0.16568627 0.50196078
0.69215686 0.1658701 0.50196078
0.78480392 0.16568627 0.50196078
0.87352941 0.16176471 0.50196078
0.93039216 0.17365196 0.50196078
0.97977941 0.18137255 0.50196078
0.044607843 0.26170343 0.50196078
0.20490196 0.26170343 0.50196078
0.39587929 0.26101409 0.50196078
0.55735294 0.2622549 0.50196078
0.6828125 0.26302083 0.50196078
0.78480392 0.26020987 0.50196078
0.86960784 0.25833333 0.50196078
0.93726256 0.2622549 0.50196078
0.98186275 0.26617647 0.50196078
0.028676471 0.37181373 0.50588235
0.20490196 0.37647059 0.50588235
0.38872549 0.37254902 0.50496324
0.55343137 0.37377451 0.50196078
0.68431373 0.37352941 0.50196078
0.78480392 0.36862745 0.50196078
0.86568627 0.36078431 0.50196078
0.94166667 0.36421569 0.49803922
0.95686275 0.36666667 0.50196078
0.010723039 0.50300245 0.50588235
0.20882353 0.5 0.50588235
0.38125 0.49515931 0.50588235
0.5528799 0.49829963 0.5030867
0.68553922 0.4924326 0.50511642
0.78480392 0.48676471 0.50588235
0.86960784 0.48616728 0.50503983
0.93694087 0.49577206 0.50214461
0.98431373 0.49699755 0.5088848
0.020710784 0.64803922 0.50098039
0.21237745 0.6435815 0.50196078
0.38517157 0.64117647 0.50196078
0.55343137 0.64411765 0.50196078
0.67898284 0.64117647 0.50465686
0.78480392 0.64042586 0.50588235
0.8689951 0.64411765 0.50588235
0.93431373 0.64411765 0.50588235
0.98039216 0.64803922 0.50980392
0.044117647 0.80275735 0.49803922
0.20098039 0.80438879 0.50196078
0.389231 0.81029412 0.50196078
0.55461091 0.80686275 0.50196078
0.67735907 0.81078431 0.50588235
0.78327206 0.81029412 0.50196078
0.86953125 0.81332721 0.50196078
0.93431373 0.81421569 0.50588235
0.97628676 0.81029412 0.50588235
0.070588235 0.97107843 0.50588235
0.19834559 0.96341912 0.50373775
0.39019608 0.96519608 0.50196078
0.5661152 0.97830882 0.50196078
0.68186275 0.96544118 0.50588235
0.78327206 0.95533088 0.50196078
0.8689951 0.96568627 0.50196078
0.93792892 0.971875 0.50588235
0.97254902 0.97107843 0.50588235
0.012745098 0.0049019608 0.49803922
0.2004902 0.016544118 0.49803922
0.39019608 0.023529412 0.50196078
0.56127451 0.02745098 0.50196078
0.69411765 0.056862745 0.50588235
0.79656863 0.022058824 0.5004902
0.87254902 0.016911765 0.49803922
0.93823529 0.043259804 0.50196078
0.96372549 0.044117647 0.50196078
0.041053922 0.078308824 0.49803922
0.20957414 0.08448223 0.50196078
0.39803922 0.085294118 0.50196078
0.56066176 0.084849877 0.50196078
0.69761029 0.079289216 0.50588235
0.79528186 0.07745098 0.50196078
0.87254902 0.082015931 0.50196078
0.93823529 0.08872549 0.50196078
0.96372549 0.093014706 0.50196078
0.012745098 0.16666667 0.50196078
0.20248162 0.16960784 0.50196078
0.39436275 0.16740196 0.50196078
0.55882353 0.16822917 0.50196078
0.69019608 0.16568627 0.50588235
0.78933824 0.16176471 0.50450368
0.86960784 0.16176471 0.50196078
0.93431373 0.17288603 0.50196078
0.97230392 0.18137255 0.50196078
0.013235294 0.25894608 0.49803922
0.20727635 0.261106 0.50196078
0.39610907 0.26087623 0.50196078
0.55882353 0.26078431 0.50196078
0.68253676 0.26078431 0.50245098
0.78480392 0.25663297 0.50196078
0.87117034 0.25441176 0.50196078
0.93431373 0.25833333 0.50196078
0.97365196 0.26617647 0.50196078
0.018627451 0.36862745 0.50196078
0.20091912 0.36862745 0.50386029
0.38664216 0.37254902 0.50588235
0.55661765 0.37285539 0.50196078
0.68333333 0.37254902 0.50588235
0.78088235 0.36470588 0.50588235
0.86605392 0.36029412 0.50196078
0.93400735 0.35514706 0.50196078
0.96078431 0.36666667 0.50196078
0.030759804 0.5 0.50551471
0.20098039 0.5 0.50684743
0.37867647 0.49705882 0.50588235
0.54757966 0.49931066 0.50588235
0.68431373 0.49681373 0.50588235
0.78088235 0.4845435 0.50588235
0.87071078 0.48293505 0.50588235
0.93296569 0.48970588 0.50404412
0.97365196 0.49031863 0.50588235
0.042401961 0.64705882 0.50196078
0.20683211 0.64803922 0.50588235
0.38069853 0.65030637 0.50588235
0.55058211 0.64803922 0.50588235
0.68431373 0.64656863 0.50588235
0.78480392 0.64034926 0.50588235
0.87254902 0.64044118 0.50588235
0.93296569 0.64509804 0.50588235
0.97647059 0.65220588 0.50588235
0.035294118 0.80637255 0.50196078
0.20183824 0.81029412 0.50196078
0.38630515 0.8185049 0.50588235
0.55742953 0.81556373 0.50196078
0.68676471 0.81060049 0.50588235
0.78872549 0.81047794 0.50588235
0.87254902 0.81029412 0.50588235
0.93431373 0.81099877 0.50588235
0.98039216 0.81813725 0.50588235
0.032352941 0.95882353 0.50196078
0.20098039 0.94509804 0.50196078
0.39411765 0.96078431 0.50196078
0.55735294 0.96715686 0.50196078
0.69019608 0.96764706 0.50588235
0.79264706 0.95281863 0.50196078
0.87254902 0.95906863 0.50196078
0.93431373 0.95208333 0.50588235
0.98921569 0.97843137 0.50588235
0.012254902 0.012254902 0.49803922
0.19313725 0.02745098 0.50196078
0.38492647 0.042279412 0.50196078
0.55863971 0.047242647 0.50196078
0.69411765 0.030637255 0.50196078
0.79246324 0.014215686 0.50196078
0.86862745 0.023651961 0.49803922
0.9377451 0.04754902 0.50196078
0.95686275 0.050980392 0.50196078
0.02310049 0.080943627 0.50196078
0.20098039 0.08872549 0.50196078
0.39405637 0.08872549 0.50196078
0.56519608 0.08872549 0.50588235
0.6919424 0.081372549 0.50588235
0.78872549 0.07745098 0.50196078
0.86862745 0.081372549 0.50196078
0.93779871 0.08872549 0.50196078
0.95686275 0.08872549 0.50196078
0.034313725 0.17352941 0.50196078
0.20870098 0.17352941 0.50196078
0.39509804 0.17352941 0.50196078
0.56524203 0.16960784 0.50196078
0.69191176 0.16568627 0.50588235
0.78466605 0.16176471 0.50588235
0.86556373 0.16179534 0.50196078
0.93393076 0.16973039 0.50196078
0.96029412 0.17352941 0.50196078
0.021078431 0.2658701 0.50410539
0.20226716 0.26617647 0.50222886
0.39019608 0.2622549 0.50196078
0.56000306 0.25741422 0.50196078
0.69411765 0.25784314 0.50588235
0.78088235 0.25441176 0.50588235
0.86879596 0.25441176 0.50196078
0.93429075 0.2622549 0.50196078
0.95655637 0.2622549 0.50196078
0.029166667 0.37254902 0.50196078
0.20076593 0.37625613 0.50196078
0.38627451 0.38039216 0.50196078
0.56127451 0.38431373 0.50196078
0.68737745 0.37867647 0.50588235
0.78088235 0.36862745 0.50588235
0.86844363 0.36470588 0.50367647
0.93575368 0.3629902 0.50196078
0.95098039 0.36470588 0.50196078
0.015502451 0.50018382 0.50245098
0.19532016 0.50724571 0.50588235
0.38235294 0.50802696 0.50588235
0.55754442 0.50784314 0.50588235
0.68054534 0.5002451 0.50588235
0.77873775 0.49607843 0.50846354
0.86862745 0.49964767 0.50980392
0.93284314 0.4964231 0.50588235
0.97824755 0.49754902 0.50196078
0.03627451 0.64411765 0.50588235
0.19705882 0.64744179 0.50588235
0.38235294 0.64803922 0.50588235
0.55404412 0.64754902 0.50588235
0.68039216 0.64411765 0.50588235
0.78088235 0.64411765 0.50588235
0.87254902 0.64019608 0.50689338
0.92996324 0.64852941 0.50588235
0.97953431 0.66372549 0.50588235
0.038296569 0.80686275 0.50245098
0.20882353 0.8098652 0.50588235
0.39019608 0.80980392 0.50588235
0.55686275 0.808678 0.50588235
0.68452819 0.81421569 0.50588235
0.78480392 0.80506281 0.50588235
0.87254902 0.79503676 0.50588235
0.93382353 0.80245098 0.50588235
0.98039216 0.82205882 0.50588235
0.023529412 0.96029412 0.50196078
0.20496324 0.97598039 0.50588235
0.38713235 0.94595588 0.50588235
0.5495098 0.94068627 0.50588235
0.68627451 0.95465686 0.50588235
0.78480392 0.94491422 0.50588235
0.87254902 0.93713235 0.50196078
0.93431373 0.93768382 0.50588235
0.98382353 0.95637255 0.50588235
0.031372549 0.039215686 0.49803922
0.19313725 0.047058824 0.50196078
0.38235294 0.061764706 0.50196078
0.55735294 0.066666667 0.50588235
0.69411765 0.015686275 0.50196078
0.78333333 0.017156863 0.50196078
0.86176471 0.028431373 0.50196078
0.93039216 0.047058824 0.50196078
0.95686275 0.050980392 0.50196078
0.023529412 0.089215686 0.50196078
0.20091912 0.089215686 0.50196078
0.38970588 0.089215686 0.50196078
0.56078431 0.085294118 0.50588235
0.68431373 0.084803922 0.50588235
0.78088235 0.080882353 0.50196078
0.86176471 0.082230392 0.50196078
0.93382353 0.085294118 0.50196078
0.95686275 0.085294118 0.50196078
0.032352941 0.17352941 0.50196078
0.20588235 0.17058824 0.50196078
0.39705882 0.16960784 0.50196078
0.56911765 0.16960784 0.50477941
0.68823529 0.16617647 0.50588235
0.77696078 0.16568627 0.50588235
0.86078431 0.16568627 0.50196078
0.93039216 0.16960784 0.50196078
0.95294118 0.16960784 0.50196078
0.010294118 0.25833333 0.49803922
0.20098039 0.2622549 0.50196078
0.39411765 0.2622549 0.50196078
0.5627451 0.25833333 0.50196078
0.69019608 0.25833333 0.50588235
0.77696078 0.25833333 0.50588235
0.86176471 0.25833333 0.50196078
0.93382353 0.2622549 0.50196078
0.94901961 0.2622549 0.50196078
0.017647059 0.36862745 0.50392157
0.20098039 0.37647059 0.50392157
0.39019608 0.38382353 0.50392157
0.5627451 0.38627451 0.50392157
0.68823529 0.38431373 0.50588235
0.77818627 0.36862745 0.50588235
0.86568627 0.36421569 0.50343137
0.9377451 0.36691176 0.50196078
0.97058824 0.38039216 0.50196078
0.019607843 0.49607843 0.50588235
0.19705882 0.50735294 0.50588235
0.38627451 0.51568627 0.50588235
0.56372549 0.51176471 0.50588235
0.68431373 0.50784314 0.50588235
0.78088235 0.49908088 0.50980392
0.86960784 0.49215686 0.50980392
0.93645833 0.49607843 0.50557598
0.99460784 0.49754902 0.50196078
0.032352941 0.64803922 0.50588235
0.20196078 0.64803922 0.50588235
0.38651961 0.65196078 0.50588235
0.55919118 0.64803922 0.50588235
0.68431373 0.64803922 0.50588235
0.78088235 0.64411765 0.50588235
0.86960784 0.63235294 0.50980392
0.93431373 0.64411765 0.50588235
0.98333333 0.66372549 0.50196078
0.023039216 0.81421569 0.50588235
0.20441176 0.81078431 0.50588235
0.39019608 0.81029412 0.50588235
0.54920343 0.80245098 0.50588235
0.68235294 0.81029412 0.50588235
0.78088235 0.80098039 0.50588235
0.86948529 0.78676471 0.50588235
0.93339461 0.79509804 0.50588235
0.97647059 0.81813725 0.50588235
0.0078431373 0.94117647 0.50588235
0.20490196 0.96372549 0.50588235
0.37941176 0.95 0.50588235
0.5377451 0.93333333 0.50588235
0.67843137 0.94313725 0.50588235
0.78088235 0.9372549 0.50588235
0.86960784 0.92843137 0.50196078
0.93382353 0.92941176 0.50588235
0.98039216 0.94509804 0.50588235
