site/assets/luts/natron-haldclut--kodak2383-cuspclip--57ef0bb43.cube
# LUTr-Project: LUTr — LUTrepository
# LUTr-Schema-Version: 1
# LUTr-ID: natron-haldclut--kodak2383-cuspclip--57ef0bb43
# LUTr-Title: kodak2383 cuspclip
# LUTr-Collection: Natron HaldCLUT
# LUTr-Collection-ID: natron-haldclut-presets
# LUTr-Source: https://github.com/NatronGitHub/clut
# LUTr-Source-File: submissions/natron-haldclut-presets/print/kodak2383_cuspclip.png
# LUTr-Source-Format: PNG
# LUTr-Source-SHA256: d83d75acecd89ac8976fc8e3948f20c8b22f1a366c7bca7a18e3f54e8b815260
# LUTr-License: CC-BY-SA-4.0
# LUTr-License-URL: https://github.com/NatronGitHub/clut#license
# LUTr-Tags: creative, film, film-emulation, hald-clut, natron, png, cube
# LUTr-Transform-Class: film-emulation
# LUTr-Input-Color-Space: srgb
# LUTr-Output-Color-Space: srgb
# LUTr-Color-Space-Confidence: assumed-display-referred
# LUTr-Conversion-Method: PNG LUT image decoded at 16-bit and sampled to 25x25x25 3D CUBE
# LUTr-Conversion-Date: 2026-07-27
# LUTr-Conversion-Tool: LUTr scripts/convert-all-to-cube.mjs
# LUTr-Conversion-Grid: 25x25x25
# LUTr-Note: Preserve this metadata and the upstream license notices when redistributing.
TITLE "kodak2383 cuspclip"
LUT_3D_SIZE 25
DOMAIN_MIN 0 0 0
DOMAIN_MAX 1 1 1
0.0078431373 0.0078431373 0.019607843
0.014215686 0.015686275 0.019607843
0.020588235 0.019607843 0.018627451
0.030882353 0.015686275 0.012254902
0.039215686 0.017647059 0.0098039216
0.059803922 0.027941176 0.012254902
0.080392157 0.034313725 0.015686275
0.10098039 0.043137255 0.019607843
0.13333333 0.047058824 0.015686275
0.18480392 0.053431373 0.0093137255
0.23137255 0.058823529 0.0029411765
0.29460784 0.066176471 0
0.36078431 0.076470588 0
0.41813725 0.086764706 0
0.46960784 0.093137255 0
0.51323529 0.10343137 0
0.55294118 0.10980392 0
0.58627451 0.12401961 0
0.61568627 0.13333333 0
0.62303922 0.1372549 0
0.62745098 0.14117647 0
0.63578431 0.14166667 0
0.64607843 0.14509804 0
0.65098039 0.1504902 0
0.65098039 0.15686275 0
0.0078431373 0.014215686 0.019607843
0.014215686 0.018137255 0.019607843
0.020588235 0.022426471 0.019607843
0.031188725 0.023345588 0.019914216
0.044362745 0.025980392 0.015686275
0.061948529 0.030392157 0.018137255
0.080392157 0.037132353 0.018137255
0.10098039 0.043137255 0.019607843
0.13333333 0.049509804 0.015686275
0.18878676 0.056433824 0.010845588
0.24607843 0.06372549 0.0039215686
0.31519608 0.070404412 0.00030637255
0.37745098 0.078921569 0
0.43872549 0.088909314 0
0.48627451 0.097058824 0
0.53235294 0.10588235 0
0.56715686 0.11764706 0
0.59503676 0.12647059 0
0.62058824 0.13394608 0
0.62941176 0.13939951 0.0024509804
0.63970588 0.14705882 0.0051470588
0.64852941 0.14901961 0.0024509804
0.65343137 0.15147059 0.0039215686
0.65882353 0.15686275 0.0039215686
0.66127451 0.15931373 0.0039215686
0.015686275 0.023529412 0.019607843
0.015686275 0.021691176 0.016789216
0.020833333 0.025245098 0.018872549
0.034803922 0.031004902 0.023039216
0.04754902 0.035784314 0.024509804
0.064583333 0.040196078 0.024509804
0.084313725 0.044117647 0.023529412
0.10196078 0.048039216 0.022426471
0.13823529 0.054901961 0.019607843
0.20392157 0.062254902 0.013235294
0.26666667 0.07254902 0.0068627451
0.33223039 0.078921569 0.0039215686
0.40098039 0.084803922 0.00049019608
0.45931373 0.090686275 0
0.50784314 0.10098039 0
0.54901961 0.11372549 0
0.58627451 0.12647059 0
0.61078431 0.13492647 0
0.63039216 0.14019608 0.0058823529
0.64362745 0.15428922 0.016176471
0.65392157 0.15735294 0.013235294
0.66421569 0.15784314 0.0074754902
0.66862745 0.16078431 0.0071078431
0.67156863 0.16715686 0.0088235294
0.67156863 0.16568627 0.0088235294
0.012254902 0.034313725 0.023039216
0.012254902 0.033026961 0.023039216
0.020710784 0.034803922 0.023039216
0.035232843 0.03872549 0.026531863
0.050980392 0.044607843 0.029166667
0.067647059 0.047487745 0.030882353
0.088235294 0.053431373 0.02745098
0.10882353 0.056188725 0.023529412
0.14852941 0.062254902 0.019607843
0.21421569 0.07254902 0.015379902
0.28088235 0.079289216 0.0078431373
0.34859069 0.085784314 0.0039215686
0.4129902 0.091666667 0.0039215686
0.47689951 0.097610294 0
0.52487745 0.10833333 0
0.56617647 0.12383578 0
0.60343137 0.13676471 0
0.62922794 0.14705882 0.0024509804
0.64362745 0.15735294 0.012745098
0.65692402 0.17107843 0.026470588
0.66813725 0.1754902 0.025
0.67794118 0.17199755 0.018198529
0.68443627 0.175 0.015196078
0.68578431 0.17775735 0.016973039
0.68578431 0.17990196 0.019117647
0.0098039216 0.045098039 0.029411765
0.011764706 0.045098039 0.029411765
0.017156863 0.049019608 0.029901961
0.032598039 0.050735294 0.033333333
0.05 0.053921569 0.03627451
0.068137255 0.057352941 0.037009804
0.092156863 0.062254902 0.031862745
0.11544118 0.067401961 0.026715686
0.15882353 0.074509804 0.019607843
0.22696078 0.084803922 0.014460784
0.29509804 0.095098039 0.0078431373
0.36348039 0.10343137 0.0039215686
0.42843137 0.10882353 0.0019607843
0.49117647 0.11813725 0
0.54460784 0.12843137 0
0.58357843 0.14142157 0
0.62156863 0.15294118 0
0.64485294 0.16323529 0.006372549
0.65980392 0.17107843 0.016176471
0.67401961 0.17254902 0.021323529
0.68431373 0.18137255 0.025490196
0.69240196 0.18676471 0.020343137
0.69901961 0.19509804 0.026960784
0.70318627 0.19485294 0.02745098
0.70196078 0.19411765 0.025490196
0.0039215686 0.059313725 0.035294118
0.0099877451 0.059313725 0.03560049
0.016544118 0.063357843 0.039215686
0.026470588 0.066727941 0.039215686
0.043137255 0.067647059 0.041421569
0.06807598 0.071997549 0.039644608
0.095098039 0.078431373 0.036642157
0.12794118 0.084803922 0.030085784
0.17303922 0.094607843 0.023529412
0.24166667 0.10539216 0.015870098
0.30968137 0.11213235 0.0068627451
0.37745098 0.12156863 0.0034926471
0.44362745 0.12843137 0
0.50539216 0.14264706 0
0.56078431 0.15294118 0
0.60116422 0.16341912 0
0.63578431 0.17745098 0
0.66029412 0.18529412 0.006372549
0.67610294 0.1932598 0.016666667
0.690625 0.2004902 0.026960784
0.70098039 0.20490196 0.027696078
0.70735294 0.20882353 0.024019608
0.71458333 0.2127451 0.03002451
0.71862745 0.21666667 0.029105392
0.71862745 0.2127451 0.026960784
0 0.069607843 0.039215686
0.0045343137 0.075 0.042156863
0.0095588235 0.080392157 0.043137255
0.016176471 0.081372549 0.043137255
0.03627451 0.08627451 0.043137255
0.065073529 0.089583333 0.043137255
0.095098039 0.095343137 0.03995098
0.13639706 0.10428922 0.033823529
0.18333333 0.11176471 0.02745098
0.25833333 0.13137255 0.013602941
0.32867647 0.13897059 0.0046568627
0.38823529 0.13909314 0.00012254902
0.45539216 0.1504902 0
0.51948529 0.16360294 0
0.57671569 0.17720588 0
0.61458333 0.1877451 0
0.64607843 0.19803922 0
0.6745098 0.20833333 0.0039215686
0.69313725 0.21470588 0.01372549
0.70735294 0.22156863 0.020465686
0.71813725 0.22941176 0.025980392
0.72794118 0.23235294 0.023529412
0.73431373 0.23333333 0.019852941
0.73921569 0.23688725 0.01372549
0.73921569 0.2372549 0.012745098
0 0.11176471 0.057843137
0.0015318627 0.10784314 0.056372549
0.0035539216 0.10208333 0.051470588
0.0058823529 0.099203431 0.047058824
0.027205882 0.10563725 0.047058824
0.056066176 0.11176471 0.044607843
0.089338235 0.11531863 0.043137255
0.14123775 0.13192402 0.033823529
0.19754902 0.14705882 0.022058824
0.26721814 0.16280637 0.0078431373
0.34240196 0.17585784 0.0018382353
0.42009804 0.19068627 0
0.48676471 0.20220588 0
0.54852941 0.21568627 0
0.60588235 0.22598039 0
0.6411152 0.23088235 0
0.66715686 0.23333333 0.0014705882
0.69074755 0.23333333 0
0.71078431 0.23639706 0.0024509804
0.72794118 0.24215686 0.0098039216
0.73627451 0.25343137 0.024754902
0.74442402 0.26194853 0.032352941
0.75490196 0.26764706 0.022058824
0.75980392 0.26672794 0.0054534314
0.76127451 0.26764706 0.0014705882
0 0.15686275 0.082352941
0 0.1504902 0.075980392
0 0.14019608 0.065686275
0 0.13333333 0.055392157
0.011764706 0.13921569 0.047058824
0.036764706 0.1495098 0.046568627
0.073529412 0.15980392 0.040196078
0.13431373 0.17401961 0.032352941
0.2 0.18431373 0.015686275
0.27303922 0.1995098 0
0.36470588 0.22254902 0
0.45098039 0.24607843 0
0.51764706 0.25882353 0
0.57892157 0.27058824 0
0.63431373 0.27745098 0
0.675 0.28235294 0
0.70196078 0.28627451 0.0039215686
0.72254902 0.28235294 0.0039215686
0.73823529 0.28137255 0.0039215686
0.75245098 0.28186275 0.0078431373
0.75882353 0.29411765 0.025490196
0.76519608 0.30294118 0.035294118
0.77941176 0.31666667 0.031372549
0.78578431 0.3254902 0.018137255
0.78823529 0.3254902 0.011764706
0 0.20441176 0.10294118
0 0.19803922 0.09810049
0 0.19227941 0.092647059
0.0037377451 0.19246324 0.082536765
0.0039215686 0.18995098 0.0625
0.0080269608 0.18676471 0.040196078
0.051960784 0.2 0.032843137
0.12003676 0.21574755 0.025980392
0.19607843 0.22941176 0.0093137255
0.28970588 0.25490196 0
0.38835784 0.27941176 0
0.4754902 0.29785539 0
0.54852941 0.31348039 0
0.60606618 0.32254902 0
0.66127451 0.32598039 0
0.70588235 0.33137255 0
0.73284314 0.34019608 0.006372549
0.75343137 0.34748775 0.016666667
0.76911765 0.34583333 0.022671569
0.77941176 0.35147059 0.024509804
0.78651961 0.35392157 0.025490196
0.79607843 0.36439951 0.027144608
0.80453431 0.37598039 0.02254902
0.81427696 0.3848652 0.025980392
0.81519608 0.38333333 0.019607843
0.00098039216 0.25294118 0.12745098
0.00098039216 0.25196078 0.12561275
0.0039215686 0.2497549 0.11960784
0.0039215686 0.25294118 0.10845588
0.0039215686 0.24705882 0.082843137
0.00085784314 0.24117647 0.051348039
0.024019608 0.24877451 0.030882353
0.10355392 0.25980392 0.015686275
0.19607843 0.2754902 0
0.29901961 0.30919118 0
0.39901961 0.3372549 0
0.49460784 0.35428922 0
0.5745098 0.36813725 0
0.63321078 0.38382353 0.0039215686
0.68823529 0.39044118 0.0039215686
0.73615196 0.39754902 0.0069852941
0.76666667 0.40980392 0.016666667
0.78431373 0.41041667 0.025980392
0.79681373 0.40514706 0.03995098
0.80637255 0.41421569 0.031862745
0.81323529 0.41862745 0.025
0.82242647 0.42916667 0.018137255
0.82622549 0.42916667 0.0078431373
0.83627451 0.4377451 0.01127451
0.83823529 0.44509804 0.014705882
0.01127451 0.31078431 0.15539216
0.01127451 0.31078431 0.15539216
0.0073529412 0.31078431 0.1504902
0.0078431373 0.31078431 0.13676471
0.0073529412 0.30882353 0.11053922
0.0039215686 0.30637255 0.067647059
0.0075980392 0.30392157 0.021813725
0.062132353 0.33045343 0.014889706
0.19264706 0.34117647 0
0.31029412 0.37285539 0
0.41666667 0.40245098 0
0.5122549 0.41960784 0
0.59534314 0.43921569 0.0036764706
0.66072304 0.45631127 0.0082720588
0.7182598 0.46703431 0.014215686
0.76262255 0.47518382 0.019301471
0.79117647 0.47156863 0.023039216
0.8091299 0.47371324 0.026470588
0.82340686 0.47205882 0.035784314
0.83033088 0.47892157 0.031862745
0.84044118 0.4875 0.021323529
0.84656863 0.49117647 0.0078431373
0.85257353 0.49375 0.0026960784
0.85882353 0.50343137 0.0039215686
0.86127451 0.50637255 0.0039215686
0.021568627 0.36862745 0.18627451
0.023529412 0.36666667 0.18504902
0.016666667 0.36666667 0.17745098
0.011764706 0.36666667 0.16544118
0.0078431373 0.36666667 0.13333333
0.0036764706 0.36421569 0.079901961
0 0.35539216 0.019607843
0.056127451 0.38014706 0.0075980392
0.17058824 0.40980392 0.0039215686
0.31617647 0.43872549 0.00073529412
0.43137255 0.46519608 0
0.52696078 0.49093137 0.0039215686
0.61568627 0.51176471 0.0049019608
0.68529412 0.52794118 0.0098039216
0.74411765 0.54019608 0.013235294
0.79068627 0.54705882 0.017647059
0.81764706 0.54313725 0.017647059
0.84019608 0.55147059 0.016421569
0.84803922 0.54166667 0.021568627
0.85539216 0.54436275 0.026715686
0.8627451 0.54509804 0.021568627
0.87107843 0.55147059 0.0036764706
0.87794118 0.56372549 0.0058823529
0.88382353 0.57401961 0.0039215686
0.88823529 0.57843137 0.0019607843
0.031372549 0.42156863 0.2127451
0.03560049 0.41813725 0.2127451
0.029534314 0.42205882 0.20698529
0.016176471 0.4221201 0.19368873
0.006372549 0.42794118 0.17230392
0.0039215686 0.42941176 0.13235294
0 0.42218137 0.070588235
0.022732843 0.43474265 0.020833333
0.14362745 0.46127451 0.0039215686
0.31390931 0.49767157 0
0.44522059 0.52745098 0.00098039216
0.54166667 0.55533088 0.0039215686
0.63431373 0.57941176 0.0078431373
0.71029412 0.59564951 0.0079044118
0.76519608 0.60588235 0.0040441176
0.81697304 0.61078431 0.0036151961
0.84019608 0.61421569 0.015686275
0.85814951 0.60833333 0.020098039
0.86997549 0.60698529 0.021446078
0.87984069 0.61121324 0.02745098
0.88921569 0.61691176 0.029411765
0.89558824 0.62254902 0.020098039
0.90196078 0.62941176 0.016666667
0.90863971 0.63823529 0.017279412
0.91078431 0.64166667 0.013235294
0.038235294 0.45588235 0.23039216
0.033088235 0.46446078 0.23443627
0.034068627 0.46764706 0.22622549
0.020098039 0.47438725 0.21813725
0.012745098 0.47647059 0.2
0.006495098 0.47830882 0.16115196
0.00073529412 0.47377451 0.10808824
0.021568627 0.4877451 0.046568627
0.12254902 0.50882353 0.0039215686
0.33394608 0.55 0
0.45073529 0.5870098 0.0031862745
0.56188725 0.62009804 0.0039215686
0.65343137 0.64117647 0.0078431373
0.73468137 0.65784314 0.011764706
0.79828431 0.67377451 0.017156863
0.83382353 0.6689951 0.018504902
0.86078431 0.67254902 0.029411765
0.87892157 0.67009804 0.034313725
0.89387255 0.67254902 0.037254902
0.9064951 0.67647059 0.038112745
0.91176471 0.68088235 0.03627451
0.91617647 0.68431373 0.033823529
0.92254902 0.6872549 0.032598039
0.92781863 0.6942402 0.038357843
0.93137255 0.69705882 0.040196078
0.045588235 0.48676471 0.24460784
0.040686275 0.49613971 0.24460784
0.038602941 0.50245098 0.24068627
0.029411765 0.51109069 0.2346201
0.018382353 0.51740196 0.21911765
0.011458333 0.51942402 0.18137255
0.00098039216 0.51568627 0.13333333
0.034007353 0.53621324 0.067953431
0.13088235 0.56372549 0.025490196
0.30104167 0.60091912 0.010294118
0.4432598 0.63688725 0.0099264706
0.57224265 0.67107843 0.006372549
0.66568627 0.69215686 0.0078431373
0.75569853 0.71256127 0.011948529
0.80931373 0.71960784 0.025122549
0.84901961 0.72015931 0.041237745
0.87990196 0.72107843 0.05245098
0.89803922 0.72261029 0.05245098
0.91323529 0.72806373 0.05245098
0.92432598 0.72990196 0.05245098
0.92769608 0.72671569 0.05122549
0.93106618 0.72352941 0.048223039
0.9377451 0.72708333 0.05
0.94411765 0.73921569 0.058762255
0.9504902 0.74803922 0.064215686
0.031372549 0.51764706 0.25882353
0.033823529 0.52009804 0.25490196
0.039215686 0.52647059 0.25
0.031862745 0.53284314 0.23970588
0.023529412 0.54117647 0.22941176
0.01127451 0.54901961 0.19803922
0.00098039216 0.55294118 0.15784314
0 0.56617647 0.06372549
0.098039216 0.58823529 0.0039215686
0.34656863 0.63333333 0
0.47352941 0.66666667 0.00098039216
0.58676471 0.7004902 0.0039215686
0.68431373 0.7254902 0.0098039216
0.76764706 0.74215686 0.020098039
0.81960784 0.75294118 0.037254902
0.85931373 0.76078431 0.05245098
0.89411765 0.76470588 0.066666667
0.9122549 0.76470588 0.068137255
0.92254902 0.76078431 0.065686275
0.93284314 0.75686275 0.062745098
0.93921569 0.76078431 0.064705882
0.94509804 0.75735294 0.063235294
0.95196078 0.76470588 0.069607843
0.95686275 0.77254902 0.074509804
0.95686275 0.77254902 0.074509804
0.014705882 0.53186275 0.2627451
0.020159314 0.53823529 0.25974265
0.025 0.54252451 0.25281863
0.021262255 0.5495098 0.24362745
0.01127451 0.55661765 0.23333333
0.014215686 0.56372549 0.20557598
0.012745098 0.57647059 0.16053922
0.0067401961 0.59068627 0.069485294
0.10931373 0.61519608 0.006372549
0.35091912 0.659375 0.00091911765
0.48835784 0.69656863 0.00036764706
0.6036152 0.72892157 0.0073529412
0.69730392 0.75637255 0.0098039216
0.76764706 0.77040441 0.028247549
0.82830882 0.78284314 0.04754902
0.86715686 0.78829657 0.062745098
0.90441176 0.79313725 0.074509804
0.9216299 0.79313725 0.076960784
0.93284314 0.78884804 0.074142157
0.94099265 0.78382353 0.073039216
0.94828431 0.78455882 0.07377451
0.95588235 0.79215686 0.079901961
0.96433824 0.7995098 0.084803922
0.96415441 0.79705882 0.084803922
0.96323529 0.79313725 0.084803922
0.0029411765 0.54313725 0.26372549
0.020710784 0.55245098 0.26372549
0.034068627 0.55955882 0.25955882
0.034681373 0.56911765 0.25245098
0.024019608 0.57745098 0.23333333
0.027941176 0.58137255 0.19901961
0.031862745 0.59215686 0.15220588
0.031372549 0.60784314 0.071936275
0.13039216 0.63627451 0.0049019608
0.36544118 0.68382353 0.0028186275
0.49828431 0.72156863 0.0031862745
0.61813725 0.75588235 0.0083333333
0.70441176 0.77990196 0.012745098
0.77647059 0.79068627 0.03627451
0.83529412 0.80098039 0.054656863
0.87745098 0.80735294 0.068504902
0.90980392 0.80980392 0.078431373
0.92401961 0.80980392 0.079044118
0.93823529 0.80980392 0.082352941
0.94852941 0.80980392 0.079779412
0.95588235 0.80980392 0.083333333
0.96213235 0.81409314 0.087622549
0.96789216 0.81666667 0.090931373
0.96960784 0.81556373 0.093014706
0.96960784 0.81372549 0.091176471
0.029901961 0.56029412 0.27058824
0.043321078 0.56439951 0.27046569
0.05 0.57009804 0.2627451
0.047487745 0.58333333 0.25588235
0.022058824 0.58406863 0.23529412
0.018933824 0.58915441 0.20588235
0.041666667 0.60281863 0.14840686
0.065686275 0.61844363 0.068627451
0.15686275 0.64656863 0.0093137255
0.34969363 0.6903799 0.0039215686
0.50281863 0.72843137 0.0039215686
0.6151348 0.75931373 0.014705882
0.70588235 0.78602941 0.024754902
0.78676471 0.80784314 0.043198529
0.83921569 0.81776961 0.057843137
0.88057598 0.82303922 0.072058824
0.91372549 0.82696078 0.081862745
0.92794118 0.82696078 0.082352941
0.94166667 0.82696078 0.085784314
0.95245098 0.82696078 0.08627451
0.96078431 0.82696078 0.08995098
0.9651348 0.82696078 0.090625
0.97120098 0.82696078 0.094117647
0.97254902 0.83088235 0.098039216
0.97598039 0.83088235 0.098039216
0.037254902 0.56862745 0.2745098
0.044362745 0.57058824 0.27058824
0.046568627 0.57941176 0.26176471
0.037745098 0.58970588 0.25147059
0.012745098 0.59313725 0.23235294
0.0051470588 0.59852941 0.19117647
0.0073529412 0.61029412 0.11862745
0.057598039 0.62769608 0.058088235
0.15882353 0.65490196 0.0058823529
0.35122549 0.69803922 0.0039215686
0.51078431 0.73627451 0.0049019608
0.6129902 0.76519608 0.018627451
0.70588235 0.79215686 0.030392157
0.7875 0.81617647 0.043872549
0.83921569 0.825 0.057843137
0.88039216 0.83014706 0.072058824
0.91764706 0.83333333 0.084313725
0.93382353 0.83529412 0.0875
0.94754902 0.83676471 0.088235294
0.95637255 0.83529412 0.088235294
0.96568627 0.83627451 0.090196078
0.96887255 0.8372549 0.094117647
0.97254902 0.8372549 0.097058824
0.97647059 0.84117647 0.099509804
0.97843137 0.84117647 0.10196078
0.026470588 0.56862745 0.27401961
0.029595588 0.57922794 0.27058824
0.034803922 0.58970588 0.26164216
0.034803922 0.59650735 0.24362745
0.015931373 0.60245098 0.22696078
0.00006127451 0.60882353 0.18020833
0 0.61875 0.081862745
0.082414216 0.64264706 0.044852941
0.19509804 0.66764706 0.0044117647
0.37714461 0.70851716 0.0014705882
0.51752451 0.74068627 0.0050245098
0.62303922 0.77156863 0.019117647
0.71421569 0.8002451 0.029411765
0.78633578 0.82009804 0.040134804
0.83823529 0.83039216 0.056862745
0.87647059 0.83547794 0.071752451
0.91421569 0.83970588 0.08627451
0.93841912 0.84362745 0.090196078
0.95 0.84362745 0.090196078
0.96029412 0.84362745 0.090196078
0.96862745 0.84362745 0.090441176
0.97346814 0.84362745 0.094178922
0.97696078 0.84620098 0.098039216
0.98057598 0.84705882 0.10196078
0.98431373 0.84705882 0.10196078
0.015686275 0.5745098 0.26764706
0.020588235 0.58823529 0.26764706
0.027696078 0.59681373 0.25784314
0.034803922 0.60379902 0.23333333
0.027941176 0.60980392 0.20931373
0.012132353 0.61911765 0.16102941
0.0039215686 0.6254902 0.042892157
0.11102941 0.65441176 0.017156863
0.25686275 0.68529412 0.0078431373
0.41740196 0.72009804 0.0039215686
0.5372549 0.75098039 0.0051470588
0.63370098 0.77928922 0.019117647
0.71960784 0.80392157 0.032352941
0.78284314 0.82009804 0.043627451
0.83823529 0.83259804 0.056862745
0.88333333 0.84031863 0.072058824
0.92058824 0.84607843 0.08627451
0.9432598 0.84889706 0.090196078
0.95392157 0.85 0.090196078
0.96421569 0.85 0.092769608
0.97205882 0.85098039 0.094117647
0.97683824 0.85098039 0.097181373
0.98259804 0.85098039 0.098039216
0.98431373 0.85098039 0.10196078
0.9872549 0.85098039 0.10196078
0.010294118 0.59509804 0.25735294
0.011213235 0.60147059 0.25827206
0.019485294 0.60539216 0.25196078
0.01685049 0.61666667 0.21556373
0.014215686 0.6254902 0.15857843
0.057720588 0.63480392 0.11384804
0.049877451 0.64509804 0.034558824
0.16868873 0.67009804 0.0048406863
0.30784314 0.6995098 0.0039215686
0.45091912 0.73094363 0.003370098
0.55784314 0.76029412 0.0006127451
0.64724265 0.78676471 0.01685049
0.72426471 0.80784314 0.033333333
0.78872549 0.82401961 0.047732843
0.84754902 0.83762255 0.061151961
0.89068627 0.84368873 0.075980392
0.92156863 0.84852941 0.082352941
0.94754902 0.85398284 0.092647059
0.96176471 0.85490196 0.094117647
0.96960784 0.85490196 0.097732843
0.97843137 0.85490196 0.099509804
0.98216912 0.85490196 0.10196078
0.98431373 0.85490196 0.10196078
0.990625 0.85490196 0.10404412
0.99362745 0.85490196 0.10343137
0.0039215686 0.61176471 0.24313725
0.0014705882 0.61421569 0.24068627
0.014705882 0.61078431 0.24901961
0.0014705882 0.62990196 0.18529412
0.0039215686 0.63529412 0.11960784
0.028431373 0.64068627 0.051470588
0.11470588 0.65980392 0.0078431373
0.2377451 0.68529412 0
0.34117647 0.70980392 0.0039215686
0.49166667 0.74215686 0
0.56862745 0.7627451 0
0.65098039 0.78676471 0.014705882
0.72745098 0.80784314 0.033333333
0.79166667 0.8245098 0.048039216
0.85686275 0.84117647 0.064705882
0.89068627 0.84705882 0.075980392
0.92156863 0.85098039 0.082352941
0.94852941 0.85490196 0.092647059
0.9627451 0.85588235 0.098039216
0.97254902 0.85882353 0.10196078
0.98039216 0.85882353 0.10392157
0.98431373 0.85833333 0.10588235
0.9872549 0.85490196 0.10196078
0.99215686 0.85637255 0.10588235
0.99607843 0.85882353 0.10588235
0.0053921569 0.0078431373 0.019607843
0.014215686 0.012683824 0.019607843
0.022426471 0.01629902 0.020220588
0.030882353 0.01942402 0.020772059
0.042401961 0.022794118 0.021323529
0.059803922 0.027941176 0.018627451
0.080392157 0.034926471 0.022058824
0.10098039 0.043137255 0.022058824
0.13333333 0.048529412 0.019607843
0.18480392 0.05435049 0.012683824
0.23970588 0.058823529 0.0057598039
0.30226716 0.066482843 0.00030637255
0.3620098 0.073284314 0
0.41813725 0.082536765 0
0.46666667 0.090686275 0
0.51268382 0.097058824 0
0.55294118 0.10490196 0
0.5911152 0.12156863 0
0.62242647 0.13333333 0
0.62726716 0.13137255 0
0.63259804 0.12843137 0
0.63970588 0.13235294 0
0.65 0.1377451 0
0.65827206 0.14264706 0
0.66127451 0.14264706 0
0.006372549 0.011213235 0.019607843
0.014215686 0.016873468 0.021714154
0.023039216 0.021599265 0.022809436
0.031188725 0.025176164 0.023284314
0.043903186 0.027481618 0.022058824
0.062140012 0.033134191 0.022058824
0.080392157 0.038204657 0.022058824
0.10098039 0.043137255 0.022058824
0.13333333 0.050061275 0.019607843
0.19328278 0.056433824 0.012683824
0.25300245 0.063357843 0.0072457108
0.31953891 0.070404412 0.0034390319
0.38229167 0.078155637 0.00045955882
0.43920803 0.086649816 0
0.48702512 0.094577206 0
0.53235294 0.10343137 0
0.56660539 0.11372549 0
0.59480699 0.12367494 0
0.62242647 0.13394608 0
0.63039982 0.13714001 0.00080422794
0.63970588 0.1372549 0.001685049
0.65 0.14155178 0.00080422794
0.65905331 0.14803922 0
0.6661152 0.14844516 0.0027956495
0.66764706 0.14564951 0.0024509804
0.011764706 0.024509804 0.022426471
0.014905025 0.025199142 0.024831495
0.020680147 0.026776961 0.025980392
0.034803922 0.031541054 0.025980392
0.04754902 0.036090686 0.026348039
0.06372549 0.040425858 0.026348039
0.084313725 0.044117647 0.026348039
0.1028799 0.048728554 0.023912377
0.14276961 0.055882353 0.019607843
0.20660233 0.062254902 0.013005515
0.26878064 0.07254902 0.0068627451
0.33601409 0.078921569 0.0039215686
0.40098039 0.083884804 0.0019607843
0.45931373 0.090686275 0
0.50686275 0.099601716 0
0.54901961 0.10980392 0
0.58517157 0.12218137 0
0.61078431 0.13284314 0
0.63085172 0.14142157 0.0047181373
0.6441636 0.14394914 0.0091452206
0.65453431 0.14846814 0.0095588235
0.66421569 0.15539216 0.0045496324
0.67129289 0.15879289 0.0033088235
0.67679228 0.15784314 0.006004902
0.67794118 0.15294118 0.0078431373
0.011764706 0.034803922 0.025980392
