site/assets/luts/natron-haldclut--fuji-fp-100c-alt--8b46a198c.cube
# LUTr-Project: LUTr — LUTrepository
# LUTr-Schema-Version: 1
# LUTr-ID: natron-haldclut--fuji-fp-100c-alt--8b46a198c
# LUTr-Title: fuji fp-100c ++ alt
# LUTr-Collection: Natron HaldCLUT
# LUTr-Collection-ID: natron-haldclut-presets
# LUTr-Source: https://github.com/NatronGitHub/clut
# LUTr-Source-File: submissions/natron-haldclut-presets/instant_pro/fuji_fp-100c_++_alt.png
# LUTr-Source-Format: PNG
# LUTr-Source-SHA256: 33161f1f6fbf659a999fba2cd143dc18bf3de9fdfd86990b64bb6fa8fe02e9fa
# LUTr-License: CC-BY-SA-4.0
# LUTr-License-URL: https://github.com/NatronGitHub/clut#license
# LUTr-Tags: creative, film, film-emulation, hald-clut, natron, png, cube
# LUTr-Transform-Class: film-emulation
# LUTr-Input-Color-Space: srgb
# LUTr-Output-Color-Space: srgb
# LUTr-Color-Space-Confidence: assumed-display-referred
# LUTr-Conversion-Method: PNG LUT image decoded at 16-bit and sampled to 25x25x25 3D CUBE
# LUTr-Conversion-Date: 2026-07-27
# LUTr-Conversion-Tool: LUTr scripts/convert-all-to-cube.mjs
# LUTr-Conversion-Grid: 25x25x25
# LUTr-Note: Preserve this metadata and the upstream license notices when redistributing.
TITLE "fuji fp-100c ++ alt"
LUT_3D_SIZE 25
DOMAIN_MIN 0 0 0
DOMAIN_MAX 1 1 1
0.26666667 0.21568627 0.14509804
0.26666667 0.21176471 0.14117647
0.26666667 0.21176471 0.14117647
0.27401961 0.21176471 0.14460784
0.28431373 0.21568627 0.14705882
0.29460784 0.21568627 0.14901961
0.30490196 0.21862745 0.15294118
0.32058824 0.21960784 0.14901961
0.33333333 0.21960784 0.14509804
0.35 0.22352941 0.14264706
0.3754902 0.22352941 0.14509804
0.40637255 0.22352941 0.14509804
0.43921569 0.22941176 0.14509804
0.47647059 0.23529412 0.14117647
0.51470588 0.23529412 0.14117647
0.55098039 0.23529412 0.14117647
0.58823529 0.23529412 0.14117647
0.62941176 0.23529412 0.14117647
0.66666667 0.23921569 0.14117647
0.70784314 0.24656863 0.14117647
0.74901961 0.25098039 0.14509804
0.79019608 0.25539216 0.14509804
0.83137255 0.26470588 0.14509804
0.86862745 0.27745098 0.14509804
0.90196078 0.29019608 0.14509804
0.26911765 0.21960784 0.14509804
0.26911765 0.21868873 0.14509804
0.26948529 0.21813725 0.14509804
0.27647059 0.21813725 0.14509804
0.28823529 0.21960784 0.14509804
0.29852941 0.21991422 0.14901961
0.31066176 0.22205882 0.14901961
0.32303922 0.22205882 0.14901961
0.3372549 0.22205882 0.14509804
0.35 0.22352941 0.14264706
0.3754902 0.22352941 0.1432598
0.40882353 0.22726716 0.14509804
0.44044118 0.23063725 0.14191176
0.47647059 0.23529412 0.14117647
0.51470588 0.23713235 0.14117647
0.55435049 0.23921569 0.14117647
0.59460784 0.24166667 0.14117647
0.63241422 0.24313725 0.13964461
0.67058824 0.24595588 0.13762255
0.71176471 0.25294118 0.13872549
0.75294118 0.25808824 0.14117647
0.79411765 0.26176471 0.14509804
0.83419118 0.27205882 0.14509804
0.87107843 0.28235294 0.14509804
0.89803922 0.29019608 0.14509804
0.27058824 0.22843137 0.14607843
0.27058824 0.22745098 0.14607843
0.27230392 0.22671569 0.14681373
0.27794118 0.2245098 0.14901961
0.28823529 0.2245098 0.14607843
0.29852941 0.22487745 0.14509804
0.31176471 0.22745098 0.14509804
0.3245098 0.22745098 0.14509804
0.3372549 0.22745098 0.14411765
0.35208333 0.22512255 0.14117647
0.38039216 0.22867647 0.14117647
0.41127451 0.23235294 0.14117647
0.44166667 0.23235294 0.13921569
0.47659314 0.23664216 0.1372549
0.51862745 0.24313725 0.14093137
0.56372549 0.24803922 0.14117647
0.60098039 0.25196078 0.14019608
0.63933824 0.25196078 0.13664216
0.67769608 0.25269608 0.13333333
0.71666667 0.25845588 0.13333333
0.75784314 0.26519608 0.13872549
0.79803922 0.27071078 0.14117647
0.83529412 0.27843137 0.14509804
0.8682598 0.28872549 0.14509804
0.89705882 0.29509804 0.14509804
0.27058824 0.23480392 0.14901961
0.27401961 0.23480392 0.14901961
0.2745098 0.23394608 0.14987745
0.28143382 0.23094363 0.1528799
0.29166667 0.23088235 0.15073529
0.30196078 0.23137255 0.14509804
0.3127451 0.23137255 0.14509804
0.32322304 0.23480392 0.14381127
0.34068627 0.23480392 0.14117647
0.36127451 0.2408701 0.14117647
0.39068627 0.24607843 0.14117647
0.42156863 0.24607843 0.14117647
0.4502451 0.24632353 0.14093137
0.4877451 0.25 0.1372549
0.52892157 0.25343137 0.1372549
0.57058824 0.25833333 0.1377451
0.61127451 0.2622549 0.1372549
0.64852941 0.2622549 0.13480392
0.68578431 0.26311275 0.13235294
0.72352941 0.26917892 0.13333333
0.76421569 0.27401961 0.1372549
0.80147059 0.27843137 0.14117647
0.82977941 0.28872549 0.14497549
0.85980392 0.29901961 0.1463848
0.88676471 0.30931373 0.14901961
0.2745098 0.24509804 0.14901961
0.2745098 0.24509804 0.14901961
0.2754902 0.24264706 0.15
0.28186275 0.24117647 0.15294118
0.29215686 0.24117647 0.15
0.30245098 0.24117647 0.14852941
0.3127451 0.24117647 0.14509804
0.3245098 0.23995098 0.14117647
0.34705882 0.24901961 0.14117647
0.37083333 0.25735294 0.13921569
0.39754902 0.26127451 0.14117647
0.43186275 0.2627451 0.14117647
0.46372549 0.26666667 0.14215686
0.50367647 0.27058824 0.14117647
0.54313725 0.27058824 0.1377451
0.58039216 0.26862745 0.1372549
0.61764706 0.27058824 0.1372549
0.65882353 0.27769608 0.1372549
0.69607843 0.28333333 0.13333333
0.73333333 0.28970588 0.1372549
0.76862745 0.29411765 0.14019608
0.80539216 0.3002451 0.14117647
0.83284314 0.30735294 0.14509804
0.85931373 0.31519608 0.14901961
0.88235294 0.3254902 0.15098039
0.2745098 0.25539216 0.14901961
0.2745098 0.25539216 0.14901961
0.2754902 0.25539216 0.14901961
0.28278186 0.25539216 0.14901961
0.29215686 0.25759804 0.14901961
0.30245098 0.25588235 0.14509804
0.3127451 0.25588235 0.14509804
0.33020833 0.25980392 0.14117647
0.35343137 0.26372549 0.1372549
0.37794118 0.27371324 0.13694853
0.40735294 0.27634804 0.13811275
0.44166667 0.27941176 0.14417892
0.47892157 0.28529412 0.14485294
0.51617647 0.29117647 0.14025735
0.55735294 0.29117647 0.1372549
0.59313725 0.29136029 0.13676471
0.62794118 0.29558824 0.13333333
0.66666667 0.29901961 0.13333333
0.70539216 0.30294118 0.13321078
0.7401348 0.30729167 0.13333333
0.77279412 0.31666667 0.1372549
0.80588235 0.32346814 0.14117647
0.84056373 0.33333333 0.14509804
0.86764706 0.33970588 0.15030637
0.89019608 0.34607843 0.15294118
0.2745098 0.26568627 0.14901961
0.2745098 0.26568627 0.14901961
0.2754902 0.26568627 0.14901961
0.28578431 0.26948529 0.14901961
0.29215686 0.27254902 0.14509804
0.30245098 0.27267157 0.14509804
0.31568627 0.27573529 0.14436275
0.33921569 0.28186275 0.14117647
0.36078431 0.28431373 0.1372549
0.38492647 0.29068627 0.13333333
0.41544118 0.29387255 0.13504902
0.44938725 0.3 0.13823529
0.48627451 0.30784314 0.13823529
0.52732843 0.31176471 0.1372549
0.56764706 0.31397059 0.13357843
0.60490196 0.31678922 0.13333333
0.64215686 0.32254902 0.13333333
0.67696078 0.32352941 0.13039216
0.7127451 0.32647059 0.12941176
0.7439951 0.33088235 0.13026961
0.77745098 0.34068627 0.13382353
0.80968137 0.34754902 0.13737745
0.84411765 0.35686275 0.14191176
0.87683824 0.36384804 0.14718137
0.89705882 0.37058824 0.14901961
0.27303922 0.28676471 0.14901961
0.2745098 0.28676471 0.14901961
0.27879902 0.28921569 0.14901961
0.28578431 0.28921569 0.14558824
0.29215686 0.28921569 0.14509804
0.29901961 0.28792892 0.14117647
0.32071078 0.29607843 0.14117647
0.34411765 0.30245098 0.14117647
0.36862745 0.30637255 0.1372549
0.39313725 0.30974265 0.13088235
0.42401961 0.31703431 0.12941176
0.45490196 0.32420343 0.13186275
0.49166667 0.33112745 0.13063725
0.53529412 0.33382353 0.12794118
0.57647059 0.3377451 0.12794118
0.61519608 0.34313725 0.12941176
0.65245098 0.3495098 0.12941176
0.6872549 0.35435049 0.12941176
0.72205882 0.35735294 0.12941176
0.75294118 0.36096814 0.12598039
0.78382353 0.36568627 0.12794118
0.81734069 0.37205882 0.12971814
0.8495098 0.37990196 0.13688725
0.88431373 0.38872549 0.14417892
0.90735294 0.39509804 0.14509804
0.27058824 0.31372549 0.14901961
0.27303922 0.31372549 0.14901961
0.27941176 0.31470588 0.14901961
0.28578431 0.31372549 0.14509804
0.29215686 0.31372549 0.14509804
0.30294118 0.31764706 0.14166667
0.32352941 0.32156863 0.14509804
0.34411765 0.33088235 0.14117647
0.36862745 0.33333333 0.1372549
0.39313725 0.3372549 0.13088235
0.42647059 0.34215686 0.1254902
0.46127451 0.34852941 0.12156863
0.49803922 0.35490196 0.12156863
0.53921569 0.36470588 0.11764706
0.57941176 0.37156863 0.11372549
0.6254902 0.37647059 0.12303922
0.6627451 0.38431373 0.12941176
0.69754902 0.38823529 0.12941176
0.72843137 0.38823529 0.12941176
0.75931373 0.39166667 0.1254902
0.79411765 0.39215686 0.12156863
0.825 0.39656863 0.12205882
0.85588235 0.40686275 0.13235294
0.89068627 0.41323529 0.13872549
0.91764706 0.42352941 0.14509804
0.26666667 0.34068627 0.14901961
0.27303922 0.34068627 0.14901961
0.27941176 0.34460784 0.14803922
0.28578431 0.34460784 0.14509804
0.29215686 0.34852941 0.14509804
0.30508578 0.34852941 0.14509804
0.32352941 0.35147059 0.14754902
0.34411765 0.35784314 0.14362745
0.36617647 0.36176471 0.1372549
0.3901348 0.36568627 0.1278799
0.42463235 0.37205882 0.12267157
0.46096814 0.378125 0.11783088
0.49877451 0.38578431 0.10931373
0.53921569 0.39607843 0.103125
0.57941176 0.40637255 0.099509804
0.62696078 0.41127451 0.11029412
0.67303922 0.41519608 0.12303922
0.70784314 0.41911765 0.1254902
0.73811275 0.42156863 0.1254902
0.76715686 0.42303922 0.12334559
0.79803922 0.4254902 0.12083333
0.82892157 0.42745098 0.12628676
0.85980392 0.4377451 0.13872549
0.89068627 0.44748775 0.14901961
0.91764706 0.45441176 0.15784314
0.26568627 0.37156863 0.14509804
0.27022059 0.37218137 0.14620098
0.27769608 0.3754902 0.14509804
0.28235294 0.3754902 0.14509804
0.29215686 0.37941176 0.14264706
0.30686275 0.37941176 0.14558824
0.32352941 0.38235294 0.14901961
0.34411765 0.38480392 0.14362745
0.36470588 0.39019608 0.13333333
0.38713235 0.39301471 0.12487745
0.41960784 0.4 0.11740196
0.45723039 0.41029412 0.10931373
0.49754902 0.41715686 0.099019608
0.53529412 0.42696078 0.087745098
0.57647059 0.4372549 0.081372549
0.62487745 0.44215686 0.093627451
0.66960784 0.44607843 0.10392157
0.70894608 0.45245098 0.11666667
0.74019608 0.45808824 0.12156863
0.77107843 0.46139706 0.12156863
0.80196078 0.4627451 0.12401961
0.83284314 0.46311275 0.13125
0.86151961 0.46960784 0.14705882
0.89460784 0.47990196 0.15931373
0.91764706 0.48921569 0.16960784
0.25931373 0.40637255 0.14509804
0.2653799 0.40637255 0.14509804
0.27193627 0.40894608 0.14509804
0.28186275 0.40637255 0.14209559
0.28848039 0.41029412 0.14117647
0.30686275 0.41029412 0.14515931
0.32352941 0.41323529 0.14901961
0.34411765 0.41568627 0.14362745
0.36470588 0.41813725 0.13333333
0.38186275 0.42205882 0.12518382
0.41605392 0.43088235 0.11531863
0.45386029 0.44117647 0.10245098
0.49411765 0.4495098 0.08872549
0.5348652 0.45735294 0.074080882
0.57254902 0.46421569 0.06372549
0.61813725 0.47058824 0.073039216
0.66323529 0.47696078 0.083333333
0.70177696 0.4846201 0.093933824
0.74019608 0.4935049 0.11176471
0.7745098 0.49957108 0.12113971
0.80539216 0.5002451 0.12745098
0.83676471 0.5 0.13382353
0.86715686 0.50343137 0.14705882
0.89803922 0.51372549 0.16501225
0.92156863 0.52401961 0.18382353
0.25490196 0.44117647 0.14117647
0.25808824 0.44191176 0.14117647
0.26764706 0.44117647 0.14117647
0.27794118 0.4375 0.14117647
0.2872549 0.43823529 0.14019608
0.30637255 0.44117647 0.14142157
0.32352941 0.44264706 0.14509804
0.34338235 0.44509804 0.14044118
0.36078431 0.44901961 0.13333333
0.38137255 0.45294118 0.12696078
0.41176471 0.46176471 0.11666667
0.44901961 0.47205882 0.10294118
0.48823529 0.47941176 0.087254902
0.52892157 0.48651961 0.069607843
0.56666667 0.49215686 0.050980392
0.61053922 0.50147059 0.05245098
0.65294118 0.50784314 0.060784314
0.69411765 0.51568627 0.071078431
0.73480392 0.52401961 0.08627451
0.77254902 0.53112745 0.10686275
0.80784314 0.53529412 0.12156863
0.84264706 0.53529412 0.13161765
0.87352941 0.53823529 0.14362745
0.90245098 0.54852941 0.17107843
0.9254902 0.55882353 0.19411765
0.25098039 0.47598039 0.14117647
0.25471814 0.47598039 0.14117647
0.26372549 0.47634804 0.14154412
0.27401961 0.47254902 0.14117647
0.28627451 0.47205882 0.14117647
0.30294118 0.47205882 0.14117647
0.32316176 0.47205882 0.14117647
0.34019608 0.47567402 0.13970588
0.36078431 0.47990196 0.13333333
0.37745098 0.48382353 0.12941176
0.41078431 0.49252451 0.11960784
0.44509804 0.49944853 0.10680147
0.47990196 0.50931373 0.094607843
0.51519608 0.51911765 0.078860294
0.55637255 0.52340686 0.060906863
0.60116422 0.53235294 0.041666667
0.64264706 0.53872549 0.038235294
0.68382353 0.54509804 0.041666667
0.725 0.55012255 0.05
0.76617647 0.55435049 0.063296569
0.80343137 0.56004902 0.086029412
0.84117647 0.56574755 0.11323529
0.87892157 0.57254902 0.14105392
0.90637255 0.58302696 0.17401961
0.93333333 0.59019608 0.20441176
0.24705882 0.50686275 0.13823529
0.25159314 0.51041667 0.14117647
0.26053922 0.51078431 0.14509804
0.27009804 0.50992647 0.14411765
0.28627451 0.50833333 0.14411765
0.30294118 0.5067402 0.14497549
0.32058824 0.50367647 0.14191176
0.34019608 0.50441176 0.13970588
0.35784314 0.51078431 0.1372549
0.37745098 0.51323529 0.13051471
0.40710784 0.52034314 0.12058824
0.43872549 0.52990196 0.11323529
0.47254902 0.54019608 0.10294118
0.50490196 0.54742647 0.092156863
0.54607843 0.55686275 0.067892157
0.58872549 0.56176471 0.040196078
0.63235294 0.56960784 0.02745098
0.67352941 0.57352941 0.01875
0.71470588 0.57745098 0.017892157
0.75588235 0.5810049 0.019485294
0.79705882 0.58578431 0.034803922
0.83431373 0.59056373 0.075490196
0.87156863 0.59779412 0.11348039
0.90245098 0.61029412 0.15
0.92941176 0.62058824 0.19019608
0.24166667 0.54313725 0.1372549
0.24650735 0.54466912 0.13878676
0.25870098 0.54595588 0.1439951
0.27009804 0.54705882 0.1463848
0.28553922 0.54632353 0.14901961
0.30294118 0.54166667 0.1463848
0.32058824 0.53921569 0.14509804
0.34019608 0.53921569 0.14117647
0.35686275 0.54166667 0.1372549
0.3783701 0.54558824 0.13333333
0.40686275 0.55012255 0.12598039
0.4377451 0.55716912 0.11783088
0.47254902 0.56715686 0.10784314
0.50343137 0.57726716 0.097058824
0.53823529 0.58382353 0.06997549
0.57935049 0.59019608 0.03872549
0.62205882 0.59656863 0.018137255
0.66323529 0.6004902 0.010294118
0.70441176 0.60441176 0.0078431373
0.74920343 0.60814951 0.0042279412
0.79068627 0.6122549 0.0098039216
0.82530637 0.61666667 0.042156863
0.86335784 0.6254902 0.07745098
0.89460784 0.63578431 0.11819853
0.92401961 0.64607843 0.17107843
0.23529412 0.58039216 0.13333333
0.24411765 0.58039216 0.13970588
0.25588235 0.58431373 0.14509804
0.26617647 0.58431373 0.14901961
0.28431373 0.58235294 0.14901961
0.30294118 0.57990196 0.14901961
0.31960784 0.57647059 0.14509804
0.33627451 0.57254902 0.14117647
0.35686275 0.57647059 0.1372549
0.38382353 0.57892157 0.14117647
0.41078431 0.58039216 0.13529412
0.4377451 0.5877451 0.12205882
0.46862745 0.59411765 0.11176471
0.50343137 0.60441176 0.10098039
0.5372549 0.61176471 0.07745098
0.5745098 0.61960784 0.037254902
0.61568627 0.62352941 0.0039215686
0.65441176 0.62990196 0.0039215686
0.69803922 0.63529412 0.0078431373
0.74264706 0.63872549 0.0078431373
0.78235294 0.64313725 0.01372549
0.81764706 0.64705882 0.020098039
0.85882353 0.65392157 0.03627451
0.89068627 0.66421569 0.084803922
0.92156863 0.67058824 0.15686275
0.24313725 0.61519608 0.14754902
0.24650735 0.61856618 0.14754902
0.25196078 0.62156863 0.14901961
0.26354167 0.62156863 0.15245098
0.28235294 0.61838235 0.15294118
0.30245098 0.61501225 0.15116422
0.31960784 0.61188725 0.14791667
0.33480392 0.60735294 0.14270833
0.35931373 0.60980392 0.14362745
0.3877451 0.61280637 0.14509804
0.41654412 0.61580882 0.14473039
0.44411765 0.61893382 0.13265931
0.47181373 0.625 0.11617647
0.49969363 0.63265931 0.10147059
0.5372549 0.64166667 0.079289216
0.5745098 0.64803922 0.054840686
0.61176471 0.65441176 0.027941176
0.65140931 0.66078431 0.013664216
0.69166667 0.66617647 0.011764706
0.73529412 0.67009804 0.011764706
0.7752451 0.67401961 0.0125
0.81372549 0.67794118 0.0075367647
0.85306373 0.68125 0.0022058824
0.88915441 0.68872549 0.06807598
0.92156863 0.69754902 0.14264706
0.25196078 0.65392157 0.1627451
0.25588235 0.65490196 0.16213235
0.25588235 0.65784314 0.15784314
0.26286765 0.65784314 0.15502451
0.28627451 0.65392157 0.15980392
0.30686275 0.65085784 0.16176471
0.3245098 0.64705882 0.1620098
0.34607843 0.64705882 0.16372549
0.36960784 0.64705882 0.15882353
0.39656863 0.64889706 0.16176471
0.42352941 0.65098039 0.15857843
0.4504902 0.65392157 0.14754902
0.47745098 0.65833333 0.13186275
0.50453431 0.66568627 0.11617647
0.53848039 0.66960784 0.10294118
0.57696078 0.67892157 0.086642157
0.6127451 0.68529412 0.069607843
0.65110294 0.69166667 0.049019608
0.69019608 0.69705882 0.029166667
0.73137255 0.7004902 0.017156863
0.77254902 0.70441176 0.011764706
0.80968137 0.70539216 0.0089460784
0.84632353 0.70882353 0.0078431373
0.88394608 0.71605392 0.041176471
0.9127451 0.72352941 0.10196078
0.25833333 0.68872549 0.17598039
0.26470588 0.69246324 0.17598039
0.2745098 0.69264706 0.18026961
0.28137255 0.69221814 0.17941176
0.29191176 0.68872549 0.17205882
0.31078431 0.68780637 0.17248775
0.3377451 0.68480392 0.18235294
0.36323529 0.68431373 0.19099265
0.38333333 0.68431373 0.18333333
0.40441176 0.6846201 0.17941176
0.43026961 0.68566176 0.1745098
0.46078431 0.68872549 0.17156863
0.4877451 0.69264706 0.16127451
0.51862745 0.69699755 0.15098039
0.5495098 0.70343137 0.1372549
0.57910539 0.70833333 0.11862745
0.61568627 0.71617647 0.1004902
0.65294118 0.72009804 0.083639706
0.69019608 0.725 0.059313725
0.73094363 0.7283701 0.034865196
0.76887255 0.73382353 0.013480392
0.80588235 0.73627451 0.0083333333
0.84313725 0.73970588 0.0078431373
0.88069853 0.74509804 0.018995098
0.90245098 0.74803922 0.053431373
0.26470588 0.72745098 0.19019608
0.27941176 0.72745098 0.2004902
0.29607843 0.72745098 0.21078431
0.30539216 0.72573529 0.20637255
0.30980392 0.72352941 0.19509804
0.325 0.72352941 0.19485294
0.35392157 0.72156863 0.20980392
0.38333333 0.72156863 0.22009804
0.4 0.72156863 0.20588235
0.41470588 0.71960784 0.19485294
0.44215686 0.72156863 0.19803922
0.47132353 0.72352941 0.20196078
0.49901961 0.72647059 0.19215686
0.53112745 0.73161765 0.18823529
0.5622549 0.73676471 0.17794118
0.59068627 0.74191176 0.16127451
0.62352941 0.74313725 0.14901961
0.65882353 0.7495098 0.12720588
0.69607843 0.75196078 0.10294118
0.73333333 0.75833333 0.072058824
0.77058824 0.7627451 0.042156863
0.80759804 0.76666667 0.023039216
0.84362745 0.77009804 0.016176471
0.88357843 0.77328431 0.0066176471
0.89803922 0.7745098 0.021568627
0.31617647 0.7622549 0.24607843
0.31243873 0.7622549 0.24185049
0.32144608 0.7622549 0.24252451
0.3317402 0.75882353 0.24209559
0.35147059 0.75882353 0.24803922
0.36764706 0.75882353 0.24957108
0.38468137 0.75882353 0.24987745
0.40392157 0.75882353 0.25098039
0.42107843 0.75882353 0.24166667
0.44852941 0.75490196 0.24852941
0.47058824 0.7557598 0.24901961
0.4877451 0.75833333 0.23529412
0.51348039 0.76053922 0.23088235
0.54748775 0.76666667 0.23327206
0.57794118 0.77316176 0.22267157
0.60882353 0.77401961 0.21452206
0.64019608 0.77794118 0.21078431
0.67322304 0.77824755 0.19068627
0.70943627 0.78186275 0.1692402
0.74454657 0.78578431 0.14650735
0.78284314 0.79142157 0.13431373
0.81421569 0.79405637 0.12604167
0.85110294 0.79754902 0.10845588
0.88676471 0.80098039 0.08872549
0.90637255 0.80147059 0.083333333
0.3745098 0.79705882 0.31176471
0.37205882 0.79607843 0.30502451
0.36985294 0.79632353 0.29926471
0.38137255 0.79607843 0.30257353
0.40637255 0.79607843 0.31470588
0.41568627 0.79607843 0.30784314
0.41936275 0.79681373 0.29338235
0.42916667 0.8 0.28517157
0.45882353 0.79607843 0.29901961
0.48970588 0.79215686 0.31213235
0.51176471 0.79215686 0.31372549
0.53235294 0.79313725 0.30980392
0.55294118 0.79313725 0.30392157
0.57401961 0.80012255 0.29056373
0.59877451 0.80490196 0.28529412
0.62892157 0.80784314 0.28026961
0.65686275 0.80882353 0.2754902
0.69166667 0.8127451 0.26458333
0.72647059 0.81348039 0.25588235
0.76090686 0.81666667 0.24852941
0.79313725 0.82058824 0.24411765
0.82794118 0.82745098 0.2435049
0.86176471 0.82843137 0.2254902
0.89031863 0.82843137 0.20159314
0.91372549 0.83235294 0.19901961
0.44019608 0.83333333 0.38284314
0.43627451 0.83241422 0.37591912
0.43480392 0.83186275 0.37107843
0.44491422 0.83333333 0.37469363
0.46421569 0.83578431 0.38284314
0.47028186 0.83333333 0.3745098
0.4745098 0.83333333 0.36286765
0.49166667 0.83425245 0.36764706
0.51862745 0.83333333 0.37794118
0.54074755 0.82849265 0.38192402
0.55894608 0.82830882 0.38602941
0.58284314 0.83284314 0.39344363
0.60147059 0.83137255 0.38823529
0.62401961 0.83351716 0.38363971
0.64460784 0.83970588 0.38223039
0.66764706 0.84209559 0.37996324
0.69607843 0.84362745 0.37941176
0.72604167 0.84509804 0.36911765
0.75245098 0.84754902 0.36090686
0.77941176 0.85098039 0.35949755
0.8127451 0.85539216 0.36323529
0.84362745 0.86109069 0.36636029
0.8745098 0.86323529 0.35330882
0.89797794 0.85931373 0.33137255
0.91372549 0.86323529 0.33284314
0.49019608 0.8627451 0.43921569
0.49019608 0.8627451 0.43529412
0.49411765 0.8627451 0.43529412
0.50147059 0.8627451 0.43872549
0.51176471 0.86666667 0.44313725
0.5254902 0.86666667 0.44313725
0.53627451 0.86666667 0.44313725
0.55343137 0.86813725 0.45
0.56862745 0.86666667 0.45098039
0.57254902 0.85245098 0.43284314
0.59117647 0.85490196 0.4372549
0.6254902 0.8622549 0.45784314
0.65490196 0.87058824 0.47647059
0.675 0.87401961 0.48137255
0.68529412 0.87058824 0.46372549
0.70490196 0.87058824 0.46421569
0.73333333 0.8745098 0.4745098
0.75392157 0.8745098 0.46176471
0.77843137 0.8745098 0.45
0.80245098 0.87794118 0.44705882
0.82941176 0.88431373 0.45686275
0.86421569 0.89460784 0.47990196
0.88529412 0.89509804 0.4754902
0.90098039 0.88627451 0.44166667
0.91372549 0.88627451 0.44313725
0.26911765 0.21568627 0.14754902
0.26911765 0.21476716 0.14754902
0.26948529 0.21421569 0.14754902
0.27647059 0.21550245 0.14754902
0.28431373 0.21568627 0.14901961
0.29460784 0.21568627 0.15165441
0.30490196 0.21568627 0.15294118
0.31758578 0.21960784 0.15238971
0.33333333 0.21960784 0.14901961
0.3533701 0.22352941 0.14754902
0.37732843 0.22352941 0.14509804
0.40422794 0.22352941 0.14724265
0.43921569 0.22622549 0.14509804
0.47616422 0.22922794 0.14509804
0.51372549 0.23247549 0.14509804
0.55098039 0.23529412 0.14509804
0.59068627 0.23529412 0.14362745
0.62941176 0.23529412 0.14209559
0.67022059 0.23921569 0.14117647
0.70814951 0.24442402 0.14362745
0.74901961 0.25098039 0.14509804
0.79019608 0.25508578 0.14509804
0.83137255 0.26176471 0.14509804
0.86862745 0.27745098 0.14509804
0.90196078 0.29019608 0.14509804
0.27058824 0.21813725 0.14754902
0.27058824 0.21813725 0.14754902
0.27058824 0.21813725 0.14754902
0.27794118 0.21813725 0.14754902
0.28823529 0.21887255 0.14901961
0.29841452 0.21960784 0.14901961
0.30790441 0.22205882 0.15035233
0.32061121 0.22205882 0.14959406
0.33333333 0.22205882 0.14901961
0.35371477 0.22352941 0.14754902
0.37863051 0.22352941 0.14509804
0.40882353 0.22598039 0.14509804
0.44044118 0.22791054 0.14463848
0.47647059 0.23148744 0.14381127
0.51723346 0.23506434 0.14624694
0.55643382 0.2379519 0.14509804
0.59552696 0.24166667 0.14362745
0.63520987 0.24201134 0.14209559
0.67372855 0.2457261 0.14048713
0.71195619 0.25079657 0.14117647
0.75294118 0.25612745 0.14286152
0.79411765 0.26176471 0.14509804
0.83419118 0.2689185 0.14509804
0.87107843 0.28024663 0.14509804
0.90196078 0.29019608 0.14509804
0.27058824 0.22561275 0.14901961
0.27120098 0.22492341 0.14901961
0.2736826 0.2245098 0.14901961
0.27794118 0.22389706 0.14963235
0.28823529 0.22420343 0.14901961
0.29852941 0.2245098 0.14865196
0.30882353 0.22745098 0.14865196
0.32303922 0.22745098 0.14823836
0.3372549 0.22745098 0.14754902
0.35712316 0.22765012 0.14754902
0.38431373 0.23125 0.14754902
0.41519608 0.2339614 0.14594056
0.44571078 0.23480392 0.14454657
0.4810049 0.23627451 0.14586397
0.52245711 0.24129902 0.1448223
0.56372549 0.24803922 0.14362745
0.60453431 0.25196078 0.14362745
0.64192708 0.25196078 0.14163603
0.67941176 0.25196078 0.13970588
0.71864277 0.25684743 0.13970588
0.75784314 0.26519608 0.14099265
0.79803922 0.27071078 0.14117647
