site/assets/luts/natron-haldclut--fuji-fp-3000b-negative---9ab5ef3ae.cube
# LUTr-Project: LUTr — LUTrepository
# LUTr-Schema-Version: 1
# LUTr-ID: natron-haldclut--fuji-fp-3000b-negative---9ab5ef3ae
# LUTr-Title: fuji fp-3000b negative --
# LUTr-Collection: Natron HaldCLUT
# LUTr-Collection-ID: natron-haldclut-presets
# LUTr-Source: https://github.com/NatronGitHub/clut
# LUTr-Source-File: submissions/natron-haldclut-presets/instant_pro/fuji_fp-3000b_negative_--.png
# LUTr-Source-Format: PNG
# LUTr-Source-SHA256: ae09a902c103873814f1ce1d70e55306decf23756a894f9b195dca45be3c832b
# LUTr-License: CC-BY-SA-4.0
# LUTr-License-URL: https://github.com/NatronGitHub/clut#license
# LUTr-Tags: creative, film, film-emulation, hald-clut, natron, png, cube
# LUTr-Transform-Class: film-emulation
# LUTr-Input-Color-Space: srgb
# LUTr-Output-Color-Space: srgb
# LUTr-Color-Space-Confidence: assumed-display-referred
# LUTr-Conversion-Method: PNG LUT image decoded at 16-bit and sampled to 25x25x25 3D CUBE
# LUTr-Conversion-Date: 2026-07-27
# LUTr-Conversion-Tool: LUTr scripts/convert-all-to-cube.mjs
# LUTr-Conversion-Grid: 25x25x25
# LUTr-Note: Preserve this metadata and the upstream license notices when redistributing.
TITLE "fuji fp-3000b negative --"
LUT_3D_SIZE 9
DOMAIN_MIN 0 0 0
DOMAIN_MAX 1 1 1
0.035294118 0.035294118 0.035294118
0.058333333 0.058333333 0.058333333
0.12254902 0.12254902 0.12254902
0.1995098 0.1995098 0.1995098
0.28823529 0.28823529 0.28823529
0.38088235 0.38088235 0.38088235
0.4745098 0.4745098 0.4745098
0.57794118 0.57794118 0.57794118
0.65882353 0.65882353 0.65882353
0.076960784 0.076960784 0.076960784
0.10784314 0.10784314 0.10784314
0.1622549 0.1622549 0.1622549
0.22990196 0.22990196 0.22990196
0.33039216 0.33039216 0.33039216
0.41158088 0.41158088 0.41158088
0.5004902 0.5004902 0.5004902
0.58970588 0.58970588 0.58970588
0.66666667 0.66666667 0.66666667
0.16372549 0.16372549 0.16372549
0.18247549 0.18247549 0.18247549
0.21470588 0.21470588 0.21470588
0.29558824 0.29558824 0.29558824
0.38039216 0.38039216 0.38039216
0.45588235 0.45588235 0.45588235
0.53529412 0.53529412 0.53529412
0.6122549 0.6122549 0.6122549
0.68921569 0.68921569 0.68921569
0.28284314 0.28284314 0.28284314
0.29577206 0.29577206 0.29577206
0.30833333 0.30833333 0.30833333
0.3627451 0.3627451 0.3627451
0.43235294 0.43235294 0.43235294
0.4995098 0.4995098 0.4995098
0.57009804 0.57009804 0.57009804
0.65098039 0.65098039 0.65098039
0.73039216 0.73039216 0.73039216
0.41176471 0.41176471 0.41176471
0.40392157 0.40392157 0.40392157
0.41127451 0.41127451 0.41127451
0.44362745 0.44362745 0.44362745
0.48627451 0.48627451 0.48627451
0.54485294 0.54485294 0.54485294
0.61421569 0.61421569 0.61421569
0.69534314 0.69534314 0.69534314
0.7627451 0.7627451 0.7627451
0.52745098 0.52745098 0.52745098
0.51599265 0.51599265 0.51599265
0.51360294 0.51360294 0.51360294
0.53627451 0.53627451 0.53627451
0.56715686 0.56715686 0.56715686
0.6028799 0.6028799 0.6028799
0.66433824 0.66433824 0.66433824
0.73627451 0.73627451 0.73627451
0.80147059 0.80147059 0.80147059
0.64313725 0.64313725 0.64313725
0.63529412 0.63529412 0.63529412
0.62352941 0.62352941 0.62352941
0.62928922 0.62928922 0.62928922
0.65980392 0.65980392 0.65980392
0.69460784 0.69460784 0.69460784
0.7254902 0.7254902 0.7254902
0.78333333 0.78333333 0.78333333
0.83627451 0.83627451 0.83627451
0.7627451 0.7627451 0.7627451
0.75931373 0.75931373 0.75931373
0.75098039 0.75098039 0.75098039
0.75275735 0.75275735 0.75275735
0.76078431 0.76078431 0.76078431
0.79166667 0.79166667 0.79166667
0.81801471 0.81801471 0.81801471
0.85294118 0.85294118 0.85294118
0.88333333 0.88333333 0.88333333
0.8627451 0.8627451 0.8627451
0.87401961 0.87401961 0.87401961
0.86666667 0.86666667 0.86666667
0.87058824 0.87058824 0.87058824
0.86470588 0.86470588 0.86470588
0.89313725 0.89313725 0.89313725
0.89411765 0.89411765 0.89411765
0.92647059 0.92647059 0.92647059
0.9372549 0.9372549 0.9372549
0.069607843 0.069607843 0.069607843
0.10441176 0.10441176 0.10441176
0.15343137 0.15343137 0.15343137
0.23400735 0.23400735 0.23400735
0.31519608 0.31519608 0.31519608
0.4 0.4 0.4
0.49264706 0.49264706 0.49264706
0.58578431 0.58578431 0.58578431
0.66666667 0.66666667 0.66666667
0.11470588 0.11470588 0.11470588
0.13572304 0.13572304 0.13572304
0.18506434 0.18506434 0.18506434
0.25863971 0.25863971 0.25863971
0.34019608 0.34019608 0.34019608
0.42261029 0.42261029 0.42261029
0.50784314 0.50784314 0.50784314
0.59705882 0.59705882 0.59705882
0.67751225 0.67751225 0.67751225
0.21213235 0.21213235 0.21213235
0.22303922 0.22303922 0.22303922
0.24914216 0.24914216 0.24914216
0.31617647 0.31617647 0.31617647
0.39215686 0.39215686 0.39215686
0.4638174 0.4638174 0.4638174
0.53909314 0.53909314 0.53909314
0.62009804 0.62009804 0.62009804
0.69705882 0.69705882 0.69705882
0.3245098 0.3245098 0.3245098
0.31927849 0.31927849 0.31927849
0.31799939 0.31799939 0.31799939
0.37401961 0.37401961 0.37401961
0.44148284 0.44148284 0.44148284
0.50998009 0.50998009 0.50998009
0.57749694 0.57749694 0.57749694
0.65844056 0.65844056 0.65844056
0.73792892 0.73792892 0.73792892
0.42892157 0.42892157 0.42892157
0.42328431 0.42328431 0.42328431
0.42254902 0.42254902 0.42254902
0.45196078 0.45196078 0.45196078
0.49411765 0.49411765 0.49411765
0.55759804 0.55759804 0.55759804
0.62205882 0.62205882 0.62205882
0.70140931 0.70140931 0.70140931
0.77058824 0.77058824 0.77058824
0.53137255 0.53137255 0.53137255
0.52699908 0.52699908 0.52699908
0.52941176 0.52941176 0.52941176
0.54019608 0.54019608 0.54019608
0.57009804 0.57009804 0.57009804
0.61372549 0.61372549 0.61372549
0.67507659 0.67507659 0.67507659
0.7437883 0.7437883 0.7437883
0.80882353 0.80882353 0.80882353
0.64571078 0.64571078 0.64571078
0.64264706 0.64264706 0.64264706
0.63529412 0.63529412 0.63529412
0.64448529 0.64448529 0.64448529
0.66323529 0.66323529 0.66323529
0.69171262 0.69171262 0.69171262
0.73005515 0.73005515 0.73005515
0.79509804 0.79509804 0.79509804
0.84362745 0.84362745 0.84362745
0.76666667 0.76666667 0.76666667
0.76672028 0.76672028 0.76672028
0.75882353 0.75882353 0.75882353
0.75882353 0.75882353 0.75882353
0.76053922 0.76053922 0.76053922
0.79117647 0.79117647 0.79117647
0.81453738 0.81453738 0.81453738
0.85735294 0.85735294 0.85735294
0.8872549 0.8872549 0.8872549
0.87058824 0.87058824 0.87058824
0.87493873 0.87493873 0.87493873
0.87058824 0.87058824 0.87058824
0.86666667 0.86666667 0.86666667
0.85710784 0.85710784 0.85710784
0.87469363 0.87469363 0.87469363
0.89509804 0.89509804 0.89509804
0.92647059 0.92647059 0.92647059
0.9372549 0.9372549 0.9372549
0.15784314 0.15784314 0.15784314
0.19166667 0.19166667 0.19166667
0.22965686 0.22965686 0.22965686
0.29669118 0.29669118 0.29669118
0.3627451 0.3627451 0.3627451
0.43664216 0.43664216 0.43664216
0.51568627 0.51568627 0.51568627
0.60539216 0.60539216 0.60539216
0.68921569 0.68921569 0.68921569
0.19656863 0.19656863 0.19656863
0.20833333 0.20833333 0.20833333
0.2504902 0.2504902 0.2504902
0.30833333 0.30833333 0.30833333
0.37469363 0.37469363 0.37469363
0.44791667 0.44791667 0.44791667
0.52303922 0.52303922 0.52303922
0.61220895 0.61220895 0.61220895
0.69705882 0.69705882 0.69705882
0.26176471 0.26176471 0.26176471
0.26240809 0.26240809 0.26240809
0.29607843 0.29607843 0.29607843
0.34678309 0.34678309 0.34678309
0.41764706 0.41764706 0.41764706
0.48664216 0.48664216 0.48664216
0.55428922 0.55428922 0.55428922
0.63452819 0.63452819 0.63452819
0.70588235 0.70588235 0.70588235
0.36678922 0.36678922 0.36678922
0.36617647 0.36617647 0.36617647
0.36773897 0.36773897 0.36773897
0.40845588 0.40845588 0.40845588
0.46366422 0.46366422 0.46366422
0.52990196 0.52990196 0.52990196
0.59310662 0.59310662 0.59310662
0.6622549 0.6622549 0.6622549
0.73247549 0.73247549 0.73247549
0.46519608 0.46519608 0.46519608
0.46329657 0.46329657 0.46329657
0.46127451 0.46127451 0.46127451
0.48633578 0.48633578 0.48633578
0.52058824 0.52058824 0.52058824
0.57843137 0.57843137 0.57843137
0.63529412 0.63529412 0.63529412
0.70661765 0.70661765 0.70661765
0.7745098 0.7745098 0.7745098
0.56421569 0.56421569 0.56421569
0.56421569 0.56421569 0.56421569
0.5666973 0.5666973 0.5666973
0.56813725 0.56813725 0.56813725
0.58308824 0.58308824 0.58308824
0.63273591 0.63273591 0.63273591
0.68909314 0.68909314 0.68909314
0.75654105 0.75654105 0.75654105
0.81960784 0.81960784 0.81960784
0.66470588 0.66470588 0.66470588
0.66862745 0.66862745 0.66862745
0.66789216 0.66789216 0.66789216
0.66878064 0.66878064 0.66878064
0.67144608 0.67144608 0.67144608
0.69543505 0.69543505 0.69543505
0.74093137 0.74093137 0.74093137
0.79901961 0.79901961 0.79901961
0.85196078 0.85196078 0.85196078
0.77352941 0.77352941 0.77352941
0.77830882 0.77830882 0.77830882
0.77503064 0.77503064 0.77503064
0.77428002 0.77428002 0.77428002
0.77401961 0.77401961 0.77401961
0.7893076 0.7893076 0.7893076
0.82101716 0.82101716 0.82101716
0.85294118 0.85294118 0.85294118
0.89497549 0.89497549 0.89497549
0.86960784 0.86960784 0.86960784
0.87708333 0.87708333 0.87708333
0.88161765 0.88161765 0.88161765
0.87303922 0.87303922 0.87303922
0.8627451 0.8627451 0.8627451
0.87389706 0.87389706 0.87389706
0.90294118 0.90294118 0.90294118
0.91862745 0.91862745 0.91862745
0.94117647 0.94117647 0.94117647
0.28431373 0.28431373 0.28431373
0.30098039 0.30098039 0.30098039
0.33933824 0.33933824 0.33933824
0.37058824 0.37058824 0.37058824
0.41666667 0.41666667 0.41666667
0.48866422 0.48866422 0.48866422
0.55625 0.55625 0.55625
0.63921569 0.63921569 0.63921569
0.71617647 0.71617647 0.71617647
0.2973652 0.2973652 0.2973652
0.31675092 0.31675092 0.31675092
0.35481005 0.35481005 0.35481005
0.3952742 0.3952742 0.3952742
0.44093137 0.44093137 0.44093137
0.50196078 0.50196078 0.50196078
0.56341912 0.56341912 0.56341912
0.64640778 0.64640778 0.64640778
0.72009804 0.72009804 0.72009804
0.33970588 0.33970588 0.33970588
0.33550858 0.33550858 0.33550858
0.36927083 0.36927083 0.36927083
0.41026348 0.41026348 0.41026348
0.45759804 0.45759804 0.45759804
0.5245098 0.5245098 0.5245098
0.58691789 0.58691789 0.58691789
0.66435355 0.66435355 0.66435355
0.73088235 0.73088235 0.73088235
0.41372549 0.41372549 0.41372549
0.41617647 0.41617647 0.41617647
0.42189032 0.42189032 0.42189032
0.45124081 0.45124081 0.45124081
0.49485294 0.49485294 0.49485294
0.55651808 0.55651808 0.55651808
0.61862745 0.61862745 0.61862745
0.6908701 0.6908701 0.6908701
0.75876225 0.75876225 0.75876225
0.50759804 0.50759804 0.50759804
0.51029412 0.51029412 0.51029412
0.51243873 0.51243873 0.51243873
0.52300858 0.52300858 0.52300858
0.55539216 0.55539216 0.55539216
0.60147059 0.60147059 0.60147059
0.65508578 0.65508578 0.65508578
0.72196691 0.72196691 0.72196691
0.78480392 0.78480392 0.78480392
0.60686275 0.60686275 0.60686275
0.6098652 0.6098652 0.6098652
0.60931373 0.60931373 0.60931373
0.61078431 0.61078431 0.61078431
0.62107843 0.62107843 0.62107843
0.65539216 0.65539216 0.65539216
0.70516238 0.70516238 0.70516238
0.76323529 0.76323529 0.76323529
0.82199755 0.82199755 0.82199755
0.70232843 0.70232843 0.70232843
0.70735294 0.70735294 0.70735294
0.70652574 0.70652574 0.70652574
0.69964767 0.69964767 0.69964767
0.69846814 0.69846814 0.69846814
0.72058824 0.72058824 0.72058824
0.75477941 0.75477941 0.75477941
0.80294118 0.80294118 0.80294118
0.86372549 0.86372549 0.86372549
0.8 0.8 0.8
0.80177696 0.80177696 0.80177696
0.80396752 0.80396752 0.80396752
0.79685968 0.79685968 0.79685968
0.79019608 0.79019608 0.79019608
0.80931373 0.80931373 0.80931373
0.83619792 0.83619792 0.83619792
0.85637255 0.85637255 0.85637255
0.89607843 0.89607843 0.89607843
0.88235294 0.88235294 0.88235294
0.88627451 0.88627451 0.88627451
0.89656863 0.89656863 0.89656863
0.87892157 0.87892157 0.87892157
0.87009804 0.87009804 0.87009804
0.89319853 0.89319853 0.89319853
0.91078431 0.91078431 0.91078431
0.90814951 0.90814951 0.90814951
0.92696078 0.92696078 0.92696078
0.41176471 0.41176471 0.41176471
0.42303922 0.42303922 0.42303922
0.45 0.45 0.45
0.49583333 0.49583333 0.49583333
0.53039216 0.53039216 0.53039216
0.54264706 0.54264706 0.54264706
0.60245098 0.60245098 0.60245098
0.67965686 0.67965686 0.67965686
0.74705882 0.74705882 0.74705882
0.41740196 0.41740196 0.41740196
0.43063725 0.43063725 0.43063725
0.45906863 0.45906863 0.45906863
0.50459559 0.50459559 0.50459559
0.52855392 0.52855392 0.52855392
0.55569853 0.55569853 0.55569853
0.61348039 0.61348039 0.61348039
0.68137255 0.68137255 0.68137255
0.74313725 0.74313725 0.74313725
0.43235294 0.43235294 0.43235294
0.44283088 0.44283088 0.44283088
0.4745098 0.4745098 0.4745098
0.51605392 0.51605392 0.51605392
0.53529412 0.53529412 0.53529412
0.5745098 0.5745098 0.5745098
0.63431373 0.63431373 0.63431373
0.7026348 0.7026348 0.7026348
0.7622549 0.7622549 0.7622549
0.46960784 0.46960784 0.46960784
0.475 0.475 0.475
0.50067402 0.50067402 0.50067402
0.52751225 0.52751225 0.52751225
0.5685049 0.5685049 0.5685049
0.60315564 0.60315564 0.60315564
0.65931373 0.65931373 0.65931373
0.72313113 0.72313113 0.72313113
0.78088235 0.78088235 0.78088235
0.54509804 0.54509804 0.54509804
0.55882353 0.55882353 0.55882353
0.56666667 0.56666667 0.56666667
0.56727941 0.56727941 0.56727941
0.59117647 0.59117647 0.59117647
0.63431373 0.63431373 0.63431373
0.68823529 0.68823529 0.68823529
0.74215686 0.74215686 0.74215686
0.80196078 0.80196078 0.80196078
0.63455882 0.63455882 0.63455882
0.6495098 0.6495098 0.6495098
0.6495098 0.6495098 0.6495098
0.65119485 0.65119485 0.65119485
0.66348039 0.66348039 0.66348039
0.68480392 0.68480392 0.68480392
0.72775735 0.72775735 0.72775735
0.77950368 0.77950368 0.77950368
0.83872549 0.83872549 0.83872549
0.73431373 0.73431373 0.73431373
0.73823529 0.73823529 0.73823529
0.73786765 0.73786765 0.73786765
0.73805147 0.73805147 0.73805147
0.73897059 0.73897059 0.73897059
0.75520833 0.75520833 0.75520833
0.78137255 0.78137255 0.78137255
0.82046569 0.82046569 0.82046569
0.87205882 0.87205882 0.87205882
0.82892157 0.82892157 0.82892157
0.82892157 0.82892157 0.82892157
0.82677696 0.82677696 0.82677696
0.82665441 0.82665441 0.82665441
0.82083333 0.82083333 0.82083333
0.83529412 0.83529412 0.83529412
0.85441176 0.85441176 0.85441176
0.8703125 0.8703125 0.8703125
0.90220588 0.90220588 0.90220588
0.90196078 0.90196078 0.90196078
0.90955882 0.90955882 0.90955882
0.91078431 0.91078431 0.91078431
0.90269608 0.90269608 0.90269608
0.89313725 0.89313725 0.89313725
0.90343137 0.90343137 0.90343137
0.91421569 0.91421569 0.91421569
0.91960784 0.91960784 0.91960784
0.91568627 0.91568627 0.91568627
0.52745098 0.52745098 0.52745098
0.53872549 0.53872549 0.53872549
0.55784314 0.55784314 0.55784314
0.59754902 0.59754902 0.59754902
0.6377451 0.6377451 0.6377451
0.64901961 0.64901961 0.64901961
0.65306373 0.65306373 0.65306373
0.72009804 0.72009804 0.72009804
0.7872549 0.7872549 0.7872549
0.53529412 0.53529412 0.53529412
0.54699755 0.54699755 0.54699755
0.5643076 0.5643076 0.5643076
0.59982384 0.59982384 0.59982384
0.6377451 0.6377451 0.6377451
0.65386029 0.65386029 0.65386029
0.66629902 0.66629902 0.66629902
0.7276731 0.7276731 0.7276731
0.79509804 0.79509804 0.79509804
0.54607843 0.54607843 0.54607843
0.55477941 0.55477941 0.55477941
0.57536765 0.57536765 0.57536765
0.61211703 0.61211703 0.61211703
0.64669118 0.64669118 0.64669118
0.66300551 0.66300551 0.66300551
0.68079044 0.68079044 0.68079044
0.73970588 0.73970588 0.73970588
0.79754902 0.79754902 0.79754902
0.55827206 0.55827206 0.55827206
0.56127451 0.56127451 0.56127451
0.59163603 0.59163603 0.59163603
0.61842065 0.61842065 0.61842065
0.65343137 0.65343137 0.65343137
0.67130821 0.67130821 0.67130821
0.69649203 0.69649203 0.69649203
0.75147059 0.75147059 0.75147059
0.80876225 0.80876225 0.80876225
0.60171569 0.60171569 0.60171569
0.60775123 0.60775123 0.60775123
0.6216299 0.6216299 0.6216299
0.6245098 0.6245098 0.6245098
0.65759804 0.65759804 0.65759804
0.68918505 0.68918505 0.68918505
0.72205882 0.72205882 0.72205882
0.77083333 0.77083333 0.77083333
0.825 0.825 0.825
0.65533088 0.65533088 0.65533088
0.675 0.675 0.675
0.68284314 0.68284314 0.68284314
0.69368873 0.69368873 0.69368873
0.7004902 0.7004902 0.7004902
0.71660539 0.71660539 0.71660539
0.76115196 0.76115196 0.76115196
0.8036152 0.8036152 0.8036152
0.83823529 0.83823529 0.83823529
0.75588235 0.75588235 0.75588235
0.75526961 0.75526961 0.75526961
0.75572917 0.75572917 0.75572917
0.76875 0.76875 0.76875
0.76911765 0.76911765 0.76911765
0.77783395 0.77783395 0.77783395
0.80441176 0.80441176 0.80441176
0.84215686 0.84215686 0.84215686
0.87757353 0.87757353 0.87757353
0.84589461 0.84589461 0.84589461
0.84607843 0.84607843 0.84607843
0.84791667 0.84791667 0.84791667
0.85080423 0.85080423 0.85080423
0.84558824 0.84558824 0.84558824
0.85354626 0.85354626 0.85354626
0.86973039 0.86973039 0.86973039
0.88921569 0.88921569 0.88921569
0.91550245 0.91550245 0.91550245
0.91519608 0.91519608 0.91519608
0.91911765 0.91911765 0.91911765
0.93394608 0.93394608 0.93394608
0.91427696 0.91427696 0.91427696
0.90735294 0.90735294 0.90735294
0.91519608 0.91519608 0.91519608
0.92757353 0.92757353 0.92757353
0.94852941 0.94852941 0.94852941
0.94264706 0.94264706 0.94264706
0.65098039 0.65098039 0.65098039
0.6622549 0.6622549 0.6622549
0.67745098 0.67745098 0.67745098
0.69840686 0.69840686 0.69840686
0.73431373 0.73431373 0.73431373
0.75919118 0.75919118 0.75919118
0.75906863 0.75906863 0.75906863
0.75625 0.75625 0.75625
0.77941176 0.77941176 0.77941176
0.65882353 0.65882353 0.65882353
0.67052696 0.67052696 0.67052696
0.68235294 0.68235294 0.68235294
0.70788909 0.70788909 0.70788909
0.74172794 0.74172794 0.74172794
0.75588235 0.75588235 0.75588235
0.75588235 0.75588235 0.75588235
0.76354167 0.76354167 0.76354167
0.8182598 0.8182598 0.8182598
0.66666667 0.66666667 0.66666667
0.67380515 0.67380515 0.67380515
0.68627451 0.68627451 0.68627451
0.71519608 0.71519608 0.71519608
0.74203431 0.74203431 0.74203431
0.75588235 0.75588235 0.75588235
0.75906863 0.75906863 0.75906863
0.775 0.775 0.775
0.80980392 0.80980392 0.80980392
0.67058824 0.67058824 0.67058824
0.67058824 0.67058824 0.67058824
0.68455882 0.68455882 0.68455882
0.71127451 0.71127451 0.71127451
0.74215686 0.74215686 0.74215686
0.76672794 0.76672794 0.76672794
0.77009804 0.77009804 0.77009804
0.788894 0.788894 0.788894
0.81813725 0.81813725 0.81813725
0.67745098 0.67745098 0.67745098
0.6754902 0.6754902 0.6754902
0.68860294 0.68860294 0.68860294
0.71164216 0.71164216 0.71164216
0.73823529 0.73823529 0.73823529
0.77095588 0.77095588 0.77095588
0.79019608 0.79019608 0.79019608
0.82493873 0.82493873 0.82493873
0.85784314 0.85784314 0.85784314
0.72254902 0.72254902 0.72254902
0.72254902 0.72254902 0.72254902
0.72830882 0.72830882 0.72830882
0.73353248 0.73353248 0.73353248
0.74436275 0.74436275 0.74436275
0.7685049 0.7685049 0.7685049
0.80713848 0.80713848 0.80713848
0.84276961 0.84276961 0.84276961
0.86862745 0.86862745 0.86862745
0.77941176 0.77941176 0.77941176
0.77264093 0.77264093 0.77264093
0.78069853 0.78069853 0.78069853
0.7955576 0.7955576 0.7955576
0.80294118 0.80294118 0.80294118
0.80940564 0.80940564 0.80940564
0.83431373 0.83431373 0.83431373
0.86960784 0.86960784 0.86960784
0.89387255 0.89387255 0.89387255
0.85723039 0.85723039 0.85723039
0.86352635 0.86352635 0.86352635
0.86519608 0.86519608 0.86519608
0.86885723 0.86885723 0.86885723
0.87346814 0.87346814 0.87346814
0.88039216 0.88039216 0.88039216
0.88897059 0.88897059 0.88897059
0.90784314 0.90784314 0.90784314
0.92696078 0.92696078 0.92696078
0.93431373 0.93431373 0.93431373
0.94473039 0.94473039 0.94473039
0.92352941 0.92352941 0.92352941
0.92107843 0.92107843 0.92107843
0.93921569 0.93921569 0.93921569
0.9372549 0.9372549 0.9372549
0.94215686 0.94215686 0.94215686
0.9504902 0.9504902 0.9504902
0.95784314 0.95784314 0.95784314
0.77058824 0.77058824 0.77058824
0.78235294 0.78235294 0.78235294
0.79362745 0.79362745 0.79362745
0.80177696 0.80177696 0.80177696
0.82892157 0.82892157 0.82892157
0.84068627 0.84068627 0.84068627
0.85637255 0.85637255 0.85637255
0.85245098 0.85245098 0.85245098
0.85245098 0.85245098 0.85245098
0.77843137 0.77843137 0.77843137
0.78927696 0.78927696 0.78927696
0.79744179 0.79744179 0.79744179
0.80539216 0.80539216 0.80539216
0.83063725 0.83063725 0.83063725
0.83684896 0.83684896 0.83684896
0.84854473 0.84854473 0.84854473
0.85245098 0.85245098 0.85245098
0.85637255 0.85637255 0.85637255
0.78235294 0.78235294 0.78235294
0.78927696 0.78927696 0.78927696
0.80061275 0.80061275 0.80061275
0.80931373 0.80931373 0.80931373
0.82873775 0.82873775 0.82873775
0.84165135 0.84165135 0.84165135
0.84852941 0.84852941 0.84852941
0.85637255 0.85637255 0.85637255
0.85992647 0.85992647 0.85992647
0.78578431 0.78578431 0.78578431
0.78815104 0.78815104 0.78815104
0.79669118 0.79669118 0.79669118
0.81176471 0.81176471 0.81176471
0.83275123 0.83275123 0.83275123
0.84589461 0.84589461 0.84589461
0.85637255 0.85637255 0.85637255
0.86405484 0.86405484 0.86405484
0.86011029 0.86011029 0.86011029
0.78210784 0.78210784 0.78210784
0.78602941 0.78602941 0.78602941
0.79313725 0.79313725 0.79313725
0.8096201 0.8096201 0.8096201
0.83088235 0.83088235 0.83088235
0.84822304 0.84822304 0.84822304
0.87034314 0.87034314 0.87034314
0.88992034 0.88992034 0.88992034
0.89264706 0.89264706 0.89264706
0.78431373 0.78431373 0.78431373
0.7911152 0.7911152 0.7911152
0.79532782 0.79532782 0.79532782
0.81415441 0.81415441 0.81415441
0.83152574 0.83152574 0.83152574
0.85 0.85 0.85
0.87647059 0.87647059 0.87647059
0.89558824 0.89558824 0.89558824
0.91439951 0.91439951 0.91439951
0.83468137 0.83468137 0.83468137
0.83727022 0.83727022 0.83727022
0.8372549 0.8372549 0.8372549
0.8402114 0.8402114 0.8402114
0.85232843 0.85232843 0.85232843
0.86127451 0.86127451 0.86127451
0.87637868 0.87637868 0.87637868
0.90784314 0.90784314 0.90784314
0.93872549 0.93872549 0.93872549
0.87555147 0.87555147 0.87555147
0.88382353 0.88382353 0.88382353
0.89215686 0.89215686 0.89215686
0.89838388 0.89838388 0.89838388
0.90931373 0.90931373 0.90931373
0.90965839 0.90965839 0.90965839
0.91482843 0.91482843 0.91482843
0.93480392 0.93480392 0.93480392
0.95778186 0.95778186 0.95778186
0.95637255 0.95637255 0.95637255
0.94509804 0.94509804 0.94509804
0.94117647 0.94117647 0.94117647
0.94509804 0.94509804 0.94509804
0.95686275 0.95686275 0.95686275
0.95686275 0.95686275 0.95686275
0.96911765 0.96911765 0.96911765
0.9651348 0.9651348 0.9651348
0.96813725 0.96813725 0.96813725
0.88627451 0.88627451 0.88627451
0.88284314 0.88284314 0.88284314
0.88235294 0.88235294 0.88235294
0.89264706 0.89264706 0.89264706
0.90784314 0.90784314 0.90784314
0.90441176 0.90441176 0.90441176
0.93039216 0.93039216 0.93039216
0.9372549 0.9372549 0.9372549
0.93333333 0.93333333 0.93333333
0.88627451 0.88627451 0.88627451
0.88976716 0.88976716 0.88976716
0.89313725 0.89313725 0.89313725
0.88125 0.88125 0.88125
0.91176471 0.91176471 0.91176471
0.90196078 0.90196078 0.90196078
0.9372549 0.9372549 0.9372549
0.9377451 0.9377451 0.9377451
0.9372549 0.9372549 0.9372549
0.88235294 0.88235294 0.88235294
0.89019608 0.89019608 0.89019608
0.89901961 0.89901961 0.89901961
0.89803922 0.89803922 0.89803922
0.89607843 0.89607843 0.89607843
0.91764706 0.91764706 0.91764706
0.9372549 0.9372549 0.9372549
0.94558824 0.94558824 0.94558824
0.93431373 0.93431373 0.93431373
0.89019608 0.89019608 0.89019608
0.89264706 0.89264706 0.89264706
0.89411765 0.89411765 0.89411765
0.90196078 0.90196078 0.90196078
0.90906863 0.90906863 0.90906863
0.91764706 0.91764706 0.91764706
0.93431373 0.93431373 0.93431373
0.94479167 0.94479167 0.94479167
0.9372549 0.9372549 0.9372549
0.89411765 0.89411765 0.89411765
0.89215686 0.89215686 0.89215686
0.89852941 0.89852941 0.89852941
0.90318627 0.90318627 0.90318627
0.91862745 0.91862745 0.91862745
0.92107843 0.92107843 0.92107843
0.94166667 0.94166667 0.94166667
0.94877451 0.94877451 0.94877451
0.94313725 0.94313725 0.94313725
0.88235294 0.88235294 0.88235294
0.88627451 0.88627451 0.88627451
0.89411765 0.89411765 0.89411765
0.89803922 0.89803922 0.89803922
0.91053922 0.91053922 0.91053922
0.9254902 0.9254902 0.9254902
0.93431373 0.93431373 0.93431373
0.94540441 0.94540441 0.94540441
0.9622549 0.9622549 0.9622549
0.90686275 0.90686275 0.90686275
0.90196078 0.90196078 0.90196078
0.90294118 0.90294118 0.90294118
0.90686275 0.90686275 0.90686275
0.91519608 0.91519608 0.91519608
0.93039216 0.93039216 0.93039216
0.94289216 0.94289216 0.94289216
0.94264706 0.94264706 0.94264706
0.96862745 0.96862745 0.96862745
0.91764706 0.91764706 0.91764706
0.92113971 0.92113971 0.92113971
0.92585784 0.92585784 0.92585784
0.9377451 0.9377451 0.9377451
0.94166667 0.94166667 0.94166667
0.946875 0.946875 0.946875
0.95686275 0.95686275 0.95686275
0.95686275 0.95686275 0.95686275
0.96470588 0.96470588 0.96470588
0.94901961 0.94901961 0.94901961
0.94509804 0.94509804 0.94509804
0.94509804 0.94509804 0.94509804
0.94901961 0.94901961 0.94901961
0.95294118 0.95294118 0.95294118
0.95833333 0.95833333 0.95833333
0.97254902 0.97254902 0.97254902
0.96862745 0.96862745 0.96862745
0.96470588 0.96470588 0.96470588
