site/assets/luts/natron-haldclut--kodak-tmax-3200--c6d62dc23.cube
# LUTr-Project: LUTr — LUTrepository
# LUTr-Schema-Version: 1
# LUTr-ID: natron-haldclut--kodak-tmax-3200--c6d62dc23
# LUTr-Title: kodak tmax 3200 ++
# LUTr-Collection: Natron HaldCLUT
# LUTr-Collection-ID: natron-haldclut-presets
# LUTr-Source: https://github.com/NatronGitHub/clut
# LUTr-Source-File: submissions/natron-haldclut-presets/negative_new/kodak_tmax_3200_++.png
# LUTr-Source-Format: PNG
# LUTr-Source-SHA256: ef0fd1aa35fbf81fffe7f9a64e19371c91102ae80d2f4e4ee7f41df27090dc1e
# LUTr-License: CC-BY-SA-4.0
# LUTr-License-URL: https://github.com/NatronGitHub/clut#license
# LUTr-Tags: creative, film, film-emulation, hald-clut, natron, png, cube
# LUTr-Transform-Class: film-emulation
# LUTr-Input-Color-Space: srgb
# LUTr-Output-Color-Space: srgb
# LUTr-Color-Space-Confidence: assumed-display-referred
# LUTr-Conversion-Method: PNG LUT image decoded at 16-bit and sampled to 25x25x25 3D CUBE
# LUTr-Conversion-Date: 2026-07-27
# LUTr-Conversion-Tool: LUTr scripts/convert-all-to-cube.mjs
# LUTr-Conversion-Grid: 25x25x25
# LUTr-Note: Preserve this metadata and the upstream license notices when redistributing.
TITLE "kodak tmax 3200 ++"
LUT_3D_SIZE 5
DOMAIN_MIN 0 0 0
DOMAIN_MAX 1 1 1
0.29411765 0.29411765 0.29411765
0.29803922 0.29803922 0.29803922
0.31764706 0.31764706 0.31764706
0.34117647 0.34117647 0.34117647
0.35686275 0.35686275 0.35686275
0.32843137 0.32843137 0.32843137
0.33235294 0.33235294 0.33235294
0.35686275 0.35686275 0.35686275
0.39828431 0.39828431 0.39828431
0.45588235 0.45588235 0.45588235
0.41568627 0.41568627 0.41568627
0.42745098 0.42745098 0.42745098
0.46470588 0.46470588 0.46470588
0.57303922 0.57303922 0.57303922
0.71568627 0.71568627 0.71568627
0.64803922 0.64803922 0.64803922
0.65588235 0.65588235 0.65588235
0.68627451 0.68627451 0.68627451
0.75392157 0.75392157 0.75392157
0.86176471 0.86176471 0.86176471
0.91372549 0.91372549 0.91372549
0.87941176 0.87941176 0.87941176
0.90980392 0.90980392 0.90980392
0.91764706 0.91764706 0.91764706
0.94901961 0.94901961 0.94901961
0.29803922 0.29803922 0.29803922
0.30882353 0.30882353 0.30882353
0.32352941 0.32352941 0.32352941
0.34509804 0.34509804 0.34509804
0.36862745 0.36862745 0.36862745
0.32843137 0.32843137 0.32843137
0.34411765 0.34411765 0.34411765
0.36323529 0.36323529 0.36323529
0.39859069 0.39859069 0.39859069
0.43406863 0.43406863 0.43406863
0.44215686 0.44215686 0.44215686
0.44901961 0.44901961 0.44901961
0.49313725 0.49313725 0.49313725
0.59117647 0.59117647 0.59117647
0.69901961 0.69901961 0.69901961
0.66960784 0.66960784 0.66960784
0.67745098 0.67745098 0.67745098
0.70294118 0.70294118 0.70294118
0.76041667 0.76041667 0.76041667
0.86470588 0.86470588 0.86470588
0.90980392 0.90980392 0.90980392
0.90784314 0.90784314 0.90784314
0.90686275 0.90686275 0.90686275
0.93014706 0.93014706 0.93014706
0.95294118 0.95294118 0.95294118
0.30588235 0.30588235 0.30588235
0.31372549 0.31372549 0.31372549
0.34117647 0.34117647 0.34117647
0.36470588 0.36470588 0.36470588
0.3745098 0.3745098 0.3745098
0.34215686 0.34215686 0.34215686
0.35502451 0.35502451 0.35502451
0.38578431 0.38578431 0.38578431
0.41470588 0.41470588 0.41470588
0.44509804 0.44509804 0.44509804
0.44705882 0.44705882 0.44705882
0.46568627 0.46568627 0.46568627
0.54656863 0.54656863 0.54656863
0.6004902 0.6004902 0.6004902
0.64803922 0.64803922 0.64803922
0.71372549 0.71372549 0.71372549
0.73161765 0.73161765 0.73161765
0.74166667 0.74166667 0.74166667
0.79742647 0.79742647 0.79742647
0.87598039 0.87598039 0.87598039
0.91764706 0.91764706 0.91764706
0.90637255 0.90637255 0.90637255
0.92745098 0.92745098 0.92745098
0.92843137 0.92843137 0.92843137
0.95686275 0.95686275 0.95686275
0.31764706 0.31764706 0.31764706
0.3372549 0.3372549 0.3372549
0.3872549 0.3872549 0.3872549
0.44117647 0.44117647 0.44117647
0.44411765 0.44411765 0.44411765
0.36372549 0.36372549 0.36372549
0.3754902 0.3754902 0.3754902
0.43039216 0.43039216 0.43039216
0.49454657 0.49454657 0.49454657
0.52328431 0.52328431 0.52328431
0.42794118 0.42794118 0.42794118
0.47009804 0.47009804 0.47009804
0.57794118 0.57794118 0.57794118
0.66115196 0.66115196 0.66115196
0.66617647 0.66617647 0.66617647
0.68235294 0.68235294 0.68235294
0.71427696 0.71427696 0.71427696
0.77781863 0.77781863 0.77781863
0.83602941 0.83602941 0.83602941
0.86764706 0.86764706 0.86764706
0.92156863 0.92156863 0.92156863
0.92647059 0.92647059 0.92647059
0.93382353 0.93382353 0.93382353
0.94509804 0.94509804 0.94509804
0.96862745 0.96862745 0.96862745
0.3372549 0.3372549 0.3372549
0.34901961 0.34901961 0.34901961
0.42156863 0.42156863 0.42156863
0.62352941 0.62352941 0.62352941
0.70588235 0.70588235 0.70588235
0.40686275 0.40686275 0.40686275
0.41078431 0.41078431 0.41078431
0.50980392 0.50980392 0.50980392
0.64901961 0.64901961 0.64901961
0.70980392 0.70980392 0.70980392
0.48627451 0.48627451 0.48627451
0.54264706 0.54264706 0.54264706
0.63529412 0.63529412 0.63529412
0.75098039 0.75098039 0.75098039
0.82941176 0.82941176 0.82941176
0.65686275 0.65686275 0.65686275
0.64632353 0.64632353 0.64632353
0.7127451 0.7127451 0.7127451
0.85710784 0.85710784 0.85710784
0.91862745 0.91862745 0.91862745
0.92941176 0.92941176 0.92941176
0.93039216 0.93039216 0.93039216
0.93333333 0.93333333 0.93333333
0.95686275 0.95686275 0.95686275
0.97254902 0.97254902 0.97254902
