site/assets/luts/natron-haldclut--color-rich--2e38c4755.cube
# LUTr-Project: LUTr — LUTrepository
# LUTr-Schema-Version: 1
# LUTr-ID: natron-haldclut--color-rich--2e38c4755
# LUTr-Title: color rich
# LUTr-Collection: Natron HaldCLUT
# LUTr-Collection-ID: natron-haldclut-presets
# LUTr-Source: https://github.com/NatronGitHub/clut
# LUTr-Source-File: submissions/natron-haldclut-presets/various/color_rich.png
# LUTr-Source-Format: PNG
# LUTr-Source-SHA256: 18e13038f05d9c24900ff98846b780dec46dc76dbdcee3aa68da53b4228eedc4
# LUTr-License: CC-BY-SA-4.0
# LUTr-License-URL: https://github.com/NatronGitHub/clut#license
# LUTr-Tags: creative, film, film-emulation, hald-clut, natron, png, cube
# LUTr-Transform-Class: film-emulation
# LUTr-Input-Color-Space: srgb
# LUTr-Output-Color-Space: srgb
# LUTr-Color-Space-Confidence: assumed-display-referred
# LUTr-Conversion-Method: PNG LUT image decoded at 16-bit and sampled to 25x25x25 3D CUBE
# LUTr-Conversion-Date: 2026-07-27
# LUTr-Conversion-Tool: LUTr scripts/convert-all-to-cube.mjs
# LUTr-Conversion-Grid: 25x25x25
# LUTr-Note: Preserve this metadata and the upstream license notices when redistributing.
TITLE "color rich"
LUT_3D_SIZE 25
DOMAIN_MIN 0 0 0
DOMAIN_MAX 1 1 1
0.019607843 0.011764706 0.098039216
0.045098039 0.014215686 0.094117647
0.082352941 0.023529412 0.08627451
0.11960784 0.026960784 0.082843137
0.15490196 0.025490196 0.074509804
0.18970588 0.019607843 0.062254902
0.22058824 0.012745098 0.051960784
0.25833333 0.0053921569 0.040686275
0.30588235 0.011764706 0.047058824
0.35735294 0.011764706 0.050980392
0.40490196 0.0078431373 0.050980392
0.45245098 0.00049019608 0.043627451
0.50392157 0.01372549 0.064705882
0.55588235 0.019607843 0.074509804
0.61372549 0.016666667 0.068627451
0.67941176 0.0049019608 0.050490196
0.72941176 0.011764706 0.047058824
0.77696078 0.022058824 0.050980392
0.8245098 0.032352941 0.050980392
0.87990196 0.03872549 0.04754902
0.90980392 0.037254902 0.047058824
0.92990196 0.023039216 0.046568627
0.94117647 0.015686275 0.046078431
0.94509804 0.015686275 0.050980392
0.94509804 0.015686275 0.050980392
0.032352941 0.041176471 0.091666667
0.046568627 0.046017157 0.088664216
0.079534314 0.052941176 0.083455882
0.1158701 0.056556373 0.078615196
0.1497549 0.054411765 0.069362745
0.18363971 0.048713235 0.058333333
0.21960784 0.042647059 0.051960784
0.2598652 0.041176471 0.050061275
0.30588235 0.041176471 0.053431373
0.35398284 0.041176471 0.054901961
0.40490196 0.038357843 0.052818627
0.45245098 0.037254902 0.053125
0.5 0.041911765 0.061519608
0.55165441 0.046568627 0.072058824
0.60796569 0.043627451 0.065196078
0.66764706 0.03817402 0.05435049
0.72303922 0.034803922 0.053431373
0.77303922 0.037806373 0.05435049
0.8245098 0.037745098 0.050980392
0.87726716 0.039031863 0.044914216
0.90980392 0.038480392 0.048284314
0.92990196 0.031678922 0.051164216
0.94301471 0.025490196 0.044607843
0.94754902 0.026960784 0.053431373
0.94754902 0.029411765 0.055882353
0.048039216 0.082352941 0.081372549
0.052696078 0.084191176 0.081372549
0.076470588 0.089460784 0.076470588
0.11090686 0.093137255 0.069730392
0.14460784 0.087745098 0.062254902
0.18235294 0.082230392 0.058333333
0.21960784 0.078431373 0.054901961
0.26078431 0.078431373 0.056372549
0.30588235 0.078431373 0.058823529
0.35281863 0.078431373 0.054901961
0.40098039 0.07745098 0.055147059
0.44901961 0.074509804 0.058823529
0.49803922 0.07745098 0.058823529
0.54754902 0.081372549 0.065686275
0.60122549 0.079166667 0.063480392
0.65772059 0.076348039 0.058823529
0.7127451 0.073529412 0.058823529
0.76703431 0.06997549 0.056985294
0.82058824 0.06495098 0.054166667
0.87463235 0.062745098 0.048039216
0.90980392 0.062745098 0.046078431
0.93039216 0.066666667 0.051960784
0.94705882 0.066666667 0.054901961
0.95931373 0.063848039 0.073406863
0.96176471 0.065686275 0.080392157
0.058333333 0.12352941 0.071078431
0.058639706 0.12352941 0.071078431
0.070098039 0.12487745 0.066176471
0.10398284 0.1245098 0.059803922
0.14117647 0.12181373 0.058823529
0.18186275 0.11960784 0.058333333
0.21960784 0.11617647 0.054901961
0.26078431 0.11617647 0.058823529
0.30245098 0.11617647 0.058823529
0.3495098 0.11568627 0.054901961
0.39742647 0.11568627 0.058823529
0.44852941 0.11568627 0.059252451
0.49607843 0.11397059 0.057107843
0.54754902 0.1127451 0.055882353
0.59901961 0.11311275 0.056372549
0.65226716 0.11176471 0.055392157
0.70637255 0.10833333 0.058823529
0.76158088 0.10784314 0.058823529
0.81764706 0.10392157 0.058823529
0.86905637 0.10392157 0.058823529
0.90441176 0.10392157 0.050980392
0.93039216 0.10484069 0.054901961
0.94803922 0.10784314 0.057843137
0.96617647 0.10392157 0.082659314
0.97598039 0.10392157 0.10147059
0.066666667 0.16470588 0.064705882
0.068627451 0.16151961 0.061519608
0.069607843 0.15882353 0.056862745
0.1 0.15882353 0.056617647
0.13921569 0.15882353 0.056862745
0.17843137 0.15686275 0.054656863
0.21960784 0.15539216 0.054411765
0.26078431 0.15294118 0.054166667
0.30196078 0.15098039 0.052941176
0.34632353 0.15098039 0.052205882
0.39460784 0.15294118 0.055392157
0.44460784 0.15294118 0.058823529
0.49411765 0.15196078 0.054901961
0.54754902 0.14877451 0.050490196
0.59901961 0.14705882 0.046568627
0.6504902 0.14901961 0.053676471
0.70588235 0.14901961 0.058823529
0.76127451 0.14901961 0.058823529
0.81666667 0.14509804 0.065196078
0.8627451 0.14509804 0.063235294
0.89607843 0.14509804 0.057843137
0.92671569 0.14509804 0.054901961
0.95098039 0.14509804 0.056372549
0.96617647 0.14509804 0.072303922
0.9745098 0.14509804 0.08627451
0.066666667 0.20588235 0.062745098
0.066666667 0.20196078 0.058823529
0.067769608 0.20196078 0.057843137
0.096568627 0.19895833 0.054901961
0.1370098 0.19803922 0.050980392
0.1745098 0.1971201 0.046997549
0.21568627 0.19411765 0.049632353
0.25686275 0.19019608 0.050980392
0.29803922 0.18676471 0.047058824
0.34558824 0.18872549 0.049509804
0.39313725 0.19019608 0.054534314
0.44460784 0.19019608 0.054901961
0.49215686 0.19019608 0.054901961
0.54362745 0.19019608 0.050980392
0.59473039 0.19019608 0.050857843
0.64785539 0.19019608 0.05245098
0.70588235 0.19019608 0.054901961
0.76390931 0.18756127 0.054901961
0.81960784 0.18627451 0.062254902
0.85686275 0.18627451 0.058823529
0.88823529 0.18848039 0.058823529
0.91911765 0.18627451 0.054901961
0.95 0.18235294 0.050612745
0.96599265 0.18235294 0.059313725
0.96813725 0.18235294 0.061764706
0.062745098 0.24705882 0.058823529
0.062745098 0.24705882 0.058823529
0.068627451 0.24705882 0.055882353
0.1 0.24313725 0.054901961
0.13529412 0.23921569 0.049019608
0.17144608 0.23529412 0.039705882
0.2125 0.23529412 0.042401961
0.25686275 0.23431373 0.049142157
0.29803922 0.23137255 0.05
0.34203431 0.23137255 0.050980392
0.39313725 0.23137255 0.054901961
0.44117647 0.23137255 0.054901961
0.49215686 0.23137255 0.054901961
0.54362745 0.23137255 0.053553922
0.59142157 0.23137255 0.059068627
0.64656863 0.2317402 0.050980392
0.70588235 0.23137255 0.051960784
0.76948529 0.22745098 0.050980392
0.81960784 0.22745098 0.051960784
0.85343137 0.23088235 0.055759804
0.88431373 0.23137255 0.058823529
0.91813725 0.22745098 0.054901961
0.94901961 0.22352941 0.048039216
0.96078431 0.22291667 0.048161765
0.96078431 0.22647059 0.050980392
0.053431373 0.28578431 0.053431373
0.053431373 0.28676471 0.053431373
0.064215686 0.2872549 0.050980392
0.098713235 0.28431373 0.055698529
0.13529412 0.28235294 0.054166667
0.17058824 0.28039216 0.043137255
0.21176471 0.27794118 0.044607843
0.25294118 0.27794118 0.048529412
0.29411765 0.27794118 0.05245098
0.34074755 0.27702206 0.054901961
0.38921569 0.27585784 0.054901961
0.44068627 0.27254902 0.054901961
0.49215686 0.27254902 0.054901961
0.54234069 0.27254902 0.050490196
0.59509804 0.27254902 0.044117647
0.64656863 0.27254902 0.044607843
0.70441176 0.27254902 0.050980392
0.76617647 0.26862745 0.05189951
0.81813725 0.26862745 0.050980392
0.85471814 0.27254902 0.050980392
0.89166667 0.27254902 0.053431373
0.92432598 0.27205882 0.054901961
0.94595588 0.26862745 0.053063725
0.95147059 0.27009804 0.053370098
0.95294118 0.27009804 0.054901961
0.043137255 0.32941176 0.047058824
0.043137255 0.32696078 0.043137255
0.058823529 0.3254902 0.043137255
0.096078431 0.3254902 0.047058824
0.13333333 0.3254902 0.047058824
0.17058824 0.3254902 0.047058824
0.20784314 0.3254902 0.05
0.24901961 0.32156863 0.053431373
0.29019608 0.32156863 0.054901961
0.3377451 0.32156863 0.054901961
0.38529412 0.31764706 0.055882353
0.43676471 0.31764706 0.055392157
0.48823529 0.31764706 0.054901961
0.53970588 0.31764706 0.050980392
0.59117647 0.31470588 0.050980392
0.64264706 0.31372549 0.050980392
0.69411765 0.31372549 0.054901961
0.75343137 0.31372549 0.058823529
0.80490196 0.31372549 0.057843137
0.85245098 0.31372549 0.051470588
0.9 0.31372549 0.047058824
0.93039216 0.31029412 0.04754902
0.94019608 0.31372549 0.050980392
0.94264706 0.31519608 0.054901961
0.94509804 0.31764706 0.058823529
0.036764706 0.3745098 0.045588235
0.036764706 0.37303922 0.042218137
0.056740196 0.37303922 0.042034314
0.096078431 0.37303922 0.046875
0.13333333 0.37303922 0.050980392
0.17058824 0.37273284 0.050980392
0.20784314 0.37058824 0.052818627
0.24601716 0.36819853 0.065870098
0.28627451 0.36666667 0.05245098
0.33137255 0.36574755 0.054901961
0.38137255 0.3627451 0.054901961
0.43284314 0.36127451 0.058823529
0.48431373 0.35882353 0.058823529
0.53547794 0.35882353 0.06127451
0.58664216 0.35882353 0.06127451
0.63780637 0.35490196 0.06127451
0.6877451 0.35490196 0.065196078
0.74313725 0.35490196 0.066666667
0.7942402 0.35490196 0.064583333
0.84460784 0.35490196 0.057536765
0.89754902 0.35416667 0.04754902
0.93204657 0.3536152 0.045772059
0.93688725 0.35845588 0.050980392
0.9372549 0.35974265 0.054901961
0.94117647 0.36127451 0.058823529
0.035294118 0.42058824 0.050980392
0.037745098 0.42058824 0.047426471
0.058823529 0.41960784 0.048039216
0.092647059 0.41960784 0.050612745
0.13088235 0.41960784 0.051470588
0.1692402 0.4192402 0.054901961
0.20465686 0.41666667 0.054901961
0.24117647 0.41568627 0.052083333
0.28137255 0.4127451 0.050980392
0.32536765 0.41213235 0.050980392
0.37647059 0.40784314 0.055147059
0.42794118 0.40404412 0.059681373
0.47941176 0.40245098 0.067156863
0.53088235 0.4 0.070588235
0.58235294 0.4 0.070588235
0.63382353 0.39607843 0.071568627
0.68529412 0.39607843 0.071568627
0.73676471 0.39705882 0.074509804
0.78529412 0.4 0.069607843
0.84019608 0.4 0.059313725
0.89215686 0.4004902 0.051470588
0.93039216 0.4 0.059926471
0.94191176 0.40073529 0.061519608
0.94546569 0.40392157 0.06372549
0.94607843 0.40490196 0.058823529
0.031862745 0.46862745 0.050980392
0.037745098 0.46813725 0.050980392
0.061764706 0.46813725 0.050980392
0.09564951 0.4651348 0.054411765
0.12941176 0.46470588 0.054901961
0.16623775 0.46421569 0.054901961
0.20134804 0.46421569 0.054901961
0.23756127 0.46078431 0.050980392
0.2745098 0.46078431 0.047058824
0.31862745 0.45814951 0.049693627
0.37009804 0.45281863 0.058455882
0.42156863 0.44901961 0.066176471
0.47254902 0.44681373 0.072303922
0.52401961 0.44509804 0.074509804
0.57585784 0.44203431 0.077083333
0.62745098 0.44117647 0.078125
0.67892157 0.44117647 0.078431373
0.72990196 0.44117647 0.074693627
0.78529412 0.44460784 0.069607843
0.84019608 0.44509804 0.059375
0.89019608 0.44681373 0.056617647
0.92653186 0.44503676 0.071078431
0.94754902 0.44497549 0.081372549
0.95392157 0.44656863 0.069117647
0.96029412 0.44901961 0.058823529
0.025490196 0.51568627 0.050980392
0.035539216 0.51568627 0.050980392
0.064215686 0.51372549 0.053431373
0.096568627 0.51372549 0.054901961
0.13039216 0.51176471 0.058823529
0.16446078 0.50980392 0.056617647
0.2 0.50833333 0.054901961
0.23578431 0.50588235 0.052205882
0.27058824 0.50588235 0.049019608
0.31421569 0.50465686 0.050245098
0.36372549 0.5 0.055882353
0.41519608 0.49632353 0.064460784
0.46470588 0.49313725 0.07254902
0.51421569 0.49191176 0.078676471
0.56715686 0.48872549 0.078431373
0.62181373 0.48823529 0.076470588
0.6745098 0.48823529 0.07254902
0.72916667 0.49019608 0.069362745
0.7877451 0.48823529 0.065686275
0.84264706 0.49019608 0.057107843
0.89215686 0.49215686 0.053921569
0.9247549 0.48995098 0.073284314
0.94754902 0.48823529 0.078921569
0.9629902 0.49019608 0.065686275
0.97058824 0.49411765 0.052941176
0.015196078 0.55931373 0.047058824
0.030392157 0.55931373 0.047058824
0.061764706 0.55931373 0.051960784
0.096078431 0.55931373 0.058333333
0.12720588 0.55710784 0.059313725
0.1627451 0.55447304 0.058333333
0.19963235 0.55098039 0.054901961
0.23333333 0.55098039 0.054901961
0.27058824 0.54754902 0.051470588
0.31176471 0.55098039 0.051470588
0.35784314 0.55012255 0.054534314
0.40882353 0.5471201 0.058333333
0.46029412 0.54338235 0.068137255
0.50833333 0.53970588 0.077941176
0.56360294 0.53970588 0.074142157
0.61881127 0.53970588 0.066176471
0.67058824 0.53970588 0.062254902
0.72843137 0.53970588 0.062254902
0.78970588 0.53578431 0.05747549
0.84895833 0.53535539 0.050980392
0.89852941 0.53553922 0.048529412
0.92647059 0.53578431 0.058762255
0.94656863 0.53578431 0.061764706
0.96372549 0.53578431 0.054227941
0.98088235 0.53529412 0.046568627
0.0049019608 0.60392157 0.043137255
0.024019608 0.60392157 0.045588235
0.057843137 0.60686275 0.055637255
0.08872549 0.60686275 0.061397059
0.12009804 0.60343137 0.064215686
0.15968137 0.59865196 0.058333333
0.19705882 0.59607843 0.054901961
0.23186275 0.59509804 0.050980392
0.27058824 0.59509804 0.050980392
0.31176471 0.59509804 0.054901961
0.35465686 0.59607843 0.050980392
0.40245098 0.59509804 0.051838235
0.45392157 0.59117647 0.061764706
0.50833333 0.5872549 0.067647059
0.56053922 0.5872549 0.06372549
0.61519608 0.58823529 0.054779412
0.67058824 0.58823529 0.051960784
0.72659314 0.58762255 0.054901961
0.78627451 0.58651961 0.053921569
0.84889706 0.58333333 0.047181373
0.90539216 0.58039216 0.038235294
0.92340686 0.58345588 0.04754902
0.94313725 0.58431373 0.053186275
0.96372549 0.58333333 0.053921569
0.98039216 0.58333333 0.05
0.0078431373 0.64901961 0.056372549
0.023590686 0.64901961 0.055453431
0.05 0.6504902 0.06127451
0.079411765 0.6504902 0.067953431
0.11372549 0.64779412 0.067401961
0.15471814 0.64479167 0.062254902
0.19215686 0.64117647 0.054901961
0.22794118 0.64117647 0.046507353
0.27058824 0.64117647 0.050980392
0.31176471 0.64117647 0.057352941
0.35294118 0.64117647 0.053921569
0.39411765 0.64117647 0.044914216
0.44901961 0.6379902 0.055637255
0.503125 0.6372549 0.062745098
0.55772059 0.6372549 0.058823529
0.61372549 0.6372549 0.046139706
0.66519608 0.6372549 0.050980392
0.72058824 0.63572304 0.05435049
0.77806373 0.63333333 0.052818627
0.83872549 0.63088235 0.050122549
0.89191176 0.62696078 0.050490196
0.92254902 0.62941176 0.05814951
0.9442402 0.63088235 0.065318627
0.96464461 0.63088235 0.065134804
0.97647059 0.63088235 0.060294118
0.011764706 0.69411765 0.070588235
0.028431373 0.69411765 0.070588235
0.049019608 0.69411765 0.070588235
0.069607843 0.69411765 0.074019608
0.10980392 0.69215686 0.070588235
0.15098039 0.68627451 0.066176471
0.18823529 0.68627451 0.055882353
0.22794118 0.68235294 0.050980392
0.26666667 0.67843137 0.054901961
0.31176471 0.67843137 0.058823529
0.35294118 0.67941176 0.057843137
0.39411765 0.68235294 0.051470588
0.44509804 0.68235294 0.056862745
0.5004902 0.67843137 0.062745098
0.55196078 0.67843137 0.058823529
0.60490196 0.67843137 0.050980392
0.65882353 0.68235294 0.058823529
0.71421569 0.68235294 0.05245098
0.77058824 0.67843137 0.055882353
0.8245098 0.67843137 0.06127451
0.87647059 0.6745098 0.060784314
0.91911765 0.6745098 0.075
0.94705882 0.6745098 0.078431373
0.9622549 0.6745098 0.074509804
0.96862745 0.67843137 0.070588235
0.015686275 0.7377451 0.084803922
0.032352941 0.7377451 0.084803922
0.049632353 0.73921569 0.080269608
0.073345588 0.73921569 0.075
0.10980392 0.73529412 0.067401961
0.1504902 0.73118873 0.062254902
0.18823529 0.72745098 0.055269608
0.22849265 0.72205882 0.055821078
0.26666667 0.71568627 0.06127451
0.30876225 0.71660539 0.065196078
0.35110294 0.71960784 0.064583333
0.39754902 0.72089461 0.059129902
0.44387255 0.72352941 0.054901961
0.49411765 0.71960784 0.058823529
0.54558824 0.71960784 0.055269608
0.5995098 0.72352941 0.053431373
0.65490196 0.72352941 0.05245098
0.71029412 0.72598039 0.052083333
0.76568627 0.72352941 0.051348039
0.81501225 0.72352941 0.058333333
0.86421569 0.71960784 0.071813725
0.91194853 0.71783088 0.082843137
0.95036765 0.71568627 0.08370098
0.96917892 0.71960784 0.066666667
0.97892157 0.71960784 0.057843137
0.015686275 0.78137255 0.099019608
0.032352941 0.78039216 0.092647059
0.054656863 0.78014706 0.08504902
0.081862745 0.77647059 0.071078431
0.1127451 0.77647059 0.062254902
0.14705882 0.77598039 0.053921569
0.18823529 0.76960784 0.050980392
0.22732843 0.76470588 0.059191176
0.26666667 0.76078431 0.066666667
0.30784314 0.75686275 0.07120098
0.3497549 0.75759804 0.067401961
0.39411765 0.76066176 0.059313725
0.44117647 0.76470588 0.052941176
0.49166667 0.76470588 0.05
0.54313725 0.76470588 0.050735294
0.59558824 0.76470588 0.055269608
0.65098039 0.76470588 0.051960784
0.70882353 0.7682598 0.049142157
0.76397059 0.76862745 0.048039216
0.81323529 0.76605392 0.05747549
0.86519608 0.76470588 0.067156863
0.91531863 0.76078431 0.073897059
0.94534314 0.76078431 0.070588235
0.97156863 0.76078431 0.059191176
0.98921569 0.76078431 0.046078431
0.015686275 0.82205882 0.10196078
0.034497549 0.82156863 0.092156863
0.06127451 0.81764706 0.081372549
0.089154412 0.81764706 0.071078431
0.11911765 0.81764706 0.057107843
0.15006127 0.81764706 0.047058824
0.18566176 0.81372549 0.049142157
0.2254902 0.80833333 0.060294118
0.26323529 0.80196078 0.070098039
0.30392157 0.79932598 0.076654412
0.34901961 0.79803922 0.073039216
0.39368873 0.79846814 0.063235294
0.44117647 0.80392157 0.052941176
0.48872549 0.80974265 0.040134804
0.54019608 0.80588235 0.05
0.59344363 0.80245098 0.058823529
0.64754902 0.80245098 0.058823529
0.70508578 0.80588235 0.058333333
0.75919118 0.80637255 0.054534314
0.81023284 0.80980392 0.070833333
0.87205882 0.80588235 0.055392157
0.9221201 0.80496324 0.059803922
0.94693627 0.80196078 0.058946078
0.96911765 0.80196078 0.049816176
0.99264706 0.80196078 0.042647059
0.015686275 0.85686275 0.092156863
0.03627451 0.85686275 0.085784314
0.064705882 0.85490196 0.07745098
0.092647059 0.85490196 0.065196078
0.12156863 0.85490196 0.055882353
0.1504902 0.85465686 0.049264706
0.18431373 0.85294118 0.050490196
0.22279412 0.84828431 0.060294118
0.2627451 0.84313725 0.070588235
0.30196078 0.8379902 0.074509804
0.34509804 0.8372549 0.073529412
0.38995098 0.8372549 0.063235294
0.43627451 0.84019608 0.052941176
0.48455882 0.84117647 0.047058824
0.53578431 0.84117647 0.053921569
0.58848039 0.84117647 0.060294118
0.64313725 0.84117647 0.064705882
0.6997549 0.84313725 0.071813725
0.75490196 0.84362745 0.066176471
0.81666667 0.84681373 0.059068627
0.87941176 0.84705882 0.049019608
0.92647059 0.84681373 0.04754902
0.94705882 0.84313725 0.053921569
0.96764706 0.84044118 0.054901961
0.98823529 0.83921569 0.056862745
0.015686275 0.89166667 0.081372549
0.036090686 0.89166667 0.075490196
0.064338235 0.89166667 0.069240196
0.092647059 0.89166667 0.063664216
0.11960784 0.8879902 0.059313725
0.14656863 0.8877451 0.064154412
0.18125 0.8877451 0.063357843
0.21979167 0.88645833 0.063235294
0.25882353 0.88039216 0.070588235
0.2995098 0.87616422 0.074509804
0.34117647 0.87340686 0.073161765
0.38621324 0.87598039 0.063235294
0.43308824 0.87598039 0.054901961
0.48082108 0.87598039 0.051470588
0.5310049 0.87634804 0.057843137
0.58351716 0.87647059 0.062745098
0.63872549 0.87990196 0.066666667
0.69460784 0.87990196 0.084620098
0.7504902 0.88039216 0.073161765
0.81182598 0.88339461 0.063235294
0.87009804 0.88382353 0.052941176
0.91862745 0.88339461 0.051409314
0.94313725 0.88002451 0.057843137
0.96519608 0.87647059 0.062745098
0.98431373 0.87598039 0.063235294
0.011764706 0.9254902 0.067647059
0.034803922 0.9254902 0.06372549
0.061764706 0.9254902 0.064460784
0.089215686 0.92254902 0.069607843
0.11764706 0.92254902 0.074509804
0.14620098 0.92120098 0.081740196
0.17818627 0.91862745 0.078431373
0.21654412 0.91862745 0.073161765
0.25490196 0.91862745 0.070588235
0.29607843 0.91409314 0.073406863
0.3375 0.91372549 0.069607843
0.38321078 0.91372549 0.062867647
0.42990196 0.91078431 0.058333333
0.47696078 0.91078431 0.05747549
0.52622549 0.9129902 0.055637255
0.57806373 0.91409314 0.059803922
0.63235294 0.91764706 0.062745098
0.6877451 0.91580882 0.071936275
0.74313725 0.91764706 0.066666667
0.79852941 0.91764706 0.059313725
0.85588235 0.91862745 0.054901961
0.90661765 0.91507353 0.069117647
0.94289216 0.91764706 0.055637255
0.96482843 0.91433824 0.064215686
0.98431373 0.91372549 0.070588235
0.0078431373 0.96127451 0.053431373
0.030882353 0.96127451 0.05435049
0.059681373 0.95735294 0.063112745
0.087438725 0.95392157 0.075490196
0.11495098 0.95343137 0.089705882
0.14117647 0.95343137 0.097365196
0.17536765 0.95343137 0.095955882
0.21372549 0.95343137 0.08627451
0.25098039 0.95343137 0.074509804
0.29068627 0.95398284 0.070588235
0.33284314 0.95098039 0.066666667
0.38186275 0.94969363 0.062745098
0.42941176 0.94705882 0.062745098
0.47677696 0.94705882 0.058823529
0.5245098 0.9495098 0.055269608
0.5745098 0.95189951 0.053431373
0.62745098 0.95490196 0.053431373
0.68137255 0.95098039 0.062193627
0.73492647 0.95453431 0.060661765
0.78952206 0.95343137 0.058823529
0.85098039 0.95343137 0.054166667
0.91372549 0.95490196 0.051348039
0.94852941 0.95379902 0.05245098
0.96764706 0.95098039 0.064215686
0.98578431 0.95098039 0.070588235
0 0.99607843 0.039215686
0.028431373 0.98578431 0.055882353
0.057843137 0.98039216 0.068627451
0.084803922 0.97696078 0.085294118
0.11176471 0.97647059 0.1
0.13872549 0.97647059 0.10980392
0.17254902 0.97647059 0.10588235
0.20980392 0.97647059 0.095098039
0.25098039 0.98039216 0.082352941
0.28578431 0.98431373 0.072058824
0.33039216 0.98333333 0.066666667
0.37794118 0.97696078 0.062745098
0.42745098 0.97647059 0.062745098
0.47303922 0.97647059 0.062254902
0.52156863 0.97647059 0.055882353
0.57205882 0.98186275 0.050980392
0.62352941 0.99215686 0.043137255
0.67745098 0.98039216 0.053431373
0.73039216 0.98431373 0.054901961
0.78578431 0.97696078 0.054901961
0.84901961 0.97843137 0.050980392
0.91715686 0.98872549 0.042647059
0.95196078 0.98529412 0.049019608
0.97156863 0.98284314 0.064215686
0.98823529 0.98431373 0.074509804
0.015686275 0.0078431373 0.1004902
0.03872549 0.010294118 0.097120098
0.081372549 0.017769608 0.092647059
0.11960784 0.023223039 0.091176471
0.15490196 0.024754902 0.089705882
0.18756127 0.019607843 0.087745098
0.22058824 0.014583333 0.084313725
0.25686275 0.016666667 0.080392157
0.30343137 0.011764706 0.084313725
0.35343137 0.011764706 0.084313725
0.40392157 0.012377451 0.084313725
0.45245098 0.0086397059 0.084313725
0.50392157 0.01372549 0.091666667
0.55588235 0.019607843 0.10147059
0.61372549 0.016666667 0.095588235
0.6754902 0.009375 0.082843137
0.72941176 0.0078431373 0.080392157
0.77696078 0.015686275 0.080392157
0.82732843 0.025980392 0.077941176
0.87990196 0.032352941 0.076654412
0.90980392 0.030882353 0.076470588
0.92990196 0.016973039 0.076470588
0.94595588 0.015686275 0.077573529
0.95147059 0.015686275 0.080392157
0.95147059 0.015686275 0.081862745
0.028982843 0.041176471 0.094117647
0.04207261 0.042670037 0.09285386
0.078431373 0.046936275 0.091590074
0.1158701 0.049571078 0.09251685
0.15098039 0.051256127 0.090931373
0.18578431 0.046384804 0.087928922
0.22058824 0.042647059 0.084313725
0.26078431 0.042095588 0.081885723
0.30343137 0.041176471 0.084313725
0.35343137 0.041176471 0.085577512
0.40277267 0.040257353 0.084313725
0.4511106 0.037438725 0.084313725
0.50119485 0.039185049 0.087745098
0.55245864 0.044117647 0.09754902
0.60819547 0.040395221 0.091053922
0.66764706 0.037254902 0.081655944
0.72303922 0.034803922 0.080392157
0.77303922 0.037254902 0.081311275
0.8245098 0.03627451 0.077941176
0.87646293 0.037745098 0.07432598
0.90980392 0.037009804 0.075980392
0.92990196 0.032222733 0.076279105
0.94664522 0.029411765 0.076470588
0.95447304 0.029963235 0.078860294
