site/assets/luts/natron-haldclut--polaroid-px-70-warm---fe38ccdf2.cube
# LUTr-Project: LUTr — LUTrepository
# LUTr-Schema-Version: 1
# LUTr-ID: natron-haldclut--polaroid-px-70-warm---fe38ccdf2
# LUTr-Title: polaroid px-70 warm --
# LUTr-Collection: Natron HaldCLUT
# LUTr-Collection-ID: natron-haldclut-presets
# LUTr-Source: https://github.com/NatronGitHub/clut
# LUTr-Source-File: submissions/natron-haldclut-presets/instant_consumer/polaroid_px-70_warm_--.png
# LUTr-Source-Format: PNG
# LUTr-Source-SHA256: 37c06c10f27ad9a68affb1ba3aeefdda07a9f4b8aed963a52e473fd67d163f86
# LUTr-License: CC-BY-SA-4.0
# LUTr-License-URL: https://github.com/NatronGitHub/clut#license
# LUTr-Tags: creative, film, film-emulation, hald-clut, natron, png, warm, cube
# LUTr-Transform-Class: film-emulation
# LUTr-Input-Color-Space: srgb
# LUTr-Output-Color-Space: srgb
# LUTr-Color-Space-Confidence: assumed-display-referred
# LUTr-Conversion-Method: PNG LUT image decoded at 16-bit and sampled to 25x25x25 3D CUBE
# LUTr-Conversion-Date: 2026-07-27
# LUTr-Conversion-Tool: LUTr scripts/convert-all-to-cube.mjs
# LUTr-Conversion-Grid: 25x25x25
# LUTr-Note: Preserve this metadata and the upstream license notices when redistributing.
TITLE "polaroid px-70 warm --"
LUT_3D_SIZE 25
DOMAIN_MIN 0 0 0
DOMAIN_MAX 1 1 1
0 0 0
0.014215686 0.010294118 0.020588235
0.029411765 0.015686275 0.03627451
0.046078431 0.015686275 0.046568627
0.07254902 0.019607843 0.043137255
0.10343137 0.023529412 0.03872549
0.13137255 0.02745098 0.032352941
0.17598039 0.025980392 0.036764706
0.23137255 0.019607843 0.047058824
0.28284314 0.0093137255 0.050980392
0.35784314 0.0039215686 0.055882353
0.45392157 0.0078431373 0.062745098
0.54509804 0.0078431373 0.068627451
0.62696078 0.0078431373 0.070588235
0.69901961 0.0078431373 0.070588235
0.76813725 0.02254902 0.066666667
0.81568627 0.11764706 0.062745098
0.86323529 0.2 0.058823529
0.90196078 0.27352941 0.057843137
0.93970588 0.33480392 0.054901961
0.9745098 0.38627451 0.058823529
1 0.43284314 0.064215686
1 0.47058824 0.098039216
1 0.50784314 0.12843137
1 0.54117647 0.15294118
0.0039215686 0.024509804 0.024509804
0.014215686 0.026960784 0.026348039
0.02879902 0.030514706 0.039093137
0.046078431 0.032352941 0.04442402
0.07254902 0.032352941 0.043137255
0.10343137 0.032352941 0.036580882
0.13321078 0.032352941 0.031372549
0.17898284 0.032352941 0.035845588
0.2377451 0.029901961 0.047058824
0.29466912 0.027512255 0.054963235
0.36997549 0.017156863 0.059803922
0.46292892 0.015073529 0.079166667
0.54509804 0.0078431373 0.069852941
0.62696078 0.0099877451 0.070588235
0.70294118 0.011151961 0.070588235
0.76568627 0.061764706 0.065196078
0.82205882 0.13431373 0.058823529
0.86862745 0.21813725 0.051531863
0.91127451 0.29215686 0.045588235
0.94215686 0.34117647 0.05245098
0.9745098 0.38627451 0.054901961
1 0.42941176 0.060294118
1 0.47242647 0.10232843
1 0.51029412 0.13333333
1 0.54509804 0.15294118
0.0078431373 0.045098039 0.045098039
0.018137255 0.04754902 0.042647059
0.028431373 0.048039216 0.037009804
0.042156863 0.048161765 0.039215686
0.07254902 0.049019608 0.038235294
0.10833333 0.052941176 0.036642157
0.14607843 0.053676471 0.040196078
0.19264706 0.052941176 0.045710784
0.24411765 0.049019608 0.050980392
0.30870098 0.049387255 0.065931373
0.38529412 0.03627451 0.06372549
0.46764706 0.02254902 0.066666667
0.54754902 0.0078431373 0.068137255
0.62769608 0.017892157 0.071446078
0.70196078 0.038970588 0.066666667
0.76176471 0.09620098 0.06127451
0.81960784 0.16372549 0.053921569
0.87279412 0.23026961 0.043627451
0.91666667 0.30294118 0.035539216
0.94754902 0.35147059 0.050367647
0.9745098 0.39411765 0.057352941
0.99914216 0.43786765 0.060906863
1 0.47573529 0.10098039
1 0.51629902 0.13443627
1 0.54019608 0.15392157
0.0078431373 0.065686275 0.061764706
0.01685049 0.06942402 0.055882353
0.028431373 0.065686275 0.044730392
0.039154412 0.065686275 0.035294118
0.077941176 0.067647059 0.037254902
0.11911765 0.073529412 0.043566176
0.15980392 0.07745098 0.046936275
0.20508578 0.072242647 0.047242647
0.25098039 0.070098039 0.051470588
0.30735294 0.063541667 0.053737745
0.39178922 0.057720588 0.064583333
0.4745098 0.057291667 0.075306373
0.55098039 0.046568627 0.068627451
0.62610294 0.061335784 0.062316176
0.69901961 0.096568627 0.059313725
0.76176471 0.14362745 0.057536765
0.81617647 0.19803922 0.050980392
0.87107843 0.25 0.036764706
0.92058824 0.30686275 0.025980392
0.94754902 0.35784314 0.046139706
0.9745098 0.40906863 0.055147059
0.99607843 0.45245098 0.062193627
0.99656863 0.49362745 0.12144608
1 0.52352941 0.1408701
1 0.54411765 0.15343137
0.0078431373 0.094117647 0.07254902
0.014215686 0.096078431 0.066176471
0.026470588 0.093627451 0.051960784
0.034803922 0.094117647 0.043382353
0.073529412 0.098039216 0.049019608
0.11813725 0.10196078 0.054901961
0.16568627 0.1 0.056862745
0.21053922 0.095343137 0.056127451
0.25490196 0.090196078 0.052941176
0.30857843 0.090686275 0.050245098
0.39215686 0.098529412 0.061764706
0.4745098 0.10392157 0.070098039
0.55392157 0.10490196 0.066666667
0.62696078 0.11887255 0.05245098
0.69754902 0.15098039 0.04754902
0.76176471 0.19558824 0.046323529
0.81568627 0.24509804 0.043137255
0.87107843 0.28897059 0.033578431
0.91862745 0.32892157 0.023529412
0.94754902 0.37426471 0.028921569
0.97745098 0.42254902 0.033333333
0.99607843 0.46666667 0.05
0.99607843 0.50637255 0.10931373
0.99754902 0.53970588 0.14019608
1 0.56470588 0.15098039
0.0039215686 0.12745098 0.078431373
0.014215686 0.12714461 0.072365196
0.020465686 0.12843137 0.06629902
0.026470588 0.13480392 0.06372549
0.053921569 0.13921569 0.067156863
0.10251225 0.13921569 0.071078431
0.15147059 0.13921569 0.074142157
0.203125 0.13970588 0.071384804
0.25539216 0.14019608 0.063235294
0.32352941 0.14362745 0.055085784
0.4004902 0.14840686 0.055759804
0.48241422 0.15490196 0.062254902
0.55710784 0.16151961 0.056372549
0.63088235 0.17640931 0.042156863
0.70036765 0.19901961 0.031372549
0.76439951 0.24068627 0.031862745
0.81960784 0.28823529 0.034313725
0.86685049 0.32892157 0.028737745
0.9122549 0.36617647 0.023529412
0.94356618 0.40349265 0.020098039
0.97794118 0.44044118 0.0098039216
0.99607843 0.47745098 0.029411765
0.99607843 0.5182598 0.080882353
0.99607843 0.55410539 0.12156863
1 0.58088235 0.14460784
0.0039215686 0.16176471 0.082352941
0.010294118 0.16176471 0.081372549
0.012745098 0.16862745 0.081372549
0.01372549 0.17218137 0.080514706
0.029901961 0.17647059 0.079411765
0.079289216 0.17781863 0.081862745
0.14019608 0.18406863 0.085294118
0.20098039 0.19227941 0.080269608
0.26176471 0.19509804 0.069607843
0.33737745 0.19509804 0.060294118
0.41446078 0.19901961 0.050245098
0.49227941 0.20379902 0.051960784
0.5622549 0.21813725 0.043137255
0.63382353 0.23088235 0.031862745
0.70686275 0.24485294 0.015441176
0.76997549 0.27855392 0.01372549
0.81568627 0.32254902 0.020588235
0.86139706 0.36311275 0.024509804
0.90588235 0.4 0.023529412
0.93970588 0.43480392 0.019607843
0.97156863 0.46666667 0.018627451
0.99264706 0.49803922 0.027696078
0.99607843 0.53529412 0.067647059
0.99607843 0.56997549 0.10625
1 0.59117647 0.13431373
0 0.2 0.087745098
0.0024509804 0.20398284 0.091115196
0.0035539216 0.20943627 0.091666667
0.0024509804 0.21127451 0.091666667
0.0049019608 0.21176471 0.088970588
0.060784314 0.22009804 0.090196078
0.12928922 0.23713235 0.087254902
0.19852941 0.24803922 0.080882353
0.26666667 0.25196078 0.070588235
0.34509804 0.25196078 0.060294118
0.425 0.25196078 0.049019608
0.50392157 0.25900735 0.037928922
0.57132353 0.2747549 0.031862745
0.64019608 0.28823529 0.021262255
0.71409314 0.30196078 0.0055147059
0.77058824 0.32156863 0.0039215686
0.81568627 0.35735294 0.0078431373
0.86170343 0.39515931 0.014215686
0.90490196 0.43088235 0.018504902
0.93578431 0.46176471 0.024816176
0.96666667 0.49264706 0.032107843
0.98872549 0.52334559 0.036887255
0.99571078 0.55294118 0.045465686
0.9966299 0.58480392 0.088664216
1 0.60686275 0.12401961
0 0.27843137 0.098039216
0 0.27843137 0.098039216
0 0.27843137 0.098039216
0 0.27843137 0.098039216
0.0019607843 0.2745098 0.094117647
0.03872549 0.28284314 0.090196078
0.11372549 0.29313725 0.087254902
0.19852941 0.30343137 0.078431373
0.27058824 0.30980392 0.070588235
0.35147059 0.3122549 0.069117647
0.43137255 0.31470588 0.045098039
0.51372549 0.325 0.027941176
0.58039216 0.3372549 0.023529412
0.6504902 0.35343137 0.015196078
0.71568627 0.36666667 0.0078431373
0.76813725 0.37941176 0.0078431373
0.81960784 0.40392157 0.0078431373
0.86715686 0.43480392 0.0078431373
0.90882353 0.46176471 0.0088235294
0.93578431 0.49264706 0.019117647
0.96078431 0.52352941 0.029411765
0.97745098 0.54607843 0.026960784
0.99509804 0.57058824 0.019607843
0.99754902 0.60147059 0.074509804
1 0.62352941 0.11764706
0.0014705882 0.3504902 0.10980392
0.0039215686 0.3504902 0.10680147
0.0029411765 0.35159314 0.10490196
0 0.3504902 0.098529412
0.0039215686 0.3504902 0.095343137
0.012316176 0.35098039 0.090196078
0.071568627 0.35882353 0.084436275
0.18327206 0.36372549 0.074509804
0.27303922 0.37009804 0.064215686
0.35539216 0.37647059 0.050551471
0.44056373 0.38394608 0.035416667
0.52401961 0.39313725 0.020281863
0.59705882 0.40416667 0.012009804
0.65998775 0.41519608 0.0094362745
0.71629902 0.4254902 0.011764706
0.76966912 0.43817402 0.011764706
0.81960784 0.45931373 0.010294118
0.86715686 0.47990196 0.0053921569
0.9060049 0.49840686 0.0049019608
0.92990196 0.52745098 0.015196078
0.9504902 0.55245098 0.017156863
0.97089461 0.57303922 0.013051471
0.99019608 0.59362745 0.006372549
0.99754902 0.61813725 0.058210784
1 0.6377451 0.10637255
0.0039215686 0.42254902 0.10098039
0.0039215686 0.42254902 0.10098039
0.0039215686 0.42230392 0.10098039
0.0039215686 0.4189951 0.097058824
0.0014705882 0.41862745 0.093627451
0 0.41911765 0.08627451
0.037990196 0.4247549 0.081862745
0.16997549 0.4314951 0.073039216
0.27843137 0.43823529 0.054901961
0.36568627 0.4439951 0.039093137
0.45196078 0.45098039 0.02377451
0.53823529 0.46164216 0.0078431373
0.60833333 0.46960784 0.0039215686
0.66519608 0.47683824 0.0078431373
0.71985294 0.48406863 0.011764706
0.77205882 0.49473039 0.011764706
0.81960784 0.51078431 0.011764706
0.86409314 0.52683824 0.0078431373
0.9 0.54215686 0.0078431373
0.9245098 0.56237745 0.01127451
0.94460784 0.58578431 0.011764706
0.96433824 0.60379902 0.011764706
0.98137255 0.61985294 0.0088235294
0.99362745 0.63419118 0.026838235
1 0.65 0.070588235
0.00049019608 0.49460784 0.086764706
0.0039215686 0.49117647 0.087254902
0.0039215686 0.49068627 0.090686275
0.0039215686 0.4872549 0.094117647
0.0036764706 0.49068627 0.093627451
0.0039215686 0.49068627 0.093198529
0.051960784 0.49460784 0.083333333
0.17028186 0.5 0.069117647
0.27843137 0.50637255 0.050980392
0.37107843 0.51060049 0.026960784
0.45845588 0.5182598 0.0078431373
0.53817402 0.52254902 0.0039828431
0.61176471 0.52671569 0.0073529412
0.66868873 0.53137255 0.0078431373
0.72401961 0.54117647 0.011764706
0.77205882 0.54803922 0.011764706
0.81960784 0.55833333 0.011764706
0.86078431 0.57126225 0.011458333
0.89362745 0.58419118 0.0078431373
0.92058824 0.60098039 0.01127451
0.93946078 0.61642157 0.011764706
0.95741422 0.63045343 0.0083333333
0.97463235 0.64117647 0.0079656863
0.99148284 0.65165441 0.0060661765
1 0.67352941 0.066666667
0 0.55882353 0.07254902
0.0024509804 0.55759804 0.077696078
0.0039215686 0.55588235 0.089215686
0.0056372549 0.55294118 0.1
0.0029411765 0.55784314 0.098039216
0.00073529412 0.55906863 0.097794118
0.065686275 0.56421569 0.087254902
0.18161765 0.56862745 0.074264706
0.28823529 0.57254902 0.050980392
0.38284314 0.5745098 0.025245098
0.46372549 0.57696078 0.011764706
0.5377451 0.58014706 0.013480392
0.61078431 0.58235294 0.011764706
0.67132353 0.58627451 0.0080882353
0.72156863 0.59313725 0.011764706
0.77205882 0.5995098 0.011764706
0.81960784 0.60588235 0.0098039216
0.85563725 0.61421569 0.011764706
0.88921569 0.6245098 0.0078431373
0.91838235 0.63848039 0.0078431373
0.93823529 0.65098039 0.0078431373
0.95735294 0.66127451 0.0078431373
0.9745098 0.67156863 0.006372549
0.98970588 0.67916667 0.0080882353
1 0.68823529 0.041176471
0 0.61813725 0.075980392
0.0039215686 0.61599265 0.087928922
0.0039215686 0.61335784 0.10036765
0.0073529412 0.61378676 0.10637255
0.014215686 0.61838235 0.10857843
0.031985294 0.62205882 0.10778186
0.11213235 0.62205882 0.10441176
0.22334559 0.62205882 0.094117647
0.32794118 0.62205882 0.079901961
0.41862745 0.62420343 0.066176471
0.48529412 0.62696078 0.058455882
0.54705882 0.63333333 0.034375
0.61176471 0.63578431 0.017892157
0.67303922 0.63823529 0.0078431373
0.72156863 0.64460784 0.0078431373
0.77205882 0.64901961 0.0083333333
0.81911765 0.64901961 0.0078431373
0.85422794 0.65324755 0.0078431373
0.88529412 0.6627451 0.0077205882
0.91617647 0.67598039 0.0039215686
0.9372549 0.68602941 0.0039215686
0.95784314 0.69215686 0.0078431373
0.9745098 0.6995098 0.0078431373
0.98970588 0.70294118 0.011948529
0.99607843 0.70294118 0.019117647
0 0.66960784 0.10294118
0.0028186275 0.66960784 0.10453431
0.00073529412 0.66936275 0.1127451
0.018504902 0.66960784 0.11629902
0.074019608 0.66960784 0.1254902
0.1495098 0.67046569 0.13443627
0.21862745 0.66960784 0.13431373
0.28223039 0.67058824 0.125
0.37941176 0.67352941 0.11470588
0.44767157 0.67352941 0.10980392
0.50808824 0.67745098 0.11078431
0.56421569 0.68137255 0.080269608
0.62009804 0.68578431 0.043137255
0.67647059 0.68933824 0.0082107843
0.72156863 0.69019608 0.01372549
0.76764706 0.69019608 0.014705882
0.8127451 0.69411765 0.011764706
0.85294118 0.69656863 0.006004902
0.88529412 0.70294118 0.0039215686
0.91360294 0.71323529 0.0039215686
0.9372549 0.71862745 0.0039215686
0.96041667 0.72267157 0.0039215686
0.9754902 0.72720588 0.01004902
0.98786765 0.73039216 0.033578431
0.99607843 0.73039216 0.052941176
0.031372549 0.71960784 0.12745098
0.030147059 0.71960784 0.125
0.089460784 0.72071078 0.13296569
0.14154412 0.71617647 0.14264706
0.20220588 0.71372549 0.15220588
0.27089461 0.71421569 0.15980392
0.31764706 0.71568627 0.15796569
0.36029412 0.71960784 0.1528799
0.42009804 0.72107843 0.1495098
0.47401961 0.71868873 0.14613971
0.52941176 0.71813725 0.14558824
0.58480392 0.71813725 0.12285539
0.64019608 0.72205882 0.092401961
0.68400735 0.72383578 0.076654412
0.72156863 0.72598039 0.067647059
0.76366422 0.72745098 0.054411765
0.80784314 0.73137255 0.034803922
0.84901961 0.73866422 0.010355392
0.88321078 0.74558824 0.0042892157
0.90735294 0.74558824 0.01942402
0.93259804 0.74681373 0.022794118
0.95814951 0.75214461 0.015257353
0.9754902 0.75637255 0.042034314
0.98670343 0.75882353 0.082352941
1 0.76127451 0.10931373
0.21176471 0.75686275 0.17254902
0.23333333 0.76078431 0.17254902
0.25784314 0.76078431 0.17254902
0.28137255 0.75686275 0.17647059
0.3254902 0.75490196 0.18431373
0.35441176 0.75294118 0.18823529
0.38823529 0.75294118 0.18823529
0.42401961 0.75294118 0.18823529
0.45490196 0.75294118 0.18823529
0.49852941 0.75294118 0.18823529
0.55392157 0.74901961 0.18431373
0.60882353 0.75245098 0.17401961
0.65882353 0.75294118 0.15490196
0.69166667 0.75686275 0.14901961
0.7254902 0.76078431 0.14901961
0.76666667 0.76078431 0.13039216
0.80392157 0.76470588 0.10196078
0.84509804 0.77107843 0.068627451
0.87745098 0.77254902 0.054901961
0.90098039 0.77254902 0.066176471
0.92745098 0.7745098 0.076470588
0.95392157 0.78039216 0.087254902
0.97156863 0.78333333 0.11078431
0.98578431 0.78823529 0.14558824
0.99607843 0.78823529 0.16470588
0.35196078 0.79313725 0.21764706
0.34901961 0.79221814 0.21764706
0.35441176 0.79166667 0.21727941
0.38247549 0.79313725 0.21617647
0.40147059 0.79093137 0.21838235
0.42383578 0.7877451 0.22567402
0.45159314 0.7877451 0.22941176
0.4754902 0.78382353 0.22941176
0.50245098 0.77990196 0.22941176
0.5372549 0.78137255 0.23333333
0.58088235 0.78382353 0.23578431
0.63363971 0.78382353 0.22843137
0.67426471 0.78578431 0.22254902
0.70410539 0.7903799 0.22254902
0.73284314 0.7935049 0.22107843
0.76666667 0.79558824 0.20545343
0.80392157 0.79558824 0.17401961
0.84356618 0.79558824 0.13921569
0.87291667 0.79705882 0.12879902
0.89834559 0.79920343 0.13039216
0.92426471 0.80220588 0.14534314
0.94785539 0.80520833 0.16194853
0.96875 0.81066176 0.18676471
0.98241422 0.81366422 0.2088848
0.99362745 0.81519608 0.21617647
0.41862745 0.81764706 0.25490196
0.42254902 0.81764706 0.26066176
0.43210784 0.81789216 0.2620098
0.44460784 0.81764706 0.2627451
0.4627451 0.81764706 0.26372549
0.48921569 0.81862745 0.26801471
0.50882353 0.81789216 0.27058824
0.52941176 0.81372549 0.27095588
0.55294118 0.81078431 0.2745098
0.58480392 0.81078431 0.27843137
0.62132353 0.81151961 0.28259804
0.66384804 0.81470588 0.28333333
0.69509804 0.81813725 0.28088235
0.7245098 0.8189951 0.27806373
0.74803922 0.82230392 0.2745098
0.77401961 0.82254902 0.26360294
0.80882353 0.82254902 0.23333333
0.84264706 0.82254902 0.2122549
0.86862745 0.82254902 0.20612745
0.89571078 0.82634804 0.20294118
0.92107843 0.82843137 0.21029412
0.94509804 0.83345588 0.23039216
0.96568627 0.83651961 0.24926471
0.98186275 0.83823529 0.26090686
0.99215686 0.84117647 0.26666667
0.49068627 0.84558824 0.29607843
0.49675245 0.84558824 0.30214461
0.4995098 0.84215686 0.30870098
0.50980392 0.84215686 0.31127451
0.52622549 0.84215686 0.31519608
0.54362745 0.84215686 0.31519608
0.56029412 0.84215686 0.31519608
0.57696078 0.8403799 0.31568627
0.60490196 0.8377451 0.31911765
0.63627451 0.83823529 0.32205882
0.66764706 0.84166667 0.3245098
0.69558824 0.84209559 0.33045343
0.71715686 0.84558824 0.32720588
0.7377451 0.84607843 0.32346814
0.76213235 0.84865196 0.32303922
0.78431373 0.85 0.31617647
0.81568627 0.8495098 0.29509804
0.84264706 0.84981618 0.28431373
0.86862745 0.85 0.27892157
0.89264706 0.85343137 0.27892157
0.91764706 0.85735294 0.27916667
0.93872549 0.85784314 0.28780637
0.95931373 0.86041667 0.29509804
0.98186275 0.86305147 0.30882353
0.99558824 0.86568627 0.31519608
0.5627451 0.87058824 0.33921569
0.56470588 0.87058824 0.34558824
0.56960784 0.86911765 0.35343137
0.57990196 0.87058824 0.3622549
0.59019608 0.87058824 0.36470588
0.59852941 0.86862745 0.3625
0.6122549 0.87009804 0.36078431
0.63112745 0.86862745 0.36151961
0.65490196 0.86862745 0.3627451
0.67671569 0.86666667 0.36593137
0.69852941 0.86715686 0.37156863
0.72254902 0.86862745 0.37794118
0.73921569 0.87058824 0.3745098
0.75784314 0.87254902 0.37401961
0.7745098 0.8745098 0.37058824
0.79705882 0.87647059 0.36666667
0.82156863 0.87647059 0.36078431
0.84534314 0.87647059 0.35441176
0.87107843 0.87647059 0.34852941
0.89681373 0.87843137 0.34509804
0.91960784 0.87843137 0.34019608
0.93823529 0.88063725 0.34166667
0.95882353 0.88235294 0.3504902
0.97941176 0.8870098 0.35906863
0.99607843 0.89019608 0.37058824
0.61421569 0.89509804 0.39460784
0.61813725 0.89509804 0.39724265
0.62340686 0.89509804 0.40343137
0.63633578 0.89558824 0.41372549
0.64338235 0.89558824 0.41446078
0.65343137 0.89509804 0.41072304
0.66421569 0.89509804 0.41029412
0.67530637 0.89509804 0.40998775
0.69166667 0.89509804 0.41421569
0.70851716 0.89166667 0.41685049
0.72892157 0.89509804 0.42340686
0.7495098 0.89509804 0.42990196
0.76593137 0.89558824 0.42818627
0.78235294 0.89901961 0.42598039
0.79901961 0.89938725 0.42598039
0.81421569 0.90294118 0.42598039
0.83235294 0.90294118 0.42254902
0.85245098 0.90294118 0.42009804
0.87794118 0.90294118 0.41372549
0.90447304 0.90294118 0.40692402
0.92377451 0.90294118 0.40294118
0.94172794 0.90300245 0.40386029
0.95882353 0.90686275 0.41115196
0.97941176 0.91078431 0.42009804
0.99166667 0.91078431 0.42598039
0.66862745 0.91960784 0.45
0.67144608 0.91960784 0.45294118
0.67769608 0.91960784 0.45882353
0.68480392 0.92218137 0.46519608
0.69117647 0.92107843 0.46911765
0.69852941 0.91960784 0.46519608
0.70588235 0.91887255 0.45955882
0.7122549 0.91678922 0.45931373
0.72647059 0.91862745 0.46568627
0.74313725 0.91862745 0.47144608
0.75980392 0.91960784 0.47843137
0.77696078 0.92218137 0.48137255
0.79166667 0.92254902 0.48137255
0.80637255 0.92352941 0.48137255
0.81960784 0.92352941 0.48357843
0.83296569 0.92683824 0.48431373
0.84901961 0.92745098 0.48431373
0.86960784 0.92745098 0.48039216
0.88946078 0.92647059 0.47647059
0.90870098 0.92647059 0.47291667
0.92696078 0.92647059 0.46813725
0.94473039 0.92745098 0.46911765
0.9627451 0.93039216 0.47622549
0.97794118 0.93137255 0.48186275
0.98431373 0.93431373 0.48431373
0.725 0.94558824 0.50931373
0.725 0.94411765 0.50931373
0.72892157 0.94448529 0.51323529
0.73284314 0.94773284 0.51715686
0.73872549 0.94681373 0.52107843
0.74491422 0.94540441 0.51666667
0.74705882 0.94056373 0.51029412
0.75245098 0.94074755 0.51378676
0.76519608 0.94411765 0.52107843
0.77604167 0.94558824 0.52745098
0.79068627 0.94558824 0.53382353
0.80606618 0.94803922 0.53676471
0.81666667 0.94803922 0.53676471
0.82696078 0.94803922 0.53676471
0.8372549 0.94803922 0.54068627
0.85147059 0.95196078 0.54215686
0.86813725 0.95196078 0.54215686
0.88535539 0.95196078 0.53915441
0.89938725 0.9495098 0.53823529
0.91421569 0.95165441 0.53823529
0.93014706 0.9495098 0.53431373
0.94754902 0.95196078 0.53480392
0.96666667 0.95526961 0.54117647
0.97647059 0.95588235 0.54607843
0.97892157 0.95588235 0.54607843
0.76470588 0.96470588 0.55294118
0.76470588 0.96470588 0.55294118
0.76862745 0.96470588 0.55392157
0.77598039 0.96813725 0.56029412
0.78627451 0.97058824 0.57058824
0.78039216 0.96470588 0.56029412
0.78039216 0.96078431 0.55294118
0.78578431 0.96078431 0.55833333
0.8 0.96470588 0.56862745
0.81029412 0.96862745 0.57647059
0.81960784 0.97156863 0.5872549
0.82352941 0.96862745 0.58039216
0.83333333 0.96470588 0.57647059
0.84362745 0.96470588 0.58039216
0.85392157 0.96862745 0.58333333
0.86813725 0.97254902 0.59117647
0.88235294 0.97254902 0.59607843
0.89264706 0.97009804 0.58823529
0.90686275 0.96862745 0.58529412
0.92058824 0.96862745 0.58823529
0.93529412 0.96862745 0.58431373
0.95343137 0.96911765 0.58823529
0.97058824 0.9754902 0.59509804
0.97647059 0.975 0.59607843
0.97647059 0.97254902 0.59215686
0.0078431373 0.016666667 0.030882353
0.017585784 0.017585784 0.034803922
0.029044118 0.01752451 0.039828431
0.042647059 0.015686275 0.046568627
0.069362745 0.017647059 0.044362745
0.10373775 0.027757353 0.045894608
0.13676471 0.033210784 0.049877451
0.17751225 0.03627451 0.054963235
0.23137255 0.029901961 0.06372549
0.2877451 0.022977941 0.070098039
0.36605392 0.011397059 0.076102941
0.45686275 0.0099877451 0.082843137
0.54828431 0.011764706 0.087254902
0.62941176 0.014215686 0.089705882
0.70294118 0.021813725 0.090808824
0.77205882 0.061764706 0.091176471
0.82352941 0.13676471 0.085784314
0.87107843 0.21966912 0.080330882
0.90943627 0.28958333 0.077941176
0.94362745 0.34509804 0.077941176
0.9745098 0.39460784 0.083088235
1 0.43707108 0.091176471
1 0.47512255 0.12205882
0.99908088 0.51029412 0.15202206
0.99754902 0.54117647 0.17352941
0.0078431373 0.030882353 0.03872549
0.018137255 0.031227022 0.042647059
0.030560662 0.032352941 0.047120098
0.042647059 0.032352941 0.047058824
0.072089461 0.033118873 0.045588235
0.10657169 0.03738511 0.048039216
0.13745404 0.039828431 0.050949755
0.18088235 0.040196078 0.054963235
0.2377451 0.03872549 0.06372549
0.29769455 0.035148591 0.070098039
0.3745864 0.025980392 0.076470588
0.46604626 0.017846201 0.088426777
0.54901961 0.011029412 0.087254902
0.63107384 0.017041973 0.089705882
0.70631127 0.03560049 0.091176471
0.76868873 0.084803922 0.089131434
0.82352941 0.14705882 0.081862745
0.87408088 0.2314568 0.073613664
0.9161152 0.30507047 0.068627451
0.94619332 0.35177696 0.077519914
0.9745098 0.39460784 0.083088235
1 0.43707108 0.091176471
1 0.47627145 0.12205882
1 0.51329657 0.15259651
1 0.54362745 0.17598039
0.0078431373 0.046936275 0.050490196
0.018137255 0.049019608 0.053860294
0.031158088 0.051470588 0.052696078
0.044791667 0.051470588 0.050122549
0.074509804 0.054166667 0.051960784
0.10882353 0.057169118 0.053308824
0.14607843 0.059589461 0.056862745
0.19303002 0.059313725 0.060585172
0.24705882 0.059313725 0.067647059
0.3100337 0.054779412 0.076547181
0.3877451 0.042647059 0.079503676
0.47071078 0.029886642 0.083333333
0.55042892 0.023161765 0.087071078
