site/assets/luts/natron-haldclut--golden-vibrant--7e892056e.cube
# LUTr-Project: LUTr — LUTrepository
# LUTr-Schema-Version: 1
# LUTr-ID: natron-haldclut--golden-vibrant--7e892056e
# LUTr-Title: golden vibrant
# LUTr-Collection: Natron HaldCLUT
# LUTr-Collection-ID: natron-haldclut-presets
# LUTr-Source: https://github.com/NatronGitHub/clut
# LUTr-Source-File: submissions/natron-haldclut-presets/various/golden_vibrant.png
# LUTr-Source-Format: PNG
# LUTr-Source-SHA256: 0eedaaafd5036cfce0dda00d22d3f9e80555e52aa30fed6f9e6685cb37cfa17b
# LUTr-License: CC-BY-SA-4.0
# LUTr-License-URL: https://github.com/NatronGitHub/clut#license
# LUTr-Tags: creative, film, film-emulation, hald-clut, natron, png, cube
# LUTr-Transform-Class: film-emulation
# LUTr-Input-Color-Space: srgb
# LUTr-Output-Color-Space: srgb
# LUTr-Color-Space-Confidence: assumed-display-referred
# LUTr-Conversion-Method: PNG LUT image decoded at 16-bit and sampled to 25x25x25 3D CUBE
# LUTr-Conversion-Date: 2026-07-27
# LUTr-Conversion-Tool: LUTr scripts/convert-all-to-cube.mjs
# LUTr-Conversion-Grid: 25x25x25
# LUTr-Note: Preserve this metadata and the upstream license notices when redistributing.
TITLE "golden vibrant"
LUT_3D_SIZE 9
DOMAIN_MIN 0 0 0
DOMAIN_MAX 1 1 1
0.0039215686 0.0078431373 0.078431373
0.07745098 0.015686275 0.11372549
0.18039216 0.041176471 0.095098039
0.34411765 0.040686275 0.11078431
0.55098039 0.01372549 0.1372549
0.75784314 0.015686275 0.098039216
0.91862745 0.023529412 0.094117647
0.95 0.016176471 0.082843137
0.98823529 0.019607843 0.078431373
0.015686275 0.10833333 0.086764706
0.076960784 0.10827206 0.10245098
0.17781863 0.11176471 0.087254902
0.34411765 0.10784314 0.094117647
0.54901961 0.10980392 0.095833333
0.77481618 0.1122549 0.103125
0.90036765 0.11176471 0.099509804
0.9495098 0.11568627 0.090257353
0.98431373 0.10784314 0.10539216
0.015686275 0.25 0.10490196
0.069607843 0.24607843 0.095465686
0.17156863 0.24215686 0.084558824
0.33529412 0.22830882 0.085906863
0.54313725 0.2372549 0.096078431
0.76421569 0.23529412 0.10232843
0.91078431 0.23602941 0.098039216
0.9495098 0.24215686 0.092769608
0.99509804 0.23529412 0.07254902
0.0078431373 0.40441176 0.10980392
0.065686275 0.40441176 0.089215686
0.18002451 0.39656863 0.083333333
0.34957108 0.39509804 0.090196078
0.54705882 0.40294118 0.10514706
0.75539216 0.40147059 0.1004902
0.90686275 0.39656863 0.085906863
0.94822304 0.396875 0.098039216
0.98284314 0.39656863 0.10196078
0.019607843 0.5627451 0.10980392
0.075245098 0.56470588 0.098039216
0.18431373 0.56078431 0.090196078
0.33431373 0.56397059 0.0875
0.53137255 0.56666667 0.082352941
0.74828431 0.5752451 0.10073529
0.90539216 0.57647059 0.10637255
0.9495098 0.57058824 0.09754902
0.98627451 0.5627451 0.084313725
0.031372549 0.725 0.092647059
0.079595588 0.725 0.095404412
0.1810049 0.72107843 0.093014706
0.33627451 0.72261029 0.07935049
0.53529412 0.72426471 0.092892157
0.75539216 0.72892157 0.11127451
0.90784314 0.72855392 0.11911765
0.94969363 0.72089461 0.098835784
0.97647059 0.71323529 0.082352941
0.0068627451 0.85882353 0.081372549
0.076960784 0.85073529 0.10122549
0.18039216 0.85318627 0.095098039
0.33480392 0.85392157 0.089093137
0.53970588 0.85833333 0.090196078
0.75392157 0.8627451 0.093504902
0.90612745 0.86102941 0.088235294
0.94963235 0.85490196 0.10196078
0.98823529 0.85196078 0.082352941
0.023529412 0.93039216 0.094607843
0.077389706 0.94656863 0.12261029
0.18039216 0.94607843 0.12401961
0.34019608 0.95343137 0.097058824
0.54313725 0.94779412 0.091911765
0.77009804 0.95 0.12628676
0.90735294 0.95343137 0.099387255
0.95386029 0.95735294 0.093198529
0.97205882 0.94607843 0.10196078
0.0039215686 0.99215686 0.08627451
0.084803922 0.98382353 0.094607843
0.17156863 0.99313725 0.080392157
0.32990196 0.99068627 0.08627451
0.54705882 0.98039216 0.084313725
0.75539216 0.97254902 0.096568627
0.91470588 0.97647059 0.090196078
0.95 0.98823529 0.08627451
0.97254902 0.99215686 0.094117647
0.015686275 0.016176471 0.17892157
0.07745098 0.064276961 0.17892157
0.18431373 0.012745098 0.175
0.35147059 0.015686275 0.175
0.55073529 0.013480392 0.17696078
0.76176471 0.018137255 0.17352941
0.89215686 0.017156863 0.175
0.9495098 0.024019608 0.17935049
0.98431373 0.016176471 0.17892157
0.020036765 0.1161152 0.17892157
0.080453431 0.11176471 0.17843137
0.18062194 0.11176471 0.175
0.34616268 0.11176471 0.18284314
0.54362745 0.11176471 0.18327206
0.77892157 0.11178768 0.18284314
0.91781556 0.1122549 0.18284314
0.95343137 0.11263021 0.18327206
0.98431373 0.10833333 0.17892157
0.031004902 0.24215686 0.175
0.076960784 0.24215686 0.17107843
0.17034314 0.2393076 0.16715686
0.33350184 0.23463542 0.17892157
0.53768382 0.23480392 0.18339461
0.77781863 0.24607843 0.18676471
0.91470588 0.23823529 0.18284314
0.95300245 0.2308364 0.1785386
0.98835784 0.22647059 0.17487745
0.013051471 0.39920343 0.175
0.076531863 0.40441176 0.17156863
0.17291667 0.40494792 0.17486213
0.34411765 0.39645374 0.17762714
0.55098039 0.40490196 0.18284314
0.76623775 0.41066942 0.18589154
0.91559436 0.39901961 0.17892157
0.95343137 0.39656863 0.18171722
0.98431373 0.39656863 0.17892157
0.0083333333 0.5627451 0.18504902
0.076960784 0.57058824 0.17892157
0.17518382 0.57058824 0.17481618
0.3393076 0.57034314 0.17490809
0.54276961 0.57058824 0.17671569
0.76145833 0.5745098 0.17892157
0.9182598 0.57083333 0.17892157
0.95539216 0.56666667 0.17892157
0.98235294 0.56666667 0.17892157
0.016176471 0.71746324 0.17892157
0.072342218 0.71715686 0.175
0.17904412 0.71960784 0.17107843
0.33235294 0.725 0.17107843
0.54313725 0.72417279 0.175
0.76065411 0.72745098 0.175
0.91132047 0.72892157 0.175
0.96100643 0.725 0.17892157
0.98039216 0.725 0.18253676
0.0078431373 0.8557598 0.17892157
0.073054534 0.84352022 0.175
0.17904412 0.84672181 0.17818627
0.34019608 0.85882353 0.1759038
0.54748775 0.85490196 0.17585784
0.75931373 0.85436581 0.17585784
0.91862745 0.8551777 0.17892157
0.95735294 0.85102635 0.17892157
0.98137255 0.85098039 0.17892157
0.036764706 0.94215686 0.17892157
0.073475797 0.95006127 0.175
0.17659314 0.95 0.17892157
0.34319853 0.9571921 0.17892157
0.55490196 0.95171569 0.17892157
0.76606924 0.95002298 0.18235294
0.91482843 0.94689032 0.18284314
0.94956342 0.94183517 0.17537531
0.98425245 0.9495098 0.18284314
0.026960784 0.98431373 0.175
0.073529412 0.96905637 0.175
0.17254902 0.98431373 0.17365196
0.33841912 0.98253676 0.175
0.54289216 0.98602941 0.175
0.76979167 0.96862745 0.18284314
0.91813725 0.97254902 0.18272059
0.94515931 0.99166667 0.16329657
0.96470588 0.97696078 0.17156863
0.012745098 0.023529412 0.27156863
0.073039216 0.017034314 0.27156863
0.17647059 0.0125 0.27156863
0.34803922 0.019607843 0.27156863
0.54607843 0.010784314 0.26372549
0.76323529 0.021691176 0.26911765
0.91862745 0.030392157 0.2754902
0.95 0.015686275 0.2754902
0.98529412 0.015686275 0.2754902
0.0068627451 0.11617647 0.26862745
0.081311275 0.11966912 0.2754902
0.18811275 0.11188725 0.27484681
0.34437806 0.10833333 0.27156863
0.53578431 0.10655637 0.2685049
0.76029412 0.10842525 0.27351409
0.91577819 0.11375613 0.27634804
0.9551011 0.11639093 0.27941176
0.98823529 0.11960784 0.2754902
0.030392157 0.24313725 0.27156863
0.080974265 0.24534314 0.27221201
0.17781863 0.24607843 0.27175245
0.32843137 0.23823529 0.27156863
0.53259804 0.2377451 0.27389706
0.75845588 0.23884804 0.27941176
0.91194853 0.22800245 0.27493873
0.95343137 0.22984069 0.27257966
0.98823529 0.23823529 0.2754902
0.031372549 0.39154412 0.27156863
0.07745098 0.39656863 0.27156863
0.1754902 0.40441176 0.26911765
0.33933824 0.40110294 0.27156863
0.54705882 0.40441176 0.2754902
0.76107537 0.39856005 0.2754902
0.91951593 0.38918505 0.27156863
0.95735294 0.39136029 0.27179841
0.98823529 0.4004902 0.27941176
0.016666667 0.55882353 0.26813725
0.08125 0.56519608 0.27156863
0.1814951 0.57205882 0.26654412
0.34650735 0.57058824 0.27083333
0.54705882 0.57058824 0.2754902
0.76213235 0.56893382 0.2754902
0.91642157 0.56862745 0.27156863
0.95735294 0.56844363 0.27175245
0.98039216 0.56666667 0.2754902
0.012745098 0.72401961 0.26764706
0.080346201 0.72075674 0.26764706
0.18039216 0.72107843 0.26740196
0.3399663 0.72352941 0.27051164
0.54313725 0.725 0.27156863
0.75931373 0.725 0.27156863
0.91115196 0.73210784 0.26764706
0.95735294 0.73253676 0.27156863
0.97647059 0.72892157 0.27156863
0.014705882 0.85784314 0.26691176
0.077420343 0.84620098 0.26372549
0.18406863 0.84981618 0.27420343
0.34494485 0.85808824 0.2754902
0.53958333 0.85747549 0.2754902
0.75355392 0.85882353 0.2754902
0.91151961 0.8627451 0.27254902
0.95352328 0.86167279 0.27156863
0.98431373 0.85392157 0.2754902
0.026470588 0.93811275 0.26372549
0.073529412 0.9495098 0.26372549
0.18354779 0.95364583 0.27349877
0.34780944 0.95258885 0.27156863
0.53707108 0.95343137 0.28302696
0.7537837 0.95 0.28195466
0.91081495 0.94568015 0.27613358
0.95117953 0.9459712 0.27156863
0.98517157 0.95085784 0.2754902
0.031372549 0.99215686 0.26764706
0.077328431 0.97990196 0.26470588
0.16936275 0.9879902 0.26764706
0.33872549 0.99215686 0.26764706
0.54313725 0.98676471 0.27058824
0.75931373 0.9872549 0.27303922
0.91470588 0.98431373 0.2745098
0.95257353 0.98823529 0.27058824
0.97647059 0.9754902 0.2754902
0.015686275 0.015686275 0.36029412
0.069607843 0.0065563725 0.37175245
0.17977941 0.016053922 0.36421569
0.34411765 0.013235294 0.36813725
0.54705882 0.018137255 0.36421569
0.75876225 0.024019608 0.36029412
0.90894608 0.065686275 0.36421569
0.95214461 0.03314951 0.37598039
0.97254902 0.023529412 0.37990196
0.015686275 0.11194853 0.35637255
0.081311275 0.11681219 0.37205882
0.17009804 0.11020221 0.36421569
0.34411765 0.1082644 0.36421569
0.53783701 0.10799632 0.36029412
0.76231618 0.10784314 0.36421569
0.91078431 0.10784314 0.36207108
0.95 0.11574755 0.36813725
0.98382353 0.12352941 0.3723652
0.030759804 0.23431373 0.36029412
0.084803922 0.24402574 0.36813725
0.17558211 0.23529412 0.36421569
0.32843137 0.23884804 0.36421569
0.53707108 0.24246324 0.36421569
0.76323529 0.24313725 0.36813725
0.91167279 0.24050245 0.36421569
0.95392157 0.23713235 0.36421569
0.99571078 0.23921569 0.36813725
0.035294118 0.39264706 0.36421569
0.076960784 0.39656863 0.36421569
0.18039216 0.4004902 0.36421569
0.3245098 0.39656863 0.36421569
0.54117647 0.40217525 0.37083333
0.76323529 0.39867494 0.37205882
0.91470588 0.39601716 0.36813725
0.95735294 0.39810049 0.36813725
0.98823529 0.4004902 0.36813725
0.012009804 0.56666667 0.3622549
0.073376225 0.56862745 0.36421569
0.18039216 0.56715686 0.36029412
0.3416973 0.56666667 0.36421569
0.54252451 0.57058824 0.36776961
0.75640319 0.56547181 0.37205882
0.91911765 0.5627451 0.36813725
0.95735294 0.5627451 0.36813725
0.98039216 0.56470588 0.36813725
0.011764706 0.725 0.3627451
0.077742034 0.7213848 0.36029412
0.17647059 0.72352941 0.36029412
0.34411765 0.72892157 0.36421569
0.54313725 0.72576593 0.36421569
0.75447304 0.725 0.36813725
0.91037071 0.72905944 0.36421569
0.95343137 0.72762714 0.36285999
0.97310049 0.72254902 0.36421569
0.024509804 0.85882353 0.35637255
0.081066176 0.85490196 0.3569087
0.18039216 0.85098039 0.36813725
0.34448529 0.8627451 0.36029412
0.54295343 0.86470588 0.36421569
0.75147059 0.8613511 0.36574755
0.91424632 0.85490196 0.36421569
0.9495098 0.85882353 0.36421569
0.98884804 0.85392157 0.37598039
0.039215686 0.95606618 0.35637255
0.080537684 0.95392157 0.36029412
0.1846201 0.94640012 0.37366728
0.34895833 0.94822304 0.36169577
0.54240196 0.9484375 0.36706495
0.7585095 0.94980852 0.36721814
0.91078431 0.95 0.36421569
0.9495098 0.95376072 0.36421569
0.96734069 0.95 0.36421569
0.025 0.99215686 0.36421569
0.081372549 0.98823529 0.36029412
0.18284314 0.9942402 0.36421569
0.34019608 0.98731618 0.36421569
0.54313725 0.97965686 0.36740196
0.76176471 0.98823529 0.36813725
0.91862745 0.9872549 0.37169118
0.95735294 0.98970588 0.36813725
0.975 0.98823529 0.36813725
0.035294118 0.011764706 0.45294118
0.076960784 0.011519608 0.45686275
0.1872549 0.015686275 0.45686275
0.33627451 0.019362745 0.45686275
0.54803922 0.028431373 0.45392157
0.76323529 0.020343137 0.45955882
0.91862745 0.029411765 0.46519608
0.95392157 0.015196078 0.46862745
0.96862745 0.019607843 0.47254902
0.013480392 0.10441176 0.45686275
0.073284314 0.10220588 0.4651348
0.17254902 0.11176471 0.45116422
0.34451593 0.1096201 0.45677083
0.55098039 0.10821078 0.46078431
0.76878064 0.1122549 0.46191789
0.90416667 0.10833333 0.45643382
0.95 0.11179534 0.45735294
0.98431373 0.11593137 0.46102941
0.020588235 0.23431373 0.46372549
0.07745098 0.23823529 0.46470588
0.18370098 0.23921569 0.46151961
0.33265931 0.23039216 0.45686275
0.54313725 0.24289216 0.46078431
0.76568627 0.23823529 0.46078431
0.90612745 0.24215686 0.46053922
0.9495098 0.24068627 0.4598652
0.98823529 0.23921569 0.46078431
0.019607843 0.39264706 0.46470588
0.077297794 0.40137868 0.46078431
0.18039216 0.39828431 0.46078431
0.32843137 0.39264706 0.45686275
0.54313725 0.40012255 0.46078431
0.76176471 0.4004902 0.46078431
0.91770833 0.4004902 0.46470588
0.95343137 0.39558824 0.46470588
0.98431373 0.39387255 0.46666667
0.019607843 0.56862745 0.46470588
0.073529412 0.57046569 0.46090686
0.18333333 0.56887255 0.45686275
0.33235294 0.56531863 0.45686275
0.53578431 0.56911765 0.45980392
0.75539216 0.56862745 0.46078431
0.91862745 0.56936275 0.46470588
0.95343137 0.56642157 0.46262255
0.97647059 0.56078431 0.46470588
0.01495098 0.72426471 0.46470588
0.074601716 0.725 0.46210172
0.17794118 0.72285539 0.45686275
0.3328125 0.72745098 0.4549326
0.5379902 0.72855392 0.45686275
0.75539216 0.72892157 0.46078431
0.91862745 0.72892157 0.45900735
0.95343137 0.7260723 0.45686275
0.97254902 0.72230392 0.46078431
0.012745098 0.85882353 0.45833333
0.073529412 0.85814951 0.45637255
0.18039216 0.85392157 0.45894608
0.34283088 0.85765931 0.45294118
0.54926471 0.86004902 0.45637255
0.76127451 0.86176471 0.45686275
0.91666667 0.85784314 0.45894608
0.95343137 0.85042892 0.46470588
0.98480392 0.85098039 0.46862745
0.019607843 0.95735294 0.45318627
0.080882353 0.95343137 0.45686275
0.1879902 0.94981618 0.46121324
0.34877451 0.93841912 0.45695466
0.54607843 0.94215686 0.45686275
0.75931373 0.94215686 0.45710784
0.90698529 0.9408701 0.46470588
0.95367647 0.95 0.47012868
0.98651961 0.93455882 0.46642157
0.0039215686 0.99803922 0.46470588
0.080882353 0.99019608 0.46470588
0.19460784 0.99019608 0.46078431
0.35661765 0.99215686 0.46078431
0.53823529 0.99215686 0.46078431
0.75931373 0.98431373 0.46348039
0.91862745 0.98186275 0.46862745
0.95367647 0.98039216 0.46470588
0.99215686 0.98039216 0.46470588
0.025980392 0.025980392 0.55343137
0.080882353 0.024816176 0.55490196
0.18333333 0.02254902 0.55490196
0.34166667 0.015686275 0.55343137
0.54509804 0.019607843 0.56127451
0.76231618 0.013296569 0.55435049
0.91862745 0.0091911765 0.55735294
0.95735294 0.012561275 0.56127451
0.98823529 0.044117647 0.55343137
0.021078431 0.10441176 0.5495098
0.084375 0.10790441 0.5495098
0.17679228 0.11217831 0.55098039
0.33971354 0.11176471 0.55643382
0.53970588 0.11191789 0.56666667
0.75931373 0.11580116 0.55509344
0.91862745 0.10833333 0.55574449
0.95735294 0.10467984 0.55882353
0.98823529 0.10802696 0.55490196
0.025 0.23933824 0.55637255
0.078737745 0.24362745 0.55686275
0.18039216 0.24240196 0.55379902
0.33627451 0.23639706 0.55343137
0.53921569 0.24264706 0.5536152
0.75931373 0.24146752 0.55343137
0.92239583 0.23403799 0.55343137
0.94977022 0.23823529 0.5573989
0.98431373 0.23823529 0.56127451
0.031372549 0.40196078 0.55343137
0.073039216 0.39871324 0.55343137
0.17587316 0.39117647 0.55343137
0.33382353 0.39264706 0.5495098
0.54705882 0.39656863 0.55070466
0.75749847 0.4004902 0.55343137
0.91286765 0.4004902 0.55735294
0.95343137 0.39479167 0.56127451
0.98131127 0.39172794 0.56280637
0.023529412 0.56985294 0.56004902
0.076960784 0.56666667 0.55735294
0.18039216 0.57107843 0.55735294
0.33158701 0.56151961 0.54613971
0.53958333 0.56078431 0.55098039
0.75784314 0.5627451 0.55735294
0.90514706 0.57058824 0.56127451
0.95392157 0.57254902 0.56127451
0.97647059 0.56862745 0.56127451
0.025980392 0.72408088 0.57058824
0.078255208 0.72371324 0.5638557
0.18431373 0.72892157 0.55551471
0.33269761 0.72107843 0.5495098
0.53976716 0.72107843 0.5544424
0.75663297 0.71568627 0.55643382
0.91078431 0.71997549 0.55320159
0.94981618 0.72892157 0.55042892
0.97647059 0.71960784 0.55735294
0.027818627 0.85098039 0.56029412
0.077313113 0.85882353 0.56029412
0.18039216 0.85821078 0.54996936
0.3338848 0.85428922 0.55421262
0.5471201 0.85098039 0.55281863
0.77293199 0.85448836 0.55343137
0.91078431 0.85588235 0.54806985
0.9495098 0.8620864 0.54854473
0.98247549 0.85490196 0.55404412
0.023039216 0.95 0.54558824
0.080882353 0.95128676 0.5495098
0.17647059 0.95343137 0.55209865
0.3338848 0.94637714 0.55343137
0.53651961 0.94828431 0.5495098
0.75483303 0.94607843 0.5495098
0.91318934 0.94589461 0.55747549
0.95735294 0.94924173 0.56154259
0.98039216 0.93088235 0.56127451
0.022058824 0.98039216 0.5495098
0.07745098 0.98039216 0.5495098
0.175 0.98137255 0.55134804
0.33780637 0.98284314 0.55343137
0.53529412 0.9745098 0.54558824
0.75539216 0.97401961 0.55343137
0.91176471 0.97647059 0.5627451
0.95392157 0.97843137 0.56519608
0.98823529 0.99362745 0.56127451
0.019607843 0.015686275 0.6754902
0.07745098 0.019607843 0.67904412
0.17941176 0.019607843 0.68235294
0.33811275 0.025980392 0.68333333
0.54215686 0.015686275 0.68676471
0.75747549 0.023529412 0.6872549
0.91078431 0.019607843 0.66985294
0.95 0.019607843 0.66715686
0.98823529 0.012745098 0.67156863
0.040073529 0.10833333 0.6754902
0.084803922 0.11219363 0.68016238
0.18039216 0.11289828 0.68311887
0.3356924 0.10821078 0.69056373
0.54705882 0.10441176 0.69019608
0.76323529 0.10833333 0.68524816
0.91366422 0.10854779 0.67855392
0.95343137 0.1122549 0.68627451
0.99203431 0.1122549 0.67647059
0.044117647 0.24901961 0.6754902
0.084160539 0.25 0.68005515
0.1745098 0.23584559 0.67824755
0.33235294 0.23431373 0.68048407
0.53921569 0.24362745 0.67977941
0.75931373 0.24289216 0.67941176
0.91176471 0.23841912 0.67604167
0.95343137 0.23921569 0.6754902
0.98823529 0.24509804 0.66397059
0.025 0.41041667 0.67156863
0.077221201 0.4057598 0.67357537
0.17892157 0.39574142 0.68716299
0.33757659 0.39656863 0.67941176
0.53529412 0.4004902 0.67941176
0.76139706 0.40035233 0.67535233
0.91580882 0.39901961 0.67166054
0.95343137 0.39502145 0.67830882
0.98370098 0.39620098 0.65931373
0.02254902 0.57058824 0.68186275
0.072855392 0.56629902 0.65686275
0.18088235 0.57254902 0.67708333
0.34803922 0.56862745 0.67941176
0.54362745 0.5627451 0.68308824
0.75177696 0.57058824 0.67064951
0.89803922 0.57414216 0.66813725
0.95 0.56985294 0.6872549
0.96862745 0.56421569 0.68921569
0.010294118 0.72561275 0.67941176
0.077405025 0.7213848 0.67291667
0.18039216 0.72882966 0.67714461
0.33647365 0.72745098 0.68595282
0.55042892 0.725 0.6872549
0.76508885 0.7214614 0.69042586
0.91752451 0.72107843 0.68161765
0.94986213 0.72107843 0.68538603
0.98039216 0.72107843 0.69117647
0.024509804 0.85882353 0.67647059
0.069822304 0.86188725 0.66050858
0.17965686 0.85882353 0.67977941
0.32990196 0.86326593 0.66749387
0.54852941 0.85490196 0.67794118
0.77892157 0.85490196 0.67867647
0.91470588 0.85563725 0.68014706
0.95346201 0.85848652 0.67156863
0.98431373 0.85490196 0.69044118
0.034926471 0.94987745 0.66519608
0.07578125 0.95257353 0.67265625
0.17647059 0.95052083 0.67156863
0.33074449 0.94215686 0.67941176
0.53578431 0.94558824 0.67873775
0.77081801 0.94010417 0.68053002
0.91642157 0.94757966 0.68005515
0.95735294 0.9495098 0.67734375
0.97389706 0.94705882 0.69252451
0.016666667 0.98039216 0.67647059
0.073529412 0.97242647 0.67254902
0.18333333 0.98823529 0.66862745
0.34620098 0.99178922 0.66862745
0.54558824 0.98480392 0.67352941
0.75539216 0.98247549 0.67438725
0.90980392 0.98553922 0.66740196
0.95343137 0.97647059 0.69901961
0.98823529 0.98823529 0.70294118
0.016176471 0.016176471 0.84068627
0.085294118 0.016605392 0.83333333
0.17745098 0.0052696078 0.84031863
0.33988971 0.023223039 0.82959559
0.53970588 0.015931373 0.82598039
0.75931373 0.020588235 0.82941176
0.92205882 0.057352941 0.84375
0.95735294 0.030392157 0.83731618
0.98039216 0.0083333333 0.84509804
0.053492647 0.11568627 0.82990196
0.081372549 0.11268382 0.83681832
0.1817402 0.10784314 0.82593444
0.33200827 0.11182598 0.83306526
0.54335172 0.10833333 0.82619485
0.75931373 0.10849418 0.83484222
0.91223958 0.11144301 0.83806679
0.95343137 0.1122549 0.82952665
0.99166667 0.10827206 0.83039216
0.051470588 0.24215686 0.82941176
0.080453431 0.24215686 0.83431373
0.17362132 0.22454044 0.84840686
0.33970588 0.23529412 0.84705882
0.54969363 0.23823529 0.82769608
0.76372549 0.23823529 0.83118873
0.91078431 0.23529412 0.8370098
0.95300245 0.23823529 0.8321538
0.98137255 0.23431373 0.82598039
0.028431373 0.40392157 0.8254902
0.080882353 0.40075827 0.82156863
0.17794118 0.39652267 0.82847733
0.3377451 0.40030637 0.83099724
0.54255515 0.39656863 0.82172181
0.77506127 0.39656863 0.83627451
0.89607843 0.39509804 0.84171262
0.94993873 0.38743873 0.84068627
0.97254902 0.38872549 0.82579657
0.016176471 0.57230392 0.83333333
0.07377451 0.56666667 0.8254902
0.18333333 0.56593137 0.83639706
0.35177696 0.5627451 0.84264706
0.55490196 0.56139706 0.82634804
0.76822917 0.56755515 0.83979779
0.9129902 0.56703431 0.84479167
0.94754902 0.5549326 0.83529412
0.9629902 0.55882353 0.83357843
0.018321078 0.72745098 0.82990196
0.079028799 0.71995251 0.82624847
0.18039216 0.72144608 0.83333333
0.34012714 0.72107843 0.83333333
0.55098039 0.72107843 0.82959559
0.76568627 0.72892157 0.82971814
0.90753676 0.72291667 0.82740502
0.95343137 0.7178079 0.82990196
0.97794118 0.71893382 0.8372549
0.019730392 0.86237745 0.8372549
0.078630515 0.85882353 0.82732843
0.18039216 0.85848652 0.83311887
0.33235294 0.85747549 0.82990196
0.54050245 0.85490196 0.83161765
0.76715686 0.85882353 0.84178922
0.91862745 0.85814951 0.83333333
0.95617341 0.85784314 0.82585784
0.99460784 0.85784314 0.8372549
0.020036765 0.9495098 0.84117647
0.073529412 0.94215686 0.83333333
0.18039216 0.9495098 0.82977941
0.33785233 0.94558824 0.82614124
0.53921569 0.94607843 0.82745098
0.76715686 0.9495098 0.84460784
0.91470588 0.94607843 0.82990196
0.95343137 0.94613971 0.83425245
0.97647059 0.94656863 0.84460784
0.016176471 0.99558824 0.85245098
0.07745098 0.97352941 0.83425245
0.19558824 0.9872549 0.84117647
0.35588235 0.98823529 0.83480392
0.54705882 0.9877451 0.82181373
0.76323529 0.98039216 0.82696078
0.91911765 0.98002451 0.8372549
0.95735294 0.98431373 0.84117647
0.99166667 0.99215686 0.8372549
0.019607843 0.0078431373 0.95294118
0.089215686 0.028431373 0.94411765
0.18431373 0.033333333 0.95392157
0.33235294 0.02254902 0.92598039
0.54117647 0.019607843 0.96078431
0.75931373 0.014215686 0.90441176
0.90980392 0.0098039216 0.95882353
0.96127451 0.0044117647 0.96421569
0.99215686 0.02745098 0.95686275
0.031372549 0.10784314 0.96127451
0.074448529 0.10833333 0.95091912
0.18529412 0.11213235 0.9377451
0.33235294 0.11832108 0.95116422
0.54313725 0.11004902 0.94338235
0.77077206 0.10833333 0.94871324
0.90784314 0.11176471 0.94852941
0.95392157 0.1122549 0.94503676
0.99558824 0.10833333 0.96029412
0.010784314 0.23039216 0.95490196
0.077941176 0.23835784 0.9372549
0.18039216 0.23823529 0.94019608
0.33235294 0.23823529 0.95343137
0.55098039 0.23921569 0.94558824
0.775 0.24313725 0.95404412
0.90392157 0.24215686 0.94803922
0.9495098 0.24178922 0.95343137
0.96568627 0.23529412 0.95980392
0.017156863 0.38872549 0.91911765
0.074816176 0.39901961 0.93284314
0.18676471 0.39509804 0.9504902
0.3338848 0.39901961 0.94509804
0.54705882 0.39656863 0.94901961
0.76623775 0.40441176 0.95294118
0.91862745 0.40441176 0.95098039
0.94981618 0.39901961 0.92383578
0.97647059 0.4004902 0.94901961
0.017647059 0.55882353 0.92745098
0.081127451 0.56862745 0.9372549
0.18823529 0.56519608 0.93676471
0.34411765 0.55759804 0.93406863
0.54901961 0.55882353 0.9245098
0.7625 0.56862745 0.95294118
0.89803922 0.57254902 0.93333333
0.95343137 0.56862745 0.94534314
0.98235294 0.56862745 0.95294118
0.015686275 0.72107843 0.94656863
0.081372549 0.725 0.94901961
0.17830882 0.725 0.95294118
0.33627451 0.72107843 0.95294118
0.53995098 0.72107843 0.9497549
0.76176471 0.72892157 0.95147059
0.89607843 0.72855392 0.94693627
0.95392157 0.73137255 0.95165441
0.97647059 0.73529412 0.95294118
0.019607843 0.85882353 0.94019608
0.081372549 0.85490196 0.95232843
0.18039216 0.85882353 0.94436275
0.34019608 0.85392157 0.95085784
0.53529412 0.85882353 0.94656863
0.7564951 0.86384804 0.94901961
0.91078431 0.8627451 0.9497549
0.95343137 0.86139706 0.95232843
0.97941176 0.85392157 0.95294118
0.016176471 0.95343137 0.94460784
0.073468137 0.93529412 0.9495098
0.18431373 0.95343137 0.95379902
0.34019608 0.95 0.9622549
0.53553922 0.9495098 0.95490196
0.75931373 0.94558824 0.9153799
0.90477941 0.93835784 0.93529412
0.95343137 0.95 0.95435049
0.96078431 0.95343137 0.95245098
0.011764706 0.99607843 0.96862745
0.073529412 0.99166667 0.94803922
0.18823529 0.98039216 0.93039216
0.33872549 0.96470588 0.9504902
0.53921569 0.97254902 0.95098039
0.76323529 0.98039216 0.9372549
0.91470588 0.97941176 0.94607843
0.95784314 0.98872549 0.94068627
0.96470588 0.98823529 0.92941176
