site/assets/luts/natron-haldclut--polaroid-665--daa5719e7.cube
# LUTr-Project: LUTr — LUTrepository
# LUTr-Schema-Version: 1
# LUTr-ID: natron-haldclut--polaroid-665--daa5719e7
# LUTr-Title: polaroid 665 ++
# LUTr-Collection: Natron HaldCLUT
# LUTr-Collection-ID: natron-haldclut-presets
# LUTr-Source: https://github.com/NatronGitHub/clut
# LUTr-Source-File: submissions/natron-haldclut-presets/instant_pro/polaroid_665_++.png
# LUTr-Source-Format: PNG
# LUTr-Source-SHA256: fe5b72858ace50df9fdb5e14a29e6c59b68f6ff03f76f6b33a0133c7efb0fe8c
# LUTr-License: CC-BY-SA-4.0
# LUTr-License-URL: https://github.com/NatronGitHub/clut#license
# LUTr-Tags: creative, film, film-emulation, hald-clut, natron, png, cube
# LUTr-Transform-Class: film-emulation
# LUTr-Input-Color-Space: srgb
# LUTr-Output-Color-Space: srgb
# LUTr-Color-Space-Confidence: assumed-display-referred
# LUTr-Conversion-Method: PNG LUT image decoded at 16-bit and sampled to 25x25x25 3D CUBE
# LUTr-Conversion-Date: 2026-07-27
# LUTr-Conversion-Tool: LUTr scripts/convert-all-to-cube.mjs
# LUTr-Conversion-Grid: 25x25x25
# LUTr-Note: Preserve this metadata and the upstream license notices when redistributing.
TITLE "polaroid 665 ++"
LUT_3D_SIZE 5
DOMAIN_MIN 0 0 0
DOMAIN_MAX 1 1 1
0.14117647 0.14117647 0.14117647
0.14509804 0.14509804 0.14509804
0.20392157 0.20392157 0.20392157
0.30392157 0.30392157 0.30392157
0.48627451 0.48627451 0.48627451
0.18235294 0.18235294 0.18235294
0.18014706 0.18014706 0.18014706
0.24411765 0.24411765 0.24411765
0.34681373 0.34681373 0.34681373
0.53235294 0.53235294 0.53235294
0.32352941 0.32352941 0.32352941
0.31372549 0.31372549 0.31372549
0.3245098 0.3245098 0.3245098
0.4495098 0.4495098 0.4495098
0.68039216 0.68039216 0.68039216
0.56960784 0.56960784 0.56960784
0.5745098 0.5745098 0.5745098
0.59215686 0.59215686 0.59215686
0.61470588 0.61470588 0.61470588
0.77745098 0.77745098 0.77745098
0.90196078 0.90196078 0.90196078
0.89117647 0.89117647 0.89117647
0.89411765 0.89411765 0.89411765
0.93333333 0.93333333 0.93333333
0.9372549 0.9372549 0.9372549
0.17941176 0.17941176 0.17941176
0.19313725 0.19313725 0.19313725
0.25196078 0.25196078 0.25196078
0.36176471 0.36176471 0.36176471
0.54019608 0.54019608 0.54019608
0.2127451 0.2127451 0.2127451
0.23756127 0.23756127 0.23756127
0.2995098 0.2995098 0.2995098
0.39901961 0.39901961 0.39901961
0.58137255 0.58137255 0.58137255
0.35833333 0.35833333 0.35833333
0.37352941 0.37352941 0.37352941
0.38823529 0.38823529 0.38823529
0.50294118 0.50294118 0.50294118
0.71470588 0.71470588 0.71470588
0.62671569 0.62671569 0.62671569
0.62254902 0.62254902 0.62254902
0.63848039 0.63848039 0.63848039
0.65906863 0.65906863 0.65906863
0.81960784 0.81960784 0.81960784
0.89901961 0.89901961 0.89901961
0.89509804 0.89509804 0.89509804
0.91862745 0.91862745 0.91862745
0.93823529 0.93823529 0.93823529
0.94901961 0.94901961 0.94901961
0.32745098 0.32745098 0.32745098
0.3504902 0.3504902 0.3504902
0.37156863 0.37156863 0.37156863
0.47058824 0.47058824 0.47058824
0.6627451 0.6627451 0.6627451
0.38676471 0.38676471 0.38676471
0.39448529 0.39448529 0.39448529
0.42009804 0.42009804 0.42009804
0.54068627 0.54068627 0.54068627
0.69852941 0.69852941 0.69852941
0.43529412 0.43529412 0.43529412
0.46176471 0.46176471 0.46176471
0.5377451 0.5377451 0.5377451
0.6372549 0.6372549 0.6372549
0.77843137 0.77843137 0.77843137
0.69117647 0.69117647 0.69117647
0.70796569 0.70796569 0.70796569
0.74289216 0.74289216 0.74289216
0.76936275 0.76936275 0.76936275
0.87941176 0.87941176 0.87941176
0.92745098 0.92745098 0.92745098
0.9245098 0.9245098 0.9245098
0.93235294 0.93235294 0.93235294
0.94313725 0.94313725 0.94313725
0.96078431 0.96078431 0.96078431
0.64509804 0.64509804 0.64509804
0.64901961 0.64901961 0.64901961
0.66862745 0.66862745 0.66862745
0.69215686 0.69215686 0.69215686
0.81372549 0.81372549 0.81372549
0.67941176 0.67941176 0.67941176
0.69099265 0.69099265 0.69099265
0.70477941 0.70477941 0.70477941
0.72181373 0.72181373 0.72181373
0.83308824 0.83308824 0.83308824
0.73235294 0.73235294 0.73235294
0.74705882 0.74705882 0.74705882
0.77647059 0.77647059 0.77647059
0.80183824 0.80183824 0.80183824
0.89068627 0.89068627 0.89068627
0.76470588 0.76470588 0.76470588
0.77745098 0.77745098 0.77745098
0.83088235 0.83088235 0.83088235
0.88547794 0.88547794 0.88547794
0.92745098 0.92745098 0.92745098
0.92254902 0.92254902 0.92254902
0.93333333 0.93333333 0.93333333
0.95294118 0.95294118 0.95294118
0.96887255 0.96887255 0.96887255
0.96862745 0.96862745 0.96862745
0.93333333 0.93333333 0.93333333
0.93039216 0.93039216 0.93039216
0.92745098 0.92745098 0.92745098
0.9254902 0.9254902 0.9254902
0.94117647 0.94117647 0.94117647
0.9254902 0.9254902 0.9254902
0.9372549 0.9372549 0.9372549
0.94117647 0.94117647 0.94117647
0.94509804 0.94509804 0.94509804
0.94901961 0.94901961 0.94901961
0.94509804 0.94509804 0.94509804
0.94901961 0.94901961 0.94901961
0.94901961 0.94901961 0.94901961
0.95294118 0.95294118 0.95294118
0.94901961 0.94901961 0.94901961
0.95686275 0.95686275 0.95686275
0.96078431 0.96078431 0.96078431
0.96176471 0.96176471 0.96176471
0.97352941 0.97352941 0.97352941
0.97254902 0.97254902 0.97254902
0.94901961 0.94901961 0.94901961
0.97254902 0.97254902 0.97254902
0.97254902 0.97254902 0.97254902
0.98137255 0.98137255 0.98137255
0.99607843 0.99607843 0.99607843
