site/assets/luts/natron-haldclut--fuji-fp-100c-cool---a14af4b24.cube
# LUTr-Project: LUTr — LUTrepository
# LUTr-Schema-Version: 1
# LUTr-ID: natron-haldclut--fuji-fp-100c-cool---a14af4b24
# LUTr-Title: fuji fp-100c cool --
# LUTr-Collection: Natron HaldCLUT
# LUTr-Collection-ID: natron-haldclut-presets
# LUTr-Source: https://github.com/NatronGitHub/clut
# LUTr-Source-File: submissions/natron-haldclut-presets/instant_pro/fuji_fp-100c_cool_--.png
# LUTr-Source-Format: PNG
# LUTr-Source-SHA256: e597532dcdc6c179ccdf8391b640507aa4ebcfbce0b0c71a791f39800f04c70f
# LUTr-License: CC-BY-SA-4.0
# LUTr-License-URL: https://github.com/NatronGitHub/clut#license
# LUTr-Tags: creative, film, film-emulation, hald-clut, natron, png, cool, cube
# LUTr-Transform-Class: film-emulation
# LUTr-Input-Color-Space: srgb
# LUTr-Output-Color-Space: srgb
# LUTr-Color-Space-Confidence: assumed-display-referred
# LUTr-Conversion-Method: PNG LUT image decoded at 16-bit and sampled to 25x25x25 3D CUBE
# LUTr-Conversion-Date: 2026-07-27
# LUTr-Conversion-Tool: LUTr scripts/convert-all-to-cube.mjs
# LUTr-Conversion-Grid: 25x25x25
# LUTr-Note: Preserve this metadata and the upstream license notices when redistributing.
TITLE "fuji fp-100c cool --"
LUT_3D_SIZE 9
DOMAIN_MIN 0 0 0
DOMAIN_MAX 1 1 1
0 0 0
0.054411765 0.011764706 0.0078431373
0.16862745 0.0088235294 0.011764706
0.34264706 0.0078431373 0.033823529
0.5254902 0.0039215686 0.025490196
0.68970588 0 0.019607843
0.82352941 0.0039215686 0.035294118
0.92696078 0.0078431373 0.015686275
0.99607843 0.082352941 0
0.0039215686 0.073039216 0.011764706
0.05 0.076470588 0.012745098
0.18982843 0.087745098 0.019607843
0.36519608 0.057352941 0.014031863
0.55269608 0.023039216 0.01372549
0.70882353 0.0045955882 0.0078431373
0.83125 0.010416667 0.010906863
0.93480392 0.035232843 0.0039215686
0.99264706 0.16421569 0
0.0039215686 0.19607843 0.011764706
0.0098039216 0.20294118 0.014705882
0.16421569 0.22352941 0.013970588
0.39252451 0.23333333 0.006372549
0.60441176 0.21813725 0.0044117647
0.73713235 0.19607843 0.0050245098
0.84901961 0.19779412 0.013970588
0.94227941 0.24178922 0.01127451
0.99117647 0.28431373 0.0039215686
0 0.36372549 0.0014705882
0.0034313725 0.3627451 0.0078431373
0.057352941 0.36568627 0.0020833333
0.36464461 0.38719363 0
0.57598039 0.38480392 0
0.74460784 0.39264706 0.0014705882
0.85392157 0.39901961 0.015686275
0.94234069 0.4127451 0.038112745
0.99215686 0.43578431 0.0078431373
0 0.49607843 0.0058823529
0 0.49436275 0.012254902
0.00049019608 0.48627451 0.00098039216
0.27769608 0.50318627 0
0.51862745 0.51764706 0
0.6870098 0.52426471 0
0.83676471 0.53382353 0.0029411765
0.93676471 0.55735294 0.0078431373
0.99607843 0.57647059 0.011764706
0 0.62156863 0.035294118
0 0.61029412 0.0083333333
0.010294118 0.59803922 0
0.20827206 0.60349265 0
0.44632353 0.61617647 0
0.63480392 0.63033088 0
0.79166667 0.63786765 0
0.90735294 0.65588235 0.012254902
0.99068627 0.68284314 0.011764706
0 0.7245098 0.014705882
0 0.72463235 0.012254902
0.014705882 0.71446078 0.0068627451
0.23615196 0.70943627 0.0050245098
0.43039216 0.71764706 0.0039215686
0.59595588 0.72879902 0.00098039216
0.74901961 0.74117647 0
0.88333333 0.75992647 0.0039215686
0.98431373 0.77941176 0.0078431373
0 0.84509804 0.12843137
0.01004902 0.84515931 0.13682598
0.10992647 0.84129902 0.12941176
0.35098039 0.83333333 0.14411765
0.49411765 0.8372549 0.075490196
0.61568627 0.8463848 0.012745098
0.74914216 0.86041667 0.0098039216
0.87647059 0.87205882 0.0078431373
0.9877451 0.88382353 0.0083333333
0.4 0.97254902 0.40392157
0.42696078 0.97254902 0.41176471
0.46568627 0.96568627 0.40098039
0.54215686 0.96078431 0.40931373
0.62941176 0.95882353 0.40588235
0.71666667 0.96715686 0.4004902
0.80294118 0.96960784 0.33823529
0.90294118 0.97647059 0.2622549
0.99215686 0.98431373 0.1372549
0.0078431373 0.023529412 0.08872549
0.060845588 0.0039215686 0.076041667
0.15747549 0.015808824 0.081372549
0.33676471 0.0052083333 0.084497549
0.5254902 0 0.088235294
0.69577206 0 0.084313725
0.82254902 0 0.06372549
0.92696078 0.0044117647 0.065196078
0.99607843 0.070588235 0.060784314
0.0039828431 0.076960784 0.095588235
0.053921569 0.080445772 0.095588235
0.19874387 0.087760417 0.090272672
0.3745098 0.058639706 0.088074449
0.55416667 0.012990196 0.086734069
0.71176471 0.0014705882 0.076960784
0.83137255 0.012147672 0.06807598
0.93780637 0.030614277 0.056487439
0.99607843 0.17009804 0.069117647
0 0.21421569 0.11127451
0.00625 0.21901042 0.10392157
0.19016544 0.23651961 0.092126225
0.41211703 0.24068627 0.066911765
0.59313725 0.22892157 0.077022059
0.73823529 0.21484375 0.071737132
0.84681373 0.20450368 0.072426471
0.93904718 0.24080882 0.060677083
0.98480392 0.27720588 0.065563725
0 0.37910539 0.10471814
0.012132353 0.3786152 0.099471507
0.10297181 0.38088235 0.075168505
0.375 0.3977405 0.015885417
0.59877451 0.39690564 0.010539216
0.75256587 0.40422028 0.045166973
0.85784314 0.40200674 0.069255515
0.94656863 0.40837163 0.068504902
0.99215686 0.4377451 0.088235294
0 0.50539216 0.085539216
0.0036458333 0.50931373 0.085998775
0.04129902 0.50349265 0.078002451
0.29362745 0.51308211 0.021905637
0.52696078 0.52242647 0.0078431373
0.69990809 0.52941176 0.0078431373
0.83633578 0.53841912 0.0071691176
0.94264706 0.55643382 0.053860294
0.99215686 0.57230392 0.11323529
0 0.62009804 0.071752451
0 0.61773131 0.083065257
0.01182598 0.60842525 0.08359375
0.24165901 0.60795803 0.045228248
0.45842525 0.62401961 0.011458333
0.64429381 0.6348652 0.0073529412
0.79446998 0.64394914 0.0025428922
0.91764706 0.65949755 0.015502451
0.99215686 0.68284314 0.040379902
0.00098039216 0.72536765 0.099754902
0.0039215686 0.72892157 0.11078431
0.0047794118 0.71829044 0.094117647
0.25035233 0.71372549 0.091176471
0.44356618 0.7245098 0.042830882
0.60343137 0.73272059 0.0097886029
0.75281863 0.74828431 0.0039215686
0.87941176 0.76416973 0.0038143382
0.98137255 0.78039216 0.0037990196
0.0038602941 0.84901961 0.2
0.0039675245 0.84901961 0.19656863
0.11945466 0.84117647 0.20355392
0.33431373 0.83709406 0.19417892
0.49120711 0.8377451 0.1546875
0.616322 0.8468367 0.045228248
0.74918811 0.86078431 0.016988358
0.87566636 0.87641697 0.0039215686
0.96470588 0.88382353 0.011764706
0.36862745 0.96470588 0.40784314
0.39748775 0.965625 0.41219363
0.47009804 0.96727941 0.42683824
0.54393382 0.96544118 0.43394608
0.63504902 0.9625 0.44583333
0.71176471 0.9622549 0.40392157
0.80343137 0.97303922 0.37083333
0.90300245 0.97647059 0.28400735
1 0.98431373 0.16323529
0.0039215686 0.024509804 0.22254902
0.07745098 0.017279412 0.2377451
0.23455882 0.0031862745 0.24534314
0.325 0.031862745 0.22757353
0.4995098 0.018627451 0.22107843
0.68958333 0.0029411765 0.2064951
0.81568627 0 0.19926471
0.92316176 0.0039215686 0.1995098
0.99607843 0.078431373 0.19607843
0.00049019608 0.083823529 0.21911765
0.048529412 0.073039216 0.2377451
0.25707721 0.053063725 0.26547181
0.36418505 0.089154412 0.23871017
0.54607843 0.034558824 0.22598039
0.70464154 0.0086856618 0.21470588
0.8234375 0.016237745 0.20759804
0.92691483 0.053140319 0.19989277
0.99227941 0.17071078 0.20343137
0 0.22230392 0.25686275
0.0062193627 0.24007353 0.26102941
0.23137255 0.25588235 0.27273284
0.42843137 0.25686275 0.25634191
0.59742647 0.23860294 0.24252451
0.73112745 0.21813725 0.23223039
0.84123775 0.22898284 0.21734069
0.93443627 0.25055147 0.21087623
0.99607843 0.30416667 0.21397059
0 0.40453431 0.28431373
0.020848652 0.41384804 0.28333333
0.17769608 0.42233456 0.26470588
0.42806373 0.4317402 0.23506434
0.61421569 0.42732843 0.22463235
0.74967831 0.42262561 0.24517463
0.85 0.41188725 0.23394608
0.94080882 0.41608456 0.225
0.98823529 0.42401961 0.22598039
0 0.53970588 0.26960784
0.0051470588 0.54761029 0.26348039
0.05625 0.53860294 0.24705882
0.3473652 0.53382353 0.23088235
0.55294118 0.54338235 0.17230392
0.72254902 0.54607843 0.14889706
0.84411765 0.55281863 0.19987745
0.93872549 0.56446078 0.24515931
0.99411765 0.58039216 0.26078431
0.0039215686 0.63872549 0.24546569
0.0089460784 0.64595588 0.26078431
0.013051471 0.63434436 0.23612132
0.28962929 0.62843137 0.2251685
0.48792892 0.63560049 0.17297794
0.65539216 0.64656863 0.082720588
0.80471814 0.65174632 0.027542892
0.91919424 0.66764706 0.11040135
0.99607843 0.69852941 0.25588235
0.0029411765 0.74093137 0.23455882
0.0035845588 0.74313725 0.24549632
0.01127451 0.73627451 0.23216912
0.27732843 0.72769608 0.22671569
0.46262255 0.72843137 0.1995098
0.61311275 0.73792892 0.092003676
0.75661765 0.75349265 0.015134804
0.8872549 0.76384804 0.0082107843
0.98823529 0.78333333 0.046078431
0.0056372549 0.85637255 0.28443627
0.010508578 0.85551471 0.2877451
0.1278799 0.84901961 0.28382353
0.3495098 0.84250919 0.2865962
0.49466912 0.84068627 0.26997549
0.62259498 0.84871324 0.21087623
0.74987745 0.85772059 0.11271446
0.87254902 0.87265625 0.018504902
0.97218137 0.88382353 0.016053922
0.37647059 0.96960784 0.45882353
0.37696078 0.96470588 0.45122549
0.44705882 0.96470588 0.45686275
0.53088235 0.95980392 0.46335784
0.61470588 0.95196078 0.46078431
0.71176471 0.96617647 0.46372549
0.80294118 0.97328431 0.43235294
0.8995098 0.97634804 0.35183824
0.99019608 0.98137255 0.25784314
0.0039215686 0.0078431373 0.37941176
0.054901961 0.0073529412 0.38823529
0.30772059 0.011764706 0.4377451
0.50980392 0.0039215686 0.45392157
0.56446078 0.032598039 0.4120098
0.63964461 0.048406863 0.37248775
0.78186275 0.011397059 0.36127451
0.89969363 0.012561275 0.3495098
0.98823529 0.039705882 0.32598039
0.0039215686 0.080882353 0.37303922
0.046469056 0.066176471 0.39215686
0.29224877 0.027389706 0.43198529
0.51267616 0.018504902 0.45318627
0.55955882 0.084957108 0.40621936
0.66470588 0.12450214 0.38302696
0.80431985 0.040900735 0.3573989
0.91508885 0.028553922 0.33398438
0.99626225 0.10036765 0.3245098
0 0.2057598 0.3745098
0.015088848 0.22166054 0.39220282
0.25909926 0.23409926 0.43026961
0.52886029 0.23408395 0.4761489
0.59074755 0.27132353 0.41568627
0.69849877 0.26420037 0.38970588
0.82950368 0.21807598 0.35710784
0.92400429 0.22193627 0.33867953
0.99215686 0.26151961 0.33639706
0 0.40778186 0.42886029
0.024050245 0.41764706 0.4372549
0.24747243 0.43933824 0.4477788
0.47655484 0.46380974 0.45896906
0.62374387 0.45707721 0.43746936
0.73944547 0.425 0.40931373
0.83929228 0.41580882 0.3873315
0.92824755 0.4116345 0.36862745
0.99454657 0.43480392 0.36035539
0.0039215686 0.55637255 0.44191176
0.011029412 0.57843137 0.4591299
0.26341912 0.58039216 0.44852941
0.43995098 0.58180147 0.43823529
0.5997549 0.57696078 0.40379902
0.73802083 0.5754902 0.39623162
0.84185049 0.5786152 0.4122549
0.92824755 0.57043505 0.40214461
0.98406863 0.57303922 0.39607843
0.013664216 0.68082108 0.44852941
0.10707721 0.68019301 0.44460784
0.19782475 0.67689951 0.42113971
0.37444853 0.66591605 0.40181526
0.52325368 0.65591299 0.37843137
0.67745098 0.66603094 0.33036918
0.81421569 0.67375919 0.3078125
0.91421569 0.69051011 0.35618873
0.98033088 0.70153186 0.40931373
0.012622549 0.76617647 0.41470588
0.0035998775 0.76456801 0.40275735
0.066268382 0.7622549 0.38088235
0.32473958 0.75062806 0.37634804
0.48216912 0.73946078 0.36188725
0.62081801 0.74895833 0.31911765
0.76583946 0.75980392 0.26645221
0.89010417 0.76867341 0.19367341
0.98860294 0.79362745 0.30171569
0.0066789216 0.86844363 0.4127451
0.011090686 0.86497396 0.4062883
0.12457108 0.86078431 0.39293811
0.35949755 0.8537454 0.40116422
0.49917279 0.84509804 0.38455882
0.61832108 0.84901961 0.35569087
0.74652267 0.86064645 0.31055453
0.87254902 0.87485447 0.19926471
0.99558824 0.88382353 0.024938725
0.34754902 0.97254902 0.51715686
0.38167892 0.97383578 0.52352941
0.44865196 0.97585784 0.52977941
0.51709559 0.9622549 0.52310049
0.6122549 0.96127451 0.52818627
0.7 0.95833333 0.51617647
0.79509804 0.96752451 0.49264706
0.89558824 0.97598039 0.44803922
0.97892157 0.97647059 0.37058824
0.0078431373 0.0078431373 0.53333333
0.049509804 0.0034313725 0.53455882
0.30882353 0 0.57058824
0.56666667 0 0.61666667
0.7254902 0.0019607843 0.62156863
0.73529412 0.0073529412 0.54338235
0.76813725 0.14558824 0.50980392
0.8745098 0.14803922 0.49779412
0.98627451 0.15294118 0.49607843
0.0039215686 0.069117647 0.51985294
0.062959559 0.044822304 0.53311887
0.29650735 0.003002451 0.56280637
0.56436887 0.0082414216 0.62058824
0.72732843 0.0087009804 0.62071078
0.73170956 0.054564951 0.54273897
0.77647059 0.22034314 0.51470588
0.88014706 0.20343137 0.49993873
0.98455882 0.20441176 0.49411765
0.00049019608 0.20539216 0.5122549
0.023039216 0.21556373 0.53284314
0.27977941 0.21507353 0.56421569
0.55177696 0.1713848 0.61488971
0.71397059 0.18872549 0.61985294
0.73094363 0.27107843 0.56176471
0.78541667 0.33468137 0.52303922
0.89142157 0.31593137 0.50545343
0.97156863 0.28186275 0.48529412
0 0.35661765 0.50367647
0.0050551471 0.36642157 0.51421569
0.25110294 0.39558824 0.54895833
0.48599877 0.41865809 0.58327206
0.68333333 0.44926471 0.62034314
0.73973652 0.45101103 0.56914828
0.81911765 0.43382353 0.52647059
0.91289828 0.40346201 0.49632353
0.99338235 0.38480392 0.46911765
0.0039215686 0.53039216 0.55
0.10759804 0.55159314 0.56544118
0.28872549 0.5747549 0.58039216
0.47561275 0.59338235 0.59411765
0.62843137 0.61176471 0.59705882
0.72610294 0.60122549 0.56593137
0.8245098 0.58235294 0.55490196
0.91519608 0.56421569 0.52879902
0.98333333 0.56078431 0.50588235
0.016911765 0.69215686 0.59215686
0.16182598 0.69525123 0.59132966
0.32567402 0.69705882 0.58713235
0.46911765 0.70609681 0.58795956
0.58333333 0.70073529 0.56519608
0.70462623 0.69509804 0.54307598
0.81807598 0.69724265 0.52640931
0.91372549 0.70582108 0.54886642
0.98553922 0.70392157 0.54803922
0.15147059 0.78333333 0.57745098
0.22359069 0.78529412 0.56991422
0.34019608 0.78835784 0.5745098
0.43707108 0.78431373 0.55827206
0.52598039 0.77254902 0.52598039
0.63970588 0.76464461 0.49681373
0.77696078 0.77794118 0.46470588
0.89203431 0.78915441 0.44803922
0.99264706 0.80637255 0.51421569
0.21176471 0.87598039 0.57083333
0.22772672 0.87598039 0.56449142
0.24522059 0.87426471 0.54068627
0.3640625 0.87003676 0.52068015
0.50281863 0.86323529 0.50686275
0.62270221 0.85465686 0.49019608
0.74160539 0.86476716 0.46053922
0.86988358 0.87668505 0.42867647
0.98063725 0.88406863 0.37401961
0.34509804 0.97058824 0.60980392
0.37352941 0.97279412 0.61176471
0.41715686 0.97647059 0.60441176
0.49509804 0.96936275 0.59681373
0.59803922 0.96960784 0.60098039
0.69117647 0.95784314 0.59509804
0.78970588 0.96568627 0.58431373
0.88823529 0.97279412 0.54852941
0.99019608 0.98235294 0.49803922
0.0039215686 0 0.64117647
0.15165441 0.0039215686 0.65245098
0.36421569 0.0039215686 0.68186275
0.55196078 0 0.71035539
0.77892157 0 0.75784314
0.86862745 0 0.74258578
0.85968137 0.015073529 0.65821078
0.88363971 0.23872549 0.63382353
0.92843137 0.34313725 0.64264706
0.013664216 0.034620098 0.64117647
0.16693474 0.017723652 0.65827206
0.35209865 0.01752451 0.67844669
0.55741422 0.0039215686 0.7127451
0.7604473 0.0049938725 0.74770221
0.86121324 0.006372549 0.73736979
0.86660539 0.10442708 0.67477022
0.88578431 0.27892157 0.64503676
0.94705882 0.38155637 0.64901961
0.022058824 0.1939951 0.63284314
0.12910539 0.20294118 0.64764093
0.33183211 0.18578431 0.67061887
0.54011949 0.14142157 0.70528493
0.73694853 0.098406863 0.74307598
0.8578125 0.16150429 0.7448989
0.8560049 0.30428922 0.68036152
0.87492341 0.39852941 0.65551471
0.95637255 0.43308824 0.65502451
0.0068627451 0.3283701 0.59761029
0.010516238 0.33805147 0.62285539
0.27058824 0.36663603 0.64166667
0.48186275 0.37981771 0.67926624
0.69316789 0.40680147 0.72867647
0.81888787 0.44181219 0.734375
0.83020833 0.47801777 0.68045343
0.88216912 0.48719363 0.6537454
0.92254902 0.48829657 0.6411152
0.013480392 0.48529412 0.6127451
0.055637255 0.48716299 0.61773897
0.24656863 0.50281863 0.62359069
0.43452819 0.53134191 0.65395221
0.62193627 0.57156863 0.69558824
0.77552083 0.60980392 0.72699142
0.81231618 0.61102941 0.68872549
0.89010417 0.57714461 0.64607843
0.9754902 0.55808824 0.62181373
0.18333333 0.64754902 0.66078431
0.24075521 0.65147059 0.66415441
0.36395527 0.65931373 0.66977635
0.475 0.68047641 0.684375
0.6129902 0.71151961 0.7046875
0.73474265 0.73471967 0.71534161
0.80801164 0.72375919 0.68492647
0.89803922 0.70227482 0.67041207
0.96231618 0.68731618 0.6504902
0.22316176 0.79289216 0.70379902
0.28039216 0.79563419 0.70098039
0.37009804 0.79344363 0.70683211
0.48186275 0.79365809 0.69532782
0.58204657 0.8004902 0.68927696
0.68835784 0.80435049 0.67810968
0.79166667 0.80343137 0.65
0.89554228 0.80735294 0.6495098
0.97156863 0.81911765 0.67254902
0.28676471 0.88529412 0.70802696
0.32732843 0.88952206 0.71387102
0.39558824 0.8847886 0.70231311
0.48089001 0.8877451 0.69674479
0.53636642 0.88063725 0.65891544
0.64601716 0.86960784 0.64521293
0.75343137 0.87250306 0.62682292
0.87189798 0.88398438 0.59285386
0.97696078 0.89295343 0.57990196
0.45245098 0.97401961 0.74705882
0.46078431 0.97285539 0.74362745
0.48541667 0.96421569 0.73443627
0.52904412 0.96102941 0.71942402
0.58382353 0.97034314 0.69411765
0.68529412 0.9692402 0.69068627
0.78394608 0.96421569 0.68921569
0.88039216 0.97303922 0.66292892
0.99313725 0.98382353 0.62254902
0.22254902 0 0.76470588
0.2932598 0.0029411765 0.77205882
0.42352941 0.0017156863 0.78651961
0.58578431 0 0.80539216
0.73970588 0 0.82794118
0.90147059 0 0.85539216
0.95686275 0.0080882353 0.82769608
0.96470588 0.10208333 0.78039216
0.98137255 0.35 0.76470588
0.23835784 0.032352941 0.76335784
0.30539216 0.0082720588 0.77480086
0.42156863 0.014552696 0.78406863
0.5769761 0.013112745 0.80301777
0.73529412 0.0060661765 0.82616422
0.88601409 0.009129902 0.84754902
0.95827206 0.010723039 0.83382353
0.97446385 0.17291667 0.79650735
0.98492647 0.39791667 0.76470588
0.2002451 0.19019608 0.75392157
0.26841299 0.1895527 0.75977328
0.40067402 0.16666667 0.77677696
0.55539216 0.12977941 0.79445466
0.72058824 0.078308824 0.82144608
0.88550858 0.071691176 0.85511642
0.96078431 0.20196078 0.8435049
0.95713848 0.34108456 0.79255515
0.97156863 0.45196078 0.77058824
0.052205882 0.32144608 0.73026961
0.17339154 0.33449755 0.73860294
0.33419118 0.33921569 0.75177696
0.51666667 0.3495098 0.7754902
0.68339461 0.36041667 0.8060049
0.84336703 0.39411765 0.83872549
0.92892157 0.43529412 0.83416054
0.9292739 0.4904565 0.78088235
0.95355392 0.53382353 0.77291667
0.015686275 0.45784314 0.71764706
0.029901961 0.4526348 0.71029412
0.20588235 0.45759804 0.71470588
0.41856618 0.48186275 0.73823529
0.61764706 0.52107843 0.78210784
0.78529412 0.56495098 0.81942402
0.89252451 0.59926471 0.82794118
0.9098652 0.6158701 0.79166667
0.93872549 0.63431373 0.77598039
0.006127451 0.58566176 0.71164216
0.085003064 0.58837316 0.71666667
0.24280025 0.59362745 0.71715686
0.38927696 0.61023284 0.72408088
0.54387255 0.63823529 0.74822304
0.71729473 0.68644301 0.7877451
0.85232843 0.73235294 0.82398897
0.88982843 0.72071078 0.78497243
0.94166667 0.71531863 0.77144608
0.25318627 0.74411765 0.75882353
0.29690564 0.74181985 0.75652574
0.37843137 0.74803922 0.75980392
0.46688113 0.76764706 0.77521446
0.59166667 0.77610294 0.77708333
0.69828431 0.79923407 0.79166667
0.82101716 0.83584559 0.81887255
0.89145221 0.82699142 0.79926471
0.95490196 0.81078431 0.78333333
0.33762255 0.90159314 0.8317402
0.36655944 0.8964614 0.82401961
0.43128064 0.88832721 0.81577819
0.50620404 0.89168199 0.81279105
0.60294118 0.89142157 0.80539216
0.68480392 0.88818934 0.78929228
0.77647059 0.89522059 0.78431373
0.87685355 0.90006127 0.76617647
0.95306373 0.89914216 0.74129902
0.4745098 0.98333333 0.85392157
0.48578431 0.98039216 0.85343137
0.4870098 0.94730392 0.83259804
0.55735294 0.96323529 0.83272059
0.63382353 0.96911765 0.82745098
0.70098039 0.95808824 0.80637255
0.77941176 0.97254902 0.79215686
0.87512255 0.9807598 0.78039216
0.98529412 0.9872549 0.75392157
0.41862745 0 0.87990196
0.4533701 0.01127451 0.88039216
0.54411765 0.0082107843 0.89166667
0.64313725 0.012071078 0.8995098
0.76740196 0.006127451 0.9129902
0.88302696 0.0012867647 0.92303922
0.96311275 0.0074754902 0.91813725
0.99264706 0.0034926471 0.91911765
1 0.27696078 0.88137255
0.41127451 0.0065563725 0.87996324
0.45337776 0.025972733 0.8838848
0.52892157 0.016375613 0.88844975
0.64248621 0.0096583946 0.89822304
0.7580576 0.0078737745 0.90759804
0.87677696 0.0055376838 0.92254902
0.97320772 0.011764706 0.92996324
0.99994638 0.033517157 0.92690717
1 0.31856618 0.88431373
0.38529412 0.20735294 0.87218137
0.42732843 0.20735294 0.87610294
0.50879289 0.18802083 0.88394608
0.61714154 0.15546875 0.89227941
0.73872549 0.099693627 0.90386029
0.873606 0.091544118 0.92313113
0.98664216 0.098069853 0.94206495
1 0.26755515 0.93002451
1 0.40147059 0.89215686
0.2995098 0.35245098 0.8504902
0.34671415 0.34540441 0.85814951
0.44410233 0.34448529 0.86515012
0.57058824 0.34577206 0.87529105
0.70661765 0.34822304 0.89436275
0.83890931 0.36636029 0.91236979
0.9658701 0.39558824 0.93529412
0.99019608 0.45964308 0.91521906
0.99656863 0.53707108 0.87892157
0.024509804 0.44338235 0.83308824
0.11822917 0.44996936 0.83186275
0.2872549 0.45275735 0.84197304
0.47264093 0.47034314 0.85343137
0.64080882 0.49473039 0.87610294
0.79132966 0.52907475 0.89803922
0.92150735 0.56372549 0.92107843
0.97913603 0.60392157 0.91121324
0.98112745 0.6372549 0.88382353
0.019607843 0.58627451 0.8213848
0.019355086 0.57908241 0.81329657
0.09888174 0.57112439 0.8060049
0.32107843 0.57470895 0.80863971
0.52058824 0.59476103 0.8372549
0.71371783 0.64393382 0.87205882
0.86764706 0.69523591 0.90637255
0.94199602 0.72702206 0.90343137
0.95214461 0.74166667 0.88431373
0.053921569 0.7067402 0.82598039
0.14871324 0.71547181 0.83350184
0.27999387 0.71764706 0.82904412
0.39064032 0.72205882 0.83022365
0.509375 0.72598039 0.83382353
0.6162837 0.72783395 0.83457414
0.79500613 0.7926777 0.87588848
0.91029412 0.83705576 0.8995098
0.95784314 0.83002451 0.88394608
0.35447304 0.85251225 0.86519608
0.35484835 0.86378676 0.87990196
0.4221201 0.86078431 0.8730239
0.5040671 0.86029412 0.86813725
0.58973652 0.87248775 0.87990196
0.7004902 0.88560049 0.88474265
0.78769914 0.89526654 0.88835784
0.89852941 0.92254902 0.90556832
0.96470588 0.90784314 0.88431373
0.50245098 0.98382353 0.93382353
0.50196078 0.9721201 0.93039216
0.54007353 0.98370098 0.93468137
0.59834559 0.98480392 0.93511029
0.66102941 0.98063725 0.92892157
0.72910539 0.97696078 0.92303922
0.80257353 0.96654412 0.90772059
0.87996324 0.98039216 0.89215686
0.96617647 0.97696078 0.88039216
0.60392157 0.14901961 0.98431373
0.61960784 0.13823529 0.98431373
0.66568627 0.10882353 0.98921569
0.72794118 0.05 0.98578431
0.80392157 0.0039215686 0.98431373
0.90490196 0 0.98137255
0.96176471 0.011764706 0.96078431
0.98823529 0.015686275 0.96911765
0.99607843 0.18823529 0.99607843
0.60343137 0.22058824 0.9877451
0.59607843 0.18033088 0.96911765
0.65379902 0.17904412 0.98002451
0.72518382 0.14926471 0.98823529
0.80563725 0.072058824 0.98970588
0.90637255 0.0012867647 0.99430147
0.98529412 0.0040441176 0.98676471
0.99607843 0.015686275 0.98039216
1 0.25098039 0.99656863
0.58039216 0.32156863 0.9754902
0.60980392 0.33210784 0.98186275
0.63823529 0.30980392 0.97794118
0.70637255 0.28688725 0.97990196
0.79803922 0.26862745 0.99019608
0.89068627 0.23345588 0.99215686
0.98235294 0.19828431 0.99607843
1 0.16409314 0.99901961
0.99607843 0.36568627 0.99215686
0.54705882 0.44264706 0.97401961
0.56004902 0.43976716 0.97095588
0.5995098 0.43296569 0.96617647
0.68425245 0.43180147 0.97738971
0.76323529 0.4120098 0.9754902
0.86617647 0.41170343 0.98823529
0.9495098 0.38823529 0.97745098
1 0.43921569 0.97352941
1 0.50245098 0.98823529
0.44117647 0.53529412 0.96078431
0.48431373 0.55220588 0.96421569
0.5122549 0.54019608 0.95784314
0.6129902 0.54436275 0.96519608
0.71764706 0.54509804 0.97254902
0.82279412 0.54901961 0.97843137
0.92647059 0.55686275 0.98578431
0.98872549 0.59093137 0.9745098
0.99607843 0.62352941 0.96862745
0.32401961 0.65294118 0.94754902
0.3651348 0.65214461 0.95379902
0.4004902 0.64215686 0.94607843
0.50582108 0.64117647 0.95294118
0.63308824 0.65269608 0.96176471
0.76372549 0.66378676 0.9682598
0.87156863 0.67598039 0.95637255
0.97696078 0.7122549 0.98578431
0.98823529 0.74313725 0.97352941
0.35980392 0.77352941 0.95
0.37279412 0.77291667 0.95036765
0.40980392 0.76862745 0.94681373
0.45784314 0.76348039 0.93786765
0.54166667 0.75637255 0.94607843
0.67953431 0.76372549 0.95759804
0.8127451 0.78602941 0.95637255
0.94178922 0.82401961 0.97156863
0.97647059 0.84607843 0.95
0.46764706 0.88333333 0.96470588
0.46721814 0.87990196 0.96035539
0.49852941 0.87990196 0.96090686
0.5372549 0.87616422 0.95490196
0.59534314 0.87647059 0.95343137
0.67205882 0.88008578 0.96096814
0.74607843 0.87352941 0.93235294
0.88082108 0.90735294 0.95637255
0.99215686 0.92647059 0.98431373
0.57647059 0.96862745 0.98039216
0.57254902 0.96470588 0.97647059
0.59411765 0.96470588 0.97647059
0.63480392 0.96715686 0.97892157
0.68235294 0.96862745 0.97647059
0.73333333 0.96421569 0.97352941
0.80098039 0.95980392 0.97156863
0.89166667 0.97205882 0.97205882
0.98823529 0.96470588 0.98431373
