site/assets/luts/natron-haldclut--fuji-superia-200-xpro--920036f3e.cube
# LUTr-Project: LUTr — LUTrepository
# LUTr-Schema-Version: 1
# LUTr-ID: natron-haldclut--fuji-superia-200-xpro--920036f3e
# LUTr-Title: fuji superia 200 xpro
# LUTr-Collection: Natron HaldCLUT
# LUTr-Collection-ID: natron-haldclut-presets
# LUTr-Source: https://github.com/NatronGitHub/clut
# LUTr-Source-File: submissions/natron-haldclut-presets/colorslide/fuji_superia_200_xpro.png
# LUTr-Source-Format: PNG
# LUTr-Source-SHA256: ac9d8a82e0d625c0b3795c45f9dbacb6f14e32999a6b7e227585c9581a19f8f9
# LUTr-License: CC-BY-SA-4.0
# LUTr-License-URL: https://github.com/NatronGitHub/clut#license
# LUTr-Tags: creative, film, film-emulation, hald-clut, natron, png, cube
# LUTr-Transform-Class: film-emulation
# LUTr-Input-Color-Space: srgb
# LUTr-Output-Color-Space: srgb
# LUTr-Color-Space-Confidence: assumed-display-referred
# LUTr-Conversion-Method: PNG LUT image decoded at 16-bit and sampled to 25x25x25 3D CUBE
# LUTr-Conversion-Date: 2026-07-27
# LUTr-Conversion-Tool: LUTr scripts/convert-all-to-cube.mjs
# LUTr-Conversion-Grid: 25x25x25
# LUTr-Note: Preserve this metadata and the upstream license notices when redistributing.
TITLE "fuji superia 200 xpro"
LUT_3D_SIZE 9
DOMAIN_MIN 0 0 0
DOMAIN_MAX 1 1 1
0 0 0.019607843
0.00049019608 0.016176471 0.083333333
0 0.0039215686 0.07745098
0.0024509804 0.024509804 0.15098039
0.011764706 0.021568627 0.16862745
0.085294118 0.075980392 0.23676471
0.13137255 0.02254902 0.22058824
0.24068627 0.051960784 0.25637255
0.36470588 0.062745098 0.24313725
0.0039215686 0.13529412 0.22058824
0.003002451 0.14613971 0.2627451
0.0068627451 0.1622549 0.28468137
0.02567402 0.17089461 0.30900735
0.056862745 0.17083333 0.30392157
0.097058824 0.1536152 0.30655637
0.17879902 0.1317402 0.29693627
0.26813725 0.12843137 0.31666667
0.37205882 0.14754902 0.3245098
0.0039215686 0.28235294 0.39607843
0.0078431373 0.28492647 0.38529412
0.011764706 0.29019608 0.40490196
0.039583333 0.29019608 0.40588235
0.069607843 0.28186275 0.39411765
0.11531863 0.26335784 0.38296569
0.2254902 0.23529412 0.36568627
0.31017157 0.22414216 0.38284314
0.41862745 0.22843137 0.37843137
0 0.42794118 0.47401961
0.0078431373 0.43792892 0.47794118
0.015686275 0.43468137 0.47401961
0.022610294 0.43186275 0.48094363
0.017647059 0.42205882 0.49436275
0.14166667 0.3872549 0.46954657
0.26801471 0.35784314 0.44705882
0.37677696 0.33265931 0.43235294
0.47303922 0.31323529 0.42058824
0.0039215686 0.6254902 0.57843137
0.0039215686 0.62745098 0.58039216
0.011764706 0.61813725 0.575
0.0078431373 0.60588235 0.57058824
0.055882353 0.5872549 0.56764706
0.2 0.54754902 0.55416667
0.32941176 0.49460784 0.51862745
0.425 0.44656863 0.49803922
0.5254902 0.41568627 0.48039216
0.0093137255 0.8245098 0.675
0 0.84540441 0.68823529
0.0045343137 0.83480392 0.67928922
0.014767157 0.82444853 0.67254902
0.12254902 0.78946078 0.65612745
0.27604167 0.74705882 0.63731618
0.40294118 0.66960784 0.60012255
0.50802696 0.61176471 0.57469363
0.60441176 0.56029412 0.54411765
0.092156863 0.99705882 0.76764706
0.10980392 0.99313725 0.78296569
0.16176471 0.99607843 0.78333333
0.19791667 0.98921569 0.78431373
0.27009804 0.98921569 0.76764706
0.35502451 0.97181373 0.74571078
0.4995098 0.88529412 0.70784314
0.60098039 0.80931373 0.65821078
0.71078431 0.7245098 0.61568627
0.60588235 1 0.87647059
0.61758578 1 0.88817402
0.6372549 1 0.88909314
0.62371324 1 0.89344363
0.65637255 1 0.90588235
0.68872549 0.99479167 0.88676471
0.70784314 0.98872549 0.83713235
0.73474265 0.99307598 0.77058824
0.82647059 0.92843137 0.69901961
0.96078431 1 0.98823529
0.93676471 1 0.98039216
0.97254902 1 0.98823529
0.96960784 1 0.99215686
0.9745098 1 0.99607843
0.95833333 1 0.98431373
0.97745098 1 0.98921569
0.98676471 1 0.95784314
1 1 0.81960784
0 0.023039216 0.27647059
0 0.02310049 0.28823529
0 0.043995098 0.29056373
0.0026348039 0.034803922 0.32040441
0.0058823529 0.030637255 0.32009804
0.029411765 0.037254902 0.31648284
0.093872549 0.020955882 0.3060049
0.21715686 0.061764706 0.32352941
0.27941176 0.066666667 0.31715686
0 0.16127451 0.37346814
0 0.16145067 0.37745098
0 0.17009804 0.38180147
0.0081495098 0.16231618 0.38970588
0.029411765 0.15903799 0.3783701
0.076508885 0.14689798 0.37058824
0.15134804 0.13442096 0.36666667
0.25980392 0.13621324 0.3588848
0.38584559 0.1627451 0.35931373
0.0039215686 0.29105392 0.44754902
0.0042892157 0.29362745 0.44803922
0.0068933824 0.29761029 0.45196078
0.014705882 0.29522059 0.45232843
0.058394608 0.27824755 0.44607843
0.12071078 0.25772059 0.43265931
0.20931373 0.23912377 0.41770833
0.30632659 0.2245098 0.40458027
0.40441176 0.22928922 0.40110294
0.0039215686 0.44344363 0.52794118
0.0078431373 0.43841912 0.52214308
0.011764706 0.43578431 0.52009804
0.011764706 0.43186275 0.51795343
0.0088235294 0.42156863 0.51191789
0.13823529 0.3872549 0.49694393
0.25602022 0.35 0.47049632
0.36023284 0.32918964 0.45882353
0.45245098 0.3153799 0.44754902
0.0039215686 0.6254902 0.61715686
0.0039215686 0.62941176 0.61666667
0.010906863 0.62052696 0.60882353
0.01127451 0.60392157 0.60490196
0.05870098 0.59019608 0.59436275
0.19420956 0.54803922 0.57166054
0.31960784 0.49411765 0.5377451
0.42598039 0.45269608 0.50903799
0.52818627 0.42328431 0.49362745
0.0037377451 0.83823529 0.71323529
0.0052083333 0.83676471 0.71329657
0.012086397 0.82958027 0.70620404
0.018558517 0.81868873 0.70031403
0.094117647 0.79255515 0.68406863
0.26109835 0.73559283 0.65735294
0.39313725 0.66723346 0.61862745
0.504519 0.61599265 0.5877451
0.58903186 0.56617647 0.56323529
0.091053922 0.99963235 0.80245098
0.086734069 0.99963235 0.80631127
0.1174326 0.99693627 0.8138174
0.15543811 0.99327512 0.80306373
0.20747549 0.98449755 0.78627451
0.33956801 0.9614277 0.76306679
0.47573529 0.89096201 0.71985294
0.60067402 0.80811887 0.67781863
0.69313725 0.72843137 0.64166667
0.59810049 1 0.90294118
0.59564185 1 0.90686275
0.60943627 1 0.90686275
0.61415441 1 0.92303922
0.63480392 1 0.9129902
0.65833333 0.99452359 0.90034467
0.70136336 0.9847886 0.85147059
0.72738205 0.98426777 0.79001991
0.81378676 0.90435049 0.74215686
0.95196078 1 0.99166667
0.96323529 1 0.99209559
0.94987745 1 0.98909314
0.97886029 1 0.9973652
0.98578431 1 0.99779412
0.96372549 1 0.99215686
0.99583333 1 0.99718137
0.95735294 0.99607843 0.95091912
0.99264706 1 0.83431373
0 0.042156863 0.38921569
0 0.035416667 0.38529412
0 0.057107843 0.40098039
0 0.043137255 0.39705882
0.0039215686 0.05 0.39411765
0.0013480392 0.018014706 0.37340686
0.084313725 0.034313725 0.37058824
0.20502451 0.070098039 0.3745098
0.3245098 0.097058824 0.3745098
0 0.17830882 0.45882353
0 0.17798713 0.45845588
0 0.17144608 0.45588235
0 0.1654565 0.45588235
0.019791667 0.16292892 0.44632353
0.057843137 0.14375 0.42850797
0.13599877 0.13961397 0.42071078
0.24928002 0.1506587 0.41286765
0.35330882 0.16752451 0.40931373
0 0.30196078 0.51764706
0.0039215686 0.30490196 0.51764706
0.0068627451 0.30177696 0.51372549
0.0096813725 0.29411765 0.51397059
0.03002451 0.27561275 0.5
0.10134804 0.25689338 0.48296569
0.19019608 0.23682598 0.46740196
0.29375 0.22916667 0.45462623
0.39044118 0.2370098 0.44803922
0.00098039216 0.43970588 0.58002451
0.0039215686 0.43970588 0.57941176
0.0057291667 0.44264706 0.57941176
0.0078431373 0.4394761 0.57794118
0.011764706 0.41439951 0.56176471
0.11565564 0.38780637 0.54080882
0.24185049 0.35 0.51822917
0.34420956 0.32714461 0.50053615
0.43982843 0.31323529 0.48737745
0.006372549 0.61666667 0.66715686
0.00073529412 0.62401961 0.66286765
0.0039215686 0.62169118 0.65894608
0.0039215686 0.60894608 0.65171569
0.040686275 0.5872549 0.63578431
0.18051471 0.53872549 0.60735294
0.30122549 0.4872549 0.57794118
0.40802696 0.4504902 0.55496324
0.50784314 0.42892157 0.53970588
0.034681373 0.80980392 0.76715686
0.0077052696 0.82245711 0.7567402
0.0024509804 0.82083333 0.74626225
0.011764706 0.80643382 0.74007353
0.055637255 0.77598039 0.72022059
0.23872549 0.7127451 0.68722426
0.37000613 0.65799632 0.65652574
0.48835784 0.60303309 0.6227788
0.58223039 0.57708333 0.60526961
0.033088235 0.99779412 0.86053922
0.059650735 0.99102328 0.85695466
0.057904412 0.99632353 0.85392157
0.092432598 0.99442402 0.84335172
0.14007353 0.96372549 0.82757353
0.31973039 0.92405025 0.79362745
0.4627451 0.85238971 0.75073529
0.58109681 0.79488358 0.71078431
0.67328431 0.73333333 0.67058824
0.55772059 1 0.96862745
0.54460784 1 0.94901961
0.56421569 1 0.9520527
0.57201287 1 0.94754902
0.60030637 0.99957108 0.94319853
0.62971814 0.98564645 0.93823529
0.66568627 0.99224877 0.87466299
0.70827206 0.984375 0.8055913
0.79007353 0.92487745 0.7622549
0.94803922 1 1
0.95183824 1 0.99901961
0.92818627 1 0.99607843
0.95857843 1 0.99607843
0.94117647 1 0.99362745
0.97205882 1 0.99705882
0.96078431 1 0.99117647
0.97671569 1 0.98014706
0.99117647 0.99901961 0.87058824
0 0.06127451 0.46764706
0 0.051654412 0.4658701
0 0.079411765 0.47794118
0 0.039215686 0.45680147
0.0039215686 0.042647059 0.44681373
0.010294118 0.032352941 0.43033088
0.095588235 0.060784314 0.42879902
0.20147059 0.076960784 0.42401961
0.27205882 0.1004902 0.4245098
0 0.18627451 0.5254902
0 0.18970588 0.52941176
0 0.18488051 0.52452512
0.0039215686 0.16716452 0.51127451
0.023713235 0.15490196 0.49813113
0.056311275 0.14178156 0.48088235
0.13284314 0.14617034 0.47058824
0.24064798 0.15786612 0.46247702
0.3341299 0.17794118 0.46323529
0 0.30943627 0.57941176
0 0.30980392 0.58333333
0.0039215686 0.30588235 0.57941176
0.0076133578 0.29204963 0.56764706
0.030392157 0.26911765 0.55
0.089828431 0.25159314 0.53365502
0.17405025 0.24019608 0.51847426
0.28244485 0.24027267 0.50580576
0.37843137 0.24865196 0.49803922
0 0.44754902 0.64117647
0 0.44362745 0.64117647
0.00041360294 0.44901961 0.64223346
0.010294118 0.42975643 0.62996324
0.015686275 0.39852941 0.61053922
0.086358762 0.37303922 0.5911152
0.22238051 0.3488511 0.56997549
0.32274816 0.32634038 0.55127145
0.43235294 0.32591912 0.53431373
0 0.60392157 0.71348039
0 0.60784314 0.71421569
0 0.61446078 0.71348039
0.0059129902 0.5872549 0.69852941
0.024632353 0.55759804 0.6807598
0.15952819 0.5176777 0.65441176
0.28455882 0.47659314 0.62745098
0.39592525 0.45376838 0.60539216
0.49607843 0.43455882 0.58406863
0.0053921569 0.80098039 0.81078431
0.0039215686 0.809375 0.80797335
0.0053921569 0.80637255 0.80160846
0.0078431373 0.7848652 0.78572304
0.03091299 0.74209559 0.76102941
0.22745098 0.68555453 0.72696078
0.36127451 0.64290748 0.69944853
0.48076746 0.59821538 0.66636029
0.58296569 0.5627451 0.6401348
0.022426471 0.97781863 0.9122549
0.052190564 0.96876532 0.91188725
0.015257353 0.98183211 0.90652574
0.047365196 0.98331801 0.88918505
0.092769608 0.96507353 0.86323529
0.30969669 0.9060049 0.82745098
0.45784314 0.83428309 0.78498775
0.57754289 0.77169118 0.74269301
0.67892157 0.71176471 0.70134804
0.50618873 1 0.98823529
0.5213848 1 0.99460784
0.52205882 1 0.98921569
0.54215686 1 0.97922028
0.56838235 0.99926471 0.96446078
0.60735294 0.98853401 0.92145374
0.63235294 0.99129902 0.88886336
0.70042892 0.96102941 0.84264706
0.7963848 0.88872549 0.78449755
0.92401961 1 1
0.91384804 1 1
0.92169118 1 1
0.92303922 1 0.99607843
0.94558824 1 0.99607843
0.95980392 1 0.99607843
0.96997549 1 0.99460784
0.95441176 0.99607843 0.97352941
0.94509804 0.99607843 0.87401961
0 0.066666667 0.52941176
0 0.059313725 0.52573529
0 0.074019608 0.53333333
0 0.064215686 0.5254902
0.0068627451 0.055882353 0.51078431
0.024264706 0.062009804 0.49926471
0.082352941 0.074509804 0.49019608
0.1997549 0.10637255 0.48627451
0.31372549 0.14509804 0.49019608
0 0.18627451 0.58333333
0 0.18651961 0.58529412
0 0.18431373 0.58333333
0.0051470588 0.17916667 0.57254902
0.019362745 0.16862745 0.56176471
0.061029412 0.16127451 0.54283088
0.13529412 0.16960784 0.5341299
0.23976716 0.17941176 0.52104779
0.33676471 0.19705882 0.51715686
0 0.31372549 0.6372549
0 0.31372549 0.64117647
0 0.30796569 0.64117647
0.0074754902 0.29166667 0.61973039
0.033823529 0.27279412 0.60637255
0.093137255 0.25876225 0.58909314
0.17095588 0.25036765 0.57377451
0.27156863 0.24901961 0.55949755
0.38039216 0.26029412 0.54803922
0 0.44436275 0.69509804
0 0.44509804 0.69901961
0 0.43400735 0.69362745
0.0078431373 0.41204044 0.67772672
0.015686275 0.38823529 0.65821078
0.08995098 0.36620711 0.64019608
0.21636029 0.35300245 0.62261029
0.32043505 0.33691789 0.60226716
0.40784314 0.34068627 0.59068627
0 0.60686275 0.76764706
0 0.6 0.76764706
0.0022058824 0.59019608 0.75759804
0.0078431373 0.56617647 0.74031863
0.033333333 0.53627451 0.72156863
0.15955882 0.50171569 0.69852941
0.27990196 0.47058824 0.67671569
0.38995098 0.45098039 0.65245098
0.49313725 0.44411765 0.63235294
0 0.78406863 0.8495098
0.0053921569 0.78226103 0.8495098
0.0017769608 0.7754902 0.83872549
0.0078431373 0.75098039 0.81960784
0.069117647 0.71151961 0.79583333
0.24800858 0.66470588 0.76691176
0.35931373 0.62598039 0.74025735
0.47303922 0.59117647 0.71102941
0.57009804 0.56421569 0.68529412
0.00049019608 0.98039216 0.94852941
0.020833333 0.96421569 0.94252451
0.00098039216 0.97401961 0.93431373
0.049877451 0.95514706 0.91617647
0.16078431 0.9254902 0.88921569
0.34307598 0.86243873 0.85140931
0.45539216 0.8185049 0.81862745
0.56568627 0.75778186 0.77843137
0.67058824 0.70343137 0.74166667
0.49264706 1 1
0.47570466 1 0.99632353
0.49889706 1 1
0.51060049 1 0.99166667
0.52120098 0.99607843 0.9567402
0.56191789 0.99215686 0.93284314
0.60091912 0.9838848 0.91011029
0.6705576 0.96007966 0.86740196
0.77647059 0.87352941 0.81323529
0.88235294 1 1
0.89313725 1 1
0.90931373 1 1
0.90294118 1 0.99754902
0.91862745 1 0.99607843
0.91936275 1 0.99215686
0.93333333 1 0.99313725
0.94240196 0.99607843 0.97745098
0.97254902 0.99607843 0.92352941
0 0.073529412 0.59509804
0 0.09932598 0.596875
0 0.10980392 0.59901961
0 0.087683824 0.58480392
0.0098039216 0.074019608 0.57083333
0.036764706 0.099509804 0.56372549
0.086764706 0.097671569 0.55098039
0.19509804 0.11930147 0.54019608
0.32303922 0.17401961 0.54803922
0 0.19411765 0.64540441
0 0.20327053 0.64509804
0 0.20606618 0.6415288
0.0078431373 0.20080423 0.63344822
0.027849265 0.1893076 0.61920956
0.073039216 0.18431373 0.60372243
0.14491422 0.19336703 0.5932598
0.23782935 0.19983915 0.57843137
0.34607843 0.22401961 0.57107843
0 0.31372549 0.69509804
0 0.31796875 0.6939951
0 0.31568627 0.69096201
0.011963848 0.29957108 0.6751685
0.048835784 0.28553922 0.65955882
0.10208333 0.27457108 0.64693627
0.17267157 0.2713848 0.63235294
0.2754902 0.27009804 0.61533395
0.38443627 0.28578431 0.60588235
0 0.44362745 0.74901961
0.003002451 0.43498009 0.74228707
0.0039215686 0.42507659 0.73578431
0.0060278799 0.41127451 0.72457108
0.028615196 0.38851103 0.70588235
0.11848192 0.37263327 0.69042586
0.225 0.35968137 0.6745864
0.328125 0.35392157 0.6555913
0.43082108 0.36329657 0.64405637
0.0014705882 0.5875 0.80931373
0.0039215686 0.57873775 0.80431985
0.0039215686 0.56053922 0.79178922
0.0078431373 0.5426777 0.77849265
0.06495098 0.52120098 0.76066176
0.18578431 0.49292279 0.74172794
0.29405637 0.47261029 0.72383578
0.39411765 0.45474877 0.69984681
0.49607843 0.45759804 0.68455882
0.0044730392 0.74215686 0.87647059
0.0026501225 0.74491422 0.87617953
0.0063112745 0.73307292 0.86646752
0.032230392 0.71023284 0.84867494
0.15 0.68409926 0.82913603
0.27303922 0.65144761 0.80686275
0.37352941 0.61776961 0.78382353
0.46917892 0.58382353 0.75441176
0.56023284 0.56721814 0.73290441
0.019117647 0.94313725 0.96911765
0.026547181 0.9377451 0.96125919
0.034773284 0.93498775 0.95232843
0.095848652 0.91568627 0.93492647
0.25900735 0.87469363 0.91115196
0.367019 0.8365962 0.88376225
0.46544118 0.78802083 0.85324755
0.56657475 0.74840686 0.82094056
0.65784314 0.70686275 0.78921569
0.45067402 0.99656863 1
0.45251225 0.99591759 0.99656863
0.47193627 1 1
0.48253676 0.99246324 0.99227175
0.50965074 0.99231005 0.9736826
0.5482307 0.98480392 0.95753676
0.57988664 0.97991728 0.93872549
0.67418045 0.9158318 0.90032935
0.76697304 0.85980392 0.8536152
0.88529412 1 1
0.8653799 1 1
0.86985294 1 1
0.88088235 1 1
0.89852941 1 0.99877451
0.90404412 1 1
0.89448529 0.99607843 0.99215686
0.90931373 0.99607843 0.99215686
0.92009804 0.98823529 0.98431373
0 0.11176471 0.65294118
0 0.11078431 0.64901961
0.00098039216 0.10171569 0.63897059
0.0039215686 0.12585784 0.64411765
0.010784314 0.11666667 0.62941176
0.047058824 0.12071078 0.61764706
0.12058824 0.13897059 0.60980392
0.21507353 0.16372549 0.60588235
0.33823529 0.2245098 0.61470588
0.0039215686 0.21470588 0.69546569
0.0039215686 0.21852022 0.6942402
0.0077512255 0.22561275 0.69154412
0.016620711 0.22049632 0.68293505
0.048529412 0.2151348 0.67132353
0.091528799 0.20772059 0.65851716
0.16286765 0.21847426 0.65045956
0.25707721 0.22755821 0.63670343
0.35992647 0.25502451 0.63284314
0.0039215686 0.32328431 0.74117647
0.0078431373 0.32254902 0.73734681
0.0088235294 0.31488971 0.73069853
0.027696078 0.31106005 0.72239583
0.06372549 0.30392157 0.71176471
0.12132353 0.29188113 0.69822304
0.19509804 0.28848039 0.68333333
0.29215686 0.30033701 0.67156863
0.39828431 0.31568627 0.66372549
0.0039215686 0.42941176 0.78627451
0.0099877451 0.42599571 0.78272059
0.016145833 0.41636029 0.7770527
0.013066789 0.40879289 0.7676777
0.046078431 0.39540441 0.75612745
0.15183824 0.38051471 0.74065564
0.24803922 0.37303922 0.72334559
0.34509804 0.37841605 0.70632659
0.44117647 0.39264706 0.69852941
0.0088235294 0.55784314 0.83970588
0.015318627 0.55459559 0.83584559
0.024509804 0.54276961 0.82855392
0.022365196 0.52941176 0.81789216
0.125 0.51372549 0.80416667
0.2254902 0.49656863 0.78811275
0.31960784 0.48161765 0.76997549
0.41176471 0.47714461 0.75085784
0.47892157 0.47990196 0.74264706
0.017769608 0.71727941 0.90306373
0.014659926 0.70459559 0.89750306
0.046966912 0.69803922 0.89338235
0.12987132 0.68812806 0.88235294
0.22310049 0.66470588 0.86348039
0.31236213 0.63627451 0.8448989
0.4004902 0.6145527 0.82647059
0.49105392 0.59820772 0.80307904
0.57757353 0.58125 0.78321078
0.059558824 0.90294118 0.9752451
0.095588235 0.89525123 0.97172181
0.15980392 0.88823529 0.96501225
0.24693627 0.87303922 0.9536152
0.33431373 0.83823529 0.93480392
0.41286765 0.80453431 0.91335784
0.48848039 0.77015931 0.88939951
0.57696078 0.7325674 0.86127451
0.66176471 0.70686275 0.83529412
0.45196078 0.99914216 1
0.41458333 0.99252451 1
0.43633578 0.99215686 0.99620098
0.47518382 0.98867953 0.99607843
0.49485294 0.98995098 0.99681373
0.5252451 0.99004289 0.99257047
0.59362745 0.95609681 0.96556373
0.6748315 0.91127451 0.93480392
0.75735294 0.85392157 0.89754902
0.85686275 1 1
0.82892157 1 1
0.84362745 1 1
0.85159314 1 1
0.85392157 1 1
0.85637255 1 1
0.87990196 1 0.99681373
0.88664216 0.99644608 0.99607843
0.90686275 0.99607843 0.98823529
0.00049019608 0.14607843 0.70686275
0.0039215686 0.16470588 0.70686275
0.010906863 0.16139706 0.70294118
0.026470588 0.18265931 0.70655637
0.053676471 0.17573529 0.69338235
0.083823529 0.15735294 0.67567402
0.16237745 0.19264706 0.6745098
0.24209559 0.21023284 0.66372549
0.36078431 0.2745098 0.68284314
0.012254902 0.24215686 0.74509804
0.012140012 0.24957108 0.74166667
0.026470588 0.25392157 0.74166667
0.044117647 0.24411765 0.73351716
0.067156863 0.24221814 0.72356005
0.12104013 0.24253983 0.71399357
0.18639706 0.2480239 0.70637255
0.2872549 0.27107077 0.69841452
0.38480392 0.29454657 0.69460784
0.011764706 0.33345588 0.78039216
0.015487132 0.33345588 0.78026961
0.027205882 0.33042279 0.77637868
0.046078431 0.32280944 0.77247243
0.074080882 0.31875 0.76053922
0.15165441 0.31617647 0.74468444
0.23327206 0.32346814 0.7372549
0.33333333 0.33895527 0.72941176
0.41519608 0.35196078 0.72120098
0.0039215686 0.43480392 0.82647059
0.0074984681 0.42722886 0.82312347
0.012040441 0.42311581 0.81870404
0.057414216 0.41942402 0.8108992
0.12907475 0.40784314 0.8004902
0.21452206 0.40784314 0.78901654
0.28713235 0.40392157 0.77539828
0.37959559 0.41194853 0.76356464
0.46813725 0.42745098 0.75459559
0.022794118 0.54509804 0.87107843
0.036029412 0.54509804 0.86936275
0.074754902 0.53988971 0.86323529
0.11951593 0.53357843 0.85824142
0.22107843 0.51813725 0.84485294
0.28985907 0.5122549 0.83137255
0.35827206 0.50784314 0.82034314
0.44142157 0.50245098 0.80269608
0.52990196 0.50833333 0.79117647
0.11960784 0.67904412 0.92107843
0.15278033 0.68400735 0.92481618
0.19558824 0.68048407 0.92107843
0.24834559 0.66580116 0.91323529
0.31348039 0.64779412 0.89574142
0.38088235 0.63186275 0.88050705
0.44117647 0.6254902 0.86822917
0.51862745 0.61415441 0.85059743
0.596875 0.60067402 0.83351716
0.26654412 0.84803922 0.97487745
0.28475797 0.8472886 0.97369792
0.31939338 0.83740809 0.97352941
0.36372549 0.82100184 0.97018995
0.41207108 0.80508578 0.95661765
0.46960784 0.778125 0.93823529
0.53128064 0.7489277 0.91838235
0.59705882 0.72915135 0.90004596
0.67794118 0.71372549 0.87732843
0.45042892 0.98823529 1
0.46083793 0.98872549 1
0.48429841 0.98448223 1
0.48686428 0.98501072 1
0.5252451 0.96617647 0.99286152
0.57886029 0.93823529 0.9848652
0.6283701 0.91007966 0.97378983
0.69276195 0.8798943 0.9615962
0.77493873 0.82947304 0.92738971
0.80686275 1 1
0.828125 1 1
0.8 0.99693627 1
0.79901961 0.9963848 1
0.81617647 1 1
0.83498775 0.99607843 1
0.84448529 0.99607843 1
0.85833333 0.98333333 0.99215686
0.91029412 0.98823529 0.99215686
0.011764706 0.19607843 0.74901961
0.0078431373 0.18039216 0.7372549
0.014705882 0.18039216 0.74509804
0.06372549 0.22843137 0.75539216
0.096078431 0.24313725 0.75686275
0.13627451 0.22990196 0.7372549
0.19117647 0.21666667 0.72843137
0.27254902 0.25931373 0.70245098
0.38823529 0.28235294 0.72156863
0.039705882 0.28137255 0.79607843
0.034865196 0.27003676 0.78425245
0.057352941 0.27218137 0.78284314
0.08627451 0.2776348 0.78167892
0.1 0.27401961 0.76862745
0.16323529 0.28088235 0.76060049
0.23370098 0.28884804 0.75637255
0.31072304 0.30582108 0.740625
0.40637255 0.33578431 0.74411765
0.016666667 0.35490196 0.82254902
0.037867647 0.35 0.81862745
0.060784314 0.34705882 0.81789216
0.06629902 0.33137255 0.78933824
0.10294118 0.33333333 0.78333333
0.21127451 0.34889706 0.78578431
0.27965686 0.35980392 0.7872549
0.35588235 0.36960784 0.77107843
0.45 0.39803922 0.77254902
0.041176471 0.44117647 0.85735294
0.10716912 0.44117647 0.86519608
0.12794118 0.44154412 0.85735294
0.14761029 0.43480392 0.84466912
0.21519608 0.43333333 0.84289216
0.28088235 0.43480392 0.83535539
0.34019608 0.43480392 0.82169118
0.41421569 0.44283088 0.81011029
0.49509804 0.45980392 0.79852941
0.17843137 0.54901961 0.90196078
0.1995098 0.54730392 0.90392157
0.22058824 0.54362745 0.89803922
0.24877451 0.54117647 0.89019608
0.30882353 0.5372549 0.8872549
0.35906863 0.53921569 0.87377451
0.41421569 0.53480392 0.86421569
0.47990196 0.52745098 0.85245098
0.55686275 0.52745098 0.83529412
0.28039216 0.67647059 0.94656863
0.29920343 0.67647059 0.94803922
0.32610294 0.66286765 0.94411765
0.3528799 0.65686275 0.93627451
0.39191176 0.65612745 0.92696078
0.44509804 0.64362745 0.91819853
0.49620098 0.63578431 0.90637255
0.553125 0.6276348 0.88903186
0.63333333 0.62401961 0.88137255
0.41568627 0.79607843 0.99313725
0.42389706 0.80183824 0.99313725
0.43137255 0.79926471 0.98627451
0.4504902 0.78933824 0.97781863
0.48284314 0.78235294 0.96960784
0.53529412 0.76421569 0.96568627
0.58210784 0.7497549 0.94926471
0.63921569 0.72990196 0.93517157
0.7127451 0.72058824 0.91568627
0.53137255 0.96764706 1
0.54852941 0.95441176 1
0.57107843 0.93578431 1
0.60079657 0.91158088 1
0.57352941 0.94117647 0.99607843
0.64656863 0.90459559 1
0.67647059 0.88872549 0.98860294
0.71323529 0.87990196 0.96862745
0.80931373 0.8495098 0.95735294
0.84313725 1 1
0.80735294 0.99607843 1
0.84411765 1 1
0.81568627 0.99607843 1
0.82156863 0.99215686 1
0.86372549 0.99607843 1
0.83921569 0.98823529 0.99901961
0.86372549 0.98431373 0.99607843
0.91764706 0.98823529 0.99215686
