site/assets/luts/natron-haldclut--sunny-warm--c01398314.cube
# LUTr-Project: LUTr — LUTrepository
# LUTr-Schema-Version: 1
# LUTr-ID: natron-haldclut--sunny-warm--c01398314
# LUTr-Title: sunny warm
# LUTr-Collection: Natron HaldCLUT
# LUTr-Collection-ID: natron-haldclut-presets
# LUTr-Source: https://github.com/NatronGitHub/clut
# LUTr-Source-File: submissions/natron-haldclut-presets/various/sunny_warm.png
# LUTr-Source-Format: PNG
# LUTr-Source-SHA256: 351ea2bb5b33cf3647f669baf0b849b4e8b17be9d1e2ba403fb59de09d3916a2
# LUTr-License: CC-BY-SA-4.0
# LUTr-License-URL: https://github.com/NatronGitHub/clut#license
# LUTr-Tags: creative, film, film-emulation, hald-clut, natron, png, warm, cube
# LUTr-Transform-Class: film-emulation
# LUTr-Input-Color-Space: srgb
# LUTr-Output-Color-Space: srgb
# LUTr-Color-Space-Confidence: assumed-display-referred
# LUTr-Conversion-Method: PNG LUT image decoded at 16-bit and sampled to 25x25x25 3D CUBE
# LUTr-Conversion-Date: 2026-07-27
# LUTr-Conversion-Tool: LUTr scripts/convert-all-to-cube.mjs
# LUTr-Conversion-Grid: 25x25x25
# LUTr-Note: Preserve this metadata and the upstream license notices when redistributing.
TITLE "sunny warm"
LUT_3D_SIZE 5
DOMAIN_MIN 0 0 0
DOMAIN_MAX 1 1 1
0.015686275 0.019607843 0.011764706
0.28235294 0.032352941 0.020588235
0.5627451 0.088235294 0.02745098
0.78823529 0.11568627 0.010784314
0.98039216 0.16078431 0.023529412
0.1372549 0.27647059 0.014705882
0.39411765 0.30563725 0.019607843
0.61127451 0.32352941 0.010294118
0.83333333 0.38529412 0.024264706
0.96862745 0.41666667 0.059803922
0.30392157 0.54705882 0.017647059
0.54656863 0.60833333 0.036764706
0.70294118 0.59117647 0.011764706
0.85931373 0.61323529 0.019607843
0.9745098 0.64313725 0.029411765
0.4372549 0.77156863 0.020588235
0.63333333 0.79509804 0.024509804
0.80196078 0.81960784 0.03872549
0.91642157 0.82647059 0.043872549
0.96862745 0.82647059 0.031372549
0.55686275 0.94117647 0.0039215686
0.76176471 0.98333333 0.049019608
0.87254902 0.96666667 0.045098039
0.95490196 0.97058824 0.039215686
0.95686275 0.94901961 0.015686275
0.026470588 0.021568627 0.22647059
0.29264706 0.033578431 0.22328431
0.55980392 0.092647059 0.21568627
0.76911765 0.10294118 0.20931373
0.95 0.16666667 0.23137255
0.1879902 0.30490196 0.24436275
0.45422794 0.36219363 0.27034314
0.64963235 0.36237745 0.24080882
0.84908088 0.4 0.25122549
0.97769608 0.43235294 0.25661765
0.325 0.56372549 0.23284314
0.56764706 0.61164216 0.26752451
0.73186275 0.61519608 0.25318627
0.88026961 0.63247549 0.24546569
0.96764706 0.63284314 0.23431373
0.46666667 0.77843137 0.23039216
0.6682598 0.82126225 0.25827206
0.80980392 0.82267157 0.25183824
0.92371324 0.83112745 0.25116422
0.98333333 0.85196078 0.25465686
0.59313725 0.9372549 0.21764706
0.78823529 0.98333333 0.2752451
0.84460784 0.94705882 0.21176471
0.9745098 0.98210784 0.27058824
0.97941176 0.9754902 0.25686275
0.043137255 0.019607843 0.47058824
0.3254902 0.06372549 0.48627451
0.58039216 0.10294118 0.47745098
0.7877451 0.12990196 0.47401961
0.96470588 0.18627451 0.48431373
0.22107843 0.32058824 0.49117647
0.45183824 0.35 0.49497549
0.68333333 0.39166667 0.51004902
0.87218137 0.42671569 0.51482843
0.96470588 0.41960784 0.48823529
0.3254902 0.55294118 0.46372549
0.54338235 0.58235294 0.47867647
0.7372549 0.61029412 0.48921569
0.8995098 0.6504902 0.51004902
0.97156863 0.65686275 0.49607843
0.46813725 0.77205882 0.46617647
0.66862745 0.80894608 0.49571078
0.8252451 0.82328431 0.50098039
0.92365196 0.82696078 0.49460784
0.97696078 0.85343137 0.50931373
0.63921569 0.9627451 0.49411765
0.8004902 0.98235294 0.51764706
0.90098039 0.97745098 0.50588235
0.94705882 0.95735294 0.48627451
0.97058824 0.96666667 0.48431373
0.11960784 0.092156863 0.77058824
0.31372549 0.042156863 0.70122549
0.59215686 0.11911765 0.72009804
0.78823529 0.12867647 0.71470588
0.94607843 0.15882353 0.71862745
0.21960784 0.30784314 0.71642157
0.45655637 0.34699755 0.73517157
0.66507353 0.37156863 0.72977941
0.83645833 0.39491422 0.72708333
0.99240196 0.45808824 0.76495098
0.34901961 0.55588235 0.70784314
0.54693627 0.56997549 0.71029412
0.75073529 0.62034314 0.74142157
0.91176471 0.66078431 0.75870098
0.98529412 0.67254902 0.75490196
0.50392157 0.78333333 0.72083333
0.67371324 0.80140931 0.72941176
0.84730392 0.84105392 0.75919118
0.90183824 0.80484069 0.71458333
0.98137255 0.85196078 0.74411765
0.68431373 0.98529412 0.75196078
0.76078431 0.94607843 0.72279412
0.88627451 0.9627451 0.72745098
0.95294118 0.96078431 0.73627451
0.96470588 0.94901961 0.71862745
0.078431373 0.035294118 0.96078431
0.37745098 0.098039216 0.96470588
0.59215686 0.096078431 0.95490196
0.80392157 0.14705882 0.93823529
0.96078431 0.16862745 0.95686275
0.24901961 0.3245098 0.94607843
0.45 0.33014706 0.92352941
0.71029412 0.41078431 0.97843137
0.83308824 0.39019608 0.9254902
0.97647059 0.45784314 0.96862745
0.38627451 0.57058824 0.94705882
0.57598039 0.59117647 0.94803922
0.78627451 0.65 0.97058824
0.86029412 0.60637255 0.94607843
0.99607843 0.68431373 0.98823529
0.52058824 0.78823529 0.94019608
0.7127451 0.82573529 0.98259804
0.86078431 0.84313725 0.97892157
0.94901961 0.84901961 0.96691176
0.98921569 0.85784314 0.96666667
0.72156863 0.98823529 0.98823529
0.81666667 0.97647059 0.9754902
0.92941176 0.98431373 0.98039216
0.96764706 0.97058824 0.95882353
0.97254902 0.97647059 0.96862745
