site/assets/luts/natron-haldclut--alien-green--394a73e87.cube
# LUTr-Project: LUTr — LUTrepository
# LUTr-Schema-Version: 1
# LUTr-ID: natron-haldclut--alien-green--394a73e87
# LUTr-Title: alien green
# LUTr-Collection: Natron HaldCLUT
# LUTr-Collection-ID: natron-haldclut-presets
# LUTr-Source: https://github.com/NatronGitHub/clut
# LUTr-Source-File: submissions/natron-haldclut-presets/various/alien_green.png
# LUTr-Source-Format: PNG
# LUTr-Source-SHA256: 6cb450d33381e1280802de54a76aa373abadbad93e26b557ed067dfb8ad0da9c
# LUTr-License: CC-BY-SA-4.0
# LUTr-License-URL: https://github.com/NatronGitHub/clut#license
# LUTr-Tags: creative, film, film-emulation, hald-clut, natron, png, cube
# LUTr-Transform-Class: film-emulation
# LUTr-Input-Color-Space: srgb
# LUTr-Output-Color-Space: srgb
# LUTr-Color-Space-Confidence: assumed-display-referred
# LUTr-Conversion-Method: PNG LUT image decoded at 16-bit and sampled to 25x25x25 3D CUBE
# LUTr-Conversion-Date: 2026-07-27
# LUTr-Conversion-Tool: LUTr scripts/convert-all-to-cube.mjs
# LUTr-Conversion-Grid: 25x25x25
# LUTr-Note: Preserve this metadata and the upstream license notices when redistributing.
TITLE "alien green"
LUT_3D_SIZE 9
DOMAIN_MIN 0 0 0
DOMAIN_MAX 1 1 1
0.031372549 0.011764706 0.039215686
0.063235294 0.067156863 0.0078431373
0.14215686 0.18137255 0.010784314
0.20980392 0.27009804 0.010294118
0.34705882 0.35882353 0.0039215686
0.45245098 0.45245098 0.0024509804
0.56372549 0.55980392 0.00098039216
0.62647059 0.62598039 0.07254902
0.74509804 0.75294118 0.19215686
0.12303922 0.0068627451 0.0068627451
0.097487745 0.10398284 0.11727941
0.047058824 0.19718137 0.10551471
0.081495098 0.29656863 0.072855392
0.13602941 0.38161765 0.042647059
0.21519608 0.47040441 0.042156863
0.30355392 0.55490196 0.043504902
0.4002451 0.64754902 0.090625
0.5122549 0.70588235 0.15245098
0.25 0.041176471 0.041176471
0.23897059 0.062990196 0.23933824
0.12720588 0.125 0.25661765
0.10110294 0.31409314 0.29387255
0.099509804 0.41960784 0.23480392
0.096078431 0.50539216 0.1754902
0.1129902 0.59019608 0.10808824
0.19080882 0.67487745 0.12303922
0.34803922 0.75588235 0.19803922
0.37303922 0.020588235 0.020588235
0.36323529 0.070098039 0.25079657
0.31495098 0.13651961 0.36666667
0.20036765 0.21550245 0.37542892
0.15980392 0.39093137 0.44019608
0.15245098 0.53621324 0.46568627
0.14154412 0.625 0.3622549
0.17285539 0.71372549 0.33039216
0.24607843 0.79460784 0.32058824
0.49411765 0.019607843 0.011764706
0.49411765 0.068137255 0.26372549
0.48480392 0.11960784 0.48431373
0.36813725 0.17892157 0.49803922
0.23921569 0.25196078 0.5
0.21911765 0.44632353 0.57573529
0.19852941 0.65735294 0.66421569
0.22794118 0.74852941 0.59730392
0.25882353 0.82156863 0.54313725
0.61764706 0.011764706 0.0078431373
0.62009804 0.067156863 0.28057598
0.61764706 0.12303922 0.51813725
0.53621324 0.16623775 0.61464461
0.3877451 0.22401961 0.60784314
0.31072304 0.32303922 0.64025735
0.26678922 0.49362745 0.70392157
0.28204657 0.71813725 0.78480392
0.31127451 0.84754902 0.80343137
0.74019608 0.015686275 0.011764706
0.7372549 0.070588235 0.28002451
0.74411765 0.11764706 0.52745098
0.73235294 0.17843137 0.72561275
0.57990196 0.23529412 0.74362745
0.44166667 0.29754902 0.74620098
0.35882353 0.3627451 0.76078431
0.34215686 0.54803922 0.81911765
0.35392157 0.7754902 0.90294118
0.86813725 0.0034313725 0.0034313725
0.86470588 0.070036765 0.25894608
0.86470588 0.12058824 0.54129902
0.86078431 0.19362745 0.71832108
0.79093137 0.24289216 0.85612745
0.63382353 0.28823529 0.85686275
0.50490196 0.34705882 0.86041667
0.38455882 0.38590686 0.86262255
0.4127451 0.58431373 0.9254902
0.98823529 0 0
0.98382353 0.066666667 0.3
0.97745098 0.12058824 0.54411765
0.98627451 0.175 0.7877451
0.94901961 0.23137255 0.9627451
0.81470588 0.28431373 0.97990196
0.67745098 0.32352941 0.99117647
0.53921569 0.38921569 0.97598039
0.43529412 0.42745098 0.96078431
0.024019608 0.012254902 0.12745098
0.10784314 0.02689951 0.073039216
0.20183824 0.057720588 0.0039215686
0.29283088 0.16341912 0.0078431373
0.38186275 0.25073529 0.0039215686
0.46666667 0.33235294 0.0039215686
0.55539216 0.41470588 0.011764706
0.63670343 0.50330882 0.045588235
0.70147059 0.58970588 0.11372549
0.011580882 0.13137255 0.10563725
0.085301777 0.1338848 0.11962316
0.20606618 0.20988051 0.0073069853
0.30016085 0.30148591 0.0061504289
0.38811275 0.39451593 0.0067401961
0.44823836 0.47044271 0.03583027
0.57495404 0.58367034 0.12397365
0.67496936 0.683678 0.20078125
0.77408088 0.77585784 0.28860294
0.13333333 0.24375 0.01004902
0.24816176 0.1385723 0.13567708
0.17438725 0.21715686 0.26461397
0.10893076 0.33088235 0.20580576
0.11893382 0.41580882 0.10343137
0.2053462 0.50405944 0.098835784
0.33627451 0.59301471 0.14463848
0.44047181 0.67886029 0.2075674
0.53026961 0.74901961 0.26176471
0.34105392 0.34185049 0.0098039216
0.3745098 0.1323606 0.12969516
0.35298713 0.18529412 0.35208333
0.23510263 0.24331342 0.37554381
0.17956495 0.44944853 0.43327206
0.17015931 0.53627451 0.3377451
0.20098039 0.62660846 0.27780331
0.2564951 0.71356464 0.26456036
0.37334559 0.78480392 0.29883578
0.49411765 0.36397059 0.0083333333
0.49215686 0.1783701 0.15811887
0.48854167 0.17598039 0.37120098
0.39871324 0.2370098 0.48170956
0.29632353 0.31887255 0.51286765
0.24696691 0.4984375 0.57803309
0.26182598 0.65735294 0.59405637
0.28624387 0.74849877 0.52009804
0.33431373 0.83308824 0.48186275
0.62156863 0.32959559 0.03627451
0.61029412 0.15232843 0.12536765
0.61861213 0.18249081 0.39332108
0.5895144 0.23621324 0.58579197
0.45352328 0.29528186 0.61871936
0.36678156 0.3914905 0.64521293
0.33247549 0.55837929 0.71021752
0.34317555 0.7377068 0.75271906
0.3745098 0.85245098 0.73921569
0.73762255 0.36752451 0.01127451
0.7411152 0.16243873 0.13938419
0.74509804 0.17843137 0.40640319
0.7350337 0.23529412 0.63253676
0.65931373 0.29270833 0.74074755
0.50445772 0.3506587 0.74117647
0.41292892 0.42098652 0.74914216
0.40366115 0.59362745 0.8189951
0.4182598 0.82071078 0.89803922
0.86470588 0.36599265 0.012806373
0.86078431 0.1323989 0.12794118
0.85729167 0.18223039 0.40626532
0.86315104 0.23529412 0.65441176
0.82717525 0.28946078 0.82061887
0.69019608 0.34705882 0.86470588
0.56106005 0.40087316 0.85991115
0.47794118 0.4935049 0.88344822
0.4622549 0.65392157 0.93382353
0.96911765 0.37156863 0.01127451
0.95845588 0.14963235 0.14540441
0.95845588 0.18529412 0.41115196
0.97058824 0.23480392 0.66648284
0.9752451 0.28529412 0.87598039
0.88529412 0.34295343 0.97775735
0.73443627 0.39705882 0.98088235
0.59705882 0.45490196 0.97647059
0.51421569 0.52647059 0.97696078
0.0088235294 0.11960784 0.24705882
0.13051471 0.022181373 0.24669118
0.25784314 0.042892157 0.16176471
0.33186275 0.0087009804 0.0068627451
0.41666667 0.12598039 0.0078431373
0.50110294 0.21127451 0.0089460784
0.59240196 0.30661765 0.012254902
0.67843137 0.4060049 0.049509804
0.74117647 0.50392157 0.10294118
0.019485294 0.18921569 0.25404412
0.11188725 0.15340074 0.24630821
0.25882353 0.11145833 0.19120711
0.33235294 0.14019608 0.059252451
0.41305147 0.23615196 0.031740196
0.50625 0.34803922 0.058823529
0.59004289 0.4513174 0.10551471
0.68246017 0.55179228 0.16845895
0.75735294 0.64289216 0.22794118
0.011764706 0.25220588 0.23382353
0.12647059 0.25235907 0.20183824
0.24178922 0.24564951 0.2401348
0.32417279 0.33465074 0.15401348
0.41335784 0.42205882 0.14558824
0.49598652 0.50520833 0.18458946
0.6096201 0.6122549 0.24417892
0.69604779 0.70667892 0.30891544
0.78259804 0.78308824 0.37132353
0.049387255 0.37169118 0.038848039
0.24937194 0.36787684 0.12768076
0.36332721 0.27907475 0.26167279
0.30052083 0.34921875 0.38854167
0.2403799 0.45128676 0.33186275
0.2546875 0.54019608 0.24397978
0.36645221 0.6323223 0.27818627
0.48555453 0.71643689 0.332981
0.55306373 0.78210784 0.37205882
0.24068627 0.49411765 0.0078431373
0.46979167 0.4747549 0.12965686
0.49301471 0.26458333 0.26715686
0.47843137 0.30637255 0.47003676
0.36078431 0.3745098 0.50196078
0.3254902 0.55073529 0.54234069
0.33529412 0.66078431 0.48639706
0.38204657 0.7463848 0.45392157
0.41519608 0.82254902 0.41176471
0.51715686 0.61727941 0.016176471
0.61580882 0.48768382 0.12647059
0.61764706 0.28627451 0.27696078
0.61372549 0.30208333 0.49673713
0.54117647 0.35882353 0.61654412
0.42659314 0.44258578 0.63039216
0.40098039 0.61504289 0.69552696
0.41649816 0.78333333 0.70620404
0.4495098 0.85821078 0.66862745
0.70343137 0.69485294 0.01495098
0.73495711 0.49947917 0.12745098
0.73743873 0.25514706 0.25441176
0.7424326 0.30318627 0.50667892
0.71838235 0.36078431 0.71948529
0.58235294 0.41541054 0.74509804
0.48137255 0.49626225 0.75214461
0.47401961 0.66945466 0.82585784
0.48921569 0.88995098 0.90367647
0.85821078 0.72267157 0.015808824
0.86519608 0.48632047 0.13138787
0.86078431 0.26737132 0.25900735
0.85686275 0.30882353 0.52262561
0.85294118 0.36053922 0.75814951
0.76911765 0.41061581 0.8564951
0.63517157 0.46666667 0.86467525
0.53653493 0.54352022 0.87555147
0.53088235 0.71102941 0.94473039
0.9745098 0.73529412 0.012745098
0.96666667 0.50477941 0.11960784
0.96862745 0.26813725 0.25612745
0.96911765 0.3060049 0.51507353
0.96911765 0.36470588 0.78480392
0.97855392 0.4127451 0.97156863
0.81348039 0.46666667 0.97647059
0.67438725 0.52058824 0.97598039
0.56666667 0.60196078 0.97647059
0.0039215686 0.1754902 0.37205882
0.063541667 0.035416667 0.37058824
0.29178922 0.018872549 0.36617647
0.37395833 0.020036765 0.19203431
0.45392157 0.029166667 0.068137255
0.53627451 0.080453431 0.013235294
0.62598039 0.17879902 0.023161765
0.71715686 0.28645833 0.047732843
0.79558824 0.42892157 0.1122549
0.0074754902 0.24705882 0.37843137
0.11421569 0.22893689 0.3745098
0.26096814 0.12700674 0.37749694
0.37856158 0.11733303 0.25637255
0.45 0.094607843 0.091911765
0.54001225 0.20213695 0.078622855
0.62107843 0.31078431 0.11073836
0.71372549 0.43692555 0.16072304
0.77303922 0.51734069 0.20196078
0.020220588 0.3127451 0.37843137
0.11960784 0.3053462 0.36510417
0.23713235 0.27254902 0.36666667
0.37856924 0.24178922 0.32519914
0.45459559 0.25410539 0.19362745
0.54411765 0.36519608 0.20640319
0.63002451 0.48036152 0.23664216
0.71083027 0.57513787 0.27205882
0.79509804 0.67156863 0.33419118
0.016605392 0.38180147 0.35122549
0.12873775 0.37683058 0.35157016
0.25422794 0.37081801 0.3636489
0.34908088 0.38143382 0.3528799
0.42689951 0.44304534 0.32693015
0.54070925 0.54136029 0.33010876
0.61732537 0.62997855 0.35753676
0.72310815 0.73115043 0.41373315
0.81115196 0.81390931 0.47671569
0.024264706 0.49803922 0.12892157
0.14546569 0.49518995 0.15557598
0.38039216 0.49019608 0.25526961
0.48927696 0.40030637 0.39298407
0.44080882 0.4495098 0.50196078
0.40735294 0.57086397 0.4791973
0.45643382 0.66335784 0.44166667
0.52925858 0.7484375 0.45220588
0.58235294 0.81544118 0.47794118
0.12598039 0.61764706 0.011213235
0.36300551 0.60980392 0.12903646
0.58792892 0.59730392 0.24705882
0.61257659 0.38307292 0.38476563
0.60762868 0.42573529 0.60079657
0.48907016 0.50404412 0.62491575
0.47193627 0.66219363 0.65667892
0.49613971 0.78051471 0.6353171
0.52702206 0.85931373 0.60539216
0.38272059 0.7372549 0.016789216
0.60614277 0.73933824 0.12745098
0.7359375 0.62049632 0.24825368
0.74025735 0.40165441 0.37665441
0.7372549 0.43223039 0.62794118
0.66081495 0.48327206 0.74189645
0.54865196 0.56127451 0.75327819
0.54379596 0.75245098 0.83186275
0.56127451 0.88198529 0.8432598
0.62598039 0.86078431 0.016666667
0.82769608 0.82311581 0.12352941
0.85637255 0.6254902 0.24609375
0.86127451 0.38303462 0.3732307
0.8604473 0.42558211 0.62959559
0.83645833 0.48235294 0.83242187
0.71848958 0.53627451 0.87181373
0.60959712 0.61731771 0.88578431
0.60588235 0.76593137 0.9307598
0.85931373 0.96372549 0.028431373
0.98045343 0.86109069 0.12745098
0.96960784 0.63063725 0.23921569
0.9776348 0.40006127 0.38278186
0.94583333 0.4245098 0.64191176
0.97254902 0.48235294 0.87107843
0.88039216 0.53627451 0.9685049
0.74803922 0.59411765 0.97647059
0.64411765 0.66764706 0.98186275
0.019607843 0.25686275 0.49411765
0.024264706 0.036029412 0.49803922
0.22254902 0.042647059 0.49411765
0.45465686 0.017647059 0.44803922
0.50392157 0.02254902 0.26470588
0.57892157 0.022794118 0.13333333
0.66372549 0.037745098 0.034313725
0.74852941 0.15661765 0.049509804
0.83529412 0.28235294 0.082352941
0.028921569 0.31078431 0.49411765
0.11565564 0.2888174 0.49754902
0.1939951 0.1317402 0.49718137
0.43514093 0.12352941 0.4901348
0.50588235 0.12536765 0.33039216
0.57745098 0.10465686 0.16185662
0.65980392 0.17346814 0.11856618
0.74874387 0.29705882 0.14583333
0.81568627 0.39754902 0.18823529
0.030392157 0.3745098 0.49264706
0.11960784 0.37083333 0.49215686
0.24583333 0.36911765 0.50183824
0.37383578 0.2526348 0.496875
0.49362745 0.23970588 0.38602941
0.57303922 0.24362745 0.24227941
0.66752451 0.33762255 0.23627451
0.74828431 0.45441176 0.26936275
0.82009804 0.56078431 0.31568627
0.027696078 0.43627451 0.48627451
0.11960784 0.43627451 0.49019608
0.24460784 0.43235294 0.49050245
0.36544118 0.41256127 0.49411765
0.49375 0.37083333 0.43125
0.57892157 0.40294118 0.34586397
0.66875 0.50876225 0.36268382
0.75294118 0.61372549 0.39338235
0.82916667 0.70220588 0.44362745
0.010784314 0.50686275 0.46078431
0.12745098 0.50330882 0.47365196
0.25098039 0.49828431 0.47401961
0.3747549 0.49963235 0.47107843
0.49901961 0.49705882 0.49852941
0.54227941 0.5567402 0.47634804
0.67254902 0.67205882 0.48921569
0.72904412 0.74031863 0.51384804
0.84901961 0.84509804 0.57745098
0.026470588 0.61372549 0.25637255
0.12729779 0.61510417 0.23685662
0.2817402 0.61372549 0.30091912
0.47824755 0.61004902 0.36908701
0.61237745 0.53039216 0.51176471
0.56936275 0.55683211 0.61449142
0.54932598 0.67420343 0.60765931
0.58079044 0.78465074 0.57971814
0.65416667 0.85686275 0.60098039
0.011764706 0.74068627 0.019117647
0.24203431 0.74252451 0.12916667
0.5004902 0.73921569 0.25784314
0.6995098 0.69503676 0.37604167
0.73357843 0.5122549 0.50808824
0.72028186 0.55196078 0.72150735
0.625 0.64301471 0.75428922
0.61176471 0.80827206 0.80784314
0.63627451 0.90294118 0.78137255
0.24485294 0.86470588 0.0098039216
0.50857843 0.86599265 0.1254902
0.7245098 0.8629902 0.24509804
0.84895833 0.73213848 0.37254902
0.86286765 0.53639706 0.52610294
0.85833333 0.54886642 0.75147059
0.79154412 0.60980392 0.86360294
0.67003676 0.67071078 0.86887255
0.67892157 0.86176471 0.94362745
0.4745098 0.98627451 0.0098039216
0.71985294 0.97058824 0.12156863
0.9627451 0.96470588 0.24656863
0.96764706 0.74754902 0.37058824
0.96960784 0.49705882 0.49705882
0.94705882 0.55588235 0.76985294
0.95490196 0.60588235 0.95686275
0.80098039 0.66764706 0.9620098
0.68823529 0.72352941 0.95098039
0.018137255 0.31813725 0.60588235
0.0077205882 0.068995098 0.61764706
0.17536765 0.020588235 0.61372549
0.4245098 0.033823529 0.61764706
0.61176471 0.024509804 0.55833333
0.62879902 0.014154412 0.33082108
0.71029412 0.031372549 0.21311275
0.78333333 0.064705882 0.11158088
0.85784314 0.12696078 0.085784314
0.02432598 0.3745098 0.60980392
0.12561275 0.37029718 0.61764706
0.16231618 0.17348346 0.61910233
0.37814032 0.12352941 0.6122549
0.61571691 0.11960784 0.60410539
0.6383655 0.11868873 0.38805147
0.70098039 0.12022059 0.25200674
0.78633578 0.17778033 0.17600337
0.85686275 0.26439951 0.18431373
0.018137255 0.43235294 0.61372549
0.12352941 0.43627451 0.61465993
0.23995098 0.42178309 0.61764706
0.32679228 0.26188725 0.61787684
0.54810049 0.24528186 0.61348039
0.6138174 0.24613971 0.43206189
0.70481005 0.25879289 0.32009804
0.78333333 0.31429228 0.2657935
0.87463235 0.44865196 0.31433824
0.031372549 0.4995098 0.62156863
0.12745098 0.49197304 0.61501991
0.24811581 0.49411765 0.61726409
0.36758578 0.47616422 0.61764706
0.49512868 0.37058824 0.61488971
0.62269455 0.36911765 0.50519301
0.69791667 0.3958027 0.40965074
0.7838848 0.48558517 0.39908088
0.86170343 0.60202206 0.43088235
0.0053921569 0.56372549 0.61764706
0.12352941 0.5620098 0.62196691
0.25490196 0.55784314 0.61446078
0.37573529 0.55588235 0.61688113
0.48002451 0.52401961 0.61409314
0.6174326 0.50367647 0.57846201
0.70245098 0.5379902 0.50496324
0.78563113 0.64656863 0.51731005
0.84093137 0.72720588 0.54240196
0.048529412 0.62395833 0.60018382
0.12352941 0.62022825 0.60801164
0.24912684 0.6290288 0.59987745
0.37301624 0.62306219 0.60589767
0.49656863 0.62248775 0.61213235
0.60490196 0.61355699 0.61713388
0.66102941 0.68002451 0.60159314
0.79104626 0.79814645 0.6397595
0.86194853 0.87218137 0.66875
0.031740196 0.74117647 0.34656863
0.12530637 0.74117647 0.36758578
0.27159926 0.74117647 0.39212623
0.39163603 0.7372549 0.40548407
0.60759804 0.7346201 0.49767157
0.7333027 0.64967831 0.62683824
0.70193015 0.71014093 0.75811887
0.69024203 0.82193627 0.7589614
0.71556373 0.89044118 0.72242647
0.018627451 0.86323529 0.12971814
0.14640012 0.86341912 0.14836091
0.35750613 0.86470588 0.24620098
0.6098652 0.86066176 0.37274816
0.83458946 0.83161765 0.49681373
0.85784314 0.63591452 0.6317402
0.84765625 0.67731311 0.85030637
0.75768229 0.76993719 0.88135723
0.74117647 0.92898284 0.93321078
0.13529412 0.98676471 0.0068627451
0.36930147 0.97696078 0.12745098
0.6127451 0.98198529 0.25159314
0.84846814 0.98284314 0.37058824
0.97279412 0.86470588 0.49019608
0.95165441 0.6439951 0.63609069
0.95784314 0.67303922 0.8752451
0.89852941 0.73333333 0.975
0.79362745 0.77941176 0.98431373
0.0039215686 0.36960784 0.74117647
0.0073529412 0.13345588 0.74595588
0.10980392 0.034313725 0.73504902
0.37156863 0.023529412 0.74080882
0.59068627 0.033333333 0.73872549
0.73762255 0.022058824 0.63737745
0.7504902 0.030392157 0.40294118
0.82205882 0.032965686 0.28137255
0.88823529 0.079411765 0.20686275
0.023529412 0.43639706 0.7372549
0.12092525 0.42161458 0.74116115
0.12463235 0.19053309 0.73759191
0.31372549 0.12945772 0.73345588
0.55208333 0.12745098 0.73572304
0.7442402 0.12352941 0.6739277
0.75294118 0.12362132 0.45499387
0.82898284 0.14339767 0.33926164
0.90183824 0.16519608 0.2439951
0.038480392 0.50098039 0.74019608
0.1234375 0.49476103 0.73762255
0.23566176 0.47254902 0.74509804
0.27356005 0.2622549 0.74301471
0.48872549 0.24705882 0.74313725
0.70870098 0.2484375 0.71492034
0.7497549 0.24742647 0.50569853
0.81985294 0.25919118 0.3877451
0.90686275 0.30318627 0.30294118
0.028308824 0.56764706 0.74117647
0.12745098 0.56211703 0.74117647
0.24558824 0.54745711 0.74145221
0.3555913 0.52996324 0.7314951
0.43645833 0.3747549 0.7372549
0.67271752 0.37414216 0.71948529
0.74681373 0.37141544 0.57723652
0.82129289 0.39278493 0.45105699
0.89852941 0.46115196 0.41666667
0.023039216 0.61666667 0.73235294
0.12352941 0.62022059 0.73590686
0.24252451 0.61372549 0.73333333
0.37297794 0.61519608 0.73333333
0.48161765 0.59166667 0.7375
0.61709559 0.50018382 0.73995098
0.74754902 0.49803922 0.63958333
0.8216299 0.5245098 0.52726716
0.87009804 0.57794118 0.51764706
0.050367647 0.68333333 0.7372549
0.11960784 0.68448223 0.73534007
0.24313725 0.67659314 0.7330576
0.36666667 0.6754902 0.73310355
0.49411765 0.68002451 0.7372549
0.61349571 0.661106 0.7372549
0.73627451 0.62659314 0.67254902
0.82169118 0.66801471 0.63458946
0.90441176 0.76813725 0.65441176
0.034068627 0.75392157 0.69313725
0.12316176 0.75395221 0.73128064
0.24724265 0.74387255 0.73866422
0.37708333 0.75073529 0.70729167
0.49595588 0.74901961 0.70821078
0.62858456 0.75321691 0.68780637
0.75098039 0.73265931 0.74607843
0.79856005 0.79166667 0.76072304
0.86789216 0.87745098 0.75294118
0.028431373 0.86213235 0.49117647
0.12095588 0.86469056 0.473269
0.24705882 0.86421569 0.47383578
0.37529105 0.86470588 0.5018076
0.5151348 0.86348039 0.52585784
0.75526961 0.86435355 0.61798407
0.85839461 0.77386642 0.75134804
0.81875 0.82113971 0.86400123
0.81348039 0.9317402 0.8754902
0.015686275 0.98137255 0.24117647
0.12352941 0.97634804 0.27303922
0.25661765 0.97745098 0.26691176
0.48272059 0.98223039 0.3745098
0.73921569 0.97843137 0.49803922
0.94828431 0.95404412 0.61727941
0.97181373 0.74754902 0.74240196
0.94926471 0.79901961 0.95416667
0.85294118 0.8745098 0.97941176
0.0034313725 0.42892157 0.86470588
0.0039828431 0.20447304 0.86029412
0.058946078 0.013235294 0.86176471
0.30098039 0.024203431 0.85686275
0.54754902 0.010784314 0.86862745
0.775 0.016176471 0.84411765
0.86078431 0.022058824 0.68443627
0.85827206 0.016176471 0.46507353
0.94558824 0.034803922 0.3245098
0.036703431 0.49761029 0.86078431
0.12218137 0.48369332 0.86862745
0.1245098 0.24803922 0.86078431
0.25718444 0.12638634 0.86734069
0.49215686 0.12791054 0.86228554
0.7403799 0.12352941 0.86233915
0.86470588 0.12745098 0.7430913
0.87738971 0.12825521 0.52309283
0.91862745 0.13921569 0.42150735
0.012132353 0.55992647 0.86078431
0.12745098 0.55894608 0.85709252
0.23694853 0.53636642 0.86446078
0.24943321 0.32184436 0.86959252
0.43621324 0.25147059 0.86078431
0.66885723 0.24692096 0.85940564
0.859375 0.24831495 0.78933824
0.88296569 0.25445772 0.58953738
0.94019608 0.26617647 0.45343137
0.025490196 0.62156863 0.86078431
0.12349112 0.62287837 0.86439951
0.24404105 0.62152267 0.8682598
0.35516238 0.58304228 0.86459099
0.39191176 0.39620098 0.86087623
0.61471354 0.37058824 0.86078431
0.84707414 0.37058824 0.84215686
0.88008578 0.3781633 0.6408701
0.94050245 0.39362745 0.5122549
0.0093137255 0.67941176 0.86127451
0.12352941 0.67555147 0.86102941
0.25098039 0.68504902 0.86856618
0.37058824 0.67941176 0.86265319
0.47647059 0.65857843 0.86102941
0.57377451 0.51731005 0.86161152
0.80716912 0.49068627 0.85790441
0.88529412 0.49996936 0.72058824
0.93333333 0.50931373 0.57573529
0.034987745 0.74901961 0.86109069
0.13155637 0.74279259 0.86470588
0.24434743 0.74227941 0.86519608
0.36800705 0.74467678 0.85912224
0.48897059 0.74077819 0.8645527
0.61280637 0.72464001 0.86323529
0.75225184 0.61629902 0.86783088
0.87104013 0.61606924 0.74828431
0.925 0.64197304 0.65459559
0.036642157 0.81433824 0.86078431
0.12352941 0.80686275 0.86029412
0.23995098 0.80294118 0.8604473
0.36617647 0.80422794 0.86055453
0.49019608 0.79485294 0.86004902
0.61764706 0.79901961 0.85471814
0.72769608 0.76528799 0.86078431
0.86798407 0.74503676 0.81524203
0.93137255 0.78382353 0.76164216
0.058884804 0.88382353 0.81231618
0.12315411 0.87297794 0.83033854
0.24705882 0.87254902 0.83878676
0.37273284 0.870481 0.84590993
0.49041054 0.87104779 0.85238971
0.61764706 0.8651348 0.84702053
0.74508272 0.87233456 0.83878676
0.86040901 0.84944853 0.88431373
0.94871324 0.94528186 0.89166667
0.0083333333 0.9872549 0.64411765
0.12352941 0.98033088 0.609375
0.2504902 0.95919118 0.64044118
0.37058824 0.97910539 0.6189951
0.49240196 0.98186275 0.62745098
0.63443627 0.9629902 0.67083333
0.84644608 0.96727941 0.74411765
0.98247549 0.87316176 0.87598039
0.90735294 0.96911765 0.96470588
0.0039215686 0.50196078 0.98823529
0.0039215686 0.23921569 0.95294118
0.021568627 0.011764706 0.96862745
0.25735294 0.014215686 0.95980392
0.47254902 0.025490196 0.95686275
0.74656863 0.010294118 0.95980392
0.99509804 0.0049019608 0.98039216
0.99460784 0.0019607843 0.75539216
0.99215686 0 0.49803922
0.0049019608 0.54803922 0.96176471
0.11525735 0.53241422 0.96617647
0.1310049 0.30968137 0.96433824
0.19381127 0.13321078 0.94852941
0.42426471 0.1254902 0.97696078
0.69166667 0.12959559 0.95931373
0.92463235 0.12438725 0.96495098
0.98474265 0.12745098 0.80735294
0.98431373 0.12745098 0.55882353
0.00098039216 0.62745098 0.98235294
0.12352941 0.61066176 0.98039216
0.24068627 0.60735294 0.98946078
0.24252451 0.37610294 0.96960784
0.3754902 0.24705882 0.97254902
0.63431373 0.25098039 0.96911765
0.85980392 0.25098039 0.98308824
0.98296569 0.24571078 0.85735294
0.97745098 0.24705882 0.60098039
0.0093137255 0.67254902 0.96813725
0.12745098 0.68529412 0.99234069
0.24313725 0.65968137 0.94240196
0.34908088 0.64074755 0.97015931
0.37132353 0.41740196 0.9627451
0.55980392 0.3745098 0.97738971
0.82401961 0.36875 0.94742647
0.98118873 0.37058824 0.91875
0.97892157 0.37058824 0.70637255
0.025490196 0.75098039 0.98039216
0.12352941 0.72794118 0.96691176
0.25098039 0.7372549 0.97107843
0.37132353 0.72867647 0.96960784
0.49411765 0.73529412 0.9872549
0.5 0.50514706 0.98186275
0.75343137 0.49803922 0.96911765
0.98235294 0.49019608 0.97843137
0.99019608 0.49803922 0.73529412
0.0044117647 0.80539216 0.98529412
0.12745098 0.79509804 0.97843137
0.25196078 0.80147059 0.9754902
0.37058824 0.7838848 0.95441176
0.49534314 0.79191176 0.96813725
0.61035539 0.77769608 0.96072304
0.68529412 0.62634804 0.96813725
0.91685049 0.61893382 0.97303922
0.98431373 0.62156863 0.78921569
0.017647059 0.86960784 0.9745098
0.12745098 0.84411765 0.94411765
0.24313725 0.84117647 0.94705882
0.37267157 0.85686275 0.97806373
0.49019608 0.86372549 0.97892157
0.61764706 0.85784314 0.97536765
0.73946078 0.84803922 0.97254902
0.87352941 0.75245098 0.96960784
0.97058824 0.74215686 0.86862745
0.023529412 0.92254902 0.97990196
0.12352941 0.92297794 0.97303922
0.24313725 0.92156863 0.98272059
0.3682598 0.91893382 0.97285539
0.48627451 0.91740196 0.95955882
0.61372549 0.91832108 0.96617647
0.74509804 0.91421569 0.96507353
0.8651348 0.88333333 0.95741422
0.98676471 0.86078431 0.98039216
0 0.99215686 0.99215686
0.12745098 0.96813725 0.96470588
0.24215686 0.98137255 0.96568627
0.37058824 0.98088235 0.96666667
0.5 0.98039216 0.96078431
0.61764706 0.98284314 0.975
0.74117647 0.95588235 0.94901961
0.86911765 0.97696078 0.98382353
0.98431373 0.98431373 0.99607843
