site/assets/luts/natron-haldclut--mono-tinted--55fc93a36.cube
# LUTr-Project: LUTr — LUTrepository
# LUTr-Schema-Version: 1
# LUTr-ID: natron-haldclut--mono-tinted--55fc93a36
# LUTr-Title: mono tinted
# LUTr-Collection: Natron HaldCLUT
# LUTr-Collection-ID: natron-haldclut-presets
# LUTr-Source: https://github.com/NatronGitHub/clut
# LUTr-Source-File: submissions/natron-haldclut-presets/various/mono_tinted.png
# LUTr-Source-Format: PNG
# LUTr-Source-SHA256: 3fdc8278960d96c24460dcf88cb6ed188c97886db18e5203d7ee2887034e87a2
# LUTr-License: CC-BY-SA-4.0
# LUTr-License-URL: https://github.com/NatronGitHub/clut#license
# LUTr-Tags: creative, film, film-emulation, hald-clut, natron, png, black-and-white, cube
# LUTr-Transform-Class: film-emulation
# LUTr-Input-Color-Space: srgb
# LUTr-Output-Color-Space: srgb
# LUTr-Color-Space-Confidence: assumed-display-referred
# LUTr-Conversion-Method: PNG LUT image decoded at 16-bit and sampled to 25x25x25 3D CUBE
# LUTr-Conversion-Date: 2026-07-27
# LUTr-Conversion-Tool: LUTr scripts/convert-all-to-cube.mjs
# LUTr-Conversion-Grid: 25x25x25
# LUTr-Note: Preserve this metadata and the upstream license notices when redistributing.
TITLE "mono tinted"
LUT_3D_SIZE 9
DOMAIN_MIN 0 0 0
DOMAIN_MAX 1 1 1
0.16862745 0.10196078 0.10196078
0.16470588 0.098039216 0.098039216
0.19509804 0.12843137 0.1245098
0.21813725 0.15147059 0.14754902
0.24705882 0.1745098 0.17058824
0.27990196 0.19215686 0.18578431
0.33137255 0.23235294 0.22058824
0.38088235 0.26715686 0.25147059
0.41176471 0.29019608 0.27058824
0.16470588 0.098039216 0.098039216
0.19068627 0.1278799 0.12009804
0.24754902 0.1810049 0.1692402
0.27941176 0.20931373 0.19362745
0.32377451 0.24754902 0.22818627
0.37254902 0.27843137 0.25931373
0.41127451 0.30539216 0.28235294
0.45735294 0.33627451 0.30539216
0.49215686 0.3627451 0.32843137
0.22058824 0.16960784 0.15098039
0.25637255 0.20441176 0.18186275
0.30196078 0.24705882 0.21666667
0.34914216 0.28578431 0.24754902
0.40735294 0.33088235 0.28872549
0.45490196 0.36433824 0.32107843
0.5125 0.40098039 0.35490196
0.55882353 0.43284314 0.37843137
0.59411765 0.45980392 0.39411765
0.2872549 0.25833333 0.22058824
0.31813725 0.28658088 0.24117647
0.3682598 0.32794118 0.2745098
0.42401961 0.37150735 0.30631127
0.48186275 0.41593137 0.34411765
0.54754902 0.46372549 0.38284314
0.60931373 0.50306373 0.41311275
0.6627451 0.53939951 0.43627451
0.67009804 0.54460784 0.44166667
0.35490196 0.35294118 0.28235294
0.39338235 0.38382353 0.30931373
0.44411765 0.42254902 0.33823529
0.49705882 0.46372549 0.36715686
0.57254902 0.52156863 0.40882353
0.64803922 0.57941176 0.45245098
0.71176471 0.62254902 0.48137255
0.75906863 0.65294118 0.5
0.76470588 0.65686275 0.50392157
0.42647059 0.45686275 0.35196078
0.47401961 0.50165441 0.38627451
0.53186275 0.55 0.42303922
0.59754902 0.59564951 0.44607843
0.66715686 0.64509804 0.4754902
0.74368873 0.69901961 0.5151348
0.80992647 0.74411765 0.54865196
0.85618873 0.78284314 0.57598039
0.89215686 0.81127451 0.6004902
0.48823529 0.55588235 0.40490196
0.54571078 0.6060049 0.44803922
0.61642157 0.66764706 0.49485294
0.68627451 0.71580882 0.51568627
0.74607843 0.75637255 0.53186275
0.82879902 0.80870098 0.57598039
0.89019608 0.84803922 0.60465686
0.94460784 0.90245098 0.63431373
0.96960784 0.9245098 0.67647059
0.55441176 0.66078431 0.46029412
0.61176471 0.70251225 0.50245098
0.68823529 0.75637255 0.54509804
0.76930147 0.81568627 0.58363971
0.83676471 0.86053922 0.6129902
0.90588235 0.89852941 0.63382353
0.95098039 0.93529412 0.67254902
0.9848652 0.96617647 0.70343137
1 0.98431373 0.73039216
0.63529412 0.77647059 0.5372549
0.66911765 0.79166667 0.55245098
0.74509804 0.83235294 0.5872549
0.83480392 0.89656863 0.62598039
0.89803922 0.93137255 0.6627451
0.97156863 0.97401961 0.6995098
0.98823529 0.98529412 0.72156863
1 0.99215686 0.74166667
0.99607843 0.98823529 0.77254902
0.16862745 0.10196078 0.10196078
0.16770833 0.10189951 0.10189951
0.19509804 0.12843137 0.12843137
0.22598039 0.15667892 0.15882353
0.27034314 0.19387255 0.19362745
0.31470588 0.22322304 0.22058824
0.36519608 0.25968137 0.25539216
0.4004902 0.28670343 0.27800245
0.42352941 0.30147059 0.28970588
0.17990196 0.11666667 0.11623775
0.19810049 0.13872549 0.13491881
0.24765625 0.18186275 0.17423407
0.28570006 0.2153799 0.20130974
0.33532475 0.25496324 0.23970588
0.38216912 0.28676471 0.27064951
0.42663909 0.31758578 0.29791667
0.4738511 0.35147059 0.32761949
0.50349265 0.37107843 0.3471201
0.23333333 0.18137255 0.17058824
0.26421569 0.21547181 0.19705882
0.30943627 0.25389093 0.22794118
0.35499387 0.29313725 0.26079963
0.42015931 0.34362745 0.30539216
0.46648284 0.3745098 0.33529412
0.52640931 0.40968137 0.36752451
0.5727788 0.44411765 0.39443934
0.61139706 0.47536765 0.425
0.29491422 0.2622549 0.23235294
0.33171722 0.29699755 0.25882353
0.37994792 0.34227941 0.29330576
0.43314951 0.38449755 0.32481618
0.49852941 0.43235294 0.36715686
0.55931373 0.47237286 0.40196078
0.6245098 0.51306679 0.43284314
0.67273284 0.54770987 0.46323529
0.69675245 0.56764706 0.48020833
0.36446078 0.36446078 0.30539216
0.40098039 0.39509804 0.32496936
0.45465686 0.4375 0.35931373
0.5122549 0.48161765 0.39411765
0.58223039 0.53296569 0.42904412
0.65557598 0.58627451 0.46657475
0.72107843 0.62928922 0.49852941
0.77454044 0.66908701 0.5330576
0.79166667 0.68382353 0.54607843
0.4377451 0.4745098 0.37647059
0.47824755 0.50922947 0.39806219
0.53400735 0.55347733 0.43025429
0.60441942 0.60294118 0.46684283
0.6747549 0.65294118 0.49926471
0.74988511 0.70667892 0.5386106
0.817019 0.75159314 0.57334559
0.86421569 0.7911152 0.60234375
0.90735294 0.82696078 0.62334559
0.50355392 0.57634804 0.43762255
0.55 0.61492034 0.46372549
0.61642157 0.67117034 0.49954044
0.69234069 0.72224265 0.53823529
0.76544118 0.77242647 0.57622549
0.8463848 0.8303462 0.61953125
0.9067402 0.87435662 0.65327819
0.94362745 0.90635723 0.68362439
0.96703431 0.92843137 0.70441176
0.57310049 0.68033088 0.50245098
0.62303922 0.71894148 0.52941176
0.69952512 0.7754902 0.57431066
0.77827053 0.83102788 0.6146829
0.85174632 0.88094363 0.65122549
0.92110141 0.91995251 0.67990196
0.96487439 0.95430453 0.71873468
0.98517923 0.97341452 0.75386795
1 0.98823529 0.78088235
0.62794118 0.76470588 0.55637255
0.684375 0.80643382 0.59068627
0.76519608 0.85637255 0.62977941
0.84264706 0.90294118 0.66685049
0.92107843 0.94705882 0.70686275
0.97530637 0.97794118 0.74166667
0.99215686 0.98823529 0.76862745
0.99607843 0.99215686 0.8
1 0.99215686 0.83823529
0.16862745 0.10196078 0.10196078
0.16862745 0.10196078 0.10196078
0.19215686 0.12622549 0.13235294
0.22843137 0.15931373 0.16507353
0.28039216 0.20098039 0.20588235
0.31727941 0.225 0.23284314
0.38946078 0.28039216 0.28235294
0.41176471 0.29031863 0.2932598
0.41960784 0.29803922 0.30098039
0.1872549 0.1245098 0.12058824
0.21421569 0.15511642 0.15147059
0.25551471 0.19276961 0.19304534
0.29791667 0.22810968 0.22401961
0.34779412 0.26629902 0.25974265
0.39546569 0.30102635 0.29362745
0.45585172 0.34469975 0.32941176
0.49313725 0.36752451 0.35479473
0.51862745 0.38272059 0.37401961
0.25269608 0.20465686 0.19681373
0.27892157 0.22858456 0.22009804
0.32193627 0.2692402 0.25490196
0.37239583 0.30949755 0.28860294
0.42879902 0.35147059 0.32647059
0.48627451 0.39007353 0.36323529
0.54705882 0.42867647 0.39748775
0.59200368 0.45931373 0.42867647
0.62745098 0.48946078 0.45808824
0.31372549 0.28480392 0.26127451
0.34715074 0.31554841 0.28468137
0.39136029 0.3580576 0.31666667
0.44496017 0.40094975 0.35185355
0.51262255 0.44803922 0.39411765
0.57461703 0.48650429 0.42961091
0.63970588 0.52916667 0.47046569
0.70032169 0.57090993 0.50828738
0.72794118 0.59460784 0.52941176
0.37009804 0.3745098 0.3245098
0.41642157 0.41446078 0.35520833
0.47022059 0.45882353 0.38823529
0.52598039 0.50091912 0.42426471
0.59387255 0.54828431 0.45980392
0.67058824 0.60196078 0.50165441
0.73480392 0.64718137 0.54301471
0.79393382 0.68713235 0.58094363
0.8245098 0.71470588 0.60392157
0.45747549 0.49754902 0.40980392
0.48730086 0.52259498 0.43039216
0.54718137 0.56789216 0.4645527
0.61438419 0.61395527 0.49963235
0.68823529 0.66617647 0.53805147
0.76715686 0.72480086 0.58224571
0.82990196 0.76666667 0.6231924
0.88242953 0.80546875 0.65765931
0.91715686 0.84411765 0.68872549
0.51176471 0.59509804 0.47254902
0.56240809 0.6372549 0.50560662
0.63455882 0.69123775 0.54044118
0.70490196 0.73541667 0.57671569
0.78039216 0.78541667 0.62022059
0.86173407 0.84583333 0.66473652
0.9221201 0.89019608 0.70410539
0.95211397 0.91789216 0.73872549
0.97769608 0.95122549 0.77279412
0.58786765 0.70245098 0.54497549
0.63943015 0.74203431 0.57205882
0.71672794 0.80266544 0.61700368
0.78929228 0.84456189 0.65526961
0.86715686 0.89332108 0.6997549
0.93333333 0.93570772 0.74005821
0.96902574 0.95808824 0.77647059
0.98893995 0.9796875 0.80735294
1 0.99129902 0.83125
0.61960784 0.76078431 0.58333333
0.7004902 0.82120098 0.63235294
0.79019608 0.88553922 0.68357843
0.84767157 0.90796569 0.71029412
0.9254902 0.95147059 0.75735294
0.98223039 0.98468137 0.8004902
0.99607843 0.99215686 0.83431373
0.99607843 0.99215686 0.86519608
1 0.99607843 0.88431373
0.16862745 0.10196078 0.10196078
0.16470588 0.098345588 0.098345588
0.20441176 0.1377451 0.14203431
0.2377451 0.16715686 0.18137255
0.2875 0.20588235 0.22083333
0.33480392 0.23921569 0.25490196
0.39693627 0.28431373 0.29852941
0.43480392 0.30882353 0.325
0.47009804 0.33676471 0.35245098
0.18707108 0.12647059 0.12647059
0.22595741 0.1667739 0.16868873
0.2685815 0.20744485 0.2115962
0.31243107 0.24050245 0.24834559
0.3627451 0.28039216 0.28357843
0.41568627 0.32009804 0.32058824
0.47291667 0.35540748 0.35908395
0.51884957 0.38333333 0.39366575
0.55245098 0.40520833 0.41911765
0.26078431 0.21666667 0.21372549
0.2915288 0.24617034 0.24036458
0.33924632 0.29028799 0.28115809
0.38771446 0.325 0.31983762
0.44209559 0.36317402 0.35490196
0.50257353 0.40729167 0.39411765
0.56253064 0.44362745 0.43118873
0.61528799 0.47781863 0.47066483
0.65833333 0.50870098 0.50208333
0.32254902 0.30147059 0.2848652
0.36049326 0.33449755 0.30974265
0.4095435 0.37855392 0.34869792
0.46623775 0.42101716 0.39230239
0.53137255 0.46470588 0.43137255
0.59221814 0.50516238 0.46883425
0.65490196 0.54757966 0.50813419
0.71806832 0.59313725 0.55078125
0.75189951 0.62009804 0.57935049
0.38823529 0.39656863 0.35857843
0.43177083 0.43186275 0.3875
0.48553922 0.4754902 0.42181373
0.54534314 0.52058824 0.46495098
0.61813725 0.57181373 0.50661765
0.68970588 0.62408088 0.55266544
0.75147059 0.66636029 0.59234069
0.81323529 0.70931373 0.63382353
0.85147059 0.74362745 0.66568627
0.46176471 0.5033701 0.43676471
0.50484069 0.54186581 0.46753217
0.56476716 0.58359375 0.50392157
0.63045343 0.63284314 0.54339767
0.71078431 0.69313725 0.59093137
0.78382353 0.74518229 0.63766085
0.84803922 0.78615196 0.67696078
0.91078431 0.83154871 0.71568627
0.94803922 0.87892157 0.75686275
0.52634804 0.61176471 0.51519608
0.57806373 0.65597426 0.54995404
0.64941789 0.7067402 0.58664216
0.72401961 0.75651042 0.62898284
0.80343137 0.81029412 0.6745098
0.87254902 0.86006434 0.72104779
0.93177083 0.9049326 0.76651348
0.97089461 0.93723958 0.80409007
0.98811275 0.97009804 0.83921569
0.59705882 0.72156863 0.59019608
0.65124847 0.76764706 0.62542892
0.73167892 0.81580882 0.67071078
0.81145067 0.86420803 0.71452206
0.88578431 0.91112132 0.75621936
0.93137255 0.9354856 0.79613971
0.98144914 0.97009804 0.84227941
0.99607843 0.98491115 0.8687883
1 0.99460784 0.89166667
0.67156863 0.81519608 0.6622549
0.71648284 0.85098039 0.69411765
0.79595588 0.88921569 0.73333333
0.86954657 0.92647059 0.77542892
0.94166667 0.96715686 0.8245098
0.97254902 0.97555147 0.85042892
0.99889706 0.99497549 0.90784314
1 0.99215686 0.91881127
1 0.99607843 0.92647059
0.16666667 0.1 0.1
0.19362745 0.13088235 0.13455882
0.225 0.1622549 0.16617647
0.26789216 0.19338235 0.2122549
0.30294118 0.21764706 0.24019608
0.35147059 0.24803922 0.27622549
0.40294118 0.28235294 0.31617647
0.45392157 0.32254902 0.35784314
0.53137255 0.38627451 0.41960784
0.20686275 0.1497549 0.15343137
0.24338235 0.18648897 0.19044118
0.28529412 0.21960784 0.23394608
0.33106618 0.25343137 0.2739277
0.37610294 0.29080882 0.31139706
0.43489583 0.33210784 0.35245098
0.49411765 0.36593137 0.39362745
0.54215686 0.39901961 0.43235294
0.58284314 0.42990196 0.46372549
0.27352941 0.23088235 0.23823529
0.30343137 0.26151961 0.265625
0.35330882 0.30343137 0.30710784
0.40318627 0.33872549 0.34938725
0.45514706 0.37647059 0.3877451
0.52175245 0.4247549 0.43094363
0.5817402 0.4627451 0.47120098
0.63137255 0.49509804 0.51066176
0.6754902 0.5254902 0.54558824
0.34019608 0.32303922 0.31985294
0.3729473 0.3497549 0.34215686
0.42910539 0.39699755 0.38449755
0.48431373 0.43848039 0.42892157
0.54656863 0.4807598 0.46948529
0.6122549 0.52619485 0.51106005
0.67401961 0.56813725 0.55073529
0.73284314 0.61338848 0.6002451
0.77720588 0.64901961 0.63872549
0.40980392 0.41960784 0.39705882
0.44705882 0.44926471 0.42303922
0.50686275 0.49754902 0.46544118
0.56348039 0.53737745 0.50661765
0.63823529 0.59264706 0.55490196
0.7127451 0.64803922 0.60416667
0.77401961 0.68921569 0.64240196
0.83039216 0.73406863 0.6879902
0.87843137 0.77254902 0.72745098
0.47352941 0.51887255 0.47156863
0.52230392 0.55735294 0.50392157
0.58658088 0.60741422 0.54981618
0.65367647 0.65857843 0.59632353
0.73284314 0.71764706 0.64754902
0.81004902 0.7705576 0.69754902
0.87469363 0.81219363 0.73872549
0.91896446 0.85082721 0.77383578
0.95 0.88946078 0.8122549
0.54313725 0.63333333 0.55539216
0.59362745 0.67334559 0.59044118
0.6627451 0.72120098 0.63664216
0.74044118 0.77941176 0.68504902
0.82156863 0.84117647 0.7379902
0.89411765 0.88296569 0.78088235
0.95134804 0.92205882 0.82316176
0.98186275 0.95392157 0.85802696
0.99656863 0.97892157 0.89166667
0.61078431 0.74068627 0.63651961
0.66838235 0.78872549 0.68088235
0.7473652 0.82990196 0.72591912
0.82827819 0.88284314 0.77362132
0.89509804 0.9245098 0.81286765
0.95294118 0.95621936 0.85343137
0.98529412 0.97781863 0.8903799
0.99607843 0.98480392 0.9166973
1 0.99044118 0.93235294
0.69411765 0.83921569 0.72156863
0.73235294 0.87401961 0.75416667
0.81470588 0.90833333 0.79656863
0.90367647 0.95931373 0.8495098
0.95882353 0.98039216 0.88039216
0.98112745 0.98431373 0.90735294
0.99607843 0.99215686 0.94411765
1 0.99607843 0.96715686
1 0.99607843 0.97843137
0.17647059 0.11127451 0.11519608
0.20863971 0.14589461 0.15606618
0.23578431 0.17303922 0.18480392
0.27156863 0.19852941 0.21721814
0.31960784 0.23210784 0.26544118
0.36911765 0.26360294 0.30729167
0.42303922 0.3004902 0.35183824
0.47518382 0.33792892 0.39411765
0.51372549 0.36862745 0.42745098
0.21488971 0.16127451 0.17303922
0.25108762 0.19460784 0.21174173
0.29541973 0.22645527 0.2520527
0.3433364 0.26538756 0.29676011
0.39102328 0.29871324 0.33872549
0.44852941 0.3386106 0.38333333
0.51139706 0.37990196 0.42847733
0.55765931 0.41256127 0.46715686
0.59215686 0.43792892 0.49411765
0.28370098 0.24742647 0.26127451
0.31616115 0.27477022 0.28909314
0.36580882 0.31372549 0.33498775
0.41663603 0.35 0.37703738
0.47175245 0.38995098 0.42058824
0.53872549 0.43829657 0.46680453
0.60012255 0.47757353 0.50955882
0.65441176 0.51311275 0.55373775
0.68333333 0.53370098 0.57647059
0.36960784 0.35 0.36176471
0.38560815 0.36519608 0.37696078
0.44146752 0.41006434 0.41960784
0.49852941 0.45202206 0.4622549
0.56029412 0.4953125 0.50882353
0.62990196 0.54307598 0.55294118
0.69600184 0.58933824 0.60012255
0.75323989 0.63320312 0.6463848
0.78866422 0.6598652 0.6754902
0.42156863 0.43137255 0.42892157
0.4625 0.46927083 0.46136642
0.52426471 0.51795343 0.50753676
0.58210784 0.55885417 0.54751838
0.65269608 0.60784314 0.59767157
0.73094363 0.66568627 0.65119485
0.80116422 0.715625 0.7
0.85539216 0.7591299 0.74295343
0.89877451 0.79215686 0.77598039
0.48376225 0.53376225 0.50392157
0.53768382 0.57892157 0.54626225
0.60153186 0.62850797 0.59252451
0.6722886 0.67984069 0.64215686
0.74828431 0.73406863 0.69289216
0.82542892 0.78494945 0.74515931
0.89803922 0.83270527 0.79246324
0.94050245 0.87156863 0.82898284
0.96617647 0.90153186 0.85931373
0.55490196 0.6560049 0.59656863
0.61507353 0.69883578 0.64019608
0.68471201 0.74825368 0.69080882
0.7598652 0.80245098 0.73535539
0.83382353 0.85153186 0.78057598
0.91217831 0.90143995 0.83295037
0.96372549 0.93541667 0.87233456
0.98921569 0.96678922 0.90588235
0.99889706 0.97745098 0.92291667
0.6286152 0.75980392 0.68284314
0.68962163 0.80964308 0.73239124
0.76510417 0.85294118 0.77941176
0.842356 0.89766391 0.81996783
0.90686275 0.93489583 0.85833333
0.96747089 0.96900276 0.90588235
0.98835784 0.9817402 0.9341299
1 0.99215686 0.95713082
1 0.99215686 0.95931373
0.70490196 0.85245098 0.76764706
0.74540441 0.88578431 0.80067402
0.82990196 0.92205882 0.84411765
0.90533088 0.95778186 0.88382353
0.96789216 0.9875 0.92426471
0.99270833 0.99215686 0.96519608
1 0.9932598 0.97794118
1 0.99607843 0.98578431
1 0.99607843 0.98823529
0.19607843 0.13333333 0.14509804
0.21115196 0.14840686 0.16372549
0.25294118 0.1872549 0.21004902
0.28578431 0.21127451 0.24203431
0.33480392 0.24656863 0.28627451
0.38615196 0.27990196 0.33296569
0.43504902 0.31495098 0.37843137
0.49558824 0.35441176 0.42892157
0.5254902 0.37254902 0.45196078
0.24362745 0.19215686 0.21568627
0.26127451 0.20637255 0.23377757
0.30670956 0.24080882 0.27303922
0.35249694 0.27948836 0.31568627
0.40735294 0.31911765 0.36421569
0.46813725 0.35723039 0.41421569
0.52279412 0.3916973 0.45643382
0.57244179 0.42659314 0.49805453
0.60735294 0.45343137 0.52892157
0.29681373 0.25980392 0.28039216
0.3317402 0.29166667 0.31605392
0.37984069 0.32647059 0.36023284
0.43219975 0.36703431 0.40502451
0.49178922 0.40968137 0.45294118
0.55784314 0.45551471 0.50147059
0.62352941 0.49926471 0.55294118
0.68134191 0.53584559 0.59966299
0.7 0.55 0.61544118
0.37316176 0.35637255 0.37659314
0.40307904 0.38296569 0.40392157
0.4567402 0.42441789 0.4495098
0.51519608 0.46859681 0.49558824
0.57696078 0.51102941 0.54215686
0.64872855 0.56029412 0.59448529
0.72401961 0.61332721 0.6495098
0.78120404 0.65347733 0.69509804
0.80012255 0.66568627 0.71029412
0.42745098 0.44117647 0.45196078
0.47751225 0.48602941 0.49264706
0.5372549 0.53308824 0.53921569
0.60147059 0.57971814 0.58578431
0.66911765 0.6245098 0.63480392
0.74393382 0.67689951 0.68823529
0.82352941 0.7317402 0.74534314
0.86911765 0.77113971 0.78382353
0.90441176 0.8 0.81078431
0.51948529 0.57696078 0.56470588
0.55098039 0.60232843 0.59007353
0.61902574 0.65122549 0.63578431
0.69056373 0.70134804 0.68327206
0.76446078 0.75189951 0.73216912
0.83973652 0.80189951 0.78235294
0.90750613 0.84779412 0.83314951
0.94068627 0.8814951 0.86531863
0.95980392 0.90343137 0.8877451
0.5872549 0.69019608 0.65098039
0.63397672 0.72463235 0.68921569
0.70349265 0.7713848 0.73627451
0.78057598 0.82432598 0.78201593
0.85441176 0.87107843 0.82757353
0.92928922 0.91911765 0.87625613
0.9721201 0.94803922 0.91072304
0.98958333 0.96712623 0.93676471
0.99632353 0.97745098 0.95098039
0.65992647 0.79497549 0.74068627
0.710769 0.83316483 0.78186275
0.78434436 0.88360907 0.83360907
0.86167279 0.91813725 0.86727941
0.93112745 0.95079657 0.90882353
0.96911765 0.97303922 0.93676471
0.98566176 0.98088235 0.96660539
1 0.99140625 0.99129902
1 0.99129902 0.98566176
0.72941176 0.88627451 0.82843137
0.76384804 0.90980392 0.85196078
0.81568627 0.91176471 0.86176471
0.9307598 0.98039216 0.93492647
0.96666667 0.98627451 0.94803922
0.98762255 0.98933824 0.97365196
0.99607843 0.99215686 0.98823529
1 0.99607843 1
1 0.99607843 1
0.18382353 0.11323529 0.1245098
0.21519608 0.15245098 0.1716299
0.24644608 0.18247549 0.21115196
0.30079657 0.22598039 0.26158088
0.34901961 0.25735294 0.30416667
0.39019608 0.28039216 0.33921569
0.45772059 0.33088235 0.39889706
0.50686275 0.36176471 0.44368873
0.52941176 0.37696078 0.46666667
0.2504902 0.19509804 0.21905637
0.2729856 0.21808364 0.25207567
0.31590074 0.25637255 0.29247855
0.36626072 0.29397212 0.33872549
0.42689951 0.33452819 0.39117647
0.48425245 0.36881127 0.43723192
0.54215686 0.40784314 0.48230699
0.59478401 0.44264706 0.52494638
0.6372549 0.47303922 0.56666667
0.30698529 0.26409314 0.29166667
0.34678309 0.3028799 0.3377451
0.39319853 0.34166667 0.38468137
0.44914216 0.38285846 0.43382353
0.51084559 0.42647059 0.48339461
0.58039216 0.4745098 0.53435968
0.64613971 0.51605392 0.58180147
0.69558824 0.54656863 0.62109375
0.72757353 0.56703431 0.6495098
0.37530637 0.35814951 0.39215686
0.41852022 0.39885876 0.43039216
0.47383578 0.44157475 0.47610294
0.53248315 0.48584559 0.52517616
0.59264706 0.52622549 0.56902574
0.66666667 0.57653186 0.62598039
0.74264706 0.62651654 0.67892157
0.78823529 0.65757506 0.71403186
0.82156863 0.68302696 0.74577206
0.44901961 0.47058824 0.48651961
0.49316789 0.50539216 0.51960784
0.55122549 0.54981618 0.56875
0.61878064 0.59883578 0.61911765
0.68431373 0.64031863 0.66482843
0.75539216 0.68936887 0.71617647
0.828125 0.74227941 0.77169118
0.8794424 0.78180147 0.8129902
0.91985294 0.81593137 0.85147059
0.53627451 0.60196078 0.59442402
0.56666667 0.62457108 0.61726409
0.63431373 0.66910233 0.6654565
0.70765931 0.71844363 0.7131204
0.77720588 0.76308211 0.75857843
0.8504902 0.8113894 0.81010263
0.91617647 0.86188725 0.86519608
0.95294118 0.896875 0.89932598
0.97598039 0.93137255 0.93431373
0.60588235 0.71017157 0.68835784
0.63982843 0.73676471 0.71236213
0.72270221 0.79460784 0.76387868
0.79998468 0.84430147 0.81358762
0.87720588 0.8932598 0.86397059
0.94178922 0.93547794 0.90945159
0.98602941 0.95719975 0.9435049
0.99215686 0.96482843 0.95698529
0.9995098 0.98039216 0.97352941
0.67941176 0.81323529 0.77751225
0.72238051 0.83982077 0.80484835
0.80212929 0.89492953 0.85560662
0.87706801 0.92892157 0.89761029
0.94041054 0.95980392 0.93235294
0.9745481 0.97696078 0.95942096
0.99264706 0.984375 0.97696078
0.99607843 0.98480392 0.98125766
0.99607843 0.98480392 0.98431373
0.73333333 0.89411765 0.85098039
0.7877451 0.92156863 0.88186275
0.86078431 0.95294118 0.92058824
0.94215686 0.98805147 0.96715686
0.97647059 0.99215686 0.97303922
0.98823529 0.99215686 0.97665441
0.99607843 0.99215686 0.98958333
1 0.99215686 0.99215686
1 0.99215686 0.99215686
0.18823529 0.12156863 0.13333333
0.21911765 0.15637255 0.17598039
0.26470588 0.19509804 0.2254902
0.31078431 0.23235294 0.27156863
0.35882353 0.26470588 0.31568627
0.41078431 0.2995098 0.3622549
0.46862745 0.33823529 0.40980392
0.51813725 0.36862745 0.45098039
0.52941176 0.37647059 0.45882353
0.24656863 0.19117647 0.21078431
0.27696078 0.22199755 0.25245098
0.32610294 0.26421569 0.30637255
0.37598039 0.30165441 0.35392157
0.43210784 0.34166667 0.39852941
0.49577206 0.37843137 0.44852941
0.56519608 0.42696078 0.50245098
0.60686275 0.45392157 0.54019608
0.6372549 0.47254902 0.5627451
0.31862745 0.27745098 0.30882353
0.35698529 0.31813725 0.35686275
0.40392157 0.35392157 0.4
0.45 0.38382353 0.43762255
0.51127451 0.42647059 0.48333333
0.58431373 0.47634804 0.53823529
0.65784314 0.52745098 0.59411765
0.69571078 0.5504902 0.62598039
0.73137255 0.56960784 0.65686275
0.40245098 0.38676471 0.42205882
0.43167892 0.41685049 0.45343137
0.48026961 0.4495098 0.48872549
0.52990196 0.48284314 0.52352941
0.59558824 0.52818627 0.57205882
0.66758578 0.5783701 0.62598039
0.74558824 0.63247549 0.68284314
0.78854167 0.66519608 0.72028186
0.82156863 0.68284314 0.74705882
0.45490196 0.47843137 0.49411765
0.50490196 0.52647059 0.54215686
0.56470588 0.56666667 0.58529412
0.62647059 0.60759804 0.62990196
0.69215686 0.65196078 0.67647059
0.75931373 0.69632353 0.71862745
0.83137255 0.75 0.77647059
0.88872549 0.79485294 0.82230392
0.9254902 0.81960784 0.85686275
0.53627451 0.60588235 0.6004902
0.5745098 0.63498775 0.63088235
0.6495098 0.6872549 0.68480392
0.72303922 0.73627451 0.73627451
0.78872549 0.77647059 0.775
0.8471201 0.8127451 0.8127451
0.91617647 0.86458333 0.86813725
0.97254902 0.91470588 0.91501225
0.98970588 0.93382353 0.9377451
0.60980392 0.71764706 0.69705882
0.64852941 0.74791667 0.72352941
0.73823529 0.81470588 0.78529412
0.81421569 0.85980392 0.83137255
0.89362745 0.9122549 0.88431373
0.94705882 0.94264706 0.92205882
0.98210784 0.95882353 0.94632353
0.99227941 0.97009804 0.96237745
1 0.99215686 0.98823529
0.69166667 0.82156863 0.78970588
0.74160539 0.85539216 0.82359069
0.81470588 0.90588235 0.86973039
0.88823529 0.93627451 0.90931373
0.94754902 0.96323529 0.94411765
0.98645833 0.98627451 0.98039216
0.99607843 0.98872549 0.98480392
0.99613971 0.98829657 0.98480392
1 0.99215686 0.98823529
0.74509804 0.89803922 0.85490196
0.81078431 0.93284314 0.89362745
0.87254902 0.96372549 0.93235294
0.94460784 0.98284314 0.96715686
0.98039216 0.99215686 0.98431373
0.99607843 0.99607843 0.99215686
1 0.99607843 0.99215686
1 0.99215686 0.99166667
1 0.99215686 0.98823529
