site/assets/luts/natron-haldclut--agfa-vista-200--b8ffd6682.cube
# LUTr-Project: LUTr — LUTrepository
# LUTr-Schema-Version: 1
# LUTr-ID: natron-haldclut--agfa-vista-200--b8ffd6682
# LUTr-Title: agfa vista 200
# LUTr-Collection: Natron HaldCLUT
# LUTr-Collection-ID: natron-haldclut-presets
# LUTr-Source: https://github.com/NatronGitHub/clut
# LUTr-Source-File: submissions/natron-haldclut-presets/negative_color/agfa_vista_200.png
# LUTr-Source-Format: PNG
# LUTr-Source-SHA256: a572463e9a6f1380918ce3a866f2064402401ad983f790d9b03f1abbf80079e8
# LUTr-License: CC-BY-SA-4.0
# LUTr-License-URL: https://github.com/NatronGitHub/clut#license
# LUTr-Tags: creative, film, film-emulation, hald-clut, natron, png, cube
# LUTr-Transform-Class: film-emulation
# LUTr-Input-Color-Space: srgb
# LUTr-Output-Color-Space: srgb
# LUTr-Color-Space-Confidence: assumed-display-referred
# LUTr-Conversion-Method: PNG LUT image decoded at 16-bit and sampled to 25x25x25 3D CUBE
# LUTr-Conversion-Date: 2026-07-27
# LUTr-Conversion-Tool: LUTr scripts/convert-all-to-cube.mjs
# LUTr-Conversion-Grid: 25x25x25
# LUTr-Note: Preserve this metadata and the upstream license notices when redistributing.
TITLE "agfa vista 200"
LUT_3D_SIZE 9
DOMAIN_MIN 0 0 0
DOMAIN_MAX 1 1 1
0.031372549 0.0039215686 0.0039215686
0.057352941 0.0034313725 0.0039215686
0.16470588 0.015686275 0.015686275
0.29852941 0 0.0014705882
0.46666667 0.0039215686 0
0.65196078 0.0039215686 0
0.78039216 0.011764706 0
0.89166667 0.0078431373 0.0039215686
1 0 0
0.023529412 0.069607843 0.0078431373
0.080882353 0.07745098 0.023529412
0.16862745 0.06127451 0.010416667
0.31372549 0.059129902 0.0078431373
0.48210784 0.049264706 0.0039215686
0.65569853 0.020588235 0
0.78419118 0.015196078 0
0.89558824 0 0
0.97990196 0.0039215686 0
0.065686275 0.21862745 0.053921569
0.10882353 0.20735294 0.049142157
0.19019608 0.19215686 0.040441176
0.35428922 0.17941176 0.018627451
0.52205882 0.1495098 0.0049019608
0.68664216 0.14693627 0.0039215686
0.80686275 0.091176471 0.0022058824
0.91384804 0.055392157 0
0.99411765 0.014705882 0
0.035784314 0.3872549 0.092647059
0.048713235 0.38596814 0.092647059
0.20980392 0.37941176 0.086642157
0.39270833 0.36672794 0.06372549
0.56642157 0.35318627 0.04754902
0.71660539 0.31672794 0.027512255
0.84068627 0.27892157 0.012132353
0.93939951 0.25 0.006372549
0.99754902 0.16715686 0.0024509804
0.0078431373 0.56470588 0.12156863
0.04877451 0.56666667 0.13137255
0.24803922 0.55931373 0.11421569
0.43308824 0.56078431 0.1129902
0.60588235 0.53921569 0.082352941
0.75367647 0.53578431 0.063235294
0.86470588 0.50294118 0.06372549
0.97156863 0.47990196 0.033088235
0.99607843 0.43921569 0.019607843
0.12401961 0.70637255 0.14558824
0.20686275 0.70392157 0.16617647
0.3567402 0.70061275 0.14362745
0.50238971 0.69607843 0.1221201
0.65245098 0.68946078 0.10661765
0.77990196 0.67346814 0.10098039
0.88958333 0.67254902 0.098161765
0.98235294 0.65245098 0.079595588
1 0.62696078 0.056372549
0.32745098 0.81960784 0.2
0.37647059 0.81862745 0.20490196
0.47156863 0.81862745 0.17303922
0.58247549 0.81115196 0.16813725
0.70294118 0.80686275 0.14411765
0.80931373 0.8 0.14460784
0.91838235 0.79705882 0.10563725
0.99313725 0.78823529 0.087867647
1 0.77647059 0.081372549
0.48872549 0.90686275 0.24362745
0.52696078 0.91127451 0.24411765
0.57990196 0.90686275 0.24117647
0.65539216 0.90471814 0.24442402
0.74583333 0.90514706 0.22279412
0.84197304 0.89932598 0.20882353
0.93627451 0.89558824 0.18872549
0.99656863 0.89166667 0.16868873
1 0.88382353 0.15098039
0.63137255 0.98039216 0.29019608
0.64264706 0.97598039 0.28627451
0.66666667 0.96568627 0.28529412
0.74313725 0.98284314 0.27205882
0.7745098 0.93921569 0.24901961
0.87254902 0.95588235 0.25392157
0.95882353 0.95588235 0.24117647
1 0.94558824 0.21176471
1 0.97254902 0.2
0.0083333333 0.0039215686 0.03872549
0.050490196 0.0039215686 0.042156863
0.14656863 0.0078431373 0.027818627
0.29344363 0.0039215686 0.016973039
0.47254902 0.011764706 0.01127451
0.63872549 0.0078431373 0.0039215686
0.77647059 0.011764706 0.0039215686
0.88780637 0.0078431373 0.0078431373
0.98039216 0.0034313725 0.0039215686
0.034803922 0.065686275 0.06127451
0.068688725 0.058272059 0.057467831
0.15998775 0.053170956 0.043014706
0.30873928 0.042156863 0.027780331
0.4825674 0.023253676 0.0075980392
0.64611673 0.017378983 0.0039215686
0.77953431 0.011764706 0.0035539216
0.8877451 0.011596201 0.0074142157
0.96421569 0.0039215686 0.0039215686
0.062254902 0.19411765 0.096078431
0.097870711 0.19154412 0.092202819
0.18446691 0.17892157 0.079656863
0.33909314 0.17254902 0.061887255
0.51623775 0.14546569 0.037928922
0.66550245 0.12539828 0.026516544
0.79546569 0.093137255 0.011427696
0.90379902 0.048866422 0.0039215686
0.98333333 0.022916667 0.00085784314
0.038235294 0.38756127 0.14509804
0.046346507 0.37828585 0.13713235
0.20736826 0.37406556 0.12215074
0.38197763 0.36519608 0.10509344
0.55474877 0.34460784 0.088082108
0.70508578 0.31550245 0.067356005
0.82647059 0.28284314 0.043504902
0.93333333 0.24175092 0.029411765
0.99215686 0.18216912 0.013909314
0.006127451 0.56642157 0.17696078
0.047273284 0.56645221 0.16911765
0.24166667 0.56323529 0.15441176
0.42941176 0.55588235 0.14828431
0.59718137 0.54117647 0.13002451
0.74117647 0.52009804 0.1104473
0.85992647 0.50465686 0.097855392
0.9504902 0.46421569 0.077205882
0.99240196 0.41372549 0.057598039
0.10931373 0.70765931 0.22107843
0.18335631 0.70392157 0.21192555
0.32950368 0.7 0.20574449
0.49282322 0.69607843 0.19754902
0.64338235 0.68612132 0.17533701
0.77469363 0.68039216 0.15667126
0.88296569 0.67215074 0.14024203
0.98376225 0.65569853 0.11909467
0.99215686 0.62745098 0.12156863
0.3004902 0.81470588 0.27107843
0.35617341 0.8185815 0.26323529
0.45560662 0.81862745 0.26387868
0.5769761 0.8122549 0.23988971
0.68817402 0.80784314 0.23406863
0.80165441 0.8 0.22045037
0.90502451 0.79574142 0.19708946
0.98872549 0.79166667 0.17647059
1 0.77647059 0.15330882
0.4848652 0.91035539 0.32058824
0.51176471 0.91470588 0.31236979
0.56862745 0.90821078 0.30931373
0.64456955 0.90343137 0.30147059
0.74044118 0.90343137 0.2955576
0.83268229 0.90138634 0.28556219
0.925 0.89557292 0.26875
0.98915441 0.8872549 0.24962469
1 0.87996324 0.234375
0.60441176 0.97303922 0.35931373
0.63529412 0.98431373 0.34803922
0.66482843 0.97647059 0.34803922
0.70410539 0.96568627 0.3408701
0.79411765 0.97794118 0.33186275
0.8754902 0.975 0.32922794
0.9557598 0.97193627 0.31862745
0.99613971 0.96770833 0.3004902
1 0.96862745 0.29264706
0.0039215686 0.015686275 0.12254902
0.035294118 0.012132353 0.11519608
0.1254902 0.0039215686 0.092156863
0.26605392 0.0039215686 0.070588235
0.45098039 0.00098039216 0.050980392
0.6254902 0.00098039216 0.016053922
0.76004902 0.0039215686 0.021813725
0.87732843 0.0039215686 0.018259804
0.98039216 0 0
0.020098039 0.053431373 0.1377451
0.042218137 0.045588235 0.12717525
0.13688725 0.047089461 0.11813725
0.28909314 0.030882353 0.098713235
0.46341912 0.02567402 0.076470588
0.63400735 0.0073529412 0.049387255
0.76559436 0 0.022303922
0.87608762 0.0039215686 0.015686275
0.96862745 0.00085784314 0.018504902
0.055882353 0.17156863 0.17941176
0.068382353 0.17071078 0.17156863
0.15741422 0.16470588 0.16372549
0.32169118 0.15554534 0.14785539
0.49509804 0.12352941 0.11654412
0.65441176 0.10689338 0.091666667
0.78094363 0.076164216 0.076164216
0.88765319 0.0375 0.056495098
0.97034314 0.026470588 0.043382353
0.022058824 0.37046569 0.2377451
0.027083333 0.36594669 0.22843137
0.16810662 0.35704657 0.22313113
0.36323529 0.34757966 0.19852941
0.53995098 0.32941176 0.17941176
0.69466912 0.30140931 0.15545343
0.81265319 0.26421569 0.13431373
0.91078431 0.21893382 0.1165288
0.98823529 0.15821078 0.09252451
0.0078431373 0.5495098 0.28627451
0.015073529 0.55514706 0.2786152
0.18639706 0.55012255 0.27303922
0.40245098 0.54313725 0.25300245
0.58137255 0.53823529 0.24068627
0.71862745 0.51397059 0.22052696
0.83970588 0.4939951 0.20294118
0.93480392 0.45245098 0.17990196
0.99313725 0.42401961 0.16176471
0.054901961 0.70428922 0.33590686
0.11329657 0.70530025 0.32866115
0.27325368 0.69644608 0.32285539
0.46960784 0.69252451 0.30969669
0.61691176 0.68627451 0.2963848
0.74595588 0.67647059 0.28321078
0.86075368 0.66636029 0.26314338
0.9615962 0.65200674 0.24558824
0.99252451 0.62058824 0.22401961
0.225 0.81568627 0.38627451
0.31755515 0.81936275 0.37843137
0.41354167 0.82199755 0.37359069
0.53921569 0.81176471 0.3627451
0.66176471 0.80747549 0.35490196
0.78177083 0.80045956 0.3419424
0.88161765 0.79607843 0.32610294
0.97181373 0.78823529 0.31032475
0.99607843 0.77745098 0.29705882
0.44264706 0.91470588 0.43492647
0.47254902 0.91083027 0.42794118
0.53431373 0.90735294 0.42022059
0.62156863 0.90735294 0.4127451
0.70980392 0.90723039 0.41403186
0.80980392 0.90343137 0.40431985
0.90539216 0.90686275 0.39571078
0.97401961 0.89901961 0.38120404
1 0.8877451 0.36862745
0.58137255 0.98039216 0.4627451
0.6004902 0.98431373 0.4627451
0.63455882 0.97720588 0.45490196
0.68982843 0.97708333 0.4495098
0.76176471 0.96862745 0.43921569
0.84460784 0.96862745 0.43529412
0.93553922 0.97254902 0.43137255
0.99215686 0.9754902 0.41960784
1 0.97156863 0.40392157
0.0039215686 0.019607843 0.22941176
0.009129902 0.0039215686 0.19099265
0.10441176 0.006372549 0.19215686
0.25147059 0.0039215686 0.17542892
0.425 0 0.15441176
0.60588235 0 0.12107843
0.7372549 0 0.125
0.8504902 0 0.11568627
0.95441176 0 0.088235294
0.0037377451 0.038235294 0.24411765
0.026654412 0.039973958 0.24068627
0.11519608 0.037071078 0.22892157
0.25900735 0.026960784 0.21685049
0.43578431 0.017401961 0.19558824
0.60146293 0.0060661765 0.16452206
0.73854167 0.0039215686 0.15422794
0.8504902 0 0.13676471
0.96096814 0 0.10324755
0.015686275 0.16458333 0.30085784
0.050490196 0.16283701 0.298269
0.13474265 0.14203431 0.27931985
0.29342831 0.123269 0.26380208
0.46446078 0.12058824 0.24828431
0.61983762 0.096645221 0.22058824
0.75796569 0.05692402 0.19917279
0.86482843 0.023651961 0.17850797
0.94546569 0.010784314 0.16323529
0.0014705882 0.35196078 0.35680147
0.028308824 0.35140931 0.3544807
0.13572304 0.3372549 0.34865196
0.32205882 0.32843137 0.33235294
0.51326593 0.31470588 0.31155025
0.65778186 0.28137255 0.28661918
0.78800551 0.24757966 0.26859681
0.89118413 0.19088542 0.24342831
0.97015931 0.12297794 0.225
0.0066176471 0.54117647 0.41764706
0.011519608 0.54494485 0.41234681
0.12542892 0.54136029 0.40741422
0.36473652 0.53241422 0.39166667
0.54656863 0.51715686 0.37634804
0.68606005 0.50300245 0.36400123
0.81127451 0.4754902 0.33946078
0.92303922 0.45196078 0.32074142
0.97132353 0.43137255 0.3129902
0.029840686 0.69362745 0.47310049
0.029051777 0.70128676 0.46716452
0.20882353 0.69816176 0.46410846
0.42303922 0.69028033 0.45418199
0.58529412 0.68382353 0.43431373
0.71470588 0.67310049 0.42133885
0.83417586 0.66127451 0.40637255
0.94118413 0.64393382 0.38983609
0.99215686 0.62843137 0.38045343
0.14019608 0.81507353 0.51948529
0.21412377 0.81568627 0.51577819
0.35526961 0.81568627 0.51164216
0.49803922 0.81530331 0.50134804
0.62751225 0.81176471 0.48927696
0.74558824 0.80245098 0.47395833
0.85637255 0.79215686 0.4625
0.9558364 0.7877451 0.45079657
0.98541667 0.78394608 0.44705882
0.37990196 0.91488971 0.55539216
0.41372549 0.91100643 0.55294118
0.48720895 0.91341912 0.55147059
0.58039216 0.91127451 0.53970588
0.675 0.90735294 0.53284314
0.77758119 0.91127451 0.53216912
0.88333333 0.90723039 0.51919424
0.95886183 0.8995098 0.50467984
0.99185049 0.89166667 0.49656863
0.54019608 0.98186275 0.58235294
0.56213235 0.98841912 0.58253676
0.59840686 0.98039216 0.5754902
0.65980392 0.98284314 0.57150735
0.74068627 0.9875 0.56862745
0.82156863 0.98284314 0.55882353
0.91421569 0.98039216 0.55098039
0.98265931 0.97879902 0.54050245
0.98970588 0.97254902 0.53137255
0 0.011764706 0.35490196
0.0039215686 0.011764706 0.34583333
0.068627451 0.0039215686 0.33382353
0.21740196 0 0.30343137
0.40294118 0 0.28529412
0.57156863 0 0.26323529
0.72107843 0 0.23921569
0.83137255 0 0.23872549
0.94117647 0 0.20784314
0.0017156863 0.026715686 0.37181373
0.0056372549 0.021047794 0.37156863
0.065502451 0.018443627 0.36446078
0.22000613 0.019270833 0.34574142
0.40183824 0.015196078 0.32965686
0.57401961 0.0075980392 0.30931373
0.71568627 0.0036151961 0.29068627
0.82720588 0 0.27745098
0.92794118 0 0.25980392
0.0078431373 0.13235294 0.43480392
0.020588235 0.12591912 0.42738971
0.096691176 0.12058824 0.41813725
0.25318627 0.10208333 0.40073529
0.43235294 0.086519608 0.38431373
0.59993873 0.062071078 0.35949755
0.72683824 0.048651961 0.3377451
0.83394608 0.019178922 0.32377451
0.93088235 0.0068627451 0.30637255
0.0014705882 0.32892157 0.49509804
0.018627451 0.32892157 0.49338235
0.091482843 0.31329657 0.48382353
0.28532475 0.30147059 0.46642157
0.475 0.28088235 0.44803922
0.62990196 0.25490196 0.42696078
0.75343137 0.22303922 0.40245098
0.85579044 0.15557598 0.37852328
0.94607843 0.091666667 0.36176471
0 0.52941176 0.54705882
0.0067401961 0.52745098 0.54816176
0.038480392 0.53259804 0.54656863
0.31629902 0.52156863 0.52267157
0.51421569 0.49803922 0.50980392
0.65686275 0.47843137 0.49656863
0.78235294 0.45980392 0.47794118
0.88909314 0.41997549 0.45465686
0.97647059 0.35980392 0.4372549
0.0078431373 0.6870098 0.59509804
0.014123775 0.69200368 0.59901961
0.13756127 0.69123775 0.59068627
0.37843137 0.68357843 0.57521446
0.55147059 0.67267157 0.5622549
0.68158701 0.67009804 0.55741422
0.80435049 0.65533088 0.54019608
0.91724877 0.63823529 0.52686887
0.98308824 0.61004902 0.5127451
0.042647059 0.81715686 0.64068627
0.125 0.81862745 0.64044118
0.28921569 0.8125 0.62941176
0.45410539 0.81078431 0.62254902
0.59166667 0.80392157 0.60637255
0.70949755 0.8004902 0.59895833
0.82622549 0.79215686 0.58602941
0.93008578 0.7841299 0.57984069
0.98823529 0.77303922 0.57205882
0.31666667 0.91862745 0.67083333
0.34733456 0.9129902 0.66691176
0.43002451 0.9129902 0.66176471
0.53226103 0.91014093 0.65735294
0.63995098 0.91090686 0.64754902
0.74917279 0.90661765 0.63627451
0.84987745 0.89993873 0.62598039
0.94678309 0.89901961 0.6216299
0.98431373 0.89166667 0.61421569
0.49411765 0.98431373 0.68431373
0.51936275 0.9870098 0.68651961
0.53823529 0.96568627 0.67647059
0.60490196 0.97058824 0.6752451
0.70196078 0.97647059 0.66470588
0.79142157 0.97769608 0.66078431
0.88529412 0.97647059 0.65686275
0.975 0.98014706 0.65245098
0.98627451 0.9745098 0.64509804
0 0 0.46078431
0.0039215686 0.0039215686 0.45557598
0.038112745 0 0.45404412
0.18578431 0 0.44019608
0.375 0 0.42426471
0.55153186 0 0.40104167
0.68872549 0 0.39558824
0.81194853 0 0.371875
0.90147059 0 0.3745098
0 0.023345588 0.50294118
0.0073529412 0.02287837 0.50294118
0.026102941 0.0066942402 0.49960172
0.18137255 0.0039215686 0.47745098
0.37288603 0.0039215686 0.45897672
0.54980086 0 0.44313725
0.68480392 0 0.42365196
0.80441176 0 0.40535386
0.9096201 0 0.39705882
0.0039215686 0.10980392 0.55539216
0.011504289 0.093581495 0.54955576
0.068137255 0.093627451 0.54653799
0.21617647 0.07153799 0.52585784
0.40128676 0.057843137 0.50563725
0.56606924 0.040196078 0.48624387
0.69255515 0.026807598 0.46740196
0.80802696 0.0039215686 0.45183824
0.90441176 0.0068627451 0.43566176
0.0048406863 0.28241422 0.60931373
0.0069240196 0.2886106 0.60778186
0.049249387 0.28255208 0.60539216
0.25343137 0.26462163 0.57975643
0.44114583 0.23651961 0.56102941
0.59509804 0.19916513 0.54230239
0.71821385 0.15836397 0.51772365
0.82990196 0.13186275 0.50294118
0.92009804 0.051041667 0.47990196
0 0.50980392 0.65882353
0.0039215686 0.50474877 0.66004902
0.032107843 0.50245098 0.65392157
0.26519608 0.49761029 0.63802083
0.47892157 0.47107843 0.62071078
0.63045343 0.45511642 0.60294118
0.753125 0.42696078 0.58590686
0.86568627 0.38268995 0.56862745
0.96568627 0.33627451 0.55343137
0.0078431373 0.665625 0.70784314
0.0039215686 0.67529105 0.70550705
0.064001225 0.67970282 0.6977788
0.3316636 0.66897212 0.68059896
0.52052696 0.65367647 0.66712623
0.65686275 0.65328585 0.6598652
0.7810815 0.64342831 0.64620098
0.89596354 0.61862745 0.62677696
0.96862745 0.57408088 0.61764706
0.012745098 0.80453431 0.74264706
0.029289216 0.80269608 0.74552696
0.20539216 0.81078431 0.73480392
0.41948529 0.80461091 0.71948529
0.56256127 0.79699755 0.70876225
0.68607537 0.79068627 0.69581801
0.80272672 0.78667279 0.6877451
0.90625 0.76934743 0.67598039
0.99509804 0.75686275 0.66703431
0.23382353 0.91519608 0.76568627
0.2971201 0.91546415 0.76390931
0.38118873 0.91090686 0.75784314
0.5 0.90398284 0.7513557
0.6104473 0.90799632 0.74215686
0.71764706 0.90196078 0.72892157
0.82647059 0.89969363 0.72201287
0.92729013 0.89558824 0.71470588
0.98431373 0.8903799 0.71078431
0.45882353 0.99215686 0.78235294
0.46832108 0.98792892 0.78088235
0.52169118 0.98823529 0.77879902
0.58627451 0.98192402 0.77303922
0.67034314 0.97328431 0.76151961
0.76911765 0.98639706 0.7588848
0.86421569 0.98431373 0.75343137
0.95441176 0.98449755 0.74558824
0.99460784 0.98284314 0.73627451
0 0 0.58137255
0.0034313725 0.0039215686 0.58039216
0.016911765 0.0039215686 0.58431373
0.13921569 0 0.58186275
0.33970588 0 0.55098039
0.5307598 0 0.52156863
0.6620098 0 0.52058824
0.78529412 0 0.49754902
0.89117647 0 0.47745098
0 0 0.61519608
0.0039215686 0.011488971 0.61776961
0.010784314 0.0039215686 0.61421569
0.14224877 0.0038756127 0.59313725
0.33553922 0.0036151961 0.5752451
0.52023591 0 0.55147059
0.6627451 0 0.53615196
0.7810049 0 0.52519914
0.88529412 0 0.50453431
0 0.066666667 0.65294118
0.0034313725 0.06372549 0.65514706
0.028247549 0.054901961 0.64901961
0.18186275 0.030729167 0.63088235
0.3627451 0.020833333 0.60784314
0.53550858 0.010508578 0.58480392
0.67034314 0.01317402 0.56642157
0.78584559 0.0075980392 0.55441176
0.88235294 0.006127451 0.53921569
0 0.22303922 0.70588235
0.0077052696 0.22933517 0.70196078
0.060447304 0.20952819 0.69365809
0.22218137 0.20022978 0.67467831
0.40643382 0.1776348 0.65232843
0.56176471 0.15281863 0.63321078
0.6877451 0.099877451 0.61151961
0.79915748 0.056862745 0.59336703
0.89558824 0.023529412 0.57732843
0 0.46862745 0.75882353
0.0038602941 0.46979167 0.75588235
0.015686275 0.46164216 0.74644608
0.22732843 0.43952206 0.72579657
0.45196078 0.42769608 0.70563725
0.60594363 0.40710784 0.69276961
0.73431373 0.38051471 0.67953431
0.84362745 0.32352941 0.65753676
0.93284314 0.25980392 0.6372549
0.0053921569 0.64558824 0.7995098
0.0078431373 0.64166667 0.79656863
0.034313725 0.66056985 0.78872549
0.26055453 0.65098039 0.77306985
0.49160539 0.64019608 0.75735294
0.63664216 0.62745098 0.74428615
0.7604473 0.61835172 0.73449755
0.87290135 0.58566176 0.71879596
0.94595588 0.55698529 0.70355392
0.0041666667 0.79142157 0.82745098
0.0084865196 0.7950674 0.82659314
0.13161765 0.7997549 0.82034314
0.35370711 0.79653799 0.81176471
0.52352941 0.78431373 0.80036765
0.66087623 0.78333333 0.78832721
0.78296569 0.76936275 0.77573529
0.89175858 0.75389093 0.76173407
0.98431373 0.74117647 0.75392157
0.12512255 0.91470588 0.85441176
0.19620098 0.91127451 0.85006127
0.32242647 0.90735294 0.84656863
0.46029412 0.90735294 0.84257047
0.57696078 0.90300245 0.82824755
0.6995098 0.89768689 0.81911765
0.80640319 0.8995098 0.81519608
0.91040135 0.88811275 0.80330882
0.9872549 0.88039216 0.79460784
0.40294118 0.99215686 0.87352941
0.41139706 0.98345588 0.86875
0.48039216 0.98848039 0.86887255
0.55245098 0.98529412 0.86213235
0.64803922 0.98431373 0.85392157
0.74852941 0.98431373 0.84607843
0.84117647 0.98921569 0.84509804
0.92953431 0.98039216 0.83039216
0.98529412 0.97745098 0.82647059
0 0 0.69558824
0 0 0.69558824
0 0 0.6995098
0.09754902 0 0.68511029
0.29926471 0 0.65441176
0.50196078 0 0.62922794
0.64571078 0 0.62144608
0.75833333 0 0.60490196
0.8627451 0 0.58186275
0 0 0.70686275
0 0.0039215686 0.71072304
0 0.0031096814 0.70821078
0.098039216 0 0.69221814
0.29944853 0 0.66939338
0.50210631 0 0.64834559
0.64264706 0 0.63316483
0.7622549 0 0.62015931
0.85833333 0 0.60147059
0 0.044607843 0.74558824
0 0.029044118 0.74166667
0 0.0077512255 0.73532475
0.13546262 0.0077205882 0.71946998
0.32401961 0.0039215686 0.69613971
0.50490196 0.0011029412 0.67352941
0.64656863 0.0067708333 0.65796569
0.76498162 0.0037990196 0.63970588
0.86519608 0 0.62745098
0 0.13970588 0.78253676
0.0075137868 0.14893536 0.78253676
0.030836397 0.12896752 0.7712163
0.19221814 0.11470588 0.75545343
0.37254902 0.093535539 0.73342525
0.53939951 0.092532169 0.71207108
0.66078431 0.035860907 0.69122243
0.77620251 0.017830882 0.67444853
0.85508578 0.011580882 0.6627451
0 0.40857843 0.83627451
0.00021446078 0.3924326 0.83477328
0.033762255 0.38964461 0.82322304
0.19828431 0.38112745 0.81029412
0.41801471 0.36433824 0.7872549
0.58382353 0.32058824 0.76832108
0.70490196 0.29411765 0.75147059
0.81102941 0.23556985 0.73039216
0.90539216 0.16102941 0.70906863
0.0039215686 0.62677696 0.88480392
0.0039215686 0.61470588 0.87745098
0.01171875 0.62513787 0.87329963
0.22315411 0.62310049 0.8591299
0.4515625 0.61185662 0.84068627
0.6098652 0.59296109 0.82529105
0.73846507 0.56139706 0.81167279
0.85234375 0.53954504 0.79634651
0.9495098 0.49901961 0.78039216
0.012745098 0.76556373 0.90833333
0.012729779 0.77303922 0.90833333
0.052910539 0.78088235 0.90395221
0.30968137 0.78002451 0.89626225
0.49656863 0.76936275 0.88327206
0.63382353 0.75306373 0.86341912
0.75735294 0.74779412 0.8560049
0.8682598 0.73039216 0.84477635
0.92904412 0.72205882 0.83860294
0.024387255 0.90398284 0.93921569
0.076041667 0.90729167 0.93475031
0.24437806 0.90643382 0.93088235
0.40018382 0.90165441 0.92273284
0.5495098 0.89512868 0.90952819
0.66760876 0.89139859 0.9
0.77634804 0.88800551 0.89563419
0.88736979 0.88414522 0.88731618
0.9754902 0.87254902 0.87990196
0.33088235 0.99166667 0.96176471
0.3622549 0.99123775 0.95741422
0.42659314 0.98823529 0.95392157
0.51372549 0.98823529 0.94754902
0.61078431 0.9879902 0.93823529
0.71501225 0.9841299 0.92677696
0.81421569 0.98737745 0.92561275
0.9098652 0.98688725 0.91819853
0.95980392 0.98039216 0.90735294
0 0 0.78823529
0 0 0.78039216
0.0039215686 0 0.77745098
0.048529412 0 0.7622549
0.26078431 0 0.74313725
0.46372549 0 0.72156863
0.62745098 0 0.70882353
0.7504902 0 0.67794118
0.8627451 0 0.64705882
0 0 0.79607843
0 0 0.78817402
0.0039215686 0 0.78872549
0.065196078 0 0.76617647
0.26617647 0 0.75098039
0.45980392 0 0.73155637
0.61973039 0 0.72009804
0.74705882 0 0.69705882
0.82843137 0 0.67009804
0 0.010784314 0.82254902
0 0.0068627451 0.81127451
0.0039215686 0.0039215686 0.80392157
0.079901961 0.0018382353 0.79264706
0.28921569 0 0.7754902
0.48088235 0 0.74411765
0.62254902 0 0.73161765
0.74571078 0.0029411765 0.72536765
0.8254902 0 0.70490196
0 0.066666667 0.85343137
0.0034313725 0.066666667 0.8495098
0.010294118 0.065563725 0.83492647
0.13811275 0.038970588 0.81783088
0.33578431 0.031862745 0.78995098
0.50300245 0.0079044118 0.76960784
0.63382353 0.018137255 0.76041667
0.75343137 0.020281863 0.72941176
0.85098039 0.0039215686 0.72696078
0 0.35098039 0.87843137
0 0.3122549 0.89558824
0.016666667 0.29607843 0.89019608
0.1752451 0.25906863 0.87132353
0.37352941 0.25490196 0.84607843
0.54779412 0.2127451 0.82990196
0.6745098 0.18823529 0.80343137
0.78210784 0.098284314 0.78823529
0.86666667 0.045098039 0.76470588
0.0014705882 0.6122549 0.91666667
0 0.57941176 0.94509804
0.0072303922 0.57218137 0.9372549
0.16427696 0.57892157 0.91268382
0.41862745 0.55245098 0.90612745
0.58382353 0.53425245 0.87898284
0.72254902 0.52107843 0.85833333
0.8408701 0.50067402 0.83560049
0.89558824 0.42156863 0.84215686
0.0078431373 0.75 0.96470588
0.012622549 0.75343137 0.96470588
0.018627451 0.75784314 0.95588235
0.25098039 0.75330882 0.95968137
0.46323529 0.74754902 0.93284314
0.61078431 0.73284314 0.92291667
0.73431373 0.71495098 0.92230392
0.84987745 0.69166667 0.90257353
0.93137255 0.66470588 0.89607843
0.0078431373 0.8877451 0.97696078
0.023039216 0.89215686 0.98088235
0.10343137 0.89215686 0.98921569
0.35128676 0.8877451 0.9754902
0.50318627 0.88039216 0.97843137
0.63431373 0.87647059 0.96519608
0.75343137 0.87291667 0.95588235
0.86954657 0.86911765 0.93982843
0.96078431 0.84558824 0.9377451
0.1372549 0.97647059 0.99607843
0.24558824 0.99264706 1
0.32843137 0.98627451 0.99607843
0.42401961 0.97647059 0.99607843
0.5627451 0.98627451 0.99019608
0.69068627 0.96715686 0.96078431
0.7872549 0.96078431 0.96176471
0.88382353 0.96862745 0.96813725
0.98823529 0.99215686 0.98823529
