site/assets/luts/natron-haldclut--fuji-fp-3000b-negative-early--699ea479b.cube
# LUTr-Project: LUTr — LUTrepository
# LUTr-Schema-Version: 1
# LUTr-ID: natron-haldclut--fuji-fp-3000b-negative-early--699ea479b
# LUTr-Title: fuji fp-3000b negative early
# LUTr-Collection: Natron HaldCLUT
# LUTr-Collection-ID: natron-haldclut-presets
# LUTr-Source: https://github.com/NatronGitHub/clut
# LUTr-Source-File: submissions/natron-haldclut-presets/instant_pro/fuji_fp-3000b_negative_early.png
# LUTr-Source-Format: PNG
# LUTr-Source-SHA256: 741e18d86c101135dee5f099728a4827446635bfcdbf64e0df2eead034f3af7d
# LUTr-License: CC-BY-SA-4.0
# LUTr-License-URL: https://github.com/NatronGitHub/clut#license
# LUTr-Tags: creative, film, film-emulation, hald-clut, natron, png, cube
# LUTr-Transform-Class: film-emulation
# LUTr-Input-Color-Space: srgb
# LUTr-Output-Color-Space: srgb
# LUTr-Color-Space-Confidence: assumed-display-referred
# LUTr-Conversion-Method: PNG LUT image decoded at 16-bit and sampled to 25x25x25 3D CUBE
# LUTr-Conversion-Date: 2026-07-27
# LUTr-Conversion-Tool: LUTr scripts/convert-all-to-cube.mjs
# LUTr-Conversion-Grid: 25x25x25
# LUTr-Note: Preserve this metadata and the upstream license notices when redistributing.
TITLE "fuji fp-3000b negative early"
LUT_3D_SIZE 5
DOMAIN_MIN 0 0 0
DOMAIN_MAX 1 1 1
0.17647059 0.17647059 0.17647059
0.17647059 0.17647059 0.17647059
0.23921569 0.23921569 0.23921569
0.45098039 0.45098039 0.45098039
0.66666667 0.66666667 0.66666667
0.17647059 0.17647059 0.17647059
0.1875 0.1875 0.1875
0.30588235 0.30588235 0.30588235
0.49509804 0.49509804 0.49509804
0.68921569 0.68921569 0.68921569
0.34901961 0.34901961 0.34901961
0.31764706 0.31764706 0.31764706
0.44509804 0.44509804 0.44509804
0.62254902 0.62254902 0.62254902
0.73921569 0.73921569 0.73921569
0.62352941 0.62352941 0.62352941
0.60416667 0.60416667 0.60416667
0.62843137 0.62843137 0.62843137
0.71740196 0.71740196 0.71740196
0.78921569 0.78921569 0.78921569
0.79607843 0.79607843 0.79607843
0.79607843 0.79607843 0.79607843
0.8 0.8 0.8
0.81666667 0.81666667 0.81666667
0.83137255 0.83137255 0.83137255
0.19509804 0.19509804 0.19509804
0.19411765 0.19411765 0.19411765
0.29901961 0.29901961 0.29901961
0.49215686 0.49215686 0.49215686
0.68529412 0.68529412 0.68529412
0.20906863 0.20906863 0.20906863
0.22671569 0.22671569 0.22671569
0.34497549 0.34497549 0.34497549
0.53431373 0.53431373 0.53431373
0.70196078 0.70196078 0.70196078
0.43333333 0.43333333 0.43333333
0.42058824 0.42058824 0.42058824
0.49215686 0.49215686 0.49215686
0.63762255 0.63762255 0.63762255
0.74852941 0.74852941 0.74852941
0.66078431 0.66078431 0.66078431
0.64926471 0.64926471 0.64926471
0.67267157 0.67267157 0.67267157
0.72487745 0.72487745 0.72487745
0.79313725 0.79313725 0.79313725
0.81176471 0.81176471 0.81176471
0.80784314 0.80784314 0.80784314
0.8 0.8 0.8
0.82647059 0.82647059 0.82647059
0.83921569 0.83921569 0.83921569
0.37058824 0.37058824 0.37058824
0.40196078 0.40196078 0.40196078
0.50588235 0.50588235 0.50588235
0.60980392 0.60980392 0.60980392
0.7254902 0.7254902 0.7254902
0.39803922 0.39803922 0.39803922
0.43517157 0.43517157 0.43517157
0.52058824 0.52058824 0.52058824
0.62879902 0.62879902 0.62879902
0.74215686 0.74215686 0.74215686
0.52156863 0.52156863 0.52156863
0.54215686 0.54215686 0.54215686
0.59509804 0.59509804 0.59509804
0.68406863 0.68406863 0.68406863
0.73921569 0.73921569 0.73921569
0.71029412 0.71029412 0.71029412
0.71678922 0.71678922 0.71678922
0.7254902 0.7254902 0.7254902
0.75012255 0.75012255 0.75012255
0.80245098 0.80245098 0.80245098
0.80784314 0.80784314 0.80784314
0.81568627 0.81568627 0.81568627
0.80980392 0.80980392 0.80980392
0.82401961 0.82401961 0.82401961
0.84313725 0.84313725 0.84313725
0.65784314 0.65784314 0.65784314
0.65 0.65 0.65
0.71960784 0.71960784 0.71960784
0.74705882 0.74705882 0.74705882
0.75392157 0.75392157 0.75392157
0.67818627 0.67818627 0.67818627
0.68504902 0.68504902 0.68504902
0.7254902 0.7254902 0.7254902
0.7502451 0.7502451 0.7502451
0.7875 0.7875 0.7875
0.66764706 0.66764706 0.66764706
0.70183824 0.70183824 0.70183824
0.73333333 0.73333333 0.73333333
0.76078431 0.76078431 0.76078431
0.79705882 0.79705882 0.79705882
0.75416667 0.75416667 0.75416667
0.76685049 0.76685049 0.76685049
0.77022059 0.77022059 0.77022059
0.78664216 0.78664216 0.78664216
0.81960784 0.81960784 0.81960784
0.83137255 0.83137255 0.83137255
0.83529412 0.83529412 0.83529412
0.83921569 0.83921569 0.83921569
0.83921569 0.83921569 0.83921569
0.84313725 0.84313725 0.84313725
0.81568627 0.81568627 0.81568627
0.81960784 0.81960784 0.81960784
0.81960784 0.81960784 0.81960784
0.82745098 0.82745098 0.82745098
0.82745098 0.82745098 0.82745098
0.81176471 0.81176471 0.81176471
0.81568627 0.81568627 0.81568627
0.82745098 0.82745098 0.82745098
0.83602941 0.83602941 0.83602941
0.84215686 0.84215686 0.84215686
0.81960784 0.81960784 0.81960784
0.8 0.8 0.8
0.82745098 0.82745098 0.82745098
0.83529412 0.83529412 0.83529412
0.84705882 0.84705882 0.84705882
0.81666667 0.81666667 0.81666667
0.81764706 0.81764706 0.81764706
0.82990196 0.82990196 0.82990196
0.84240196 0.84240196 0.84240196
0.84705882 0.84705882 0.84705882
0.85490196 0.85490196 0.85490196
0.83921569 0.83921569 0.83921569
0.84117647 0.84117647 0.84117647
0.84313725 0.84313725 0.84313725
0.85490196 0.85490196 0.85490196
