site/assets/luts/natron-haldclut--kodak-elite-color-200--1b24ba60c.cube
# LUTr-Project: LUTr — LUTrepository
# LUTr-Schema-Version: 1
# LUTr-ID: natron-haldclut--kodak-elite-color-200--1b24ba60c
# LUTr-Title: kodak elite color 200
# LUTr-Collection: Natron HaldCLUT
# LUTr-Collection-ID: natron-haldclut-presets
# LUTr-Source: https://github.com/NatronGitHub/clut
# LUTr-Source-File: submissions/natron-haldclut-presets/negative_color/kodak_elite_color_200.png
# LUTr-Source-Format: PNG
# LUTr-Source-SHA256: cdfa5a4492e855ad22536c53e6f8132ab704dbde59e9e7ac694ff4310ed08f39
# LUTr-License: CC-BY-SA-4.0
# LUTr-License-URL: https://github.com/NatronGitHub/clut#license
# LUTr-Tags: creative, film, film-emulation, hald-clut, natron, png, cube
# LUTr-Transform-Class: film-emulation
# LUTr-Input-Color-Space: srgb
# LUTr-Output-Color-Space: srgb
# LUTr-Color-Space-Confidence: assumed-display-referred
# LUTr-Conversion-Method: PNG LUT image decoded at 16-bit and sampled to 25x25x25 3D CUBE
# LUTr-Conversion-Date: 2026-07-27
# LUTr-Conversion-Tool: LUTr scripts/convert-all-to-cube.mjs
# LUTr-Conversion-Grid: 25x25x25
# LUTr-Note: Preserve this metadata and the upstream license notices when redistributing.
TITLE "kodak elite color 200"
LUT_3D_SIZE 25
DOMAIN_MIN 0 0 0
DOMAIN_MAX 1 1 1
0.050980392 0.0078431373 0.015686275
0.050980392 0.0078431373 0.013235294
0.050980392 0.0039215686 0.010784314
0.073039216 0.01127451 0.01127451
0.10392157 0.023529412 0.011764706
0.13088235 0.031862745 0.011764706
0.16568627 0.042156863 0.015686275
0.19656863 0.048529412 0.019607843
0.22745098 0.047058824 0.023529412
0.25833333 0.030392157 0.044117647
0.29019608 0.019607843 0.057843137
0.32794118 0.016176471 0.044117647
0.36666667 0.011764706 0.023529412
0.41421569 0.021078431 0.020098039
0.46960784 0.051960784 0.034313725
0.525 0.065196078 0.039215686
0.57647059 0.047058824 0.035294118
0.62401961 0.030392157 0.028921569
0.6754902 0.057843137 0.049019608
0.72696078 0.08872549 0.069607843
0.77843137 0.092156863 0.07254902
0.82598039 0.077941176 0.066176471
0.8745098 0.081372549 0.070588235
0.91323529 0.12254902 0.10294118
0.96078431 0.10196078 0.082352941
0.050980392 0.024509804 0.019607843
0.050980392 0.024509804 0.018137255
0.058333333 0.024509804 0.018137255
0.079411765 0.024509804 0.01439951
0.10196078 0.026715686 0.011764706
0.12873775 0.031862745 0.0080269608
0.16286765 0.042156863 0.014705882
0.19656863 0.048529412 0.018688725
0.22745098 0.050980392 0.019607843
0.25833333 0.038296569 0.037745098
0.29411765 0.036887255 0.048529412
0.33382353 0.03872549 0.040196078
0.37377451 0.03995098 0.029901961
0.42028186 0.047058824 0.028308824
0.46960784 0.063235294 0.028921569
0.525 0.065196078 0.034313725
0.57647059 0.059803922 0.039215686
0.62794118 0.061703431 0.040196078
0.67941176 0.076348039 0.048406863
0.73088235 0.099509804 0.063541667
0.77965686 0.10220588 0.079901961
0.82971814 0.093627451 0.069117647
0.8745098 0.10343137 0.078921569
0.91568627 0.13376225 0.10386029
0.95294118 0.13039216 0.10294118
0.047058824 0.045098039 0.015686275
0.051593137 0.045098039 0.022058824
0.065686275 0.049019608 0.024264706
0.085416667 0.046446078 0.020098039
0.10588235 0.045098039 0.014705882
0.13186275 0.045098039 0.0091911765
0.16495098 0.05122549 0.022303922
0.19656863 0.05379902 0.020833333
0.22352941 0.054901961 0.010784314
0.26176471 0.055392157 0.025
0.30122549 0.061029412 0.035294118
0.33921569 0.064705882 0.039583333
0.38284314 0.071078431 0.039215686
0.42683824 0.073529412 0.034803922
0.47132353 0.073529412 0.022303922
0.52536765 0.080392157 0.032843137
0.58039216 0.088235294 0.047058824
0.63002451 0.092156863 0.043137255
0.67941176 0.097794118 0.043382353
0.73088235 0.10772059 0.058210784
0.78088235 0.11764706 0.069117647
0.82990196 0.12365196 0.078553922
0.8745098 0.13431373 0.093137255
0.91568627 0.15490196 0.11470588
0.94901961 0.15980392 0.11960784
0.047058824 0.062254902 0.012254902
0.05557598 0.065686275 0.022058824
0.075122549 0.069607843 0.023529412
0.092647059 0.069607843 0.019669118
0.10759804 0.065686275 0.01004902
0.13829657 0.069607843 0.015686275
0.17218137 0.072181373 0.019485294
0.20030637 0.073039216 0.019117647
0.23088235 0.076960784 0.018627451
0.26813725 0.081188725 0.025490196
0.3057598 0.086151961 0.034926471
0.34270833 0.092218137 0.042218137
0.38431373 0.096813725 0.040931373
0.42941176 0.1004902 0.035232843
0.47696078 0.10085784 0.037377451
0.52892157 0.10459559 0.038909314
0.58382353 0.10882353 0.043137255
0.63186275 0.11488971 0.050306373
0.68284314 0.12156863 0.055882353
0.73431373 0.13529412 0.07254902
0.78235294 0.14215686 0.079901961
0.83333333 0.15196078 0.08627451
0.8745098 0.16519608 0.10343137
0.91568627 0.18039216 0.12647059
0.94901961 0.19068627 0.13676471
0.047058824 0.084313725 0.0098039216
0.064460784 0.088235294 0.020098039
0.082352941 0.093137255 0.028921569
0.099019608 0.094362745 0.02622549
0.11666667 0.092156863 0.017647059
0.14460784 0.094362745 0.021568627
0.17745098 0.09754902 0.025
0.20833333 0.1 0.025490196
0.2372549 0.10392157 0.025490196
0.27254902 0.10710784 0.030637255
0.30882353 0.1122549 0.037745098
0.34534314 0.11544118 0.042647059
0.38431373 0.11960784 0.043137255
0.42990196 0.12377451 0.043382353
0.48137255 0.12745098 0.048039216
0.53284314 0.13137255 0.052941176
0.58431373 0.13529412 0.052941176
0.63578431 0.13970588 0.054166667
0.68676471 0.15 0.07254902
0.73676471 0.16029412 0.0875
0.78627451 0.16764706 0.090196078
0.8372549 0.1752451 0.087254902
0.87843137 0.19068627 0.10784314
0.91960784 0.20539216 0.12769608
0.95098039 0.21568627 0.14117647
0.071568627 0.11911765 0.020098039
0.077941176 0.11734069 0.022242647
0.093014706 0.12034314 0.037377451
0.10931373 0.12254902 0.032291667
0.12990196 0.11911765 0.02745098
0.15490196 0.12254902 0.027941176
0.18541667 0.12303922 0.031740196
0.2127451 0.12665441 0.031678922
0.23970588 0.12696078 0.027941176
0.27254902 0.13039216 0.031188725
0.30980392 0.13566176 0.03627451
0.34797794 0.13866422 0.039215686
0.38823529 0.14215686 0.042647059
0.43382353 0.14656863 0.047120098
0.48529412 0.15294118 0.053921569
0.53676471 0.15569853 0.059007353
0.58823529 0.16176471 0.059313725
0.63970588 0.16470588 0.059313725
0.69117647 0.17487745 0.072058824
0.73921569 0.18480392 0.085784314
0.79019608 0.19117647 0.090196078
0.83817402 0.19754902 0.090257353
0.88235294 0.21470588 0.10784314
0.92401961 0.22616422 0.12303922
0.95735294 0.23627451 0.13333333
0.092156863 0.15 0.02745098
0.099632353 0.14938725 0.02745098
0.10882353 0.14632353 0.028431373
0.11997549 0.14705882 0.02879902
0.13823529 0.14607843 0.02745098
0.16519608 0.14742647 0.031740196
0.19240196 0.15073529 0.038970588
0.21911765 0.15392157 0.038848039
0.24607843 0.15392157 0.034313725
0.2754902 0.15637255 0.032843137
0.31666667 0.1620098 0.03995098
0.35441176 0.16568627 0.043014706
0.39117647 0.16568627 0.043627451
0.4377451 0.17095588 0.050490196
0.48921569 0.17818627 0.060784314
0.54068627 0.18345588 0.067156863
0.59215686 0.18921569 0.069607843
0.64656863 0.19375 0.06629902
0.69509804 0.20196078 0.083088235
0.74571078 0.2122549 0.091789216
0.79411765 0.21666667 0.093137255
0.84154412 0.22120098 0.089828431
0.88602941 0.23823529 0.1122549
0.92855392 0.2504902 0.12279412
0.96764706 0.25686275 0.12647059
0.11666667 0.18088235 0.035294118
0.12303922 0.18088235 0.035294118
0.12941176 0.17696078 0.03247549
0.13609069 0.17696078 0.029227941
0.14656863 0.17303922 0.02622549
0.17371324 0.17696078 0.034007353
0.19914216 0.17879902 0.039215686
0.22702206 0.18088235 0.039215686
0.25637255 0.18480392 0.036764706
0.28970588 0.18780637 0.040134804
0.32696078 0.19264706 0.045220588
0.36599265 0.19607843 0.048529412
0.40686275 0.19852941 0.059068627
0.4504902 0.20098039 0.064705882
0.49852941 0.20735294 0.072058824
0.54852941 0.2122549 0.07689951
0.6 0.21862745 0.074509804
0.65294118 0.22346814 0.072058824
0.70294118 0.23284314 0.09252451
0.75196078 0.23970588 0.10471814
0.80073529 0.24754902 0.10269608
0.84656863 0.25588235 0.098223039
0.89019608 0.26617647 0.10882353
0.93137255 0.275 0.11819853
0.96862745 0.28137255 0.12303922
0.1372549 0.21568627 0.039215686
0.14117647 0.21176471 0.039215686
0.14215686 0.21176471 0.035294118
0.14509804 0.20784314 0.035294118
0.15294118 0.20588235 0.031372549
0.17794118 0.20392157 0.035294118
0.20588235 0.20784314 0.039215686
0.23578431 0.21176471 0.040686275
0.26666667 0.21568627 0.043137255
0.30147059 0.21813725 0.045588235
0.3372549 0.22058824 0.048039216
0.37843137 0.22696078 0.061764706
0.41960784 0.23137255 0.076470588
0.46470588 0.23186275 0.078431373
0.50882353 0.23529412 0.082352941
0.55637255 0.24068627 0.082352941
0.60784314 0.24705882 0.078431373
0.65931373 0.25343137 0.074509804
0.71078431 0.25980392 0.093137255
0.75833333 0.27009804 0.11323529
0.80588235 0.27843137 0.10588235
0.84901961 0.28627451 0.10245098
0.89411765 0.29313725 0.1127451
0.93529412 0.30343137 0.11911765
0.96862745 0.30980392 0.1254902
0.14509804 0.24656863 0.043137255
0.14754902 0.24656863 0.043137255
0.14754902 0.24448529 0.041666667
0.14901961 0.24264706 0.039215686
0.16323529 0.23872549 0.038480392
0.18560049 0.23480392 0.035294118
0.21164216 0.23811275 0.038602941
0.24215686 0.24019608 0.039767157
0.2745098 0.24264706 0.043137255
0.31029412 0.24901961 0.048590686
0.34656863 0.2504902 0.050980392
0.38265931 0.25410539 0.052267157
0.4247549 0.25710784 0.062254902
0.46862745 0.26011029 0.065992647
0.51519608 0.26617647 0.075
0.56366422 0.27401961 0.079901961
0.61421569 0.2754902 0.078431373
0.66660539 0.28039216 0.074509804
0.71654412 0.28823529 0.089093137
0.7627451 0.29852941 0.099019608
0.80906863 0.30735294 0.10343137
0.85294118 0.31372549 0.10637255
0.89595588 0.32218137 0.1127451
0.93921569 0.33039216 0.11911765
0.975 0.33823529 0.1254902
0.14901961 0.28137255 0.044117647
0.14901961 0.27843137 0.043137255
0.14901961 0.27745098 0.043137255
0.15245098 0.27487745 0.043137255
0.16911765 0.27205882 0.043137255
0.1932598 0.26960784 0.038848039
0.21691176 0.26960784 0.035294118
0.24571078 0.27107843 0.038602941
0.28333333 0.2745098 0.043137255
0.31813725 0.28026961 0.049509804
0.35392157 0.28235294 0.050980392
0.39117647 0.28235294 0.050980392
0.42843137 0.28284314 0.05
0.47401961 0.28970588 0.058333333
0.52328431 0.29705882 0.068627451
0.57303922 0.30490196 0.073897059
0.6245098 0.30490196 0.074509804
0.67205882 0.3067402 0.073529412
0.72181373 0.31764706 0.078431373
0.76752451 0.32794118 0.085294118
0.8127451 0.33823529 0.095098039
0.85784314 0.34460784 0.10147059
0.89901961 0.35269608 0.10784314
0.9435049 0.36127451 0.11421569
0.98333333 0.36764706 0.12156863
0.15245098 0.3122549 0.043137255
0.15245098 0.3122549 0.043137255
0.15245098 0.31090686 0.043137255
0.1528799 0.30833333 0.043137255
0.17426471 0.30441176 0.041176471
0.2004902 0.30392157 0.03872549
0.22414216 0.30392157 0.032720588
0.25490196 0.30569853 0.033333333
0.29362745 0.31176471 0.039705882
0.32843137 0.31599265 0.043627451
0.36335784 0.31960784 0.047058824
0.40147059 0.31960784 0.047058824
0.44044118 0.31960784 0.047058824
0.48731618 0.32401961 0.059313725
0.53578431 0.3317402 0.069117647
0.58676471 0.33707108 0.074203431
0.63480392 0.33921569 0.074509804
0.68235294 0.34185049 0.067156863
0.72990196 0.35196078 0.070710784
0.77745098 0.3622549 0.075
0.82132353 0.37254902 0.082843137
0.86427696 0.37935049 0.090747549
0.90931373 0.38578431 0.09754902
0.9504902 0.39215686 0.10735294
0.97696078 0.39852941 0.11764706
0.15098039 0.34705882 0.045098039
0.15220588 0.34509804 0.045098039
0.15294118 0.34509804 0.043137255
0.16004902 0.34509804 0.039460784
0.18235294 0.34411765 0.037254902
0.21078431 0.34117647 0.033088235
0.23676471 0.34117647 0.031372549
0.26789216 0.34509804 0.031372549
0.30392157 0.34901961 0.035294118
0.33602941 0.35294118 0.037254902
0.37009804 0.35686275 0.037745098
0.40808824 0.35882353 0.040931373
0.45490196 0.36078431 0.047058824
0.5004902 0.3629902 0.057843137
0.55 0.36813725 0.075
0.59754902 0.37328431 0.07622549
0.64509804 0.37647059 0.064705882
0.69264706 0.37965686 0.060784314
0.73921569 0.3872549 0.06127451
0.78431373 0.39754902 0.066421569
0.82941176 0.40490196 0.07254902
0.8745098 0.41397059 0.080882353
0.91568627 0.42058824 0.087254902
0.95343137 0.4254902 0.1002451
0.9745098 0.42941176 0.11176471
0.14852941 0.38235294 0.047058824
0.15147059 0.38235294 0.046752451
0.1622549 0.38235294 0.041666667
0.17297794 0.38235294 0.031372549
0.19264706 0.38235294 0.027205882
0.22107843 0.38235294 0.026960784
0.24889706 0.38235294 0.027328431
0.28118873 0.38627451 0.031066176
0.31421569 0.38970588 0.031372549
0.34509804 0.39019608 0.030882353
0.37598039 0.39105392 0.030882353
0.41856618 0.39405637 0.034803922
0.46911765 0.39803922 0.044607843
0.51617647 0.40147059 0.053982843
0.56421569 0.40453431 0.067279412
0.60784314 0.40931373 0.060294118
0.65490196 0.41323529 0.054411765
0.70030637 0.41746324 0.050796569
0.74656863 0.42242647 0.054411765
0.79411765 0.42935049 0.058333333
0.83970588 0.43872549 0.064215686
0.88088235 0.44509804 0.070588235
0.92169118 0.45147059 0.08125
0.95343137 0.45784314 0.095281863
0.97254902 0.46029412 0.10931373
0.15098039 0.41960784 0.047058824
0.16188725 0.41960784 0.041666667
0.1754902 0.41960784 0.032107843
0.18676471 0.41960784 0.024877451
0.20294118 0.41960784 0.018627451
0.22830882 0.42009804 0.017034314
0.2627451 0.42352941 0.022794118
0.29362745 0.42745098 0.02745098
0.32745098 0.42745098 0.02745098
0.35931373 0.43137255 0.02745098
0.39411765 0.42843137 0.02745098
0.43529412 0.4310049 0.028308824
0.48284314 0.43382353 0.032843137
0.52953431 0.43627451 0.037622549
0.5745098 0.43848039 0.045098039
0.61813725 0.44166667 0.041176471
0.66176471 0.44803922 0.040196078
0.70931373 0.45159314 0.044117647
0.75588235 0.45661765 0.047303922
0.80098039 0.46323529 0.051470588
0.84803922 0.46960784 0.053921569
0.89117647 0.47598039 0.060294118
0.92622549 0.48235294 0.074264706
0.95526961 0.48872549 0.092034314
0.97254902 0.49509804 0.10588235
0.16911765 0.45147059 0.037745098
0.18094363 0.45447304 0.031372549
0.19215686 0.45539216 0.025
0.20245098 0.45539216 0.015992647
0.21348039 0.45539216 0.0090686275
0.24362745 0.45949755 0.012254902
0.27634804 0.46323529 0.018627451
0.30784314 0.465625 0.022610294
0.34019608 0.46862745 0.025980392
0.37745098 0.46715686 0.023529412
0.41862745 0.46470588 0.023529412
0.45980392 0.46715686 0.023529412
0.50098039 0.46862745 0.022058824
0.54460784 0.46893382 0.022058824
0.5872549 0.47107843 0.024509804
0.63088235 0.47647059 0.025980392
0.67598039 0.48284314 0.029901961
0.72015931 0.48676471 0.033823529
0.76617647 0.49068627 0.038112745
0.81078431 0.49411765 0.041666667
0.85563725 0.49852941 0.045588235
0.89754902 0.50508578 0.051776961
0.9307598 0.51213235 0.067156863
0.95533088 0.51905637 0.084742647
0.97107843 0.52598039 0.1004902
0.19215686 0.48627451 0.02745098
0.20245098 0.48627451 0.023529412
0.21372549 0.49019608 0.014705882
0.22696078 0.49019608 0.0083333333
0.24313725 0.49019608 0.0078431373
0.26813725 0.49068627 0.011764706
0.29901961 0.49411765 0.015686275
0.32843137 0.4995098 0.019607843
0.36078431 0.50196078 0.023529412
0.4004902 0.50196078 0.023529412
0.44313725 0.50196078 0.02254902
0.48039216 0.50196078 0.019607843
0.52156863 0.50196078 0.017647059
0.5627451 0.50196078 0.011764706
0.60392157 0.50196078 0.011764706
0.64509804 0.50980392 0.017156863
0.69019608 0.51372549 0.023529412
0.73382353 0.51764706 0.02745098
0.77647059 0.52156863 0.031372549
0.82156863 0.5254902 0.035294118
0.8627451 0.52745098 0.037254902
0.90735294 0.53382353 0.043627451
0.93137255 0.54019608 0.060784314
0.95196078 0.54509804 0.073529412
0.96862745 0.54901961 0.082352941
0.21666667 0.52107843 0.017156863
0.22640931 0.52107843 0.013235294
0.24007353 0.52352941 0.0089460784
0.25735294 0.52107843 0.0078431373
0.27401961 0.52107843 0.0098039216
0.29901961 0.52126225 0.011764706
0.32634804 0.525 0.015686275
0.35441176 0.52892157 0.019607843
0.3877451 0.53039216 0.019607843
0.42346814 0.53376225 0.019607843
0.46372549 0.53676471 0.019607843
0.50098039 0.53676471 0.015870098
0.54215686 0.53676471 0.014460784
0.57941176 0.53284314 0.011764706
0.62058824 0.53284314 0.013602941
0.66231618 0.53823529 0.015686275
0.70686275 0.54460784 0.019607843
0.7495098 0.54852941 0.023529412
0.79129902 0.55245098 0.02745098
0.83431373 0.55588235 0.028921569
0.8754902 0.55710784 0.032107843
0.91372549 0.56047794 0.033333333
0.94129902 0.56360294 0.045098039
0.96525735 0.56715686 0.054473039
0.975 0.56960784 0.059313725
0.23823529 0.55588235 0.0068627451
0.25098039 0.55588235 0.0039215686
0.26764706 0.55588235 0.0078431373
0.28468137 0.55245098 0.0078431373
0.30490196 0.55196078 0.011764706
0.32941176 0.55196078 0.011764706
0.35392157 0.55490196 0.014705882
0.38345588 0.55698529 0.016789216
0.41470588 0.55980392 0.018627451
0.4495098 0.56372549 0.015686275
0.4875 0.56764706 0.015686275
0.52291667 0.56801471 0.014705882
0.5627451 0.56519608 0.011764706
0.6 0.56237745 0.011764706
0.6372549 0.5620098 0.015686275
0.67953431 0.56519608 0.015686275
0.72352941 0.57156863 0.019607843
0.76801471 0.57794118 0.019607843
0.80588235 0.58014706 0.022794118
0.84705882 0.58235294 0.026102941
0.8872549 0.58235294 0.026470588
0.9245098 0.58333333 0.025122549
0.95955882 0.58627451 0.021568627
0.97953431 0.59019608 0.030514706
0.98431373 0.59019608 0.033333333
0.26519608 0.58333333 0
0.27941176 0.58333333 0.0026348039
0.29852941 0.58333333 0.0040441176
0.31519608 0.58284314 0.0078431373
0.33578431 0.58284314 0.0098039216
0.35686275 0.58284314 0.011764706
0.38382353 0.58284314 0.012132353
0.41078431 0.58676471 0.015686275
0.44166667 0.5872549 0.015686275
0.47677696 0.59099265 0.013541667
0.51262255 0.59473039 0.011764706
0.54650735 0.59509804 0.011764706
0.58333333 0.59289216 0.011764706
0.62058824 0.59068627 0.011764706
0.65784314 0.59068627 0.012132353
0.696875 0.59246324 0.015686275
0.74411765 0.59901961 0.015686275
0.78529412 0.60294118 0.018321078
0.82205882 0.60686275 0.019607843
0.86029412 0.60686275 0.020036765
0.89754902 0.60686275 0.016176471
0.93480392 0.60686275 0.011764706
0.97303922 0.61029412 0.0053921569
0.99166667 0.61078431 0.0049019608
0.99166667 0.61078431 0.0088235294
0.29607843 0.6 0
0.31029412 0.60637255 0
0.32941176 0.60833333 0.0039215686
0.34828431 0.60980392 0.0056372549
0.36666667 0.61176471 0.0078431373
0.3877451 0.61151961 0.01004902
0.41176471 0.61127451 0.011764706
0.44019608 0.61372549 0.011764706
0.46862745 0.61764706 0.011764706
0.50465686 0.61887255 0.011764706
0.53872549 0.61960784 0.01127451
0.57107843 0.61960784 0.011519608
0.60392157 0.61960784 0.011764706
0.64068627 0.61764706 0.011764706
0.6754902 0.61568627 0.011764706
0.71568627 0.61838235 0.011764706
0.76078431 0.62352941 0.01372549
0.8 0.62745098 0.015686275
0.83480392 0.62892157 0.015686275
0.87058824 0.62745098 0.013970588
0.90882353 0.62745098 0.010784314
0.94681373 0.62745098 0.0056372549
0.97794118 0.63137255 0.00098039216
0.99362745 0.63137255 0.00073529412
0.99411765 0.62745098 0.0039215686
0.32696078 0.62058824 0
0.34148284 0.62696078 0
0.36066176 0.63235294 0.00098039216
0.38088235 0.63584559 0.0039215686
0.40147059 0.63627451 0.0056372549
0.41905637 0.63676471 0.0078431373
0.44264706 0.63933824 0.0078431373
0.47107843 0.6403799 0.01127451
0.4995098 0.64411765 0.01127451
0.53284314 0.64411765 0.009129902
0.56470588 0.64411765 0.0078431373
0.59558824 0.64411765 0.0078431373
0.62647059 0.64411765 0.0078431373
0.65784314 0.64411765 0.0078431373
0.69509804 0.64068627 0.0078431373
0.73363971 0.64430147 0.009129902
0.77745098 0.64852941 0.011764706
0.81439951 0.65196078 0.011764706
0.84656863 0.65196078 0.011764706
0.88088235 0.64803922 0.0082720588
0.91789216 0.64852941 0.0058823529
0.95042892 0.64895833 0.0039215686
0.97745098 0.65196078 0.0039215686
0.99215686 0.65196078 0.0039215686
0.99607843 0.64852941 0.0039215686
0.36078431 0.64117647 0
0.3745098 0.64754902 0
0.39509804 0.65612745 0.00024509804
0.41482843 0.65980392 0.0039215686
0.43235294 0.66078431 0.0039215686
0.45294118 0.66372549 0.0040441176
0.47352941 0.66446078 0.0071078431
0.50343137 0.66580882 0.0078431373
0.53039216 0.66764706 0.0078431373
0.56127451 0.66862745 0.0078431373
0.58921569 0.66764706 0.0078431373
0.61911765 0.66862745 0.0078431373
0.64705882 0.66862745 0.0078431373
0.67806373 0.6685049 0.0078431373
0.7127451 0.66764706 0.0078431373
0.75294118 0.66973039 0.0078431373
0.79411765 0.67254902 0.0078431373
0.82598039 0.67254902 0.0078431373
0.85686275 0.67254902 0.0078431373
0.88860294 0.66862745 0.0078431373
0.91960784 0.67254902 0.0044117647
0.94656863 0.67254902 0.0039215686
0.9745098 0.67254902 0.0039215686
0.99362745 0.67254902 0.0039215686
0.99607843 0.67254902 0.0039215686
0.39803922 0.66323529 0
0.40931373 0.66868873 0
0.42659314 0.67843137 0
0.44656863 0.68137255 0.0021446078
0.46323529 0.68259804 0.0024509804
0.48382353 0.68529412 0.0026348039
0.50441176 0.68921569 0.0039215686
0.53039216 0.68921569 0.0039215686
0.55980392 0.68921569 0.0039215686
0.58676471 0.68921569 0.0039215686
0.61372549 0.68921569 0.0039215686
0.64068627 0.68921569 0.0039215686
0.67156863 0.68921569 0.0039215686
0.70245098 0.69313725 0.0039215686
0.73333333 0.69313725 0.0039215686
0.77297794 0.69368873 0.0039215686
0.80539216 0.69705882 0.0039215686
0.83627451 0.69313725 0.0039215686
0.86507353 0.68884804 0.0039215686
0.89283088 0.6872549 0.0042279412
0.91960784 0.69044118 0.0039215686
0.94656863 0.69313725 0.0039215686
0.97561275 0.69313725 0.0028186275
0.9966299 0.69313725 0.0024509804
1 0.69313725 0.0039215686
0.42745098 0.68235294 0
0.43382353 0.68627451 0
0.45294118 0.69509804 0
0.46960784 0.69803922 0
0.48627451 0.69803922 0
0.50686275 0.70196078 0
0.52745098 0.70588235 0
0.55196078 0.70588235 0
0.57647059 0.70588235 0
0.60343137 0.70588235 0.0039215686
0.63039216 0.70588235 0.0039215686
0.65784314 0.70588235 0.0039215686
0.68823529 0.70588235 0
0.71911765 0.70980392 0
0.75392157 0.71372549 0
0.78480392 0.71372549 0
0.81176471 0.70980392 0
0.84019608 0.70588235 0.0039215686
0.86960784 0.70098039 0.0039215686
0.89705882 0.69754902 0.0039215686
0.92352941 0.70392157 0.0039215686
0.95 0.70588235 0.0034313725
0.97745098 0.70980392 0
1 0.71372549 0
1 0.70980392 0
0.047058824 0.011764706 0.032352941
0.047058824 0.010294118 0.031433824
0.051960784 0.006372549 0.026960784
0.073345588 0.011580882 0.030698529
0.10392157 0.021568627 0.034803922
0.13480392 0.031862745 0.036580882
0.16568627 0.039215686 0.039828431
0.19656863 0.043688725 0.042647059
0.22745098 0.036764706 0.046568627
0.25833333 0.026470588 0.048958333
0.29019608 0.015686275 0.060294118
0.33137255 0.01942402 0.052144608
0.37107843 0.023284314 0.046568627
0.41685049 0.037254902 0.049203431
0.47254902 0.059313725 0.057352941
0.525 0.071568627 0.062254902
0.57647059 0.054901961 0.062254902
0.62794118 0.044669118 0.061703431
0.67904412 0.059681373 0.071078431
0.72941176 0.084803922 0.08872549
0.77843137 0.093382353 0.094362745
0.82941176 0.094117647 0.092647059
0.87389706 0.098651961 0.1004902
0.91231618 0.12009804 0.12107843
0.94264706 0.1122549 0.11715686
0.047058824 0.028431373 0.03627451
0.049854473 0.027879902 0.034229473
0.058333333 0.027879902 0.031801471
0.079718137 0.027879902 0.031801471
0.10637255 0.029626225 0.034803922
0.13333333 0.033394608 0.034803922
0.16531863 0.041436887 0.03872549
0.19656863 0.047058824 0.042647059
0.22745098 0.044056373 0.042647059
0.25833333 0.03682598 0.047487745
0.29595588 0.038036152 0.054181985
0.33481158 0.041467525 0.054595588
0.37772672 0.046017157 0.052941176
0.4233992 0.057536765 0.056058517
0.47352941 0.073912377 0.056265319
0.525 0.074226409 0.059803922
0.57800245 0.070098039 0.066176471
0.62794118 0.068627451 0.066927083
0.67941176 0.078599877 0.075
0.73088235 0.098521752 0.085776654
0.78011642 0.10539216 0.096078431
0.82941176 0.1082644 0.095389093
0.87202819 0.11764706 0.10386029
0.91231618 0.13768382 0.12165288
0.94411765 0.13529412 0.11960784
0.047058824 0.049019608 0.03627451
0.053814338 0.051470588 0.039414828
0.065686275 0.052941176 0.039460784
0.085952819 0.051516544 0.03627451
0.10925245 0.04932598 0.035539216
0.13534007 0.049862132 0.035784314
