site/assets/luts/natron-haldclut--fuji3513-constlclip--7e1a62256.cube
# LUTr-Project: LUTr — LUTrepository
# LUTr-Schema-Version: 1
# LUTr-ID: natron-haldclut--fuji3513-constlclip--7e1a62256
# LUTr-Title: fuji3513 constlclip
# LUTr-Collection: Natron HaldCLUT
# LUTr-Collection-ID: natron-haldclut-presets
# LUTr-Source: https://github.com/NatronGitHub/clut
# LUTr-Source-File: submissions/natron-haldclut-presets/print/fuji3513_constlclip.png
# LUTr-Source-Format: PNG
# LUTr-Source-SHA256: d47b0695c7dd7daad815324cda8ce18f0640240e46fb0b6487c1ca1c35570add
# LUTr-License: CC-BY-SA-4.0
# LUTr-License-URL: https://github.com/NatronGitHub/clut#license
# LUTr-Tags: creative, film, film-emulation, hald-clut, natron, png, cube
# LUTr-Transform-Class: film-emulation
# LUTr-Input-Color-Space: srgb
# LUTr-Output-Color-Space: srgb
# LUTr-Color-Space-Confidence: assumed-display-referred
# LUTr-Conversion-Method: PNG LUT image decoded at 16-bit and sampled to 25x25x25 3D CUBE
# LUTr-Conversion-Date: 2026-07-27
# LUTr-Conversion-Tool: LUTr scripts/convert-all-to-cube.mjs
# LUTr-Conversion-Grid: 25x25x25
# LUTr-Note: Preserve this metadata and the upstream license notices when redistributing.
TITLE "fuji3513 constlclip"
LUT_3D_SIZE 9
DOMAIN_MIN 0 0 0
DOMAIN_MAX 1 1 1
0.0039215686 0.0039215686 0.011764706
0.02745098 0.023039216 0.023529412
0.067647059 0.026470588 0.015686275
0.17303922 0.041666667 0.010294118
0.3 0.074509804 0.015686275
0.38578431 0.074509804 0.0078431373
0.47941176 0.090196078 0.00098039216
0.4872549 0.086764706 0.023529412
0.52941176 0.10588235 0.023529412
0.026960784 0.046568627 0.03872549
0.031372549 0.042647059 0.030943627
0.088112745 0.053431373 0.024387255
0.19185049 0.072242647 0.017463235
0.32843137 0.097303922 0.012009804
0.44313725 0.11292892 0.0081495098
0.51372549 0.12058824 0.0078431373
0.54803922 0.12843137 0.015686275
0.575 0.14019608 0.015686275
0.019607843 0.081372549 0.050980392
0.020588235 0.088235294 0.043504902
0.088235294 0.10784314 0.031372549
0.23272059 0.13615196 0.0011029412
0.38235294 0.16029412 0.01372549
0.50294118 0.17781863 0.012377451
0.59019608 0.19705882 0.011764706
0.61764706 0.20490196 0.023651961
0.63137255 0.20882353 0.025490196
0.011764706 0.16421569 0.084803922
0.010294118 0.16795343 0.079595588
0.035416667 0.2060049 0.034436275
0.24699755 0.24754902 0.0039215686
0.43970588 0.27254902 0
0.57702206 0.29852941 0.0048406863
0.66176471 0.31176471 0.0050245098
0.69019608 0.31881127 0.01685049
0.71568627 0.34166667 0.019607843
0.0019607843 0.25098039 0.12156863
0.021568627 0.27254902 0.12352941
0.00049019608 0.30686275 0.087745098
0.26519608 0.37941176 0.0039215686
0.49803922 0.43333333 0.0039215686
0.65612745 0.4620098 0.020343137
0.74117647 0.475 0.01127451
0.77083333 0.48039216 0.02377451
0.79019608 0.49607843 0.01372549
0.0029411765 0.35588235 0.15833333
0.021568627 0.37910539 0.15863971
0.0049019608 0.42316176 0.11997549
0.3122549 0.51464461 0.023529412
0.55196078 0.58504902 0.010539216
0.72941176 0.63143382 0.00055147059
0.82205882 0.64411765 0.022058824
0.84509804 0.64540441 0.018137255
0.87205882 0.66715686 0.0029411765
0.02254902 0.40980392 0.18137255
0.0014705882 0.43296569 0.17414216
0.025735294 0.49681373 0.12843137
0.34227941 0.59656863 0.017647059
0.59656863 0.67009804 0.014705882
0.75490196 0.71617647 0.018137255
0.85906863 0.73651961 0.044117647
0.89901961 0.74705882 0.052083333
0.90686275 0.75098039 0.067647059
0.038235294 0.42892157 0.18921569
0.012683824 0.47843137 0.18523284
0.0035539216 0.54203431 0.088480392
0.3622549 0.63363971 0.015686275
0.60294118 0.70098039 0.0024509804
0.78946078 0.76139706 0.038051471
0.90343137 0.79007353 0.072058824
0.93051471 0.7966299 0.075
0.94166667 0.79656863 0.082843137
0 0.49411765 0.23137255
0.020588235 0.56764706 0.19460784
0.14509804 0.63529412 0.01372549
0.4245098 0.70539216 0.0039215686
0.65294118 0.74901961 0.011764706
0.8254902 0.78970588 0.04754902
0.92254902 0.81176471 0.068627451
0.96862745 0.82745098 0.093137255
0.98431373 0.83529412 0.1372549
0.015196078 0.015686275 0.030882353
0.023958333 0.015686275 0.027389706
0.071568627 0.030392157 0.030882353
0.18057598 0.032843137 0.016176471
0.32303922 0.044117647 0.01004902
0.42892157 0.058517157 0.015686275
0.50294118 0.070588235 0.0088235294
0.53333333 0.064705882 0.019117647
0.55196078 0.06372549 0.019607843
0.02310049 0.046078431 0.039215686
0.034803922 0.049946385 0.042593444
0.084635417 0.061979167 0.042647059
0.21519608 0.069914216 0.028270527
0.36516544 0.084313725 0.014185049
0.4810432 0.094776348 0.010516238
0.54906556 0.11331189 0.011994485
0.58676471 0.12376685 0.023529412
0.60680147 0.1254902 0.016176471
0.015686275 0.091789216 0.065196078
0.012576593 0.09286152 0.060906863
0.082261029 0.11363358 0.04754902
0.26029412 0.1370864 0.022457108
0.4247549 0.1528799 0.0039215686
0.54656863 0.18088235 0.023575368
0.62484681 0.18921569 0.0068627451
0.65862439 0.19056373 0.016283701
0.67892157 0.20441176 0.019607843
0.0078431373 0.17156863 0.1
0.0039828431 0.18177849 0.094791667
0.049754902 0.21420037 0.060248162
0.27958793 0.25637255 0.0090150123
0.48039216 0.29151348 0.0039215686
0.62470895 0.30692402 0.013235294
0.69980086 0.31141238 0.022640931
0.74019608 0.33409161 0.0099877451
0.75686275 0.34166667 0.029901961
0.021568627 0.28210784 0.14632353
0.012254902 0.28970588 0.14286152
0.0056372549 0.33627451 0.10900735
0.3 0.40916054 0.0052389706
0.53014706 0.44901961 0.0047794118
0.68988971 0.48048407 0.01372549
0.78002451 0.48890931 0.016666667
0.82126225 0.50566789 0.018106618
0.83455882 0.51764706 0.027205882
0.023835784 0.37665441 0.18627451
0.011106005 0.39443934 0.18137255
0.001026348 0.45196078 0.14658395
0.31905637 0.55412071 0.0081495098
0.57696078 0.61102941 0.020680147
0.75949755 0.65140165 0.015196078
0.86145833 0.66904105 0.0052696078
0.89640778 0.67990196 0.0051317402
0.91421569 0.69773284 0.040379902
0.026960784 0.43186275 0.21176471
0.019607843 0.45625 0.21461397
0.014552696 0.52303922 0.16253064
0.32735907 0.63204657 0.0053002451
0.61011029 0.70294118 0.014644608
0.80343137 0.75061275 0.038189338
0.90199142 0.76712623 0.062040441
0.9417739 0.77794118 0.07109375
0.95686275 0.78970588 0.083210784
0.01317402 0.46366422 0.2504902
0.0083333333 0.5020144 0.24786305
0.017784926 0.57676164 0.176731
0.34192708 0.68578431 0.020266544
0.64093137 0.75245098 0.016237745
0.83995098 0.79705882 0.033639706
0.93529412 0.81686581 0.071461397
0.97335325 0.82396599 0.095082721
0.98382353 0.82745098 0.096875
0.0088235294 0.51666667 0.31911765
0.018627451 0.59313725 0.31519608
0.039583333 0.65490196 0.23186275
0.40079657 0.74785539 0.17438725
0.66887255 0.80637255 0.14191176
0.86875 0.83235294 0.0020833333
0.99093137 0.86090686 0.0017156863
0.99558824 0.85833333 0.18002451
0.9995098 0.86568627 0.29558824
0 0.026470588 0.075490196
0.019117647 0.031372549 0.087254902
0.075490196 0.034313725 0.087254902
0.20294118 0.031372549 0.088235294
0.34852941 0.00098039216 0.075
0.4625 0.027941176 0.081985294
0.53823529 0.02745098 0.08627451
0.57598039 0.022058824 0.098406863
0.58431373 0.045098039 0.097058824
0.0078431373 0.057352941 0.088235294
0.016390931 0.053063725 0.091927083
0.083578431 0.064828431 0.095588235
0.24077819 0.069378064 0.095327819
0.41047794 0.040134804 0.080821078
0.54313725 0.01294424 0.071384804
0.6189951 0.019209559 0.070036765
0.65255821 0.019592525 0.074341299
0.67941176 0.015318627 0.073651961
0.012009804 0.11004902 0.11372549
0.013878676 0.11078431 0.11761642
0.069546569 0.12647059 0.12377451
0.27573529 0.15226716 0.11813725
0.46531863 0.1502451 0.093504902
0.62264093 0.10946691 0.073161765
0.71648284 0.085723039 0.046017157
0.74298407 0.10502451 0.052634804
0.76936275 0.10882353 0.058088235
0.0068627451 0.19313725 0.15526961
0.0078431373 0.20672488 0.15882353
0.020496324 0.22671569 0.14770221
0.30159314 0.27683824 0.12928922
0.52561275 0.3004902 0.098713235
0.70147059 0.30476409 0.061504289
0.79990809 0.29773284 0.00064338235
0.83566176 0.3067402 0.0021905637
0.84681373 0.3317402 0.036519608
0.0078431373 0.30637255 0.21176471
0.013051471 0.32273284 0.2127451
0.028431373 0.37352941 0.18737745
0.29221814 0.45281863 0.12003676
0.58063725 0.49142157 0.066421569
0.77745098 0.50189951 0.01752451
0.8754902 0.51715686 0.0023284314
0.9129902 0.52432598 0
0.93039216 0.54068627 0
0.0049019608 0.41127451 0.25735294
0.0054227941 0.43223039 0.25882353
0.010998775 0.49378064 0.25122549
0.26853554 0.60758272 0.10355392
0.62322304 0.67720588 0.0015931373
0.83901654 0.70643382 0.0047947304
0.93783701 0.71452206 0.0078431373
0.9734375 0.72023591 0.0021446078
0.98345588 0.73480392 0.00098039216
0.01372549 0.46740196 0.30073529
0.011519608 0.49249387 0.30113358
0.049938725 0.55563725 0.29338235
0.25291054 0.68416054 0.15992647
0.63676471 0.76617647 0.0051470588
0.8658701 0.80511642 0.0056985294
0.97867647 0.82242647 0.0087009804
0.99803922 0.83063725 0.017677696
0.99730392 0.83431373 0.080882353
0.012254902 0.5057598 0.35355392
0.015701593 0.53949142 0.35831801
0.00049019608 0.61188725 0.33443627
0.24212623 0.71974571 0.2551777
0.64215686 0.80343137 0.17383578
0.87723652 0.84705882 0.1359375
0.99754902 0.86510417 0.071231618
1 0.86617647 0.24257047
1 0.86617647 0.30698529
0.019607843 0.55490196 0.4127451
0.03247549 0.60931373 0.42696078
0.0073529412 0.68161765 0.41397059
0.33897059 0.77757353 0.38026961
0.65343137 0.83823529 0.38039216
0.87009804 0.87328431 0.34068627
0.98921569 0.89534314 0.34607843
1 0.89215686 0.39362745
1 0.89215686 0.46764706
0 0.059803922 0.14607843
0.0021446078 0.044607843 0.15998775
0.081862745 0.0078431373 0.19705882
0.22015931 0.015686275 0.20833333
0.36789216 0.0039215686 0.20906863
0.49221814 0.021078431 0.21856618
0.56568627 0.025980392 0.22156863
0.59019608 0.035294118 0.22696078
0.62745098 0.044607843 0.23333333
0.0037377451 0.086458333 0.16783088
0.010294118 0.077734375 0.17696078
0.080223652 0.071185662 0.22366728
0.25412071 0.06127451 0.2377451
0.42959559 0.02411152 0.24313725
0.56464461 0.013105086 0.24166667
0.64299939 0.014261642 0.2432598
0.67565104 0.020098039 0.25098039
0.7004902 0.0024509804 0.25784314
0.0068627451 0.14411765 0.20821078
0.0082107843 0.1435815 0.22147672
0.053737745 0.14445466 0.26341912
0.2821538 0.16807598 0.27941176
0.48069853 0.15 0.28688725
0.64682904 0.11946998 0.27979473
0.7346201 0.11262255 0.27840074
0.77095588 0.114231 0.28325674
0.78627451 0.12193627 0.27953431
0.0063112745 0.23039216 0.25784314
0.015686275 0.24039522 0.26923254
0.028553922 0.26770833 0.29938725
0.29224112 0.31891085 0.3277114
0.53627451 0.33060662 0.32867647
0.72361366 0.32941176 0.32087929
0.81585478 0.32979473 0.29473039
0.85226716 0.34166667 0.31028646
0.86317402 0.34901961 0.30140931
0.00073529412 0.35147059 0.32352941
0.0078431373 0.3645527 0.33250613
0.018137255 0.41666667 0.35275735
0.25003064 0.49852941 0.36571691
0.58504902 0.53860294 0.34129902
0.79411765 0.55465686 0.34831495
0.88915441 0.55441176 0.31795343
0.93161765 0.56651348 0.33422181
0.94117647 0.57696078 0.33970588
0.0093137255 0.46176471 0.38921569
0.004296875 0.47286305 0.39019608
0.019607843 0.5372549 0.40680147
0.19281556 0.66184896 0.39659161
0.60284926 0.71954657 0.37650123
0.8437117 0.75524663 0.36591605
0.95651042 0.76205576 0.32835478
0.99019608 0.77089461 0.32714461
0.99908088 0.78425245 0.35238971
0.0028186275 0.51568627 0.42205882
0.023039216 0.53962929 0.43645833
0.017677696 0.60784314 0.45542279
0.099586397 0.74897365 0.44198836
0.60931373 0.80925245 0.41721814
0.86133578 0.84823836 0.38030025
0.98235294 0.86724877 0.38676471
1 0.86678922 0.40719975
1 0.86973039 0.43370098
0.0080269608 0.55900735 0.48792892
0.0044117647 0.58578431 0.4973652
0.0011029412 0.65770527 0.52057292
0.12694547 0.784375 0.51358762
0.5986826 0.84598652 0.49142157
0.86078431 0.88676471 0.46892616
0.97976409 0.90767463 0.48391544
1 0.90735294 0.50238971
1 0.90490196 0.54852941
0.0093137255 0.60245098 0.54705882
0.009129902 0.66770833 0.58553922
0.0029411765 0.72990196 0.60269608
0.25784314 0.81672794 0.60202206
0.62892157 0.87230392 0.59093137
0.85343137 0.90588235 0.57285539
0.97892157 0.92757353 0.58272059
1 0.93155637 0.621875
1 0.92794118 0.63823529
0.0039215686 0.11372549 0.23137255
0.0056372549 0.10416667 0.2254902
0.085784314 0 0.31078431
0.23259804 0.0078431373 0.34191176
0.37941176 0.02254902 0.34313725
0.51715686 0.028676471 0.35833333
0.59215686 0.041176471 0.36372549
0.6245098 0.041176471 0.37328431
0.63137255 0.039215686 0.37254902
0.0019607843 0.13308824 0.25833333
0.0058823529 0.13063725 0.26939338
0.075735294 0.036519608 0.36262255
0.25735294 0.038296569 0.39240196
0.44387255 0.006495098 0.40208333
0.58137255 0.010876225 0.40416667
0.65778186 0.018382353 0.40349265
0.6926777 0.020802696 0.41323529
0.71004902 0.016176471 0.42843137
0.0034313725 0.20343137 0.31715686
0.0058823529 0.1997549 0.34019608
0.030392157 0.17463235 0.38835784
0.25704657 0.17506127 0.45343137
0.49583333 0.17573529 0.46936275
0.65882353 0.13553922 0.46862745
0.7442402 0.11139706 0.46862745
0.77824755 0.1098652 0.47254902
0.79803922 0.13039216 0.48823529
0.0098039216 0.28578431 0.38137255
0.015349265 0.29175858 0.39558824
0.026654412 0.31072304 0.45490196
0.25079657 0.33995098 0.51547181
0.54485294 0.35980392 0.52990196
0.73207721 0.35490196 0.52843137
0.82218137 0.35177696 0.52892157
0.85554534 0.35931373 0.53676471
0.87156863 0.38235294 0.54607843
0.0049019608 0.40196078 0.45294118
0.028063725 0.41360294 0.46078431
0.024264706 0.46470588 0.51078431
0.20845588 0.53811275 0.57757353
0.56715686 0.57254902 0.58235294
0.79093137 0.58884804 0.58431373
0.88578431 0.59460784 0.58431373
0.92598039 0.60134804 0.58639706
0.93921569 0.61764706 0.59215686
0.011764706 0.51421569 0.51985294
0.0039215686 0.52941176 0.52950368
0.012254902 0.59240196 0.56795343
0.087040441 0.71397059 0.6213848
0.58235294 0.76764706 0.6185049
0.82990196 0.7955576 0.625
0.94607843 0.80147059 0.62487745
0.98587623 0.81038603 0.61896446
0.99117647 0.81789216 0.63088235
0.0034313725 0.56568627 0.55882353
0.0022058824 0.59681373 0.57530637
0.0034313725 0.66433824 0.61323529
0.074264706 0.78425245 0.66115196
0.58210784 0.85465686 0.66176471
0.84564951 0.89430147 0.6620098
0.96911765 0.90980392 0.66629902
1 0.91109069 0.67481618
1 0.90588235 0.68823529
0.0022058824 0.60441176 0.60245098
0 0.65098039 0.63599877
0.00091911765 0.71960784 0.66856618
0.08192402 0.81632966 0.71838235
0.57659314 0.88566176 0.72254902
0.83177083 0.92533701 0.72270221
0.96096814 0.9432598 0.72426471
1 0.94512868 0.72604167
1 0.93970588 0.73627451
0 0.65686275 0.66470588
0 0.70588235 0.70563725
0 0.76421569 0.74117647
0.10735294 0.84926471 0.77181373
0.58627451 0.90196078 0.77745098
0.83235294 0.93995098 0.77843137
0.96127451 0.95882353 0.77941176
0.99632353 0.96053922 0.78627451
1 0.95882353 0.79607843
0 0.13627451 0.27892157
0.011948529 0.14136029 0.29871324
0.066666667 0.010784314 0.40416667
0.22794118 0.0069240196 0.44123775
0.38872549 0.02622549 0.45465686
0.52346814 0.035294118 0.46617647
0.60318627 0.036151961 0.47426471
0.63039216 0.03560049 0.48204657
0.64558824 0.033823529 0.49068627
0 0.17481618 0.33155637
0.0039215686 0.17481618 0.35071232
0.06317402 0.032689951 0.48048407
0.26329657 0.0014705882 0.53002451
0.4495098 0.0089154412 0.54289216
0.59656863 0.0058823529 0.54166667
0.67218137 0.018627451 0.54656863
0.70634957 0.020159314 0.55998775
0.7254902 0.015379902 0.57089461
0.0018382353 0.23664216 0.39607843
0 0.24019608 0.42193627
0.0044117647 0.21443015 0.47806373
0.25433517 0.16372549 0.59963235
0.49552696 0.16176471 0.62126225
0.66029412 0.13339461 0.62970282
0.75321691 0.1004902 0.62855392
0.78933824 0.12058824 0.64054841
0.80196078 0.13970588 0.65036765
0.011213235 0.32555147 0.46966912
0.0041130515 0.32990962 0.48922335
0.013985907 0.34313725 0.5636489
0.22947304 0.3528799 0.67177543
0.53823529 0.37254902 0.69825368
0.72444853 0.37704504 0.70824908
0.81862745 0.36605392 0.70859375
0.86109835 0.38157169 0.71140472
0.8754902 0.3966299 0.71813725
0.030637255 0.43872549 0.54607843
0.015594363 0.45980392 0.56764706
0.039215686 0.48719363 0.61329657
0.096936275 0.56865809 0.74460784
0.55171569 0.59963235 0.76335784
0.77794118 0.61547181 0.76001838
0.88578431 0.6158701 0.76397059
0.92598039 0.62196691 0.7752451
0.94117647 0.64852941 0.78112745
0.016237745 0.55098039 0.61464461
0.01294424 0.57383578 0.6341299
0.013893995 0.634375 0.68964461
0.060071998 0.7375383 0.77843137
0.54120711 0.7919424 0.80098039
0.81574755 0.81790748 0.81029412
0.93921569 0.83051471 0.81029412
0.97977175 0.84516697 0.81557138
0.98578431 0.84803922 0.82696078
0.028921569 0.60637255 0.65637255
0.010248162 0.63026961 0.6754902
0.0016237745 0.69341299 0.72181373
0.059160539 0.8064951 0.80845588
0.5341299 0.88033088 0.83449755
0.82280944 0.9178462 0.84348958
0.95303309 0.93511029 0.84607843
0.99264706 0.94028799 0.84839154
1 0.94252451 0.86029412
0.016053922 0.6317402 0.68186275
0.00049019608 0.66828278 0.70931373
0.025965074 0.73488051 0.7620864
0.057077206 0.83615962 0.8414905
0.53768382 0.91158088 0.86969975
0.82696078 0.95360754 0.87794118
0.96038603 0.97040441 0.87789522
0.99264706 0.97432598 0.88752298
1 0.97273284 0.88302696
0.014215686 0.67696078 0.72941176
0.0058823529 0.71795343 0.76648284
0.00098039216 0.77806373 0.81519608
0.054840686 0.86127451 0.875
0.56078431 0.92230392 0.89068627
0.82058824 0.96133578 0.90392157
0.95735294 0.98039216 0.90490196
0.98854167 0.98186275 0.91029412
1 0.98431373 0.93088235
0 0.1754902 0.34509804
0.0039215686 0.16862745 0.36348039
0.060539216 0.020343137 0.46348039
0.23578431 0.014215686 0.51593137
0.39313725 0.031372549 0.53137255
0.54203431 0.051838235 0.56029412
0.60294118 0.050980392 0.54485294
0.65098039 0.044117647 0.56960784
0.65490196 0.043137255 0.56666667
0 0.21090686 0.39607843
0.00012254902 0.20392157 0.41386336
0.046783088 0.025857843 0.5544424
0.25992647 0.0039215686 0.61429228
0.45765931 0.01004902 0.63357843
0.5977788 0.01997549 0.63632047
0.68229167 0.012867647 0.63970588
0.71420037 0.015701593 0.65098039
0.73970588 0.0013480392 0.66715686
0 0.26176471 0.45171569
0.0038296569 0.25392157 0.47202819
0.0095588235 0.24969363 0.53229167
0.25821078 0.16838235 0.69154412
0.50404412 0.1629902 0.72071078
0.6745098 0.12760417 0.72987132
0.75778186 0.10183824 0.73351716
0.79356618 0.11130515 0.7372549
0.81004902 0.13161765 0.74681373
0.0078431373 0.34803922 0.52205882
0.002098652 0.35188419 0.53872549
0.016023284 0.36482843 0.62717525
0.2251685 0.36539522 0.76352635
0.53186275 0.38161765 0.79613971
0.72288603 0.38255208 0.80686275
0.82254902 0.3658701 0.80686275
0.86211703 0.3926011 0.81162684
0.87340686 0.4 0.81862745
0.016666667 0.46764706 0.60392157
0.0088235294 0.48278186 0.6245098
0.041789216 0.51556373 0.67585784
0.087622549 0.57689951 0.82689951
0.53627451 0.61372549 0.86078431
0.77144608 0.62971814 0.87254902
0.88431373 0.62720588 0.87340686
0.92205882 0.63933824 0.88106618
0.9372549 0.65490196 0.88284314
0.015686275 0.57193627 0.66556373
0.026960784 0.59469975 0.69166667
0.020006127 0.64656863 0.74448529
0.06182598 0.74810049 0.85055147
0.52377451 0.80692402 0.90324755
0.81084559 0.84056373 0.92107843
0.93860294 0.85465686 0.92490809
0.97058824 0.85147059 0.92120098
0.97977941 0.85330882 0.92794118
0.016666667 0.62083333 0.7
0.0097732843 0.64840686 0.72683824
0.027267157 0.70882353 0.78039216
0.036764706 0.81862745 0.87598039
0.52463235 0.8997549 0.92242647
0.80658701 0.93511029 0.93710172
0.94338235 0.94779412 0.93995098
0.98927696 0.95490196 0.94313725
1 0.96960784 0.9502451
0.035906863 0.6372549 0.71262255
0.016758578 0.67961091 0.75413603
0.035753676 0.74276961 0.81133578
0.043351716 0.84558824 0.89817708
0.52040441 0.92316176 0.94368873
0.8149663 0.9652114 0.95784314
0.94754902 0.97846201 0.95147059
0.98823529 0.98432904 0.95882353
1 0.98480392 0.96176471
0.019607843 0.6745098 0.75196078
0.012745098 0.72757353 0.79914216
0.017647059 0.79093137 0.85465686
0.050735294 0.87512255 0.9314951
0.52598039 0.92745098 0.95
0.79313725 0.96617647 0.95784314
0.93627451 0.98529412 0.96740196
0.98823529 0.99178922 0.96960784
0.99607843 0.98823529 0.96568627
0 0.1877451 0.36813725
0.00049019608 0.1877451 0.39607843
0.058210784 0.022916667 0.49656863
0.24552696 0.0082107843 0.57830882
0.41519608 0.0095588235 0.58921569
0.56703431 0.027267157 0.62193627
0.63394608 0.046568627 0.61286765
0.66960784 0.056066176 0.61917892
0.67941176 0.054901961 0.625
0 0.23131127 0.43082108
0.0039215686 0.22663909 0.44656863
0.0029718137 0.20632659 0.49929534
0.263894 0.0022671569 0.67220435
0.46966912 0.015410539 0.69335172
0.62438725 0.027182904 0.69705882
0.70330882 0.022778799 0.69840686
0.74036458 0.023958333 0.709375
0.75245098 0.035784314 0.72064951
0 0.28088235 0.48566176
0 0.27708333 0.49738051
0.01161152 0.26320466 0.57598039
0.24463848 0.1872549 0.73123468
0.49901961 0.18915441 0.76740196
0.67887561 0.14972426 0.78230699
0.76969975 0.1333027 0.78676471
0.80605086 0.13065257 0.79160539
0.82156863 0.16568627 0.80245098
0.0039215686 0.36685049 0.54901961
0.0081495098 0.37424173 0.56783088
0.018795956 0.38431373 0.65963542
0.19601716 0.37909773 0.79434743
0.51617647 0.39601716 0.83783701
0.72157629 0.39737286 0.85134038
0.82688419 0.38970588 0.8589614
0.86464461 0.39702053 0.86292892
0.87941176 0.41666667 0.87058824
0.013970588 0.47867647 0.62745098
0.023529412 0.49537377 0.64874387
0.023039216 0.53204657 0.71421569
0.083639706 0.58949142 0.8661152
0.53198529 0.6189951 0.90036765
0.76764706 0.63152574 0.91485907
0.88235294 0.63976716 0.91813725
0.92181373 0.65122549 0.92401961
0.93529412 0.6629902 0.92965686
0.023345588 0.58155637 0.68596814
0.04207261 0.60637255 0.71096814
0.019240196 0.65940564 0.77242647
0.043558517 0.75363051 0.88197763
0.51614583 0.81390931 0.94117647
0.7917356 0.84472273 0.95618873
0.93445159 0.85723039 0.9652114
0.96966912 0.85991115 0.96429994
0.98057598 0.87647059 0.9653799
0.0039215686 0.63529412 0.72169118
0.0039215686 0.65931373 0.74473039
0.0015931373 0.71666667 0.79901961
0.028416054 0.82334559 0.90111826
0.51366422 0.9036152 0.95949755
0.79669118 0.94031863 0.97336091
0.93789828 0.95490196 0.97849265
0.98555453 0.96311275 0.98431373
0.99607843 0.96911765 0.98431373
0.044669118 0.64460784 0.72738971
0.0039215686 0.68670343 0.76905637
0.0082873775 0.74759498 0.82297794
0.018321078 0.84797794 0.9185432
0.51060049 0.92552083 0.96495098
0.80441176 0.96617647 0.9785386
0.9504902 0.98480392 0.98915441
0.98463542 0.98823529 0.98823529
0.99607843 0.98431373 0.98829657
0.0073529412 0.68186275 0.76421569
0.025735294 0.73805147 0.81697304
0.0099264706 0.78235294 0.85686275
0.057536765 0.87218137 0.93982843
0.51887255 0.93137255 0.96862745
0.79675245 0.97224265 0.98216912
0.94705882 0.98823529 0.99215686
0.97696078 0.99221814 0.99215686
1 0.99656863 0.99264706
0 0.2 0.39215686
0 0.2 0.41960784
0.056862745 0.026470588 0.5754902
0.27058824 0.006372549 0.67598039
0.44901961 0.0039215686 0.66470588
0.58970588 0.024509804 0.65588235
0.67843137 0.033333333 0.6745098
0.70980392 0.030392157 0.67892157
0.70980392 0.031372549 0.6745098
0 0.25 0.45784314
0 0.24699755 0.46911765
0.026470588 0.25134804 0.53223039
0.27352941 0.094178922 0.7151348
0.48578431 0.10098039 0.7495098
0.65802696 0.00049019608 0.76519608
0.73909314 0.013357843 0.76004902
0.77242647 0.033455882 0.76109069
0.80245098 0.037745098 0.79362745
0 0.29705882 0.50490196
0 0.31041667 0.53051471
0.0075980392 0.28063725 0.59705882
0.22426471 0.23039216 0.76090686
0.50147059 0.24558824 0.79705882
0.68272059 0.21593137 0.8120098
0.78431373 0.19705882 0.81838235
0.82156863 0.20330882 0.8245098
0.8372549 0.2372549 0.8372549
0.014215686 0.3745098 0.56029412
0.010294118 0.39148284 0.58872549
0.012377451 0.40588235 0.67830882
0.19552696 0.40882353 0.82352941
0.52598039 0.42303922 0.85980392
0.72653186 0.41715686 0.86856618
0.83247549 0.42071078 0.88039216
0.87205882 0.41942402 0.88118873
0.88872549 0.46029412 0.89264706
0.049019608 0.48627451 0.63333333
0.022794118 0.50367647 0.65980392
0.0083333333 0.5377451 0.72205882
0.059313725 0.59460784 0.86764706
0.53333333 0.63529412 0.9127451
0.77401961 0.64509804 0.92818627
0.88970588 0.64019608 0.93529412
0.92769608 0.65931373 0.9372549
0.93529412 0.66862745 0.93921569
0.0093137255 0.5872549 0.69558824
0.015196078 0.60998775 0.72224265
0.0058823529 0.66127451 0.77928922
0.029718137 0.75441176 0.89270833
0.5002451 0.81813725 0.95245098
0.78915441 0.8504902 0.96917892
0.925 0.85441176 0.97401961
0.96617647 0.85851716 0.97432598
0.97794118 0.8622549 0.9754902
0.042156863 0.63529412 0.7254902
0.0078431373 0.65931373 0.75208333
0.028431373 0.71960784 0.80686275
0.031127451 0.82830882 0.90968137
0.48088235 0.90441176 0.96715686
0.79522059 0.93284314 0.98039216
0.93995098 0.95416667 0.99215686
0.98088235 0.96176471 0.99215686
0.99215686 0.95392157 0.99215686
0 0.64460784 0.73088235
0.0074142157 0.690625 0.77303922
0.0013480392 0.74791667 0.82647059
0.055085784 0.85079657 0.92107843
0.50833333 0.9252451 0.97083333
0.79852941 0.96617647 0.98578431
0.93235294 0.98431373 0.99607843
0.9838848 0.98823529 0.99607843
0.99607843 0.98039216 0.99607843
0 0.68627451 0.77254902
0.0049019608 0.7504902 0.82941176
0.037254902 0.79313725 0.86862745
0.046568627 0.8754902 0.94509804
0.52745098 0.93137255 0.97254902
0.77107843 0.96862745 0.98823529
0.93823529 0.99215686 1
0.97303922 0.99607843 1
0.99607843 1 1
