site/assets/luts/natron-haldclut--rollei-retro-100-tonal--40a1dc808.cube
# LUTr-Project: LUTr — LUTrepository
# LUTr-Schema-Version: 1
# LUTr-ID: natron-haldclut--rollei-retro-100-tonal--40a1dc808
# LUTr-Title: rollei retro 100 tonal
# LUTr-Collection: Natron HaldCLUT
# LUTr-Collection-ID: natron-haldclut-presets
# LUTr-Source: https://github.com/NatronGitHub/clut
# LUTr-Source-File: submissions/natron-haldclut-presets/bw/rollei_retro_100_tonal.png
# LUTr-Source-Format: PNG
# LUTr-Source-SHA256: d2b55c51fb7df245b68c30958b32ac4bcf6e8502200475795eb3a8f230d7a9d6
# LUTr-License: CC-BY-SA-4.0
# LUTr-License-URL: https://github.com/NatronGitHub/clut#license
# LUTr-Tags: creative, film, film-emulation, hald-clut, natron, png, vintage, cube
# LUTr-Transform-Class: film-emulation
# LUTr-Input-Color-Space: srgb
# LUTr-Output-Color-Space: srgb
# LUTr-Color-Space-Confidence: assumed-display-referred
# LUTr-Conversion-Method: PNG LUT image decoded at 16-bit and sampled to 25x25x25 3D CUBE
# LUTr-Conversion-Date: 2026-07-27
# LUTr-Conversion-Tool: LUTr scripts/convert-all-to-cube.mjs
# LUTr-Conversion-Grid: 25x25x25
# LUTr-Note: Preserve this metadata and the upstream license notices when redistributing.
TITLE "rollei retro 100 tonal"
LUT_3D_SIZE 25
DOMAIN_MIN 0 0 0
DOMAIN_MAX 1 1 1
0.058823529 0.058823529 0.058823529
0.058823529 0.058823529 0.058823529
0.062745098 0.062745098 0.062745098
0.062745098 0.062745098 0.062745098
0.058823529 0.058823529 0.058823529
0.058823529 0.058823529 0.058823529
0.058823529 0.058823529 0.058823529
0.060294118 0.060294118 0.060294118
0.058823529 0.058823529 0.058823529
0.056372549 0.056372549 0.056372549
0.050980392 0.050980392 0.050980392
0.050980392 0.050980392 0.050980392
0.056862745 0.056862745 0.056862745
0.062745098 0.062745098 0.062745098
0.066666667 0.066666667 0.066666667
0.070588235 0.070588235 0.070588235
0.070588235 0.070588235 0.070588235
0.070588235 0.070588235 0.070588235
0.070588235 0.070588235 0.070588235
0.070588235 0.070588235 0.070588235
0.064705882 0.064705882 0.064705882
0.05 0.05 0.05
0.033333333 0.033333333 0.033333333
0.028921569 0.028921569 0.028921569
0.035294118 0.035294118 0.035294118
0.079411765 0.079411765 0.079411765
0.079411765 0.079411765 0.079411765
0.079411765 0.079411765 0.079411765
0.079411765 0.079411765 0.079411765
0.075490196 0.075490196 0.075490196
0.071568627 0.071568627 0.071568627
0.071568627 0.071568627 0.071568627
0.071568627 0.071568627 0.071568627
0.067647059 0.067647059 0.067647059
0.062193627 0.062193627 0.062193627
0.052818627 0.052818627 0.052818627
0.050490196 0.050490196 0.050490196
0.059313725 0.059313725 0.059313725
0.06942402 0.06942402 0.06942402
0.074877451 0.074877451 0.074877451
0.080882353 0.080882353 0.080882353
0.083333333 0.083333333 0.083333333
0.087254902 0.087254902 0.087254902
0.087254902 0.087254902 0.087254902
0.087254902 0.087254902 0.087254902
0.081372549 0.081372549 0.081372549
0.069301471 0.069301471 0.069301471
0.05870098 0.05870098 0.05870098
0.058333333 0.058333333 0.058333333
0.058333333 0.058333333 0.058333333
0.10490196 0.10490196 0.10490196
0.10392157 0.10392157 0.10392157
0.10392157 0.10392157 0.10392157
0.10134804 0.10134804 0.10134804
0.098529412 0.098529412 0.098529412
0.095710784 0.095710784 0.095710784
0.092156863 0.092156863 0.092156863
0.092156863 0.092156863 0.092156863
0.088235294 0.088235294 0.088235294
0.08247549 0.08247549 0.08247549
0.078186275 0.078186275 0.078186275
0.073529412 0.073529412 0.073529412
0.078921569 0.078921569 0.078921569
0.088235294 0.088235294 0.088235294
0.094362745 0.094362745 0.094362745
0.1 0.1 0.1
0.10392157 0.10392157 0.10392157
0.10637255 0.10637255 0.10637255
0.10784314 0.10784314 0.10784314
0.10784314 0.10784314 0.10784314
0.10441176 0.10441176 0.10441176
0.092647059 0.092647059 0.092647059
0.089215686 0.089215686 0.089215686
0.093504902 0.093504902 0.093504902
0.089215686 0.089215686 0.089215686
0.13186275 0.13186275 0.13186275
0.12843137 0.12843137 0.12843137
0.12794118 0.12794118 0.12794118
0.12493873 0.12493873 0.12493873
0.12058824 0.12058824 0.12058824
0.11666667 0.11666667 0.11666667
0.11372549 0.11372549 0.11372549
0.1127451 0.1127451 0.1127451
0.1127451 0.1127451 0.1127451
0.11439951 0.11439951 0.11439951
0.10784314 0.10784314 0.10784314
0.10441176 0.10441176 0.10441176
0.10833333 0.10833333 0.10833333
0.10882353 0.10882353 0.10882353
0.1127451 0.1127451 0.1127451
0.11813725 0.11813725 0.11813725
0.12107843 0.12107843 0.12107843
0.1245098 0.1245098 0.1245098
0.12843137 0.12843137 0.12843137
0.12843137 0.12843137 0.12843137
0.12647059 0.12647059 0.12647059
0.12009804 0.12009804 0.12009804
0.12009804 0.12009804 0.12009804
0.12953431 0.12953431 0.12953431
0.12009804 0.12009804 0.12009804
0.15686275 0.15686275 0.15686275
0.15490196 0.15490196 0.15490196
0.15245098 0.15245098 0.15245098
0.14926471 0.14926471 0.14926471
0.14509804 0.14509804 0.14509804
0.14093137 0.14093137 0.14093137
0.1372549 0.1372549 0.1372549
0.13333333 0.13333333 0.13333333
0.13333333 0.13333333 0.13333333
0.13676471 0.13676471 0.13676471
0.13333333 0.13333333 0.13333333
0.13504902 0.13504902 0.13504902
0.13529412 0.13529412 0.13529412
0.13529412 0.13529412 0.13529412
0.13529412 0.13529412 0.13529412
0.1372549 0.1372549 0.1372549
0.14117647 0.14117647 0.14117647
0.14313725 0.14313725 0.14313725
0.14509804 0.14509804 0.14509804
0.14509804 0.14509804 0.14509804
0.14803922 0.14803922 0.14803922
0.14705882 0.14705882 0.14705882
0.14705882 0.14705882 0.14705882
0.1504902 0.1504902 0.1504902
0.14705882 0.14705882 0.14705882
0.18186275 0.18186275 0.18186275
0.18155637 0.18155637 0.18155637
0.17745098 0.17745098 0.17745098
0.17352941 0.17352941 0.17352941
0.16789216 0.16789216 0.16789216
0.16219363 0.16219363 0.16219363
0.15882353 0.15882353 0.15882353
0.15392157 0.15392157 0.15392157
0.15392157 0.15392157 0.15392157
0.15441176 0.15441176 0.15441176
0.15833333 0.15833333 0.15833333
0.16219363 0.16219363 0.16219363
0.1622549 0.1622549 0.1622549
0.1622549 0.1622549 0.1622549
0.16188725 0.16188725 0.16188725
0.15833333 0.15833333 0.15833333
0.15784314 0.15784314 0.15784314
0.16176471 0.16176471 0.16176471
0.16617647 0.16617647 0.16617647
0.17003676 0.17003676 0.17003676
0.17377451 0.17377451 0.17377451
0.17401961 0.17401961 0.17401961
0.17401961 0.17401961 0.17401961
0.17352941 0.17352941 0.17352941
0.17352941 0.17352941 0.17352941
0.20882353 0.20882353 0.20882353
0.20698529 0.20698529 0.20698529
0.20171569 0.20171569 0.20171569
0.19718137 0.19718137 0.19718137
0.19166667 0.19166667 0.19166667
0.18627451 0.18627451 0.18627451
0.18308824 0.18308824 0.18308824
0.17745098 0.17745098 0.17745098
0.17745098 0.17745098 0.17745098
0.18382353 0.18382353 0.18382353
0.18921569 0.18921569 0.18921569
0.19178922 0.19178922 0.19178922
0.19166667 0.19166667 0.19166667
0.19019608 0.19019608 0.19019608
0.18921569 0.18921569 0.18921569
0.18921569 0.18921569 0.18921569
0.18823529 0.18823529 0.18823529
0.18921569 0.18921569 0.18921569
0.19338235 0.19338235 0.19338235
0.19791667 0.19791667 0.19791667
0.20392157 0.20392157 0.20392157
0.20281863 0.20281863 0.20281863
0.20122549 0.20122549 0.20122549
0.19987745 0.19987745 0.19987745
0.19803922 0.19803922 0.19803922
0.23431373 0.23431373 0.23431373
0.23186275 0.23186275 0.23186275
0.22757353 0.22757353 0.22757353
0.22273284 0.22273284 0.22273284
0.21740196 0.21740196 0.21740196
0.21439951 0.21439951 0.21439951
0.2122549 0.2122549 0.2122549
0.20833333 0.20833333 0.20833333
0.20833333 0.20833333 0.20833333
0.21378676 0.21378676 0.21378676
0.2189951 0.2189951 0.2189951
0.22254902 0.22254902 0.22254902
0.22009804 0.22009804 0.22009804
0.21862745 0.21862745 0.21862745
0.21617647 0.21617647 0.21617647
0.21617647 0.21617647 0.21617647
0.22009804 0.22009804 0.22009804
0.22401961 0.22401961 0.22401961
0.22401961 0.22401961 0.22401961
0.22794118 0.22794118 0.22794118
0.22916667 0.22916667 0.22916667
0.23039216 0.23039216 0.23039216
0.22794118 0.22794118 0.22794118
0.22794118 0.22794118 0.22794118
0.22794118 0.22794118 0.22794118
0.25882353 0.25882353 0.25882353
0.25882353 0.25882353 0.25882353
0.25392157 0.25392157 0.25392157
0.25098039 0.25098039 0.25098039
0.24705882 0.24705882 0.24705882
0.24313725 0.24313725 0.24313725
0.24313725 0.24313725 0.24313725
0.24313725 0.24313725 0.24313725
0.24313725 0.24313725 0.24313725
0.24313725 0.24313725 0.24313725
0.24705882 0.24705882 0.24705882
0.24705882 0.24705882 0.24705882
0.24705882 0.24705882 0.24705882
0.24656863 0.24656863 0.24656863
0.24313725 0.24313725 0.24313725
0.24460784 0.24460784 0.24460784
0.25098039 0.25098039 0.25098039
0.25735294 0.25735294 0.25735294
0.25882353 0.25882353 0.25882353
0.25882353 0.25882353 0.25882353
0.26078431 0.26078431 0.26078431
0.25882353 0.25882353 0.25882353
0.25882353 0.25882353 0.25882353
0.25882353 0.25882353 0.25882353
0.2627451 0.2627451 0.2627451
0.2872549 0.2872549 0.2872549
0.28578431 0.28578431 0.28578431
0.28186275 0.28186275 0.28186275
0.28186275 0.28186275 0.28186275
0.27794118 0.27794118 0.27794118
0.27794118 0.27794118 0.27794118
0.27463235 0.27463235 0.27463235
0.27401961 0.27401961 0.27401961
0.27401961 0.27401961 0.27401961
0.27401961 0.27401961 0.27401961
0.27585784 0.27585784 0.27585784
0.27401961 0.27401961 0.27401961
0.27401961 0.27401961 0.27401961
0.27352941 0.27352941 0.27352941
0.2689951 0.2689951 0.2689951
0.2754902 0.2754902 0.2754902
0.28431373 0.28431373 0.28431373
0.28915441 0.28915441 0.28915441
0.29031863 0.29031863 0.29031863
0.29362745 0.29362745 0.29362745
0.29362745 0.29362745 0.29362745
0.29185049 0.29185049 0.29185049
0.29215686 0.29215686 0.29215686
0.29362745 0.29362745 0.29362745
0.29362745 0.29362745 0.29362745
0.32058824 0.32058824 0.32058824
0.31703431 0.31703431 0.31703431
0.31593137 0.31593137 0.31593137
0.31286765 0.31286765 0.31286765
0.3127451 0.3127451 0.3127451
0.30968137 0.30968137 0.30968137
0.30882353 0.30882353 0.30882353
0.30772059 0.30772059 0.30772059
0.30588235 0.30588235 0.30588235
0.30772059 0.30772059 0.30772059
0.30882353 0.30882353 0.30882353
0.30882353 0.30882353 0.30882353
0.30882353 0.30882353 0.30882353
0.30980392 0.30980392 0.30980392
0.30980392 0.30980392 0.30980392
0.31311275 0.31311275 0.31311275
0.31666667 0.31666667 0.31666667
0.32120098 0.32120098 0.32120098
0.3245098 0.3245098 0.3245098
0.3245098 0.3245098 0.3245098
0.3245098 0.3245098 0.3245098
0.3245098 0.3245098 0.3245098
0.3245098 0.3245098 0.3245098
0.32843137 0.32843137 0.32843137
0.32843137 0.32843137 0.32843137
0.35147059 0.35147059 0.35147059
0.35147059 0.35147059 0.35147059
0.35012255 0.35012255 0.35012255
0.34754902 0.34754902 0.34754902
0.34705882 0.34705882 0.34705882
0.34362745 0.34362745 0.34362745
0.34313725 0.34313725 0.34313725
0.33970588 0.33970588 0.33970588
0.33970588 0.33970588 0.33970588
0.33970588 0.33970588 0.33970588
0.3432598 0.3432598 0.3432598
0.34362745 0.34362745 0.34362745
0.34534314 0.34534314 0.34534314
0.34705882 0.34705882 0.34705882
0.34742647 0.34742647 0.34742647
0.34883578 0.34883578 0.34883578
0.35147059 0.35147059 0.35147059
0.35520833 0.35520833 0.35520833
0.35539216 0.35539216 0.35539216
0.35539216 0.35539216 0.35539216
0.35539216 0.35539216 0.35539216
0.35582108 0.35582108 0.35582108
0.35931373 0.35931373 0.35931373
0.36060049 0.36060049 0.36060049
0.36323529 0.36323529 0.36323529
0.38627451 0.38627451 0.38627451
0.38627451 0.38627451 0.38627451
0.38431373 0.38431373 0.38431373
0.38235294 0.38235294 0.38235294
0.38039216 0.38039216 0.38039216
0.37843137 0.37843137 0.37843137
0.37696078 0.37696078 0.37696078
0.37573529 0.37573529 0.37573529
0.3745098 0.3745098 0.3745098
0.37647059 0.37647059 0.37647059
0.37843137 0.37843137 0.37843137
0.37843137 0.37843137 0.37843137
0.38039216 0.38039216 0.38039216
0.38235294 0.38235294 0.38235294
0.38382353 0.38382353 0.38382353
0.38431373 0.38431373 0.38431373
0.38627451 0.38627451 0.38627451
0.3875 0.3875 0.3875
0.39019608 0.39019608 0.39019608
0.38823529 0.38823529 0.38823529
0.38921569 0.38921569 0.38921569
0.39044118 0.39044118 0.39044118
0.39411765 0.39411765 0.39411765
0.39485294 0.39485294 0.39485294
0.39803922 0.39803922 0.39803922
0.42156863 0.42156863 0.42156863
0.42156863 0.42156863 0.42156863
0.42107843 0.42107843 0.42107843
0.41764706 0.41764706 0.41764706
0.41544118 0.41544118 0.41544118
0.41323529 0.41323529 0.41323529
0.41323529 0.41323529 0.41323529
0.40980392 0.40980392 0.40980392
0.40980392 0.40980392 0.40980392
0.41323529 0.41323529 0.41323529
0.41372549 0.41372549 0.41372549
0.41372549 0.41372549 0.41372549
0.41715686 0.41715686 0.41715686
0.41721814 0.41721814 0.41721814
0.41764706 0.41764706 0.41764706
0.41764706 0.41764706 0.41764706
0.42107843 0.42107843 0.42107843
0.42107843 0.42107843 0.42107843
0.42156863 0.42156863 0.42156863
0.42156863 0.42156863 0.42156863
0.425 0.425 0.425
0.42591912 0.42591912 0.42591912
0.42928922 0.42928922 0.42928922
0.42941176 0.42941176 0.42941176
0.43284314 0.43284314 0.43284314
0.45882353 0.45882353 0.45882353
0.45882353 0.45882353 0.45882353
0.45563725 0.45563725 0.45563725
0.45490196 0.45490196 0.45490196
0.45147059 0.45147059 0.45147059
0.44803922 0.44803922 0.44803922
0.44730392 0.44730392 0.44730392
0.44705882 0.44705882 0.44705882
0.44705882 0.44705882 0.44705882
0.44803922 0.44803922 0.44803922
0.45196078 0.45196078 0.45196078
0.45110294 0.45110294 0.45110294
0.45196078 0.45196078 0.45196078
0.45490196 0.45490196 0.45490196
0.45514706 0.45514706 0.45514706
0.45490196 0.45490196 0.45490196
0.45588235 0.45588235 0.45588235
0.45882353 0.45882353 0.45882353
0.45882353 0.45882353 0.45882353
0.45882353 0.45882353 0.45882353
0.46127451 0.46127451 0.46127451
0.46372549 0.46372549 0.46372549
0.46666667 0.46666667 0.46666667
0.47058824 0.47058824 0.47058824
0.47352941 0.47352941 0.47352941
0.49460784 0.49460784 0.49460784
0.49460784 0.49460784 0.49460784
0.49178922 0.49178922 0.49178922
0.48854167 0.48854167 0.48854167
0.48676471 0.48676471 0.48676471
0.48431373 0.48431373 0.48431373
0.48321078 0.48321078 0.48321078
0.48284314 0.48284314 0.48284314
0.48284314 0.48284314 0.48284314
0.48584559 0.48584559 0.48584559
0.48823529 0.48823529 0.48823529
0.48823529 0.48823529 0.48823529
0.48823529 0.48823529 0.48823529
0.49215686 0.49215686 0.49215686
0.49215686 0.49215686 0.49215686
0.49307598 0.49307598 0.49307598
0.49607843 0.49607843 0.49607843
0.49607843 0.49607843 0.49607843
0.49607843 0.49607843 0.49607843
0.49607843 0.49607843 0.49607843
0.49852941 0.49852941 0.49852941
0.50030637 0.50030637 0.50030637
0.50392157 0.50392157 0.50392157
0.50784314 0.50784314 0.50784314
0.51176471 0.51176471 0.51176471
0.52941176 0.52941176 0.52941176
0.52941176 0.52941176 0.52941176
0.52941176 0.52941176 0.52941176
0.5254902 0.5254902 0.5254902
0.52352941 0.52352941 0.52352941
0.52156863 0.52156863 0.52156863
0.52156863 0.52156863 0.52156863
0.52156863 0.52156863 0.52156863
0.52156863 0.52156863 0.52156863
0.52401961 0.52401961 0.52401961
0.5254902 0.5254902 0.5254902
0.5254902 0.5254902 0.5254902
0.52745098 0.52745098 0.52745098
0.52941176 0.52941176 0.52941176
0.53235294 0.53235294 0.53235294
0.53333333 0.53333333 0.53333333
0.53333333 0.53333333 0.53333333
0.53333333 0.53333333 0.53333333
0.53333333 0.53333333 0.53333333
0.53333333 0.53333333 0.53333333
0.5372549 0.5372549 0.5372549
0.54117647 0.54117647 0.54117647
0.54411765 0.54411765 0.54411765
0.54656863 0.54656863 0.54656863
0.54901961 0.54901961 0.54901961
0.56813725 0.56813725 0.56813725
0.56666667 0.56666667 0.56666667
0.56421569 0.56421569 0.56421569
0.5627451 0.5627451 0.5627451
0.56029412 0.56029412 0.56029412
0.55882353 0.55882353 0.55882353
0.55882353 0.55882353 0.55882353
0.56029412 0.56029412 0.56029412
0.5627451 0.5627451 0.5627451
0.5627451 0.5627451 0.5627451
0.56421569 0.56421569 0.56421569
0.56666667 0.56666667 0.56666667
0.56666667 0.56666667 0.56666667
0.56844363 0.56844363 0.56844363
0.57058824 0.57058824 0.57058824
0.5745098 0.5745098 0.5745098
0.5745098 0.5745098 0.5745098
0.5745098 0.5745098 0.5745098
0.5745098 0.5745098 0.5745098
0.5745098 0.5745098 0.5745098
0.5745098 0.5745098 0.5745098
0.5786152 0.5786152 0.5786152
0.58235294 0.58235294 0.58235294
0.58474265 0.58474265 0.58474265
0.58627451 0.58627451 0.58627451
0.60392157 0.60392157 0.60392157
0.60392157 0.60392157 0.60392157
0.60220588 0.60220588 0.60220588
0.6 0.6 0.6
0.6 0.6 0.6
0.6 0.6 0.6
0.6 0.6 0.6
0.60208333 0.60208333 0.60208333
0.60392157 0.60392157 0.60392157
0.60392157 0.60392157 0.60392157
0.60392157 0.60392157 0.60392157
0.60392157 0.60392157 0.60392157
0.60784314 0.60784314 0.60784314
0.60821078 0.60821078 0.60821078
0.61176471 0.61176471 0.61176471
0.61176471 0.61176471 0.61176471
0.61470588 0.61470588 0.61470588
0.61286765 0.61286765 0.61286765
0.61176471 0.61176471 0.61176471
0.61176471 0.61176471 0.61176471
0.61519608 0.61519608 0.61519608
0.61605392 0.61605392 0.61605392
0.61960784 0.61960784 0.61960784
0.62352941 0.62352941 0.62352941
0.62745098 0.62745098 0.62745098
0.64166667 0.64166667 0.64166667
0.64136029 0.64136029 0.64136029
0.64117647 0.64117647 0.64117647
0.64117647 0.64117647 0.64117647
0.64117647 0.64117647 0.64117647
0.64117647 0.64117647 0.64117647
0.64117647 0.64117647 0.64117647
0.64509804 0.64509804 0.64509804
0.64509804 0.64509804 0.64509804
0.64509804 0.64509804 0.64509804
0.64509804 0.64509804 0.64509804
0.64509804 0.64509804 0.64509804
0.64901961 0.64901961 0.64901961
0.64901961 0.64901961 0.64901961
0.65294118 0.65294118 0.65294118
0.65294118 0.65294118 0.65294118
0.65294118 0.65294118 0.65294118
0.65294118 0.65294118 0.65294118
0.65294118 0.65294118 0.65294118
0.65294118 0.65294118 0.65294118
0.65294118 0.65294118 0.65294118
0.65686275 0.65686275 0.65686275
0.65992647 0.65992647 0.65992647
0.66470588 0.66470588 0.66470588
0.66519608 0.66519608 0.66519608
0.68235294 0.68235294 0.68235294
0.68235294 0.68235294 0.68235294
0.68235294 0.68235294 0.68235294
0.68235294 0.68235294 0.68235294
0.68235294 0.68235294 0.68235294
0.68235294 0.68235294 0.68235294
0.68382353 0.68382353 0.68382353
0.68627451 0.68627451 0.68627451
0.68627451 0.68627451 0.68627451
0.68627451 0.68627451 0.68627451
0.68627451 0.68627451 0.68627451
0.68627451 0.68627451 0.68627451
0.69019608 0.69019608 0.69019608
0.69019608 0.69019608 0.69019608
0.69362745 0.69362745 0.69362745
0.69411765 0.69411765 0.69411765
0.69411765 0.69411765 0.69411765
0.69411765 0.69411765 0.69411765
0.69411765 0.69411765 0.69411765
0.69411765 0.69411765 0.69411765
0.69411765 0.69411765 0.69411765
0.69411765 0.69411765 0.69411765
0.69754902 0.69754902 0.69754902
0.70196078 0.70196078 0.70196078
0.70588235 0.70588235 0.70588235
0.71960784 0.71960784 0.71960784
0.71960784 0.71960784 0.71960784
0.71960784 0.71960784 0.71960784
0.71960784 0.71960784 0.71960784
0.72303922 0.72303922 0.72303922
0.72352941 0.72352941 0.72352941
0.72352941 0.72352941 0.72352941
0.72745098 0.72745098 0.72745098
0.72745098 0.72745098 0.72745098
0.72745098 0.72745098 0.72745098
0.72745098 0.72745098 0.72745098
0.72745098 0.72745098 0.72745098
0.73137255 0.73137255 0.73137255
0.73137255 0.73137255 0.73137255
0.73137255 0.73137255 0.73137255
0.73137255 0.73137255 0.73137255
0.73480392 0.73480392 0.73480392
0.73137255 0.73137255 0.73137255
0.73223039 0.73223039 0.73223039
0.73529412 0.73529412 0.73529412
0.73137255 0.73137255 0.73137255
0.73137255 0.73137255 0.73137255
0.73480392 0.73480392 0.73480392
0.73480392 0.73480392 0.73480392
0.73431373 0.73431373 0.73431373
0.75392157 0.75392157 0.75392157
0.7557598 0.7557598 0.7557598
0.75686275 0.75686275 0.75686275
0.75784314 0.75784314 0.75784314
0.75931373 0.75931373 0.75931373
0.76090686 0.76090686 0.76090686
0.76397059 0.76397059 0.76397059
0.76470588 0.76470588 0.76470588
0.76862745 0.76862745 0.76862745
0.76862745 0.76862745 0.76862745
0.76862745 0.76862745 0.76862745
0.76862745 0.76862745 0.76862745
0.77254902 0.77254902 0.77254902
0.77254902 0.77254902 0.77254902
0.77254902 0.77254902 0.77254902
0.76960784 0.76960784 0.76960784
0.77254902 0.77254902 0.77254902
0.77144608 0.77144608 0.77144608
0.77254902 0.77254902 0.77254902
0.77340686 0.77340686 0.77340686
0.7745098 0.7745098 0.7745098
0.77254902 0.77254902 0.77254902
0.77034314 0.77034314 0.77034314
0.76568627 0.76568627 0.76568627
0.76176471 0.76176471 0.76176471
0.7872549 0.7872549 0.7872549
0.7872549 0.7872549 0.7872549
0.78872549 0.78872549 0.78872549
0.78872549 0.78872549 0.78872549
0.79117647 0.79117647 0.79117647
0.79264706 0.79264706 0.79264706
0.79656863 0.79656863 0.79656863
0.8004902 0.8004902 0.8004902
0.80441176 0.80441176 0.80441176
0.80741422 0.80741422 0.80741422
0.80980392 0.80980392 0.80980392
0.81194853 0.81194853 0.81194853
0.81102941 0.81102941 0.81102941
0.80833333 0.80833333 0.80833333
0.80833333 0.80833333 0.80833333
0.80588235 0.80588235 0.80588235
0.80833333 0.80833333 0.80833333
0.80588235 0.80588235 0.80588235
0.80833333 0.80833333 0.80833333
0.81194853 0.81194853 0.81194853
0.81372549 0.81372549 0.81372549
0.81354167 0.81354167 0.81354167
0.80870098 0.80870098 0.80870098
0.79957108 0.79957108 0.79957108
0.79656863 0.79656863 0.79656863
0.80784314 0.80784314 0.80784314
0.81029412 0.81029412 0.81029412
0.81176471 0.81176471 0.81176471
0.81176471 0.81176471 0.81176471
0.81372549 0.81372549 0.81372549
0.81568627 0.81568627 0.81568627
0.81960784 0.81960784 0.81960784
0.82352941 0.82352941 0.82352941
0.82745098 0.82745098 0.82745098
0.83382353 0.83382353 0.83382353
0.84019608 0.84019608 0.84019608
0.84362745 0.84362745 0.84362745
0.83921569 0.83921569 0.83921569
0.83529412 0.83529412 0.83529412
0.83235294 0.83235294 0.83235294
0.83137255 0.83137255 0.83137255
0.83137255 0.83137255 0.83137255
0.83137255 0.83137255 0.83137255
0.83529412 0.83529412 0.83529412
0.83872549 0.83872549 0.83872549
0.84313725 0.84313725 0.84313725
0.84313725 0.84313725 0.84313725
0.83627451 0.83627451 0.83627451
0.82598039 0.82598039 0.82598039
0.81960784 0.81960784 0.81960784
0.058823529 0.058823529 0.058823529
0.058823529 0.058823529 0.058823529
0.059191176 0.059191176 0.059191176
0.059007353 0.059007353 0.059007353
0.057598039 0.057598039 0.057598039
0.055085784 0.055085784 0.055085784
0.058823529 0.058823529 0.058823529
0.060294118 0.060294118 0.060294118
0.062745098 0.062745098 0.062745098
0.06372549 0.06372549 0.06372549
0.06372549 0.06372549 0.06372549
0.065196078 0.065196078 0.065196078
0.068382353 0.068382353 0.068382353
0.071752451 0.071752451 0.071752451
0.073039216 0.073039216 0.073039216
0.074509804 0.074509804 0.074509804
0.074509804 0.074509804 0.074509804
0.071507353 0.071507353 0.071507353
0.070588235 0.070588235 0.070588235
0.068443627 0.068443627 0.068443627
0.063970588 0.063970588 0.063970588
0.059620098 0.059620098 0.059620098
0.054779412 0.054779412 0.054779412
0.054411765 0.054411765 0.054411765
0.058333333 0.058333333 0.058333333
0.079411765 0.079411765 0.079411765
0.077941176 0.077941176 0.077941176
0.079411765 0.079411765 0.079411765
0.078607537 0.078607537 0.078607537
0.075490196 0.075490196 0.075490196
0.071568627 0.071568627 0.071568627
0.071568627 0.071568627 0.071568627
0.072487745 0.072487745 0.072487745
0.072487745 0.072487745 0.072487745
0.069523591 0.069523591 0.069523591
0.066176471 0.066176471 0.066176471
0.067463235 0.067463235 0.067463235
0.072518382 0.072518382 0.072518382
0.079120711 0.079120711 0.079120711
0.082965686 0.082965686 0.082965686
0.085991115 0.085991115 0.085991115
0.087254902 0.087254902 0.087254902
0.087254902 0.087254902 0.087254902
0.087254902 0.087254902 0.087254902
0.087254902 0.087254902 0.087254902
0.084589461 0.084589461 0.084589461
0.079097733 0.079097733 0.079097733
0.073391544 0.073391544 0.073391544
0.074770221 0.074770221 0.074770221
0.076470588 0.076470588 0.076470588
0.10392157 0.10392157 0.10392157
0.10392157 0.10392157 0.10392157
0.10254289 0.10254289 0.10254289
0.10134804 0.10134804 0.10134804
0.098529412 0.098529412 0.098529412
0.095710784 0.095710784 0.095710784
0.094240196 0.094240196 0.094240196
0.094607843 0.094607843 0.094607843
0.094607843 0.094607843 0.094607843
0.091666667 0.091666667 0.091666667
0.089123775 0.089123775 0.089123775
0.089307598 0.089307598 0.089307598
0.092401961 0.092401961 0.092401961
