site/assets/luts/natron-haldclut--polaroid-px-70-warm--fea6ba529.cube
# LUTr-Project: LUTr — LUTrepository
# LUTr-Schema-Version: 1
# LUTr-ID: natron-haldclut--polaroid-px-70-warm--fea6ba529
# LUTr-Title: polaroid px-70 warm +
# LUTr-Collection: Natron HaldCLUT
# LUTr-Collection-ID: natron-haldclut-presets
# LUTr-Source: https://github.com/NatronGitHub/clut
# LUTr-Source-File: submissions/natron-haldclut-presets/instant_consumer/polaroid_px-70_warm_+.png
# LUTr-Source-Format: PNG
# LUTr-Source-SHA256: fc76e4b3f63deaf2494234e8759875d65e297a1fc312cbe2a8f453e611574ad2
# LUTr-License: CC-BY-SA-4.0
# LUTr-License-URL: https://github.com/NatronGitHub/clut#license
# LUTr-Tags: creative, film, film-emulation, hald-clut, natron, png, warm, cube
# LUTr-Transform-Class: film-emulation
# LUTr-Input-Color-Space: srgb
# LUTr-Output-Color-Space: srgb
# LUTr-Color-Space-Confidence: assumed-display-referred
# LUTr-Conversion-Method: PNG LUT image decoded at 16-bit and sampled to 25x25x25 3D CUBE
# LUTr-Conversion-Date: 2026-07-27
# LUTr-Conversion-Tool: LUTr scripts/convert-all-to-cube.mjs
# LUTr-Conversion-Grid: 25x25x25
# LUTr-Note: Preserve this metadata and the upstream license notices when redistributing.
TITLE "polaroid px-70 warm +"
LUT_3D_SIZE 5
DOMAIN_MIN 0 0 0
DOMAIN_MAX 1 1 1
0.23921569 0.15294118 0.15294118
0.28137255 0.15294118 0.15294118
0.4 0.15490196 0.15686275
0.8254902 0.24117647 0.11960784
1 0.52941176 0.094117647
0.24019608 0.19901961 0.15294118
0.27132353 0.18504902 0.15294118
0.45588235 0.2122549 0.14215686
0.84485294 0.35294118 0.082107843
1 0.58039216 0.096078431
0.21960784 0.45098039 0.13529412
0.30392157 0.45392157 0.13578431
0.56666667 0.5127451 0.094117647
0.86666667 0.60490196 0.0073529412
0.99411765 0.67058824 0.035294118
0.44313725 0.79117647 0.2254902
0.51348039 0.78897059 0.23210784
0.67745098 0.79509804 0.24656863
0.86470588 0.81862745 0.26789216
0.97254902 0.8372549 0.34705882
0.84313725 0.92941176 0.52941176
0.83823529 0.92843137 0.52156863
0.85098039 0.92156863 0.51568627
0.91764706 0.93333333 0.54607843
0.96078431 0.94509804 0.57647059
0.23921569 0.15294118 0.16764706
0.26887255 0.15294118 0.16764706
0.41421569 0.13823529 0.17745098
0.88014706 0.2754902 0.20759804
0.99705882 0.5754902 0.29019608
0.25098039 0.20514706 0.17941176
0.28651961 0.20196078 0.17677696
0.51176471 0.22892157 0.19068627
0.88529412 0.40134804 0.2002451
0.99705882 0.61936275 0.28823529
0.26715686 0.47058824 0.19411765
0.33492647 0.47426471 0.19485294
0.60857843 0.52254902 0.18529412
0.88296569 0.61629902 0.17401961
0.98627451 0.69607843 0.24558824
0.51960784 0.80588235 0.31960784
0.56740196 0.80238971 0.31568627
0.70196078 0.80637255 0.33921569
0.86568627 0.82230392 0.35042892
0.97254902 0.8375 0.39117647
0.85882353 0.9372549 0.54509804
0.85220588 0.92867647 0.53553922
0.88235294 0.92941176 0.54509804
0.92156863 0.93553922 0.55171569
0.95294118 0.9372549 0.56078431
0.27254902 0.16666667 0.26078431
0.325 0.16862745 0.25686275
0.51176471 0.23333333 0.29313725
0.86470588 0.23823529 0.38823529
1 0.55882353 0.45490196
0.26960784 0.23431373 0.30147059
0.36507353 0.25098039 0.31078431
0.57965686 0.31911765 0.33651961
0.89411765 0.39264706 0.40686275
0.99607843 0.63872549 0.47598039
0.31176471 0.5254902 0.35294118
0.40686275 0.51715686 0.35759804
0.67156863 0.58333333 0.39411765
0.89705882 0.67720588 0.42965686
0.98823529 0.7745098 0.49117647
0.62990196 0.80686275 0.46029412
0.68002451 0.80980392 0.4622549
0.75294118 0.81151961 0.46862745
0.88578431 0.83333333 0.47401961
0.98186275 0.85294118 0.49705882
0.86666667 0.93333333 0.55686275
0.85637255 0.925 0.54901961
0.89215686 0.92941176 0.5627451
0.92794118 0.93529412 0.57254902
0.95294118 0.93529412 0.5745098
0.4872549 0.22156863 0.53823529
0.60882353 0.27083333 0.56078431
0.81960784 0.48431373 0.56666667
0.91568627 0.67647059 0.55882353
0.99215686 0.68921569 0.56960784
0.45098039 0.35220588 0.5754902
0.58921569 0.38333333 0.56372549
0.82046569 0.57058824 0.56703431
0.91568627 0.72843137 0.5627451
0.98333333 0.74142157 0.56568627
0.34607843 0.6245098 0.54803922
0.50392157 0.62242647 0.55183824
0.78333333 0.69632353 0.5620098
0.91176471 0.78737745 0.56568627
0.97990196 0.7995098 0.57352941
0.64044118 0.81936275 0.55784314
0.69295343 0.81936275 0.54944853
0.79448529 0.82254902 0.5567402
0.91102941 0.85857843 0.56740196
0.96838235 0.87156863 0.57352941
0.87843137 0.93333333 0.58823529
0.88235294 0.93333333 0.58529412
0.91127451 0.93333333 0.59460784
0.9372549 0.92941176 0.59607843
0.96470588 0.94215686 0.6127451
0.82352941 0.6745098 0.6627451
0.85784314 0.71666667 0.65490196
0.91568627 0.78823529 0.64117647
0.95686275 0.86372549 0.62745098
0.96862745 0.89019608 0.62352941
0.81960784 0.71666667 0.65490196
0.84681373 0.72990196 0.64705882
0.90784314 0.79705882 0.6372549
0.95686275 0.87254902 0.62843137
0.96862745 0.89803922 0.62745098
0.80196078 0.78823529 0.64705882
0.82058824 0.78529412 0.64313725
0.90392157 0.83137255 0.63627451
0.95392157 0.8877451 0.63137255
0.96862745 0.91372549 0.63137255
0.74803922 0.84901961 0.62843137
0.79240196 0.85686275 0.63455882
0.84803922 0.8622549 0.62352941
0.9372549 0.90294118 0.63529412
0.96862745 0.9372549 0.64607843
0.90196078 0.94901961 0.64705882
0.88627451 0.94019608 0.62352941
0.90980392 0.93921569 0.63333333
0.94117647 0.9372549 0.63235294
0.96470588 0.9372549 0.63921569
