site/assets/luts/natron-haldclut--polaroid-665--daa5719e7.cube
# LUTr-Project: LUTr — LUTrepository
# LUTr-Schema-Version: 1
# LUTr-ID: natron-haldclut--polaroid-665--daa5719e7
# LUTr-Title: polaroid 665 ++
# LUTr-Collection: Natron HaldCLUT
# LUTr-Collection-ID: natron-haldclut-presets
# LUTr-Source: https://github.com/NatronGitHub/clut
# LUTr-Source-File: submissions/natron-haldclut-presets/instant_pro/polaroid_665_++.png
# LUTr-Source-Format: PNG
# LUTr-Source-SHA256: fe5b72858ace50df9fdb5e14a29e6c59b68f6ff03f76f6b33a0133c7efb0fe8c
# LUTr-License: CC-BY-SA-4.0
# LUTr-License-URL: https://github.com/NatronGitHub/clut#license
# LUTr-Tags: creative, film, film-emulation, hald-clut, natron, png, cube
# LUTr-Transform-Class: film-emulation
# LUTr-Input-Color-Space: srgb
# LUTr-Output-Color-Space: srgb
# LUTr-Color-Space-Confidence: assumed-display-referred
# LUTr-Conversion-Method: PNG LUT image decoded at 16-bit and sampled to 25x25x25 3D CUBE
# LUTr-Conversion-Date: 2026-07-27
# LUTr-Conversion-Tool: LUTr scripts/convert-all-to-cube.mjs
# LUTr-Conversion-Grid: 25x25x25
# LUTr-Note: Preserve this metadata and the upstream license notices when redistributing.
TITLE "polaroid 665 ++"
LUT_3D_SIZE 25
DOMAIN_MIN 0 0 0
DOMAIN_MAX 1 1 1
0.14117647 0.14117647 0.14117647
0.14509804 0.14509804 0.14509804
0.14509804 0.14509804 0.14509804
0.14509804 0.14509804 0.14509804
0.14509804 0.14509804 0.14509804
0.14509804 0.14509804 0.14509804
0.14509804 0.14509804 0.14509804
0.15441176 0.15441176 0.15441176
0.16862745 0.16862745 0.16862745
0.17892157 0.17892157 0.17892157
0.18529412 0.18529412 0.18529412
0.19558824 0.19558824 0.19558824
0.20392157 0.20392157 0.20392157
0.2122549 0.2122549 0.2122549
0.22254902 0.22254902 0.22254902
0.24215686 0.24215686 0.24215686
0.2627451 0.2627451 0.2627451
0.28333333 0.28333333 0.28333333
0.30392157 0.30392157 0.30392157
0.3245098 0.3245098 0.3245098
0.35098039 0.35098039 0.35098039
0.38137255 0.38137255 0.38137255
0.41176471 0.41176471 0.41176471
0.44901961 0.44901961 0.44901961
0.48627451 0.48627451 0.48627451
0.14362745 0.14362745 0.14362745
0.14509804 0.14509804 0.14509804
0.14509804 0.14509804 0.14509804
0.14509804 0.14509804 0.14509804
0.14509804 0.14509804 0.14509804
0.14509804 0.14509804 0.14509804
0.14509804 0.14509804 0.14509804
0.15441176 0.15441176 0.15441176
0.16862745 0.16862745 0.16862745
0.17892157 0.17892157 0.17892157
0.18884804 0.18884804 0.18884804
0.19589461 0.19589461 0.19589461
0.20514706 0.20514706 0.20514706
0.2122549 0.2122549 0.2122549
0.21862745 0.21862745 0.21862745
0.24215686 0.24215686 0.24215686
0.2627451 0.2627451 0.2627451
0.28578431 0.28578431 0.28578431
0.30392157 0.30392157 0.30392157
0.3245098 0.3245098 0.3245098
0.35098039 0.35098039 0.35098039
0.38186275 0.38186275 0.38186275
0.41237745 0.41237745 0.41237745
0.4504902 0.4504902 0.4504902
0.48627451 0.48627451 0.48627451
0.14509804 0.14509804 0.14509804
0.14509804 0.14509804 0.14509804
0.14509804 0.14509804 0.14509804
0.14509804 0.14509804 0.14509804
0.14607843 0.14607843 0.14607843
0.14607843 0.14607843 0.14607843
0.14901961 0.14901961 0.14901961
0.15870098 0.15870098 0.15870098
0.17254902 0.17254902 0.17254902
0.18284314 0.18284314 0.18284314
0.19240196 0.19240196 0.19240196
0.2004902 0.2004902 0.2004902
0.21029412 0.21029412 0.21029412
0.21715686 0.21715686 0.21715686
0.23039216 0.23039216 0.23039216
0.24705882 0.24705882 0.24705882
0.27058824 0.27058824 0.27058824
0.29117647 0.29117647 0.29117647
0.30882353 0.30882353 0.30882353
0.32585784 0.32585784 0.32585784
0.35196078 0.35196078 0.35196078
0.38541667 0.38541667 0.38541667
0.4129902 0.4129902 0.4129902
0.44803922 0.44803922 0.44803922
0.48137255 0.48137255 0.48137255
0.14509804 0.14509804 0.14509804
0.14509804 0.14509804 0.14509804
0.14509804 0.14509804 0.14509804
0.14509804 0.14509804 0.14509804
0.14901961 0.14901961 0.14901961
0.15251225 0.15251225 0.15251225
0.15637255 0.15637255 0.15637255
0.16568627 0.16568627 0.16568627
0.17647059 0.17647059 0.17647059
0.18676471 0.18676471 0.18676471
0.19705882 0.19705882 0.19705882
0.20692402 0.20692402 0.20692402
0.21715686 0.21715686 0.21715686
0.22745098 0.22745098 0.22745098
0.24166667 0.24166667 0.24166667
0.25735294 0.25735294 0.25735294
0.27794118 0.27794118 0.27794118
0.29852941 0.29852941 0.29852941
0.31911765 0.31911765 0.31911765
0.33964461 0.33964461 0.33964461
0.36617647 0.36617647 0.36617647
0.39613971 0.39613971 0.39613971
0.42401961 0.42401961 0.42401961
0.45441176 0.45441176 0.45441176
0.48529412 0.48529412 0.48529412
0.14901961 0.14901961 0.14901961
0.14705882 0.14705882 0.14705882
0.14509804 0.14509804 0.14509804
0.14877451 0.14877451 0.14877451
0.15588235 0.15588235 0.15588235
0.16102941 0.16102941 0.16102941
0.16568627 0.16568627 0.16568627
0.17132353 0.17132353 0.17132353
0.18039216 0.18039216 0.18039216
0.19264706 0.19264706 0.19264706
0.20294118 0.20294118 0.20294118
0.21323529 0.21323529 0.21323529
0.2245098 0.2245098 0.2245098
0.23823529 0.23823529 0.23823529
0.25490196 0.25490196 0.25490196
0.27009804 0.27009804 0.27009804
0.28627451 0.28627451 0.28627451
0.30490196 0.30490196 0.30490196
0.32647059 0.32647059 0.32647059
0.35171569 0.35171569 0.35171569
0.38039216 0.38039216 0.38039216
0.40906863 0.40906863 0.40906863
0.44019608 0.44019608 0.44019608
0.475 0.475 0.475
0.50196078 0.50196078 0.50196078
0.16176471 0.16176471 0.16176471
0.16176471 0.16176471 0.16176471
0.16176471 0.16176471 0.16176471
0.16176471 0.16176471 0.16176471
0.16544118 0.16544118 0.16544118
0.16911765 0.16911765 0.16911765
0.17291667 0.17291667 0.17291667
0.17665441 0.17665441 0.17665441
0.18431373 0.18431373 0.18431373
0.19460784 0.19460784 0.19460784
0.20625 0.20625 0.20625
0.21960784 0.21960784 0.21960784
0.23382353 0.23382353 0.23382353
0.24852941 0.24852941 0.24852941
0.26519608 0.26519608 0.26519608
0.28039216 0.28039216 0.28039216
0.29460784 0.29460784 0.29460784
0.31519608 0.31519608 0.31519608
0.33578431 0.33578431 0.33578431
0.36372549 0.36372549 0.36372549
0.39264706 0.39264706 0.39264706
0.42156863 0.42156863 0.42156863
0.45637255 0.45637255 0.45637255
0.49136029 0.49136029 0.49136029
0.52205882 0.52205882 0.52205882
0.18235294 0.18235294 0.18235294
0.18235294 0.18235294 0.18235294
0.18235294 0.18235294 0.18235294
0.18235294 0.18235294 0.18235294
0.18235294 0.18235294 0.18235294
0.18235294 0.18235294 0.18235294
0.18014706 0.18014706 0.18014706
0.1814951 0.1814951 0.1814951
0.18823529 0.18823529 0.18823529
0.19852941 0.19852941 0.19852941
0.21348039 0.21348039 0.21348039
0.22953431 0.22953431 0.22953431
0.24411765 0.24411765 0.24411765
0.25882353 0.25882353 0.25882353
0.2754902 0.2754902 0.2754902
0.29068627 0.29068627 0.29068627
0.30882353 0.30882353 0.30882353
0.32487745 0.32487745 0.32487745
0.34681373 0.34681373 0.34681373
0.37401961 0.37401961 0.37401961
0.40098039 0.40098039 0.40098039
0.43186275 0.43186275 0.43186275
0.46740196 0.46740196 0.46740196
0.50477941 0.50477941 0.50477941
0.53235294 0.53235294 0.53235294
0.19901961 0.19901961 0.19901961
0.20055147 0.20055147 0.20055147
0.19901961 0.19901961 0.19901961
0.19901961 0.19901961 0.19901961
0.19901961 0.19901961 0.19901961
0.19901961 0.19901961 0.19901961
0.19754902 0.19754902 0.19754902
0.19454657 0.19454657 0.19454657
0.19117647 0.19117647 0.19117647
0.20692402 0.20692402 0.20692402
0.22303922 0.22303922 0.22303922
0.23970588 0.23970588 0.23970588
0.25441176 0.25441176 0.25441176
0.26862745 0.26862745 0.26862745
0.28468137 0.28468137 0.28468137
0.30098039 0.30098039 0.30098039
0.31519608 0.31519608 0.31519608
0.33578431 0.33578431 0.33578431
0.36066176 0.36066176 0.36066176
0.38609069 0.38609069 0.38609069
0.41127451 0.41127451 0.41127451
0.43872549 0.43872549 0.43872549
0.47696078 0.47696078 0.47696078
0.51268382 0.51268382 0.51268382
0.54264706 0.54264706 0.54264706
0.21960784 0.21960784 0.21960784
0.21960784 0.21960784 0.21960784
0.21960784 0.21960784 0.21960784
0.21617647 0.21617647 0.21617647
0.21568627 0.21568627 0.21568627
0.21568627 0.21568627 0.21568627
0.21568627 0.21568627 0.21568627
0.21568627 0.21568627 0.21568627
0.21568627 0.21568627 0.21568627
0.22205882 0.22205882 0.22205882
0.23627451 0.23627451 0.23627451
0.2504902 0.2504902 0.2504902
0.2627451 0.2627451 0.2627451
0.2754902 0.2754902 0.2754902
0.29215686 0.29215686 0.29215686
0.30882353 0.30882353 0.30882353
0.32941176 0.32941176 0.32941176
0.35245098 0.35245098 0.35245098
0.37843137 0.37843137 0.37843137
0.40294118 0.40294118 0.40294118
0.42745098 0.42745098 0.42745098
0.45294118 0.45294118 0.45294118
0.49411765 0.49411765 0.49411765
0.53137255 0.53137255 0.53137255
0.56470588 0.56470588 0.56470588
0.24264706 0.24264706 0.24264706
0.2411152 0.2411152 0.2411152
0.23982843 0.23982843 0.23982843
0.23627451 0.23627451 0.23627451
0.23235294 0.23235294 0.23235294
0.23235294 0.23235294 0.23235294
0.23529412 0.23529412 0.23529412
0.23927696 0.23927696 0.23927696
0.24264706 0.24264706 0.24264706
0.24564951 0.24564951 0.24564951
0.25232843 0.25232843 0.25232843
0.26078431 0.26078431 0.26078431
0.27107843 0.27107843 0.27107843
0.28547794 0.28547794 0.28547794
0.30245098 0.30245098 0.30245098
0.32303922 0.32303922 0.32303922
0.34607843 0.34607843 0.34607843
0.37058824 0.37058824 0.37058824
0.39546569 0.39546569 0.39546569
0.41960784 0.41960784 0.41960784
0.44730392 0.44730392 0.44730392
0.47726716 0.47726716 0.47726716
0.51862745 0.51862745 0.51862745
0.5622549 0.5622549 0.5622549
0.5995098 0.5995098 0.5995098
0.26960784 0.26960784 0.26960784
0.26678922 0.26678922 0.26678922
0.26470588 0.26470588 0.26470588
0.26090686 0.26090686 0.26090686
0.25539216 0.25539216 0.25539216
0.25428922 0.25428922 0.25428922
0.26004902 0.26004902 0.26004902
0.26470588 0.26470588 0.26470588
0.26568627 0.26568627 0.26568627
0.2692402 0.2692402 0.2692402
0.27254902 0.27254902 0.27254902
0.27254902 0.27254902 0.27254902
0.28088235 0.28088235 0.28088235
0.29571078 0.29571078 0.29571078
0.31593137 0.31593137 0.31593137
0.33933824 0.33933824 0.33933824
0.3627451 0.3627451 0.3627451
0.38970588 0.38970588 0.38970588
0.41568627 0.41568627 0.41568627
0.44019608 0.44019608 0.44019608
0.47009804 0.47009804 0.47009804
0.50159314 0.50159314 0.50159314
0.54240196 0.54240196 0.54240196
0.59031863 0.59031863 0.59031863
0.63039216 0.63039216 0.63039216
0.29656863 0.29656863 0.29656863
0.29442402 0.29442402 0.29442402
0.29178922 0.29178922 0.29178922
0.28872549 0.28872549 0.28872549
0.28480392 0.28480392 0.28480392
0.28137255 0.28137255 0.28137255
0.28480392 0.28480392 0.28480392
0.28890931 0.28890931 0.28890931
0.29264706 0.29264706 0.29264706
0.29528186 0.29528186 0.29528186
0.29571078 0.29571078 0.29571078
0.29313725 0.29313725 0.29313725
0.28946078 0.28946078 0.28946078
0.30980392 0.30980392 0.30980392
0.33345588 0.33345588 0.33345588
0.35667892 0.35667892 0.35667892
0.37990196 0.37990196 0.37990196
0.40655637 0.40655637 0.40655637
0.43333333 0.43333333 0.43333333
0.46035539 0.46035539 0.46035539
0.4872549 0.4872549 0.4872549
0.52254902 0.52254902 0.52254902
0.56752451 0.56752451 0.56752451
0.61764706 0.61764706 0.61764706
0.65784314 0.65784314 0.65784314
0.32352941 0.32352941 0.32352941
0.32230392 0.32230392 0.32230392
0.31911765 0.31911765 0.31911765
0.31568627 0.31568627 0.31568627
0.31176471 0.31176471 0.31176471
0.31176471 0.31176471 0.31176471
0.31372549 0.31372549 0.31372549
0.31568627 0.31568627 0.31568627
0.31764706 0.31764706 0.31764706
0.32156863 0.32156863 0.32156863
0.32352941 0.32352941 0.32352941
0.32352941 0.32352941 0.32352941
0.3245098 0.3245098 0.3245098
0.33210784 0.33210784 0.33210784
0.35098039 0.35098039 0.35098039
0.37156863 0.37156863 0.37156863
0.39607843 0.39607843 0.39607843
0.42377451 0.42377451 0.42377451
0.4495098 0.4495098 0.4495098
0.47720588 0.47720588 0.47720588
0.50784314 0.50784314 0.50784314
0.54730392 0.54730392 0.54730392
0.59705882 0.59705882 0.59705882
0.64387255 0.64387255 0.64387255
0.68039216 0.68039216 0.68039216
0.3504902 0.3504902 0.3504902
0.35018382 0.35018382 0.35018382
0.34656863 0.34656863 0.34656863
0.34356618 0.34356618 0.34356618
0.34313725 0.34313725 0.34313725
0.34705882 0.34705882 0.34705882
0.34705882 0.34705882 0.34705882
0.34705882 0.34705882 0.34705882
0.34705882 0.34705882 0.34705882
0.3504902 0.3504902 0.3504902
0.3504902 0.3504902 0.3504902
0.35392157 0.35392157 0.35392157
0.36029412 0.36029412 0.36029412
0.36709559 0.36709559 0.36709559
0.37316176 0.37316176 0.37316176
0.38823529 0.38823529 0.38823529
0.4127451 0.4127451 0.4127451
0.43921569 0.43921569 0.43921569
0.46519608 0.46519608 0.46519608
0.49313725 0.49313725 0.49313725
0.53039216 0.53039216 0.53039216
0.57598039 0.57598039 0.57598039
0.62365196 0.62365196 0.62365196
0.6713848 0.6713848 0.6713848
0.70735294 0.70735294 0.70735294
0.37843137 0.37843137 0.37843137
0.37745098 0.37745098 0.37745098
0.37745098 0.37745098 0.37745098
0.37745098 0.37745098 0.37745098
0.38088235 0.38088235 0.38088235
0.38431373 0.38431373 0.38431373
0.38431373 0.38431373 0.38431373
0.38431373 0.38431373 0.38431373
0.38431373 0.38431373 0.38431373
0.38431373 0.38431373 0.38431373
0.38431373 0.38431373 0.38431373
0.38786765 0.38786765 0.38786765
0.39509804 0.39509804 0.39509804
0.40134804 0.40134804 0.40134804
0.40710784 0.40710784 0.40710784
0.41421569 0.41421569 0.41421569
0.42941176 0.42941176 0.42941176
0.45098039 0.45098039 0.45098039
0.47647059 0.47647059 0.47647059
0.50735294 0.50735294 0.50735294
0.55098039 0.55098039 0.55098039
0.5935049 0.5935049 0.5935049
0.64117647 0.64117647 0.64117647
0.6872549 0.6872549 0.6872549
0.7245098 0.7245098 0.7245098
0.40686275 0.40686275 0.40686275
0.40833333 0.40833333 0.40833333
0.41262255 0.41262255 0.41262255
0.4158701 0.4158701 0.4158701
0.41887255 0.41887255 0.41887255
0.42009804 0.42009804 0.42009804
0.42120098 0.42120098 0.42120098
0.42156863 0.42156863 0.42156863
0.42156863 0.42156863 0.42156863
0.42156863 0.42156863 0.42156863
0.42218137 0.42218137 0.42218137
0.4254902 0.4254902 0.4254902
0.43137255 0.43137255 0.43137255
0.43756127 0.43756127 0.43756127
0.44080882 0.44080882 0.44080882
0.44601716 0.44601716 0.44601716
0.45147059 0.45147059 0.45147059
0.46574755 0.46574755 0.46574755
0.49068627 0.49068627 0.49068627
0.52628676 0.52628676 0.52628676
0.56764706 0.56764706 0.56764706
0.60882353 0.60882353 0.60882353
0.65355392 0.65355392 0.65355392
0.70147059 0.70147059 0.70147059
0.73627451 0.73627451 0.73627451
0.44705882 0.44705882 0.44705882
0.45098039 0.45098039 0.45098039
0.45490196 0.45490196 0.45490196
0.45833333 0.45833333 0.45833333
0.45882353 0.45882353 0.45882353
0.45882353 0.45882353 0.45882353
0.45882353 0.45882353 0.45882353
0.45882353 0.45882353 0.45882353
0.4627451 0.4627451 0.4627451
0.4627451 0.4627451 0.4627451
0.46372549 0.46372549 0.46372549
0.46666667 0.46666667 0.46666667
0.47058824 0.47058824 0.47058824
0.4745098 0.4745098 0.4745098
0.47745098 0.47745098 0.47745098
0.47990196 0.47990196 0.47990196
0.48627451 0.48627451 0.48627451
0.49264706 0.49264706 0.49264706
0.50196078 0.50196078 0.50196078
0.54313725 0.54313725 0.54313725
0.58431373 0.58431373 0.58431373
0.6254902 0.6254902 0.6254902
0.66960784 0.66960784 0.66960784
0.71715686 0.71715686 0.71715686
0.75686275 0.75686275 0.75686275
0.50882353 0.50882353 0.50882353
0.50882353 0.50882353 0.50882353
0.5127451 0.5127451 0.5127451
0.5127451 0.5127451 0.5127451
0.5127451 0.5127451 0.5127451
0.5127451 0.5127451 0.5127451
0.5127451 0.5127451 0.5127451
0.51329657 0.51329657 0.51329657
0.51666667 0.51666667 0.51666667
0.52150735 0.52150735 0.52150735
0.5245098 0.5245098 0.5245098
0.5245098 0.5245098 0.5245098
0.53039216 0.53039216 0.53039216
0.53235294 0.53235294 0.53235294
0.53235294 0.53235294 0.53235294
0.53627451 0.53627451 0.53627451
0.54019608 0.54019608 0.54019608
0.54803922 0.54803922 0.54803922
0.55686275 0.55686275 0.55686275
0.57334559 0.57334559 0.57334559
0.60612745 0.60612745 0.60612745
0.64607843 0.64607843 0.64607843
0.6872549 0.6872549 0.6872549
0.73290441 0.73290441 0.73290441
0.77647059 0.77647059 0.77647059
0.56960784 0.56960784 0.56960784
0.56666667 0.56666667 0.56666667
0.56985294 0.56985294 0.56985294
0.57401961 0.57401961 0.57401961
0.5745098 0.5745098 0.5745098
0.5745098 0.5745098 0.5745098
0.5745098 0.5745098 0.5745098
0.5745098 0.5745098 0.5745098
0.57843137 0.57843137 0.57843137
0.58198529 0.58198529 0.58198529
0.58627451 0.58627451 0.58627451
0.58970588 0.58970588 0.58970588
0.59215686 0.59215686 0.59215686
0.5942402 0.5942402 0.5942402
0.59730392 0.59730392 0.59730392
0.60012255 0.60012255 0.60012255
0.60588235 0.60588235 0.60588235
0.60980392 0.60980392 0.60980392
0.61470588 0.61470588 0.61470588
0.62794118 0.62794118 0.62794118
0.65392157 0.65392157 0.65392157
0.68480392 0.68480392 0.68480392
0.71495098 0.71495098 0.71495098
0.74264706 0.74264706 0.74264706
0.77745098 0.77745098 0.77745098
0.62843137 0.62843137 0.62843137
0.62843137 0.62843137 0.62843137
0.62843137 0.62843137 0.62843137
0.63192402 0.63192402 0.63192402
0.63627451 0.63627451 0.63627451
0.63627451 0.63627451 0.63627451
0.63627451 0.63627451 0.63627451
0.63627451 0.63627451 0.63627451
0.64019608 0.64019608 0.64019608
0.64264706 0.64264706 0.64264706
0.64889706 0.64889706 0.64889706
0.65196078 0.65196078 0.65196078
0.65588235 0.65588235 0.65588235
0.65980392 0.65980392 0.65980392
0.66237745 0.66237745 0.66237745
0.66501225 0.66501225 0.66501225
0.66764706 0.66764706 0.66764706
0.67156863 0.67156863 0.67156863
0.67647059 0.67647059 0.67647059
0.68676471 0.68676471 0.68676471
0.70882353 0.70882353 0.70882353
0.73535539 0.73535539 0.73535539
0.75036765 0.75036765 0.75036765
0.76096814 0.76096814 0.76096814
0.78431373 0.78431373 0.78431373
0.69019608 0.69019608 0.69019608
0.69019608 0.69019608 0.69019608
0.69019608 0.69019608 0.69019608
0.69019608 0.69019608 0.69019608
0.69509804 0.69509804 0.69509804
0.69607843 0.69607843 0.69607843
0.69705882 0.69705882 0.69705882
0.69803922 0.69803922 0.69803922
0.70196078 0.70196078 0.70196078
0.70588235 0.70588235 0.70588235
0.71078431 0.71078431 0.71078431
0.71715686 0.71715686 0.71715686
0.71960784 0.71960784 0.71960784
0.72156863 0.72156863 0.72156863
0.7254902 0.7254902 0.7254902
0.72696078 0.72696078 0.72696078
0.72941176 0.72941176 0.72941176
0.73063725 0.73063725 0.73063725
0.73578431 0.73578431 0.73578431
0.74460784 0.74460784 0.74460784
0.7627451 0.7627451 0.7627451
0.77696078 0.77696078 0.77696078
0.7872549 0.7872549 0.7872549
0.79362745 0.79362745 0.79362745
0.80392157 0.80392157 0.80392157
0.75196078 0.75196078 0.75196078
0.75196078 0.75196078 0.75196078
0.75147059 0.75147059 0.75147059
0.74846814 0.74846814 0.74846814
0.75147059 0.75147059 0.75147059
0.75238971 0.75238971 0.75238971
0.75588235 0.75588235 0.75588235
0.75980392 0.75980392 0.75980392
0.76372549 0.76372549 0.76372549
0.76764706 0.76764706 0.76764706
0.77242647 0.77242647 0.77242647
0.77849265 0.77849265 0.77849265
0.78112745 0.78112745 0.78112745
0.78333333 0.78333333 0.78333333
0.78713235 0.78713235 0.78713235
0.7872549 0.7872549 0.7872549
0.7872549 0.7872549 0.7872549
0.78939951 0.78939951 0.78939951
0.79558824 0.79558824 0.79558824
0.80196078 0.80196078 0.80196078
0.81176471 0.81176471 0.81176471
0.81813725 0.81813725 0.81813725
0.82843137 0.82843137 0.82843137
0.83333333 0.83333333 0.83333333
0.83333333 0.83333333 0.83333333
0.81078431 0.81078431 0.81078431
0.81017157 0.81017157 0.81017157
0.80686275 0.80686275 0.80686275
0.80588235 0.80588235 0.80588235
0.80637255 0.80637255 0.80637255
0.80723039 0.80723039 0.80723039
0.81078431 0.81078431 0.81078431
0.81617647 0.81617647 0.81617647
0.81862745 0.81862745 0.81862745
0.825 0.825 0.825
0.82965686 0.82965686 0.82965686
0.83419118 0.83419118 0.83419118
0.83970588 0.83970588 0.83970588
0.84252451 0.84252451 0.84252451
0.84509804 0.84509804 0.84509804
0.84215686 0.84215686 0.84215686
0.84215686 0.84215686 0.84215686
0.84460784 0.84460784 0.84460784
0.85 0.85 0.85
0.85355392 0.85355392 0.85355392
0.85441176 0.85441176 0.85441176
0.85931373 0.85931373 0.85931373
0.86960784 0.86960784 0.86960784
0.87095588 0.87095588 0.87095588
0.87156863 0.87156863 0.87156863
0.8622549 0.8622549 0.8622549
0.86133578 0.86133578 0.86133578
0.85686275 0.85686275 0.85686275
0.85655637 0.85655637 0.85655637
0.85686275 0.85686275 0.85686275
0.85833333 0.85833333 0.85833333
0.86078431 0.86078431 0.86078431
0.86078431 0.86078431 0.86078431
0.86323529 0.86323529 0.86323529
0.86623775 0.86623775 0.86623775
0.86960784 0.86960784 0.86960784
0.87322304 0.87322304 0.87322304
0.87671569 0.87671569 0.87671569
0.88707108 0.88707108 0.88707108
0.88823529 0.88823529 0.88823529
0.88970588 0.88970588 0.88970588
0.89215686 0.89215686 0.89215686
0.89307598 0.89307598 0.89307598
0.89607843 0.89607843 0.89607843
0.89607843 0.89607843 0.89607843
0.9 0.9 0.9
0.9004902 0.9004902 0.9004902
0.90686275 0.90686275 0.90686275
0.91029412 0.91029412 0.91029412
0.91029412 0.91029412 0.91029412
0.90196078 0.90196078 0.90196078
0.8995098 0.8995098 0.8995098
0.89411765 0.89411765 0.89411765
0.89411765 0.89411765 0.89411765
0.89411765 0.89411765 0.89411765
0.89411765 0.89411765 0.89411765
0.89117647 0.89117647 0.89117647
0.89019608 0.89019608 0.89019608
0.88627451 0.88627451 0.88627451
0.88627451 0.88627451 0.88627451
0.88235294 0.88235294 0.88235294
0.88627451 0.88627451 0.88627451
0.89411765 0.89411765 0.89411765
0.91470588 0.91470588 0.91470588
0.92941176 0.92941176 0.92941176
0.9254902 0.9254902 0.9254902
0.9254902 0.9254902 0.9254902
0.92941176 0.92941176 0.92941176
0.93333333 0.93333333 0.93333333
0.93333333 0.93333333 0.93333333
0.93333333 0.93333333 0.93333333
0.9372549 0.9372549 0.9372549
0.94019608 0.94019608 0.94019608
0.9372549 0.9372549 0.9372549
0.9372549 0.9372549 0.9372549
0.14117647 0.14117647 0.14117647
0.14509804 0.14509804 0.14509804
0.14509804 0.14509804 0.14509804
0.14509804 0.14509804 0.14509804
0.14509804 0.14509804 0.14509804
0.14509804 0.14509804 0.14509804
0.14754902 0.14754902 0.14754902
0.15741422 0.15741422 0.15741422
0.16862745 0.16862745 0.16862745
0.17892157 0.17892157 0.17892157
0.18921569 0.18921569 0.18921569
0.1995098 0.1995098 0.1995098
0.20833333 0.20833333 0.20833333
0.21862745 0.21862745 0.21862745
0.22892157 0.22892157 0.22892157
0.24607843 0.24607843 0.24607843
0.26666667 0.26666667 0.26666667
0.2872549 0.2872549 0.2872549
0.30784314 0.30784314 0.30784314
0.32696078 0.32696078 0.32696078
0.35343137 0.35343137 0.35343137
0.38400735 0.38400735 0.38400735
0.41458333 0.41458333 0.41458333
0.45447304 0.45447304 0.45447304
0.48627451 0.48627451 0.48627451
0.14362745 0.14362745 0.14362745
0.14509804 0.14509804 0.14509804
0.14509804 0.14509804 0.14509804
0.1466299 0.1466299 0.1466299
0.1466299 0.1466299 0.1466299
0.14643842 0.14643842 0.14643842
0.14754902 0.14754902 0.14754902
0.15741422 0.15741422 0.15741422
0.16862745 0.16862745 0.16862745
0.17892157 0.17892157 0.17892157
0.18921569 0.18921569 0.18921569
0.20085018 0.20085018 0.20085018
0.20879289 0.20879289 0.20879289
0.21862745 0.21862745 0.21862745
0.22892157 0.22892157 0.22892157
0.24795496 0.24795496 0.24795496
0.26911765 0.26911765 0.26911765
0.28913143 0.28913143 0.28913143
0.30747549 0.30747549 0.30747549
0.32696078 0.32696078 0.32696078
0.35343137 0.35343137 0.35343137
0.38431373 0.38431373 0.38431373
0.41519608 0.41519608 0.41519608
0.45443474 0.45443474 0.45443474
0.49172794 0.49172794 0.49172794
0.14509804 0.14509804 0.14509804
0.14509804 0.14509804 0.14509804
0.14571078 0.14571078 0.14571078
0.14901961 0.14901961 0.14901961
0.14901961 0.14901961 0.14901961
0.14963235 0.14963235 0.14963235
0.15128676 0.15128676 0.15128676
0.15931373 0.15931373 0.15931373
0.16960784 0.16960784 0.16960784
0.17990196 0.17990196 0.17990196
0.19329044 0.19329044 0.19329044
0.20404412 0.20404412 0.20404412
0.21378676 0.21378676 0.21378676
0.22352941 0.22352941 0.22352941
0.23759191 0.23759191 0.23759191
0.25343137 0.25343137 0.25343137
0.27401961 0.27401961 0.27401961
0.2939951 0.2939951 0.2939951
0.31127451 0.31127451 0.31127451
0.32835478 0.32835478 0.32835478
0.35441176 0.35441176 0.35441176
0.38632047 0.38632047 0.38632047
0.41556373 0.41556373 0.41556373
0.45215993 0.45215993 0.45215993
