site/assets/luts/natron-haldclut--fuji-fp-100c-negative--841b05f08.cube
# LUTr-Project: LUTr — LUTrepository
# LUTr-Schema-Version: 1
# LUTr-ID: natron-haldclut--fuji-fp-100c-negative--841b05f08
# LUTr-Title: fuji fp-100c negative +
# LUTr-Collection: Natron HaldCLUT
# LUTr-Collection-ID: natron-haldclut-presets
# LUTr-Source: https://github.com/NatronGitHub/clut
# LUTr-Source-File: submissions/natron-haldclut-presets/instant_pro/fuji_fp-100c_negative_+.png
# LUTr-Source-Format: PNG
# LUTr-Source-SHA256: 8ea6aad0f775ab20303ff17ed481ac8d3c105fc1edad951ed39a289252ad7528
# LUTr-License: CC-BY-SA-4.0
# LUTr-License-URL: https://github.com/NatronGitHub/clut#license
# LUTr-Tags: creative, film, film-emulation, hald-clut, natron, png, cube
# LUTr-Transform-Class: film-emulation
# LUTr-Input-Color-Space: srgb
# LUTr-Output-Color-Space: srgb
# LUTr-Color-Space-Confidence: assumed-display-referred
# LUTr-Conversion-Method: PNG LUT image decoded at 16-bit and sampled to 25x25x25 3D CUBE
# LUTr-Conversion-Date: 2026-07-27
# LUTr-Conversion-Tool: LUTr scripts/convert-all-to-cube.mjs
# LUTr-Conversion-Grid: 25x25x25
# LUTr-Note: Preserve this metadata and the upstream license notices when redistributing.
TITLE "fuji fp-100c negative +"
LUT_3D_SIZE 9
DOMAIN_MIN 0 0 0
DOMAIN_MAX 1 1 1
0.0078431373 0.090196078 0.2
0.0044117647 0.090196078 0.19607843
0.064705882 0.090196078 0.19607843
0.22401961 0.08627451 0.2
0.44901961 0.021568627 0.2
0.64019608 0.014215686 0.19215686
0.80784314 0.066666667 0.18823529
0.93039216 0.26127451 0.18872549
1 0.41176471 0.2
0.0078431373 0.10931373 0.2
0.0078431373 0.10931373 0.2
0.084803922 0.10539216 0.19607843
0.24920343 0.10539216 0.2
0.45220588 0.084558824 0.19215686
0.65931373 0.056188725 0.19215686
0.81176471 0.16286765 0.18431373
0.92696078 0.29944853 0.18431373
0.98823529 0.40735294 0.19264706
0.0078431373 0.16960784 0.20784314
0.0039215686 0.14754902 0.20392157
0.10784314 0.16764706 0.2
0.29068627 0.18823529 0.19607843
0.49705882 0.1877451 0.18676471
0.67696078 0.22401961 0.17745098
0.81666667 0.29289216 0.17181373
0.92610294 0.40159314 0.18651961
0.99509804 0.49313725 0.22156863
0 0.24362745 0.21421569
0.02254902 0.25147059 0.22175245
0.15147059 0.27941176 0.21519608
0.32248775 0.3372549 0.18431373
0.54215686 0.38578431 0.15588235
0.69761029 0.4004902 0.15441176
0.82352941 0.43627451 0.15539216
0.93088235 0.5127451 0.18854167
0.99607843 0.57598039 0.24411765
0.0078431373 0.40588235 0.24901961
0.043137255 0.40563725 0.25073529
0.19215686 0.41715686 0.25294118
0.32083333 0.47156863 0.22892157
0.53039216 0.53823529 0.19019608
0.71764706 0.59093137 0.11887255
0.83088235 0.59705882 0.15343137
0.93088235 0.62009804 0.19583333
0.99607843 0.65686275 0.3
0.10196078 0.55098039 0.31176471
0.18627451 0.55851716 0.32205882
0.28921569 0.57169118 0.32928922
0.39313725 0.59417892 0.33284314
0.52377451 0.63259804 0.30539216
0.68186275 0.68431373 0.2622549
0.83713235 0.72634804 0.24852941
0.94215686 0.7377451 0.28939951
0.98823529 0.74558824 0.36764706
0.32058824 0.69411765 0.42058824
0.3622549 0.69803922 0.43529412
0.42058824 0.69803922 0.45
0.49473039 0.71164216 0.46666667
0.58137255 0.73431373 0.46715686
0.68382353 0.76519608 0.44816176
0.81495098 0.79926471 0.43235294
0.95833333 0.83333333 0.43259804
0.99607843 0.83431373 0.48235294
0.54068627 0.81323529 0.57843137
0.54411765 0.81372549 0.58143382
0.57879902 0.81715686 0.58627451
0.62696078 0.81715686 0.60196078
0.68382353 0.83088235 0.60808824
0.7591299 0.84822304 0.59803922
0.83186275 0.86470588 0.59154412
0.93180147 0.88290441 0.58976716
0.99215686 0.89460784 0.60147059
0.74509804 0.90588235 0.69019608
0.76323529 0.90931373 0.69362745
0.77941176 0.90588235 0.69803922
0.81666667 0.90980392 0.70833333
0.84901961 0.91372549 0.71372549
0.89019608 0.92401961 0.72009804
0.91960784 0.9254902 0.71078431
0.96127451 0.92941176 0.70588235
0.99607843 0.94117647 0.72156863
0.015686275 0.094117647 0.21127451
0.0083333333 0.090686275 0.20343137
0.069117647 0.090196078 0.2
0.24558824 0.062745098 0.20392157
0.45416667 0.0075980392 0.20563725
0.65539216 0.0078431373 0.21127451
0.80784314 0.080882353 0.21605392
0.93180147 0.27261029 0.22604167
0.99607843 0.40882353 0.2495098
0.019178922 0.11323529 0.21127451
0.026531863 0.10539216 0.20784314
0.096691176 0.10507047 0.20392157
0.26448376 0.10116422 0.20765931
0.46942402 0.071783088 0.20784314
0.66194853 0.071323529 0.21127451
0.81176471 0.16711091 0.21862745
0.93039216 0.3107307 0.21911765
0.99215686 0.43431373 0.26170343
0.0078431373 0.14754902 0.21176471
0.022977941 0.14705882 0.21176471
0.12668505 0.16559436 0.21127451
0.31311275 0.18601409 0.20863971
0.51004902 0.19381127 0.20441176
0.67651654 0.22530637 0.20436581
0.82328431 0.30367647 0.20680147
0.93056066 0.4051777 0.22314645
0.98345588 0.47120098 0.25686275
0.024019608 0.26292892 0.23333333
0.047495404 0.26666667 0.23448223
0.16662071 0.28307292 0.2314951
0.33921569 0.34345129 0.20742188
0.5611826 0.39362745 0.18121936
0.7 0.40202206 0.18952972
0.82254902 0.4495098 0.2
0.92693781 0.51013327 0.23333333
0.99577206 0.57843137 0.29105392
0.006127451 0.41764706 0.26078431
0.10462623 0.425 0.2700674
0.22781863 0.43069853 0.27420343
0.35171569 0.47156863 0.26363358
0.53786765 0.53921569 0.22144608
0.71176471 0.58373162 0.19721201
0.82696078 0.59509804 0.21672794
0.93088235 0.62009804 0.26688113
0.99191176 0.64901961 0.33210784
0.16452206 0.56636029 0.33314951
0.2153799 0.56779259 0.34332108
0.30863971 0.57754289 0.35625
0.41079197 0.59656863 0.35925245
0.52999387 0.6377451 0.33710172
0.68854167 0.68523284 0.30294118
0.82745098 0.71657475 0.29589461
0.94264706 0.73560049 0.3377451
0.99607843 0.74558824 0.39393382
0.33872549 0.69411765 0.44791667
0.36950061 0.69803922 0.45441176
0.42941176 0.70196078 0.46838235
0.50450368 0.70890012 0.48837316
0.58529412 0.73529412 0.4841299
0.68831189 0.76911765 0.46969975
0.80490196 0.79901961 0.45147059
0.9582261 0.83334865 0.4439951
0.98872549 0.83431373 0.49497549
0.54068627 0.81372549 0.58535539
0.54449295 0.81328891 0.58235294
0.57708333 0.81205576 0.58884804
0.62687653 0.81715686 0.60566023
0.68428309 0.83066789 0.61522672
0.7495098 0.84981618 0.61323529
0.83186275 0.86539522 0.60196078
0.92395833 0.88370864 0.60104167
0.99607843 0.89810049 0.60539216
0.76029412 0.91323529 0.69803922
0.74901961 0.90202206 0.69019608
0.78860294 0.91262255 0.70441176
0.81354167 0.91127451 0.70735294
0.84901961 0.91372549 0.71372549
0.89246324 0.92205882 0.72579657
0.92647059 0.92941176 0.71764706
0.96568627 0.93339461 0.71421569
0.99607843 0.94068627 0.71764706
0.0049019608 0.090196078 0.22745098
0.046078431 0.090196078 0.22941176
0.10490196 0.08627451 0.22328431
0.26960784 0.063235294 0.23186275
0.5 0.006372549 0.24607843
0.69558824 0.0042892157 0.26127451
0.83333333 0.093382353 0.28112745
0.93480392 0.2877451 0.31421569
0.99607843 0.39411765 0.34313725
0.011764706 0.10551471 0.23823529
0.030330882 0.10163909 0.23463542
0.12732843 0.10539216 0.23198529
0.30343137 0.089629289 0.24099265
0.52046569 0.028921569 0.25147059
0.69540441 0.037254902 0.26671262
0.82245711 0.20634191 0.29408701
0.92728248 0.34342831 0.32340686
0.99215686 0.45306373 0.36813725
0.0039215686 0.14705882 0.24215686
0.015808824 0.15870098 0.24607843
0.16568627 0.17101716 0.25392157
0.35612745 0.20196078 0.2627451
0.53529412 0.20257353 0.26703431
0.7004902 0.2325674 0.2729473
0.82910539 0.33057598 0.29485294
0.93318015 0.42306985 0.32227328
0.99534314 0.51544118 0.37941176
0.048529412 0.2807598 0.28137255
0.098360907 0.29019608 0.28270527
0.23268995 0.30833333 0.29031863
0.39276961 0.35813419 0.27591912
0.56519608 0.38676471 0.27604167
0.70392157 0.41165748 0.27987132
0.82647059 0.45784314 0.30009191
0.93088235 0.52357537 0.34332108
0.99068627 0.58284314 0.40098039
0.18333333 0.43872549 0.33431373
0.20704657 0.44656863 0.33431373
0.28676471 0.45490196 0.33970588
0.39387255 0.48645833 0.34344363
0.56740196 0.55073529 0.31568627
0.71176471 0.58504902 0.30514706
0.82463235 0.59803922 0.32414216
0.92696078 0.62426471 0.3716299
0.99019608 0.6627451 0.43186275
0.24546569 0.58137255 0.3932598
0.28383885 0.58529412 0.40159314
0.3495098 0.59313725 0.41004902
0.44460784 0.60810355 0.43196998
0.55441176 0.64417892 0.42438725
0.70294118 0.69422488 0.39146752
0.83137255 0.7229473 0.38998162
0.93890931 0.73382353 0.42348346
0.98823529 0.74166667 0.45833333
0.36960784 0.70416667 0.48529412
0.3995098 0.70481005 0.49142157
0.44785539 0.70955882 0.50220588
0.52257966 0.71939338 0.51960784
0.60232843 0.73872549 0.53039216
0.69485294 0.76813725 0.51541054
0.82107843 0.8 0.50765931
0.9435049 0.82552083 0.50744485
0.99117647 0.83039216 0.54509804
0.54362745 0.81323529 0.59705882
0.55409007 0.81715686 0.6004902
0.59313725 0.81764706 0.60873162
0.63874081 0.82156863 0.62098652
0.69534314 0.83235294 0.63186275
0.75061275 0.85035233 0.63449755
0.83186275 0.86764706 0.6245098
0.92712929 0.88736213 0.62804841
0.99215686 0.90245098 0.63186275
0.75686275 0.91078431 0.70196078
0.76605392 0.91078431 0.70196078
0.78161765 0.90980392 0.70416667
0.80147059 0.90490196 0.70551471
0.8495098 0.91029412 0.72156863
0.89595588 0.92303922 0.72941176
0.92941176 0.93137255 0.72745098
0.97046569 0.9372549 0.72941176
0.99509804 0.94019608 0.7245098
0.062254902 0.082352941 0.30539216
0.13676471 0.070772059 0.29754902
0.24901961 0.056740196 0.30245098
0.35784314 0.061764706 0.31813725
0.53602941 0.045098039 0.3379902
0.75435049 0.0038602941 0.39019608
0.87634804 0.092156863 0.39852941
0.96372549 0.29283088 0.43431373
0.99607843 0.45098039 0.49362745
0.046691176 0.10147059 0.31323529
0.10445006 0.091444547 0.31901042
0.26328125 0.090808824 0.31942402
0.37783395 0.11757813 0.33327206
0.55784314 0.10147059 0.35196078
0.74870558 0.1127451 0.39619332
0.86519608 0.19367341 0.40520833
0.95641085 0.33927696 0.43932292
0.99607843 0.46783088 0.49558824
0.0067401961 0.15392157 0.32291667
0.025536152 0.16078431 0.33039216
0.20860907 0.18416054 0.34926471
0.39993873 0.22846201 0.36245404
0.58333333 0.26023284 0.39068627
0.73664216 0.28897059 0.40966605
0.84987745 0.34644608 0.42386642
0.95294118 0.43573836 0.45932904
0.99607843 0.52794118 0.50723039
0.0078431373 0.28039216 0.35098039
0.06942402 0.29026501 0.3544807
0.23786765 0.32015931 0.37745098
0.43543964 0.37493873 0.40594363
0.58357843 0.4127451 0.41786152
0.71926317 0.44028033 0.42493873
0.82683824 0.48964461 0.45245098
0.9335095 0.54197304 0.48370864
0.99160539 0.59895833 0.52506127
0.15735294 0.44460784 0.41470588
0.24240196 0.45670956 0.42181373
0.35085784 0.48333333 0.43792892
0.45958946 0.51862745 0.45686275
0.58210784 0.55870098 0.45416667
0.71645221 0.58900123 0.44797794
0.82591912 0.60251225 0.46617647
0.92803309 0.63710172 0.49877451
0.99607843 0.67058824 0.53872549
0.35091912 0.59650735 0.49411765
0.37616422 0.60196078 0.49411765
0.41764706 0.61335784 0.49656863
0.49089308 0.63284314 0.50931373
0.58235294 0.65496324 0.51525735
0.7151348 0.69852941 0.50294118
0.83123468 0.71726409 0.50931373
0.93982077 0.73400735 0.52824755
0.98431373 0.74503676 0.55153186
0.45882353 0.71372549 0.5622549
0.46096814 0.71666667 0.55749081
0.48348652 0.72352941 0.55560662
0.55147059 0.72843137 0.57064951
0.62616422 0.74215686 0.58792892
0.7015625 0.77267157 0.58431373
0.81485907 0.79901961 0.57693015
0.94661458 0.82593444 0.58236826
0.99215686 0.83039216 0.6057598
0.56372549 0.81715686 0.62745098
0.58106618 0.81699602 0.63072151
0.60454963 0.81979167 0.63529412
0.64215686 0.825 0.64382659
0.70940564 0.83275123 0.6611826
0.77041207 0.84981618 0.6622549
0.84313725 0.86885723 0.65874694
0.93872549 0.88752298 0.65490196
0.99393382 0.90655637 0.65882353
0.75294118 0.90588235 0.70441176
0.77107843 0.91243873 0.71011029
0.77598039 0.90588235 0.70980392
0.81029412 0.90833333 0.71709559
0.86127451 0.91495098 0.73137255
0.90588235 0.92156863 0.74362745
0.93382353 0.92830882 0.73970588
0.97303922 0.93596814 0.74362745
0.99607843 0.94117647 0.74362745
0.18039216 0.041176471 0.42156863
0.23627451 0.021323529 0.43333333
0.36323529 0.011764706 0.45539216
0.52867647 0.022058824 0.47892157
0.63823529 0.16862745 0.49607843
0.73431373 0.19019608 0.50882353
0.89901961 0.32058824 0.57696078
0.98112745 0.39534314 0.58063725
1 0.48627451 0.60784314
0.16127451 0.068137255 0.44852941
0.22668505 0.061550245 0.44656863
0.36740196 0.04932598 0.47107843
0.53180147 0.09932598 0.49304534
0.63872549 0.23970588 0.50931373
0.74224877 0.26488971 0.52386642
0.88970588 0.35416667 0.57328431
0.97598039 0.43578431 0.58848039
1 0.51691176 0.60784314
0.021568627 0.13823529 0.46666667
0.099448529 0.1471201 0.46789216
0.33002451 0.16813725 0.48872549
0.53394608 0.24368873 0.52107843
0.64485294 0.35563725 0.53431373
0.74454657 0.39019608 0.54442402
0.88039216 0.45772059 0.59264706
0.97401961 0.50343137 0.59908088
0.99607843 0.55784314 0.61862745
0.0039215686 0.26715686 0.47058824
0.016176471 0.27720588 0.48226103
0.13210784 0.30349265 0.49436275
0.45248162 0.37674632 0.53039216
0.62830882 0.47254902 0.55612745
0.74779412 0.51666667 0.58204657
0.85588235 0.53921569 0.59460784
0.9497549 0.58367034 0.60750613
0.98970588 0.62254902 0.6254902
0.078431373 0.43235294 0.48823529
0.13186275 0.44656863 0.49889706
0.29117647 0.4745098 0.51348039
0.43125 0.50833333 0.54938725
0.61911765 0.57696078 0.57205882
0.73517157 0.61838235 0.59056373
0.83529412 0.62745098 0.59215686
0.92696078 0.65453431 0.61017157
0.99607843 0.6872549 0.63039216
0.30147059 0.58823529 0.54803922
0.33023897 0.59387255 0.55082721
0.41666667 0.61323529 0.56746324
0.52598039 0.64365809 0.59093137
0.62352941 0.67230392 0.60404412
0.72472426 0.70514706 0.60735294
0.84485294 0.73167892 0.60906863
0.93449755 0.73823529 0.62254902
0.98431373 0.74877451 0.63529412
0.45 0.71323529 0.60784314
0.46231618 0.71323529 0.61176471
0.52254902 0.7245098 0.62071078
0.58529412 0.73890931 0.62843137
0.65441176 0.75171569 0.6370098
0.72873775 0.77598039 0.64448529
0.84620098 0.80588235 0.64105392
0.95863971 0.82996324 0.64675245
0.99215686 0.82794118 0.65931373
0.57843137 0.81323529 0.66176471
0.59240196 0.81715686 0.66568627
0.61813725 0.82126225 0.66868873
0.66681985 0.83284314 0.66960784
0.71495098 0.83676471 0.6752451
0.78465074 0.84822304 0.6877451
0.85459559 0.86470588 0.69178922
0.94485294 0.8877451 0.68900123
0.97843137 0.89485294 0.68921569
0.7627451 0.90588235 0.72352941
0.77794118 0.91151961 0.72720588
0.78627451 0.91029412 0.7254902
0.81936275 0.91764706 0.72941176
0.85294118 0.91372549 0.73627451
0.8995098 0.91764706 0.74779412
0.94117647 0.92794118 0.75882353
0.98088235 0.9375 0.7627451
0.99411765 0.93921569 0.7627451
0.31470588 0 0.57843137
0.38645833 0 0.58204657
0.50110294 0.0039215686 0.60134804
0.6377451 0.0078431373 0.62640931
0.7377451 0.21740196 0.63970588
0.80588235 0.37745098 0.64362745
0.86066176 0.41519608 0.65098039
0.97794118 0.51029412 0.68186275
1 0.59656863 0.69705882
0.30539216 0.023713235 0.58578431
0.37834712 0.021790748 0.59335938
0.48419118 0.013112745 0.60882353
0.62909773 0.047311581 0.63075214
0.73985907 0.29083946 0.64534314
0.80343137 0.42087929 0.65147059
0.86827512 0.45330882 0.65793505
0.98213082 0.54246324 0.68948376
1 0.62009804 0.70490196
0.20379902 0.1314951 0.59411765
0.290625 0.12696078 0.60134804
0.45073529 0.15119485 0.61755515
0.60980392 0.24166667 0.6386489
0.73327206 0.38841912 0.65686275
0.79411765 0.4948989 0.65977328
0.87579657 0.53722426 0.67279412
0.97775735 0.59932598 0.69281556
1 0.64705882 0.70098039
0.026531863 0.25 0.59411765
0.039453125 0.2495098 0.6004902
0.28196998 0.2873315 0.61597733
0.52851562 0.37493873 0.63823529
0.70664828 0.49390319 0.66127451
0.78235294 0.58134957 0.67261029
0.86453738 0.61574755 0.68198529
0.9738894 0.65931373 0.70281097
1 0.68529412 0.70490196
0.0098039216 0.41421569 0.59264706
0.022794118 0.42107843 0.59656863
0.092647059 0.43633578 0.60588235
0.37251838 0.47552083 0.62965686
0.6372549 0.56887255 0.66053922
0.77668505 0.65658701 0.67984069
0.85251225 0.68204657 0.68621324
0.95824142 0.70376838 0.69990809
0.99607843 0.73235294 0.70490196
0.18872549 0.56758578 0.6004902
0.24214154 0.57732077 0.60533088
0.34571078 0.59656863 0.61727941
0.47289369 0.62254902 0.63523284
0.61617647 0.66642157 0.66072304
0.75132506 0.71995251 0.68041513
0.86715686 0.74650735 0.69313725
0.95196078 0.75209099 0.69332108
0.99515931 0.76127451 0.70098039
0.38137255 0.69411765 0.64264706
0.39211091 0.7004902 0.64558824
0.4689951 0.71109069 0.65343137
0.54839154 0.73111213 0.66372549
0.65490196 0.75392157 0.68039216
0.7592065 0.78267463 0.69180453
0.86384804 0.81161152 0.69595588
0.95833333 0.82156863 0.69767157
0.99607843 0.83039216 0.70588235
0.52028186 0.80569853 0.6908701
0.55177696 0.8095818 0.69264706
0.58909314 0.81715686 0.6908701
0.65998775 0.82664675 0.69772518
0.72564338 0.83676471 0.70514706
0.80294118 0.85202972 0.71549479
0.88627451 0.86862745 0.72371324
0.95964308 0.8877451 0.72352941
0.98952206 0.89246324 0.73529412
0.73431373 0.90588235 0.74117647
0.7658701 0.9122549 0.74509804
0.79460784 0.91372549 0.74656863
0.81911765 0.91372549 0.74810049
0.85147059 0.91764706 0.7504902
0.90582108 0.92303922 0.76617647
0.93970588 0.91617647 0.77046569
0.98216912 0.9372549 0.78609069
0.99754902 0.94117647 0.79117647
0.51568627 0 0.70196078
0.56090686 0.0039215686 0.70098039
0.62941176 0.0039215686 0.70882353
0.73529412 0.0039215686 0.72414216
0.82843137 0.2377451 0.72843137
0.89068627 0.47941176 0.73529412
0.92941176 0.55882353 0.72745098
0.97487745 0.59203431 0.72781863
0.99607843 0.65 0.73921569
0.5004902 0.0073529412 0.70490196
0.54682904 0.0039215686 0.70490196
0.61835172 0.0068627451 0.7127451
0.73057598 0.061902574 0.72406556
0.82493873 0.29957108 0.73535539
0.89394914 0.50258885 0.73921569
0.92941176 0.57720588 0.73161765
0.97418811 0.61487439 0.73518689
1 0.67009804 0.74313725
0.42843137 0.070588235 0.70490196
0.47748162 0.087377451 0.70873162
0.58204657 0.12892157 0.71568627
0.70490196 0.23716299 0.72634804
0.80919118 0.39840686 0.73529412
0.88342525 0.56534926 0.73921569
0.92640931 0.63431373 0.73529412
0.97463235 0.66029412 0.73434436
1 0.70588235 0.74901961
0.21531863 0.23504902 0.69852941
0.32562806 0.25546875 0.70490196
0.45998775 0.29145221 0.70992647
0.62182904 0.36787684 0.72104779
0.77297794 0.49656863 0.73406863
0.87118566 0.62720588 0.73921569
0.92429534 0.68992034 0.74105392
0.98056066 0.7131587 0.74479167
1 0.74852941 0.7567402
0.024019608 0.36519608 0.6872549
0.022671569 0.37150735 0.69246324
0.044852941 0.39129902 0.69497549
0.43829657 0.46035539 0.70759804
0.69093137 0.55882353 0.7245098
0.83088235 0.67040441 0.73639706
0.92218137 0.7377451 0.74791667
0.97971814 0.76446078 0.75392157
1 0.79117647 0.76568627
0.015686275 0.54301471 0.68431373
0.008348652 0.54865196 0.68431373
0.06963848 0.56528799 0.68520221
0.29949449 0.57477022 0.69594056
0.49877451 0.60716912 0.70765931
0.75802696 0.70980392 0.73186275
0.91446078 0.77843137 0.75171569
0.98975184 0.81164216 0.76703431
0.99816176 0.82401961 0.77156863
0.25784314 0.68235294 0.68431373
0.28005515 0.68584559 0.68431373
0.34393382 0.69344363 0.69117647
0.45606618 0.70845588 0.69963235
0.59791667 0.73296569 0.71090686
0.74298407 0.76933211 0.72794118
0.89172794 0.82573529 0.75116422
0.97156863 0.84610907 0.7627451
0.99607843 0.84681373 0.76691176
0.41911765 0.79669118 0.71041667
0.42910539 0.79791667 0.71164216
0.49656863 0.80481005 0.71433824
0.56907169 0.81058517 0.71697304
0.67996324 0.82794118 0.7252451
0.79750306 0.84595588 0.74015012
0.90134804 0.8705576 0.7622549
0.98051471 0.89477635 0.77112439
0.99227941 0.89852941 0.77536765
0.67647059 0.91372549 0.76470588
0.68541667 0.91237745 0.76176471
0.71348039 0.90980392 0.76544118
0.75330882 0.90526961 0.76470588
0.83872549 0.91764706 0.77696078
0.89791667 0.92193627 0.78921569
0.95392157 0.92941176 0.80196078
0.99607843 0.93627451 0.82316176
1 0.9372549 0.82058824
0.68921569 0.0039215686 0.78578431
0.71960784 0.015134804 0.78578431
0.77254902 0.019607843 0.79313725
0.83511029 0.097058824 0.79313725
0.90661765 0.34730392 0.79926471
0.95667892 0.52254902 0.79313725
0.99607843 0.67401961 0.7939951
0.99215686 0.70827206 0.79313725
0.99607843 0.72696078 0.79313725
0.68878676 0.0078431373 0.78578431
0.71220129 0.015387561 0.78621324
0.7689951 0.015226716 0.79313725
0.82990196 0.19291513 0.7973269
0.89209559 0.37699142 0.79705882
0.95882353 0.54335937 0.79703585
0.98823529 0.6810049 0.79571078
0.99302237 0.72255668 0.78964461
1 0.73823529 0.78915441
0.6372549 0.099019608 0.78529412
0.68170956 0.1205576 0.78578431
0.73011642 0.20487132 0.78958333
0.80298713 0.3091299 0.79362745
0.87800245 0.44430147 0.79705882
0.94992341 0.58909314 0.79710478
0.98900123 0.7 0.79705882
0.99607843 0.74301471 0.79738051
1 0.76470588 0.79362745
0.54705882 0.26519608 0.78314951
0.577428 0.2771829 0.78186275
0.6410386 0.31629902 0.78186275
0.75202972 0.40692402 0.79039522
0.84540441 0.51927083 0.79313725
0.92776501 0.63591452 0.79491422
0.98584559 0.73521752 0.80098039
0.99221814 0.77937347 0.80128676
1 0.79528186 0.80098039
0.043137255 0.325 0.77009804
0.13992034 0.33596814 0.77380515
0.40900735 0.38694853 0.77573529
0.60269608 0.46127451 0.78152574
0.77671569 0.56507353 0.78529412
0.88946078 0.67313113 0.79491422
0.98137255 0.77107843 0.80563725
0.99607843 0.81492034 0.81277574
1 0.82598039 0.8127451
0.028125 0.50814951 0.76599265
0.020159314 0.50637255 0.76470588
0.021216299 0.51715686 0.76211703
0.095473346 0.53106618 0.76078431
0.56945466 0.59166667 0.77426471
0.81832874 0.69538909 0.78852635
0.94208027 0.79064032 0.80588235
1 0.85482537 0.8223652
1 0.86715686 0.83235294
0.0053921569 0.67598039 0.75477941
0.010186887 0.68235294 0.75344669
0.043719363 0.67855392 0.7504902
0.18564645 0.6865962 0.75399816
0.41942402 0.69362745 0.75980392
0.61132047 0.71613051 0.76960784
0.90634191 0.80772059 0.80196078
0.99607843 0.88114277 0.83247549
0.99607843 0.8877451 0.84105392
0.30232843 0.78670343 0.75042892
0.32745864 0.79019608 0.75055147
0.39381127 0.79411765 0.75479473
0.473606 0.80034467 0.75849418
0.58973652 0.80713848 0.76228554
0.73252145 0.82947304 0.77794118
0.87391238 0.86378676 0.79486826
0.9778799 0.89509804 0.82886795
0.99607843 0.91421569 0.85196078
0.55588235 0.90931373 0.80441176
0.58296569 0.91078431 0.80539216
0.60833333 0.90833333 0.80441176
0.66568627 0.90116422 0.79803922
0.74411765 0.90833333 0.80735294
0.84215686 0.91764706 0.8245098
0.92879902 0.92941176 0.83982843
0.98780637 0.92898284 0.84803922
1 0.94068627 0.86323529
0.83921569 0.19607843 0.87843137
0.84656863 0.21127451 0.875
0.86960784 0.28235294 0.8745098
0.90441176 0.38529412 0.87058824
0.94509804 0.48823529 0.86470588
0.99607843 0.62009804 0.86519608
0.99607843 0.70490196 0.85098039
0.99607843 0.79558824 0.86568627
0.99607843 0.79607843 0.83529412
0.82401961 0.22696078 0.8745098
0.83186275 0.24644608 0.87101716
0.85796569 0.32340686 0.87156863
0.89528186 0.40931373 0.87058824
0.94558824 0.52132353 0.87058824
0.98235294 0.62224265 0.85735294
0.99607843 0.72058824 0.85490196
0.99607843 0.7966299 0.85496324
1 0.82745098 0.85882353
0.79019608 0.31764706 0.87058824
0.80098039 0.33026961 0.87058824
0.82916667 0.38431373 0.87058824
0.87254902 0.46029412 0.87058824
0.93333333 0.56470588 0.8745098
0.98186275 0.65404412 0.86421569
0.99705882 0.74803922 0.86470588
0.99901961 0.8127451 0.8567402
1 0.83529412 0.8627451
0.72990196 0.38921569 0.8745098
0.74215686 0.40294118 0.87303922
0.77879902 0.4439951 0.87058824
0.83621324 0.51568627 0.87150735
0.90147059 0.6004902 0.87058824
0.97009804 0.68382353 0.86427696
0.9942402 0.76470588 0.86617647
1 0.82990196 0.86078431
1 0.84705882 0.8627451
0.57647059 0.42352941 0.87647059
0.59362745 0.4379902 0.87401961
0.66911765 0.48039216 0.8745098
0.74681373 0.54068627 0.86985294
0.84901961 0.62843137 0.87254902
0.93970588 0.70955882 0.86862745
0.99852941 0.78823529 0.87254902
1 0.85588235 0.88063725
1 0.86470588 0.87058824
0.018137255 0.51617647 0.85098039
0.012990196 0.50686275 0.86439951
0.098651961 0.50416667 0.86985294
0.48688725 0.53094363 0.878125
0.70661765 0.62401961 0.87058824
0.8754902 0.72359069 0.8721201
0.98333333 0.80625 0.87696078
0.99607843 0.86341912 0.86666667
1 0.89411765 0.87843137
0.017647059 0.69803922 0.85
0.00049019608 0.71237745 0.86911765
0.019607843 0.67720588 0.84509804
0.019730392 0.68002451 0.85563725
0.10196078 0.67598039 0.86813725
0.67794118 0.70625 0.87916667
0.9002451 0.80686275 0.87941176
0.99607843 0.88026961 0.88321078
0.99607843 0.90686275 0.87941176
0.12058824 0.82892157 0.875
0.16207108 0.82107843 0.85845588
0.22830882 0.81335784 0.83872549
0.35870098 0.81715686 0.87126225
0.47132353 0.81029412 0.86176471
0.61078431 0.81403186 0.87892157
0.73602941 0.81715686 0.89105392
0.97702206 0.88768382 0.88670343
0.99607843 0.93333333 0.90147059
0.59607843 0.90588235 0.89019608
0.61372549 0.91323529 0.88578431
0.59411765 0.90196078 0.85
0.64460784 0.90588235 0.85147059
0.73137255 0.91372549 0.88823529
0.78529412 0.90245098 0.87745098
0.88823529 0.92156863 0.89411765
0.97009804 0.93382353 0.90245098
1 0.94117647 0.89411765
