site/assets/luts/natron-haldclut--polaroid-px-70-cold--15881955e.cube
# LUTr-Project: LUTr — LUTrepository
# LUTr-Schema-Version: 1
# LUTr-ID: natron-haldclut--polaroid-px-70-cold--15881955e
# LUTr-Title: polaroid px-70 cold +
# LUTr-Collection: Natron HaldCLUT
# LUTr-Collection-ID: natron-haldclut-presets
# LUTr-Source: https://github.com/NatronGitHub/clut
# LUTr-Source-File: submissions/natron-haldclut-presets/instant_consumer/polaroid_px-70_cold_+.png
# LUTr-Source-Format: PNG
# LUTr-Source-SHA256: b8387102b58bb65100b40f0b070ef02772380035e204b85419dc5510a829755a
# LUTr-License: CC-BY-SA-4.0
# LUTr-License-URL: https://github.com/NatronGitHub/clut#license
# LUTr-Tags: creative, film, film-emulation, hald-clut, natron, png, cool, cube
# LUTr-Transform-Class: film-emulation
# LUTr-Input-Color-Space: srgb
# LUTr-Output-Color-Space: srgb
# LUTr-Color-Space-Confidence: assumed-display-referred
# LUTr-Conversion-Method: PNG LUT image decoded at 16-bit and sampled to 25x25x25 3D CUBE
# LUTr-Conversion-Date: 2026-07-27
# LUTr-Conversion-Tool: LUTr scripts/convert-all-to-cube.mjs
# LUTr-Conversion-Grid: 25x25x25
# LUTr-Note: Preserve this metadata and the upstream license notices when redistributing.
TITLE "polaroid px-70 cold +"
LUT_3D_SIZE 5
DOMAIN_MIN 0 0 0
DOMAIN_MAX 1 1 1
0 0.23921569 0.31764706
0.0078431373 0.23529412 0.31372549
0.1627451 0.22941176 0.31372549
0.74705882 0.33235294 0.30882353
0.99607843 0.54117647 0.3372549
0 0.23137255 0.30980392
0.0039215686 0.26887255 0.31004902
0.28970588 0.29607843 0.30980392
0.76568627 0.4 0.29901961
0.98333333 0.58137255 0.33627451
0 0.47647059 0.32156863
0.014705882 0.49558824 0.32352941
0.41764706 0.54019608 0.31372549
0.78921569 0.62598039 0.29558824
0.95098039 0.68039216 0.32156863
0.092156863 0.81470588 0.39019608
0.27965686 0.80294118 0.40980392
0.55686275 0.81862745 0.41470588
0.79215686 0.83357843 0.41960784
0.94803922 0.85294118 0.46078431
0.77647059 0.9372549 0.56470588
0.80196078 0.94117647 0.57156863
0.83529412 0.9372549 0.5745098
0.89509804 0.9372549 0.57647059
0.96862745 0.94509804 0.59607843
0 0.21666667 0.31764706
0.010784314 0.22745098 0.32843137
0.22009804 0.23186275 0.33235294
0.77745098 0.29681373 0.36372549
0.99215686 0.59019608 0.44019608
0 0.27745098 0.33553922
0.0039215686 0.26789216 0.33216912
0.34387255 0.30134804 0.3439951
0.80839461 0.44240196 0.3713848
0.99117647 0.63602941 0.44019608
0.0058823529 0.5127451 0.37352941
0.0039215686 0.51997549 0.36960784
0.47009804 0.56666667 0.36666667
0.80343137 0.63161765 0.36715686
0.95343137 0.70637255 0.4127451
0.3129902 0.83333333 0.44803922
0.37340686 0.81078431 0.44785539
0.5877451 0.83002451 0.45980392
0.8 0.84117647 0.46078431
0.94705882 0.85686275 0.49901961
0.79215686 0.9372549 0.57647059
0.80612745 0.9372549 0.5747549
0.82990196 0.93480392 0.5745098
0.89583333 0.93333333 0.57720588
0.95686275 0.92156863 0.55980392
0 0.22941176 0.39803922
0.021078431 0.24509804 0.41421569
0.3372549 0.29705882 0.43235294
0.7745098 0.32303922 0.49901961
0.98823529 0.55686275 0.53921569
0 0.30392157 0.43431373
0.011519608 0.30551471 0.43627451
0.43210784 0.38210784 0.45906863
0.81151961 0.45232843 0.51078431
0.98529412 0.67598039 0.55098039
0.0039215686 0.55686275 0.48039216
0.11642157 0.55171569 0.48039216
0.54313725 0.59705882 0.50196078
0.82573529 0.68382353 0.51887255
0.95980392 0.78921569 0.55196078
0.48627451 0.83039216 0.53627451
0.52941176 0.83039216 0.53235294
0.65735294 0.83333333 0.53627451
0.82156863 0.84926471 0.54019608
0.94215686 0.85882353 0.54803922
0.8254902 0.9372549 0.58823529
0.83480392 0.9372549 0.58627451
0.86176471 0.93529412 0.59019608
0.91617647 0.9372549 0.59656863
0.95882353 0.93921569 0.6
0.20784314 0.31372549 0.60686275
0.43333333 0.32941176 0.61666667
0.71519608 0.49166667 0.60980392
0.85098039 0.66838235 0.60416667
0.96666667 0.69313725 0.60784314
0.20980392 0.40563725 0.62254902
0.4372549 0.43786765 0.61838235
0.72990196 0.59411765 0.61078431
0.85490196 0.73357843 0.60416667
0.94877451 0.74289216 0.60490196
0.025 0.6504902 0.60735294
0.30796569 0.64227941 0.60686275
0.69338235 0.71127451 0.60490196
0.85245098 0.79632353 0.6
0.95490196 0.82058824 0.60392157
0.52230392 0.84534314 0.59313725
0.56488971 0.83296569 0.59234069
0.70919118 0.84522059 0.59705882
0.87352941 0.87628676 0.60042892
0.95784314 0.89044118 0.60490196
0.83333333 0.93431373 0.60392157
0.85196078 0.9372549 0.60784314
0.875 0.93382353 0.60882353
0.93431373 0.94117647 0.61740196
0.96862745 0.93431373 0.61666667
0.74509804 0.69803922 0.6745098
0.77647059 0.71568627 0.66764706
0.86862745 0.80196078 0.65686275
0.93823529 0.86764706 0.64313725
0.97647059 0.90588235 0.64313725
0.73627451 0.73529412 0.66666667
0.78848039 0.77181373 0.6627451
0.86813725 0.81862745 0.65098039
0.93406863 0.87352941 0.63897059
0.96470588 0.89803922 0.63921569
0.72352941 0.80784314 0.65882353
0.75294118 0.80931373 0.65833333
0.85588235 0.84705882 0.65098039
0.93627451 0.89117647 0.63921569
0.97254902 0.91764706 0.64705882
0.68921569 0.8754902 0.64705882
0.70490196 0.87328431 0.64705882
0.75980392 0.86960784 0.63529412
0.9254902 0.90686275 0.64705882
0.97647059 0.93039216 0.65098039
0.87058824 0.94509804 0.65098039
0.85882353 0.94117647 0.62745098
0.89019608 0.9372549 0.65098039
0.93823529 0.9372549 0.64607843
0.99215686 0.95686275 0.67058824
