site/assets/luts/natron-haldclut--kodak-tmax-3200--2d64cfdbb.cube
# LUTr-Project: LUTr — LUTrepository
# LUTr-Schema-Version: 1
# LUTr-ID: natron-haldclut--kodak-tmax-3200--2d64cfdbb
# LUTr-Title: kodak tmax 3200
# LUTr-Collection: Natron HaldCLUT
# LUTr-Collection-ID: natron-haldclut-presets
# LUTr-Source: https://github.com/NatronGitHub/clut
# LUTr-Source-File: submissions/natron-haldclut-presets/negative_new/kodak_tmax_3200.png
# LUTr-Source-Format: PNG
# LUTr-Source-SHA256: 56ba859a43a8159cff82c4317889c1f4797d4dba887109de26264f88d44f1544
# LUTr-License: CC-BY-SA-4.0
# LUTr-License-URL: https://github.com/NatronGitHub/clut#license
# LUTr-Tags: creative, film, film-emulation, hald-clut, natron, png, cube
# LUTr-Transform-Class: film-emulation
# LUTr-Input-Color-Space: srgb
# LUTr-Output-Color-Space: srgb
# LUTr-Color-Space-Confidence: assumed-display-referred
# LUTr-Conversion-Method: PNG LUT image decoded at 16-bit and sampled to 25x25x25 3D CUBE
# LUTr-Conversion-Date: 2026-07-27
# LUTr-Conversion-Tool: LUTr scripts/convert-all-to-cube.mjs
# LUTr-Conversion-Grid: 25x25x25
# LUTr-Note: Preserve this metadata and the upstream license notices when redistributing.
TITLE "kodak tmax 3200"
LUT_3D_SIZE 9
DOMAIN_MIN 0 0 0
DOMAIN_MAX 1 1 1
0.11764706 0.11764706 0.11764706
0.1254902 0.1254902 0.1254902
0.1254902 0.1254902 0.1254902
0.13186275 0.13186275 0.13186275
0.14901961 0.14901961 0.14901961
0.19754902 0.19754902 0.19754902
0.24509804 0.24509804 0.24509804
0.29460784 0.29460784 0.29460784
0.31372549 0.31372549 0.31372549
0.1254902 0.1254902 0.1254902
0.14019608 0.14019608 0.14019608
0.16286765 0.16286765 0.16286765
0.18578431 0.18578431 0.18578431
0.19901961 0.19901961 0.19901961
0.23363971 0.23363971 0.23363971
0.27058824 0.27058824 0.27058824
0.32150735 0.32150735 0.32150735
0.375 0.375 0.375
0.19705882 0.19705882 0.19705882
0.20098039 0.20098039 0.20098039
0.21053922 0.21053922 0.21053922
0.24718137 0.24718137 0.24718137
0.28529412 0.28529412 0.28529412
0.31973039 0.31973039 0.31973039
0.35098039 0.35098039 0.35098039
0.40588235 0.40588235 0.40588235
0.46372549 0.46372549 0.46372549
0.28578431 0.28578431 0.28578431
0.28578431 0.28578431 0.28578431
0.29656863 0.29656863 0.29656863
0.33529412 0.33529412 0.33529412
0.37401961 0.37401961 0.37401961
0.43235294 0.43235294 0.43235294
0.48382353 0.48382353 0.48382353
0.52285539 0.52285539 0.52285539
0.58235294 0.58235294 0.58235294
0.38823529 0.38823529 0.38823529
0.38848039 0.38848039 0.38848039
0.39509804 0.39509804 0.39509804
0.41813725 0.41813725 0.41813725
0.45882353 0.45882353 0.45882353
0.51151961 0.51151961 0.51151961
0.58480392 0.58480392 0.58480392
0.66593137 0.66593137 0.66593137
0.72352941 0.72352941 0.72352941
0.52352941 0.52352941 0.52352941
0.525 0.525 0.525
0.53137255 0.53137255 0.53137255
0.53621324 0.53621324 0.53621324
0.56862745 0.56862745 0.56862745
0.60251225 0.60251225 0.60251225
0.66973039 0.66973039 0.66973039
0.75098039 0.75098039 0.75098039
0.81078431 0.81078431 0.81078431
0.65588235 0.65588235 0.65588235
0.67107843 0.67107843 0.67107843
0.6745098 0.6745098 0.6745098
0.67904412 0.67904412 0.67904412
0.69607843 0.69607843 0.69607843
0.72058824 0.72058824 0.72058824
0.76568627 0.76568627 0.76568627
0.82340686 0.82340686 0.82340686
0.85980392 0.85980392 0.85980392
0.80980392 0.80980392 0.80980392
0.81372549 0.81372549 0.81372549
0.81372549 0.81372549 0.81372549
0.81764706 0.81764706 0.81764706
0.82156863 0.82156863 0.82156863
0.84411765 0.84411765 0.84411765
0.86507353 0.86507353 0.86507353
0.89509804 0.89509804 0.89509804
0.91029412 0.91029412 0.91029412
0.89803922 0.89803922 0.89803922
0.92107843 0.92107843 0.92107843
0.91764706 0.91764706 0.91764706
0.92156863 0.92156863 0.92156863
0.92745098 0.92745098 0.92745098
0.90735294 0.90735294 0.90735294
0.93823529 0.93823529 0.93823529
0.94901961 0.94901961 0.94901961
0.95686275 0.95686275 0.95686275
0.10980392 0.10980392 0.10980392
0.11764706 0.11764706 0.11764706
0.12022059 0.12022059 0.12022059
0.14577206 0.14577206 0.14577206
0.17401961 0.17401961 0.17401961
0.20882353 0.20882353 0.20882353
0.24509804 0.24509804 0.24509804
0.29258578 0.29258578 0.29258578
0.31372549 0.31372549 0.31372549
0.14368873 0.14368873 0.14368873
0.14841452 0.14841452 0.14841452
0.16254596 0.16254596 0.16254596
0.18740043 0.18740043 0.18740043
0.21078431 0.21078431 0.21078431
0.241322 0.241322 0.241322
0.28354779 0.28354779 0.28354779
0.34080116 0.34080116 0.34080116
0.38284314 0.38284314 0.38284314
0.19803922 0.19803922 0.19803922
0.20952819 0.20952819 0.20952819
0.23121936 0.23121936 0.23121936
0.25931373 0.25931373 0.25931373
0.29197304 0.29197304 0.29197304
0.32401961 0.32401961 0.32401961
0.35747549 0.35747549 0.35747549
0.4060049 0.4060049 0.4060049
0.46764706 0.46764706 0.46764706
0.28578431 0.28578431 0.28578431
0.29362745 0.29362745 0.29362745
0.30687806 0.30687806 0.30687806
0.34382659 0.34382659 0.34382659
0.38823529 0.38823529 0.38823529
0.43547028 0.43547028 0.43547028
0.47990196 0.47990196 0.47990196
0.52303922 0.52303922 0.52303922
0.58658088 0.58658088 0.58658088
0.40343137 0.40343137 0.40343137
0.40539216 0.40539216 0.40539216
0.4127451 0.4127451 0.4127451
0.43921569 0.43921569 0.43921569
0.46727941 0.46727941 0.46727941
0.5260723 0.5260723 0.5260723
0.59822304 0.59822304 0.59822304
0.66764706 0.66764706 0.66764706
0.7254902 0.7254902 0.7254902
0.53498775 0.53498775 0.53498775
0.53265931 0.53265931 0.53265931
0.53279718 0.53279718 0.53279718
0.54528186 0.54528186 0.54528186
0.58005515 0.58005515 0.58005515
0.61482077 0.61482077 0.61482077
0.67757353 0.67757353 0.67757353
0.75686275 0.75686275 0.75686275
0.81078431 0.81078431 0.81078431
0.67144608 0.67144608 0.67144608
0.67536765 0.67536765 0.67536765
0.6745098 0.6745098 0.6745098
0.67904412 0.67904412 0.67904412
0.70349265 0.70349265 0.70349265
0.73431373 0.73431373 0.73431373
0.76862745 0.76862745 0.76862745
0.82340686 0.82340686 0.82340686
0.86421569 0.86421569 0.86421569
0.81029412 0.81029412 0.81029412
0.81372549 0.81372549 0.81372549
0.81421569 0.81421569 0.81421569
0.81791513 0.81791513 0.81791513
0.82892157 0.82892157 0.82892157
0.84852941 0.84852941 0.84852941
0.86352635 0.86352635 0.86352635
0.88382353 0.88382353 0.88382353
0.91470588 0.91470588 0.91470588
0.92058824 0.92058824 0.92058824
0.90980392 0.90980392 0.90980392
0.91666667 0.91666667 0.91666667
0.92156863 0.92156863 0.92156863
0.9254902 0.9254902 0.9254902
0.93284314 0.93284314 0.93284314
0.9370098 0.9370098 0.9370098
0.94859069 0.94859069 0.94859069
0.96470588 0.96470588 0.96470588
0.12058824 0.12058824 0.12058824
0.12806373 0.12806373 0.12806373
0.14338235 0.14338235 0.14338235
0.15870098 0.15870098 0.15870098
0.18186275 0.18186275 0.18186275
0.21654412 0.21654412 0.21654412
0.2629902 0.2629902 0.2629902
0.30943627 0.30943627 0.30943627
0.33333333 0.33333333 0.33333333
0.15196078 0.15196078 0.15196078
0.15856311 0.15856311 0.15856311
0.1794424 0.1794424 0.1794424
0.20284926 0.20284926 0.20284926
0.22426471 0.22426471 0.22426471
0.25188419 0.25188419 0.25188419
0.29347426 0.29347426 0.29347426
0.33785233 0.33785233 0.33785233
0.39411765 0.39411765 0.39411765
0.20196078 0.20196078 0.20196078
0.21323529 0.21323529 0.21323529
0.24387255 0.24387255 0.24387255
0.27009804 0.27009804 0.27009804
0.30490196 0.30490196 0.30490196
0.33186275 0.33186275 0.33186275
0.36623775 0.36623775 0.36623775
0.40523897 0.40523897 0.40523897
0.47156863 0.47156863 0.47156863
0.30294118 0.30294118 0.30294118
0.31421569 0.31421569 0.31421569
0.33333333 0.33333333 0.33333333
0.36960784 0.36960784 0.36960784
0.4091299 0.4091299 0.4091299
0.44088542 0.44088542 0.44088542
0.48363971 0.48363971 0.48363971
0.53057598 0.53057598 0.53057598
0.58480392 0.58480392 0.58480392
0.43431373 0.43431373 0.43431373
0.4379902 0.4379902 0.4379902
0.44914216 0.44914216 0.44914216
0.46617647 0.46617647 0.46617647
0.49901961 0.49901961 0.49901961
0.54540441 0.54540441 0.54540441
0.61446078 0.61446078 0.61446078
0.66764706 0.66764706 0.66764706
0.71764706 0.71764706 0.71764706
0.56323529 0.56323529 0.56323529
0.56346507 0.56346507 0.56346507
0.55784314 0.55784314 0.55784314
0.56708027 0.56708027 0.56708027
0.59901961 0.59901961 0.59901961
0.63249081 0.63249081 0.63249081
0.6872549 0.6872549 0.6872549
0.75686275 0.75686275 0.75686275
0.80502451 0.80502451 0.80502451
0.68921569 0.68921569 0.68921569
0.69353554 0.69353554 0.69353554
0.68921569 0.68921569 0.68921569
0.69595588 0.69595588 0.69595588
0.71531863 0.71531863 0.71531863
0.74264706 0.74264706 0.74264706
0.76544118 0.76544118 0.76544118
0.82965686 0.82965686 0.82965686
0.8754902 0.8754902 0.8754902
0.81666667 0.81666667 0.81666667
0.8198989 0.8198989 0.8198989
0.82463235 0.82463235 0.82463235
0.82843137 0.82843137 0.82843137
0.83848039 0.83848039 0.83848039
0.85160846 0.85160846 0.85160846
0.86813725 0.86813725 0.86813725
0.89428615 0.89428615 0.89428615
0.91813725 0.91813725 0.91813725
0.91862745 0.91862745 0.91862745
0.91078431 0.91078431 0.91078431
0.92573529 0.92573529 0.92573529
0.92009804 0.92009804 0.92009804
0.92598039 0.92598039 0.92598039
0.90490196 0.90490196 0.90490196
0.94117647 0.94117647 0.94117647
0.94914216 0.94914216 0.94914216
0.95686275 0.95686275 0.95686275
0.12941176 0.12941176 0.12941176
0.14460784 0.14460784 0.14460784
0.16617647 0.16617647 0.16617647
0.18621324 0.18621324 0.18621324
0.21544118 0.21544118 0.21544118
0.23921569 0.23921569 0.23921569
0.27401961 0.27401961 0.27401961
0.31207108 0.31207108 0.31207108
0.34754902 0.34754902 0.34754902
0.15833333 0.15833333 0.15833333
0.16963082 0.16963082 0.16963082
0.19857537 0.19857537 0.19857537
0.22352941 0.22352941 0.22352941
0.23676471 0.23676471 0.23676471
0.26826746 0.26826746 0.26826746
0.29811581 0.29811581 0.29811581
0.33594516 0.33594516 0.33594516
0.3846201 0.3846201 0.3846201
0.2122549 0.2122549 0.2122549
0.22745098 0.22745098 0.22745098
0.26372549 0.26372549 0.26372549
0.29385723 0.29385723 0.29385723
0.31427696 0.31427696 0.31427696
0.33468137 0.33468137 0.33468137
0.36666667 0.36666667 0.36666667
0.40551471 0.40551471 0.40551471
0.44436275 0.44436275 0.44436275
0.31323529 0.31323529 0.31323529
0.31616881 0.31616881 0.31616881
0.34718137 0.34718137 0.34718137
0.39322151 0.39322151 0.39322151
0.42279412 0.42279412 0.42279412
0.44486826 0.44486826 0.44486826
0.48837316 0.48837316 0.48837316
0.52150735 0.52150735 0.52150735
0.57843137 0.57843137 0.57843137
0.44779412 0.44779412 0.44779412
0.45857843 0.45857843 0.45857843
0.48419118 0.48419118 0.48419118
0.50217525 0.50217525 0.50217525
0.52990196 0.52990196 0.52990196
0.56712623 0.56712623 0.56712623
0.61856618 0.61856618 0.61856618
0.66642157 0.66642157 0.66642157
0.71176471 0.71176471 0.71176471
0.58872549 0.58872549 0.58872549
0.59400276 0.59400276 0.59400276
0.60012255 0.60012255 0.60012255
0.61101409 0.61101409 0.61101409
0.63719363 0.63719363 0.63719363
0.66715686 0.66715686 0.66715686
0.7120864 0.7120864 0.7120864
0.76851256 0.76851256 0.76851256
0.80686275 0.80686275 0.80686275
0.71335784 0.71335784 0.71335784
0.72009804 0.72009804 0.72009804
0.72683824 0.72683824 0.72683824
0.73186275 0.73186275 0.73186275
0.7408701 0.7408701 0.7408701
0.76764706 0.76764706 0.76764706
0.79068627 0.79068627 0.79068627
0.84166667 0.84166667 0.84166667
0.87941176 0.87941176 0.87941176
0.83155637 0.83155637 0.83155637
0.83529412 0.83529412 0.83529412
0.84068627 0.84068627 0.84068627
0.84332108 0.84332108 0.84332108
0.84607843 0.84607843 0.84607843
0.86329657 0.86329657 0.86329657
0.87637868 0.87637868 0.87637868
0.90373775 0.90373775 0.90373775
0.92077206 0.92077206 0.92077206
0.91372549 0.91372549 0.91372549
0.91029412 0.91029412 0.91029412
0.91666667 0.91666667 0.91666667
0.9254902 0.9254902 0.9254902
0.92426471 0.92426471 0.92426471
0.9372549 0.9372549 0.9372549
0.9439951 0.9439951 0.9439951
0.96078431 0.96078431 0.96078431
0.95686275 0.95686275 0.95686275
0.14313725 0.14313725 0.14313725
0.15 0.15 0.15
0.18872549 0.18872549 0.18872549
0.21617647 0.21617647 0.21617647
0.24313725 0.24313725 0.24313725
0.27279412 0.27279412 0.27279412
0.30637255 0.30637255 0.30637255
0.32769608 0.32769608 0.32769608
0.36078431 0.36078431 0.36078431
0.18137255 0.18137255 0.18137255
0.18872549 0.18872549 0.18872549
0.22156863 0.22156863 0.22156863
0.2504902 0.2504902 0.2504902
0.27769608 0.27769608 0.27769608
0.29313725 0.29313725 0.29313725
0.32352941 0.32352941 0.32352941
0.3544424 0.3544424 0.3544424
0.40147059 0.40147059 0.40147059
0.24166667 0.24166667 0.24166667
0.25269608 0.25269608 0.25269608
0.28137255 0.28137255 0.28137255
0.31685049 0.31685049 0.31685049
0.34142157 0.34142157 0.34142157
0.36354167 0.36354167 0.36354167
0.39178922 0.39178922 0.39178922
0.41985294 0.41985294 0.41985294
0.43627451 0.43627451 0.43627451
0.31323529 0.31323529 0.31323529
0.31568627 0.31568627 0.31568627
0.35741422 0.35741422 0.35741422
0.40514706 0.40514706 0.40514706
0.43995098 0.43995098 0.43995098
0.45637255 0.45637255 0.45637255
0.48584559 0.48584559 0.48584559
0.5129902 0.5129902 0.5129902
0.53137255 0.53137255 0.53137255
0.4245098 0.4245098 0.4245098
0.44754902 0.44754902 0.44754902
0.4754902 0.4754902 0.4754902
0.50894608 0.50894608 0.50894608
0.55490196 0.55490196 0.55490196
0.58284314 0.58284314 0.58284314
0.62254902 0.62254902 0.62254902
0.64938725 0.64938725 0.64938725
0.6754902 0.6754902 0.6754902
0.59044118 0.59044118 0.59044118
0.60514706 0.60514706 0.60514706
0.6223652 0.6223652 0.6223652
0.64828431 0.64828431 0.64828431
0.675 0.675 0.675
0.6995098 0.6995098 0.6995098
0.73921569 0.73921569 0.73921569
0.78072917 0.78072917 0.78072917
0.81372549 0.81372549 0.81372549
0.72941176 0.72941176 0.72941176
0.7370098 0.7370098 0.7370098
0.74607843 0.74607843 0.74607843
0.7596201 0.7596201 0.7596201
0.77230392 0.77230392 0.77230392
0.79356618 0.79356618 0.79356618
0.81078431 0.81078431 0.81078431
0.84583333 0.84583333 0.84583333
0.88333333 0.88333333 0.88333333
0.84068627 0.84068627 0.84068627
0.84828431 0.84828431 0.84828431
0.85245098 0.85245098 0.85245098
0.85431985 0.85431985 0.85431985
0.8629902 0.8629902 0.8629902
0.87441789 0.87441789 0.87441789
0.88780637 0.88780637 0.88780637
0.90735294 0.90735294 0.90735294
0.92794118 0.92794118 0.92794118
0.93333333 0.93333333 0.93333333
0.92377451 0.92377451 0.92377451
0.92156863 0.92156863 0.92156863
0.93186275 0.93186275 0.93186275
0.9372549 0.9372549 0.9372549
0.93995098 0.93995098 0.93995098
0.94705882 0.94705882 0.94705882
0.9495098 0.9495098 0.9495098
0.96470588 0.96470588 0.96470588
0.16078431 0.16078431 0.16078431
0.16979167 0.16979167 0.16979167
0.21115196 0.21115196 0.21115196
0.2401348 0.2401348 0.2401348
0.28651961 0.28651961 0.28651961
0.32990196 0.32990196 0.32990196
0.34803922 0.34803922 0.34803922
0.36617647 0.36617647 0.36617647
0.38186275 0.38186275 0.38186275
0.20833333 0.20833333 0.20833333
0.21574755 0.21574755 0.21574755
0.24295343 0.24295343 0.24295343
0.28008578 0.28008578 0.28008578
0.31446078 0.31446078 0.31446078
0.3504902 0.3504902 0.3504902
0.37107843 0.37107843 0.37107843
0.39507506 0.39507506 0.39507506
0.4153799 0.4153799 0.4153799
0.2622549 0.2622549 0.2622549
0.27745098 0.27745098 0.27745098
0.30110294 0.30110294 0.30110294
0.33907782 0.33907782 0.33907782
0.38780637 0.38780637 0.38780637
0.42339154 0.42339154 0.42339154
0.42999387 0.42999387 0.42999387
0.44224877 0.44224877 0.44224877
0.45196078 0.45196078 0.45196078
0.31917892 0.31917892 0.31917892
0.33529412 0.33529412 0.33529412
0.37300858 0.37300858 0.37300858
0.41799173 0.41799173 0.41799173
0.47156863 0.47156863 0.47156863
0.49803922 0.49803922 0.49803922
0.51715686 0.51715686 0.51715686
0.54345129 0.54345129 0.54345129
0.55545343 0.55545343 0.55545343
0.42892157 0.42892157 0.42892157
0.44068627 0.44068627 0.44068627
0.46366422 0.46366422 0.46366422
0.50098039 0.50098039 0.50098039
0.57193627 0.57193627 0.57193627
0.60612745 0.60612745 0.60612745
0.62843137 0.62843137 0.62843137
0.65220588 0.65220588 0.65220588
0.67132353 0.67132353 0.67132353
0.57745098 0.57745098 0.57745098
0.59117647 0.59117647 0.59117647
0.61067708 0.61067708 0.61067708
0.63039216 0.63039216 0.63039216
0.67892157 0.67892157 0.67892157
0.71807598 0.71807598 0.71807598
0.74872855 0.74872855 0.74872855
0.76949295 0.76949295 0.76949295
0.80140931 0.80140931 0.80140931
0.73431373 0.73431373 0.73431373
0.74541973 0.74541973 0.74541973
0.75670956 0.75670956 0.75670956
0.76585478 0.76585478 0.76585478
0.78186275 0.78186275 0.78186275
0.80874694 0.80874694 0.80874694
0.83578431 0.83578431 0.83578431
0.86090686 0.86090686 0.86090686
0.89595588 0.89595588 0.89595588
0.84852941 0.84852941 0.84852941
0.85245098 0.85245098 0.85245098
0.85551471 0.85551471 0.85551471
0.8641008 0.8641008 0.8641008
0.87726716 0.87726716 0.87726716
0.88399969 0.88399969 0.88399969
0.89938725 0.89938725 0.89938725
0.91648284 0.91648284 0.91648284
0.93921569 0.93921569 0.93921569
0.9254902 0.9254902 0.9254902
0.9372549 0.9372549 0.9372549
0.93541667 0.93541667 0.93541667
0.93241422 0.93241422 0.93241422
0.93872549 0.93872549 0.93872549
0.94356618 0.94356618 0.94356618
0.9504902 0.9504902 0.9504902
0.95863971 0.95863971 0.95863971
0.975 0.975 0.975
0.20588235 0.20588235 0.20588235
0.21752451 0.21752451 0.21752451
0.24313725 0.24313725 0.24313725
0.28578431 0.28578431 0.28578431
0.33480392 0.33480392 0.33480392
0.38860294 0.38860294 0.38860294
0.44705882 0.44705882 0.44705882
0.43382353 0.43382353 0.43382353
0.43627451 0.43627451 0.43627451
0.23529412 0.23529412 0.23529412
0.24335172 0.24335172 0.24335172
0.25873162 0.25873162 0.25873162
0.29952512 0.29952512 0.29952512
0.35441176 0.35441176 0.35441176
0.42522978 0.42522978 0.42522978
0.46593137 0.46593137 0.46593137
0.44431679 0.44431679 0.44431679
0.4504902 0.4504902 0.4504902
0.29313725 0.29313725 0.29313725
0.30747549 0.30747549 0.30747549
0.32671569 0.32671569 0.32671569
0.36470588 0.36470588 0.36470588
0.41862745 0.41862745 0.41862745
0.48587623 0.48587623 0.48587623
0.51568627 0.51568627 0.51568627
0.51875 0.51875 0.51875
0.51838235 0.51838235 0.51838235
0.36617647 0.36617647 0.36617647
0.37144608 0.37144608 0.37144608
0.40061275 0.40061275 0.40061275
0.44460784 0.44460784 0.44460784
0.5 0.5 0.5
0.56066176 0.56066176 0.56066176
0.59708946 0.59708946 0.59708946
0.58578431 0.58578431 0.58578431
0.58970588 0.58970588 0.58970588
0.42941176 0.42941176 0.42941176
0.43768382 0.43768382 0.43768382
0.48039216 0.48039216 0.48039216
0.5254902 0.5254902 0.5254902
0.59730392 0.59730392 0.59730392
0.64901961 0.64901961 0.64901961
0.67071078 0.67071078 0.67071078
0.67573529 0.67573529 0.67573529
0.68088235 0.68088235 0.68088235
0.56323529 0.56323529 0.56323529
0.57058824 0.57058824 0.57058824
0.59252451 0.59252451 0.59252451
0.61741728 0.61741728 0.61741728
0.66305147 0.66305147 0.66305147
0.73091299 0.73091299 0.73091299
0.77374387 0.77374387 0.77374387
0.77633272 0.77633272 0.77633272
0.77892157 0.77892157 0.77892157
0.71764706 0.71764706 0.71764706
0.72156863 0.72156863 0.72156863
0.73180147 0.73180147 0.73180147
0.74693627 0.74693627 0.74693627
0.77365196 0.77365196 0.77365196
0.81985294 0.81985294 0.81985294
0.85 0.85 0.85
0.8705576 0.8705576 0.8705576
0.88039216 0.88039216 0.88039216
0.85159314 0.85159314 0.85159314
0.85294118 0.85294118 0.85294118
0.84901961 0.84901961 0.84901961
0.86685049 0.86685049 0.86685049
0.88572304 0.88572304 0.88572304
0.9004902 0.9004902 0.9004902
0.91559436 0.91559436 0.91559436
0.9277114 0.9277114 0.9277114
0.95036765 0.95036765 0.95036765
0.90882353 0.90882353 0.90882353
0.91654412 0.91654412 0.91654412
0.93995098 0.93995098 0.93995098
0.93872549 0.93872549 0.93872549
0.95294118 0.95294118 0.95294118
0.94509804 0.94509804 0.94509804
0.96176471 0.96176471 0.96176471
0.96458333 0.96458333 0.96458333
0.95686275 0.95686275 0.95686275
0.25588235 0.25588235 0.25588235
0.26280637 0.26280637 0.26280637
0.26715686 0.26715686 0.26715686
0.32058824 0.32058824 0.32058824
0.37205882 0.37205882 0.37205882
0.45686275 0.45686275 0.45686275
0.5560049 0.5560049 0.5560049
0.56421569 0.56421569 0.56421569
0.56372549 0.56372549 0.56372549
0.26617647 0.26617647 0.26617647
0.2743413 0.2743413 0.2743413
0.30839461 0.30839461 0.30839461
0.34409467 0.34409467 0.34409467
0.40245098 0.40245098 0.40245098
0.48363971 0.48363971 0.48363971
0.57156863 0.57156863 0.57156863
0.59400276 0.59400276 0.59400276
0.58241422 0.58241422 0.58241422
0.33492647 0.33492647 0.33492647
0.33959865 0.33959865 0.33959865
0.35778186 0.35778186 0.35778186
0.39938725 0.39938725 0.39938725
0.46041667 0.46041667 0.46041667
0.53543199 0.53543199 0.53543199
0.60431985 0.60431985 0.60431985
0.63094363 0.63094363 0.63094363
0.60784314 0.60784314 0.60784314
0.41697304 0.41697304 0.41697304
0.42369026 0.42369026 0.42369026
0.43904718 0.43904718 0.43904718
0.48007813 0.48007813 0.48007813
0.53342525 0.53342525 0.53342525
0.60490196 0.60490196 0.60490196
0.67051164 0.67051164 0.67051164
0.68513327 0.68513327 0.68513327
0.68008578 0.68008578 0.68008578
0.46176471 0.46176471 0.46176471
0.48131127 0.48131127 0.48131127
0.51078431 0.51078431 0.51078431
0.56421569 0.56421569 0.56421569
0.61813725 0.61813725 0.61813725
0.67720588 0.67720588 0.67720588
0.73351716 0.73351716 0.73351716
0.75441176 0.75441176 0.75441176
0.75269608 0.75269608 0.75269608
0.52401961 0.52401961 0.52401961
0.53633578 0.53633578 0.53633578
0.55130208 0.55130208 0.55130208
0.62058824 0.62058824 0.62058824
0.68284314 0.68284314 0.68284314
0.75055147 0.75055147 0.75055147
0.79656863 0.79656863 0.79656863
0.82197457 0.82197457 0.82197457
0.83511029 0.83511029 0.83511029
0.68443627 0.68443627 0.68443627
0.68745404 0.68745404 0.68745404
0.70551471 0.70551471 0.70551471
0.72005208 0.72005208 0.72005208
0.75637255 0.75637255 0.75637255
0.82700674 0.82700674 0.82700674
0.8622549 0.8622549 0.8622549
0.88529412 0.88529412 0.88529412
0.89656863 0.89656863 0.89656863
0.84068627 0.84068627 0.84068627
0.84074755 0.84074755 0.84074755
0.84509804 0.84509804 0.84509804
0.85535386 0.85535386 0.85535386
0.87401961 0.87401961 0.87401961
0.9004902 0.9004902 0.9004902
0.92218137 0.92218137 0.92218137
0.93517923 0.93517923 0.93517923
0.95294118 0.95294118 0.95294118
0.91029412 0.91029412 0.91029412
0.90637255 0.90637255 0.90637255
0.92414216 0.92414216 0.92414216
0.93008578 0.93008578 0.93008578
0.94901961 0.94901961 0.94901961
0.94117647 0.94117647 0.94117647
0.95784314 0.95784314 0.95784314
0.97604167 0.97604167 0.97604167
0.96911765 0.96911765 0.96911765
0.30196078 0.30196078 0.30196078
0.30980392 0.30980392 0.30980392
0.28627451 0.28627451 0.28627451
0.35245098 0.35245098 0.35245098
0.45686275 0.45686275 0.45686275
0.5377451 0.5377451 0.5377451
0.62745098 0.62745098 0.62745098
0.73039216 0.73039216 0.73039216
0.73333333 0.73333333 0.73333333
0.29068627 0.29068627 0.29068627
0.31323529 0.31323529 0.31323529
0.34656863 0.34656863 0.34656863
0.37009804 0.37009804 0.37009804
0.46053922 0.46053922 0.46053922
0.55508578 0.55508578 0.55508578
0.6495098 0.6495098 0.6495098
0.7348652 0.7348652 0.7348652
0.74852941 0.74852941 0.74852941
0.34705882 0.34705882 0.34705882
0.35833333 0.35833333 0.35833333
0.40784314 0.40784314 0.40784314
0.45441176 0.45441176 0.45441176
0.50490196 0.50490196 0.50490196
0.60637255 0.60637255 0.60637255
0.6875 0.6875 0.6875
0.75502451 0.75502451 0.75502451
0.74411765 0.74411765 0.74411765
0.43872549 0.43872549 0.43872549
0.45030637 0.45030637 0.45030637
0.48198529 0.48198529 0.48198529
0.50931373 0.50931373 0.50931373
0.58921569 0.58921569 0.58921569
0.6533701 0.6533701 0.6533701
0.7254902 0.7254902 0.7254902
0.79264706 0.79264706 0.79264706
0.80245098 0.80245098 0.80245098
0.52156863 0.52156863 0.52156863
0.53088235 0.53088235 0.53088235
0.55588235 0.55588235 0.55588235
0.58872549 0.58872549 0.58872549
0.64705882 0.64705882 0.64705882
0.70955882 0.70955882 0.70955882
0.77598039 0.77598039 0.77598039
0.82647059 0.82647059 0.82647059
0.84705882 0.84705882 0.84705882
0.49803922 0.49803922 0.49803922
0.51715686 0.51715686 0.51715686
0.55784314 0.55784314 0.55784314
0.62058824 0.62058824 0.62058824
0.71397059 0.71397059 0.71397059
0.77696078 0.77696078 0.77696078
0.81629902 0.81629902 0.81629902
0.86488971 0.86488971 0.86488971
0.87990196 0.87990196 0.87990196
0.64313725 0.64313725 0.64313725
0.64215686 0.64215686 0.64215686
0.65392157 0.65392157 0.65392157
0.68823529 0.68823529 0.68823529
0.72647059 0.72647059 0.72647059
0.83480392 0.83480392 0.83480392
0.86568627 0.86568627 0.86568627
0.91176471 0.91176471 0.91176471
0.91862745 0.91862745 0.91862745
0.83676471 0.83676471 0.83676471
0.8372549 0.8372549 0.8372549
0.84901961 0.84901961 0.84901961
0.85245098 0.85245098 0.85245098
0.87009804 0.87009804 0.87009804
0.90098039 0.90098039 0.90098039
0.91948529 0.91948529 0.91948529
0.94558824 0.94558824 0.94558824
0.9495098 0.9495098 0.9495098
0.93333333 0.93333333 0.93333333
0.92009804 0.92009804 0.92009804
0.91470588 0.91470588 0.91470588
0.92794118 0.92794118 0.92794118
0.94901961 0.94901961 0.94901961
0.9504902 0.9504902 0.9504902
0.96078431 0.96078431 0.96078431
0.97647059 0.97647059 0.97647059
0.97647059 0.97647059 0.97647059
