site/assets/luts/natron-haldclut--goldfx-bright-summer-heat--d3d178ea9.cube
# LUTr-Project: LUTr — LUTrepository
# LUTr-Schema-Version: 1
# LUTr-ID: natron-haldclut--goldfx-bright-summer-heat--d3d178ea9
# LUTr-Title: goldfx bright summer heat
# LUTr-Collection: Natron HaldCLUT
# LUTr-Collection-ID: natron-haldclut-presets
# LUTr-Source: https://github.com/NatronGitHub/clut
# LUTr-Source-File: submissions/natron-haldclut-presets/picturefx/goldfx_bright_summer_heat.png
# LUTr-Source-Format: PNG
# LUTr-Source-SHA256: dfb991a50d2fd3c3c5bb4c80b99238705590e4712c0c5b33761490452c43e6b0
# LUTr-License: CC-BY-SA-4.0
# LUTr-License-URL: https://github.com/NatronGitHub/clut#license
# LUTr-Tags: creative, film, film-emulation, hald-clut, natron, png, cube
# LUTr-Transform-Class: film-emulation
# LUTr-Input-Color-Space: srgb
# LUTr-Output-Color-Space: srgb
# LUTr-Color-Space-Confidence: assumed-display-referred
# LUTr-Conversion-Method: PNG LUT image decoded at 16-bit and sampled to 25x25x25 3D CUBE
# LUTr-Conversion-Date: 2026-07-27
# LUTr-Conversion-Tool: LUTr scripts/convert-all-to-cube.mjs
# LUTr-Conversion-Grid: 25x25x25
# LUTr-Note: Preserve this metadata and the upstream license notices when redistributing.
TITLE "goldfx bright summer heat"
LUT_3D_SIZE 9
DOMAIN_MIN 0 0 0
DOMAIN_MAX 1 1 1
0.0039215686 0.0039215686 0.0039215686
0.061764706 0.02745098 0.031862745
0.15784314 0.046078431 0.054901961
0.31666667 0.05 0.078431373
0.54313725 0.043137255 0.084313725
0.75637255 0.071568627 0.084803922
0.90392157 0.25588235 0.062745098
0.96911765 0.41029412 0.07254902
1 0.56862745 0.19607843
0.030882353 0.084803922 0.077941176
0.070036765 0.081372549 0.055821078
0.17953431 0.10036765 0.077941176
0.33431373 0.10018382 0.089705882
0.55245098 0.086519608 0.082352941
0.75863971 0.15637255 0.073223039
0.88627451 0.28884804 0.050367647
0.9716299 0.43627451 0.071568627
1 0.57598039 0.18872549
0.039215686 0.18137255 0.10882353
0.063602941 0.20343137 0.11262255
0.20098039 0.22941176 0.1120098
0.39987745 0.23468137 0.099509804
0.60098039 0.24117647 0.087254902
0.78284314 0.30036765 0.071936275
0.90490196 0.38357843 0.041421569
0.99595588 0.50441176 0.08370098
1 0.60294118 0.17647059
0.073039216 0.37009804 0.1254902
0.090686275 0.38952206 0.13676471
0.15171569 0.40833333 0.13615196
0.41960784 0.42984069 0.10980392
0.63063725 0.43676471 0.086764706
0.79019608 0.45931373 0.084803922
0.91813725 0.51041667 0.08370098
0.99411765 0.58890931 0.10931373
1 0.67303922 0.18970588
0.1372549 0.60196078 0.1372549
0.14852941 0.60392157 0.14681373
0.16911765 0.60539216 0.15588235
0.42009804 0.61764706 0.13480392
0.65490196 0.63039216 0.12745098
0.82279412 0.64901961 0.13063725
0.92009804 0.65294118 0.12107843
0.99215686 0.67671569 0.12696078
1 0.71568627 0.14901961
0.17303922 0.75 0.18529412
0.21464461 0.77420343 0.21372549
0.33627451 0.76029412 0.22401961
0.53731618 0.76666667 0.22395833
0.70539216 0.7752451 0.22401961
0.84117647 0.78866422 0.2122549
0.93982843 0.78872549 0.17696078
0.9963848 0.79313725 0.1776348
1 0.8122549 0.20833333
0.47941176 0.86372549 0.3127451
0.50686275 0.89068627 0.33970588
0.58039216 0.89779412 0.36004902
0.65392157 0.89914216 0.37352941
0.76960784 0.90833333 0.3745098
0.8627451 0.91090686 0.36666667
0.93627451 0.89313725 0.32181373
0.99215686 0.90098039 0.31960784
1 0.90882353 0.35392157
0.72352941 0.98480392 0.49215686
0.73633578 0.98431373 0.50839461
0.76948529 0.97745098 0.52303922
0.81243873 0.98118873 0.53186275
0.87034314 0.97720588 0.54215686
0.91501225 0.97892157 0.52824755
0.97928922 0.99607843 0.52156863
1 0.97745098 0.4966299
1 0.97647059 0.5127451
0.96078431 1 0.70196078
0.99705882 1 0.7377451
0.99901961 1 0.74215686
1 0.99362745 0.75539216
0.99803922 0.98431373 0.75882353
0.9877451 0.98431373 0.7254902
1 0.98039216 0.75294118
1 0.98039216 0.74901961
1 0.98039216 0.76862745
0.015686275 0.043137255 0.089215686
0.050490196 0.042708333 0.085294118
0.1495098 0.065563725 0.10784314
0.32518382 0.062928922 0.12058824
0.54656863 0.056127451 0.13039216
0.75637255 0.12224265 0.13235294
0.89313725 0.28884804 0.12401961
0.97696078 0.43284314 0.14852941
1 0.57598039 0.23333333
0.026960784 0.092156863 0.11176471
0.072663909 0.092700674 0.11268382
0.17909007 0.11058517 0.12438725
0.34871324 0.10398284 0.12820925
0.56740196 0.10496324 0.13777574
0.76131281 0.17745098 0.12448683
0.89669118 0.31580882 0.115625
0.98383119 0.45196078 0.14417892
0.99558824 0.57150735 0.21856618
0.046078431 0.20735294 0.14056373
0.054442402 0.20265012 0.14362745
0.20952819 0.22965686 0.14840686
0.41096814 0.22835478 0.1363511
0.61348039 0.24620098 0.12892157
0.77945772 0.29719669 0.11079963
0.90392157 0.39960172 0.093504902
0.98480392 0.50796569 0.12291667
0.99607843 0.60196078 0.20772059
0.073039216 0.38529412 0.14981618
0.099839154 0.40506281 0.16214767
0.170144 0.41996017 0.16283701
0.42814032 0.43879442 0.13682598
0.64656863 0.43995098 0.10775123
0.8039905 0.45931373 0.084803922
0.91973039 0.51145833 0.083379289
0.98872549 0.58265931 0.096162684
1 0.67156863 0.20833333
0.10563725 0.57990196 0.13210784
0.15199142 0.60539216 0.17261029
0.17015931 0.61758578 0.17377451
0.44785539 0.62058824 0.16853554
0.65588235 0.63039216 0.13235294
0.83416054 0.65474877 0.13333333
0.92843137 0.65753676 0.1276348
0.9921875 0.6583027 0.11099877
1 0.72009804 0.16470588
0.17984069 0.75245098 0.19754902
0.231947 0.77424173 0.22352941
0.34411765 0.76475184 0.23786765
0.52371324 0.76787684 0.23609835
0.6893076 0.7745098 0.21749387
0.82952665 0.77941942 0.19509804
0.93578431 0.78832721 0.17567402
1 0.78872549 0.17726716
1 0.81403186 0.21452206
0.50931373 0.88835784 0.3372549
0.53339461 0.90958946 0.36046262
0.56568627 0.89083946 0.35784314
0.65819547 0.89705882 0.36960784
0.75741422 0.90128676 0.36991422
0.84473039 0.89411765 0.3495098
0.92950368 0.89417892 0.32291667
0.99738051 0.90071998 0.3238511
1 0.91948529 0.36605392
0.72959559 0.98394608 0.49779412
0.73595282 0.97745098 0.50838695
0.76257659 0.98056066 0.51639093
0.80104167 0.97745098 0.52687653
0.85713848 0.97745098 0.53651961
0.91554075 0.98061428 0.53340993
0.97477022 0.99296875 0.51660539
1 0.98442862 0.49925705
1 0.98039216 0.52745098
0.9877451 1 0.71715686
0.99852941 1 0.73964461
0.98443627 1 0.72647059
0.99748775 0.99362745 0.75073529
0.99313725 0.98676471 0.73970588
1 0.98039216 0.76305147
0.99705882 0.98345588 0.72536765
1 0.98180147 0.7348652
1 0.98039216 0.76862745
0.019607843 0.057843137 0.16568627
0.069607843 0.073039216 0.16568627
0.14044118 0.085294118 0.16740196
0.30833333 0.073651961 0.17990196
0.54558824 0.046568627 0.19607843
0.78026961 0.13553922 0.21372549
0.90808824 0.34485294 0.23553922
0.98737745 0.48970588 0.27843137
1 0.60588235 0.33333333
0.023529412 0.10404412 0.18223039
0.08135723 0.11519608 0.18958333
0.175 0.12708333 0.19044118
0.35346201 0.11017157 0.19607843
0.58511029 0.071384804 0.20153186
0.78429841 0.17884498 0.20911458
0.91176471 0.35906863 0.23235294
0.98915441 0.49756434 0.2714614
1 0.61458333 0.33848039
0.050735294 0.22818627 0.21176471
0.079810049 0.23259804 0.21666667
0.21568627 0.23002451 0.22377451
0.44669118 0.24212623 0.22058824
0.64534314 0.25343137 0.21629902
0.80064338 0.31948529 0.21286765
0.91176471 0.43002451 0.2245098
0.99607843 0.5390625 0.25989583
1 0.6372549 0.33112745
0.07879902 0.40833333 0.2245098
0.12173713 0.41649816 0.23296569
0.20346201 0.43517157 0.23272059
0.46531863 0.44921875 0.21960784
0.67230392 0.44031863 0.20196078
0.81911765 0.47133885 0.18097426
0.91994485 0.52576593 0.18615196
0.98457414 0.6091299 0.24068627
1 0.68272059 0.30833333
0.12941176 0.59803922 0.21960784
0.15741422 0.62469363 0.23817402
0.22781863 0.62156863 0.24215686
0.47512255 0.62873775 0.24454657
0.67671569 0.63946078 0.21568627
0.83333333 0.64117647 0.18529412
0.93186275 0.65147059 0.16605392
0.99264706 0.67573529 0.19093137
1 0.73235294 0.2754902
0.27156863 0.75098039 0.25698529
0.29318321 0.77058824 0.28664216
0.3817402 0.76813725 0.29338235
0.54310662 0.77391238 0.30404412
0.69093137 0.771875 0.28878676
0.8372549 0.77843137 0.25036765
0.93820466 0.78360907 0.2385723
0.99871324 0.79019608 0.24264706
1 0.80012255 0.26482843
0.54656863 0.89044118 0.3747549
0.55441176 0.89791667 0.3872549
0.59509804 0.89803922 0.40098039
0.67313113 0.89803922 0.40980392
0.75686275 0.89705882 0.40257353
0.84852941 0.89705882 0.39463848
0.9370098 0.89074755 0.35900735
0.99543505 0.90413603 0.36620711
1 0.92916667 0.40686275
0.74693627 0.99644608 0.52205882
0.76557904 0.98088235 0.53382353
0.76847426 0.98201593 0.53345588
0.81188725 0.97745098 0.54813113
0.85533088 0.97745098 0.55079657
0.92552083 0.97449449 0.56133578
0.96755515 0.98088235 0.53615196
1 0.98517157 0.5161152
1 0.98909314 0.52953431
0.98039216 1 0.71470588
0.9872549 1 0.70980392
0.99117647 1 0.73848039
0.99178922 0.99252451 0.74656863
0.99607843 0.98823529 0.75833333
0.99754902 0.9807598 0.75661765
1 0.98112745 0.74779412
1 0.98125 0.74313725
1 0.98039216 0.74705882
0.040686275 0.08627451 0.2622549
0.12873775 0.10441176 0.26488971
0.23578431 0.13370098 0.26115196
0.36715686 0.16905637 0.27254902
0.53823529 0.099754902 0.28504902
0.74754902 0.054840686 0.30147059
0.90343137 0.26875 0.31666667
0.9786152 0.48431373 0.37628676
0.99754902 0.66372549 0.45882353
0.059620098 0.1408701 0.2877451
0.12510723 0.1495481 0.29123775
0.24817708 0.17830882 0.28511029
0.40735294 0.21060049 0.29155178
0.56651348 0.13373162 0.29371936
0.76011795 0.073782169 0.30097273
0.91708027 0.27567402 0.31493566
0.97687653 0.48913143 0.36856618
1 0.65226716 0.45147059
0.074509804 0.25061275 0.31115196
0.093137255 0.24640012 0.3189951
0.25628064 0.25294118 0.32585784
0.45320159 0.289231 0.32303922
0.64074755 0.25134804 0.32401961
0.8118413 0.30857843 0.32608762
0.93602941 0.43213848 0.35085784
0.99914216 0.59359681 0.40389093
1 0.67009804 0.44460784
0.090073529 0.41605392 0.32297794
0.11323529 0.43738511 0.3391008
0.23425245 0.44460784 0.34682904
0.51678922 0.46560202 0.35551471
0.7080576 0.45214461 0.33848039
0.84495251 0.50882353 0.33535539
0.94405637 0.58869485 0.36049326
0.99117647 0.65091912 0.39039522
1 0.7098652 0.43333333
0.24509804 0.60465686 0.33553922
0.28465074 0.63333333 0.36161152
0.33204657 0.63529412 0.35723039
0.53434436 0.640625 0.35392157
0.70955882 0.64387255 0.34215686
0.85 0.65045956 0.32300858
0.93529412 0.65539216 0.31176471
0.98872549 0.70505515 0.35407475
1 0.75808824 0.40661765
0.48143382 0.76764706 0.38878676
0.49296109 0.78076746 0.40085018
0.48772978 0.78982843 0.38872549
0.58592984 0.78177849 0.39405637
0.71764706 0.78161765 0.39114583
0.85089614 0.78962163 0.37932751
0.94474571 0.78567708 0.35585172
0.98872549 0.77843137 0.34448529
1 0.79362745 0.36819853
0.59301471 0.87634804 0.43382353
0.6207261 0.89803922 0.45736826
0.63973652 0.91387868 0.46629902
0.69690564 0.901731 0.4721201
0.77518382 0.90098039 0.47377451
0.86490502 0.91026348 0.47757353
0.94779412 0.89862132 0.44767157
1 0.89710478 0.43163297
1 0.90208333 0.44411765
0.75882353 0.9713848 0.5504902
0.78252145 0.98324908 0.56911765
0.78858762 0.97745098 0.5754902
0.82316942 0.98137255 0.58081342
0.86470588 0.97745098 0.59068627
0.92579657 0.98019301 0.60292586
0.97757353 0.99250919 0.58786765
1 0.97032016 0.56072304
1 0.98578431 0.58039216
0.96617647 1 0.72156863
0.97794118 1 0.74117647
0.99620098 0.99938725 0.76017157
0.98296569 0.99515931 0.75367647
0.99558824 0.98553922 0.77671569
0.99607843 0.98431373 0.77107843
1 0.98039216 0.76495098
1 0.98039216 0.75306373
1 0.98039216 0.76323529
0.13921569 0.13529412 0.37843137
0.22941176 0.14926471 0.38823529
0.36617647 0.17598039 0.38823529
0.52867647 0.28039216 0.38946078
0.63823529 0.32745098 0.39705882
0.75955882 0.29338235 0.41127451
0.88382353 0.32107843 0.42401961
0.95392157 0.45906863 0.4495098
0.99607843 0.61764706 0.50588235
0.15637255 0.17720588 0.40147059
0.22398897 0.19368873 0.40343137
0.35882353 0.22034314 0.40147059
0.5372549 0.2971201 0.3995098
0.64767157 0.3442402 0.40257353
0.75799632 0.29779412 0.40677083
0.88952206 0.32432598 0.42634804
0.96519608 0.46623775 0.44929534
0.99607843 0.61372549 0.5002451
0.15686275 0.27990196 0.42647059
0.20435049 0.28897059 0.43308824
0.34019608 0.30502451 0.43235294
0.55716912 0.38357843 0.43131127
0.69240196 0.44362745 0.43235294
0.77359069 0.37935049 0.421875
0.91911765 0.42181373 0.45392157
0.96868873 0.51942402 0.45808824
0.99754902 0.64362745 0.50686275
0.10857843 0.44730392 0.43014706
0.13449755 0.45891544 0.44436275
0.2317402 0.45226716 0.44901961
0.53158701 0.48602941 0.46004902
0.74068627 0.55894608 0.4622549
0.83535539 0.52129289 0.45931373
0.93768382 0.58308824 0.47297794
0.99543505 0.67009804 0.50744485
0.99926471 0.73921569 0.55073529
0.28627451 0.61960784 0.44117647
0.30723039 0.63897059 0.46041667
0.32794118 0.63553922 0.45980392
0.53933824 0.63762255 0.46617647
0.73921569 0.66617647 0.47843137
0.85968137 0.6625 0.46629902
0.95098039 0.70269608 0.48186275
0.99436275 0.74963235 0.50441176
1 0.80294118 0.55
0.52279412 0.77083333 0.47696078
0.53235294 0.78563113 0.49773284
0.53615196 0.78357843 0.48823529
0.63382353 0.78943015 0.49632353
0.74166667 0.79019608 0.49166667
0.86960784 0.80171569 0.48624387
0.94436275 0.78265931 0.45784314
0.99754902 0.7870098 0.45916054
1 0.82107843 0.49779412
0.7 0.88186275 0.53382353
0.73106618 0.91734069 0.56813725
0.7307598 0.91495098 0.56397059
0.74601716 0.91360294 0.55416667
0.78480392 0.90098039 0.53970588
0.85882353 0.89705882 0.53719363
0.9432598 0.89803922 0.52218137
0.99656863 0.8901348 0.50833333
1 0.90343137 0.51813725
0.80514706 0.97941176 0.61446078
0.82328431 0.98131127 0.63308824
0.81819853 0.98088235 0.62708333
0.82539828 0.98137255 0.62123162
0.8685049 0.98014706 0.62892157
0.91973039 0.97714461 0.64099265
0.97493873 0.97873775 0.64724265
0.99828431 0.9791973 0.6080576
1 0.98431373 0.62720588
0.98627451 1 0.76470588
0.99460784 0.99607843 0.78284314
0.99313725 0.99607843 0.77892157
0.99656863 1 0.76642157
0.98039216 0.99607843 0.74901961
0.99754902 0.98284314 0.80367647
1 0.98039216 0.80686275
1 0.98039216 0.79338235
1 0.98039216 0.79803922
0.30294118 0.20294118 0.49460784
0.36470588 0.21158088 0.49607843
0.48823529 0.24411765 0.50245098
0.63627451 0.34215686 0.5
0.73970588 0.48088235 0.51176471
0.81464461 0.52555147 0.51868873
0.86531863 0.48823529 0.51127451
0.94871324 0.53235294 0.53431373
0.99607843 0.63921569 0.58333333
0.32598039 0.24460784 0.51372549
0.35939798 0.25400582 0.50980392
0.49344363 0.29215686 0.51211703
0.6411152 0.37156863 0.50784314
0.74298407 0.4890625 0.51283701
0.80991881 0.51721814 0.51207108
0.87280944 0.49906556 0.514231
0.95241268 0.52971814 0.53758425
0.99871324 0.64479167 0.58890931
0.33382353 0.33786765 0.52990196
0.33328738 0.33455882 0.52896752
0.48020833 0.37729779 0.53284314
0.65157782 0.44509804 0.53039216
0.76770833 0.55422794 0.54093137
0.83019301 0.58065257 0.53638174
0.8791973 0.54264706 0.52981005
0.95716912 0.56845895 0.54479167
0.99607843 0.65539216 0.58333333
0.2848652 0.48970588 0.53082108
0.29679075 0.50392157 0.54424786
0.41567096 0.49034926 0.5495098
0.61811428 0.52589614 0.54928002
0.77426471 0.62205882 0.56053922
0.85300245 0.67393536 0.56856618
0.90588235 0.64004289 0.56147365
0.97872243 0.66398591 0.57941176
1 0.72647059 0.6098652
0.32573529 0.62892157 0.52990196
0.35122549 0.64583333 0.55661765
0.36531863 0.64387255 0.55324755
0.5046875 0.62454044 0.54828431
0.73161765 0.66960784 0.56323529
0.8796875 0.75833333 0.60199142
0.93455882 0.71783088 0.5846201
0.98578431 0.73921569 0.5979473
0.99926471 0.80294118 0.64068627
0.51323529 0.76219363 0.55098039
0.53805147 0.7858992 0.58449755
0.53564645 0.78235294 0.57542892
0.61591605 0.77710631 0.57877604
0.73333333 0.77254902 0.57892157
0.87165288 0.80622702 0.60441176
0.95104167 0.81346507 0.60692402
0.99656863 0.83560815 0.62254902
1 0.86415441 0.63970588
0.70710784 0.89767157 0.61568627
0.71283701 0.90503983 0.61867341
0.7174326 0.91164216 0.62843137
0.73780637 0.9022212 0.62015931
0.81078431 0.90710784 0.62634804
0.87130821 0.90343137 0.62107843
0.94359681 0.89313725 0.60193015
0.99644608 0.88615196 0.58907782
1 0.88345588 0.57107843
0.82892157 0.96991422 0.68382353
0.85165441 0.97508425 0.71025582
0.84754902 0.97745098 0.7060049
0.84006587 0.97745098 0.68431373
0.8635723 0.97582721 0.67760417
0.90569853 0.97352941 0.68020833
0.97317708 0.98837316 0.69160539
0.99983915 0.96911765 0.6714231
1 0.97910539 0.68400735
0.99558824 1 0.81813725
0.99675245 0.98590686 0.84123775
0.99644608 0.98823529 0.83296569
0.98664216 0.99761029 0.80759804
0.9877451 1 0.79166667
0.99074755 0.99362745 0.80496324
0.99571078 0.98468137 0.82426471
1 0.98039216 0.82647059
1 0.98039216 0.85392157
0.49705882 0.31666667 0.59313725
0.55612745 0.34558824 0.61568627
0.6245098 0.38406863 0.61151961
0.73002451 0.47598039 0.62205882
0.81715686 0.57598039 0.62843137
0.87340686 0.68578431 0.64460784
0.90784314 0.70710784 0.64142157
0.93431373 0.67585784 0.63480392
0.99901961 0.72745098 0.68431373
0.50735294 0.34607843 0.60343137
0.54906556 0.37872243 0.61959252
0.62441789 0.40943627 0.61813725
0.72745098 0.48546262 0.61902574
0.8158701 0.58596814 0.62873775
0.87438725 0.69348958 0.63921569
0.90104167 0.68995098 0.63238358
0.93049939 0.660769 0.62282475
0.99166667 0.70931373 0.67009804
0.53210784 0.44509804 0.63112745
0.53416054 0.44304534 0.63112745
0.60588235 0.46985294 0.62647059
0.74329044 0.5486826 0.64460784
0.825 0.63468137 0.64607843
0.88235294 0.72552083 0.65903799
0.91004902 0.71868873 0.64515931
0.92941176 0.68103554 0.62950368
0.9747549 0.69926471 0.65220588
0.51764706 0.55306373 0.63394608
0.5372549 0.56090686 0.65061275
0.58259804 0.56053922 0.64607843
0.7044424 0.60882353 0.65392157
0.81917892 0.6783701 0.66151961
0.89005821 0.76078431 0.67768076
0.92270221 0.77009804 0.67205882
0.94571078 0.73627451 0.6567402
0.98811275 0.75539216 0.68480392
0.44117647 0.66666667 0.63529412
0.46807598 0.67009804 0.65042892
0.47708333 0.66666667 0.64607843
0.61801471 0.6627451 0.65030637
0.76936275 0.70539216 0.66470588
0.88848039 0.77990196 0.68946078
0.93394608 0.81629902 0.70061275
0.95784314 0.78057598 0.67941176
0.99901961 0.80245098 0.70833333
0.53529412 0.77352941 0.65833333
0.54301471 0.78057598 0.66576287
0.52745098 0.77120098 0.65502451
0.58676471 0.76444547 0.65441176
0.70539216 0.75735294 0.65392157
0.83523284 0.79348958 0.67752757
0.94623162 0.85186887 0.71256127
0.97892157 0.82977941 0.70235907
0.99963235 0.85294118 0.72794118
0.68333333 0.8872549 0.69436275
0.70098039 0.90784314 0.71449142
0.6973652 0.90398284 0.70814951
0.69019608 0.88137255 0.69019608
0.75208333 0.87156863 0.68235294
0.83186275 0.86942402 0.68875613
0.92573529 0.88204657 0.696875
0.99286152 0.88443627 0.69901961
1 0.92352941 0.74901961
0.8129902 0.9810049 0.75318627
0.82999387 0.97578125 0.779519
0.82533701 0.97745098 0.76951593
0.81372549 0.97291667 0.75245098
0.83743873 0.96617647 0.74240196
0.89669118 0.96475184 0.75245098
0.94264706 0.96875 0.74828431
0.99166667 0.97136949 0.74891238
1 0.95784314 0.73811275
0.97254902 1 0.85882353
0.99080882 1 0.86519608
0.98333333 0.99313725 0.87377451
0.97781863 1 0.85294118
0.96568627 1 0.83431373
0.95894608 1 0.8125
0.99485294 0.99215686 0.8502451
0.99607843 0.98688725 0.84154412
1 0.98137255 0.88333333
0.66470588 0.51666667 0.72401961
0.68382353 0.52408088 0.72401961
0.73443627 0.56335784 0.73431373
0.80588235 0.62910539 0.75098039
0.86715686 0.6995098 0.75490196
0.90784314 0.76029412 0.75490196
0.93872549 0.81421569 0.75882353
0.96176471 0.80931373 0.75839461
0.99166667 0.80098039 0.76617647
0.66862745 0.5348652 0.72352941
0.68339461 0.53615962 0.72352941
0.72892157 0.56879596 0.73062194
0.80051317 0.63088235 0.74344363
0.8666973 0.70122549 0.7546875
0.90757506 0.76123621 0.75490196
0.93872549 0.81410846 0.75882353
0.96084559 0.80839461 0.75484835
0.97745098 0.78676471 0.74803922
0.66997549 0.57708333 0.73529412
0.67550551 0.57621017 0.73131127
0.71715686 0.60355392 0.73900123
0.79693627 0.65723039 0.75098039
0.86519608 0.72334559 0.75827206
0.91519608 0.7792739 0.76617647
0.93872549 0.82405025 0.76265319
0.95741422 0.79721201 0.7504902
0.98431373 0.7939951 0.75098039
0.67107843 0.6403799 0.74558824
0.67655484 0.64820006 0.75343137
0.6990962 0.65294118 0.74955576
0.77983303 0.69516697 0.75643382
0.85677083 0.74558824 0.77040441
0.90993413 0.79921875 0.77421109
0.94511336 0.83953738 0.77231924
0.96535692 0.82794118 0.76660539
0.99852941 0.82745098 0.78057598
0.66691176 0.7245098 0.7625
0.65879289 0.72208946 0.75836397
0.68014706 0.72328431 0.7627451
0.73152574 0.72696078 0.76657475
0.83406863 0.76875 0.78039216
0.89273897 0.8127451 0.78406863
0.94705882 0.8627451 0.79411765
0.97282475 0.85514706 0.78339461
0.98431373 0.83872549 0.77647059
0.55968137 0.77469363 0.73431373
0.57336857 0.79182751 0.75909161
0.56724877 0.78560049 0.75618873
0.63173254 0.77762714 0.75569087
0.73691789 0.78382353 0.76127451
0.8419807 0.81127451 0.7694087
0.94198836 0.8760723 0.80637255
0.98243719 0.89362745 0.8162837
0.99234069 0.87696078 0.80833333
0.65159314 0.8685049 0.76654412
0.66623775 0.8823989 0.779519
0.65943627 0.87769608 0.78039216
0.659375 0.8696538 0.77156863
0.71758578 0.85680147 0.76991422
0.77143076 0.8347886 0.7532935
0.89181985 0.87169118 0.78691789
0.99227941 0.92777267 0.83817402
1 0.92879902 0.84252451
0.77395833 0.97738971 0.83817402
0.79437806 0.98823529 0.85347733
0.77879902 0.97084865 0.84560355
0.77420343 0.9622549 0.83023131
0.79681373 0.96182598 0.82254902
0.84591759 0.94482996 0.82598039
0.90870098 0.94214154 0.82683824
0.97609528 0.95435049 0.84112286
1 0.97702206 0.8776348
0.9127451 1 0.90686275
0.97892157 1 0.94215686
0.98897059 1 0.94264706
0.96991422 1 0.93302696
0.93137255 1 0.91151961
0.95618873 1 0.90716912
0.9877451 0.9995098 0.89901961
0.99607843 0.99166667 0.89460784
1 0.98431373 0.88578431
0.78823529 0.71764706 0.86666667
0.80392157 0.72745098 0.87058824
0.80882353 0.71470588 0.85294118
0.85980392 0.76568627 0.8745098
0.89411765 0.78823529 0.86078431
0.92696078 0.80931373 0.84313725
0.96470588 0.8627451 0.87254902
0.98431373 0.89362745 0.87009804
0.98823529 0.89019608 0.8627451
0.76715686 0.69166667 0.8377451
0.79166667 0.71758578 0.85925245
0.81470588 0.73321078 0.86531863
0.85343137 0.76060049 0.86666667
0.89215686 0.78137255 0.85392157
0.93088235 0.82107843 0.86256127
0.95784314 0.84803922 0.85355392
0.97696078 0.875 0.85196078
0.99215686 0.89019608 0.86617647
0.76862745 0.71372549 0.84411765
0.78909314 0.73210784 0.86470588
0.80539216 0.74191176 0.86127451
0.8504902 0.77683824 0.87634804
0.89215686 0.79901961 0.86421569
0.92696078 0.82892157 0.86911765
0.95784314 0.85906863 0.86053922
0.98088235 0.88529412 0.86654412
1 0.9 0.88823529
0.76323529 0.73970588 0.85196078
0.78431373 0.76323529 0.87696078
0.79301471 0.76470588 0.86813725
0.83921569 0.79068627 0.87751225
0.88823529 0.81740196 0.88406863
0.92598039 0.84215686 0.87444853
0.95784314 0.87009804 0.86519608
0.98431373 0.89705882 0.87463235
0.99754902 0.90980392 0.8877451
0.74705882 0.77058824 0.84509804
0.76446078 0.78995098 0.87647059
0.77352941 0.79509804 0.88872549
0.80931373 0.80441176 0.8879902
0.86372549 0.82647059 0.88921569
0.91004902 0.84852941 0.88431373
0.95637255 0.88137255 0.88578431
0.98480392 0.90637255 0.88602941
1 0.92352941 0.9
0.71078431 0.825 0.87843137
0.72665441 0.83302696 0.89430147
0.7254902 0.82990196 0.88578431
0.74803922 0.8283701 0.88817402
0.80980392 0.82892157 0.89264706
0.87150735 0.85189951 0.88216912
0.93811275 0.8872549 0.89056373
0.99215686 0.92990196 0.90569853
0.99607843 0.92352941 0.88235294
0.6872549 0.88921569 0.90392157
0.6995098 0.89313725 0.89509804
0.69583333 0.89313725 0.9129902
0.69252451 0.8807598 0.88909314
0.72009804 0.86323529 0.89166667
0.81433824 0.86041667 0.8942402
0.91691176 0.88823529 0.90588235
0.98786765 0.94301471 0.90625
1 0.95588235 0.91372549
0.77745098 0.98137255 0.95735294
0.77009804 0.97352941 0.94558824
0.77843137 0.9745098 0.96262255
0.771875 0.96960784 0.95343137
0.77941176 0.96446078 0.94142157
0.80637255 0.94117647 0.92254902
0.86568627 0.91911765 0.9120098
0.94313725 0.94656863 0.91813725
1 0.98088235 0.97107843
0.83921569 1 0.97254902
0.91960784 1 0.99068627
0.92156863 1 0.99607843
0.90882353 1 0.99754902
0.88627451 1 0.98627451
0.9004902 1 0.99313725
0.93137255 0.99215686 0.96666667
0.97303922 0.99901961 0.97745098
1 0.98431373 1
