site/assets/luts/natron-haldclut--faded--a0b01eda6.cube
# LUTr-Project: LUTr — LUTrepository
# LUTr-Schema-Version: 1
# LUTr-ID: natron-haldclut--faded--a0b01eda6
# LUTr-Title: faded
# LUTr-Collection: Natron HaldCLUT
# LUTr-Collection-ID: natron-haldclut-presets
# LUTr-Source: https://github.com/NatronGitHub/clut
# LUTr-Source-File: submissions/natron-haldclut-presets/various/faded.png
# LUTr-Source-Format: PNG
# LUTr-Source-SHA256: fd81c3478c1fbf7698d4032ca7ee304e3bf41d0110382ebb3c737a726f84554d
# LUTr-License: CC-BY-SA-4.0
# LUTr-License-URL: https://github.com/NatronGitHub/clut#license
# LUTr-Tags: creative, film, film-emulation, hald-clut, natron, png, vintage, cube
# LUTr-Transform-Class: film-emulation
# LUTr-Input-Color-Space: srgb
# LUTr-Output-Color-Space: srgb
# LUTr-Color-Space-Confidence: assumed-display-referred
# LUTr-Conversion-Method: PNG LUT image decoded at 16-bit and sampled to 25x25x25 3D CUBE
# LUTr-Conversion-Date: 2026-07-27
# LUTr-Conversion-Tool: LUTr scripts/convert-all-to-cube.mjs
# LUTr-Conversion-Grid: 25x25x25
# LUTr-Note: Preserve this metadata and the upstream license notices when redistributing.
TITLE "faded"
LUT_3D_SIZE 9
DOMAIN_MIN 0 0 0
DOMAIN_MAX 1 1 1
0.011764706 0.011764706 0.035294118
0.073039216 0.026960784 0.039215686
0.13137255 0.035294118 0.035294118
0.19558824 0.041666667 0.051960784
0.28039216 0.064705882 0.080392157
0.35980392 0.070588235 0.078431373
0.45 0.091176471 0.10196078
0.53872549 0.10245098 0.11421569
0.58431373 0.11372549 0.11764706
0.054411765 0.1004902 0.062745098
0.11917892 0.1161152 0.074019608
0.18137255 0.12781863 0.080514706
0.25343137 0.14577206 0.099509804
0.33627451 0.16127451 0.12303922
0.42303922 0.1786152 0.14264706
0.51568627 0.1942402 0.14889706
0.60435049 0.21470588 0.16905637
0.66519608 0.24068627 0.20637255
0.089215686 0.20490196 0.089215686
0.16568627 0.21960784 0.11176471
0.23921569 0.24215686 0.13431373
0.31519608 0.25882353 0.15490196
0.4 0.275 0.1627451
0.49558824 0.2995098 0.19852941
0.59215686 0.3254902 0.21985294
0.66960784 0.34852941 0.23002451
0.7245098 0.36862745 0.26568627
0.19019608 0.34558824 0.18382353
0.23137255 0.35471814 0.17714461
0.30392157 0.37242647 0.19215686
0.38872549 0.39564951 0.22303922
0.47990196 0.42205882 0.24534314
0.58094363 0.4504902 0.28780637
0.66176471 0.47316176 0.30012255
0.72745098 0.48069853 0.27775735
0.74215686 0.49460784 0.29362745
0.26470588 0.48627451 0.26078431
0.29730392 0.49387255 0.23553922
0.37745098 0.51519608 0.26176471
0.46617647 0.53970588 0.29534314
0.55882353 0.56568627 0.31666667
0.63970588 0.58578431 0.33872549
0.71568627 0.60098039 0.35539216
0.77720588 0.61568627 0.37279412
0.81176471 0.62745098 0.39803922
0.29019608 0.61372549 0.28382353
0.36617647 0.6254902 0.3122549
0.45098039 0.64803922 0.32634804
0.53970588 0.67408088 0.35833333
0.62843137 0.68553922 0.3872549
0.7 0.70392157 0.40147059
0.76960784 0.7185049 0.41960784
0.82352941 0.73382353 0.44607843
0.86960784 0.74558824 0.46176471
0.35588235 0.71666667 0.36764706
0.43186275 0.73578431 0.38284314
0.5245098 0.7627451 0.4254902
0.60931373 0.7754902 0.42794118
0.69019608 0.78921569 0.44852941
0.75784314 0.80833333 0.46115196
0.81789216 0.82181373 0.47156863
0.86862745 0.83039216 0.50441176
0.90980392 0.84117647 0.51960784
0.4245098 0.81323529 0.44362745
0.50147059 0.83235294 0.45196078
0.5932598 0.85453431 0.45159314
0.67254902 0.86243873 0.48314951
0.74558824 0.8754902 0.51519608
0.80373775 0.88872549 0.57058824
0.85772059 0.89901961 0.59644608
0.90686275 0.9033701 0.57647059
0.92990196 0.91078431 0.57794118
0.48627451 0.90588235 0.49019608
0.53676471 0.87892157 0.48627451
0.59803922 0.8627451 0.4745098
0.71323529 0.91617647 0.55392157
0.78823529 0.9372549 0.58823529
0.84215686 0.94656863 0.6
0.89411765 0.95588235 0.60882353
0.92254902 0.94215686 0.62009804
0.96862745 0.97647059 0.65098039
0.0034313725 0.0034313725 0.048039216
0.073529412 0.030453431 0.073039216
0.13921569 0.039215686 0.085294118
0.20098039 0.045588235 0.095588235
0.28039216 0.068382353 0.11470588
0.36519608 0.085968137 0.13253676
0.45379902 0.1067402 0.15196078
0.54607843 0.12156863 0.16764706
0.61862745 0.14068627 0.1872549
0.065686275 0.10441176 0.1
0.11960784 0.11992953 0.11911765
0.18529412 0.13180147 0.13431373
0.25863971 0.14967065 0.15098039
0.33823529 0.1666973 0.16712623
0.42883732 0.19148284 0.18627451
0.51567096 0.20566789 0.19906556
0.6004902 0.2263557 0.22156863
0.68045343 0.24901961 0.2377451
0.11752451 0.21262255 0.15490196
0.17438725 0.22738971 0.17314645
0.24313725 0.24607843 0.18912377
0.32040441 0.26488971 0.20735294
0.40784314 0.28431373 0.22818627
0.50537684 0.31519608 0.24411765
0.5911152 0.33621324 0.26078431
0.66660539 0.35568321 0.28370098
0.73615196 0.3685049 0.29901961
0.17401961 0.33792892 0.21991422
0.23480392 0.35704657 0.234375
0.3067402 0.37242647 0.24963235
0.39117647 0.39748775 0.26911765
0.48446691 0.42598039 0.29598652
0.58119638 0.45147059 0.31072304
0.66176471 0.47352941 0.33223039
0.73137255 0.49246324 0.35136336
0.78057598 0.50245098 0.36666667
0.23186275 0.4745098 0.28602941
0.30070466 0.49362745 0.30070466
0.37922794 0.51672794 0.32003676
0.46813725 0.54362745 0.34264706
0.56078431 0.56764706 0.36446078
0.64607843 0.59264706 0.3877451
0.71960784 0.60808824 0.40931373
0.78529412 0.63094363 0.4328125
0.82916667 0.64485294 0.45196078
0.29705882 0.60588235 0.35098039
0.37167586 0.62910539 0.37165288
0.45467218 0.65228248 0.39290748
0.54509804 0.67800245 0.4158701
0.63406863 0.69053309 0.4390625
0.70753676 0.70931373 0.45814951
0.77352941 0.72999387 0.47745098
0.83134957 0.74532016 0.50422794
0.88204657 0.75735294 0.51960784
0.35882353 0.72585784 0.42058824
0.43578431 0.7448223 0.43982843
0.52843137 0.76639093 0.46657475
0.61692708 0.77941176 0.48979779
0.69362745 0.79313725 0.50925245
0.761106 0.80833333 0.52616422
0.82254902 0.82328431 0.54304534
0.87254902 0.83737745 0.57005208
0.91078431 0.84473039 0.58615196
0.4245098 0.82800245 0.490625
0.50576746 0.83938419 0.50582874
0.60148591 0.85232843 0.52886029
0.68020833 0.86775429 0.56666667
0.75 0.87941176 0.58823529
0.81127451 0.88790594 0.60222886
0.86116728 0.89989277 0.62129289
0.90772825 0.91126685 0.63921569
0.94074755 0.91813725 0.65091912
0.48235294 0.89019608 0.54754902
0.56323529 0.89754902 0.56623775
0.63933824 0.9 0.58039216
0.71862745 0.91636029 0.61372549
0.78235294 0.92598039 0.63455882
0.83823529 0.93118873 0.64264706
0.88468137 0.94166667 0.65796569
0.92598039 0.94558824 0.67352941
0.96078431 0.96421569 0.70441176
0.0068627451 0.0068627451 0.098039216
0.08627451 0.048406863 0.13186275
0.15098039 0.056862745 0.14803922
0.21237745 0.06127451 0.15882353
0.28627451 0.071078431 0.17303922
0.36911765 0.095220588 0.19019608
0.46176471 0.11838235 0.20686275
0.55833333 0.1377451 0.2307598
0.65098039 0.15294118 0.25294118
0.07745098 0.1122549 0.15796569
0.12401961 0.12532169 0.17333027
0.18771446 0.13835784 0.19215686
0.26465993 0.15695466 0.2127451
0.34901961 0.17015931 0.22843137
0.43249081 0.19558824 0.24526654
0.5182598 0.21841299 0.2629902
0.60441176 0.23382353 0.28382353
0.68186275 0.24509804 0.30294118
0.1245098 0.22034314 0.21666667
0.17745098 0.23137255 0.2310049
0.24926471 0.25153186 0.25392157
0.33072917 0.2760723 0.27696078
0.41960784 0.29448529 0.29448529
0.50652574 0.32303922 0.3111826
0.59197304 0.34491422 0.32922794
0.66997549 0.3560049 0.3495098
0.73529412 0.36862745 0.36764706
0.16531863 0.34105392 0.27990196
0.2384038 0.35704657 0.296875
0.31541054 0.3794424 0.31933211
0.40012255 0.40625 0.33872549
0.49105392 0.42745098 0.36268382
0.58144914 0.45556066 0.38466605
0.6700674 0.47928922 0.40566789
0.73944547 0.49598652 0.42460172
0.7935049 0.50784314 0.43823529
0.23529412 0.48186275 0.3504902
0.30459559 0.49730392 0.36966912
0.38492647 0.51862745 0.39117647
0.47457108 0.54810049 0.41084559
0.56470588 0.56862745 0.43676471
0.65110294 0.59632353 0.46102941
0.72352941 0.61262255 0.47720588
0.79068627 0.63186275 0.49932598
0.8372549 0.6504902 0.51764706
0.30098039 0.6127451 0.41997549
0.37794118 0.63676471 0.43984375
0.46338848 0.65919118 0.46577819
0.54878983 0.67199755 0.48581495
0.63823529 0.69142157 0.509375
0.71286765 0.71323529 0.53042279
0.7810049 0.73590686 0.54788603
0.8372549 0.74977022 0.56617647
0.88235294 0.75735294 0.58921569
0.36666667 0.72941176 0.49338235
0.44681373 0.74889706 0.51268382
0.53572304 0.76666667 0.53535539
0.62107843 0.78615196 0.56014093
0.6995098 0.79865196 0.58161765
0.76890319 0.8145527 0.60027574
0.82720588 0.82512255 0.61648284
0.87533701 0.83737745 0.63578431
0.91862745 0.85294118 0.65490196
0.43639706 0.83235294 0.56678922
0.52107843 0.83676471 0.58354779
0.60713848 0.85232843 0.60330882
0.68284314 0.86636029 0.62904412
0.75606618 0.88333333 0.65441176
0.81519608 0.89064032 0.66568627
0.86813725 0.90294118 0.68235294
0.91127451 0.91470588 0.70157782
0.9442402 0.91727941 0.71666667
0.48823529 0.89411765 0.62156863
0.59056373 0.91715686 0.65245098
0.66004902 0.91372549 0.66176471
0.72254902 0.91556373 0.675
0.78186275 0.92107843 0.68823529
0.83933824 0.92696078 0.69754902
0.8879902 0.94117647 0.71666667
0.93039216 0.95343137 0.73590686
0.97745098 0.97352941 0.77941176
0.033823529 0.031372549 0.17352941
0.081678922 0.039215686 0.18511029
0.14669118 0.048529412 0.2
0.22003676 0.071568627 0.22303922
0.29534314 0.084803922 0.23946078
0.37794118 0.099571078 0.25441176
0.46568627 0.11470588 0.27254902
0.56617647 0.14540441 0.2995098
0.63921569 0.16078431 0.31862745
0.081862745 0.11617647 0.22352941
0.12632506 0.12589614 0.23480392
0.19336703 0.14304534 0.25392157
0.27077972 0.16637561 0.2778799
0.35392157 0.17990196 0.29607843
0.44264706 0.20343137 0.31441483
0.53374694 0.22610294 0.33394608
0.61835938 0.24150582 0.35343137
0.67794118 0.25324755 0.36862745
0.13137255 0.22352941 0.28137255
0.1819087 0.2356924 0.29656863
0.26011029 0.26176471 0.31933211
0.33941483 0.28849571 0.34264706
0.42303922 0.30392157 0.36354167
0.51124387 0.32696078 0.38379289
0.60088848 0.35382966 0.40658701
0.68181679 0.36438419 0.42460172
0.73811275 0.37438725 0.44178922
0.17745098 0.34705882 0.34466912
0.24264706 0.36470588 0.3622549
0.3294424 0.39466912 0.38728554
0.40686275 0.41413143 0.40236673
0.4995098 0.44120711 0.4377451
0.58557751 0.46321232 0.46135876
0.6745098 0.48321078 0.48238358
0.74442402 0.5026348 0.50042126
0.78229167 0.51421569 0.51176471
0.23921569 0.49534314 0.41666667
0.31151961 0.5114277 0.4377451
0.40343137 0.53406863 0.46470588
0.49166667 0.55631127 0.48943015
0.57732843 0.57806373 0.51654412
0.65615809 0.59754902 0.53655025
0.73382353 0.61666667 0.55367647
0.79813113 0.63578431 0.57383578
0.84166667 0.65416667 0.59044118
0.30098039 0.62702206 0.49319853
0.38431373 0.64479933 0.51415441
0.47774203 0.6644761 0.54503676
0.56472886 0.68249847 0.56865043
0.64338235 0.6958027 0.5875
0.71210938 0.70876225 0.60334712
0.78175551 0.73235294 0.61983762
0.84129136 0.74969363 0.63578431
0.87598039 0.75343137 0.65490196
0.38088235 0.73627451 0.57218137
0.45442708 0.75147059 0.5868413
0.54411765 0.77058824 0.60588235
0.62984069 0.78970588 0.63247549
0.70484069 0.80435049 0.65533088
0.77075674 0.81493566 0.66983762
0.83275123 0.83137255 0.68673407
0.88025429 0.84215686 0.70147059
0.91286765 0.84754902 0.71421569
0.43431373 0.84068627 0.63939951
0.52514553 0.84648438 0.65278033
0.61380208 0.8600337 0.66818321
0.68745404 0.87176011 0.68676471
0.75670956 0.88268995 0.70572917
0.81783088 0.89025735 0.72481618
0.86934743 0.89987745 0.74011949
0.91357996 0.91078431 0.75651808
0.93743873 0.91470588 0.76403186
0.55 0.91617647 0.70392157
0.58970588 0.91795343 0.71078431
0.67009804 0.92193627 0.72401961
0.73284314 0.92794118 0.73584559
0.79534314 0.93529412 0.75
0.85882353 0.94601716 0.77052696
0.89901961 0.95183824 0.78198529
0.94166667 0.96341912 0.80147059
0.96078431 0.96862745 0.8127451
0.029411765 0.02745098 0.22941176
0.085539216 0.037254902 0.24705882
0.15490196 0.057843137 0.26960784
0.23553922 0.08627451 0.29656863
0.31470588 0.1 0.31470588
0.39387255 0.10980392 0.32818627
0.47303922 0.10980392 0.34117647
0.56421569 0.13382353 0.36495098
0.63137255 0.15294118 0.38039216
0.075735294 0.11617647 0.29142157
0.13507966 0.13483456 0.30465686
0.20508578 0.15594363 0.3254902
0.28097426 0.17386642 0.34656863
0.36262255 0.18823529 0.36556373
0.45441176 0.20735294 0.38480392
0.55098039 0.22904412 0.40974265
0.62745098 0.24708946 0.43039216
0.67745098 0.26053922 0.44387255
0.12745098 0.22745098 0.34705882
0.18878676 0.24724265 0.36617647
0.26568627 0.26973039 0.39117647
0.34375 0.28982843 0.4125
0.42990196 0.3125 0.43480392
0.52009804 0.3341299 0.45680147
0.6127451 0.35772059 0.47855392
0.68921569 0.37689951 0.50238971
0.74313725 0.38823529 0.51911765
0.18137255 0.35612745 0.4127451
0.24984681 0.37417279 0.43504902
0.33419118 0.40098039 0.4620098
0.41890319 0.42493873 0.48578431
0.50343137 0.44669118 0.51127451
0.59123775 0.46770833 0.53339461
0.67843137 0.48884804 0.55367647
0.75082721 0.51047794 0.57509191
0.79705882 0.5247549 0.58921569
0.24313725 0.49117647 0.48921569
0.31629902 0.51323529 0.51421569
0.41421569 0.53872549 0.54411765
0.50281863 0.5620098 0.5685049
0.58137255 0.58235294 0.59068627
0.65784314 0.60147059 0.60539216
0.73921569 0.62009804 0.62132353
0.80465686 0.63970588 0.6435049
0.85294118 0.65686275 0.65882353
0.30637255 0.63333333 0.57303922
0.39347426 0.64788603 0.59656863
0.48988971 0.66783088 0.62279412
0.57573529 0.69022672 0.64384191
0.65098039 0.71004902 0.66176471
0.71960784 0.72156863 0.66960784
0.78982843 0.7370098 0.684375
0.84911152 0.75235907 0.70539216
0.88186275 0.75343137 0.71666667
0.40245098 0.74460784 0.64901961
0.46378676 0.75569853 0.65686275
0.55441176 0.77732843 0.67941176
0.6375 0.79362745 0.69963235
0.71151961 0.8125 0.71911765
0.77745098 0.82616422 0.73265931
0.83504902 0.83504902 0.74669118
0.88823529 0.84626225 0.76323529
0.91470588 0.85196078 0.77254902
0.45539216 0.84264706 0.70294118
0.53284314 0.85174632 0.71467525
0.61856618 0.86372549 0.72922794
0.69387255 0.87941176 0.74589461
0.76127451 0.88553922 0.76433824
0.82303922 0.89509804 0.77990196
0.87604167 0.90539216 0.79534314
0.91905637 0.91470588 0.81078431
0.9375 0.91666667 0.81446078
0.49215686 0.88823529 0.73137255
0.58088235 0.90392157 0.75441176
0.67009804 0.91960784 0.7745098
0.73823529 0.93186275 0.78946078
0.79705882 0.9372549 0.79803922
0.85392157 0.94191176 0.81372549
0.90294118 0.95147059 0.83039216
0.94583333 0.96887255 0.85318627
0.95882353 0.97254902 0.85686275
0.040686275 0.05 0.31029412
0.094607843 0.050980392 0.32028186
0.15882353 0.063112745 0.33737745
0.23333333 0.076960784 0.35441176
0.32352941 0.10784314 0.38529412
0.40349265 0.11764706 0.40140931
0.48284314 0.12193627 0.41568627
0.57401961 0.13872549 0.43609069
0.63284314 0.14656863 0.45147059
0.076776961 0.12156863 0.36029412
0.13894761 0.14077053 0.37839308
0.20882353 0.16576287 0.40151654
0.28480392 0.17762714 0.41665901
0.37215074 0.19289216 0.4377451
0.4622549 0.21245404 0.45722273
0.55490196 0.23541667 0.48129596
0.63547794 0.25294118 0.50437347
0.69313725 0.26470588 0.52322304
0.12843137 0.23958333 0.42058824
0.19264706 0.25441176 0.44362745
0.26666667 0.27754289 0.47405025
0.34656863 0.29411765 0.49080882
0.43860294 0.31715686 0.509375
0.52794118 0.33849571 0.52904412
0.61666667 0.36161152 0.55098039
0.69313725 0.38039216 0.57709865
0.7560049 0.39509804 0.59816176
0.18529412 0.36182598 0.48927696
0.25178462 0.37665441 0.51415441
0.33529412 0.40098039 0.54558824
0.42044271 0.42436428 0.56436121
0.50974265 0.44901961 0.5828125
0.59720435 0.4716299 0.60369179
0.67745098 0.49313725 0.62306985
0.74055607 0.51294424 0.64472273
0.77702206 0.52591912 0.65667892
0.25245098 0.49215686 0.56568627
0.32107843 0.51020221 0.59142157
0.41470588 0.5370098 0.62009804
0.50658701 0.56424632 0.63946078
0.58210784 0.58468137 0.65686275
0.66176471 0.6041973 0.67276348
0.73682598 0.62389706 0.68958333
0.80490196 0.64901961 0.7127451
0.85416667 0.66470588 0.72058824
0.32696078 0.6348652 0.64509804
0.39901961 0.64772518 0.66421569
0.49411765 0.66764706 0.6872549
0.58523284 0.69460784 0.70994945
0.65839461 0.71792279 0.72717525
0.72352941 0.72834712 0.73529412
0.79244792 0.7415288 0.74803922
0.8495098 0.76127451 0.76450674
0.8877451 0.7627451 0.77058824
0.4067402 0.74840686 0.70686275
0.47219669 0.75943627 0.71844363
0.56372549 0.77941176 0.74090074
0.64894301 0.80085784 0.76075368
0.71930147 0.81917892 0.77677696
0.78114277 0.82954963 0.78754596
0.8375 0.83734681 0.79540441
0.88431373 0.85036765 0.81047794
0.92463235 0.85784314 0.82242647
0.45949755 0.84215686 0.75686275
0.54219516 0.85351563 0.770481
0.62158395 0.86636029 0.78676471
0.70484069 0.88382353 0.80765931
0.76617647 0.89264706 0.81911765
0.82481618 0.9004902 0.83099724
0.88125 0.9115962 0.84353554
0.91813725 0.92020527 0.85294118
0.9372549 0.92598039 0.85686275
0.5127451 0.88627451 0.78333333
0.59969363 0.91109069 0.80814951
0.65833333 0.90735294 0.81372549
0.73676471 0.9254902 0.83376225
0.79289216 0.93406863 0.84142157
0.85 0.93872549 0.85300245
0.89901961 0.94509804 0.86458333
0.93823529 0.96256127 0.88039216
0.97794118 0.98578431 0.90098039
0.038235294 0.045098039 0.36960784
0.1004902 0.062254902 0.38970588
0.16666667 0.07377451 0.40906863
0.23419118 0.080269608 0.42340686
0.31960784 0.1 0.44411765
0.40441176 0.11090686 0.47071078
0.49313725 0.12965686 0.49240196
0.57879902 0.14509804 0.51580882
0.63921569 0.15294118 0.53137255
0.097916667 0.13541667 0.43186275
0.14443934 0.14823836 0.44754902
0.21210172 0.16580882 0.47052696
0.28681066 0.18092831 0.48765319
0.37745098 0.20073529 0.50710784
0.4660386 0.21911765 0.53048407
0.55481005 0.23823529 0.55098039
0.63970588 0.25306373 0.57401961
0.72487745 0.26862745 0.60183824
0.16666667 0.25196078 0.50588235
0.20808824 0.26228554 0.52181373
0.27058824 0.27916667 0.54730392
0.35441176 0.29693627 0.56443015
0.44632353 0.32316176 0.58394608
0.53897059 0.34264706 0.60373775
0.62132353 0.36642157 0.6245098
0.69748775 0.38746936 0.64754902
0.76348039 0.40073529 0.66568627
0.20526961 0.37156863 0.56470588
0.26015625 0.38221507 0.58720895
0.34203431 0.40551471 0.61262255
0.4307598 0.43468137 0.63428309
0.52120098 0.45661765 0.6533701
0.60821078 0.4799326 0.67029718
0.68161765 0.50490196 0.69019608
0.75102635 0.53226103 0.70931373
0.8127451 0.54656863 0.72561275
0.24852941 0.50441176 0.63578431
0.32598039 0.51789216 0.65465686
0.41862745 0.54301471 0.67941176
0.51004902 0.57107843 0.70269608
0.59093137 0.59362745 0.71911765
0.67352941 0.61495098 0.73284314
0.74411765 0.63627451 0.75196078
0.80931373 0.6629902 0.77034314
0.85490196 0.67058824 0.77794118
0.32843137 0.62941176 0.69901961
0.40317096 0.64852941 0.71727941
0.49803922 0.67074142 0.74044118
0.58846507 0.69460784 0.76006434
0.66691176 0.72598039 0.77818627
0.7355239 0.74129902 0.78990502
0.7995098 0.7520527 0.80254289
0.85294118 0.76519608 0.81433824
0.8877451 0.76911765 0.82205882
0.3997549 0.74411765 0.75686275
0.47892157 0.7643076 0.77233456
0.57156863 0.78278186 0.79375
0.65845588 0.80147059 0.81096814
0.72745098 0.82254902 0.82561275
0.78823529 0.8341299 0.83342525
0.84344363 0.84552696 0.83958333
0.88786765 0.85392157 0.8533701
0.91862745 0.85784314 0.86176471
0.46384804 0.84852941 0.81323529
0.54901961 0.85588235 0.82248775
0.63504902 0.87166054 0.83753064
0.71531863 0.88814338 0.85698529
0.77175245 0.89509804 0.86421569
0.83088235 0.90525429 0.87205882
0.88002451 0.91470588 0.8799326
0.92265625 0.92691483 0.89166667
0.94522059 0.93431373 0.89656863
0.54117647 0.89019608 0.8372549
0.6185049 0.92414216 0.86360294
0.66960784 0.9129902 0.86372549
0.73284314 0.91556373 0.87009804
0.80441176 0.94705882 0.88921569
0.86421569 0.96470588 0.90294118
0.91102941 0.96568627 0.91176471
0.94558824 0.97242647 0.91862745
0.96862745 0.97254902 0.92254902
0.051470588 0.051960784 0.42058824
0.10490196 0.062745098 0.45980392
0.17058824 0.070588235 0.48247549
0.24050245 0.081066176 0.49803922
0.32352941 0.099754902 0.52058824
0.40441176 0.10637255 0.53382353
0.50147059 0.13921569 0.56580882
0.58927696 0.15349265 0.58976716
0.63970588 0.15882353 0.60931373
0.10098039 0.14319853 0.50588235
0.15539216 0.15533854 0.52188266
0.22058824 0.16703431 0.54771752
0.29695159 0.18518689 0.56758578
0.38333333 0.20784314 0.59065564
0.47009804 0.2254902 0.6
0.55882353 0.24117647 0.61666667
0.64705882 0.25735294 0.6401348
0.70790441 0.27647059 0.65882353
0.17058824 0.25490196 0.58639706
0.21393995 0.2678462 0.59857537
0.28474265 0.28529412 0.61764706
0.36564032 0.30779718 0.6346201
0.45526961 0.33137255 0.65416667
0.54362745 0.35409007 0.66715686
0.62870711 0.37352941 0.68627451
0.70265012 0.39676777 0.70882353
0.76678922 0.41213235 0.72058824
0.21795343 0.37843137 0.64509804
0.27032016 0.38976716 0.65686275
0.35592831 0.41666667 0.67219669
0.4422258 0.44282322 0.69589461
0.53106618 0.46813725 0.71642157
0.61734835 0.48922335 0.73137255
0.69313725 0.50882353 0.75196078
0.75884651 0.53578431 0.77032016
0.8127451 0.55098039 0.778125
0.27132353 0.51568627 0.69901961
0.33428309 0.52527574 0.70683211
0.4245098 0.55 0.72634804
0.51608456 0.57892157 0.74411765
0.60416667 0.60318627 0.7685049
0.68529412 0.62435662 0.78783701
0.75098039 0.63903186 0.80643382
0.81053922 0.66102941 0.81642157
0.85245098 0.67254902 0.82034314
0.32843137 0.6372549 0.74901961
0.40931373 0.65702359 0.76840533
0.50196078 0.67990196 0.79080882
0.59123775 0.70637255 0.80606618
0.66960784 0.72931985 0.82254902
0.73921569 0.74607077 0.83491881
0.80098039 0.75712316 0.845144
0.85498621 0.76911765 0.85692402
0.88382353 0.77303922 0.86127451
0.40343137 0.75196078 0.80281863
0.48296569 0.77156863 0.82510723
0.5754902 0.78734681 0.83995098
0.66439951 0.80684743 0.85494792
0.73137255 0.82273284 0.86495098
0.79446998 0.83933824 0.87210478
0.84926471 0.84926471 0.88097426
0.89178922 0.85396752 0.89215686
0.91470588 0.85686275 0.89693627
0.49123775 0.84503676 0.85202206
0.55251225 0.85669424 0.86415441
0.63860294 0.87452512 0.88235294
0.72175245 0.89117647 0.89509804
0.78180147 0.89947917 0.90294118
0.83872549 0.91096814 0.90688572
0.88484988 0.91875 0.91568627
0.92647059 0.93431373 0.92647059
0.9495098 0.93823529 0.93382353
0.54509804 0.88676471 0.875
0.61121324 0.91715686 0.89411765
0.67647059 0.91519608 0.89901961
0.7408701 0.91844363 0.90667892
0.82009804 0.95343137 0.92990196
0.85949755 0.94938725 0.92732843
0.91568627 0.97254902 0.94558824
0.95300245 0.97696078 0.95
0.98088235 0.98823529 0.96176471
0.074509804 0.074509804 0.45098039
0.12107843 0.078431373 0.51323529
0.16568627 0.065686275 0.54509804
0.24803922 0.08627451 0.53823529
0.32352941 0.096078431 0.57254902
0.4122549 0.12303922 0.55931373
0.50098039 0.1372549 0.61372549
0.58970588 0.15294118 0.63480392
0.64705882 0.16470588 0.62352941
0.11323529 0.16323529 0.56323529
0.17064951 0.16715686 0.58627451
0.22708333 0.16703431 0.61029412
0.30441176 0.18872549 0.61292892
0.38872549 0.21176471 0.62818627
0.47775735 0.22941176 0.64166667
0.56666667 0.24509804 0.6627451
0.64705882 0.26127451 0.68529412
0.70441176 0.28431373 0.69264706
0.14705882 0.25098039 0.65294118
0.22009804 0.27401961 0.65379902
0.29313725 0.29240196 0.66862745
0.37794118 0.31617647 0.69558824
0.46568627 0.33921569 0.71470588
0.54938725 0.36017157 0.7189951
0.63602941 0.37647059 0.73627451
0.7127451 0.39656863 0.75526961
0.78235294 0.41568627 0.7745098
0.20490196 0.38480392 0.71470588
0.27843137 0.39803922 0.70686275
0.35980392 0.42058824 0.70441176
0.44754902 0.44754902 0.73039216
0.53946078 0.47769608 0.76446078
0.62261029 0.49515931 0.78284314
0.70036765 0.50882353 0.80637255
0.76666667 0.52794118 0.81029412
0.81421569 0.54313725 0.81421569
0.30392157 0.5254902 0.74705882
0.34607843 0.53308824 0.75686275
0.42843137 0.55245098 0.7495098
0.51911765 0.58088235 0.76838235
0.60980392 0.60980392 0.80294118
0.69191176 0.62745098 0.82303922
0.75441176 0.63578431 0.84117647
0.8127451 0.65906863 0.85147059
0.84705882 0.66666667 0.85686275
0.33088235 0.65686275 0.80294118
0.41715686 0.66991422 0.82224265
0.50404412 0.6872549 0.82254902
0.59307598 0.70882353 0.83039216
0.67230392 0.73186275 0.84142157
0.74313725 0.74313725 0.86084559
0.80490196 0.75379902 0.87598039
0.86096814 0.77352941 0.8903799
0.88382353 0.77941176 0.89803922
0.41470588 0.74901961 0.84019608
0.48688725 0.77414216 0.86323529
0.57941176 0.79191176 0.87083333
0.66421569 0.80931373 0.88431373
0.73529412 0.82843137 0.89117647
0.79705882 0.83823529 0.90110294
0.85318627 0.84705882 0.90686275
0.89301471 0.85821078 0.91862745
0.92254902 0.86176471 0.93039216
0.50735294 0.84901961 0.89117647
0.56029412 0.86372549 0.90202206
0.64509804 0.87585784 0.90894608
0.71942402 0.88756127 0.92028186
0.78872549 0.90294118 0.92598039
0.84509804 0.91470588 0.93529412
0.8877451 0.92610294 0.94522059
0.92647059 0.93780637 0.95343137
0.96470588 0.9495098 0.96862745
0.54901961 0.89411765 0.91372549
0.61372549 0.9245098 0.92892157
0.69607843 0.94117647 0.94117647
0.75784314 0.94754902 0.93970588
0.82745098 0.96078431 0.94901961
0.87598039 0.96862745 0.9622549
0.91862745 0.97647059 0.97156863
0.9495098 0.97647059 0.96470588
0.97647059 0.98039216 0.96470588
