site/assets/luts/natron-haldclut--kodak-kodachrome-25--b62cfc98c.cube
# LUTr-Project: LUTr — LUTrepository
# LUTr-Schema-Version: 1
# LUTr-ID: natron-haldclut--kodak-kodachrome-25--b62cfc98c
# LUTr-Title: kodak kodachrome 25
# LUTr-Collection: Natron HaldCLUT
# LUTr-Collection-ID: natron-haldclut-presets
# LUTr-Source: https://github.com/NatronGitHub/clut
# LUTr-Source-File: submissions/natron-haldclut-presets/colorslide/kodak_kodachrome_25.png
# LUTr-Source-Format: PNG
# LUTr-Source-SHA256: 2058a23e6e887ab8613331bcff92fb3af10becb1f8dbf91e03c69dcff8e8f17d
# LUTr-License: CC-BY-SA-4.0
# LUTr-License-URL: https://github.com/NatronGitHub/clut#license
# LUTr-Tags: creative, film, film-emulation, hald-clut, natron, png, cube
# LUTr-Transform-Class: film-emulation
# LUTr-Input-Color-Space: srgb
# LUTr-Output-Color-Space: srgb
# LUTr-Color-Space-Confidence: assumed-display-referred
# LUTr-Conversion-Method: PNG LUT image decoded at 16-bit and sampled to 25x25x25 3D CUBE
# LUTr-Conversion-Date: 2026-07-27
# LUTr-Conversion-Tool: LUTr scripts/convert-all-to-cube.mjs
# LUTr-Conversion-Grid: 25x25x25
# LUTr-Note: Preserve this metadata and the upstream license notices when redistributing.
TITLE "kodak kodachrome 25"
LUT_3D_SIZE 5
DOMAIN_MIN 0 0 0
DOMAIN_MAX 1 1 1
0.02745098 0.043137255 0.019607843
0.10196078 0.0029411765 0.0029411765
0.39411765 0.0039215686 0.015686275
0.99313725 0.023529412 0.0039215686
1 0.23529412 0.1372549
0.085294118 0.23823529 0.11568627
0.24607843 0.23627451 0.11078431
0.6 0.26323529 0.095098039
0.87156863 0.36176471 0.14240196
0.99607843 0.48333333 0.22647059
0.44705882 0.58823529 0.27843137
0.5 0.58823529 0.27107843
0.64313725 0.59313725 0.26372549
0.81617647 0.61421569 0.25098039
0.99019608 0.64117647 0.26078431
0.67352941 0.79901961 0.38137255
0.69681373 0.79901961 0.3752451
0.75686275 0.79607843 0.36960784
0.86666667 0.80686275 0.3625
0.99705882 0.81176471 0.35098039
0.8745098 0.98431373 0.47058824
0.88137255 0.98039216 0.47058824
0.91568627 0.98431373 0.46666667
0.97352941 0.98529412 0.4627451
1 0.99215686 0.45098039
0.0039215686 0.0039215686 0.16960784
0.043137255 0.0039215686 0.17647059
0.33823529 0 0.15637255
0.99240196 0.012990196 0.093137255
1 0.28529412 0.32254902
0.0625 0.20588235 0.22916667
0.19859069 0.21452206 0.22922794
0.58541667 0.2317402 0.22843137
0.83780637 0.34289216 0.3096201
0.99509804 0.4745098 0.41862745
0.42205882 0.59215686 0.31078431
0.48958333 0.58823529 0.31188725
0.63970588 0.59264706 0.30490196
0.79803922 0.60980392 0.32843137
0.975 0.63382353 0.39656863
0.67279412 0.79607843 0.38235294
0.69479167 0.79901961 0.37843137
0.76115196 0.79901961 0.3745098
0.87132353 0.80704657 0.36960784
0.99289216 0.81960784 0.35784314
0.87843137 0.98431373 0.47058824
0.88627451 0.9879902 0.47058824
0.91862745 0.98333333 0.46666667
0.97352941 0.98210784 0.45882353
1 0.99607843 0.45490196
0 0 0.30588235
0.018137255 0.0029411765 0.30539216
0.25588235 0 0.27352941
0.98529412 0.0039215686 0.15784314
1 0.2745098 0.40196078
0.024019608 0.15980392 0.41617647
0.12855392 0.17291667 0.4127451
0.52401961 0.18897059 0.39264706
0.82401961 0.30392157 0.43627451
0.98088235 0.45196078 0.52156863
0.30588235 0.57058824 0.57647059
0.38578431 0.57279412 0.58946078
0.55686275 0.57156863 0.58235294
0.7370098 0.59044118 0.59313725
0.93333333 0.62156863 0.60588235
0.63480392 0.79411765 0.48529412
0.65919118 0.79607843 0.49411765
0.71960784 0.79289216 0.50318627
0.82156863 0.79644608 0.55392157
0.98431373 0.80686275 0.60196078
0.88627451 0.99215686 0.4745098
0.89117647 0.98970588 0.4745098
0.92156863 0.99215686 0.4745098
0.98137255 0.99656863 0.46666667
1 0.99803922 0.45490196
0 0.0039215686 0.39705882
0.0078431373 0.0078431373 0.39019608
0.16617647 0 0.35588235
0.98553922 0 0.23235294
1 0.20588235 0.44019608
0 0.096323529 0.49019608
0.046078431 0.084313725 0.47591912
0.41764706 0.10196078 0.45098039
0.85827206 0.19724265 0.46372549
0.98455882 0.41470588 0.5870098
0.11813725 0.54019608 0.71127451
0.26115196 0.53627451 0.70343137
0.50147059 0.54509804 0.69730392
0.70490196 0.56115196 0.69791667
0.92009804 0.59803922 0.70392157
0.51666667 0.77647059 0.79607843
0.54705882 0.77254902 0.79828431
0.62377451 0.7747549 0.79926471
0.75196078 0.78039216 0.79926471
0.9379902 0.79436275 0.7875
0.86372549 0.99803922 0.55
0.86397059 0.99607843 0.58872549
0.89509804 0.99509804 0.57990196
0.94044118 0.99534314 0.6377451
1 1 0.70686275
0 0.011764706 0.46666667
0.0039215686 0.0039215686 0.45588235
0.098039216 0 0.40588235
0.90686275 0 0.2627451
1 0.10980392 0.41568627
0 0.034313725 0.5127451
0 0.021568627 0.50098039
0.33529412 0.024019608 0.46421569
0.91666667 0.060539216 0.42990196
0.98529412 0.35784314 0.59803922
0.011764706 0.49803922 0.75294118
0.13186275 0.49509804 0.75196078
0.45784314 0.5 0.73235294
0.69313725 0.52990196 0.73137255
0.91960784 0.57058824 0.74509804
0.45882353 0.76078431 0.88431373
0.49142157 0.76078431 0.87647059
0.57843137 0.76078431 0.87647059
0.71372549 0.76078431 0.87352941
0.90294118 0.76862745 0.86568627
0.73333333 0.98431373 0.96862745
0.74117647 0.97745098 0.95784314
0.77254902 0.98039216 0.96470588
0.84117647 0.98529412 0.98039216
0.98039216 0.99607843 0.99607843
