site/assets/luts/natron-haldclut--bleach-bypass--8b573b96c.cube
# LUTr-Project: LUTr — LUTrepository
# LUTr-Schema-Version: 1
# LUTr-ID: natron-haldclut--bleach-bypass--8b573b96c
# LUTr-Title: bleach bypass
# LUTr-Collection: Natron HaldCLUT
# LUTr-Collection-ID: natron-haldclut-presets
# LUTr-Source: https://github.com/NatronGitHub/clut
# LUTr-Source-File: submissions/natron-haldclut-presets/various/bleach_bypass.png
# LUTr-Source-Format: PNG
# LUTr-Source-SHA256: 21cdfec3bc004259ac915a1909e2b7878531d1650337a2e243afe873e50007bf
# LUTr-License: CC-BY-SA-4.0
# LUTr-License-URL: https://github.com/NatronGitHub/clut#license
# LUTr-Tags: creative, film, film-emulation, hald-clut, natron, png, cube
# LUTr-Transform-Class: film-emulation
# LUTr-Input-Color-Space: srgb
# LUTr-Output-Color-Space: srgb
# LUTr-Color-Space-Confidence: assumed-display-referred
# LUTr-Conversion-Method: PNG LUT image decoded at 16-bit and sampled to 25x25x25 3D CUBE
# LUTr-Conversion-Date: 2026-07-27
# LUTr-Conversion-Tool: LUTr scripts/convert-all-to-cube.mjs
# LUTr-Conversion-Grid: 25x25x25
# LUTr-Note: Preserve this metadata and the upstream license notices when redistributing.
TITLE "bleach bypass"
LUT_3D_SIZE 5
DOMAIN_MIN 0 0 0
DOMAIN_MAX 1 1 1
0.0078431373 0.0078431373 0.0078431373
0.0039215686 0.0039215686 0.0039215686
0.037254902 0.011764706 0.0078431373
0.0078431373 0.0039215686 0.0039215686
0.011764706 0.0039215686 0.0039215686
0.0039215686 0.011764706 0.0039215686
0 0.0046568627 0
0.040686275 0.0078431373 0.0039215686
0.011029412 0.0039215686 0.0039215686
0.020588235 0.011764706 0.0078431373
0 0.29215686 0.0039215686
0.046568627 0.28676471 0
0.28627451 0.21372549 0.0078431373
0.26617647 0.14411765 0.05245098
0.30784314 0.18431373 0.12941176
0 0.98823529 0.00098039216
0.21691176 0.95882353 0
0.92352941 0.98186275 0.084313725
0.96519608 0.86960784 0.34338235
0.99705882 0.8127451 0.52352941
0.0078431373 1 0.0078431373
0.4127451 1 0
0.99411765 1 0.18431373
0.99607843 1 0.48529412
1 1 0.96862745
0.023529412 0.031372549 0.031372549
0.042156863 0.012745098 0.039215686
0.062254902 0.0078431373 0.015686275
0.02745098 0.0039215686 0.0039215686
0.0039215686 0 0
0.011764706 0.031372549 0.016421569
0.023897059 0.021813725 0.019607843
0.043504902 0.016053922 0.015196078
0.024509804 0.0078431373 0.0078431373
0.023529412 0.011764706 0.0078431373
0 0.3127451 0.0039215686
0.042769608 0.28811275 0.006127451
0.3002451 0.25220588 0.098529412
0.28933824 0.20882353 0.16421569
0.28872549 0.21519608 0.19264706
0 0.98823529 0.020833333
0.039215686 0.96813725 0.027267157
0.7567402 0.96875 0.22144608
0.97873775 0.93302696 0.56985294
0.98897059 0.86593137 0.68921569
0 1 0.042156863
0.065686275 1 0.054166667
0.99607843 1 0.35490196
1 1 0.72352941
1 1 0.9754902
0.025490196 0.047058824 0.074509804
0.01372549 0.020588235 0.046078431
0.25588235 0 0.26960784
0.29117647 0 0.12156863
0.27058824 0 0.074509804
0.014215686 0.047058824 0.040196078
0.015686275 0.039705882 0.052696078
0.2379902 0 0.25980392
0.27230392 0.012622549 0.1252451
0.30784314 0.059313725 0.13823529
0 0.2872549 0.26372549
0.00098039216 0.29215686 0.25588235
0.25637255 0.29607843 0.27598039
0.31004902 0.28921569 0.29387255
0.30882353 0.29215686 0.29117647
0.00049019608 0.99460784 0.41960784
0.0090686275 0.99338235 0.41801471
0.46446078 0.9752451 0.46176471
0.99093137 0.98480392 0.81985294
0.97990196 0.95833333 0.89411765
0 1 0.59215686
0.045588235 1 0.5627451
0.60294118 1 0.56764706
0.99754902 0.99607843 0.97647059
0.99411765 0.98039216 0.96078431
0.0078431373 0.054901961 0.054901961
0.0039215686 0.024509804 0.040196078
0.0058823529 0 0.2745098
0.93382353 0 0.97696078
0.96372549 0 0.69019608
0.0039215686 0.039460784 0.028186275
0.0078431373 0.032536765 0.031617647
0.017034314 0.10710784 0.28504902
0.96360294 0.0069240196 0.96305147
0.97941176 0.15318627 0.72745098
0.0039215686 0.29166667 0.10686275
0.01752451 0.26948529 0.12205882
0.27009804 0.31887255 0.29117647
0.9627451 0.4372549 0.96654412
0.98235294 0.58039216 0.85245098
0 0.99901961 0.91053922
0.022303922 0.97898284 0.9466299
0.45269608 0.98823529 0.96286765
0.9747549 0.98002451 0.9875
0.98504902 0.96004902 0.98039216
0 1 0.98039216
0.10196078 1 0.99117647
0.5622549 1 0.99215686
0.97156863 0.9872549 0.98259804
0.97941176 0.97254902 0.97254902
0.0078431373 0.058823529 0.039215686
0.0039215686 0.031372549 0.035294118
0 0.047058824 0.27254902
0.10196078 0 0.98823529
1 0 0.99215686
0.0039215686 0.051960784 0.020588235
0.0078431373 0.062009804 0.036029412
0.041666667 0.26813725 0.27990196
0.17769608 0.15588235 0.99509804
0.99215686 0.068627451 0.99607843
0.0019607843 0.28235294 0.058823529
0.046078431 0.2872549 0.12598039
0.27058824 0.31862745 0.27647059
0.58137255 0.80196078 0.97990196
0.99607843 0.61764706 0.99215686
0.0039215686 0.99705882 0.68627451
0.13235294 0.95980392 0.75196078
0.55392157 0.9622549 0.81323529
0.99117647 0.99583333 0.99509804
0.98823529 0.98823529 0.99117647
0 1 0.97647059
0.052941176 1 0.99215686
0.55882353 1 1
0.97156863 0.99117647 0.98823529
0.96470588 0.97647059 0.97647059
