site/assets/luts/natron-haldclut--polaroid-669--dc17b6669.cube
# LUTr-Project: LUTr — LUTrepository
# LUTr-Schema-Version: 1
# LUTr-ID: natron-haldclut--polaroid-669--dc17b6669
# LUTr-Title: polaroid 669
# LUTr-Collection: Natron HaldCLUT
# LUTr-Collection-ID: natron-haldclut-presets
# LUTr-Source: https://github.com/NatronGitHub/clut
# LUTr-Source-File: submissions/natron-haldclut-presets/colorslide/polaroid_669.png
# LUTr-Source-Format: PNG
# LUTr-Source-SHA256: 75850c511afa7879e924ae7b30dca2aa4bdd7c7376e4d7f9194442cdb4a3eeb5
# LUTr-License: CC-BY-SA-4.0
# LUTr-License-URL: https://github.com/NatronGitHub/clut#license
# LUTr-Tags: creative, film, film-emulation, hald-clut, natron, png, cube
# LUTr-Transform-Class: film-emulation
# LUTr-Input-Color-Space: srgb
# LUTr-Output-Color-Space: srgb
# LUTr-Color-Space-Confidence: assumed-display-referred
# LUTr-Conversion-Method: PNG LUT image decoded at 16-bit and sampled to 25x25x25 3D CUBE
# LUTr-Conversion-Date: 2026-07-27
# LUTr-Conversion-Tool: LUTr scripts/convert-all-to-cube.mjs
# LUTr-Conversion-Grid: 25x25x25
# LUTr-Note: Preserve this metadata and the upstream license notices when redistributing.
TITLE "polaroid 669"
LUT_3D_SIZE 25
DOMAIN_MIN 0 0 0
DOMAIN_MAX 1 1 1
0.011764706 0.0039215686 0.0039215686
0.015196078 0.0049019608 0.0049019608
0.046078431 0.025490196 0.025490196
0.043137255 0.00098039216 0.00098039216
0.078431373 0.021568627 0.023529412
0.090686275 0.0068627451 0.0068627451
0.11862745 0.0068627451 0.010784314
0.15490196 0.017156863 0.028921569
0.19215686 0.02745098 0.043137255
0.22058824 0.025 0.042156863
0.24607843 0.014705882 0.029411765
0.27352941 0.0044117647 0.012745098
0.31764706 0.0058823529 0.0098039216
0.37156863 0.015686275 0.019607843
0.42647059 0.019607843 0.023529412
0.47794118 0.019607843 0.023529412
0.52941176 0.015686275 0.019607843
0.5745098 0.0053921569 0.0093137255
0.62745098 0.010784314 0.016666667
0.68284314 0.031372549 0.042647059
0.7254902 0.019607843 0.031372549
0.7627451 0.0073529412 0.020098039
0.80392157 0.038235294 0.062745098
0.82745098 0.0078431373 0.025
0.82745098 0.011764706 0.02745098
0.028431373 0.034803922 0.028431373
0.034252451 0.034252451 0.026960784
0.057352941 0.042769608 0.035784314
0.066666667 0.031372549 0.021078431
0.093137255 0.0375 0.028676471
0.11029412 0.030882353 0.020281863
0.13529412 0.030882353 0.021691176
0.16856618 0.035355392 0.035294118
0.20245098 0.044117647 0.047058824
0.23241422 0.041666667 0.044607843
0.26029412 0.034803922 0.032843137
0.29362745 0.030882353 0.024693627
0.3375 0.036029412 0.037254902
0.3877451 0.03872549 0.034681373
0.43921569 0.040196078 0.033823529
0.48976716 0.039644608 0.033823529
0.53970588 0.034803922 0.032352941
0.5872549 0.037254902 0.035723039
0.63970588 0.041053922 0.042034314
0.68756127 0.046875 0.051776961
0.72990196 0.043382353 0.048039216
0.76911765 0.040196078 0.046078431
0.81029412 0.055759804 0.06752451
0.83621324 0.032414216 0.046568627
0.84019608 0.034803922 0.048039216
0.049019608 0.066666667 0.056862745
0.057843137 0.06629902 0.051102941
0.07745098 0.071813725 0.051960784
0.091176471 0.065686275 0.045098039
0.11176471 0.063235294 0.041176471
0.13235294 0.060416667 0.037132353
0.15588235 0.057843137 0.035539216
0.18676471 0.062867647 0.045588235
0.22058824 0.064705882 0.050980392
0.24852941 0.064705882 0.048039216
0.28333333 0.061764706 0.045098039
0.31776961 0.061764706 0.044117647
0.35882353 0.063235294 0.050490196
0.40306373 0.062132353 0.043995098
0.45122549 0.064705882 0.044117647
0.50245098 0.065686275 0.050490196
0.55098039 0.069607843 0.056862745
0.60147059 0.070220588 0.061397059
0.6497549 0.073529412 0.066666667
0.69571078 0.073529412 0.072058824
0.7372549 0.071568627 0.070098039
0.7754902 0.071323529 0.070343137
0.81568627 0.07622549 0.079166667
0.84595588 0.065808824 0.076715686
0.85686275 0.061764706 0.068627451
0.066176471 0.1004902 0.081372549
0.079718137 0.1004902 0.077144608
0.098039216 0.1004902 0.07254902
0.11568627 0.096568627 0.065686275
0.13627451 0.092647059 0.058088235
0.15294118 0.088296569 0.050428922
0.17389706 0.084803922 0.046568627
0.2036152 0.086580882 0.05067402
0.23823529 0.089215686 0.054411765
0.27156863 0.092647059 0.058333333
0.30490196 0.092647059 0.058333333
0.34172794 0.092647059 0.058333333
0.37745098 0.08872549 0.05245098
0.41758578 0.085723039 0.047487745
0.46519608 0.091666667 0.060784314
0.5127451 0.096568627 0.071078431
0.56421569 0.1004902 0.07745098
0.6153799 0.10441176 0.083823529
0.6622549 0.10784314 0.096568627
0.70343137 0.10441176 0.093137255
0.74460784 0.10245098 0.089215686
0.78229167 0.097487745 0.085784314
0.82046569 0.099019608 0.087745098
0.85667892 0.092647059 0.089215686
0.87745098 0.08872549 0.089215686
0.088235294 0.13333333 0.10196078
0.10294118 0.13333333 0.096813725
0.11960784 0.13137255 0.091666667
0.14019608 0.12794118 0.082843137
0.15882353 0.12352941 0.074509804
0.17745098 0.11936275 0.066176471
0.19460784 0.11421569 0.059803922
0.22083333 0.11642157 0.060294118
0.25686275 0.11960784 0.068627451
0.28970588 0.1247549 0.074509804
0.32303922 0.1254902 0.075980392
0.35906863 0.12352941 0.074509804
0.39607843 0.12156863 0.070588235
0.4372549 0.1254902 0.076470588
0.47990196 0.1254902 0.081862745
0.52696078 0.12745098 0.087745098
0.57647059 0.13137255 0.098039216
0.62598039 0.13529412 0.10318627
0.67254902 0.13921569 0.11470588
0.7120098 0.13578431 0.11176471
0.75098039 0.13333333 0.10686275
0.79191176 0.12696078 0.10147059
0.82794118 0.12009804 0.099509804
0.8620098 0.12279412 0.10980392
0.89607843 0.11764706 0.10784314
0.11470588 0.16666667 0.11470588
0.12745098 0.16666667 0.11207108
0.14411765 0.16617647 0.1067402
0.16470588 0.16231618 0.099448529
0.18186275 0.15882353 0.093137255
0.20196078 0.15539216 0.08682598
0.21997549 0.15490196 0.083455882
0.24313725 0.15490196 0.086090686
0.27156863 0.15833333 0.091176471
0.30245098 0.15882353 0.091176471
0.33811275 0.15870098 0.091176471
0.3754902 0.15882353 0.091605392
0.41666667 0.1627451 0.097303922
0.45790441 0.16666667 0.10392157
0.50294118 0.16666667 0.11164216
0.54411765 0.1627451 0.11127451
0.58872549 0.1627451 0.11421569
0.63627451 0.16617647 0.11813725
0.68272059 0.17009804 0.12463235
0.72009804 0.17009804 0.12254902
0.76102941 0.16617647 0.12254902
0.79761029 0.1627451 0.12261029
0.83235294 0.16017157 0.12598039
0.86470588 0.15882353 0.13235294
0.89019608 0.15882353 0.13480392
0.13529412 0.20392157 0.12843137
0.1495098 0.20392157 0.12561275
0.16862745 0.20098039 0.12279412
0.18835784 0.2 0.11960784
0.20588235 0.2 0.11519608
0.22634804 0.2 0.11164216
0.24607843 0.19705882 0.10784314
0.26372549 0.19497549 0.10612745
0.28529412 0.19313725 0.10882353
0.31617647 0.19313725 0.10784314
0.35490196 0.19387255 0.10882353
0.39865196 0.1995098 0.11556373
0.44068627 0.20392157 0.1245098
0.48235294 0.20784314 0.13223039
0.52352941 0.20784314 0.14509804
0.56470588 0.20637255 0.14460784
0.60588235 0.2 0.13529412
0.64767157 0.19816176 0.13137255
0.68921569 0.20098039 0.13235294
0.73039216 0.20098039 0.13627451
0.76470588 0.20392157 0.14411765
0.80061275 0.20392157 0.15012255
0.83455882 0.20392157 0.15392157
0.86715686 0.2 0.15992647
0.89019608 0.19705882 0.1627451
0.15980392 0.23970588 0.14411765
0.17254902 0.23970588 0.1411152
0.19313725 0.24117647 0.14019608
0.20998775 0.24246324 0.14019608
0.23039216 0.24509804 0.13627451
0.24705882 0.24264706 0.13596814
0.26764706 0.23933824 0.13382353
0.28823529 0.23633578 0.12990196
0.30637255 0.23333333 0.12598039
0.33186275 0.23241422 0.1245098
0.37647059 0.23762255 0.13480392
0.42058824 0.24246324 0.14362745
0.46176471 0.24779412 0.15
0.503125 0.24901961 0.16029412
0.54803922 0.24901961 0.17058824
0.58529412 0.24754902 0.1754902
0.625 0.24117647 0.16372549
0.66280637 0.2372549 0.15343137
0.69852941 0.23480392 0.14656863
0.73333333 0.23854167 0.15686275
0.76936275 0.24240196 0.16715686
0.80324755 0.24509804 0.17598039
0.8377451 0.2439951 0.18272059
0.87254902 0.240625 0.18572304
0.8995098 0.2372549 0.19117647
0.18431373 0.27843137 0.16078431
0.19705882 0.28088235 0.16078431
0.21764706 0.28333333 0.16078431
0.23431373 0.28627451 0.16078431
0.25098039 0.28627451 0.15686275
0.26764706 0.28627451 0.15686275
0.28823529 0.28627451 0.15686275
0.30882353 0.28627451 0.16078431
0.33333333 0.28235294 0.15686275
0.36421569 0.28235294 0.15686275
0.4 0.28627451 0.16176471
0.44117647 0.28970588 0.16813725
0.48235294 0.29019608 0.16862745
0.52352941 0.29019608 0.18088235
0.56470588 0.29019608 0.19117647
0.60196078 0.29019608 0.19460784
0.63921569 0.28627451 0.18431373
0.67647059 0.28235294 0.17647059
0.70882353 0.28235294 0.17352941
0.74313725 0.28627451 0.18382353
0.7745098 0.28627451 0.19607843
0.80931373 0.28970588 0.20441176
0.84411765 0.28627451 0.20784314
0.87892157 0.28235294 0.21176471
0.90588235 0.27843137 0.21568627
0.2254902 0.32990196 0.18529412
0.23431373 0.32990196 0.18682598
0.24754902 0.33026961 0.18529412
0.26158088 0.33137255 0.18167892
0.27352941 0.33137255 0.17745098
0.28792892 0.33137255 0.17352941
0.30821078 0.3307598 0.17683824
0.33333333 0.33137255 0.18137255
0.36421569 0.33137255 0.1877451
0.39754902 0.33082108 0.19019608
0.42745098 0.33382353 0.18921569
0.46176471 0.33137255 0.18578431
0.50294118 0.33137255 0.18602941
0.54381127 0.33529412 0.19509804
0.57990196 0.33529412 0.20539216
0.615625 0.33682598 0.21029412
0.65343137 0.33382353 0.20490196
0.68823529 0.33137255 0.20006127
0.72156863 0.33382353 0.20196078
0.75245098 0.33382353 0.2122549
0.78480392 0.33529412 0.22254902
0.81746324 0.33743873 0.23265931
0.85159314 0.33198529 0.23627451
0.88284314 0.32745098 0.23627451
0.90588235 0.32352941 0.23872549
0.26666667 0.38039216 0.20980392
0.27634804 0.3810049 0.20980392
0.28627451 0.38137255 0.21053922
0.29656863 0.38039216 0.20723039
0.30343137 0.37696078 0.2004902
0.30931373 0.37218137 0.19362745
0.3252451 0.36936275 0.19289216
0.36176471 0.37683824 0.20379902
0.39509804 0.38039216 0.21470588
0.42990196 0.38137255 0.22009804
0.45686275 0.37965686 0.2129902
0.48431373 0.37659314 0.20637255
0.51715686 0.37303922 0.20147059
0.55686275 0.37781863 0.21029412
0.59485294 0.38112745 0.22058824
0.6310049 0.38137255 0.2245098
0.66372549 0.38137255 0.2245098
0.69914216 0.38137255 0.22156863
0.73333333 0.38137255 0.22647059
0.76421569 0.38394608 0.23676471
0.79460784 0.38431373 0.24705882
0.825 0.38137255 0.2560049
0.85588235 0.37818627 0.25759804
0.88529412 0.37352941 0.26115196
0.90588235 0.36960784 0.26470588
0.30784314 0.42892157 0.23039216
0.31421569 0.42892157 0.23284314
0.3245098 0.42892157 0.23431373
0.33480392 0.42892157 0.23082108
0.34117647 0.4252451 0.22794118
0.34754902 0.42058824 0.22199755
0.36078431 0.41715686 0.22193627
0.39479167 0.42285539 0.23265931
0.42990196 0.4254902 0.24558824
0.46078431 0.42892157 0.25098039
0.49031863 0.4254902 0.24166667
0.51519608 0.42199755 0.23431373
0.54338235 0.42303922 0.23529412
0.57696078 0.42892157 0.24123775
0.61176471 0.42892157 0.24546569
0.64656863 0.42892157 0.24558824
0.67794118 0.42892157 0.24215686
0.71256127 0.42892157 0.23872549
0.74362745 0.42941176 0.24705882
0.77107843 0.42941176 0.25735294
0.80147059 0.42892157 0.26764706
0.82892157 0.4254902 0.27401961
0.85943627 0.42512255 0.28125
0.88529412 0.4213848 0.28658088
0.90588235 0.41764706 0.28921569
0.34313725 0.4745098 0.24901961
0.35147059 0.47647059 0.25098039
0.3622549 0.47647059 0.25539216
0.37598039 0.47647059 0.25857843
0.38235294 0.47352941 0.25686275
0.39264706 0.47034314 0.25686275
0.40833333 0.46862745 0.26029412
0.43112745 0.46936275 0.26617647
0.46078431 0.47254902 0.27647059
0.49166667 0.4745098 0.28039216
0.52254902 0.47254902 0.27598039
0.5495098 0.47058824 0.27254902
0.5745098 0.47254902 0.2754902
0.60147059 0.47867647 0.28063725
0.63235294 0.48039216 0.28235294
0.66715686 0.48039216 0.27965686
0.69607843 0.47843137 0.27254902
0.7245098 0.4752451 0.26740196
0.75 0.4745098 0.27352941
0.77720588 0.4745098 0.28210784
0.80490196 0.4745098 0.29019608
0.83284314 0.47254902 0.3002451
0.86029412 0.47254902 0.30735294
0.8879902 0.46862745 0.3125
0.90784314 0.46470588 0.31568627
0.37794118 0.51960784 0.26715686
0.38872549 0.52224265 0.27401961
0.40294118 0.52352941 0.28088235
0.41623775 0.52352941 0.2872549
0.42696078 0.51985294 0.2877451
0.4377451 0.51617647 0.29166667
0.45110294 0.51568627 0.29460784
0.47009804 0.51617647 0.30098039
0.49166667 0.51617647 0.30735294
0.52254902 0.51960784 0.31127451
0.55208333 0.51617647 0.30784314
0.57996324 0.51617647 0.31084559
0.60318627 0.51985294 0.31348039
0.62640931 0.52444853 0.3161152
0.65306373 0.53137255 0.32218137
0.68363971 0.52745098 0.31372549
0.71078431 0.52352941 0.30343137
0.7372549 0.51979167 0.30116422
0.76066176 0.51960784 0.30747549
0.78382353 0.51960784 0.31476716
0.8120098 0.52009804 0.32132353
0.8372549 0.51960784 0.32738971
0.86507353 0.51960784 0.33345588
0.89099265 0.51599265 0.33823529
0.91029412 0.5122549 0.33872549
0.42254902 0.56078431 0.29803922
0.43345588 0.56470588 0.30833333
0.44411765 0.56764706 0.31397059
0.45441176 0.56507353 0.3185049
0.46470588 0.56470588 0.31715686
0.4754902 0.56078431 0.31875
0.49240196 0.56078431 0.32328431
0.51127451 0.56078431 0.33186275
0.52647059 0.56078431 0.33823529
0.55159314 0.56078431 0.34215686
0.57965686 0.56078431 0.34215686
0.60477941 0.56078431 0.34595588
0.62892157 0.56470588 0.34901961
0.65294118 0.56875 0.35012255
0.6745098 0.57254902 0.34705882
0.69938725 0.56862745 0.34068627
0.7245098 0.56470588 0.33137255
0.7504902 0.56262255 0.33406863
0.77352941 0.56372549 0.33921569
0.79669118 0.56470588 0.3495098
0.81911765 0.56764706 0.35882353
0.84448529 0.56727941 0.35784314
0.87083333 0.56470588 0.35857843
0.89644608 0.56372549 0.36213235
0.91666667 0.55980392 0.36568627
0.47401961 0.59803922 0.34166667
0.48039216 0.60349265 0.34258578
0.48982843 0.60931373 0.35723039
0.49607843 0.60980392 0.35177696
0.50514706 0.60588235 0.34289216
0.51617647 0.60196078 0.34411765
0.53223039 0.60196078 0.34914216
0.54705882 0.60196078 0.35882353
0.55882353 0.60196078 0.36764706
0.58039216 0.60196078 0.37303922
0.60698529 0.60294118 0.37696078
0.63069853 0.60588235 0.38039216
0.65392157 0.60710784 0.38088235
0.6745098 0.60833333 0.37518382
0.69509804 0.60833333 0.36862745
0.71568627 0.60980392 0.36372549
0.74019608 0.60980392 0.35735294
0.76415441 0.60588235 0.3588848
0.7877451 0.60588235 0.37009804
0.80833333 0.60949755 0.38039216
0.82892157 0.61176471 0.39460784
0.85343137 0.60980392 0.39264706
0.87757353 0.60980392 0.38872549
0.90245098 0.61035539 0.38872549
0.92303922 0.60980392 0.39117647
0.52156863 0.63529412 0.38039216
0.52794118 0.63921569 0.38039216
0.53333333 0.64313725 0.37647059
0.5372549 0.64313725 0.37303922
0.54313725 0.64705882 0.36666667
0.55343137 0.64313725 0.36519608
0.56764706 0.64313725 0.3754902
0.58186275 0.64313725 0.38578431
0.59215686 0.64313725 0.39607843
0.61127451 0.64313725 0.4
0.6372549 0.64313725 0.40392157
0.65784314 0.64313725 0.40784314
0.67647059 0.64705882 0.41176471
0.69509804 0.64705882 0.40735294
0.71568627 0.64705882 0.39705882
0.73627451 0.64705882 0.39068627
0.75686275 0.65098039 0.38431373
0.77745098 0.65098039 0.38676471
0.79803922 0.64705882 0.40098039
0.81862745 0.64705882 0.41127451
0.83921569 0.65098039 0.4254902
0.86372549 0.65098039 0.42352941
0.8872549 0.65098039 0.42058824
0.90882353 0.65490196 0.41813725
0.93333333 0.65882353 0.41568627
0.56666667 0.67254902 0.41764706
0.57303922 0.67555147 0.4161152
0.57843137 0.67794118 0.41311275
0.58235294 0.67794118 0.40765931
0.58308824 0.67916667 0.40196078
0.59068627 0.68039216 0.40196078
0.60245098 0.68039216 0.40882353
0.61666667 0.67794118 0.41574755
0.62941176 0.67794118 0.42058824
0.64515931 0.67647059 0.42604167
0.66813725 0.67794118 0.42904412
0.68658088 0.68167892 0.43449755
0.70098039 0.68504902 0.44068627
0.71960784 0.68823529 0.44068627
0.73627451 0.68578431 0.43186275
0.75686275 0.68339461 0.42248775
0.77352941 0.68186275 0.41764706
0.78921569 0.68186275 0.41856618
0.80833333 0.68186275 0.42794118
0.82892157 0.68186275 0.44185049
0.8495098 0.68186275 0.45318627
0.871875 0.68449755 0.45410539
0.89460784 0.68578431 0.4504902
0.91666667 0.68578431 0.44748775
0.92941176 0.68970588 0.4504902
0.6127451 0.70882353 0.45490196
0.61568627 0.70943627 0.45208333
0.61960784 0.7127451 0.45
0.62218137 0.7127451 0.44705882
0.62303922 0.7127451 0.44313725
0.62794118 0.7127451 0.44313725
0.64044118 0.7127451 0.44534314
0.65147059 0.7127451 0.45404412
0.6627451 0.7127451 0.44901961
0.67843137 0.7127451 0.45183824
0.69877451 0.71372549 0.45465686
0.7122549 0.71752451 0.46127451
0.7254902 0.72254902 0.46764706
0.73970588 0.7245098 0.47352941
0.75686275 0.72058824 0.46740196
0.77352941 0.71519608 0.45845588
0.79019608 0.7127451 0.45490196
0.80441176 0.7127451 0.45490196
0.81936275 0.7127451 0.45882353
0.83921569 0.7127451 0.46911765
0.85980392 0.71519608 0.48284314
0.88039216 0.71666667 0.48137255
0.90098039 0.71666667 0.48137255
0.91911765 0.71813725 0.48345588
0.92941176 0.72058824 0.48921569
0.65343137 0.74313725 0.49215686
0.65686275 0.74362745 0.49215686
0.65698529 0.74362745 0.48823529
0.65735294 0.74362745 0.48823529
0.66078431 0.74362745 0.48627451
0.66568627 0.74362745 0.48431373
0.67598039 0.74362745 0.48431373
0.68970588 0.74724265 0.48088235
0.7 0.74754902 0.47745098
0.71060049 0.74705882 0.47696078
0.72512255 0.74840686 0.48186275
0.73578431 0.75147059 0.48829657
0.75 0.75171569 0.49852941
0.76029412 0.75496324 0.50441176
0.7745098 0.75147059 0.50404412
0.79283088 0.74607843 0.4963848
0.80735294 0.74362745 0.49215686
0.82107843 0.74362745 0.49215686
0.83272059 0.74362745 0.4935049
0.8495098 0.7466299 0.5
0.86838235 0.74754902 0.51029412
0.8872549 0.74754902 0.5122549
0.90477941 0.74754902 0.51482843
0.91911765 0.75147059 0.52107843
0.92941176 0.75490196 0.52745098
0.69215686 0.7745098 0.53137255
0.69215686 0.7745098 0.52941176
0.69411765 0.7745098 0.52941176
0.69583333 0.7745098 0.52941176
0.69803922 0.7745098 0.5254902
0.70245098 0.7745098 0.52352941
0.7127451 0.7745098 0.52156863
0.72230392 0.77843137 0.51887255
0.73137255 0.77843137 0.51372549
0.74044118 0.77843137 0.50980392
0.74852941 0.77843137 0.5127451
0.76029412 0.77843137 0.51936275
0.77058824 0.78039216 0.52843137
0.78112745 0.78235294 0.53578431
0.79509804 0.78088235 0.53921569
0.81078431 0.77696078 0.53455882
0.8254902 0.7745098 0.53137255
0.8370098 0.7745098 0.53137255
0.84803922 0.77696078 0.53137255
0.8620098 0.77843137 0.53333333
0.87745098 0.78235294 0.53921569
0.89289216 0.78235294 0.54338235
0.90490196 0.78235294 0.55
0.91911765 0.78382353 0.56029412
0.93333333 0.78627451 0.56862745
0.72696078 0.80147059 0.57009804
0.72726716 0.80539216 0.57009804
0.72830882 0.80539216 0.57009804
0.73131127 0.80539216 0.57009804
0.73480392 0.80539216 0.56642157
0.73872549 0.80539216 0.56268382
0.74558824 0.80539216 0.55882353
0.75196078 0.80539216 0.55704657
0.76176471 0.80539216 0.55490196
0.76832108 0.80539216 0.55098039
0.77365196 0.80539216 0.55098039
0.78094363 0.80882353 0.55484069
0.79142157 0.80931373 0.56078431
0.80539216 0.80931373 0.57009804
0.81568627 0.80931373 0.57401961
0.82990196 0.80539216 0.57009804
0.84362745 0.80539216 0.56666667
0.85392157 0.80539216 0.56666667
0.86421569 0.80894608 0.56752451
0.87493873 0.80931373 0.57009804
0.88872549 0.81323529 0.57401961
0.89901961 0.81323529 0.57800245
0.91237745 0.81323529 0.58492647
0.92530637 0.81452206 0.59509804
0.93823529 0.81715686 0.60539216
0.76078431 0.83235294 0.60490196
0.76176471 0.83235294 0.60784314
0.76470588 0.83627451 0.60784314
0.76568627 0.83627451 0.60526961
0.76911765 0.83627451 0.60392157
0.77009804 0.83627451 0.6
0.77647059 0.83627451 0.59705882
0.78284314 0.83627451 0.59497549
0.78921569 0.83627451 0.59705882
0.79558824 0.83627451 0.59031863
0.79877451 0.83333333 0.58921569
0.80539216 0.83627451 0.59215686
0.81568627 0.83676471 0.59656863
0.82598039 0.83762255 0.60147059
0.83627451 0.84019608 0.60710784
0.8504902 0.83627451 0.60490196
0.86078431 0.83627451 0.60392157
0.86813725 0.83627451 0.60392157
0.87843137 0.83627451 0.60392157
0.88872549 0.8372549 0.60490196
0.89901961 0.84019608 0.60833333
0.91237745 0.84019608 0.61568627
0.92573529 0.84093137 0.62034314
0.93884804 0.84411765 0.62892157
0.95196078 0.84509804 0.63627451
0.79264706 0.85931373 0.63970588
0.79264706 0.86176471 0.63970588
0.79656863 0.86323529 0.64362745
0.79656863 0.86323529 0.63970588
0.8004902 0.86323529 0.6377451
0.80441176 0.86323529 0.63578431
0.80833333 0.86568627 0.63394608
0.81372549 0.86568627 0.63186275
0.82009804 0.86568627 0.62941176
0.82254902 0.86323529 0.62849265
0.82647059 0.86286765 0.62794118
0.83008578 0.86305147 0.62941176
0.8370098 0.86446078 0.63259804
0.84656863 0.86715686 0.63627451
0.85686275 0.86715686 0.64080882
0.86715686 0.86660539 0.63970588
0.87598039 0.86176471 0.63578431
0.88235294 0.85784314 0.63284314
0.89264706 0.86568627 0.64007353
0.90294118 0.86715686 0.64491422
0.91323529 0.87107843 0.64705882
0.92530637 0.87107843 0.65324755
0.93884804 0.87107843 0.65870098
0.95251225 0.87107843 0.66323529
0.96617647 0.875 0.66715686
0.81568627 0.88235294 0.66666667
0.81568627 0.88235294 0.66666667
0.81960784 0.88235294 0.66666667
0.81960784 0.88235294 0.66666667
0.82352941 0.88235294 0.6627451
0.82794118 0.88627451 0.6627451
0.83431373 0.88921569 0.6627451
0.84313725 0.89264706 0.66519608
0.84313725 0.88627451 0.65882353
0.84313725 0.88382353 0.65637255
0.84705882 0.88235294 0.65490196
0.8504902 0.88235294 0.65833333
0.85686275 0.88627451 0.66078431
0.86323529 0.88676471 0.66323529
0.87352941 0.89019608 0.67058824
0.87843137 0.88480392 0.66519608
0.88235294 0.87843137 0.65490196
0.88872549 0.8745098 0.65343137
0.89901961 0.88235294 0.65980392
0.91323529 0.88970588 0.67352941
0.92745098 0.89803922 0.68235294
0.9377451 0.89411765 0.68235294
0.95098039 0.89411765 0.68529412
0.96372549 0.89411765 0.69019608
0.97647059 0.89803922 0.69411765
0.011764706 0.0078431373 0.018137255
0.019669118 0.010294118 0.018137255
0.039215686 0.015808824 0.026102941
0.050306373 0.0081495098 0.020588235
0.076470588 0.015686275 0.031127451
0.093627451 0.010294118 0.024509804
0.1192402 0.010294118 0.024509804
0.15343137 0.013235294 0.031372549
0.18578431 0.019607843 0.043137255
0.21758578 0.020159314 0.047058824
0.24607843 0.014705882 0.036764706
0.27910539 0.010294118 0.028431373
0.32352941 0.014215686 0.031617647
0.3776348 0.022058824 0.036764706
0.43223039 0.025980392 0.042034314
0.48431373 0.025061275 0.041727941
0.53333333 0.019607843 0.03872549
0.57996324 0.014215686 0.035723039
0.63223039 0.01752451 0.040196078
0.68363971 0.03314951 0.057659314
0.7247549 0.024754902 0.053186275
0.7627451 0.015870098 0.048406863
0.80392157 0.036642157 0.071446078
0.83229167 0.014215686 0.046568627
0.83382353 0.018137255 0.050490196
0.028431373 0.037254902 0.03872549
0.03817402 0.037254902 0.035723039
0.054044118 0.038985907 0.038985907
0.066666667 0.032176777 0.033884804
0.089767157 0.037040441 0.040502451
0.11128217 0.031686581 0.034803922
0.13529412 0.031571691 0.03549326
0.16617647 0.034803922 0.041666667
0.19944853 0.037745098 0.049509804
0.23090533 0.037974877 0.050980392
0.2627451 0.034803922 0.043520221
0.29362745 0.034803922 0.041176471
0.33992034 0.037990196 0.050245098
0.39074755 0.042761949 0.052634804
0.44290748 0.046338848 0.052328431
0.49273131 0.043566176 0.05144761
0.54215686 0.039644608 0.049938725
0.590625 0.03872549 0.051125919
0.63970588 0.042892157 0.055499387
0.69008119 0.050911458 0.065012255
0.72990196 0.046752451 0.064981618
0.76862745 0.042340686 0.062438725
0.80637255 0.054779412 0.080759804
0.83529412 0.037254902 0.064361213
0.84166667 0.037806373 0.064705882
0.04620098 0.065686275 0.061397059
0.057843137 0.068504902 0.058624387
0.073621324 0.068167892 0.056341912
0.088602941 0.062576593 0.051470588
0.11176471 0.063235294 0.052022059
0.13235294 0.061182598 0.049341299
0.15686275 0.060508578 0.050122549
0.18676471 0.061151961 0.051960784
0.21764706 0.062867647 0.058333333
0.24852941 0.065318627 0.058333333
0.28333333 0.065686275 0.057230392
0.31764706 0.065364583 0.057230392
0.35925245 0.064705882 0.064276961
0.40396752 0.067202819 0.060784314
