site/assets/luts/natron-haldclut--fuji-superia-1600--d9ecbb63c.cube
# LUTr-Project: LUTr — LUTrepository
# LUTr-Schema-Version: 1
# LUTr-ID: natron-haldclut--fuji-superia-1600--d9ecbb63c
# LUTr-Title: fuji superia 1600
# LUTr-Collection: Natron HaldCLUT
# LUTr-Collection-ID: natron-haldclut-presets
# LUTr-Source: https://github.com/NatronGitHub/clut
# LUTr-Source-File: submissions/natron-haldclut-presets/negative_old/fuji_superia_1600.png
# LUTr-Source-Format: PNG
# LUTr-Source-SHA256: 744b908685374fb5f303682590757bdc7dadceb93f842d9df78e21190e238637
# LUTr-License: CC-BY-SA-4.0
# LUTr-License-URL: https://github.com/NatronGitHub/clut#license
# LUTr-Tags: creative, film, film-emulation, hald-clut, natron, png, cube
# LUTr-Transform-Class: film-emulation
# LUTr-Input-Color-Space: srgb
# LUTr-Output-Color-Space: srgb
# LUTr-Color-Space-Confidence: assumed-display-referred
# LUTr-Conversion-Method: PNG LUT image decoded at 16-bit and sampled to 25x25x25 3D CUBE
# LUTr-Conversion-Date: 2026-07-27
# LUTr-Conversion-Tool: LUTr scripts/convert-all-to-cube.mjs
# LUTr-Conversion-Grid: 25x25x25
# LUTr-Note: Preserve this metadata and the upstream license notices when redistributing.
TITLE "fuji superia 1600"
LUT_3D_SIZE 5
DOMAIN_MIN 0 0 0
DOMAIN_MAX 1 1 1
0.058823529 0.094117647 0.098039216
0.16568627 0.098039216 0.10588235
0.4745098 0.10784314 0.078431373
0.79215686 0.15392157 0.045098039
1 0.25882353 0
0.0068627451 0.21862745 0.1127451
0.15980392 0.26078431 0.090196078
0.55588235 0.27598039 0.048529412
0.82254902 0.29534314 0.0078431373
0.98431373 0.35490196 0.0039215686
0 0.52941176 0.16862745
0.01127451 0.5254902 0.18088235
0.52058824 0.58529412 0.069607843
0.85 0.59754902 0.0093137255
0.97254902 0.5745098 0.033333333
0.20686275 0.78431373 0.38431373
0.30882353 0.77647059 0.38823529
0.50735294 0.78872549 0.36911765
0.78333333 0.83431373 0.33529412
0.98823529 0.84313725 0.35686275
0.61568627 0.94117647 0.68235294
0.64607843 0.94901961 0.69019608
0.69803922 0.95098039 0.7
0.79019608 0.95294118 0.68235294
0.90980392 0.96862745 0.69019608
0.060784314 0.098039216 0.19607843
0.17622549 0.10098039 0.19583333
0.5127451 0.025490196 0.1995098
0.78039216 0.11666667 0.18529412
0.98823529 0.25098039 0.19215686
0.011764706 0.24436275 0.24117647
0.2 0.25686275 0.23651961
0.54914216 0.26997549 0.22205882
0.81151961 0.28284314 0.20778186
0.97647059 0.35294118 0.20686275
0.10784314 0.56029412 0.34509804
0.23223039 0.54803922 0.32867647
0.5620098 0.59068627 0.29534314
0.83455882 0.57843137 0.26960784
0.97745098 0.58431373 0.28235294
0.34117647 0.78823529 0.48431373
0.39589461 0.77941176 0.48278186
0.54117647 0.78529412 0.46446078
0.78425245 0.82647059 0.45098039
0.98431373 0.83823529 0.46078431
0.6372549 0.94313725 0.70784314
0.6627451 0.94534314 0.71691176
0.71078431 0.94901961 0.72205882
0.80196078 0.95392157 0.71740196
0.9245098 0.97156863 0.72745098
0.0078431373 0.1 0.48627451
0.22058824 0.11666667 0.48578431
0.55 0.12254902 0.50980392
0.82990196 0.23823529 0.52598039
0.97843137 0.2627451 0.48627451
0.0034313725 0.22843137 0.50735294
0.23296569 0.25882353 0.52144608
0.56862745 0.30735294 0.52794118
0.82855392 0.37928922 0.54056373
0.98235294 0.35 0.47843137
0.17058824 0.57156863 0.56666667
0.35980392 0.56862745 0.5745098
0.59509804 0.56862745 0.56029412
0.80686275 0.56715686 0.53431373
0.98235294 0.58333333 0.51862745
0.5622549 0.81078431 0.68970588
0.58578431 0.80490196 0.67879902
0.63039216 0.7875 0.63995098
0.80294118 0.82389706 0.64007353
0.98137255 0.825 0.6377451
0.72352941 0.94901961 0.80392157
0.71764706 0.94215686 0.79068627
0.74215686 0.94019608 0.78039216
0.81519608 0.94705882 0.77794118
0.91568627 0.96470588 0.79019608
0.14313725 0.13039216 0.74509804
0.34411765 0.12941176 0.75294118
0.60882353 0.18431373 0.75980392
0.82745098 0.31372549 0.76544118
0.98823529 0.4754902 0.77254902
0.1372549 0.26764706 0.74901961
0.35588235 0.28296569 0.75686275
0.61666667 0.33137255 0.76470588
0.82328431 0.43621324 0.77101716
0.98039216 0.5627451 0.78946078
0.026470588 0.49509804 0.75588235
0.21703431 0.48137255 0.74938725
0.57769608 0.54117647 0.76421569
0.81470588 0.62267157 0.78186275
0.97156863 0.71078431 0.80833333
0.50392157 0.79681373 0.82181373
0.55729167 0.79485294 0.81881127
0.67892157 0.79534314 0.81715686
0.81770833 0.80165441 0.80759804
0.96470588 0.81470588 0.79313725
0.79313725 0.95686275 0.89509804
0.80392157 0.95367647 0.89509804
0.82843137 0.95294118 0.89166667
0.85686275 0.94436275 0.87573529
0.94607843 0.96568627 0.88431373
0.4627451 0.25490196 0.9254902
0.53137255 0.28137255 0.9245098
0.70784314 0.38039216 0.94313725
0.85784314 0.47843137 0.91960784
0.98431373 0.61960784 0.94509804
0.49901961 0.39019608 0.95686275
0.56446078 0.40588235 0.94901961
0.71176471 0.4627451 0.95196078
0.86568627 0.57034314 0.94901961
0.9754902 0.66176471 0.94803922
0.4 0.53333333 0.95686275
0.50441176 0.55245098 0.95539216
0.6745098 0.59509804 0.94509804
0.84754902 0.67401961 0.94215686
0.96666667 0.74509804 0.94509804
0.36568627 0.75784314 0.93235294
0.41666667 0.74313725 0.95294118
0.54558824 0.72794118 0.93186275
0.80980392 0.79583333 0.94901961
0.94019608 0.85196078 0.95294118
0.76470588 0.96470588 0.96862745
0.78039216 0.96176471 0.96568627
0.81960784 0.95490196 0.9627451
0.88823529 0.96176471 0.96470588
0.96078431 0.95686275 0.9372549
