site/assets/luts/natron-haldclut--smooth-fade--551a62c92.cube
# LUTr-Project: LUTr — LUTrepository
# LUTr-Schema-Version: 1
# LUTr-ID: natron-haldclut--smooth-fade--551a62c92
# LUTr-Title: smooth fade
# LUTr-Collection: Natron HaldCLUT
# LUTr-Collection-ID: natron-haldclut-presets
# LUTr-Source: https://github.com/NatronGitHub/clut
# LUTr-Source-File: submissions/natron-haldclut-presets/various/smooth_fade.png
# LUTr-Source-Format: PNG
# LUTr-Source-SHA256: 3c31d743610572f80e492d26e16d7a40f8b470b116ce0325bf82483b7f98f91c
# LUTr-License: CC-BY-SA-4.0
# LUTr-License-URL: https://github.com/NatronGitHub/clut#license
# LUTr-Tags: creative, film, film-emulation, hald-clut, natron, png, cube
# LUTr-Transform-Class: film-emulation
# LUTr-Input-Color-Space: srgb
# LUTr-Output-Color-Space: srgb
# LUTr-Color-Space-Confidence: assumed-display-referred
# LUTr-Conversion-Method: PNG LUT image decoded at 16-bit and sampled to 25x25x25 3D CUBE
# LUTr-Conversion-Date: 2026-07-27
# LUTr-Conversion-Tool: LUTr scripts/convert-all-to-cube.mjs
# LUTr-Conversion-Grid: 25x25x25
# LUTr-Note: Preserve this metadata and the upstream license notices when redistributing.
TITLE "smooth fade"
LUT_3D_SIZE 5
DOMAIN_MIN 0 0 0
DOMAIN_MAX 1 1 1
0.16862745 0.23529412 0.24313725
0.40784314 0.21666667 0.25588235
0.67254902 0.16078431 0.21960784
0.87941176 0.15 0.20392157
0.99607843 0.16862745 0.18431373
0.14803922 0.39901961 0.22352941
0.36470588 0.38529412 0.20980392
0.63186275 0.36519608 0.20784314
0.85490196 0.3497549 0.18504902
0.97352941 0.33431373 0.16862745
0.1254902 0.62941176 0.19607843
0.33529412 0.6122549 0.18823529
0.6 0.59509804 0.19803922
0.83039216 0.57990196 0.17156863
0.95686275 0.56862745 0.14509804
0.099019608 0.83431373 0.17647059
0.29779412 0.82647059 0.15612745
0.55980392 0.81470588 0.13872549
0.80220588 0.79509804 0.1245098
0.98529412 0.78333333 0.096078431
0.066666667 0.99215686 0.17254902
0.25588235 0.97058824 0.12254902
0.52156863 0.95882353 0.13529412
0.76372549 0.93431373 0.11666667
0.90196078 0.96078431 0.082352941
0.19705882 0.18431373 0.44411765
0.39607843 0.17671569 0.43627451
0.65098039 0.17990196 0.41813725
0.88235294 0.14583333 0.40784314
0.99901961 0.13333333 0.39215686
0.15490196 0.39607843 0.42377451
0.3625 0.38431373 0.40827206
0.62843137 0.35931373 0.3939951
0.85392157 0.34920343 0.37389706
0.99607843 0.33112745 0.3627451
0.10833333 0.63333333 0.39117647
0.33431373 0.61176471 0.37953431
0.59803922 0.59705882 0.36151961
0.83088235 0.57218137 0.35196078
0.98578431 0.55294118 0.33578431
0.085539216 0.84215686 0.36151961
0.28682598 0.82671569 0.34846814
0.54803922 0.80306373 0.33026961
0.79846814 0.79117647 0.31464461
0.96862745 0.76936275 0.30661765
0.078431373 0.98529412 0.32941176
0.25490196 0.96764706 0.31960784
0.50196078 0.97598039 0.30735294
0.75980392 0.94901961 0.30122549
0.94117647 0.94901961 0.27156863
0.18431373 0.21568627 0.65098039
0.39215686 0.16813725 0.64313725
0.65882353 0.15882353 0.6254902
0.86127451 0.15294118 0.61764706
0.99215686 0.12745098 0.60196078
0.14754902 0.40098039 0.62647059
0.35147059 0.37671569 0.61666667
0.62696078 0.3495098 0.60808824
0.84607843 0.3372549 0.58872549
0.98823529 0.31862745 0.57647059
0.13333333 0.62058824 0.58921569
0.31960784 0.60416667 0.57769608
0.58186275 0.58431373 0.56715686
0.81691176 0.56421569 0.55563725
0.99019608 0.54509804 0.53823529
0.091176471 0.83137255 0.56666667
0.28186275 0.81102941 0.55870098
0.54240196 0.7875 0.54362745
0.78406863 0.77352941 0.52058824
0.96862745 0.77205882 0.50735294
0.060784314 0.99215686 0.5372549
0.25098039 0.97352941 0.53137255
0.49509804 0.95882353 0.51568627
0.75294118 0.93578431 0.50147059
0.91764706 0.94117647 0.48431373
0.16666667 0.17745098 0.85686275
0.38210784 0.17254902 0.85171569
0.64166667 0.17009804 0.83872549
0.8627451 0.14436275 0.82573529
1 0.15196078 0.81078431
0.14411765 0.38431373 0.83063725
0.3497549 0.37254902 0.81868873
0.62598039 0.34362745 0.81078431
0.85 0.33333333 0.79270833
0.96397059 0.33333333 0.78039216
0.13137255 0.61568627 0.79754902
0.30747549 0.59607843 0.79007353
0.58039216 0.57647059 0.78137255
0.81286765 0.56188725 0.75588235
0.9622549 0.55294118 0.73431373
0.091176471 0.82622549 0.76764706
0.27935049 0.81470588 0.76317402
0.53676471 0.79117647 0.74754902
0.78333333 0.77628676 0.72714461
0.95980392 0.77156863 0.71593137
0.065686275 0.97843137 0.74803922
0.24705882 0.97156863 0.73651961
0.49607843 0.95833333 0.72058824
0.75514706 0.94191176 0.70563725
0.92745098 0.94117647 0.68921569
0.15294118 0.16862745 0.95294118
0.37647059 0.19901961 0.93823529
0.64705882 0.15294118 0.95098039
0.86568627 0.13823529 0.92156863
0.99607843 0.11764706 0.94901961
0.13627451 0.38431373 0.94607843
0.3497549 0.37647059 0.95220588
0.62745098 0.34117647 0.94313725
0.84705882 0.32647059 0.92058824
0.99117647 0.32254902 0.9372549
0.11176471 0.61568627 0.94509804
0.30735294 0.60392157 0.94901961
0.5745098 0.57647059 0.94705882
0.81715686 0.55294118 0.92941176
0.98039216 0.54509804 0.9254902
0.085294118 0.82254902 0.94509804
0.27132353 0.81470588 0.94509804
0.52892157 0.79313725 0.91127451
0.77647059 0.7754902 0.92230392
0.96078431 0.76764706 0.88137255
0.047058824 1 0.95294118
0.24313725 0.96666667 0.93039216
0.49607843 0.93921569 0.90980392
0.75294118 0.9127451 0.90686275
0.94901961 0.94509804 0.89019608
