site/assets/luts/natron-haldclut--polaroid-px-100uv-warm--e75184630.cube
# LUTr-Project: LUTr — LUTrepository
# LUTr-Schema-Version: 1
# LUTr-ID: natron-haldclut--polaroid-px-100uv-warm--e75184630
# LUTr-Title: polaroid px-100uv+ warm +++
# LUTr-Collection: Natron HaldCLUT
# LUTr-Collection-ID: natron-haldclut-presets
# LUTr-Source: https://github.com/NatronGitHub/clut
# LUTr-Source-File: submissions/natron-haldclut-presets/instant_consumer/polaroid_px-100uv+_warm_+++.png
# LUTr-Source-Format: PNG
# LUTr-Source-SHA256: 3bd898ca70ca7623d2f4d4311456ab10e4de8acc731f94b73a63bfe9f402483b
# LUTr-License: CC-BY-SA-4.0
# LUTr-License-URL: https://github.com/NatronGitHub/clut#license
# LUTr-Tags: creative, film, film-emulation, hald-clut, natron, png, warm, cube
# LUTr-Transform-Class: film-emulation
# LUTr-Input-Color-Space: srgb
# LUTr-Output-Color-Space: srgb
# LUTr-Color-Space-Confidence: assumed-display-referred
# LUTr-Conversion-Method: PNG LUT image decoded at 16-bit and sampled to 25x25x25 3D CUBE
# LUTr-Conversion-Date: 2026-07-27
# LUTr-Conversion-Tool: LUTr scripts/convert-all-to-cube.mjs
# LUTr-Conversion-Grid: 25x25x25
# LUTr-Note: Preserve this metadata and the upstream license notices when redistributing.
TITLE "polaroid px-100uv+ warm +++"
LUT_3D_SIZE 5
DOMAIN_MIN 0 0 0
DOMAIN_MAX 1 1 1
0.44313725 0.39607843 0.38431373
0.43921569 0.39607843 0.38431373
0.44901961 0.40784314 0.39411765
0.55 0.51176471 0.48333333
0.60784314 0.57254902 0.52941176
0.44313725 0.4 0.38431373
0.45073529 0.40759804 0.39215686
0.47598039 0.43284314 0.41568627
0.54607843 0.50392157 0.47647059
0.63431373 0.59901961 0.55196078
0.47647059 0.43529412 0.41764706
0.48431373 0.44117647 0.42156863
0.50980392 0.46666667 0.44705882
0.56862745 0.53235294 0.49705882
0.65882353 0.62352941 0.57254902
0.57843137 0.54019608 0.50392157
0.58333333 0.54779412 0.50784314
0.59803922 0.56323529 0.52352941
0.65784314 0.62254902 0.57058824
0.71568627 0.68039216 0.61666667
0.72156863 0.68627451 0.61568627
0.73823529 0.70294118 0.62843137
0.72156863 0.68823529 0.61568627
0.76078431 0.7254902 0.64019608
0.79607843 0.76470588 0.6627451
0.44705882 0.40294118 0.38823529
0.43848039 0.39289216 0.37965686
0.49215686 0.45245098 0.43235294
0.57647059 0.53823529 0.50367647
0.66960784 0.63823529 0.57941176
0.45318627 0.41004902 0.39436275
0.46102941 0.41789216 0.40220588
0.49558824 0.45588235 0.43333333
0.57352941 0.53805147 0.50330882
0.66862745 0.6372549 0.58014706
0.50735294 0.46764706 0.44803922
0.5182598 0.47941176 0.45551471
0.5504902 0.5127451 0.48382353
0.59816176 0.56286765 0.52401961
0.67794118 0.64264706 0.58431373
0.61666667 0.57916667 0.53137255
0.61893382 0.58137255 0.53431373
0.62647059 0.59117647 0.54485294
0.65759804 0.6245098 0.56979167
0.72647059 0.69117647 0.61887255
0.73627451 0.70098039 0.62352941
0.74803922 0.7127451 0.63137255
0.74117647 0.70588235 0.62745098
0.76936275 0.73651961 0.64705882
0.76960784 0.73823529 0.64705882
0.52156863 0.48235294 0.45686275
0.53480392 0.49411765 0.46813725
0.55882353 0.52352941 0.48921569
0.62647059 0.59215686 0.54460784
0.7 0.66862745 0.60392157
0.53333333 0.49411765 0.46666667
0.54509804 0.50588235 0.47757353
0.57205882 0.53676471 0.5004902
0.62732843 0.59215686 0.54448529
0.71127451 0.67843137 0.61176471
0.56078431 0.52156863 0.49215686
0.5747549 0.5377451 0.50196078
0.61029412 0.57647059 0.53333333
0.65784314 0.6247549 0.56936275
0.72647059 0.69215686 0.61862745
0.66470588 0.62745098 0.57009804
0.67598039 0.64068627 0.57941176
0.68161765 0.64852941 0.58627451
0.70588235 0.6745098 0.60698529
0.75 0.71470588 0.63529412
0.76666667 0.73137255 0.64313725
0.76862745 0.73333333 0.64509804
0.77058824 0.73529412 0.64705882
0.78823529 0.75294118 0.65882353
0.79019608 0.75686275 0.65882353
0.65294118 0.61470588 0.5627451
0.65686275 0.62156863 0.56666667
0.67647059 0.64313725 0.58382353
0.69289216 0.66078431 0.59705882
0.72156863 0.69019608 0.61960784
0.66470588 0.62941176 0.57426471
0.67254902 0.6372549 0.58008578
0.68921569 0.65404412 0.59276961
0.72015931 0.68504902 0.61593137
0.76004902 0.72867647 0.64019608
0.67892157 0.64509804 0.58529412
0.67990196 0.64509804 0.58529412
0.70171569 0.67009804 0.6002451
0.73210784 0.69926471 0.62095588
0.76911765 0.73382353 0.64411765
0.70465686 0.67328431 0.60588235
0.7125 0.68039216 0.60955882
0.73284314 0.7 0.62144608
0.75196078 0.72015931 0.63370098
0.79019608 0.75490196 0.65882353
0.79215686 0.76078431 0.6627451
0.79607843 0.76078431 0.6627451
0.79705882 0.76470588 0.6627451
0.80563725 0.77034314 0.66666667
0.82058824 0.78529412 0.6745098
0.78823529 0.75294118 0.65882353
0.78823529 0.75294118 0.65882353
0.79215686 0.75882353 0.65882353
0.79705882 0.76470588 0.6627451
0.81176471 0.77647059 0.67058824
0.7872549 0.75196078 0.65490196
0.7872549 0.75196078 0.65563725
0.79607843 0.76078431 0.6627451
0.80392157 0.77254902 0.66666667
0.81470588 0.78039216 0.67058824
0.79215686 0.75686275 0.65882353
0.78823529 0.75441176 0.65882353
0.8 0.76862745 0.66470588
0.80392157 0.77058824 0.66666667
0.82352941 0.78823529 0.6745098
0.80098039 0.76960784 0.66666667
0.8 0.76470588 0.6627451
0.80735294 0.77254902 0.66666667
0.81348039 0.78039216 0.67058824
0.82745098 0.79215686 0.67843137
0.81960784 0.78431373 0.6745098
0.81568627 0.78039216 0.67058824
0.80784314 0.77254902 0.67058824
0.81666667 0.78137255 0.6745098
0.83529412 0.8 0.68235294
