site/assets/luts/natron-haldclut--fuji-superia-x-tra-800--630125bb9.cube
# LUTr-Project: LUTr — LUTrepository
# LUTr-Schema-Version: 1
# LUTr-ID: natron-haldclut--fuji-superia-x-tra-800--630125bb9
# LUTr-Title: fuji superia x-tra 800
# LUTr-Collection: Natron HaldCLUT
# LUTr-Collection-ID: natron-haldclut-presets
# LUTr-Source: https://github.com/NatronGitHub/clut
# LUTr-Source-File: submissions/natron-haldclut-presets/negative_color/fuji_superia_x-tra_800.png
# LUTr-Source-Format: PNG
# LUTr-Source-SHA256: 7c3f8422890b7396cb1cc6f60dad271bd6c78c9f160b9ed952d2577df4128123
# LUTr-License: CC-BY-SA-4.0
# LUTr-License-URL: https://github.com/NatronGitHub/clut#license
# LUTr-Tags: creative, film, film-emulation, hald-clut, natron, png, cube
# LUTr-Transform-Class: film-emulation
# LUTr-Input-Color-Space: srgb
# LUTr-Output-Color-Space: srgb
# LUTr-Color-Space-Confidence: assumed-display-referred
# LUTr-Conversion-Method: PNG LUT image decoded at 16-bit and sampled to 25x25x25 3D CUBE
# LUTr-Conversion-Date: 2026-07-27
# LUTr-Conversion-Tool: LUTr scripts/convert-all-to-cube.mjs
# LUTr-Conversion-Grid: 25x25x25
# LUTr-Note: Preserve this metadata and the upstream license notices when redistributing.
TITLE "fuji superia x-tra 800"
LUT_3D_SIZE 25
DOMAIN_MIN 0 0 0
DOMAIN_MAX 1 1 1
0.054901961 0.02745098 0.066666667
0.074019608 0.025 0.053921569
0.10490196 0.014705882 0.028431373
0.13186275 0.00098039216 0.0014705882
0.17254902 0.011764706 0.015686275
0.20980392 0.023039216 0.037745098
0.25098039 0.0098039216 0.01372549
0.29068627 0.0014705882 0.0014705882
0.3254902 0.0078431373 0.0078431373
0.3627451 0.0078431373 0.0078431373
0.39901961 0.0068627451 0.0078431373
0.43382353 0.00049019608 0.00049019608
0.4745098 0.0098039216 0.0098039216
0.51176471 0.015686275 0.015196078
0.55294118 0.011764706 0.015686275
0.59019608 0.0039215686 0.014215686
0.62745098 0 0.019607843
0.65833333 0 0.03627451
0.68921569 0.0039215686 0.049019608
0.72009804 0.0039215686 0.065686275
0.75098039 0.0039215686 0.080392157
0.78578431 0.0034313725 0.090686275
0.81666667 0 0.10392157
0.84754902 0 0.11519608
0.87843137 0 0.1254902
0.067647059 0.064705882 0.062745098
0.084313725 0.060784314 0.053921569
0.11421569 0.051960784 0.036397059
0.14215686 0.045404412 0.021078431
0.17769608 0.045098039 0.020343137
0.2158701 0.046384804 0.030269608
0.25490196 0.041176471 0.024632353
0.29552696 0.03817402 0.014215686
0.32941176 0.037254902 0.018137255
0.36666667 0.03872549 0.020588235
0.40355392 0.036642157 0.018137255
0.43988971 0.031372549 0.018137255
0.47696078 0.021323529 0.01495098
0.51568627 0.015379902 0.011764706
0.55355392 0.011764706 0.014705882
0.59411765 0.012745098 0.020526961
0.63137255 0.010294118 0.029901961
0.6622549 0.0069240196 0.040196078
0.69313725 0.006372549 0.052573529
0.72273284 0.006372549 0.065992647
0.75220588 0.0039215686 0.076470588
0.78578431 0.0039215686 0.088541667
0.81666667 0.00098039216 0.10098039
0.84754902 0 0.11519608
0.86960784 0.0024509804 0.12156863
0.079411765 0.10588235 0.058823529
0.098529412 0.10134804 0.05245098
0.1247549 0.097058824 0.046078431
0.15257353 0.090686275 0.031862745
0.18529412 0.08627451 0.017647059
0.22254902 0.082352941 0.028308824
0.26372549 0.079411765 0.025245098
0.30061275 0.078063725 0.02745098
0.33431373 0.074509804 0.031372549
0.37156863 0.073529412 0.032352941
0.40857843 0.070343137 0.033333333
0.44522059 0.061397059 0.03247549
0.48235294 0.042156863 0.02254902
0.51960784 0.020833333 0.01127451
0.55710784 0.02254902 0.023529412
0.59803922 0.025122549 0.029534314
0.62941176 0.020588235 0.05
0.66715686 0.016666667 0.045588235
0.69705882 0.016421569 0.056862745
0.72536765 0.0093137255 0.066176471
0.75490196 0.0039215686 0.07254902
0.78578431 0.0029411765 0.085906863
0.81372549 0.0039215686 0.10098039
0.8372549 0.0039215686 0.1127451
0.85 0.0039215686 0.11666667
0.08627451 0.14313725 0.054901961
0.1122549 0.13939951 0.054595588
0.13921569 0.13909314 0.050367647
0.16666667 0.1348652 0.042647059
0.19558824 0.12916667 0.037745098
0.23241422 0.12395833 0.041360294
0.27401961 0.12058824 0.024509804
0.30765931 0.11599265 0.032352941
0.34117647 0.1122549 0.03872549
0.378125 0.10833333 0.045098039
0.41433824 0.10343137 0.046568627
0.44901961 0.092708333 0.046139706
0.48602941 0.078186275 0.041911765
0.52261029 0.065563725 0.040931373
0.56164216 0.058210784 0.04129902
0.60177696 0.046752451 0.042463235
0.63921569 0.030882353 0.043137255
0.67352941 0.026960784 0.049509804
0.70098039 0.023039216 0.059803922
0.73137255 0.015686275 0.066666667
0.75857843 0.0039215686 0.07254902
0.78878676 0 0.082904412
0.81029412 0.0029411765 0.097426471
0.8254902 0.0039215686 0.10373775
0.83578431 0.0078431373 0.10980392
0.10196078 0.18039216 0.066666667
0.12377451 0.18235294 0.069852941
0.15147059 0.18039216 0.070588235
0.17745098 0.17671569 0.067156863
0.20784314 0.17254902 0.062745098
0.24656863 0.16813725 0.058333333
0.27941176 0.16176471 0.049509804
0.3129902 0.15686275 0.050980392
0.34705882 0.15294118 0.054901961
0.38308824 0.14656863 0.06004902
0.41715686 0.14019608 0.062745098
0.45318627 0.12990196 0.062745098
0.49117647 0.11960784 0.062745098
0.52941176 0.10539216 0.058578431
0.56911765 0.093137255 0.052941176
0.60710784 0.07745098 0.054901961
0.64509804 0.056862745 0.050980392
0.67867647 0.041911765 0.053431373
0.70637255 0.034313725 0.064705882
0.73406863 0.022303922 0.070343137
0.76470588 0.0068627451 0.070588235
0.78921569 0 0.076960784
0.80098039 0.0034313725 0.087254902
0.81127451 0.0066176471 0.095588235
0.82352941 0.011764706 0.10588235
0.12254902 0.2254902 0.087254902
0.13872549 0.2254902 0.091176471
0.16335784 0.22156863 0.091176471
0.19117647 0.21813725 0.091176471
0.22009804 0.21372549 0.087254902
0.25637255 0.20980392 0.078921569
0.2872549 0.20588235 0.075490196
0.31403186 0.2004902 0.086519608
0.35343137 0.19411765 0.075
0.38823529 0.1877451 0.077634804
0.42267157 0.17830882 0.083333333
0.45778186 0.17107843 0.086335784
0.49632353 0.16078431 0.083088235
0.53572304 0.14705882 0.075490196
0.57389706 0.13676471 0.075857843
0.61243873 0.12254902 0.079595588
0.65147059 0.10441176 0.075980392
0.68596814 0.090196078 0.079718137
0.71311275 0.075980392 0.084313725
0.74019608 0.057904412 0.087254902
0.77058824 0.033823529 0.083823529
0.79362745 0.013664216 0.087745098
0.80784314 0.012745098 0.098039216
0.82224265 0.016176471 0.10833333
0.83627451 0.015686275 0.11813725
0.13921569 0.26372549 0.10784314
0.15294118 0.26311275 0.10992647
0.1745098 0.2627451 0.11176471
0.20147059 0.25894608 0.10882353
0.23235294 0.25490196 0.10441176
0.26323529 0.25098039 0.1
0.29411765 0.24705882 0.093872549
0.32647059 0.24166667 0.089215686
0.36078431 0.23529412 0.089215686
0.39460784 0.22892157 0.09497549
0.42941176 0.21862745 0.1002451
0.46507353 0.2122549 0.10098039
0.50490196 0.20343137 0.098529412
0.54215686 0.19473039 0.096078431
0.57965686 0.18529412 0.1
0.61727941 0.17291667 0.10502451
0.65784314 0.15588235 0.10392157
0.69264706 0.14166667 0.10686275
0.71960784 0.12647059 0.10857843
0.74669118 0.10588235 0.11078431
0.77401961 0.085294118 0.1127451
0.80134804 0.060416667 0.11482843
0.82671569 0.03504902 0.11936275
0.84411765 0.023161765 0.12561275
0.85686275 0.018627451 0.12843137
0.15833333 0.30245098 0.11911765
0.16862745 0.30245098 0.1278799
0.1877451 0.3 0.12414216
0.21176471 0.2963848 0.12303922
0.24117647 0.29460784 0.11911765
0.27352941 0.29197304 0.11519608
0.30441176 0.28823529 0.11127451
0.33768382 0.28284314 0.10588235
0.37009804 0.27647059 0.10343137
0.40490196 0.27009804 0.10735294
0.43970588 0.26188725 0.11127451
0.4745098 0.25471814 0.11488971
0.51323529 0.24779412 0.11666667
0.55067402 0.24068627 0.11715686
0.58676471 0.2314951 0.12352941
0.62457108 0.22156863 0.12898284
0.66421569 0.20735294 0.13235294
0.69901961 0.19460784 0.13382353
0.72892157 0.17892157 0.13382353
0.75343137 0.16127451 0.13596814
0.78112745 0.13676471 0.14019608
0.80686275 0.11158088 0.14166667
0.83443627 0.075857843 0.14411765
0.86378676 0.035294118 0.13964461
0.88137255 0.015686275 0.13872549
0.17647059 0.34117647 0.1254902
0.18529412 0.33872549 0.12941176
0.20196078 0.3372549 0.13333333
0.21862745 0.33333333 0.13333333
0.24901961 0.33137255 0.13137255
0.28382353 0.32941176 0.1254902
0.31764706 0.32941176 0.12156863
0.3495098 0.3254902 0.11372549
0.38431373 0.32156863 0.11372549
0.41519608 0.31519608 0.12009804
0.45 0.30588235 0.1254902
0.48480392 0.29852941 0.12941176
0.52352941 0.29215686 0.13333333
0.55882353 0.28578431 0.1377451
0.59607843 0.27843137 0.14509804
0.63333333 0.26911765 0.1504902
0.67058824 0.25882353 0.15686275
0.70539216 0.24460784 0.15686275
0.73627451 0.23039216 0.15686275
0.76372549 0.2127451 0.15686275
0.79019608 0.18823529 0.16470588
0.81666667 0.15882353 0.16470588
0.84117647 0.12058824 0.16470588
0.86176471 0.087254902 0.16470588
0.8745098 0.070588235 0.16470588
0.19313725 0.37598039 0.12941176
0.20042892 0.37598039 0.12941176
0.21801471 0.37389706 0.13431373
0.23186275 0.37077206 0.14068627
0.25980392 0.37058824 0.14044118
0.29675245 0.37058824 0.13547794
0.32892157 0.37058824 0.12892157
0.36280637 0.36666667 0.12310049
0.39705882 0.3627451 0.12009804
0.43094363 0.35790441 0.12794118
0.46421569 0.35098039 0.13676471
0.49883578 0.34577206 0.14362745
0.53504902 0.33848039 0.15073529
0.57126225 0.33088235 0.15802696
0.60735294 0.32414216 0.16470588
0.64362745 0.31666667 0.17107843
0.68088235 0.30784314 0.17745098
0.71176471 0.29454657 0.18137255
0.74656863 0.27904412 0.18039216
0.77745098 0.26176471 0.17745098
0.8004902 0.23651961 0.18333333
0.82481618 0.20667892 0.18560049
0.85196078 0.17156863 0.1877451
0.87800245 0.13676471 0.1877451
0.89313725 0.11617647 0.19019608
0.20980392 0.41078431 0.12941176
0.21470588 0.41078431 0.12794118
0.23529412 0.41176471 0.13431373
0.25588235 0.41176471 0.14068627
0.27745098 0.41176471 0.14509804
0.30882353 0.41176471 0.14203431
0.34313725 0.41176471 0.13823529
0.37610294 0.40784314 0.13223039
0.40980392 0.40392157 0.13039216
0.4442402 0.4 0.13615196
0.47867647 0.39509804 0.14607843
0.51323529 0.38872549 0.15343137
0.54852941 0.38284314 0.1627451
0.58419118 0.37610294 0.16997549
0.62083333 0.37034314 0.17647059
0.6567402 0.36421569 0.18247549
0.69117647 0.35784314 0.18921569
0.72205882 0.34473039 0.19313725
0.75465686 0.32867647 0.19313725
0.78688725 0.31519608 0.19656863
0.80882353 0.29558824 0.20637255
0.83382353 0.27107843 0.21372549
0.86078431 0.24093137 0.21838235
0.8872549 0.21323529 0.22254902
0.90196078 0.19313725 0.22647059
0.2377451 0.44901961 0.1254902
0.24019608 0.44901961 0.1254902
0.25588235 0.4495098 0.1307598
0.27647059 0.45294118 0.13768382
0.29313725 0.4495098 0.14681373
0.32254902 0.4495098 0.14810049
0.35343137 0.44914216 0.14203431
0.38952206 0.44901961 0.13939951
0.42303922 0.44509804 0.13676471
0.45765931 0.44264706 0.13970588
0.49264706 0.43627451 0.14987745
0.52738971 0.42990196 0.15637255
0.56397059 0.4254902 0.16666667
0.60055147 0.42150735 0.17303922
0.63566176 0.41727941 0.18026961
0.67058824 0.41194853 0.18792892
0.70539216 0.40539216 0.19215686
0.73596814 0.39509804 0.19822304
0.76629902 0.38088235 0.1995098
0.7911152 0.37015931 0.21072304
0.81372549 0.35220588 0.23382353
0.84411765 0.33284314 0.23131127
0.87107843 0.30490196 0.24117647
0.90196078 0.275 0.24754902
0.92598039 0.25490196 0.25735294
0.26862745 0.49019608 0.11960784
0.27107843 0.49019608 0.12083333
0.27990196 0.49019608 0.12401961
0.29705882 0.49019608 0.13088235
0.3127451 0.49019608 0.14117647
0.33480392 0.49019608 0.14877451
0.37107843 0.49019608 0.14313725
0.40441176 0.49019608 0.14117647
0.4372549 0.48627451 0.14117647
0.47132353 0.48382353 0.14362745
0.50735294 0.47794118 0.1495098
0.54705882 0.4745098 0.15441176
0.58235294 0.47058824 0.15784314
0.61715686 0.46666667 0.16715686
0.65 0.46372549 0.17745098
0.68357843 0.46004902 0.18578431
0.71568627 0.45294118 0.19215686
0.74656863 0.44264706 0.19852941
0.77352941 0.43235294 0.20784314
0.80098039 0.42205882 0.2245098
0.83039216 0.40882353 0.24117647
0.85784314 0.38897059 0.25147059
0.87990196 0.36666667 0.26176471
0.89754902 0.34681373 0.27401961
0.90980392 0.33333333 0.28235294
0.29558824 0.53088235 0.11372549
0.29901961 0.53137255 0.11341912
0.30392157 0.53529412 0.11323529
0.31807598 0.53186275 0.12058824
0.33872549 0.53137255 0.12843137
0.36372549 0.53137255 0.13186275
0.39840686 0.53137255 0.12585784
0.4276348 0.53137255 0.13039216
0.45588235 0.52745098 0.13676471
0.48578431 0.52352941 0.14019608
0.53039216 0.51960784 0.13492647
0.56813725 0.51574755 0.13229167
0.60294118 0.51397059 0.14044118
0.6377451 0.51176471 0.1533701
0.66862745 0.50796569 0.16715686
0.6995098 0.50392157 0.18106618
0.72990196 0.49656863 0.19166667
0.75833333 0.48970588 0.20116422
0.78688725 0.47990196 0.21752451
0.81476716 0.46960784 0.23088235
0.84215686 0.45931373 0.24705882
0.86819853 0.44509804 0.26721814
0.89264706 0.4245098 0.28223039
0.91764706 0.40392157 0.29803922
0.93529412 0.39068627 0.30735294
0.31960784 0.56568627 0.10980392
0.32058824 0.5692402 0.10980392
0.3252451 0.57279412 0.10588235
0.34215686 0.57267157 0.10686275
0.36813725 0.57254902 0.10784314
0.39460784 0.57254902 0.11164216
0.4254902 0.57254902 0.10784314
0.45306373 0.5692402 0.11323529
0.47941176 0.56862745 0.11666667
0.51421569 0.56470588 0.11384804
0.55490196 0.56078431 0.10784314
0.59252451 0.55992647 0.11127451
0.62352941 0.55686275 0.12303922
0.65833333 0.55551471 0.13884804
0.68921569 0.55220588 0.15220588
0.72009804 0.54754902 0.16421569
0.75 0.54117647 0.1745098
0.7754902 0.53480392 0.19509804
0.80171569 0.52745098 0.21372549
0.83186275 0.51813725 0.22781863
0.85735294 0.50686275 0.24705882
0.8814951 0.49742647 0.2745098
0.90514706 0.47941176 0.29289216
0.93284314 0.46176471 0.31176471
0.95784314 0.44509804 0.3254902
0.33088235 0.60196078 0.11372549
0.33180147 0.60441176 0.11372549
0.33970588 0.6064951 0.11090686
0.35704657 0.60833333 0.10637255
0.38382353 0.60833333 0.10392157
0.41470588 0.61011029 0.098039216
0.44669118 0.6122549 0.094117647
0.47794118 0.60980392 0.093566176
0.50882353 0.60833333 0.091176471
0.54454657 0.60588235 0.086335784
0.57941176 0.60196078 0.083333333
0.61323529 0.60196078 0.094117647
0.64681373 0.59803922 0.10686275
0.67910539 0.59626225 0.12156863
0.71311275 0.59117647 0.13186275
0.74607843 0.58627451 0.14215686
0.7754902 0.58235294 0.15392157
0.80091912 0.57843137 0.1745098
0.82267157 0.57169118 0.20294118
0.84852941 0.56323529 0.22285539
0.87083333 0.55563725 0.2504902
0.89411765 0.54656863 0.28088235
0.91715686 0.53088235 0.30208333
0.94019608 0.51476716 0.31464461
0.95147059 0.50686275 0.31764706
0.34509804 0.63921569 0.11764706
0.34754902 0.63921569 0.11764706
0.35490196 0.63921569 0.11372549
0.36813725 0.64313725 0.10980392
0.39411765 0.64313725 0.10588235
0.425 0.64313725 0.10147059
0.45588235 0.64313725 0.095098039
0.49068627 0.64313725 0.090196078
0.5254902 0.64313725 0.082352941
0.5627451 0.64313725 0.075980392
0.6 0.63921569 0.066666667
0.6377451 0.63921569 0.070098039
0.67254902 0.6372549 0.080392157
0.70735294 0.63480392 0.090686275
0.74215686 0.63137255 0.10098039
0.77303922 0.62598039 0.11127451
0.8 0.62352941 0.12941176
0.8245098 0.61715686 0.15
0.84901961 0.61470588 0.18333333
0.86568627 0.60833333 0.21421569
0.88627451 0.60196078 0.25098039
0.91078431 0.59215686 0.2877451
0.92843137 0.58137255 0.30882353
0.9372549 0.57647059 0.30980392
0.94117647 0.57254902 0.30980392
0.35931373 0.67401961 0.12156863
0.36421569 0.67401961 0.12064951
0.37205882 0.67401961 0.11666667
0.38235294 0.67616422 0.11243873
0.40122549 0.67647059 0.10784314
0.43137255 0.67794118 0.10196078
0.46556373 0.67794118 0.098039216
0.50098039 0.67794118 0.092647059
0.53578431 0.67794118 0.082352941
0.57303922 0.67647059 0.075980392
0.61421569 0.67401961 0.065686275
0.65753676 0.67401961 0.059007353
0.69901961 0.67328431 0.057843137
0.73854167 0.67224265 0.059803922
0.77303922 0.66862745 0.067647059
0.80392157 0.66470588 0.080392157
0.82843137 0.66078431 0.10245098
0.85392157 0.65686275 0.12303922
0.87598039 0.65232843 0.15061275
0.89656863 0.64901961 0.18694853
0.91593137 0.64313725 0.22401961
0.93106618 0.63676471 0.2627451
0.93933824 0.63002451 0.30196078
0.94270833 0.62941176 0.30980392
0.94362745 0.62941176 0.30980392
0.37254902 0.70980392 0.12647059
0.37708333 0.70882353 0.12254902
0.38529412 0.70882353 0.11862745
0.39644608 0.70882353 0.11507353
0.40833333 0.7127451 0.11029412
0.43823529 0.70980392 0.10539216
0.4754902 0.70980392 0.099019608
0.50882353 0.7127451 0.092034314
0.54607843 0.7127451 0.082352941
0.58333333 0.70980392 0.072058824
0.6254902 0.70882353 0.0625
0.6692402 0.70882353 0.055269608
0.71470588 0.70735294 0.048529412
0.76029412 0.70588235 0.041666667
0.80588235 0.70588235 0.034313725
0.8372549 0.70379902 0.046446078
0.85784314 0.69803922 0.067647059
0.88578431 0.69411765 0.087254902
0.91078431 0.69019608 0.11446078
0.92757353 0.68664216 0.15098039
0.94068627 0.68235294 0.18872549
0.94742647 0.67794118 0.22953431
0.95465686 0.67156863 0.27941176
0.95882353 0.66666667 0.31164216
0.96176471 0.66568627 0.31862745
0.36519608 0.74705882 0.14068627
0.375 0.74705882 0.13645833
0.38529412 0.74362745 0.1314951
0.39558824 0.74362745 0.12542892
0.41348039 0.74705882 0.11911765
0.44810049 0.74705882 0.10882353
0.48321078 0.74705882 0.099019608
0.51783088 0.74705882 0.08872549
0.55245098 0.74705882 0.082352941
0.59362745 0.74491422 0.072058824
0.63872549 0.74362745 0.061764706
0.67990196 0.74313725 0.051470588
0.725 0.74313725 0.041666667
0.77015931 0.74313725 0.031372549
0.81556373 0.74313725 0.023651961
0.8564951 0.74185049 0.023897059
0.88872549 0.73578431 0.033333333
0.92303922 0.73529412 0.046078431
0.94460784 0.73137255 0.076348039
0.95189951 0.72745098 0.11415441
0.95612745 0.72352941 0.15441176
0.96078431 0.71911765 0.19656863
0.96801471 0.7127451 0.25747549
0.97567402 0.70422794 0.30992647
0.97941176 0.7004902 0.33284314
0.35686275 0.78431373 0.15490196
0.36715686 0.78308824 0.15171569
0.38137255 0.78235294 0.14607843
0.39558824 0.78063725 0.13946078
0.41862745 0.78235294 0.12941176
0.45465686 0.78235294 0.11862745
0.49068627 0.78235294 0.10490196
0.52598039 0.78235294 0.090686275
0.55882353 0.78235294 0.078431373
0.60196078 0.78039216 0.066176471
0.64313725 0.78039216 0.054901961
0.68063725 0.78039216 0.041666667
0.7254902 0.78039216 0.032352941
0.77083333 0.78039216 0.025245098
0.81568627 0.78039216 0.020098039
0.86078431 0.77769608 0.017647059
0.90784314 0.77647059 0.01372549
0.95416667 0.77647059 0.011029412
0.96519608 0.77156863 0.03872549
0.96666667 0.76862745 0.074754902
0.97058824 0.76470588 0.10980392
0.975 0.76053922 0.14828431
0.98137255 0.75343137 0.21715686
0.99019608 0.74362745 0.28602941
0.99607843 0.73529412 0.34705882
0.35245098 0.82107843 0.16911765
0.36305147 0.82107843 0.16519608
0.37745098 0.82022059 0.16041667
0.39509804 0.81764706 0.15392157
0.42352941 0.81936275 0.14362745
0.45925245 0.82107843 0.12947304
0.48713235 0.81764706 0.11605392
0.5153799 0.81764706 0.10539216
0.55245098 0.81372549 0.087254902
0.60177696 0.81715686 0.061948529
0.64313725 0.81764706 0.044607843
0.68431373 0.81764706 0.031372549
0.72745098 0.81764706 0.025245098
0.77457108 0.81764706 0.019546569
0.81997549 0.81764706 0.015318627
0.86519608 0.81617647 0.011580882
0.91372549 0.81372549 0.0078431373
0.95490196 0.81372549 0.0099877451
0.97267157 0.80980392 0.021078431
0.97696078 0.80980392 0.037806373
0.98284314 0.80588235 0.057107843
0.98480392 0.80539216 0.081740196
0.98737745 0.79816176 0.14031863
0.99234069 0.78872549 0.22487745
1 0.77843137 0.31323529
0.34607843 0.85588235 0.18235294
0.35931373 0.85588235 0.17879902
0.37377451 0.85588235 0.1752451
0.39203431 0.85588235 0.16813725
0.4122549 0.85882353 0.16078431
0.425 0.86176471 0.15392157
0.45588235 0.85882353 0.14313725
0.49129902 0.85441176 0.12732843
0.54215686 0.84803922 0.10098039
0.59178922 0.85159314 0.070098039
0.64093137 0.85490196 0.036519608
0.68431373 0.85588235 0.021078431
0.72598039 0.85882353 0.021078431
0.77205882 0.85882353 0.019117647
0.82573529 0.85882353 0.0095588235
0.87193627 0.85490196 0.0049019608
0.91372549 0.85490196 0.0049019608
0.95490196 0.85490196 0.0078431373
0.98039216 0.85318627 0.014460784
0.98676471 0.85098039 0.027941176
0.98970588 0.84852941 0.033333333
0.99215686 0.84705882 0.034558824
0.99436275 0.84607843 0.048529412
0.99546569 0.83566176 0.13161765
1 0.82352941 0.24607843
0.30882353 0.89460784 0.20294118
0.31470588 0.89607843 0.2004902
0.33039216 0.89607843 0.19656863
0.34754902 0.9 0.19675245
0.37107843 0.9 0.18995098
0.3872549 0.90392157 0.18431373
0.41911765 0.9 0.17107843
0.4716299 0.8901348 0.1466299
0.52941176 0.87745098 0.11519608
0.57941176 0.88284314 0.08817402
0.62941176 0.88713235 0.062132353
0.67892157 0.89068627 0.037928922
0.71691176 0.89852941 0.030882353
0.75833333 0.90392157 0.028247549
0.81678922 0.89595588 0.014215686
0.8716299 0.88382353 0.0039215686
0.91372549 0.88921569 0.0039215686
0.95735294 0.89705882 0.0039215686
0.99068627 0.9 0.0073529412
0.99362745 0.89607843 0.014031863
0.99362745 0.89215686 0.017401961
0.99607843 0.89185049 0.016360294
0.99754902 0.88823529 0.0073529412
1 0.88290441 0.015257353
1 0.87941176 0.095588235
0.25098039 0.9254902 0.22352941
0.2372549 0.93235294 0.22892157
0.2627451 0.93039216 0.22352941
0.27647059 0.9377451 0.22401961
0.31960784 0.93529412 0.21372549
0.35 0.94166667 0.21176471
0.39803922 0.93137255 0.19117647
0.45980392 0.91470588 0.16029412
0.5254902 0.89411765 0.1254902
0.56029412 0.91470588 0.12303922
0.6 0.93529412 0.11764706
0.64803922 0.93872549 0.097058824
0.71176471 0.91764706 0.043137255
0.74803922 0.94754902 0.034803922
0.80588235 0.91960784 0.020588235
0.86617647 0.89509804 0.006372549
0.91372549 0.89803922 0.0039215686
0.95735294 0.91470588 0.0014705882
0.99607843 0.92843137 0
0.99607843 0.9254902 0.0039215686
0.99607843 0.92745098 0.0039215686
1 0.93186275 0.0078431373
1 0.90490196 0.0078431373
1 0.89558824 0.014215686
1 0.90980392 0
0.050980392 0.023529412 0.066666667
0.062193627 0.021078431 0.059375
0.092769608 0.014705882 0.040318627
0.13137255 0.014215686 0.034803922
0.16936275 0.011764706 0.031617647
0.20980392 0.019117647 0.044607843
0.24914216 0.010661765 0.03125
0.28676471 0.0078431373 0.029963235
0.31911765 0.0078431373 0.028431373
0.35392157 0.0078431373 0.028431373
0.38970588 0.0078431373 0.028431373
0.42726716 0.0039215686 0.026960784
0.46813725 0.0078431373 0.027696078
0.5091299 0.013051471 0.032352941
0.54718137 0.0088235294 0.032352941
0.58719363 0.0039215686 0.032352941
0.62352941 0.0024509804 0.03627451
0.65741422 0.0039215686 0.047487745
0.68921569 0.0039215686 0.061151961
0.72009804 0.0039215686 0.074693627
0.75098039 0.0039215686 0.086764706
0.78363971 0.0039215686 0.10098039
0.81666667 0.0039215686 0.11127451
0.84754902 0 0.1221201
0.87205882 0 0.13186275
0.062193627 0.058333333 0.065747549
0.074364277 0.055675551 0.062400429
0.10421262 0.052573529 0.052374387
0.13871783 0.050551471 0.045212929
0.17619485 0.048008578 0.0421875
0.21452972 0.045098039 0.044967831
0.25398284 0.041544118 0.04307598
0.28976716 0.040257353 0.039705882
0.32303922 0.037254902 0.03872549
0.35859375 0.035723039 0.03872549
0.39584865 0.034114583 0.03872549
0.43333333 0.028852635 0.036565564
0.47150735 0.019822304 0.033578431
0.51065411 0.015387561 0.030951287
0.54924939 0.011764706 0.032352941
0.5877451 0.012745098 0.036619179
0.625 0.0078431373 0.042647059
0.65925245 0.006372549 0.051064645
0.69166667 0.0046109069 0.062637868
0.72254902 0.0039215686 0.076401654
0.75297181 0.0039215686 0.086764706
0.78578431 0.0039215686 0.098238358
0.81666667 0.0039215686 0.11127451
0.84567249 0.003370098 0.1221201
0.86960784 0.0024509804 0.13186275
0.076102941 0.10196078 0.068259804
0.091697304 0.10012255 0.068259804
0.11973039 0.09776348 0.062254902
0.14889706 0.09419424 0.054181985
0.18357843 0.090870098 0.05122549
0.22193627 0.086090686 0.051608456
0.26099877 0.082352941 0.048284314
0.29561887 0.078431373 0.048008578
0.32977941 0.074509804 0.048651961
0.36458333 0.072380515 0.051470588
0.40193015 0.06942402 0.052941176
0.43884804 0.061397059 0.049371936
0.47573529 0.042463235 0.042034314
