site/assets/luts/natron-haldclut--fuji-fp-100c-cool--aa56227bd.cube
# LUTr-Project: LUTr — LUTrepository
# LUTr-Schema-Version: 1
# LUTr-ID: natron-haldclut--fuji-fp-100c-cool--aa56227bd
# LUTr-Title: fuji fp-100c cool +
# LUTr-Collection: Natron HaldCLUT
# LUTr-Collection-ID: natron-haldclut-presets
# LUTr-Source: https://github.com/NatronGitHub/clut
# LUTr-Source-File: submissions/natron-haldclut-presets/instant_pro/fuji_fp-100c_cool_+.png
# LUTr-Source-Format: PNG
# LUTr-Source-SHA256: e7ed79ddb45b73f2f05e98708b9fefa4d14a279cc872f5ba48eaee8eaa16c82c
# LUTr-License: CC-BY-SA-4.0
# LUTr-License-URL: https://github.com/NatronGitHub/clut#license
# LUTr-Tags: creative, film, film-emulation, hald-clut, natron, png, cool, cube
# LUTr-Transform-Class: film-emulation
# LUTr-Input-Color-Space: srgb
# LUTr-Output-Color-Space: srgb
# LUTr-Color-Space-Confidence: assumed-display-referred
# LUTr-Conversion-Method: PNG LUT image decoded at 16-bit and sampled to 25x25x25 3D CUBE
# LUTr-Conversion-Date: 2026-07-27
# LUTr-Conversion-Tool: LUTr scripts/convert-all-to-cube.mjs
# LUTr-Conversion-Grid: 25x25x25
# LUTr-Note: Preserve this metadata and the upstream license notices when redistributing.
TITLE "fuji fp-100c cool +"
LUT_3D_SIZE 25
DOMAIN_MIN 0 0 0
DOMAIN_MAX 1 1 1
0.094117647 0.054901961 0.12156863
0.094117647 0.054901961 0.12156863
0.094117647 0.050980392 0.11764706
0.1127451 0.050980392 0.12156863
0.14117647 0.049019608 0.12352941
0.16568627 0.046568627 0.1254902
0.19019608 0.043137255 0.12254902
0.2254902 0.037745098 0.1254902
0.27058824 0.035294118 0.12941176
0.31568627 0.02745098 0.12941176
0.35686275 0.017647059 0.13431373
0.40196078 0.0039215686 0.14460784
0.45490196 0 0.14901961
0.50882353 0 0.14509804
0.56666667 0 0.14117647
0.61911765 0 0.14264706
0.67058824 0 0.15294118
0.72205882 0 0.16715686
0.77254902 0.00098039216 0.17254902
0.81715686 0.0039215686 0.16911765
0.85294118 0 0.1745098
0.8877451 0.0053921569 0.18088235
0.92254902 0.039215686 0.18431373
0.95882353 0.080392157 0.18823529
0.98823529 0.11764706 0.18823529
0.094117647 0.06127451 0.12794118
0.094117647 0.062806373 0.12640931
0.099632353 0.06372549 0.12401961
0.11881127 0.061580882 0.12530637
0.14436275 0.06127451 0.12867647
0.16991422 0.057352941 0.12941176
0.19595588 0.055882353 0.12941176
0.23186275 0.054411765 0.13186275
0.27303922 0.044117647 0.13186275
0.31568627 0.029840686 0.12941176
0.35686275 0.018259804 0.12977941
0.40539216 0.010294118 0.14068627
0.45931373 0.0031862745 0.15220588
0.51470588 0.0029411765 0.15275735
0.56948529 0.0099264706 0.14791667
0.62395833 0.0054534314 0.14901961
0.67696078 0.0039215686 0.15539216
0.72689951 0.0039215686 0.16323529
0.77647059 0.0039215686 0.16617647
0.81795343 0.0039215686 0.16470588
0.85416667 0 0.1745098
0.88805147 0.0056985294 0.18088235
0.92254902 0.047426471 0.1872549
0.95735294 0.094607843 0.18823529
0.98823529 0.13676471 0.18578431
0.090196078 0.075490196 0.12941176
0.096568627 0.076470588 0.12941176
0.10784314 0.076470588 0.12867647
0.12463235 0.075490196 0.12561275
0.14705882 0.075490196 0.12941176
0.17414216 0.07254902 0.13333333
0.20588235 0.075490196 0.13651961
0.24215686 0.072181373 0.13970588
0.27941176 0.061764706 0.14215686
0.32058824 0.04754902 0.13578431
0.36372549 0.038235294 0.13112745
0.41519608 0.031495098 0.14154412
0.47009804 0.019607843 0.15686275
0.52107843 0.018995098 0.16041667
0.57622549 0.021568627 0.15465686
0.63125 0.01127451 0.15294118
0.6872549 0.0049019608 0.15294118
0.73419118 0.0067401961 0.16041667
0.77818627 0.0039215686 0.15906863
0.82169118 0.0039215686 0.15943627
0.85686275 0.012254902 0.17058824
0.89166667 0.037745098 0.18039216
0.92328431 0.077696078 0.18333333
0.95882353 0.12365196 0.18431373
0.98823529 0.16372549 0.18333333
0.090196078 0.089705882 0.12941176
0.098713235 0.089705882 0.12941176
0.11433824 0.089705882 0.12941176
0.12886029 0.089705882 0.12598039
0.14901961 0.089460784 0.12769608
0.18137255 0.090134804 0.13333333
0.21531863 0.093137255 0.14019608
0.25116422 0.095281863 0.14295343
0.28970588 0.08872549 0.14901961
0.33088235 0.082352941 0.14234069
0.38039216 0.076838235 0.13811275
0.43186275 0.073039216 0.14460784
0.4872549 0.064460784 0.15882353
0.53523284 0.059803922 0.16421569
0.58664216 0.046936275 0.16041667
0.64185049 0.027144608 0.15508578
0.69754902 0.0078431373 0.14901961
0.73921569 0.020588235 0.15557598
0.78394608 0.027941176 0.1567402
0.82506127 0.035232843 0.15680147
0.86053922 0.065686275 0.16666667
0.89515931 0.096139706 0.17696078
0.92647059 0.12696078 0.18039216
0.96127451 0.15931373 0.18039216
0.99215686 0.19460784 0.17696078
0.088235294 0.10392157 0.12941176
0.10171569 0.10710784 0.13259804
0.11715686 0.10980392 0.13529412
0.13259804 0.10808824 0.13137255
0.15196078 0.10980392 0.12941176
0.18602941 0.11568627 0.13357843
0.22205882 0.11911765 0.1372549
0.25882353 0.12156863 0.13921569
0.29607843 0.11960784 0.14117647
0.34558824 0.11764706 0.14240196
0.39705882 0.11764706 0.14558824
0.44852941 0.11397059 0.15073529
0.50392157 0.10980392 0.15882353
0.55931373 0.10759804 0.16470588
0.61078431 0.10098039 0.16617647
0.66029412 0.084068627 0.1620098
0.70392157 0.076470588 0.15882353
0.74509804 0.086764706 0.16004902
0.78823529 0.097058824 0.16323529
0.82941176 0.10735294 0.16666667
0.86568627 0.12352941 0.17058824
0.8995098 0.14803922 0.1747549
0.93039216 0.1754902 0.17647059
0.96323529 0.20441176 0.17720588
0.98039216 0.21960784 0.18235294
0.085784314 0.13921569 0.14215686
0.10294118 0.13921569 0.14166667
0.11960784 0.14264706 0.14558824
0.13633578 0.14307598 0.14558824
0.15514706 0.14485294 0.14362745
0.18976716 0.14748775 0.14908088
0.22745098 0.1504902 0.14571078
0.26470588 0.14920343 0.14019608
0.30980392 0.15098039 0.1372549
0.35784314 0.15520833 0.14332108
0.40931373 0.15882353 0.14595588
0.46421569 0.15882353 0.15202206
0.52009804 0.15759804 0.15686275
0.5754902 0.15588235 0.16121324
0.63088235 0.15551471 0.16727941
0.66942402 0.15196078 0.16862745
0.71029412 0.15245098 0.16911765
0.75539216 0.15882353 0.16862745
0.79644608 0.16911765 0.16997549
0.83382353 0.17941176 0.17647059
0.87254902 0.18946078 0.17867647
0.90392157 0.19993873 0.17254902
0.93480392 0.22267157 0.17512255
0.95330882 0.23890931 0.18345588
0.95784314 0.24215686 0.19215686
0.079411765 0.18039216 0.15588235
0.097916667 0.18039216 0.15588235
0.11960784 0.17745098 0.15514706
0.14019608 0.17745098 0.15294118
0.15686275 0.17745098 0.15196078
0.19019608 0.1817402 0.15294118
0.22745098 0.1875 0.15
0.2682598 0.19154412 0.14473039
0.31372549 0.19607843 0.14019608
0.36703431 0.20355392 0.13786765
0.41960784 0.20686275 0.13897059
0.4745098 0.20686275 0.14558824
0.52892157 0.20931373 0.15343137
0.58627451 0.21115196 0.15784314
0.64117647 0.21372549 0.16151961
0.68296569 0.21372549 0.16507353
0.72058824 0.21764706 0.16862745
0.7627451 0.22046569 0.16862745
0.80294118 0.22745098 0.17352941
0.84117647 0.24154412 0.18284314
0.87647059 0.25147059 0.18235294
0.91029412 0.25698529 0.17512255
0.93921569 0.26789216 0.17181373
0.96421569 0.28713235 0.18431373
0.98235294 0.3 0.18921569
0.067647059 0.22156863 0.16617647
0.085784314 0.22156863 0.16525735
0.11311275 0.21764706 0.1622549
0.13480392 0.21372549 0.15863971
0.15294118 0.20906863 0.15367647
0.19019608 0.21813725 0.153125
0.22843137 0.22843137 0.15441176
0.26917892 0.23480392 0.15147059
0.31911765 0.24117647 0.14509804
0.3745098 0.25147059 0.13480392
0.42990196 0.25441176 0.13186275
0.48498775 0.25814951 0.13921569
0.53872549 0.25955882 0.14632353
0.59479167 0.2627451 0.15165441
0.65 0.26911765 0.1564951
0.68970588 0.27064951 0.16078431
0.72941176 0.27156863 0.16470588
0.76813725 0.27493873 0.16715686
0.80784314 0.28284314 0.17781863
0.846875 0.29442402 0.1877451
0.88186275 0.30147059 0.18308824
0.91519608 0.30588235 0.17794118
0.94252451 0.31617647 0.18088235
0.96911765 0.33523284 0.18878676
0.98921569 0.34558824 0.19362745
0.050980392 0.2627451 0.17254902
0.067647059 0.2627451 0.16862745
0.093137255 0.26176471 0.16764706
0.11666667 0.25882353 0.16470588
0.14901961 0.25490196 0.16078431
0.18627451 0.25931373 0.16078431
0.22352941 0.26960784 0.16078431
0.27009804 0.27598039 0.15539216
0.32156863 0.28627451 0.14901961
0.37696078 0.29656863 0.13872549
0.43333333 0.30294118 0.12941176
0.4877451 0.30588235 0.13284314
0.54117647 0.30980392 0.13921569
0.59852941 0.31421569 0.14558824
0.65 0.32058824 0.15294118
0.69607843 0.3254902 0.16323529
0.73333333 0.3254902 0.16078431
0.7745098 0.33186275 0.16568627
0.81568627 0.33823529 0.17843137
0.85294118 0.34852941 0.18823529
0.88823529 0.35294118 0.18627451
0.91862745 0.36127451 0.18480392
0.94607843 0.36764706 0.19117647
0.9622549 0.37794118 0.19754902
0.97254902 0.38039216 0.20784314
0.024019608 0.30784314 0.17254902
0.042218137 0.30692402 0.17254902
0.07254902 0.30637255 0.17107843
0.10588235 0.30765931 0.1723652
0.14583333 0.31029412 0.17107843
0.18186275 0.30784314 0.16715686
0.2189951 0.31078431 0.16360294
0.26709559 0.32352941 0.16176471
0.31519608 0.33382353 0.15931373
0.36666667 0.34411765 0.14901961
0.42303922 0.34987745 0.13419118
0.48088235 0.35490196 0.12426471
0.5372549 0.35931373 0.12254902
0.5963848 0.36568627 0.13921569
0.64816176 0.37205882 0.14656863
0.69754902 0.37843137 0.15104167
0.74117647 0.38333333 0.15441176
0.78088235 0.38817402 0.16023284
0.82205882 0.3932598 0.175
0.85949755 0.4 0.1877451
0.89460784 0.40759804 0.18823529
0.92126225 0.41488971 0.19246324
0.94705882 0.42193627 0.19852941
0.97248775 0.42794118 0.20300245
0.99068627 0.43186275 0.20784314
0 0.35294118 0.17352941
0.016544118 0.35392157 0.17536765
0.046813725 0.35784314 0.17818627
0.089583333 0.35441176 0.17781863
0.13627451 0.35294118 0.17745098
0.17352941 0.35392157 0.17610294
0.21102941 0.36004902 0.17352941
0.25698529 0.37009804 0.17352941
0.30490196 0.38039216 0.16862745
0.35821078 0.39007353 0.1564951
0.4125 0.39534314 0.13602941
0.47095588 0.4 0.11176471
0.52990196 0.40784314 0.10392157
0.58578431 0.4122549 0.11507353
0.6372549 0.41887255 0.12156863
0.68872549 0.42781863 0.13382353
0.74019608 0.43529412 0.14215686
0.78529412 0.44166667 0.15343137
0.82647059 0.44705882 0.16789216
0.86507353 0.45441176 0.18186275
0.89754902 0.46127451 0.19411765
0.92303922 0.46764706 0.20245098
0.9502451 0.47377451 0.20980392
0.9754902 0.47941176 0.21372549
0.99411765 0.48235294 0.21666667
0.0034313725 0.39803922 0.18382353
0.0042279412 0.40177696 0.18382353
0.01127451 0.40931373 0.18431373
0.060784314 0.40545343 0.18431373
0.12254902 0.39583333 0.18039216
0.16709559 0.40153186 0.18382353
0.20441176 0.4057598 0.18382353
0.24558824 0.41372549 0.18235294
0.29117647 0.41813725 0.17205882
0.34215686 0.42579657 0.15833333
0.39509804 0.43088235 0.14276961
0.4533701 0.44117647 0.12426471
0.51446078 0.44754902 0.10147059
0.5716299 0.45729167 0.083823529
0.62352941 0.46458333 0.093627451
0.67579657 0.47303922 0.10925245
0.72990196 0.47647059 0.11127451
0.77745098 0.48069853 0.13137255
0.81997549 0.48566176 0.14803922
0.85778186 0.49172794 0.16556373
0.89264706 0.50196078 0.18504902
0.92346814 0.5122549 0.21268382
0.95355392 0.52218137 0.22941176
0.97420343 0.52745098 0.23431373
0.98088235 0.52745098 0.23039216
0.0039215686 0.44313725 0.19019608
0.0026960784 0.44705882 0.19019608
0.00049019608 0.45147059 0.19019608
0.034313725 0.45122549 0.19215686
0.096078431 0.44509804 0.19019608
0.15147059 0.44313725 0.19019608
0.19803922 0.44852941 0.18823529
0.23921569 0.45245098 0.18676471
0.28431373 0.45882353 0.1745098
0.32867647 0.4620098 0.16102941
0.37794118 0.46911765 0.14754902
0.43823529 0.47794118 0.13186275
0.5 0.48823529 0.11176471
0.55759804 0.49656863 0.085294118
0.6127451 0.50343137 0.06372549
0.66421569 0.50857843 0.063480392
0.71372549 0.51372549 0.070588235
0.76397059 0.52083333 0.10147059
0.80980392 0.52941176 0.12745098
0.84705882 0.53333333 0.14803922
0.88137255 0.53921569 0.16764706
0.91544118 0.55171569 0.19362745
0.95098039 0.56519608 0.22794118
0.96936275 0.57058824 0.24436275
0.97254902 0.56862745 0.24117647
0.0039215686 0.48823529 0.19264706
0.0039215686 0.48823529 0.19393382
0.0039215686 0.49215686 0.19607843
0.018198529 0.49215686 0.19957108
0.069362745 0.49215686 0.2
0.12745098 0.48866422 0.19957108
0.18664216 0.48786765 0.19362745
0.23302696 0.48952206 0.1908701
0.27843137 0.49607843 0.18578431
0.32598039 0.50232843 0.17518382
0.37352941 0.50490196 0.16066176
0.4245098 0.51470588 0.14613971
0.48578431 0.525 0.12818627
0.54356618 0.53186275 0.10539216
0.59803922 0.53909314 0.071078431
0.6495098 0.54460784 0.029411765
0.69754902 0.55098039 0.025490196
0.74901961 0.56078431 0.060294118
0.79558824 0.56629902 0.090196078
0.83676471 0.56966912 0.11078431
0.87034314 0.57598039 0.13308824
0.90686275 0.58627451 0.16078431
0.94166667 0.59656863 0.20245098
0.96636029 0.60324755 0.23596814
0.97303922 0.60539216 0.24264706
0.0039215686 0.52941176 0.19607843
0.0039215686 0.52941176 0.19607843
0.0039215686 0.53333333 0.2
0.012254902 0.53333333 0.2
0.041666667 0.53333333 0.20392157
0.10379902 0.53284314 0.20428922
0.17254902 0.52647059 0.20073529
0.22757353 0.52585784 0.19571078
0.27843137 0.5372549 0.19901961
0.32598039 0.54117647 0.19129902
0.37352941 0.54289216 0.1745098
0.42144608 0.55245098 0.16066176
0.47303922 0.55980392 0.14558824
0.52904412 0.56911765 0.12242647
0.58137255 0.57647059 0.088235294
0.63394608 0.58247549 0.046078431
0.6872549 0.58823529 0.01372549
0.73480392 0.59852941 0.023161765
0.78161765 0.60392157 0.045833333
0.82610294 0.60477941 0.062745098
0.86176471 0.61029412 0.081862745
0.89656863 0.61715686 0.12009804
0.93137255 0.62745098 0.1745098
0.96519608 0.63627451 0.2192402
0.97941176 0.64019608 0.23627451
0 0.5745098 0.19607843
0.003370098 0.5745098 0.2
0.0039215686 0.5745098 0.20208333
0.0039215686 0.5745098 0.20392157
0.015931373 0.5745098 0.20392157
0.083333333 0.57273284 0.20784314
0.15882353 0.56727941 0.20490196
0.22303922 0.56182598 0.2
0.2745098 0.56911765 0.2
0.32598039 0.57604167 0.19754902
0.37352941 0.58296569 0.18982843
0.42156863 0.59001225 0.17628676
0.46862745 0.59926471 0.15906863
0.51648284 0.60637255 0.14166667
0.57009804 0.61335784 0.1127451
0.62156863 0.61856618 0.073039216
0.6754902 0.62401961 0.035784314
0.72542892 0.63278186 0.021078431
0.76776961 0.63786765 0.015686275
0.8122549 0.63970588 0.016360294
0.85539216 0.64362745 0.030637255
0.89019608 0.64803922 0.084620098
0.92401961 0.65833333 0.13970588
0.95735294 0.66770833 0.19270833
0.98823529 0.67647059 0.23382353
0.0039215686 0.61176471 0.20784314
0.0039215686 0.61568627 0.21029412
0.0039215686 0.61568627 0.21176471
0.0039215686 0.61568627 0.21176471
0.0078431373 0.61568627 0.20784314
0.078431373 0.61176471 0.2122549
0.16078431 0.60882353 0.21568627
0.23088235 0.60392157 0.21176471
0.27843137 0.60784314 0.21176471
0.32598039 0.61421569 0.21176471
0.37352941 0.62058824 0.20294118
0.42156863 0.62696078 0.18872549
0.46666667 0.63333333 0.17254902
0.5122549 0.64362745 0.15637255
0.56078431 0.65 0.13627451
0.61127451 0.65490196 0.1
0.6627451 0.65882353 0.054901961
0.71176471 0.66666667 0.025
0.75686275 0.67058824 0.015686275
0.80539216 0.67401961 0.012254902
0.84509804 0.67843137 0.01372549
0.87990196 0.68235294 0.045588235
0.91470588 0.68921569 0.097058824
0.9495098 0.69558824 0.14852941
0.98039216 0.70588235 0.19607843
0.0039215686 0.6504902 0.22205882
0.0039215686 0.65294118 0.22205882
0.0039215686 0.65686275 0.22205882
0.0053921569 0.65686275 0.22205882
0.022058824 0.65808824 0.22205882
0.090870098 0.65686275 0.22647059
0.17107843 0.65183824 0.22990196
0.24117647 0.64810049 0.22843137
0.29117647 0.65147059 0.22843137
0.33535539 0.65631127 0.22506127
0.37830882 0.65723039 0.21323529
0.42156863 0.66176471 0.1995098
0.46470588 0.66813725 0.18480392
0.5122549 0.6745098 0.17303922
0.55980392 0.68480392 0.16372549
0.60643382 0.68878676 0.12849265
0.65490196 0.69362745 0.081862745
0.70245098 0.7 0.040747549
0.74754902 0.70428922 0.02254902
0.79540441 0.70753676 0.016176471
0.83480392 0.7125 0.01372549
0.87224265 0.7158701 0.028308824
0.90796569 0.72009804 0.053553922
0.94313725 0.72647059 0.10729167
0.97401961 0.73676471 0.16127451
0.0078431373 0.69019608 0.23627451
0.0078431373 0.69411765 0.23627451
0.0046568627 0.69411765 0.23529412
0 0.69669118 0.22855392
0.032352941 0.69705882 0.23039216
0.10747549 0.69705882 0.23676471
0.18333333 0.69411765 0.24338235
0.25294118 0.69411765 0.24411765
0.30294118 0.69509804 0.24117647
0.34803922 0.69803922 0.23737745
0.38504902 0.69705882 0.22352941
0.42169118 0.69803922 0.20980392
0.46078431 0.70147059 0.1995098
0.5122549 0.70931373 0.19362745
0.56004902 0.71740196 0.18578431
0.60343137 0.72267157 0.16115196
0.65098039 0.72843137 0.12058824
0.69852941 0.73235294 0.087745098
0.74411765 0.7372549 0.05
0.78615196 0.74375 0.012990196
0.82647059 0.74656863 0.0098039216
0.86372549 0.75208333 0.023406863
0.90269608 0.75514706 0.028676471
0.93884804 0.75698529 0.044730392
0.97058824 0.76666667 0.1254902
0.0078431373 0.73137255 0.24656863
0.0078431373 0.73529412 0.24656863
0.01127451 0.73921569 0.24914216
0.013786765 0.73572304 0.24264706
0.0625 0.73529412 0.24583333
0.13529412 0.73529412 0.25392157
0.20477941 0.73529412 0.25784314
0.26715686 0.73529412 0.25784314
0.31715686 0.73578431 0.25441176
0.36047794 0.73529412 0.24785539
0.39901961 0.73529412 0.2372549
0.43976716 0.73529412 0.23039216
0.4752451 0.7375 0.22769608
0.51917892 0.74405637 0.21813725
0.56421569 0.75134804 0.20747549
0.60196078 0.75539216 0.18805147
0.64705882 0.75931373 0.15882353
0.69479167 0.76568627 0.13743873
0.74117647 0.77193627 0.10196078
0.78235294 0.77800245 0.050061275
0.82156863 0.78259804 0.019852941
0.85735294 0.78633578 0.014828431
0.89546569 0.78676471 0.011764706
0.93400735 0.78676471 0.0037377451
0.94607843 0.7872549 0.018627451
0.029411765 0.77254902 0.26666667
0.031372549 0.77573529 0.26666667
0.049019608 0.78039216 0.26715686
0.10196078 0.77647059 0.27254902
0.13823529 0.77254902 0.27647059
0.19117647 0.7745098 0.28039216
0.25147059 0.7745098 0.28039216
0.3 0.77647059 0.28039216
0.34509804 0.7745098 0.28039216
0.38823529 0.77254902 0.27401961
0.42941176 0.77254902 0.26813725
0.46519608 0.77254902 0.26666667
0.5 0.7754902 0.26372549
0.53529412 0.78063725 0.25637255
0.57647059 0.78578431 0.24117647
0.61372549 0.79019608 0.22401961
0.65294118 0.79411765 0.21176471
0.69730392 0.80122549 0.19313725
0.74117647 0.80588235 0.16470588
0.78235294 0.80980392 0.12720588
0.82352941 0.81372549 0.096078431
0.86029412 0.81764706 0.062990196
0.89460784 0.81764706 0.024509804
0.92843137 0.82083333 0.0073529412
0.94313725 0.81960784 0.01372549
0.13578431 0.81372549 0.32058824
0.15116422 0.8158701 0.31795343
0.17928922 0.81764706 0.3127451
0.19901961 0.81721814 0.30931373
0.2254902 0.81348039 0.3122549
0.25680147 0.80980392 0.31219363
0.29669118 0.81237745 0.31176471
0.33707108 0.81323529 0.30980392
0.37794118 0.81323529 0.30735294
0.41911765 0.80980392 0.30392157
0.45637255 0.80980392 0.30784314
0.49019608 0.81323529 0.30441176
0.52058824 0.81372549 0.2997549
0.55496324 0.81721814 0.29466912
0.59313725 0.82144608 0.28223039
0.63253676 0.82518382 0.27990196
0.67156863 0.82892157 0.27352941
0.70851716 0.83529412 0.2495098
0.74215686 0.84068627 0.22561275
0.78290441 0.84417892 0.20189951
0.82401961 0.84656863 0.1745098
0.86127451 0.84852941 0.13572304
0.89852941 0.85147059 0.087745098
0.92990196 0.85245098 0.041973039
0.95392157 0.85637255 0.016176471
0.2627451 0.85490196 0.38235294
0.2682598 0.85490196 0.38137255
0.27671569 0.85563725 0.37843137
0.28823529 0.85490196 0.37745098
0.31078431 0.85098039 0.37352941
0.34129902 0.85098039 0.37303922
0.36666667 0.85098039 0.36568627
0.39362745 0.85098039 0.35784314
0.42058824 0.85098039 0.35294118
0.45882353 0.85098039 0.35968137
0.49607843 0.85098039 0.36176471
0.52696078 0.85098039 0.36176471
0.55392157 0.85196078 0.35196078
0.5810049 0.85490196 0.34803922
0.61740196 0.85808824 0.34509804
0.65747549 0.86090686 0.34901961
0.69117647 0.86372549 0.34117647
0.72879902 0.86948529 0.32990196
0.76642157 0.8747549 0.31862745
0.8004902 0.87806373 0.29460784
0.8372549 0.87941176 0.26372549
0.875 0.88247549 0.23137255
0.90686275 0.88333333 0.19534314
0.93676471 0.88664216 0.15061275
0.95686275 0.8872549 0.12254902
0.37303922 0.89607843 0.4495098
0.37640931 0.89607843 0.4495098
0.3814951 0.89607843 0.44852941
0.38676471 0.89215686 0.44430147
0.40808824 0.89215686 0.44485294
0.42616422 0.8903799 0.44148284
0.44656863 0.89178922 0.44166667
0.475 0.89270833 0.44221814
0.49656863 0.89215686 0.43921569
0.52898284 0.89215686 0.44613971
0.55833333 0.89178922 0.44571078
0.57745098 0.88694853 0.43431373
0.60539216 0.88946078 0.43480392
0.6377451 0.89607843 0.44460784
0.66605392 0.89607843 0.4377451
0.69356618 0.89908088 0.43584559
0.72598039 0.90392157 0.43284314
0.75686275 0.90692402 0.42401961
0.79019608 0.91066176 0.41764706
0.825 0.91421569 0.39626225
0.85833333 0.91421569 0.36715686
0.88529412 0.91470588 0.34497549
0.91286765 0.9192402 0.33014706
0.94019608 0.92297794 0.30778186
0.95294118 0.91960784 0.27843137
0.4627451 0.92941176 0.50196078
0.46911765 0.93186275 0.50588235
0.4745098 0.93235294 0.50882353
0.47401961 0.9254902 0.50196078
0.48627451 0.9254902 0.50196078
0.49411765 0.92156863 0.49754902
0.51176471 0.9245098 0.50098039
0.54166667 0.92941176 0.51127451
0.56078431 0.92941176 0.50980392
0.58529412 0.92941176 0.52009804
0.60098039 0.9245098 0.50784314
0.61470588 0.91421569 0.49460784
0.64705882 0.91960784 0.50588235
0.68382353 0.92990196 0.52598039
0.70490196 0.92647059 0.5127451
0.72598039 0.92843137 0.50882353
0.75686275 0.9372549 0.51372549
0.78529412 0.94264706 0.51176471
0.81470588 0.94901961 0.51764706
0.84166667 0.94509804 0.49166667
0.86470588 0.94509804 0.46666667
0.89166667 0.94509804 0.44705882
0.91862745 0.94901961 0.45098039
0.94264706 0.95294118 0.44803922
0.94901961 0.95294118 0.43529412
0.091666667 0.058823529 0.13186275
0.091666667 0.057352941 0.13186275
0.095710784 0.053921569 0.13431373
0.11519608 0.053431373 0.13431373
0.13921569 0.050980392 0.13186275
0.16354167 0.047058824 0.13431373
0.18921569 0.045588235 0.13578431
0.22696078 0.040134804 0.13823529
0.27058824 0.033823529 0.13970588
0.31568627 0.025 0.13970588
0.35747549 0.011887255 0.14007353
0.40539216 0.00018382353 0.14491422
0.45686275 0 0.1502451
0.51256127 0 0.15177696
0.56948529 0 0.15392157
0.62248775 0 0.15539216
0.67058824 0 0.15931373
0.72205882 0 0.16715686
0.77254902 0 0.17254902
0.81372549 0 0.17254902
0.85416667 0 0.17647059
0.88805147 0.0075367647 0.18088235
0.92254902 0.036764706 0.18786765
0.95882353 0.080392157 0.18823529
0.99215686 0.11764706 0.18823529
0.090196078 0.06127451 0.13431373
0.09207261 0.06127451 0.13373928
0.10170037 0.06127451 0.13575368
0.11911765 0.06127451 0.13731618
0.1426777 0.060539216 0.13823529
0.16832108 0.057352941 0.13823529
0.19558824 0.054733456 0.13892463
0.23278186 0.052305453 0.13970588
0.2745098 0.047120098 0.14215686
0.31568627 0.032291667 0.14158241
0.36061581 0.020358456 0.14221814
0.40895374 0.01060049 0.14705882
0.46127451 0.0019607843 0.15416667
0.51588542 0.0014093137 0.15642616
0.57257966 0.0046109069 0.15539216
0.62640931 0.0039215686 0.15818781
0.6778799 0.00091911765 0.15931373
0.72843137 0 0.16715686
0.77513787 0.0039215686 0.17069547
0.81672794 0.0039215686 0.17156097
0.85612745 0 0.17496936
0.89166667 0.0070389093 0.18088235
0.92369792 0.047809436 0.1872549
0.95847886 0.097058824 0.18823529
0.98823529 0.13823529 0.18823529
0.090196078 0.071936275 0.13786765
0.096568627 0.071936275 0.13592218
0.10873162 0.073192402 0.13860294
0.1251685 0.073651961 0.13970588
0.14613971 0.073651961 0.13970588
0.17218137 0.07254902 0.14362745
0.20572917 0.07254902 0.14445466
0.24215686 0.069316789 0.14460784
0.27941176 0.064093137 0.14607843
0.32058824 0.051102941 0.14376532
0.36911765 0.041329657 0.14617034
0.41875 0.028492647 0.14848346
0.47150735 0.014644608 0.15882353
0.52366728 0.01484375 0.16041667
0.57830882 0.014920343 0.15931373
0.63255208 0.01127451 0.16064645
0.68664216 0.0049019608 0.16176471
0.73590686 0.00078125 0.16568627
0.77521446 0.012898284 0.17052696
0.81911765 0.0074295343 0.16992953
0.85827206 0.014215686 0.17359069
