site/assets/luts/natron-haldclut--polaroid-667--b47b3d472.cube
# LUTr-Project: LUTr — LUTrepository
# LUTr-Schema-Version: 1
# LUTr-ID: natron-haldclut--polaroid-667--b47b3d472
# LUTr-Title: polaroid 667
# LUTr-Collection: Natron HaldCLUT
# LUTr-Collection-ID: natron-haldclut-presets
# LUTr-Source: https://github.com/NatronGitHub/clut
# LUTr-Source-File: submissions/natron-haldclut-presets/bw/polaroid_667.png
# LUTr-Source-Format: PNG
# LUTr-Source-SHA256: 5f15b60ed13c420c6c31b956bfd193c75a27dee6f87a535adbb0ef6bbbc25c59
# LUTr-License: CC-BY-SA-4.0
# LUTr-License-URL: https://github.com/NatronGitHub/clut#license
# LUTr-Tags: creative, film, film-emulation, hald-clut, natron, png, cube
# LUTr-Transform-Class: film-emulation
# LUTr-Input-Color-Space: srgb
# LUTr-Output-Color-Space: srgb
# LUTr-Color-Space-Confidence: assumed-display-referred
# LUTr-Conversion-Method: PNG LUT image decoded at 16-bit and sampled to 25x25x25 3D CUBE
# LUTr-Conversion-Date: 2026-07-27
# LUTr-Conversion-Tool: LUTr scripts/convert-all-to-cube.mjs
# LUTr-Conversion-Grid: 25x25x25
# LUTr-Note: Preserve this metadata and the upstream license notices when redistributing.
TITLE "polaroid 667"
LUT_3D_SIZE 9
DOMAIN_MIN 0 0 0
DOMAIN_MAX 1 1 1
0.02745098 0.02745098 0.02745098
0.029901961 0.029901961 0.029901961
0.10098039 0.10098039 0.10098039
0.15882353 0.15882353 0.15882353
0.25882353 0.25882353 0.25882353
0.3877451 0.3877451 0.3877451
0.54215686 0.54215686 0.54215686
0.65637255 0.65637255 0.65637255
0.72941176 0.72941176 0.72941176
0.061764706 0.061764706 0.061764706
0.084313725 0.084313725 0.084313725
0.14215686 0.14215686 0.14215686
0.21421569 0.21421569 0.21421569
0.30686275 0.30686275 0.30686275
0.41323529 0.41323529 0.41323529
0.55343137 0.55343137 0.55343137
0.66421569 0.66421569 0.66421569
0.73333333 0.73333333 0.73333333
0.13137255 0.13137255 0.13137255
0.15821078 0.15821078 0.15821078
0.18921569 0.18921569 0.18921569
0.27205882 0.27205882 0.27205882
0.36078431 0.36078431 0.36078431
0.45943627 0.45943627 0.45943627
0.57647059 0.57647059 0.57647059
0.67598039 0.67598039 0.67598039
0.74117647 0.74117647 0.74117647
0.20588235 0.20588235 0.20588235
0.24430147 0.24430147 0.24430147
0.27879902 0.27879902 0.27879902
0.33474265 0.33474265 0.33474265
0.41666667 0.41666667 0.41666667
0.50974265 0.50974265 0.50974265
0.61176471 0.61176471 0.61176471
0.69754902 0.69754902 0.69754902
0.75294118 0.75294118 0.75294118
0.33529412 0.33529412 0.33529412
0.35637255 0.35637255 0.35637255
0.3872549 0.3872549 0.3872549
0.4252451 0.4252451 0.4252451
0.48529412 0.48529412 0.48529412
0.56911765 0.56911765 0.56911765
0.65735294 0.65735294 0.65735294
0.7245098 0.7245098 0.7245098
0.76666667 0.76666667 0.76666667
0.46470588 0.46470588 0.46470588
0.47598039 0.47598039 0.47598039
0.49901961 0.49901961 0.49901961
0.53382353 0.53382353 0.53382353
0.57965686 0.57965686 0.57965686
0.64117647 0.64117647 0.64117647
0.69754902 0.69754902 0.69754902
0.7473652 0.7473652 0.7473652
0.78431373 0.78431373 0.78431373
0.55588235 0.55588235 0.55588235
0.56323529 0.56323529 0.56323529
0.59019608 0.59019608 0.59019608
0.625 0.625 0.625
0.66764706 0.66764706 0.66764706
0.70931373 0.70931373 0.70931373
0.73921569 0.73921569 0.73921569
0.77414216 0.77414216 0.77414216
0.80882353 0.80882353 0.80882353
0.64460784 0.64460784 0.64460784
0.65202206 0.65202206 0.65202206
0.67892157 0.67892157 0.67892157
0.7096201 0.7096201 0.7096201
0.74044118 0.74044118 0.74044118
0.7653799 0.7653799 0.7653799
0.78970588 0.78970588 0.78970588
0.81715686 0.81715686 0.81715686
0.84754902 0.84754902 0.84754902
0.7254902 0.7254902 0.7254902
0.73284314 0.73284314 0.73284314
0.75588235 0.75588235 0.75588235
0.775 0.775 0.775
0.79019608 0.79019608 0.79019608
0.80784314 0.80784314 0.80784314
0.82843137 0.82843137 0.82843137
0.85539216 0.85539216 0.85539216
0.88235294 0.88235294 0.88235294
0.050980392 0.050980392 0.050980392
0.080882353 0.080882353 0.080882353
0.13835784 0.13835784 0.13835784
0.1963848 0.1963848 0.1963848
0.29338235 0.29338235 0.29338235
0.41666667 0.41666667 0.41666667
0.55294118 0.55294118 0.55294118
0.65637255 0.65637255 0.65637255
0.73676471 0.73676471 0.73676471
0.092647059 0.092647059 0.092647059
0.11568627 0.11568627 0.11568627
0.1652114 0.1652114 0.1652114
0.23743873 0.23743873 0.23743873
0.33036152 0.33036152 0.33036152
0.44800092 0.44800092 0.44800092
0.57071078 0.57071078 0.57071078
0.66807598 0.66807598 0.66807598
0.7372549 0.7372549 0.7372549
0.15833333 0.15833333 0.15833333
0.18051471 0.18051471 0.18051471
0.21911765 0.21911765 0.21911765
0.29509804 0.29509804 0.29509804
0.37843137 0.37843137 0.37843137
0.48284314 0.48284314 0.48284314
0.59310662 0.59310662 0.59310662
0.67855392 0.67855392 0.67855392
0.74411765 0.74411765 0.74411765
0.23431373 0.23431373 0.23431373
0.26519608 0.26519608 0.26519608
0.3 0.3 0.3
0.34993873 0.34993873 0.34993873
0.42882966 0.42882966 0.42882966
0.52176011 0.52176011 0.52176011
0.61323529 0.61323529 0.61323529
0.69803922 0.69803922 0.69803922
0.75667892 0.75667892 0.75667892
0.34901961 0.34901961 0.34901961
0.36985294 0.36985294 0.36985294
0.4004902 0.4004902 0.4004902
0.43936887 0.43936887 0.43936887
0.49485294 0.49485294 0.49485294
0.57518382 0.57518382 0.57518382
0.66060049 0.66060049 0.66060049
0.72843137 0.72843137 0.72843137
0.77034314 0.77034314 0.77034314
0.47598039 0.47598039 0.47598039
0.48253676 0.48253676 0.48253676
0.50900735 0.50900735 0.50900735
0.54393382 0.54393382 0.54393382
0.5885723 0.5885723 0.5885723
0.64509804 0.64509804 0.64509804
0.70026042 0.70026042 0.70026042
0.7473652 0.7473652 0.7473652
0.78792892 0.78792892 0.78792892
0.56372549 0.56372549 0.56372549
0.57140012 0.57140012 0.57140012
0.59669118 0.59669118 0.59669118
0.63053002 0.63053002 0.63053002
0.67285539 0.67285539 0.67285539
0.70931373 0.70931373 0.70931373
0.74019608 0.74019608 0.74019608
0.77761949 0.77761949 0.77761949
0.8127451 0.8127451 0.8127451
0.65588235 0.65588235 0.65588235
0.66023284 0.66023284 0.66023284
0.68676471 0.68676471 0.68676471
0.71307445 0.71307445 0.71307445
0.74411765 0.74411765 0.74411765
0.76715686 0.76715686 0.76715686
0.79019608 0.79019608 0.79019608
0.82107843 0.82107843 0.82107843
0.84803922 0.84803922 0.84803922
0.73676471 0.73676471 0.73676471
0.74417892 0.74417892 0.74417892
0.76335784 0.76335784 0.76335784
0.77647059 0.77647059 0.77647059
0.79387255 0.79387255 0.79387255
0.80931373 0.80931373 0.80931373
0.83235294 0.83235294 0.83235294
0.85931373 0.85931373 0.85931373
0.88578431 0.88578431 0.88578431
0.062745098 0.062745098 0.062745098
0.11911765 0.11911765 0.11911765
0.18235294 0.18235294 0.18235294
0.22634804 0.22634804 0.22634804
0.33235294 0.33235294 0.33235294
0.45441176 0.45441176 0.45441176
0.56495098 0.56495098 0.56495098
0.66323529 0.66323529 0.66323529
0.74117647 0.74117647 0.74117647
0.11654412 0.11654412 0.11654412
0.14384191 0.14384191 0.14384191
0.20061275 0.20061275 0.20061275
0.26832108 0.26832108 0.26832108
0.36323529 0.36323529 0.36323529
0.48270527 0.48270527 0.48270527
0.58290441 0.58290441 0.58290441
0.67193627 0.67193627 0.67193627
0.7372549 0.7372549 0.7372549
0.18529412 0.18529412 0.18529412
0.20477941 0.20477941 0.20477941
0.23805147 0.23805147 0.23805147
0.31939338 0.31939338 0.31939338
0.40857843 0.40857843 0.40857843
0.5122549 0.5122549 0.5122549
0.60061275 0.60061275 0.60061275
0.68183211 0.68183211 0.68183211
0.75514706 0.75514706 0.75514706
0.26519608 0.26519608 0.26519608
0.29215686 0.29215686 0.29215686
0.32696078 0.32696078 0.32696078
0.37598039 0.37598039 0.37598039
0.44993873 0.44993873 0.44993873
0.54088542 0.54088542 0.54088542
0.62420343 0.62420343 0.62420343
0.7057598 0.7057598 0.7057598
0.76764706 0.76764706 0.76764706
0.37401961 0.37401961 0.37401961
0.39117647 0.39117647 0.39117647
0.42401961 0.42401961 0.42401961
0.4622549 0.4622549 0.4622549
0.51102941 0.51102941 0.51102941
0.58480392 0.58480392 0.58480392
0.66862745 0.66862745 0.66862745
0.73235294 0.73235294 0.73235294
0.77647059 0.77647059 0.77647059
0.49215686 0.49215686 0.49215686
0.49941789 0.49941789 0.49941789
0.52401961 0.52401961 0.52401961
0.55882353 0.55882353 0.55882353
0.60318627 0.60318627 0.60318627
0.65363051 0.65363051 0.65363051
0.70441176 0.70441176 0.70441176
0.74969363 0.74969363 0.74969363
0.79031863 0.79031863 0.79031863
0.58627451 0.58627451 0.58627451
0.59019608 0.59019608 0.59019608
0.60808824 0.60808824 0.60808824
0.64059436 0.64059436 0.64059436
0.68235294 0.68235294 0.68235294
0.71715686 0.71715686 0.71715686
0.74632353 0.74632353 0.74632353
0.78262868 0.78262868 0.78262868
0.82058824 0.82058824 0.82058824
0.67598039 0.67598039 0.67598039
0.67892157 0.67892157 0.67892157
0.69387255 0.69387255 0.69387255
0.72022059 0.72022059 0.72022059
0.75196078 0.75196078 0.75196078
0.77345282 0.77345282 0.77345282
0.79782475 0.79782475 0.79782475
0.82847733 0.82847733 0.82847733
0.85845588 0.85845588 0.85845588
0.75980392 0.75980392 0.75980392
0.77107843 0.77107843 0.77107843
0.77254902 0.77254902 0.77254902
0.78786765 0.78786765 0.78786765
0.80147059 0.80147059 0.80147059
0.81715686 0.81715686 0.81715686
0.84019608 0.84019608 0.84019608
0.86715686 0.86715686 0.86715686
0.89411765 0.89411765 0.89411765
0.054901961 0.054901961 0.054901961
0.13057598 0.13057598 0.13057598
0.20085784 0.20085784 0.20085784
0.25294118 0.25294118 0.25294118
0.36715686 0.36715686 0.36715686
0.49068627 0.49068627 0.49068627
0.59754902 0.59754902 0.59754902
0.67843137 0.67843137 0.67843137
0.74117647 0.74117647 0.74117647
0.13057598 0.13057598 0.13057598
0.16911765 0.16911765 0.16911765
0.22745098 0.22745098 0.22745098
0.30068168 0.30068168 0.30068168
0.39126838 0.39126838 0.39126838
0.50104167 0.50104167 0.50104167
0.601394 0.601394 0.601394
0.68317249 0.68317249 0.68317249
0.7372549 0.7372549 0.7372549
0.20833333 0.20833333 0.20833333
0.24105392 0.24105392 0.24105392
0.28134191 0.28134191 0.28134191
0.35248162 0.35248162 0.35248162
0.43327206 0.43327206 0.43327206
0.52869179 0.52869179 0.52869179
0.61599265 0.61599265 0.61599265
0.69500613 0.69500613 0.69500613
0.7622549 0.7622549 0.7622549
0.29552696 0.29552696 0.29552696
0.31911765 0.31911765 0.31911765
0.35968137 0.35968137 0.35968137
0.40798866 0.40798866 0.40798866
0.47671569 0.47671569 0.47671569
0.5622549 0.5622549 0.5622549
0.64607843 0.64607843 0.64607843
0.71967678 0.71967678 0.71967678
0.77591912 0.77591912 0.77591912
0.4004902 0.4004902 0.4004902
0.41568627 0.41568627 0.41568627
0.4504902 0.4504902 0.4504902
0.48921569 0.48921569 0.48921569
0.53578431 0.53578431 0.53578431
0.60294118 0.60294118 0.60294118
0.68106618 0.68106618 0.68106618
0.73814338 0.73814338 0.73814338
0.78431373 0.78431373 0.78431373
0.51721814 0.51721814 0.51721814
0.5245098 0.5245098 0.5245098
0.5457261 0.5457261 0.5457261
0.58016238 0.58016238 0.58016238
0.62181373 0.62181373 0.62181373
0.67015931 0.67015931 0.67015931
0.71156556 0.71156556 0.71156556
0.75441942 0.75441942 0.75441942
0.79699755 0.79699755 0.79699755
0.61323529 0.61323529 0.61323529
0.61715686 0.61715686 0.61715686
0.62567402 0.62567402 0.62567402
0.6571538 0.6571538 0.6571538
0.69583333 0.69583333 0.69583333
0.7261489 0.7261489 0.7261489
0.75505515 0.75505515 0.75505515
0.79266238 0.79266238 0.79266238
0.82843137 0.82843137 0.82843137
0.70588235 0.70588235 0.70588235
0.70980392 0.70980392 0.70980392
0.71090686 0.71090686 0.71090686
0.73155637 0.73155637 0.73155637
0.75980392 0.75980392 0.75980392
0.77873775 0.77873775 0.77873775
0.80539216 0.80539216 0.80539216
0.83660386 0.83660386 0.83660386
0.86979167 0.86979167 0.86979167
0.76862745 0.76862745 0.76862745
0.77254902 0.77254902 0.77254902
0.78039216 0.78039216 0.78039216
0.79123775 0.79123775 0.79123775
0.80392157 0.80392157 0.80392157
0.82015931 0.82015931 0.82015931
0.84473039 0.84473039 0.84473039
0.87892157 0.87892157 0.87892157
0.90588235 0.90588235 0.90588235
0.10588235 0.10588235 0.10588235
0.15588235 0.15588235 0.15588235
0.21372549 0.21372549 0.21372549
0.31176471 0.31176471 0.31176471
0.41470588 0.41470588 0.41470588
0.52401961 0.52401961 0.52401961
0.62254902 0.62254902 0.62254902
0.69705882 0.69705882 0.69705882
0.75294118 0.75294118 0.75294118
0.16740196 0.16740196 0.16740196
0.21786152 0.21786152 0.21786152
0.26960784 0.26960784 0.26960784
0.34583333 0.34583333 0.34583333
0.44044118 0.44044118 0.44044118
0.52876838 0.52876838 0.52876838
0.62058824 0.62058824 0.62058824
0.69313725 0.69313725 0.69313725
0.75490196 0.75490196 0.75490196
0.25 0.25 0.25
0.28112745 0.28112745 0.28112745
0.32990196 0.32990196 0.32990196
0.39485294 0.39485294 0.39485294
0.48014706 0.48014706 0.48014706
0.56348039 0.56348039 0.56348039
0.63835784 0.63835784 0.63835784
0.70661765 0.70661765 0.70661765
0.76862745 0.76862745 0.76862745
0.34460784 0.34460784 0.34460784
0.35980392 0.35980392 0.35980392
0.40073529 0.40073529 0.40073529
0.45217525 0.45217525 0.45217525
0.51875 0.51875 0.51875
0.59905025 0.59905025 0.59905025
0.66593137 0.66593137 0.66593137
0.72956495 0.72956495 0.72956495
0.76789216 0.76789216 0.76789216
0.44019608 0.44019608 0.44019608
0.45073529 0.45073529 0.45073529
0.48455882 0.48455882 0.48455882
0.52622549 0.52622549 0.52622549
0.57303922 0.57303922 0.57303922
0.63762255 0.63762255 0.63762255
0.69583333 0.69583333 0.69583333
0.74877451 0.74877451 0.74877451
0.79509804 0.79509804 0.79509804
0.5502451 0.5502451 0.5502451
0.55916054 0.55916054 0.55916054
0.57254902 0.57254902 0.57254902
0.60689338 0.60689338 0.60689338
0.64607843 0.64607843 0.64607843
0.68648897 0.68648897 0.68648897
0.7245098 0.7245098 0.7245098
0.76902574 0.76902574 0.76902574
0.8125 0.8125 0.8125
0.64803922 0.64803922 0.64803922
0.64803922 0.64803922 0.64803922
0.64754902 0.64754902 0.64754902
0.66856618 0.66856618 0.66856618
0.70392157 0.70392157 0.70392157
0.73265931 0.73265931 0.73265931
0.76519608 0.76519608 0.76519608
0.80588235 0.80588235 0.80588235
0.84068627 0.84068627 0.84068627
0.72843137 0.72843137 0.72843137
0.73039216 0.73039216 0.73039216
0.72738971 0.72738971 0.72738971
0.73357843 0.73357843 0.73357843
0.76360294 0.76360294 0.76360294
0.78275123 0.78275123 0.78275123
0.81151961 0.81151961 0.81151961
0.84653799 0.84653799 0.84653799
0.87916667 0.87916667 0.87916667
0.77647059 0.77647059 0.77647059
0.78039216 0.78039216 0.78039216
0.78578431 0.78578431 0.78578431
0.79289216 0.79289216 0.79289216
0.80882353 0.80882353 0.80882353
0.82230392 0.82230392 0.82230392
0.84803922 0.84803922 0.84803922
0.88284314 0.88284314 0.88284314
0.91960784 0.91960784 0.91960784
0.1254902 0.1254902 0.1254902
0.21176471 0.21176471 0.21176471
0.27941176 0.27941176 0.27941176
0.35931373 0.35931373 0.35931373
0.4629902 0.4629902 0.4629902
0.56666667 0.56666667 0.56666667
0.65012255 0.65012255 0.65012255
0.71078431 0.71078431 0.71078431
0.76470588 0.76470588 0.76470588
0.22107843 0.22107843 0.22107843
0.26979167 0.26979167 0.26979167
0.3254902 0.3254902 0.3254902
0.39393382 0.39393382 0.39393382
0.48498775 0.48498775 0.48498775
0.57127757 0.57127757 0.57127757
0.64656863 0.64656863 0.64656863
0.71459865 0.71459865 0.71459865
0.77647059 0.77647059 0.77647059
0.31017157 0.31017157 0.31017157
0.3347886 0.3347886 0.3347886
0.38333333 0.38333333 0.38333333
0.44468444 0.44468444 0.44468444
0.53125 0.53125 0.53125
0.60735294 0.60735294 0.60735294
0.66354167 0.66354167 0.66354167
0.72784926 0.72784926 0.72784926
0.77855392 0.77855392 0.77855392
0.40245098 0.40245098 0.40245098
0.41372549 0.41372549 0.41372549
0.44898897 0.44898897 0.44898897
0.50051317 0.50051317 0.50051317
0.56862745 0.56862745 0.56862745
0.62889859 0.62889859 0.62889859
0.68693321 0.68693321 0.68693321
0.7448989 0.7448989 0.7448989
0.77647059 0.77647059 0.77647059
0.49901961 0.49901961 0.49901961
0.50637255 0.50637255 0.50637255
0.528125 0.528125 0.528125
0.56666667 0.56666667 0.56666667
0.61654412 0.61654412 0.61654412
0.66838235 0.66838235 0.66838235
0.71758578 0.71758578 0.71758578
0.7635723 0.7635723 0.7635723
0.80980392 0.80980392 0.80980392
0.59558824 0.59558824 0.59558824
0.60336244 0.60336244 0.60336244
0.6040288 0.6040288 0.6040288
0.63431373 0.63431373 0.63431373
0.67303922 0.67303922 0.67303922
0.709375 0.709375 0.709375
0.74791667 0.74791667 0.74791667
0.78957567 0.78957567 0.78957567
0.83192402 0.83192402 0.83192402
0.68186275 0.68186275 0.68186275
0.67838542 0.67838542 0.67838542
0.67794118 0.67794118 0.67794118
0.69215686 0.69215686 0.69215686
0.72181373 0.72181373 0.72181373
0.74901961 0.74901961 0.74901961
0.78299632 0.78299632 0.78299632
0.82158395 0.82158395 0.82158395
0.85882353 0.85882353 0.85882353
0.74362745 0.74362745 0.74362745
0.74362745 0.74362745 0.74362745
0.74754902 0.74754902 0.74754902
0.75410539 0.75410539 0.75410539
0.77230392 0.77230392 0.77230392
0.79349724 0.79349724 0.79349724
0.825 0.825 0.825
0.85196078 0.85196078 0.85196078
0.87714461 0.87714461 0.87714461
0.78823529 0.78823529 0.78823529
0.78970588 0.78970588 0.78970588
0.79718137 0.79718137 0.79718137
0.81084559 0.81084559 0.81084559
0.81642157 0.81642157 0.81642157
0.83284314 0.83284314 0.83284314
0.85196078 0.85196078 0.85196078
0.875 0.875 0.875
0.89411765 0.89411765 0.89411765
0.21862745 0.21862745 0.21862745
0.27242647 0.27242647 0.27242647
0.34901961 0.34901961 0.34901961
0.42892157 0.42892157 0.42892157
0.50980392 0.50980392 0.50980392
0.60208333 0.60208333 0.60208333
0.67254902 0.67254902 0.67254902
0.73137255 0.73137255 0.73137255
0.78823529 0.78823529 0.78823529
0.29473039 0.29473039 0.29473039
0.33463542 0.33463542 0.33463542
0.39117647 0.39117647 0.39117647
0.45557598 0.45557598 0.45557598
0.5245098 0.5245098 0.5245098
0.60785846 0.60785846 0.60785846
0.67610294 0.67610294 0.67610294
0.73426777 0.73426777 0.73426777
0.77745098 0.77745098 0.77745098
0.38504902 0.38504902 0.38504902
0.40441176 0.40441176 0.40441176
0.44901961 0.44901961 0.44901961
0.50294118 0.50294118 0.50294118
0.5682598 0.5682598 0.5682598
0.63431373 0.63431373 0.63431373
0.68878676 0.68878676 0.68878676
0.74672181 0.74672181 0.74672181
0.78897059 0.78897059 0.78897059
0.46911765 0.46911765 0.46911765
0.47726716 0.47726716 0.47726716
0.50784314 0.50784314 0.50784314
0.55255821 0.55255821 0.55255821
0.6088848 0.6088848 0.6088848
0.65911458 0.65911458 0.65911458
0.70955882 0.70955882 0.70955882
0.76038603 0.76038603 0.76038603
0.80735294 0.80735294 0.80735294
0.56078431 0.56078431 0.56078431
0.56470588 0.56470588 0.56470588
0.57745098 0.57745098 0.57745098
0.60765931 0.60765931 0.60765931
0.65612745 0.65612745 0.65612745
0.69908088 0.69908088 0.69908088
0.73651961 0.73651961 0.73651961
0.77947304 0.77947304 0.77947304
0.80784314 0.80784314 0.80784314
0.64914216 0.64914216 0.64914216
0.65098039 0.65098039 0.65098039
0.64742647 0.64742647 0.64742647
0.66787684 0.66787684 0.66787684
0.7 0.7 0.7
0.73443627 0.73443627 0.73443627
0.77107843 0.77107843 0.77107843
0.80988051 0.80988051 0.80988051
0.83921569 0.83921569 0.83921569
0.70882353 0.70882353 0.70882353
0.70882353 0.70882353 0.70882353
0.7127451 0.7127451 0.7127451
0.72303922 0.72303922 0.72303922
0.74203431 0.74203431 0.74203431
0.77205882 0.77205882 0.77205882
0.803125 0.803125 0.803125
0.8377451 0.8377451 0.8377451
0.86544118 0.86544118 0.86544118
0.7627451 0.7627451 0.7627451
0.76643689 0.76643689 0.76643689
0.76951593 0.76951593 0.76951593
0.77838542 0.77838542 0.77838542
0.79142157 0.79142157 0.79142157
0.81384804 0.81384804 0.81384804
0.84004289 0.84004289 0.84004289
0.86410846 0.86410846 0.86410846
0.88039216 0.88039216 0.88039216
0.80882353 0.80882353 0.80882353
0.81139706 0.81139706 0.81139706
0.81666667 0.81666667 0.81666667
0.82352941 0.82352941 0.82352941
0.82990196 0.82990196 0.82990196
0.84852941 0.84852941 0.84852941
0.8629902 0.8629902 0.8629902
0.8754902 0.8754902 0.8754902
0.89019608 0.89019608 0.89019608
0.31078431 0.31078431 0.31078431
0.36219363 0.36219363 0.36219363
0.4182598 0.4182598 0.4182598
0.4908701 0.4908701 0.4908701
0.55955882 0.55955882 0.55955882
0.63872549 0.63872549 0.63872549
0.69607843 0.69607843 0.69607843
0.74215686 0.74215686 0.74215686
0.77647059 0.77647059 0.77647059
0.38431373 0.38431373 0.38431373
0.42352941 0.42352941 0.42352941
0.4622549 0.4622549 0.4622549
0.5167739 0.5167739 0.5167739
0.57104779 0.57104779 0.57104779
0.6428079 0.6428079 0.6428079
0.69914216 0.69914216 0.69914216
0.74558824 0.74558824 0.74558824
0.78039216 0.78039216 0.78039216
0.46213235 0.46213235 0.46213235
0.48147978 0.48147978 0.48147978
0.51905637 0.51905637 0.51905637
0.55784314 0.55784314 0.55784314
0.60735294 0.60735294 0.60735294
0.66409314 0.66409314 0.66409314
0.71182598 0.71182598 0.71182598
0.75772059 0.75772059 0.75772059
0.79252451 0.79252451 0.79252451
0.53792892 0.53792892 0.53792892
0.54264706 0.54264706 0.54264706
0.56997549 0.56997549 0.56997549
0.60098805 0.60098805 0.60098805
0.64730392 0.64730392 0.64730392
0.69068627 0.69068627 0.69068627
0.72950368 0.72950368 0.72950368
0.77753523 0.77753523 0.77753523
0.81568627 0.81568627 0.81568627
0.62230392 0.62230392 0.62230392
0.62230392 0.62230392 0.62230392
0.62751225 0.62751225 0.62751225
0.6515625 0.6515625 0.6515625
0.69068627 0.69068627 0.69068627
0.71764706 0.71764706 0.71764706
0.74895833 0.74895833 0.74895833
0.79856005 0.79856005 0.79856005
0.83137255 0.83137255 0.83137255
0.68792892 0.68792892 0.68792892
0.68823529 0.68823529 0.68823529
0.68970588 0.68970588 0.68970588
0.70091912 0.70091912 0.70091912
0.72677696 0.72677696 0.72677696
0.75507812 0.75507812 0.75507812
0.78284314 0.78284314 0.78284314
0.81840533 0.81840533 0.81840533
0.84332108 0.84332108 0.84332108
0.73578431 0.73578431 0.73578431
0.73578431 0.73578431 0.73578431
0.73970588 0.73970588 0.73970588
0.75088848 0.75088848 0.75088848
0.76648284 0.76648284 0.76648284
0.79473039 0.79473039 0.79473039
0.82196691 0.82196691 0.82196691
0.84865196 0.84865196 0.84865196
0.87291667 0.87291667 0.87291667
0.78970588 0.78970588 0.78970588
0.79313725 0.79313725 0.79313725
0.79587929 0.79587929 0.79587929
0.80147059 0.80147059 0.80147059
0.81124387 0.81124387 0.81124387
0.83429075 0.83429075 0.83429075
0.86078431 0.86078431 0.86078431
0.8877451 0.8877451 0.8877451
0.91470588 0.91470588 0.91470588
0.83578431 0.83578431 0.83578431
0.83970588 0.83970588 0.83970588
0.84362745 0.84362745 0.84362745
0.84362745 0.84362745 0.84362745
0.85343137 0.85343137 0.85343137
0.87254902 0.87254902 0.87254902
0.8877451 0.8877451 0.8877451
0.91470588 0.91470588 0.91470588
0.93039216 0.93039216 0.93039216
0.38039216 0.38039216 0.38039216
0.44558824 0.44558824 0.44558824
0.50784314 0.50784314 0.50784314
0.55392157 0.55392157 0.55392157
0.60784314 0.60784314 0.60784314
0.66421569 0.66421569 0.66421569
0.70294118 0.70294118 0.70294118
0.74166667 0.74166667 0.74166667
0.77647059 0.77647059 0.77647059
0.44607843 0.44607843 0.44607843
0.49215686 0.49215686 0.49215686
0.53578431 0.53578431 0.53578431
0.57058824 0.57058824 0.57058824
0.61936275 0.61936275 0.61936275
0.67175245 0.67175245 0.67175245
0.70379902 0.70379902 0.70379902
0.74215686 0.74215686 0.74215686
0.77990196 0.77990196 0.77990196
0.51960784 0.51960784 0.51960784
0.54264706 0.54264706 0.54264706
0.57745098 0.57745098 0.57745098
0.60894608 0.60894608 0.60894608
0.63529412 0.63529412 0.63529412
0.68676471 0.68676471 0.68676471
0.72156863 0.72156863 0.72156863
0.75772059 0.75772059 0.75772059
0.79215686 0.79215686 0.79215686
0.59313725 0.59313725 0.59313725
0.6004902 0.6004902 0.6004902
0.62561275 0.62561275 0.62561275
0.64166667 0.64166667 0.64166667
0.67034314 0.67034314 0.67034314
0.70588235 0.70588235 0.70588235
0.74068627 0.74068627 0.74068627
0.77941176 0.77941176 0.77941176
0.81421569 0.81421569 0.81421569
0.66470588 0.66470588 0.66470588
0.66666667 0.66666667 0.66666667
0.67205882 0.67205882 0.67205882
0.6875 0.6875 0.6875
0.70784314 0.70784314 0.70784314
0.73284314 0.73284314 0.73284314
0.76372549 0.76372549 0.76372549
0.80245098 0.80245098 0.80245098
0.83137255 0.83137255 0.83137255
0.71127451 0.71127451 0.71127451
0.71127451 0.71127451 0.71127451
0.71666667 0.71666667 0.71666667
0.72604167 0.72604167 0.72604167
0.74338235 0.74338235 0.74338235
0.76464461 0.76464461 0.76464461
0.79276961 0.79276961 0.79276961
0.8254902 0.8254902 0.8254902
0.84852941 0.84852941 0.84852941
0.75882353 0.75882353 0.75882353
0.76139706 0.76139706 0.76139706
0.76642157 0.76642157 0.76642157
0.77242647 0.77242647 0.77242647
0.7872549 0.7872549 0.7872549
0.80735294 0.80735294 0.80735294
0.83406863 0.83406863 0.83406863
0.86029412 0.86029412 0.86029412
0.88333333 0.88333333 0.88333333
0.8127451 0.8127451 0.8127451
0.81660539 0.81660539 0.81660539
0.82058824 0.82058824 0.82058824
0.8245098 0.8245098 0.8245098
0.83602941 0.83602941 0.83602941
0.85557598 0.85557598 0.85557598
0.87904412 0.87904412 0.87904412
0.90386029 0.90386029 0.90386029
0.93382353 0.93382353 0.93382353
0.85882353 0.85882353 0.85882353
0.86617647 0.86617647 0.86617647
0.8745098 0.8745098 0.8745098
0.87058824 0.87058824 0.87058824
0.88039216 0.88039216 0.88039216
0.90343137 0.90343137 0.90343137
0.91764706 0.91764706 0.91764706
0.94215686 0.94215686 0.94215686
0.98823529 0.98823529 0.98823529
