site/assets/luts/natron-haldclut--polaroid-690-warm---0a6bea6b1.cube
# LUTr-Project: LUTr — LUTrepository
# LUTr-Schema-Version: 1
# LUTr-ID: natron-haldclut--polaroid-690-warm---0a6bea6b1
# LUTr-Title: polaroid 690 warm -
# LUTr-Collection: Natron HaldCLUT
# LUTr-Collection-ID: natron-haldclut-presets
# LUTr-Source: https://github.com/NatronGitHub/clut
# LUTr-Source-File: submissions/natron-haldclut-presets/instant_pro/polaroid_690_warm_-.png
# LUTr-Source-Format: PNG
# LUTr-Source-SHA256: c151e8f70d129c7191efabca41c1f9293c535c50560124b5a4a4a6aa403422c9
# LUTr-License: CC-BY-SA-4.0
# LUTr-License-URL: https://github.com/NatronGitHub/clut#license
# LUTr-Tags: creative, film, film-emulation, hald-clut, natron, png, warm, cube
# LUTr-Transform-Class: film-emulation
# LUTr-Input-Color-Space: srgb
# LUTr-Output-Color-Space: srgb
# LUTr-Color-Space-Confidence: assumed-display-referred
# LUTr-Conversion-Method: PNG LUT image decoded at 16-bit and sampled to 25x25x25 3D CUBE
# LUTr-Conversion-Date: 2026-07-27
# LUTr-Conversion-Tool: LUTr scripts/convert-all-to-cube.mjs
# LUTr-Conversion-Grid: 25x25x25
# LUTr-Note: Preserve this metadata and the upstream license notices when redistributing.
TITLE "polaroid 690 warm -"
LUT_3D_SIZE 25
DOMAIN_MIN 0 0 0
DOMAIN_MAX 1 1 1
0.058823529 0.023529412 0.011764706
0.085784314 0.029901961 0.015686275
0.1127451 0.035294118 0.018627451
0.13627451 0.035294118 0.015686275
0.16862745 0.029411765 0.015686275
0.20147059 0.018627451 0.015686275
0.23235294 0.0049019608 0.015686275
0.27401961 0.0014705882 0.017156863
0.3254902 0.0039215686 0.02745098
0.37058824 0.0078431373 0.037745098
0.41568627 0.0078431373 0.048039216
0.46029412 0.0044117647 0.050980392
0.50784314 0.0039215686 0.035294118
0.55539216 0.0039215686 0.023039216
0.6 0 0.012745098
0.64264706 0 0.0039215686
0.69019608 0 0
0.73529412 0 0
0.77647059 0 0
0.82107843 0 0
0.8627451 0 0.0019607843
0.90784314 0 0.0039215686
0.94901961 0 0.00098039216
0.99019608 0 0
1 0 0
0.075490196 0.048039216 0.015686275
0.090625 0.048039216 0.019056373
0.11458333 0.044117647 0.01752451
0.13627451 0.038051471 0.015686275
0.16862745 0.033088235 0.015686275
0.20784314 0.030882353 0.015686275
0.24264706 0.027328431 0.015686275
0.28284314 0.015196078 0.018688725
0.32941176 0.010294118 0.025
0.37604167 0.015747549 0.032291667
0.42205882 0.01752451 0.036764706
0.46685049 0.010784314 0.036764706
0.51421569 0.0051470588 0.030882353
0.56127451 0.0039215686 0.019117647
0.60539216 0.0039215686 0.0088235294
0.65055147 0 0.003370098
0.69656863 0 0.0039215686
0.74166667 0 0.0039215686
0.78676471 0 0
0.82794118 0 0
0.87181373 0 0.0039215686
0.91421569 0 0.0039215686
0.95539216 0 0.0039215686
0.9872549 0 0
0.99362745 0 0
0.087254902 0.07254902 0.019607843
0.095465686 0.07254902 0.019607843
0.11568627 0.067892157 0.015686275
0.14068627 0.065686275 0.015686275
0.175 0.062254902 0.015686275
0.21470588 0.057720588 0.015686275
0.25196078 0.053186275 0.015686275
0.29313725 0.038602941 0.019607843
0.3372549 0.025490196 0.019607843
0.38296569 0.026960784 0.02254902
0.42769608 0.026470588 0.023529412
0.47340686 0.016176471 0.029901961
0.52058824 0.0083333333 0.026960784
0.5689951 0.0073529412 0.019117647
0.61666667 0.0039215686 0.0088235294
0.66176471 0 0.006372549
0.70686275 0 0.0039215686
0.75257353 0 0.0039215686
0.79705882 0 0.0039215686
0.83823529 0.0034313725 0.0039215686
0.87941176 0.0039215686 0.0039215686
0.92058824 0 0.0039215686
0.95784314 0.00073529412 0.0039215686
0.98235294 0 0
0.99117647 0 0.0039215686
0.09754902 0.097058824 0.015686275
0.097855392 0.093137255 0.015686275
0.11654412 0.092647059 0.015686275
0.15055147 0.096568627 0.015686275
0.18357843 0.098284314 0.015686275
0.21764706 0.091727941 0.012683824
0.25845588 0.081862745 0.015686275
0.30128676 0.066176471 0.015686275
0.34460784 0.049509804 0.012254902
0.39001225 0.038541667 0.0088235294
0.43480392 0.033823529 0.016666667
0.47990196 0.023529412 0.026960784
0.53088235 0.015196078 0.025490196
0.58229167 0.0073529412 0.015196078
0.62990196 0.0013480392 0.0079656863
0.67352941 0 0.0065563725
0.71715686 0 0.0039215686
0.76470588 0 0.0039215686
0.80735294 0 0.0039215686
0.84852941 0.0038602941 0.0039215686
0.88970588 0.00049019608 0.0039215686
0.92653186 0.00042892157 0.0039215686
0.95784314 0.0039215686 0.0039215686
0.978125 0.0034313725 0.0014705882
0.98823529 0.0034313725 0.0039215686
0.10392157 0.12941176 0.025490196
0.10392157 0.12671569 0.019117647
0.12205882 0.12941176 0.011764706
0.15147059 0.13308824 0.011764706
0.17941176 0.13235294 0.0088235294
0.21764706 0.125 0.0080882353
0.2627451 0.11764706 0.0098039216
0.30857843 0.10637255 0.011029412
0.35294118 0.092156863 0.0078431373
0.4004902 0.084313725 0.0058823529
0.44803922 0.075490196 0.012254902
0.49558824 0.059803922 0.021078431
0.54313725 0.038235294 0.019607843
0.59460784 0.010784314 0.0093137255
0.64264706 0 0.0039215686
0.68627451 0.00073529412 0.0039215686
0.72745098 0.0058823529 0.0039215686
0.775 0.0034313725 0.0039215686
0.82156863 0 0.0039215686
0.8627451 0 0.0019607843
0.9 0 0.0019607843
0.93676471 0.00049019608 0.0017156863
0.9622549 0.0039215686 0
0.98259804 0.0012254902 0
0.98823529 0.0039215686 0.0039215686
0.10588235 0.16715686 0.034803922
0.11011029 0.17089461 0.020772059
0.12892157 0.1745098 0.011764706
0.15545343 0.17150735 0.0082720588
0.17671569 0.16887255 0.0022058824
0.2216299 0.16666667 0.0039215686
0.26960784 0.16323529 0.0078431373
0.31354167 0.15784314 0.0078431373
0.36127451 0.15196078 0.0078431373
0.41305147 0.15245098 0.0078431373
0.46421569 0.14754902 0.0088235294
0.51182598 0.12947304 0.015196078
0.55980392 0.097303922 0.011519608
0.61127451 0.060845588 0.0039215686
0.6567402 0.034191176 0.00049019608
0.69705882 0.034987745 0.0039215686
0.74215686 0.031862745 0.0039215686
0.78707108 0.015257353 0.0039215686
0.83578431 0 0
0.87395833 0 0
0.91053922 0.00049019608 0
0.94705882 0.00049019608 0
0.97107843 0 0
0.99019608 0 0
0.99264706 0 0
0.10588235 0.21470588 0.024509804
0.11617647 0.21568627 0.01752451
0.13602941 0.21862745 0.011029412
0.15980392 0.21568627 0.0078431373
0.18529412 0.21470588 0.0068627451
0.22463235 0.21176471 0.0042892157
0.27058824 0.21176471 0.0078431373
0.31715686 0.21078431 0.0078431373
0.37156863 0.21372549 0.0078431373
0.42696078 0.21764706 0.006004902
0.47843137 0.21642157 0.0056372549
0.52634804 0.19546569 0.0088235294
0.57892157 0.17254902 0.0078431373
0.62879902 0.15012255 0.0039215686
0.67352941 0.13039216 0.0039215686
0.71654412 0.11948529 0.0067401961
0.7627451 0.1245098 0.0039215686
0.80637255 0.097058824 0.0039215686
0.84926471 0.049264706 0
0.88762255 0.040073529 0
0.92401961 0.039705882 0
0.96078431 0.015808824 0
0.98137255 0.0098039216 0
0.99938725 0.0011029412 0
0.99901961 0.0029411765 0
0.10588235 0.25833333 0.010294118
0.11470588 0.26078431 0.0078431373
0.13737745 0.26078431 0.0078431373
0.16501225 0.26078431 0.0078431373
0.19411765 0.25955882 0.0078431373
0.2254902 0.25833333 0.006372549
0.2685049 0.25833333 0.0057598039
0.3216299 0.26372549 0.0039215686
0.38039216 0.27009804 0.0039215686
0.43578431 0.27493873 0.0039215686
0.48872549 0.27732843 0.0024509804
0.54166667 0.26697304 0.0037377451
0.59705882 0.25686275 0.0051470588
0.64803922 0.24362745 0.0078431373
0.69166667 0.22303922 0.0039215686
0.73578431 0.21715686 0.0039215686
0.78333333 0.21862745 0.0039215686
0.82843137 0.20882353 0.00091911765
0.8692402 0.1935049 0
0.90557598 0.17928922 0
0.93529412 0.15294118 0
0.96354167 0.12303922 0
0.98235294 0.11384804 0
0.99607843 0.12401961 0
1 0.13039216 0
0.10588235 0.30588235 0
0.11078431 0.30196078 0
0.13921569 0.30196078 0.0039215686
0.16715686 0.30196078 0.0078431373
0.19411765 0.30196078 0.0058823529
0.22156863 0.30588235 0.0034313725
0.26862745 0.30588235 0
0.32107843 0.31372549 0.0039215686
0.37254902 0.31764706 0.0039215686
0.43186275 0.32401961 0.0014705882
0.4872549 0.3254902 0
0.54607843 0.32941176 0
0.60588235 0.32941176 0.0039215686
0.66127451 0.325 0.0039215686
0.70882353 0.31568627 0.0039215686
0.75098039 0.30588235 0.0039215686
0.8 0.30980392 0
0.84509804 0.30735294 0
0.88235294 0.29313725 0
0.9127451 0.27941176 0
0.9372549 0.26666667 0
0.9622549 0.24656863 0
0.97941176 0.24607843 0
0.98970588 0.25784314 0
1 0.27058824 0
0.095588235 0.35098039 0
0.10441176 0.3495098 0
0.13345588 0.34705882 0.0039215686
0.16078431 0.34705882 0.0039215686
0.18897059 0.34705882 0.0039215686
0.22107843 0.34705882 0
0.26323529 0.35036765 0
0.31776961 0.36127451 0.003002451
0.3622549 0.36519608 0
0.42009804 0.37003676 0
0.4814951 0.37120098 0.0028186275
0.54215686 0.37432598 0.0039215686
0.60147059 0.37843137 0.0039215686
0.6591299 0.38265931 0.0039215686
0.71605392 0.38872549 0.00036764706
0.76519608 0.39123775 0
0.80784314 0.38186275 0
0.85392157 0.38039216 0
0.89803922 0.38296569 0
0.9254902 0.36813725 0
0.94362745 0.35735294 0
0.96568627 0.34724265 0.0024509804
0.97941176 0.34693627 0.0024509804
0.99270833 0.34901961 0.0024509804
1 0.34656863 0.0024509804
0.081372549 0.39607843 0
0.096568627 0.3942402 0
0.12426471 0.39289216 0
0.15183824 0.39215686 0.0029411765
0.18431373 0.38872549 0
0.22107843 0.38823529 0
0.25882353 0.39117647 0
0.30723039 0.39754902 0
0.35294118 0.40784314 0
0.40980392 0.41237745 0
0.47156863 0.41593137 0.0031862745
0.53333333 0.41960784 0.0039215686
0.59313725 0.42401961 0.0039215686
0.65245098 0.4314951 0.0034313725
0.70784314 0.43848039 0
0.75931373 0.4435049 0
0.80686275 0.44411765 0
0.85833333 0.4504902 0
0.90980392 0.46446078 0
0.93676471 0.4564951 0
0.95147059 0.43970588 0.0019607843
0.9692402 0.42892157 0.0039215686
0.98406863 0.42254902 0.0039215686
0.99607843 0.42254902 0.0039215686
1 0.41862745 0.0039215686
0.06372549 0.4372549 0
0.08627451 0.4372549 0
0.12058824 0.4372549 0
0.14754902 0.43425245 0
0.18406863 0.43308824 0
0.21807598 0.42941176 0
0.25882353 0.43235294 0
0.30392157 0.43872549 0
0.3495098 0.44901961 0
0.403125 0.45539216 0
0.46127451 0.46078431 0
0.52303922 0.46464461 0.0034926471
0.58112745 0.47034314 0.0039215686
0.64215686 0.47689951 0.0034313725
0.69754902 0.48419118 0
0.74901961 0.48952206 0
0.79656863 0.49558824 0
0.84803922 0.50196078 0
0.89595588 0.50784314 0
0.93927696 0.50784314 0
0.95686275 0.49754902 0.0019607843
0.97647059 0.48768382 0.0039215686
0.9872549 0.49105392 0.0068627451
0.99607843 0.49332108 0.0039215686
1 0.49068627 0.0039215686
0.052941176 0.47843137 0
0.08627451 0.47843137 0
0.12254902 0.47794118 0
0.15539216 0.4745098 0
0.18823529 0.47058824 0
0.22107843 0.47083333 0
0.25539216 0.4745098 0
0.30147059 0.47990196 0
0.34901961 0.48627451 0
0.4004902 0.49656863 0
0.45686275 0.50294118 0
0.51495098 0.50955882 0
0.57156863 0.51862745 0
0.62843137 0.52377451 0
0.6872549 0.52892157 0
0.73872549 0.53480392 0
0.78627451 0.54117647 0
0.83455882 0.54828431 0
0.88529412 0.55343137 0
0.93480392 0.55833333 0
0.96470588 0.55392157 0
0.98088235 0.55294118 0.0039215686
0.9877451 0.55294118 0.0039215686
0.99607843 0.55833333 0.0039215686
1 0.55882353 0.0039215686
0.075490196 0.51960784 0
0.098529412 0.51960784 0
0.12892157 0.51862745 0
0.16323529 0.51568627 0
0.19411765 0.51176471 0
0.2254902 0.51176471 0
0.26017157 0.51519608 0
0.30177696 0.51715686 0
0.34901961 0.52696078 0
0.39656863 0.5377451 0
0.45159314 0.54705882 0
0.50686275 0.55441176 0
0.5622549 0.5629902 0
0.61813725 0.57058824 0
0.67610294 0.5745098 0
0.72873775 0.58020833 0
0.77647059 0.58676471 0
0.82745098 0.59411765 0
0.8754902 0.59901961 0
0.92696078 0.60588235 0
0.96985294 0.61348039 0
0.97696078 0.61029412 0.0034313725
0.98688725 0.61323529 0.0039215686
0.99362745 0.61960784 0.0039215686
1 0.62598039 0.0039215686
0.096078431 0.56078431 0
0.11727941 0.56078431 0
0.14289216 0.55759804 0
0.17009804 0.55686275 0
0.19803922 0.55686275 0
0.23186275 0.55588235 0
0.26740196 0.55294118 0
0.30723039 0.55502451 0
0.35196078 0.56176471 0
0.39767157 0.57205882 0
0.45122549 0.58235294 0
0.50343137 0.59264706 0
0.55882353 0.59901961 0
0.61470588 0.60539216 0
0.67254902 0.6125 0
0.725 0.62169118 0
0.77254902 0.63137255 0
0.82401961 0.63529412 0
0.87156863 0.64019608 0
0.92009804 0.64656863 0
0.95637255 0.6495098 0
0.97389706 0.65232843 0
0.98333333 0.65808824 0
0.99068627 0.66703431 0
1 0.67058824 0
0.11127451 0.60196078 0
0.13278186 0.60196078 0
0.15845588 0.59803922 0
0.18216912 0.59803922 0
0.20612745 0.6 0
0.23823529 0.59932598 0
0.27598039 0.59803922 0
0.31715686 0.59803922 0
0.35833333 0.6004902 0
0.4028799 0.60833333 0
0.45343137 0.61715686 0
0.50735294 0.62371324 0
0.55955882 0.63259804 0
0.61470588 0.64019608 0
0.66960784 0.64865196 0
0.72107843 0.65686275 0
0.77254902 0.66715686 0
0.82009804 0.67254902 0
0.86727941 0.67708333 0
0.90900735 0.68039216 0
0.94019608 0.68431373 0
0.96421569 0.68854167 0
0.97794118 0.6939951 0
0.98823529 0.70091912 0
0.99607843 0.70637255 0
0.1254902 0.64705882 0
0.15245098 0.64313725 0
0.17941176 0.63921569 0
0.20637255 0.63921569 0.0039215686
0.23333333 0.63921569 0.0039215686
0.26029412 0.63921569 0.0034313725
0.29411765 0.63921569 0
0.33137255 0.63921569 0
0.36862745 0.64313725 0
0.40980392 0.64558824 0
0.45980392 0.65196078 0
0.51127451 0.65833333 0
0.5627451 0.66470588 0
0.61813725 0.675 0
0.66960784 0.68137255 0
0.72107843 0.69166667 0
0.76862745 0.70196078 0
0.81617647 0.70833333 0
0.86176471 0.71372549 0
0.89656863 0.71715686 0
0.93137255 0.72156863 0
0.95784314 0.72205882 0
0.9745098 0.72843137 0
0.98578431 0.73333333 0
0.99607843 0.7372549 0
0.17696078 0.68823529 0
0.19117647 0.68431373 0.0039215686
0.21666667 0.68223039 0.0039215686
0.24411765 0.68039216 0.0039215686
0.27132353 0.68039216 0.0083333333
0.29491422 0.68039216 0.0098039216
0.32598039 0.68039216 0.0039215686
0.3622549 0.68039216 0.003370098
0.3995098 0.68039216 0.0024509804
0.43523284 0.68431373 0.0015318627
0.47377451 0.68823529 0
0.51795343 0.69344363 0
0.56911765 0.6995098 0
0.62077206 0.70802696 0
0.67352941 0.71617647 0
0.72261029 0.72591912 0
0.76862745 0.73284314 0
0.81709559 0.73921569 0.0024509804
0.86066176 0.74558824 0.0035539216
0.89871324 0.75067402 0.00030637255
0.93455882 0.75490196 0
0.95784314 0.75686275 0
0.97156863 0.76213235 0
0.98425245 0.76421569 0
0.99607843 0.76813725 0
0.23235294 0.72941176 0.0039215686
0.24154412 0.72757353 0.0039215686
0.26102941 0.7254902 0.0049019608
0.28872549 0.7254902 0.0074754902
0.30980392 0.72156863 0.014215686
0.33345588 0.71764706 0.015196078
0.36151961 0.72156863 0.0078431373
0.39558824 0.72156863 0.0045343137
0.43039216 0.72156863 0.0039215686
0.46519608 0.7254902 0.0039215686
0.50073529 0.72647059 0.0039215686
0.53823529 0.73198529 0.0013480392
0.57990196 0.73676471 0
0.62647059 0.74166667 0
0.67745098 0.75098039 0
0.725 0.75796569 0.00036764706
0.77352941 0.76372549 0.0039215686
0.82218137 0.77156863 0.0078431373
0.86348039 0.77647059 0.0078431373
0.9004902 0.78284314 0.0040441176
0.9377451 0.78921569 0
0.95735294 0.79117647 0
0.97058824 0.79411765 0
0.98333333 0.79546569 0
0.99607843 0.79901961 0
0.2877451 0.77058824 0.0039215686
0.29626225 0.77058824 0.0060661765
0.31311275 0.7692402 0.0078431373
0.33039216 0.76666667 0.0078431373
0.35098039 0.76446078 0.019362745
0.37156863 0.76231618 0.018627451
0.39901961 0.7627451 0.011397059
0.43039216 0.7627451 0.006372549
0.46127451 0.76617647 0.0039215686
0.49607843 0.76666667 0.0052083333
0.53088235 0.76764706 0.0039215686
0.5661152 0.77058824 0.0039215686
0.60465686 0.7747549 0.0036764706
0.64019608 0.77935049 0
0.67830882 0.78578431 0
0.72843137 0.79068627 0.0039215686
0.77990196 0.79460784 0.0078431373
0.8254902 0.80245098 0.011764706
0.86666667 0.80735294 0.011642157
0.90435049 0.81372549 0.0078431373
0.93921569 0.81838235 0.0056372549
0.95735294 0.82205882 0.0034313725
0.97156863 0.825 0
0.98547794 0.82745098 0
0.99607843 0.82990196 0
0.34313725 0.81568627 0.0058823529
0.34877451 0.81446078 0.0078431373
0.36372549 0.81176471 0.012254902
0.37573529 0.80808824 0.0085784314
0.39411765 0.80392157 0.021568627
0.4127451 0.80392157 0.019117647
0.43676471 0.80392157 0.012254902
0.46519608 0.80392157 0.0078431373
0.49607843 0.80784314 0.0078431373
0.52769608 0.80784314 0.0085784314
0.56176471 0.80833333 0.006372549
0.59656863 0.81176471 0.0095588235
0.63039216 0.81372549 0.0088235294
0.66642157 0.81593137 0.0056372549
0.7004902 0.81911765 0.0024509804
0.74068627 0.82303922 0.0053921569
0.78823529 0.82941176 0.011764706
0.83137255 0.83333333 0.01495098
0.87254902 0.83823529 0.016176471
0.91029412 0.84460784 0.017647059
0.94117647 0.84803922 0.0088235294
0.96127451 0.85294118 0.017156863
0.97303922 0.85588235 0.0088235294
0.98578431 0.86078431 0.0031862745
0.99607843 0.86470588 0
0.39460784 0.85294118 0.0078431373
0.39705882 0.85686275 0.0060661765
0.41127451 0.85294118 0.017156863
0.42113971 0.8495098 0.0088235294
0.4375 0.84534314 0.021568627
0.45392157 0.84509804 0.019117647
0.47708333 0.84509804 0.014338235
0.50030637 0.84509804 0.006372549
0.53137255 0.84901961 0.0078431373
0.56176471 0.84901961 0.0093137255
0.59264706 0.84901961 0.0078431373
0.62352941 0.84901961 0.012193627
0.65612745 0.85245098 0.012009804
0.68964461 0.85251225 0.0082720588
0.72352941 0.85294118 0.0039215686
0.76109069 0.85814951 0.0075367647
0.80490196 0.86421569 0.011764706
0.84558824 0.86685049 0.015196078
0.88272059 0.87205882 0.022426471
0.91617647 0.8754902 0.02064951
0.94338235 0.87794118 0.011519608
0.96525735 0.88039216 0.027389706
0.97598039 0.88639706 0.015318627
0.98970588 0.89136029 0.006372549
1 0.89509804 0
0.44607843 0.89411765 0.0078431373
0.44669118 0.89803922 0.0020833333
0.45906863 0.89411765 0.016666667
0.46911765 0.8932598 0.0084558824
0.48186275 0.88970588 0.014705882
0.49509804 0.88627451 0.012254902
0.51568627 0.8870098 0.0085784314
0.5377451 0.88737745 0.0045343137
0.56568627 0.89019608 0.0078431373
0.59375 0.89019608 0.0093137255
0.62352941 0.89019608 0.0078431373
0.65441176 0.89019608 0.014828431
0.68235294 0.89019608 0.015196078
0.71617647 0.89019608 0.013848039
0.74779412 0.89093137 0.0039215686
0.78039216 0.89448529 0.0039215686
0.82156863 0.89901961 0.0078431373
0.85698529 0.89901961 0.0099264706
0.89215686 0.90294118 0.020343137
0.92009804 0.90637255 0.018504902
0.94852941 0.90735294 0.0083333333
0.97254902 0.91078431 0.03002451
0.98627451 0.91397059 0.012009804
0.99362745 0.91568627 0.0045343137
0.99607843 0.91568627 0.0029411765
0.49901961 0.93235294 0.033823529
0.50594363 0.93382353 0.067708333
0.51470588 0.93382353 0.07622549
0.51862745 0.93382353 0.03247549
0.52965686 0.92990196 0.034803922
0.54295343 0.92990196 0.032046569
0.55980392 0.92990196 0.023897059
0.58039216 0.93045343 0.022610294
0.60343137 0.92745098 0.026470588
0.62800245 0.92745098 0.011519608
0.65441176 0.92745098 0.0087009804
0.68186275 0.92745098 0.022365196
0.71151961 0.92671569 0.020588235
0.74166667 0.92616422 0.03002451
0.77254902 0.92928922 0.0011029412
0.80343137 0.93137255 0.0014705882
0.83676471 0.93382353 0.0014705882
0.86764706 0.93382353 0.0053921569
0.89852941 0.93382353 0.016789216
0.92598039 0.93756127 0.0056372549
0.95367647 0.9377451 0.0066176471
0.97941176 0.9377451 0.013235294
0.99656863 0.94129902 0.010294118
0.99846814 0.94166667 0.0041053922
1 0.94166667 0.0073529412
0.56078431 0.95686275 0.18039216
0.56617647 0.96078431 0.19656863
0.57254902 0.96078431 0.20294118
0.58333333 0.96421569 0.20294118
0.58627451 0.96078431 0.17843137
0.60098039 0.96078431 0.17696078
0.61568627 0.96176471 0.18039216
0.63186275 0.96078431 0.17156863
0.65098039 0.95686275 0.16470588
0.66127451 0.95294118 0.12745098
0.69901961 0.96078431 0.16176471
0.71617647 0.95686275 0.1372549
0.74509804 0.95882353 0.1372549
0.77009804 0.95686275 0.12254902
0.80196078 0.95784314 0.13333333
0.8254902 0.95686275 0.12990196
0.85490196 0.96078431 0.14509804
0.88333333 0.96078431 0.14509804
0.91176471 0.96078431 0.15294118
0.93627451 0.96127451 0.15147059
0.96078431 0.95882353 0.1372549
0.98529412 0.96470588 0.16617647
0.99705882 0.96568627 0.17254902
1 0.96862745 0.18382353
1 0.96470588 0.16470588
0.069117647 0.029901961 0.029901961
0.089705882 0.033823529 0.031433824
0.11568627 0.037132353 0.032352941
0.13627451 0.035294118 0.032352941
0.16862745 0.029411765 0.034313725
0.20410539 0.019117647 0.035784314
0.23811275 0.010661765 0.032352941
0.27738971 0.0054534314 0.032352941
0.32156863 0.0039215686 0.037745098
0.36758578 0.0048406863 0.048039216
0.40931373 0.0072303922 0.055514706
0.45637255 0.0039215686 0.051470588
0.50784314 0.0039215686 0.040441176
0.55508578 0.0012867647 0.029718137
0.6 0 0.027328431
0.64417892 0 0.023958333
0.69019608 0 0.016666667
0.73137255 0 0.0072916667
0.77291667 0 0.0006127451
0.81764706 0 0.0037377451
0.86151961 0 0.0075980392
0.90392157 0 0.010294118
0.94620098 0 0.010294118
0.98235294 0 0.010294118
0.99607843 0 0.0078431373
0.079411765 0.048039216 0.029901961
0.0942019 0.048039216 0.031433824
0.11606924 0.047058824 0.029901961
0.13780637 0.041375613 0.032352941
0.17061887 0.03627451 0.032352941
0.20913756 0.031862745 0.033639706
0.24448529 0.024341299 0.032352941
0.28284314 0.0097426471 0.030821078
0.32640931 0.0048406863 0.035294118
0.37185202 0.0080729167 0.042585784
0.41629902 0.011151961 0.047058824
0.46341146 0.0044117647 0.046254596
0.51421569 0.0039215686 0.036335784
0.56127451 0.0039215686 0.028722426
0.6057598 0.0028186275 0.024509804
0.64901961 0 0.021162684
0.69656863 0 0.016666667
0.74166667 0 0.0088005515
0.78390012 0 0.003370098
0.8254902 0 0.0038526348
0.86666667 0 0.006372549
0.90876225 0 0.0087622549
0.94741115 0 0.0078431373
0.98200827 0 0.0048406863
0.99454657 0 0.0039215686
0.091176471 0.073161765 0.032352941
0.09833027 0.07254902 0.030821078
0.11865809 0.069362745 0.030974265
0.14483762 0.065686275 0.032352941
0.17726716 0.059987745 0.032352941
0.21631434 0.05356924 0.032352941
0.25242034 0.046446078 0.031893382
0.28921569 0.03002451 0.029901961
0.33186275 0.015196078 0.032843137
0.37797181 0.018137255 0.033226103
0.42432598 0.018259804 0.036764706
0.47218137 0.0058823529 0.036764706
0.52028186 0.0042892157 0.030453431
0.56813725 0.0045343137 0.025796569
0.61568627 0.0039215686 0.021415441
0.66176471 0 0.019286152
0.70686275 0 0.016666667
0.75196078 0 0.011351103
0.79705882 0 0.006372549
0.83586091 0 0.0061427696
0.87426471 0 0.006372549
0.91413909 0 0.0062959559
0.95101103 0 0.0043811275
0.97941176 0 0.0039215686
0.99178922 0 0.0039215686
0.098039216 0.1004902 0.032352941
0.10311734 0.096683517 0.032352941
0.12215074 0.094745711 0.032352941
0.15101869 0.096568627 0.032352941
0.18342525 0.095098039 0.030637255
0.22091759 0.08560049 0.028921569
0.25845588 0.075490196 0.028477328
0.2973652 0.061090686 0.027810968
0.34068627 0.049203431 0.026286765
0.3848652 0.038120404 0.02488511
0.43186275 0.023713235 0.026470588
0.47943474 0.011090686 0.031211703
0.53072917 0.010202206 0.026960784
0.57955729 0.0096966912 0.0223269
0.62634804 0.0061427696 0.019025735
0.67205882 0.0015318627 0.018137255
0.71715686 0 0.016666667
0.7622549 0 0.013296569
0.80735294 0 0.0073376225
0.8463848 0 0.0044960172
0.88651961 0 0.0042279412
0.92401961 0 0.0039215686
0.95416667 0.0035692402 0.0039215686
0.97794118 0.0021446078 0.00049019608
0.98823529 0 0.0039215686
0.10196078 0.13063725 0.031862745
0.11109069 0.12941176 0.031893382
0.12830882 0.12941176 0.032169118
0.15490196 0.13112745 0.028431373
0.18296569 0.13039216 0.026102941
0.22009804 0.12181373 0.024509804
0.26060049 0.11348039 0.023590686
0.30435049 0.10637255 0.022089461
0.34852941 0.097303922 0.019362745
0.39776348 0.088664216 0.019852941
0.44613971 0.071507353 0.022058824
0.49387255 0.052113971 0.026623775
0.54313725 0.035661765 0.023039216
0.59010417 0.019117647 0.019209559
0.63664216 0.0071691176 0.015931373
0.68082108 0.0022671569 0.016666667
0.72745098 0.0026960784 0.016666667
0.77300858 0.0031862745 0.012683824
0.81887255 0 0.0057598039
0.85891544 0 0.0039215686
0.89754902 0.0006127451 0.0039215686
0.9356924 0 0.0038296569
0.96470588 0.0049632353 0.00030637255
0.98259804 0.0039215686 0
0.99142157 0.0039215686 0
0.10588235 0.16715686 0.034803922
0.1172258 0.17070313 0.028676471
0.13517157 0.17077206 0.027941176
0.15991115 0.17061121 0.026815257
0.18489583 0.16887255 0.024509804
0.22189798 0.16642157 0.020366115
