site/assets/luts/natron-haldclut--fuji-fp-100c-cool---a14af4b24.cube
# LUTr-Project: LUTr — LUTrepository
# LUTr-Schema-Version: 1
# LUTr-ID: natron-haldclut--fuji-fp-100c-cool---a14af4b24
# LUTr-Title: fuji fp-100c cool --
# LUTr-Collection: Natron HaldCLUT
# LUTr-Collection-ID: natron-haldclut-presets
# LUTr-Source: https://github.com/NatronGitHub/clut
# LUTr-Source-File: submissions/natron-haldclut-presets/instant_pro/fuji_fp-100c_cool_--.png
# LUTr-Source-Format: PNG
# LUTr-Source-SHA256: e597532dcdc6c179ccdf8391b640507aa4ebcfbce0b0c71a791f39800f04c70f
# LUTr-License: CC-BY-SA-4.0
# LUTr-License-URL: https://github.com/NatronGitHub/clut#license
# LUTr-Tags: creative, film, film-emulation, hald-clut, natron, png, cool, cube
# LUTr-Transform-Class: film-emulation
# LUTr-Input-Color-Space: srgb
# LUTr-Output-Color-Space: srgb
# LUTr-Color-Space-Confidence: assumed-display-referred
# LUTr-Conversion-Method: PNG LUT image decoded at 16-bit and sampled to 25x25x25 3D CUBE
# LUTr-Conversion-Date: 2026-07-27
# LUTr-Conversion-Tool: LUTr scripts/convert-all-to-cube.mjs
# LUTr-Conversion-Grid: 25x25x25
# LUTr-Note: Preserve this metadata and the upstream license notices when redistributing.
TITLE "fuji fp-100c cool --"
LUT_3D_SIZE 5
DOMAIN_MIN 0 0 0
DOMAIN_MAX 1 1 1
0 0 0
0.16862745 0.0088235294 0.011764706
0.5254902 0.0039215686 0.025490196
0.82352941 0.0039215686 0.035294118
0.99607843 0.082352941 0
0.0039215686 0.19607843 0.011764706
0.16421569 0.22352941 0.013970588
0.60441176 0.21813725 0.0044117647
0.84901961 0.19779412 0.013970588
0.99117647 0.28431373 0.0039215686
0 0.49607843 0.0058823529
0.00049019608 0.48627451 0.00098039216
0.51862745 0.51764706 0
0.83676471 0.53382353 0.0029411765
0.99607843 0.57647059 0.011764706
0 0.7245098 0.014705882
0.014705882 0.71446078 0.0068627451
0.43039216 0.71764706 0.0039215686
0.74901961 0.74117647 0
0.98431373 0.77941176 0.0078431373
0.4 0.97254902 0.40392157
0.46568627 0.96568627 0.40098039
0.62941176 0.95882353 0.40588235
0.80294118 0.96960784 0.33823529
0.99215686 0.98431373 0.1372549
0.0039215686 0.024509804 0.22254902
0.23455882 0.0031862745 0.24534314
0.4995098 0.018627451 0.22107843
0.81568627 0 0.19926471
0.99607843 0.078431373 0.19607843
0 0.22230392 0.25686275
0.23137255 0.25588235 0.27273284
0.59742647 0.23860294 0.24252451
0.84123775 0.22898284 0.21734069
0.99607843 0.30416667 0.21397059
0 0.53970588 0.26960784
0.05625 0.53860294 0.24705882
0.55294118 0.54338235 0.17230392
0.84411765 0.55281863 0.19987745
0.99411765 0.58039216 0.26078431
0.0029411765 0.74093137 0.23455882
0.01127451 0.73627451 0.23216912
0.46262255 0.72843137 0.1995098
0.75661765 0.75349265 0.015134804
0.98823529 0.78333333 0.046078431
0.37647059 0.96960784 0.45882353
0.44705882 0.96470588 0.45686275
0.61470588 0.95196078 0.46078431
0.80294118 0.97328431 0.43235294
0.99019608 0.98137255 0.25784314
0.0078431373 0.0078431373 0.53333333
0.30882353 0 0.57058824
0.7254902 0.0019607843 0.62156863
0.76813725 0.14558824 0.50980392
0.98627451 0.15294118 0.49607843
0.00049019608 0.20539216 0.5122549
0.27977941 0.21507353 0.56421569
0.71397059 0.18872549 0.61985294
0.78541667 0.33468137 0.52303922
0.97156863 0.28186275 0.48529412
0.0039215686 0.53039216 0.55
0.28872549 0.5747549 0.58039216
0.62843137 0.61176471 0.59705882
0.8245098 0.58235294 0.55490196
0.98333333 0.56078431 0.50588235
0.15147059 0.78333333 0.57745098
0.34019608 0.78835784 0.5745098
0.52598039 0.77254902 0.52598039
0.77696078 0.77794118 0.46470588
0.99264706 0.80637255 0.51421569
0.34509804 0.97058824 0.60980392
0.41715686 0.97647059 0.60441176
0.59803922 0.96960784 0.60098039
0.78970588 0.96568627 0.58431373
0.99019608 0.98235294 0.49803922
0.22254902 0 0.76470588
0.42352941 0.0017156863 0.78651961
0.73970588 0 0.82794118
0.95686275 0.0080882353 0.82769608
0.98137255 0.35 0.76470588
0.2002451 0.19019608 0.75392157
0.40067402 0.16666667 0.77677696
0.72058824 0.078308824 0.82144608
0.96078431 0.20196078 0.8435049
0.97156863 0.45196078 0.77058824
0.015686275 0.45784314 0.71764706
0.20588235 0.45759804 0.71470588
0.61764706 0.52107843 0.78210784
0.89252451 0.59926471 0.82794118
0.93872549 0.63431373 0.77598039
0.25318627 0.74411765 0.75882353
0.37843137 0.74803922 0.75980392
0.59166667 0.77610294 0.77708333
0.82101716 0.83584559 0.81887255
0.95490196 0.81078431 0.78333333
0.4745098 0.98333333 0.85392157
0.4870098 0.94730392 0.83259804
0.63382353 0.96911765 0.82745098
0.77941176 0.97254902 0.79215686
0.98529412 0.9872549 0.75392157
0.60392157 0.14901961 0.98431373
0.66568627 0.10882353 0.98921569
0.80392157 0.0039215686 0.98431373
0.96176471 0.011764706 0.96078431
0.99607843 0.18823529 0.99607843
0.58039216 0.32156863 0.9754902
0.63823529 0.30980392 0.97794118
0.79803922 0.26862745 0.99019608
0.98235294 0.19828431 0.99607843
0.99607843 0.36568627 0.99215686
0.44117647 0.53529412 0.96078431
0.5122549 0.54019608 0.95784314
0.71764706 0.54509804 0.97254902
0.92647059 0.55686275 0.98578431
0.99607843 0.62352941 0.96862745
0.35980392 0.77352941 0.95
0.40980392 0.76862745 0.94681373
0.54166667 0.75637255 0.94607843
0.8127451 0.78602941 0.95637255
0.97647059 0.84607843 0.95
0.57647059 0.96862745 0.98039216
0.59411765 0.96470588 0.97647059
0.68235294 0.96862745 0.97647059
0.80098039 0.95980392 0.97156863
0.98823529 0.96470588 0.98431373
