site/assets/luts/natron-haldclut--vibrant--0b34c2865.cube
# LUTr-Project: LUTr — LUTrepository
# LUTr-Schema-Version: 1
# LUTr-ID: natron-haldclut--vibrant--0b34c2865
# LUTr-Title: vibrant
# LUTr-Collection: Natron HaldCLUT
# LUTr-Collection-ID: natron-haldclut-presets
# LUTr-Source: https://github.com/NatronGitHub/clut
# LUTr-Source-File: submissions/natron-haldclut-presets/various/vibrant.png
# LUTr-Source-Format: PNG
# LUTr-Source-SHA256: 2a0338351af9a9bf0748b8cd8cded05d9417f1154e35e82df683a1dfe91f850d
# LUTr-License: CC-BY-SA-4.0
# LUTr-License-URL: https://github.com/NatronGitHub/clut#license
# LUTr-Tags: creative, film, film-emulation, hald-clut, natron, png, cube
# LUTr-Transform-Class: film-emulation
# LUTr-Input-Color-Space: srgb
# LUTr-Output-Color-Space: srgb
# LUTr-Color-Space-Confidence: assumed-display-referred
# LUTr-Conversion-Method: PNG LUT image decoded at 16-bit and sampled to 25x25x25 3D CUBE
# LUTr-Conversion-Date: 2026-07-27
# LUTr-Conversion-Tool: LUTr scripts/convert-all-to-cube.mjs
# LUTr-Conversion-Grid: 25x25x25
# LUTr-Note: Preserve this metadata and the upstream license notices when redistributing.
TITLE "vibrant"
LUT_3D_SIZE 25
DOMAIN_MIN 0 0 0
DOMAIN_MAX 1 1 1
0 0.0039215686 0
0 0.0039215686 0
0 0 0.0039215686
0.0034313725 0 0.0039215686
0.035294118 0 0.0039215686
0.076470588 0 0.0034313725
0.1245098 0 0
0.21323529 0.0014705882 0.0014705882
0.31372549 0.0039215686 0.0039215686
0.42303922 0.0039215686 0.0039215686
0.52745098 0.0039215686 0.0029411765
0.62352941 0 0
0.69215686 0 0
0.76029412 0 0
0.82941176 0 0
0.8872549 0.0014705882 0
0.94117647 0.0039215686 0.0039215686
0.97598039 0.0039215686 0.024509804
0.99607843 0.0039215686 0
0.99607843 0.0078431373 0
0.99607843 0.0078431373 0.0039215686
0.99607843 0.0078431373 0.0039215686
0.99607843 0.0039215686 0.00098039216
0.99607843 0.0039215686 0.0039215686
0.99607843 0.0039215686 0.0039215686
0 0.0039215686 0.0024509804
0 0.0039215686 0.0024509804
0 0 0.0039215686
0 0 0.0039215686
0.025 0 0.0039215686
0.073039216 0 0.0039215686
0.13676471 0.0029411765 0.006372549
0.22261029 0.0039215686 0.010294118
0.32009804 0.0039215686 0.006372549
0.4245098 0.0039215686 0.0039215686
0.52990196 0.0039215686 0.0011029412
0.62696078 0 0
0.69338235 0.0024509804 0.0044117647
0.76158088 0.0021446078 0.0045955882
0.83125 0 0.0006127451
0.88970588 0.0014705882 0.0024509804
0.94117647 0.0039215686 0.006372549
0.97598039 0.0039215686 0.022058824
0.99607843 0.0039215686 0
0.99607843 0.0078431373 0
0.99607843 0.0078431373 0.0039215686
0.99607843 0.0078431373 0.0039215686
0.99607843 0.0039215686 0.00098039216
0.99607843 0.0039215686 0.0014705882
0.99607843 0.0039215686 0.0039215686
0.00098039216 0.0088235294 0.011764706
0 0.006004902 0.0082107843
0 0.0031862745 0.0046568627
0 0 0.0039215686
0.018627451 0 0.0039215686
0.075 0.00012254902 0.0053921569
0.15171569 0.0039215686 0.014705882
0.23443627 0.0039215686 0.024509804
0.33039216 0.0039215686 0.020588235
0.43333333 0.0039215686 0.010294118
0.53529412 0.0039215686 0.0046568627
0.6310049 0.00098039216 0.00098039216
0.69509804 0.0039215686 0.0098039216
0.76115196 0.0039215686 0.011397059
0.83235294 0.0017156863 0.0049019608
0.8939951 0.0039215686 0.0039215686
0.94509804 0.0088235294 0.0088235294
0.97598039 0.0082107843 0.013602941
0.99705882 0.0056372549 0.00073529412
1 0.0078431373 0.0039215686
0.99803922 0.011764706 0.0039215686
0.99607843 0.0087009804 0.0039215686
0.99607843 0.0041666667 0
0.99607843 0.0039215686 0
0.99607843 0.0039215686 0
0.0039215686 0.015196078 0.0083333333
0.0036151961 0.013051471 0.0080269608
0 0.0077205882 0.0078431373
0 0.00042892157 0.0039215686
0.01372549 0 0.0039215686
0.085294118 0.0039215686 0.0083333333
0.15821078 0.010294118 0.015196078
0.23578431 0.014889706 0.020098039
0.33333333 0.01127451 0.020098039
0.44019608 0.0078431373 0.020588235
0.54264706 0.0073529412 0.014215686
0.63180147 0.010784314 0.01127451
0.70147059 0.012990196 0.020833333
0.76764706 0.0069240196 0.011764706
0.83578431 0.0039215686 0.0078431373
0.89754902 0.0039215686 0.0052083333
0.94117647 0.011764706 0.0078431373
0.97598039 0.011458333 0.0078431373
1 0.0078431373 0.0039215686
1 0.010845588 0.0039215686
1 0.013480392 0.0039215686
0.99607843 0.015196078 0.0039215686
0.99607843 0.014828431 0.0035539216
0.99607843 0.014705882 0.0021446078
0.99607843 0.014705882 0
0.0078431373 0.029411765 0.0019607843
0.0039215686 0.031372549 0.0019607843
0.0039215686 0.030882353 0.0039215686
0 0.02745098 0.0039215686
0.011764706 0.02745098 0.0088235294
0.071813725 0.025490196 0.0075980392
0.14215686 0.026960784 0.0073529412
0.22769608 0.026715686 0.0098039216
0.33529412 0.023529412 0.01372549
0.44656863 0.021568627 0.019607843
0.5504902 0.019607843 0.023039216
0.63357843 0.027205882 0.016176471
0.70980392 0.023529412 0.0088235294
0.77573529 0.019607843 0.0078431373
0.84068627 0.016176471 0.0049019608
0.9 0.015196078 0.0039215686
0.9372549 0.021568627 0.0039215686
0.97205882 0.022303922 0.0039215686
1 0.018137255 0.0039215686
1 0.025 0.0039215686
1 0.031372549 0.0049019608
1 0.035539216 0.0078431373
1 0.039215686 0.006372549
1 0.039215686 0.0039215686
0.99803922 0.039215686 0.0039215686
0.0039215686 0.069117647 0.00049019608
0.0039215686 0.071262255 0
0.0039215686 0.072671569 0.0039215686
0.0039215686 0.07689951 0.0078431373
0.015686275 0.078676471 0.015931373
0.069117647 0.07254902 0.011764706
0.12745098 0.059681373 0.0049019608
0.22432598 0.057843137 0.0053921569
0.33333333 0.06127451 0.0078431373
0.44234069 0.065012255 0.01127451
0.54558824 0.065196078 0.015196078
0.62395833 0.069117647 0.011335784
0.70171569 0.073039216 0.0078431373
0.77113971 0.069117647 0.0078431373
0.84019608 0.066176471 0.0047794118
0.89607843 0.066973039 0.0039215686
0.9372549 0.076960784 0.0044117647
0.971875 0.074509804 0.0039215686
0.99705882 0.069117647 0.0039215686
1 0.069117647 0.0039215686
1 0.069117647 0.0039215686
1 0.069117647 0.0078431373
1 0.065196078 0.0078431373
1 0.070404412 0.0039215686
1 0.076470588 0.0039215686
0.0039215686 0.11666667 0.0039215686
0.0039215686 0.11666667 0.0029411765
0.0039215686 0.11838235 0.0049019608
0.0077205882 0.12414216 0.015196078
0.017647059 0.1254902 0.021078431
0.069117647 0.12144608 0.015563725
0.12745098 0.11666667 0.0088235294
0.22647059 0.1185049 0.0078431373
0.33333333 0.11568627 0.0078431373
0.43688725 0.11568627 0.006004902
0.53897059 0.11740196 0.0078431373
0.62009804 0.12401961 0.0078431373
0.69607843 0.1245098 0.0083333333
0.77120098 0.12058824 0.0074754902
0.84338235 0.11666667 0.0039215686
0.89313725 0.12058824 0.0039215686
0.93333333 0.1245098 0.0078431373
0.97058824 0.1245098 0.0039215686
0.99632353 0.11838235 0.0039215686
1 0.12058824 0.0039215686
1 0.1245098 0.0039215686
1 0.12316176 0.0039215686
1 0.12058824 0.0041666667
1 0.12058824 0.0057598039
0.99607843 0.12156863 0.00098039216
0.0024509804 0.17352941 0.0078431373
0.0039215686 0.16868873 0.014154412
0.0078431373 0.17058824 0.015686275
0.0078431373 0.17481618 0.019607843
0.018382353 0.1747549 0.023529412
0.069117647 0.17401961 0.019117647
0.13039216 0.17855392 0.0088235294
0.22647059 0.18137255 0.0078431373
0.32941176 0.17745098 0.0078431373
0.43572304 0.17352941 0.0078431373
0.53860294 0.17414216 0.0039215686
0.62530637 0.17726716 0.0039215686
0.7 0.17598039 0.006372549
0.7723652 0.17352941 0.0041053922
0.84362745 0.17107843 0.0024509804
0.89068627 0.17352941 0.0039215686
0.93333333 0.17598039 0.0078431373
0.97297794 0.17745098 0.0048406863
0.99816176 0.17598039 0.0039215686
1 0.17598039 0.0039215686
1 0.17598039 0.0039215686
1 0.17598039 0.0039215686
1 0.17598039 0.0039215686
0.99852941 0.17506127 0.0015318627
0.99607843 0.17205882 0
0 0.23529412 0.0078431373
0.0039215686 0.22892157 0.018137255
0.0078431373 0.23333333 0.018627451
0.01127451 0.24313725 0.015196078
0.029411765 0.2372549 0.019607843
0.069117647 0.23578431 0.015196078
0.12745098 0.24215686 0.0049019608
0.22254902 0.24313725 0.0039215686
0.3254902 0.23921569 0.0039215686
0.43088235 0.23529412 0.0039215686
0.54019608 0.23039216 0.0029411765
0.63186275 0.23137255 0
0.7 0.23137255 0.0058823529
0.76764706 0.23578431 0.011764706
0.82941176 0.24313725 0.0088235294
0.88039216 0.24166667 0.0078431373
0.9254902 0.23529412 0.0078431373
0.97696078 0.23137255 0.0039215686
1 0.23137255 0.0039215686
1 0.23137255 0.0039215686
1 0.23137255 0.0039215686
1 0.23186275 0.0039215686
1 0.23529412 0.00098039216
1 0.23921569 0
0.99607843 0.23529412 0
0 0.31372549 0.0078431373
0.0024509804 0.31035539 0.0087622549
0.0049019608 0.30919118 0.0050245098
0.012561275 0.30735294 0.0078431373
0.034803922 0.30416667 0.0125
0.072732843 0.30392157 0.011764706
0.12389706 0.30845588 0.010294118
0.21617647 0.31372549 0.006372549
0.31911765 0.31372549 0.006372549
0.42542892 0.30980392 0.006372549
0.53627451 0.30551471 0.0039215686
0.62941176 0.30441176 0.0037377451
0.69411765 0.30710784 0.0058823529
0.76158088 0.31029412 0.0083333333
0.82193627 0.31703431 0.011764706
0.87101716 0.31856618 0.011764706
0.91911765 0.31372549 0.0078431373
0.97150735 0.30343137 0.0053921569
0.99816176 0.2995098 0.0039215686
1 0.30324755 0.0039215686
1 0.30661765 0.0039215686
1 0.30998775 0.0012867647
1 0.31127451 0
1 0.31127451 0
1 0.31127451 0
0 0.39215686 0.0078431373
0.0018382353 0.39154412 0.0078431373
0.0039215686 0.38627451 0.0078431373
0.006495098 0.37953431 0.0078431373
0.020588235 0.37941176 0.01127451
0.064338235 0.38039216 0.015686275
0.12328431 0.38333333 0.02254902
0.21470588 0.39362745 0.018137255
0.31764706 0.39705882 0.011764706
0.42696078 0.39362745 0.0099264706
0.53112745 0.38995098 0.0085784314
0.62254902 0.39301471 0.0052696078
0.69019608 0.39607843 0.0078431373
0.75894608 0.39705882 0.0091911765
0.82156863 0.39926471 0.011764706
0.87071078 0.39852941 0.011764706
0.92156863 0.39215686 0.0078431373
0.96605392 0.38541667 0.0050245098
0.98921569 0.38014706 0.0039215686
0.99595588 0.38039216 0.0039215686
0.99607843 0.38627451 0
0.99644608 0.39117647 0
1 0.39215686 0
1 0.39313725 0
1 0.39607843 0
0 0.47794118 0.0078431373
0 0.47420343 0.0078431373
0 0.46568627 0.0078431373
0.00042892157 0.45925245 0.0078431373
0.015441176 0.45514706 0.01127451
0.061764706 0.4588848 0.01182598
0.12340686 0.46568627 0.015196078
0.21323529 0.47598039 0.01439951
0.31372549 0.48578431 0.011764706
0.42843137 0.47843137 0.013909314
0.52647059 0.47843137 0.011642157
0.61954657 0.48143382 0.0078431373
0.69387255 0.48406863 0.0078431373
0.75588235 0.48627451 0.0079044118
0.82022059 0.48333333 0.0091911765
0.87745098 0.47873775 0.0081495098
0.9254902 0.4745098 0.0078431373
0.96078431 0.46421569 0.0039215686
0.98186275 0.46262255 0.0039215686
0.99215686 0.4627451 0.00091911765
0.99607843 0.46691176 0
0.99607843 0.47058824 0
0.99901961 0.4745098 0
1 0.48204657 0
1 0.48578431 0
0 0.56666667 0.0039215686
0 0.56666667 0.0039215686
0 0.55784314 0.0039215686
0.0036764706 0.54754902 0.0095588235
0.018627451 0.53921569 0.016666667
0.067647059 0.54166667 0.011764706
0.13431373 0.5504902 0.0078431373
0.21446078 0.56102941 0.0090686275
0.31372549 0.56862745 0.0078431373
0.42254902 0.56470588 0.0098039216
0.525 0.56666667 0.0093137255
0.62303922 0.56666667 0.0078431373
0.7 0.56960784 0.0058823529
0.76176471 0.56838235 0.0078431373
0.82647059 0.56323529 0.0078431373
0.88382353 0.55735294 0.0058823529
0.9254902 0.55098039 0.0039215686
0.95514706 0.54509804 0.0039215686
0.97598039 0.54362745 0.0039215686
0.9877451 0.54509804 0.00049019608
0.99411765 0.54901961 0
0.99607843 0.55343137 0
0.99607843 0.55980392 0
1 0.56544118 0
1 0.57058824 0.0039215686
0 0.65882353 0
0 0.65882353 0
0.00085784314 0.65036765 0.0035539216
0.0039215686 0.63627451 0.010784314
0.017647059 0.62769608 0.015196078
0.074019608 0.62794118 0.010845588
0.14914216 0.63529412 0.0074754902
0.22254902 0.64313725 0.0037377451
0.31372549 0.64705882 0.0034313725
0.41617647 0.64705882 0.0060661765
0.51911765 0.64656863 0.0078431373
0.62254902 0.64613971 0.0044117647
0.70612745 0.64215686 0.0044117647
0.77205882 0.63823529 0.0039215686
0.83382353 0.63443627 0.0039215686
0.89215686 0.63088235 0.0037377451
0.92941176 0.62696078 0.0039215686
0.95833333 0.62089461 0.0039215686
0.97745098 0.62046569 0.0037990196
0.9838848 0.62653186 0
0.99191176 0.63137255 0
0.99607843 0.63578431 0
0.99607843 0.64264706 0
1 0.6408701 0.0014705882
1 0.63480392 0.0039215686
0 0.73137255 0.0068627451
0 0.72843137 0.0068627451
0.0029411765 0.72328431 0.00098039216
0.0039215686 0.71875 0.0039215686
0.014215686 0.71568627 0.0049019608
0.074019608 0.70992647 0.0078431373
0.14901961 0.71151961 0.0039215686
0.22598039 0.71323529 0.0024509804
0.31078431 0.71568627 0.0029411765
0.41384804 0.71568627 0.0039215686
0.51862745 0.71470588 0.0078431373
0.61911765 0.70833333 0.0078431373
0.70441176 0.70539216 0.0078431373
0.77892157 0.70379902 0.0047794118
0.84411765 0.70073529 0.0039215686
0.89215686 0.69938725 0.0024509804
0.93627451 0.69901961 0
0.96531863 0.69620098 0.00098039216
0.97965686 0.69828431 0
0.98431373 0.70281863 0
0.99019608 0.71029412 0
0.99607843 0.71470588 0
0.99607843 0.7125 0
0.99754902 0.70637255 0.0014705882
1 0.7 0.0039215686
0.0039215686 0.7877451 0.0078431373
0.0039215686 0.7877451 0.011764706
0.0039215686 0.78529412 0.0039215686
0.0053921569 0.78529412 0.0039215686
0.019117647 0.78063725 0.0039215686
0.075490196 0.77303922 0.0042279412
0.15 0.77205882 0.0039215686
0.22205882 0.77261029 0.0039215686
0.30980392 0.77745098 0.0039215686
0.41666667 0.77745098 0.0078431373
0.52107843 0.77745098 0.0078431373
0.61568627 0.77371324 0.0078431373
0.70196078 0.76960784 0.0078431373
0.78400735 0.77107843 0.0039215686
0.84497549 0.77107843 0.0039215686
0.89215686 0.77015931 0.0039215686
0.94117647 0.77107843 0
0.97408088 0.77107843 0
0.98137255 0.77352941 0
0.98560049 0.77352941 0
0.99093137 0.77205882 0
0.99607843 0.77028186 0
0.99607843 0.76813725 0
0.9966299 0.76421569 0.0014705882
1 0.76176471 0.0039215686
0.0039215686 0.83921569 0.0039215686
0.0039215686 0.83921569 0.0053921569
0.0049019608 0.83921569 0.0039215686
0.0078431373 0.83921569 0.0039215686
0.021568627 0.83529412 0.0039215686
0.077941176 0.83088235 0.0039215686
0.14607843 0.82745098 0.0039215686
0.22205882 0.82892157 0.0039215686
0.30980392 0.83921569 0.0039215686
0.41666667 0.83529412 0.010294118
0.52352941 0.83529412 0.0078431373
0.61960784 0.83137255 0.0078431373
0.70588235 0.82745098 0.0078431373
0.7872549 0.82352941 0.0039215686
0.84607843 0.82647059 0.0039215686
0.89362745 0.82745098 0.0039215686
0.94117647 0.83137255 0
0.97745098 0.83137255 0
0.98137255 0.83137255 0
0.9877451 0.82745098 0.0039215686
0.99215686 0.82352941 0.0039215686
0.99607843 0.81960784 0
0.99901961 0.81960784 0
1 0.81568627 0
1 0.81568627 0.0039215686
0.0039215686 0.88431373 0.006372549
0.0039215686 0.88431373 0.0078431373
0.0039215686 0.88676471 0.0039215686
0.0052083333 0.88676471 0.0039215686
0.019117647 0.88235294 0.0039215686
0.075306373 0.87892157 0.0039215686
0.14031863 0.87892157 0.0039215686
0.21807598 0.88431373 0.0039215686
0.31617647 0.88823529 0.0039215686
0.42058824 0.88731618 0.0078431373
0.52352941 0.88394608 0.0078431373
0.62303922 0.87941176 0.0041053922
0.70980392 0.87696078 0.0046568627
0.78333333 0.875 0.0039215686
0.8432598 0.875 0.0039215686
0.89515931 0.87555147 0.0039215686
0.9372549 0.87647059 0.0039215686
0.96715686 0.87647059 0
0.98247549 0.87610294 0
0.98823529 0.87254902 0.0036151961
0.99215686 0.87107843 0.0039215686
0.9963848 0.87107843 0
1 0.87107843 0
1 0.86807598 0
1 0.86470588 0.0039215686
0.0039215686 0.92156863 0.0078431373
0.0039215686 0.92156863 0.0078431373
0.0039215686 0.92622549 0.0068627451
0.0047794118 0.92941176 0.0039215686
0.010784314 0.92794118 0
0.069117647 0.92683824 0.00049019608
0.13210784 0.93259804 0
0.21678922 0.93333333 0.0014705882
0.32254902 0.92941176 0.0039215686
0.42487745 0.92659314 0.0078431373
0.52671569 0.92867647 0.006127451
0.62303922 0.92941176 0.0039215686
0.71127451 0.93039216 0.0014705882
0.7754902 0.92647059 0.0039215686
0.84019608 0.92622549 0.0039215686
0.89754902 0.92647059 0.0018382353
0.93333333 0.92647059 0
0.95747549 0.92193627 0
0.98063725 0.91764706 0
0.99166667 0.91764706 0
0.99607843 0.91421569 0.0039215686
1 0.91666667 0.0035539216
1 0.91740196 0.00098039216
1 0.9122549 0.0020833333
1 0.90686275 0.0039215686
0.0039215686 0.95882353 0.0078431373
0.0039215686 0.95882353 0.0078431373
0.0039215686 0.95931373 0.0078431373
0.0078431373 0.96323529 0.0039215686
0.0095588235 0.9620098 0.0017156863
0.066176471 0.95980392 0.00049019608
0.13480392 0.96017157 0
0.22205882 0.96158088 0
0.3254902 0.95980392 0.0039215686
0.42843137 0.95949755 0.0039215686
0.53002451 0.95943627 0.0039215686
0.62689951 0.95980392 0.00006127451
0.71151961 0.95637255 0
0.77506127 0.95980392 0.0039215686
0.8372549 0.95980392 0.0039215686
0.89773284 0.96390931 0
0.93333333 0.96372549 0
0.95606618 0.96078431 0
0.97843137 0.95882353 0
0.99466912 0.95882353 0
1 0.95514706 0.0039215686
1 0.95055147 0.0039215686
1 0.95134804 0.0039215686
1 0.95490196 0.0039215686
1 0.95098039 0.0039215686
0 0.99019608 0.0039215686
0.0039215686 0.98578431 0.0078431373
0.006372549 0.98186275 0.0078431373
0.0098039216 0.97843137 0.0078431373
0.017647059 0.9745098 0.0039215686
0.070098039 0.9745098 0.0022058824
0.14215686 0.97303922 0.0024509804
0.22769608 0.9745098 0.0039215686
0.32941176 0.98039216 0.0039215686
0.43161765 0.98357843 0.00073529412
0.53431373 0.98039216 0.00098039216
0.6252451 0.9747549 0.0039215686
0.70980392 0.97352941 0.0039215686
0.7754902 0.97647059 0.0039215686
0.83431373 0.97794118 0.0039215686
0.89166667 0.97843137 0.0012254902
0.92941176 0.9745098 0
0.95637255 0.9745098 0
0.98137255 0.9745098 0
0.99166667 0.9745098 0
0.99803922 0.9745098 0.0058823529
1 0.97279412 0.0098039216
1 0.97941176 0.0083333333
1 0.98578431 0.0071078431
1 0.99215686 0.0039215686
0 1 0.0083333333
0.0039215686 0.99656863 0.0083333333
0.0073529412 0.99264706 0.010416667
0.010845588 0.98872549 0.0078431373
0.021323529 0.98480392 0.0039215686
0.073590686 0.98829657 0.0039215686
0.14558824 0.98615196 0.0039215686
0.22892157 0.98627451 0.0039215686
0.32892157 0.99264706 0.0039215686
0.43155637 0.99607843 0.0039215686
0.52941176 0.99522059 0.0044117647
0.61905637 0.98915441 0.0074142157
0.70563725 0.99093137 0.0039215686
0.77542892 0.99264706 0.0039215686
0.83039216 0.98970588 0.0039215686
0.88578431 0.98921569 0.0024509804
0.92941176 0.98872549 0
0.95655637 0.98480392 0
0.97879902 0.98431373 0.00049019608
0.99123775 0.98131127 0.0039215686
0.99583333 0.98088235 0.0080882353
0.99607843 0.98523284 0.011764706
0.99607843 0.99129902 0.011764706
0.99969363 0.99754902 0.0078431373
1 1 0.0039215686
0 1 0.011764706
0.0006127451 1 0.011764706
0.0017156863 0.99901961 0.0078431373
0.0039215686 0.99607843 0.0052696078
0.016176471 0.99509804 0.0024509804
0.077083333 0.99509804 0
0.15 0.99509804 0.00098039216
0.22634804 0.99546569 0.00036764706
0.31176471 0.99901961 0.0039215686
0.41078431 0.99607843 0.0057598039
0.51348039 0.99607843 0.010784314
0.61127451 0.99607843 0.0078431373
0.69901961 0.99607843 0.0039215686
0.76556373 0.99607843 0.010416667
0.82647059 0.99901961 0.0078431373
0.88394608 0.99901961 0.0024509804
0.93333333 0.99607843 0
0.96360294 0.99154412 0.0018382353
0.98431373 0.98823529 0.0039215686
0.99080882 0.9872549 0.006495098
0.99215686 0.98823529 0.011764706
0.99607843 0.99129902 0.012622549
0.99607843 0.99583333 0.011764706
0.99754902 0.99607843 0.0078431373
1 1 0.0039215686
0 1 0.0078431373
0 1 0.0078431373
0 1 0.0074754902
0 1 0.0039215686
0.012990196 1 0
0.081678922 1 0
0.15 1 0
0.22205882 1 0
0.30343137 1 0
0.40827206 0.99607843 0.0054534314
0.51617647 0.99607843 0.010294118
0.61127451 0.99607843 0.0078431373
0.69068627 0.99607843 0.0039215686
0.76029412 0.99754902 0.0068627451
0.82941176 1 0.0045343137
0.88186275 1 0.0039215686
0.93333333 1 0.0039215686
0.97352941 0.99607843 0.0039215686
0.98823529 0.99362745 0.0042892157
0.99185049 0.99362745 0.0078431373
0.99215686 0.99362745 0.011029412
0.99264706 0.99362745 0.011764706
0.99607843 0.99607843 0.0084558824
0.99754902 0.99607843 0.0078431373
1 1 0.0039215686
0 1 0.0039215686
0 1 0.0039215686
0 1 0.0039215686
0 1 0.0039215686
0.011764706 1 0
0.077941176 1 0
0.15 1 0
0.22205882 1 0
0.30588235 1 0
0.41519608 0.99607843 0.0039215686
0.52647059 0.99607843 0.0068627451
0.60833333 0.99607843 0.0039215686
0.68627451 0.99607843 0.0039215686
0.76078431 1 0
0.83039216 1 0
0.88186275 1 0
0.92941176 1 0.0039215686
0.98088235 1 0.0039215686
0.98823529 0.99901961 0.0039215686
0.99166667 0.99607843 0.0078431373
0.99215686 0.99607843 0.0078431373
0.99215686 0.99607843 0.0078431373
0.99607843 0.99607843 0.0078431373
0.99754902 0.99754902 0.0039215686
1 1 0.0039215686
0 0.0039215686 0
0 0.0039215686 0
0.0006127451 0 0.0039215686
0.0098039216 0 0.0076593137
0.039705882 0 0.0039215686
0.076470588 0 0
0.1245098 0 0
0.21415441 0 0
0.31764706 0.0039215686 0.0039215686
0.42604167 0.0039215686 0.0039215686
0.53137255 0.0029411765 0.0029411765
0.62696078 0 0
0.69534314 0 0
0.76421569 0 0
0.83296569 0 0
0.88970588 0.0014705882 0
0.94117647 0.0039215686 0
0.97598039 0.0039215686 0.024571078
0.99607843 0.0039215686 0
0.99607843 0.0073529412 0
0.99607843 0.0078431373 0.0039215686
0.99607843 0.0075367647 0.0039215686
0.99607843 0.0039215686 0.0039215686
0.99607843 0.0039215686 0.0039215686
0.99607843 0.0039215686 0.0039215686
0 0.0039215686 0.0024509804
0 0.0039215686 0.0024509804
0 0 0.0039215686
0.0035462623 0 0.0061810662
0.03091299 0 0.0039215686
0.073039216 0 0.0039215686
0.13676471 0.0018382353 0.0075214461
0.22261029 0.0039215686 0.010294118
0.32310049 0.0039215686 0.006372549
0.42604167 0.0039215686 0.0044960172
0.53082108 0.0011029412 0
0.62696078 0 0
0.69485294 0.0012254902 0.0029105392
0.76532629 0.0021446078 0.0032552083
0.8348652 0 0.00022977941
0.88970588 0.0020450368 0.00091911765
0.94117647 0.0039215686 0.003002451
0.97598039 0.0039215686 0.024509804
0.99607843 0.0039215686 0
0.99607843 0.0077282475 0
0.99607843 0.0078431373 0.0039215686
0.99607843 0.0073529412 0.0039215686
0.99607843 0.0039215686 0.00036764706
0.99607843 0.0014705882 0.00055147059
0.99607843 0.0014705882 0.0039215686
0.00098039216 0.0088235294 0.011764706
0 0.006004902 0.0082107843
0 0.0041053922 0.0062806373
0 0.0028186275 0.0039981618
0.021446078 0.003125 0.0039215686
0.074923407 0.0022671569 0.0089460784
0.14800858 0.0039215686 0.019240196
0.23137255 0.0039215686 0.026960784
0.33039216 0.0039215686 0.020588235
0.43333333 0.0039215686 0.010294118
0.53235294 0.0034620098 0.0039215686
0.62931985 0.0004442402 0.000045955882
0.69479167 0.0039215686 0.0098039216
0.76429228 0.0039215686 0.011320466
0.8354473 0.0017156863 0.004442402
0.89362745 0.0039215686 0.0039215686
0.94117647 0.0078431373 0.0088235294
0.97598039 0.0079810049 0.014981618
0.99617034 0.0056372549 0.00088848039
0.99612439 0.0078431373 0.0039215686
0.9963848 0.010845588 0.0039215686
0.99607843 0.0076133578 0.0036151961
0.99607843 0.0025428922 0
0.99607843 0.00036764706 0
0.99607843 0.00098039216 0
0.0039215686 0.015196078 0.009620098
0.0038066789 0.013051471 0.0079120711
0 0.010906863 0.0078431373
0 0.0098039216 0.0062882966
0.013970588 0.0091605392 0.0057904412
0.080943627 0.0098039216 0.012094056
0.15061275 0.01127451 0.01640625
0.23295803 0.013901654 0.02321538
0.33676471 0.01127451 0.023835784
0.44019608 0.0073529412 0.022234988
0.54211091 0.0052083333 0.014215686
0.63153339 0.010784314 0.0079656863
0.70147059 0.01127451 0.020680147
0.7713848 0.0039215686 0.0082720588
0.83720895 0.0044577206 0.0043658088
0.89590227 0.0039215686 0.0039905025
0.94362745 0.0093137255 0.0083333333
0.97464001 0.0093137255 0.0083333333
0.99644608 0.0078431373 0.0039215686
0.99942555 0.010845588 0.0039215686
1 0.014123775 0.0039215686
0.99607843 0.015157782 0.0039215686
0.99607843 0.012867647 0.0034773284
0.99607843 0.01305913 0
0.99607843 0.014705882 0
0.0078431373 0.02745098 0.0019607843
0.0039215686 0.028952206 0
0.0037377451 0.032598039 0.0015318627
0.00030637255 0.033823529 0.0039215686
0.01372549 0.035784314 0.0088235294
0.071660539 0.02778799 0.0065257353
0.13841912 0.026531863 0.0058823529
