site/assets/luts/natron-haldclut--fuji3513-constlclip--7e1a62256.cube
# LUTr-Project: LUTr — LUTrepository
# LUTr-Schema-Version: 1
# LUTr-ID: natron-haldclut--fuji3513-constlclip--7e1a62256
# LUTr-Title: fuji3513 constlclip
# LUTr-Collection: Natron HaldCLUT
# LUTr-Collection-ID: natron-haldclut-presets
# LUTr-Source: https://github.com/NatronGitHub/clut
# LUTr-Source-File: submissions/natron-haldclut-presets/print/fuji3513_constlclip.png
# LUTr-Source-Format: PNG
# LUTr-Source-SHA256: d47b0695c7dd7daad815324cda8ce18f0640240e46fb0b6487c1ca1c35570add
# LUTr-License: CC-BY-SA-4.0
# LUTr-License-URL: https://github.com/NatronGitHub/clut#license
# LUTr-Tags: creative, film, film-emulation, hald-clut, natron, png, cube
# LUTr-Transform-Class: film-emulation
# LUTr-Input-Color-Space: srgb
# LUTr-Output-Color-Space: srgb
# LUTr-Color-Space-Confidence: assumed-display-referred
# LUTr-Conversion-Method: PNG LUT image decoded at 16-bit and sampled to 25x25x25 3D CUBE
# LUTr-Conversion-Date: 2026-07-27
# LUTr-Conversion-Tool: LUTr scripts/convert-all-to-cube.mjs
# LUTr-Conversion-Grid: 25x25x25
# LUTr-Note: Preserve this metadata and the upstream license notices when redistributing.
TITLE "fuji3513 constlclip"
LUT_3D_SIZE 25
DOMAIN_MIN 0 0 0
DOMAIN_MAX 1 1 1
0.0039215686 0.0039215686 0.011764706
0.010294118 0.010294118 0.015686275
0.020588235 0.016666667 0.019607843
0.02745098 0.023039216 0.023529412
0.037254902 0.023529412 0.019607843
0.044117647 0.023529412 0.015686275
0.067647059 0.026470588 0.015686275
0.097058824 0.028921569 0.011764706
0.12156863 0.031372549 0.0078431373
0.17303922 0.041666667 0.010294118
0.21960784 0.051960784 0.011764706
0.26078431 0.066176471 0.015196078
0.3 0.074509804 0.015686275
0.33529412 0.078431373 0.015686275
0.36568627 0.078431373 0.011764706
0.38578431 0.074509804 0.0078431373
0.41176471 0.078431373 0.0039215686
0.44901961 0.084803922 0.0039215686
0.47941176 0.090196078 0.00098039216
0.48970588 0.08627451 0.0078431373
0.49019608 0.08627451 0.017647059
0.4872549 0.086764706 0.023529412
0.50784314 0.094117647 0.023529412
0.52696078 0.10343137 0.023529412
0.52941176 0.10588235 0.023529412
0.010294118 0.016666667 0.022058824
0.015134804 0.018137255 0.022058824
0.022426471 0.020220588 0.022058824
0.02745098 0.023529412 0.023529412
0.037254902 0.02745098 0.021568627
0.050796569 0.027757353 0.019607843
0.076102941 0.032843137 0.018137255
0.10343137 0.037745098 0.015134804
0.13186275 0.041666667 0.011764706
0.17604167 0.049509804 0.011764706
0.22071078 0.056617647 0.010661765
0.25863971 0.066176471 0.015196078
0.29681373 0.074509804 0.015686275
0.3377451 0.078737745 0.015686275
0.37879902 0.084803922 0.015686275
0.40539216 0.084803922 0.012745098
0.43088235 0.087254902 0.0078431373
0.45851716 0.08627451 0.0044730392
0.47941176 0.090196078 0.00098039216
0.49185049 0.088909314 0.0075367647
0.5004902 0.093872549 0.014460784
0.50814951 0.099203431 0.019791667
0.52083333 0.10232843 0.023529412
0.52696078 0.1088848 0.025980392
0.52941176 0.10980392 0.025980392
0.020588235 0.032352941 0.031372549
0.023039216 0.032352941 0.028431373
0.027696078 0.032352941 0.02745098
0.031004902 0.028553922 0.024509804
0.039215686 0.031862745 0.023529412
0.060784314 0.03627451 0.023161765
0.083578431 0.042401961 0.020588235
0.10698529 0.045588235 0.019607843
0.1372549 0.051960784 0.016666667
0.18235294 0.059436275 0.016053922
0.2245098 0.067892157 0.015686275
0.26311275 0.075122549 0.015686275
0.30637255 0.081862745 0.015686275
0.35294118 0.088602941 0.015686275
0.39485294 0.095098039 0.015686275
0.42892157 0.099019608 0.014705882
0.45588235 0.1 0.011764706
0.4745098 0.1 0.0082107843
0.49019608 0.1 0.0039215686
0.50686275 0.10343137 0.0074754902
0.51911765 0.10735294 0.011764706
0.52830882 0.11090686 0.016053922
0.54411765 0.11470588 0.021813725
0.54595588 0.12009804 0.02254902
0.54411765 0.12254902 0.02254902
0.026960784 0.046568627 0.03872549
0.030882353 0.046568627 0.036580882
0.031372549 0.045220588 0.033946078
0.031372549 0.042647059 0.030943627
0.039215686 0.042647059 0.026960784
0.06372549 0.050061275 0.026960784
0.088112745 0.053431373 0.024387255
0.10882353 0.055882353 0.023529412
0.14117647 0.062254902 0.023039216
0.19185049 0.072242647 0.017463235
0.23835784 0.082352941 0.012254902
0.28333333 0.089644608 0.011764706
0.32843137 0.097303922 0.012009804
0.37352941 0.10496324 0.012254902
0.41090686 0.10919118 0.011887255
0.44313725 0.11292892 0.0081495098
0.47352941 0.11323529 0.0078431373
0.4966299 0.11685049 0.011948529
0.51372549 0.12058824 0.0078431373
0.52794118 0.12401961 0.01127451
0.53995098 0.1245098 0.015196078
0.54803922 0.12843137 0.015686275
0.5557598 0.1314951 0.016053922
0.57101716 0.13645833 0.016176471
0.575 0.14019608 0.015686275
0.02745098 0.060784314 0.043137255
0.02745098 0.058823529 0.03995098
0.031372549 0.058823529 0.036764706
0.031372549 0.058823529 0.033578431
0.039215686 0.057843137 0.031372549
0.063970588 0.06495098 0.029411765
0.088235294 0.070098039 0.02745098
0.12083333 0.074509804 0.022794118
0.15882353 0.078431373 0.015686275
0.20514706 0.08872549 0.0098039216
0.25539216 0.098529412 0.0078431373
0.30367647 0.10563725 0.0098039216
0.34901961 0.11372549 0.011764706
0.38970588 0.11813725 0.011519608
0.4245098 0.1245098 0.006372549
0.45931373 0.12696078 0.0031862745
0.49019608 0.13333333 0.0039215686
0.51397059 0.13651961 0.010294118
0.53480392 0.14117647 0.015686275
0.55196078 0.14460784 0.015686275
0.5627451 0.14509804 0.017647059
0.56911765 0.14926471 0.019607843
0.58088235 0.15294118 0.016666667
0.59436275 0.15686275 0.010294118
0.60588235 0.16078431 0.0058823529
0.023529412 0.071078431 0.047058824
0.02567402 0.071078431 0.043321078
0.02745098 0.071078431 0.039705882
0.030453431 0.071568627 0.036213235
0.037009804 0.073529412 0.033578431
0.06372549 0.079901961 0.031372549
0.091176471 0.089828431 0.031372549
0.13155637 0.095098039 0.022365196
0.17303922 0.099019608 0.011764706
0.21697304 0.10539216 0.0034313725
0.27218137 0.11580882 0.0047794118
0.32359069 0.12647059 0.0078431373
0.36568627 0.13627451 0.012009804
0.40680147 0.14221814 0.015686275
0.44497549 0.14607843 0.012254902
0.48382353 0.15177696 0.0083333333
0.51911765 0.15784314 0.0083333333
0.54362745 0.16207108 0.01439951
0.56029412 0.16617647 0.015686275
0.57738971 0.16960784 0.018688725
0.5875 0.17009804 0.019607843
0.59319853 0.17401961 0.023529412
0.60257353 0.17781863 0.024019608
0.61519608 0.18137255 0.01685049
0.62794118 0.18137255 0.0088235294
0.019607843 0.081372549 0.050980392
0.020588235 0.084313725 0.05
0.020588235 0.088235294 0.046813725
0.020588235 0.088235294 0.043504902
0.029901961 0.094117647 0.03872549
0.057352941 0.10306373 0.035171569
0.088235294 0.10784314 0.031372549
0.12892157 0.11384804 0.025980392
0.17941176 0.12254902 0.014705882
0.23272059 0.13615196 0.0011029412
0.28921569 0.14632353 0.0039215686
0.34068627 0.15735294 0.0078431373
0.38235294 0.16029412 0.01372549
0.42058824 0.16580882 0.01997549
0.46176471 0.17034314 0.018872549
0.50294118 0.17781863 0.012377451
0.54019608 0.18235294 0.0088235294
0.57046569 0.19166667 0.011764706
0.59019608 0.19705882 0.011764706
0.60441176 0.20098039 0.012622549
0.61323529 0.20392157 0.018137255
0.61764706 0.20490196 0.023651961
0.62132353 0.20490196 0.02745098
0.62683824 0.20698529 0.028308824
0.63137255 0.20882353 0.025490196
0.015686275 0.10637255 0.060294118
0.013235294 0.10637255 0.058762255
0.0096813725 0.10490196 0.056372549
0.0085171569 0.10704657 0.052757353
0.019362745 0.11740196 0.046568627
0.035416667 0.13039216 0.03872549
0.075122549 0.13382353 0.035294118
0.1216299 0.13768382 0.028431373
0.18823529 0.15735294 0.015686275
0.24754902 0.17156863 0.0053921569
0.3064951 0.18186275 0.0028186275
0.35606618 0.18823529 0.0060661765
0.40367647 0.19264706 0.010294118
0.4495098 0.19675245 0.014215686
0.48958333 0.2004902 0.01127451
0.52291667 0.20441176 0.006372549
0.55588235 0.20833333 0.0039215686
0.58676471 0.21862745 0.0054534314
0.61311275 0.22892157 0.006372549
0.62990196 0.23186275 0.0076593137
0.63823529 0.23651961 0.017647059
0.64215686 0.23970588 0.024019608
0.64546569 0.24117647 0.02745098
0.65147059 0.24509804 0.02689951
0.65392157 0.24901961 0.023529412
0.015686275 0.1372549 0.074509804
0.011764706 0.13480392 0.070588235
0.0068627451 0.13235294 0.066666667
0.0039215686 0.13284314 0.063235294
0.0098039216 0.14509804 0.056862745
0.020098039 0.15735294 0.042647059
0.053921569 0.16764706 0.032352941
0.10980392 0.18039216 0.024509804
0.18431373 0.19215686 0.011764706
0.25392157 0.20637255 0.0039215686
0.31568627 0.21568627 0
0.37401961 0.22303922 0
0.4254902 0.22941176 0
0.47647059 0.23529412 0.0039215686
0.51470588 0.23921569 0.0039215686
0.54558824 0.24068627 0
0.58039216 0.24705882 0.0039215686
0.61127451 0.26127451 0.0078431373
0.6372549 0.2627451 0.0029411765
0.65441176 0.26960784 0.0034313725
0.65686275 0.27058824 0.017647059
0.66323529 0.275 0.023529412
0.67058824 0.28137255 0.023529412
0.6745098 0.28627451 0.023529412
0.67843137 0.29019608 0.023529412
0.011764706 0.16421569 0.084803922
0.011764706 0.16421569 0.084803922
0.010294118 0.16666667 0.082720588
0.010294118 0.16795343 0.079595588
0.01372549 0.17916667 0.069607843
0.016176471 0.19246324 0.052634804
0.035416667 0.2060049 0.034436275
0.094607843 0.22095588 0.019056373
0.17794118 0.23333333 0.0039215686
0.24699755 0.24754902 0.0039215686
0.31666667 0.25845588 0
0.38351716 0.26813725 0
0.43970588 0.27254902 0
0.49068627 0.27910539 0
0.5307598 0.28615196 0
0.57702206 0.29852941 0.0048406863
0.61519608 0.30637255 0.011764706
0.64454657 0.31121324 0.011764706
0.66176471 0.31176471 0.0050245098
0.6754902 0.31421569 0.0098039216
0.67794118 0.3122549 0.020343137
0.69019608 0.31881127 0.01685049
0.70085784 0.32745098 0.013235294
0.70686275 0.33529412 0.016237745
0.71568627 0.34166667 0.019607843
0.010784314 0.19509804 0.099019608
0.011764706 0.19754902 0.099019608
0.015686275 0.20367647 0.098284314
0.016666667 0.20294118 0.095220588
0.014215686 0.2127451 0.084313725
0.0078431373 0.22303922 0.059313725
0.0075980392 0.23333333 0.033578431
0.07745098 0.25428922 0.023406863
0.16078431 0.2745098 0.014705882
0.24313725 0.28872549 0.0039215686
0.31985294 0.30367647 0.0039215686
0.38529412 0.31066176 0.00012254902
0.44705882 0.31617647 0
0.50257353 0.32352941 0.00012254902
0.56102941 0.34191176 0.0046568627
0.61237745 0.3560049 0.0093137255
0.64509804 0.36078431 0.012745098
0.66176471 0.35502451 0.0078431373
0.67843137 0.35 0.00098039216
0.69644608 0.36127451 0.010294118
0.71078431 0.36813725 0.015196078
0.72095588 0.36911765 0.006495098
0.72745098 0.37230392 0.0036764706
0.73566176 0.38639706 0.011397059
0.74411765 0.39215686 0.01372549
0.0044117647 0.22254902 0.10931373
0.010294118 0.22843137 0.10931373
0.015808824 0.23394608 0.10931373
0.019607843 0.2377451 0.10931373
0.017401961 0.24362745 0.10098039
0.010845588 0.265625 0.087683824
0.0047794118 0.28872549 0.076470588
0.063970588 0.30563725 0.043443627
0.16470588 0.31176471 0.0044117647
0.24656863 0.33186275 0.00049019608
0.33272059 0.35245098 0.0039215686
0.40692402 0.36525735 0.00006127451
0.46911765 0.37132353 0
0.53039216 0.38235294 0.0043504902
0.58235294 0.39644608 0.010416667
0.62892157 0.40557598 0.015379902
0.66568627 0.40588235 0.019607843
0.68756127 0.40539216 0.014889706
0.70980392 0.40968137 0.0073529412
0.72352941 0.41617647 0.010845588
0.73995098 0.4245098 0.011764706
0.74761029 0.4245098 0.011213235
0.75196078 0.42622549 0.017647059
0.76127451 0.43560049 0.017647059
0.76764706 0.4372549 0.0039215686
0.0019607843 0.25098039 0.12156863
0.012254902 0.26519608 0.1247549
0.021568627 0.2745098 0.12696078
0.021568627 0.27254902 0.12352941
0.017647059 0.2754902 0.11764706
0.01127451 0.3002451 0.10686275
0.00049019608 0.30686275 0.087745098
0.075490196 0.33921569 0.048529412
0.17647059 0.35490196 0.0019607843
0.26519608 0.37941176 0.0039215686
0.34901961 0.4 0.0034313725
0.42794118 0.41495098 0
0.49803922 0.43333333 0.0039215686
0.56176471 0.44754902 0.0080882353
0.61666667 0.45833333 0.014705882
0.65612745 0.4620098 0.020343137
0.69019608 0.45882353 0.025490196
0.71789216 0.46446078 0.020343137
0.74117647 0.475 0.01127451
0.75980392 0.48014706 0.017156863
0.7627451 0.47647059 0.017647059
0.77083333 0.48039216 0.02377451
0.7745098 0.47941176 0.030882353
0.78063725 0.48578431 0.027941176
0.79019608 0.49607843 0.01372549
0.0078431373 0.29215686 0.1377451
0.020281863 0.30588235 0.14019608
0.030392157 0.31139706 0.14166667
0.023958333 0.31219363 0.13823529
0.022058824 0.31789216 0.13235294
0.01127451 0.33235294 0.11764706
0.00098039216 0.35257353 0.1004902
0.080085784 0.3776348 0.050306373
0.18431373 0.40588235 0.0078431373
0.28903186 0.43302696 0.011764706
0.37218137 0.45012255 0.0069852941
0.44852941 0.46813725 0.0039828431
0.51838235 0.48480392 0.0039215686
0.58382353 0.50447304 0.0074142157
0.64301471 0.5189951 0.014705882
0.68970588 0.5245098 0.023039216
0.72696078 0.525 0.015196078
0.75569853 0.53137255 0.012745098
0.77928922 0.53627451 0.0047794118
0.78186275 0.53584559 0.015196078
0.78529412 0.52818627 0.02377451
0.79754902 0.53627451 0.027389706
0.80526961 0.5439951 0.026960784
0.81078431 0.54822304 0.021568627
0.81323529 0.55196078 0.019117647
0.0049019608 0.32941176 0.14803922
0.01127451 0.33345588 0.1504902
0.018382353 0.34313725 0.15196078
0.026960784 0.35 0.15208333
0.030392157 0.35343137 0.14607843
0.020710784 0.36666667 0.13137255
0.0017156863 0.3872549 0.11078431
0.084926471 0.42009804 0.048529412
0.19117647 0.45098039 0.0078431373
0.2995098 0.4754902 0.016789216
0.3879902 0.49681373 0.013970588
0.46997549 0.51960784 0.010784314
0.53529412 0.53627451 0.0053921569
0.59411765 0.54987745 0.0039215686
0.65808824 0.56666667 0.0085784314
0.71580882 0.58480392 0.0098039216
0.75784314 0.59411765 0.0078431373
0.79056373 0.60355392 0.0079656863
0.80588235 0.59485294 0.010784314
0.80968137 0.58860294 0.018995098
0.81078431 0.58333333 0.025980392
0.82107843 0.5942402 0.023529412
0.83235294 0.59901961 0.019852941
0.84056373 0.60796569 0.014583333
0.84411765 0.61372549 0.0088235294
0.0029411765 0.35588235 0.15833333
0.0044730392 0.35925245 0.15833333
0.012745098 0.37009804 0.16078431
0.021568627 0.37910539 0.15863971
0.031862745 0.38284314 0.15637255
0.026470588 0.39773284 0.14381127
0.0049019608 0.42316176 0.11997549
0.085294118 0.4528799 0.056372549
0.2 0.48284314 0.02745098
0.3122549 0.51464461 0.023529412
0.40147059 0.54215686 0.019607843
0.4877451 0.56960784 0.017156863
0.55196078 0.58504902 0.010539216
0.60931373 0.59460784 0.0034313725
0.66911765 0.61323529 0
0.72941176 0.63143382 0.00055147059
0.77941176 0.64264706 0.0014705882
0.80637255 0.64509804 0.011764706
0.82205882 0.64411765 0.022058824
0.82990196 0.63872549 0.027144608
0.83627451 0.6379902 0.019362745
0.84509804 0.64540441 0.018137255
0.85147059 0.6495098 0.01629902
0.86323529 0.65833333 0.014215686
0.87205882 0.66715686 0.0029411765
0.019607843 0.37647059 0.16862745
0.019607843 0.38284314 0.16862745
0.019607843 0.39705882 0.16862745
0.016176471 0.40343137 0.16862745
0.019607843 0.41372549 0.1627451
0.011764706 0.43235294 0.14803922
0.00098039216 0.45294118 0.12745098
0.091666667 0.48676471 0.067647059
0.19607843 0.51372549 0.0078431373
0.31470588 0.54852941 0.022058824
0.41176471 0.57941176 0.023529412
0.49803922 0.61029412 0.023529412
0.57843137 0.62941176 0.017647059
0.63382353 0.63529412 0.0073529412
0.69803922 0.65588235 0.0039215686
0.75882353 0.67990196 0.0014705882
0.78823529 0.68235294 0.015686275
0.8127451 0.67843137 0.019607843
0.83235294 0.67843137 0.02745098
0.84656863 0.68235294 0.016666667
0.85686275 0.68431373 0.0098039216
0.86666667 0.69019608 0.019607843
0.86960784 0.68921569 0.023529412
0.87990196 0.69411765 0.02745098
0.88627451 0.69803922 0.02745098
0.033823529 0.39068627 0.175
0.028002451 0.40098039 0.17647059
0.020098039 0.41127451 0.17610294
0.011090686 0.42156863 0.17254902
0.0125 0.43627451 0.16666667
0.0099877451 0.45294118 0.15067402
0.013602941 0.47892157 0.12843137
0.10533088 0.51372549 0.072487745
0.21519608 0.54460784 0.023039216
0.33621324 0.57941176 0.024448529
0.42598039 0.60784314 0.021078431
0.51176471 0.63265931 0.017156863
0.59068627 0.65588235 0.019607843
0.64803922 0.66666667 0.01127451
0.70784314 0.68247549 0.0067401961
0.75974265 0.70140931 0.0078431373
0.78970588 0.70441176 0.019607843
0.8161152 0.70539216 0.028982843
0.84068627 0.70968137 0.028921569
0.8627451 0.71323529 0.019485294
0.87941176 0.72230392 0.025735294
0.88480392 0.72322304 0.036458333
0.8877451 0.72401961 0.043137255
0.89417892 0.725 0.048039216
0.89656863 0.72892157 0.051960784
0.02254902 0.40980392 0.18137255
0.018259804 0.41776961 0.18468137
0.014705882 0.42720588 0.18529412
0.0014705882 0.43296569 0.17414216
0.014215686 0.45196078 0.16960784
0.020588235 0.46997549 0.1567402
0.025735294 0.49681373 0.12843137
0.12267157 0.53088235 0.08002451
0.23529412 0.56568627 0.040196078
0.34227941 0.59656863 0.017647059
0.43137255 0.62034314 0.0068627451
0.5185049 0.64705882 0.010784314
0.59656863 0.67009804 0.014705882
0.65343137 0.68786765 0.011764706
0.70710784 0.70122549 0.0095588235
0.75490196 0.71617647 0.018137255
0.79607843 0.72254902 0.028431373
0.82855392 0.72745098 0.038112745
0.85906863 0.73651961 0.044117647
0.88333333 0.7439951 0.041176471
0.89117647 0.74607843 0.044117647
0.89901961 0.74705882 0.052083333
0.90196078 0.75073529 0.059068627
0.90330882 0.75098039 0.065808824
0.90686275 0.75098039 0.067647059
0.012254902 0.42696078 0.18823529
0.0058823529 0.42696078 0.18560049
0.0085784314 0.44105392 0.19252451
0.0078431373 0.45091912 0.18180147
0.016176471 0.46617647 0.1747549
0.024019608 0.48633578 0.15588235
0.023161765 0.50992647 0.125
0.11893382 0.54332108 0.065747549
0.23186275 0.57598039 0.016176471
0.35 0.61029412 0.014215686
0.43835784 0.63627451 0.0039215686
0.525 0.66078431 0.0078431373
0.60367647 0.68357843 0.01004902
0.66029412 0.70196078 0.011764706
0.71176471 0.71875 0.014338235
0.7596201 0.72990196 0.024509804
0.80343137 0.74019608 0.034803922
0.84197304 0.74675245 0.045098039
0.87291667 0.75686275 0.054411765
0.89319853 0.76421569 0.058333333
0.8995098 0.7620098 0.058333333
0.90588235 0.76464461 0.066176471
0.91789216 0.77156863 0.073039216
0.91930147 0.77028186 0.074019608
0.92058824 0.76813725 0.074019608
0.025490196 0.43137255 0.19215686
0.018627451 0.43921569 0.19509804
0.0098039216 0.44705882 0.18823529
0.0083333333 0.46053922 0.18137255
0.0039215686 0.4754902 0.16666667
0.0058823529 0.50147059 0.14411765
0.0073529412 0.52892157 0.11666667
0.11102941 0.55980392 0.052941176
0.2372549 0.58823529 0.011764706
0.36348039 0.62622549 0.023039216
0.45392157 0.65147059 0.01127451
0.53627451 0.67573529 0.0080882353
0.60392157 0.69215686 0.0068627451
0.6745098 0.71985294 0.013970588
0.72254902 0.73039216 0.020588235
0.77254902 0.74460784 0.028921569
0.81372549 0.75490196 0.041176471
0.85490196 0.76519608 0.052696078
0.88333333 0.77303922 0.061764706
0.89362745 0.77622549 0.068137255
0.90392157 0.77843137 0.07254902
0.91617647 0.78235294 0.076470588
0.92794118 0.78578431 0.078431373
0.93504902 0.78848039 0.079656863
0.93137255 0.78235294 0.078431373
0.038235294 0.42892157 0.18921569
0.027941176 0.44264706 0.19234069
0.021691176 0.45698529 0.19215686
0.012683824 0.47843137 0.18523284
0.006372549 0.5 0.1754902
0.0039828431 0.52401961 0.13480392
0.0035539216 0.54203431 0.088480392
0.12009804 0.57444853 0.045710784
0.25637255 0.60392157 0.015686275
0.3622549 0.63363971 0.015686275
0.45588235 0.65882353 0.012132353
0.53474265 0.68235294 0.0079044118
0.60294118 0.70098039 0.0024509804
0.6745098 0.72395833 0.016176471
0.73676471 0.74497549 0.023897059
0.78946078 0.76139706 0.038051471
0.82401961 0.76519608 0.04754902
0.86911765 0.77971814 0.061764706
0.90343137 0.79007353 0.072058824
0.9098652 0.78921569 0.074509804
0.91862745 0.79093137 0.070588235
0.93051471 0.7966299 0.075
0.93860294 0.79742647 0.081372549
0.94166667 0.79656863 0.082536765
0.94166667 0.79656863 0.082843137
0.010784314 0.45686275 0.2
0.0073529412 0.46213235 0.19718137
0.0098039216 0.48602941 0.19583333
0.0088235294 0.50245098 0.18137255
0.0044117647 0.52205882 0.16813725
0.0052696078 0.55196078 0.13394608
0.035784314 0.57671569 0.074019608
0.12169118 0.60134804 0.039460784
0.27352941 0.62058824 0.015686275
0.37009804 0.65821078 0.019607843
0.46838235 0.68235294 0.017892157
0.55232843 0.7 0.012132353
0.62696078 0.72303922 0.010784314
0.69509804 0.7442402 0.016176471
0.7502451 0.76102941 0.026470588
0.79607843 0.76875 0.038848039
0.84117647 0.77941176 0.053921569
0.88296569 0.79362745 0.06875
0.91151961 0.8 0.078431373
0.92058824 0.79901961 0.075
0.93627451 0.80490196 0.068627451
0.94362745 0.80686275 0.074632353
0.94509804 0.80686275 0.081372549
0.94803922 0.80502451 0.08627451
0.95196078 0.80686275 0.08627451
0.0039215686 0.47745098 0.21470588
0.0078431373 0.48927696 0.21078431
0.015686275 0.5182598 0.21017157
0.013419118 0.53609069 0.18958333
0.0046568627 0.55612745 0.16029412
0.012928922 0.57794118 0.11421569
0.067892157 0.60392157 0.035661765
0.15618873 0.63125 0.020220588
0.27843137 0.66421569 0.010294118
0.39362745 0.68866422 0.013296569
0.48345588 0.70343137 0.01629902
0.56979167 0.71439951 0.015686275
0.64264706 0.73946078 0.012990196
0.71207108 0.76323529 0.0081495098
0.76911765 0.77696078 0.021568627
0.81911765 0.78578431 0.042156863
0.86421569 0.79607843 0.056372549
0.89509804 0.80392157 0.067647059
0.91568627 0.80539216 0.078308824
0.93382353 0.80882353 0.082536765
0.9504902 0.81519608 0.073284314
0.95980392 0.81813725 0.072732843
0.96666667 0.82046569 0.081617647
0.96519608 0.82101716 0.10098039
0.96764706 0.82254902 0.10637255
0 0.49411765 0.23137255
0.016666667 0.51470588 0.23137255
0.032352941 0.54803922 0.23137255
0.020588235 0.56764706 0.19460784
0.0039215686 0.59019608 0.14705882
0.032843137 0.59068627 0.10931373
0.14509804 0.63529412 0.01372549
0.21764706 0.6495098 0.0088235294
0.34117647 0.67843137 0.0039215686
0.4245098 0.70539216 0.0039215686
0.51176471 0.72156863 0.0098039216
0.57696078 0.72156863 0.015686275
0.65294118 0.74901961 0.011764706
0.72058824 0.76911765 0.0078431373
0.7754902 0.78333333 0.021568627
0.8254902 0.78970588 0.04754902
0.87058824 0.8 0.058823529
0.90147059 0.81029412 0.054901961
0.92254902 0.81176471 0.068627451
0.94019608 0.81519608 0.078431373
0.95882353 0.82352941 0.076470588
0.96862745 0.82745098 0.093137255
0.97254902 0.82745098 0.083333333
0.98186275 0.83529412 0.12107843
0.98431373 0.83529412 0.1372549
0.0024509804 0.0024509804 0.014215686
0.010294118 0.0078431373 0.015686275
0.01997549 0.013848039 0.019607843
0.026960784 0.019301471 0.020894608
0.037254902 0.021078431 0.019607843
0.043811275 0.019607843 0.015686275
0.067647059 0.023529412 0.015686275
0.10098039 0.030453431 0.014215686
0.13578431 0.035294118 0.011764706
0.17971814 0.041973039 0.0087622549
0.21960784 0.04620098 0.0078431373
0.26470588 0.059620098 0.011458333
0.30955882 0.069362745 0.015686275
0.34656863 0.076286765 0.015686275
0.37879902 0.078431373 0.014583333
0.40392157 0.079963235 0.013296569
0.42843137 0.078431373 0.006372549
0.45931373 0.082352941 0.0039215686
0.48578431 0.08627451 0.0045343137
0.49234069 0.08627451 0.0078431373
0.49730392 0.08504902 0.015686275
0.50343137 0.086764706 0.019791667
0.51556373 0.094240196 0.022916667
0.52303922 0.096507353 0.023529412
0.5254902 0.099509804 0.023529412
0.010294118 0.016666667 0.022058824
0.015134804 0.017585784 0.022058824
0.020588235 0.018275123 0.022058824
0.027267157 0.022349877 0.022610294
0.037254902 0.025980392 0.022058824
0.050490196 0.029097733 0.019607843
0.074157475 0.032843137 0.018367034
0.10455729 0.037745098 0.017218137
0.13670343 0.041666667 0.015134804
0.18088235 0.048000919 0.011190257
0.22352941 0.053109681 0.010431985
0.26635263 0.059995404 0.011764706
0.30833333 0.06963848 0.015686275
0.35079657 0.07856924 0.015686275
0.38432904 0.084803922 0.016835172
0.41046262 0.08537837 0.015134804
0.43872549 0.085723039 0.010294118
0.46491268 0.085355392 0.0063495711
0.48823529 0.08627451 0.006372549
0.49852941 0.08872549 0.0099877451
0.50882353 0.093872549 0.014460784
0.51845129 0.096683517 0.019676777
