site/assets/luts/natron-haldclut--fuji3513-cuspclip--54d2c633c.cube
# LUTr-Project: LUTr — LUTrepository
# LUTr-Schema-Version: 1
# LUTr-ID: natron-haldclut--fuji3513-cuspclip--54d2c633c
# LUTr-Title: fuji3513 cuspclip
# LUTr-Collection: Natron HaldCLUT
# LUTr-Collection-ID: natron-haldclut-presets
# LUTr-Source: https://github.com/NatronGitHub/clut
# LUTr-Source-File: submissions/natron-haldclut-presets/print/fuji3513_cuspclip.png
# LUTr-Source-Format: PNG
# LUTr-Source-SHA256: f81e93ca86fe8f29bb608716da852d3320b23b887bb9e1475ae0508893749ac4
# LUTr-License: CC-BY-SA-4.0
# LUTr-License-URL: https://github.com/NatronGitHub/clut#license
# LUTr-Tags: creative, film, film-emulation, hald-clut, natron, png, cube
# LUTr-Transform-Class: film-emulation
# LUTr-Input-Color-Space: srgb
# LUTr-Output-Color-Space: srgb
# LUTr-Color-Space-Confidence: assumed-display-referred
# LUTr-Conversion-Method: PNG LUT image decoded at 16-bit and sampled to 25x25x25 3D CUBE
# LUTr-Conversion-Date: 2026-07-27
# LUTr-Conversion-Tool: LUTr scripts/convert-all-to-cube.mjs
# LUTr-Conversion-Grid: 25x25x25
# LUTr-Note: Preserve this metadata and the upstream license notices when redistributing.
TITLE "fuji3513 cuspclip"
LUT_3D_SIZE 5
DOMAIN_MIN 0 0 0
DOMAIN_MAX 1 1 1
0 0 0.011764706
0.057843137 0.02745098 0.019607843
0.32745098 0.025490196 0
0.54607843 0.018627451 0
0.57647059 0 0
0 0.10196078 0.049019608
0.076470588 0.10980392 0.035294118
0.41764706 0.16323529 0
0.64215686 0.18039216 0
0.69607843 0.2127451 0
0 0.35686275 0.15294118
0 0.34068627 0.010784314
0.55098039 0.46666667 0
0.79117647 0.50735294 0.019607843
0.83333333 0.52156863 0.01372549
0.051960784 0.53921569 0.23921569
0.0024509804 0.56642157 0.12647059
0.62696078 0.71911765 0.0098039216
0.89387255 0.76838235 0.067647059
0.93823529 0.77745098 0.078431373
0 0.60784314 0.28627451
0.096078431 0.65392157 0.017647059
0.68039216 0.78627451 0.0098039216
0.93823529 0.82745098 0.082352941
0.98039216 0.83529412 0.12941176
0.0039215686 0.019607843 0.092156863
0.07254902 0.02745098 0.084313725
0.3622549 0.0039215686 0.070098039
0.62622549 0 0.069607843
0.65098039 0 0.069607843
0 0.12156863 0.13161765
0.074754902 0.1254902 0.12156863
0.46764706 0.15208333 0.099142157
0.71740196 0.087561275 0.056862745
0.76960784 0.11372549 0.057843137
0.0044117647 0.42745098 0.28382353
0.018995098 0.41960784 0.21164216
0.58651961 0.49534314 0.069852941
0.88333333 0.51360294 0.00049019608
0.93137255 0.54117647 0
0.037009804 0.60710784 0.38553922
0.041666667 0.64552696 0.33596814
0.6377451 0.76911765 0.0088235294
0.98223039 0.82616422 0.0093137255
0.99901961 0.83431373 0.031127451
0.0039215686 0.68431373 0.52941176
0.020588235 0.7254902 0.43676471
0.65637255 0.83235294 0.35196078
0.98848039 0.89460784 0.33357843
1 0.88921569 0.40392157
0.0019607843 0.12352941 0.32156863
0.090686275 0.0078431373 0.33284314
0.40098039 0 0.3627451
0.62941176 0 0.37696078
0.68627451 0 0.40392157
0.0034313725 0.28235294 0.45980392
0.020220588 0.18737745 0.43566176
0.49730392 0.17671569 0.47107843
0.74840686 0.11078431 0.46887255
0.79558824 0.14607843 0.48676471
0.012745098 0.53921569 0.60196078
0.0068627451 0.55490196 0.61372549
0.56960784 0.57843137 0.58088235
0.89215686 0.58259804 0.57818627
0.94509804 0.6245098 0.59607843
0.0019607843 0.70833333 0.69509804
0.0039215686 0.74901961 0.69595588
0.57401961 0.85318627 0.66470588
0.96801471 0.90588235 0.65992647
1 0.9127451 0.66862745
0 0.76666667 0.77843137
0.0039215686 0.80882353 0.77352941
0.59607843 0.90392157 0.77843137
0.96078431 0.95588235 0.77107843
1 0.96078431 0.78431373
0 0.25196078 0.50784314
0.084313725 0.023284314 0.51348039
0.43088235 0 0.5872549
0.66372549 0 0.60416667
0.70686275 0 0.61078431
0 0.35808824 0.61862745
0.003247549 0.31482843 0.63976716
0.49901961 0.1564951 0.72095588
0.76151961 0.10582108 0.73406863
0.81764706 0.1370098 0.76053922
0.0024509804 0.58039216 0.75
0.015808824 0.59411765 0.78259804
0.54019608 0.61127451 0.86004902
0.88468137 0.62573529 0.87254902
0.9372549 0.65735294 0.88823529
0.019607843 0.72254902 0.81372549
0.037867647 0.77647059 0.85508578
0.51053922 0.89803922 0.92598039
0.95318627 0.95490196 0.94001225
0.99705882 0.95906863 0.94019608
0.0019607843 0.76078431 0.85098039
0.015686275 0.81470588 0.88308824
0.53970588 0.92794118 0.94803922
0.94313725 0.98602941 0.96568627
0.99607843 0.98921569 0.95882353
0 0.28235294 0.55686275
0.070588235 0.048039216 0.60980392
0.45490196 0.0039215686 0.67843137
0.71372549 0 0.71568627
0.74509804 0 0.70980392
0 0.39019608 0.67254902
0.0029411765 0.34754902 0.70196078
0.50735294 0.22745098 0.79362745
0.78235294 0.18431373 0.81421569
0.83627451 0.24607843 0.83529412
0.054901961 0.59411765 0.77058824
0.030392157 0.60588235 0.82009804
0.52843137 0.63333333 0.91176471
0.88480392 0.64705882 0.93333333
0.93529412 0.66862745 0.93921569
0.021568627 0.72941176 0.83137255
0.031862745 0.78039216 0.87745098
0.48088235 0.90539216 0.96519608
0.93627451 0.95490196 0.98995098
0.99215686 0.95 0.99215686
0 0.76470588 0.85882353
0.028431373 0.81960784 0.89803922
0.52352941 0.93333333 0.97254902
0.93333333 0.99215686 0.99607843
1 1 1
