site/assets/luts/natron-haldclut--polaroid-665--daa5719e7.cube
# LUTr-Project: LUTr — LUTrepository
# LUTr-Schema-Version: 1
# LUTr-ID: natron-haldclut--polaroid-665--daa5719e7
# LUTr-Title: polaroid 665 ++
# LUTr-Collection: Natron HaldCLUT
# LUTr-Collection-ID: natron-haldclut-presets
# LUTr-Source: https://github.com/NatronGitHub/clut
# LUTr-Source-File: submissions/natron-haldclut-presets/instant_pro/polaroid_665_++.png
# LUTr-Source-Format: PNG
# LUTr-Source-SHA256: fe5b72858ace50df9fdb5e14a29e6c59b68f6ff03f76f6b33a0133c7efb0fe8c
# LUTr-License: CC-BY-SA-4.0
# LUTr-License-URL: https://github.com/NatronGitHub/clut#license
# LUTr-Tags: creative, film, film-emulation, hald-clut, natron, png, cube
# LUTr-Transform-Class: film-emulation
# LUTr-Input-Color-Space: srgb
# LUTr-Output-Color-Space: srgb
# LUTr-Color-Space-Confidence: assumed-display-referred
# LUTr-Conversion-Method: PNG LUT image decoded at 16-bit and sampled to 25x25x25 3D CUBE
# LUTr-Conversion-Date: 2026-07-27
# LUTr-Conversion-Tool: LUTr scripts/convert-all-to-cube.mjs
# LUTr-Conversion-Grid: 25x25x25
# LUTr-Note: Preserve this metadata and the upstream license notices when redistributing.
TITLE "polaroid 665 ++"
LUT_3D_SIZE 9
DOMAIN_MIN 0 0 0
DOMAIN_MAX 1 1 1
0.14117647 0.14117647 0.14117647
0.14509804 0.14509804 0.14509804
0.14509804 0.14509804 0.14509804
0.17892157 0.17892157 0.17892157
0.20392157 0.20392157 0.20392157
0.24215686 0.24215686 0.24215686
0.30392157 0.30392157 0.30392157
0.38137255 0.38137255 0.38137255
0.48627451 0.48627451 0.48627451
0.14509804 0.14509804 0.14509804
0.14509804 0.14509804 0.14509804
0.15637255 0.15637255 0.15637255
0.18676471 0.18676471 0.18676471
0.21715686 0.21715686 0.21715686
0.25735294 0.25735294 0.25735294
0.31911765 0.31911765 0.31911765
0.39613971 0.39613971 0.39613971
0.48529412 0.48529412 0.48529412
0.18235294 0.18235294 0.18235294
0.18235294 0.18235294 0.18235294
0.18014706 0.18014706 0.18014706
0.19852941 0.19852941 0.19852941
0.24411765 0.24411765 0.24411765
0.29068627 0.29068627 0.29068627
0.34681373 0.34681373 0.34681373
0.43186275 0.43186275 0.43186275
0.53235294 0.53235294 0.53235294
0.24264706 0.24264706 0.24264706
0.23627451 0.23627451 0.23627451
0.23529412 0.23529412 0.23529412
0.24564951 0.24564951 0.24564951
0.27107843 0.27107843 0.27107843
0.32303922 0.32303922 0.32303922
0.39546569 0.39546569 0.39546569
0.47726716 0.47726716 0.47726716
0.5995098 0.5995098 0.5995098
0.32352941 0.32352941 0.32352941
0.31568627 0.31568627 0.31568627
0.31372549 0.31372549 0.31372549
0.32156863 0.32156863 0.32156863
0.3245098 0.3245098 0.3245098
0.37156863 0.37156863 0.37156863
0.4495098 0.4495098 0.4495098
0.54730392 0.54730392 0.54730392
0.68039216 0.68039216 0.68039216
0.40686275 0.40686275 0.40686275
0.4158701 0.4158701 0.4158701
0.42120098 0.42120098 0.42120098
0.42156863 0.42156863 0.42156863
0.43137255 0.43137255 0.43137255
0.44601716 0.44601716 0.44601716
0.49068627 0.49068627 0.49068627
0.60882353 0.60882353 0.60882353
0.73627451 0.73627451 0.73627451
0.56960784 0.56960784 0.56960784
0.57401961 0.57401961 0.57401961
0.5745098 0.5745098 0.5745098
0.58198529 0.58198529 0.58198529
0.59215686 0.59215686 0.59215686
0.60012255 0.60012255 0.60012255
0.61470588 0.61470588 0.61470588
0.68480392 0.68480392 0.68480392
0.77745098 0.77745098 0.77745098
0.75196078 0.75196078 0.75196078
0.74846814 0.74846814 0.74846814
0.75588235 0.75588235 0.75588235
0.76764706 0.76764706 0.76764706
0.78112745 0.78112745 0.78112745
0.7872549 0.7872549 0.7872549
0.79558824 0.79558824 0.79558824
0.81813725 0.81813725 0.81813725
0.83333333 0.83333333 0.83333333
0.90196078 0.90196078 0.90196078
0.89411765 0.89411765 0.89411765
0.89117647 0.89117647 0.89117647
0.88627451 0.88627451 0.88627451
0.89411765 0.89411765 0.89411765
0.9254902 0.9254902 0.9254902
0.93333333 0.93333333 0.93333333
0.9372549 0.9372549 0.9372549
0.9372549 0.9372549 0.9372549
0.14117647 0.14117647 0.14117647
0.15594363 0.15594363 0.15594363
0.16715686 0.16715686 0.16715686
0.19283088 0.19283088 0.19283088
0.225 0.225 0.225
0.25392157 0.25392157 0.25392157
0.32696078 0.32696078 0.32696078
0.40490196 0.40490196 0.40490196
0.50539216 0.50539216 0.50539216
0.15594363 0.15594363 0.15594363
0.1634038 0.1634038 0.1634038
0.17617953 0.17617953 0.17617953
0.20177696 0.20177696 0.20177696
0.24019608 0.24019608 0.24019608
0.28039216 0.28039216 0.28039216
0.33356311 0.33356311 0.33356311
0.4122549 0.4122549 0.4122549
0.50539216 0.50539216 0.50539216
0.18627451 0.18627451 0.18627451
0.19094669 0.19094669 0.19094669
0.19831495 0.19831495 0.19831495
0.2245098 0.2245098 0.2245098
0.25998775 0.25998775 0.25998775
0.30735294 0.30735294 0.30735294
0.36127451 0.36127451 0.36127451
0.45147059 0.45147059 0.45147059
0.55539216 0.55539216 0.55539216
0.24264706 0.24264706 0.24264706
0.25130974 0.25130974 0.25130974
0.25931373 0.25931373 0.25931373
0.25685509 0.25685509 0.25685509
0.29338235 0.29338235 0.29338235
0.34215686 0.34215686 0.34215686
0.41073836 0.41073836 0.41073836
0.49656863 0.49656863 0.49656863
0.60147059 0.60147059 0.60147059
0.33529412 0.33529412 0.33529412
0.33480392 0.33480392 0.33480392
0.33866422 0.33866422 0.33866422
0.34656863 0.34656863 0.34656863
0.3504902 0.3504902 0.3504902
0.37696078 0.37696078 0.37696078
0.45606618 0.45606618 0.45606618
0.57184436 0.57184436 0.57184436
0.68970588 0.68970588 0.68970588
0.43676471 0.43676471 0.43676471
0.44068627 0.44068627 0.44068627
0.44949449 0.44949449 0.44949449
0.45245098 0.45245098 0.45245098
0.45122549 0.45122549 0.45122549
0.4618796 0.4618796 0.4618796
0.51030944 0.51030944 0.51030944
0.63039216 0.63039216 0.63039216
0.75 0.75 0.75
0.58970588 0.58970588 0.58970588
0.59002757 0.59002757 0.59002757
0.59669118 0.59669118 0.59669118
0.60502451 0.60502451 0.60502451
0.60955882 0.60955882 0.60955882
0.61323529 0.61323529 0.61323529
0.62598039 0.62598039 0.62598039
0.69166667 0.69166667 0.69166667
0.79791667 0.79791667 0.79791667
0.76280637 0.76280637 0.76280637
0.75974265 0.75974265 0.75974265
0.76585478 0.76585478 0.76585478
0.775 0.775 0.775
0.78112745 0.78112745 0.78112745
0.78676471 0.78676471 0.78676471
0.79831495 0.79831495 0.79831495
0.81813725 0.81813725 0.81813725
0.86329657 0.86329657 0.86329657
0.90980392 0.90980392 0.90980392
0.90189951 0.90189951 0.90189951
0.90539216 0.90539216 0.90539216
0.90410539 0.90410539 0.90410539
0.9129902 0.9129902 0.9129902
0.91942402 0.91942402 0.91942402
0.9372549 0.9372549 0.9372549
0.93731618 0.93731618 0.93731618
0.93333333 0.93333333 0.93333333
0.17941176 0.17941176 0.17941176
0.17941176 0.17941176 0.17941176
0.19313725 0.19313725 0.19313725
0.21421569 0.21421569 0.21421569
0.25196078 0.25196078 0.25196078
0.29901961 0.29901961 0.29901961
0.36176471 0.36176471 0.36176471
0.43186275 0.43186275 0.43186275
0.54019608 0.54019608 0.54019608
0.19375 0.19375 0.19375
0.19722733 0.19722733 0.19722733
0.20857843 0.20857843 0.20857843
0.22585784 0.22585784 0.22585784
0.26734069 0.26734069 0.26734069
0.31095282 0.31095282 0.31095282
0.37218137 0.37218137 0.37218137
0.44575674 0.44575674 0.44575674
0.54362745 0.54362745 0.54362745
0.2127451 0.2127451 0.2127451
0.21268382 0.21268382 0.21268382
0.23756127 0.23756127 0.23756127
0.26590074 0.26590074 0.26590074
0.2995098 0.2995098 0.2995098
0.34090074 0.34090074 0.34090074
0.39901961 0.39901961 0.39901961
0.48416054 0.48416054 0.48416054
0.58137255 0.58137255 0.58137255
0.26666667 0.26666667 0.26666667
0.276731 0.276731 0.276731
0.29203431 0.29203431 0.29203431
0.29797794 0.29797794 0.29797794
0.33112745 0.33112745 0.33112745
0.37948836 0.37948836 0.37948836
0.44813113 0.44813113 0.44813113
0.53855699 0.53855699 0.53855699
0.63713235 0.63713235 0.63713235
0.35833333 0.35833333 0.35833333
0.36176471 0.36176471 0.36176471
0.37352941 0.37352941 0.37352941
0.38823529 0.38823529 0.38823529
0.38823529 0.38823529 0.38823529
0.42420343 0.42420343 0.42420343
0.50294118 0.50294118 0.50294118
0.60490196 0.60490196 0.60490196
0.71470588 0.71470588 0.71470588
0.46482843 0.46482843 0.46482843
0.47299326 0.47299326 0.47299326
0.48088235 0.48088235 0.48088235
0.48664216 0.48664216 0.48664216
0.49142157 0.49142157 0.49142157
0.50232843 0.50232843 0.50232843
0.5557598 0.5557598 0.5557598
0.66511949 0.66511949 0.66511949
0.76323529 0.76323529 0.76323529
0.62671569 0.62671569 0.62671569
0.61672794 0.61672794 0.61672794
0.62254902 0.62254902 0.62254902
0.6354473 0.6354473 0.6354473
0.63848039 0.63848039 0.63848039
0.646875 0.646875 0.646875
0.65906863 0.65906863 0.65906863
0.72303922 0.72303922 0.72303922
0.81960784 0.81960784 0.81960784
0.79068627 0.79068627 0.79068627
0.77928922 0.77928922 0.77928922
0.78504902 0.78504902 0.78504902
0.79617034 0.79617034 0.79617034
0.80147059 0.80147059 0.80147059
0.80686275 0.80686275 0.80686275
0.82484681 0.82484681 0.82484681
0.82844669 0.82844669 0.82844669
0.84375 0.84375 0.84375
0.89901961 0.89901961 0.89901961
0.91470588 0.91470588 0.91470588
0.89509804 0.89509804 0.89509804
0.91188725 0.91188725 0.91188725
0.91862745 0.91862745 0.91862745
0.92095588 0.92095588 0.92095588
0.93823529 0.93823529 0.93823529
0.94019608 0.94019608 0.94019608
0.94901961 0.94901961 0.94901961
0.23872549 0.23872549 0.23872549
0.24264706 0.24264706 0.24264706
0.25098039 0.25098039 0.25098039
0.2622549 0.2622549 0.2622549
0.29901961 0.29901961 0.29901961
0.35386029 0.35386029 0.35386029
0.41470588 0.41470588 0.41470588
0.49460784 0.49460784 0.49460784
0.58137255 0.58137255 0.58137255
0.25784314 0.25784314 0.25784314
0.2596201 0.2596201 0.2596201
0.27071078 0.27071078 0.27071078
0.28621324 0.28621324 0.28621324
0.30499387 0.30499387 0.30499387
0.36287531 0.36287531 0.36287531
0.43051471 0.43051471 0.43051471
0.51207108 0.51207108 0.51207108
0.60441176 0.60441176 0.60441176
0.27757353 0.27757353 0.27757353
0.28457414 0.28457414 0.28457414
0.29960172 0.29960172 0.29960172
0.31617647 0.31617647 0.31617647
0.35036765 0.35036765 0.35036765
0.39186581 0.39186581 0.39186581
0.45968137 0.45968137 0.45968137
0.53475797 0.53475797 0.53475797
0.62487745 0.62487745 0.62487745
0.30539216 0.30539216 0.30539216
0.3164905 0.3164905 0.3164905
0.33500306 0.33500306 0.33500306
0.37303922 0.37303922 0.37303922
0.39954044 0.39954044 0.39954044
0.44656863 0.44656863 0.44656863
0.50980392 0.50980392 0.50980392
0.59558824 0.59558824 0.59558824
0.67886029 0.67886029 0.67886029
0.38676471 0.38676471 0.38676471
0.38740809 0.38740809 0.38740809
0.41219363 0.41219363 0.41219363
0.44898897 0.44898897 0.44898897
0.46593137 0.46593137 0.46593137
0.49534314 0.49534314 0.49534314
0.56470588 0.56470588 0.56470588
0.65343137 0.65343137 0.65343137
0.73651961 0.73651961 0.73651961
0.51666667 0.51666667 0.51666667
0.51587776 0.51587776 0.51587776
0.51674326 0.51674326 0.51674326
0.54656863 0.54656863 0.54656863
0.55560662 0.55560662 0.55560662
0.5588848 0.5588848 0.5588848
0.62254902 0.62254902 0.62254902
0.71379442 0.71379442 0.71379442
0.81078431 0.81078431 0.81078431
0.6622549 0.6622549 0.6622549
0.6622549 0.6622549 0.6622549
0.66470588 0.66470588 0.66470588
0.67346814 0.67346814 0.67346814
0.68897059 0.68897059 0.68897059
0.69938725 0.69938725 0.69938725
0.70968137 0.70968137 0.70968137
0.77009804 0.77009804 0.77009804
0.84803922 0.84803922 0.84803922
0.80833333 0.80833333 0.80833333
0.80447304 0.80447304 0.80447304
0.8084712 0.8084712 0.8084712
0.81881127 0.81881127 0.81881127
0.82794118 0.82794118 0.82794118
0.82782629 0.82782629 0.82782629
0.84448529 0.84448529 0.84448529
0.855553 0.855553 0.855553
0.86881127 0.86881127 0.86881127
0.9004902 0.9004902 0.9004902
0.92322304 0.92322304 0.92322304
0.90686275 0.90686275 0.90686275
0.90441176 0.90441176 0.90441176
0.92941176 0.92941176 0.92941176
0.93578431 0.93578431 0.93578431
0.9372549 0.9372549 0.9372549
0.94509804 0.94509804 0.94509804
0.95147059 0.95147059 0.95147059
0.32745098 0.32745098 0.32745098
0.3370098 0.3370098 0.3370098
0.3504902 0.3504902 0.3504902
0.35686275 0.35686275 0.35686275
0.37156863 0.37156863 0.37156863
0.40686275 0.40686275 0.40686275
0.47058824 0.47058824 0.47058824
0.59142157 0.59142157 0.59142157
0.6627451 0.6627451 0.6627451
0.35441176 0.35441176 0.35441176
0.35441176 0.35441176 0.35441176
0.35790441 0.35790441 0.35790441
0.37827819 0.37827819 0.37827819
0.38382353 0.38382353 0.38382353
0.42205882 0.42205882 0.42205882
0.50349265 0.50349265 0.50349265
0.6049326 0.6049326 0.6049326
0.6875 0.6875 0.6875
0.38676471 0.38676471 0.38676471
0.38609069 0.38609069 0.38609069
0.39448529 0.39448529 0.39448529
0.41648284 0.41648284 0.41648284
0.42009804 0.42009804 0.42009804
0.46446078 0.46446078 0.46446078
0.54068627 0.54068627 0.54068627
0.62248775 0.62248775 0.62248775
0.69852941 0.69852941 0.69852941
0.40784314 0.40784314 0.40784314
0.41485907 0.41485907 0.41485907
0.43529412 0.43529412 0.43529412
0.45906863 0.45906863 0.45906863
0.47022059 0.47022059 0.47022059
0.51400123 0.51400123 0.51400123
0.58848039 0.58848039 0.58848039
0.66256127 0.66256127 0.66256127
0.73578431 0.73578431 0.73578431
0.43529412 0.43529412 0.43529412
0.44987745 0.44987745 0.44987745
0.46176471 0.46176471 0.46176471
0.50526961 0.50526961 0.50526961
0.5377451 0.5377451 0.5377451
0.57696078 0.57696078 0.57696078
0.6372549 0.6372549 0.6372549
0.70906863 0.70906863 0.70906863
0.77843137 0.77843137 0.77843137
0.53872549 0.53872549 0.53872549
0.53520221 0.53520221 0.53520221
0.55698529 0.55698529 0.55698529
0.59552696 0.59552696 0.59552696
0.63382353 0.63382353 0.63382353
0.6502451 0.6502451 0.6502451
0.69558824 0.69558824 0.69558824
0.76617647 0.76617647 0.76617647
0.83553922 0.83553922 0.83553922
0.69117647 0.69117647 0.69117647
0.69117647 0.69117647 0.69117647
0.70796569 0.70796569 0.70796569
0.72671569 0.72671569 0.72671569
0.74289216 0.74289216 0.74289216
0.75906863 0.75906863 0.75906863
0.76936275 0.76936275 0.76936275
0.8098652 0.8098652 0.8098652
0.87941176 0.87941176 0.87941176
0.81936275 0.81936275 0.81936275
0.82916667 0.82916667 0.82916667
0.84252451 0.84252451 0.84252451
0.84617034 0.84617034 0.84617034
0.85747549 0.85747549 0.85747549
0.86289828 0.86289828 0.86289828
0.86832108 0.86832108 0.86832108
0.87886029 0.87886029 0.87886029
0.91446078 0.91446078 0.91446078
0.92745098 0.92745098 0.92745098
0.89705882 0.89705882 0.89705882
0.9245098 0.9245098 0.9245098
0.92598039 0.92598039 0.92598039
0.93235294 0.93235294 0.93235294
0.93995098 0.93995098 0.93995098
0.94313725 0.94313725 0.94313725
0.95686275 0.95686275 0.95686275
0.96078431 0.96078431 0.96078431
0.47009804 0.47009804 0.47009804
0.45704657 0.45704657 0.45704657
0.47303922 0.47303922 0.47303922
0.48731618 0.48731618 0.48731618
0.5 0.5 0.5
0.50539216 0.50539216 0.50539216
0.54411765 0.54411765 0.54411765
0.67530637 0.67530637 0.67530637
0.77794118 0.77794118 0.77794118
0.48676471 0.48676471 0.48676471
0.48137255 0.48137255 0.48137255
0.49313725 0.49313725 0.49313725
0.503125 0.503125 0.503125
0.51666667 0.51666667 0.51666667
0.52531403 0.52531403 0.52531403
0.55196078 0.55196078 0.55196078
0.68137255 0.68137255 0.68137255
0.78737745 0.78737745 0.78737745
0.51801471 0.51801471 0.51801471
0.52389706 0.52389706 0.52389706
0.53268995 0.53268995 0.53268995
0.53970588 0.53970588 0.53970588
0.54754902 0.54754902 0.54754902
0.56248468 0.56248468 0.56248468
0.60625 0.60625 0.60625
0.70154718 0.70154718 0.70154718
0.78480392 0.78480392 0.78480392
0.55490196 0.55490196 0.55490196
0.5622549 0.5622549 0.5622549
0.57352941 0.57352941 0.57352941
0.58702512 0.58702512 0.58702512
0.59779412 0.59779412 0.59779412
0.61338082 0.61338082 0.61338082
0.65819547 0.65819547 0.65819547
0.72192862 0.72192862 0.72192862
0.80202206 0.80202206 0.80202206
0.5747549 0.5747549 0.5747549
0.57974877 0.57974877 0.57974877
0.60116422 0.60116422 0.60116422
0.62251838 0.62251838 0.62251838
0.65490196 0.65490196 0.65490196
0.66516544 0.66516544 0.66516544
0.70563725 0.70563725 0.70563725
0.76896446 0.76896446 0.76896446
0.83627451 0.83627451 0.83627451
0.60189951 0.60189951 0.60189951
0.60422028 0.60422028 0.60422028
0.63013174 0.63013174 0.63013174
0.65533088 0.65533088 0.65533088
0.69362745 0.69362745 0.69362745
0.73789062 0.73789062 0.73789062
0.76950061 0.76950061 0.76950061
0.81697304 0.81697304 0.81697304
0.87107843 0.87107843 0.87107843
0.71017157 0.71017157 0.71017157
0.70828738 0.70828738 0.70828738
0.72530637 0.72530637 0.72530637
0.75085784 0.75085784 0.75085784
0.78045343 0.78045343 0.78045343
0.81888787 0.81888787 0.81888787
0.82530637 0.82530637 0.82530637
0.86465993 0.86465993 0.86465993
0.90796569 0.90796569 0.90796569
0.83333333 0.83333333 0.83333333
0.84068627 0.84068627 0.84068627
0.84901961 0.84901961 0.84901961
0.86459099 0.86459099 0.86459099
0.88235294 0.88235294 0.88235294
0.89184283 0.89184283 0.89184283
0.9004902 0.9004902 0.9004902
0.91666667 0.91666667 0.91666667
0.93529412 0.93529412 0.93529412
0.92941176 0.92941176 0.92941176
0.92107843 0.92107843 0.92107843
0.9254902 0.9254902 0.9254902
0.93333333 0.93333333 0.93333333
0.94191176 0.94191176 0.94191176
0.95778186 0.95778186 0.95778186
0.96470588 0.96470588 0.96470588
0.96078431 0.96078431 0.96078431
0.96078431 0.96078431 0.96078431
0.64509804 0.64509804 0.64509804
0.64117647 0.64117647 0.64117647
0.64901961 0.64901961 0.64901961
0.64901961 0.64901961 0.64901961
0.66862745 0.66862745 0.66862745
0.68039216 0.68039216 0.68039216
0.69215686 0.69215686 0.69215686
0.7057598 0.7057598 0.7057598
0.81372549 0.81372549 0.81372549
0.6567402 0.6567402 0.6567402
0.66078431 0.66078431 0.66078431
0.66663603 0.66663603 0.66663603
0.67018995 0.67018995 0.67018995
0.68382353 0.68382353 0.68382353
0.68720895 0.68720895 0.68720895
0.70052083 0.70052083 0.70052083
0.72219669 0.72219669 0.72219669
0.82144608 0.82144608 0.82144608
0.67941176 0.67941176 0.67941176
0.68590686 0.68590686 0.68590686
0.69099265 0.69099265 0.69099265
0.69610907 0.69610907 0.69610907
0.70477941 0.70477941 0.70477941
0.71161152 0.71161152 0.71161152
0.72181373 0.72181373 0.72181373
0.75560662 0.75560662 0.75560662
0.83308824 0.83308824 0.83308824
0.70931373 0.70931373 0.70931373
0.71456801 0.71456801 0.71456801
0.72009804 0.72009804 0.72009804
0.72477022 0.72477022 0.72477022
0.73376225 0.73376225 0.73376225
0.7466299 0.7466299 0.7466299
0.75428922 0.75428922 0.75428922
0.77824755 0.77824755 0.77824755
0.85833333 0.85833333 0.85833333
0.73235294 0.73235294 0.73235294
0.73578431 0.73578431 0.73578431
0.74705882 0.74705882 0.74705882
0.75772059 0.75772059 0.75772059
0.77647059 0.77647059 0.77647059
0.79074755 0.79074755 0.79074755
0.80183824 0.80183824 0.80183824
0.83645833 0.83645833 0.83645833
0.89068627 0.89068627 0.89068627
0.74938725 0.74938725 0.74938725
0.7536152 0.7536152 0.7536152
0.76544118 0.76544118 0.76544118
0.78394608 0.78394608 0.78394608
0.80949755 0.80949755 0.80949755
0.83186275 0.83186275 0.83186275
0.84656863 0.84656863 0.84656863
0.86930147 0.86930147 0.86930147
0.91323529 0.91323529 0.91323529
0.76470588 0.76470588 0.76470588
0.77417279 0.77417279 0.77417279
0.77745098 0.77745098 0.77745098
0.79852941 0.79852941 0.79852941
0.83088235 0.83088235 0.83088235
0.86617647 0.86617647 0.86617647
0.88547794 0.88547794 0.88547794
0.90143995 0.90143995 0.90143995
0.92745098 0.92745098 0.92745098
0.84068627 0.84068627 0.84068627
0.85163909 0.85163909 0.85163909
0.86348039 0.86348039 0.86348039
0.87959559 0.87959559 0.87959559
0.89509804 0.89509804 0.89509804
0.91703431 0.91703431 0.91703431
0.93097426 0.93097426 0.93097426
0.94189645 0.94189645 0.94189645
0.95441176 0.95441176 0.95441176
0.92254902 0.92254902 0.92254902
0.92941176 0.92941176 0.92941176
0.93333333 0.93333333 0.93333333
0.94007353 0.94007353 0.94007353
0.95294118 0.95294118 0.95294118
0.95 0.95 0.95
0.96887255 0.96887255 0.96887255
0.97218137 0.97218137 0.97218137
0.96862745 0.96862745 0.96862745
0.82254902 0.82254902 0.82254902
0.82254902 0.82254902 0.82254902
0.82205882 0.82205882 0.82205882
0.82990196 0.82990196 0.82990196
0.8254902 0.8254902 0.8254902
0.83756127 0.83756127 0.83756127
0.84117647 0.84117647 0.84117647
0.85772059 0.85772059 0.85772059
0.86764706 0.86764706 0.86764706
0.83033088 0.83033088 0.83033088
0.82984069 0.82984069 0.82984069
0.83290441 0.83290441 0.83290441
0.83382353 0.83382353 0.83382353
0.84096201 0.84096201 0.84096201
0.84558824 0.84558824 0.84558824
0.84880515 0.84880515 0.84880515
0.85288756 0.85288756 0.85288756
0.87941176 0.87941176 0.87941176
0.84375 0.84375 0.84375
0.84509804 0.84509804 0.84509804
0.84166667 0.84166667 0.84166667
0.83935355 0.83935355 0.83935355
0.84901961 0.84901961 0.84901961
0.85294118 0.85294118 0.85294118
0.86164216 0.86164216 0.86164216
0.87242647 0.87242647 0.87242647
0.88762255 0.88762255 0.88762255
0.85245098 0.85245098 0.85245098
0.85481771 0.85481771 0.85481771
0.85931373 0.85931373 0.85931373
0.85942862 0.85942862 0.85942862
0.86292892 0.86292892 0.86292892
0.86421569 0.86421569 0.86421569
0.87460172 0.87460172 0.87460172
0.88300398 0.88300398 0.88300398
0.89901961 0.89901961 0.89901961
0.85637255 0.85637255 0.85637255
0.86400123 0.86400123 0.86400123
0.87598039 0.87598039 0.87598039
0.87205882 0.87205882 0.87205882
0.87573529 0.87573529 0.87573529
0.8895527 0.8895527 0.8895527
0.89313725 0.89313725 0.89313725
0.8958027 0.8958027 0.8958027
0.90857843 0.90857843 0.90857843
0.86942402 0.86942402 0.86942402
0.87350643 0.87350643 0.87350643
0.88167892 0.88167892 0.88167892
0.88866422 0.88866422 0.88866422
0.89803922 0.89803922 0.89803922
0.90925245 0.90925245 0.90925245
0.91470588 0.91470588 0.91470588
0.92418045 0.92418045 0.92418045
0.93137255 0.93137255 0.93137255
0.87254902 0.87254902 0.87254902
0.88334865 0.88334865 0.88334865
0.89549632 0.89549632 0.89549632
0.90698529 0.90698529 0.90698529
0.91470588 0.91470588 0.91470588
0.92291667 0.92291667 0.92291667
0.93517157 0.93517157 0.93517157
0.94656863 0.94656863 0.94656863
0.95306373 0.95306373 0.95306373
0.89613971 0.89613971 0.89613971
0.90735294 0.90735294 0.90735294
0.92571998 0.92571998 0.92571998
0.92689951 0.92689951 0.92689951
0.92668505 0.92668505 0.92668505
0.93792892 0.93792892 0.93792892
0.95392157 0.95392157 0.95392157
0.96879596 0.96879596 0.96879596
0.97346814 0.97346814 0.97346814
0.94558824 0.94558824 0.94558824
0.94859069 0.94859069 0.94859069
0.9495098 0.9495098 0.9495098
0.95294118 0.95294118 0.95294118
0.95637255 0.95637255 0.95637255
0.96862745 0.96862745 0.96862745
0.97647059 0.97647059 0.97647059
0.98039216 0.98039216 0.98039216
0.97696078 0.97696078 0.97696078
0.93333333 0.93333333 0.93333333
0.94411765 0.94411765 0.94411765
0.93039216 0.93039216 0.93039216
0.93333333 0.93333333 0.93333333
0.92745098 0.92745098 0.92745098
0.92156863 0.92156863 0.92156863
0.9254902 0.9254902 0.9254902
0.94901961 0.94901961 0.94901961
0.94117647 0.94117647 0.94117647
0.9372549 0.9372549 0.9372549
0.93333333 0.93333333 0.93333333
0.93333333 0.93333333 0.93333333
0.93658088 0.93658088 0.93658088
0.93480392 0.93480392 0.93480392
0.9377451 0.9377451 0.9377451
0.93284314 0.93284314 0.93284314
0.94117647 0.94117647 0.94117647
0.94852941 0.94852941 0.94852941
0.9254902 0.9254902 0.9254902
0.92904412 0.92904412 0.92904412
0.9372549 0.9372549 0.9372549
0.94117647 0.94117647 0.94117647
0.94117647 0.94117647 0.94117647
0.94080882 0.94080882 0.94080882
0.94509804 0.94509804 0.94509804
0.94215686 0.94215686 0.94215686
0.94901961 0.94901961 0.94901961
0.91715686 0.91715686 0.91715686
0.93872549 0.93872549 0.93872549
0.94509804 0.94509804 0.94509804
0.94901961 0.94901961 0.94901961
0.93823529 0.93823529 0.93823529
0.9466299 0.9466299 0.9466299
0.95183824 0.95183824 0.95183824
0.94099265 0.94099265 0.94099265
0.9622549 0.9622549 0.9622549
0.94509804 0.94509804 0.94509804
0.94509804 0.94509804 0.94509804
0.94901961 0.94901961 0.94901961
0.95171569 0.95171569 0.95171569
0.94901961 0.94901961 0.94901961
0.95686275 0.95686275 0.95686275
0.95294118 0.95294118 0.95294118
0.95441176 0.95441176 0.95441176
0.94901961 0.94901961 0.94901961
0.9504902 0.9504902 0.9504902
0.94969363 0.94969363 0.94969363
0.95686275 0.95686275 0.95686275
0.95686275 0.95686275 0.95686275
0.95294118 0.95294118 0.95294118
0.95686275 0.95686275 0.95686275
0.9622549 0.9622549 0.9622549
0.95980392 0.95980392 0.95980392
0.96617647 0.96617647 0.96617647
0.95686275 0.95686275 0.95686275
0.96078431 0.96078431 0.96078431
0.96078431 0.96078431 0.96078431
0.9622549 0.9622549 0.9622549
0.96176471 0.96176471 0.96176471
0.95183824 0.95183824 0.95183824
0.97352941 0.97352941 0.97352941
0.96960784 0.96960784 0.96960784
0.97254902 0.97254902 0.97254902
0.95294118 0.95294118 0.95294118
0.96078431 0.96078431 0.96078431
0.96127451 0.96127451 0.96127451
0.96078431 0.96078431 0.96078431
0.97254902 0.97254902 0.97254902
0.97647059 0.97647059 0.97647059
0.98431373 0.98431373 0.98431373
0.98431373 0.98431373 0.98431373
0.98480392 0.98480392 0.98480392
0.94901961 0.94901961 0.94901961
0.96421569 0.96421569 0.96421569
0.97254902 0.97254902 0.97254902
0.96862745 0.96862745 0.96862745
0.97254902 0.97254902 0.97254902
0.98431373 0.98431373 0.98431373
0.98137255 0.98137255 0.98137255
0.98823529 0.98823529 0.98823529
0.99607843 0.99607843 0.99607843
