site/assets/luts/natron-haldclut--polaroid-690-cold---422156eb8.cube
# LUTr-Project: LUTr — LUTrepository
# LUTr-Schema-Version: 1
# LUTr-ID: natron-haldclut--polaroid-690-cold---422156eb8
# LUTr-Title: polaroid 690 cold -
# LUTr-Collection: Natron HaldCLUT
# LUTr-Collection-ID: natron-haldclut-presets
# LUTr-Source: https://github.com/NatronGitHub/clut
# LUTr-Source-File: submissions/natron-haldclut-presets/instant_pro/polaroid_690_cold_-.png
# LUTr-Source-Format: PNG
# LUTr-Source-SHA256: 4e8c7ebc0ff54bd4b6fd60b1e86bb688c6be3a3b2844c73a3f36fbaa621fa88d
# LUTr-License: CC-BY-SA-4.0
# LUTr-License-URL: https://github.com/NatronGitHub/clut#license
# LUTr-Tags: creative, film, film-emulation, hald-clut, natron, png, cool, cube
# LUTr-Transform-Class: film-emulation
# LUTr-Input-Color-Space: srgb
# LUTr-Output-Color-Space: srgb
# LUTr-Color-Space-Confidence: assumed-display-referred
# LUTr-Conversion-Method: PNG LUT image decoded at 16-bit and sampled to 25x25x25 3D CUBE
# LUTr-Conversion-Date: 2026-07-27
# LUTr-Conversion-Tool: LUTr scripts/convert-all-to-cube.mjs
# LUTr-Conversion-Grid: 25x25x25
# LUTr-Note: Preserve this metadata and the upstream license notices when redistributing.
TITLE "polaroid 690 cold -"
LUT_3D_SIZE 9
DOMAIN_MIN 0 0 0
DOMAIN_MAX 1 1 1
0 0.078431373 0.070588235
0.025490196 0.082352941 0.067156863
0.15686275 0.083333333 0.07745098
0.30490196 0.028921569 0.049509804
0.46470588 0 0.064705882
0.61127451 0 0.069117647
0.74509804 0 0.066666667
0.88039216 0 0.070588235
0.96078431 0 0.08627451
0 0.15147059 0.081862745
0.016053922 0.14846814 0.054963235
0.17928922 0.14056373 0.057843137
0.33333333 0.11341912 0.073223039
0.49142157 0.053921569 0.092401961
0.64166667 0.0024509804 0.076960784
0.77205882 0.0073529412 0.082352941
0.89166667 0.003002451 0.077512255
0.95245098 0 0.070098039
0.0029411765 0.23921569 0.091176471
0.0087009804 0.24019608 0.070955882
0.17377451 0.2502451 0.049754902
0.37267157 0.24644608 0.054411765
0.55294118 0.22745098 0.083823529
0.69803922 0.1807598 0.079901961
0.81372549 0.11470588 0.090196078
0.91948529 0.066666667 0.086764706
0.99607843 0.07254902 0.069607843
0 0.36127451 0.080882353
0.0039215686 0.3627451 0.095588235
0.13517157 0.36568627 0.078431373
0.36911765 0.38627451 0.050980392
0.55833333 0.39534314 0.04754902
0.72990196 0.40447304 0.098039216
0.84607843 0.39656863 0.098651961
0.93658088 0.38204657 0.11231618
0.99607843 0.36862745 0.092647059
0 0.49411765 0.10196078
0.0058823529 0.48284314 0.10955882
0.13333333 0.48137255 0.10490196
0.33431373 0.50637255 0.068137255
0.51666667 0.52745098 0.023529412
0.69166667 0.55833333 0.0071078431
0.82941176 0.57892157 0.051960784
0.94656863 0.59289216 0.1377451
0.99607843 0.58431373 0.16078431
0 0.62156863 0.1004902
0.0088235294 0.61372549 0.10686275
0.1127451 0.60980392 0.094485294
0.31329657 0.6122549 0.058823529
0.48823529 0.64166667 0.024019608
0.64901961 0.66862745 0.0014705882
0.7995098 0.69068627 0.024877451
0.92205882 0.69724265 0.061397059
0.99607843 0.70490196 0.18284314
0 0.73235294 0.10980392
0.022426471 0.72843137 0.095343137
0.19411765 0.72843137 0.10122549
0.3504902 0.72058824 0.046691176
0.50196078 0.73235294 0.028921569
0.65110294 0.74852941 0.0024509804
0.79215686 0.7627451 0.022794118
0.90735294 0.77058824 0.050490196
0.99215686 0.77843137 0.17254902
0.27941176 0.8245098 0.17009804
0.30631127 0.825 0.17996324
0.37598039 0.82120098 0.15061275
0.46439951 0.81764706 0.13529412
0.57181373 0.82107843 0.11789216
0.68921569 0.83069853 0.12990196
0.80686275 0.84166667 0.10833333
0.90735294 0.85245098 0.11960784
0.96421569 0.86029412 0.17647059
0.47843137 0.92941176 0.31764706
0.47107843 0.91421569 0.29509804
0.5245098 0.9254902 0.29901961
0.58921569 0.93186275 0.29411765
0.64313725 0.90980392 0.25882353
0.75196078 0.93970588 0.27941176
0.83039216 0.94117647 0.28529412
0.91911765 0.95343137 0.28284314
0.98431373 0.96078431 0.29019608
0 0.075 0.11617647
0.011703431 0.086703431 0.13137255
0.15196078 0.093627451 0.13566176
0.29901961 0.069117647 0.13235294
0.45343137 0.019607843 0.14583333
0.60214461 0 0.14215686
0.73860294 0 0.1245098
0.87990196 0 0.12444853
0.99166667 0 0.11323529
0 0.14411765 0.13970588
0.0082720588 0.15196078 0.14748775
0.16409314 0.14068627 0.1404565
0.32941176 0.12263327 0.14267004
0.48731618 0.062990196 0.14754902
0.63649663 0.0071920956 0.13970588
0.76465993 0.0039215686 0.13535539
0.88463542 0 0.1245098
0.98333333 0.003002451 0.12408088
0 0.2504902 0.15882353
0.0077971814 0.24803922 0.15882353
0.18063725 0.25389093 0.16253064
0.38235294 0.25874694 0.16608456
0.55294118 0.2348652 0.18143382
0.69056373 0.18284314 0.16617647
0.81084559 0.12558211 0.15768995
0.91815257 0.060340074 0.14384191
0.99117647 0.030637255 0.13235294
0 0.37843137 0.18284314
0 0.37408088 0.17483915
0.17143076 0.37446385 0.16715686
0.37665441 0.38952972 0.1627451
0.56397059 0.4004902 0.16240809
0.72745098 0.41126685 0.18290441
0.84215686 0.39901961 0.18517157
0.93478094 0.37078738 0.169447
0.99393382 0.35588235 0.15784314
0 0.50539216 0.18284314
0 0.49754902 0.18091299
0.14356618 0.49362745 0.17463235
0.35171569 0.50833333 0.15637255
0.52941176 0.53137255 0.13198529
0.69166667 0.56151961 0.12745098
0.83333333 0.58529412 0.16703431
0.94114583 0.58826593 0.20147059
0.98627451 0.58235294 0.21642157
0.0042279412 0.6254902 0.18431373
0.0078431373 0.62387408 0.17865349
0.11377145 0.62022059 0.16185662
0.33039216 0.62235754 0.14412531
0.50214461 0.64166667 0.12254902
0.65686275 0.67015931 0.10410539
0.8067402 0.6897212 0.11029412
0.92522212 0.69883578 0.1745098
0.9903799 0.70637255 0.23235294
0.0057598039 0.73713235 0.18284314
0.049203431 0.73333333 0.17941176
0.22254902 0.73235294 0.1609375
0.35923713 0.7245098 0.14362745
0.51237745 0.7401348 0.13504902
0.657981 0.75284926 0.11960784
0.79215686 0.76666667 0.12374387
0.90784314 0.7745098 0.16502757
0.97757353 0.77941176 0.20833333
0.28180147 0.83284314 0.23970588
0.30833333 0.82892157 0.23535539
0.38002451 0.825 0.20980392
0.46652114 0.82107843 0.19564951
0.5703125 0.82328431 0.19635417
0.69109222 0.83020833 0.19001225
0.80321691 0.845481 0.19963235
0.91127451 0.85637255 0.18736979
0.98425245 0.86029412 0.23480392
0.47843137 0.92941176 0.34068627
0.48927696 0.92898284 0.34019608
0.5127451 0.91862745 0.32585784
0.55055147 0.89466912 0.28370098
0.66495098 0.93357843 0.30906863
0.7377451 0.91764706 0.28970588
0.82953431 0.9377451 0.30931373
0.91519608 0.93088235 0.28425245
0.97696078 0.95343137 0.32058824
0 0.11666667 0.26568627
0.0039215686 0.10625 0.26960784
0.14019608 0.10196078 0.27745098
0.30245098 0.091666667 0.2495098
0.45686275 0.058823529 0.2622549
0.59914216 0.0096813725 0.25453431
0.7254902 0 0.23431373
0.84607843 0 0.20490196
0.96176471 0 0.19803922
0 0.15183824 0.2627451
0.0043504902 0.16205576 0.27708333
0.16608456 0.16295956 0.28480392
0.33639706 0.15298713 0.28120404
0.48186275 0.10827206 0.26856618
0.61360294 0.012346814 0.24903493
0.73468137 0.0029411765 0.24304534
0.86475184 0 0.22659314
0.95992647 0 0.20539216
0 0.25808824 0.28137255
0.010998775 0.25796569 0.28887868
0.2004902 0.26960784 0.30294118
0.37781863 0.26914828 0.30392157
0.53627451 0.24742647 0.29901961
0.65686275 0.17132353 0.27625613
0.78333333 0.09564951 0.25465686
0.8995098 0.028247549 0.23786765
0.97647059 0.012990196 0.2245098
0 0.38982843 0.31127451
0.0089613971 0.38987439 0.30882353
0.20245098 0.38612132 0.30882353
0.38835784 0.39918811 0.30974265
0.56930147 0.40533088 0.31740196
0.70992647 0.39215686 0.30301777
0.82288603 0.37352941 0.29675245
0.92247243 0.34085478 0.28003983
0.98823529 0.31568627 0.26188725
0 0.5245098 0.30882353
0.0080269608 0.52408088 0.3127451
0.18480392 0.50894608 0.29669118
0.36231618 0.51697304 0.29479167
0.54289216 0.54068627 0.29264706
0.6995098 0.56617647 0.29620098
0.83541667 0.58529412 0.3185049
0.93480392 0.56764706 0.32261029
0.98872549 0.56715686 0.32009804
0.0039215686 0.64264706 0.29767157
0.0042892157 0.63886336 0.29609375
0.15413603 0.63250613 0.2846201
0.34558824 0.63273591 0.27696078
0.50122549 0.64558824 0.27113971
0.66747855 0.67254902 0.27352941
0.81056985 0.68676471 0.28992034
0.92518382 0.69724265 0.32401961
0.99215686 0.70392157 0.36911765
0.00024509804 0.74705882 0.29019608
0.10012255 0.74313725 0.29485294
0.22830882 0.73927696 0.2778799
0.36936275 0.73345588 0.27224265
0.5127451 0.74007353 0.26666667
0.65833333 0.75526961 0.26531863
0.79601716 0.76666667 0.27058824
0.90343137 0.77463235 0.29656863
0.98823529 0.78308824 0.34803922
0.26973039 0.83676471 0.33835784
0.31144301 0.83284314 0.32261029
0.37769608 0.82901348 0.31176471
0.46380208 0.825 0.29852941
0.56838235 0.8252451 0.28363971
0.68956801 0.83284314 0.28247549
0.8004902 0.84460784 0.2872549
0.90343137 0.85626532 0.3051777
0.98480392 0.86421569 0.33468137
0.45490196 0.93235294 0.42058824
0.47267157 0.92928922 0.40882353
0.50784314 0.9252451 0.39705882
0.57169118 0.92303922 0.38345588
0.65588235 0.93382353 0.37794118
0.73455882 0.92463235 0.36090686
0.8254902 0.93627451 0.37352941
0.91127451 0.95208333 0.38835784
0.99411765 0.9745098 0.40784314
0 0.11372549 0.40980392
0.0039215686 0.10980392 0.41617647
0.067279412 0.10833333 0.4372549
0.32843137 0.10196078 0.45392157
0.47622549 0.094852941 0.425
0.60833333 0.047181373 0.38872549
0.72732843 0.0035539216 0.37598039
0.84117647 0 0.35557598
0.94509804 0 0.33627451
0 0.16354167 0.41617647
0.00042892157 0.1713848 0.42401961
0.11757047 0.17401961 0.44509804
0.35931373 0.17237286 0.47303922
0.49617034 0.15621936 0.44117647
0.61998315 0.10274203 0.40294118
0.73667279 0.013327206 0.37990196
0.84442402 0.0021446078 0.36078431
0.94822304 0 0.3377451
0 0.25882353 0.42303922
0.0075367647 0.25882353 0.42794118
0.17040441 0.2736826 0.45315564
0.3842065 0.28535539 0.47809436
0.52303922 0.25533088 0.45196078
0.63826593 0.21101409 0.41787684
0.75560662 0.10453431 0.38345588
0.86897978 0.016620711 0.35
0.96409314 0.0078431373 0.33529412
0 0.39264706 0.45055147
0.0099877451 0.39361979 0.45569853
0.21986826 0.40528493 0.46323529
0.39993873 0.41709559 0.47522978
0.54800858 0.40658701 0.47156863
0.66528033 0.36078431 0.43731618
0.78653493 0.31807598 0.41127451
0.8995098 0.26325061 0.37647059
0.98192402 0.2127451 0.35343137
0 0.54436275 0.46960784
0.021507353 0.54632353 0.47107843
0.2223652 0.54166667 0.46795343
0.38455882 0.54362745 0.4541973
0.55294118 0.55710784 0.45943627
0.70588235 0.58186275 0.4745098
0.82647059 0.57346814 0.47083333
0.92303922 0.54420956 0.44803922
0.99215686 0.51617647 0.42303922
0 0.67199755 0.45147059
0.0011106005 0.66960784 0.45673254
0.19552696 0.66323529 0.44931066
0.36758578 0.65784314 0.43580729
0.50784314 0.65857843 0.42555147
0.66675092 0.68376225 0.43073683
0.8071538 0.69460784 0.45490196
0.92163756 0.70490196 0.48792892
0.98737745 0.70447304 0.51145833
0.035416667 0.7622549 0.44754902
0.092248775 0.75966605 0.44799326
0.2421875 0.75551471 0.43422181
0.37830882 0.74895833 0.4157935
0.51066176 0.74589461 0.3995098
0.65819547 0.76029412 0.40620404
0.79828431 0.77074142 0.425
0.90772059 0.7774663 0.44852941
0.97892157 0.78627451 0.48039216
0.26715686 0.84068627 0.45018382
0.2959712 0.83937653 0.44450061
0.36377145 0.83898591 0.43596814
0.45576746 0.8316636 0.41960784
0.55848652 0.82892157 0.39813113
0.67996324 0.83627451 0.40196078
0.79198836 0.8457261 0.4229473
0.8995098 0.85680147 0.4312117
0.99166667 0.87077206 0.46519608
0.44068627 0.93333333 0.51176471
0.45833333 0.9372549 0.50784314
0.49644608 0.93333333 0.5
0.55245098 0.92401961 0.47794118
0.63995098 0.9377451 0.4745098
0.71960784 0.92990196 0.45735294
0.81617647 0.94852941 0.475
0.903125 0.92469363 0.47567402
0.98284314 0.96176471 0.5
0 0.12352941 0.56666667
0.0039215686 0.13088235 0.57622549
0 0.12745098 0.59362745
0.33946078 0.13921569 0.6254902
0.53823529 0.076470588 0.63039216
0.66715686 0.05245098 0.59901961
0.75588235 0.049019608 0.53431373
0.85661765 0.01372549 0.51568627
0.94901961 0.0039215686 0.50392157
0 0.17916667 0.5745098
0 0.1870098 0.5823223
0.084191176 0.1911152 0.60098039
0.36421569 0.18039216 0.63578431
0.56409314 0.16495098 0.64767157
0.67092525 0.15284926 0.60030637
0.7591299 0.12083333 0.54528186
0.85857843 0.0088541667 0.52153799
0.94044118 0.0098039216 0.50392157
0 0.27058824 0.57990196
0.0034926471 0.27279412 0.58069853
0.14522059 0.28627451 0.60183824
0.38088235 0.29626225 0.63523284
0.57205882 0.28946078 0.64705882
0.675 0.27107843 0.60177696
0.76605392 0.23088235 0.55968137
0.86194853 0.11660539 0.525
0.95735294 0.023529412 0.49901961
0.0039215686 0.39264706 0.5875
0.0053002451 0.3870098 0.57925858
0.18823529 0.39963235 0.59313725
0.39604779 0.41905637 0.62552083
0.56666667 0.42990196 0.64767157
0.68480392 0.39810049 0.61666667
0.7754902 0.3466299 0.56666667
0.87925858 0.24960172 0.50965074
0.97965686 0.077941176 0.4629902
0.0029411765 0.54901961 0.61078431
0.063480392 0.54865196 0.60772059
0.24093137 0.55563725 0.61372549
0.40232843 0.56629902 0.6252451
0.55686275 0.5745098 0.63578431
0.69730392 0.57818627 0.63443627
0.79509804 0.50980392 0.57892157
0.89779412 0.45992647 0.53553922
0.97647059 0.40588235 0.50686275
0.0083333333 0.69338235 0.62279412
0.12190564 0.69068627 0.62401961
0.26789216 0.68584559 0.62083333
0.39414828 0.6875 0.61541054
0.52610294 0.68088235 0.59460784
0.67647059 0.69384191 0.60291054
0.80514706 0.69724265 0.61715686
0.91029412 0.69283088 0.6390625
0.98014706 0.67352941 0.60588235
0.1127451 0.77941176 0.60490196
0.184375 0.77696078 0.60343137
0.29129902 0.77156863 0.59767157
0.41151961 0.76911765 0.59136029
0.52965686 0.76102941 0.56887255
0.65625 0.7627451 0.55808824
0.79166667 0.7745098 0.58382353
0.90539216 0.78235294 0.60667892
0.98970588 0.7872549 0.64215686
0.24436275 0.85220588 0.59852941
0.29123775 0.85174632 0.59803922
0.3754902 0.84834559 0.58872549
0.45784314 0.84313725 0.57328431
0.55759804 0.83357843 0.54914216
0.65980392 0.83284314 0.53970588
0.78578431 0.84546569 0.55220588
0.8958027 0.86029412 0.57693015
0.98186275 0.86813725 0.61004902
0.43137255 0.94117647 0.64117647
0.44093137 0.93921569 0.63333333
0.48039216 0.93333333 0.62009804
0.53823529 0.93676471 0.61127451
0.61176471 0.9254902 0.59607843
0.70122549 0.93210784 0.58357843
0.79754902 0.93431373 0.58529412
0.89166667 0.94191176 0.60073529
0.96078431 0.94901961 0.61764706
0.0039215686 0.14264706 0.71715686
0.0060661765 0.1463848 0.72873775
0.016666667 0.14901961 0.74252451
0.34356618 0.13480392 0.76911765
0.57647059 0.10759804 0.80122549
0.71807598 0.086458333 0.78927696
0.81764706 0.064215686 0.74656863
0.88743873 0.095710784 0.69313725
0.96617647 0.029411765 0.67401961
0.0039215686 0.20441176 0.725
0.0083333333 0.19901961 0.73471967
0.081265319 0.19509804 0.74272365
0.36421569 0.19264706 0.76519608
0.57647059 0.19215686 0.78838848
0.72733609 0.18148744 0.79430913
0.8127451 0.15784314 0.74803922
0.88480392 0.15410539 0.69068627
0.96617647 0.071568627 0.67401961
0 0.27941176 0.72561275
0.0039215686 0.2814951 0.73662684
0.1245098 0.2870098 0.7426777
0.38258272 0.29803922 0.76127451
0.58431373 0.31145833 0.79497549
0.72352941 0.31813725 0.79088542
0.81164216 0.29313725 0.74803922
0.88498775 0.2745098 0.70219056
0.9622549 0.17561275 0.67401961
0.0044730392 0.37751225 0.71139706
0.014460784 0.38596814 0.71078431
0.16973039 0.39845282 0.72333027
0.38480392 0.41349571 0.74313725
0.57647059 0.45052083 0.78431373
0.71623775 0.46883425 0.79654565
0.79849877 0.43506434 0.74865196
0.8794807 0.38694853 0.70214461
0.96954657 0.28676471 0.65398284
0.0051470588 0.51421569 0.7122549
0.0048713235 0.51485907 0.71176471
0.17892157 0.53192402 0.72426471
0.3651348 0.53382353 0.72598039
0.54166667 0.58394608 0.75808824
0.70318627 0.61688113 0.79065564
0.78780637 0.5564951 0.73627451
0.87981005 0.48661152 0.68759191
0.97426471 0.39558824 0.64166667
0.023835784 0.67892157 0.7377451
0.083632047 0.67658548 0.73529412
0.25496324 0.67369792 0.74313725
0.41554075 0.68169424 0.75251225
0.54417892 0.68949142 0.75052083
0.68670343 0.71442249 0.77506127
0.79546569 0.69993873 0.77052696
0.88866422 0.62867647 0.70974265
0.97352941 0.57738971 0.66127451
0.30147059 0.78835784 0.76323529
0.33102022 0.78632047 0.75943627
0.39083946 0.78443627 0.75775123
0.46617647 0.77843137 0.75490196
0.56727941 0.77843137 0.75226716
0.66557904 0.77519914 0.73647365
0.78495711 0.78428309 0.75373775
0.89558824 0.78622855 0.76323529
0.98333333 0.79301471 0.78026961
0.3754902 0.86029412 0.74852941
0.38333333 0.85765931 0.74464614
0.43872549 0.86029412 0.75508578
0.49467678 0.85595129 0.74607843
0.57435662 0.8510723 0.73514093
0.65961244 0.84460784 0.70638021
0.77254902 0.85200674 0.70882353
0.88988971 0.8657935 0.72542892
0.97303922 0.87567402 0.75588235
0.46960784 0.94117647 0.77058824
0.46145833 0.94932598 0.77107843
0.49571078 0.94754902 0.76666667
0.54754902 0.94362745 0.75245098
0.60784314 0.93995098 0.73995098
0.68768382 0.94117647 0.72653186
0.7754902 0.91421569 0.70147059
0.87843137 0.95324755 0.73008578
0.97401961 0.9754902 0.75637255
0.0088235294 0.17352941 0.84705882
0.0077205882 0.17352941 0.85845588
0.1372549 0.16666667 0.87181373
0.38664216 0.14852941 0.8810049
0.58823529 0.18382353 0.89656863
0.74742647 0.18480392 0.91384804
0.84681373 0.19681373 0.9
0.92843137 0.19460784 0.86029412
0.97745098 0.20784314 0.82843137
0.01127451 0.22340686 0.85098039
0.011703431 0.2182598 0.8622549
0.17950368 0.2145527 0.86311275
0.4095435 0.2182598 0.87634804
0.58314951 0.21758578 0.89613971
0.7506587 0.25632659 0.91407782
0.84632353 0.26510417 0.89313725
0.92003676 0.25081189 0.86568627
0.98443627 0.24987745 0.83137255
0.0078431373 0.29681373 0.85563725
0.035876225 0.29509804 0.85873162
0.22254902 0.29993873 0.86219363
0.41029412 0.31139706 0.86960784
0.58492647 0.3252451 0.89264706
0.73538603 0.36617647 0.90490196
0.84387255 0.38988971 0.89240196
0.91645221 0.35539216 0.87095588
0.96960784 0.3372549 0.82843137
0.0028186275 0.38872549 0.83676471
0.01484375 0.39606311 0.84460784
0.21770833 0.40389093 0.84938725
0.40539216 0.42023591 0.86066176
0.57285539 0.45196078 0.88284314
0.71977635 0.50637255 0.89846814
0.83112745 0.51681985 0.89561887
0.9053462 0.47892157 0.86626838
0.96433824 0.44754902 0.82414216
0.0044117647 0.50441176 0.81960784
0.0025735294 0.50980392 0.82696078
0.12009804 0.50502451 0.82598039
0.34883578 0.53088235 0.83517157
0.53946078 0.56985294 0.85980392
0.70196078 0.62432598 0.88970588
0.80147059 0.63137255 0.87696078
0.88235294 0.6002451 0.84877451
0.95686275 0.54607843 0.81421569
0 0.65404412 0.83039216
0.0078431373 0.65382966 0.82855392
0.14264706 0.65094975 0.83106618
0.34852941 0.64620098 0.82977941
0.50042892 0.66452206 0.83970588
0.67378983 0.70369179 0.87002145
0.8015625 0.72349877 0.88137255
0.87401961 0.69581801 0.85448836
0.95343137 0.60784314 0.78088235
0.20588235 0.7747549 0.85098039
0.27536765 0.77558211 0.84935662
0.35686275 0.77285539 0.85055147
0.46393995 0.77503064 0.85
0.58357843 0.77230392 0.85784314
0.69877451 0.78835784 0.87417279
0.80514706 0.79803922 0.88020833
0.89512868 0.79635417 0.88164828
0.96372549 0.72156863 0.81740196
0.47904412 0.86813725 0.86911765
0.50050551 0.86421569 0.87342218
0.53082108 0.86372549 0.8698223
0.57357537 0.86122855 0.86594669
0.63308824 0.86115196 0.865625
0.71087623 0.86078431 0.85863971
0.78985907 0.86593137 0.85854779
0.8872549 0.87640931 0.86519608
0.96911765 0.87990196 0.87303922
0.55196078 0.94509804 0.87352941
0.54803922 0.94509804 0.87647059
0.56176471 0.92352941 0.86960784
0.60502451 0.94754902 0.87316176
0.65343137 0.94901961 0.86372549
0.70477941 0.94056373 0.8567402
0.77647059 0.95098039 0.84632353
0.86715686 0.95698529 0.83835784
0.96470588 0.97941176 0.85686275
0.089705882 0.20931373 0.95735294
0.19466912 0.21415441 0.95392157
0.32708333 0.21764706 0.95343137
0.47616422 0.20735294 0.96194853
0.61470588 0.22156863 0.96568627
0.74362745 0.26501225 0.96911765
0.86568627 0.33039216 0.97659314
0.94215686 0.35545343 0.95784314
0.99166667 0.35588235 0.95392157
0.15257353 0.24803922 0.95735294
0.22511489 0.25195313 0.95386795
0.3471201 0.25931373 0.95
0.47665441 0.2627451 0.95765931
0.62101716 0.27601103 0.96375613
0.74705882 0.31256127 0.96960784
0.85747549 0.3725337 0.97303922
0.94645374 0.39809283 0.96906403
0.98480392 0.38676471 0.95042892
0.17120098 0.32843137 0.95
0.23337929 0.33137255 0.94693627
0.3557598 0.34261642 0.95
0.48288909 0.34969363 0.95735294
0.62040441 0.36881127 0.95998775
0.74609375 0.41458333 0.96697304
0.85 0.47068015 0.97303922
0.93049939 0.48861826 0.96127451
0.97647059 0.45833333 0.94215686
0.15716912 0.42401961 0.94215686
0.19562653 0.43513327 0.93829657
0.32593444 0.43345588 0.94362745
0.46764706 0.45251991 0.94748009
0.60729167 0.48553922 0.95147059
0.72922794 0.53154871 0.96011795
0.83872549 0.58667279 0.96533395
0.92069547 0.59503676 0.96307445
0.97616422 0.5658701 0.94215686
0.018382353 0.52598039 0.92720588
0.054626225 0.53036152 0.92674632
0.22849265 0.53627451 0.92800245
0.40670956 0.55514706 0.93250613
0.56875 0.59191176 0.93823529
0.71020221 0.62818627 0.94852941
0.82432598 0.66758578 0.95753676
0.90735294 0.67693015 0.95364583
0.97132353 0.64436275 0.93897059
0.0014705882 0.65294118 0.91519608
0.011925551 0.6490579 0.91546415
0.039276961 0.63783701 0.9115962
0.31972273 0.65 0.91538756
0.51568627 0.66951593 0.92677696
0.68762255 0.70403646 0.93922335
0.81505821 0.74019608 0.9495098
0.89793199 0.73703278 0.94589461
0.93627451 0.72941176 0.94001225
0.15686275 0.76764706 0.91948529
0.16346507 0.76383272 0.91873468
0.29978554 0.76130515 0.91862745
0.42303922 0.76012561 0.91470588
0.53541667 0.75943627 0.91960784
0.63422181 0.75693934 0.92455576
0.79537377 0.79433211 0.93887868
0.90096507 0.81127451 0.94215686
0.94865196 0.77107843 0.91776961
0.44264706 0.86029412 0.92696078
0.48039216 0.86029412 0.93039216
0.5060049 0.85637255 0.93049939
0.57489277 0.86029412 0.93039216
0.64191176 0.86029412 0.9323223
0.72107843 0.86072304 0.93474265
0.80343137 0.86792279 0.9379136
0.90299479 0.88463542 0.94515931
0.95245098 0.87395833 0.93039216
0.61176471 0.94852941 0.93823529
0.63039216 0.94509804 0.94209559
0.63615196 0.93860294 0.9377451
0.68805147 0.95067402 0.94344363
0.73112745 0.95686275 0.94558824
0.76158088 0.94803922 0.94166667
0.82610294 0.94779412 0.93431373
0.88082108 0.95686275 0.92303922
0.96078431 0.98088235 0.93088235
0.43137255 0.31372549 0.99607843
0.4504902 0.325 0.99607843
0.50784314 0.32156863 0.99607843
0.56568627 0.30735294 0.99215686
0.68431373 0.35882353 0.99607843
0.77696078 0.39117647 1
0.86568627 0.40784314 0.99215686
0.94215686 0.52009804 1
0.98039216 0.5372549 0.99607843
0.44411765 0.35637255 1
0.45398284 0.35245098 0.99607843
0.51568627 0.35637255 0.99607843
0.56519608 0.33872549 0.99215686
0.67303922 0.37205882 0.99264706
0.77303922 0.42401961 0.99852941
0.85784314 0.475 0.99607843
0.93431373 0.5401348 0.99908088
0.99264706 0.56862745 0.99656863
0.43823529 0.42843137 0.99607843
0.45428922 0.42107843 0.99509804
0.5127451 0.42867647 0.99607843
0.58272059 0.43370098 0.99301471
0.67647059 0.45686275 0.99215686
0.75833333 0.4689951 0.98823529
0.85 0.53137255 0.99313725
0.93039216 0.59742647 0.99607843
0.97647059 0.61470588 0.99607843
0.43186275 0.52107843 0.99754902
0.44362745 0.52107843 0.99607843
0.50085784 0.52438725 0.99607843
0.58137255 0.54068627 0.99699755
0.66078431 0.54779412 0.99142157
0.74460784 0.56525735 0.98878676
0.8432598 0.63296569 0.99607843
0.92303922 0.66390931 0.99607843
0.99460784 0.67401961 0.99460784
0.37254902 0.60980392 0.99215686
0.40637255 0.61397059 0.99240196
0.45392157 0.60980392 0.98823529
0.55122549 0.62745098 0.99093137
0.64509804 0.64313725 0.9872549
0.7495098 0.6752451 0.99338235
0.8372549 0.69117647 0.99215686
0.91862745 0.71715686 0.99387255
0.98039216 0.68823529 0.97647059
0.30588235 0.69852941 0.98823529
0.32530637 0.69460784 0.98805147
0.38872549 0.69411765 0.98529412
0.50398284 0.70006127 0.98823529
0.61470588 0.7127451 0.98627451
0.70692402 0.71176471 0.97009804
0.83676471 0.75477941 0.99068627
0.92224265 0.77647059 0.99166667
0.95686275 0.76911765 0.98039216
0.37647059 0.78333333 0.98039216
0.38897059 0.77977941 0.98039216
0.41960784 0.7747549 0.97745098
0.45882353 0.76470588 0.97022059
0.5872549 0.7754902 0.97647059
0.68284314 0.7747549 0.97022059
0.80294118 0.79730392 0.97328431
0.91127451 0.82634804 0.9754902
0.94411765 0.8372549 0.9754902
0.50882353 0.87205882 0.97303922
0.49264706 0.86029412 0.96470588
0.55061275 0.86715686 0.975
0.58186275 0.86207108 0.96617647
0.64215686 0.86029412 0.97230392
0.72156863 0.86421569 0.97469363
0.81519608 0.86813725 0.98002451
0.90294118 0.8877451 0.9716299
0.94558824 0.90343137 0.97254902
0.64705882 0.95686275 0.97647059
0.64362745 0.95343137 0.97254902
0.64215686 0.95196078 0.96470588
0.69656863 0.95833333 0.97647059
0.72352941 0.95490196 0.96862745
0.77941176 0.95686275 0.96470588
0.84509804 0.95490196 0.96960784
0.90686275 0.96029412 0.97254902
0.98431373 0.99607843 0.98431373
