site/assets/luts/natron-haldclut--fuji-provia-100f--d7f6ecd63.cube
# LUTr-Project: LUTr — LUTrepository
# LUTr-Schema-Version: 1
# LUTr-ID: natron-haldclut--fuji-provia-100f--d7f6ecd63
# LUTr-Title: fuji provia 100f
# LUTr-Collection: Natron HaldCLUT
# LUTr-Collection-ID: natron-haldclut-presets
# LUTr-Source: https://github.com/NatronGitHub/clut
# LUTr-Source-File: submissions/natron-haldclut-presets/colorslide/fuji_provia_100f.png
# LUTr-Source-Format: PNG
# LUTr-Source-SHA256: f77063246c8f98860378b9c997df5cc567b11182036265267821c2088167214d
# LUTr-License: CC-BY-SA-4.0
# LUTr-License-URL: https://github.com/NatronGitHub/clut#license
# LUTr-Tags: creative, film, film-emulation, hald-clut, natron, png, cube
# LUTr-Transform-Class: film-emulation
# LUTr-Input-Color-Space: srgb
# LUTr-Output-Color-Space: srgb
# LUTr-Color-Space-Confidence: assumed-display-referred
# LUTr-Conversion-Method: PNG LUT image decoded at 16-bit and sampled to 25x25x25 3D CUBE
# LUTr-Conversion-Date: 2026-07-27
# LUTr-Conversion-Tool: LUTr scripts/convert-all-to-cube.mjs
# LUTr-Conversion-Grid: 25x25x25
# LUTr-Note: Preserve this metadata and the upstream license notices when redistributing.
TITLE "fuji provia 100f"
LUT_3D_SIZE 9
DOMAIN_MIN 0 0 0
DOMAIN_MAX 1 1 1
0.02745098 0.062745098 0.019607843
0.10833333 0.0088235294 0.0044117647
0.23137255 0.016666667 0.021568627
0.36519608 0.037745098 0.011764706
0.50784314 0.033333333 0.0078431373
0.66372549 0.028921569 0.0053921569
0.82843137 0.030392157 0.0039215686
0.98284314 0 0
0.99607843 0.0078431373 0
0.046078431 0.11568627 0.049509804
0.13529412 0.11966912 0.046568627
0.24313725 0.11960784 0.042769608
0.37058824 0.11127451 0.02745098
0.50980392 0.10392157 0.040196078
0.66764706 0.094607843 0.032843137
0.82843137 0.073039216 0.0074754902
0.96127451 0.073039216 0.0078431373
0.99215686 0.068627451 0.0039215686
0.074509804 0.23921569 0.12058824
0.15539216 0.24313725 0.11862745
0.25171569 0.23308824 0.12647059
0.37634804 0.23431373 0.095710784
0.51715686 0.22745098 0.1
0.67401961 0.21960784 0.090686275
0.83235294 0.20294118 0.06372549
0.97941176 0.18296569 0.024019608
1 0.17647059 0.014705882
0.087254902 0.36666667 0.17745098
0.16715686 0.36519608 0.18903186
0.26372549 0.36127451 0.19313725
0.38480392 0.3627451 0.17261029
0.52352941 0.36666667 0.16176471
0.68094363 0.35827206 0.14852941
0.83872549 0.34669118 0.12107843
0.96029412 0.32990196 0.09442402
1 0.31421569 0.035294118
0.11960784 0.51176471 0.24705882
0.17720588 0.51348039 0.2625
0.27892157 0.51176471 0.24558824
0.39803922 0.51176471 0.24705882
0.53627451 0.50980392 0.23431373
0.68848039 0.50245098 0.21691176
0.84803922 0.49607843 0.20147059
0.98357843 0.49191176 0.17205882
1 0.47254902 0.11764706
0.17794118 0.65833333 0.3377451
0.21795343 0.6622549 0.33382353
0.2995098 0.6622549 0.32990196
0.4161152 0.6598652 0.32898284
0.55833333 0.66078431 0.30833333
0.69901961 0.65441176 0.30490196
0.85196078 0.6504902 0.27401961
0.99479167 0.65 0.24332108
1 0.63480392 0.19411765
0.22941176 0.80490196 0.42647059
0.27205882 0.80490196 0.41911765
0.35514706 0.80392157 0.41470588
0.4627451 0.80392157 0.41078431
0.58529412 0.80490196 0.39901961
0.72389706 0.80392157 0.38333333
0.85661765 0.80098039 0.36666667
0.99264706 0.8004902 0.33615196
0.99705882 0.78921569 0.3127451
0.36372549 0.93872549 0.51862745
0.38921569 0.93921569 0.50343137
0.45919118 0.92316176 0.50343137
0.54215686 0.93167892 0.49705882
0.64289216 0.93627451 0.49166667
0.75539216 0.93970588 0.4786152
0.87941176 0.94313725 0.47107843
0.98088235 0.93872549 0.44460784
0.9995098 0.94607843 0.40637255
0.56862745 0.99607843 0.61176471
0.5877451 1 0.60784314
0.60588235 0.99117647 0.59607843
0.65392157 0.99607843 0.58627451
0.74313725 0.99215686 0.58823529
0.85392157 1 0.59313725
0.9245098 0.98823529 0.53921569
0.99607843 0.99607843 0.56470588
1 0.99607843 0.52941176
0.016176471 0.0083333333 0.042647059
0.096568627 0.01127451 0.050428922
0.21617647 0.011764706 0.055269608
0.34313725 0.0083333333 0.032352941
0.48872549 0.012254902 0.030882353
0.6504902 0.015686275 0.026960784
0.81409314 0.015686275 0.015563725
0.98045343 0.0039215686 0
0.98823529 0.015686275 0.0039215686
0.046568627 0.10790441 0.11568627
0.11655178 0.10870864 0.10827206
0.22712929 0.10796569 0.1
0.35124847 0.10091912 0.09185049
0.49237132 0.089185049 0.077175245
0.65222886 0.079105392 0.059803922
0.81753983 0.069240196 0.040471814
0.95435049 0.067876838 0.026041667
0.99607843 0.027879902 0
0.078431373 0.23051471 0.16703431
0.14748775 0.22794118 0.16182598
0.24298407 0.22745098 0.15392157
0.36576287 0.21979167 0.14644608
0.50300245 0.21605392 0.13976716
0.66239277 0.20775123 0.12112439
0.82490809 0.19221814 0.096415441
0.96078431 0.17893689 0.06640625
0.99607843 0.15735294 0.034313725
0.08627451 0.3627451 0.22616422
0.15598958 0.364928 0.22729013
0.25428922 0.35785846 0.21799939
0.37627145 0.3536152 0.21042433
0.51583946 0.35520833 0.20392157
0.67702206 0.34589461 0.18302696
0.83426777 0.33823529 0.15980392
0.97273284 0.32990196 0.12910539
0.99852941 0.30637255 0.090379902
0.10441176 0.50588235 0.29313725
0.16372549 0.50784314 0.28921569
0.26568627 0.50091912 0.28008578
0.39215686 0.5004902 0.27573529
0.52965686 0.5060049 0.27083333
0.68578431 0.49871324 0.25254289
0.84019608 0.49215686 0.22573529
0.98385417 0.48382353 0.19656863
1 0.46470588 0.16004902
0.15294118 0.65814951 0.36292892
0.19856771 0.6622549 0.36078431
0.28639706 0.66096814 0.35333946
0.41439185 0.65863971 0.34803156
0.54941789 0.6622549 0.34617034
0.69754902 0.65441176 0.33186275
0.84803922 0.64603248 0.30968137
0.98355545 0.64217984 0.28578431
0.99626225 0.63480392 0.26439951
0.21556373 0.80355392 0.43370098
0.25283395 0.80784314 0.43370098
0.34322917 0.80588235 0.42990196
0.45796569 0.80490196 0.42694547
0.58210784 0.80447304 0.4254902
0.71029412 0.80490196 0.41213235
0.85321691 0.79705882 0.39745711
0.98137255 0.79313725 0.37568934
1 0.7939951 0.35882353
0.34019608 0.94748775 0.52261029
0.38284314 0.93137255 0.52260263
0.4504902 0.92659314 0.52254902
0.54630055 0.92099418 0.51881127
0.6372549 0.92650123 0.5129902
0.76214767 0.92062653 0.50320925
0.87634804 0.94658395 0.48650429
0.97696078 0.94233303 0.47580423
0.99607843 0.94221814 0.45196078
0.55735294 0.99607843 0.62303922
0.57990196 0.99607843 0.62303922
0.61470588 0.99215686 0.6192402
0.66813725 0.99215686 0.61911765
0.74534314 0.99019608 0.60735294
0.84166667 0.99460784 0.6004902
0.94264706 0.99607843 0.59411765
0.99650735 0.99264706 0.57990196
0.99264706 0.98872549 0.55637255
0.0088235294 0.0088235294 0.11960784
0.070098039 0.0087009804 0.11617647
0.19313725 0.011764706 0.11176471
0.32414216 0.012867647 0.10110294
0.47352941 0.006372549 0.083333333
0.63296569 0.0053921569 0.073406863
0.80588235 0.0036764706 0.042156863
0.96715686 0.0068627451 0.033333333
0.99215686 0.0078431373 0.034313725
0.031862745 0.096568627 0.17781863
0.093030025 0.096522672 0.1727788
0.20355392 0.098069853 0.16176471
0.3339614 0.085784314 0.15525429
0.48020833 0.077818627 0.14368873
0.63849571 0.063817402 0.12513787
0.80514706 0.057046569 0.10196078
0.97046569 0.043137255 0.071354167
0.99607843 0.037254902 0.055392157
0.065931373 0.21960784 0.22671569
0.12426471 0.21642157 0.22352941
0.21531863 0.21960784 0.21960784
0.34540441 0.20811887 0.21176471
0.48517157 0.20159314 0.20539216
0.64837623 0.19050245 0.18311887
0.81372549 0.18302696 0.15661765
0.96495098 0.1635723 0.125
1 0.13602941 0.080147059
0.064338235 0.35379902 0.28137255
0.12504596 0.35159314 0.28137255
0.22778799 0.35343137 0.27405025
0.36294424 0.34636949 0.26568627
0.50006127 0.34074755 0.26176471
0.66176471 0.33382353 0.24178922
0.81948529 0.32916667 0.22156863
0.96426164 0.31384804 0.1941636
1 0.30061275 0.17389706
0.06372549 0.50441176 0.34705882
0.11813725 0.49607843 0.34344363
0.24215686 0.49607843 0.33590686
0.38014706 0.48976716 0.3276348
0.51715686 0.49632353 0.32377451
0.67107843 0.49607843 0.30998775
0.82843137 0.48357843 0.28762255
0.9689951 0.47083333 0.26758578
0.99803922 0.45294118 0.23823529
0.091666667 0.65833333 0.41311275
0.15294118 0.6557598 0.41060049
0.26265319 0.65477941 0.40490196
0.39757966 0.65399816 0.40176164
0.5372549 0.65502451 0.39583333
0.68786765 0.65399816 0.38206189
0.83808211 0.64264706 0.36271446
0.97305453 0.63443627 0.34336703
0.99362745 0.62512255 0.33970588
0.19215686 0.80098039 0.49044118
0.22310049 0.80392157 0.4879902
0.32077206 0.8 0.4872549
0.43627451 0.80098039 0.48051471
0.57254902 0.79914216 0.46605392
0.70683211 0.8 0.45952819
0.84730392 0.8 0.45098039
0.97564338 0.79304534 0.43091299
0.99607843 0.79313725 0.42769608
0.34031863 0.92732843 0.57218137
0.36072304 0.93604473 0.57173713
0.42745098 0.92907475 0.57196691
0.51484375 0.93088235 0.56421569
0.62181373 0.93504902 0.559375
0.74397978 0.93167892 0.55148591
0.86764706 0.94313725 0.54132966
0.98786765 0.93786765 0.52467831
0.99607843 0.93480392 0.52107843
0.55784314 0.99607843 0.66568627
0.52083333 0.97928922 0.64105392
0.6 0.99607843 0.66102941
0.64056373 0.98823529 0.64718137
0.73137255 0.99215686 0.64901961
0.83284314 0.99607843 0.65183824
0.91176471 0.9879902 0.62058824
0.99252451 0.99117647 0.61666667
0.99509804 0.98823529 0.60980392
0.0039215686 0.0039215686 0.19166667
0.046568627 0.011458333 0.18529412
0.17107843 0.012377451 0.17843137
0.30539216 0.017218137 0.18382353
0.4504902 0.0039215686 0.16102941
0.61421569 0.0039215686 0.15245098
0.78345588 0.0039215686 0.12218137
0.96047794 0.0021446078 0.093137255
0.99215686 0 0.1
0.029595588 0.08627451 0.24313725
0.06730239 0.071055453 0.23921569
0.18400735 0.086504289 0.23382353
0.31450674 0.06384038 0.23056832
0.4622549 0.065196078 0.21887255
0.62531403 0.050199142 0.19964001
0.79129902 0.038373162 0.17794118
0.95388327 0.031433824 0.14840686
0.99607843 0.012745098 0.12205882
0.039705882 0.20502451 0.29313725
0.10036765 0.20405944 0.29217218
0.19436275 0.20330882 0.2854473
0.32071078 0.19649203 0.28137255
0.46470588 0.18952206 0.27493873
0.63143382 0.17555147 0.25729167
0.80052083 0.16354167 0.2372549
0.94937194 0.14894301 0.20882353
1 0.14019608 0.18872549
0.026470588 0.34166667 0.34705882
0.098223039 0.34166667 0.34705882
0.19731924 0.34405637 0.34244792
0.33621324 0.33678768 0.33471967
0.47766544 0.33091299 0.33137255
0.63849571 0.32506127 0.32001379
0.80637255 0.31360294 0.298606
0.94804687 0.29607843 0.27549786
1 0.28523284 0.26323529
0.039460784 0.48504902 0.40882353
0.076868873 0.48970588 0.40882353
0.21151961 0.48841912 0.39987745
0.35171569 0.48477328 0.39558824
0.49522059 0.48933824 0.39767157
0.65542279 0.48777574 0.38682598
0.81011029 0.47279412 0.36623775
0.95661765 0.45940564 0.34420956
1 0.45098039 0.33676471
0.047610294 0.64019608 0.47843137
0.093987439 0.64264706 0.47462469
0.22608762 0.64587929 0.46813725
0.36813725 0.64564951 0.46574755
0.51761642 0.64656863 0.4627451
0.66280637 0.64656863 0.45547641
0.81490502 0.63834252 0.44146752
0.96011029 0.62696078 0.41923254
0.99607843 0.61666667 0.40931373
0.13382353 0.79460784 0.54803922
0.16568627 0.79705882 0.54865196
0.28048407 0.79617034 0.55477941
0.40931373 0.79313725 0.54509804
0.54381127 0.79313725 0.54080882
0.68431373 0.79313725 0.53255208
0.83008578 0.7942402 0.52469363
0.94969363 0.78832721 0.50744485
0.99607843 0.78137255 0.49411765
0.29313725 0.925 0.62990196
0.31911765 0.93061428 0.62990196
0.38872549 0.93137255 0.62990196
0.48736979 0.92941942 0.6258655
0.59932598 0.92558211 0.62205882
0.72107843 0.92585018 0.61747089
0.85030637 0.92634804 0.60245098
0.98295037 0.9245098 0.59046415
0.99607843 0.91960784 0.57892157
0.5245098 0.99362745 0.71078431
0.54215686 0.99607843 0.71078431
0.58541667 0.99607843 0.71286765
0.63713235 0.9901348 0.70428922
0.70465686 0.98186275 0.69509804
0.80980392 0.99215686 0.69656863
0.91421569 0.9939951 0.68872549
0.99411765 0.99215686 0.67696078
1 0.99607843 0.64558824
0.0019607843 0 0.28039216
0.032107843 0.0039215686 0.26127451
0.13431373 0.0039215686 0.25098039
0.275 0.0019607843 0.24779412
0.42745098 0.0039215686 0.24313725
0.59509804 0.0039215686 0.23137255
0.76617647 0.0039215686 0.21127451
0.93602941 0.0036764706 0.18602941
0.99607843 0 0.18039216
0.017892157 0.065196078 0.31102941
0.057628676 0.061519608 0.31102941
0.15441176 0.064154412 0.30882353
0.28627451 0.047242647 0.30499387
0.43921569 0.048897059 0.29215686
0.60079657 0.029901961 0.27956495
0.7754902 0.030637255 0.25882353
0.94117647 0.020833333 0.23578431
0.99215686 0.013235294 0.21519608
0.032352941 0.18823529 0.36519608
0.080453431 0.18578431 0.36666667
0.16703431 0.18198529 0.35931373
0.29466912 0.18063725 0.35508578
0.4504902 0.16519608 0.34877451
0.61740196 0.15759804 0.33848039
0.78186275 0.13823529 0.32058824
0.93621324 0.11893382 0.29583333
0.99607843 0.11372549 0.28235294
0.042647059 0.32279412 0.4245098
0.073713235 0.32745098 0.42254902
0.16237745 0.32794118 0.41666667
0.30879289 0.32009804 0.41470588
0.45808824 0.31188725 0.41470588
0.625 0.3080576 0.40612745
0.78621324 0.29730392 0.38627451
0.93088235 0.27794118 0.35946691
1 0.26764706 0.34803922
0.019607843 0.47647059 0.48627451
0.032720588 0.47843137 0.48823529
0.15955882 0.47965686 0.48186275
0.31654412 0.47647059 0.47647059
0.47107843 0.47205882 0.47843137
0.63615196 0.47022059 0.46789216
0.79019608 0.45955882 0.45294118
0.9314951 0.44779412 0.43504902
1 0.44803922 0.4254902
0.02745098 0.63480392 0.55073529
0.036519608 0.6354473 0.55269608
0.16617647 0.63480392 0.54877451
0.33014706 0.63480392 0.54708946
0.48382353 0.62928922 0.5435049
0.64068627 0.62892157 0.53431373
0.79509804 0.62359069 0.5247549
0.92824755 0.61504289 0.50646446
0.99607843 0.61127451 0.4872549
0.032843137 0.78921569 0.62009804
0.084803922 0.78921569 0.62401961
0.22512255 0.78872549 0.62120098
0.37696078 0.7872549 0.62064951
0.51593137 0.78333333 0.61764706
0.65661765 0.78137255 0.61011029
0.80502451 0.78284314 0.59803922
0.95637255 0.77922794 0.58253676
0.99607843 0.77058824 0.56568627
0.21862745 0.90343137 0.69166667
0.26133578 0.91253064 0.6953125
0.3466299 0.92267157 0.69558824
0.46700368 0.91519608 0.69136029
0.58026961 0.91397059 0.68946078
0.69558824 0.92058824 0.68363971
0.83082108 0.92689951 0.67591912
0.96642157 0.92156863 0.66568627
1 0.91544118 0.64411765
0.48823529 0.98823529 0.76666667
0.50441176 0.98848039 0.76691176
0.54558824 0.98823529 0.76323529
0.62107843 0.99215686 0.76593137
0.67843137 0.9754902 0.74803922
0.79264706 0.9875 0.75735294
0.90245098 0.99509804 0.75588235
0.98676471 0.98602941 0.73455882
0.99607843 0.98823529 0.70784314
0.0039215686 0.0078431373 0.36911765
0.015686275 0.0039215686 0.34607843
0.10343137 0.0039215686 0.34522059
0.24307598 0.010294118 0.35343137
0.40171569 0.0078431373 0.33186275
0.56813725 0.0039215686 0.31029412
0.74105392 0.0050245098 0.30355392
0.89901961 0.0039215686 0.2841299
0.975 0.0039215686 0.27892157
0.011764706 0.047732843 0.39430147
0.032843137 0.045059743 0.39411765
0.11960784 0.041804534 0.39174326
0.25380668 0.030392157 0.3877451
0.40824142 0.039797794 0.37417279
0.5792356 0.036948529 0.36182598
0.74852941 0.038541667 0.34889706
0.90422794 0.028921569 0.33253676
0.97990196 0.017647059 0.325
0.037254902 0.15931373 0.44448529
0.055514706 0.16237745 0.44813113
0.14362745 0.14911152 0.44476103
0.26609988 0.14754902 0.44166667
0.42696078 0.13970588 0.43382353
0.59244792 0.132644 0.42428002
0.75539216 0.10946691 0.40637255
0.91321998 0.091681985 0.39019608
0.99215686 0.066666667 0.37291667
0.047977941 0.30098039 0.50343137
0.054296875 0.30490196 0.50343137
0.13984375 0.29705882 0.49882047
0.28171722 0.29313725 0.49558824
0.44166667 0.29240196 0.49558824
0.60622702 0.28586857 0.4877451
0.76813725 0.27708333 0.47561275
0.91207108 0.25654871 0.45899969
0.99215686 0.23676471 0.44460784
0.021568627 0.46323529 0.56642157
0.022058824 0.46216299 0.56838235
0.12254902 0.4620098 0.56519608
0.28137255 0.46397059 0.56127451
0.45122549 0.45318627 0.56017157
0.61372549 0.45266544 0.55343137
0.77144608 0.44368873 0.54166667
0.91599265 0.42769608 0.5254902
1 0.42205882 0.51348039
0.00091911765 0.62941176 0.63180147
0.01127451 0.62941176 0.63333333
0.10657169 0.62765012 0.63111213
0.29368873 0.62395833 0.62996324
0.46078431 0.6161152 0.62303922
0.62156863 0.61519608 0.6161152
0.77398897 0.61104473 0.60960478
0.91862745 0.60251225 0.59295343
0.98976716 0.59466912 0.5877451
0.006004902 0.78137255 0.69938725
0.030407475 0.78160233 0.69741115
0.14754902 0.77552083 0.69509804
0.34221814 0.77643995 0.69394914
0.49828431 0.77352941 0.68762255
0.63541667 0.76868873 0.68333333
0.78590686 0.77098652 0.67742034
0.93002451 0.76822917 0.66478248
0.98823529 0.75784314 0.65441176
0.15128676 0.9036152 0.76470588
0.19313725 0.90708487 0.76535692
0.2990962 0.91680453 0.76470588
0.42628676 0.91127451 0.76078431
0.55367647 0.91127451 0.75971201
0.67254902 0.91256127 0.75294118
0.81953125 0.90514706 0.75039828
0.94393382 0.91550245 0.73883272
0.99215686 0.90735294 0.72352941
0.45980392 0.98823529 0.83431373
0.48743873 0.99234069 0.83578431
0.52156863 0.98884804 0.83039216
0.57542892 0.98284314 0.82346814
0.67696078 0.99019608 0.83039216
0.76372549 0.98431373 0.82254902
0.88492647 0.99607843 0.82303922
0.96764706 0.98952206 0.80784314
1 0.99362745 0.79803922
0.0039215686 0.016666667 0.46568627
0.0039215686 0.0044117647 0.44252451
0.067892157 0.0039215686 0.43333333
0.21127451 0.0039215686 0.43468137
0.36176471 0 0.4127451
0.53333333 0.0039215686 0.40686275
0.71078431 0.0029411765 0.40220588
0.87181373 0.0025735294 0.39877451
0.98921569 0 0.3754902
0.0039215686 0.031372549 0.48088235
0.0039215686 0.014016544 0.47696078
0.08872549 0.013480392 0.47561275
0.22336091 0.015686275 0.47647059
0.37322304 0.018259804 0.46292892
0.53886336 0.018627451 0.45301777
0.71078431 0.014215686 0.44509804
0.87640931 0.0039215686 0.43290441
0.98026961 0.0039215686 0.42193627
0.018627451 0.12352941 0.52647059
0.029258578 0.1310049 0.52913603
0.10526961 0.12377451 0.52941176
0.23811275 0.11568627 0.52720588
0.38897059 0.10637255 0.52598039
0.55168505 0.094883578 0.51308211
0.72469363 0.072181373 0.49509804
0.89175858 0.060294118 0.48284314
0.99117647 0.031372549 0.46053922
0.026838235 0.27683824 0.5872549
0.03872549 0.2760723 0.58769914
0.11580882 0.27107843 0.58431373
0.25686275 0.26507353 0.58541667
0.41066176 0.2622549 0.58370098
0.57015931 0.25686275 0.57149203
0.73333333 0.23808211 0.56053922
0.88382353 0.21853554 0.54509804
0.98823529 0.20196078 0.53333333
0.0058823529 0.44215686 0.65
0.024754902 0.44044118 0.64607843
0.061397059 0.43872549 0.64522059
0.2463848 0.44123775 0.64607843
0.41862745 0.43431373 0.64166667
0.57947304 0.42677696 0.63431373
0.74117647 0.41470588 0.62757353
0.89405637 0.39901961 0.6125
0.99607843 0.3872549 0.59901961
0.0039215686 0.60453431 0.71286765
0.0039215686 0.61006434 0.71176471
0.040441176 0.60689338 0.70701593
0.24411765 0.61029412 0.70784314
0.42279412 0.60398284 0.70392157
0.59192708 0.60061275 0.7
0.74534314 0.5958027 0.69607843
0.89914216 0.57901348 0.68431373
0.98823529 0.56568627 0.67647059
0.0088235294 0.76789216 0.77720588
0.017279412 0.76862745 0.77454044
0.067892157 0.76568627 0.77095588
0.27536765 0.76568627 0.76960784
0.45441176 0.76139706 0.76715686
0.60955882 0.76139706 0.76531863
0.76078431 0.75741422 0.76078431
0.90364583 0.75257353 0.74987745
0.98529412 0.74117647 0.74215686
0.047916667 0.91127451 0.83137255
0.089108456 0.91127451 0.83910846
0.23382353 0.89865196 0.84215686
0.38007047 0.89981618 0.83529412
0.51366422 0.9098652 0.8348652
0.64937194 0.90422794 0.82647059
0.78584559 0.91078431 0.82647059
0.91868873 0.89895833 0.81557904
0.98431373 0.89019608 0.80698529
0.43137255 0.99215686 0.9
0.46151961 0.99644608 0.90428922
0.50073529 0.99534314 0.90392157
0.53872549 0.98186275 0.88970588
0.62352941 0.98186275 0.89019608
0.74264706 0.98590686 0.88982843
0.85588235 0.99019608 0.88921569
0.95355392 0.99620098 0.88933824
0.97745098 0.97352941 0.86568627
0 0.01127451 0.53872549
0 0.0039215686 0.52696078
0.031985294 0 0.52046569
0.15814951 0.0012867647 0.51666667
0.32083333 0 0.51127451
0.50067402 0 0.50373775
0.67634804 0 0.50821078
0.85735294 0 0.48241422
0.9877451 0 0.48039216
0 0.023468137 0.55735294
0.0039215686 0.011335784 0.55729933
0.060294118 0.0078431373 0.55782782
0.17334559 0.0078431373 0.55784314
0.32647059 0.0077818627 0.55343137
0.50040594 0.0057981005 0.54589461
0.67205882 0 0.53688725
0.84902727 0 0.51856618
0.98872549 0 0.51029412
0.0029411765 0.096568627 0.60330882
0.017922794 0.091835172 0.61056985
0.078278186 0.08504902 0.61127451
0.19113051 0.076731005 0.61127451
0.34650735 0.06807598 0.60735294
0.51377145 0.058685662 0.59780944
0.68575368 0.044393382 0.58373162
0.85997243 0.016896446 0.57280944
0.99644608 0.0051470588 0.55637255
0.0099877451 0.25098039 0.67254902
0.030882353 0.23970588 0.66911765
0.088602941 0.23515625 0.66881127
0.20853248 0.23206189 0.66911765
0.36666667 0.22726716 0.66559436
0.53461244 0.2141008 0.65588235
0.69946385 0.2015625 0.64327512
0.86470588 0.18235294 0.63627451
0.98560049 0.16685049 0.61764706
0.0039215686 0.41176471 0.73480392
0.013265931 0.40885417 0.73088235
0.031862745 0.4091299 0.72303922
0.19362745 0.41127451 0.72803309
0.37377451 0.40735294 0.7247549
0.54558824 0.39411765 0.71829044
0.71292892 0.38376225 0.71115196
0.87083333 0.37331495 0.70514706
0.99215686 0.35416667 0.69166667
0 0.58903186 0.79479167
0.0039215686 0.59479167 0.79215686
0.010416667 0.58776042 0.78823529
0.17431066 0.58480392 0.78609069
0.37567402 0.58333333 0.78480392
0.553125 0.58106618 0.78069853
0.71862745 0.57605699 0.77647059
0.88088235 0.55686275 0.77297794
0.99607843 0.54166667 0.76127451
0.0074754902 0.7495098 0.8504902
0.011764706 0.75692402 0.85428922
0.029656863 0.74993873 0.85021446
0.19705882 0.74558824 0.84607843
0.40091912 0.74172794 0.84264706
0.57616422 0.74344363 0.84250919
0.73088235 0.7426777 0.84151348
0.88566176 0.72683824 0.83082108
0.99607843 0.71727941 0.82561275
0.015257353 0.90042892 0.90833333
0.036649816 0.90310968 0.91176471
0.10586703 0.89931066 0.91272978
0.29133732 0.8877451 0.90735294
0.46593137 0.89316789 0.90735294
0.60686275 0.89397212 0.90827206
0.75784314 0.89603248 0.90392157
0.88822763 0.88431373 0.89558824
0.97990196 0.86476716 0.88131127
0.38039216 0.99215686 0.95784314
0.39209559 0.98872549 0.95784314
0.44889706 0.98823529 0.95392157
0.5403799 0.99430147 0.95998775
0.61568627 0.98137255 0.95122549
0.71029412 0.97303922 0.94430147
0.82830882 0.98394608 0.94963235
0.92254902 0.98731618 0.94515931
0.98382353 0.98823529 0.94166667
0 0 0.61176471
0.0073529412 0 0.60392157
0.011764706 0 0.60392157
0.11813725 0 0.60392157
0.28627451 0 0.60392157
0.46764706 0 0.59852941
0.65294118 0 0.5872549
0.83431373 0 0.55245098
0.97647059 0 0.54509804
0 0.011764706 0.62696078
0.0039215686 0.0078431373 0.63474265
0.029044118 0.0078431373 0.63480392
0.12990196 0.0039215686 0.63480392
0.28627451 0 0.63480392
0.46372549 0 0.63039216
0.64901961 0 0.61029412
0.83382353 0 0.57892157
0.98823529 0 0.55245098
0 0.057843137 0.67254902
0 0.03872549 0.6877451
0.05 0.051960784 0.67058824
0.14914216 0.034926471 0.68370098
0.31176471 0.024509804 0.67843137
0.48627451 0.032352941 0.65588235
0.65906863 0.0090686275 0.66568627
0.83026961 0.0039215686 0.65539216
0.98039216 0.0039215686 0.61960784
0 0.2122549 0.74460784
0.015196078 0.2122549 0.73333333
0.057965686 0.2064951 0.73039216
0.17058824 0.19810049 0.73976716
0.32941176 0.19044118 0.73946078
0.50294118 0.1745098 0.72990196
0.67830882 0.16482843 0.71862745
0.84166667 0.13823529 0.71862745
0.98823529 0.11519608 0.6872549
0 0.39019608 0.80980392
0.0078431373 0.38088235 0.80392157
0.014215686 0.37647059 0.7995098
0.14607843 0.37254902 0.80441176
0.33333333 0.3745098 0.79901961
0.51078431 0.35612745 0.79607843
0.69362745 0.34901961 0.77745098
0.85931373 0.33872549 0.77058824
0.99411765 0.31372549 0.75882353
0 0.56813725 0.86421569
0.0078431373 0.56390931 0.84901961
0.006372549 0.5627451 0.82928922
0.12303922 0.55300245 0.84515931
0.34117647 0.55122549 0.85980392
0.52254902 0.54846814 0.84944853
0.70392157 0.54215686 0.84117647
0.87303922 0.53284314 0.82941176
0.96960784 0.52107843 0.81911765
0 0.72254902 0.92352941
0.0074754902 0.73394608 0.90833333
0.018627451 0.73455882 0.89436275
0.092647059 0.72254902 0.92156863
0.3627451 0.72303922 0.90098039
0.54375 0.72683824 0.89730392
0.70392157 0.71936275 0.90490196
0.86519608 0.70085784 0.90343137
0.96470588 0.69705882 0.88823529
0.019117647 0.88431373 0.95343137
0.0078431373 0.88480392 0.95827206
0.0098039216 0.89252451 0.96470588
0.23823529 0.87665441 0.95392157
0.42598039 0.87254902 0.95906863
0.5877451 0.88400735 0.94019608
0.7245098 0.87941176 0.9564951
0.88131127 0.86170343 0.94558824
0.96029412 0.87254902 0.94558824
0.34117647 0.99607843 0.99607843
0.35980392 0.99215686 0.98872549
0.40588235 0.98921569 0.98921569
0.48333333 0.98431373 0.98284314
0.58431373 0.98627451 0.98823529
0.6622549 0.97254902 0.98676471
0.80490196 0.97745098 0.98039216
0.91519608 0.98480392 0.98529412
0.94117647 0.98431373 0.98431373
