site/assets/luts/natron-haldclut--fuji-fp-3000b-negative--1b8c4ad97.cube
# LUTr-Project: LUTr — LUTrepository
# LUTr-Schema-Version: 1
# LUTr-ID: natron-haldclut--fuji-fp-3000b-negative--1b8c4ad97
# LUTr-Title: fuji fp-3000b negative +
# LUTr-Collection: Natron HaldCLUT
# LUTr-Collection-ID: natron-haldclut-presets
# LUTr-Source: https://github.com/NatronGitHub/clut
# LUTr-Source-File: submissions/natron-haldclut-presets/instant_pro/fuji_fp-3000b_negative_+.png
# LUTr-Source-Format: PNG
# LUTr-Source-SHA256: 9f10a070d74e18a7d2a49239ea4a18be430c6e97edea92f7e5e3df548ed13de0
# LUTr-License: CC-BY-SA-4.0
# LUTr-License-URL: https://github.com/NatronGitHub/clut#license
# LUTr-Tags: creative, film, film-emulation, hald-clut, natron, png, cube
# LUTr-Transform-Class: film-emulation
# LUTr-Input-Color-Space: srgb
# LUTr-Output-Color-Space: srgb
# LUTr-Color-Space-Confidence: assumed-display-referred
# LUTr-Conversion-Method: PNG LUT image decoded at 16-bit and sampled to 25x25x25 3D CUBE
# LUTr-Conversion-Date: 2026-07-27
# LUTr-Conversion-Tool: LUTr scripts/convert-all-to-cube.mjs
# LUTr-Conversion-Grid: 25x25x25
# LUTr-Note: Preserve this metadata and the upstream license notices when redistributing.
TITLE "fuji fp-3000b negative +"
LUT_3D_SIZE 9
DOMAIN_MIN 0 0 0
DOMAIN_MAX 1 1 1
0.043137255 0.043137255 0.043137255
0.050980392 0.050980392 0.050980392
0.066666667 0.066666667 0.066666667
0.11078431 0.11078431 0.11078431
0.18431373 0.18431373 0.18431373
0.31715686 0.31715686 0.31715686
0.47058824 0.47058824 0.47058824
0.58235294 0.58235294 0.58235294
0.67058824 0.67058824 0.67058824
0.050490196 0.050490196 0.050490196
0.054411765 0.054411765 0.054411765
0.073039216 0.073039216 0.073039216
0.13008578 0.13008578 0.13008578
0.23039216 0.23039216 0.23039216
0.35 0.35 0.35
0.47928922 0.47928922 0.47928922
0.59319853 0.59319853 0.59319853
0.68186275 0.68186275 0.68186275
0.097058824 0.097058824 0.097058824
0.095098039 0.095098039 0.095098039
0.10392157 0.10392157 0.10392157
0.18823529 0.18823529 0.18823529
0.30392157 0.30392157 0.30392157
0.41421569 0.41421569 0.41421569
0.52034314 0.52034314 0.52034314
0.62438725 0.62438725 0.62438725
0.7127451 0.7127451 0.7127451
0.18333333 0.18333333 0.18333333
0.19264706 0.19264706 0.19264706
0.19460784 0.19460784 0.19460784
0.25 0.25 0.25
0.36960784 0.36960784 0.36960784
0.47990196 0.47990196 0.47990196
0.56862745 0.56862745 0.56862745
0.65882353 0.65882353 0.65882353
0.73970588 0.73970588 0.73970588
0.33921569 0.33921569 0.33921569
0.34117647 0.34117647 0.34117647
0.32696078 0.32696078 0.32696078
0.37745098 0.37745098 0.37745098
0.44803922 0.44803922 0.44803922
0.53308824 0.53308824 0.53308824
0.62009804 0.62009804 0.62009804
0.70514706 0.70514706 0.70514706
0.77843137 0.77843137 0.77843137
0.48578431 0.48578431 0.48578431
0.48186275 0.48186275 0.48186275
0.47401961 0.47401961 0.47401961
0.49558824 0.49558824 0.49558824
0.54166667 0.54166667 0.54166667
0.59650735 0.59650735 0.59650735
0.67438725 0.67438725 0.67438725
0.74540441 0.74540441 0.74540441
0.80931373 0.80931373 0.80931373
0.64705882 0.64705882 0.64705882
0.64019608 0.64019608 0.64019608
0.6254902 0.6254902 0.6254902
0.61176471 0.61176471 0.61176471
0.64460784 0.64460784 0.64460784
0.69068627 0.69068627 0.69068627
0.73333333 0.73333333 0.73333333
0.7872549 0.7872549 0.7872549
0.84509804 0.84509804 0.84509804
0.7627451 0.7627451 0.7627451
0.76317402 0.76317402 0.76317402
0.75490196 0.75490196 0.75490196
0.74332108 0.74332108 0.74332108
0.75686275 0.75686275 0.75686275
0.78333333 0.78333333 0.78333333
0.8127451 0.8127451 0.8127451
0.85643382 0.85643382 0.85643382
0.88676471 0.88676471 0.88676471
0.87058824 0.87058824 0.87058824
0.85490196 0.85490196 0.85490196
0.85098039 0.85098039 0.85098039
0.85098039 0.85098039 0.85098039
0.86470588 0.86470588 0.86470588
0.87598039 0.87598039 0.87598039
0.89411765 0.89411765 0.89411765
0.9254902 0.9254902 0.9254902
0.92156863 0.92156863 0.92156863
0.062254902 0.062254902 0.062254902
0.062745098 0.062745098 0.062745098
0.076960784 0.076960784 0.076960784
0.10441176 0.10441176 0.10441176
0.21887255 0.21887255 0.21887255
0.34626225 0.34626225 0.34626225
0.48223039 0.48223039 0.48223039
0.5901348 0.5901348 0.5901348
0.67843137 0.67843137 0.67843137
0.066605392 0.066605392 0.066605392
0.066176471 0.066176471 0.066176471
0.080346201 0.080346201 0.080346201
0.14117647 0.14117647 0.14117647
0.24558824 0.24558824 0.24558824
0.3750383 0.3750383 0.3750383
0.50027574 0.50027574 0.50027574
0.60441942 0.60441942 0.60441942
0.69313725 0.69313725 0.69313725
0.11384804 0.11384804 0.11384804
0.11377145 0.11377145 0.11377145
0.1283701 0.1283701 0.1283701
0.20784314 0.20784314 0.20784314
0.31470588 0.31470588 0.31470588
0.42663909 0.42663909 0.42663909
0.53385417 0.53385417 0.53385417
0.63218444 0.63218444 0.63218444
0.72144608 0.72144608 0.72144608
0.22481618 0.22481618 0.22481618
0.22434896 0.22434896 0.22434896
0.2287837 0.2287837 0.2287837
0.29607843 0.29607843 0.29607843
0.38284314 0.38284314 0.38284314
0.48903186 0.48903186 0.48903186
0.58008578 0.58008578 0.58008578
0.6685432 0.6685432 0.6685432
0.74344363 0.74344363 0.74344363
0.36911765 0.36911765 0.36911765
0.37349877 0.37349877 0.37349877
0.36574755 0.36574755 0.36574755
0.39852941 0.39852941 0.39852941
0.45637255 0.45637255 0.45637255
0.5375 0.5375 0.5375
0.62640931 0.62640931 0.62640931
0.70860907 0.70860907 0.70860907
0.77843137 0.77843137 0.77843137
0.51666667 0.51666667 0.51666667
0.51862745 0.51862745 0.51862745
0.50338542 0.50338542 0.50338542
0.51372549 0.51372549 0.51372549
0.55499387 0.55499387 0.55499387
0.60557598 0.60557598 0.60557598
0.68163297 0.68163297 0.68163297
0.74885876 0.74885876 0.74885876
0.80931373 0.80931373 0.80931373
0.66139706 0.66139706 0.66139706
0.64356618 0.64356618 0.64356618
0.6310049 0.6310049 0.6310049
0.62887561 0.62887561 0.62887561
0.65943627 0.65943627 0.65943627
0.69852941 0.69852941 0.69852941
0.73716299 0.73716299 0.73716299
0.79019608 0.79019608 0.79019608
0.84803922 0.84803922 0.84803922
0.77751225 0.77751225 0.77751225
0.76231618 0.76231618 0.76231618
0.75355392 0.75355392 0.75355392
0.75098039 0.75098039 0.75098039
0.77009804 0.77009804 0.77009804
0.79117647 0.79117647 0.79117647
0.82038909 0.82038909 0.82038909
0.85245864 0.85245864 0.85245864
0.88676471 0.88676471 0.88676471
0.87107843 0.87107843 0.87107843
0.85931373 0.85931373 0.85931373
0.85061275 0.85061275 0.85061275
0.8622549 0.8622549 0.8622549
0.8627451 0.8627451 0.8627451
0.87598039 0.87598039 0.87598039
0.8932598 0.8932598 0.8932598
0.89859069 0.89859069 0.89859069
0.91029412 0.91029412 0.91029412
0.097058824 0.097058824 0.097058824
0.092156863 0.092156863 0.092156863
0.12058824 0.12058824 0.12058824
0.19019608 0.19019608 0.19019608
0.27794118 0.27794118 0.27794118
0.39007353 0.39007353 0.39007353
0.49607843 0.49607843 0.49607843
0.60539216 0.60539216 0.60539216
0.69117647 0.69117647 0.69117647
0.096078431 0.096078431 0.096078431
0.10343137 0.10343137 0.10343137
0.13995098 0.13995098 0.13995098
0.20147059 0.20147059 0.20147059
0.28872549 0.28872549 0.28872549
0.41127451 0.41127451 0.41127451
0.53183211 0.53183211 0.53183211
0.62777267 0.62777267 0.62777267
0.69938725 0.69938725 0.69938725
0.14215686 0.14215686 0.14215686
0.15294118 0.15294118 0.15294118
0.19142157 0.19142157 0.19142157
0.26449142 0.26449142 0.26449142
0.35441176 0.35441176 0.35441176
0.44806985 0.44806985 0.44806985
0.55790441 0.55790441 0.55790441
0.65021446 0.65021446 0.65021446
0.72769608 0.72769608 0.72769608
0.28333333 0.28333333 0.28333333
0.29522059 0.29522059 0.29522059
0.2877451 0.2877451 0.2877451
0.35133272 0.35133272 0.35133272
0.42843137 0.42843137 0.42843137
0.51605392 0.51605392 0.51605392
0.59984681 0.59984681 0.59984681
0.6810049 0.6810049 0.6810049
0.74865196 0.74865196 0.74865196
0.45588235 0.45588235 0.45588235
0.44779412 0.44779412 0.44779412
0.4254902 0.4254902 0.4254902
0.44105392 0.44105392 0.44105392
0.5002451 0.5002451 0.5002451
0.56905637 0.56905637 0.56905637
0.6504902 0.6504902 0.6504902
0.72077206 0.72077206 0.72077206
0.78039216 0.78039216 0.78039216
0.56470588 0.56470588 0.56470588
0.56478248 0.56478248 0.56478248
0.55183824 0.55183824 0.55183824
0.5439951 0.5439951 0.5439951
0.57616422 0.57616422 0.57616422
0.62843137 0.62843137 0.62843137
0.69362745 0.69362745 0.69362745
0.75870098 0.75870098 0.75870098
0.81715686 0.81715686 0.81715686
0.68063725 0.68063725 0.68063725
0.6736826 0.6736826 0.6736826
0.65857843 0.65857843 0.65857843
0.65 0.65 0.65
0.6747549 0.6747549 0.6747549
0.7125 0.7125 0.7125
0.74411765 0.74411765 0.74411765
0.79497549 0.79497549 0.79497549
0.84803922 0.84803922 0.84803922
0.78186275 0.78186275 0.78186275
0.78089767 0.78089767 0.78089767
0.76654412 0.76654412 0.76654412
0.77054228 0.77054228 0.77054228
0.78204657 0.78204657 0.78204657
0.79491422 0.79491422 0.79491422
0.81801471 0.81801471 0.81801471
0.85157782 0.85157782 0.85157782
0.89019608 0.89019608 0.89019608
0.87058824 0.87058824 0.87058824
0.87365196 0.87365196 0.87365196
0.85980392 0.85980392 0.85980392
0.8627451 0.8627451 0.8627451
0.85980392 0.85980392 0.85980392
0.86666667 0.86666667 0.86666667
0.87941176 0.87941176 0.87941176
0.8935049 0.8935049 0.8935049
0.89117647 0.89117647 0.89117647
0.19411765 0.19411765 0.19411765
0.21176471 0.21176471 0.21176471
0.26127451 0.26127451 0.26127451
0.30882353 0.30882353 0.30882353
0.36102941 0.36102941 0.36102941
0.46905637 0.46905637 0.46905637
0.56654412 0.56654412 0.56654412
0.6372549 0.6372549 0.6372549
0.70686275 0.70686275 0.70686275
0.20753676 0.20753676 0.20753676
0.2285386 0.2285386 0.2285386
0.27366728 0.27366728 0.27366728
0.31452206 0.31452206 0.31452206
0.38391544 0.38391544 0.38391544
0.47480086 0.47480086 0.47480086
0.57928922 0.57928922 0.57928922
0.65675551 0.65675551 0.65675551
0.72383578 0.72383578 0.72383578
0.25379902 0.25379902 0.25379902
0.25196078 0.25196078 0.25196078
0.29972426 0.29972426 0.29972426
0.37291667 0.37291667 0.37291667
0.41672794 0.41672794 0.41672794
0.50490196 0.50490196 0.50490196
0.5872549 0.5872549 0.5872549
0.67406556 0.67406556 0.67406556
0.74473039 0.74473039 0.74473039
0.36415441 0.36415441 0.36415441
0.36049326 0.36049326 0.36049326
0.38541667 0.38541667 0.38541667
0.42892157 0.42892157 0.42892157
0.48039216 0.48039216 0.48039216
0.55089614 0.55089614 0.55089614
0.62251838 0.62251838 0.62251838
0.70441176 0.70441176 0.70441176
0.75631127 0.75631127 0.75631127
0.52990196 0.52990196 0.52990196
0.52735907 0.52735907 0.52735907
0.51415441 0.51415441 0.51415441
0.5044424 0.5044424 0.5044424
0.54779412 0.54779412 0.54779412
0.6049326 0.6049326 0.6049326
0.67322304 0.67322304 0.67322304
0.7361826 0.7361826 0.7361826
0.78235294 0.78235294 0.78235294
0.6216299 0.6216299 0.6216299
0.61734069 0.61734069 0.61734069
0.61323529 0.61323529 0.61323529
0.60389859 0.60389859 0.60389859
0.6208027 0.6208027 0.6208027
0.66323529 0.66323529 0.66323529
0.71217831 0.71217831 0.71217831
0.77107843 0.77107843 0.77107843
0.82591912 0.82591912 0.82591912
0.71090686 0.71090686 0.71090686
0.70758272 0.70758272 0.70758272
0.70260417 0.70260417 0.70260417
0.69803922 0.69803922 0.69803922
0.70373775 0.70373775 0.70373775
0.72745098 0.72745098 0.72745098
0.75833333 0.75833333 0.75833333
0.80588235 0.80588235 0.80588235
0.84803922 0.84803922 0.84803922
0.8 0.8 0.8
0.80392157 0.80392157 0.80392157
0.79313725 0.79313725 0.79313725
0.79227175 0.79227175 0.79227175
0.79672181 0.79672181 0.79672181
0.80128676 0.80128676 0.80128676
0.82156863 0.82156863 0.82156863
0.86029412 0.86029412 0.86029412
0.88333333 0.88333333 0.88333333
0.88872549 0.88872549 0.88872549
0.89001225 0.89001225 0.89001225
0.88125 0.88125 0.88125
0.87879902 0.87879902 0.87879902
0.87696078 0.87696078 0.87696078
0.8778799 0.8778799 0.8778799
0.8872549 0.8872549 0.8872549
0.92941176 0.92941176 0.92941176
0.9254902 0.9254902 0.9254902
0.36078431 0.36078431 0.36078431
0.37401961 0.37401961 0.37401961
0.41568627 0.41568627 0.41568627
0.46053922 0.46053922 0.46053922
0.49803922 0.49803922 0.49803922
0.5377451 0.5377451 0.5377451
0.61813725 0.61813725 0.61813725
0.69142157 0.69142157 0.69142157
0.75490196 0.75490196 0.75490196
0.36642157 0.36642157 0.36642157
0.38946078 0.38946078 0.38946078
0.43161765 0.43161765 0.43161765
0.47843137 0.47843137 0.47843137
0.52303922 0.52303922 0.52303922
0.58293505 0.58293505 0.58293505
0.62591912 0.62591912 0.62591912
0.70251225 0.70251225 0.70251225
0.75882353 0.75882353 0.75882353
0.39313725 0.39313725 0.39313725
0.40931373 0.40931373 0.40931373
0.45098039 0.45098039 0.45098039
0.5004902 0.5004902 0.5004902
0.53480392 0.53480392 0.53480392
0.58155637 0.58155637 0.58155637
0.64705882 0.64705882 0.64705882
0.71789216 0.71789216 0.71789216
0.75931373 0.75931373 0.75931373
0.44460784 0.44460784 0.44460784
0.45147059 0.45147059 0.45147059
0.47126225 0.47126225 0.47126225
0.51004902 0.51004902 0.51004902
0.55269608 0.55269608 0.55269608
0.61519608 0.61519608 0.61519608
0.675 0.675 0.675
0.73449755 0.73449755 0.73449755
0.7745098 0.7745098 0.7745098
0.54705882 0.54705882 0.54705882
0.53443627 0.53443627 0.53443627
0.56985294 0.56985294 0.56985294
0.57303922 0.57303922 0.57303922
0.6 0.6 0.6
0.64926471 0.64926471 0.64926471
0.70294118 0.70294118 0.70294118
0.74987745 0.74987745 0.74987745
0.79019608 0.79019608 0.79019608
0.66789216 0.66789216 0.66789216
0.6627451 0.6627451 0.6627451
0.66372549 0.66372549 0.66372549
0.65857843 0.65857843 0.65857843
0.67058824 0.67058824 0.67058824
0.69702819 0.69702819 0.69702819
0.73682598 0.73682598 0.73682598
0.78455882 0.78455882 0.78455882
0.82769608 0.82769608 0.82769608
0.7495098 0.7495098 0.7495098
0.74607843 0.74607843 0.74607843
0.74215686 0.74215686 0.74215686
0.73970588 0.73970588 0.73970588
0.73897059 0.73897059 0.73897059
0.75404412 0.75404412 0.75404412
0.78431373 0.78431373 0.78431373
0.82310049 0.82310049 0.82310049
0.86421569 0.86421569 0.86421569
0.83088235 0.83088235 0.83088235
0.82653186 0.82653186 0.82653186
0.8247549 0.8247549 0.8247549
0.82303922 0.82303922 0.82303922
0.81887255 0.81887255 0.81887255
0.82303922 0.82303922 0.82303922
0.83921569 0.83921569 0.83921569
0.86985294 0.86985294 0.86985294
0.90833333 0.90833333 0.90833333
0.90980392 0.90980392 0.90980392
0.88480392 0.88480392 0.88480392
0.89117647 0.89117647 0.89117647
0.90073529 0.90073529 0.90073529
0.8872549 0.8872549 0.8872549
0.89338235 0.89338235 0.89338235
0.89803922 0.89803922 0.89803922
0.92205882 0.92205882 0.92205882
0.94705882 0.94705882 0.94705882
0.54215686 0.54215686 0.54215686
0.54430147 0.54430147 0.54430147
0.57401961 0.57401961 0.57401961
0.6122549 0.6122549 0.6122549
0.64558824 0.64558824 0.64558824
0.65349265 0.65349265 0.65349265
0.67414216 0.67414216 0.67414216
0.73363971 0.73363971 0.73363971
0.77794118 0.77794118 0.77794118
0.54050245 0.54050245 0.54050245
0.55545343 0.55545343 0.55545343
0.58440564 0.58440564 0.58440564
0.61931679 0.61931679 0.61931679
0.65450368 0.65450368 0.65450368
0.66373315 0.66373315 0.66373315
0.6879136 0.6879136 0.6879136
0.74491422 0.74491422 0.74491422
0.79313725 0.79313725 0.79313725
0.55036765 0.55036765 0.55036765
0.56403186 0.56403186 0.56403186
0.5890625 0.5890625 0.5890625
0.62231924 0.62231924 0.62231924
0.65471814 0.65471814 0.65471814
0.67794118 0.67794118 0.67794118
0.69301471 0.69301471 0.69301471
0.75147059 0.75147059 0.75147059
0.80968137 0.80968137 0.80968137
0.56764706 0.56764706 0.56764706
0.55962776 0.55962776 0.55962776
0.59313725 0.59313725 0.59313725
0.62497702 0.62497702 0.62497702
0.66473652 0.66473652 0.66473652
0.70302543 0.70302543 0.70302543
0.72009804 0.72009804 0.72009804
0.76145833 0.76145833 0.76145833
0.79754902 0.79754902 0.79754902
0.61593137 0.61593137 0.61593137
0.60882353 0.60882353 0.60882353
0.61617647 0.61617647 0.61617647
0.63872549 0.63872549 0.63872549
0.67879902 0.67879902 0.67879902
0.71029412 0.71029412 0.71029412
0.74705882 0.74705882 0.74705882
0.78039216 0.78039216 0.78039216
0.81053922 0.81053922 0.81053922
0.69552696 0.69552696 0.69552696
0.68431373 0.68431373 0.68431373
0.68823529 0.68823529 0.68823529
0.69610141 0.69610141 0.69610141
0.70710784 0.70710784 0.70710784
0.73382353 0.73382353 0.73382353
0.77009804 0.77009804 0.77009804
0.8091299 0.8091299 0.8091299
0.83915441 0.83915441 0.83915441
0.76482843 0.76482843 0.76482843
0.76311275 0.76311275 0.76311275
0.76657475 0.76657475 0.76657475
0.76813725 0.76813725 0.76813725
0.77506127 0.77506127 0.77506127
0.78137255 0.78137255 0.78137255
0.81197917 0.81197917 0.81197917
0.8506587 0.8506587 0.8506587
0.87977941 0.87977941 0.87977941
0.84607843 0.84607843 0.84607843
0.84634651 0.84634651 0.84634651
0.84566483 0.84566483 0.84566483
0.84411765 0.84411765 0.84411765
0.84813113 0.84813113 0.84813113
0.8495098 0.8495098 0.8495098
0.8622549 0.8622549 0.8622549
0.89340533 0.89340533 0.89340533
0.91991422 0.91991422 0.91991422
0.91764706 0.91764706 0.91764706
0.92303922 0.92303922 0.92303922
0.90085784 0.90085784 0.90085784
0.90588235 0.90588235 0.90588235
0.90980392 0.90980392 0.90980392
0.90343137 0.90343137 0.90343137
0.91017157 0.91017157 0.91017157
0.93529412 0.93529412 0.93529412
0.95686275 0.95686275 0.95686275
0.67745098 0.67745098 0.67745098
0.6810049 0.6810049 0.6810049
0.69387255 0.69387255 0.69387255
0.71911765 0.71911765 0.71911765
0.74460784 0.74460784 0.74460784
0.76875 0.76875 0.76875
0.77941176 0.77941176 0.77941176
0.78627451 0.78627451 0.78627451
0.80882353 0.80882353 0.80882353
0.67156863 0.67156863 0.67156863
0.68627451 0.68627451 0.68627451
0.70153186 0.70153186 0.70153186
0.72303922 0.72303922 0.72303922
0.74215686 0.74215686 0.74215686
0.76150429 0.76150429 0.76150429
0.7754902 0.7754902 0.7754902
0.79100797 0.79100797 0.79100797
0.82401961 0.82401961 0.82401961
0.67843137 0.67843137 0.67843137
0.69083946 0.69083946 0.69083946
0.70919118 0.70919118 0.70919118
0.72815564 0.72815564 0.72815564
0.74901961 0.74901961 0.74901961
0.7669424 0.7669424 0.7669424
0.77420343 0.77420343 0.77420343
0.79105392 0.79105392 0.79105392
0.8245098 0.8245098 0.8245098
0.68627451 0.68627451 0.68627451
0.69497549 0.69497549 0.69497549
0.71302083 0.71302083 0.71302083
0.72935049 0.72935049 0.72935049
0.75294118 0.75294118 0.75294118
0.77487745 0.77487745 0.77487745
0.78517157 0.78517157 0.78517157
0.8009038 0.8009038 0.8009038
0.81127451 0.81127451 0.81127451
0.69558824 0.69558824 0.69558824
0.71041667 0.71041667 0.71041667
0.71813725 0.71813725 0.71813725
0.7245098 0.7245098 0.7245098
0.75759804 0.75759804 0.75759804
0.78051471 0.78051471 0.78051471
0.80416667 0.80416667 0.80416667
0.82794118 0.82794118 0.82794118
0.84607843 0.84607843 0.84607843
0.74497549 0.74497549 0.74497549
0.74276961 0.74276961 0.74276961
0.74626225 0.74626225 0.74626225
0.74722733 0.74722733 0.74722733
0.76151961 0.76151961 0.76151961
0.78705576 0.78705576 0.78705576
0.81862745 0.81862745 0.81862745
0.84889706 0.84889706 0.84889706
0.86801471 0.86801471 0.86801471
0.79191176 0.79191176 0.79191176
0.78802083 0.78802083 0.78802083
0.79172794 0.79172794 0.79172794
0.79963235 0.79963235 0.79963235
0.81078431 0.81078431 0.81078431
0.81590074 0.81590074 0.81590074
0.84215686 0.84215686 0.84215686
0.87696078 0.87696078 0.87696078
0.89926471 0.89926471 0.89926471
0.86470588 0.86470588 0.86470588
0.86384804 0.86384804 0.86384804
0.86115196 0.86115196 0.86115196
0.86680453 0.86680453 0.86680453
0.87953431 0.87953431 0.87953431
0.87647059 0.87647059 0.87647059
0.88887868 0.88887868 0.88887868
0.91078431 0.91078431 0.91078431
0.92990196 0.92990196 0.92990196
0.93333333 0.93333333 0.93333333
0.93333333 0.93333333 0.93333333
0.93651961 0.93651961 0.93651961
0.93823529 0.93823529 0.93823529
0.93823529 0.93823529 0.93823529
0.93431373 0.93431373 0.93431373
0.93823529 0.93823529 0.93823529
0.94117647 0.94117647 0.94117647
0.94411765 0.94411765 0.94411765
0.78627451 0.78627451 0.78627451
0.79319853 0.79319853 0.79319853
0.80441176 0.80441176 0.80441176
0.81715686 0.81715686 0.81715686
0.83676471 0.83676471 0.83676471
0.85214461 0.85214461 0.85214461
0.86029412 0.86029412 0.86029412
0.86029412 0.86029412 0.86029412
0.85588235 0.85588235 0.85588235
0.79362745 0.79362745 0.79362745
0.79803156 0.79803156 0.79803156
0.81205576 0.81205576 0.81205576
0.82107843 0.82107843 0.82107843
0.83284314 0.83284314 0.83284314
0.84852941 0.84852941 0.84852941
0.85997243 0.85997243 0.85997243
0.86813725 0.86813725 0.86813725
0.87506127 0.87506127 0.87506127
0.80061275 0.80061275 0.80061275
0.80194547 0.80194547 0.80194547
0.81351103 0.81351103 0.81351103
0.82352941 0.82352941 0.82352941
0.83431373 0.83431373 0.83431373
0.85160846 0.85160846 0.85160846
0.86029412 0.86029412 0.86029412
0.86770833 0.86770833 0.86770833
0.87598039 0.87598039 0.87598039
0.80539216 0.80539216 0.80539216
0.80588235 0.80588235 0.80588235
0.81323529 0.81323529 0.81323529
0.82199755 0.82199755 0.82199755
0.83848039 0.83848039 0.83848039
0.85717678 0.85717678 0.85717678
0.86636029 0.86636029 0.86636029
0.8723269 0.8723269 0.8723269
0.87971814 0.87971814 0.87971814
0.80539216 0.80539216 0.80539216
0.80367647 0.80367647 0.80367647
0.80710784 0.80710784 0.80710784
0.81544118 0.81544118 0.81544118
0.83431373 0.83431373 0.83431373
0.85998775 0.85998775 0.85998775
0.87941176 0.87941176 0.87941176
0.88602941 0.88602941 0.88602941
0.90098039 0.90098039 0.90098039
0.81421569 0.81421569 0.81421569
0.81233915 0.81233915 0.81233915
0.81367953 0.81367953 0.81367953
0.81292892 0.81292892 0.81292892
0.83431373 0.83431373 0.83431373
0.86390931 0.86390931 0.86390931
0.88172488 0.88172488 0.88172488
0.90285692 0.90285692 0.90285692
0.91207108 0.91207108 0.91207108
0.85294118 0.85294118 0.85294118
0.84901961 0.84901961 0.84901961
0.84901961 0.84901961 0.84901961
0.84805453 0.84805453 0.84805453
0.85392157 0.85392157 0.85392157
0.8660386 0.8660386 0.8660386
0.88465074 0.88465074 0.88465074
0.92009804 0.92009804 0.92009804
0.93382353 0.93382353 0.93382353
0.88474265 0.88474265 0.88474265
0.88731618 0.88731618 0.88731618
0.88386949 0.88386949 0.88386949
0.89618566 0.89618566 0.89618566
0.90931373 0.90931373 0.90931373
0.91127451 0.91127451 0.91127451
0.91245404 0.91245404 0.91245404
0.93082108 0.93082108 0.93082108
0.94908088 0.94908088 0.94908088
0.94558824 0.94558824 0.94558824
0.94509804 0.94509804 0.94509804
0.95196078 0.95196078 0.95196078
0.95294118 0.95294118 0.95294118
0.94901961 0.94901961 0.94901961
0.96078431 0.96078431 0.96078431
0.96078431 0.96078431 0.96078431
0.96127451 0.96127451 0.96127451
0.96911765 0.96911765 0.96911765
0.90588235 0.90588235 0.90588235
0.89019608 0.89019608 0.89019608
0.89803922 0.89803922 0.89803922
0.90735294 0.90735294 0.90735294
0.91764706 0.91764706 0.91764706
0.93088235 0.93088235 0.93088235
0.9254902 0.9254902 0.9254902
0.94166667 0.94166667 0.94166667
0.91764706 0.91764706 0.91764706
0.89019608 0.89019608 0.89019608
0.90098039 0.90098039 0.90098039
0.90196078 0.90196078 0.90196078
0.90588235 0.90588235 0.90588235
0.91593137 0.91593137 0.91593137
0.9254902 0.9254902 0.9254902
0.92941176 0.92941176 0.92941176
0.94944853 0.94944853 0.94944853
0.94852941 0.94852941 0.94852941
0.89411765 0.89411765 0.89411765
0.89803922 0.89803922 0.89803922
0.90196078 0.90196078 0.90196078
0.90588235 0.90588235 0.90588235
0.91568627 0.91568627 0.91568627
0.92585784 0.92585784 0.92585784
0.94044118 0.94044118 0.94044118
0.94117647 0.94117647 0.94117647
0.94509804 0.94509804 0.94509804
0.8995098 0.8995098 0.8995098
0.89540441 0.89540441 0.89540441
0.89803922 0.89803922 0.89803922
0.90196078 0.90196078 0.90196078
0.91838235 0.91838235 0.91838235
0.91366422 0.91366422 0.91366422
0.93333333 0.93333333 0.93333333
0.94705882 0.94705882 0.94705882
0.95294118 0.95294118 0.95294118
0.88431373 0.88431373 0.88431373
0.89191176 0.89191176 0.89191176
0.90196078 0.90196078 0.90196078
0.90073529 0.90073529 0.90073529
0.9127451 0.9127451 0.9127451
0.91960784 0.91960784 0.91960784
0.92598039 0.92598039 0.92598039
0.94509804 0.94509804 0.94509804
0.94901961 0.94901961 0.94901961
0.88627451 0.88627451 0.88627451
0.85508578 0.85508578 0.85508578
0.90098039 0.90098039 0.90098039
0.89411765 0.89411765 0.89411765
0.90661765 0.90661765 0.90661765
0.93425245 0.93425245 0.93425245
0.94117647 0.94117647 0.94117647
0.95441176 0.95441176 0.95441176
0.95441176 0.95441176 0.95441176
0.91078431 0.91078431 0.91078431
0.90294118 0.90294118 0.90294118
0.90588235 0.90588235 0.90588235
0.91078431 0.91078431 0.91078431
0.91617647 0.91617647 0.91617647
0.93088235 0.93088235 0.93088235
0.94926471 0.94926471 0.94926471
0.96507353 0.96507353 0.96507353
0.96470588 0.96470588 0.96470588
0.89656863 0.89656863 0.89656863
0.91078431 0.91078431 0.91078431
0.92205882 0.92205882 0.92205882
0.92941176 0.92941176 0.92941176
0.93161765 0.93161765 0.93161765
0.94295343 0.94295343 0.94295343
0.95392157 0.95392157 0.95392157
0.96078431 0.96078431 0.96078431
0.97647059 0.97647059 0.97647059
0.96078431 0.96078431 0.96078431
0.95294118 0.95294118 0.95294118
0.94901961 0.94901961 0.94901961
0.95294118 0.95294118 0.95294118
0.94901961 0.94901961 0.94901961
0.95833333 0.95833333 0.95833333
0.96078431 0.96078431 0.96078431
0.97303922 0.97303922 0.97303922
0.99607843 0.99607843 0.99607843
