site/assets/luts/natron-haldclut--kodak-elite-extracolor-100--3e08e0038.cube
# LUTr-Project: LUTr — LUTrepository
# LUTr-Schema-Version: 1
# LUTr-ID: natron-haldclut--kodak-elite-extracolor-100--3e08e0038
# LUTr-Title: kodak elite extracolor 100
# LUTr-Collection: Natron HaldCLUT
# LUTr-Collection-ID: natron-haldclut-presets
# LUTr-Source: https://github.com/NatronGitHub/clut
# LUTr-Source-File: submissions/natron-haldclut-presets/colorslide/kodak_elite_extracolor_100.png
# LUTr-Source-Format: PNG
# LUTr-Source-SHA256: c49d2be5f9e140e58780df6577be341f8fdefbf4d92b212daa0ffd0dcd534d75
# LUTr-License: CC-BY-SA-4.0
# LUTr-License-URL: https://github.com/NatronGitHub/clut#license
# LUTr-Tags: creative, film, film-emulation, hald-clut, natron, png, cube
# LUTr-Transform-Class: film-emulation
# LUTr-Input-Color-Space: srgb
# LUTr-Output-Color-Space: srgb
# LUTr-Color-Space-Confidence: assumed-display-referred
# LUTr-Conversion-Method: PNG LUT image decoded at 16-bit and sampled to 25x25x25 3D CUBE
# LUTr-Conversion-Date: 2026-07-27
# LUTr-Conversion-Tool: LUTr scripts/convert-all-to-cube.mjs
# LUTr-Conversion-Grid: 25x25x25
# LUTr-Note: Preserve this metadata and the upstream license notices when redistributing.
TITLE "kodak elite extracolor 100"
LUT_3D_SIZE 25
DOMAIN_MIN 0 0 0
DOMAIN_MAX 1 1 1
0 0 0
0.034803922 0.014215686 0.010294118
0.069607843 0.024509804 0.016666667
0.1004902 0.02745098 0.012254902
0.13137255 0.031372549 0.0058823529
0.15392157 0.026960784 0.016176471
0.1745098 0.019607843 0.030392157
0.19264706 0.011764706 0.043137255
0.23137255 0.015686275 0.035294118
0.26862745 0.0093137255 0.025
0.30588235 0.0029411765 0.010784314
0.34705882 0 0.0039215686
0.39607843 0 0.0039215686
0.44558824 0 0.0039215686
0.49705882 0 0.0039215686
0.54166667 0 0.0039215686
0.57254902 0 0.0078431373
0.60343137 0 0.010294118
0.63431373 0 0.011764706
0.66911765 0.0039215686 0.0078431373
0.70392157 0.0039215686 0.0039215686
0.73872549 0 0.0039215686
0.76960784 0 0.0039215686
0.80441176 0 0.0024509804
0.83137255 0 0
0.037254902 0.034803922 0.010294118
0.048468137 0.03817402 0.011213235
0.075612745 0.042647059 0.016666667
0.10294118 0.036764706 0.014705882
0.13137255 0.032598039 0.0039215686
0.15667892 0.032352941 0.012438725
0.18272059 0.032352941 0.024019608
0.20839461 0.034803922 0.032843137
0.24166667 0.03627451 0.028921569
0.27647059 0.025061275 0.018627451
0.31127451 0.011764706 0.010784314
0.3495098 0.0052083333 0.0042279412
0.39803922 0.0056372549 0.0051470588
0.44773284 0.0039215686 0.006372549
0.49705882 0.00098039216 0.0039215686
0.54166667 0 0.0039215686
0.57254902 0 0.0078431373
0.60343137 0 0.010294118
0.63713235 0.0028186275 0.011151961
0.67254902 0.0039215686 0.0078431373
0.70514706 0.0039215686 0.0039215686
0.73872549 0 0.0039215686
0.77254902 0 0.0039215686
0.80533088 0 0
0.83382353 0 0
0.073529412 0.070588235 0.020588235
0.076348039 0.06997549 0.016666667
0.087009804 0.069607843 0.01495098
0.11323529 0.066176471 0.015686275
0.14019608 0.061764706 0.016666667
0.16715686 0.057843137 0.012745098
0.19803922 0.057843137 0.015686275
0.22389706 0.056862745 0.019730392
0.25588235 0.056862745 0.018627451
0.28958333 0.047181373 0.012867647
0.32254902 0.041421569 0.012745098
0.35980392 0.038235294 0.011887255
0.40882353 0.030392157 0.0088235294
0.45441176 0.022058824 0.0087009804
0.50196078 0.014705882 0.0078431373
0.54264706 0.0058823529 0.0049019608
0.57647059 0.0049019608 0.0078431373
0.60833333 0.0049019608 0.0078431373
0.64215686 0.0039215686 0.0078431373
0.67659314 0.0039215686 0.0042892157
0.70882353 0.0039215686 0.0039215686
0.74007353 0 0.0039215686
0.77352941 0 0.0031862745
0.80833333 0 0
0.83431373 0 0
0.10098039 0.10441176 0.026960784
0.10128676 0.10441176 0.024509804
0.10588235 0.10306373 0.018995098
0.12352941 0.10006127 0.022977941
0.1504902 0.096323529 0.028676471
0.17745098 0.092156863 0.02689951
0.20833333 0.08872549 0.020098039
0.23921569 0.083517157 0.013909314
0.27009804 0.080882353 0.011764706
0.30098039 0.076960784 0.015502451
0.33578431 0.073039216 0.019117647
0.37352941 0.069117647 0.019117647
0.41911765 0.062990196 0.015686275
0.46813725 0.052941176 0.014767157
0.50931373 0.042647059 0.011397059
0.54920343 0.032352941 0.0099877451
0.58382353 0.02254902 0.0078431373
0.61470588 0.012745098 0.0078431373
0.6495098 0.006495098 0.0042892157
0.68082108 0.0039215686 0.0039215686
0.71519608 0.0039215686 0.00049019608
0.74607843 0.0038602941 0.00042892157
0.77732843 0.0034313725 0.00012254902
0.80833333 0.0021446078 0
0.82794118 0 0
0.10980392 0.13921569 0.041176471
0.11176471 0.13921569 0.037990196
0.12058824 0.13529412 0.037745098
0.13088235 0.12965686 0.062745098
0.15882353 0.12843137 0.042156863
0.18553922 0.12352941 0.039460784
0.21470588 0.12009804 0.039215686
0.24558824 0.11764706 0.033823529
0.27647059 0.11372549 0.025490196
0.31127451 0.10857843 0.021568627
0.34607843 0.10392157 0.023529412
0.38431373 0.1004902 0.021813725
0.42941176 0.094117647 0.019607843
0.4745098 0.083823529 0.019362745
0.51568627 0.071568627 0.016176471
0.55612745 0.059313725 0.01372549
0.59019608 0.049019608 0.011764706
0.62230392 0.033578431 0.0085784314
0.65588235 0.018627451 0.0053921569
0.69068627 0.0044117647 0.00024509804
0.71862745 0.0039215686 0
0.74656863 0.0039215686 0
0.77745098 0.0039215686 0
0.80686275 0.0039215686 0
0.82745098 0 0
0.11764706 0.17401961 0.055392157
0.1245098 0.171875 0.054105392
0.13529412 0.1692402 0.054534314
0.14901961 0.16317402 0.054901961
0.16715686 0.1622549 0.051470588
0.19411765 0.15833333 0.055453431
0.22107843 0.15490196 0.055882353
0.25196078 0.15441176 0.05
0.28676471 0.1504902 0.043627451
0.32009804 0.14283088 0.037254902
0.35637255 0.13480392 0.027818627
0.39460784 0.13045343 0.024448529
0.43921569 0.12107843 0.024019608
0.48039216 0.11078431 0.023529412
0.52156863 0.1004902 0.020955882
0.56305147 0.090196078 0.019607843
0.59656863 0.075980392 0.016176471
0.63008578 0.061948529 0.013235294
0.66629902 0.048039216 0.0082107843
0.70098039 0.037745098 0.0039215686
0.72598039 0.019362745 0.0039215686
0.75098039 0.011764706 0.00049019608
0.7814951 0.0079656863 0
0.80863971 0.0039215686 0
0.82794118 0.0039215686 0
0.12156863 0.20882353 0.065686275
0.1314951 0.20784314 0.065686275
0.14534314 0.20392157 0.065686275
0.15931373 0.20012255 0.062132353
0.17598039 0.19607843 0.06127451
0.20392157 0.19313725 0.071323529
0.23137255 0.19215686 0.066666667
0.2622549 0.18921569 0.060294118
0.29607843 0.18529412 0.053921569
0.33039216 0.1807598 0.051102941
0.36740196 0.17156863 0.040931373
0.40490196 0.16384804 0.030759804
0.44607843 0.15490196 0.030392157
0.4872549 0.14460784 0.02745098
0.52843137 0.13137255 0.026470588
0.56960784 0.12107843 0.022058824
0.60686275 0.10980392 0.019607843
0.6435049 0.099509804 0.015686275
0.67965686 0.089215686 0.010784314
0.71164216 0.075490196 0.0044117647
0.73627451 0.055882353 0.0039215686
0.76127451 0.035294118 0.0039215686
0.78823529 0.016421569 0.00073529412
0.81409314 0.0074754902 0
0.83431373 0.0039215686 0
0.12696078 0.24754902 0.075980392
0.13670343 0.24509804 0.07689951
0.15147059 0.24301471 0.079289216
0.16783088 0.24117647 0.075980392
0.1877451 0.23995098 0.075980392
0.21470588 0.23676471 0.078431373
0.24203431 0.23039216 0.075122549
0.27254902 0.2254902 0.065747549
0.30735294 0.2254902 0.064215686
0.34215686 0.22156863 0.064215686
0.37941176 0.21482843 0.05747549
0.42058824 0.20998775 0.050306373
0.46176471 0.20392157 0.043382353
0.49901961 0.19117647 0.040196078
0.54019608 0.17696078 0.033823529
0.57898284 0.16127451 0.02745098
0.61715686 0.14705882 0.021078431
0.65833333 0.13676471 0.014705882
0.69497549 0.12647059 0.0078431373
0.72726716 0.11488971 0.0039215686
0.75122549 0.092156863 0.0039215686
0.77647059 0.07567402 0.0053921569
0.7995098 0.048039216 0.0039215686
0.82401961 0.020526961 0.00091911765
0.84460784 0.0078431373 0
0.12941176 0.28627451 0.090196078
0.14215686 0.28627451 0.08872549
0.15882353 0.28627451 0.090196078
0.17598039 0.28627451 0.090196078
0.19803922 0.28235294 0.08627451
0.225 0.27843137 0.085784314
0.25588235 0.2745098 0.079411765
0.28676471 0.27058824 0.076960784
0.32156863 0.26666667 0.074509804
0.35637255 0.26421569 0.070588235
0.39607843 0.25882353 0.066666667
0.4372549 0.25147059 0.062745098
0.47843137 0.24705882 0.058823529
0.51960784 0.24264706 0.054411765
0.55686275 0.22843137 0.047058824
0.59656863 0.2127451 0.039215686
0.63529412 0.19607843 0.031372549
0.67254902 0.18578431 0.025
0.7127451 0.17156863 0.014705882
0.74362745 0.16127451 0.0078431373
0.76862745 0.14117647 0.0078431373
0.79313725 0.1245098 0.0078431373
0.81372549 0.094117647 0.0049019608
0.83823529 0.062254902 0.0039215686
0.85882353 0.035294118 0
0.13970588 0.33382353 0.096568627
0.15 0.32990196 0.1004902
0.1685049 0.32990196 0.1004902
0.18578431 0.32990196 0.1004902
0.20833333 0.32867647 0.096568627
0.2377451 0.32352941 0.096078431
0.26862745 0.32205882 0.092647059
0.30006127 0.32113971 0.087806373
0.33431373 0.31421569 0.087254902
0.37156863 0.31029412 0.083272059
0.4127451 0.30821078 0.076960784
0.45753676 0.30116422 0.073039216
0.49901961 0.29460784 0.070343137
0.53627451 0.28676471 0.065196078
0.57745098 0.27990196 0.06127451
0.61715686 0.26568627 0.054411765
0.65588235 0.25392157 0.045588235
0.69405637 0.24362745 0.035294118
0.72977941 0.23088235 0.025980392
0.76029412 0.21568627 0.018627451
0.7872549 0.19656863 0.011764706
0.81372549 0.17598039 0.0078431373
0.83431373 0.15036765 0.0078431373
0.85245098 0.12794118 0.006372549
0.86911765 0.10735294 0.0039215686
0.15 0.38529412 0.10686275
0.16029412 0.38137255 0.11078431
0.17843137 0.37745098 0.11053922
0.19264706 0.37745098 0.10723039
0.21862745 0.37598039 0.10637255
0.2504902 0.37303922 0.10281863
0.28137255 0.36960784 0.099019608
0.3122549 0.36960784 0.095098039
0.34705882 0.36568627 0.098039216
0.38823529 0.3627451 0.093382353
0.43014706 0.3625 0.087254902
0.4745098 0.35919118 0.083333333
0.51960784 0.35294118 0.083333333
0.56041667 0.34301471 0.080269608
0.59803922 0.33627451 0.076470588
0.63921569 0.32598039 0.070098039
0.67647059 0.31568627 0.059803922
0.71519608 0.30294118 0.045588235
0.74607843 0.28946078 0.039215686
0.77696078 0.26960784 0.028921569
0.80784314 0.24852941 0.014705882
0.83419118 0.22855392 0.0078431373
0.8502451 0.21495098 0.0078431373
0.86727941 0.19607843 0.0088235294
0.88431373 0.17843137 0.0078431373
0.15637255 0.44019608 0.11715686
0.17058824 0.43645833 0.11715686
0.18872549 0.43370098 0.11629902
0.20637255 0.43627451 0.11329657
0.23284314 0.43431373 0.11323529
0.26372549 0.42843137 0.10974265
0.29460784 0.4254902 0.10637255
0.32677696 0.42322304 0.1004902
0.36421569 0.42058824 0.10147059
0.40539216 0.41715686 0.09932598
0.44620098 0.41715686 0.09754902
0.49160539 0.41672794 0.093627451
0.53651961 0.4127451 0.089705882
0.58137255 0.40441176 0.090196078
0.62218137 0.39803922 0.089705882
0.65980392 0.3877451 0.084313725
0.70098039 0.37745098 0.070098039
0.73216912 0.36341912 0.056188725
0.7627451 0.34816176 0.049509804
0.79362745 0.33137255 0.039215686
0.825 0.31053922 0.025
0.85140931 0.29411765 0.014767157
0.86862745 0.28125 0.011764706
0.88645833 0.26470588 0.011764706
0.90098039 0.24411765 0.011764706
0.16666667 0.49803922 0.12352941
0.18088235 0.49558824 0.12156863
0.1995098 0.49656863 0.11764706
0.22009804 0.49803922 0.11593137
0.24705882 0.49607843 0.11764706
0.27794118 0.49362745 0.11740196
0.30686275 0.4872549 0.11421569
0.34117647 0.48088235 0.10441176
0.38039216 0.47647059 0.10588235
0.41960784 0.4752451 0.10784314
0.46078431 0.4745098 0.10784314
0.50563725 0.4745098 0.10612745
0.55294118 0.47058824 0.10098039
0.59852941 0.46666667 0.093872549
0.64313725 0.46127451 0.08872549
0.68431373 0.45147059 0.082843137
0.72156863 0.43921569 0.07254902
0.75245098 0.425 0.064215686
0.78333333 0.40980392 0.055882353
0.81421569 0.39264706 0.049509804
0.84411765 0.3754902 0.039215686
0.86985294 0.36029412 0.028921569
0.89215686 0.34607843 0.018627451
0.91078431 0.33039216 0.014215686
0.9254902 0.31176471 0.011764706
0.18088235 0.55147059 0.1254902
0.19381127 0.55410539 0.12156863
0.20943627 0.5567402 0.11764706
0.23039216 0.55980392 0.11672794
0.25784314 0.55759804 0.11764706
0.28823529 0.55496324 0.12156863
0.31911765 0.54901961 0.11862745
0.35569853 0.53872549 0.10833333
0.39313725 0.53627451 0.10588235
0.43382353 0.53627451 0.11617647
0.4754902 0.53627451 0.11752451
0.52401961 0.53627451 0.11029412
0.57352941 0.53259804 0.099509804
0.62254902 0.53186275 0.089215686
0.66764706 0.5254902 0.081862745
0.70735294 0.51550245 0.07432598
0.74215686 0.50490196 0.066666667
0.77303922 0.48676471 0.066666667
0.80392157 0.46862745 0.063112745
0.83137255 0.45447304 0.055821078
0.86176471 0.44215686 0.049019608
0.88823529 0.42555147 0.03872549
0.91568627 0.40919118 0.025
0.9377451 0.39607843 0.014215686
0.9504902 0.37990196 0.0078431373
0.19803922 0.60294118 0.1254902
0.21115196 0.60870098 0.12156863
0.22647059 0.61397059 0.11666667
0.24497549 0.61470588 0.10992647
0.2745098 0.61078431 0.11078431
0.30539216 0.61029412 0.11470588
0.33333333 0.60612745 0.11470588
0.36960784 0.6004902 0.11164216
0.40980392 0.59411765 0.10882353
0.44987745 0.59509804 0.11433824
0.49705882 0.59803922 0.11078431
0.54497549 0.59803922 0.10343137
0.59411765 0.59607843 0.093137255
0.64313725 0.59411765 0.082843137
0.68823529 0.59019608 0.074754902
0.72941176 0.58088235 0.067647059
0.7627451 0.56666667 0.066666667
0.79362745 0.54852941 0.066666667
0.8245098 0.53406863 0.065686275
0.85147059 0.52046569 0.059313725
0.88039216 0.50539216 0.052941176
0.90625 0.49031863 0.042647059
0.93627451 0.47426471 0.029166667
0.96678922 0.45894608 0.014215686
0.98137255 0.44803922 0.0049019608
0.21323529 0.65980392 0.1254902
0.2283701 0.66372549 0.11911765
0.24803922 0.6622549 0.10882353
0.26599265 0.6622549 0.10098039
0.29313725 0.6622549 0.099754902
0.32205882 0.65833333 0.1004902
0.35294118 0.65833333 0.10232843
0.3877451 0.65833333 0.10349265
0.42647059 0.65588235 0.10294118
0.47401961 0.65588235 0.10140931
0.52156863 0.65588235 0.09620098
0.56930147 0.65588235 0.091360294
0.61544118 0.65588235 0.084068627
0.66029412 0.65588235 0.076470588
0.70784314 0.65196078 0.067279412
0.74852941 0.64264706 0.06127451
0.78186275 0.62843137 0.062745098
0.81421569 0.61568627 0.062745098
0.84509804 0.60147059 0.06127451
0.87205882 0.58988971 0.057352941
0.89901961 0.575 0.050245098
0.92598039 0.55882353 0.040870098
0.95686275 0.54460784 0.027328431
0.98480392 0.52892157 0.012745098
0.99607843 0.52009804 0.0053921569
0.23137255 0.71764706 0.12156863
0.24803922 0.71519608 0.1127451
0.26862745 0.71372549 0.10098039
0.28921569 0.71372549 0.090686275
0.31176471 0.71372549 0.084313725
0.34264706 0.71372549 0.082352941
0.37352941 0.70980392 0.08627451
0.40833333 0.71127451 0.08627451
0.45098039 0.71372549 0.08627451
0.49852941 0.71372549 0.083823529
0.54607843 0.71372549 0.081372549
0.59362745 0.71372549 0.075
0.63921569 0.71372549 0.070588235
0.68431373 0.71372549 0.066176471
0.7254902 0.71078431 0.059803922
0.76666667 0.70441176 0.054901961
0.8 0.69411765 0.054901961
0.83480392 0.68382353 0.054901961
0.86568627 0.67352941 0.050980392
0.89313725 0.65931373 0.050980392
0.92156863 0.64509804 0.045098039
0.94656863 0.63088235 0.034803922
0.97352941 0.61666667 0.021568627
0.99215686 0.60245098 0.011764706
0.99607843 0.59607843 0.0078431373
0.26617647 0.76519608 0.10098039
0.27800245 0.76366422 0.094607843
0.29497549 0.76335784 0.088235294
0.3122549 0.76519608 0.076470588
0.33357843 0.77034314 0.066911765
0.36323529 0.76893382 0.065992647
0.39767157 0.76764706 0.069240196
0.43284314 0.76819853 0.069607843
0.47794118 0.76911765 0.069607843
0.5254902 0.77156863 0.065686275
0.57242647 0.77156863 0.061764706
0.62058824 0.77156863 0.057843137
0.66495098 0.77034314 0.051960784
0.70882353 0.76911765 0.048223039
0.74705882 0.76519608 0.04497549
0.78425245 0.76127451 0.044607843
0.82058824 0.75735294 0.044607843
0.85294118 0.7495098 0.044607843
0.88627451 0.74105392 0.040686275
0.91341912 0.7276348 0.040686275
0.94338235 0.71397059 0.036764706
0.96666667 0.7026348 0.028431373
0.98688725 0.68872549 0.01997549
0.99362745 0.67843137 0.014215686
0.99607843 0.67058824 0.011764706
0.29705882 0.8127451 0.080392157
0.31090686 0.81176471 0.074019608
0.32622549 0.81176471 0.066911765
0.34227941 0.81531863 0.057352941
0.35980392 0.81568627 0.05
0.38909314 0.81862745 0.050367647
0.42352941 0.81960784 0.053676471
0.45980392 0.81997549 0.053553922
0.50490196 0.82352941 0.049019608
0.55355392 0.82352941 0.045098039
0.5997549 0.82058824 0.041176471
0.6439951 0.82058824 0.037254902
0.68823529 0.82009804 0.034313725
0.72806373 0.81654412 0.034313725
0.76568627 0.81348039 0.034313725
0.80183824 0.8127451 0.034313725
0.83627451 0.81176471 0.034313725
0.86997549 0.8060049 0.034313725
0.90196078 0.79926471 0.031127451
0.93284314 0.78970588 0.030392157
0.9622549 0.77990196 0.026470588
0.9870098 0.76973039 0.022181373
0.99534314 0.76053922 0.016666667
0.99607843 0.75477941 0.015686275
0.99607843 0.74803922 0.011764706
0.32794118 0.86029412 0.059803922
0.33854167 0.85686275 0.053431373
0.35343137 0.85686275 0.044117647
0.37009804 0.85686275 0.039767157
0.39264706 0.85122549 0.039705882
0.42303922 0.84993873 0.039705882
0.45428922 0.85343137 0.042647059
0.48694853 0.86096814 0.038235294
0.53186275 0.86470588 0.031862745
0.57745098 0.86813725 0.024509804
0.62254902 0.86470588 0.020588235
0.66372549 0.86470588 0.024019608
0.70147059 0.86470588 0.024019608
0.74258578 0.86078431 0.024019608
0.77953431 0.86041667 0.02745098
0.8153799 0.86029412 0.027634804
0.8504902 0.86029412 0.02745098
0.88480392 0.85422794 0.025306373
0.91617647 0.84754902 0.024019608
0.94705882 0.84074755 0.020526961
0.97401961 0.83112745 0.017892157
0.99264706 0.825 0.016176471
0.99607843 0.82463235 0.015686275
0.99607843 0.82303922 0.015686275
0.99607843 0.82058824 0.015686275
0.35882353 0.90588235 0.035294118
0.36911765 0.90465686 0.031372549
0.38431373 0.90098039 0.02745098
0.40294118 0.89436275 0.025490196
0.42745098 0.8872549 0.028431373
0.45441176 0.88431373 0.029656863
0.48529412 0.8877451 0.033333333
0.52009804 0.89362745 0.027941176
0.55882353 0.9 0.017647059
0.60196078 0.90514706 0.0098039216
0.63921569 0.90588235 0.0098039216
0.67843137 0.90588235 0.01372549
0.71568627 0.90588235 0.017647059
0.75490196 0.90588235 0.017647059
0.79264706 0.90392157 0.017647059
0.82867647 0.90465686 0.017647059
0.86470588 0.90392157 0.017647059
0.89681373 0.90073529 0.017647059
0.92843137 0.89362745 0.017156863
0.95735294 0.88651961 0.01372549
0.97843137 0.88039216 0.011764706
0.98872549 0.87622549 0.011764706
0.99558824 0.87254902 0.011764706
0.99607843 0.87328431 0.011764706
0.99607843 0.8745098 0.011764706
0.38578431 0.95490196 0.014705882
0.39901961 0.95116422 0.011090686
0.41911765 0.94215686 0.01127451
0.43970588 0.93186275 0.014705882
0.4622549 0.925 0.017156863
0.48921569 0.91911765 0.019607843
0.51666667 0.91948529 0.023039216
0.55245098 0.9245098 0.017647059
0.58970588 0.93088235 0.0073529412
0.6245098 0.93480392 0.0039215686
0.65980392 0.93872549 0.0039215686
0.69362745 0.94264706 0.0039215686
0.73039216 0.94681373 0.0073529412
0.77064951 0.9471201 0.0074142157
0.80845588 0.94705882 0.0078431373
0.84197304 0.94705882 0.01127451
0.875 0.94705882 0.01127451
0.90980392 0.94705882 0.01127451
0.94068627 0.94227941 0.0077205882
0.96378676 0.93578431 0.0073529412
0.9745098 0.92965686 0.0073529412
0.98431373 0.92401961 0.0078431373
0.99117647 0.92095588 0.0078431373
0.99607843 0.92009804 0.0078431373
0.99607843 0.92009804 0.0078431373
0.4254902 0.98823529 0
0.44019608 0.98382353 0.0006127451
0.45980392 0.97647059 0.0039215686
0.47745098 0.96703431 0.0049019608
0.49803922 0.95980392 0.0083333333
0.52389706 0.95343137 0.011887255
0.55098039 0.95 0.012745098
0.58333333 0.95208333 0.010661765
0.62058824 0.95784314 0.0039215686
0.65147059 0.96066176 0.0039215686
0.68333333 0.96372549 0.0039215686
0.71715686 0.97009804 0.0039215686
0.75098039 0.97647059 0.00098039216
0.78786765 0.98578431 0.00098039216
0.82328431 0.98995098 0.00098039216
0.85441176 0.98492647 0.00098039216
0.88529412 0.98137255 0.00098039216
0.92009804 0.98713235 0.00098039216
0.95318627 0.99044118 0.00098039216
0.96421569 0.98088235 0.00098039216
0.97107843 0.9745098 0.0039215686
0.98088235 0.97205882 0.0039215686
0.9875 0.96862745 0.0039215686
0.99362745 0.96764706 0.0039215686
0.99607843 0.96764706 0.0039215686
0.48676471 0.98970588 0
0.49460784 0.98970588 0
0.50919118 0.98762255 0.0028186275
0.52303922 0.98578431 0.0039215686
0.54117647 0.98186275 0.0039215686
0.56011029 0.97941176 0.0039215686
0.58578431 0.97585784 0.006372549
0.61366422 0.9754902 0.0054534314
0.64607843 0.97941176 0.0039215686
0.67696078 0.98094363 0.0024509804
0.70784314 0.98186275 0.0018382353
0.74001225 0.98431373 0
0.77426471 0.98823529 0
0.81029412 0.99264706 0
0.84558824 0.99607843 0
0.87101716 0.99515931 0
0.8995098 0.99215686 0
0.92947304 0.99607843 0
0.95392157 0.99607843 0
0.96421569 0.99607843 0
0.97058824 0.99362745 0
0.98088235 0.99215686 0
0.9872549 0.99215686 0
0.99362745 0.99215686 0
0.99607843 0.99215686 0
0.5254902 1 0
0.53186275 0.99607843 0
0.54313725 0.99607843 0
0.55980392 0.99264706 0
0.5745098 0.99215686 0
0.59313725 0.99215686 0
0.61372549 0.99215686 0
0.63578431 0.99215686 0
0.66666667 0.99215686 0
0.69362745 0.99215686 0
0.72843137 0.99215686 0
0.75931373 0.99215686 0
0.79607843 0.99411765 0
0.8372549 0.99656863 0
0.87352941 1 0
0.88921569 0.99607843 0
0.90980392 0.99607843 0
0.93039216 0.99607843 0
0.95392157 0.99607843 0
0.96421569 0.99607843 0
0.97058824 0.99607843 0
0.98088235 0.99558824 0
0.9872549 0.99607843 0
0.99362745 0.99607843 0
0.99607843 0.99607843 0
0.018137255 0.0078431373 0.026960784
0.030882353 0.010294118 0.027879902
0.061519608 0.020955882 0.033333333
0.094117647 0.023529412 0.028921569
0.12303922 0.025 0.026960784
0.15 0.023223039 0.024693627
0.17058824 0.016666667 0.034313725
0.1911152 0.0093137255 0.045588235
0.22745098 0.011764706 0.039215686
0.26525735 0.0083946078 0.028002451
0.30588235 0.0035539216 0.016789216
0.34705882 0 0.0088235294
0.39485294 0 0.0083333333
0.44558824 0 0.0078431373
0.49705882 0 0.0045343137
0.54166667 0 0.0039215686
0.57254902 0 0.0078431373
0.60343137 0 0.011764706
0.63492647 0 0.011764706
0.66911765 0.0012867647 0.0081495098
0.70392157 0.0014705882 0.0078431373
0.73529412 0 0.006372549
0.76960784 0 0.0039215686
0.80441176 0 0.0024509804
0.83382353 0 0
0.035723039 0.034803922 0.031801471
0.048238358 0.036680453 0.031801471
0.069776348 0.039139093 0.033333333
0.0957644 0.035102635 0.033999694
0.1254902 0.032352941 0.028645833
0.15311734 0.032352941 0.02634038
0.17806373 0.031663603 0.031004902
0.20481771 0.030859375 0.036764706
0.2377451 0.028431373 0.034375
0.27346814 0.021714154 0.025957414
0.30943627 0.012147672 0.016482843
0.34999234 0.0066636029 0.01127451
0.39849877 0.006372549 0.010294118
0.44639246 0.0060661765 0.0091835172
0.49590993 0.0006127451 0.0045343137
0.54166667 0 0.0039215686
0.57254902 0 0.0078431373
0.60343137 0 0.011764706
0.63713235 0.0006127451 0.011764706
0.66992188 0.0038066789 0.0078431373
0.70392157 0.0039215686 0.0078431373
0.73872549 0 0.0061810662
0.77254902 0 0.0039215686
0.80683977 0 0.0018765319
0.83529412 0 0
0.066053922 0.06997549 0.039093137
0.072472426 0.069607843 0.037714461
0.084681373 0.069607843 0.036060049
0.10693934 0.066176471 0.039047181
0.13596814 0.061764706 0.036703431
0.16323529 0.057843137 0.033333333
0.19166667 0.057843137 0.033057598
0.21901042 0.056173407 0.031525735
0.25196078 0.052941176 0.028431373
0.28607537 0.047181373 0.026593137
0.32156863 0.042156863 0.022947304
0.35980392 0.036626838 0.01942402
0.40686275 0.030392157 0.016115196
0.45396752 0.023897059 0.01216299
0.49901961 0.011764706 0.0071691176
0.54065564 0.0036764706 0.0039215686
0.57352941 0.0049019608 0.0078431373
0.60758272 0.0049019608 0.010983456
0.63995098 0.0039215686 0.01004902
0.67401961 0.0039215686 0.0078431373
0.70784314 0.0039215686 0.006372549
0.74007353 0.00085784314 0.0039215686
0.77352941 0 0.0039215686
0.80833333 0 0
0.83713235 0 0
0.093321078 0.10441176 0.046262255
