site/assets/luts/natron-haldclut--fuji-superia-400--b8c05d708.cube
# LUTr-Project: LUTr — LUTrepository
# LUTr-Schema-Version: 1
# LUTr-ID: natron-haldclut--fuji-superia-400--b8c05d708
# LUTr-Title: fuji superia 400
# LUTr-Collection: Natron HaldCLUT
# LUTr-Collection-ID: natron-haldclut-presets
# LUTr-Source: https://github.com/NatronGitHub/clut
# LUTr-Source-File: submissions/natron-haldclut-presets/negative_old/fuji_superia_400.png
# LUTr-Source-Format: PNG
# LUTr-Source-SHA256: cf3b9266d12fc79453babc33d05de399fd15e700f3ced3b532c0f86662b82bd4
# LUTr-License: CC-BY-SA-4.0
# LUTr-License-URL: https://github.com/NatronGitHub/clut#license
# LUTr-Tags: creative, film, film-emulation, hald-clut, natron, png, cube
# LUTr-Transform-Class: film-emulation
# LUTr-Input-Color-Space: srgb
# LUTr-Output-Color-Space: srgb
# LUTr-Color-Space-Confidence: assumed-display-referred
# LUTr-Conversion-Method: PNG LUT image decoded at 16-bit and sampled to 25x25x25 3D CUBE
# LUTr-Conversion-Date: 2026-07-27
# LUTr-Conversion-Tool: LUTr scripts/convert-all-to-cube.mjs
# LUTr-Conversion-Grid: 25x25x25
# LUTr-Note: Preserve this metadata and the upstream license notices when redistributing.
TITLE "fuji superia 400"
LUT_3D_SIZE 25
DOMAIN_MIN 0 0 0
DOMAIN_MAX 1 1 1
0 0.039215686 0.035294118
0.020588235 0.045588235 0.041666667
0.045098039 0.047058824 0.044117647
0.065686275 0.047058824 0.047058824
0.090196078 0.047058824 0.050980392
0.12401961 0.04754902 0.047058824
0.17254902 0.053921569 0.044117647
0.22156863 0.058823529 0.039215686
0.27058824 0.062745098 0.031372549
0.33088235 0.053921569 0.02745098
0.39803922 0.028431373 0.023529412
0.46372549 0.0014705882 0.016176471
0.53137255 0 0.015686275
0.59558824 0.0039215686 0.01127451
0.65784314 0.0039215686 0.0078431373
0.70931373 0.013235294 0.011764706
0.76470588 0.015686275 0.011764706
0.82647059 0.011764706 0.0053921569
0.86960784 0.010784314 0.0039215686
0.91127451 0.0044117647 0.00049019608
0.94705882 0.015686275 0
0.96127451 0.065196078 0
0.9745098 0.12058824 0
0.9872549 0.17205882 0
1 0.21960784 0
0.0039215686 0.059803922 0.045588235
0.019669118 0.060723039 0.045588235
0.043259804 0.06372549 0.047058824
0.067830882 0.06372549 0.047058824
0.092156863 0.06372549 0.047058824
0.12775735 0.066360294 0.044607843
0.1754902 0.067647059 0.04129902
0.22303922 0.067647059 0.037745098
0.27058824 0.065196078 0.031372549
0.33333333 0.057904412 0.02745098
0.40441176 0.046691176 0.02254902
0.47352941 0.031372549 0.016176471
0.53651961 0.0095588235 0.01372549
0.60165441 0.0034313725 0.009129902
0.66360294 0.0029411765 0.0072303922
0.71323529 0.013235294 0.011764706
0.76715686 0.015686275 0.011764706
0.82794118 0.010232843 0.0044730392
0.87058824 0.012377451 0.0014705882
0.90802696 0.024387255 0
0.94313725 0.052205882 0
0.96390931 0.092156863 0
0.97794118 0.14362745 0
0.990625 0.19172794 0
0.99754902 0.21568627 0
0.0039215686 0.080392157 0.055882353
0.015686275 0.080392157 0.055882353
0.038235294 0.083578431 0.054166667
0.069117647 0.087745098 0.044607843
0.094607843 0.088235294 0.03872549
0.1314951 0.088357843 0.037867647
0.17941176 0.089215686 0.034313725
0.22757353 0.090318627 0.031372549
0.27941176 0.093137255 0.031372549
0.34117647 0.086764706 0.025
0.41078431 0.076470588 0.018627451
0.47904412 0.061397059 0.014705882
0.54362745 0.038235294 0.011764706
0.61090686 0.012377451 0.0073529412
0.67058824 0.00073529412 0.0036764706
0.71813725 0.0099264706 0.0072303922
0.77254902 0.011764706 0.0068627451
0.83039216 0.0078431373 0.0011029412
0.87034314 0.029656863 0
0.90441176 0.065196078 0.0035539216
0.93921569 0.098529412 0.0039215686
0.9692402 0.12781863 0
0.98431373 0.17156863 0
0.9942402 0.20747549 0
0.99607843 0.21568627 0
0.0039215686 0.10098039 0.066176471
0.010294118 0.097365196 0.062745098
0.034313725 0.10196078 0.057843137
0.065196078 0.10833333 0.04754902
0.096078431 0.11053922 0.03504902
0.13529412 0.11317402 0.028370098
0.18333333 0.11617647 0.031372549
0.23431373 0.1213848 0.031372549
0.28970588 0.12401961 0.031372549
0.34932598 0.11421569 0.021384804
0.41372549 0.10735294 0.014705882
0.47941176 0.089705882 0.0083333333
0.54877451 0.07254902 0.0098039216
0.61470588 0.055821078 0.0077818627
0.67352941 0.048039216 0.0047794118
0.7245098 0.05557598 0.0075367647
0.77647059 0.055882353 0.0039215686
0.83186275 0.055392157 0
0.86960784 0.075980392 0.00012254902
0.90441176 0.12015931 0.0039215686
0.93921569 0.14803922 0.0039215686
0.97310049 0.16770833 0
0.99362745 0.19987745 0
0.99607843 0.21305147 0
0.99607843 0.21568627 0
0.0078431373 0.12941176 0.07254902
0.0090686275 0.12941176 0.071323529
0.020098039 0.12794118 0.064215686
0.045588235 0.13308824 0.057352941
0.081372549 0.13823529 0.047058824
0.13014706 0.14730392 0.041176471
0.18333333 0.15098039 0.037745098
0.2370098 0.15563725 0.036519608
0.3 0.15294118 0.02745098
0.35857843 0.14656863 0.017156863
0.41519608 0.13431373 0.0049019608
0.48284314 0.12941176 0.0073529412
0.55196078 0.12745098 0.011764706
0.61862745 0.12107843 0.011764706
0.67745098 0.11372549 0.0088235294
0.72818627 0.12034314 0.0078431373
0.78039216 0.12156863 0.0039215686
0.82941176 0.12279412 0
0.86960784 0.13529412 0
0.90392157 0.16495098 0
0.9372549 0.18627451 0
0.97058824 0.20882353 0
0.99558824 0.225 0
0.99607843 0.22892157 0
0.99607843 0.23137255 0
0.011764706 0.17058824 0.082843137
0.012071078 0.16636029 0.078615196
0.015686275 0.16127451 0.070098039
0.021691176 0.15441176 0.063235294
0.062009804 0.16397059 0.055392157
0.12009804 0.17892157 0.051470588
0.17830882 0.18958333 0.044240196
0.24626225 0.20196078 0.033823529
0.31862745 0.21519608 0.023039216
0.37647059 0.20882353 0.013051471
0.43039216 0.19852941 0.0042892157
0.48866422 0.18823529 0.0039215686
0.55514706 0.1872549 0.0095588235
0.62254902 0.18241422 0.011764706
0.67794118 0.1754902 0.0088235294
0.72941176 0.18302696 0.0076593137
0.78039216 0.1872549 0.0034313725
0.82794118 0.18970588 0
0.8692402 0.19987745 0
0.90392157 0.21715686 0
0.93529412 0.2372549 0
0.96911765 0.25435049 0.00006127451
0.98970588 0.26764706 0.0039215686
0.99558824 0.27432598 0.0041053922
0.99558824 0.27696078 0.0044117647
0.011764706 0.20784314 0.089215686
0.014583333 0.20428922 0.085661765
0.015686275 0.19901961 0.07745098
0.015686275 0.18872549 0.070098039
0.048039216 0.19901961 0.065686275
0.10943627 0.22046569 0.064338235
0.17352941 0.2372549 0.051960784
0.25845588 0.26188725 0.032352941
0.33529412 0.28333333 0.012745098
0.39705882 0.27941176 0.0082107843
0.4502451 0.27058824 0.0068627451
0.50625 0.26029412 0.0039215686
0.56372549 0.24705882 0.0044117647
0.6254902 0.2377451 0.0078431373
0.68357843 0.23259804 0.0056372549
0.73137255 0.23823529 0.0028186275
0.77745098 0.24215686 0
0.82438725 0.24497549 0
0.86666667 0.25098039 0
0.90392157 0.26470588 0
0.93529412 0.28235294 0
0.95919118 0.29852941 0.0039215686
0.98039216 0.31176471 0.006127451
0.99215686 0.31911765 0.0078431373
0.99215686 0.32156863 0.0078431373
0.010294118 0.24901961 0.099509804
0.011764706 0.24748775 0.095588235
0.011764706 0.24264706 0.091053922
0.016973039 0.24264706 0.087745098
0.0375 0.24583333 0.082598039
0.088235294 0.26176471 0.071568627
0.15245098 0.28137255 0.060171569
0.24705882 0.30980392 0.040196078
0.34215686 0.34068627 0.013235294
0.41317402 0.34846814 0.003002451
0.46727941 0.34080882 0.0039215686
0.521875 0.33363971 0.0039215686
0.57598039 0.31617647 0.0039215686
0.63186275 0.29540441 0.0024509804
0.68566176 0.28296569 0.0006127451
0.72892157 0.28970588 0
0.775 0.29362745 0
0.82101716 0.29362745 0
0.86666667 0.29852941 0
0.90441176 0.3122549 0
0.93063725 0.32818627 0.0026960784
0.95245098 0.33970588 0.0044117647
0.97303922 0.35392157 0.0078431373
0.98915441 0.36421569 0.010232843
0.99215686 0.36813725 0.011764706
0.0078431373 0.29411765 0.10588235
0.0078431373 0.29019608 0.10196078
0.0078431373 0.29019608 0.10490196
0.0078431373 0.29019608 0.10196078
0.011764706 0.28823529 0.098039216
0.065196078 0.30294118 0.085294118
0.12745098 0.32254902 0.067647059
0.225 0.35343137 0.051960784
0.32156863 0.38039216 0.031372549
0.40147059 0.40098039 0.0093137255
0.47647059 0.41176471 0.0039215686
0.53823529 0.41176471 0.0039215686
0.59411765 0.4 0.0039215686
0.6495098 0.37990196 0
0.69411765 0.3627451 0
0.73284314 0.35294118 0
0.77647059 0.35294118 0
0.82009804 0.34901961 0
0.86372549 0.34901961 0
0.90441176 0.35980392 0
0.9254902 0.37058824 0.0039215686
0.94607843 0.38480392 0.0078431373
0.96666667 0.39509804 0.010784314
0.98578431 0.40539216 0.011764706
0.99215686 0.40784314 0.011764706
0.0014705882 0.33137255 0.1122549
0.0048406863 0.33474265 0.11378676
0.0078431373 0.33590686 0.11862745
0.0078431373 0.3377451 0.11862745
0.0083333333 0.3370098 0.11666667
0.055208333 0.3504902 0.10637255
0.12254902 0.37107843 0.089215686
0.20594363 0.39460784 0.067708333
0.29705882 0.42156863 0.045588235
0.3778799 0.44215686 0.021078431
0.45539216 0.46066176 0.0078431373
0.54840686 0.48419118 0.0039215686
0.61862745 0.48823529 0.0019607843
0.66960784 0.47352941 0
0.70723039 0.45183824 0
0.74503676 0.43235294 0
0.78676471 0.425 0
0.82794118 0.41862745 0
0.87058824 0.41433824 0
0.90441176 0.40863971 0.0021446078
0.93063725 0.41568627 0.0039215686
0.95245098 0.42598039 0.0078431373
0.9745098 0.43627451 0.0078431373
0.98823529 0.44172794 0.010232843
0.98823529 0.44509804 0.011764706
0.0039215686 0.38137255 0.13235294
0.0039215686 0.38529412 0.13517157
0.0078431373 0.38921569 0.13946078
0.011397059 0.38921569 0.13921569
0.016666667 0.39313725 0.1372549
0.035416667 0.39803922 0.13039216
0.1127451 0.41862745 0.10980392
0.19901961 0.44215686 0.085294118
0.27745098 0.4627451 0.056862745
0.35490196 0.48431373 0.028921569
0.43235294 0.50392157 0.0068627451
0.53247549 0.53443627 0.0039215686
0.63823529 0.56666667 0
0.68480392 0.55490196 0
0.71960784 0.53431373 0
0.75980392 0.51078431 0
0.79803922 0.49705882 0
0.8372549 0.48639706 0.00098039216
0.87352941 0.47941176 0.0039215686
0.90526961 0.46911765 0.0039215686
0.93578431 0.46176471 0.0039215686
0.96176471 0.46580882 0.0042892157
0.98014706 0.47279412 0.0068627451
0.98823529 0.47781863 0.0078431373
0.98823529 0.48137255 0.0078431373
0.01127451 0.43284314 0.16715686
0.0075367647 0.43921569 0.16930147
0.0078431373 0.44154412 0.17071078
0.0082720588 0.44411765 0.16715686
0.0083333333 0.44460784 0.16127451
0.025183824 0.44515931 0.15484069
0.10588235 0.4627451 0.1372549
0.19215686 0.48333333 0.1153799
0.27058824 0.50392157 0.088235294
0.34050245 0.525 0.05
0.41053922 0.54509804 0.011029412
0.50245098 0.57003676 0.0038602941
0.60637255 0.59926471 0.0019607843
0.67879902 0.61017157 0
0.73161765 0.60539216 0
0.77530637 0.58707108 0
0.81470588 0.57303922 0
0.84607843 0.55851716 0.0039215686
0.87438725 0.54375 0.0039215686
0.90833333 0.53088235 0.0073529412
0.93921569 0.51862745 0.0039215686
0.9661152 0.50392157 0.0039215686
0.98676471 0.50735294 0.0039215686
0.98823529 0.51194853 0.0039215686
0.98823529 0.51568627 0.0039215686
0.01372549 0.48627451 0.19803922
0.011764706 0.48946078 0.19926471
0.0073529412 0.49411765 0.19803922
0.0075980392 0.49607843 0.19607843
0.01372549 0.49607843 0.19411765
0.059558824 0.49607843 0.18602941
0.11911765 0.50098039 0.17794118
0.18823529 0.51666667 0.16176471
0.26470588 0.53921569 0.13921569
0.33872549 0.55980392 0.11348039
0.40980392 0.57647059 0.082843137
0.48063725 0.59705882 0.042647059
0.55882353 0.61960784 0.0068627451
0.6375 0.63431373 0.0019607843
0.72352941 0.65490196 0.0019607843
0.79264706 0.66446078 0
0.82156863 0.64313725 0.0039215686
0.84730392 0.62058824 0.0058823529
0.87598039 0.60441176 0.0078431373
0.90833333 0.59264706 0.0078431373
0.93823529 0.57843137 0.0039215686
0.96789216 0.55980392 0.0034313725
0.9877451 0.54705882 0
0.98823529 0.55490196 0
0.98823529 0.55882353 0
0.015196078 0.53578431 0.22843137
0.013235294 0.53792892 0.22843137
0.0068627451 0.54056373 0.22365196
0.0038602941 0.54313725 0.22058824
0.030392157 0.54362745 0.22058824
0.090686275 0.54313725 0.22015931
0.1495098 0.5435049 0.21066176
0.2004902 0.55637255 0.20441176
0.25833333 0.57009804 0.19068627
0.33253676 0.58805147 0.17732843
0.40245098 0.60735294 0.1432598
0.4745098 0.62745098 0.10294118
0.54068627 0.64240196 0.070588235
0.60723039 0.65729167 0.051531863
0.68835784 0.67745098 0.015563725
0.76194853 0.69117647 0.0078431373
0.80735294 0.68431373 0.0078431373
0.84246324 0.67058824 0.0078431373
0.87757353 0.66176471 0.0079656863
0.9122549 0.65441176 0.0078431373
0.93970588 0.64019608 0.0039215686
0.96911765 0.62555147 0.0039215686
0.98333333 0.61176471 0.0039215686
0.98823529 0.61078431 0.0039215686
0.98823529 0.61421569 0.0039215686
0.011764706 0.58333333 0.25294118
0.011764706 0.58394608 0.25588235
0.0098039216 0.5872549 0.25098039
0.00036764706 0.58823529 0.24154412
0.060784314 0.58823529 0.24460784
0.12536765 0.58431373 0.24803922
0.18259804 0.5872549 0.24485294
0.22647059 0.59754902 0.24203431
0.26764706 0.60490196 0.23529412
0.31617647 0.61764706 0.22156863
0.39289216 0.63504902 0.1997549
0.46458333 0.65196078 0.1745098
0.53039216 0.66666667 0.14901961
0.58835784 0.68137255 0.13517157
0.65490196 0.69877451 0.082352941
0.72659314 0.71397059 0.030514706
0.79705882 0.72941176 0.010784314
0.84117647 0.72561275 0.0057598039
0.88137255 0.72058824 0.011764706
0.91617647 0.71323529 0.0052696078
0.94460784 0.69901961 0.0039215686
0.96568627 0.6877451 0.0039215686
0.98259804 0.67352941 0.0068627451
0.98823529 0.66862745 0.0039215686
0.99117647 0.66568627 0.0039215686
0.049509804 0.6254902 0.28823529
0.05435049 0.62886029 0.28823529
0.071568627 0.62941176 0.28933824
0.090870098 0.62941176 0.28609069
0.12426471 0.62671569 0.28308824
0.16795343 0.6254902 0.28020833
0.21335784 0.62843137 0.27892157
0.25882353 0.63480392 0.28039216
0.30392157 0.64362745 0.27794118
0.34417892 0.65055147 0.27493873
0.39767157 0.66127451 0.26458333
0.46341912 0.67824755 0.24509804
0.52352941 0.69191176 0.22720588
0.57922794 0.70716912 0.21194853
0.63578431 0.72254902 0.19142157
0.70484069 0.7377451 0.13933824
0.77205882 0.75588235 0.10343137
0.8283701 0.76525735 0.071691176
0.87794118 0.76911765 0.045220588
0.92205882 0.76844363 0.009497549
0.94901961 0.75588235 0.0012254902
0.96568627 0.74411765 0.0044117647
0.98443627 0.73026961 0.0082107843
0.99215686 0.71960784 0.0039215686
0.99362745 0.71323529 0.0039215686
0.13333333 0.66666667 0.32941176
0.14607843 0.66911765 0.33186275
0.17156863 0.67156863 0.33431373
0.19166667 0.67107843 0.33382353
0.21176471 0.66666667 0.32745098
0.23235294 0.6627451 0.32156863
0.25686275 0.6627451 0.32156863
0.3 0.67205882 0.32303922
0.34509804 0.67843137 0.3254902
0.37990196 0.68480392 0.32303922
0.41960784 0.69117647 0.32058824
0.46813725 0.70490196 0.31029412
0.52352941 0.71568627 0.29411765
0.57843137 0.72990196 0.27794118
0.62647059 0.74411765 0.26078431
0.68578431 0.75980392 0.24411765
0.74509804 0.77647059 0.22745098
0.80441176 0.78676471 0.2004902
0.86372549 0.79705882 0.15980392
0.91127451 0.80392157 0.1122549
0.94901961 0.80392157 0.060784314
0.96960784 0.79166667 0.03872549
0.99019608 0.78137255 0.018627451
0.99607843 0.76715686 0.006372549
0.99607843 0.76078431 0
0.21568627 0.70392157 0.37058824
0.22990196 0.70784314 0.37150735
0.23811275 0.70821078 0.37058824
0.2495098 0.70802696 0.36844363
0.26960784 0.70465686 0.36544118
0.29019608 0.70392157 0.36666667
0.3122549 0.70392157 0.36666667
0.34209559 0.70631127 0.36966912
0.38235294 0.71323529 0.37058824
0.41470588 0.71960784 0.36966912
0.44558824 0.725 0.36911765
0.48137255 0.72892157 0.36783088
0.52598039 0.74264706 0.35857843
0.57107843 0.75441176 0.3473652
0.62009804 0.7682598 0.33223039
0.67696078 0.78284314 0.31464461
0.73480392 0.79705882 0.30196078
0.79319853 0.80980392 0.28529412
0.8495098 0.82254902 0.26360294
0.90490196 0.83921569 0.25
0.94117647 0.84068627 0.22598039
0.96568627 0.83020833 0.18382353
0.98443627 0.81862745 0.14227941
0.99362745 0.8122549 0.086335784
0.99754902 0.80343137 0.034313725
0.29705882 0.74509804 0.41176471
0.30453431 0.74509804 0.4127451
0.30955882 0.74411765 0.41176471
0.3127451 0.74411765 0.40625
0.33137255 0.74460784 0.40931373
0.34803922 0.74117647 0.4127451
0.36862745 0.74117647 0.4127451
0.38933824 0.74509804 0.41666667
0.41960784 0.74803922 0.41666667
0.4495098 0.75196078 0.41911765
0.48039216 0.75588235 0.42058824
0.51127451 0.75980392 0.42156863
0.54803922 0.76960784 0.41862745
0.58529412 0.78284314 0.40833333
0.62328431 0.79411765 0.39509804
0.6682598 0.80379902 0.38615196
0.7245098 0.81764706 0.37647059
0.7817402 0.82794118 0.36372549
0.83504902 0.84215686 0.34705882
0.88235294 0.85245098 0.33039216
0.92647059 0.86029412 0.31960784
0.96433824 0.86482843 0.31409314
0.9875 0.8629902 0.28602941
0.99117647 0.84852941 0.22058824
0.99215686 0.83823529 0.17352941
0.36911765 0.77892157 0.46372549
0.37334559 0.77892157 0.46403186
0.38088235 0.77892157 0.46409314
0.38480392 0.77892157 0.46372549
0.39877451 0.78235294 0.46593137
0.41372549 0.78235294 0.46813725
0.43125 0.77892157 0.46813725
0.44558824 0.77892157 0.46813725
0.46078431 0.77892157 0.46813725
0.4877451 0.78284314 0.47205882
0.51519608 0.78676471 0.47561275
0.54607843 0.79068627 0.47598039
0.58063725 0.8004902 0.47377451
0.61574755 0.81078431 0.46715686
0.65085784 0.82107843 0.45943627
0.68707108 0.82794118 0.45588235
0.725 0.83823529 0.45539216
0.76960784 0.84852941 0.44852941
0.81666667 0.85919118 0.43026961
0.86133578 0.8661152 0.41574755
0.90294118 0.8754902 0.40196078
0.94411765 0.88235294 0.40091912
0.9754902 0.88921569 0.39681373
0.98480392 0.88314951 0.36256127
0.98823529 0.87303922 0.31470588
0.44705882 0.81372549 0.52156863
0.44828431 0.81372549 0.52034314
0.45294118 0.81372549 0.51960784
0.45686275 0.81372549 0.51960784
0.46568627 0.81470588 0.51960784
0.47941176 0.81544118 0.52352941
0.49313725 0.81372549 0.52352941
0.50343137 0.80980392 0.52352941
0.51372549 0.80980392 0.52352941
0.53235294 0.8129902 0.5254902
0.55539216 0.81764706 0.52794118
0.58112745 0.82156863 0.53137255
0.61176471 0.82745098 0.53039216
0.64656863 0.8377451 0.5252451
0.68137255 0.84607843 0.52156863
0.71495098 0.85441176 0.51764706
0.74705882 0.8627451 0.51764706
0.7747549 0.87058824 0.51764706
0.80539216 0.87696078 0.51078431
0.84142157 0.88406863 0.49877451
0.88235294 0.89019608 0.48431373
0.92083333 0.89828431 0.47818627
0.94509804 0.90343137 0.475
0.97034314 0.90857843 0.46985294
0.98627451 0.90784314 0.45490196
0.5254902 0.84852941 0.58333333
0.5254902 0.84852941 0.58069853
0.5254902 0.84852941 0.57806373
0.525 0.84852941 0.57199755
0.53039216 0.84852941 0.57107843
0.54068627 0.84852941 0.575
0.55098039 0.84460784 0.57806373
0.56127451 0.84332108 0.58284314
0.575 0.84068627 0.58284314
0.58823529 0.84460784 0.58314951
0.60477941 0.84852941 0.58333333
0.62156863 0.85196078 0.58333333
0.64485294 0.85637255 0.58676471
0.67702206 0.86421569 0.58284314
0.70833333 0.87107843 0.58284314
0.74264706 0.87941176 0.57941176
0.76960784 0.8872549 0.57941176
0.79234069 0.89117647 0.57941176
0.81813725 0.89607843 0.5745098
0.84264706 0.90245098 0.56813725
0.87083333 0.90686275 0.56176471
0.89852941 0.91427696 0.55680147
0.92291667 0.92107843 0.55980392
0.95245098 0.92745098 0.56029412
0.97941176 0.93382353 0.56372549
0.59705882 0.87941176 0.64117647
0.59803922 0.87941176 0.63933824
0.59803922 0.87941176 0.63406863
0.59705882 0.87941176 0.62990196
0.59705882 0.87941176 0.62745098
0.60502451 0.87904412 0.62953431
0.6127451 0.8754902 0.63406863
0.62303922 0.8754902 0.63872549
0.63333333 0.87156863 0.64117647
0.64754902 0.8754902 0.64117647
0.65955882 0.87720588 0.64117647
0.67303922 0.88026961 0.63860294
0.6877451 0.88382353 0.63823529
0.70747549 0.88823529 0.63823529
0.73921569 0.89509804 0.63823529
0.7689951 0.90147059 0.63872549
0.7872549 0.90392157 0.63431373
0.80784314 0.91176471 0.64117647
0.83161765 0.91666667 0.63627451
0.8567402 0.92046569 0.62990196
0.87745098 0.92401961 0.625
0.89509804 0.92879902 0.6245098
0.91568627 0.93455882 0.6252451
0.94056373 0.93958333 0.6254902
0.95588235 0.94411765 0.6254902
0.66372549 0.90637255 0.69362745
0.66372549 0.90637255 0.69362745
0.66654412 0.90637255 0.69252451
0.66893382 0.90637255 0.69362745
0.67230392 0.90637255 0.69362745
0.67696078 0.90637255 0.69509804
0.68051471 0.90637255 0.69509804
0.68633578 0.90490196 0.69601716
0.69509804 0.90245098 0.69754902
0.70392157 0.90490196 0.69509804
0.71176471 0.90490196 0.6932598
0.71911765 0.90490196 0.68952206
0.73406863 0.90759804 0.69313725
0.75410539 0.91421569 0.69871324
0.76997549 0.91605392 0.69178922
0.79411765 0.92297794 0.70238971
0.80147059 0.91911765 0.68039216
0.82352941 0.93088235 0.70238971
0.84656863 0.93627451 0.69803922
0.86354167 0.93872549 0.69148284
0.87916667 0.94142157 0.69117647
0.8963848 0.94675245 0.69117647
0.91568627 0.94987745 0.69117647
0.92647059 0.9504902 0.6872549
0.92892157 0.9504902 0.68578431
0.70980392 0.9254902 0.73333333
0.71372549 0.9254902 0.73333333
0.71078431 0.9254902 0.73039216
0.72107843 0.92941176 0.7372549
0.7372549 0.93529412 0.74901961
0.73333333 0.93284314 0.74460784
0.73333333 0.92941176 0.74117647
0.73480392 0.92696078 0.74117647
0.74117647 0.92941176 0.74117647
0.74509804 0.9254902 0.7372549
0.74607843 0.92156863 0.73333333
0.75637255 0.9254902 0.73676471
0.77254902 0.92941176 0.74313725
0.78921569 0.9372549 0.75343137
0.79901961 0.9372549 0.74509804
0.81323529 0.94117647 0.75245098
0.81176471 0.92941176 0.70980392
0.83627451 0.94754902 0.75245098
0.85588235 0.94901961 0.74803922
0.86960784 0.95294118 0.7377451
0.88431373 0.95490196 0.73921569
0.89901961 0.96078431 0.74558824
0.90882353 0.96078431 0.74215686
0.90980392 0.96078431 0.73578431
0.90980392 0.96078431 0.73333333
0.006372549 0.049509804 0.051960784
0.018137255 0.049509804 0.052879902
0.041176471 0.049509804 0.055882353
0.065379902 0.047365196 0.053431373
0.090196078 0.047058824 0.050980392
0.12401961 0.047242647 0.049203431
0.17254902 0.052083333 0.047058824
0.22156863 0.056372549 0.048039216
0.27058824 0.056372549 0.045588235
0.33088235 0.043627451 0.044117647
0.39901961 0.022671569 0.040196078
0.46715686 0.0070465686 0.03872549
0.53333333 0.0031862745 0.03627451
0.59773284 0.0039215686 0.032169118
0.66078431 0.0039215686 0.025490196
0.71415441 0.0083946078 0.022058824
0.76862745 0.011764706 0.018137255
0.82156863 0.014215686 0.014215686
0.86421569 0.013602941 0.010294118
0.90784314 0.0068627451 0.006372549
0.94828431 0.016666667 0.0012254902
0.96158088 0.071875 0
0.9754902 0.12990196 0
0.98970588 0.17843137 0
0.99607843 0.20931373 0
0.006372549 0.062806373 0.054963235
0.017011336 0.06372549 0.056112132
0.040027574 0.06372549 0.057352941
0.065379902 0.06372549 0.053852635
0.092156863 0.06372549 0.051011029
0.12921262 0.066176471 0.049509804
0.17610294 0.067647059 0.049509804
0.22303922 0.067647059 0.048039216
0.27058824 0.064276961 0.047120098
0.33333333 0.057352941 0.044117647
0.40363051 0.045588235 0.039966299
0.47352941 0.029227941 0.035470282
0.53924632 0.011243873 0.033272059
0.60245864 0.0039215686 0.03057598
0.66360294 0.0039215686 0.025260417
0.71738664 0.0083946078 0.019607843
0.77015931 0.011764706 0.018137255
0.82344516 0.012339154 0.013296569
0.86758578 0.01551777 0.0088541667
0.90924479 0.029289216 0.0050321691
0.94586397 0.056617647 0.0024509804
0.96519608 0.094607843 0
0.97904412 0.14787071 0
0.98970588 0.19383425 0
0.99607843 0.21813725 0.003370098
0.0039215686 0.080392157 0.057720588
0.012362132 0.080392157 0.058103554
0.036795343 0.081219363 0.058088235
0.065196078 0.084849877 0.056066176
0.096078431 0.088235294 0.051960784
0.1323989 0.088848039 0.049142157
0.17965686 0.089215686 0.051256127
0.22757353 0.091467525 0.051409314
0.27941176 0.09252451 0.048039216
0.34048713 0.086764706 0.044117647
0.41078431 0.076470588 0.037408088
0.47990196 0.062254902 0.03203125
0.54607843 0.039583333 0.02935049
0.61176471 0.016636029 0.02611826
0.67043505 0.0071384804 0.020863971
0.72412684 0.0079810049 0.017156863
0.77352941 0.015196078 0.014215686
0.82830882 0.014338235 0.012745098
0.87058824 0.037469363 0.006372549
0.90807292 0.074034926 0.0039215686
0.94276961 0.10398284 0.0039215686
0.96946998 0.13370098 0
0.98431373 0.17702206 0
0.99385723 0.20914522 0.0024509804
