site/assets/luts/natron-haldclut--fuji-fp-100c-alt--8b46a198c.cube
# LUTr-Project: LUTr — LUTrepository
# LUTr-Schema-Version: 1
# LUTr-ID: natron-haldclut--fuji-fp-100c-alt--8b46a198c
# LUTr-Title: fuji fp-100c ++ alt
# LUTr-Collection: Natron HaldCLUT
# LUTr-Collection-ID: natron-haldclut-presets
# LUTr-Source: https://github.com/NatronGitHub/clut
# LUTr-Source-File: submissions/natron-haldclut-presets/instant_pro/fuji_fp-100c_++_alt.png
# LUTr-Source-Format: PNG
# LUTr-Source-SHA256: 33161f1f6fbf659a999fba2cd143dc18bf3de9fdfd86990b64bb6fa8fe02e9fa
# LUTr-License: CC-BY-SA-4.0
# LUTr-License-URL: https://github.com/NatronGitHub/clut#license
# LUTr-Tags: creative, film, film-emulation, hald-clut, natron, png, cube
# LUTr-Transform-Class: film-emulation
# LUTr-Input-Color-Space: srgb
# LUTr-Output-Color-Space: srgb
# LUTr-Color-Space-Confidence: assumed-display-referred
# LUTr-Conversion-Method: PNG LUT image decoded at 16-bit and sampled to 25x25x25 3D CUBE
# LUTr-Conversion-Date: 2026-07-27
# LUTr-Conversion-Tool: LUTr scripts/convert-all-to-cube.mjs
# LUTr-Conversion-Grid: 25x25x25
# LUTr-Note: Preserve this metadata and the upstream license notices when redistributing.
TITLE "fuji fp-100c ++ alt"
LUT_3D_SIZE 5
DOMAIN_MIN 0 0 0
DOMAIN_MAX 1 1 1
0.26666667 0.21568627 0.14509804
0.30490196 0.21862745 0.15294118
0.43921569 0.22941176 0.14509804
0.66666667 0.23921569 0.14117647
0.90196078 0.29019608 0.14509804
0.2745098 0.26568627 0.14901961
0.31568627 0.27573529 0.14436275
0.48627451 0.30784314 0.13823529
0.7127451 0.32647059 0.12941176
0.89705882 0.37058824 0.14901961
0.25490196 0.44117647 0.14117647
0.32352941 0.44264706 0.14509804
0.48823529 0.47941176 0.087254902
0.73480392 0.52401961 0.08627451
0.9254902 0.55882353 0.19411765
0.25196078 0.65392157 0.1627451
0.3245098 0.64705882 0.1620098
0.47745098 0.65833333 0.13186275
0.69019608 0.69705882 0.029166667
0.9127451 0.72352941 0.10196078
0.49019608 0.8627451 0.43921569
0.53627451 0.86666667 0.44313725
0.65490196 0.87058824 0.47647059
0.77843137 0.8745098 0.45
0.91372549 0.88627451 0.44313725
0.2745098 0.21568627 0.18333333
0.33039216 0.20882353 0.20490196
0.44411765 0.22892157 0.20441176
0.68235294 0.21053922 0.19509804
0.88921569 0.26764706 0.20980392
0.2745098 0.27230392 0.20196078
0.33431373 0.28707108 0.22279412
0.49791667 0.30686275 0.21887255
0.71648284 0.31868873 0.21372549
0.91568627 0.35882353 0.21372549
0.23480392 0.48529412 0.22696078
0.32745098 0.47941176 0.22879902
0.5122549 0.50245098 0.20686275
0.7504902 0.5310049 0.2245098
0.92009804 0.55686275 0.28382353
0.24509804 0.68039216 0.25686275
0.33063725 0.67261029 0.25759804
0.49129902 0.67414216 0.24546569
0.70747549 0.7033701 0.19117647
0.91568627 0.73137255 0.25710784
0.50294118 0.87156863 0.48921569
0.52965686 0.86568627 0.47941176
0.64901961 0.87254902 0.5127451
0.77990196 0.88063725 0.51102941
0.93823529 0.90294118 0.52843137
0.29607843 0.21960784 0.37058824
0.37254902 0.20784314 0.40098039
0.59411765 0.13921569 0.47647059
0.66421569 0.27941176 0.41127451
0.88039216 0.29019608 0.42156863
0.27843137 0.28039216 0.38431373
0.36066176 0.29068627 0.41838235
0.60490196 0.28186275 0.49754902
0.69019608 0.36556373 0.43627451
0.89705882 0.34509804 0.40588235
0.25588235 0.5 0.44803922
0.34240196 0.5247549 0.47205882
0.55392157 0.56421569 0.49166667
0.74460784 0.56470588 0.48431373
0.90490196 0.53529412 0.45686275
0.32696078 0.7245098 0.51764706
0.39509804 0.72561275 0.51213235
0.5372549 0.72132353 0.49558824
0.72634804 0.72794118 0.45821078
0.91372549 0.75294118 0.52352941
0.49215686 0.87843137 0.59803922
0.51568627 0.87647059 0.58823529
0.63529412 0.87352941 0.60392157
0.77843137 0.87990196 0.6122549
0.90784314 0.89803922 0.61764706
0.33039216 0.20784314 0.63235294
0.40588235 0.19681373 0.65955882
0.64117647 0.1122549 0.72058824
0.86960784 0.055882353 0.75196078
0.89607843 0.3872549 0.67843137
0.28039216 0.28431373 0.63921569
0.38241422 0.2754902 0.66311275
0.61470588 0.2557598 0.72254902
0.85171569 0.29810049 0.74773284
0.88504902 0.46691176 0.68627451
0.20931373 0.45637255 0.59656863
0.29705882 0.45833333 0.61691176
0.5379902 0.50343137 0.69166667
0.81384804 0.58247549 0.75588235
0.84901961 0.62156863 0.71078431
0.34068627 0.69705882 0.68848039
0.39761029 0.70882353 0.70098039
0.56078431 0.73333333 0.72659314
0.77769608 0.77867647 0.76372549
0.88161765 0.77867647 0.75294118
0.55392157 0.89411765 0.80294118
0.57965686 0.89093137 0.79583333
0.65637255 0.89068627 0.78431373
0.77941176 0.87916667 0.77156863
0.89901961 0.88627451 0.76764706
0.44313725 0.25882353 0.91372549
0.5 0.25 0.90196078
0.67254902 0.22352941 0.91568627
0.89411765 0.14803922 0.93333333
1 0.35294118 0.91372549
0.4127451 0.35098039 0.89803922
0.48039216 0.34215686 0.89803922
0.65882353 0.33235294 0.91911765
0.88553922 0.3247549 0.92058824
0.99607843 0.46470588 0.9372549
0.30392157 0.51960784 0.88627451
0.35882353 0.49607843 0.86323529
0.58921569 0.5254902 0.90098039
0.84068627 0.56568627 0.91911765
0.98627451 0.64117647 0.93137255
0.31764706 0.7245098 0.8754902
0.34926471 0.71764706 0.86789216
0.46176471 0.70343137 0.85882353
0.74730392 0.74117647 0.90980392
0.94019608 0.79411765 0.92941176
0.56862745 0.8745098 0.90588235
0.6254902 0.8872549 0.90784314
0.69803922 0.88823529 0.91764706
0.79803922 0.89803922 0.91470588
0.91372549 0.91372549 0.9372549
