site/assets/luts/natron-haldclut--fuji-superia-100--d21a1abb8.cube
# LUTr-Project: LUTr — LUTrepository
# LUTr-Schema-Version: 1
# LUTr-ID: natron-haldclut--fuji-superia-100--d21a1abb8
# LUTr-Title: fuji superia 100 +
# LUTr-Collection: Natron HaldCLUT
# LUTr-Collection-ID: natron-haldclut-presets
# LUTr-Source: https://github.com/NatronGitHub/clut
# LUTr-Source-File: submissions/natron-haldclut-presets/negative_old/fuji_superia_100_+.png
# LUTr-Source-Format: PNG
# LUTr-Source-SHA256: ad9b2fe8cd97ef069380880f49834ac27d34a69fda8de9e3a2bccf91d50e068c
# LUTr-License: CC-BY-SA-4.0
# LUTr-License-URL: https://github.com/NatronGitHub/clut#license
# LUTr-Tags: creative, film, film-emulation, hald-clut, natron, png, cube
# LUTr-Transform-Class: film-emulation
# LUTr-Input-Color-Space: srgb
# LUTr-Output-Color-Space: srgb
# LUTr-Color-Space-Confidence: assumed-display-referred
# LUTr-Conversion-Method: PNG LUT image decoded at 16-bit and sampled to 25x25x25 3D CUBE
# LUTr-Conversion-Date: 2026-07-27
# LUTr-Conversion-Tool: LUTr scripts/convert-all-to-cube.mjs
# LUTr-Conversion-Grid: 25x25x25
# LUTr-Note: Preserve this metadata and the upstream license notices when redistributing.
TITLE "fuji superia 100 +"
LUT_3D_SIZE 25
DOMAIN_MIN 0 0 0
DOMAIN_MAX 1 1 1
0.0039215686 0.050980392 0.066666667
0.010294118 0.06127451 0.070588235
0.020588235 0.067647059 0.070588235
0.034313725 0.066666667 0.067156863
0.064705882 0.062745098 0.064705882
0.099509804 0.071078431 0.053921569
0.1372549 0.081372549 0.037254902
0.19313725 0.074509804 0.035294118
0.25490196 0.070588235 0.031372549
0.31666667 0.066666667 0.025
0.3745098 0.062745098 0.014705882
0.44362745 0.048039216 0.015196078
0.51372549 0.02745098 0.017647059
0.575 0.024509804 0.015686275
0.63039216 0.049019608 0.012745098
0.68578431 0.068137255 0.0078431373
0.73333333 0.078431373 0.0039215686
0.7745098 0.08872549 0.0039215686
0.81176471 0.098039216 0
0.85294118 0.10882353 0
0.88823529 0.12941176 0.0058823529
0.92303922 0.14558824 0.01127451
0.95784314 0.15588235 0.0049019608
0.99264706 0.16617647 0
1 0.16862745 0
0.0039215686 0.050980392 0.066666667
0.010294118 0.06127451 0.070588235
0.017034314 0.067647059 0.06997549
0.032169118 0.069301471 0.066666667
0.062745098 0.069852941 0.060784314
0.099509804 0.073223039 0.050183824
0.1372549 0.081372549 0.03627451
0.19313725 0.077879902 0.032291667
0.25735294 0.079411765 0.02745098
0.31911765 0.082781863 0.021078431
0.38125 0.085784314 0.014705882
0.45 0.078431373 0.011764706
0.51691176 0.060784314 0.015686275
0.57922794 0.053615196 0.015686275
0.63394608 0.069852941 0.011764706
0.68878676 0.091727941 0.0069240196
0.7372549 0.10539216 0.0039215686
0.77751225 0.10625 0.0020833333
0.81568627 0.1185049 0
0.85294118 0.12990196 0
0.89019608 0.14607843 0.0039215686
0.92696078 0.16617647 0.0075367647
0.95968137 0.17352941 0.0039215686
0.98633578 0.17800245 0
0.99215686 0.175 0
0.0029411765 0.065686275 0.066666667
0.006372549 0.069240196 0.065686275
0.015686275 0.07254902 0.065686275
0.025980392 0.076102941 0.063112745
0.057843137 0.079411765 0.056862745
0.095098039 0.085294118 0.045220588
0.1377451 0.089215686 0.032352941
0.19705882 0.094607843 0.029901961
0.25882353 0.10392157 0.026470588
0.32340686 0.10845588 0.020710784
0.38823529 0.11102941 0.011519608
0.4567402 0.10539216 0.010784314
0.52401961 0.095588235 0.010784314
0.58786765 0.090686275 0.010784314
0.64019608 0.10465686 0.0068627451
0.69362745 0.1185049 0.0035539216
0.74117647 0.13235294 0
0.77843137 0.13872549 0
0.81642157 0.14509804 0
0.85343137 0.15796569 0
0.89215686 0.17156863 0.0039215686
0.93088235 0.18762255 0.0039215686
0.95882353 0.19387255 0.0039215686
0.98186275 0.19264706 0.0039215686
0.9872549 0.19019608 0.0039215686
0 0.1004902 0.062745098
0.0039215686 0.1004902 0.059313725
0.0053921569 0.1004902 0.055392157
0.012254902 0.10091912 0.051960784
0.043627451 0.10661765 0.045588235
0.08872549 0.11617647 0.039215686
0.14276961 0.12303922 0.032352941
0.20098039 0.1276348 0.02745098
0.2627451 0.13186275 0.023529412
0.32824755 0.13578431 0.017156863
0.39497549 0.13970588 0.0069852941
0.46323529 0.13627451 0.0039828431
0.53088235 0.13357843 0.0044117647
0.59852941 0.13137255 0.0034926471
0.65343137 0.14473039 0.00012254902
0.69969363 0.15998775 0
0.74117647 0.16666667 0
0.78204657 0.16930147 0
0.81960784 0.17512255 0
0.85686275 0.18584559 0
0.89411765 0.2004902 0.0039215686
0.93431373 0.21427696 0.0039215686
0.96176471 0.21727941 0.0039215686
0.98400735 0.21685049 0.0039215686
0.9877451 0.21421569 0.0039215686
0 0.14117647 0.060784314
0 0.13872549 0.056372549
0 0.13627451 0.05
0 0.12990196 0.041421569
0.033333333 0.13431373 0.037254902
0.090931373 0.14754902 0.035294118
0.14754902 0.15392157 0.029901961
0.20490196 0.15955882 0.020098039
0.26862745 0.16666667 0.01372549
0.33676471 0.17058824 0.0125
0.40686275 0.17696078 0.0068627451
0.47720588 0.18406863 0.0019607843
0.54411765 0.18627451 0.00098039216
0.60857843 0.18823529 0
0.65833333 0.19313725 0
0.70392157 0.20661765 0.0026960784
0.74509804 0.20784314 0.0039215686
0.78235294 0.20784314 0.00073529412
0.82352941 0.20784314 0
0.86102941 0.21691176 0
0.89901961 0.22745098 0
0.93872549 0.24117647 0.0017156863
0.96764706 0.24509804 0
0.99166667 0.24509804 0
0.99411765 0.24509804 0
0 0.1872549 0.067647059
0 0.1872549 0.067340686
0 0.1872549 0.062377451
0 0.18382353 0.055882353
0.016666667 0.1872549 0.050245098
0.080392157 0.18768382 0.042708333
0.14607843 0.19068627 0.025980392
0.20851716 0.19148284 0.010110294
0.2754902 0.19852941 0.0078431373
0.35147059 0.2127451 0.011764706
0.42745098 0.22647059 0.0078431373
0.49558824 0.23376225 0.0039215686
0.56176471 0.24166667 0.0019607843
0.62205882 0.24258578 0
0.66580882 0.24865196 0.0039215686
0.70784314 0.24932598 0.0039215686
0.74509804 0.24901961 0.0039215686
0.7841299 0.24901961 0.0039215686
0.82352941 0.25306373 0
0.86470588 0.26035539 0
0.90245098 0.26495098 0
0.94264706 0.26905637 0
0.97352941 0.2754902 0.00049019608
0.99969363 0.28039216 0
1 0.28039216 0
0 0.24509804 0.084313725
0 0.24571078 0.081372549
0 0.24901961 0.080392157
0 0.24901961 0.073039216
0.006372549 0.24901961 0.066176471
0.042647059 0.24901961 0.056985294
0.11470588 0.24901961 0.037254902
0.19522059 0.24803922 0.018995098
0.28627451 0.25294118 0.010784314
0.36519608 0.26605392 0.011764706
0.44117647 0.27745098 0.01004902
0.50943627 0.28517157 0.0044117647
0.58235294 0.29313725 0
0.63198529 0.29705882 0.00049019608
0.67058824 0.29803922 0.0039215686
0.70968137 0.29595588 0.0039215686
0.74901961 0.29411765 0.0039215686
0.78921569 0.29313725 0.0039215686
0.82720588 0.29803922 0.0029411765
0.86507353 0.30539216 0
0.90588235 0.30980392 0.0014705882
0.94264706 0.30980392 0.0039215686
0.97352941 0.31372549 0.0039215686
0.99460784 0.31973039 0.0018382353
1 0.32156863 0
0 0.31078431 0.094117647
0 0.31078431 0.095588235
0 0.31078431 0.094607843
0 0.31078431 0.084497549
0.0024509804 0.31078431 0.07254902
0.010906863 0.31078431 0.060477941
0.075 0.31078431 0.044117647
0.17555147 0.3122549 0.031372549
0.28088235 0.31470588 0.021078431
0.37101716 0.32107843 0.012316176
0.44607843 0.33321078 0.011397059
0.51813725 0.34019608 0.0065563725
0.58602941 0.34460784 0.0014705882
0.63333333 0.34724265 0.0017769608
0.67267157 0.34852941 0.0039215686
0.71176471 0.34460784 0.0039215686
0.75294118 0.33823529 0.0039215686
0.79411765 0.33676471 0.0039215686
0.83137255 0.3435049 0.0029411765
0.87009804 0.35067402 0.0021446078
0.90980392 0.35490196 0.0039215686
0.94411765 0.35098039 0.0078431373
0.97352941 0.35392157 0.0049019608
0.99362745 0.35882353 0.0039215686
0.99607843 0.35882353 0.0039215686
0 0.37647059 0.098039216
0 0.37647059 0.10196078
0 0.37647059 0.10196078
0 0.37647059 0.098529412
0 0.37647059 0.082352941
0 0.37254902 0.061764706
0.035294118 0.37156863 0.047058824
0.15343137 0.37647059 0.041666667
0.26666667 0.38039216 0.02745098
0.36715686 0.38039216 0.017156863
0.45 0.38529412 0.0078431373
0.51862745 0.39166667 0.0039215686
0.57058824 0.39607843 0.0039215686
0.62598039 0.39607843 0.0039215686
0.67352941 0.39607843 0.0039215686
0.71568627 0.39607843 0.0039215686
0.75686275 0.39607843 0.0039215686
0.79803922 0.39215686 0.0039215686
0.83529412 0.38921569 0.0029411765
0.87647059 0.39558824 0
0.91176471 0.39411765 0.0058823529
0.94705882 0.39215686 0.0078431373
0.97843137 0.39215686 0.0039215686
0.99362745 0.39607843 0.0024509804
0.99607843 0.39607843 0
0 0.44852941 0.10441176
0 0.44852941 0.10533088
0 0.44852941 0.11286765
0 0.44852941 0.11470588
0 0.44534314 0.10735294
0.00030637255 0.4403799 0.095588235
0.021813725 0.44068627 0.085294118
0.13333333 0.43976716 0.060845588
0.25392157 0.43823529 0.035294118
0.35533088 0.44123775 0.021078431
0.44215686 0.43970588 0.011397059
0.50490196 0.44313725 0.0056985294
0.55906863 0.44754902 0.0039215686
0.61813725 0.44754902 0.0039215686
0.66715686 0.44754902 0.0039215686
0.71715686 0.44362745 0.0053921569
0.75686275 0.44362745 0.0039215686
0.79803922 0.44209559 0.0039215686
0.84203431 0.43909314 0
0.88302696 0.4372549 0
0.91568627 0.43333333 0.0058823529
0.95098039 0.42941176 0.0078431373
0.9877451 0.43051471 0.0020833333
0.99607843 0.4338848 0
0.99607843 0.4372549 0
0 0.51960784 0.10980392
0 0.51960784 0.11801471
0 0.51568627 0.13529412
0 0.51311275 0.13921569
0.00098039216 0.50784314 0.13872549
0.0044117647 0.50784314 0.13321078
0.01372549 0.50784314 0.12696078
0.088848039 0.50637255 0.10490196
0.22254902 0.50392157 0.065686275
0.33786765 0.49938725 0.028553922
0.41985294 0.49411765 0.018382353
0.48933824 0.49117647 0.0030637255
0.54558824 0.49411765 0.0039215686
0.6057598 0.49375 0.0078431373
0.66078431 0.49019608 0.0049019608
0.7122549 0.49019608 0.0039215686
0.75686275 0.49019608 0.0039215686
0.79803922 0.48627451 0.0039215686
0.84240196 0.48235294 0.00073529412
0.88431373 0.47977941 0.00085784314
0.91568627 0.475 0.0098039216
0.95098039 0.47156863 0.01127451
0.98823529 0.47156863 0.0017156863
0.99607843 0.4745098 0.00098039216
0.99607843 0.4745098 0.00098039216
0 0.58137255 0.14362745
0 0.58137255 0.14136029
0.00085784314 0.57781863 0.15637255
0.0039215686 0.57359069 0.16666667
0.0039215686 0.56789216 0.17107843
0.0039215686 0.56617647 0.16231618
0.0044117647 0.56617647 0.14522059
0.017708333 0.56568627 0.12941176
0.15833333 0.5622549 0.11960784
0.30723039 0.55569853 0.084313725
0.39105392 0.54571078 0.075122549
0.4721201 0.53921569 0.015441176
0.53382353 0.53529412 0.01127451
0.59509804 0.53529412 0.010845588
0.65306373 0.53235294 0.0049019608
0.70196078 0.53137255 0.0039215686
0.7495098 0.53137255 0.0039215686
0.79656863 0.52745098 0.0039215686
0.84191176 0.52352941 0.0039215686
0.88045343 0.52352941 0.0039215686
0.91568627 0.52132353 0.0098039216
0.95055147 0.51868873 0.011703431
0.9814951 0.51568627 0.0074754902
0.99393382 0.51568627 0.0039215686
0.99607843 0.51568627 0.0039215686
0 0.62745098 0.18823529
0.0024509804 0.62622549 0.20220588
0.0024509804 0.62352941 0.19509804
0.0039215686 0.61960784 0.20196078
0.0039215686 0.61764706 0.20196078
0.0039215686 0.61764706 0.19166667
0.0039215686 0.61764706 0.17941176
0.0068627451 0.61764706 0.16911765
0.11764706 0.61372549 0.15490196
0.275 0.60661765 0.13627451
0.36960784 0.59656863 0.11078431
0.44730392 0.58480392 0.081862745
0.51568627 0.58039216 0.054901961
0.58137255 0.57647059 0.024264706
0.64313725 0.57254902 0.0049019608
0.69558824 0.57254902 0.0039215686
0.74705882 0.56862745 0.0058823529
0.8004902 0.56544118 0.0046568627
0.83921569 0.56519608 0.0039215686
0.87671569 0.56862745 0.0058823529
0.9127451 0.56470588 0.0098039216
0.94656863 0.56078431 0.011764706
0.9745098 0.55784314 0.0088235294
0.98970588 0.55686275 0.0071078431
0.99607843 0.55686275 0.0039215686
0 0.66862745 0.22941176
0 0.66862745 0.22518382
0.00098039216 0.66862745 0.22647059
0.0043504902 0.66862745 0.23676471
0.0080882353 0.66519608 0.24166667
0.011764706 0.66470588 0.24123775
0.0091911765 0.66470588 0.23480392
0.0071691176 0.66470588 0.22089461
0.080882353 0.66078431 0.20637255
0.24852941 0.653125 0.19148284
0.33590686 0.64068627 0.16960784
0.42205882 0.63382353 0.15245098
0.49558824 0.62573529 0.12058824
0.56366422 0.62113971 0.079901961
0.62855392 0.61507353 0.042156863
0.68498775 0.61372549 0.030208333
0.73676471 0.61029412 0.025980392
0.79166667 0.60980392 0.022242647
0.83529412 0.60980392 0.0085784314
0.87604167 0.60980392 0.0074142157
0.91151961 0.60784314 0.0098039216
0.94656863 0.60539216 0.014767157
0.97058824 0.59901961 0.0087009804
0.9872549 0.59803922 0.0078431373
0.99607843 0.59803922 0.0039215686
0.0029411765 0.70980392 0.27352941
0.0029411765 0.70980392 0.26960784
0.0039215686 0.70980392 0.27058824
0.0073529412 0.70980392 0.28186275
0.011764706 0.70588235 0.28970588
0.014828431 0.70588235 0.29007353
0.018627451 0.70588235 0.28627451
0.0093137255 0.70588235 0.2745098
0.066666667 0.70196078 0.25784314
0.22536765 0.69558824 0.24509804
0.31642157 0.68848039 0.22769608
0.40183824 0.6814951 0.20784314
0.48137255 0.67401961 0.18431373
0.54914216 0.66911765 0.15245098
0.61102941 0.6620098 0.12156863
0.66813725 0.65845588 0.096078431
0.72254902 0.65490196 0.080392157
0.775 0.65428922 0.058578431
0.8254902 0.65098039 0.025735294
0.87254902 0.65098039 0.0047794118
0.90833333 0.64901961 0.0098039216
0.94656863 0.64656863 0.011397059
0.97058824 0.64240196 0.0049019608
0.98578431 0.63921569 0.0078431373
0.99607843 0.63921569 0.0039215686
0.0039215686 0.74705882 0.32107843
0.0069240196 0.74705882 0.31862745
0.0068627451 0.74987745 0.32205882
0.0073529412 0.74705882 0.32714461
0.0090686275 0.74436275 0.33406863
0.010294118 0.74313725 0.33137255
0.012132353 0.74276961 0.32806373
0.0084558824 0.74313725 0.31813725
0.071078431 0.74313725 0.30784314
0.22408088 0.73676471 0.29601716
0.31372549 0.73039216 0.28026961
0.39215686 0.72530637 0.26452206
0.46985294 0.72230392 0.24803922
0.53333333 0.71519608 0.22322304
0.59117647 0.7060049 0.19718137
0.64993873 0.70091912 0.17058824
0.70686275 0.7 0.14362745
0.75833333 0.69607843 0.11366422
0.81127451 0.69607843 0.075857843
0.8627451 0.69215686 0.035784314
0.90637255 0.69019608 0.020833333
0.94705882 0.68823529 0.0097426471
0.97120098 0.68468137 0.0044117647
0.98333333 0.68039216 0.010294118
0.99607843 0.68039216 0
0.0078431373 0.78431373 0.36862745
0.011764706 0.78431373 0.36617647
0.010784314 0.78529412 0.36666667
0.0039215686 0.78431373 0.36862745
0.0078431373 0.78039216 0.3745098
0.01127451 0.78039216 0.37598039
0.0049019608 0.78039216 0.36568627
0.016176471 0.78039216 0.35931373
0.13333333 0.77647059 0.35294118
0.25098039 0.77647059 0.34656863
0.3245098 0.77156863 0.33529412
0.4 0.76519608 0.32205882
0.47058824 0.7627451 0.30588235
0.52401961 0.75637255 0.28921569
0.57843137 0.74901961 0.26470588
0.63480392 0.74362745 0.24019608
0.69019608 0.74117647 0.21568627
0.74558824 0.7372549 0.18480392
0.80098039 0.73627451 0.15392157
0.85245098 0.73333333 0.12647059
0.89411765 0.72941176 0.11176471
0.93529412 0.72941176 0.089215686
0.96372549 0.7254902 0.075490196
0.98186275 0.7254902 0.055882353
0.99215686 0.72156863 0.039215686
0.014215686 0.81911765 0.41372549
0.014215686 0.81819853 0.40980392
0.01372549 0.81911765 0.40588235
0.0039215686 0.81783088 0.40588235
0.010294118 0.81519608 0.4125
0.027083333 0.81372549 0.41372549
0.065931373 0.81372549 0.40870098
0.11776961 0.81372549 0.40533088
0.20784314 0.81372549 0.4004902
0.290625 0.81127451 0.39656863
0.35526961 0.80919118 0.39387255
0.40735294 0.80373775 0.37616422
0.46862745 0.79877451 0.36176471
0.52401961 0.79381127 0.34724265
0.57904412 0.78835784 0.33039216
0.63088235 0.78327206 0.30980392
0.68382353 0.77990196 0.29166667
0.73529412 0.77689951 0.26868873
0.78823529 0.7745098 0.24362745
0.83609069 0.77077206 0.22175245
0.88186275 0.77058824 0.20318627
0.92922794 0.77058824 0.18284314
0.96372549 0.77058824 0.16360294
0.97310049 0.76666667 0.15392157
0.98186275 0.7627451 0.13970588
0.02745098 0.85 0.45490196
0.016544118 0.85281863 0.45098039
0.021078431 0.85294118 0.4502451
0.012745098 0.85 0.44448529
0.066666667 0.84754902 0.44852941
0.12071078 0.84607843 0.45355392
0.17254902 0.84901961 0.45098039
0.22107843 0.85098039 0.45098039
0.28333333 0.85 0.44803922
0.33382353 0.84607843 0.44411765
0.37818627 0.84289216 0.43848039
0.42156863 0.84215686 0.42892157
0.47352941 0.83872549 0.41960784
0.52892157 0.83394608 0.40539216
0.58014706 0.82745098 0.39117647
0.63333333 0.82316176 0.37193627
0.67745098 0.81960784 0.35882353
0.725 0.81715686 0.34313725
0.7754902 0.81470588 0.32720588
0.82316176 0.81176471 0.30588235
0.86911765 0.81176471 0.28186275
0.91507353 0.81041667 0.25772059
0.95661765 0.80784314 0.23921569
0.97107843 0.80747549 0.23431373
0.97647059 0.80686275 0.23333333
0.13823529 0.88088235 0.49607843
0.12205882 0.88118873 0.49607843
0.10906863 0.88002451 0.49473039
0.12696078 0.87696078 0.49172794
0.15637255 0.87696078 0.49191176
0.21029412 0.87696078 0.49215686
0.25833333 0.87696078 0.49215686
0.2995098 0.88088235 0.49215686
0.33480392 0.88088235 0.49558824
0.3786152 0.87696078 0.49185049
0.425 0.87340686 0.4877451
0.45974265 0.87303922 0.48425245
0.49264706 0.87303922 0.47769608
0.53529412 0.8721201 0.46715686
0.58333333 0.86605392 0.45036765
0.63118873 0.86323529 0.43480392
0.67107843 0.86078431 0.4245098
0.71256127 0.85833333 0.41372549
0.76139706 0.85686275 0.39852941
0.80680147 0.85300245 0.37794118
0.85367647 0.8495098 0.35539216
0.90055147 0.84552696 0.33284314
0.94473039 0.84509804 0.31482843
0.97922794 0.84509804 0.30116422
0.98382353 0.84509804 0.29901961
0.27254902 0.91176471 0.54117647
0.25980392 0.90931373 0.53995098
0.24019608 0.90539216 0.53921569
0.24044118 0.90392157 0.5372549
0.26176471 0.90392157 0.5372549
0.28970588 0.90392157 0.5372549
0.32745098 0.90686275 0.5372549
0.36519608 0.90784314 0.5372549
0.39215686 0.90588235 0.54117647
0.42622549 0.90588235 0.54313725
0.46617647 0.90392157 0.54264706
0.49852941 0.90392157 0.53946078
0.52647059 0.90588235 0.53235294
0.55220588 0.90784314 0.52303922
0.5877451 0.90588235 0.51078431
0.62671569 0.90122549 0.5004902
0.66470588 0.89803922 0.49019608
0.70196078 0.89803922 0.48259804
0.74705882 0.89362745 0.46470588
0.79215686 0.88823529 0.44411765
0.83529412 0.88431373 0.4254902
0.88088235 0.88039216 0.40490196
0.93088235 0.88039216 0.38578431
0.97843137 0.88039216 0.36911765
0.99019608 0.88039216 0.3627451
0.36029412 0.93431373 0.58627451
0.36060049 0.93431373 0.58627451
0.35735294 0.93039216 0.58541667
0.35735294 0.93039216 0.58284314
0.36372549 0.93039216 0.58235294
0.38186275 0.93431373 0.58235294
0.40502451 0.93737745 0.58272059
0.43333333 0.93854167 0.58627451
0.45735294 0.93431373 0.58676471
0.48057598 0.93431373 0.59050245
0.50330882 0.93443627 0.5942402
0.53333333 0.93480392 0.59117647
0.55833333 0.93431373 0.58455882
0.58333333 0.93339461 0.57401961
0.60735294 0.93039216 0.56421569
0.64197304 0.92677696 0.55784314
0.67941176 0.92647059 0.54754902
0.70980392 0.92273284 0.54117647
0.74166667 0.92169118 0.52647059
0.78235294 0.91868873 0.50931373
0.82303922 0.91519608 0.49117647
0.86372549 0.91470588 0.47303922
0.90882353 0.91127451 0.45637255
0.95392157 0.90735294 0.44166667
0.97156863 0.90735294 0.43529412
0.43529412 0.95196078 0.63039216
0.43811275 0.95490196 0.63137255
0.44093137 0.95098039 0.63039216
0.4439951 0.95098039 0.62781863
0.45294118 0.95490196 0.62696078
0.46421569 0.95502451 0.62647059
0.47107843 0.95588235 0.62377451
0.48823529 0.95882353 0.62745098
0.5127451 0.95490196 0.63137255
0.53333333 0.95490196 0.63529412
0.55318627 0.95882353 0.63995098
0.56801471 0.95882353 0.63958333
0.59264706 0.95490196 0.63235294
0.61727941 0.95098039 0.61948529
0.63431373 0.95098039 0.61642157
0.6627451 0.95061275 0.61262255
0.69607843 0.94705882 0.60294118
0.72340686 0.94705882 0.59264706
0.7502451 0.94607843 0.58308824
0.78272059 0.9435049 0.57107843
0.81813725 0.94215686 0.55098039
0.85257353 0.94215686 0.53909314
0.88578431 0.93848039 0.53137255
0.92647059 0.93823529 0.52107843
0.95098039 0.93529412 0.51470588
0.50980392 0.97156863 0.67401961
0.51470588 0.97493873 0.67647059
0.51617647 0.97156863 0.67647059
0.52009804 0.97156863 0.67401961
0.52598039 0.97279412 0.67401961
0.52628676 0.9713848 0.66813725
0.52107843 0.9682598 0.65784314
0.53817402 0.97064951 0.66317402
0.56421569 0.9754902 0.67647059
0.58633578 0.9754902 0.68039216
0.60330882 0.97732843 0.68394608
0.61685049 0.9754902 0.68039216
0.63259804 0.97279412 0.67720588
0.64803922 0.97156863 0.66617647
0.66519608 0.97156863 0.66617647
0.68670343 0.97156863 0.66617647
0.71666667 0.97156863 0.65833333
0.73970588 0.96764706 0.64319853
0.76029412 0.96764706 0.63664216
0.78694853 0.96911765 0.63265931
0.82034314 0.96911765 0.61813725
0.84834559 0.96734069 0.60980392
0.8754902 0.96519608 0.60343137
0.90735294 0.96372549 0.59852941
0.93039216 0.96372549 0.59460784
0.57254902 0.98823529 0.70980392
0.57647059 0.99215686 0.71372549
0.57647059 0.98823529 0.71372549
0.57990196 0.98823529 0.71372549
0.58431373 0.98823529 0.71176471
0.57598039 0.98431373 0.70147059
0.57254902 0.98039216 0.69509804
0.58578431 0.98431373 0.6995098
0.60784314 0.98823529 0.70980392
0.63137255 0.99215686 0.71911765
0.64019608 0.99117647 0.71666667
0.6504902 0.98823529 0.71764706
0.66078431 0.98823529 0.71176471
0.67156863 0.98431373 0.70588235
0.68921569 0.98823529 0.70882353
0.70882353 0.98970588 0.70980392
0.72941176 0.98823529 0.69803922
0.74754902 0.98186275 0.67990196
0.77058824 0.98431373 0.6745098
0.79460784 0.98823529 0.67794118
0.81960784 0.99411765 0.68627451
0.84411765 0.98823529 0.66960784
0.87156863 0.98431373 0.65588235
0.89705882 0.98431373 0.65245098
0.91764706 0.98431373 0.65098039
0.0039215686 0.050980392 0.066666667
0.010294118 0.059742647 0.070588235
0.020588235 0.064215686 0.070588235
0.034620098 0.062928922 0.070588235
0.060784314 0.053676471 0.073039216
0.093627451 0.056862745 0.064215686
0.13664216 0.061764706 0.052328431
0.19313725 0.053921569 0.048958333
0.25490196 0.046078431 0.048039216
0.31666667 0.043627451 0.040747549
0.37904412 0.045465686 0.035906863
0.44626225 0.03872549 0.025
0.51176471 0.022303922 0.019607843
0.57285539 0.020772059 0.015686275
0.62941176 0.033946078 0.015686275
0.68425245 0.037254902 0.0078431373
0.73333333 0.051470588 0.0039215686
0.77604167 0.08370098 0.0039215686
0.81470588 0.085294118 0.006372549
0.85079657 0.094791667 0.0099877451
0.88627451 0.10759804 0.012254902
0.92303922 0.12126225 0.017647059
0.95502451 0.13284314 0.01127451
0.98480392 0.14705882 0.0072916667
0.99362745 0.15833333 0.0039215686
0.0039215686 0.050980392 0.066666667
0.010294118 0.058823529 0.070013787
0.018137255 0.066666667 0.070358456
0.03057598 0.065862439 0.066666667
0.058333333 0.062745098 0.065165441
0.096078431 0.064575674 0.058524816
0.13978248 0.064828431 0.052328431
0.19409467 0.060087316 0.048039216
0.25490196 0.06127451 0.044117647
0.31819853 0.065770527 0.037745098
0.38296569 0.06986826 0.031740196
0.45117953 0.065686275 0.023353248
0.51691176 0.053186275 0.016911765
0.57794118 0.048720895 0.017830882
0.63394608 0.062745098 0.012683824
0.6884421 0.069669118 0.0088005515
0.73633578 0.079963235 0.0054534314
0.77774203 0.10078125 0.0039215686
0.81568627 0.10870098 0.005223652
0.85294118 0.11923254 0.006372549
0.88946078 0.13336397 0.0066482843
0.92555913 0.14852175 0.0087622549
0.95784314 0.15833333 0.0053615196
0.98445925 0.1658318 0.0037147672
0.99215686 0.16862745 0.003370098
0 0.065686275 0.066666667
0.006372549 0.06752451 0.06606924
0.016145833 0.068474265 0.066145833
0.025980392 0.06997549 0.062745098
0.054105392 0.075245098 0.057781863
0.096078431 0.082751225 0.055882353
0.14065564 0.085294118 0.055882353
0.19705882 0.084313725 0.050490196
0.25882353 0.090686275 0.042647059
0.32382047 0.096461397 0.033072917
0.39044118 0.1010723 0.02254902
0.4584712 0.099019608 0.015563725
0.52401961 0.091666667 0.013602941
0.58811275 0.090686275 0.012913603
0.64313725 0.10098039 0.0068627451
0.6942402 0.10490196 0.0074754902
0.74117647 0.11568627 0.0039215686
0.77866115 0.12843137 0.0035539216
0.81862745 0.13811275 0.0041053922
0.85343137 0.14817708 0.0057598039
0.89068627 0.16004902 0.0039215686
0.92830882 0.17463235 0.0039215686
