site/assets/luts/natron-haldclut--60s--35949cdee.cube
# LUTr-Project: LUTr — LUTrepository
# LUTr-Schema-Version: 1
# LUTr-ID: natron-haldclut--60s--35949cdee
# LUTr-Title: 60's
# LUTr-Collection: Natron HaldCLUT
# LUTr-Collection-ID: natron-haldclut-presets
# LUTr-Source: https://github.com/NatronGitHub/clut
# LUTr-Source-File: submissions/natron-haldclut-presets/various/60's.png
# LUTr-Source-Format: PNG
# LUTr-Source-SHA256: efd0bc7f643c1f3d0ee2ec1565439077ce0891331502d245ea4688bc3e642c78
# LUTr-License: CC-BY-SA-4.0
# LUTr-License-URL: https://github.com/NatronGitHub/clut#license
# LUTr-Tags: creative, film, film-emulation, hald-clut, natron, png, cube
# LUTr-Transform-Class: film-emulation
# LUTr-Input-Color-Space: srgb
# LUTr-Output-Color-Space: srgb
# LUTr-Color-Space-Confidence: assumed-display-referred
# LUTr-Conversion-Method: PNG LUT image decoded at 16-bit and sampled to 25x25x25 3D CUBE
# LUTr-Conversion-Date: 2026-07-27
# LUTr-Conversion-Tool: LUTr scripts/convert-all-to-cube.mjs
# LUTr-Conversion-Grid: 25x25x25
# LUTr-Note: Preserve this metadata and the upstream license notices when redistributing.
TITLE "60's"
LUT_3D_SIZE 9
DOMAIN_MIN 0 0 0
DOMAIN_MAX 1 1 1
0.42745098 0.11372549 0.45490196
0.45098039 0.12598039 0.48235294
0.49901961 0.12156863 0.48823529
0.63970588 0.12696078 0.51372549
0.76862745 0.14117647 0.48627451
0.87745098 0.12696078 0.52156863
0.91764706 0.1254902 0.48529412
0.90147059 0.13333333 0.50588235
0.76862745 0.13333333 0.49019608
0.45490196 0.16029412 0.47156863
0.43578431 0.17506127 0.5088848
0.48468137 0.16764706 0.4689951
0.63970588 0.17794118 0.48314951
0.76862745 0.19264706 0.4879902
0.875 0.18547794 0.48480392
0.91507353 0.19203431 0.48235294
0.91029412 0.18762255 0.48768382
0.79117647 0.19460784 0.48823529
0.41372549 0.28529412 0.46764706
0.42401961 0.2939951 0.48860294
0.47916667 0.28897059 0.49828431
0.63431373 0.30098039 0.48627451
0.77647059 0.31666667 0.49411765
0.88529412 0.32230392 0.50833333
0.9375 0.32352941 0.50392157
0.92156863 0.34166667 0.49656863
0.85588235 0.34313725 0.51176471
0.40931373 0.53382353 0.49411765
0.41746324 0.54117647 0.5096201
0.49264706 0.52941176 0.49620098
0.63970588 0.53817402 0.49466912
0.78039216 0.54509804 0.49558824
0.8783701 0.55686275 0.50588235
0.93370098 0.56115196 0.50588235
0.90471814 0.58039216 0.4846201
0.84117647 0.59852941 0.50686275
0.40980392 0.71960784 0.47647059
0.42745098 0.73112745 0.50392157
0.49313725 0.73529412 0.50833333
0.66372549 0.74632353 0.49093137
0.78333333 0.73921569 0.49705882
0.88529412 0.74901961 0.47720588
0.92941176 0.74754902 0.48529412
0.91666667 0.75318627 0.49191176
0.85686275 0.77843137 0.51176471
0.39901961 0.85539216 0.50441176
0.42395833 0.8596201 0.48780637
0.49522059 0.86360294 0.51556373
0.65147059 0.85931373 0.49466912
0.78823529 0.86323529 0.48431373
0.88921569 0.86078431 0.49987745
0.9254902 0.86360294 0.49375
0.93284314 0.87107843 0.49509804
0.86078431 0.88431373 0.50441176
0.36764706 0.9127451 0.49607843
0.41470588 0.93823529 0.48125
0.51568627 0.93995098 0.50367647
0.66360294 0.93823529 0.48296569
0.79656863 0.93921569 0.48137255
0.89129902 0.93921569 0.50245098
0.92622549 0.93921569 0.48921569
0.93823529 0.93921569 0.49105392
0.84313725 0.95784314 0.50294118
0.36470588 0.97401961 0.50245098
0.41078431 0.97297794 0.51770833
0.52058824 0.96960784 0.50784314
0.67156863 0.97696078 0.48333333
0.80392157 0.95735294 0.50245098
0.88578431 0.96960784 0.48872549
0.93223039 0.96764706 0.5
0.9254902 0.97254902 0.48627451
0.85147059 0.9877451 0.49558824
0.41960784 0.77647059 0.51372549
0.42843137 0.88039216 0.52598039
0.5254902 0.9 0.51568627
0.71421569 0.82892157 0.53088235
0.84117647 0.84117647 0.53333333
0.90686275 0.93970588 0.51323529
0.96960784 0.85490196 0.5372549
0.96470588 0.84754902 0.53235294
0.93333333 0.92156863 0.54117647
0.35833333 0.26862745 0.4745098
0.37591912 0.25949755 0.48572304
0.44889706 0.24742647 0.48455882
0.61415441 0.22714461 0.49742647
0.74901961 0.23112745 0.49289216
0.85116422 0.21666667 0.49656863
0.90232843 0.22316176 0.49534314
0.92536765 0.16605392 0.52977941
0.80539216 0.23235294 0.50735294
0.37794118 0.15428922 0.51550245
0.44160539 0.1754902 0.53240656
0.49319853 0.17683824 0.53933824
0.64096967 0.18157935 0.54409467
0.79387255 0.18238358 0.54019608
0.89172794 0.19714308 0.54362745
0.94803922 0.20272672 0.54756434
0.94089308 0.18768382 0.54803922
0.89803922 0.20594363 0.56078431
0.39558824 0.27794118 0.52071078
0.43126532 0.29024203 0.53284314
0.47310049 0.29280025 0.53370098
0.64692096 0.3131587 0.54050245
0.7875 0.31636029 0.54031863
0.89411765 0.33627451 0.54803922
0.94280025 0.33872549 0.54954044
0.95723039 0.33780637 0.54840686
0.90723039 0.37598039 0.57365196
0.41973039 0.53363971 0.52193627
0.43515625 0.54656863 0.54019608
0.49232537 0.5489277 0.54361213
0.64882047 0.55042126 0.54019608
0.78823529 0.5658701 0.54411765
0.89430913 0.5712546 0.54411765
0.94080882 0.5808364 0.54803922
0.96127451 0.59358915 0.54460784
0.90196078 0.6161152 0.56507353
0.41519608 0.73014706 0.52254902
0.43480392 0.74491422 0.54041054
0.49301471 0.74117647 0.54411765
0.66323529 0.74543505 0.54083946
0.79583333 0.75073529 0.54411765
0.89362745 0.74681373 0.54411765
0.94160539 0.74466912 0.54803922
0.95196078 0.76819853 0.54828431
0.9 0.79509804 0.56911765
0.37775735 0.85116422 0.528125
0.42598039 0.86715686 0.54648438
0.49764093 0.87058824 0.548269
0.6698989 0.87058824 0.54411765
0.8036152 0.86951593 0.54411765
0.89061734 0.87107843 0.54803922
0.94558824 0.87403493 0.54803922
0.96076134 0.87736673 0.55245098
0.90667892 0.90588235 0.575
0.40379902 0.91654412 0.51764706
0.43063725 0.94301471 0.54411765
0.51286765 0.94304534 0.54803922
0.67585784 0.93921569 0.54166667
0.81127451 0.94215686 0.54411765
0.89705882 0.94276961 0.54803922
0.94601716 0.93921569 0.55147059
0.9716299 0.94564951 0.54803922
0.88541667 0.96568627 0.57107843
0.40189951 0.95343137 0.52457108
0.42414216 0.97647825 0.54803156
0.52365196 0.96861213 0.55588235
0.68445925 0.96644455 0.54869026
0.81544118 0.96464461 0.54852941
0.89936428 0.96819853 0.55196078
0.95428922 0.96427696 0.55637255
0.96464461 0.96433058 0.55507047
0.88259804 0.99025735 0.56623775
0.41078431 0.8127451 0.57745098
0.44209559 0.90061275 0.57843137
0.56495098 0.85245098 0.59375
0.73033088 0.87757353 0.59191176
0.84313725 0.90980392 0.57671569
0.93020833 0.88480392 0.59748775
0.96605392 0.88235294 0.57892157
0.97598039 0.8723652 0.58958333
0.95294118 0.86421569 0.61323529
0.33921569 0.23921569 0.53235294
0.37046569 0.20404412 0.55968137
0.43284314 0.19877451 0.54558824
0.60502451 0.22377451 0.5372549
0.75147059 0.21127451 0.55735294
0.85477941 0.20196078 0.57046569
0.90514706 0.22254902 0.56421569
0.92291667 0.22426471 0.57071078
0.88921569 0.22843137 0.61078431
0.36715686 0.14411765 0.57267157
0.38221507 0.17382047 0.59840686
0.47303922 0.18406863 0.59607843
0.64995404 0.18434436 0.60477941
0.79332108 0.1932598 0.60484069
0.88530944 0.2058364 0.60540748
0.93566176 0.21032475 0.61752451
0.9528799 0.20643382 0.61960784
0.92095588 0.21237745 0.63651961
0.35955882 0.26151961 0.56789216
0.40784314 0.29889706 0.60162377
0.47352941 0.30931373 0.60373775
0.65686275 0.31363358 0.6127451
0.80245098 0.32389706 0.6127451
0.90208333 0.33238358 0.62205882
0.94926471 0.33792892 0.63235294
0.95073529 0.36115196 0.62870711
0.9122549 0.37941176 0.64779412
0.34522059 0.52022059 0.58125
0.40618873 0.55551471 0.60281863
0.49411765 0.55523897 0.60416667
0.66568627 0.54840686 0.62242647
0.80392157 0.58357843 0.62303922
0.90508578 0.59120711 0.62843137
0.94436275 0.58541667 0.63137255
0.96527267 0.60825674 0.63272059
0.92806373 0.63713235 0.65772059
0.35392157 0.725 0.59068627
0.40110294 0.74479167 0.61531863
0.49816176 0.74889706 0.61703431
0.67714461 0.75741422 0.62653186
0.80735294 0.76617647 0.63112745
0.89705882 0.76188725 0.6213848
0.94607843 0.775 0.62058824
0.97279412 0.78033088 0.63621324
0.89607843 0.81323529 0.65735294
0.34117647 0.85625 0.60147059
0.39269301 0.86747855 0.6192402
0.50854779 0.87107843 0.62781863
0.67647059 0.875 0.62604167
0.81397059 0.87892157 0.63829657
0.8962163 0.87094056 0.62683824
0.95027574 0.87610294 0.63636642
0.95179228 0.88284314 0.63419118
0.88296569 0.91176471 0.66066176
0.35661765 0.91985294 0.59705882
0.41482843 0.94142157 0.61933211
0.53106618 0.94221814 0.62352941
0.68740809 0.94313725 0.62316176
0.81997549 0.94607843 0.63333333
0.89705882 0.94607843 0.62708333
0.94509804 0.94215686 0.63609069
0.9495098 0.94935662 0.63529412
0.91764706 0.96568627 0.65171569
0.33333333 0.96715686 0.61507353
0.40491728 0.97647059 0.62875306
0.54019608 0.97267157 0.63431373
0.6997549 0.97038909 0.62948836
0.82205882 0.9783701 0.63192402
0.9053462 0.975 0.63123468
0.94129902 0.97288603 0.63532475
0.9498315 0.97428002 0.63311887
0.95980392 0.98394608 0.65196078
0.40980392 0.80784314 0.65980392
0.44828431 0.83835784 0.67732843
0.56666667 0.85661765 0.68112745
0.73235294 0.87193627 0.68259804
0.85980392 0.88088235 0.68382353
0.94093137 0.87181373 0.68982843
0.96936275 0.89117647 0.68406863
0.97426471 0.88811275 0.68345588
0.90980392 0.93333333 0.67254902
0.33529412 0.22205882 0.6504902
0.3627451 0.23210784 0.66954657
0.44068627 0.22046569 0.6629902
0.60925245 0.19405637 0.66470588
0.75098039 0.19730392 0.6745098
0.84338235 0.21115196 0.67377451
0.89963235 0.18651961 0.6807598
0.93419118 0.16844363 0.73186275
0.85098039 0.20343137 0.70833333
0.36948529 0.15606618 0.70998775
0.40081955 0.18333333 0.72099418
0.49375 0.18681066 0.72023591
0.65588235 0.19302237 0.72401961
0.79347426 0.18627451 0.73333333
0.88517923 0.20648744 0.73353248
0.94348958 0.19813113 0.74460784
0.94119945 0.20030637 0.75435049
0.88541667 0.21390931 0.78743873
0.33848039 0.26127451 0.68921569
0.39754902 0.29705882 0.72847733
0.48011642 0.32374387 0.7236826
0.65231311 0.30863971 0.72898284
0.8036152 0.32383578 0.7408701
0.89460784 0.33374694 0.74839154
0.94764093 0.35150123 0.75407475
0.94122243 0.36194853 0.76092218
0.90220588 0.38982843 0.79117647
0.34270833 0.52101716 0.70196078
0.38174786 0.5526348 0.72738205
0.4939185 0.56715686 0.73529412
0.67073376 0.57773438 0.75063572
0.80784314 0.57570466 0.74604779
0.90735294 0.60582108 0.75582108
0.9504136 0.59607843 0.76288297
0.95318627 0.62126225 0.7689951
0.93186275 0.64307598 0.78958333
0.37058824 0.74656863 0.72769608
0.40113358 0.75030637 0.73658088
0.50655637 0.75471814 0.74099265
0.68360907 0.76620711 0.7448223
0.81568627 0.76862745 0.75612745
0.90490196 0.76565564 0.75735294
0.95606618 0.7838848 0.76911765
0.96632966 0.78299632 0.76822917
0.89779412 0.81740196 0.79705882
0.35980392 0.84656863 0.72107843
0.38756893 0.86862745 0.74136029
0.51176471 0.87323836 0.74747243
0.68699449 0.87800245 0.74705882
0.82622549 0.88284314 0.7551777
0.90490196 0.881947 0.75490196
0.95 0.87892157 0.75528493
0.95195312 0.88841146 0.77058824
0.90355392 0.91378676 0.79522059
0.33541667 0.92941176 0.73431373
0.38694853 0.94269301 0.75061275
0.51577819 0.94607843 0.7551777
0.69457721 0.94705882 0.75882353
0.82352941 0.94644608 0.75490196
0.90735294 0.94313725 0.76026348
0.95686275 0.94313725 0.76666667
0.9467065 0.95035233 0.77495404
0.88455882 0.97536765 0.80134804
0.35900735 0.95759804 0.73633578
0.41361826 0.96835938 0.76070006
0.53235294 0.97254902 0.76613051
0.70035999 0.97040441 0.76715686
0.83008578 0.97083333 0.76902574
0.9127451 0.96134344 0.77323836
0.95301777 0.96910233 0.77469363
0.94714308 0.98351716 0.76930147
0.91047794 0.98167892 0.78560049
0.40833333 0.83137255 0.79607843
0.45018382 0.84724265 0.8185049
0.56973039 0.86348039 0.81666667
0.74417892 0.89172794 0.8223652
0.87279412 0.91666667 0.82132353
0.92941176 0.91752451 0.81115196
0.97291667 0.9060049 0.81936275
0.97512255 0.90294118 0.81580882
0.93088235 0.89362745 0.85
0.32745098 0.19411765 0.78039216
0.36936275 0.19362745 0.80416667
0.44460784 0.20539216 0.7872549
0.61519608 0.20637255 0.78112745
0.75294118 0.19411765 0.78431373
0.84117647 0.1997549 0.78259804
0.91862745 0.1877451 0.81078431
0.91617647 0.17034314 0.80318627
0.84313725 0.20588235 0.81176471
0.32965686 0.15931373 0.82107843
0.40202206 0.18351716 0.84071691
0.503125 0.18627451 0.84295343
0.66240809 0.18676471 0.83921569
0.79215686 0.19105392 0.83419118
0.89240196 0.20196078 0.84347426
0.9403799 0.21139706 0.84178922
0.94488358 0.19509804 0.85637255
0.92034314 0.21078431 0.87303922
0.33676471 0.25980392 0.79803922
0.40514706 0.31911765 0.84166667
0.50637255 0.33517157 0.84620098
0.67132353 0.33333333 0.84632353
0.80539216 0.34117647 0.84926471
0.89705882 0.33805147 0.85245098
0.94558824 0.35012255 0.85257353
0.96795343 0.36292892 0.85704657
0.89705882 0.39166667 0.88970588
0.3504902 0.5495098 0.83455882
0.39672181 0.56354167 0.84387255
0.50625 0.58284314 0.84926471
0.68480392 0.57356005 0.8504902
0.81764706 0.59828431 0.86470588
0.91035539 0.60392157 0.85490196
0.94607843 0.60882353 0.86231618
0.95548407 0.61960784 0.86626838
0.92156863 0.65318627 0.89558824
0.35196078 0.71666667 0.81470588
0.4002451 0.75502451 0.84509804
0.49583333 0.75588235 0.84215686
0.69375 0.76629902 0.84803922
0.82254902 0.76960784 0.85980392
0.90490196 0.76727941 0.85906863
0.95 0.78333333 0.86397059
0.97916667 0.79816176 0.86887255
0.90588235 0.82647059 0.89509804
0.35710784 0.85220588 0.8372549
0.39877451 0.86700368 0.8526348
0.50539216 0.87107843 0.8495098
0.69659926 0.87745098 0.85294118
0.82647059 0.88284314 0.85686275
0.90563725 0.88676471 0.86544118
0.95392157 0.88756127 0.86470588
0.96047794 0.89068627 0.87285539
0.89877451 0.91789216 0.90171569
0.35441176 0.92205882 0.82843137
0.40716912 0.94264706 0.85073529
0.51176471 0.94669118 0.85686275
0.70122549 0.94607843 0.86023284
0.82328431 0.95171569 0.86470588
0.90153186 0.94779412 0.86470588
0.95367647 0.94607843 0.86470588
0.9598652 0.95404412 0.87647059
0.90245098 0.97254902 0.8995098
0.35637255 0.97009804 0.84730392
0.41176471 0.98039216 0.85294118
0.52628676 0.98088235 0.85900735
0.70211397 0.97141544 0.86626838
0.83357843 0.97561275 0.87181373
0.91292892 0.98039216 0.87279412
0.95104167 0.96691176 0.87083333
0.9573223 0.97797181 0.87325368
0.8875 0.99166667 0.89607843
0.4 0.83333333 0.88627451
0.44558824 0.85710784 0.90563725
0.57205882 0.8754902 0.91127451
0.7497549 0.87916667 0.91470588
0.87058824 0.90588235 0.9127451
0.95367647 0.8754902 0.93308824
0.97303922 0.88872549 0.91176471
0.97769608 0.90588235 0.91151961
0.94901961 0.9 0.92352941
0.31372549 0.14411765 0.83333333
0.35330882 0.17616422 0.87261029
0.43553922 0.16593137 0.85245098
0.61703431 0.18645833 0.85226716
0.75318627 0.15735294 0.85612745
0.83976716 0.1877451 0.85545343
0.89901961 0.20772059 0.86029412
0.9192402 0.21519608 0.86776961
0.90098039 0.22794118 0.89607843
0.36262255 0.15012255 0.88345588
0.394447 0.19025735 0.91666667
0.50226716 0.19019608 0.9127451
0.6653799 0.19920343 0.91255362
0.79969363 0.20965074 0.91259191
0.89302237 0.19050245 0.91747089
0.9495864 0.19607843 0.91666667
0.96082261 0.19460784 0.92220435
0.93333333 0.20851716 0.94136029
0.35 0.28823529 0.89044118
0.4073989 0.33003983 0.91724877
0.50851716 0.34509804 0.92279412
0.68246017 0.33601409 0.91666667
0.81176471 0.33517157 0.90900735
0.8988511 0.33835784 0.92192096
0.95330882 0.34240196 0.92671569
0.96269914 0.3560049 0.92418811
0.9182598 0.3814951 0.94901961
0.36464461 0.55042892 0.89491422
0.40864737 0.58186275 0.92058824
0.51115196 0.58973652 0.92058824
0.69613971 0.59495251 0.92058824
0.81887255 0.58756127 0.92058824
0.90882353 0.60300245 0.92359069
0.94977022 0.60189951 0.92843137
0.95755208 0.62316176 0.92843137
0.93106618 0.64730392 0.95073529
0.36323529 0.76127451 0.91470588
0.40655637 0.75882353 0.91363358
0.50539216 0.76862745 0.91844363
0.69656863 0.76908701 0.9245098
0.82745098 0.77818627 0.92941176
0.91246936 0.78140319 0.93235294
0.95196078 0.79123775 0.93235294
0.97068015 0.79705882 0.93250613
0.92965686 0.82058824 0.95220588
0.35153186 0.84534314 0.89485294
0.40931373 0.87107843 0.92058824
0.51476716 0.87715993 0.9245098
0.69460784 0.87892157 0.92843137
0.82352941 0.88921569 0.93235294
0.91456036 0.88789063 0.93480392
0.95784314 0.88999694 0.93129596
0.95409773 0.89453891 0.93480392
0.91047794 0.91966912 0.9564951
0.35343137 0.92414216 0.90196078
0.39594056 0.94178922 0.92058824
0.52169118 0.94313725 0.92677696
0.69561887 0.94538909 0.92904412
0.8254902 0.94669118 0.93327206
0.91574755 0.94644608 0.93517157
0.95392157 0.95490196 0.93042279
0.97579657 0.95784314 0.93498775
0.9060049 0.97034314 0.95269608
0.35980392 0.97009804 0.92156863
0.39720435 0.96816023 0.92481618
0.53307292 0.96766238 0.92843137
0.7037454 0.96869638 0.93235294
0.83367034 0.96495098 0.93627451
0.91930147 0.9705193 0.94283088
0.94937194 0.98102022 0.92481618
0.94889706 0.9810432 0.93627451
0.90091912 0.98903186 0.95128676
0.38137255 0.85833333 0.92647059
0.43321078 0.89178922 0.94264706
0.55625 0.89877451 0.9439951
0.75147059 0.88468137 0.95729167
0.8627451 0.91740196 0.95
0.94601716 0.88094363 0.96262255
0.97745098 0.87230392 0.96323529
0.98155637 0.86151961 0.96654412
0.93137255 0.89509804 0.96764706
0.31568627 0.16078431 0.8754902
0.34926471 0.18321078 0.90110294
0.46078431 0.20808824 0.91004902
0.63394608 0.20833333 0.90759804
0.76715686 0.20294118 0.90931373
0.86188725 0.20134804 0.9252451
0.89191176 0.15833333 0.90294118
0.93504902 0.19901961 0.92818627
0.89117647 0.23137255 0.92647059
0.35477941 0.16372549 0.93872549
0.3995098 0.19617034 0.95784314
0.50811887 0.19764093 0.95392157
0.67953431 0.20932904 0.95821078
0.80655637 0.1973652 0.96176471
0.89313725 0.20121017 0.96176471
0.9421875 0.19966299 0.96176471
0.94624694 0.19571078 0.96519608
0.90085784 0.21421569 0.97487745
0.35686275 0.28480392 0.91446078
0.39803922 0.33587623 0.95477941
0.51721814 0.34681373 0.96176471
0.69022672 0.35646446 0.96130515
0.8245098 0.35110294 0.96176471
0.89705882 0.34929534 0.96384804
0.9466299 0.353125 0.96397059
0.94623162 0.36519608 0.96176471
0.95122549 0.37696078 0.96323529
0.37083333 0.57156863 0.95686275
0.41524203 0.5841299 0.95893076
0.53590686 0.59656863 0.96176471
0.69852941 0.60101103 0.96568627
0.82941176 0.60300245 0.96568627
0.90375306 0.60314032 0.96176471
0.95 0.60698529 0.96479779
0.9365962 0.62127757 0.96568627
0.8932598 0.65453431 0.97990196
0.37107843 0.73823529 0.925
0.41960784 0.76629902 0.96219363
0.52058824 0.77254902 0.96176471
0.70392157 0.77720588 0.96660539
0.83112745 0.77843137 0.96936275
0.90827206 0.78627451 0.96568627
0.94460784 0.78786765 0.96605392
0.94185049 0.79601716 0.96954657
0.87990196 0.81764706 0.98039216
0.37794118 0.86433824 0.95294118
0.41450674 0.87486213 0.96132047
0.52414216 0.87726716 0.96531863
0.69963235 0.87892157 0.96937806
0.821875 0.88498775 0.97316176
0.9127451 0.88713235 0.96960784
0.96004902 0.89705882 0.96960784
0.93186275 0.89705882 0.96960784
0.93051471 0.91421569 0.97745098
0.38137255 0.92769608 0.94901961
0.41862745 0.94237132 0.96102941
0.53572304 0.94234069 0.96176471
0.69178922 0.94705882 0.96397059
0.82242647 0.94607843 0.96678922
0.9127451 0.95036765 0.96960784
0.95367647 0.95392157 0.96979167
0.9416973 0.95784314 0.96960784
0.9004902 0.96715686 0.97745098
0.39522059 0.96531863 0.95061275
0.41960784 0.97254902 0.96568627
0.54298407 0.97264093 0.96568627
0.69897365 0.97539828 0.9658701
0.82794118 0.97303922 0.96568627
0.91311275 0.97254902 0.97299326
0.95294118 0.97352941 0.97279412
0.92815564 0.97947304 0.97052696
0.88762255 0.98786765 0.97879902
0.43333333 0.85490196 0.96666667
0.44142157 0.87144608 0.97352941
0.55367647 0.84558824 0.97254902
0.7375 0.85870098 0.97806373
0.85147059 0.86519608 0.9754902
0.94044118 0.85870098 0.98247549
0.97156863 0.86715686 0.97818627
0.95563725 0.88026961 0.98125
0.93921569 0.84215686 0.98431373
0.32598039 0.16078431 0.89362745
0.36734069 0.18694853 0.94105392
0.45980392 0.19865196 0.92745098
0.66942402 0.18572304 0.97040441
0.79166667 0.22352941 0.96078431
0.8560049 0.20618873 0.9401348
0.8995098 0.21691176 0.93909314
0.9254902 0.2221201 0.95533088
0.9122549 0.21764706 0.98235294
0.39276961 0.16127451 0.95741422
0.42310049 0.19859069 0.98426011
0.51355699 0.20491728 0.9838848
0.68122702 0.21364124 0.98039216
0.8083027 0.21228554 0.98088235
0.89267004 0.21764706 0.98088235
0.93650429 0.21409314 0.98049939
0.91219363 0.20190717 0.98523284
0.90802696 0.20245098 0.98915441
0.39044118 0.33112745 0.97377451
0.4176011 0.35359988 0.97814032
0.53465074 0.36133578 0.98458946
0.69443934 0.37164522 0.98468137
0.82285539 0.35643382 0.98480392
0.90490196 0.3564951 0.98823529
0.95052083 0.35238971 0.98431373
0.92435662 0.3643076 0.98598346
0.93026961 0.37512255 0.99215686
0.38560049 0.57126225 0.9622549
0.4271829 0.59948683 0.98275888
0.55254289 0.60949755 0.98445159
0.70245098 0.61354167 0.98823529
0.83440564 0.61568627 0.98716299
0.9004902 0.62450214 0.98480392
0.94693627 0.62535233 0.98431373
0.91605392 0.62359069 0.98825827
0.88835784 0.63167892 0.99215686
0.40637255 0.76397059 0.97573529
0.42794118 0.77643995 0.98823529
0.55441176 0.77843137 0.98259804
0.70784314 0.7877451 0.98431373
0.83039216 0.78443627 0.98823529
0.91004902 0.78765319 0.98823529
0.92886029 0.78639706 0.98694853
0.91553309 0.79739583 0.98869485
0.88088235 0.80073529 0.98872549
0.41323529 0.85588235 0.96127451
0.44215686 0.88106618 0.984375
0.54724265 0.88632047 0.98823529
0.69246324 0.88676471 0.98823529
0.82769608 0.89099265 0.98854167
0.91096814 0.89068627 0.98823529
0.93284314 0.89705882 0.98823529
0.91740196 0.89852941 0.98915441
0.91501225 0.90784314 0.99215686
0.43431373 0.94276961 0.98137255
0.44162071 0.94693627 0.98088235
0.53370098 0.94705882 0.98832721
0.69875919 0.9472886 0.98609069
0.82720588 0.95 0.98431373
0.91243873 0.95821078 0.98823529
0.94019608 0.95496324 0.98872549
0.92480086 0.95795037 0.98909314
0.9057598 0.96531863 0.99129902
0.44178922 0.96654412 0.97003676
0.45620404 0.97592678 0.98517923
0.54499081 0.97254902 0.99140625
0.69895833 0.96476716 0.98866422
0.82941176 0.97083333 0.98893995
0.9127451 0.97442555 0.99028033
0.94031863 0.97218137 0.99221814
0.89024969 0.98431373 0.99215686
0.86262255 0.98523284 0.99301471
0.50196078 0.81519608 0.98039216
0.49344363 0.83596814 0.99172794
0.57610294 0.83835784 0.99215686
0.72843137 0.84718137 0.99185049
0.85245098 0.8622549 0.99215686
0.93210784 0.8375 0.99215686
0.97144608 0.8185049 0.99607843
0.95943627 0.80067402 0.99522059
0.91078431 0.78627451 0.99607843
0.43137255 0.24705882 0.9254902
0.41960784 0.27107843 0.95098039
0.49313725 0.26666667 0.95
0.64901961 0.28529412 0.9504902
0.80588235 0.21372549 0.98039216
0.87205882 0.26764706 0.96323529
0.92254902 0.28921569 0.9627451
0.91911765 0.31176471 0.96323529
0.8745098 0.3372549 0.96470588
0.44362745 0.19117647 0.97696078
0.47015931 0.20980392 0.99215686
0.53921569 0.20526961 0.99166667
0.68805147 0.20882353 0.98970588
0.81348039 0.21372549 0.98823529
0.89675245 0.20441176 0.99215686
0.93823529 0.21421569 0.99080882
0.92843137 0.21421569 0.99215686
0.86372549 0.21813725 0.99558824
0.49215686 0.33823529 0.96862745
0.46960784 0.36960784 0.99117647
0.54583333 0.36764706 0.99215686
0.7057598 0.36617647 0.99215686
0.82352941 0.36715686 0.99607843
0.90098039 0.38186275 0.99607843
0.94509804 0.36372549 0.99215686
0.925 0.36372549 0.99215686
0.88137255 0.39313725 0.99607843
0.49460784 0.59754902 0.97892157
0.49068627 0.60784314 0.99215686
0.55686275 0.61078431 0.99607843
0.70245098 0.61807598 0.99215686
0.82401961 0.61446078 0.99215686
0.90343137 0.61862745 0.99215686
0.93786765 0.62352941 0.99215686
0.92224265 0.62628676 0.99215686
0.89656863 0.62352941 0.99607843
0.52941176 0.7745098 0.98039216
0.47377451 0.78235294 0.99607843
0.55343137 0.79558824 0.98480392
0.70490196 0.79803922 0.99142157
0.82647059 0.79509804 0.99215686
0.90490196 0.79289216 0.99215686
0.93627451 0.79705882 0.99215686
0.92352941 0.79411765 0.99436275
0.82941176 0.80980392 0.99607843
0.51323529 0.86960784 0.98039216
0.5158701 0.88137255 0.99607843
0.55980392 0.8807598 0.99215686
0.70692402 0.89460784 0.99515931
0.82941176 0.89705882 0.99607843
0.90490196 0.89068627 0.99215686
0.94056373 0.89522059 0.99215686
0.92892157 0.90067402 0.99607843
0.86813725 0.90490196 0.99607843
0.54411765 0.94607843 0.98529412
0.4879902 0.95012255 0.99117647
0.54803922 0.95 0.99607843
0.70245098 0.95098039 0.99215686
0.82303922 0.95392157 0.99411765
0.90490196 0.95392157 0.99607843
0.95122549 0.96004902 0.99607843
0.91531863 0.95784314 0.99522059
0.87058824 0.96176471 0.99215686
0.53039216 0.97254902 0.9877451
0.490625 0.97689951 0.99607843
0.56384804 0.97696078 0.99215686
0.70214461 0.97647059 0.99215686
0.81960784 0.98039216 0.99215686
0.91096814 0.97892157 0.9995098
0.95 0.98443627 0.99607843
0.90245098 0.98431373 0.99607843
0.84460784 0.98823529 0.99607843
0.58823529 0.98823529 0.98823529
0.49117647 0.99215686 0.99215686
0.55392157 0.98823529 0.98921569
0.69607843 0.99068627 0.98970588
0.82352941 0.99607843 0.99215686
0.90490196 0.99215686 0.99215686
0.94803922 0.99411765 0.99901961
0.91372549 0.99215686 0.99607843
0.8627451 0.99607843 0.99215686
