site/assets/luts/natron-haldclut--polaroid-time-zero-expired--00b265357.cube
# LUTr-Project: LUTr — LUTrepository
# LUTr-Schema-Version: 1
# LUTr-ID: natron-haldclut--polaroid-time-zero-expired--00b265357
# LUTr-Title: polaroid time zero (expired) +
# LUTr-Collection: Natron HaldCLUT
# LUTr-Collection-ID: natron-haldclut-presets
# LUTr-Source: https://github.com/NatronGitHub/clut
# LUTr-Source-File: submissions/natron-haldclut-presets/instant_consumer/polaroid_time_zero_(expired)_+.png
# LUTr-Source-Format: PNG
# LUTr-Source-SHA256: a11b2c078daad4e6e00792c584f84e30bbf723fd0a15b2c3124627c22e49aefa
# LUTr-License: CC-BY-SA-4.0
# LUTr-License-URL: https://github.com/NatronGitHub/clut#license
# LUTr-Tags: creative, film, film-emulation, hald-clut, natron, png, cube
# LUTr-Transform-Class: film-emulation
# LUTr-Input-Color-Space: srgb
# LUTr-Output-Color-Space: srgb
# LUTr-Color-Space-Confidence: assumed-display-referred
# LUTr-Conversion-Method: PNG LUT image decoded at 16-bit and sampled to 25x25x25 3D CUBE
# LUTr-Conversion-Date: 2026-07-27
# LUTr-Conversion-Tool: LUTr scripts/convert-all-to-cube.mjs
# LUTr-Conversion-Grid: 25x25x25
# LUTr-Note: Preserve this metadata and the upstream license notices when redistributing.
TITLE "polaroid time zero (expired) +"
LUT_3D_SIZE 9
DOMAIN_MIN 0 0 0
DOMAIN_MAX 1 1 1
0.80784314 0.5254902 0.25490196
0.81568627 0.52892157 0.2627451
0.81960784 0.52941176 0.26666667
0.82745098 0.52941176 0.27303922
0.83529412 0.52941176 0.2745098
0.85637255 0.53333333 0.2745098
0.8754902 0.53333333 0.27058824
0.90637255 0.5377451 0.2745098
0.9372549 0.54901961 0.28235294
0.81176471 0.54117647 0.25490196
0.81568627 0.54117647 0.25882353
0.82352941 0.54117647 0.26580882
0.83118873 0.54117647 0.26715686
0.8372549 0.5372549 0.26691176
0.85637255 0.54068627 0.26666667
0.87928922 0.54080882 0.26666667
0.9098652 0.54901961 0.2745098
0.9372549 0.55294118 0.27843137
0.81568627 0.55980392 0.25490196
0.81568627 0.55980392 0.25845588
0.82352941 0.55980392 0.25882353
0.83321078 0.55404412 0.25980392
0.83921569 0.54656863 0.25882353
0.85490196 0.54509804 0.25698529
0.88333333 0.55367647 0.2629902
0.91029412 0.56384804 0.27058824
0.92941176 0.56862745 0.2745098
0.81568627 0.57892157 0.25245098
0.81568627 0.57892157 0.25490196
0.82352941 0.57536765 0.25490196
0.83229167 0.57254902 0.25490196
0.84313725 0.56593137 0.25098039
0.85637255 0.56715686 0.25490196
0.88333333 0.575 0.2627451
0.91029412 0.58284314 0.26666667
0.92941176 0.59068627 0.27058824
0.81960784 0.60784314 0.24705882
0.81960784 0.60196078 0.24705882
0.82352941 0.60196078 0.24509804
0.83137255 0.59411765 0.24509804
0.84705882 0.6 0.24803922
0.86544118 0.60980392 0.25245098
0.88480392 0.6122549 0.2627451
0.91029412 0.62156863 0.2627451
0.93333333 0.62941176 0.2627451
0.81960784 0.63676471 0.23921569
0.82352941 0.63676471 0.23792892
0.82683824 0.63676471 0.23137255
0.8377451 0.64068627 0.23529412
0.85294118 0.64607843 0.23921569
0.87205882 0.65300245 0.24852941
0.89117647 0.66029412 0.26372549
0.91421569 0.66960784 0.27077206
0.9372549 0.67745098 0.28921569
0.82843137 0.69215686 0.24313725
0.83137255 0.69215686 0.23921569
0.83529412 0.69607843 0.23235294
0.84375 0.69607843 0.22708333
0.85882353 0.69607843 0.23137255
0.87843137 0.70392157 0.25245098
0.89901961 0.7125 0.27156863
0.92169118 0.72352941 0.30870098
0.93823529 0.73431373 0.34215686
0.84313725 0.75833333 0.24705882
0.84356618 0.76176471 0.24362745
0.84742647 0.75919118 0.23921569
0.8536152 0.75784314 0.21715686
0.86666667 0.76176471 0.22107843
0.8841299 0.76568627 0.25294118
0.9060049 0.76960784 0.29656863
0.92947304 0.77745098 0.34613971
0.94901961 0.78529412 0.40147059
0.85490196 0.81568627 0.25098039
0.85490196 0.81960784 0.25098039
0.85882353 0.82058824 0.24313725
0.86127451 0.79607843 0.22107843
0.87254902 0.79411765 0.22352941
0.89803922 0.82107843 0.28137255
0.91862745 0.82745098 0.33529412
0.9377451 0.82745098 0.39754902
0.96078431 0.83529412 0.47058824
0.80784314 0.52156863 0.25490196
0.81568627 0.5254902 0.2627451
0.81960784 0.52941176 0.27046569
0.82598039 0.52941176 0.27058824
0.83333333 0.52941176 0.2745098
0.85637255 0.53333333 0.2745098
0.87843137 0.52941176 0.27058824
0.90637255 0.53731618 0.2745098
0.94117647 0.54901961 0.28235294
0.81176471 0.54068627 0.25490196
0.81568627 0.54068627 0.2627451
0.82352941 0.54068627 0.27058824
0.82745098 0.54068627 0.27058824
0.83529412 0.5372549 0.27015931
0.85637255 0.5372549 0.27058824
0.87941176 0.54080882 0.27020527
0.91029412 0.54901961 0.2745098
0.9372549 0.55294118 0.27843137
0.81568627 0.55980392 0.25490196
0.81568627 0.55723039 0.25957414
0.82352941 0.55588235 0.26657475
0.82990196 0.55035233 0.26666667
0.83921569 0.54656863 0.26623775
0.85637255 0.54836091 0.27022059
0.88333333 0.55677083 0.27058824
0.91029412 0.56384804 0.27069547
0.93026961 0.56862745 0.2754902
0.81568627 0.57892157 0.25490196
0.81568627 0.57647059 0.25490196
0.82254902 0.575 0.25632659
0.83137255 0.56793811 0.25962776
0.84117647 0.56495098 0.2611826
0.86029412 0.57107843 0.26617647
0.88333333 0.57892157 0.26795343
0.91029412 0.58284314 0.27032016
0.92941176 0.58547794 0.27058824
0.81960784 0.60588235 0.24705882
0.81568627 0.59852941 0.24856005
0.82254902 0.59632353 0.24877451
0.83259804 0.59607843 0.25456495
0.84803922 0.59987745 0.25833333
0.86666667 0.60784314 0.26053922
0.88480392 0.61176471 0.2627451
0.90637255 0.61789216 0.26666667
0.92156863 0.6254902 0.2745098
0.81960784 0.63676471 0.23921569
0.82352941 0.63805147 0.24311428
0.82745098 0.64197304 0.24313725
0.8377451 0.64215686 0.24528186
0.85294118 0.64607843 0.25079657
0.87205882 0.65245098 0.25618873
0.89117647 0.65845588 0.26643689
0.91184896 0.66960784 0.29119945
0.92941176 0.67616422 0.30294118
0.82843137 0.69607843 0.24313725
0.82832414 0.69215686 0.23921569
0.83403799 0.69574142 0.23912377
0.84321385 0.69607843 0.23517157
0.85753676 0.69607843 0.24050245
0.87659314 0.70405944 0.25618873
0.89828431 0.7125 0.2754902
0.92156863 0.72352941 0.31787684
0.94117647 0.73529412 0.34705882
0.83970588 0.75784314 0.24754902
0.83921569 0.75392157 0.24313725
0.84238664 0.75392157 0.23541667
0.8536152 0.75784314 0.23180147
0.86691176 0.76176471 0.23875613
0.8841299 0.76568627 0.25680147
0.9060049 0.76960784 0.29656863
0.92947304 0.77782629 0.34264706
0.94901961 0.78872549 0.40490196
0.85490196 0.81568627 0.26617647
0.85490196 0.81868873 0.26617647
0.85784314 0.81568627 0.25845588
0.86488971 0.80735294 0.24656863
0.87647059 0.80931373 0.25196078
0.8995098 0.82873775 0.28743873
0.91862745 0.82745098 0.33921569
0.94166667 0.834375 0.40490196
0.96127451 0.84362745 0.48333333
0.81470588 0.5254902 0.28137255
0.81568627 0.52941176 0.27745098
0.81960784 0.52941176 0.28137255
0.82352941 0.52941176 0.28137255
0.83137255 0.52696078 0.27941176
0.85490196 0.53272059 0.28639706
0.87843137 0.53333333 0.29313725
0.90686275 0.54117647 0.30012255
0.93823529 0.54901961 0.30392157
0.81568627 0.53676471 0.27745098
0.81568627 0.53333333 0.27830882
0.82352941 0.53612132 0.28235294
0.82745098 0.53688725 0.28137255
0.83529412 0.53676471 0.28137255
0.85637255 0.5372549 0.28921569
0.87941176 0.54203431 0.29313725
0.91029412 0.54901961 0.29705882
0.9372549 0.55294118 0.29705882
0.81862745 0.55294118 0.2745098
0.81948529 0.55196078 0.27515319
0.82352941 0.54828431 0.27843137
0.82745098 0.54509804 0.2760723
0.8372549 0.54509804 0.28026961
0.85821078 0.55196078 0.29019608
0.88553922 0.55980392 0.29313725
0.91421569 0.56470588 0.29604779
0.93627451 0.56862745 0.29411765
0.81960784 0.575 0.26960784
0.81862745 0.57144608 0.26960784
0.81960784 0.56780025 0.26960784
0.82745098 0.56254596 0.26960784
0.84209559 0.56715686 0.27401961
0.86366422 0.57624081 0.2817402
0.88443627 0.58465074 0.28921569
0.91029412 0.58676471 0.29705882
0.92941176 0.59068627 0.29522059
0.81960784 0.60196078 0.26960784
0.81917892 0.59632353 0.26568627
0.82291667 0.59718137 0.26911765
0.83259804 0.60196078 0.27352941
0.84803922 0.60294118 0.27352941
0.86740196 0.60980392 0.27745098
0.88713235 0.61372549 0.28529412
0.90894608 0.61764706 0.28921569
0.92107843 0.62156863 0.29411765
0.81960784 0.63676471 0.26568627
0.82352941 0.64197304 0.26568627
0.82855392 0.64607843 0.26541054
0.83921569 0.64460784 0.26352635
0.85294118 0.64368873 0.26740196
0.87205882 0.64908088 0.27561275
0.89117647 0.65784314 0.29102328
0.91318934 0.66617647 0.31164216
0.92879902 0.67352941 0.32352941
0.82745098 0.69215686 0.26568627
0.82745098 0.69595588 0.26176471
0.83529412 0.7 0.25857843
0.84359681 0.69607843 0.25147059
0.85686275 0.69607843 0.25343137
0.87598039 0.70330882 0.27892157
0.89828431 0.7125 0.30275735
0.92156863 0.72352941 0.34166667
0.94117647 0.73529412 0.36960784
0.83921569 0.75784314 0.26875
0.83578431 0.75392157 0.26213235
0.83958333 0.75392157 0.25821078
0.85490196 0.75819547 0.26090686
0.86740196 0.76176471 0.26207108
0.88285846 0.76309743 0.2776348
0.90330882 0.76960784 0.32169118
0.92947304 0.7778799 0.36519608
0.94509804 0.78529412 0.41127451
0.85098039 0.81568627 0.29313725
0.85196078 0.81960784 0.29313725
0.85784314 0.81960784 0.28848039
0.86911765 0.81960784 0.27855392
0.88235294 0.82401961 0.27941176
0.89448529 0.81666667 0.30343137
0.91470588 0.81593137 0.35098039
0.9377451 0.82745098 0.41531863
0.95294118 0.82745098 0.4627451
0.81960784 0.52941176 0.31617647
0.81960784 0.52941176 0.30833333
0.82352941 0.53333333 0.31188725
0.82898284 0.53033088 0.31470588
0.83848039 0.53333333 0.31936275
0.85637255 0.5372549 0.32401961
0.87941176 0.54178922 0.33468137
0.90637255 0.54773284 0.34393382
0.93333333 0.55294118 0.35
0.81960784 0.53333333 0.30441176
0.81960784 0.53333333 0.30081955
0.82352941 0.53333333 0.30638787
0.83130362 0.5372549 0.3122549
0.83921569 0.5372549 0.3122549
0.85501685 0.54018842 0.31617647
0.87941176 0.54496017 0.32915135
0.90798866 0.54928768 0.33449755
0.9372549 0.55686275 0.33480392
0.82205882 0.54803922 0.30404412
0.81960784 0.5441636 0.29862132
0.82352941 0.54411765 0.30232843
0.83137255 0.54865196 0.3122549
0.84240196 0.54865196 0.3122549
0.85637255 0.55196078 0.31372549
0.88333333 0.55980392 0.32855392
0.91199449 0.56668199 0.33167892
0.94117647 0.57156863 0.32647059
0.82352941 0.56954657 0.3122549
0.82352941 0.56954657 0.30778186
0.82745098 0.57107843 0.30948223
0.83474265 0.57107843 0.31282935
0.84509804 0.575 0.31470588
0.86366422 0.58284314 0.31525735
0.88711703 0.5845435 0.32794118
0.91109835 0.59068627 0.33174786
0.93333333 0.59460784 0.32702206
0.81960784 0.59803922 0.30171569
0.82352941 0.59803922 0.30441176
0.82745098 0.60196078 0.30563725
0.83382353 0.60045956 0.30441176
0.84901961 0.60784314 0.30759804
0.86813725 0.61372549 0.31317402
0.88872549 0.61568627 0.32401961
0.91387868 0.61789216 0.3239277
0.93578431 0.6254902 0.31764706
0.81960784 0.63284314 0.29264706
0.82352941 0.63823529 0.29656863
0.83137255 0.64584865 0.3004902
0.83921569 0.64495251 0.29901961
0.85294118 0.64552696 0.29856005
0.87079504 0.65245098 0.308678
0.89117647 0.66066176 0.32610294
0.91550245 0.66587776 0.3372549
0.9372549 0.67506127 0.35386029
0.82561275 0.69215686 0.29718137
0.82798713 0.69558824 0.29718137
0.83529412 0.7 0.3004902
0.84313725 0.69718137 0.29633885
0.85686275 0.69730392 0.29564951
0.87598039 0.70484069 0.31372549
0.89828431 0.71495098 0.34460784
0.92164522 0.72352941 0.36862745
0.93823529 0.73529412 0.4004902
0.83921569 0.75784314 0.31648284
0.83921569 0.76160386 0.31488971
0.8435049 0.76079963 0.31104473
0.85227482 0.75784314 0.30452665
0.86372549 0.75808824 0.29200368
0.88001685 0.76568627 0.30244332
0.90294118 0.76960784 0.35343137
0.92640931 0.77771906 0.4
0.94558824 0.79264706 0.45294118
0.85098039 0.81813725 0.33431373
0.85098039 0.82334559 0.33449755
0.85490196 0.81568627 0.32794118
0.86519608 0.81268382 0.32310049
0.8745098 0.81372549 0.31029412
0.88682598 0.80147059 0.30882353
0.91078431 0.8127451 0.37340686
0.9377451 0.82775735 0.43921569
0.96323529 0.84558824 0.51715686
0.82352941 0.5254902 0.34705882
0.82352941 0.52892157 0.34877451
0.83088235 0.53333333 0.35686275
0.83455882 0.53529412 0.35490196
0.84411765 0.5372549 0.3627451
0.85637255 0.54117647 0.3627451
0.88235294 0.54901961 0.37696078
0.91029412 0.55294118 0.39044118
0.9372549 0.55686275 0.40196078
0.82745098 0.5370098 0.35661765
0.82742034 0.53697917 0.35291054
0.83137255 0.53897059 0.35857843
0.83636642 0.54117647 0.35900735
0.84705882 0.54485294 0.36470588
0.86029412 0.54852941 0.36519608
0.87941176 0.54901961 0.37322304
0.90637255 0.55315564 0.38434436
0.9370098 0.56446078 0.39607843
0.82745098 0.54901961 0.35686275
0.82941176 0.5504902 0.35686275
0.83333333 0.55404412 0.35686275
0.84044118 0.55667892 0.36470588
0.85073529 0.55980392 0.36495098
0.86329657 0.56421569 0.36936275
0.88333333 0.56568627 0.37647059
0.91029412 0.56856618 0.38082108
0.94117647 0.57941176 0.38823529
0.82745098 0.56323529 0.35294118
0.83112745 0.56960784 0.35686275
0.83529412 0.5786152 0.35882353
0.84436275 0.58134191 0.36228554
0.85490196 0.58676471 0.36470588
0.86890319 0.58826593 0.36862745
0.8872549 0.58553922 0.3716299
0.91421569 0.5908701 0.37931985
0.93995098 0.60245098 0.38431373
0.82352941 0.59705882 0.34509804
0.82916667 0.60061275 0.34987745
0.83529412 0.60588235 0.35294118
0.84313725 0.60980392 0.35294118
0.85588235 0.61715686 0.36078431
0.87132353 0.62156863 0.36348039
0.89019608 0.61740196 0.36715686
0.91397059 0.62071078 0.37254902
0.9372549 0.63137255 0.37647059
0.82156863 0.63431373 0.3372549
0.82745098 0.63823529 0.34093137
0.83529412 0.64607843 0.34705882
0.83921569 0.6504902 0.34901961
0.85551471 0.6557598 0.35294118
0.87058824 0.65983456 0.35202206
0.89319853 0.66599265 0.37714461
0.91764706 0.67083333 0.38440564
0.9372549 0.67598039 0.39166667
0.82352941 0.69068627 0.34362745
0.82720588 0.69215686 0.34362745
0.83137255 0.69938725 0.3432598
0.8377451 0.69901961 0.34117647
0.85490196 0.70367647 0.34558824
0.87267157 0.70931373 0.3504902
0.89901961 0.71960784 0.38737745
0.9216299 0.7252451 0.40661765
0.9372549 0.73333333 0.43088235
0.83186275 0.75441176 0.36519608
0.83186275 0.75392157 0.36102941
0.83939951 0.7560049 0.35686275
0.8473652 0.75784314 0.35327819
0.86102941 0.76176471 0.34632353
0.87925858 0.76960784 0.34558824
0.90294118 0.77395833 0.38578431
0.92619485 0.78336397 0.43529412
0.94509804 0.79485294 0.48897059
0.84313725 0.81568627 0.39215686
0.84485294 0.81544118 0.38823529
0.8504902 0.81176471 0.38431373
0.85882353 0.8129902 0.37916667
0.87254902 0.8254902 0.37254902
0.88504902 0.8122549 0.35882353
0.90882353 0.81421569 0.4
0.93946078 0.83921569 0.47328431
0.94705882 0.8254902 0.50588235
0.83529412 0.54117647 0.4254902
0.83676471 0.53872549 0.42794118
0.84313725 0.54509804 0.43970588
0.84852941 0.54656863 0.44362745
0.85490196 0.54509804 0.44215686
0.8651348 0.55441176 0.4348652
0.88235294 0.55294118 0.4192402
0.90637255 0.55863971 0.43480392
0.93186275 0.57009804 0.46176471
0.83676471 0.54264706 0.42009804
0.84034161 0.54842218 0.42981771
0.8442402 0.55245098 0.43970588
0.84852941 0.5526348 0.43689491
0.85563725 0.55548407 0.43578431
0.86666667 0.5622549 0.43939951
0.88627451 0.56568627 0.44080882
0.90637255 0.56991422 0.44262408
0.92794118 0.57775735 0.45784314
0.84068627 0.56409314 0.42696078
0.84460784 0.56897978 0.4334712
0.84705882 0.56911765 0.43578431
0.85166973 0.57193627 0.43578431
0.85955882 0.57622549 0.43578431
0.87100184 0.5814951 0.44607843
0.88973652 0.58370098 0.45
0.91024816 0.58391544 0.44607843
0.92904412 0.58933824 0.45
0.84368873 0.58823529 0.4348652
0.84460784 0.58903952 0.43278186
0.84967831 0.59546569 0.43186275
0.85490196 0.59607843 0.42794118
0.86544118 0.60168505 0.43532475
0.87689951 0.60784314 0.44362745
0.89117647 0.60392157 0.44362745
0.91029412 0.60422794 0.44215686
0.9348652 0.61568627 0.45
0.83676471 0.61519608 0.41813725
0.83995098 0.61510417 0.41436887
0.84675245 0.61911765 0.41617647
0.85536152 0.62594975 0.42009804
0.86740196 0.63308824 0.43112745
0.87990196 0.63676471 0.43970588
0.89448529 0.63480392 0.43970588
0.91421569 0.63480392 0.43961397
0.9372549 0.64264706 0.44215686
0.83137255 0.64460784 0.40294118
0.83517923 0.64754902 0.40441176
0.83990502 0.65206801 0.40556066
0.85063572 0.66421569 0.42105545
0.86397059 0.67233456 0.42555147
0.87843137 0.6783701 0.43635876
0.89803922 0.68068321 0.44607843
0.91813725 0.6783701 0.44215686
0.94117647 0.67745098 0.44215686
0.82892157 0.69938725 0.40833333
0.83129596 0.70110294 0.40833333
0.83529412 0.70330882 0.40520833
0.84183517 0.70461091 0.40833333
0.85349265 0.7098652 0.41188725
0.87412684 0.71876532 0.42663909
0.89856005 0.72699142 0.44408701
0.91813725 0.72841605 0.44661458
0.94117647 0.72745098 0.4377451
0.83284314 0.75802696 0.42481618
0.83137255 0.75 0.41715686
0.83699449 0.75894608 0.42058824
0.84344363 0.75784314 0.42003676
0.85701593 0.76397059 0.42058824
0.87598039 0.76960784 0.42009804
0.89901961 0.77931985 0.4303462
0.92205882 0.78137255 0.46917892
0.94509804 0.78529412 0.50471814
0.83921569 0.82598039 0.45784314
0.83921569 0.80441176 0.45
0.84313725 0.82463235 0.45894608
0.85343137 0.81568627 0.44846814
0.86348039 0.81593137 0.44362745
0.88327206 0.81813725 0.44123775
0.90085784 0.80784314 0.42843137
0.92990196 0.82616422 0.50833333
0.94509804 0.82745098 0.55343137
0.85196078 0.56176471 0.52843137
0.85490196 0.56176471 0.52843137
0.85588235 0.56176471 0.5245098
0.8627451 0.56960784 0.53235294
0.86715686 0.5745098 0.53235294
0.87843137 0.58137255 0.5372549
0.89019608 0.58137255 0.5245098
0.90330882 0.58541667 0.51017157
0.92156863 0.6 0.53529412
0.85490196 0.57352941 0.5245098
0.85588235 0.56971507 0.5254902
0.8578125 0.56519608 0.52411152
0.86328125 0.57745098 0.52843137
0.86911765 0.58529412 0.53235294
0.87843137 0.59290748 0.53627451
0.89108456 0.5939951 0.52843137
0.90637255 0.59281556 0.51280637
0.92156863 0.60098039 0.53284314
0.85980392 0.59607843 0.5245098
0.85980392 0.59322917 0.5245098
0.8627451 0.59552696 0.5247549
0.86666667 0.59607843 0.52843137
0.87267157 0.6 0.52843137
0.88023897 0.60863971 0.53235294
0.89356618 0.60802696 0.52377451
0.90701593 0.59926471 0.50477941
0.9127451 0.59926471 0.50490196
0.8627451 0.61911765 0.5245098
0.8627451 0.61911765 0.52149203
0.86727941 0.62303922 0.52205882
0.87058824 0.62303922 0.52058824
0.875 0.62696078 0.5245098
0.88379289 0.63872549 0.53235294
0.89721201 0.6379902 0.52671569
0.91029412 0.63365502 0.51629902
0.91948529 0.63480392 0.51666667
0.85588235 0.64705882 0.51519608
0.85863971 0.64368873 0.51666667
0.86482843 0.65 0.51519608
0.87248775 0.65784314 0.51666667
0.87843137 0.66176471 0.52058824
0.88627451 0.66776961 0.52843137
0.89828431 0.66960784 0.52843137
0.91789216 0.66960784 0.52806373
0.92941176 0.66666667 0.52156863
0.84987745 0.67696078 0.50379902
0.85196078 0.66911765 0.50744485
0.85588235 0.67303922 0.50882353
0.86312806 0.68241422 0.50772059
0.87481618 0.69264706 0.51666667
0.88627451 0.7004902 0.52120098
0.89901961 0.7004902 0.52594975
0.91813725 0.7004902 0.52843137
0.93627451 0.69656863 0.5254902
0.84313725 0.71102941 0.49313725
0.84770221 0.71642157 0.50085784
0.85189951 0.7158701 0.50232843
0.85588235 0.71412377 0.50098039
0.86703431 0.72745098 0.50919118
0.87990196 0.73293505 0.51620711
0.89901961 0.74215686 0.5245098
0.91813725 0.74304534 0.52843137
0.9372549 0.74240196 0.53259804
0.84411765 0.75637255 0.50833333
0.84705882 0.75747549 0.50539216
0.85098039 0.76127451 0.50134804
0.85551471 0.76162684 0.5006587
0.86323529 0.77352941 0.51323529
0.87682292 0.77745098 0.51747855
0.89901961 0.78483456 0.52015931
0.91813725 0.78884804 0.52107843
0.94166667 0.7939951 0.56862745
0.84803922 0.79509804 0.53235294
0.85098039 0.80392157 0.53272059
0.85196078 0.79607843 0.52058824
0.85551471 0.79754902 0.51813725
0.86323529 0.8254902 0.53480392
0.87990196 0.8317402 0.54019608
0.89803922 0.82034314 0.52352941
0.92205882 0.82401961 0.54754902
0.95392157 0.84411765 0.63039216
0.86715686 0.58137255 0.625
0.87058824 0.59613971 0.62107843
0.87095588 0.60490196 0.61715686
0.8745098 0.6122549 0.62745098
0.88063725 0.61642157 0.62892157
0.88805147 0.621875 0.63431373
0.89803922 0.62794118 0.64068627
0.91029412 0.63235294 0.62843137
0.92156863 0.63235294 0.62107843
0.87058824 0.61176471 0.625
0.87101716 0.60913756 0.625
0.87107843 0.61268382 0.62457108
0.875 0.6185432 0.62156863
0.88235294 0.62423407 0.625
0.89019608 0.63202359 0.62892157
0.89803922 0.63927696 0.63284314
0.91029412 0.63615962 0.62462469
0.92156863 0.63235294 0.61764706
0.8745098 0.63480392 0.62242647
0.87487745 0.63480392 0.62510723
0.875 0.63480392 0.6254902
0.87866115 0.63223039 0.62107843
0.88259804 0.6375 0.625
0.89033395 0.64888174 0.62507659
0.89880515 0.65554534 0.62613358
0.90981924 0.65098039 0.61470588
0.91470588 0.65490196 0.61764706
0.87843137 0.65833333 0.625
0.87843137 0.65833333 0.62369026
0.87892157 0.66176471 0.62107843
0.88235294 0.66176471 0.62107843
0.88627451 0.66568627 0.62132353
0.89331342 0.67359835 0.62892157
0.90196078 0.67745098 0.62507659
0.91029412 0.67794118 0.62156863
0.91372549 0.67794118 0.62156863
0.875 0.68504902 0.62107843
0.87671569 0.68308824 0.62135417
0.88020833 0.68829657 0.61807598
0.88498775 0.69264706 0.61764706
0.88848039 0.69669118 0.62230392
0.89430147 0.70441176 0.62892157
0.90196078 0.70833333 0.62990196
0.9174326 0.70833333 0.6330576
0.92132353 0.70441176 0.62892157
0.87107843 0.70784314 0.61194853
0.87107843 0.70075827 0.61350337
0.87473958 0.70382966 0.61367953
0.88026195 0.71832108 0.61746324
0.88848039 0.72352941 0.62156863
0.89460784 0.73137255 0.62237286
0.90330882 0.73541667 0.62904412
0.91813725 0.73180147 0.63333333
0.93069853 0.72254902 0.63284314
0.86323529 0.73872549 0.60098039
0.86548713 0.73480392 0.60560662
0.87037377 0.7379902 0.61372549
0.87473958 0.74264706 0.61372549
0.88284314 0.7504902 0.61764706
0.89033395 0.75441176 0.61764706
0.90272672 0.76323529 0.62509191
0.92156863 0.76977635 0.63198529
0.93676471 0.75919118 0.63762255
0.85882353 0.76617647 0.60588235
0.86231618 0.77352941 0.609375
0.86655944 0.77395833 0.60620404
0.87085631 0.77745098 0.60964308
0.87864583 0.78180147 0.61418505
0.88645833 0.78529412 0.62156863
0.90294118 0.79669118 0.61764706
0.91813725 0.80833333 0.62194393
0.9372549 0.80882353 0.65545343
0.85931373 0.8004902 0.6254902
0.8627451 0.81176471 0.62935049
0.86323529 0.79705882 0.61372549
0.86930147 0.80294118 0.61403186
0.87843137 0.82745098 0.63333333
0.89019608 0.83088235 0.63676471
0.90294118 0.82794118 0.63247549
0.92205882 0.83143382 0.63780637
0.94068627 0.84264706 0.67107843
0.88235294 0.64313725 0.71764706
0.88235294 0.64313725 0.69803922
0.88235294 0.64313725 0.69803922
0.88627451 0.6495098 0.70833333
0.89019608 0.65490196 0.71764706
0.89803922 0.6627451 0.72009804
0.90294118 0.6745098 0.72843137
0.91372549 0.68284314 0.72156863
0.91764706 0.69411765 0.72156863
0.88235294 0.6504902 0.71029412
0.88235294 0.65098039 0.71323529
0.88627451 0.65441176 0.70931373
0.88627451 0.65833333 0.70588235
0.89215686 0.6625 0.70980392
0.89803922 0.67058824 0.71421569
0.90196078 0.67794118 0.71372549
0.91372549 0.68976716 0.72156863
0.92156863 0.69754902 0.72892157
0.88627451 0.66568627 0.70196078
0.88627451 0.66960784 0.71372549
0.88848039 0.67352941 0.71764706
0.89019608 0.67352941 0.70980392
0.89411765 0.68186275 0.7245098
0.89803922 0.68529412 0.7122549
0.90294118 0.69730392 0.71960784
0.91372549 0.70625 0.72977941
0.91470588 0.70588235 0.72254902
0.88627451 0.69264706 0.70588235
0.89001225 0.69264706 0.70588235
0.89019608 0.69656863 0.71335784
0.89411765 0.7004902 0.71372549
0.89411765 0.70441176 0.70980392
0.8995098 0.70833333 0.71372549
0.90588235 0.71617647 0.71372549
0.91029412 0.72401961 0.72156863
0.91372549 0.72401961 0.71764706
0.89019608 0.72352941 0.71372549
0.89215686 0.72352941 0.71593137
0.89215686 0.72745098 0.71421569
0.89411765 0.72745098 0.70980392
0.89803922 0.73039216 0.71176471
0.90196078 0.73848039 0.72328431
0.90588235 0.73627451 0.70931373
0.91372549 0.74313725 0.72328431
0.91372549 0.74313725 0.71372549
0.89411765 0.74264706 0.72303922
0.88890931 0.74264706 0.70618873
0.88872549 0.74656863 0.70772059
0.89319853 0.74473039 0.69797794
0.89803922 0.75171569 0.71519608
0.90251225 0.75833333 0.71372549
0.90980392 0.76617647 0.71801471
0.91764706 0.76617647 0.71501225
0.9254902 0.77401961 0.73088235
0.88627451 0.76862745 0.71372549
0.88272059 0.76311275 0.70330882
0.88235294 0.76568627 0.70196078
0.88982843 0.77316176 0.71372549
0.8995098 0.77745098 0.72696078
0.90588235 0.78137255 0.7254902
0.9129902 0.78848039 0.71666667
0.92156863 0.8 0.73198529
0.92843137 0.79705882 0.7245098
0.87843137 0.8004902 0.71764706
0.87843137 0.8004902 0.71415441
0.87843137 0.79963235 0.71678922
0.88235294 0.8004902 0.72285539
0.89411765 0.80833333 0.7254902
0.90588235 0.80814951 0.73676471
0.91372549 0.81580882 0.72941176
0.92156863 0.82009804 0.72199755
0.9254902 0.81960784 0.70980392
0.8745098 0.83529412 0.73333333
0.87401961 0.82647059 0.71617647
0.8745098 0.82254902 0.70784314
0.87843137 0.83039216 0.72598039
0.89019608 0.8372549 0.73529412
0.90196078 0.82107843 0.72696078
0.91372549 0.84019608 0.74607843
0.92156863 0.84264706 0.73284314
0.92156863 0.83921569 0.71372549
