site/assets/luts/natron-haldclut--fuji-160c--db6b89e12.cube
# LUTr-Project: LUTr — LUTrepository
# LUTr-Schema-Version: 1
# LUTr-ID: natron-haldclut--fuji-160c--db6b89e12
# LUTr-Title: fuji 160c ++
# LUTr-Collection: Natron HaldCLUT
# LUTr-Collection-ID: natron-haldclut-presets
# LUTr-Source: https://github.com/NatronGitHub/clut
# LUTr-Source-File: submissions/natron-haldclut-presets/negative_new/fuji_160c_++.png
# LUTr-Source-Format: PNG
# LUTr-Source-SHA256: 750230a6bad7433148dc63d0c062d9409db9bd426d6d0d5f5608721ee28dfcff
# LUTr-License: CC-BY-SA-4.0
# LUTr-License-URL: https://github.com/NatronGitHub/clut#license
# LUTr-Tags: creative, film, film-emulation, hald-clut, natron, png, cube
# LUTr-Transform-Class: film-emulation
# LUTr-Input-Color-Space: srgb
# LUTr-Output-Color-Space: srgb
# LUTr-Color-Space-Confidence: assumed-display-referred
# LUTr-Conversion-Method: PNG LUT image decoded at 16-bit and sampled to 25x25x25 3D CUBE
# LUTr-Conversion-Date: 2026-07-27
# LUTr-Conversion-Tool: LUTr scripts/convert-all-to-cube.mjs
# LUTr-Conversion-Grid: 25x25x25
# LUTr-Note: Preserve this metadata and the upstream license notices when redistributing.
TITLE "fuji 160c ++"
LUT_3D_SIZE 5
DOMAIN_MIN 0 0 0
DOMAIN_MAX 1 1 1
0.062745098 0.070588235 0.054901961
0.22058824 0.067647059 0.040196078
0.53137255 0.021568627 0.039215686
0.81372549 0.023529412 0.031372549
0.96862745 0.21176471 0.043137255
0.0088235294 0.24411765 0.071568627
0.18627451 0.24411765 0.028431373
0.53137255 0.24656863 0.019607843
0.79534314 0.28333333 0.020343137
0.98039216 0.36176471 0.03627451
0 0.50392157 0.0058823529
0.0049019608 0.49411765 0.0024509804
0.47647059 0.50490196 0.01372549
0.7622549 0.5372549 0.014215686
0.94313725 0.55098039 0.0078431373
0 0.7245098 0.082352941
0.061764706 0.71666667 0.095098039
0.45 0.71323529 0.10735294
0.70588235 0.72058824 0.1
0.90392157 0.75196078 0.13529412
0.3372549 0.92941176 0.39215686
0.39411765 0.91764706 0.39117647
0.53137255 0.91372549 0.40980392
0.71666667 0.93333333 0.44803922
0.90588235 0.94509804 0.49411765
0.12156863 0.10098039 0.19607843
0.25 0.097058824 0.20392157
0.55784314 0.019117647 0.20490196
0.82083333 0.094117647 0.22843137
0.96568627 0.28235294 0.2627451
0.054901961 0.26397059 0.20784314
0.24589461 0.26666667 0.21862745
0.54852941 0.26666667 0.2064951
0.8033701 0.30257353 0.22818627
0.98039216 0.39240196 0.26176471
0.0049019608 0.53235294 0.23039216
0.16482843 0.51948529 0.22401961
0.51666667 0.52181373 0.21078431
0.76605392 0.52647059 0.19705882
0.94901961 0.55490196 0.21421569
0.0053921569 0.73235294 0.26544118
0.19264706 0.72395833 0.26783088
0.47352941 0.71666667 0.27892157
0.71194853 0.7245098 0.2682598
0.91838235 0.74803922 0.29411765
0.3372549 0.91078431 0.43823529
0.40367647 0.91862745 0.45220588
0.54117647 0.92598039 0.48088235
0.7127451 0.92009804 0.48848039
0.91176471 0.95490196 0.54509804
0.16078431 0.12745098 0.45490196
0.31078431 0.15098039 0.46813725
0.59117647 0.11470588 0.48529412
0.82843137 0.067156863 0.48431373
0.9745098 0.27843137 0.50784314
0.1254902 0.25392157 0.46813725
0.31372549 0.27916667 0.4817402
0.5872549 0.29558824 0.50196078
0.81102941 0.32193627 0.49803922
0.97843137 0.41617647 0.525
0.028431373 0.54705882 0.5127451
0.30269608 0.53504902 0.51053922
0.56911765 0.55392157 0.52598039
0.78137255 0.56887255 0.53235294
0.95490196 0.59411765 0.54509804
0.30490196 0.75343137 0.54215686
0.3995098 0.74411765 0.5375
0.53333333 0.73970588 0.5254902
0.72561275 0.73541667 0.51764706
0.92843137 0.74411765 0.51519608
0.37843137 0.93529412 0.59411765
0.44558824 0.92941176 0.6
0.55098039 0.91960784 0.59215686
0.71666667 0.93431373 0.61323529
0.9 0.93333333 0.63333333
0.35 0.18921569 0.71372549
0.44877451 0.19019608 0.71764706
0.64607843 0.22058824 0.73235294
0.82647059 0.28602941 0.74509804
0.97843137 0.33137255 0.73333333
0.34436275 0.3125 0.70882353
0.44448529 0.32254902 0.71666667
0.63921569 0.36433824 0.73480392
0.81605392 0.4151348 0.75196078
0.95171569 0.43039216 0.73627451
0.22941176 0.49754902 0.70343137
0.36666667 0.50588235 0.7127451
0.58946078 0.54068627 0.72843137
0.79117647 0.59693627 0.75588235
0.95294118 0.59803922 0.74411765
0.31862745 0.73921569 0.74338235
0.40784314 0.74283088 0.74117647
0.58713235 0.75551471 0.75551471
0.7713848 0.76446078 0.76691176
0.94191176 0.75906863 0.74803922
0.43529412 0.93333333 0.78235294
0.48921569 0.94436275 0.78651961
0.60588235 0.94019608 0.78333333
0.73529412 0.94142157 0.7754902
0.88431373 0.94215686 0.78235294
0.59215686 0.38431373 0.92941176
0.63039216 0.4 0.9254902
0.7372549 0.43921569 0.93921569
0.86078431 0.51078431 0.9254902
0.98823529 0.54117647 0.9372549
0.58431373 0.46470588 0.92941176
0.62034314 0.46642157 0.92794118
0.72009804 0.49313725 0.91960784
0.84901961 0.54607843 0.92279412
0.98235294 0.58627451 0.94019608
0.52156863 0.59215686 0.93333333
0.57598039 0.59460784 0.92843137
0.68921569 0.61568627 0.92941176
0.83186275 0.65196078 0.93333333
0.9627451 0.68235294 0.93921569
0.4127451 0.7372549 0.92647059
0.46176471 0.73406863 0.90465686
0.58431373 0.73284314 0.90735294
0.78161765 0.76372549 0.93823529
0.95588235 0.80196078 0.9245098
0.43529412 0.96078431 0.96470588
0.48039216 0.95392157 0.96176471
0.59215686 0.9372549 0.95098039
0.75588235 0.94313725 0.94803922
0.96078431 0.90588235 0.95686275
