site/assets/luts/natron-haldclut--fuji-fp-3000b-negative-early--699ea479b.cube
# LUTr-Project: LUTr — LUTrepository
# LUTr-Schema-Version: 1
# LUTr-ID: natron-haldclut--fuji-fp-3000b-negative-early--699ea479b
# LUTr-Title: fuji fp-3000b negative early
# LUTr-Collection: Natron HaldCLUT
# LUTr-Collection-ID: natron-haldclut-presets
# LUTr-Source: https://github.com/NatronGitHub/clut
# LUTr-Source-File: submissions/natron-haldclut-presets/instant_pro/fuji_fp-3000b_negative_early.png
# LUTr-Source-Format: PNG
# LUTr-Source-SHA256: 741e18d86c101135dee5f099728a4827446635bfcdbf64e0df2eead034f3af7d
# LUTr-License: CC-BY-SA-4.0
# LUTr-License-URL: https://github.com/NatronGitHub/clut#license
# LUTr-Tags: creative, film, film-emulation, hald-clut, natron, png, cube
# LUTr-Transform-Class: film-emulation
# LUTr-Input-Color-Space: srgb
# LUTr-Output-Color-Space: srgb
# LUTr-Color-Space-Confidence: assumed-display-referred
# LUTr-Conversion-Method: PNG LUT image decoded at 16-bit and sampled to 25x25x25 3D CUBE
# LUTr-Conversion-Date: 2026-07-27
# LUTr-Conversion-Tool: LUTr scripts/convert-all-to-cube.mjs
# LUTr-Conversion-Grid: 25x25x25
# LUTr-Note: Preserve this metadata and the upstream license notices when redistributing.
TITLE "fuji fp-3000b negative early"
LUT_3D_SIZE 25
DOMAIN_MIN 0 0 0
DOMAIN_MAX 1 1 1
0.17647059 0.17647059 0.17647059
0.18039216 0.18039216 0.18039216
0.17647059 0.17647059 0.17647059
0.17647059 0.17647059 0.17647059
0.17647059 0.17647059 0.17647059
0.17647059 0.17647059 0.17647059
0.17647059 0.17647059 0.17647059
0.17647059 0.17647059 0.17647059
0.17647059 0.17647059 0.17647059
0.175 0.175 0.175
0.1872549 0.1872549 0.1872549
0.21470588 0.21470588 0.21470588
0.23921569 0.23921569 0.23921569
0.25980392 0.25980392 0.25980392
0.28333333 0.28333333 0.28333333
0.31960784 0.31960784 0.31960784
0.36078431 0.36078431 0.36078431
0.40588235 0.40588235 0.40588235
0.45098039 0.45098039 0.45098039
0.49558824 0.49558824 0.49558824
0.5372549 0.5372549 0.5372549
0.5745098 0.5745098 0.5745098
0.61176471 0.61176471 0.61176471
0.64362745 0.64362745 0.64362745
0.66666667 0.66666667 0.66666667
0.17647059 0.17647059 0.17647059
0.18039216 0.18039216 0.18039216
0.17647059 0.17647059 0.17647059
0.17647059 0.17647059 0.17647059
0.17647059 0.17647059 0.17647059
0.17647059 0.17647059 0.17647059
0.17647059 0.17647059 0.17647059
0.17647059 0.17647059 0.17647059
0.17254902 0.17254902 0.17254902
0.17254902 0.17254902 0.17254902
0.1872549 0.1872549 0.1872549
0.21421569 0.21421569 0.21421569
0.23921569 0.23921569 0.23921569
0.25980392 0.25980392 0.25980392
0.28333333 0.28333333 0.28333333
0.32297794 0.32297794 0.32297794
0.36470588 0.36470588 0.36470588
0.40588235 0.40588235 0.40588235
0.44803922 0.44803922 0.44803922
0.49215686 0.49215686 0.49215686
0.5372549 0.5372549 0.5372549
0.5745098 0.5745098 0.5745098
0.6127451 0.6127451 0.6127451
0.64699755 0.64699755 0.64699755
0.67058824 0.67058824 0.67058824
0.17647059 0.17647059 0.17647059
0.17647059 0.17647059 0.17647059
0.17647059 0.17647059 0.17647059
0.17647059 0.17647059 0.17647059
0.17647059 0.17647059 0.17647059
0.17647059 0.17647059 0.17647059
0.17647059 0.17647059 0.17647059
0.17647059 0.17647059 0.17647059
0.17647059 0.17647059 0.17647059
0.17708333 0.17708333 0.17708333
0.19289216 0.19289216 0.19289216
0.2192402 0.2192402 0.2192402
0.24411765 0.24411765 0.24411765
0.26433824 0.26433824 0.26433824
0.2875 0.2875 0.2875
0.32634804 0.32634804 0.32634804
0.36568627 0.36568627 0.36568627
0.40686275 0.40686275 0.40686275
0.45098039 0.45098039 0.45098039
0.49215686 0.49215686 0.49215686
0.53382353 0.53382353 0.53382353
0.5745098 0.5745098 0.5745098
0.6127451 0.6127451 0.6127451
0.64754902 0.64754902 0.64754902
0.67058824 0.67058824 0.67058824
0.17647059 0.17647059 0.17647059
0.17647059 0.17647059 0.17647059
0.17647059 0.17647059 0.17647059
0.17647059 0.17647059 0.17647059
0.18014706 0.18014706 0.18014706
0.18039216 0.18039216 0.18039216
0.18039216 0.18039216 0.18039216
0.18039216 0.18039216 0.18039216
0.18039216 0.18039216 0.18039216
0.18841912 0.18841912 0.18841912
0.20894608 0.20894608 0.20894608
0.23376225 0.23376225 0.23376225
0.25808824 0.25808824 0.25808824
0.27843137 0.27843137 0.27843137
0.30588235 0.30588235 0.30588235
0.33694853 0.33694853 0.33694853
0.37205882 0.37205882 0.37205882
0.41323529 0.41323529 0.41323529
0.45441176 0.45441176 0.45441176
0.49601716 0.49601716 0.49601716
0.5372549 0.5372549 0.5372549
0.57794118 0.57794118 0.57794118
0.61568627 0.61568627 0.61568627
0.65098039 0.65098039 0.65098039
0.6745098 0.6745098 0.6745098
0.17647059 0.17647059 0.17647059
0.17647059 0.17647059 0.17647059
0.18039216 0.18039216 0.18039216
0.18039216 0.18039216 0.18039216
0.18039216 0.18039216 0.18039216
0.18235294 0.18235294 0.18235294
0.18431373 0.18431373 0.18431373
0.18431373 0.18431373 0.18431373
0.18823529 0.18823529 0.18823529
0.20294118 0.20294118 0.20294118
0.22401961 0.22401961 0.22401961
0.24803922 0.24803922 0.24803922
0.27254902 0.27254902 0.27254902
0.29558824 0.29558824 0.29558824
0.32647059 0.32647059 0.32647059
0.35735294 0.35735294 0.35735294
0.38823529 0.38823529 0.38823529
0.42426471 0.42426471 0.42426471
0.46078431 0.46078431 0.46078431
0.50196078 0.50196078 0.50196078
0.54215686 0.54215686 0.54215686
0.58210784 0.58210784 0.58210784
0.61813725 0.61813725 0.61813725
0.65147059 0.65147059 0.65147059
0.67647059 0.67647059 0.67647059
0.17647059 0.17647059 0.17647059
0.17892157 0.17892157 0.17892157
0.18051471 0.18051471 0.18051471
0.18474265 0.18474265 0.18474265
0.18480392 0.18480392 0.18480392
0.18431373 0.18431373 0.18431373
0.18431373 0.18431373 0.18431373
0.18609069 0.18609069 0.18609069
0.19607843 0.19607843 0.19607843
0.21323529 0.21323529 0.21323529
0.23786765 0.23786765 0.23786765
0.26268382 0.26268382 0.26268382
0.2870098 0.2870098 0.2870098
0.31617647 0.31617647 0.31617647
0.3439951 0.3439951 0.3439951
0.3776348 0.3776348 0.3776348
0.40882353 0.40882353 0.40882353
0.43970588 0.43970588 0.43970588
0.47536765 0.47536765 0.47536765
0.51231618 0.51231618 0.51231618
0.5495098 0.5495098 0.5495098
0.58670343 0.58670343 0.58670343
0.62365196 0.62365196 0.62365196
0.65588235 0.65588235 0.65588235
0.68235294 0.68235294 0.68235294
0.17647059 0.17647059 0.17647059
0.17892157 0.17892157 0.17892157
0.18431373 0.18431373 0.18431373
0.19080882 0.19080882 0.19080882
0.19166667 0.19166667 0.19166667
0.18823529 0.18823529 0.18823529
0.1875 0.1875 0.1875
0.18823529 0.18823529 0.18823529
0.19901961 0.19901961 0.19901961
0.22598039 0.22598039 0.22598039
0.25196078 0.25196078 0.25196078
0.27634804 0.27634804 0.27634804
0.30588235 0.30588235 0.30588235
0.33370098 0.33370098 0.33370098
0.36372549 0.36372549 0.36372549
0.39607843 0.39607843 0.39607843
0.42941176 0.42941176 0.42941176
0.46029412 0.46029412 0.46029412
0.49509804 0.49509804 0.49509804
0.52683824 0.52683824 0.52683824
0.56127451 0.56127451 0.56127451
0.59656863 0.59656863 0.59656863
0.63137255 0.63137255 0.63137255
0.66617647 0.66617647 0.66617647
0.68921569 0.68921569 0.68921569
0.17647059 0.17647059 0.17647059
0.18131127 0.18131127 0.18131127
0.19031863 0.19031863 0.19031863
0.19705882 0.19705882 0.19705882
0.20147059 0.20147059 0.20147059
0.19754902 0.19754902 0.19754902
0.19460784 0.19460784 0.19460784
0.19172794 0.19172794 0.19172794
0.21323529 0.21323529 0.21323529
0.24074755 0.24074755 0.24074755
0.26654412 0.26654412 0.26654412
0.29411765 0.29411765 0.29411765
0.32254902 0.32254902 0.32254902
0.35343137 0.35343137 0.35343137
0.38431373 0.38431373 0.38431373
0.41666667 0.41666667 0.41666667
0.45 0.45 0.45
0.48088235 0.48088235 0.48088235
0.51384804 0.51384804 0.51384804
0.54656863 0.54656863 0.54656863
0.57745098 0.57745098 0.57745098
0.61078431 0.61078431 0.61078431
0.64166667 0.64166667 0.64166667
0.67254902 0.67254902 0.67254902
0.6995098 0.6995098 0.6995098
0.19215686 0.19215686 0.19215686
0.19460784 0.19460784 0.19460784
0.20098039 0.20098039 0.20098039
0.20735294 0.20735294 0.20735294
0.20980392 0.20980392 0.20980392
0.20784314 0.20784314 0.20784314
0.20784314 0.20784314 0.20784314
0.21862745 0.21862745 0.21862745
0.23529412 0.23529412 0.23529412
0.25588235 0.25588235 0.25588235
0.28137255 0.28137255 0.28137255
0.3122549 0.3122549 0.3122549
0.34313725 0.34313725 0.34313725
0.37401961 0.37401961 0.37401961
0.40490196 0.40490196 0.40490196
0.4372549 0.4372549 0.4372549
0.47058824 0.47058824 0.47058824
0.50147059 0.50147059 0.50147059
0.53627451 0.53627451 0.53627451
0.56715686 0.56715686 0.56715686
0.59803922 0.59803922 0.59803922
0.62892157 0.62892157 0.62892157
0.65980392 0.65980392 0.65980392
0.68676471 0.68676471 0.68676471
0.70980392 0.70980392 0.70980392
0.22941176 0.22941176 0.22941176
0.22604167 0.22604167 0.22604167
0.2252451 0.2252451 0.2252451
0.22107843 0.22107843 0.22107843
0.21813725 0.21813725 0.21813725
0.21844363 0.21844363 0.21844363
0.22928922 0.22928922 0.22928922
0.24803922 0.24803922 0.24803922
0.2622549 0.2622549 0.2622549
0.27892157 0.27892157 0.27892157
0.30441176 0.30441176 0.30441176
0.33529412 0.33529412 0.33529412
0.36691176 0.36691176 0.36691176
0.39834559 0.39834559 0.39834559
0.42610294 0.42610294 0.42610294
0.459375 0.459375 0.459375
0.49117647 0.49117647 0.49117647
0.52359069 0.52359069 0.52359069
0.55686275 0.55686275 0.55686275
0.5877451 0.5877451 0.5877451
0.61862745 0.61862745 0.61862745
0.6495098 0.6495098 0.6495098
0.67683824 0.67683824 0.67683824
0.70104167 0.70104167 0.70104167
0.71617647 0.71617647 0.71617647
0.27058824 0.27058824 0.27058824
0.26421569 0.26421569 0.26421569
0.25784314 0.25784314 0.25784314
0.24754902 0.24754902 0.24754902
0.2372549 0.2372549 0.2372549
0.23921569 0.23921569 0.23921569
0.25612745 0.25612745 0.25612745
0.27647059 0.27647059 0.27647059
0.29313725 0.29313725 0.29313725
0.31188725 0.31188725 0.31188725
0.33431373 0.33431373 0.33431373
0.36139706 0.36139706 0.36139706
0.38823529 0.38823529 0.38823529
0.41911765 0.41911765 0.41911765
0.45 0.45 0.45
0.48088235 0.48088235 0.48088235
0.51176471 0.51176471 0.51176471
0.54656863 0.54656863 0.54656863
0.57745098 0.57745098 0.57745098
0.60833333 0.60833333 0.60833333
0.63921569 0.63921569 0.63921569
0.66875 0.66875 0.66875
0.69313725 0.69313725 0.69313725
0.7122549 0.7122549 0.7122549
0.72254902 0.72254902 0.72254902
0.30784314 0.30784314 0.30784314
0.30539216 0.30539216 0.30539216
0.29509804 0.29509804 0.29509804
0.28829657 0.28829657 0.28829657
0.27843137 0.27843137 0.27843137
0.27653186 0.27653186 0.27653186
0.2877451 0.2877451 0.2877451
0.30735294 0.30735294 0.30735294
0.32401961 0.32401961 0.32401961
0.34460784 0.34460784 0.34460784
0.36875 0.36875 0.36875
0.38970588 0.38970588 0.38970588
0.41446078 0.41446078 0.41446078
0.44270833 0.44270833 0.44270833
0.47058824 0.47058824 0.47058824
0.50275735 0.50275735 0.50275735
0.53627451 0.53627451 0.53627451
0.56715686 0.56715686 0.56715686
0.60159314 0.60159314 0.60159314
0.62941176 0.62941176 0.62941176
0.65808824 0.65808824 0.65808824
0.68284314 0.68284314 0.68284314
0.70343137 0.70343137 0.70343137
0.72009804 0.72009804 0.72009804
0.73284314 0.73284314 0.73284314
0.34901961 0.34901961 0.34901961
0.34264706 0.34264706 0.34264706
0.33676471 0.33676471 0.33676471
0.32990196 0.32990196 0.32990196
0.32352941 0.32352941 0.32352941
0.31544118 0.31544118 0.31544118
0.31764706 0.31764706 0.31764706
0.33823529 0.33823529 0.33823529
0.35882353 0.35882353 0.35882353
0.37941176 0.37941176 0.37941176
0.4 0.4 0.4
0.42230392 0.42230392 0.42230392
0.44509804 0.44509804 0.44509804
0.46593137 0.46593137 0.46593137
0.49509804 0.49509804 0.49509804
0.52598039 0.52598039 0.52598039
0.55686275 0.55686275 0.55686275
0.5877451 0.5877451 0.5877451
0.62254902 0.62254902 0.62254902
0.6497549 0.6497549 0.6497549
0.67254902 0.67254902 0.67254902
0.69313725 0.69313725 0.69313725
0.71029412 0.71029412 0.71029412
0.72892157 0.72892157 0.72892157
0.73921569 0.73921569 0.73921569
0.38627451 0.38627451 0.38627451
0.38627451 0.38627451 0.38627451
0.38541667 0.38541667 0.38541667
0.37935049 0.37935049 0.37935049
0.37328431 0.37328431 0.37328431
0.36666667 0.36666667 0.36666667
0.36237745 0.36237745 0.36237745
0.37383578 0.37383578 0.37383578
0.39411765 0.39411765 0.39411765
0.41207108 0.41207108 0.41207108
0.43088235 0.43088235 0.43088235
0.45147059 0.45147059 0.45147059
0.47573529 0.47573529 0.47573529
0.49656863 0.49656863 0.49656863
0.52009804 0.52009804 0.52009804
0.54705882 0.54705882 0.54705882
0.57745098 0.57745098 0.57745098
0.60863971 0.60863971 0.60863971
0.63909314 0.63909314 0.63909314
0.6627451 0.6627451 0.6627451
0.68284314 0.68284314 0.68284314
0.70294118 0.70294118 0.70294118
0.72009804 0.72009804 0.72009804
0.73529412 0.73529412 0.73529412
0.74558824 0.74558824 0.74558824
0.42745098 0.42745098 0.42745098
0.42745098 0.42745098 0.42745098
0.42745098 0.42745098 0.42745098
0.42745098 0.42745098 0.42745098
0.42696078 0.42696078 0.42696078
0.42205882 0.42205882 0.42205882
0.41176471 0.41176471 0.41176471
0.42046569 0.42046569 0.42046569
0.43529412 0.43529412 0.43529412
0.4495098 0.4495098 0.4495098
0.46568627 0.46568627 0.46568627
0.48272059 0.48272059 0.48272059
0.50490196 0.50490196 0.50490196
0.52745098 0.52745098 0.52745098
0.55098039 0.55098039 0.55098039
0.57647059 0.57647059 0.57647059
0.60196078 0.60196078 0.60196078
0.63284314 0.63284314 0.63284314
0.65588235 0.65588235 0.65588235
0.67647059 0.67647059 0.67647059
0.69509804 0.69509804 0.69509804
0.71323529 0.71323529 0.71323529
0.73039216 0.73039216 0.73039216
0.74558824 0.74558824 0.74558824
0.75588235 0.75588235 0.75588235
0.47401961 0.47401961 0.47401961
0.47401961 0.47401961 0.47401961
0.47401961 0.47401961 0.47401961
0.47401961 0.47401961 0.47401961
0.47401961 0.47401961 0.47401961
0.47205882 0.47205882 0.47205882
0.46323529 0.46323529 0.46323529
0.46617647 0.46617647 0.46617647
0.48039216 0.48039216 0.48039216
0.49068627 0.49068627 0.49068627
0.50490196 0.50490196 0.50490196
0.51764706 0.51764706 0.51764706
0.53504902 0.53504902 0.53504902
0.55833333 0.55833333 0.55833333
0.5807598 0.5807598 0.5807598
0.60435049 0.60435049 0.60435049
0.63039216 0.63039216 0.63039216
0.65098039 0.65098039 0.65098039
0.67120098 0.67120098 0.67120098
0.69068627 0.69068627 0.69068627
0.70735294 0.70735294 0.70735294
0.72352941 0.72352941 0.72352941
0.7377451 0.7377451 0.7377451
0.75343137 0.75343137 0.75343137
0.76470588 0.76470588 0.76470588
0.5254902 0.5254902 0.5254902
0.5254902 0.5254902 0.5254902
0.5254902 0.5254902 0.5254902
0.5254902 0.5254902 0.5254902
0.52156863 0.52156863 0.52156863
0.51715686 0.51715686 0.51715686
0.51078431 0.51078431 0.51078431
0.51127451 0.51127451 0.51127451
0.52156863 0.52156863 0.52156863
0.53186275 0.53186275 0.53186275
0.54215686 0.54215686 0.54215686
0.55245098 0.55245098 0.55245098
0.56470588 0.56470588 0.56470588
0.58529412 0.58529412 0.58529412
0.60588235 0.60588235 0.60588235
0.63039216 0.63039216 0.63039216
0.65098039 0.65098039 0.65098039
0.66911765 0.66911765 0.66911765
0.6872549 0.6872549 0.6872549
0.70147059 0.70147059 0.70147059
0.71960784 0.71960784 0.71960784
0.73382353 0.73382353 0.73382353
0.74803922 0.74803922 0.74803922
0.7622549 0.7622549 0.7622549
0.77254902 0.77254902 0.77254902
0.57303922 0.57303922 0.57303922
0.57604167 0.57604167 0.57604167
0.57696078 0.57696078 0.57696078
0.57352941 0.57352941 0.57352941
0.56789216 0.56789216 0.56789216
0.56256127 0.56256127 0.56256127
0.55772059 0.55772059 0.55772059
0.55545343 0.55545343 0.55545343
0.56029412 0.56029412 0.56029412
0.56911765 0.56911765 0.56911765
0.57696078 0.57696078 0.57696078
0.5872549 0.5872549 0.5872549
0.59754902 0.59754902 0.59754902
0.61354167 0.61354167 0.61354167
0.63394608 0.63394608 0.63394608
0.65490196 0.65490196 0.65490196
0.67156863 0.67156863 0.67156863
0.68578431 0.68578431 0.68578431
0.70098039 0.70098039 0.70098039
0.71568627 0.71568627 0.71568627
0.73112745 0.73112745 0.73112745
0.74460784 0.74460784 0.74460784
0.75833333 0.75833333 0.75833333
0.77254902 0.77254902 0.77254902
0.78284314 0.78284314 0.78284314
0.62352941 0.62352941 0.62352941
0.62414216 0.62414216 0.62414216
0.6252451 0.6252451 0.6252451
0.6245098 0.6245098 0.6245098
0.61764706 0.61764706 0.61764706
0.60870098 0.60870098 0.60870098
0.60416667 0.60416667 0.60416667
0.6 0.6 0.6
0.60098039 0.60098039 0.60098039
0.60637255 0.60637255 0.60637255
0.6125 0.6125 0.6125
0.62205882 0.62205882 0.62205882
0.62843137 0.62843137 0.62843137
0.64313725 0.64313725 0.64313725
0.6627451 0.6627451 0.6627451
0.67830882 0.67830882 0.67830882
0.69215686 0.69215686 0.69215686
0.70428922 0.70428922 0.70428922
0.71740196 0.71740196 0.71740196
0.73088235 0.73088235 0.73088235
0.74411765 0.74411765 0.74411765
0.75833333 0.75833333 0.75833333
0.76862745 0.76862745 0.76862745
0.78284314 0.78284314 0.78284314
0.78921569 0.78921569 0.78921569
0.66127451 0.66127451 0.66127451
0.66501225 0.66501225 0.66501225
0.66617647 0.66617647 0.66617647
0.665625 0.665625 0.665625
0.66078431 0.66078431 0.66078431
0.65594363 0.65594363 0.65594363
0.64987745 0.64987745 0.64987745
0.64852941 0.64852941 0.64852941
0.64852941 0.64852941 0.64852941
0.64883578 0.64883578 0.64883578
0.65294118 0.65294118 0.65294118
0.65643382 0.65643382 0.65643382
0.66102941 0.66102941 0.66102941
0.67052696 0.67052696 0.67052696
0.68811275 0.68811275 0.68811275
0.70245098 0.70245098 0.70245098
0.7127451 0.7127451 0.7127451
0.72175245 0.72175245 0.72175245
0.73468137 0.73468137 0.73468137
0.74754902 0.74754902 0.74754902
0.75833333 0.75833333 0.75833333
0.76905637 0.76905637 0.76905637
0.78272059 0.78272059 0.78272059
0.79185049 0.79185049 0.79185049
0.79607843 0.79607843 0.79607843
0.69215686 0.69215686 0.69215686
0.69338235 0.69338235 0.69338235
0.69607843 0.69607843 0.69607843
0.69607843 0.69607843 0.69607843
0.69215686 0.69215686 0.69215686
0.69215686 0.69215686 0.69215686
0.69166667 0.69166667 0.69166667
0.69142157 0.69142157 0.69142157
0.69019608 0.69019608 0.69019608
0.69019608 0.69019608 0.69019608
0.69215686 0.69215686 0.69215686
0.69215686 0.69215686 0.69215686
0.69215686 0.69215686 0.69215686
0.7004902 0.7004902 0.7004902
0.71421569 0.71421569 0.71421569
0.72696078 0.72696078 0.72696078
0.72941176 0.72941176 0.72941176
0.73970588 0.73970588 0.73970588
0.75196078 0.75196078 0.75196078
0.76421569 0.76421569 0.76421569
0.77254902 0.77254902 0.77254902
0.78284314 0.78284314 0.78284314
0.79313725 0.79313725 0.79313725
0.7995098 0.7995098 0.7995098
0.80196078 0.80196078 0.80196078
0.72254902 0.72254902 0.72254902
0.72254902 0.72254902 0.72254902
0.72303922 0.72303922 0.72303922
0.72303922 0.72303922 0.72303922
0.72279412 0.72279412 0.72279412
0.71911765 0.71911765 0.71911765
0.71911765 0.71911765 0.71911765
0.71862745 0.71862745 0.71862745
0.72254902 0.72254902 0.72254902
0.72303922 0.72303922 0.72303922
0.72303922 0.72303922 0.72303922
0.72303922 0.72303922 0.72303922
0.72303922 0.72303922 0.72303922
0.72738971 0.72738971 0.72738971
0.7377451 0.7377451 0.7377451
0.74754902 0.74754902 0.74754902
0.7495098 0.7495098 0.7495098
0.75637255 0.75637255 0.75637255
0.77009804 0.77009804 0.77009804
0.78039216 0.78039216 0.78039216
0.7870098 0.7870098 0.7870098
0.79705882 0.79705882 0.79705882
0.80441176 0.80441176 0.80441176
0.80833333 0.80833333 0.80833333
0.80833333 0.80833333 0.80833333
0.75 0.75 0.75
0.75 0.75 0.75
0.75 0.75 0.75
0.75098039 0.75098039 0.75098039
0.75 0.75 0.75
0.75 0.75 0.75
0.74632353 0.74632353 0.74632353
0.74497549 0.74497549 0.74497549
0.74313725 0.74313725 0.74313725
0.74889706 0.74889706 0.74889706
0.75171569 0.75171569 0.75171569
0.75392157 0.75392157 0.75392157
0.75392157 0.75392157 0.75392157
0.75441176 0.75441176 0.75441176
0.76470588 0.76470588 0.76470588
0.76666667 0.76666667 0.76666667
0.76666667 0.76666667 0.76666667
0.77303922 0.77303922 0.77303922
0.78504902 0.78504902 0.78504902
0.79754902 0.79754902 0.79754902
0.80098039 0.80098039 0.80098039
0.80992647 0.80992647 0.80992647
0.81470588 0.81470588 0.81470588
0.81862745 0.81862745 0.81862745
0.81862745 0.81862745 0.81862745
0.7754902 0.7754902 0.7754902
0.7754902 0.7754902 0.7754902
0.77696078 0.77696078 0.77696078
0.77941176 0.77941176 0.77941176
0.78014706 0.78014706 0.78014706
0.77696078 0.77696078 0.77696078
0.7754902 0.7754902 0.7754902
0.77156863 0.77156863 0.77156863
0.76911765 0.76911765 0.76911765
0.77064951 0.77064951 0.77064951
0.7754902 0.7754902 0.7754902
0.77892157 0.77892157 0.77892157
0.78210784 0.78210784 0.78210784
0.78351716 0.78351716 0.78351716
0.78664216 0.78664216 0.78664216
0.78578431 0.78578431 0.78578431
0.78333333 0.78333333 0.78333333
0.78970588 0.78970588 0.78970588
0.80281863 0.80281863 0.80281863
0.81292892 0.81292892 0.81292892
0.81323529 0.81323529 0.81323529
0.82156863 0.82156863 0.82156863
0.825 0.825 0.825
0.825 0.825 0.825
0.825 0.825 0.825
0.79607843 0.79607843 0.79607843
0.79607843 0.79607843 0.79607843
0.79705882 0.79705882 0.79705882
0.8 0.8 0.8
0.80588235 0.80588235 0.80588235
0.8 0.8 0.8
0.79607843 0.79607843 0.79607843
0.79215686 0.79215686 0.79215686
0.79215686 0.79215686 0.79215686
0.79215686 0.79215686 0.79215686
0.79215686 0.79215686 0.79215686
0.79607843 0.79607843 0.79607843
0.8 0.8 0.8
0.80441176 0.80441176 0.80441176
0.80784314 0.80784314 0.80784314
0.79852941 0.79852941 0.79852941
0.79607843 0.79607843 0.79607843
0.80245098 0.80245098 0.80245098
0.81666667 0.81666667 0.81666667
0.82401961 0.82401961 0.82401961
0.82156863 0.82156863 0.82156863
0.83529412 0.83529412 0.83529412
0.83235294 0.83235294 0.83235294
0.83137255 0.83137255 0.83137255
0.83137255 0.83137255 0.83137255
0.17647059 0.17647059 0.17647059
0.18039216 0.18039216 0.18039216
0.17830882 0.17830882 0.17830882
0.17647059 0.17647059 0.17647059
0.17892157 0.17892157 0.17892157
0.17892157 0.17892157 0.17892157
0.17892157 0.17892157 0.17892157
0.17892157 0.17892157 0.17892157
0.17892157 0.17892157 0.17892157
0.18137255 0.18137255 0.18137255
0.19656863 0.19656863 0.19656863
0.22058824 0.22058824 0.22058824
0.24436275 0.24436275 0.24436275
0.26617647 0.26617647 0.26617647
0.28970588 0.28970588 0.28970588
0.32745098 0.32745098 0.32745098
0.37107843 0.37107843 0.37107843
0.41470588 0.41470588 0.41470588
0.45735294 0.45735294 0.45735294
0.5 0.5 0.5
0.53921569 0.53921569 0.53921569
0.5745098 0.5745098 0.5745098
0.6127451 0.6127451 0.6127451
0.64699755 0.64699755 0.64699755
0.67058824 0.67058824 0.67058824
0.17647059 0.17647059 0.17647059
0.18004749 0.18004749 0.18004749
0.17647059 0.17647059 0.17647059
0.17647059 0.17647059 0.17647059
0.17647059 0.17647059 0.17647059
0.17647059 0.17647059 0.17647059
0.17647059 0.17647059 0.17647059
0.17647059 0.17647059 0.17647059
0.17647059 0.17647059 0.17647059
0.17984069 0.17984069 0.17984069
0.19362745 0.19362745 0.19362745
0.22058824 0.22058824 0.22058824
0.24436275 0.24436275 0.24436275
0.26617647 0.26617647 0.26617647
0.2932598 0.2932598 0.2932598
0.32990196 0.32990196 0.32990196
0.37107843 0.37107843 0.37107843
0.41259957 0.41259957 0.41259957
0.45735294 0.45735294 0.45735294
0.49852941 0.49852941 0.49852941
0.53771446 0.53771446 0.53771446
0.5745098 0.5745098 0.5745098
0.6127451 0.6127451 0.6127451
0.64754902 0.64754902 0.64754902
0.67058824 0.67058824 0.67058824
0.17647059 0.17647059 0.17647059
0.17647059 0.17647059 0.17647059
0.17647059 0.17647059 0.17647059
0.17647059 0.17647059 0.17647059
0.17647059 0.17647059 0.17647059
0.17647059 0.17647059 0.17647059
0.17693015 0.17693015 0.17693015
0.17905944 0.17905944 0.17905944
0.17928922 0.17928922 0.17928922
0.18276654 0.18276654 0.18276654
0.19764093 0.19764093 0.19764093
0.22303922 0.22303922 0.22303922
0.24595588 0.24595588 0.24595588
0.26764706 0.26764706 0.26764706
0.29852941 0.29852941 0.29852941
0.33466605 0.33466605 0.33466605
0.375 0.375 0.375
0.41433824 0.41433824 0.41433824
0.45597426 0.45597426 0.45597426
0.49852941 0.49852941 0.49852941
0.5372549 0.5372549 0.5372549
0.5745098 0.5745098 0.5745098
0.61458333 0.61458333 0.61458333
0.64816176 0.64816176 0.64816176
0.67340686 0.67340686 0.67340686
0.17647059 0.17647059 0.17647059
0.17647059 0.17647059 0.17647059
0.17647059 0.17647059 0.17647059
0.17647059 0.17647059 0.17647059
0.17647059 0.17647059 0.17647059
0.18012408 0.18012408 0.18012408
