site/assets/luts/natron-haldclut--faded-alt--9fb87e177.cube
# LUTr-Project: LUTr — LUTrepository
# LUTr-Schema-Version: 1
# LUTr-ID: natron-haldclut--faded-alt--9fb87e177
# LUTr-Title: faded alt
# LUTr-Collection: Natron HaldCLUT
# LUTr-Collection-ID: natron-haldclut-presets
# LUTr-Source: https://github.com/NatronGitHub/clut
# LUTr-Source-File: submissions/natron-haldclut-presets/various/faded_alt.png
# LUTr-Source-Format: PNG
# LUTr-Source-SHA256: 1122e5f99de53e383388aa26f8e77e103a8f0224c3b38932ac20af9dc020a897
# LUTr-License: CC-BY-SA-4.0
# LUTr-License-URL: https://github.com/NatronGitHub/clut#license
# LUTr-Tags: creative, film, film-emulation, hald-clut, natron, png, vintage, cube
# LUTr-Transform-Class: film-emulation
# LUTr-Input-Color-Space: srgb
# LUTr-Output-Color-Space: srgb
# LUTr-Color-Space-Confidence: assumed-display-referred
# LUTr-Conversion-Method: PNG LUT image decoded at 16-bit and sampled to 25x25x25 3D CUBE
# LUTr-Conversion-Date: 2026-07-27
# LUTr-Conversion-Tool: LUTr scripts/convert-all-to-cube.mjs
# LUTr-Conversion-Grid: 25x25x25
# LUTr-Note: Preserve this metadata and the upstream license notices when redistributing.
TITLE "faded alt"
LUT_3D_SIZE 9
DOMAIN_MIN 0 0 0
DOMAIN_MAX 1 1 1
0.058823529 0.039215686 0.039215686
0.065196078 0.038235294 0.042156863
0.12058824 0.067647059 0.071568627
0.16960784 0.080882353 0.092647059
0.2254902 0.10588235 0.11960784
0.26029412 0.10833333 0.1254902
0.3 0.11470588 0.13823529
0.35392157 0.14166667 0.16911765
0.38431373 0.1372549 0.17254902
0.13970588 0.14705882 0.12009804
0.15882353 0.15441176 0.13137255
0.20931373 0.1745098 0.15539216
0.24803922 0.17843137 0.16568627
0.29656863 0.19240196 0.18504902
0.34295343 0.20422794 0.2004902
0.39656863 0.23039216 0.23088235
0.45 0.25686275 0.26519608
0.47696078 0.25735294 0.26519608
0.2245098 0.26372549 0.20882353
0.25539216 0.27144608 0.22022059
0.30098039 0.28553922 0.2370098
0.34313725 0.29473039 0.25257353
0.38921569 0.30980392 0.27352941
0.4377451 0.32365196 0.29264706
0.49142157 0.34607843 0.31960784
0.53529412 0.36213235 0.33835784
0.56568627 0.36960784 0.34705882
0.30147059 0.37058824 0.28578431
0.34411765 0.38235294 0.30275735
0.38786765 0.3935049 0.3182598
0.43333333 0.40833333 0.33921569
0.48063725 0.42426471 0.35906863
0.52794118 0.43964461 0.38137255
0.58639706 0.46960784 0.41678922
0.63186275 0.48431373 0.43351716
0.65833333 0.49215686 0.44264706
0.39411765 0.48431373 0.36470588
0.42892157 0.49019608 0.37990196
0.4745098 0.50343137 0.40098039
0.5245098 0.52009804 0.42401961
0.57352941 0.53627451 0.44411765
0.6245098 0.55441176 0.46764706
0.68431373 0.58921569 0.50980392
0.73602941 0.6122549 0.5375
0.75882353 0.62156863 0.54509804
0.48039216 0.59411765 0.44509804
0.52285539 0.60931373 0.46666667
0.56813725 0.62156863 0.48970588
0.61770833 0.63578431 0.50974265
0.67107843 0.66127451 0.54215686
0.72015931 0.67401961 0.5627451
0.77892157 0.70551471 0.60147059
0.83676471 0.73578431 0.63235294
0.86715686 0.74705882 0.64362745
0.59607843 0.72156863 0.55196078
0.62598039 0.72941176 0.56715686
0.66862745 0.74117647 0.58333333
0.71127451 0.75294118 0.60147059
0.75784314 0.76666667 0.62401961
0.81372549 0.79362745 0.65539216
0.87058824 0.81960784 0.68627451
0.92009804 0.84607843 0.71580882
0.93039216 0.85294118 0.72745098
0.69117647 0.84068627 0.64068627
0.72248775 0.84901961 0.659375
0.76813725 0.86470588 0.68284314
0.81176471 0.87647059 0.69822304
0.85441176 0.88602941 0.71691176
0.89852941 0.89705882 0.73235294
0.94693627 0.91605392 0.7627451
0.95735294 0.91470588 0.78976716
0.96519608 0.92647059 0.80588235
0.76470588 0.94509804 0.71372549
0.7995098 0.94901961 0.73676471
0.84901961 0.96470588 0.76078431
0.90294118 0.98676471 0.78431373
0.93333333 0.98039216 0.78823529
0.9872549 0.99754902 0.80539216
0.98333333 0.9754902 0.8245098
0.97598039 0.95245098 0.84705882
0.98823529 0.97647059 0.90588235
0.066666667 0.058333333 0.062254902
0.084803922 0.065625 0.072610294
0.12794118 0.077941176 0.089215686
0.17696078 0.092156863 0.10784314
0.2372549 0.11960784 0.14313725
0.29381127 0.14852941 0.17205882
0.32806373 0.15061275 0.18198529
0.38480392 0.17781863 0.2122549
0.41176471 0.19166667 0.22696078
0.14754902 0.16317402 0.14313725
0.17352941 0.17352941 0.15441176
0.21323529 0.18203125 0.16758578
0.25553768 0.19001225 0.18480392
0.30811887 0.21130515 0.21176471
0.36063879 0.23043045 0.23464308
0.41090686 0.24875919 0.25784314
0.46133578 0.27261029 0.28480392
0.48823529 0.28382353 0.29650735
0.23284314 0.27806373 0.225
0.26318934 0.28697917 0.23949142
0.30882353 0.2979473 0.25836397
0.35454963 0.31176471 0.27745098
0.40790441 0.33284314 0.30373775
0.45833333 0.35 0.3259038
0.50441176 0.36528799 0.34656863
0.55091912 0.38517157 0.36956189
0.58088235 0.3995098 0.38443627
0.31666667 0.38707108 0.30833333
0.35496324 0.39770987 0.32401961
0.39845282 0.40891544 0.34313725
0.45116422 0.43137255 0.3669807
0.50490196 0.45318627 0.39558824
0.55109528 0.46794577 0.41499694
0.59742647 0.48226103 0.43529412
0.64264706 0.49953278 0.45437347
0.67352941 0.51305147 0.46960784
0.41715686 0.50735294 0.39754902
0.45153186 0.51344975 0.41253064
0.4908701 0.52457108 0.42892157
0.54362745 0.54509804 0.45490196
0.59754902 0.56789216 0.48161765
0.64215686 0.58063725 0.5
0.69405637 0.60441176 0.52794118
0.73578431 0.61917892 0.54356618
0.76617647 0.63088235 0.55833333
0.50588235 0.61746324 0.48057598
0.5411152 0.63122702 0.4978171
0.58739277 0.64483762 0.52058824
0.63645833 0.66548713 0.54362745
0.68759191 0.68299632 0.56896446
0.73498775 0.69657629 0.58952206
0.78664216 0.71662071 0.61484375
0.83676471 0.73766085 0.63589154
0.86715686 0.74834559 0.64724265
0.60772059 0.74068627 0.57892157
0.63844975 0.74842218 0.59064032
0.68296569 0.7625 0.60995711
0.73039216 0.77953431 0.63204657
0.77892157 0.79491422 0.65514706
0.82892157 0.8127451 0.67843137
0.87806373 0.83164828 0.70122549
0.92395833 0.85117953 0.723269
0.93517157 0.85870098 0.73578431
0.70686275 0.85680147 0.66764706
0.73731618 0.86459099 0.68284314
0.77685355 0.87870711 0.6993413
0.8254902 0.89411765 0.71860447
0.8698223 0.90686275 0.7416973
0.91268382 0.91862745 0.76321232
0.94656863 0.92222733 0.78851103
0.9647595 0.92909773 0.80876991
0.98082108 0.96078431 0.83235294
0.79117647 0.95637255 0.74411765
0.81819853 0.96764706 0.75980392
0.86127451 0.97990196 0.77990196
0.91078431 0.99607843 0.79803922
0.94313725 0.98995098 0.81495098
0.97794118 0.99215686 0.83627451
0.98529412 0.98382353 0.86409314
0.98817402 0.97640931 0.88970588
0.99166667 0.98431373 0.92156863
0.074509804 0.078431373 0.089215686
0.10392157 0.091666667 0.10441176
0.1620098 0.11960784 0.13602941
0.20539216 0.12843137 0.15379902
0.24117647 0.12843137 0.16372549
0.29705882 0.15404412 0.19264706
0.34534314 0.17181373 0.21470588
0.38186275 0.17794118 0.22757353
0.39313725 0.18921569 0.23529412
0.16323529 0.18921569 0.17401961
0.18524816 0.18921569 0.18137255
0.23091299 0.20462623 0.20088848
0.27535233 0.21666667 0.21974571
0.32922794 0.23823529 0.24656863
0.38088235 0.25735294 0.26983762
0.42962623 0.27582721 0.29264706
0.47389706 0.29166667 0.31519608
0.49252451 0.30257353 0.32561275
0.25588235 0.30490196 0.2627451
0.28250613 0.30882353 0.27058824
0.32377451 0.31666667 0.28627451
0.36988358 0.33296569 0.30833333
0.42745098 0.36029412 0.33921569
0.48109681 0.38088235 0.36580882
0.52671569 0.39589461 0.38504902
0.57316176 0.41148897 0.40698529
0.60392157 0.42647059 0.42279412
0.3439951 0.41813725 0.34754902
0.37843137 0.4245098 0.35931373
0.42107843 0.43556985 0.37794118
0.47333027 0.45519301 0.404519
0.52794118 0.48045343 0.43186275
0.57817096 0.49957108 0.45696998
0.61911765 0.51078431 0.46994485
0.66181066 0.52486213 0.49018076
0.69754902 0.54215686 0.50833333
0.43333333 0.53088235 0.43235294
0.47107843 0.54019608 0.44803922
0.51409314 0.55196078 0.46666667
0.56703431 0.57794118 0.49362745
0.6247549 0.60294118 0.5245098
0.66911765 0.61470588 0.54185049
0.71066176 0.62671569 0.5560049
0.75140931 0.64215686 0.57781863
0.78970588 0.65784314 0.59656863
0.52892157 0.64473039 0.52107843
0.56458333 0.65931373 0.53671875
0.61185662 0.67843137 0.55931373
0.66323529 0.70147059 0.58604473
0.71519608 0.71789216 0.61023284
0.75784314 0.72647059 0.6256587
0.80220588 0.74231005 0.64583333
0.84840686 0.75695466 0.66435355
0.88468137 0.77352941 0.68186275
0.62181373 0.76372549 0.60980392
0.65916054 0.77414216 0.62527574
0.70741422 0.79730392 0.64859069
0.75588235 0.81608456 0.67107843
0.80588235 0.83026961 0.69411765
0.8504902 0.84362745 0.71617647
0.89393382 0.8627451 0.73866422
0.93501838 0.87745098 0.75603554
0.94705882 0.88921569 0.77132353
0.73039216 0.87904412 0.70245098
0.75381434 0.88720895 0.71372549
0.79960172 0.9067402 0.73667279
0.84852941 0.9245098 0.75891544
0.90245098 0.94534314 0.7841299
0.93872549 0.95632659 0.80569853
0.97696078 0.9754902 0.82892157
0.98893995 0.98028493 0.8471201
1 0.99607843 0.86764706
0.82843137 0.97941176 0.78431373
0.84656863 0.99166667 0.79595588
0.88039216 0.98921569 0.81078431
0.92009804 0.98823529 0.82892157
0.95637255 0.99362745 0.85147059
0.98431373 0.99215686 0.8807598
0.99607843 1 0.89901961
0.99595588 0.99203431 0.90882353
0.99607843 0.99313725 0.94509804
0.079411765 0.095098039 0.11323529
0.13872549 0.12745098 0.14705882
0.17904412 0.13688725 0.16617647
0.2411152 0.17015931 0.20098039
0.27696078 0.17107843 0.2122549
0.32359069 0.19025735 0.23584559
0.36629902 0.20245098 0.25343137
0.40704657 0.21862745 0.27334559
0.42598039 0.22990196 0.28333333
0.18137255 0.2122549 0.20490196
0.21599265 0.22385876 0.22273284
0.25490196 0.23186275 0.23825061
0.30422028 0.2504902 0.26256127
0.35073529 0.26519608 0.28268995
0.40281097 0.28743107 0.30833333
0.45110294 0.30681679 0.33160233
0.49577206 0.3221201 0.35395987
0.52205882 0.33382353 0.36568627
0.26470588 0.32438725 0.29007353
0.30441176 0.33541667 0.30592831
0.34739583 0.34362745 0.32401961
0.39411765 0.36176471 0.34705882
0.4504902 0.38841912 0.37794118
0.50117953 0.40784314 0.40098039
0.5495098 0.42598039 0.42401961
0.5962163 0.43823529 0.44313725
0.62990196 0.45012255 0.46078431
0.36813725 0.44362745 0.38235294
0.40116422 0.45104933 0.39492188
0.44522059 0.46262255 0.41372549
0.49426317 0.48192402 0.43970588
0.55098039 0.50860907 0.47058824
0.60189951 0.53010876 0.49607843
0.64215686 0.53982843 0.51130515
0.68529412 0.55354626 0.53087469
0.72745098 0.56911765 0.55098039
0.46323529 0.56127451 0.47107843
0.49803922 0.57107843 0.48658088
0.54068627 0.58578431 0.50539216
0.59209559 0.6080576 0.53235294
0.6502451 0.63321078 0.56323529
0.69454657 0.64436275 0.58284314
0.73088235 0.65196078 0.59546569
0.77794118 0.66960784 0.61976103
0.82401961 0.68872549 0.64215686
0.55588235 0.675 0.55980392
0.59411765 0.69050245 0.5776348
0.63835784 0.71029412 0.59803922
0.69019608 0.73235294 0.625
0.74215686 0.75073529 0.6504902
0.78592984 0.75980392 0.66926317
0.82745098 0.76580882 0.68419118
0.87021293 0.78491881 0.70772825
0.90343137 0.80140931 0.7278799
0.65098039 0.79362745 0.65036765
0.6872549 0.80882353 0.66732537
0.73382353 0.83103554 0.68903186
0.77905944 0.84765625 0.70980392
0.83284314 0.8627451 0.73584559
0.87591912 0.87428002 0.75588235
0.92107843 0.88872549 0.77855392
0.94964767 0.8979473 0.79411765
0.95490196 0.91164216 0.80833333
0.74136029 0.90637255 0.73333333
0.77959559 0.91417739 0.75229013
0.8254902 0.92126225 0.77378983
0.8754902 0.93695619 0.79841452
0.92818627 0.97377451 0.82264093
0.96145833 0.97825521 0.84394148
0.9888174 0.99264706 0.86629902
0.99215686 0.98812806 0.87827053
0.99234069 0.98823529 0.88756127
0.81715686 0.99068627 0.8
0.84656863 0.98431373 0.81390931
0.90637255 0.98431373 0.84644608
0.95300245 0.99368873 0.87401961
0.98088235 0.99607843 0.90367647
0.99607843 1 0.91378676
0.99607843 1 0.91776961
0.99607843 0.99589461 0.94479167
0.99607843 0.99215686 0.94901961
0.13137255 0.14313725 0.17058824
0.16421569 0.15857843 0.18627451
0.19852941 0.16029412 0.19901961
0.25465686 0.18480392 0.22990196
0.30490196 0.20490196 0.25294118
0.34534314 0.21446078 0.27009804
0.3872549 0.2254902 0.28676471
0.43406863 0.24901961 0.3122549
0.46862745 0.25686275 0.32745098
0.20857843 0.24313725 0.24754902
0.23943015 0.25143995 0.26124387
0.27959559 0.26053922 0.27665441
0.32858456 0.27873775 0.30098039
0.37414216 0.29411765 0.32034314
0.42230392 0.3114277 0.34313725
0.47432598 0.33431373 0.37009804
0.52254902 0.35321691 0.39313725
0.55735294 0.36470588 0.40833333
0.30098039 0.35588235 0.33431373
0.32794118 0.3627451 0.34454657
0.36960784 0.37132353 0.3627451
0.41868873 0.39080882 0.38578431
0.47034314 0.4120098 0.4127451
0.52334559 0.43480392 0.43792892
0.57071078 0.45294118 0.46029412
0.61960784 0.46954657 0.48357843
0.65392157 0.48039216 0.49901961
0.39754902 0.4745098 0.42181373
0.42058824 0.47827819 0.43235294
0.46305147 0.48829657 0.45
0.51344975 0.50833333 0.4745098
0.57071078 0.53529412 0.50539216
0.62058824 0.55395221 0.52889093
0.6622549 0.56770833 0.54810049
0.7122549 0.58480392 0.57254902
0.75441176 0.6 0.59166667
0.49607843 0.59019608 0.51176471
0.52181373 0.59779412 0.52156863
0.56446078 0.6129902 0.54411765
0.61311275 0.63296569 0.56752451
0.66911765 0.65735294 0.59803922
0.71397059 0.6689951 0.61715686
0.75441176 0.68088235 0.63480392
0.80490196 0.70036765 0.66029412
0.85588235 0.71960784 0.68627451
0.58284314 0.70441176 0.59583333
0.62518382 0.72156863 0.61789216
0.66642157 0.74117647 0.63921569
0.71246936 0.75931373 0.66130515
0.7622549 0.77512255 0.68639706
0.80784314 0.78581495 0.70588235
0.8504902 0.79607843 0.72254902
0.89460784 0.81207108 0.74626225
0.91911765 0.82990196 0.76568627
0.69656863 0.82941176 0.69509804
0.71813725 0.83719363 0.70661765
0.76335784 0.85784314 0.72904412
0.80661765 0.87328431 0.75104167
0.85588235 0.89068627 0.77401961
0.90245098 0.90392157 0.79460784
0.94056373 0.90882353 0.81482843
0.96231618 0.93180147 0.83192402
0.96617647 0.93921569 0.83921569
0.77965686 0.94068627 0.77794118
0.80857843 0.94019608 0.79142157
0.85343137 0.94411765 0.81403186
0.9 0.95441176 0.8372549
0.93995098 0.97132353 0.85906863
0.96666667 0.97696078 0.88259804
0.98088235 0.98290441 0.90147059
0.99607843 0.99607843 0.91740196
0.99264706 0.99215686 0.9252451
0.83921569 1 0.8372549
0.88921569 0.99436275 0.87009804
0.93578431 0.99411765 0.88970588
0.97181373 0.99607843 0.91176471
0.98039216 0.99607843 0.93333333
1 1 0.96985294
0.99705882 1 0.97156863
1 0.9997549 0.98235294
0.99607843 0.99607843 0.97647059
0.15833333 0.16862745 0.20931373
0.17156863 0.16991422 0.2127451
0.23480392 0.20441176 0.25085784
0.28235294 0.21954657 0.27205882
0.31960784 0.22352941 0.28504902
0.36127451 0.23186275 0.29852941
0.41372549 0.25919118 0.32757353
0.46470588 0.27990196 0.35226716
0.49803922 0.28382353 0.36617647
0.24834559 0.27401961 0.29148284
0.2622549 0.27794118 0.29932598
0.30828738 0.29404105 0.32117034
0.35410539 0.3096201 0.34209559
0.39911152 0.32328431 0.36151961
0.44215686 0.33823529 0.37794118
0.5 0.36542586 0.40882353
0.55 0.3845818 0.43341759
0.58302696 0.39166667 0.44705882
0.34791667 0.38970588 0.38321078
0.35882353 0.3932598 0.38809743
0.39408701 0.40220588 0.40401348
0.44264706 0.42061887 0.42621017
0.49460784 0.44264706 0.45055147
0.54517463 0.4651348 0.4745098
0.59647672 0.48299632 0.49865196
0.64575674 0.5 0.521875
0.67659314 0.51127451 0.53578431
0.43290441 0.50294118 0.46427696
0.44803922 0.50667892 0.47156863
0.48982843 0.52046569 0.49227941
0.5401348 0.53942249 0.51715686
0.59313725 0.5622549 0.54166667
0.63921569 0.5783701 0.56323529
0.68921569 0.59767157 0.58682598
0.74295343 0.61911765 0.61323529
0.78529412 0.63480392 0.63235294
0.52303922 0.61911765 0.54926471
0.54019608 0.62466299 0.55701593
0.59001225 0.64362745 0.58321078
0.63970588 0.6627451 0.60980392
0.6870098 0.67953431 0.63161765
0.73186275 0.69313725 0.65104167
0.78088235 0.71053922 0.67181373
0.83137255 0.73112745 0.69803922
0.87328431 0.74656863 0.72107843
0.60441176 0.73284314 0.63241422
0.64283088 0.74852941 0.65245098
0.69163603 0.76674326 0.67941176
0.73535539 0.77935049 0.69908088
0.78235294 0.79635417 0.72110907
0.82604167 0.80978094 0.73956036
0.8745098 0.82794118 0.76072304
0.90981158 0.84375766 0.78106618
0.9245098 0.85386029 0.79656863
0.72156863 0.85882353 0.73382353
0.73970588 0.86409314 0.74166667
0.78529412 0.87864583 0.76752451
0.83321078 0.89780944 0.79172794
0.87726716 0.9120098 0.81029412
0.92284007 0.92921262 0.82941176
0.94914216 0.93198529 0.84837623
0.9723652 0.95863971 0.86469056
0.97561275 0.96372549 0.87401961
0.82616422 0.96354167 0.82775735
0.8403799 0.96685049 0.83543964
0.87218137 0.97005208 0.8493413
0.92419577 0.98627451 0.87807138
0.94837623 0.98333333 0.89681373
0.97542892 0.98578431 0.91813725
0.98688725 0.98872549 0.93821998
0.99607843 0.99613971 0.96002604
0.99607843 0.99607843 0.96764706
0.90343137 0.99607843 0.89705882
0.92647059 0.99607843 0.91256127
0.95159314 0.99607843 0.92058824
0.97199755 0.99607843 0.93970588
0.97916667 0.99215686 0.9504902
0.99607843 0.99607843 0.97886029
1 0.99852941 0.98860294
1 1 0.99607843
1 1 1
0.18039216 0.19705882 0.24411765
0.20098039 0.20833333 0.25637255
0.27034314 0.24803922 0.29901961
0.29620098 0.23884804 0.30257353
0.34313725 0.25539216 0.3254902
0.39460784 0.2754902 0.34644608
0.43431373 0.28504902 0.3627451
0.48382353 0.31127451 0.38970588
0.52745098 0.33529412 0.41372549
0.28137255 0.30490196 0.33284314
0.28953738 0.30893076 0.34064032
0.33416054 0.32487745 0.36075368
0.38088235 0.34287684 0.38235294
0.42696078 0.35661765 0.40202206
0.47303922 0.37311581 0.42120098
0.51887255 0.38802083 0.44071691
0.56884191 0.40724571 0.46617647
0.60208333 0.41862745 0.47892157
0.38235294 0.42058824 0.4254902
0.38691789 0.42156863 0.42904412
0.42352941 0.4370098 0.44810049
0.47107843 0.45477941 0.46841299
0.52156863 0.4754902 0.49154412
0.56960784 0.49264706 0.51323529
0.61544118 0.50631127 0.53235294
0.6682598 0.52683824 0.55603554
0.70392157 0.53823529 0.5745098
0.46078431 0.5317402 0.50245098
0.47169118 0.53596814 0.50984988
0.51853554 0.55490196 0.53409926
0.56879596 0.57480086 0.55980392
0.61813725 0.59509804 0.58333333
0.66801471 0.6122549 0.60477941
0.71608456 0.62965686 0.625
0.76559436 0.64607843 0.64803922
0.80796569 0.66115196 0.66715686
0.5377451 0.64558824 0.58333333
0.56311275 0.65539216 0.59534314
0.61482843 0.6745098 0.62291667
0.66666667 0.6966299 0.65153186
0.7127451 0.7120098 0.67205882
0.7627451 0.73131127 0.69460784
0.81348039 0.75012255 0.71727941
0.8622549 0.76617647 0.74050245
0.89509804 0.77745098 0.75588235
0.61617647 0.76372549 0.66421569
0.65931373 0.77544424 0.6872549
0.70931373 0.79163603 0.71421569
0.76323529 0.81360294 0.74140625
0.80735294 0.82818627 0.75974265
0.85369179 0.84515931 0.78140319
0.90110294 0.86458333 0.80471814
0.9377451 0.88008578 0.82210478
0.94473039 0.88713235 0.83247549
0.72941176 0.8745098 0.76176471
0.75110294 0.89047181 0.77598039
0.80196078 0.90741422 0.80294118
0.85980392 0.9291973 0.83336397
0.9 0.94056373 0.84742647
0.94656863 0.96115196 0.86813725
0.97175245 0.97015931 0.88627451
0.99313725 0.98615196 0.90171569
0.98921569 0.98063725 0.90490196
0.85257353 0.97732843 0.86519608
0.86007966 0.98828125 0.87254902
0.89068627 0.99617034 0.88737745
0.94027267 1 0.91220895
0.96764706 0.99681373 0.93118873
0.98872549 0.99607843 0.95203738
0.99414828 0.99607843 0.97594975
1 1 0.99339767
0.99742647 0.99607843 0.98566176
0.93431373 0.99607843 0.93529412
0.95245098 0.99607843 0.9495098
0.97965686 0.99926471 0.96176471
0.98137255 0.99607843 0.97242647
1 1 0.99215686
1 0.99607843 1
1 0.99607843 0.99607843
1 1 0.99607843
1 1 0.99215686
0.17990196 0.21568627 0.27058824
0.23431373 0.24356618 0.30196078
0.27781863 0.25833333 0.32120098
0.31519608 0.26176471 0.33235294
0.36666667 0.28431373 0.35931373
0.41341912 0.3 0.38106618
0.46421569 0.32205882 0.40183824
0.51470588 0.34166667 0.42843137
0.54166667 0.34901961 0.43970588
0.28823529 0.32745098 0.35980392
0.31563266 0.33921569 0.37543658
0.35490196 0.35136336 0.395144
0.40392157 0.36979167 0.41734069
0.45367647 0.39047181 0.44215686
0.49822304 0.40376072 0.45935202
0.54113051 0.41508885 0.47745098
0.59086244 0.43431373 0.50147059
0.63082108 0.44957108 0.52107843
0.40404412 0.45098039 0.45637255
0.41790748 0.45539216 0.46781556
0.45134804 0.4703125 0.48679534
0.49987745 0.48939951 0.50998775
0.54632353 0.50490196 0.53112745
0.59420956 0.52205882 0.55196078
0.6377451 0.53382353 0.56724877
0.68474265 0.54961703 0.58745404
0.72696078 0.56519608 0.60931373
0.4877451 0.55949755 0.5372549
0.50147059 0.56668964 0.54499081
0.54705882 0.58970588 0.5754902
0.59460784 0.60948989 0.60245098
0.64420956 0.62671569 0.62377451
0.69306832 0.64313725 0.64380362
0.73877145 0.65735294 0.65980392
0.785072 0.67261029 0.68235294
0.82745098 0.68480392 0.70196078
0.56102941 0.67083333 0.61397059
0.58970588 0.68428309 0.63115809
0.64056373 0.70631127 0.6622549
0.69347426 0.72907475 0.69117647
0.73970588 0.74558824 0.71421569
0.78970588 0.7627451 0.73348652
0.83958333 0.77916667 0.75238971
0.8848652 0.79264706 0.77156863
0.92009804 0.80441176 0.79068627
0.63578431 0.78235294 0.69117647
0.68188572 0.80222886 0.71813725
0.73627451 0.8287837 0.74901961
0.78707874 0.85104167 0.77909773
0.83146446 0.86127451 0.79837623
0.88235294 0.87707567 0.82157629
0.93198529 0.89486826 0.84140625
0.96231618 0.89910386 0.85833333
0.96666667 0.90490196 0.86617647
0.74117647 0.90281863 0.79166667
0.77624081 0.91801471 0.81078431
0.825 0.93664216 0.83455882
0.87397365 0.95882353 0.86078431
0.91691176 0.96813725 0.87941176
0.96470588 0.97628676 0.90196078
0.9817402 0.97478554 0.92233456
0.98529412 0.96666667 0.93676471
0.98529412 0.96666667 0.93590686
0.85686275 0.98131127 0.89123775
0.87592678 0.97390472 0.9
0.91470588 0.99096201 0.91960784
0.94928768 0.99607843 0.9377451
0.98354779 0.99607843 0.9622549
0.99234069 0.99607843 0.96176471
0.99607843 0.99607843 0.9817402
1 0.99607843 0.99215686
1 0.99607843 0.98480392
0.9495098 0.99607843 0.96911765
0.97156863 0.99908088 0.98382353
0.97659314 0.99607843 0.98051471
0.98284314 0.99607843 0.97892157
0.99803922 0.99607843 0.98823529
1 0.99607843 0.98805147
1 0.99607843 0.98823529
1 0.99607843 0.99215686
1 0.99607843 0.98823529
0.18431373 0.22352941 0.28235294
0.23872549 0.25441176 0.32058824
0.28431373 0.26960784 0.34509804
0.33431373 0.28627451 0.36078431
0.3745098 0.29411765 0.37254902
0.42254902 0.31519608 0.39607843
0.47647059 0.3372549 0.4245098
0.52254902 0.35294118 0.44754902
0.57254902 0.36470588 0.4745098
0.30735294 0.34705882 0.38284314
0.33872549 0.3622549 0.40588235
0.37659314 0.37708333 0.42892157
0.42273284 0.39234069 0.44540441
0.46691176 0.40759804 0.46323529
0.50980392 0.42126225 0.48216912
0.55330882 0.43345588 0.50012255
0.61078431 0.45735294 0.52886029
0.66568627 0.48088235 0.56372549
0.43627451 0.47843137 0.49215686
0.44497549 0.48235294 0.49987745
0.47745098 0.49730392 0.52156863
0.525 0.52009804 0.54607843
0.56960784 0.53529412 0.56764706
0.61176471 0.54509804 0.58284314
0.65759804 0.55784314 0.59877451
0.70392157 0.57303922 0.62107843
0.75686275 0.59607843 0.64803922
0.50686275 0.57990196 0.55784314
0.52205882 0.5872549 0.56942402
0.57009804 0.61421569 0.60392157
0.62156863 0.63970588 0.6372549
0.66421569 0.65294118 0.65710784
0.70778186 0.66317402 0.66764706
0.7504902 0.67291667 0.68223039
0.8004902 0.69001225 0.70588235
0.84803922 0.71176471 0.73431373
0.56862745 0.67647059 0.62352941
0.60098039 0.69362745 0.64436275
0.65882353 0.7245098 0.68284314
0.7127451 0.7502451 0.72009804
0.75980392 0.76862745 0.74509804
0.80343137 0.78039216 0.75637255
0.84607843 0.78823529 0.76323529
0.89705882 0.80833333 0.79460784
0.94901961 0.83137255 0.82745098
0.65294118 0.79558824 0.70784314
0.69540441 0.81715686 0.7372549
0.75036765 0.84019608 0.76813725
0.80238971 0.86960784 0.80147059
0.85147059 0.88553922 0.82843137
0.90392157 0.90392157 0.85202206
0.94620098 0.90968137 0.86078431
0.96666667 0.90508578 0.87726716
0.98823529 0.9127451 0.90098039
0.75588235 0.93333333 0.81862745
0.80196078 0.94497549 0.84166667
0.84509804 0.95490196 0.86078431
0.88382353 0.97794118 0.87990196
0.93186275 0.98529412 0.90588235
0.98676471 0.99252451 0.93529412
0.99534314 0.98921569 0.95514706
0.99607843 0.97843137 0.97843137
0.99607843 0.9745098 0.97058824
0.86029412 0.99607843 0.91127451
0.89509804 0.99215686 0.92604167
0.93247549 0.99215686 0.94117647
0.97598039 0.99607843 0.97598039
0.99828431 0.99607843 0.98676471
0.99607843 0.99607843 0.96372549
0.99705882 0.99607843 0.98186275
1 0.99607843 0.99607843
1 0.99607843 0.99215686
0.96078431 1 0.99215686
0.96862745 1 0.99215686
0.98039216 0.99607843 0.98823529
0.99068627 0.99607843 0.98823529
1 0.99607843 0.99215686
0.99607843 0.99607843 0.98039216
1 0.99607843 0.98529412
1 0.99607843 0.99215686
1 0.99607843 0.98823529
