site/assets/luts/natron-haldclut--fuji-ilford-hp5--2ab2e07fe.cube
# LUTr-Project: LUTr — LUTrepository
# LUTr-Schema-Version: 1
# LUTr-ID: natron-haldclut--fuji-ilford-hp5--2ab2e07fe
# LUTr-Title: fuji ilford hp5 ++
# LUTr-Collection: Natron HaldCLUT
# LUTr-Collection-ID: natron-haldclut-presets
# LUTr-Source: https://github.com/NatronGitHub/clut
# LUTr-Source-File: submissions/natron-haldclut-presets/negative_new/fuji_ilford_hp5_++.png
# LUTr-Source-Format: PNG
# LUTr-Source-SHA256: 36c8b0cb13a7bcfd272b4dc5e46442f2d3f17cb1fff5cebbefcbcedc55bba8af
# LUTr-License: CC-BY-SA-4.0
# LUTr-License-URL: https://github.com/NatronGitHub/clut#license
# LUTr-Tags: creative, film, film-emulation, hald-clut, natron, png, cube
# LUTr-Transform-Class: film-emulation
# LUTr-Input-Color-Space: srgb
# LUTr-Output-Color-Space: srgb
# LUTr-Color-Space-Confidence: assumed-display-referred
# LUTr-Conversion-Method: PNG LUT image decoded at 16-bit and sampled to 25x25x25 3D CUBE
# LUTr-Conversion-Date: 2026-07-27
# LUTr-Conversion-Tool: LUTr scripts/convert-all-to-cube.mjs
# LUTr-Conversion-Grid: 25x25x25
# LUTr-Note: Preserve this metadata and the upstream license notices when redistributing.
TITLE "fuji ilford hp5 ++"
LUT_3D_SIZE 9
DOMAIN_MIN 0 0 0
DOMAIN_MAX 1 1 1
0.19215686 0.19215686 0.19215686
0.20735294 0.20735294 0.20735294
0.21470588 0.21470588 0.21470588
0.24411765 0.24411765 0.24411765
0.28431373 0.28431373 0.28431373
0.34558824 0.34558824 0.34558824
0.43039216 0.43039216 0.43039216
0.53529412 0.53529412 0.53529412
0.63921569 0.63921569 0.63921569
0.21519608 0.21519608 0.21519608
0.22346814 0.22346814 0.22346814
0.24129902 0.24129902 0.24129902
0.27254902 0.27254902 0.27254902
0.3129902 0.3129902 0.3129902
0.37647059 0.37647059 0.37647059
0.44852941 0.44852941 0.44852941
0.54221814 0.54221814 0.54221814
0.63529412 0.63529412 0.63529412
0.24215686 0.24215686 0.24215686
0.24215686 0.24215686 0.24215686
0.27647059 0.27647059 0.27647059
0.32058824 0.32058824 0.32058824
0.37990196 0.37990196 0.37990196
0.44914216 0.44914216 0.44914216
0.5129902 0.5129902 0.5129902
0.59987745 0.59987745 0.59987745
0.69901961 0.69901961 0.69901961
0.31323529 0.31323529 0.31323529
0.30931373 0.30931373 0.30931373
0.33296569 0.33296569 0.33296569
0.38235294 0.38235294 0.38235294
0.44803922 0.44803922 0.44803922
0.52457108 0.52457108 0.52457108
0.59791667 0.59791667 0.59791667
0.68431373 0.68431373 0.68431373
0.75 0.75 0.75
0.40980392 0.40980392 0.40980392
0.40196078 0.40196078 0.40196078
0.41617647 0.41617647 0.41617647
0.45588235 0.45588235 0.45588235
0.50980392 0.50980392 0.50980392
0.59656863 0.59656863 0.59656863
0.67647059 0.67647059 0.67647059
0.74656863 0.74656863 0.74656863
0.80980392 0.80980392 0.80980392
0.51421569 0.51421569 0.51421569
0.51911765 0.51911765 0.51911765
0.51960784 0.51960784 0.51960784
0.5338848 0.5338848 0.5338848
0.58872549 0.58872549 0.58872549
0.64748775 0.64748775 0.64748775
0.73321078 0.73321078 0.73321078
0.80655637 0.80655637 0.80655637
0.86176471 0.86176471 0.86176471
0.64705882 0.64705882 0.64705882
0.65196078 0.65196078 0.65196078
0.64730392 0.64730392 0.64730392
0.65098039 0.65098039 0.65098039
0.68921569 0.68921569 0.68921569
0.74166667 0.74166667 0.74166667
0.78995098 0.78995098 0.78995098
0.86164216 0.86164216 0.86164216
0.89509804 0.89509804 0.89509804
0.7745098 0.7745098 0.7745098
0.78970588 0.78970588 0.78970588
0.78676471 0.78676471 0.78676471
0.78382353 0.78382353 0.78382353
0.80392157 0.80392157 0.80392157
0.83823529 0.83823529 0.83823529
0.86519608 0.86519608 0.86519608
0.91127451 0.91127451 0.91127451
0.92990196 0.92990196 0.92990196
0.88627451 0.88627451 0.88627451
0.85539216 0.85539216 0.85539216
0.89705882 0.89705882 0.89705882
0.89803922 0.89803922 0.89803922
0.90392157 0.90392157 0.90392157
0.91519608 0.91519608 0.91519608
0.93823529 0.93823529 0.93823529
0.94901961 0.94901961 0.94901961
0.96078431 0.96078431 0.96078431
0.20343137 0.20343137 0.20343137
0.21084559 0.21084559 0.21084559
0.22598039 0.22598039 0.22598039
0.26323529 0.26323529 0.26323529
0.30735294 0.30735294 0.30735294
0.3596201 0.3596201 0.3596201
0.43039216 0.43039216 0.43039216
0.53572304 0.53572304 0.53572304
0.63137255 0.63137255 0.63137255
0.22653186 0.22653186 0.22653186
0.23088235 0.23088235 0.23088235
0.25283395 0.25283395 0.25283395
0.28425245 0.28425245 0.28425245
0.32864583 0.32864583 0.32864583
0.38257506 0.38257506 0.38257506
0.45632659 0.45632659 0.45632659
0.54650735 0.54650735 0.54650735
0.63431373 0.63431373 0.63431373
0.25735294 0.25735294 0.25735294
0.26470588 0.26470588 0.26470588
0.28820466 0.28820466 0.28820466
0.32820159 0.32820159 0.32820159
0.38235294 0.38235294 0.38235294
0.44914216 0.44914216 0.44914216
0.51666667 0.51666667 0.51666667
0.60255821 0.60255821 0.60255821
0.68566176 0.68566176 0.68566176
0.32628676 0.32628676 0.32628676
0.32469363 0.32469363 0.32469363
0.34799326 0.34799326 0.34799326
0.38970588 0.38970588 0.38970588
0.45425858 0.45425858 0.45425858
0.52929688 0.52929688 0.52929688
0.59963235 0.59963235 0.59963235
0.67518382 0.67518382 0.67518382
0.73284314 0.73284314 0.73284314
0.42107843 0.42107843 0.42107843
0.41498162 0.41498162 0.41498162
0.42058824 0.42058824 0.42058824
0.46740196 0.46740196 0.46740196
0.52892157 0.52892157 0.52892157
0.60548407 0.60548407 0.60548407
0.67689951 0.67689951 0.67689951
0.75346201 0.75346201 0.75346201
0.81372549 0.81372549 0.81372549
0.52696078 0.52696078 0.52696078
0.53431373 0.53431373 0.53431373
0.53480392 0.53480392 0.53480392
0.54540441 0.54540441 0.54540441
0.59871324 0.59871324 0.59871324
0.67009804 0.67009804 0.67009804
0.73877145 0.73877145 0.73877145
0.80784314 0.80784314 0.80784314
0.86421569 0.86421569 0.86421569
0.65845588 0.65845588 0.65845588
0.65833333 0.65833333 0.65833333
0.65931373 0.65931373 0.65931373
0.6652114 0.6652114 0.6652114
0.69405637 0.69405637 0.69405637
0.75084252 0.75084252 0.75084252
0.80064338 0.80064338 0.80064338
0.85696998 0.85696998 0.85696998
0.89901961 0.89901961 0.89901961
0.78186275 0.78186275 0.78186275
0.79405637 0.79405637 0.79405637
0.79759498 0.79759498 0.79759498
0.797572 0.797572 0.797572
0.80934436 0.80934436 0.80934436
0.84215686 0.84215686 0.84215686
0.87254902 0.87254902 0.87254902
0.89945619 0.89945619 0.89945619
0.92990196 0.92990196 0.92990196
0.89411765 0.89411765 0.89411765
0.88192402 0.88192402 0.88192402
0.89754902 0.89754902 0.89754902
0.89283088 0.89283088 0.89283088
0.89803922 0.89803922 0.89803922
0.91764706 0.91764706 0.91764706
0.92647059 0.92647059 0.92647059
0.94209559 0.94209559 0.94209559
0.96862745 0.96862745 0.96862745
0.23823529 0.23823529 0.23823529
0.23517157 0.23517157 0.23517157
0.25686275 0.25686275 0.25686275
0.28235294 0.28235294 0.28235294
0.32696078 0.32696078 0.32696078
0.38198529 0.38198529 0.38198529
0.43161765 0.43161765 0.43161765
0.53137255 0.53137255 0.53137255
0.63529412 0.63529412 0.63529412
0.25343137 0.25343137 0.25343137
0.25735294 0.25735294 0.25735294
0.27990196 0.27990196 0.27990196
0.30294118 0.30294118 0.30294118
0.33995098 0.33995098 0.33995098
0.40147059 0.40147059 0.40147059
0.45637255 0.45637255 0.45637255
0.55349265 0.55349265 0.55349265
0.65441176 0.65441176 0.65441176
0.26862745 0.26862745 0.26862745
0.28495711 0.28495711 0.28495711
0.31004902 0.31004902 0.31004902
0.34313725 0.34313725 0.34313725
0.39068627 0.39068627 0.39068627
0.44803922 0.44803922 0.44803922
0.51838235 0.51838235 0.51838235
0.60477941 0.60477941 0.60477941
0.69705882 0.69705882 0.69705882
0.35539216 0.35539216 0.35539216
0.36202512 0.36202512 0.36202512
0.38324142 0.38324142 0.38324142
0.41813725 0.41813725 0.41813725
0.4658701 0.4658701 0.4658701
0.53379289 0.53379289 0.53379289
0.59754902 0.59754902 0.59754902
0.6754902 0.6754902 0.6754902
0.75637255 0.75637255 0.75637255
0.45 0.45 0.45
0.45386029 0.45386029 0.45386029
0.46593137 0.46593137 0.46593137
0.48535539 0.48535539 0.48535539
0.54754902 0.54754902 0.54754902
0.61470588 0.61470588 0.61470588
0.68088235 0.68088235 0.68088235
0.75900735 0.75900735 0.75900735
0.81764706 0.81764706 0.81764706
0.55784314 0.55784314 0.55784314
0.56783088 0.56783088 0.56783088
0.57227328 0.57227328 0.57227328
0.57506127 0.57506127 0.57506127
0.61973039 0.61973039 0.61973039
0.67647059 0.67647059 0.67647059
0.74607843 0.74607843 0.74607843
0.80945159 0.80945159 0.80945159
0.86029412 0.86029412 0.86029412
0.68529412 0.68529412 0.68529412
0.6870098 0.6870098 0.6870098
0.68921569 0.68921569 0.68921569
0.68921569 0.68921569 0.68921569
0.71078431 0.71078431 0.71078431
0.7567402 0.7567402 0.7567402
0.80392157 0.80392157 0.80392157
0.86041667 0.86041667 0.86041667
0.90612745 0.90612745 0.90612745
0.80453431 0.80453431 0.80453431
0.80968137 0.80968137 0.80968137
0.80931373 0.80931373 0.80931373
0.80931373 0.80931373 0.80931373
0.8129902 0.8129902 0.8129902
0.84577206 0.84577206 0.84577206
0.87625613 0.87625613 0.87625613
0.90686275 0.90686275 0.90686275
0.93345588 0.93345588 0.93345588
0.89019608 0.89019608 0.89019608
0.89411765 0.89411765 0.89411765
0.89411765 0.89411765 0.89411765
0.89019608 0.89019608 0.89019608
0.90196078 0.90196078 0.90196078
0.92095588 0.92095588 0.92095588
0.9254902 0.9254902 0.9254902
0.93382353 0.93382353 0.93382353
0.95686275 0.95686275 0.95686275
0.27941176 0.27941176 0.27941176
0.28088235 0.28088235 0.28088235
0.30588235 0.30588235 0.30588235
0.33039216 0.33039216 0.33039216
0.36323529 0.36323529 0.36323529
0.425 0.425 0.425
0.49987745 0.49987745 0.49987745
0.58106618 0.58106618 0.58106618
0.65980392 0.65980392 0.65980392
0.29509804 0.29509804 0.29509804
0.30980392 0.30980392 0.30980392
0.33328738 0.33328738 0.33328738
0.3495098 0.3495098 0.3495098
0.38480392 0.38480392 0.38480392
0.44172794 0.44172794 0.44172794
0.50530025 0.50530025 0.50530025
0.58654259 0.58654259 0.58654259
0.65416667 0.65416667 0.65416667
0.32303922 0.32303922 0.32303922
0.33468137 0.33468137 0.33468137
0.36666667 0.36666667 0.36666667
0.38970588 0.38970588 0.38970588
0.42892157 0.42892157 0.42892157
0.47647059 0.47647059 0.47647059
0.53210784 0.53210784 0.53210784
0.60136336 0.60136336 0.60136336
0.69019608 0.69019608 0.69019608
0.37990196 0.37990196 0.37990196
0.40055147 0.40055147 0.40055147
0.42359069 0.42359069 0.42359069
0.46078431 0.46078431 0.46078431
0.49139093 0.49139093 0.49139093
0.543053 0.543053 0.543053
0.60238971 0.60238971 0.60238971
0.67237286 0.67237286 0.67237286
0.71862745 0.71862745 0.71862745
0.47181373 0.47181373 0.47181373
0.49019608 0.49019608 0.49019608
0.50637255 0.50637255 0.50637255
0.53011642 0.53011642 0.53011642
0.56875 0.56875 0.56875
0.62573529 0.62573529 0.62573529
0.68284314 0.68284314 0.68284314
0.75220588 0.75220588 0.75220588
0.81568627 0.81568627 0.81568627
0.58480392 0.58480392 0.58480392
0.59656863 0.59656863 0.59656863
0.60819547 0.60819547 0.60819547
0.61436121 0.61436121 0.61436121
0.64215686 0.64215686 0.64215686
0.69552696 0.69552696 0.69552696
0.75845588 0.75845588 0.75845588
0.81702665 0.81702665 0.81702665
0.86421569 0.86421569 0.86421569
0.71617647 0.71617647 0.71617647
0.7196538 0.7196538 0.7196538
0.71617647 0.71617647 0.71617647
0.72303922 0.72303922 0.72303922
0.72959559 0.72959559 0.72959559
0.76588542 0.76588542 0.76588542
0.80968137 0.80968137 0.80968137
0.8682598 0.8682598 0.8682598
0.90686275 0.90686275 0.90686275
0.81930147 0.81930147 0.81930147
0.82481618 0.82481618 0.82481618
0.81960784 0.81960784 0.81960784
0.82059589 0.82059589 0.82059589
0.82729779 0.82729779 0.82729779
0.8495098 0.8495098 0.8495098
0.87683824 0.87683824 0.87683824
0.90692402 0.90692402 0.90692402
0.93204657 0.93204657 0.93204657
0.89411765 0.89411765 0.89411765
0.90018382 0.90018382 0.90018382
0.90085784 0.90085784 0.90085784
0.8971201 0.8971201 0.8971201
0.9122549 0.9122549 0.9122549
0.92604167 0.92604167 0.92604167
0.9254902 0.9254902 0.9254902
0.9372549 0.9372549 0.9372549
0.95294118 0.95294118 0.95294118
0.34705882 0.34705882 0.34705882
0.35661765 0.35661765 0.35661765
0.37990196 0.37990196 0.37990196
0.41151961 0.41151961 0.41151961
0.43921569 0.43921569 0.43921569
0.48284314 0.48284314 0.48284314
0.57156863 0.57156863 0.57156863
0.65808824 0.65808824 0.65808824
0.71568627 0.71568627 0.71568627
0.37205882 0.37205882 0.37205882
0.38507966 0.38507966 0.38507966
0.40275735 0.40275735 0.40275735
0.43137255 0.43137255 0.43137255
0.45441176 0.45441176 0.45441176
0.49264706 0.49264706 0.49264706
0.57518382 0.57518382 0.57518382
0.66001838 0.66001838 0.66001838
0.71985294 0.71985294 0.71985294
0.41176471 0.41176471 0.41176471
0.42058824 0.42058824 0.42058824
0.43921569 0.43921569 0.43921569
0.46838235 0.46838235 0.46838235
0.48823529 0.48823529 0.48823529
0.52726716 0.52726716 0.52726716
0.59105392 0.59105392 0.59105392
0.67071078 0.67071078 0.67071078
0.73137255 0.73137255 0.73137255
0.44558824 0.44558824 0.44558824
0.45343137 0.45343137 0.45343137
0.47248775 0.47248775 0.47248775
0.51443015 0.51443015 0.51443015
0.54546569 0.54546569 0.54546569
0.58207721 0.58207721 0.58207721
0.64117647 0.64117647 0.64117647
0.69754902 0.69754902 0.69754902
0.76348039 0.76348039 0.76348039
0.5 0.5 0.5
0.525 0.525 0.525
0.54509804 0.54509804 0.54509804
0.56911765 0.56911765 0.56911765
0.61127451 0.61127451 0.61127451
0.65588235 0.65588235 0.65588235
0.69607843 0.69607843 0.69607843
0.75281863 0.75281863 0.75281863
0.80784314 0.80784314 0.80784314
0.61960784 0.61960784 0.61960784
0.62852328 0.62852328 0.62852328
0.64669118 0.64669118 0.64669118
0.64705882 0.64705882 0.64705882
0.67941176 0.67941176 0.67941176
0.72429534 0.72429534 0.72429534
0.77769608 0.77769608 0.77769608
0.8245098 0.8245098 0.8245098
0.86960784 0.86960784 0.86960784
0.74705882 0.74705882 0.74705882
0.7504902 0.7504902 0.7504902
0.75 0.75 0.75
0.75 0.75 0.75
0.75906863 0.75906863 0.75906863
0.78578431 0.78578431 0.78578431
0.82990196 0.82990196 0.82990196
0.87083333 0.87083333 0.87083333
0.91078431 0.91078431 0.91078431
0.83480392 0.83480392 0.83480392
0.83869485 0.83869485 0.83869485
0.83848039 0.83848039 0.83848039
0.84264706 0.84264706 0.84264706
0.84656863 0.84656863 0.84656863
0.85382966 0.85382966 0.85382966
0.87647059 0.87647059 0.87647059
0.91078431 0.91078431 0.91078431
0.93382353 0.93382353 0.93382353
0.90784314 0.90784314 0.90784314
0.91740196 0.91740196 0.91740196
0.91421569 0.91421569 0.91421569
0.90147059 0.90147059 0.90147059
0.92156863 0.92156863 0.92156863
0.92156863 0.92156863 0.92156863
0.92990196 0.92990196 0.92990196
0.94509804 0.94509804 0.94509804
0.95490196 0.95490196 0.95490196
0.45147059 0.45147059 0.45147059
0.46421569 0.46421569 0.46421569
0.49117647 0.49117647 0.49117647
0.51421569 0.51421569 0.51421569
0.54632353 0.54632353 0.54632353
0.58866422 0.58866422 0.58866422
0.62169118 0.62169118 0.62169118
0.7004902 0.7004902 0.7004902
0.75833333 0.75833333 0.75833333
0.47598039 0.47598039 0.47598039
0.48344056 0.48344056 0.48344056
0.5015625 0.5015625 0.5015625
0.52560509 0.52560509 0.52560509
0.55637255 0.55637255 0.55637255
0.5900046 0.5900046 0.5900046
0.61985294 0.61985294 0.61985294
0.703125 0.703125 0.703125
0.78137255 0.78137255 0.78137255
0.50147059 0.50147059 0.50147059
0.51323529 0.51323529 0.51323529
0.52794118 0.52794118 0.52794118
0.55951287 0.55951287 0.55951287
0.59099265 0.59099265 0.59099265
0.60928309 0.60928309 0.60928309
0.64313725 0.64313725 0.64313725
0.72553615 0.72553615 0.72553615
0.79117647 0.79117647 0.79117647
0.51568627 0.51568627 0.51568627
0.53878676 0.53878676 0.53878676
0.56666667 0.56666667 0.56666667
0.60055147 0.60055147 0.60055147
0.62693015 0.62693015 0.62693015
0.65238971 0.65238971 0.65238971
0.69437806 0.69437806 0.69437806
0.75373009 0.75373009 0.75373009
0.80392157 0.80392157 0.80392157
0.58014706 0.58014706 0.58014706
0.58088235 0.58088235 0.58088235
0.60827206 0.60827206 0.60827206
0.63823529 0.63823529 0.63823529
0.66678922 0.66678922 0.66678922
0.70729167 0.70729167 0.70729167
0.74362745 0.74362745 0.74362745
0.78455882 0.78455882 0.78455882
0.81789216 0.81789216 0.81789216
0.65441176 0.65441176 0.65441176
0.66599265 0.66599265 0.66599265
0.67817096 0.67817096 0.67817096
0.68523284 0.68523284 0.68523284
0.71691176 0.71691176 0.71691176
0.756947 0.756947 0.756947
0.79644608 0.79644608 0.79644608
0.82970282 0.82970282 0.82970282
0.85392157 0.85392157 0.85392157
0.76409314 0.76409314 0.76409314
0.76911765 0.76911765 0.76911765
0.77156863 0.77156863 0.77156863
0.78379289 0.78379289 0.78379289
0.79681373 0.79681373 0.79681373
0.81666667 0.81666667 0.81666667
0.84574142 0.84574142 0.84574142
0.87598039 0.87598039 0.87598039
0.90686275 0.90686275 0.90686275
0.84981618 0.84981618 0.84981618
0.85169271 0.85169271 0.85169271
0.85373775 0.85373775 0.85373775
0.86079197 0.86079197 0.86079197
0.86764706 0.86764706 0.86764706
0.87432598 0.87432598 0.87432598
0.89344363 0.89344363 0.89344363
0.91626072 0.91626072 0.91626072
0.9377451 0.9377451 0.9377451
0.91372549 0.91372549 0.91372549
0.91911765 0.91911765 0.91911765
0.92941176 0.92941176 0.92941176
0.92794118 0.92794118 0.92794118
0.92941176 0.92941176 0.92941176
0.92941176 0.92941176 0.92941176
0.93933824 0.93933824 0.93933824
0.95079657 0.95079657 0.95079657
0.97009804 0.97009804 0.97009804
0.58137255 0.58137255 0.58137255
0.58921569 0.58921569 0.58921569
0.60686275 0.60686275 0.60686275
0.63382353 0.63382353 0.63382353
0.66519608 0.66519608 0.66519608
0.70245098 0.70245098 0.70245098
0.71764706 0.71764706 0.71764706
0.73578431 0.73578431 0.73578431
0.80588235 0.80588235 0.80588235
0.60355392 0.60355392 0.60355392
0.5995098 0.5995098 0.5995098
0.61813725 0.61813725 0.61813725
0.645144 0.645144 0.645144
0.67254902 0.67254902 0.67254902
0.70618873 0.70618873 0.70618873
0.71639093 0.71639093 0.71639093
0.74497549 0.74497549 0.74497549
0.81360294 0.81360294 0.81360294
0.62352941 0.62352941 0.62352941
0.63030025 0.63030025 0.63030025
0.64509804 0.64509804 0.64509804
0.67159926 0.67159926 0.67159926
0.69546569 0.69546569 0.69546569
0.7169424 0.7169424 0.7169424
0.7370098 0.7370098 0.7370098
0.77545956 0.77545956 0.77545956
0.83161765 0.83161765 0.83161765
0.64595588 0.64595588 0.64595588
0.6569087 0.6569087 0.6569087
0.67205882 0.67205882 0.67205882
0.69970895 0.69970895 0.69970895
0.72518382 0.72518382 0.72518382
0.75062806 0.75062806 0.75062806
0.76654412 0.76654412 0.76654412
0.79875919 0.79875919 0.79875919
0.84264706 0.84264706 0.84264706
0.65833333 0.65833333 0.65833333
0.68419118 0.68419118 0.68419118
0.70220588 0.70220588 0.70220588
0.7286152 0.7286152 0.7286152
0.75441176 0.75441176 0.75441176
0.77683824 0.77683824 0.77683824
0.79105392 0.79105392 0.79105392
0.82046569 0.82046569 0.82046569
0.86176471 0.86176471 0.86176471
0.72316176 0.72316176 0.72316176
0.72647059 0.72647059 0.72647059
0.74142157 0.74142157 0.74142157
0.76237745 0.76237745 0.76237745
0.77892157 0.77892157 0.77892157
0.80784314 0.80784314 0.80784314
0.83563113 0.83563113 0.83563113
0.86176471 0.86176471 0.86176471
0.89044118 0.89044118 0.89044118
0.78627451 0.78627451 0.78627451
0.7950674 0.7950674 0.7950674
0.79773284 0.79773284 0.79773284
0.80759804 0.80759804 0.80759804
0.82401961 0.82401961 0.82401961
0.84362745 0.84362745 0.84362745
0.86960784 0.86960784 0.86960784
0.88936887 0.88936887 0.88936887
0.91176471 0.91176471 0.91176471
0.85502451 0.85502451 0.85502451
0.85980392 0.85980392 0.85980392
0.86776961 0.86776961 0.86776961
0.8754902 0.8754902 0.8754902
0.88186275 0.88186275 0.88186275
0.90142463 0.90142463 0.90142463
0.91464461 0.91464461 0.91464461
0.93002451 0.93002451 0.93002451
0.94166667 0.94166667 0.94166667
0.92156863 0.92156863 0.92156863
0.92892157 0.92892157 0.92892157
0.93333333 0.93333333 0.93333333
0.93333333 0.93333333 0.93333333
0.94166667 0.94166667 0.94166667
0.94509804 0.94509804 0.94509804
0.94607843 0.94607843 0.94607843
0.95330882 0.95330882 0.95330882
0.96470588 0.96470588 0.96470588
0.72745098 0.72745098 0.72745098
0.73529412 0.73529412 0.73529412
0.74215686 0.74215686 0.74215686
0.75882353 0.75882353 0.75882353
0.78602941 0.78602941 0.78602941
0.80539216 0.80539216 0.80539216
0.8185049 0.8185049 0.8185049
0.82892157 0.82892157 0.82892157
0.85980392 0.85980392 0.85980392
0.73866422 0.73866422 0.73866422
0.73835018 0.73835018 0.73835018
0.75473346 0.75473346 0.75473346
0.76881127 0.76881127 0.76881127
0.78823529 0.78823529 0.78823529
0.80904565 0.80904565 0.80904565
0.82107843 0.82107843 0.82107843
0.84025735 0.84025735 0.84025735
0.86415441 0.86415441 0.86415441
0.75490196 0.75490196 0.75490196
0.75880821 0.75880821 0.75880821
0.76642157 0.76642157 0.76642157
0.78223039 0.78223039 0.78223039
0.79969363 0.79969363 0.79969363
0.82218137 0.82218137 0.82218137
0.83676471 0.83676471 0.83676471
0.85931373 0.85931373 0.85931373
0.87156863 0.87156863 0.87156863
0.76911765 0.76911765 0.76911765
0.77712163 0.77712163 0.77712163
0.78751532 0.78751532 0.78751532
0.79706648 0.79706648 0.79706648
0.81838235 0.81838235 0.81838235
0.83805147 0.83805147 0.83805147
0.8510723 0.8510723 0.8510723
0.87205882 0.87205882 0.87205882
0.88333333 0.88333333 0.88333333
0.78431373 0.78431373 0.78431373
0.79583333 0.79583333 0.79583333
0.80147059 0.80147059 0.80147059
0.81764706 0.81764706 0.81764706
0.83357843 0.83357843 0.83357843
0.84901961 0.84901961 0.84901961
0.86446078 0.86446078 0.86446078
0.88161765 0.88161765 0.88161765
0.89460784 0.89460784 0.89460784
0.80539216 0.80539216 0.80539216
0.81078431 0.81078431 0.81078431
0.82018995 0.82018995 0.82018995
0.83950674 0.83950674 0.83950674
0.85073529 0.85073529 0.85073529
0.86819853 0.86819853 0.86819853
0.8814185 0.8814185 0.8814185
0.9 0.9 0.9
0.91176471 0.91176471 0.91176471
0.84080882 0.84080882 0.84080882
0.83333333 0.83333333 0.83333333
0.84041054 0.84041054 0.84041054
0.8567402 0.8567402 0.8567402
0.87205882 0.87205882 0.87205882
0.88573836 0.88573836 0.88573836
0.90833333 0.90833333 0.90833333
0.92340686 0.92340686 0.92340686
0.93345588 0.93345588 0.93345588
0.87598039 0.87598039 0.87598039
0.8872549 0.8872549 0.8872549
0.89166667 0.89166667 0.89166667
0.89509804 0.89509804 0.89509804
0.89730392 0.89730392 0.89730392
0.92009804 0.92009804 0.92009804
0.93350184 0.93350184 0.93350184
0.94521293 0.94521293 0.94521293
0.94515931 0.94515931 0.94515931
0.92990196 0.92990196 0.92990196
0.9372549 0.9372549 0.9372549
0.9372549 0.9372549 0.9372549
0.94509804 0.94509804 0.94509804
0.94142157 0.94142157 0.94142157
0.94528186 0.94528186 0.94528186
0.94901961 0.94901961 0.94901961
0.95294118 0.95294118 0.95294118
0.95294118 0.95294118 0.95294118
0.84705882 0.84705882 0.84705882
0.87794118 0.87794118 0.87794118
0.87058824 0.87058824 0.87058824
0.87009804 0.87009804 0.87009804
0.88627451 0.88627451 0.88627451
0.89019608 0.89019608 0.89019608
0.91078431 0.91078431 0.91078431
0.91372549 0.91372549 0.91372549
0.92941176 0.92941176 0.92941176
0.87745098 0.87745098 0.87745098
0.85484069 0.85484069 0.85484069
0.85980392 0.85980392 0.85980392
0.87824755 0.87824755 0.87824755
0.89019608 0.89019608 0.89019608
0.89773284 0.89773284 0.89773284
0.90294118 0.90294118 0.90294118
0.91372549 0.91372549 0.91372549
0.92156863 0.92156863 0.92156863
0.86176471 0.86176471 0.86176471
0.8627451 0.8627451 0.8627451
0.87769608 0.87769608 0.87769608
0.87928922 0.87928922 0.87928922
0.88627451 0.88627451 0.88627451
0.9004902 0.9004902 0.9004902
0.89681373 0.89681373 0.89681373
0.9245098 0.9245098 0.9245098
0.91764706 0.91764706 0.91764706
0.88088235 0.88088235 0.88088235
0.86617647 0.86617647 0.86617647
0.88529412 0.88529412 0.88529412
0.88964461 0.88964461 0.88964461
0.89264706 0.89264706 0.89264706
0.90343137 0.90343137 0.90343137
0.91654412 0.91654412 0.91654412
0.92941176 0.92941176 0.92941176
0.92794118 0.92794118 0.92794118
0.86470588 0.86470588 0.86470588
0.88039216 0.88039216 0.88039216
0.88627451 0.88627451 0.88627451
0.90269608 0.90269608 0.90269608
0.89705882 0.89705882 0.89705882
0.91568627 0.91568627 0.91568627
0.9254902 0.9254902 0.9254902
0.93333333 0.93333333 0.93333333
0.94117647 0.94117647 0.94117647
0.89019608 0.89019608 0.89019608
0.89019608 0.89019608 0.89019608
0.89987745 0.89987745 0.89987745
0.89895833 0.89895833 0.89895833
0.91519608 0.91519608 0.91519608
0.92156863 0.92156863 0.92156863
0.9254902 0.9254902 0.9254902
0.94117647 0.94117647 0.94117647
0.94901961 0.94901961 0.94901961
0.89411765 0.89411765 0.89411765
0.89411765 0.89411765 0.89411765
0.89877451 0.89877451 0.89877451
0.89595588 0.89595588 0.89595588
0.91960784 0.91960784 0.91960784
0.93002451 0.93002451 0.93002451
0.93529412 0.93529412 0.93529412
0.95183824 0.95183824 0.95183824
0.96078431 0.96078431 0.96078431
0.90686275 0.90686275 0.90686275
0.91078431 0.91078431 0.91078431
0.91029412 0.91029412 0.91029412
0.91029412 0.91029412 0.91029412
0.93137255 0.93137255 0.93137255
0.94509804 0.94509804 0.94509804
0.95036765 0.95036765 0.95036765
0.95686275 0.95686275 0.95686275
0.96078431 0.96078431 0.96078431
0.95686275 0.95686275 0.95686275
0.94117647 0.94117647 0.94117647
0.9372549 0.9372549 0.9372549
0.94117647 0.94117647 0.94117647
0.95490196 0.95490196 0.95490196
0.96078431 0.96078431 0.96078431
0.95588235 0.95588235 0.95588235
0.95686275 0.95686275 0.95686275
0.96078431 0.96078431 0.96078431
