site/assets/luts/natron-haldclut--kodak-portra-400-nc--77ddd7184.cube
# LUTr-Project: LUTr — LUTrepository
# LUTr-Schema-Version: 1
# LUTr-ID: natron-haldclut--kodak-portra-400-nc--77ddd7184
# LUTr-Title: kodak portra 400 nc
# LUTr-Collection: Natron HaldCLUT
# LUTr-Collection-ID: natron-haldclut-presets
# LUTr-Source: https://github.com/NatronGitHub/clut
# LUTr-Source-File: submissions/natron-haldclut-presets/negative_old/kodak_portra_400_nc.png
# LUTr-Source-Format: PNG
# LUTr-Source-SHA256: a427f57f330cc94f15144c141468d4f9e63912fa714724107d33a02884743141
# LUTr-License: CC-BY-SA-4.0
# LUTr-License-URL: https://github.com/NatronGitHub/clut#license
# LUTr-Tags: creative, film, film-emulation, hald-clut, natron, png, cube
# LUTr-Transform-Class: film-emulation
# LUTr-Input-Color-Space: srgb
# LUTr-Output-Color-Space: srgb
# LUTr-Color-Space-Confidence: assumed-display-referred
# LUTr-Conversion-Method: PNG LUT image decoded at 16-bit and sampled to 25x25x25 3D CUBE
# LUTr-Conversion-Date: 2026-07-27
# LUTr-Conversion-Tool: LUTr scripts/convert-all-to-cube.mjs
# LUTr-Conversion-Grid: 25x25x25
# LUTr-Note: Preserve this metadata and the upstream license notices when redistributing.
TITLE "kodak portra 400 nc"
LUT_3D_SIZE 5
DOMAIN_MIN 0 0 0
DOMAIN_MAX 1 1 1
0.035294118 0.047058824 0.050980392
0.1627451 0.06372549 0.047058824
0.51764706 0.041176471 0.017647059
0.8 0.071568627 0.0098039216
0.98039216 0.18039216 0
0.0039215686 0.17941176 0.071568627
0.18823529 0.22401961 0.029411765
0.59852941 0.25882353 0.019607843
0.82941176 0.2629902 0.011764706
0.99509804 0.30980392 0
0.0058823529 0.51372549 0.18823529
0.23431373 0.51764706 0.21764706
0.53529412 0.56666667 0.059803922
0.82352941 0.54705882 0.0039215686
0.99215686 0.52352941 0.0039215686
0.39313725 0.74019608 0.44705882
0.44044118 0.73333333 0.43529412
0.54362745 0.74411765 0.3995098
0.73921569 0.76838235 0.27769608
0.95980392 0.77647059 0.15784314
0.69803922 0.90588235 0.71372549
0.70098039 0.89803922 0.70588235
0.73921569 0.9 0.70588235
0.80980392 0.91862745 0.68823529
0.89411765 0.94117647 0.65098039
0.0049019608 0.044117647 0.19705882
0.1872549 0.039215686 0.20588235
0.52843137 0.0034313725 0.20686275
0.79828431 0.037990196 0.20882353
0.93823529 0.20196078 0.23431373
0.0039215686 0.24607843 0.26004902
0.23841912 0.25882353 0.25704657
0.5935049 0.25551471 0.23014706
0.80814951 0.26966912 0.22555147
0.97426471 0.33039216 0.24632353
0.23529412 0.55735294 0.37794118
0.33137255 0.55012255 0.36764706
0.5747549 0.57426471 0.29411765
0.83590686 0.55392157 0.20821078
0.98676471 0.54117647 0.23088235
0.45686275 0.74803922 0.51470588
0.490625 0.74650735 0.51078431
0.5754902 0.7439951 0.49901961
0.76317402 0.7754902 0.40784314
0.95955882 0.7754902 0.34117647
0.70196078 0.90196078 0.72941176
0.71053922 0.8997549 0.72622549
0.74852941 0.89803922 0.72843137
0.81127451 0.91862745 0.71053922
0.88137255 0.92941176 0.67058824
0.0039215686 0.070588235 0.53529412
0.24705882 0.051960784 0.54068627
0.62352941 0.0078431373 0.5627451
0.83186275 0.1127451 0.49754902
0.96666667 0.28431373 0.49215686
0.0039215686 0.29068627 0.55882353
0.24497549 0.29362745 0.57647059
0.61470588 0.3122549 0.56568627
0.8307598 0.35686275 0.53002451
0.96078431 0.41176471 0.51127451
0.26372549 0.59117647 0.5872549
0.42573529 0.59338235 0.59779412
0.61029412 0.59068627 0.6004902
0.79436275 0.58284314 0.56470588
0.95686275 0.58235294 0.5372549
0.56372549 0.77647059 0.65980392
0.59473039 0.76948529 0.66372549
0.6504902 0.76127451 0.65269608
0.77512255 0.77941176 0.60294118
0.96862745 0.7754902 0.57647059
0.72745098 0.91372549 0.78235294
0.74509804 0.91421569 0.78480392
0.7745098 0.91176471 0.78627451
0.82892157 0.92254902 0.775
0.91176471 0.94117647 0.74313725
0.0088235294 0.1745098 0.77156863
0.30318627 0.1747549 0.7754902
0.61911765 0.24803922 0.7754902
0.83823529 0.33602941 0.77156863
0.96078431 0.44215686 0.74019608
0.10220588 0.33921569 0.7754902
0.35318627 0.34779412 0.78204657
0.62879902 0.40784314 0.78333333
0.8348652 0.46593137 0.7754902
0.96764706 0.54632353 0.75196078
0.25539216 0.58872549 0.75931373
0.39215686 0.59068627 0.76360294
0.61642157 0.60563725 0.7754902
0.81115196 0.64963235 0.78235294
0.94901961 0.67205882 0.76421569
0.54803922 0.78627451 0.7872549
0.59313725 0.79056373 0.79840686
0.68541667 0.7872549 0.79117647
0.79920343 0.79019608 0.79436275
0.92083333 0.7872549 0.7754902
0.75686275 0.9254902 0.86078431
0.76078431 0.91372549 0.85588235
0.80588235 0.92941176 0.86470588
0.84338235 0.9 0.84313725
0.91764706 0.94215686 0.84117647
0.4627451 0.44313725 0.94117647
0.52647059 0.45392157 0.93333333
0.67647059 0.49411765 0.92352941
0.84509804 0.57843137 0.93039216
0.98823529 0.64313725 0.9372549
0.49215686 0.52254902 0.93627451
0.54730392 0.53627451 0.9372549
0.68480392 0.56960784 0.93382353
0.84142157 0.6245098 0.92720588
0.95882353 0.6372549 0.90882353
0.50784314 0.66666667 0.93333333
0.54705882 0.66470588 0.9254902
0.68039216 0.67941176 0.93137255
0.83137255 0.70735294 0.92058824
0.97647059 0.74901961 0.94313725
0.54019608 0.80196078 0.9254902
0.58161765 0.80612745 0.91887255
0.64264706 0.79901961 0.91519608
0.81053922 0.80980392 0.94509804
0.96862745 0.84117647 0.94901961
0.7372549 0.94901961 0.94901961
0.75588235 0.95588235 0.95980392
0.79411765 0.94313725 0.94313725
0.85784314 0.94705882 0.95784314
0.97254902 0.96862745 0.97254902
