site/assets/luts/natron-haldclut--fuji-800z--2c9760989.cube
# LUTr-Project: LUTr — LUTrepository
# LUTr-Schema-Version: 1
# LUTr-ID: natron-haldclut--fuji-800z--2c9760989
# LUTr-Title: fuji 800z +
# LUTr-Collection: Natron HaldCLUT
# LUTr-Collection-ID: natron-haldclut-presets
# LUTr-Source: https://github.com/NatronGitHub/clut
# LUTr-Source-File: submissions/natron-haldclut-presets/negative_new/fuji_800z_+.png
# LUTr-Source-Format: PNG
# LUTr-Source-SHA256: 78f6233527d64386ef863008fbfa87e803a86bdb71afe169b436e44650440447
# LUTr-License: CC-BY-SA-4.0
# LUTr-License-URL: https://github.com/NatronGitHub/clut#license
# LUTr-Tags: creative, film, film-emulation, hald-clut, natron, png, cube
# LUTr-Transform-Class: film-emulation
# LUTr-Input-Color-Space: srgb
# LUTr-Output-Color-Space: srgb
# LUTr-Color-Space-Confidence: assumed-display-referred
# LUTr-Conversion-Method: PNG LUT image decoded at 16-bit and sampled to 25x25x25 3D CUBE
# LUTr-Conversion-Date: 2026-07-27
# LUTr-Conversion-Tool: LUTr scripts/convert-all-to-cube.mjs
# LUTr-Conversion-Grid: 25x25x25
# LUTr-Note: Preserve this metadata and the upstream license notices when redistributing.
TITLE "fuji 800z +"
LUT_3D_SIZE 5
DOMAIN_MIN 0 0 0
DOMAIN_MAX 1 1 1
0.12941176 0.10196078 0.082352941
0.26470588 0.087254902 0.075490196
0.54313725 0.039215686 0.074509804
0.84705882 0.028431373 0.042156863
1 0.1372549 0
0.15686275 0.22352941 0.11764706
0.25759804 0.24411765 0.10784314
0.52794118 0.27352941 0.057352941
0.82843137 0.28553922 0.017647059
0.98137255 0.31372549 0
0.13137255 0.42352941 0.14117647
0.21568627 0.40392157 0.1495098
0.47843137 0.50980392 0.046078431
0.79362745 0.56764706 0.0078431373
0.97058824 0.56078431 0.0039215686
0.15490196 0.64705882 0.19607843
0.24509804 0.63455882 0.20588235
0.43039216 0.65539216 0.20686275
0.73333333 0.7372549 0.17181373
0.94607843 0.79607843 0.15294118
0.56862745 0.89411765 0.54509804
0.58333333 0.88627451 0.54411765
0.66078431 0.88627451 0.56078431
0.78235294 0.92156863 0.58333333
0.88627451 0.94117647 0.59607843
0.15686275 0.10294118 0.20196078
0.28946078 0.11470588 0.2127451
0.59313725 0.0088235294 0.22598039
0.87254902 0.0078431373 0.22843137
0.99607843 0.095098039 0.22352941
0.16862745 0.25392157 0.22377451
0.27867647 0.259375 0.23455882
0.57708333 0.26568627 0.22647059
0.85545343 0.2658701 0.21151961
0.98823529 0.3127451 0.2
0.18872549 0.48284314 0.25
0.26372549 0.46764706 0.24718137
0.5122549 0.5375 0.23161765
0.79656863 0.55759804 0.17144608
0.98431373 0.55686275 0.15196078
0.24215686 0.68039216 0.30073529
0.30563725 0.66470588 0.30042892
0.45392157 0.66372549 0.29852941
0.7379902 0.74191176 0.31764706
0.96372549 0.79117647 0.30392157
0.56666667 0.89215686 0.56960784
0.57352941 0.87647059 0.55098039
0.65833333 0.88627451 0.58529412
0.77843137 0.9129902 0.5997549
0.90588235 0.94901961 0.63431373
0.20980392 0.12352941 0.46078431
0.34019608 0.13382353 0.47647059
0.60294118 0.090196078 0.51470588
0.90980392 0.0039215686 0.53137255
1 0.17254902 0.50784314
0.17990196 0.26176471 0.47205882
0.32843137 0.28627451 0.48762255
0.5995098 0.29436275 0.5254902
0.89705882 0.30294118 0.53125
0.99460784 0.36127451 0.51911765
0.067647059 0.56764706 0.51568627
0.31936275 0.56691176 0.51470588
0.57990196 0.56617647 0.53872549
0.82156863 0.5745098 0.51862745
0.98921569 0.57647059 0.51568627
0.42352941 0.74607843 0.55735294
0.47352941 0.74215686 0.55428922
0.54583333 0.70220588 0.51372549
0.75441176 0.75428922 0.54705882
0.96078431 0.78431373 0.53823529
0.60196078 0.91960784 0.67254902
0.6254902 0.91617647 0.67107843
0.67647059 0.90196078 0.66568627
0.7745098 0.90098039 0.66323529
0.91568627 0.94313725 0.7
0.34019608 0.18235294 0.74411765
0.43995098 0.18946078 0.74509804
0.63872549 0.21666667 0.75637255
0.86666667 0.27230392 0.77622549
0.99607843 0.32843137 0.76372549
0.31764706 0.30294118 0.74019608
0.42671569 0.31960784 0.74393382
0.63235294 0.35588235 0.75588235
0.85563725 0.40980392 0.77941176
0.99289216 0.44583333 0.77941176
0.10294118 0.50147059 0.72303922
0.31017157 0.51531863 0.73039216
0.58970588 0.55784314 0.74534314
0.82843137 0.61789216 0.77156863
0.99313725 0.64607843 0.78970588
0.43553922 0.77328431 0.76446078
0.49509804 0.7754902 0.76764706
0.63272059 0.76409314 0.76372549
0.79681373 0.78431373 0.77175245
0.96176471 0.79509804 0.77254902
0.65980392 0.94215686 0.80196078
0.66666667 0.92377451 0.8002451
0.72843137 0.93627451 0.80294118
0.79509804 0.92720588 0.7872549
0.94215686 0.94117647 0.80588235
0.55686275 0.36470588 0.91372549
0.63529412 0.39313725 0.93137255
0.74705882 0.4254902 0.91960784
0.89215686 0.51568627 0.92941176
0.99607843 0.56470588 0.9372549
0.58627451 0.46960784 0.93137255
0.63235294 0.48014706 0.92843137
0.75294118 0.50392157 0.925
0.88823529 0.57083333 0.92941176
0.98431373 0.60784314 0.93039216
0.49607843 0.59215686 0.92352941
0.59166667 0.6122549 0.92401961
0.72156863 0.62843137 0.91862745
0.86862745 0.675 0.92156863
0.99215686 0.70980392 0.9372549
0.43431373 0.75686275 0.89509804
0.49901961 0.75686275 0.90588235
0.63872549 0.75980392 0.91617647
0.82156863 0.79509804 0.93333333
0.97941176 0.8372549 0.9254902
0.64705882 0.96470588 0.9372549
0.66862745 0.9627451 0.93627451
0.71372549 0.9372549 0.94117647
0.84901961 0.94117647 0.89803922
0.97647059 0.97254902 0.95686275
