site/assets/luts/natron-haldclut--kodak-elite-color-200--1b24ba60c.cube
# LUTr-Project: LUTr — LUTrepository
# LUTr-Schema-Version: 1
# LUTr-ID: natron-haldclut--kodak-elite-color-200--1b24ba60c
# LUTr-Title: kodak elite color 200
# LUTr-Collection: Natron HaldCLUT
# LUTr-Collection-ID: natron-haldclut-presets
# LUTr-Source: https://github.com/NatronGitHub/clut
# LUTr-Source-File: submissions/natron-haldclut-presets/negative_color/kodak_elite_color_200.png
# LUTr-Source-Format: PNG
# LUTr-Source-SHA256: cdfa5a4492e855ad22536c53e6f8132ab704dbde59e9e7ac694ff4310ed08f39
# LUTr-License: CC-BY-SA-4.0
# LUTr-License-URL: https://github.com/NatronGitHub/clut#license
# LUTr-Tags: creative, film, film-emulation, hald-clut, natron, png, cube
# LUTr-Transform-Class: film-emulation
# LUTr-Input-Color-Space: srgb
# LUTr-Output-Color-Space: srgb
# LUTr-Color-Space-Confidence: assumed-display-referred
# LUTr-Conversion-Method: PNG LUT image decoded at 16-bit and sampled to 25x25x25 3D CUBE
# LUTr-Conversion-Date: 2026-07-27
# LUTr-Conversion-Tool: LUTr scripts/convert-all-to-cube.mjs
# LUTr-Conversion-Grid: 25x25x25
# LUTr-Note: Preserve this metadata and the upstream license notices when redistributing.
TITLE "kodak elite color 200"
LUT_3D_SIZE 5
DOMAIN_MIN 0 0 0
DOMAIN_MAX 1 1 1
0.050980392 0.0078431373 0.015686275
0.16568627 0.042156863 0.015686275
0.36666667 0.011764706 0.023529412
0.6754902 0.057843137 0.049019608
0.96078431 0.10196078 0.082352941
0.092156863 0.15 0.02745098
0.19240196 0.15073529 0.038970588
0.39117647 0.16568627 0.043627451
0.69509804 0.20196078 0.083088235
0.96764706 0.25686275 0.12647059
0.15098039 0.34705882 0.045098039
0.23676471 0.34117647 0.031372549
0.45490196 0.36078431 0.047058824
0.73921569 0.3872549 0.06127451
0.9745098 0.42941176 0.11176471
0.23823529 0.55588235 0.0068627451
0.35392157 0.55490196 0.014705882
0.5627451 0.56519608 0.011764706
0.80588235 0.58014706 0.022794118
0.98431373 0.59019608 0.033333333
0.42745098 0.68235294 0
0.52745098 0.70588235 0
0.68823529 0.70588235 0
0.86960784 0.70098039 0.0039215686
1 0.70980392 0
0.00098039216 0.019607843 0.16960784
0.17622549 0.058823529 0.18529412
0.38235294 0.057843137 0.20490196
0.68112745 0.11519608 0.22941176
0.95098039 0.17843137 0.27156863
0.086029412 0.18039216 0.16960784
0.18903186 0.18823529 0.18529412
0.40098039 0.20245098 0.20012255
0.69411765 0.2338848 0.22941176
0.94411765 0.29583333 0.2754902
0.11029412 0.3754902 0.15196078
0.22794118 0.38333333 0.16862745
0.45686275 0.38676471 0.18333333
0.73455882 0.41409314 0.20612745
0.96617647 0.46029412 0.25147059
0.23627451 0.57916667 0.070588235
0.34160539 0.58308824 0.073529412
0.55490196 0.59203431 0.09129902
0.80545343 0.60606618 0.12083333
0.98823529 0.63235294 0.15294118
0.48137255 0.71666667 0
0.53357843 0.70588235 0.0039215686
0.70294118 0.7127451 0
0.89019608 0.70882353 0.0039215686
0.99607843 0.70490196 0.011764706
0.019607843 0.074509804 0.36470588
0.18333333 0.087745098 0.38823529
0.40686275 0.099019608 0.40294118
0.69509804 0.14607843 0.43186275
0.93137255 0.21960784 0.4745098
0.1127451 0.21911765 0.39509804
0.18995098 0.23431373 0.41078431
0.42058824 0.25318627 0.42892157
0.71017157 0.28811275 0.45404412
0.95441176 0.34117647 0.50098039
0.054901961 0.43333333 0.4254902
0.21004902 0.44509804 0.43333333
0.45637255 0.45441176 0.45147059
0.7375 0.48504902 0.47720588
0.95686275 0.52156863 0.51666667
0.17303922 0.65882353 0.38627451
0.31029412 0.66127451 0.3877451
0.52745098 0.67622549 0.42769608
0.7817402 0.69154412 0.44558824
0.98578431 0.71862745 0.50686275
0.5 0.75294118 0.066666667
0.56568627 0.74901961 0.046568627
0.71176471 0.75294118 0.059803922
0.88921569 0.76323529 0.10980392
1 0.78039216 0.16862745
0.073529412 0.16470588 0.63039216
0.20514706 0.16176471 0.63602941
0.42990196 0.1627451 0.64460784
0.71004902 0.19240196 0.66666667
0.95490196 0.23921569 0.69313725
0.1002451 0.28823529 0.66960784
0.21053922 0.27800245 0.66887255
0.44473039 0.29767157 0.68921569
0.71691176 0.33063725 0.70625
0.95098039 0.38308824 0.73210784
0.095098039 0.49509804 0.70980392
0.21715686 0.49497549 0.71029412
0.47034314 0.50245098 0.7247549
0.73897059 0.53529412 0.74460784
0.95294118 0.57892157 0.76568627
0.10955882 0.73553922 0.7247549
0.29883578 0.73897059 0.72156863
0.53602941 0.74509804 0.73014706
0.76936275 0.76151961 0.75741422
0.96470588 0.7872549 0.78333333
0.43921569 0.88333333 0.59901961
0.47843137 0.87230392 0.62769608
0.65441176 0.89362745 0.63235294
0.82941176 0.88333333 0.65416667
0.98333333 0.89117647 0.72745098
0.1254902 0.20784314 0.83529412
0.23333333 0.2 0.81176471
0.46470588 0.19803922 0.82352941
0.73039216 0.24019608 0.85882353
0.94901961 0.25490196 0.80784314
0.16764706 0.27647059 0.87254902
0.28235294 0.29411765 0.86960784
0.47990196 0.3 0.84558824
0.74338235 0.33137255 0.88235294
0.93529412 0.38627451 0.87254902
0.24509804 0.50392157 0.90588235
0.33333333 0.50931373 0.89901961
0.53529412 0.5254902 0.90588235
0.77009804 0.5372549 0.91617647
0.96078431 0.59411765 0.90196078
0.31372549 0.77647059 0.94607843
0.40612745 0.7754902 0.94509804
0.59117647 0.77647059 0.93431373
0.78823529 0.78823529 0.93823529
0.96470588 0.81078431 0.9245098
0.50196078 0.97254902 0.95686275
0.50098039 0.9254902 0.95686275
0.67058824 0.96666667 0.94509804
0.83039216 0.96666667 0.96960784
0.96862745 0.98431373 0.98431373
