site/assets/luts/natron-haldclut--warm-yellow--b4fc5258a.cube
# LUTr-Project: LUTr — LUTrepository
# LUTr-Schema-Version: 1
# LUTr-ID: natron-haldclut--warm-yellow--b4fc5258a
# LUTr-Title: warm yellow
# LUTr-Collection: Natron HaldCLUT
# LUTr-Collection-ID: natron-haldclut-presets
# LUTr-Source: https://github.com/NatronGitHub/clut
# LUTr-Source-File: submissions/natron-haldclut-presets/various/warm_yellow.png
# LUTr-Source-Format: PNG
# LUTr-Source-SHA256: 6527bb271af3febd0a8d3197b5474d12b699eaa471d04dea1414b4eb19b29076
# LUTr-License: CC-BY-SA-4.0
# LUTr-License-URL: https://github.com/NatronGitHub/clut#license
# LUTr-Tags: creative, film, film-emulation, hald-clut, natron, png, warm, cube
# LUTr-Transform-Class: film-emulation
# LUTr-Input-Color-Space: srgb
# LUTr-Output-Color-Space: srgb
# LUTr-Color-Space-Confidence: assumed-display-referred
# LUTr-Conversion-Method: PNG LUT image decoded at 16-bit and sampled to 25x25x25 3D CUBE
# LUTr-Conversion-Date: 2026-07-27
# LUTr-Conversion-Tool: LUTr scripts/convert-all-to-cube.mjs
# LUTr-Conversion-Grid: 25x25x25
# LUTr-Note: Preserve this metadata and the upstream license notices when redistributing.
TITLE "warm yellow"
LUT_3D_SIZE 5
DOMAIN_MIN 0 0 0
DOMAIN_MAX 1 1 1
0.047058824 0.019607843 0.0078431373
0.39901961 0 0
0.69019608 0.0039215686 0
0.88039216 0 0
0.99607843 0 0
0.2127451 0.19509804 0.042156863
0.4129902 0.19436275 0.011029412
0.70539216 0.18186275 0
0.88039216 0.1872549 0
0.97647059 0.16568627 0
0.39215686 0.56862745 0.11960784
0.44901961 0.57352941 0.023529412
0.70588235 0.55490196 0.00098039216
0.87745098 0.54313725 0
0.98235294 0.56078431 0
0.57156863 0.87352941 0.23431373
0.55784314 0.8745098 0.069607843
0.70098039 0.87745098 0.024019608
0.88039216 0.87034314 0
0.99313725 0.8754902 0
0.70980392 0.98823529 0.41960784
0.65980392 0.98039216 0.15882353
0.74313725 0.98823529 0.039215686
0.86862745 0.98823529 0.0039215686
0.99215686 0.98431373 0
0.1372549 0.053921569 0.11568627
0.41446078 0.020588235 0.11470588
0.70147059 0.0039215686 0.095098039
0.88039216 0.0041666667 0.10686275
0.9754902 0 0.10392157
0.11740196 0.19215686 0.11642157
0.42328431 0.19215686 0.11954657
0.71078431 0.11507353 0.067156863
0.87959559 0.065870098 0.03627451
0.99142157 0.027696078 0.010784314
0.3127451 0.57352941 0.19803922
0.55134804 0.57745098 0.22328431
0.69803922 0.55980392 0.073284314
0.88210784 0.44117647 0.031617647
0.98627451 0.3377451 0.01372549
0.48186275 0.87818627 0.35073529
0.69166667 0.86960784 0.41109069
0.72904412 0.87598039 0.16127451
0.88039216 0.87359069 0.03682598
0.97156863 0.82156863 0.012990196
0.62254902 0.99509804 0.55294118
0.79877451 0.99509804 0.63872549
0.78921569 0.98970588 0.29411765
0.86862745 0.98921569 0.07745098
0.98823529 0.98333333 0.0068627451
0.2627451 0.10196078 0.43137255
0.46470588 0.052941176 0.43970588
0.70980392 0.011764706 0.43137255
0.87647059 0.0053921569 0.41666667
0.99411765 0 0.4254902
0.23333333 0.26862745 0.43480392
0.50698529 0.28394608 0.44031863
0.70318627 0.19338235 0.4247549
0.87696078 0.11715686 0.37120098
0.99068627 0.068627451 0.28529412
0.20784314 0.5872549 0.44803922
0.48921569 0.57647059 0.44117647
0.7127451 0.58676471 0.42352941
0.88039216 0.45588235 0.31053922
0.99215686 0.34509804 0.22745098
0.3627451 0.87745098 0.56764706
0.6254902 0.87745098 0.59375
0.79656863 0.87352941 0.62843137
0.88039216 0.86813725 0.31470588
0.99215686 0.80147059 0.20686275
0.5254902 0.98431373 0.72745098
0.74558824 0.99558824 0.78382353
0.86960784 0.99313725 0.82745098
0.89313725 0.98823529 0.48529412
0.99215686 0.98039216 0.19803922
0.36470588 0.1754902 0.84509804
0.54411765 0.10416667 0.84485294
0.72843137 0.06372549 0.84803922
0.88210784 0.015686275 0.84558824
0.99313725 0.0019607843 0.83823529
0.34681373 0.37622549 0.84681373
0.59693627 0.39632353 0.84803922
0.7372549 0.28676471 0.84411765
0.88112745 0.19607843 0.84491422
0.99044118 0.1245098 0.80857843
0.31568627 0.66568627 0.84607843
0.56764706 0.67193627 0.84803922
0.76102941 0.67745098 0.84779412
0.88431373 0.57022059 0.83259804
0.99019608 0.45490196 0.7872549
0.2879902 0.88431373 0.85588235
0.55612745 0.88118873 0.85588235
0.7685049 0.88137255 0.85906863
0.88823529 0.87671569 0.86207108
0.98357843 0.83137255 0.74828431
0.44117647 0.98823529 0.92352941
0.6754902 0.99215686 0.93529412
0.83823529 0.99215686 0.95
0.92965686 0.98823529 0.9372549
0.98921569 0.99215686 0.72156863
0.45490196 0.22745098 0.99607843
0.61666667 0.15980392 1
0.77058824 0.094117647 0.99803922
0.88823529 0.046078431 0.9872549
0.97647059 0.019607843 0.98823529
0.41666667 0.45882353 0.98431373
0.66666667 0.51151961 0.99583333
0.79019608 0.40098039 1
0.89215686 0.28333333 0.99215686
0.98529412 0.18529412 0.98137255
0.39607843 0.74901961 1
0.64607843 0.76323529 0.99460784
0.81176471 0.76666667 1
0.89607843 0.66862745 0.99607843
0.99215686 0.55686275 1
0.36078431 0.91176471 1
0.62720588 0.91568627 0.99607843
0.78529412 0.90931373 0.98872549
0.91078431 0.91715686 0.99607843
0.99215686 0.8745098 1
0.34117647 0.97647059 0.99607843
0.6 0.97647059 0.99607843
0.78235294 0.98823529 0.99607843
0.90686275 0.98529412 1
0.99607843 0.99607843 1
