site/assets/luts/natron-haldclut--polaroid-px-680--a4b679b0b.cube
# LUTr-Project: LUTr — LUTrepository
# LUTr-Schema-Version: 1
# LUTr-ID: natron-haldclut--polaroid-px-680--a4b679b0b
# LUTr-Title: polaroid px-680
# LUTr-Collection: Natron HaldCLUT
# LUTr-Collection-ID: natron-haldclut-presets
# LUTr-Source: https://github.com/NatronGitHub/clut
# LUTr-Source-File: submissions/natron-haldclut-presets/instant_consumer/polaroid_px-680.png
# LUTr-Source-Format: PNG
# LUTr-Source-SHA256: 2f41b5725fa0897071fa70e7e3b49aa1cb04a6d00522715bfecf14a74b30ec18
# LUTr-License: CC-BY-SA-4.0
# LUTr-License-URL: https://github.com/NatronGitHub/clut#license
# LUTr-Tags: creative, film, film-emulation, hald-clut, natron, png, cube
# LUTr-Transform-Class: film-emulation
# LUTr-Input-Color-Space: srgb
# LUTr-Output-Color-Space: srgb
# LUTr-Color-Space-Confidence: assumed-display-referred
# LUTr-Conversion-Method: PNG LUT image decoded at 16-bit and sampled to 25x25x25 3D CUBE
# LUTr-Conversion-Date: 2026-07-27
# LUTr-Conversion-Tool: LUTr scripts/convert-all-to-cube.mjs
# LUTr-Conversion-Grid: 25x25x25
# LUTr-Note: Preserve this metadata and the upstream license notices when redistributing.
TITLE "polaroid px-680"
LUT_3D_SIZE 5
DOMAIN_MIN 0 0 0
DOMAIN_MAX 1 1 1
0.019607843 0.18431373 0.20392157
0.053921569 0.18039216 0.20392157
0.5254902 0.19411765 0.19803922
0.85392157 0.34215686 0.22058824
0.98431373 0.55294118 0.27843137
0.0039215686 0.2245098 0.20784314
0.12671569 0.24289216 0.20098039
0.56372549 0.28284314 0.18431373
0.85882353 0.43235294 0.19289216
0.96470588 0.57647059 0.26764706
0 0.4745098 0.19607843
0.025 0.49166667 0.20392157
0.57156863 0.55588235 0.2
0.83137255 0.60882353 0.20539216
0.92941176 0.65098039 0.26078431
0.21176471 0.70784314 0.26960784
0.30220588 0.69313725 0.26960784
0.57843137 0.71568627 0.3
0.78946078 0.7627451 0.35980392
0.91666667 0.79901961 0.41470588
0.63137255 0.8745098 0.46666667
0.65 0.8745098 0.46960784
0.70980392 0.88627451 0.50392157
0.79705882 0.89803922 0.53333333
0.87843137 0.94117647 0.60392157
0.019607843 0.18039216 0.21372549
0.092401961 0.18357843 0.2247549
0.55882353 0.14901961 0.25686275
0.88039216 0.40759804 0.33235294
0.97352941 0.60294118 0.40980392
0.0039215686 0.25122549 0.24509804
0.20275735 0.26960784 0.25514706
0.6254902 0.34227941 0.28627451
0.86862745 0.49767157 0.33474265
0.95392157 0.61691176 0.39411765
0.12598039 0.51715686 0.2877451
0.25318627 0.52254902 0.28541667
0.62034314 0.58137255 0.30245098
0.83578431 0.62156863 0.32058824
0.94362745 0.68823529 0.39166667
0.31568627 0.70392157 0.32622549
0.4254902 0.70655637 0.34319853
0.61164216 0.72303922 0.36862745
0.79485294 0.76372549 0.40980392
0.91102941 0.80196078 0.45196078
0.62745098 0.86666667 0.4745098
0.65784314 0.8745098 0.48627451
0.71568627 0.88431373 0.51470588
0.80098039 0.8872549 0.53333333
0.8627451 0.91862745 0.58137255
0.090196078 0.19215686 0.38823529
0.35392157 0.2372549 0.40833333
0.64411765 0.37843137 0.43529412
0.86372549 0.41029412 0.47892157
0.96862745 0.6 0.51372549
0.067156863 0.31862745 0.42107843
0.39068627 0.35281863 0.43872549
0.68946078 0.49387255 0.46029412
0.85882353 0.54031863 0.49215686
0.95784314 0.66421569 0.53529412
0.26078431 0.54411765 0.42254902
0.41568627 0.55392157 0.43039216
0.69607843 0.61960784 0.46666667
0.84313725 0.66568627 0.49681373
0.9372549 0.73921569 0.54411765
0.49705882 0.70637255 0.44607843
0.56004902 0.71176471 0.45294118
0.66862745 0.7372549 0.47009804
0.81017157 0.77536765 0.5060049
0.92696078 0.80980392 0.53676471
0.63921569 0.86862745 0.51568627
0.66764706 0.87794118 0.52352941
0.71666667 0.8754902 0.53921569
0.80686275 0.89215686 0.57303922
0.87058824 0.92745098 0.62352941
0.49705882 0.34607843 0.59901961
0.62941176 0.40710784 0.59901961
0.79117647 0.59607843 0.60833333
0.86176471 0.68921569 0.61397059
0.91764706 0.66176471 0.61372549
0.51004902 0.45196078 0.59803922
0.63627451 0.50177696 0.60140931
0.78921569 0.62401961 0.60784314
0.86243873 0.70220588 0.6161152
0.91372549 0.71176471 0.62156863
0.37843137 0.60882353 0.56715686
0.52046569 0.61164216 0.57745098
0.75588235 0.67622549 0.60245098
0.86470588 0.76654412 0.6254902
0.92696078 0.76470588 0.63627451
0.49117647 0.72058824 0.54779412
0.53235294 0.71666667 0.54552696
0.70012255 0.74509804 0.57512255
0.84019608 0.81078431 0.61838235
0.90490196 0.83823529 0.64583333
0.60294118 0.86568627 0.57254902
0.59828431 0.83651961 0.56397059
0.70686275 0.87745098 0.59313725
0.81691176 0.90294118 0.6370098
0.88627451 0.94509804 0.67941176
0.77254902 0.67843137 0.72941176
0.79215686 0.69313725 0.7254902
0.84705882 0.74117647 0.71568627
0.89019608 0.81666667 0.71372549
0.90588235 0.86666667 0.71764706
0.7745098 0.71372549 0.73039216
0.78504902 0.70808824 0.71764706
0.84509804 0.74656863 0.70980392
0.89411765 0.82843137 0.71372549
0.90588235 0.86960784 0.71764706
0.73137255 0.74313725 0.72352941
0.75931373 0.74607843 0.72303922
0.82843137 0.78235294 0.71862745
0.88627451 0.84166667 0.7127451
0.89411765 0.88823529 0.72156863
0.62941176 0.79411765 0.70686275
0.63431373 0.78627451 0.69313725
0.73529412 0.79068627 0.69901961
0.85808824 0.85588235 0.72156863
0.89901961 0.91078431 0.7372549
0.6745098 0.92941176 0.72941176
0.66078431 0.89509804 0.69901961
0.72745098 0.89607843 0.70980392
0.8127451 0.91666667 0.7245098
0.91764706 0.95294118 0.76470588
