site/assets/luts/natron-haldclut--vibrant--0b34c2865.cube
# LUTr-Project: LUTr — LUTrepository
# LUTr-Schema-Version: 1
# LUTr-ID: natron-haldclut--vibrant--0b34c2865
# LUTr-Title: vibrant
# LUTr-Collection: Natron HaldCLUT
# LUTr-Collection-ID: natron-haldclut-presets
# LUTr-Source: https://github.com/NatronGitHub/clut
# LUTr-Source-File: submissions/natron-haldclut-presets/various/vibrant.png
# LUTr-Source-Format: PNG
# LUTr-Source-SHA256: 2a0338351af9a9bf0748b8cd8cded05d9417f1154e35e82df683a1dfe91f850d
# LUTr-License: CC-BY-SA-4.0
# LUTr-License-URL: https://github.com/NatronGitHub/clut#license
# LUTr-Tags: creative, film, film-emulation, hald-clut, natron, png, cube
# LUTr-Transform-Class: film-emulation
# LUTr-Input-Color-Space: srgb
# LUTr-Output-Color-Space: srgb
# LUTr-Color-Space-Confidence: assumed-display-referred
# LUTr-Conversion-Method: PNG LUT image decoded at 16-bit and sampled to 25x25x25 3D CUBE
# LUTr-Conversion-Date: 2026-07-27
# LUTr-Conversion-Tool: LUTr scripts/convert-all-to-cube.mjs
# LUTr-Conversion-Grid: 25x25x25
# LUTr-Note: Preserve this metadata and the upstream license notices when redistributing.
TITLE "vibrant"
LUT_3D_SIZE 5
DOMAIN_MIN 0 0 0
DOMAIN_MAX 1 1 1
0 0.0039215686 0
0.1245098 0 0
0.69215686 0 0
0.99607843 0.0039215686 0
0.99607843 0.0039215686 0.0039215686
0.0039215686 0.11666667 0.0039215686
0.12745098 0.11666667 0.0088235294
0.69607843 0.1245098 0.0083333333
0.99632353 0.11838235 0.0039215686
0.99607843 0.12156863 0.00098039216
0 0.56666667 0.0039215686
0.13431373 0.5504902 0.0078431373
0.7 0.56960784 0.0058823529
0.97598039 0.54362745 0.0039215686
1 0.57058824 0.0039215686
0.0039215686 0.92156863 0.0078431373
0.13210784 0.93259804 0
0.71127451 0.93039216 0.0014705882
0.98063725 0.91764706 0
1 0.90686275 0.0039215686
0 1 0.0039215686
0.15 1 0
0.68627451 0.99607843 0.0039215686
0.98823529 0.99901961 0.0039215686
1 1 0.0039215686
0 0.0039215686 0.18823529
0.14705882 0.0039215686 0.19117647
0.69019608 0.0039215686 0.19117647
0.98823529 0.0039215686 0.19436275
1 0 0.19509804
0.0078431373 0.12745098 0.19142157
0.14338235 0.11176471 0.19215686
0.69852941 0.12107843 0.19901961
0.98529412 0.1161152 0.19607843
1 0.11960784 0.19044118
0.0039215686 0.56470588 0.19901961
0.15392157 0.56017157 0.19509804
0.70784314 0.55686275 0.19436275
0.99117647 0.56372549 0.19509804
0.99656863 0.56666667 0.1877451
0.0039215686 0.9254902 0.19803922
0.13382353 0.92843137 0.19050245
0.69730392 0.91666667 0.18823529
0.98958333 0.91819853 0.19344363
1 0.9245098 0.19509804
0.0039215686 0.99607843 0.19509804
0.14607843 1 0.19191176
0.68627451 1 0.19607843
0.99019608 0.99607843 0.19509804
1 0.99607843 0.19117647
0.0078431373 0.0039215686 0.45098039
0.12352941 0 0.44754902
0.70392157 0.0039215686 0.45882353
0.98529412 0.0039215686 0.44705882
0.99607843 0.0039215686 0.45098039
0.0024509804 0.11715686 0.44901961
0.125 0.10931373 0.45098039
0.70882353 0.10955882 0.44313725
0.99056373 0.11617647 0.45098039
0.99656863 0.11911765 0.44656863
0.0039215686 0.54901961 0.45490196
0.14411765 0.55 0.44730392
0.70392157 0.55637255 0.45294118
0.98137255 0.55661765 0.44705882
0.99607843 0.56470588 0.45
0.0039215686 0.91715686 0.45490196
0.13884804 0.9254902 0.44705882
0.69681373 0.9254902 0.45490196
0.9935049 0.92193627 0.45563725
1 0.92598039 0.45098039
0 1 0.44509804
0.15490196 1 0.45098039
0.70882353 1 0.45588235
0.98921569 0.99607843 0.45098039
1 1 0.45686275
0.0039215686 0 0.75
0.14215686 0 0.74313725
0.71176471 0.0039215686 0.75833333
0.98995098 0.0039215686 0.74215686
1 0.0039215686 0.75
0.0029411765 0.1254902 0.75098039
0.13688725 0.11268382 0.75392157
0.70502451 0.10980392 0.74313725
0.97843137 0.1127451 0.75189951
0.99607843 0.11446078 0.74240196
0.0039215686 0.54117647 0.75196078
0.13970588 0.55833333 0.74705882
0.70686275 0.56078431 0.74852941
0.98468137 0.55490196 0.75392157
0.9995098 0.54117647 0.75098039
0.0039215686 0.91691176 0.75
0.14993873 0.92530637 0.74761029
0.7057598 0.9245098 0.75392157
0.97408088 0.91819853 0.74632353
1 0.91470588 0.75784314
0.0078431373 1 0.75098039
0.14215686 1 0.75490196
0.70588235 0.99607843 0.74656863
0.98921569 1 0.75563725
1 1 0.76666667
0.0039215686 0 1
0.12647059 0 0.99607843
0.71960784 0 1
0.98235294 0.0039215686 0.99215686
1 0 0.99607843
0.0039215686 0.1127451 0.99607843
0.13137255 0.11666667 0.99681373
0.70784314 0.12058824 0.99607843
0.98553922 0.11666667 0.99607843
1 0.1127451 1
0.0039215686 0.55686275 0.99607843
0.12647059 0.55098039 0.99754902
0.70588235 0.56960784 0.99607843
0.9872549 0.55882353 1
1 0.55294118 0.99607843
0.0068627451 0.92254902 1
0.14901961 0.9127451 0.97843137
0.69705882 0.92794118 0.99607843
0.98137255 0.92843137 0.99436275
1 0.9127451 0.99607843
0.0039215686 0.99607843 1
0.13137255 0.99607843 0.99607843
0.70196078 1 0.99607843
0.98627451 1 0.99607843
1 1 0.99607843
