site/assets/luts/natron-haldclut--polaroid-px-680-cold---56747663b.cube
# LUTr-Project: LUTr — LUTrepository
# LUTr-Schema-Version: 1
# LUTr-ID: natron-haldclut--polaroid-px-680-cold---56747663b
# LUTr-Title: polaroid px-680 cold -
# LUTr-Collection: Natron HaldCLUT
# LUTr-Collection-ID: natron-haldclut-presets
# LUTr-Source: https://github.com/NatronGitHub/clut
# LUTr-Source-File: submissions/natron-haldclut-presets/instant_consumer/polaroid_px-680_cold_-.png
# LUTr-Source-Format: PNG
# LUTr-Source-SHA256: 0d67b6eb02c681121ac0c3a8f603dfa6eb745b0b02d4c9471ad9744170290532
# LUTr-License: CC-BY-SA-4.0
# LUTr-License-URL: https://github.com/NatronGitHub/clut#license
# LUTr-Tags: creative, film, film-emulation, hald-clut, natron, png, cool, cube
# LUTr-Transform-Class: film-emulation
# LUTr-Input-Color-Space: srgb
# LUTr-Output-Color-Space: srgb
# LUTr-Color-Space-Confidence: assumed-display-referred
# LUTr-Conversion-Method: PNG LUT image decoded at 16-bit and sampled to 25x25x25 3D CUBE
# LUTr-Conversion-Date: 2026-07-27
# LUTr-Conversion-Tool: LUTr scripts/convert-all-to-cube.mjs
# LUTr-Conversion-Grid: 25x25x25
# LUTr-Note: Preserve this metadata and the upstream license notices when redistributing.
TITLE "polaroid px-680 cold -"
LUT_3D_SIZE 25
DOMAIN_MIN 0 0 0
DOMAIN_MAX 1 1 1
0.0039215686 0.10196078 0.15686275
0.0039215686 0.10196078 0.15294118
0 0.10098039 0.15294118
0.01372549 0.10147059 0.15294118
0.054901961 0.10196078 0.15686275
0.096078431 0.10588235 0.15686275
0.13333333 0.10588235 0.15686275
0.16666667 0.10588235 0.15686275
0.2 0.10588235 0.15686275
0.28872549 0.12401961 0.16323529
0.37156863 0.13823529 0.16568627
0.44754902 0.14852941 0.16862745
0.51372549 0.14901961 0.16862745
0.57990196 0.14117647 0.16470588
0.64215686 0.14901961 0.16372549
0.69362745 0.19019608 0.17401961
0.74509804 0.23137255 0.18431373
0.79803922 0.27009804 0.18823529
0.83137255 0.29607843 0.19607843
0.86862745 0.32009804 0.2
0.90196078 0.34509804 0.20784314
0.91813725 0.38235294 0.23235294
0.93529412 0.41960784 0.25686275
0.95441176 0.46078431 0.28137255
0.96862745 0.49019608 0.29803922
0.0078431373 0.10833333 0.15686275
0.0078431373 0.10833333 0.15686275
0.006372549 0.10833333 0.15686275
0.018137255 0.10833333 0.15686275
0.058823529 0.1122549 0.16004902
0.096078431 0.11243873 0.16078431
0.13431373 0.11556373 0.16078431
0.17303922 0.11617647 0.16078431
0.22058824 0.11862745 0.16078431
0.29656863 0.13039216 0.16415441
0.37610294 0.14460784 0.16752451
0.45 0.15275735 0.16862745
0.51887255 0.15539216 0.16862745
0.58363971 0.15441176 0.16715686
0.6439951 0.16764706 0.16862745
0.69607843 0.19810049 0.17401961
0.74901961 0.23529412 0.18039216
0.79957108 0.27254902 0.18676471
0.83431373 0.29705882 0.1942402
0.86666667 0.32273284 0.20214461
0.89558824 0.35343137 0.2129902
0.91470588 0.38609069 0.23284314
0.93529412 0.42242647 0.25686275
0.95533088 0.46078431 0.28137255
0.97107843 0.49019608 0.3004902
0.012745098 0.11862745 0.16176471
0.011764706 0.11862745 0.16115196
0.011764706 0.11862745 0.16078431
0.02120098 0.11862745 0.16078431
0.058823529 0.12254902 0.16470588
0.099509804 0.12267157 0.16470588
0.1372549 0.12647059 0.16470588
0.18480392 0.12855392 0.16470588
0.23627451 0.13039216 0.16470588
0.30404412 0.14031863 0.16715686
0.38333333 0.15392157 0.16862745
0.45539216 0.16164216 0.16862745
0.52401961 0.16764706 0.16617647
0.5872549 0.17009804 0.16507353
0.64607843 0.1879902 0.17083333
0.69963235 0.21605392 0.17647059
0.75294118 0.24117647 0.18039216
0.80257353 0.27291667 0.18223039
0.83651961 0.30196078 0.19313725
0.86176471 0.33284314 0.20343137
0.89019608 0.36372549 0.21372549
0.91176471 0.39460784 0.23272059
0.93529412 0.42941176 0.25686275
0.95588235 0.46421569 0.28137255
0.97254902 0.49509804 0.30196078
0.015686275 0.12892157 0.16470588
0.011948529 0.12892157 0.16470588
0.010906863 0.12892157 0.16470588
0.015625 0.12892157 0.16470588
0.055392157 0.13455882 0.16642157
0.1 0.13676471 0.16470588
0.14117647 0.13933824 0.16470588
0.19166667 0.14068627 0.16813725
0.24656863 0.14068627 0.16813725
0.30588235 0.14705882 0.16862745
0.38333333 0.16127451 0.16862745
0.45539216 0.16856618 0.16862745
0.5254902 0.17598039 0.16470588
0.59117647 0.18039216 0.16127451
0.64901961 0.2064951 0.16764706
0.70508578 0.23743873 0.17665441
0.75637255 0.26176471 0.17696078
0.80441176 0.28578431 0.18039216
0.83431373 0.3122549 0.19313725
0.86127451 0.34613971 0.20343137
0.89019608 0.37401961 0.21372549
0.91470588 0.40490196 0.22935049
0.93529412 0.43884804 0.25588235
0.95588235 0.47205882 0.28137255
0.97254902 0.50147059 0.30539216
0.0098039216 0.13921569 0.16862745
0.0085784314 0.13921569 0.16740196
0.0053921569 0.13921569 0.16666667
0.0053921569 0.13921569 0.16666667
0.048039216 0.14607843 0.16862745
0.094362745 0.14926471 0.16862745
0.14558824 0.15588235 0.16862745
0.1995098 0.16151961 0.16862745
0.25294118 0.16470588 0.16862745
0.31323529 0.17107843 0.16666667
0.3872549 0.18333333 0.16617647
0.46102941 0.19362745 0.16470588
0.53039216 0.20098039 0.16568627
0.59509804 0.2127451 0.16470588
0.65343137 0.23480392 0.16470588
0.70539216 0.26519608 0.17132353
0.75686275 0.29215686 0.1745098
0.80073529 0.3127451 0.18284314
0.83186275 0.3377451 0.19313725
0.86127451 0.36323529 0.20343137
0.89215686 0.38823529 0.2127451
0.91813725 0.41519608 0.22843137
0.93529412 0.45 0.25588235
0.95196078 0.48357843 0.28480392
0.96862745 0.51176471 0.30784314
0.0039215686 0.1627451 0.16911765
0.0014705882 0.1627451 0.16911765
0 0.1627451 0.16911765
0.0034926471 0.1627451 0.16911765
0.036519608 0.16813725 0.17254902
0.083394608 0.17794118 0.17254902
0.14215686 0.18480392 0.17254902
0.20490196 0.19117647 0.16893382
0.2627451 0.19754902 0.16470588
0.32058824 0.2036152 0.16421569
0.39080882 0.21286765 0.16078431
0.46323529 0.22359069 0.16770833
0.53529412 0.23480392 0.16887255
0.59944853 0.2495098 0.16813725
0.65686275 0.27009804 0.16433824
0.70931373 0.29589461 0.16599265
0.75686275 0.31911765 0.17205882
0.79540441 0.34099265 0.18284314
0.83039216 0.36372549 0.19705882
0.85778186 0.38474265 0.20343137
0.8879902 0.40882353 0.21372549
0.91427696 0.43382353 0.22935049
0.93223039 0.46470588 0.25588235
0.95177696 0.49558824 0.28498775
0.96470588 0.52156863 0.30882353
0.0039215686 0.20392157 0.17254902
0.0039215686 0.20392157 0.17254902
0.0039215686 0.20392157 0.17254902
0.0073529412 0.20012255 0.17254902
0.021078431 0.20098039 0.17254902
0.056372549 0.20882353 0.17254902
0.12058824 0.21568627 0.1747549
0.19620098 0.22205882 0.175
0.25980392 0.22843137 0.16764706
0.32095588 0.23235294 0.16078431
0.39044118 0.24191176 0.16078431
0.46580882 0.25526961 0.16727941
0.53921569 0.26911765 0.17254902
0.60245098 0.28419118 0.16813725
0.65686275 0.30098039 0.15857843
0.70931373 0.32193627 0.15894608
0.75294118 0.34607843 0.16862745
0.79056373 0.36764706 0.18284314
0.82818627 0.3872549 0.19705882
0.85735294 0.40882353 0.2064951
0.88284314 0.43284314 0.21911765
0.90821078 0.45441176 0.23492647
0.93137255 0.48210784 0.25588235
0.94693627 0.50784314 0.27843137
0.96078431 0.52843137 0.29901961
0.0039215686 0.24901961 0.17794118
0.0039215686 0.24656863 0.17794118
0.0039215686 0.24411765 0.17794118
0.006372549 0.23988971 0.17647059
0.006372549 0.2372549 0.17647059
0.025980392 0.24019608 0.17647059
0.099019608 0.24803922 0.17647059
0.17745098 0.2622549 0.17738971
0.24558824 0.27009804 0.17254902
0.31519608 0.28131127 0.16617647
0.3932598 0.29669118 0.16188725
0.46844363 0.31011029 0.16421569
0.54240196 0.32058824 0.16985294
0.59901961 0.32941176 0.1627451
0.6557598 0.33578431 0.15392157
0.70784314 0.34761029 0.14957108
0.74901961 0.37156863 0.16470588
0.78719363 0.39362745 0.18229167
0.825 0.41384804 0.19313725
0.85373775 0.43333333 0.20539216
0.87965686 0.45392157 0.21887255
0.90588235 0.47843137 0.23449755
0.92990196 0.49901961 0.25294118
0.94411765 0.52052696 0.27352941
0.95833333 0.54019608 0.29411765
0.0039215686 0.29019608 0.18431373
0.0039215686 0.29019608 0.18431373
0.0039215686 0.28529412 0.18039216
0.0039215686 0.28235294 0.18039216
0 0.27843137 0.18039216
0.0058823529 0.27892157 0.17647059
0.070588235 0.29313725 0.18039216
0.15294118 0.30735294 0.18039216
0.23137255 0.31764706 0.17647059
0.31372549 0.33823529 0.17254902
0.39607843 0.35392157 0.16764706
0.4745098 0.36813725 0.16078431
0.54117647 0.37843137 0.16078431
0.59852941 0.38823529 0.15637255
0.65392157 0.38823529 0.15294118
0.70392157 0.39215686 0.15441176
0.74509804 0.40392157 0.16470588
0.78235294 0.4245098 0.18137255
0.81862745 0.44019608 0.18921569
0.8495098 0.45392157 0.19558824
0.8745098 0.4745098 0.20980392
0.89901961 0.49509804 0.22794118
0.91960784 0.51568627 0.24803922
0.94411765 0.54019608 0.27107843
0.96078431 0.55686275 0.29019608
0.0039215686 0.33529412 0.18676471
0.0039215686 0.33229167 0.18676471
0.0039215686 0.32928922 0.18676471
0.00030637255 0.32616422 0.18431373
0.0031862745 0.32794118 0.18431373
0.0042892157 0.33382353 0.18253676
0.022303922 0.34068627 0.18039216
0.12683824 0.3533701 0.18039216
0.22107843 0.37303922 0.18039216
0.31280637 0.39362745 0.18284314
0.39607843 0.40992647 0.17303922
0.47843137 0.42567402 0.15520833
0.54387255 0.43504902 0.15294118
0.59607843 0.44019608 0.15716912
0.64938725 0.44362745 0.15931373
0.69846814 0.44362745 0.16470588
0.74117647 0.44509804 0.17254902
0.77898284 0.45631127 0.18284314
0.81115196 0.46470588 0.18186275
0.84166667 0.475 0.18529412
0.86740196 0.49509804 0.19828431
0.89264706 0.51568627 0.21813725
0.91323529 0.53627451 0.24227941
0.93382353 0.55441176 0.26568627
0.95196078 0.57107843 0.28382353
0.0029411765 0.38039216 0.18921569
0.0035539216 0.37745098 0.18921569
0.0039215686 0.37671569 0.18921569
0.0039215686 0.37745098 0.18835784
0.0039215686 0.38137255 0.18823529
0.0025735294 0.38566176 0.18529412
0.0029411765 0.38921569 0.18529412
0.086764706 0.39963235 0.18921569
0.19215686 0.41568627 0.18921569
0.28517157 0.43921569 0.19215686
0.37254902 0.45661765 0.18014706
0.45968137 0.46997549 0.16360294
0.53480392 0.48382353 0.15784314
0.59117647 0.49117647 0.16090686
0.64607843 0.49509804 0.16470588
0.6932598 0.49473039 0.17009804
0.73627451 0.49117647 0.17745098
0.77107843 0.49019608 0.18039216
0.80367647 0.49313725 0.17622549
0.83419118 0.4995098 0.17169118
0.86176471 0.51519608 0.18676471
0.88235294 0.53235294 0.20919118
0.90294118 0.55294118 0.23553922
0.92058824 0.56960784 0.25784314
0.94117647 0.58627451 0.27745098
0 0.4254902 0.19558824
0 0.425 0.19558824
0.0039215686 0.425 0.19215686
0.0039215686 0.42542892 0.19215686
0.0039215686 0.43112745 0.19191176
0.00042892157 0.43676471 0.19166667
0.0068627451 0.43713235 0.19558824
0.05 0.44785539 0.20079657
0.14705882 0.46078431 0.20294118
0.24362745 0.47745098 0.1995098
0.33492647 0.49056373 0.19056373
0.4245098 0.50392157 0.17990196
0.50539216 0.51985294 0.17377451
0.58517157 0.53964461 0.16427696
0.64693627 0.54656863 0.16470588
0.6872549 0.54136029 0.17383578
0.72254902 0.53529412 0.18039216
0.76078431 0.53265931 0.18400735
0.79264706 0.53137255 0.17892157
0.82647059 0.53137255 0.17248775
0.85490196 0.5379902 0.18578431
0.8754902 0.55594363 0.20925245
0.9 0.57352941 0.23333333
0.921875 0.59019608 0.25392157
0.94117647 0.60294118 0.2745098
0 0.46666667 0.2
0 0.47058824 0.19803922
0 0.47254902 0.19607843
0.0036764706 0.47058824 0.19436275
0.0039215686 0.47647059 0.19509804
0.0039215686 0.48235294 0.19852941
0.0078431373 0.48578431 0.20735294
0.02622549 0.49240196 0.2125
0.10784314 0.50588235 0.21176471
0.20686275 0.51421569 0.20857843
0.30490196 0.5245098 0.20098039
0.39779412 0.53480392 0.19926471
0.47745098 0.55294118 0.18823529
0.56102941 0.57132353 0.18014706
0.63529412 0.58529412 0.18137255
0.67769608 0.58431373 0.1870098
0.71568627 0.58039216 0.19607843
0.75245098 0.57720588 0.20073529
0.7877451 0.57254902 0.1995098
0.82009804 0.56887255 0.19803922
0.84705882 0.5745098 0.20882353
0.87181373 0.58897059 0.22843137
0.89558824 0.60441176 0.24607843
0.92132353 0.61789216 0.2629902
0.94509804 0.62745098 0.27647059
0 0.50784314 0.20441176
0 0.51176471 0.20392157
0 0.51568627 0.20036765
0 0.51568627 0.19656863
0 0.51960784 0.19852941
0.0039215686 0.52395833 0.20876225
0.0039215686 0.52745098 0.21519608
0.011887255 0.53106618 0.21979167
0.07254902 0.53872549 0.22009804
0.17598039 0.54656863 0.2158701
0.27941176 0.55539216 0.20821078
0.375 0.56568627 0.20398284
0.45392157 0.58357843 0.19901961
0.53578431 0.59761029 0.20196078
0.60833333 0.61090686 0.20833333
0.66519608 0.62126225 0.21452206
0.70931373 0.62156863 0.22107843
0.74675245 0.61911765 0.2245098
0.77892157 0.61237745 0.22107843
0.80980392 0.60980392 0.2245098
0.83897059 0.61568627 0.23431373
0.86329657 0.62640931 0.24895833
0.8877451 0.64019608 0.26568627
0.9122549 0.64981618 0.28039216
0.92843137 0.65245098 0.29068627
0 0.54901961 0.20784314
0 0.55294118 0.20784314
0 0.55318627 0.20686275
0.0025735294 0.55392157 0.20943627
0.0039215686 0.55882353 0.21372549
0.0039215686 0.56213235 0.2189951
0.0039215686 0.56544118 0.22328431
0.0053921569 0.56862745 0.22647059
0.038235294 0.57254902 0.22647059
0.14754902 0.57990196 0.22401961
0.25661765 0.58627451 0.21764706
0.35490196 0.59656863 0.21335784
0.43284314 0.61078431 0.22254902
0.51176471 0.625 0.22977941
0.58112745 0.63602941 0.23553922
0.64276961 0.6495098 0.24056373
0.69607843 0.65686275 0.24509804
0.73382353 0.65012255 0.24509804
0.76568627 0.64509804 0.24509804
0.80208333 0.65355392 0.24767157
0.83186275 0.65686275 0.25294118
0.85686275 0.66715686 0.26654412
0.87965686 0.6745098 0.28259804
0.90159314 0.67757353 0.29460784
0.91764706 0.68333333 0.30490196
0 0.59019608 0.21176471
0.0014705882 0.59019608 0.21715686
0.0042892157 0.59264706 0.22352941
0.0075367647 0.59264706 0.22990196
0.0093137255 0.59534314 0.23431373
0.009620098 0.6004902 0.2346201
0.012867647 0.60379902 0.23823529
0.014705882 0.60496324 0.23823529
0.032843137 0.60833333 0.24068627
0.14908088 0.6122549 0.23915441
0.25551471 0.62009804 0.23578431
0.33970588 0.62745098 0.23792892
0.41813725 0.6377451 0.24803922
0.49607843 0.6504902 0.25441176
0.56017157 0.66078431 0.25784314
0.61709559 0.66960784 0.25876225
0.67009804 0.67745098 0.26029412
0.7151348 0.67800245 0.26176471
0.75147059 0.67990196 0.2627451
0.78903186 0.69019608 0.26930147
0.82401961 0.69803922 0.27352941
0.84834559 0.70245098 0.28578431
0.87254902 0.70539216 0.29963235
0.89705882 0.70876225 0.3127451
0.91372549 0.71421569 0.32058824
0.0039215686 0.62352941 0.22745098
0.0039215686 0.62352941 0.23382353
0.0078431373 0.62745098 0.24313725
0.011764706 0.62745098 0.2504902
0.011764706 0.63137255 0.25490196
0.011764706 0.63529412 0.25490196
0.0078431373 0.63823529 0.25490196
0.0093137255 0.63921569 0.25343137
0.02745098 0.63921569 0.25490196
0.15196078 0.64313725 0.25735294
0.25392157 0.64803922 0.25882353
0.32990196 0.65490196 0.2627451
0.40980392 0.66470588 0.27254902
0.48529412 0.675 0.27892157
0.54411765 0.68529412 0.28235294
0.59803922 0.69166667 0.28235294
0.64705882 0.69803922 0.27843137
0.69460784 0.70441176 0.27843137
0.7372549 0.71078431 0.2872549
0.775 0.71715686 0.29362745
0.81176471 0.7254902 0.3
0.84068627 0.72941176 0.31029412
0.86764706 0.73333333 0.32058824
0.89068627 0.73872549 0.33088235
0.91764706 0.74901961 0.34117647
0.0039215686 0.65441176 0.25196078
0.0078431373 0.65441176 0.25533088
0.0088235294 0.65833333 0.26078431
0.013051471 0.6622549 0.26764706
0.015686275 0.6622549 0.27156863
0.015686275 0.66617647 0.27156863
0.012377451 0.67009804 0.27156863
0.0054534314 0.67009804 0.26764706
0.0044117647 0.67009804 0.26519608
0.16807598 0.67647059 0.27401961
0.25784314 0.68186275 0.28039216
0.32990196 0.68578431 0.28676471
0.40661765 0.69240196 0.29632353
0.47714461 0.6995098 0.30294118
0.53382353 0.70870098 0.3064951
0.5877451 0.715625 0.30539216
0.63921569 0.72254902 0.30539216
0.68578431 0.72892157 0.30931373
0.72598039 0.73492647 0.31715686
0.76421569 0.74166667 0.3245098
0.7995098 0.74803922 0.33088235
0.83039216 0.75422794 0.34117647
0.85735294 0.75968137 0.35147059
0.88376225 0.76568627 0.36176471
0.90735294 0.77352941 0.36813725
0.0078431373 0.68529412 0.27647059
0.010661765 0.68921569 0.27928922
0.0078431373 0.69019608 0.28137255
0.011642157 0.69313725 0.28811275
0.019607843 0.69313725 0.28970588
0.015686275 0.69705882 0.28860294
0.018872549 0.69926471 0.29117647
0.02120098 0.70098039 0.28860294
0.079411765 0.70098039 0.29313725
0.2060049 0.7067402 0.2995098
0.26838235 0.70882353 0.30416667
0.33713235 0.71262255 0.31127451
0.41078431 0.71813725 0.31862745
0.47316176 0.72487745 0.32487745
0.52916667 0.73431373 0.33137255
0.58382353 0.74068627 0.33627451
0.63039216 0.74705882 0.3372549
0.6754902 0.75159314 0.34203431
0.71666667 0.75906863 0.34509804
0.75306373 0.76617647 0.35539216
0.78676471 0.77254902 0.36372549
0.82009804 0.77892157 0.37205882
0.84877451 0.78627451 0.38235294
0.87683824 0.79264706 0.39264706
0.89803922 0.79901961 0.39901961
0.0078431373 0.72009804 0.30098039
0.011764706 0.72009804 0.30098039
0.0069852941 0.72107843 0.30110294
0.0082720588 0.72401961 0.30533088
0.021568627 0.72401961 0.30710784
0.015686275 0.72794118 0.30539216
0.02120098 0.72794118 0.30796569
0.082965686 0.72971814 0.31403186
0.16862745 0.73186275 0.32401961
0.25569853 0.73578431 0.32794118
0.30404412 0.73713235 0.33186275
0.36372549 0.7401348 0.33621324
0.43014706 0.74583333 0.34558824
0.4838848 0.75196078 0.35153186
0.53615196 0.75845588 0.35845588
0.58970588 0.76501225 0.36341912
0.62745098 0.77156863 0.36764706
0.66519608 0.7776348 0.37107843
0.70539216 0.78296569 0.37598039
0.74019608 0.79025735 0.38627451
0.77867647 0.79509804 0.39289216
0.81372549 0.80294118 0.40294118
0.84411765 0.81323529 0.41323529
0.8713848 0.82352941 0.42352941
0.89460784 0.82990196 0.42990196
0.0039215686 0.75490196 0.3254902
0.0083333333 0.75686275 0.32745098
0.0088235294 0.75490196 0.3245098
0.0068627451 0.75490196 0.32156863
0.032352941 0.75490196 0.3254902
0.040441176 0.75882353 0.3254902
0.11470588 0.75882353 0.33235294
0.1872549 0.76029412 0.34460784
0.24509804 0.7627451 0.35098039
0.30318627 0.76666667 0.35882353
0.34705882 0.76715686 0.3627451
0.39191176 0.77058824 0.36446078
0.45294118 0.7754902 0.37156863
0.5002451 0.77867647 0.37867647
0.54656863 0.78382353 0.38529412
0.59607843 0.78970588 0.39093137
0.63333333 0.79607843 0.39607843
0.67058824 0.80122549 0.40196078
0.70833333 0.80833333 0.40980392
0.73946078 0.81348039 0.41372549
0.77352941 0.81862745 0.42254902
0.80735294 0.82598039 0.42990196
0.83823529 0.83627451 0.44019608
0.86911765 0.84852941 0.45441176
0.89803922 0.86078431 0.46470588
0.066176471 0.78970588 0.35882353
0.084497549 0.78970588 0.35882353
0.12389706 0.79007353 0.35833333
0.12898284 0.78970588 0.35882353
0.15514706 0.78970588 0.3627451
0.20386029 0.78970588 0.36323529
0.24411765 0.78970588 0.36666667
0.275 0.79148284 0.37579657
0.31323529 0.79362745 0.38235294
0.35655637 0.79754902 0.39001225
0.39803922 0.79852941 0.39362745
0.43584559 0.80147059 0.39411765
0.47426471 0.80318627 0.39779412
0.51715686 0.80582108 0.40539216
0.55784314 0.80931373 0.4122549
0.60245098 0.81470588 0.41862745
0.64362745 0.82107843 0.4254902
0.68480392 0.82745098 0.43578431
0.72107843 0.83639706 0.44509804
0.74810049 0.83976716 0.44810049
0.77303922 0.84436275 0.45073529
0.80147059 0.85245098 0.45686275
0.83235294 0.85894608 0.47107843
0.86323529 0.87040441 0.48314951
0.88578431 0.87892157 0.49166667
0.22352941 0.8245098 0.4
0.25404412 0.8245098 0.39938725
0.27916667 0.8245098 0.39901961
0.27757353 0.8245098 0.4
0.28088235 0.82352941 0.40539216
0.30625 0.82352941 0.40698529
0.33333333 0.82426471 0.41078431
0.36029412 0.8245098 0.41568627
0.38823529 0.82745098 0.42058824
0.42352941 0.83026961 0.42745098
0.45980392 0.83235294 0.43137255
0.49080882 0.83235294 0.43137255
0.51176471 0.83088235 0.43186275
0.55061275 0.83284314 0.43933824
0.58921569 0.83921569 0.44607843
0.62610294 0.84411765 0.45490196
0.66078431 0.84803922 0.4627451
0.69803922 0.85477941 0.47303922
0.73431373 0.86372549 0.48235294
0.75882353 0.86470588 0.48321078
0.78333333 0.87009804 0.48676471
0.80784314 0.87561275 0.4942402
0.83235294 0.88333333 0.50416667
0.85931373 0.88970588 0.51617647
0.87156863 0.89607843 0.52254902
0.37843137 0.86078431 0.44656863
0.38480392 0.86078431 0.44656863
0.38872549 0.86078431 0.44656863
0.3908701 0.86078431 0.44656863
0.39264706 0.86078431 0.44901961
0.4091299 0.85931373 0.4504902
0.42990196 0.85931373 0.45404412
0.45484069 0.86023284 0.46078431
0.45735294 0.85539216 0.45539216
0.49215686 0.86323529 0.46715686
0.52267157 0.86715686 0.47254902
0.54381127 0.86372549 0.47126225
0.55955882 0.85931373 0.46862745
0.5877451 0.86372549 0.47696078
0.62438725 0.87009804 0.4872549
0.65980392 0.87647059 0.4966299
0.69068627 0.88284314 0.50392157
0.72009804 0.88621324 0.51121324
0.74460784 0.88958333 0.51629902
0.76911765 0.89283088 0.52175245
0.79166667 0.89779412 0.52745098
0.81470588 0.90245098 0.53186275
0.83872549 0.90821078 0.54215686
0.85974265 0.9127451 0.55189951
0.86127451 0.9127451 0.55343137
0.47058824 0.88627451 0.48235294
0.4745098 0.89019608 0.48235294
0.48137255 0.89019608 0.48627451
0.48186275 0.89019608 0.48627451
0.5 0.89607843 0.49215686
0.49852941 0.89019608 0.49019608
0.51470588 0.89019608 0.49313725
0.52009804 0.88872549 0.49264706
0.50980392 0.87843137 0.48235294
0.54852941 0.88872549 0.49656863
0.57745098 0.89705882 0.50588235
0.5877451 0.89019608 0.50245098
0.60196078 0.88627451 0.50196078
0.625 0.89019608 0.51029412
0.65882353 0.89705882 0.52058824
0.69313725 0.90980392 0.5372549
0.70980392 0.90588235 0.5372549
0.73039216 0.90588235 0.53970588
0.75490196 0.90980392 0.54509804
0.7754902 0.91372549 0.55245098
0.8 0.91960784 0.55882353
0.8245098 0.92941176 0.57254902
0.84509804 0.92941176 0.57647059
0.85490196 0.92941176 0.58039216
0.85490196 0.9254902 0.57647059
0.006372549 0.10196078 0.15931373
0.0039215686 0.10196078 0.15686275
0.0024509804 0.1004902 0.15539216
0.014338235 0.10018382 0.15539216
0.054901961 0.10196078 0.15931373
0.093443627 0.10588235 0.16109069
0.13039216 0.10588235 0.16323529
0.1661152 0.10588235 0.16323529
0.21421569 0.10980392 0.16715686
0.28964461 0.11764706 0.17015931
0.37156863 0.13284314 0.175
0.44754902 0.14264706 0.175
0.51568627 0.14509804 0.17745098
0.58363971 0.14785539 0.18008578
0.64497549 0.16311275 0.18492647
0.69123775 0.19656863 0.19221814
0.74264706 0.2377451 0.20098039
0.79411765 0.27401961 0.20490196
0.82855392 0.2995098 0.2127451
0.86488971 0.32647059 0.22009804
0.89681373 0.35465686 0.22843137
0.91470588 0.38872549 0.24901961
0.93529412 0.42598039 0.26960784
0.9528799 0.46415441 0.29019608
0.96862745 0.49411765 0.30686275
0.0078431373 0.10833333 0.16023284
0.0078431373 0.10833333 0.15965839
0.0076746324 0.10833333 0.15931373
0.01997549 0.10833333 0.16011795
0.058363971 0.10906863 0.16277574
0.095963542 0.11232384 0.16470588
0.13333333 0.1122549 0.16470588
0.17361366 0.11617647 0.16470588
0.2245098 0.12009804 0.16715686
0.29656863 0.12773438 0.16960784
0.3754136 0.14215686 0.17316176
0.45 0.15116422 0.175
0.51887255 0.15416667 0.17699142
0.58901654 0.16078431 0.18167892
0.64761029 0.17794118 0.18736213
0.69734222 0.20692402 0.19279259
0.74754902 0.24019608 0.19705882
0.79633885 0.27647059 0.20285692
0.83321078 0.30320159 0.20980392
0.86567862 0.33050705 0.21636029
0.89335172 0.35980392 0.22843137
0.91470588 0.39460784 0.24901961
0.93529412 0.42879902 0.26960784
0.95588235 0.46603094 0.29019608
0.9716299 0.49564951 0.30686275
0.011764706 0.11862745 0.16360294
0.011764706 0.11862745 0.16360294
0.010814951 0.11862745 0.16323529
0.022671569 0.11862745 0.16355699
0.058823529 0.11954657 0.16752451
0.096400123 0.12259498 0.16812194
0.1372549 0.12601103 0.16531863
0.18480392 0.1276348 0.16715686
0.23627451 0.13039216 0.16715686
0.30209865 0.13745404 0.16821385
0.37977941 0.15098039 0.17144608
0.45539216 0.16127451 0.175
0.52401961 0.16642157 0.17591912
0.59367341 0.17665441 0.18186275
0.65015319 0.19828431 0.18897059
0.70208333 0.2245098 0.19313725
0.75355392 0.2504902 0.19497549
0.80196078 0.27745098 0.19845282
0.83477328 0.30833333 0.20588235
0.86171875 0.33921569 0.21960784
0.88970588 0.37009804 0.23039216
0.91078431 0.40147059 0.24901961
