site/assets/luts/natron-haldclut--polaroid-px-70-warm--fea6ba529.cube
# LUTr-Project: LUTr — LUTrepository
# LUTr-Schema-Version: 1
# LUTr-ID: natron-haldclut--polaroid-px-70-warm--fea6ba529
# LUTr-Title: polaroid px-70 warm +
# LUTr-Collection: Natron HaldCLUT
# LUTr-Collection-ID: natron-haldclut-presets
# LUTr-Source: https://github.com/NatronGitHub/clut
# LUTr-Source-File: submissions/natron-haldclut-presets/instant_consumer/polaroid_px-70_warm_+.png
# LUTr-Source-Format: PNG
# LUTr-Source-SHA256: fc76e4b3f63deaf2494234e8759875d65e297a1fc312cbe2a8f453e611574ad2
# LUTr-License: CC-BY-SA-4.0
# LUTr-License-URL: https://github.com/NatronGitHub/clut#license
# LUTr-Tags: creative, film, film-emulation, hald-clut, natron, png, warm, cube
# LUTr-Transform-Class: film-emulation
# LUTr-Input-Color-Space: srgb
# LUTr-Output-Color-Space: srgb
# LUTr-Color-Space-Confidence: assumed-display-referred
# LUTr-Conversion-Method: PNG LUT image decoded at 16-bit and sampled to 25x25x25 3D CUBE
# LUTr-Conversion-Date: 2026-07-27
# LUTr-Conversion-Tool: LUTr scripts/convert-all-to-cube.mjs
# LUTr-Conversion-Grid: 25x25x25
# LUTr-Note: Preserve this metadata and the upstream license notices when redistributing.
TITLE "polaroid px-70 warm +"
LUT_3D_SIZE 25
DOMAIN_MIN 0 0 0
DOMAIN_MAX 1 1 1
0.23921569 0.15294118 0.15294118
0.24558824 0.15294118 0.15294118
0.25196078 0.15294118 0.15294118
0.25833333 0.15294118 0.15294118
0.26470588 0.15294118 0.15294118
0.2745098 0.15294118 0.15294118
0.28137255 0.15294118 0.15294118
0.2877451 0.15294118 0.15294118
0.29411765 0.15294118 0.15294118
0.30196078 0.14901961 0.15294118
0.30686275 0.14901961 0.15294118
0.35 0.15245098 0.15294118
0.4 0.15490196 0.15686275
0.44509804 0.14852941 0.15294118
0.51372549 0.15196078 0.15
0.59607843 0.16078431 0.14754902
0.67843137 0.16470588 0.14509804
0.75833333 0.18333333 0.13627451
0.8254902 0.24117647 0.11960784
0.89460784 0.29558824 0.099019608
0.94117647 0.34705882 0.088235294
0.96960784 0.39852941 0.074019608
0.99705882 0.45 0.056862745
1 0.49215686 0.081372549
1 0.52941176 0.094117647
0.23921569 0.15931373 0.15294118
0.24313725 0.15686275 0.15294118
0.25134804 0.15686275 0.15294118
0.25833333 0.15686275 0.15294118
0.26470588 0.15686275 0.15294118
0.2745098 0.15686275 0.15294118
0.28137255 0.1557598 0.15294118
0.2877451 0.15539216 0.15294118
0.29656863 0.15539216 0.15294118
0.30441176 0.15294118 0.15294118
0.31421569 0.15294118 0.15294118
0.35294118 0.15508578 0.15294118
0.40392157 0.15612745 0.15490196
0.45275735 0.15324755 0.15294118
0.52463235 0.15931373 0.14901961
0.60245098 0.16862745 0.14509804
0.68235294 0.17745098 0.14117647
0.75833333 0.20686275 0.13235294
0.82647059 0.25588235 0.11568627
0.89705882 0.303125 0.096568627
0.94117647 0.35269608 0.0875
0.96617647 0.40539216 0.077757353
0.99411765 0.4567402 0.068504902
1 0.50245098 0.086213235
1 0.53333333 0.10196078
0.23921569 0.16568627 0.15294118
0.24375 0.16568627 0.15294118
0.25098039 0.16544118 0.15294118
0.25833333 0.16213235 0.15294118
0.26470588 0.16176471 0.15294118
0.27107843 0.16176471 0.15294118
0.28137255 0.16176471 0.15294118
0.29166667 0.16078431 0.15294118
0.30196078 0.15784314 0.15294118
0.30833333 0.15723039 0.15294118
0.32132353 0.15686275 0.15294118
0.35980392 0.15784314 0.15294118
0.41029412 0.15931373 0.15441176
0.46715686 0.1622549 0.15281863
0.53921569 0.16862745 0.14828431
0.6127451 0.17794118 0.14362745
0.6872549 0.19313725 0.14019608
0.75931373 0.23137255 0.12634804
0.82965686 0.27818627 0.10857843
0.89509804 0.32512255 0.091053922
0.93676471 0.37254902 0.082352941
0.97022059 0.41911765 0.07254902
0.99436275 0.46691176 0.065441176
1 0.50882353 0.086764706
1 0.53921569 0.10686275
0.24264706 0.17598039 0.15294118
0.24558824 0.17383578 0.15508578
0.25098039 0.17205882 0.15686275
0.25490196 0.17205882 0.15343137
0.2629902 0.16862745 0.15294118
0.27107843 0.16813725 0.15294118
0.28137255 0.16813725 0.15294118
0.29166667 0.16470588 0.15294118
0.30196078 0.16421569 0.15294118
0.3122549 0.16078431 0.15294118
0.32536765 0.16078431 0.15294118
0.36660539 0.16078431 0.15294118
0.41887255 0.16617647 0.15294118
0.48137255 0.17254902 0.15245098
0.55343137 0.17892157 0.14607843
0.62156863 0.18400735 0.14117647
0.69411765 0.20343137 0.13382353
0.76354167 0.25196078 0.11930147
0.82941176 0.30098039 0.10134804
0.89123775 0.34607843 0.083823529
0.93161765 0.39117647 0.071568627
0.97058824 0.43627451 0.055330882
0.99987745 0.47794118 0.055147059
1 0.52273284 0.090379902
1 0.55588235 0.11323529
0.24313725 0.18235294 0.15294118
0.24558824 0.18235294 0.15539216
0.25098039 0.18235294 0.15686275
0.25490196 0.17892157 0.15686275
0.26078431 0.17745098 0.15294118
0.26887255 0.1745098 0.15294118
0.27745098 0.1745098 0.15294118
0.29044118 0.17181373 0.15294118
0.30196078 0.17058824 0.15294118
0.31421569 0.16666667 0.15294118
0.32990196 0.16519608 0.15294118
0.38161765 0.17205882 0.15122549
0.43823529 0.17941176 0.14901961
0.49901961 0.18848039 0.14681373
0.56764706 0.19509804 0.14166667
0.63504902 0.20220588 0.1377451
0.7 0.2254902 0.12941176
0.76691176 0.26985294 0.11397059
0.83137255 0.31666667 0.096568627
0.89313725 0.37009804 0.073529412
0.93921569 0.41372549 0.056862745
0.97573529 0.45661765 0.047058824
0.99509804 0.49117647 0.053431373
0.99803922 0.52794118 0.084803922
0.99803922 0.55686275 0.10980392
0.24313725 0.19264706 0.15294118
0.24558824 0.19264706 0.15294118
0.25098039 0.19264706 0.15686275
0.25490196 0.18921569 0.15686275
0.26078431 0.18480392 0.15490196
0.26715686 0.18088235 0.15294118
0.27352941 0.18039216 0.15294118
0.2877451 0.17910539 0.15294118
0.30245098 0.18088235 0.15294118
0.31960784 0.17990196 0.15294118
0.34607843 0.18529412 0.15196078
0.39460784 0.18872549 0.14901961
0.4495098 0.19681373 0.14681373
0.50588235 0.20490196 0.14417892
0.57794118 0.21568627 0.13811275
0.6463848 0.23363971 0.13137255
0.71029412 0.25637255 0.12107843
0.7745098 0.28890931 0.10863971
0.8377451 0.33492647 0.091666667
0.89944853 0.39019608 0.060723039
0.95171569 0.44019608 0.040196078
0.97352941 0.47303922 0.041727941
0.99154412 0.5064951 0.045098039
0.99607843 0.53498775 0.075980392
0.99656863 0.55637255 0.1
0.24019608 0.19901961 0.15294118
0.24558824 0.19901961 0.15294118
0.25098039 0.20294118 0.15686275
0.25490196 0.20208333 0.15686275
0.26078431 0.19705882 0.15490196
0.26703431 0.19117647 0.15294118
0.27132353 0.18504902 0.15294118
0.28639706 0.18541667 0.15294118
0.3127451 0.19411765 0.15294118
0.33627451 0.20379902 0.15294118
0.36666667 0.20661765 0.14901961
0.41262255 0.20980392 0.14644608
0.45588235 0.2122549 0.14215686
0.51617647 0.22205882 0.13811275
0.58823529 0.24215686 0.13137255
0.66176471 0.26666667 0.12401961
0.72352941 0.29117647 0.11372549
0.78590686 0.31421569 0.1004902
0.84485294 0.35294118 0.082107843
0.90294118 0.41078431 0.053431373
0.95735294 0.4627451 0.025980392
0.97352941 0.49362745 0.025490196
0.99411765 0.52132353 0.023039216
0.99607843 0.55134804 0.058823529
1 0.58039216 0.096078431
0.23921569 0.20784314 0.15294118
0.24558824 0.20931373 0.15294118
0.25098039 0.21568627 0.15355392
0.25471814 0.22383578 0.15686275
0.26078431 0.22132353 0.15686275
0.26715686 0.21568627 0.15441176
0.275 0.20833333 0.15294118
0.29607843 0.21127451 0.15294118
0.32303922 0.22156863 0.15147059
0.35392157 0.22794118 0.14901961
0.3872549 0.2307598 0.14865196
0.43057598 0.23186275 0.14381127
0.47352941 0.23651961 0.13848039
0.53057598 0.25 0.13137255
0.60686275 0.2745098 0.125
0.67990196 0.29754902 0.11525735
0.74166667 0.32205882 0.10441176
0.79656863 0.3504902 0.08627451
0.84558824 0.38688725 0.065686275
0.90165441 0.44068627 0.039215686
0.9495098 0.4879902 0.020833333
0.97352941 0.51942402 0.017830882
0.99117647 0.54252451 0.01752451
0.99607843 0.55827206 0.042156863
0.99607843 0.58186275 0.076960784
0.23921569 0.21568627 0.15294118
0.24313725 0.22990196 0.15294118
0.24803922 0.24019608 0.15294118
0.25098039 0.24705882 0.15294118
0.25882353 0.24901961 0.15686275
0.27107843 0.24656863 0.15686275
0.28431373 0.24705882 0.15392157
0.30784314 0.25245098 0.15294118
0.32941176 0.25882353 0.14901961
0.3627451 0.2627451 0.14901961
0.40392157 0.26666667 0.14509804
0.44901961 0.27401961 0.1377451
0.49607843 0.28235294 0.13137255
0.55196078 0.29901961 0.12107843
0.62352941 0.31960784 0.11372549
0.69656863 0.34019608 0.10441176
0.75686275 0.36078431 0.090196078
0.80196078 0.39166667 0.065686275
0.85098039 0.42647059 0.045098039
0.8995098 0.46862745 0.024509804
0.94313725 0.51372549 0.01372549
0.97352941 0.54607843 0.0078431373
0.99019608 0.56372549 0.011764706
0.99607843 0.57941176 0.037254902
0.99607843 0.59607843 0.070588235
0.23921569 0.27352941 0.15294118
0.24313725 0.27107843 0.15294118
0.24705882 0.27254902 0.15294118
0.2504902 0.27401961 0.15294118
0.25686275 0.27671569 0.15294118
0.27401961 0.27824755 0.15441176
0.29460784 0.28370098 0.15294118
0.3127451 0.28823529 0.14993873
0.33333333 0.29215686 0.14656863
0.37457108 0.30006127 0.14356618
0.4245098 0.3127451 0.1377451
0.46960784 0.32175245 0.13118873
0.51985294 0.33382353 0.125
0.57628676 0.3504902 0.11078431
0.63357843 0.36715686 0.098039216
0.69901961 0.38529412 0.087745098
0.75686275 0.40980392 0.069607843
0.80833333 0.43768382 0.04810049
0.85551471 0.46372549 0.024509804
0.90373775 0.4995098 0.0073529412
0.93995098 0.53823529 0.0014705882
0.97481618 0.571875 0
0.9872549 0.58786765 0.0044117647
0.99607843 0.60153186 0.024509804
0.99852941 0.62303922 0.087254902
0.23921569 0.33039216 0.14901961
0.24166667 0.32683824 0.14901961
0.24411765 0.32156863 0.15196078
0.24705882 0.31213235 0.15294118
0.25539216 0.31029412 0.15245098
0.27647059 0.32009804 0.15159314
0.29705882 0.33039216 0.14828431
0.31666667 0.33529412 0.14509804
0.34313725 0.33921569 0.14117647
0.39362745 0.34852941 0.13664216
0.44436275 0.36053922 0.13137255
0.49007353 0.37303922 0.12463235
0.54068627 0.3877451 0.1127451
0.59571078 0.40294118 0.099142157
0.64803922 0.41960784 0.085539216
0.70245098 0.43382353 0.06997549
0.75686275 0.45490196 0.052941176
0.81409314 0.4879902 0.032352941
0.8627451 0.5125 0.0098039216
0.9004902 0.52855392 0
0.93088235 0.55784314 0
0.96078431 0.5872549 0.00085784314
0.98431373 0.60710784 0
1 0.62414216 0.013235294
0.99901961 0.64313725 0.07254902
0.23921569 0.38578431 0.14901961
0.23921569 0.38155637 0.146875
0.23970588 0.38002451 0.14558824
0.24656863 0.37696078 0.14859069
0.26053922 0.37696078 0.14730392
0.27941176 0.38186275 0.14552696
0.3 0.39215686 0.14166667
0.32401961 0.39852941 0.13988971
0.35980392 0.40098039 0.13382353
0.40392157 0.40735294 0.12990196
0.45453431 0.41764706 0.12463235
0.4995098 0.43143382 0.11813725
0.55441176 0.44803922 0.10245098
0.61023284 0.46856618 0.081433824
0.66862745 0.48492647 0.05870098
0.72371324 0.50128676 0.039522059
0.77156863 0.51421569 0.028921569
0.81568627 0.53560049 0.021752451
0.86360294 0.56029412 0.0068627451
0.9004902 0.57352941 0.00049019608
0.92745098 0.59044118 0.0019607843
0.95398284 0.61127451 0.0039215686
0.97843137 0.63186275 0.0073529412
0.99607843 0.64362745 0.019117647
0.99607843 0.6504902 0.043137255
0.21960784 0.45098039 0.13529412
0.22352941 0.44901961 0.13529412
0.23284314 0.44852941 0.13970588
0.25196078 0.44509804 0.14289216
0.26568627 0.44509804 0.14215686
0.28333333 0.44730392 0.13921569
0.30392157 0.45392157 0.13578431
0.33259804 0.46029412 0.13504902
0.37058824 0.4627451 0.12745098
0.41176471 0.46789216 0.12034314
0.45882353 0.47647059 0.11470588
0.50906863 0.49313725 0.10833333
0.56666667 0.5127451 0.094117647
0.6245098 0.53039216 0.071078431
0.68627451 0.55098039 0.040686275
0.74730392 0.56691176 0.0080882353
0.79019608 0.58235294 0.0019607843
0.82745098 0.59264706 0.0051470588
0.86666667 0.60490196 0.0073529412
0.89877451 0.61519608 0.0041666667
0.92745098 0.62647059 0.0039215686
0.95220588 0.64387255 0.0080882353
0.97254902 0.65441176 0.017156863
0.99117647 0.66421569 0.023039216
0.99411765 0.67058824 0.035294118
0.20294118 0.51666667 0.125
0.21256127 0.51666667 0.1276348
0.2377451 0.51666667 0.13419118
0.25833333 0.51323529 0.13676471
0.26911765 0.51323529 0.13504902
0.28327206 0.5127451 0.13241422
0.30392157 0.51568627 0.12904412
0.33988971 0.52058824 0.1254902
0.38480392 0.5245098 0.12156863
0.42254902 0.52843137 0.11550245
0.46213235 0.53823529 0.1057598
0.51960784 0.55490196 0.09810049
0.57916667 0.5754902 0.084803922
0.63921569 0.59601716 0.070098039
0.70012255 0.60931373 0.046936275
0.74852941 0.61960784 0.021568627
0.79607843 0.62941176 0.0078431373
0.83333333 0.63970588 0.0039215686
0.86568627 0.64607843 0.0079656863
0.89656863 0.65637255 0.0083333333
0.92352941 0.66666667 0.0041666667
0.95 0.68039216 0.0044117647
0.97058824 0.68345588 0.015441176
0.99099265 0.6877451 0.0088848039
0.99558824 0.6877451 0.014215686
0.18627451 0.57843137 0.11470588
0.21605392 0.58198529 0.12218137
0.24436275 0.58235294 0.12647059
0.26482843 0.58235294 0.13039216
0.27941176 0.58137255 0.12990196
0.28921569 0.57830882 0.1254902
0.30735294 0.5752451 0.12401961
0.35796569 0.57990196 0.12843137
0.40490196 0.58235294 0.13137255
0.44607843 0.58872549 0.12892157
0.49215686 0.6 0.12181373
0.54362745 0.61973039 0.10931373
0.6 0.6372549 0.098039216
0.65637255 0.6504902 0.084313725
0.70416667 0.65784314 0.060784314
0.75036765 0.66421569 0.034926471
0.79607843 0.67058824 0.0078431373
0.83333333 0.67732843 0.0082107843
0.86568627 0.68431373 0.023039216
0.89693627 0.69375 0.03370098
0.92352941 0.70490196 0.025
0.94963235 0.71470588 0.023039216
0.96764706 0.71470588 0.050735294
0.98615196 0.71862745 0.073039216
0.98921569 0.71862745 0.079411765
0.24019608 0.64411765 0.12843137
0.24810049 0.64411765 0.12696078
0.25747549 0.64901961 0.12267157
0.27365196 0.64822304 0.1213848
0.30196078 0.64534314 0.13161765
0.32775735 0.64019608 0.13676471
0.35490196 0.63627451 0.14313725
0.39215686 0.63872549 0.14803922
0.4372549 0.64411765 0.15196078
0.48088235 0.6504902 0.14895833
0.52598039 0.66531863 0.13860294
0.56930147 0.67745098 0.1286152
0.61789216 0.6870098 0.12009804
0.66636029 0.69264706 0.10569853
0.71127451 0.69791667 0.084803922
0.75637255 0.70300245 0.060845588
0.8 0.70637255 0.043137255
0.83480392 0.71421569 0.054963235
0.86568627 0.72414216 0.070710784
0.89656863 0.73088235 0.083026961
0.92279412 0.7377451 0.084068627
0.94589461 0.7403799 0.090012255
0.9627451 0.74852941 0.12071078
0.97886029 0.75006127 0.14509804
0.98431373 0.75098039 0.15147059
0.29803922 0.70588235 0.14117647
0.30441176 0.70588235 0.14117647
0.31078431 0.70196078 0.14215686
0.325 0.70196078 0.14509804
0.34901961 0.70588235 0.14705882
0.37794118 0.70196078 0.15343137
0.40882353 0.69803922 0.16078431
0.43970588 0.69411765 0.17009804
0.4745098 0.69803922 0.17647059
0.51568627 0.70441176 0.17254902
0.55196078 0.71372549 0.16470588
0.59019608 0.72107843 0.15735294
0.63529412 0.72745098 0.15098039
0.68039216 0.73333333 0.13676471
0.72156863 0.73627451 0.12647059
0.76666667 0.73872549 0.12156863
0.80392157 0.74117647 0.12156863
0.8372549 0.75147059 0.13186275
0.86960784 0.76176471 0.14509804
0.89656863 0.76470588 0.14901961
0.91764706 0.76470588 0.15294118
0.94215686 0.76911765 0.15833333
0.95882353 0.7754902 0.18921569
0.97401961 0.78431373 0.21862745
0.97647059 0.78431373 0.22745098
0.36078431 0.76029412 0.16764706
0.36862745 0.75490196 0.17150735
0.37683824 0.74705882 0.17598039
0.39068627 0.74705882 0.17616422
0.40955882 0.75294118 0.17598039
0.4276348 0.75618873 0.17714461
0.45453431 0.7504902 0.18676471
0.48088235 0.74558824 0.19460784
0.51323529 0.74558824 0.19705882
0.54803922 0.75251225 0.1995098
0.5817402 0.75772059 0.19460784
0.61372549 0.7622549 0.18823529
0.65196078 0.76544118 0.18602941
0.69068627 0.77058824 0.19362745
0.73186275 0.77389706 0.19718137
0.77003676 0.77506127 0.2
0.80392157 0.77990196 0.2
0.8372549 0.78627451 0.20539216
0.86862745 0.79203431 0.20784314
0.89283088 0.79313725 0.21421569
0.91446078 0.79558824 0.22181373
0.93578431 0.7995098 0.23253676
0.95490196 0.80637255 0.25882353
0.97009804 0.81182598 0.28339461
0.97401961 0.8127451 0.29068627
0.44313725 0.79117647 0.2254902
0.44031863 0.79117647 0.21421569
0.43872549 0.79044118 0.20441176
0.45196078 0.78823529 0.20857843
0.46911765 0.7872549 0.21813725
0.48835784 0.78737745 0.225
0.51348039 0.78897059 0.23210784
0.53002451 0.79117647 0.22904412
0.55294118 0.79117647 0.22941176
0.5877451 0.79117647 0.23970588
0.62254902 0.79191176 0.24509804
0.65343137 0.79411765 0.24509804
0.67745098 0.79509804 0.24656863
0.70637255 0.80208333 0.2564951
0.74019608 0.80661765 0.26764706
0.77365196 0.81078431 0.27254902
0.80392157 0.81078431 0.26568627
0.83480392 0.81433824 0.26470588
0.86470588 0.81862745 0.26789216
0.88823529 0.82120098 0.27512255
0.91127451 0.82254902 0.28235294
0.93419118 0.82683824 0.29362745
0.9502451 0.83333333 0.32058824
0.96519608 0.8372549 0.33970588
0.97254902 0.8372549 0.34705882
0.5254902 0.82205882 0.28333333
0.52285539 0.82205882 0.27303922
0.52022059 0.82205882 0.26703431
0.52150735 0.82205882 0.26366422
0.53235294 0.82205882 0.26813725
0.54705882 0.82205882 0.27254902
0.57071078 0.82205882 0.28284314
0.59215686 0.82205882 0.2872549
0.60882353 0.82205882 0.29117647
0.63265931 0.82205882 0.29932598
0.66470588 0.82205882 0.30686275
0.69160539 0.82205882 0.30386029
0.7122549 0.82230392 0.30514706
0.73676471 0.82689951 0.31176471
0.76421569 0.83296569 0.32205882
0.78645833 0.83560049 0.32696078
0.81078431 0.83823529 0.32696078
0.83480392 0.84197304 0.32273284
0.86127451 0.84558824 0.32401961
0.88529412 0.84607843 0.33382353
0.90808824 0.8497549 0.34411765
0.93039216 0.85392157 0.35490196
0.94460784 0.85784314 0.37598039
0.95851716 0.85784314 0.38382353
0.96862745 0.85784314 0.39068627
0.61568627 0.85294118 0.35098039
0.6125 0.85294118 0.34779412
0.60343137 0.85294118 0.34019608
0.60196078 0.84926471 0.33357843
0.60588235 0.85098039 0.33039216
0.60857843 0.84926471 0.32598039
0.62941176 0.85098039 0.3377451
0.65196078 0.85098039 0.3504902
0.67058824 0.85098039 0.35686275
0.68602941 0.85098039 0.36078431
0.70833333 0.84901961 0.36323529
0.72867647 0.84901961 0.3629902
0.74705882 0.84901961 0.3627451
0.76764706 0.85098039 0.36666667
0.79019608 0.85490196 0.37205882
0.81078431 0.85882353 0.3745098
0.83137255 0.8627451 0.3745098
0.85073529 0.86470588 0.37328431
0.86666667 0.86715686 0.37598039
0.8872549 0.87058824 0.3877451
0.90686275 0.87647059 0.4
0.92647059 0.88235294 0.41397059
0.94166667 0.87941176 0.41960784
0.95441176 0.87843137 0.42426471
0.96470588 0.87843137 0.43137255
0.67696078 0.87941176 0.40196078
0.68069853 0.87941176 0.40196078
0.68014706 0.87953431 0.40208333
0.67794118 0.87990196 0.39859069
0.67745098 0.87573529 0.39289216
0.67493873 0.8754902 0.3877451
0.69117647 0.87585784 0.39803922
0.71127451 0.87941176 0.40784314
0.72794118 0.87941176 0.41372549
0.74166667 0.87941176 0.41795343
0.75110294 0.87561275 0.41813725
0.7622549 0.8754902 0.41813725
0.77818627 0.8754902 0.41813725
0.79761029 0.8754902 0.41813725
0.81519608 0.87855392 0.42071078
0.83529412 0.88088235 0.42156863
0.85196078 0.88333333 0.42156863
0.86617647 0.88333333 0.41942402
0.87990196 0.88333333 0.42169118
0.89754902 0.8872549 0.42935049
0.91421569 0.89289216 0.44313725
0.92990196 0.89852941 0.45251225
0.94019608 0.89852941 0.4567402
0.9504902 0.89901961 0.46207108
0.96078431 0.89901961 0.46813725
0.73529412 0.89607843 0.44313725
0.73235294 0.89705882 0.44313725
0.73553922 0.9 0.44632353
0.73627451 0.90012255 0.44705882
0.73627451 0.89705882 0.44313725
0.73933824 0.89607843 0.4435049
0.74705882 0.89705882 0.44705882
0.75943627 0.89669118 0.45245098
0.7754902 0.89607843 0.45882353
0.78676471 0.89607843 0.4627451
0.79313725 0.89607843 0.4627451
0.79963235 0.89963235 0.46666667
0.81078431 0.9 0.46960784
0.8254902 0.9 0.46960784
0.84387255 0.9 0.46960784
0.8564951 0.9 0.46666667
0.86862745 0.9 0.46666667
0.88284314 0.9 0.46568627
0.89338235 0.90171569 0.46593137
0.90441176 0.90477941 0.47401961
0.92254902 0.91029412 0.48284314
0.93382353 0.91176471 0.4872549
0.94338235 0.9127451 0.49093137
0.9504902 0.91384804 0.49656863
0.95784314 0.91666667 0.50294118
0.79166667 0.91519608 0.48970588
0.78829657 0.91519608 0.48823529
0.78921569 0.91556373 0.48823529
0.79166667 0.91666667 0.48823529
0.79166667 0.91397059 0.48823529
0.79166667 0.9127451 0.4846201
0.79522059 0.91458333 0.48823529
0.80582108 0.91574755 0.49362745
0.81911765 0.91666667 0.5
0.82702206 0.91574755 0.5
0.82892157 0.91519608 0.50061275
0.83529412 0.91519608 0.50245098
0.84338235 0.91911765 0.50759804
0.85147059 0.92156863 0.51360294
0.86323529 0.91911765 0.51090686
0.87352941 0.91819853 0.50784314
0.88529412 0.91911765 0.50784314
0.89803922 0.91911765 0.51176471
0.90551471 0.91948529 0.50882353
0.91470588 0.92273284 0.5153799
0.92892157 0.9245098 0.52279412
0.9372549 0.92285539 0.51776961
0.94411765 0.92156863 0.51531863
0.94957108 0.92542892 0.525
0.95441176 0.92843137 0.53137255
0.84313725 0.92941176 0.52941176
0.83676471 0.92941176 0.5254902
0.84019608 0.93039216 0.52647059
0.84362745 0.92990196 0.52990196
0.83529412 0.92941176 0.52156863
0.83186275 0.9254902 0.51813725
0.83823529 0.92843137 0.52156863
0.84852941 0.92941176 0.53088235
0.85490196 0.92941176 0.53333333
0.85098039 0.92696078 0.52696078
0.85 0.9254902 0.52156863
0.84705882 0.92205882 0.51764706
0.85098039 0.92156863 0.51568627
0.85147059 0.92156863 0.51421569
0.86568627 0.9254902 0.52156863
0.88382353 0.92696078 0.53088235
0.89803922 0.92941176 0.54117647
0.9122549 0.93333333 0.54901961
0.91764706 0.93333333 0.54607843
0.925 0.9372549 0.55637255
0.93333333 0.93529412 0.54901961
0.9377451 0.92892157 0.52843137
0.94411765 0.9245098 0.52352941
0.9504902 0.93480392 0.5495098
0.96078431 0.94509804 0.57647059
0.23921569 0.15294118 0.15294118
0.24313725 0.15294118 0.15294118
0.25196078 0.15294118 0.15294118
0.25833333 0.15294118 0.15294118
0.26470588 0.15294118 0.15416667
0.27107843 0.15294118 0.15686275
0.27781863 0.15294118 0.15686275
0.28474265 0.15294118 0.15686275
0.29411765 0.14901961 0.15539216
0.3004902 0.14901961 0.15539216
0.31421569 0.14901961 0.15539216
0.35079657 0.15245098 0.15686275
0.40122549 0.15367647 0.15686275
0.45245098 0.14901961 0.15667892
0.52291667 0.15588235 0.15355392
0.60245098 0.165625 0.15055147
0.68235294 0.17107843 0.14754902
0.75833333 0.19810049 0.14117647
0.82647059 0.25110294 0.12598039
0.89852941 0.30588235 0.10539216
0.94313725 0.35343137 0.099754902
0.97009804 0.40245098 0.090686275
0.99411765 0.45281863 0.085171569
1 0.49852941 0.10833333
1 0.53186275 0.12254902
0.23921569 0.15931373 0.15294118
0.24313725 0.15686275 0.15294118
0.25098039 0.15686275 0.15294118
0.25833333 0.15686275 0.15294118
0.26470588 0.15594363 0.15612745
0.27107843 0.15539216 0.15686275
0.27850797 0.15539216 0.15686275
0.28740043 0.15539216 0.15686275
0.29411765 0.15294118 0.15686275
0.3040671 0.15294118 0.15573683
0.32156863 0.15294118 0.15539216
0.35588235 0.15508578 0.15667892
0.40392157 0.15612745 0.15686275
0.45667892 0.15458793 0.15386029
0.52924326 0.1622549 0.15225184
0.60882353 0.17199755 0.14901961
0.68780637 0.18229167 0.14509804
0.75890778 0.21323529 0.13780637
0.82869179 0.25931373 0.12219669
0.89872089 0.30844822 0.10539216
0.94163603 0.35634191 0.10003064
0.9669807 0.40882353 0.092087929
0.99056373 0.45960478 0.090931373
0.99607843 0.50490196 0.10925245
1 0.53578431 0.12408088
0.23921569 0.16568627 0.15294118
0.24336703 0.16568627 0.15294118
0.25098039 0.16470588 0.15355392
0.25747549 0.16176471 0.15553002
0.26439951 0.16176471 0.15686275
0.27107843 0.16168811 0.15686275
0.2807598 0.16087623 0.15686275
0.28880208 0.15853248 0.15686275
0.29803922 0.15784314 0.15686275
0.3087163 0.15686275 0.15686275
0.32794118 0.15710784 0.15539216
0.36335784 0.15784314 0.15667892
0.4088848 0.16078431 0.15686275
0.46715686 0.1622549 0.15294118
0.53921569 0.16908701 0.14947917
0.61781556 0.17892157 0.1466299
0.69301471 0.1995098 0.14301471
0.76248468 0.23584559 0.13249081
0.83284314 0.28039216 0.11740196
0.89865196 0.3254902 0.10134804
0.93903186 0.37254902 0.092156863
0.97009804 0.42005208 0.085784314
0.99215686 0.46991422 0.088694853
0.99685968 0.51297488 0.10911458
1 0.54497549 0.12708333
0.24264706 0.17598039 0.15294118
0.24558824 0.17383578 0.15667892
