site/assets/luts/natron-haldclut--polaroid-667--b47b3d472.cube
# LUTr-Project: LUTr — LUTrepository
# LUTr-Schema-Version: 1
# LUTr-ID: natron-haldclut--polaroid-667--b47b3d472
# LUTr-Title: polaroid 667
# LUTr-Collection: Natron HaldCLUT
# LUTr-Collection-ID: natron-haldclut-presets
# LUTr-Source: https://github.com/NatronGitHub/clut
# LUTr-Source-File: submissions/natron-haldclut-presets/bw/polaroid_667.png
# LUTr-Source-Format: PNG
# LUTr-Source-SHA256: 5f15b60ed13c420c6c31b956bfd193c75a27dee6f87a535adbb0ef6bbbc25c59
# LUTr-License: CC-BY-SA-4.0
# LUTr-License-URL: https://github.com/NatronGitHub/clut#license
# LUTr-Tags: creative, film, film-emulation, hald-clut, natron, png, cube
# LUTr-Transform-Class: film-emulation
# LUTr-Input-Color-Space: srgb
# LUTr-Output-Color-Space: srgb
# LUTr-Color-Space-Confidence: assumed-display-referred
# LUTr-Conversion-Method: PNG LUT image decoded at 16-bit and sampled to 25x25x25 3D CUBE
# LUTr-Conversion-Date: 2026-07-27
# LUTr-Conversion-Tool: LUTr scripts/convert-all-to-cube.mjs
# LUTr-Conversion-Grid: 25x25x25
# LUTr-Note: Preserve this metadata and the upstream license notices when redistributing.
TITLE "polaroid 667"
LUT_3D_SIZE 25
DOMAIN_MIN 0 0 0
DOMAIN_MAX 1 1 1
0.02745098 0.02745098 0.02745098
0.02745098 0.02745098 0.02745098
0.023529412 0.023529412 0.023529412
0.029901961 0.029901961 0.029901961
0.056862745 0.056862745 0.056862745
0.087745098 0.087745098 0.087745098
0.10098039 0.10098039 0.10098039
0.10735294 0.10735294 0.10735294
0.11764706 0.11764706 0.11764706
0.15882353 0.15882353 0.15882353
0.19509804 0.19509804 0.19509804
0.22598039 0.22598039 0.22598039
0.25882353 0.25882353 0.25882353
0.28872549 0.28872549 0.28872549
0.3372549 0.3372549 0.3372549
0.3877451 0.3877451 0.3877451
0.43921569 0.43921569 0.43921569
0.49068627 0.49068627 0.49068627
0.54215686 0.54215686 0.54215686
0.59019608 0.59019608 0.59019608
0.6254902 0.6254902 0.6254902
0.65637255 0.65637255 0.65637255
0.68431373 0.68431373 0.68431373
0.71029412 0.71029412 0.71029412
0.72941176 0.72941176 0.72941176
0.037745098 0.037745098 0.037745098
0.037745098 0.037745098 0.037745098
0.037867647 0.037867647 0.037867647
0.047058824 0.047058824 0.047058824
0.068382353 0.068382353 0.068382353
0.094117647 0.094117647 0.094117647
0.10735294 0.10735294 0.10735294
0.12156863 0.12156863 0.12156863
0.14215686 0.14215686 0.14215686
0.17303922 0.17303922 0.17303922
0.20784314 0.20784314 0.20784314
0.24019608 0.24019608 0.24019608
0.27107843 0.27107843 0.27107843
0.30459559 0.30459559 0.30459559
0.34362745 0.34362745 0.34362745
0.39166667 0.39166667 0.39166667
0.44166667 0.44166667 0.44166667
0.49313725 0.49313725 0.49313725
0.54460784 0.54460784 0.54460784
0.59019608 0.59019608 0.59019608
0.62867647 0.62867647 0.62867647
0.66011029 0.66011029 0.66011029
0.6872549 0.6872549 0.6872549
0.7127451 0.7127451 0.7127451
0.72941176 0.72941176 0.72941176
0.048039216 0.048039216 0.048039216
0.048039216 0.048039216 0.048039216
0.050735294 0.050735294 0.050735294
0.067647059 0.067647059 0.067647059
0.087254902 0.087254902 0.087254902
0.10784314 0.10784314 0.10784314
0.1247549 0.1247549 0.1247549
0.14215686 0.14215686 0.14215686
0.16372549 0.16372549 0.16372549
0.19362745 0.19362745 0.19362745
0.2245098 0.2245098 0.2245098
0.25833333 0.25833333 0.25833333
0.28921569 0.28921569 0.28921569
0.32107843 0.32107843 0.32107843
0.35808824 0.35808824 0.35808824
0.4004902 0.4004902 0.4004902
0.44803922 0.44803922 0.44803922
0.49669118 0.49669118 0.49669118
0.54705882 0.54705882 0.54705882
0.59411765 0.59411765 0.59411765
0.63186275 0.63186275 0.63186275
0.66115196 0.66115196 0.66115196
0.69117647 0.69117647 0.69117647
0.71482843 0.71482843 0.71482843
0.73333333 0.73333333 0.73333333
0.061764706 0.061764706 0.061764706
0.058333333 0.058333333 0.058333333
0.060294118 0.060294118 0.060294118
0.084313725 0.084313725 0.084313725
0.10490196 0.10490196 0.10490196
0.12506127 0.12506127 0.12506127
0.14215686 0.14215686 0.14215686
0.16488971 0.16488971 0.16488971
0.1872549 0.1872549 0.1872549
0.21421569 0.21421569 0.21421569
0.24509804 0.24509804 0.24509804
0.27598039 0.27598039 0.27598039
0.30686275 0.30686275 0.30686275
0.33780637 0.33780637 0.33780637
0.37291667 0.37291667 0.37291667
0.41323529 0.41323529 0.41323529
0.45833333 0.45833333 0.45833333
0.50373775 0.50373775 0.50373775
0.55343137 0.55343137 0.55343137
0.59803922 0.59803922 0.59803922
0.63504902 0.63504902 0.63504902
0.66421569 0.66421569 0.66421569
0.69215686 0.69215686 0.69215686
0.71666667 0.71666667 0.71666667
0.73333333 0.73333333 0.73333333
0.084313725 0.084313725 0.084313725
0.084313725 0.084313725 0.084313725
0.089215686 0.089215686 0.089215686
0.10514706 0.10514706 0.10514706
0.1254902 0.1254902 0.1254902
0.14362745 0.14362745 0.14362745
0.15931373 0.15931373 0.15931373
0.18137255 0.18137255 0.18137255
0.20588235 0.20588235 0.20588235
0.23235294 0.23235294 0.23235294
0.26176471 0.26176471 0.26176471
0.29264706 0.29264706 0.29264706
0.32352941 0.32352941 0.32352941
0.35465686 0.35465686 0.35465686
0.39068627 0.39068627 0.39068627
0.42745098 0.42745098 0.42745098
0.46862745 0.46862745 0.46862745
0.5122549 0.5122549 0.5122549
0.55980392 0.55980392 0.55980392
0.60392157 0.60392157 0.60392157
0.63921569 0.63921569 0.63921569
0.66985294 0.66985294 0.66985294
0.69607843 0.69607843 0.69607843
0.72058824 0.72058824 0.72058824
0.73529412 0.73529412 0.73529412
0.11078431 0.11078431 0.11078431
0.11109069 0.11109069 0.11109069
0.11960784 0.11960784 0.11960784
0.13339461 0.13339461 0.13339461
0.1497549 0.1497549 0.1497549
0.15876225 0.15876225 0.15876225
0.1754902 0.1754902 0.1754902
0.19754902 0.19754902 0.19754902
0.2245098 0.2245098 0.2245098
0.25275735 0.25275735 0.25275735
0.28235294 0.28235294 0.28235294
0.30974265 0.30974265 0.30974265
0.34019608 0.34019608 0.34019608
0.37150735 0.37150735 0.37150735
0.40588235 0.40588235 0.40588235
0.44215686 0.44215686 0.44215686
0.48284314 0.48284314 0.48284314
0.52401961 0.52401961 0.52401961
0.56617647 0.56617647 0.56617647
0.61029412 0.61029412 0.61029412
0.64509804 0.64509804 0.64509804
0.67248775 0.67248775 0.67248775
0.69914216 0.69914216 0.69914216
0.72107843 0.72107843 0.72107843
0.7372549 0.7372549 0.7372549
0.13137255 0.13137255 0.13137255
0.13676471 0.13676471 0.13676471
0.14705882 0.14705882 0.14705882
0.15821078 0.15821078 0.15821078
0.16470588 0.16470588 0.16470588
0.175 0.175 0.175
0.18921569 0.18921569 0.18921569
0.21703431 0.21703431 0.21703431
0.24509804 0.24509804 0.24509804
0.27205882 0.27205882 0.27205882
0.2997549 0.2997549 0.2997549
0.32990196 0.32990196 0.32990196
0.36078431 0.36078431 0.36078431
0.39166667 0.39166667 0.39166667
0.42328431 0.42328431 0.42328431
0.45943627 0.45943627 0.45943627
0.49607843 0.49607843 0.49607843
0.53431373 0.53431373 0.53431373
0.57647059 0.57647059 0.57647059
0.61715686 0.61715686 0.61715686
0.64901961 0.64901961 0.64901961
0.67598039 0.67598039 0.67598039
0.70220588 0.70220588 0.70220588
0.7245098 0.7245098 0.7245098
0.74117647 0.74117647 0.74117647
0.15196078 0.15196078 0.15196078
0.15980392 0.15980392 0.15980392
0.17254902 0.17254902 0.17254902
0.18069853 0.18069853 0.18069853
0.18921569 0.18921569 0.18921569
0.19656863 0.19656863 0.19656863
0.20857843 0.20857843 0.20857843
0.23572304 0.23572304 0.23572304
0.26568627 0.26568627 0.26568627
0.29264706 0.29264706 0.29264706
0.31960784 0.31960784 0.31960784
0.34705882 0.34705882 0.34705882
0.37745098 0.37745098 0.37745098
0.40833333 0.40833333 0.40833333
0.44105392 0.44105392 0.44105392
0.47493873 0.47493873 0.47493873
0.51127451 0.51127451 0.51127451
0.54852941 0.54852941 0.54852941
0.58578431 0.58578431 0.58578431
0.62352941 0.62352941 0.62352941
0.65367647 0.65367647 0.65367647
0.68118873 0.68118873 0.68118873
0.70723039 0.70723039 0.70723039
0.72843137 0.72843137 0.72843137
0.74509804 0.74509804 0.74509804
0.17254902 0.17254902 0.17254902
0.18284314 0.18284314 0.18284314
0.19705882 0.19705882 0.19705882
0.21078431 0.21078431 0.21078431
0.22156863 0.22156863 0.22156863
0.23186275 0.23186275 0.23186275
0.24215686 0.24215686 0.24215686
0.26176471 0.26176471 0.26176471
0.28627451 0.28627451 0.28627451
0.31078431 0.31078431 0.31078431
0.34019608 0.34019608 0.34019608
0.36715686 0.36715686 0.36715686
0.39803922 0.39803922 0.39803922
0.42892157 0.42892157 0.42892157
0.45980392 0.45980392 0.45980392
0.49215686 0.49215686 0.49215686
0.5254902 0.5254902 0.5254902
0.5627451 0.5627451 0.5627451
0.59901961 0.59901961 0.59901961
0.62990196 0.62990196 0.62990196
0.66078431 0.66078431 0.66078431
0.6877451 0.6877451 0.6877451
0.71176471 0.71176471 0.71176471
0.73235294 0.73235294 0.73235294
0.74901961 0.74901961 0.74901961
0.20588235 0.20588235 0.20588235
0.21617647 0.21617647 0.21617647
0.2307598 0.2307598 0.2307598
0.24430147 0.24430147 0.24430147
0.25563725 0.25563725 0.25563725
0.26666667 0.26666667 0.26666667
0.27879902 0.27879902 0.27879902
0.29264706 0.29264706 0.29264706
0.31078431 0.31078431 0.31078431
0.33474265 0.33474265 0.33474265
0.36041667 0.36041667 0.36041667
0.3877451 0.3877451 0.3877451
0.41666667 0.41666667 0.41666667
0.44558824 0.44558824 0.44558824
0.47647059 0.47647059 0.47647059
0.50974265 0.50974265 0.50974265
0.54362745 0.54362745 0.54362745
0.5778799 0.5778799 0.5778799
0.61176471 0.61176471 0.61176471
0.64050245 0.64050245 0.64050245
0.67107843 0.67107843 0.67107843
0.69754902 0.69754902 0.69754902
0.72144608 0.72144608 0.72144608
0.73964461 0.73964461 0.73964461
0.75294118 0.75294118 0.75294118
0.24803922 0.24803922 0.24803922
0.25343137 0.25343137 0.25343137
0.26666667 0.26666667 0.26666667
0.28051471 0.28051471 0.28051471
0.29215686 0.29215686 0.29215686
0.30245098 0.30245098 0.30245098
0.31495098 0.31495098 0.31495098
0.32634804 0.32634804 0.32634804
0.34117647 0.34117647 0.34117647
0.36078431 0.36078431 0.36078431
0.38455882 0.38455882 0.38455882
0.40882353 0.40882353 0.40882353
0.4372549 0.4372549 0.4372549
0.46617647 0.46617647 0.46617647
0.49705882 0.49705882 0.49705882
0.52794118 0.52794118 0.52794118
0.5627451 0.5627451 0.5627451
0.59362745 0.59362745 0.59362745
0.6245098 0.6245098 0.6245098
0.65453431 0.65453431 0.65453431
0.68186275 0.68186275 0.68186275
0.70784314 0.70784314 0.70784314
0.72843137 0.72843137 0.72843137
0.74656863 0.74656863 0.74656863
0.75686275 0.75686275 0.75686275
0.29215686 0.29215686 0.29215686
0.29607843 0.29607843 0.29607843
0.30490196 0.30490196 0.30490196
0.315625 0.315625 0.315625
0.32941176 0.32941176 0.32941176
0.3401348 0.3401348 0.3401348
0.3504902 0.3504902 0.3504902
0.36207108 0.36207108 0.36207108
0.375 0.375 0.375
0.39166667 0.39166667 0.39166667
0.4122549 0.4122549 0.4122549
0.43327206 0.43327206 0.43327206
0.45980392 0.45980392 0.45980392
0.48676471 0.48676471 0.48676471
0.51764706 0.51764706 0.51764706
0.54852941 0.54852941 0.54852941
0.58333333 0.58333333 0.58333333
0.61078431 0.61078431 0.61078431
0.64117647 0.64117647 0.64117647
0.66862745 0.66862745 0.66862745
0.69362745 0.69362745 0.69362745
0.71813725 0.71813725 0.71813725
0.73615196 0.73615196 0.73615196
0.7504902 0.7504902 0.7504902
0.76078431 0.76078431 0.76078431
0.33529412 0.33529412 0.33529412
0.33970588 0.33970588 0.33970588
0.34607843 0.34607843 0.34607843
0.35637255 0.35637255 0.35637255
0.36666667 0.36666667 0.36666667
0.37696078 0.37696078 0.37696078
0.3872549 0.3872549 0.3872549
0.39828431 0.39828431 0.39828431
0.41176471 0.41176471 0.41176471
0.4252451 0.4252451 0.4252451
0.44313725 0.44313725 0.44313725
0.46372549 0.46372549 0.46372549
0.48529412 0.48529412 0.48529412
0.51127451 0.51127451 0.51127451
0.54019608 0.54019608 0.54019608
0.56911765 0.56911765 0.56911765
0.6 0.6 0.6
0.63088235 0.63088235 0.63088235
0.65735294 0.65735294 0.65735294
0.68308824 0.68308824 0.68308824
0.70392157 0.70392157 0.70392157
0.7245098 0.7245098 0.7245098
0.74362745 0.74362745 0.74362745
0.75637255 0.75637255 0.75637255
0.76666667 0.76666667 0.76666667
0.37892157 0.37892157 0.37892157
0.38265931 0.38265931 0.38265931
0.38762255 0.38762255 0.38762255
0.39754902 0.39754902 0.39754902
0.40759804 0.40759804 0.40759804
0.41421569 0.41421569 0.41421569
0.4245098 0.4245098 0.4245098
0.43480392 0.43480392 0.43480392
0.44852941 0.44852941 0.44852941
0.46145833 0.46145833 0.46145833
0.47708333 0.47708333 0.47708333
0.49460784 0.49460784 0.49460784
0.51519608 0.51519608 0.51519608
0.53927696 0.53927696 0.53927696
0.56409314 0.56409314 0.56409314
0.59362745 0.59362745 0.59362745
0.62058824 0.62058824 0.62058824
0.64754902 0.64754902 0.64754902
0.67303922 0.67303922 0.67303922
0.69362745 0.69362745 0.69362745
0.71421569 0.71421569 0.71421569
0.7338848 0.7338848 0.7338848
0.74852941 0.74852941 0.74852941
0.7627451 0.7627451 0.7627451
0.77254902 0.77254902 0.77254902
0.42352941 0.42352941 0.42352941
0.42598039 0.42598039 0.42598039
0.43137255 0.43137255 0.43137255
0.43872549 0.43872549 0.43872549
0.44509804 0.44509804 0.44509804
0.45245098 0.45245098 0.45245098
0.4627451 0.4627451 0.4627451
0.47303922 0.47303922 0.47303922
0.48627451 0.48627451 0.48627451
0.49754902 0.49754902 0.49754902
0.5125 0.5125 0.5125
0.52585784 0.52585784 0.52585784
0.54607843 0.54607843 0.54607843
0.56666667 0.56666667 0.56666667
0.59117647 0.59117647 0.59117647
0.61776961 0.61776961 0.61776961
0.64117647 0.64117647 0.64117647
0.66568627 0.66568627 0.66568627
0.68627451 0.68627451 0.68627451
0.70392157 0.70392157 0.70392157
0.72303922 0.72303922 0.72303922
0.74080882 0.74080882 0.74080882
0.75563725 0.75563725 0.75563725
0.76911765 0.76911765 0.76911765
0.77647059 0.77647059 0.77647059
0.46470588 0.46470588 0.46470588
0.46623775 0.46623775 0.46623775
0.4692402 0.4692402 0.4692402
0.47598039 0.47598039 0.47598039
0.48161765 0.48161765 0.48161765
0.4908701 0.4908701 0.4908701
0.49901961 0.49901961 0.49901961
0.50931373 0.50931373 0.50931373
0.52205882 0.52205882 0.52205882
0.53382353 0.53382353 0.53382353
0.54865196 0.54865196 0.54865196
0.56439951 0.56439951 0.56439951
0.57965686 0.57965686 0.57965686
0.59754902 0.59754902 0.59754902
0.61997549 0.61997549 0.61997549
0.64117647 0.64117647 0.64117647
0.66176471 0.66176471 0.66176471
0.68088235 0.68088235 0.68088235
0.69754902 0.69754902 0.69754902
0.71421569 0.71421569 0.71421569
0.73088235 0.73088235 0.73088235
0.7473652 0.7473652 0.7473652
0.76311275 0.76311275 0.76311275
0.7754902 0.7754902 0.7754902
0.78431373 0.78431373 0.78431373
0.49803922 0.49803922 0.49803922
0.50196078 0.50196078 0.50196078
0.50294118 0.50294118 0.50294118
0.50931373 0.50931373 0.50931373
0.51568627 0.51568627 0.51568627
0.52205882 0.52205882 0.52205882
0.53235294 0.53235294 0.53235294
0.54264706 0.54264706 0.54264706
0.55294118 0.55294118 0.55294118
0.56715686 0.56715686 0.56715686
0.58137255 0.58137255 0.58137255
0.59558824 0.59558824 0.59558824
0.61176471 0.61176471 0.61176471
0.62843137 0.62843137 0.62843137
0.64901961 0.64901961 0.64901961
0.66568627 0.66568627 0.66568627
0.68235294 0.68235294 0.68235294
0.69656863 0.69656863 0.69656863
0.71078431 0.71078431 0.71078431
0.7245098 0.7245098 0.7245098
0.73921569 0.73921569 0.73921569
0.75392157 0.75392157 0.75392157
0.77058824 0.77058824 0.77058824
0.78186275 0.78186275 0.78186275
0.79215686 0.79215686 0.79215686
0.52647059 0.52647059 0.52647059
0.52892157 0.52892157 0.52892157
0.5310049 0.5310049 0.5310049
0.53645833 0.53645833 0.53645833
0.54264706 0.54264706 0.54264706
0.5526348 0.5526348 0.5526348
0.56078431 0.56078431 0.56078431
0.57199755 0.57199755 0.57199755
0.58382353 0.58382353 0.58382353
0.5971201 0.5971201 0.5971201
0.61041667 0.61041667 0.61041667
0.62616422 0.62616422 0.62616422
0.64142157 0.64142157 0.64142157
0.65667892 0.65667892 0.65667892
0.67242647 0.67242647 0.67242647
0.68780637 0.68780637 0.68780637
0.69901961 0.69901961 0.69901961
0.71078431 0.71078431 0.71078431
0.72389706 0.72389706 0.72389706
0.73529412 0.73529412 0.73529412
0.7495098 0.7495098 0.7495098
0.76372549 0.76372549 0.76372549
0.77732843 0.77732843 0.77732843
0.79215686 0.79215686 0.79215686
0.79852941 0.79852941 0.79852941
0.55588235 0.55588235 0.55588235
0.55588235 0.55588235 0.55588235
0.55906863 0.55906863 0.55906863
0.56323529 0.56323529 0.56323529
0.56960784 0.56960784 0.56960784
0.57990196 0.57990196 0.57990196
0.59019608 0.59019608 0.59019608
0.6004902 0.6004902 0.6004902
0.61078431 0.61078431 0.61078431
0.625 0.625 0.625
0.63921569 0.63921569 0.63921569
0.65330882 0.65330882 0.65330882
0.66764706 0.66764706 0.66764706
0.68223039 0.68223039 0.68223039
0.69583333 0.69583333 0.69583333
0.70931373 0.70931373 0.70931373
0.71862745 0.71862745 0.71862745
0.72892157 0.72892157 0.72892157
0.73921569 0.73921569 0.73921569
0.7495098 0.7495098 0.7495098
0.7622549 0.7622549 0.7622549
0.77414216 0.77414216 0.77414216
0.78823529 0.78823529 0.78823529
0.79889706 0.79889706 0.79889706
0.80882353 0.80882353 0.80882353
0.58284314 0.58284314 0.58284314
0.58314951 0.58314951 0.58314951
0.58676471 0.58676471 0.58676471
0.59068627 0.59068627 0.59068627
0.6004902 0.6004902 0.6004902
0.60729167 0.60729167 0.60729167
0.61715686 0.61715686 0.61715686
0.6276348 0.6276348 0.6276348
0.64166667 0.64166667 0.64166667
0.65226716 0.65226716 0.65226716
0.66629902 0.66629902 0.66629902
0.68039216 0.68039216 0.68039216
0.69485294 0.69485294 0.69485294
0.70582108 0.70582108 0.70582108
0.71960784 0.71960784 0.71960784
0.72628676 0.72628676 0.72628676
0.73627451 0.73627451 0.73627451
0.74656863 0.74656863 0.74656863
0.75343137 0.75343137 0.75343137
0.76372549 0.76372549 0.76372549
0.77745098 0.77745098 0.77745098
0.78823529 0.78823529 0.78823529
0.80196078 0.80196078 0.80196078
0.8127451 0.8127451 0.8127451
0.81911765 0.81911765 0.81911765
0.61372549 0.61372549 0.61372549
0.61372549 0.61372549 0.61372549
0.61764706 0.61764706 0.61764706
0.62107843 0.62107843 0.62107843
0.62843137 0.62843137 0.62843137
0.6377451 0.6377451 0.6377451
0.64803922 0.64803922 0.64803922
0.65833333 0.65833333 0.65833333
0.66862745 0.66862745 0.66862745
0.68210784 0.68210784 0.68210784
0.69362745 0.69362745 0.69362745
0.70735294 0.70735294 0.70735294
0.71960784 0.71960784 0.71960784
0.72990196 0.72990196 0.72990196
0.74019608 0.74019608 0.74019608
0.74656863 0.74656863 0.74656863
0.75490196 0.75490196 0.75490196
0.76323529 0.76323529 0.76323529
0.77156863 0.77156863 0.77156863
0.78186275 0.78186275 0.78186275
0.79215686 0.79215686 0.79215686
0.80441176 0.80441176 0.80441176
0.81470588 0.81470588 0.81470588
0.825 0.825 0.825
0.83333333 0.83333333 0.83333333
0.64460784 0.64460784 0.64460784
0.64460784 0.64460784 0.64460784
0.64852941 0.64852941 0.64852941
0.65202206 0.65202206 0.65202206
0.66053922 0.66053922 0.66053922
0.66862745 0.66862745 0.66862745
0.67892157 0.67892157 0.67892157
0.68921569 0.68921569 0.68921569
0.6995098 0.6995098 0.6995098
0.7096201 0.7096201 0.7096201
0.72009804 0.72009804 0.72009804
0.73339461 0.73339461 0.73339461
0.74044118 0.74044118 0.74044118
0.7504902 0.7504902 0.7504902
0.75686275 0.75686275 0.75686275
0.7653799 0.7653799 0.7653799
0.77352941 0.77352941 0.77352941
0.77990196 0.77990196 0.77990196
0.78970588 0.78970588 0.78970588
0.79699755 0.79699755 0.79699755
0.80686275 0.80686275 0.80686275
0.81715686 0.81715686 0.81715686
0.82745098 0.82745098 0.82745098
0.83756127 0.83756127 0.83756127
0.84754902 0.84754902 0.84754902
0.6754902 0.6754902 0.6754902
0.6754902 0.6754902 0.6754902
0.67941176 0.67941176 0.67941176
0.68333333 0.68333333 0.68333333
0.69313725 0.69313725 0.69313725
0.6995098 0.6995098 0.6995098
0.70980392 0.70980392 0.70980392
0.7189951 0.7189951 0.7189951
0.72647059 0.72647059 0.72647059
0.73676471 0.73676471 0.73676471
0.74411765 0.74411765 0.74411765
0.75441176 0.75441176 0.75441176
0.76127451 0.76127451 0.76127451
0.76801471 0.76801471 0.76801471
0.7752451 0.7752451 0.7752451
0.78272059 0.78272059 0.78272059
0.79019608 0.79019608 0.79019608
0.79693627 0.79693627 0.79693627
0.80612745 0.80612745 0.80612745
0.81421569 0.81421569 0.81421569
0.82352941 0.82352941 0.82352941
0.83382353 0.83382353 0.83382353
0.84411765 0.84411765 0.84411765
0.85147059 0.85147059 0.85147059
0.85784314 0.85784314 0.85784314
0.70490196 0.70490196 0.70490196
0.70490196 0.70490196 0.70490196
0.70698529 0.70698529 0.70698529
0.71243873 0.71243873 0.71243873
0.72009804 0.72009804 0.72009804
0.72892157 0.72892157 0.72892157
0.73566176 0.73566176 0.73566176
0.74411765 0.74411765 0.74411765
0.75196078 0.75196078 0.75196078
0.75833333 0.75833333 0.75833333
0.76470588 0.76470588 0.76470588
0.7713848 0.7713848 0.7713848
0.77867647 0.77867647 0.77867647
0.78363971 0.78363971 0.78363971
0.78970588 0.78970588 0.78970588
0.79601716 0.79601716 0.79601716
0.80294118 0.80294118 0.80294118
0.81176471 0.81176471 0.81176471
0.81813725 0.81813725 0.81813725
0.82843137 0.82843137 0.82843137
0.8375 0.8375 0.8375
0.84509804 0.84509804 0.84509804
0.85539216 0.85539216 0.85539216
0.86476716 0.86476716 0.86476716
0.87205882 0.87205882 0.87205882
0.7254902 0.7254902 0.7254902
0.7254902 0.7254902 0.7254902
0.72941176 0.72941176 0.72941176
0.73284314 0.73284314 0.73284314
0.73921569 0.73921569 0.73921569
0.74901961 0.74901961 0.74901961
0.75588235 0.75588235 0.75588235
0.7622549 0.7622549 0.7622549
0.76862745 0.76862745 0.76862745
0.775 0.775 0.775
0.78039216 0.78039216 0.78039216
0.78431373 0.78431373 0.78431373
0.79019608 0.79019608 0.79019608
0.79607843 0.79607843 0.79607843
0.8 0.8 0.8
0.80784314 0.80784314 0.80784314
0.81568627 0.81568627 0.81568627
0.82205882 0.82205882 0.82205882
0.82843137 0.82843137 0.82843137
0.83872549 0.83872549 0.83872549
0.84901961 0.84901961 0.84901961
0.85539216 0.85539216 0.85539216
0.86568627 0.86568627 0.86568627
0.8745098 0.8745098 0.8745098
0.88235294 0.88235294 0.88235294
0.033823529 0.033823529 0.033823529
0.033823529 0.033823529 0.033823529
0.034436275 0.034436275 0.034436275
0.047058824 0.047058824 0.047058824
0.067647059 0.067647059 0.067647059
0.090196078 0.090196078 0.090196078
0.10735294 0.10735294 0.10735294
0.12009804 0.12009804 0.12009804
0.13823529 0.13823529 0.13823529
0.16911765 0.16911765 0.16911765
0.20428922 0.20428922 0.20428922
0.23627451 0.23627451 0.23627451
0.26715686 0.26715686 0.26715686
0.30245098 0.30245098 0.30245098
0.34656863 0.34656863 0.34656863
0.39411765 0.39411765 0.39411765
0.44558824 0.44558824 0.44558824
0.49705882 0.49705882 0.49705882
0.54607843 0.54607843 0.54607843
0.59019608 0.59019608 0.59019608
0.6254902 0.6254902 0.6254902
0.65637255 0.65637255 0.65637255
0.6872549 0.6872549 0.6872549
0.7127451 0.7127451 0.7127451
0.72941176 0.72941176 0.72941176
0.044117647 0.044117647 0.044117647
0.044117647 0.044117647 0.044117647
0.04754902 0.04754902 0.04754902
0.058647365 0.058647365 0.058647365
0.076256127 0.076256127 0.076256127
0.1 0.1 0.1
0.11441483 0.11441483 0.11441483
0.13094363 0.13094363 0.13094363
0.15189951 0.15189951 0.15189951
0.18067555 0.18067555 0.18067555
0.21568627 0.21568627 0.21568627
0.24656863 0.24656863 0.24656863
0.27791054 0.27791054 0.27791054
0.3127451 0.3127451 0.3127451
0.35392157 0.35392157 0.35392157
0.39991575 0.39991575 0.39991575
0.44859069 0.44859069 0.44859069
0.49855239 0.49855239 0.49855239
0.54898897 0.54898897 0.54898897
0.59356618 0.59356618 0.59356618
0.62941176 0.62941176 0.62941176
0.66011029 0.66011029 0.66011029
0.6872549 0.6872549 0.6872549
0.7127451 0.7127451 0.7127451
0.73278186 0.73278186 0.73278186
0.054779412 0.054779412 0.054779412
0.055101103 0.055101103 0.055101103
0.062867647 0.062867647 0.062867647
0.077037377 0.077037377 0.077037377
0.094301471 0.094301471 0.094301471
0.11260723 0.11260723 0.11260723
0.13140319 0.13140319 0.13140319
0.14852941 0.14852941 0.14852941
0.17303922 0.17303922 0.17303922
0.2 0.2 0.2
0.23088235 0.23088235 0.23088235
0.26286765 0.26286765 0.26286765
0.29375 0.29375 0.29375
0.32728248 0.32728248 0.32728248
0.36657475 0.36657475 0.36657475
0.4095435 0.4095435 0.4095435
0.45441176 0.45441176 0.45441176
0.50389093 0.50389093 0.50389093
0.55226716 0.55226716 0.55226716
0.59532782 0.59532782 0.59532782
0.63186275 0.63186275 0.63186275
0.66288297 0.66288297 0.66288297
0.69117647 0.69117647 0.69117647
0.71666667 0.71666667 0.71666667
0.73333333 0.73333333 0.73333333
0.068627451 0.068627451 0.068627451
