site/assets/luts/natron-haldclut--color-rich--2e38c4755.cube
# LUTr-Project: LUTr — LUTrepository
# LUTr-Schema-Version: 1
# LUTr-ID: natron-haldclut--color-rich--2e38c4755
# LUTr-Title: color rich
# LUTr-Collection: Natron HaldCLUT
# LUTr-Collection-ID: natron-haldclut-presets
# LUTr-Source: https://github.com/NatronGitHub/clut
# LUTr-Source-File: submissions/natron-haldclut-presets/various/color_rich.png
# LUTr-Source-Format: PNG
# LUTr-Source-SHA256: 18e13038f05d9c24900ff98846b780dec46dc76dbdcee3aa68da53b4228eedc4
# LUTr-License: CC-BY-SA-4.0
# LUTr-License-URL: https://github.com/NatronGitHub/clut#license
# LUTr-Tags: creative, film, film-emulation, hald-clut, natron, png, cube
# LUTr-Transform-Class: film-emulation
# LUTr-Input-Color-Space: srgb
# LUTr-Output-Color-Space: srgb
# LUTr-Color-Space-Confidence: assumed-display-referred
# LUTr-Conversion-Method: PNG LUT image decoded at 16-bit and sampled to 25x25x25 3D CUBE
# LUTr-Conversion-Date: 2026-07-27
# LUTr-Conversion-Tool: LUTr scripts/convert-all-to-cube.mjs
# LUTr-Conversion-Grid: 25x25x25
# LUTr-Note: Preserve this metadata and the upstream license notices when redistributing.
TITLE "color rich"
LUT_3D_SIZE 5
DOMAIN_MIN 0 0 0
DOMAIN_MAX 1 1 1
0.019607843 0.011764706 0.098039216
0.22058824 0.012745098 0.051960784
0.50392157 0.01372549 0.064705882
0.8245098 0.032352941 0.050980392
0.94509804 0.015686275 0.050980392
0.062745098 0.24705882 0.058823529
0.2125 0.23529412 0.042401961
0.49215686 0.23137255 0.054901961
0.81960784 0.22745098 0.051960784
0.96078431 0.22647059 0.050980392
0.025490196 0.51568627 0.050980392
0.2 0.50833333 0.054901961
0.46470588 0.49313725 0.07254902
0.7877451 0.48823529 0.065686275
0.97058824 0.49411765 0.052941176
0.015686275 0.78137255 0.099019608
0.18823529 0.76960784 0.050980392
0.44117647 0.76470588 0.052941176
0.76397059 0.76862745 0.048039216
0.98921569 0.76078431 0.046078431
0 0.99607843 0.039215686
0.17254902 0.97647059 0.10588235
0.42745098 0.97647059 0.062745098
0.73039216 0.98431373 0.054901961
0.98823529 0.98431373 0.074509804
0.0098039216 0.020588235 0.28333333
0.21862745 0.022303922 0.28627451
0.49852941 0.011764706 0.28627451
0.81960784 0.016666667 0.26960784
0.97745098 0.018627451 0.27058824
0.011764706 0.24705882 0.2745098
0.21011029 0.23921569 0.27058824
0.48039216 0.23247549 0.25661765
0.82150735 0.22352941 0.25490196
0.98039216 0.21960784 0.24705882
0.029411765 0.50588235 0.2627451
0.19105392 0.50441176 0.24767157
0.45514706 0.49803922 0.2502451
0.7872549 0.48823529 0.24705882
0.97892157 0.48823529 0.23921569
0.0058823529 0.77965686 0.23995098
0.18455882 0.77254902 0.23602941
0.43517157 0.77254902 0.24007353
0.75808824 0.76789216 0.2375
0.99338235 0.76078431 0.23137255
0.0049019608 0.96862745 0.23529412
0.17352941 0.97867647 0.23137255
0.41617647 0.97254902 0.22352941
0.74607843 0.97745098 0.22352941
0.95196078 0.97647059 0.22352941
0.019607843 0.02745098 0.52156863
0.21960784 0.032352941 0.51764706
0.5 0.010784314 0.51764706
0.82598039 0.012254902 0.51372549
0.96666667 0.011764706 0.51764706
0.023529412 0.23921569 0.50980392
0.20784314 0.23529412 0.50980392
0.48039216 0.23529412 0.50196078
0.80490196 0.22708333 0.50159314
0.9745098 0.22352941 0.49411765
0.035294118 0.50980392 0.49803922
0.18676471 0.50392157 0.49803922
0.44803922 0.50392157 0.48627451
0.7877451 0.49215686 0.48627451
0.98039216 0.48039216 0.4745098
0.020588235 0.78186275 0.48627451
0.18247549 0.76862745 0.48235294
0.43235294 0.76642157 0.47058824
0.76213235 0.75686275 0.47242647
0.99362745 0.75294118 0.47058824
0.021568627 0.98235294 0.47058824
0.16960784 0.98186275 0.47058824
0.40980392 0.97254902 0.46666667
0.73039216 0.99264706 0.45784314
0.99411765 0.99019608 0.45490196
0.040196078 0.02254902 0.77254902
0.22352941 0.028431373 0.76078431
0.50931373 0.013235294 0.75343137
0.81985294 0.011764706 0.76078431
0.98921569 0.0029411765 0.75294118
0.0078431373 0.23921569 0.75661765
0.20710784 0.23529412 0.7466299
0.48529412 0.22352941 0.74938725
0.82530637 0.22328431 0.74436275
0.98897059 0.21568627 0.74117647
0.015686275 0.50833333 0.73333333
0.18823529 0.49803922 0.74019608
0.45588235 0.49019608 0.7372549
0.79166667 0.48627451 0.72536765
0.97401961 0.48431373 0.7254902
0.016666667 0.76470588 0.73308824
0.17328431 0.77254902 0.7245098
0.43014706 0.76176471 0.71727941
0.76439951 0.75294118 0.71666667
0.95588235 0.74901961 0.70980392
0.0049019608 0.98529412 0.71470588
0.16544118 0.98529412 0.70588235
0.41127451 0.98431373 0.70392157
0.72745098 0.98431373 0.69803922
0.95784314 0.96862745 0.69803922
0.011764706 0.0078431373 0.91764706
0.2127451 0.012745098 0.94117647
0.49803922 0.011764706 0.9372549
0.8254902 0.010784314 0.94509804
0.94901961 0.011764706 0.92156863
0.029411765 0.24607843 0.91568627
0.20318627 0.23602941 0.93406863
0.48039216 0.22352941 0.9372549
0.80980392 0.21960784 0.9245098
0.98333333 0.21960784 0.92941176
0.01372549 0.51372549 0.90196078
0.18872549 0.49656863 0.92205882
0.45294118 0.48627451 0.91960784
0.775 0.48431373 0.92892157
0.97254902 0.48627451 0.93529412
0.033333333 0.76960784 0.93333333
0.17647059 0.76862745 0.93504902
0.42892157 0.76764706 0.9254902
0.75857843 0.75686275 0.9379902
0.9754902 0.74901961 0.94019608
0.047058824 0.97647059 0.94117647
0.16470588 0.97352941 0.92254902
0.40392157 0.97647059 0.91176471
0.73137255 0.96960784 0.91862745
0.97647059 0.92156863 0.93333333
