site/assets/luts/natron-haldclut--kodak-elite-color-200--1b24ba60c.cube
# LUTr-Project: LUTr — LUTrepository
# LUTr-Schema-Version: 1
# LUTr-ID: natron-haldclut--kodak-elite-color-200--1b24ba60c
# LUTr-Title: kodak elite color 200
# LUTr-Collection: Natron HaldCLUT
# LUTr-Collection-ID: natron-haldclut-presets
# LUTr-Source: https://github.com/NatronGitHub/clut
# LUTr-Source-File: submissions/natron-haldclut-presets/negative_color/kodak_elite_color_200.png
# LUTr-Source-Format: PNG
# LUTr-Source-SHA256: cdfa5a4492e855ad22536c53e6f8132ab704dbde59e9e7ac694ff4310ed08f39
# LUTr-License: CC-BY-SA-4.0
# LUTr-License-URL: https://github.com/NatronGitHub/clut#license
# LUTr-Tags: creative, film, film-emulation, hald-clut, natron, png, cube
# LUTr-Transform-Class: film-emulation
# LUTr-Input-Color-Space: srgb
# LUTr-Output-Color-Space: srgb
# LUTr-Color-Space-Confidence: assumed-display-referred
# LUTr-Conversion-Method: PNG LUT image decoded at 16-bit and sampled to 25x25x25 3D CUBE
# LUTr-Conversion-Date: 2026-07-27
# LUTr-Conversion-Tool: LUTr scripts/convert-all-to-cube.mjs
# LUTr-Conversion-Grid: 25x25x25
# LUTr-Note: Preserve this metadata and the upstream license notices when redistributing.
TITLE "kodak elite color 200"
LUT_3D_SIZE 9
DOMAIN_MIN 0 0 0
DOMAIN_MAX 1 1 1
0.050980392 0.0078431373 0.015686275
0.073039216 0.01127451 0.01127451
0.16568627 0.042156863 0.015686275
0.25833333 0.030392157 0.044117647
0.36666667 0.011764706 0.023529412
0.525 0.065196078 0.039215686
0.6754902 0.057843137 0.049019608
0.82598039 0.077941176 0.066176471
0.96078431 0.10196078 0.082352941
0.047058824 0.062254902 0.012254902
0.092647059 0.069607843 0.019669118
0.17218137 0.072181373 0.019485294
0.26813725 0.081188725 0.025490196
0.38431373 0.096813725 0.040931373
0.52892157 0.10459559 0.038909314
0.68284314 0.12156863 0.055882353
0.83333333 0.15196078 0.08627451
0.94901961 0.19068627 0.13676471
0.092156863 0.15 0.02745098
0.11997549 0.14705882 0.02879902
0.19240196 0.15073529 0.038970588
0.2754902 0.15637255 0.032843137
0.39117647 0.16568627 0.043627451
0.54068627 0.18345588 0.067156863
0.69509804 0.20196078 0.083088235
0.84154412 0.22120098 0.089828431
0.96764706 0.25686275 0.12647059
0.14509804 0.24656863 0.043137255
0.14901961 0.24264706 0.039215686
0.21164216 0.23811275 0.038602941
0.31029412 0.24901961 0.048590686
0.4247549 0.25710784 0.062254902
0.56366422 0.27401961 0.079901961
0.71654412 0.28823529 0.089093137
0.85294118 0.31372549 0.10637255
0.975 0.33823529 0.1254902
0.15098039 0.34705882 0.045098039
0.16004902 0.34509804 0.039460784
0.23676471 0.34117647 0.031372549
0.33602941 0.35294118 0.037254902
0.45490196 0.36078431 0.047058824
0.59754902 0.37328431 0.07622549
0.73921569 0.3872549 0.06127451
0.8745098 0.41397059 0.080882353
0.9745098 0.42941176 0.11176471
0.16911765 0.45147059 0.037745098
0.20245098 0.45539216 0.015992647
0.27634804 0.46323529 0.018627451
0.37745098 0.46715686 0.023529412
0.50098039 0.46862745 0.022058824
0.63088235 0.47647059 0.025980392
0.76617647 0.49068627 0.038112745
0.89754902 0.50508578 0.051776961
0.97107843 0.52598039 0.1004902
0.23823529 0.55588235 0.0068627451
0.28468137 0.55245098 0.0078431373
0.35392157 0.55490196 0.014705882
0.4495098 0.56372549 0.015686275
0.5627451 0.56519608 0.011764706
0.67953431 0.56519608 0.015686275
0.80588235 0.58014706 0.022794118
0.9245098 0.58333333 0.025122549
0.98431373 0.59019608 0.033333333
0.32696078 0.62058824 0
0.38088235 0.63584559 0.0039215686
0.44264706 0.63933824 0.0078431373
0.53284314 0.64411765 0.009129902
0.62647059 0.64411765 0.0078431373
0.73363971 0.64430147 0.009129902
0.84656863 0.65196078 0.011764706
0.95042892 0.64895833 0.0039215686
0.99607843 0.64852941 0.0039215686
0.42745098 0.68235294 0
0.46960784 0.69803922 0
0.52745098 0.70588235 0
0.60343137 0.70588235 0.0039215686
0.68823529 0.70588235 0
0.78480392 0.71372549 0
0.86960784 0.70098039 0.0039215686
0.95 0.70588235 0.0034313725
1 0.70980392 0
0.035294118 0.023039216 0.08872549
0.081311275 0.023039216 0.092218137
0.17120098 0.053553922 0.096568627
0.25833333 0.02567402 0.10655637
0.3745098 0.040931373 0.11421569
0.52892157 0.076960784 0.12401961
0.68198529 0.070220588 0.13933824
0.82598039 0.11813725 0.16372549
0.91421569 0.11372549 0.18284314
0.062254902 0.085232843 0.085294118
0.096139706 0.084865196 0.088779105
0.17352941 0.092647059 0.096936275
0.27224265 0.098874081 0.10441176
0.39558824 0.1122549 0.11620711
0.53284314 0.1254902 0.1254902
0.68333333 0.14090074 0.14068627
0.82984069 0.17162224 0.16721814
0.940625 0.19810049 0.18676471
0.093137255 0.16519608 0.089215686
0.11617647 0.16262255 0.091467525
0.18431373 0.16433824 0.097058824
0.28872549 0.17599571 0.10863971
0.3973652 0.18553922 0.11642157
0.54362745 0.1989277 0.12794118
0.69509804 0.21660539 0.14460784
0.84042586 0.24509804 0.16764706
0.96090686 0.27512255 0.18811275
0.12205882 0.25784314 0.089215686
0.14724265 0.24891238 0.090502451
0.20845588 0.25 0.096078431
0.30673254 0.26294424 0.097863051
0.42974877 0.27009804 0.11063113
0.56747089 0.28148744 0.12286305
0.71337316 0.29852941 0.14051777
0.85165441 0.32546722 0.1571921
0.96881127 0.35196078 0.18431373
0.1375 0.35833333 0.067647059
0.15787377 0.35462623 0.076991422
0.22659314 0.35814951 0.078982843
0.33023897 0.3625 0.079656863
0.45980392 0.37046569 0.093995098
0.59690564 0.38210784 0.10407475
0.73541667 0.3963848 0.11844363
0.86862745 0.42178309 0.1338848
0.96127451 0.44068627 0.15392157
0.16783088 0.46060049 0.042953431
0.20572151 0.46436121 0.04899663
0.2754902 0.47077206 0.048651961
0.37506127 0.4723652 0.047863051
0.50863971 0.47484681 0.061764706
0.63535539 0.4786152 0.070396752
0.76617647 0.49509804 0.078523284
0.89317555 0.51448376 0.097954963
0.97794118 0.52990196 0.11911765
0.23823529 0.56323529 0.018137255
0.26637561 0.56372549 0.011642157
0.34911152 0.56360294 0.022181373
0.44742647 0.5676011 0.018995098
0.55882353 0.57058824 0.01629902
0.67843137 0.57420343 0.020082721
0.80588235 0.58324142 0.025122549
0.91655944 0.59362745 0.053431373
0.98823529 0.60539216 0.076470588
0.34699755 0.63584559 0.0039215686
0.38529412 0.64068627 0.0078431373
0.44264706 0.64368873 0.0078431373
0.52647059 0.64411765 0.0078431373
0.62625613 0.64411765 0.0078431373
0.73625153 0.64542739 0.012890625
0.84624694 0.64836091 0.014016544
0.95147059 0.65153186 0.019117647
0.99215686 0.66280637 0.037745098
0.45441176 0.70147059 0
0.48180147 0.70980392 0
0.53137255 0.71360294 0
0.60343137 0.70343137 0.0039215686
0.68431373 0.70196078 0.0039215686
0.78480392 0.70931373 0.0017769608
0.88223039 0.70490196 0.0039215686
0.97696078 0.70196078 0.00049019608
0.99264706 0.70196078 0.0039215686
0.00098039216 0.019607843 0.16960784
0.085171569 0.035171569 0.17745098
0.17622549 0.058823529 0.18529412
0.26470588 0.056372549 0.19558824
0.38235294 0.057843137 0.20490196
0.53468137 0.064583333 0.21482843
0.68112745 0.11519608 0.22941176
0.82977941 0.12254902 0.24852941
0.95098039 0.17843137 0.27156863
0.062254902 0.1 0.16960784
0.1004902 0.10703125 0.17438725
0.18033088 0.11271446 0.18137255
0.26991422 0.120144 0.19313725
0.38995098 0.12959559 0.20098039
0.53468137 0.14301471 0.21421569
0.68333333 0.1604473 0.22867647
0.8307598 0.18795956 0.24852941
0.94509804 0.22941176 0.27512255
0.086029412 0.18039216 0.16960784
0.12095588 0.18452819 0.17438725
0.18903186 0.18823529 0.18529412
0.28789828 0.19623162 0.19231005
0.40098039 0.20245098 0.20012255
0.54754902 0.21969975 0.2127451
0.69411765 0.2338848 0.22941176
0.83661152 0.26326593 0.24852941
0.94411765 0.29583333 0.2754902
0.095098039 0.27401961 0.16568627
0.13676471 0.27303922 0.17714461
0.20845588 0.27622549 0.18529412
0.31268382 0.2814951 0.18921569
0.43186275 0.28976716 0.19852941
0.57345282 0.30219056 0.21213235
0.71323529 0.31626838 0.22852328
0.84517463 0.34227941 0.25196078
0.97107843 0.37536765 0.27156863
0.11029412 0.3754902 0.15196078
0.15006127 0.37941176 0.15588235
0.22794118 0.38333333 0.16862745
0.33480392 0.38333333 0.1754902
0.45686275 0.38676471 0.18333333
0.59969363 0.40171569 0.19613971
0.73455882 0.41409314 0.20612745
0.86341912 0.43903186 0.22579657
0.96617647 0.46029412 0.25147059
0.15147059 0.4872549 0.11568627
0.18604473 0.48939951 0.12481618
0.26390931 0.49362745 0.12417279
0.37219669 0.49385723 0.13483456
0.49344363 0.49810049 0.14491422
0.63235294 0.50160846 0.15490196
0.7622549 0.52107843 0.17040441
0.88788297 0.53811275 0.19117647
0.97009804 0.55245098 0.22598039
0.23627451 0.57916667 0.070588235
0.26470588 0.58529412 0.083088235
0.34160539 0.58308824 0.073529412
0.43710172 0.58811275 0.075980392
0.55490196 0.59203431 0.09129902
0.67659314 0.59705882 0.097794118
0.80545343 0.60606618 0.12083333
0.91617647 0.62003676 0.13556985
0.98823529 0.63235294 0.15294118
0.35833333 0.65196078 0.0051470588
0.38910846 0.65232843 0.014445466
0.45447304 0.65625 0.021323529
0.52526042 0.65494792 0.016804534
0.62867647 0.65588235 0.036397059
0.74019608 0.66090686 0.025658701
0.85061275 0.66639093 0.030545343
0.95477941 0.67493873 0.038296569
0.99264706 0.68186275 0.059803922
0.48137255 0.71666667 0
0.48235294 0.70686275 0.0039215686
0.53357843 0.70588235 0.0039215686
0.61237745 0.70980392 0
0.70294118 0.7127451 0
0.79362745 0.71078431 0.0072303922
0.89019608 0.70882353 0.0039215686
0.98615196 0.70588235 0.0077205882
0.99607843 0.70490196 0.011764706
0.038235294 0.064215686 0.2622549
0.093137255 0.054901961 0.27009804
0.17745098 0.065686275 0.27794118
0.2716299 0.078431373 0.28731618
0.39534314 0.083578431 0.29681373
0.53676471 0.11139706 0.31078431
0.68333333 0.125 0.32205882
0.8372549 0.13216912 0.3372549
0.95294118 0.19607843 0.36813725
0.085294118 0.12273284 0.26617647
0.10724571 0.12665441 0.27251072
0.18137255 0.13449755 0.28039216
0.27401961 0.14345129 0.28578431
0.39990809 0.15098039 0.29656863
0.54202665 0.1636106 0.31205576
0.68333333 0.18676471 0.32329963
0.83376225 0.21372549 0.34332108
0.94362745 0.25 0.3745098
0.1064951 0.20159314 0.27647059
0.12794118 0.20543811 0.27647059
0.19019608 0.20772059 0.28370098
0.2872549 0.21580882 0.29502145
0.41127451 0.22996324 0.31004902
0.5560049 0.24278493 0.32084865
0.70214461 0.25885417 0.33318015
0.8372549 0.28664216 0.351394
0.94473039 0.31752451 0.37990196
0.099509804 0.29215686 0.27647059
0.13634344 0.29515931 0.28645833
0.20528493 0.30183824 0.29215686
0.30876225 0.30392157 0.2997932
0.43428309 0.31372549 0.31522672
0.57730545 0.32892157 0.32745098
0.72153799 0.34803922 0.33699449
0.85147059 0.37107843 0.35674786
0.95980392 0.39528186 0.38143382
0.083823529 0.40245098 0.28357843
0.14068627 0.40808824 0.28152574
0.21789216 0.41421569 0.29289216
0.32699142 0.41544118 0.30364583
0.45294118 0.42107843 0.3120098
0.5953125 0.43606005 0.32037377
0.73921569 0.45091912 0.32702206
0.8645527 0.46764706 0.35058211
0.96078431 0.48676471 0.375
0.12205882 0.51905637 0.25784314
0.16421569 0.52579657 0.26316636
0.25038297 0.52990196 0.26568627
0.36660539 0.52843137 0.27113971
0.48651961 0.53308824 0.2872549
0.62877604 0.54189645 0.28921569
0.76202512 0.55796569 0.31127451
0.88039216 0.57205882 0.33676471
0.97009804 0.5872549 0.3588848
0.19068627 0.6189951 0.20968137
0.24754902 0.61913297 0.21323529
0.32401961 0.62071078 0.20949755
0.42745098 0.62352941 0.21813725
0.54313725 0.6307598 0.24166667
0.66708027 0.63878676 0.25421262
0.79157475 0.65036765 0.27729779
0.90441176 0.66194853 0.29981618
0.9814951 0.67071078 0.31727941
0.34803922 0.68529412 0.12696078
0.3781633 0.68529412 0.10606618
0.4388174 0.68529412 0.11060049
0.51648284 0.68712469 0.11960784
0.62092525 0.68970588 0.11488971
0.73487286 0.68921569 0.13082108
0.84796262 0.69705882 0.15079657
0.94503676 0.715625 0.17990196
0.98088235 0.72303922 0.21176471
0.49264706 0.7254902 0.019607843
0.51697304 0.72401961 0.010477941
0.54411765 0.71764706 0.025
0.61243873 0.72064951 0.025367647
0.70980392 0.71764706 0.0098039216
0.79509804 0.71617647 0.015686275
0.89411765 0.71617647 0.012745098
0.98137255 0.72009804 0.01372549
1 0.73186275 0.045588235
0.019607843 0.074509804 0.36470588
0.09877451 0.08627451 0.38210784
0.18333333 0.087745098 0.38823529
0.27794118 0.08504902 0.39142157
0.40686275 0.099019608 0.40294118
0.54852941 0.11789216 0.41642157
0.69509804 0.14607843 0.43186275
0.8372549 0.16372549 0.44754902
0.93137255 0.21960784 0.4745098
0.069607843 0.14558824 0.37818627
0.1122549 0.14996936 0.39209559
0.18529412 0.15735294 0.40171569
0.28088235 0.16127451 0.4
0.40980392 0.17328431 0.41348039
0.55563725 0.1895527 0.42873775
0.69852941 0.20784314 0.43903186
0.83011642 0.23697917 0.45882353
0.95073529 0.27328431 0.48406863
0.1127451 0.21911765 0.39509804
0.12745098 0.22610294 0.40392157
0.18995098 0.23431373 0.41078431
0.28872549 0.24160539 0.41893382
0.42058824 0.25318627 0.42892157
0.56605392 0.26776961 0.44252451
0.71017157 0.28811275 0.45404412
0.8372549 0.31366422 0.47493873
0.95441176 0.34117647 0.50098039
0.087009804 0.31446078 0.4122549
0.12696078 0.32270221 0.41617647
0.20735294 0.32910539 0.42922794
0.3 0.33134191 0.4377451
0.43492647 0.33995098 0.44705882
0.57990196 0.35741422 0.45490196
0.72438725 0.37647059 0.4661152
0.85284926 0.39803922 0.48667279
0.95882353 0.425 0.50980392
0.054901961 0.43333333 0.4254902
0.12904412 0.44080882 0.43333333
0.21004902 0.44509804 0.43333333
0.3254902 0.45159314 0.44117647
0.45637255 0.45441176 0.45147059
0.59816176 0.4689951 0.46151961
0.7375 0.48504902 0.47720588
0.86041667 0.5004902 0.49632353
0.95686275 0.52156863 0.51666667
0.065196078 0.55294118 0.41887255
0.11871936 0.56078431 0.42671569
0.23014706 0.56433824 0.42732843
0.35153186 0.56593137 0.43970588
0.48419118 0.57414216 0.45514706
0.62058824 0.58284314 0.46078431
0.75441176 0.59669118 0.47444853
0.87107843 0.60931373 0.49779412
0.97009804 0.62598039 0.51960784
0.17303922 0.65882353 0.38627451
0.22677696 0.65906863 0.38278186
0.31029412 0.66127451 0.3877451
0.40490196 0.66746324 0.40588235
0.52745098 0.67622549 0.42769608
0.6560049 0.68302696 0.4370098
0.7817402 0.69154412 0.44558824
0.89093137 0.7060049 0.47696078
0.98578431 0.71862745 0.50686275
0.32647059 0.7377451 0.31593137
0.35680147 0.73382353 0.30186887
0.42156863 0.72965686 0.29577206
0.49917279 0.7379902 0.31734069
0.60625 0.73823529 0.31372549
0.71740196 0.74558824 0.3372549
0.82328431 0.75563725 0.37181373
0.92374387 0.76914828 0.40833333
0.99215686 0.77696078 0.42573529
0.5 0.75294118 0.066666667
0.51740196 0.75269608 0.06004902
0.56568627 0.74901961 0.046568627
0.62303922 0.75294118 0.071568627
0.71176471 0.75294118 0.059803922
0.80318627 0.75563725 0.073039216
0.88921569 0.76323529 0.10980392
0.97303922 0.76911765 0.12720588
1 0.78039216 0.16862745
0.064215686 0.13235294 0.50784314
0.10882353 0.12303922 0.50245098
0.19068627 0.12303922 0.50784314
0.2848652 0.11574755 0.51176471
0.41642157 0.15147059 0.53014706
0.55637255 0.14754902 0.5377451
0.69620098 0.16666667 0.54803922
0.83756127 0.18204657 0.55931373
0.94362745 0.22107843 0.58480392
0.081556373 0.17647059 0.51305147
0.120481 0.18088235 0.51884957
0.19345895 0.18480392 0.52745098
0.28959099 0.1886106 0.53254442
0.41176471 0.2002451 0.54469975
0.55991881 0.21294424 0.55699295
0.70228248 0.23053002 0.56752451
0.8372549 0.26210938 0.58278186
0.95508578 0.29705882 0.60177696
0.09754902 0.25343137 0.5307598
0.125 0.25735294 0.53956801
0.19742647 0.2604473 0.54938725
0.29718137 0.26557904 0.55208333
0.42916667 0.28088235 0.5622549
0.57182904 0.29287684 0.57454044
0.71007966 0.31295956 0.58921569
0.84019608 0.34073223 0.60232843
0.9504902 0.36703431 0.61985294
0.072977941 0.34215686 0.55790441
0.1122549 0.34852941 0.56182598
0.19944853 0.35637255 0.56911765
0.31568627 0.36086857 0.56758578
0.44586397 0.3705576 0.57843137
0.58177849 0.38921569 0.5899663
0.72254902 0.39581801 0.61086091
0.84528952 0.42107843 0.61905637
0.95686275 0.45196078 0.63817402
0.080392157 0.47009804 0.58897059
0.11495098 0.46829044 0.58039216
0.19607843 0.47598039 0.57769608
0.32821691 0.47962623 0.58085172
0.46078431 0.48382353 0.59644608
0.59485294 0.49705882 0.60885417
0.73131127 0.51072304 0.61672794
0.85284926 0.52539828 0.63357843
0.95294118 0.5504902 0.64779412
0.035294118 0.59166667 0.58529412
0.10066636 0.59558824 0.57990196
0.22398897 0.59166667 0.57889093
0.35510876 0.60253523 0.59377298
0.48382353 0.60735294 0.60661765
0.61577053 0.61184896 0.61519608
0.74656863 0.6251685 0.62447917
0.86359528 0.63854933 0.64509804
0.965625 0.65833333 0.66078431
0.11066176 0.70245098 0.56372549
0.17414216 0.70672488 0.56738664
0.28590686 0.70845588 0.57564338
0.40761336 0.70919118 0.5817402
0.53039216 0.71421569 0.59166667
0.65415135 0.71775429 0.6
0.7700674 0.73198529 0.61896446
0.8810049 0.74178922 0.64131434
0.95 0.75061275 0.65343137
0.28988971 0.78694853 0.51568627
0.32677696 0.78049939 0.50196078
0.39456189 0.7872549 0.52100184
0.48304228 0.78823529 0.52383578
0.59099265 0.79430147 0.53180147
0.6995098 0.8022595 0.56010263
0.81017157 0.80237439 0.56078431
0.90841759 0.80798866 0.58329504
0.97941176 0.82254902 0.61341912
0.47156863 0.81470588 0.31029412
0.47781863 0.81617647 0.32512255
0.53112745 0.81862745 0.32414216
0.58780637 0.81917892 0.35300245
0.68161765 0.82401961 0.34411765
0.77794118 0.82647059 0.35484069
0.8685049 0.83186275 0.38602941
0.95539216 0.83578431 0.41832108
0.99852941 0.84852941 0.45931373
0.073529412 0.16470588 0.63039216
0.11764706 0.14607843 0.61960784
0.20514706 0.16176471 0.63602941
0.30208333 0.15539216 0.63921569
0.42990196 0.1627451 0.64460784
0.57095588 0.17438725 0.65245098
0.71004902 0.19240196 0.66666667
0.84117647 0.20919118 0.67843137
0.95490196 0.23921569 0.69313725
0.085784314 0.2 0.64264706
0.13354779 0.20304841 0.64607843
0.20882353 0.20741422 0.6541973
0.3060049 0.21510417 0.66038603
0.42818627 0.2247549 0.66642157
0.57149203 0.23625919 0.67696078
0.70980392 0.25196078 0.68704044
0.84117647 0.27879902 0.70050551
0.94901961 0.30980392 0.70845588
0.1002451 0.28823529 0.66960784
0.13532475 0.28504902 0.67034314
0.21053922 0.27800245 0.66887255
0.31960784 0.28795956 0.67625613
0.44473039 0.29767157 0.68921569
0.58333333 0.31130515 0.69617034
0.71691176 0.33063725 0.70625
0.84595588 0.35272672 0.72377451
0.95098039 0.38308824 0.73210784
0.09620098 0.37303922 0.69656863
0.12688419 0.37267157 0.69224877
0.22156863 0.37879902 0.69411765
0.32843137 0.38258272 0.70140931
0.45857843 0.39338235 0.7091299
0.59601716 0.41081495 0.71659007
0.72858456 0.42043505 0.72175245
0.84901961 0.4457261 0.7363511
0.94791667 0.47107843 0.74656863
0.095098039 0.49509804 0.70980392
0.12310049 0.48743873 0.71047794
0.21715686 0.49497549 0.71029412
0.33719363 0.49803922 0.71495098
0.47034314 0.50245098 0.7247549
0.60563725 0.51911765 0.73498775
0.73897059 0.53529412 0.74460784
0.85257353 0.55441176 0.75073529
0.95294118 0.57892157 0.76568627
0.072916667 0.6254902 0.72659314
0.11349571 0.62254902 0.72562806
0.23936887 0.62254902 0.72760417
0.36260723 0.62254902 0.73295037
0.49234069 0.62794118 0.7372549
0.62365196 0.63956801 0.74581801
0.75110294 0.65453431 0.75686275
0.86439951 0.66959252 0.76453738
0.96041667 0.6877451 0.77941176
0.10955882 0.73553922 0.7247549
0.19938725 0.7372549 0.71764706
0.29883578 0.73897059 0.72156863
0.40603554 0.74414828 0.73795956
0.53602941 0.74509804 0.73014706
0.6557598 0.74764093 0.7372549
0.76936275 0.76151961 0.75741422
0.87598039 0.77267157 0.76890319
0.96470588 0.7872549 0.78333333
0.27941176 0.82990196 0.70637255
0.31023284 0.83737745 0.71531863
0.38783701 0.82941176 0.70563725
0.47371324 0.83374694 0.71531863
0.58143382 0.83768382 0.71544118
0.68739277 0.84558824 0.74117647
0.79166667 0.84445466 0.74387255
0.8944087 0.84993873 0.75326287
0.97561275 0.86078431 0.76041667
0.43921569 0.88333333 0.59901961
0.43676471 0.87941176 0.6192402
0.47843137 0.87230392 0.62769608
0.56470588 0.88431373 0.62745098
0.65441176 0.89362745 0.63235294
0.74411765 0.89571078 0.64264706
0.82941176 0.88333333 0.65416667
0.92169118 0.89117647 0.67438725
0.98333333 0.89117647 0.72745098
0.06372549 0.17745098 0.73137255
0.14460784 0.18480392 0.74957108
0.22193627 0.19129902 0.74656863
0.32401961 0.19509804 0.7504902
0.44926471 0.19044118 0.75245098
0.58284314 0.17873775 0.75833333
0.7189951 0.21323529 0.77144608
0.84509804 0.23627451 0.77843137
0.95392157 0.25735294 0.78921569
0.11280637 0.215625 0.74699755
0.15680147 0.21862745 0.75784314
0.23370098 0.21911765 0.76101409
0.33284314 0.23039216 0.76813725
0.45122549 0.23627451 0.77552083
0.59064798 0.24581036 0.77747396
0.72158395 0.26144301 0.78541667
0.84901961 0.2857307 0.79319853
0.95245098 0.31966912 0.80441176
0.13026961 0.28811275 0.77303922
0.16818321 0.28823529 0.77696078
0.23915441 0.2924326 0.78287377
0.3504902 0.30294118 0.78601409
0.46715686 0.30318627 0.79362745
0.59817708 0.31678922 0.79888174
0.72598039 0.33241422 0.80082721
0.85245098 0.35931373 0.81193321
0.94901961 0.39056373 0.81703431
0.14460784 0.37990196 0.79607843
0.17491575 0.38347886 0.79623928
0.25539216 0.3877451 0.80502451
0.3596201 0.39319853 0.81157322
0.4859375 0.40572917 0.80931373
0.61636029 0.41508119 0.81960784
0.73748468 0.426394 0.8238511
0.8592065 0.44893536 0.83155637
0.92389706 0.47273284 0.83529412
0.14436275 0.50563725 0.82303922
0.18501838 0.49806985 0.81715686
0.26911765 0.50588235 0.82107843
0.3752451 0.51372549 0.82172181
0.50245098 0.52156863 0.82794118
0.62794118 0.52696078 0.84132966
0.75318627 0.54215686 0.84509804
0.86029412 0.56519608 0.8504902
0.95735294 0.59215686 0.85833333
0.16292892 0.63511029 0.83284314
0.19871324 0.64090839 0.83805147
0.28872549 0.63903186 0.83484988
0.39792433 0.64509804 0.84349724
0.52098652 0.64509804 0.84215686
0.64558824 0.65605852 0.84919577
0.76377145 0.66997549 0.86021752
0.87018229 0.68668045 0.86767004
0.94001225 0.69852941 0.87156863
0.21323529 0.76470588 0.84203431
0.24859069 0.76907169 0.85257353
0.33431373 0.76421569 0.85159314
0.43769914 0.76288297 0.84883578
0.54466912 0.77291667 0.85992647
0.66199449 0.77792586 0.86305147
0.77582721 0.78535539 0.86985294
0.87598039 0.79569547 0.87598039
0.95392157 0.80392157 0.88382353
0.34019608 0.85686275 0.84025735
0.34754136 0.8607307 0.84901961
0.42003676 0.85686275 0.84117647
0.49940257 0.85873928 0.843053
0.59515931 0.87205882 0.8622549
0.68932292 0.87050398 0.86060049
0.79569547 0.86813725 0.86029412
0.8881204 0.87990196 0.8716299
0.97297794 0.89209559 0.8872549
0.45539216 0.92254902 0.79117647
0.42058824 0.91470588 0.8372549
0.48382353 0.92843137 0.83333333
0.56439951 0.94166667 0.82990196
0.64142157 0.93627451 0.8377451
0.73382353 0.93676471 0.83431373
0.81862745 0.92254902 0.83468137
0.90294118 0.9216299 0.84908088
0.97647059 0.92647059 0.88431373
0.1254902 0.20784314 0.83529412
0.16372549 0.1995098 0.79166667
0.23333333 0.2 0.81176471
0.35098039 0.20392157 0.81813725
0.46470588 0.19803922 0.82352941
0.60343137 0.20392157 0.84852941
0.73039216 0.24019608 0.85882353
0.86029412 0.2745098 0.8622549
0.94901961 0.25490196 0.80784314
0.13284314 0.22303922 0.83970588
0.17892157 0.22303922 0.8221201
0.25931373 0.23088235 0.84215686
0.36243873 0.23480392 0.84656863
0.47843137 0.23284314 0.86004902
0.60196078 0.25018382 0.85490196
0.73762255 0.25882353 0.87046569
0.86029412 0.27886029 0.87745098
0.95637255 0.31666667 0.86911765
0.16764706 0.27647059 0.87254902
0.20588235 0.28333333 0.86629902
0.28235294 0.29411765 0.86960784
0.3817402 0.3 0.86960784
0.47990196 0.3 0.84558824
0.61090686 0.31323529 0.86421569
0.74338235 0.33137255 0.88235294
0.86029412 0.35453431 0.88872549
0.93529412 0.38627451 0.87254902
0.20098039 0.37205882 0.88480392
0.23694853 0.3745098 0.88970588
0.30747549 0.38566176 0.89019608
0.4028799 0.39019608 0.89019608
0.50955882 0.39803922 0.88455882
0.63878676 0.40251225 0.89803922
0.75931373 0.41617647 0.90551471
0.86029412 0.44558824 0.88333333
0.96078431 0.47794118 0.90343137
0.24509804 0.50392157 0.90588235
0.26985294 0.49803922 0.91127451
0.33333333 0.50931373 0.89901961
0.42230392 0.5247549 0.89926471
0.53529412 0.5254902 0.90588235
0.65612745 0.5254902 0.91568627
0.77009804 0.5372549 0.91617647
0.87205882 0.56127451 0.91715686
0.96078431 0.59411765 0.90196078
0.27598039 0.64509804 0.92156863
0.28743873 0.63872549 0.91029412
0.36360294 0.64448529 0.91519608
0.4471201 0.65147059 0.91819853
0.5622549 0.65294118 0.9254902
0.67199755 0.65833333 0.92254902
0.7754902 0.66617647 0.92046569
0.87598039 0.68057598 0.93333333
0.97009804 0.70637255 0.94019608
0.31372549 0.77647059 0.94607843
0.31482843 0.77254902 0.91078431
0.40612745 0.7754902 0.94509804
0.48566176 0.77254902 0.93370098
0.59117647 0.77647059 0.93431373
0.69313725 0.78578431 0.94644608
0.78823529 0.78823529 0.93823529
0.88382353 0.80036765 0.94105392
0.96470588 0.81078431 0.9245098
0.40147059 0.8872549 0.95245098
0.41623775 0.88382353 0.94166667
0.46973039 0.88394608 0.95269608
0.53529412 0.87990196 0.93872549
0.63186275 0.8877451 0.95441176
0.71470588 0.87990196 0.9346201
0.80735294 0.88333333 0.95196078
0.89209559 0.89515931 0.94901961
0.96470588 0.90294118 0.92990196
0.50196078 0.97254902 0.95686275
0.51421569 0.97745098 0.96519608
0.50098039 0.9254902 0.95686275
0.58627451 0.95392157 0.94362745
0.67058824 0.96666667 0.94509804
0.7377451 0.95931373 0.92303922
0.83039216 0.96666667 0.96960784
0.90294118 0.9495098 0.9377451
0.96862745 0.98431373 0.98431373
