site/assets/luts/natron-haldclut--kodak-tri-x-400---f4e6c0225.cube
# LUTr-Project: LUTr — LUTrepository
# LUTr-Schema-Version: 1
# LUTr-ID: natron-haldclut--kodak-tri-x-400---f4e6c0225
# LUTr-Title: kodak tri-x 400 -
# LUTr-Collection: Natron HaldCLUT
# LUTr-Collection-ID: natron-haldclut-presets
# LUTr-Source: https://github.com/NatronGitHub/clut
# LUTr-Source-File: submissions/natron-haldclut-presets/negative_new/kodak_tri-x_400_-.png
# LUTr-Source-Format: PNG
# LUTr-Source-SHA256: f187a62cd6421f9756abdc466eedd164b904c540b877ad2ca7c97d1cb7420b40
# LUTr-License: CC-BY-SA-4.0
# LUTr-License-URL: https://github.com/NatronGitHub/clut#license
# LUTr-Tags: creative, film, film-emulation, hald-clut, natron, png, cube
# LUTr-Transform-Class: film-emulation
# LUTr-Input-Color-Space: srgb
# LUTr-Output-Color-Space: srgb
# LUTr-Color-Space-Confidence: assumed-display-referred
# LUTr-Conversion-Method: PNG LUT image decoded at 16-bit and sampled to 25x25x25 3D CUBE
# LUTr-Conversion-Date: 2026-07-27
# LUTr-Conversion-Tool: LUTr scripts/convert-all-to-cube.mjs
# LUTr-Conversion-Grid: 25x25x25
# LUTr-Note: Preserve this metadata and the upstream license notices when redistributing.
TITLE "kodak tri-x 400 -"
LUT_3D_SIZE 9
DOMAIN_MIN 0 0 0
DOMAIN_MAX 1 1 1
0.035294118 0.035294118 0.035294118
0.035294118 0.035294118 0.035294118
0.056862745 0.056862745 0.056862745
0.10441176 0.10441176 0.10441176
0.17058824 0.17058824 0.17058824
0.24362745 0.24362745 0.24362745
0.32745098 0.32745098 0.32745098
0.40931373 0.40931373 0.40931373
0.49411765 0.49411765 0.49411765
0.045588235 0.045588235 0.045588235
0.076960784 0.076960784 0.076960784
0.12732843 0.12732843 0.12732843
0.17383578 0.17383578 0.17383578
0.23039216 0.23039216 0.23039216
0.28823529 0.28823529 0.28823529
0.35919118 0.35919118 0.35919118
0.43970588 0.43970588 0.43970588
0.51323529 0.51323529 0.51323529
0.15 0.15 0.15
0.14803922 0.14803922 0.14803922
0.2129902 0.2129902 0.2129902
0.28002451 0.28002451 0.28002451
0.32990196 0.32990196 0.32990196
0.36862745 0.36862745 0.36862745
0.41470588 0.41470588 0.41470588
0.48137255 0.48137255 0.48137255
0.56176471 0.56176471 0.56176471
0.25686275 0.25686275 0.25686275
0.26207108 0.26207108 0.26207108
0.29669118 0.29669118 0.29669118
0.38088235 0.38088235 0.38088235
0.43406863 0.43406863 0.43406863
0.47640931 0.47640931 0.47640931
0.52156863 0.52156863 0.52156863
0.5754902 0.5754902 0.5754902
0.64509804 0.64509804 0.64509804
0.37254902 0.37254902 0.37254902
0.37622549 0.37622549 0.37622549
0.37843137 0.37843137 0.37843137
0.43235294 0.43235294 0.43235294
0.50980392 0.50980392 0.50980392
0.57156863 0.57156863 0.57156863
0.62352941 0.62352941 0.62352941
0.68553922 0.68553922 0.68553922
0.74901961 0.74901961 0.74901961
0.5 0.5 0.5
0.49607843 0.49607843 0.49607843
0.48823529 0.48823529 0.48823529
0.50343137 0.50343137 0.50343137
0.56642157 0.56642157 0.56642157
0.63186275 0.63186275 0.63186275
0.69117647 0.69117647 0.69117647
0.75704657 0.75704657 0.75704657
0.82401961 0.82401961 0.82401961
0.63137255 0.63137255 0.63137255
0.63235294 0.63235294 0.63235294
0.6245098 0.6245098 0.6245098
0.61605392 0.61605392 0.61605392
0.65637255 0.65637255 0.65637255
0.70453431 0.70453431 0.70453431
0.76470588 0.76470588 0.76470588
0.83039216 0.83039216 0.83039216
0.8872549 0.8872549 0.8872549
0.77892157 0.77892157 0.77892157
0.77892157 0.77892157 0.77892157
0.775 0.775 0.775
0.76109069 0.76109069 0.76109069
0.7747549 0.7747549 0.7747549
0.81519608 0.81519608 0.81519608
0.85735294 0.85735294 0.85735294
0.89564951 0.89564951 0.89564951
0.94558824 0.94558824 0.94558824
0.90588235 0.90588235 0.90588235
0.90588235 0.90588235 0.90588235
0.89411765 0.89411765 0.89411765
0.9004902 0.9004902 0.9004902
0.90196078 0.90196078 0.90196078
0.92303922 0.92303922 0.92303922
0.92941176 0.92941176 0.92941176
0.95784314 0.95784314 0.95784314
0.98039216 0.98039216 0.98039216
0.054901961 0.054901961 0.054901961
0.069607843 0.069607843 0.069607843
0.10306373 0.10306373 0.10306373
0.14117647 0.14117647 0.14117647
0.18210784 0.18210784 0.18210784
0.25520833 0.25520833 0.25520833
0.32745098 0.32745098 0.32745098
0.40196078 0.40196078 0.40196078
0.4745098 0.4745098 0.4745098
0.08872549 0.08872549 0.08872549
0.11096048 0.11096048 0.11096048
0.14689032 0.14689032 0.14689032
0.17775735 0.17775735 0.17775735
0.2377451 0.2377451 0.2377451
0.29973192 0.29973192 0.29973192
0.36155025 0.36155025 0.36155025
0.44019608 0.44019608 0.44019608
0.51715686 0.51715686 0.51715686
0.1877451 0.1877451 0.1877451
0.18382353 0.18382353 0.18382353
0.21752451 0.21752451 0.21752451
0.28333333 0.28333333 0.28333333
0.33235294 0.33235294 0.33235294
0.37469363 0.37469363 0.37469363
0.42245711 0.42245711 0.42245711
0.48186275 0.48186275 0.48186275
0.56666667 0.56666667 0.56666667
0.3122549 0.3122549 0.3122549
0.29993873 0.29993873 0.29993873
0.30700061 0.30700061 0.30700061
0.37954197 0.37954197 0.37954197
0.42677696 0.42677696 0.42677696
0.46642157 0.46642157 0.46642157
0.51879596 0.51879596 0.51879596
0.57330729 0.57330729 0.57330729
0.63216912 0.63216912 0.63216912
0.40931373 0.40931373 0.40931373
0.40735294 0.40735294 0.40735294
0.39430147 0.39430147 0.39430147
0.43250613 0.43250613 0.43250613
0.50196078 0.50196078 0.50196078
0.55784314 0.55784314 0.55784314
0.61960784 0.61960784 0.61960784
0.68137255 0.68137255 0.68137255
0.73186275 0.73186275 0.73186275
0.51911765 0.51911765 0.51911765
0.51158088 0.51158088 0.51158088
0.50735294 0.50735294 0.50735294
0.51256127 0.51256127 0.51256127
0.56902574 0.56902574 0.56902574
0.63088235 0.63088235 0.63088235
0.6963848 0.6963848 0.6963848
0.76443781 0.76443781 0.76443781
0.82009804 0.82009804 0.82009804
0.64656863 0.64656863 0.64656863
0.64287684 0.64287684 0.64287684
0.63290441 0.63290441 0.63290441
0.61605392 0.61605392 0.61605392
0.65435049 0.65435049 0.65435049
0.70998775 0.70998775 0.70998775
0.76862745 0.76862745 0.76862745
0.83039216 0.83039216 0.83039216
0.88370098 0.88370098 0.88370098
0.78976716 0.78976716 0.78976716
0.78627451 0.78627451 0.78627451
0.77575061 0.77575061 0.77575061
0.76312806 0.76312806 0.76312806
0.76691176 0.76691176 0.76691176
0.81488971 0.81488971 0.81488971
0.86262255 0.86262255 0.86262255
0.90740656 0.90740656 0.90740656
0.95300245 0.95300245 0.95300245
0.91372549 0.91372549 0.91372549
0.91415441 0.91415441 0.91415441
0.90147059 0.90147059 0.90147059
0.91194853 0.91194853 0.91194853
0.90588235 0.90588235 0.90588235
0.91783088 0.91783088 0.91783088
0.94215686 0.94215686 0.94215686
0.95778186 0.95778186 0.95778186
0.95343137 0.95343137 0.95343137
0.078431373 0.078431373 0.078431373
0.1122549 0.1122549 0.1122549
0.15980392 0.15980392 0.15980392
0.23333333 0.23333333 0.23333333
0.3 0.3 0.3
0.30441176 0.30441176 0.30441176
0.34926471 0.34926471 0.34926471
0.40882353 0.40882353 0.40882353
0.47254902 0.47254902 0.47254902
0.12340686 0.12340686 0.12340686
0.15344669 0.15344669 0.15344669
0.19613971 0.19613971 0.19613971
0.23676471 0.23676471 0.23676471
0.2908701 0.2908701 0.2908701
0.31717218 0.31717218 0.31717218
0.37337623 0.37337623 0.37337623
0.44362745 0.44362745 0.44362745
0.50539216 0.50539216 0.50539216
0.2375 0.2375 0.2375
0.22254902 0.22254902 0.22254902
0.26096814 0.26096814 0.26096814
0.29684436 0.29684436 0.29684436
0.33002451 0.33002451 0.33002451
0.38841912 0.38841912 0.38841912
0.43112745 0.43112745 0.43112745
0.48897059 0.48897059 0.48897059
0.55588235 0.55588235 0.55588235
0.37107843 0.37107843 0.37107843
0.35530025 0.35530025 0.35530025
0.34310662 0.34310662 0.34310662
0.3816636 0.3816636 0.3816636
0.42303922 0.42303922 0.42303922
0.47095588 0.47095588 0.47095588
0.51875 0.51875 0.51875
0.58088235 0.58088235 0.58088235
0.63333333 0.63333333 0.63333333
0.45882353 0.45882353 0.45882353
0.45882353 0.45882353 0.45882353
0.44485294 0.44485294 0.44485294
0.4502451 0.4502451 0.4502451
0.50588235 0.50588235 0.50588235
0.56862745 0.56862745 0.56862745
0.62696078 0.62696078 0.62696078
0.68529412 0.68529412 0.68529412
0.74068627 0.74068627 0.74068627
0.55931373 0.55931373 0.55931373
0.5537837 0.5537837 0.5537837
0.54525123 0.54525123 0.54525123
0.53970588 0.53970588 0.53970588
0.58443627 0.58443627 0.58443627
0.64411765 0.64411765 0.64411765
0.70989583 0.70989583 0.70989583
0.76991422 0.76991422 0.76991422
0.81470588 0.81470588 0.81470588
0.67132353 0.67132353 0.67132353
0.67068015 0.67068015 0.67068015
0.66568627 0.66568627 0.66568627
0.6515625 0.6515625 0.6515625
0.67071078 0.67071078 0.67071078
0.71559436 0.71559436 0.71559436
0.77591912 0.77591912 0.77591912
0.84117647 0.84117647 0.84117647
0.89289216 0.89289216 0.89289216
0.80588235 0.80588235 0.80588235
0.80491728 0.80491728 0.80491728
0.79705882 0.79705882 0.79705882
0.78534007 0.78534007 0.78534007
0.78529412 0.78529412 0.78529412
0.81876532 0.81876532 0.81876532
0.86127451 0.86127451 0.86127451
0.90723039 0.90723039 0.90723039
0.9377451 0.9377451 0.9377451
0.91372549 0.91372549 0.91372549
0.92414216 0.92414216 0.92414216
0.91764706 0.91764706 0.91764706
0.91764706 0.91764706 0.91764706
0.89803922 0.89803922 0.89803922
0.90294118 0.90294118 0.90294118
0.94142157 0.94142157 0.94142157
0.96115196 0.96115196 0.96115196
0.98235294 0.98235294 0.98235294
0.18382353 0.18382353 0.18382353
0.19852941 0.19852941 0.19852941
0.24558824 0.24558824 0.24558824
0.28731618 0.28731618 0.28731618
0.34901961 0.34901961 0.34901961
0.40392157 0.40392157 0.40392157
0.46960784 0.46960784 0.46960784
0.5004902 0.5004902 0.5004902
0.52107843 0.52107843 0.52107843
0.20637255 0.20637255 0.20637255
0.22571232 0.22571232 0.22571232
0.26897978 0.26897978 0.26897978
0.31800705 0.31800705 0.31800705
0.38970588 0.38970588 0.38970588
0.43865656 0.43865656 0.43865656
0.46832108 0.46832108 0.46832108
0.4968367 0.4968367 0.4968367
0.51783088 0.51783088 0.51783088
0.26262255 0.26262255 0.26262255
0.26675858 0.26675858 0.26675858
0.3125 0.3125 0.3125
0.35853248 0.35853248 0.35853248
0.41421569 0.41421569 0.41421569
0.44509804 0.44509804 0.44509804
0.46596201 0.46596201 0.46596201
0.50347733 0.50347733 0.50347733
0.53247549 0.53247549 0.53247549
0.37843137 0.37843137 0.37843137
0.3991345 0.3991345 0.3991345
0.3932598 0.3932598 0.3932598
0.41505055 0.41505055 0.41505055
0.45759804 0.45759804 0.45759804
0.50061275 0.50061275 0.50061275
0.52026654 0.52026654 0.52026654
0.58480392 0.58480392 0.58480392
0.63572304 0.63572304 0.63572304
0.52573529 0.52573529 0.52573529
0.52843137 0.52843137 0.52843137
0.50931373 0.50931373 0.50931373
0.4879902 0.4879902 0.4879902
0.52671569 0.52671569 0.52671569
0.58651961 0.58651961 0.58651961
0.62696078 0.62696078 0.62696078
0.68284314 0.68284314 0.68284314
0.73284314 0.73284314 0.73284314
0.625 0.625 0.625
0.61501225 0.61501225 0.61501225
0.60183824 0.60183824 0.60183824
0.58612898 0.58612898 0.58612898
0.59733456 0.59733456 0.59733456
0.6562883 0.6562883 0.6562883
0.71862745 0.71862745 0.71862745
0.77395067 0.77395067 0.77395067
0.81954657 0.81954657 0.81954657
0.72156863 0.72156863 0.72156863
0.72291667 0.72291667 0.72291667
0.71004902 0.71004902 0.71004902
0.69551164 0.69551164 0.69551164
0.68682598 0.68682598 0.68682598
0.7310049 0.7310049 0.7310049
0.78869485 0.78869485 0.78869485
0.84829963 0.84829963 0.84829963
0.8942402 0.8942402 0.8942402
0.82745098 0.82745098 0.82745098
0.83502604 0.83502604 0.83502604
0.83163297 0.83163297 0.83163297
0.81746324 0.81746324 0.81746324
0.80906863 0.80906863 0.80906863
0.82432598 0.82432598 0.82432598
0.86505821 0.86505821 0.86505821
0.91519608 0.91519608 0.91519608
0.94166667 0.94166667 0.94166667
0.92941176 0.92941176 0.92941176
0.93363971 0.93363971 0.93363971
0.93002451 0.93002451 0.93002451
0.9254902 0.9254902 0.9254902
0.91813725 0.91813725 0.91813725
0.92794118 0.92794118 0.92794118
0.95428922 0.95428922 0.95428922
0.96078431 0.96078431 0.96078431
0.97401961 0.97401961 0.97401961
0.26666667 0.26666667 0.26666667
0.28578431 0.28578431 0.28578431
0.32647059 0.32647059 0.32647059
0.36323529 0.36323529 0.36323529
0.40882353 0.40882353 0.40882353
0.47303922 0.47303922 0.47303922
0.58137255 0.58137255 0.58137255
0.62745098 0.62745098 0.62745098
0.64509804 0.64509804 0.64509804
0.29166667 0.29166667 0.29166667
0.31099877 0.31099877 0.31099877
0.34142157 0.34142157 0.34142157
0.38627451 0.38627451 0.38627451
0.43394608 0.43394608 0.43394608
0.50499387 0.50499387 0.50499387
0.5879902 0.5879902 0.5879902
0.62702206 0.62702206 0.62702206
0.65441176 0.65441176 0.65441176
0.32843137 0.32843137 0.32843137
0.34430147 0.34430147 0.34430147
0.3817402 0.3817402 0.3817402
0.42481618 0.42481618 0.42481618
0.45588235 0.45588235 0.45588235
0.525 0.525 0.525
0.59558824 0.59558824 0.59558824
0.62769608 0.62769608 0.62769608
0.65098039 0.65098039 0.65098039
0.38946078 0.38946078 0.38946078
0.39785539 0.39785539 0.39785539
0.42113971 0.42113971 0.42113971
0.46056985 0.46056985 0.46056985
0.50955882 0.50955882 0.50955882
0.5622549 0.5622549 0.5622549
0.59730392 0.59730392 0.59730392
0.62466299 0.62466299 0.62466299
0.64117647 0.64117647 0.64117647
0.51372549 0.51372549 0.51372549
0.54154412 0.54154412 0.54154412
0.54877451 0.54877451 0.54877451
0.5497549 0.5497549 0.5497549
0.56764706 0.56764706 0.56764706
0.60735294 0.60735294 0.60735294
0.63210784 0.63210784 0.63210784
0.6692402 0.6692402 0.6692402
0.70392157 0.70392157 0.70392157
0.65441176 0.65441176 0.65441176
0.6754902 0.6754902 0.6754902
0.66838235 0.66838235 0.66838235
0.65977328 0.65977328 0.65977328
0.64252451 0.64252451 0.64252451
0.66908701 0.66908701 0.66908701
0.72720588 0.72720588 0.72720588
0.7768076 0.7768076 0.7768076
0.81617647 0.81617647 0.81617647
0.76960784 0.76960784 0.76960784
0.77745098 0.77745098 0.77745098
0.76813725 0.76813725 0.76813725
0.75606618 0.75606618 0.75606618
0.73137255 0.73137255 0.73137255
0.7463848 0.7463848 0.7463848
0.80392157 0.80392157 0.80392157
0.8622549 0.8622549 0.8622549
0.90490196 0.90490196 0.90490196
0.86642157 0.86642157 0.86642157
0.87009804 0.87009804 0.87009804
0.86421569 0.86421569 0.86421569
0.85318627 0.85318627 0.85318627
0.83995098 0.83995098 0.83995098
0.84273897 0.84273897 0.84273897
0.87659314 0.87659314 0.87659314
0.91124387 0.91124387 0.91124387
0.9377451 0.9377451 0.9377451
0.94509804 0.94509804 0.94509804
0.94730392 0.94730392 0.94730392
0.94117647 0.94117647 0.94117647
0.93235294 0.93235294 0.93235294
0.93431373 0.93431373 0.93431373
0.93602941 0.93602941 0.93602941
0.95294118 0.95294118 0.95294118
0.95318627 0.95318627 0.95318627
0.97254902 0.97254902 0.97254902
0.37058824 0.37058824 0.37058824
0.38057598 0.38057598 0.38057598
0.41188725 0.41188725 0.41188725
0.44460784 0.44460784 0.44460784
0.49852941 0.49852941 0.49852941
0.5377451 0.5377451 0.5377451
0.58872549 0.58872549 0.58872549
0.69558824 0.69558824 0.69558824
0.79019608 0.79019608 0.79019608
0.38823529 0.38823529 0.38823529
0.3995098 0.3995098 0.3995098
0.43039216 0.43039216 0.43039216
0.46372549 0.46372549 0.46372549
0.51127451 0.51127451 0.51127451
0.54656863 0.54656863 0.54656863
0.59866728 0.59866728 0.59866728
0.6959329 0.6959329 0.6959329
0.76783088 0.76783088 0.76783088
0.41519608 0.41519608 0.41519608
0.43431373 0.43431373 0.43431373
0.45882353 0.45882353 0.45882353
0.49460784 0.49460784 0.49460784
0.53743873 0.53743873 0.53743873
0.57107843 0.57107843 0.57107843
0.62941176 0.62941176 0.62941176
0.72322304 0.72322304 0.72322304
0.77745098 0.77745098 0.77745098
0.43970588 0.43970588 0.43970588
0.45834099 0.45834099 0.45834099
0.48431373 0.48431373 0.48431373
0.52886029 0.52886029 0.52886029
0.56960784 0.56960784 0.56960784
0.61055453 0.61055453 0.61055453
0.65931373 0.65931373 0.65931373
0.75032169 0.75032169 0.75032169
0.76813725 0.76813725 0.76813725
0.52818627 0.52818627 0.52818627
0.5372549 0.5372549 0.5372549
0.54957108 0.54957108 0.54957108
0.57205882 0.57205882 0.57205882
0.61323529 0.61323529 0.61323529
0.65297181 0.65297181 0.65297181
0.68560049 0.68560049 0.68560049
0.74445466 0.74445466 0.74445466
0.76470588 0.76470588 0.76470588
0.67401961 0.67401961 0.67401961
0.66477482 0.66477482 0.66477482
0.67507659 0.67507659 0.67507659
0.68096661 0.68096661 0.68096661
0.70153186 0.70153186 0.70153186
0.7 0.7 0.7
0.73088235 0.73088235 0.73088235
0.76256893 0.76256893 0.76256893
0.81813725 0.81813725 0.81813725
0.81764706 0.81764706 0.81764706
0.80868566 0.80868566 0.80868566
0.80625 0.80625 0.80625
0.80647978 0.80647978 0.80647978
0.79748775 0.79748775 0.79748775
0.78480392 0.78480392 0.78480392
0.81341912 0.81341912 0.81341912
0.85441176 0.85441176 0.85441176
0.89460784 0.89460784 0.89460784
0.89528186 0.89528186 0.89528186
0.89656863 0.89656863 0.89656863
0.89108456 0.89108456 0.89108456
0.89264706 0.89264706 0.89264706
0.8859375 0.8859375 0.8859375
0.87223499 0.87223499 0.87223499
0.88578431 0.88578431 0.88578431
0.91884957 0.91884957 0.91884957
0.9495098 0.9495098 0.9495098
0.95441176 0.95441176 0.95441176
0.96047794 0.96047794 0.96047794
0.96862745 0.96862745 0.96862745
0.96133578 0.96133578 0.96133578
0.95955882 0.95955882 0.95955882
0.9504902 0.9504902 0.9504902
0.95833333 0.95833333 0.95833333
0.97009804 0.97009804 0.97009804
0.98186275 0.98186275 0.98186275
0.48529412 0.48529412 0.48529412
0.49375 0.49375 0.49375
0.5245098 0.5245098 0.5245098
0.55539216 0.55539216 0.55539216
0.59362745 0.59362745 0.59362745
0.64007353 0.64007353 0.64007353
0.67843137 0.67843137 0.67843137
0.70318627 0.70318627 0.70318627
0.79411765 0.79411765 0.79411765
0.50196078 0.50196078 0.50196078
0.50899203 0.50899203 0.50899203
0.53492647 0.53492647 0.53492647
0.56288297 0.56288297 0.56288297
0.603125 0.603125 0.603125
0.64371936 0.64371936 0.64371936
0.68321078 0.68321078 0.68321078
0.72026654 0.72026654 0.72026654
0.78676471 0.78676471 0.78676471
0.52058824 0.52058824 0.52058824
0.53970588 0.53970588 0.53970588
0.5627451 0.5627451 0.5627451
0.58970588 0.58970588 0.58970588
0.62745098 0.62745098 0.62745098
0.66871936 0.66871936 0.66871936
0.70171569 0.70171569 0.70171569
0.7385723 0.7385723 0.7385723
0.82745098 0.82745098 0.82745098
0.54473039 0.54473039 0.54473039
0.55919118 0.55919118 0.55919118
0.58125 0.58125 0.58125
0.61384804 0.61384804 0.61384804
0.65441176 0.65441176 0.65441176
0.69529718 0.69529718 0.69529718
0.72686887 0.72686887 0.72686887
0.77585784 0.77585784 0.77585784
0.85343137 0.85343137 0.85343137
0.56078431 0.56078431 0.56078431
0.58351716 0.58351716 0.58351716
0.6 0.6 0.6
0.63235294 0.63235294 0.63235294
0.67034314 0.67034314 0.67034314
0.72481618 0.72481618 0.72481618
0.75637255 0.75637255 0.75637255
0.80539216 0.80539216 0.80539216
0.87254902 0.87254902 0.87254902
0.67352941 0.67352941 0.67352941
0.68118873 0.68118873 0.68118873
0.6885723 0.6885723 0.6885723
0.69299939 0.69299939 0.69299939
0.70759804 0.70759804 0.70759804
0.75761336 0.75761336 0.75761336
0.79273897 0.79273897 0.79273897
0.82642463 0.82642463 0.82642463
0.87095588 0.87095588 0.87095588
0.78529412 0.78529412 0.78529412
0.79770221 0.79770221 0.79770221
0.79473039 0.79473039 0.79473039
0.81449142 0.81449142 0.81449142
0.82303922 0.82303922 0.82303922
0.8106924 0.8106924 0.8106924
0.83553922 0.83553922 0.83553922
0.87123162 0.87123162 0.87123162
0.92058824 0.92058824 0.92058824
0.92647059 0.92647059 0.92647059
0.92254902 0.92254902 0.92254902
0.92711397 0.92711397 0.92711397
0.91706495 0.91706495 0.91706495
0.92009804 0.92009804 0.92009804
0.90494792 0.90494792 0.90494792
0.91311275 0.91311275 0.91311275
0.9310049 0.9310049 0.9310049
0.95735294 0.95735294 0.95735294
0.97647059 0.97647059 0.97647059
0.97647059 0.97647059 0.97647059
0.97745098 0.97745098 0.97745098
0.97205882 0.97205882 0.97205882
0.97009804 0.97009804 0.97009804
0.97009804 0.97009804 0.97009804
0.97647059 0.97647059 0.97647059
0.98039216 0.98039216 0.98039216
0.98039216 0.98039216 0.98039216
0.63039216 0.63039216 0.63039216
0.63382353 0.63382353 0.63382353
0.65637255 0.65637255 0.65637255
0.68333333 0.68333333 0.68333333
0.71421569 0.71421569 0.71421569
0.75422794 0.75422794 0.75422794
0.79460784 0.79460784 0.79460784
0.81813725 0.81813725 0.81813725
0.83333333 0.83333333 0.83333333
0.64901961 0.64901961 0.64901961
0.64509804 0.64509804 0.64509804
0.65723039 0.65723039 0.65723039
0.67941176 0.67941176 0.67941176
0.71957721 0.71957721 0.71957721
0.75610447 0.75610447 0.75610447
0.79417892 0.79417892 0.79417892
0.82119332 0.82119332 0.82119332
0.84803922 0.84803922 0.84803922
0.66519608 0.66519608 0.66519608
0.66352635 0.66352635 0.66352635
0.67454044 0.67454044 0.67454044
0.70147059 0.70147059 0.70147059
0.73682598 0.73682598 0.73682598
0.77198223 0.77198223 0.77198223
0.80637255 0.80637255 0.80637255
0.83333333 0.83333333 0.83333333
0.86409314 0.86409314 0.86409314
0.67677696 0.67677696 0.67677696
0.67941176 0.67941176 0.67941176
0.69754902 0.69754902 0.69754902
0.72058824 0.72058824 0.72058824
0.75508578 0.75508578 0.75508578
0.78615962 0.78615962 0.78615962
0.81813725 0.81813725 0.81813725
0.84487592 0.84487592 0.84487592
0.87794118 0.87794118 0.87794118
0.67279412 0.67279412 0.67279412
0.69191176 0.69191176 0.69191176
0.71133578 0.71133578 0.71133578
0.7377451 0.7377451 0.7377451
0.77120098 0.77120098 0.77120098
0.81078431 0.81078431 0.81078431
0.83547794 0.83547794 0.83547794
0.85484069 0.85484069 0.85484069
0.9004902 0.9004902 0.9004902
0.7036152 0.7036152 0.7036152
0.71443781 0.71443781 0.71443781
0.71796875 0.71796875 0.71796875
0.73658088 0.73658088 0.73658088
0.78161765 0.78161765 0.78161765
0.82352941 0.82352941 0.82352941
0.85686275 0.85686275 0.85686275
0.88513327 0.88513327 0.88513327
0.92009804 0.92009804 0.92009804
0.82316176 0.82316176 0.82316176
0.82041973 0.82041973 0.82041973
0.82316176 0.82316176 0.82316176
0.82696078 0.82696078 0.82696078
0.83572304 0.83572304 0.83572304
0.85539216 0.85539216 0.85539216
0.89019608 0.89019608 0.89019608
0.91917892 0.91917892 0.91917892
0.93443627 0.93443627 0.93443627
0.92346814 0.92346814 0.92346814
0.93056066 0.93056066 0.93056066
0.91176471 0.91176471 0.91176471
0.92202053 0.92202053 0.92202053
0.93627451 0.93627451 0.93627451
0.94234069 0.94234069 0.94234069
0.95436581 0.95436581 0.95436581
0.95876225 0.95876225 0.95876225
0.96954657 0.96954657 0.96954657
0.98823529 0.98823529 0.98823529
0.97647059 0.97647059 0.97647059
0.98468137 0.98468137 0.98468137
0.97647059 0.97647059 0.97647059
0.96887255 0.96887255 0.96887255
0.98039216 0.98039216 0.98039216
0.98039216 0.98039216 0.98039216
0.97653186 0.97653186 0.97653186
0.98039216 0.98039216 0.98039216
0.79215686 0.79215686 0.79215686
0.79558824 0.79558824 0.79558824
0.80882353 0.80882353 0.80882353
0.81176471 0.81176471 0.81176471
0.83333333 0.83333333 0.83333333
0.86813725 0.86813725 0.86813725
0.89509804 0.89509804 0.89509804
0.91813725 0.91813725 0.91813725
0.9254902 0.9254902 0.9254902
0.8 0.8 0.8
0.79215686 0.79215686 0.79215686
0.80747549 0.80747549 0.80747549
0.82156863 0.82156863 0.82156863
0.84117647 0.84117647 0.84117647
0.87579657 0.87579657 0.87579657
0.90281863 0.90281863 0.90281863
0.92254902 0.92254902 0.92254902
0.92598039 0.92598039 0.92598039
0.80784314 0.80784314 0.80784314
0.81127451 0.81127451 0.81127451
0.81642157 0.81642157 0.81642157
0.82953431 0.82953431 0.82953431
0.84509804 0.84509804 0.84509804
0.87892157 0.87892157 0.87892157
0.89509804 0.89509804 0.89509804
0.92205882 0.92205882 0.92205882
0.93333333 0.93333333 0.93333333
0.81029412 0.81029412 0.81029412
0.80459559 0.80459559 0.80459559
0.82205882 0.82205882 0.82205882
0.83382353 0.83382353 0.83382353
0.86323529 0.86323529 0.86323529
0.88082108 0.88082108 0.88082108
0.90686275 0.90686275 0.90686275
0.92941176 0.92941176 0.92941176
0.9254902 0.9254902 0.9254902
0.81372549 0.81372549 0.81372549
0.80955882 0.80955882 0.80955882
0.84166667 0.84166667 0.84166667
0.84436275 0.84436275 0.84436275
0.86862745 0.86862745 0.86862745
0.88235294 0.88235294 0.88235294
0.90686275 0.90686275 0.90686275
0.93921569 0.93921569 0.93921569
0.93921569 0.93921569 0.93921569
0.80392157 0.80392157 0.80392157
0.76862745 0.76862745 0.76862745
0.81862745 0.81862745 0.81862745
0.83964461 0.83964461 0.83964461
0.86936275 0.86936275 0.86936275
0.88921569 0.88921569 0.88921569
0.91678922 0.91678922 0.91678922
0.94773284 0.94773284 0.94773284
0.96470588 0.96470588 0.96470588
0.86568627 0.86568627 0.86568627
0.84742647 0.84742647 0.84742647
0.87328431 0.87328431 0.87328431
0.87830882 0.87830882 0.87830882
0.89313725 0.89313725 0.89313725
0.91507353 0.91507353 0.91507353
0.93921569 0.93921569 0.93921569
0.96176471 0.96176471 0.96176471
0.96862745 0.96862745 0.96862745
0.94607843 0.94607843 0.94607843
0.95386029 0.95386029 0.95386029
0.94178922 0.94178922 0.94178922
0.93431373 0.93431373 0.93431373
0.93431373 0.93431373 0.93431373
0.95520833 0.95520833 0.95520833
0.96911765 0.96911765 0.96911765
0.98039216 0.98039216 0.98039216
0.98431373 0.98431373 0.98431373
0.98431373 0.98431373 0.98431373
0.95735294 0.95735294 0.95735294
0.98431373 0.98431373 0.98431373
0.98039216 0.98039216 0.98039216
0.98823529 0.98823529 0.98823529
0.98823529 0.98823529 0.98823529
0.98039216 0.98039216 0.98039216
0.98431373 0.98431373 0.98431373
0.98431373 0.98431373 0.98431373
