site/assets/luts/natron-haldclut--analogfx-sepia-color--e37247340.cube
# LUTr-Project: LUTr — LUTrepository
# LUTr-Schema-Version: 1
# LUTr-ID: natron-haldclut--analogfx-sepia-color--e37247340
# LUTr-Title: analogfx sepia color
# LUTr-Collection: Natron HaldCLUT
# LUTr-Collection-ID: natron-haldclut-presets
# LUTr-Source: https://github.com/NatronGitHub/clut
# LUTr-Source-File: submissions/natron-haldclut-presets/picturefx/analogfx_sepia_color.png
# LUTr-Source-Format: PNG
# LUTr-Source-SHA256: 4cbf82562828886433d7ef80b2d23cfce6ae58e8a67f9dd752c27c5c39b0b77d
# LUTr-License: CC-BY-SA-4.0
# LUTr-License-URL: https://github.com/NatronGitHub/clut#license
# LUTr-Tags: creative, film, film-emulation, hald-clut, natron, png, warm, cube
# LUTr-Transform-Class: film-emulation
# LUTr-Input-Color-Space: srgb
# LUTr-Output-Color-Space: srgb
# LUTr-Color-Space-Confidence: assumed-display-referred
# LUTr-Conversion-Method: PNG LUT image decoded at 16-bit and sampled to 25x25x25 3D CUBE
# LUTr-Conversion-Date: 2026-07-27
# LUTr-Conversion-Tool: LUTr scripts/convert-all-to-cube.mjs
# LUTr-Conversion-Grid: 25x25x25
# LUTr-Note: Preserve this metadata and the upstream license notices when redistributing.
TITLE "analogfx sepia color"
LUT_3D_SIZE 25
DOMAIN_MIN 0 0 0
DOMAIN_MAX 1 1 1
0.011764706 0.0039215686 0
0.03627451 0.011764706 0
0.056862745 0.019607843 0
0.074019608 0.026960784 0
0.090196078 0.037254902 0
0.11078431 0.048039216 0
0.12745098 0.061764706 0
0.14264706 0.075980392 0
0.15686275 0.08627451 0
0.19411765 0.10441176 0
0.22647059 0.12254902 0
0.25735294 0.13676471 0
0.28823529 0.15294118 0
0.32303922 0.16960784 0
0.35392157 0.1872549 0
0.39166667 0.2122549 0
0.43921569 0.24705882 0
0.49068627 0.28186275 0
0.54117647 0.31666667 0
0.58970588 0.35147059 0
0.64313725 0.38431373 0
0.70098039 0.42107843 0
0.75882353 0.45490196 0
0.81519608 0.49068627 0
0.85882353 0.51372549 0
0.049019608 0.014215686 0
0.061397059 0.020588235 0
0.076593137 0.025367647 0
0.080392157 0.023529412 0
0.095343137 0.034068627 0
0.11452206 0.047732843 0
0.13198529 0.061764706 0
0.14748775 0.075980392 0
0.16715686 0.08872549 0
0.19558824 0.10441176 0
0.22647059 0.12254902 0
0.25520833 0.13645833 0
0.2870098 0.15294118 0
0.31960784 0.16960784 0
0.35392157 0.1872549 0
0.39166667 0.2122549 0
0.44313725 0.24705882 0
0.49068627 0.28186275 0
0.54215686 0.31666667 0
0.59234069 0.35098039 0
0.64632353 0.38431373 0
0.70471814 0.42107843 0
0.76335784 0.45588235 0
0.81911765 0.49068627 0
0.8627451 0.51764706 0
0.081372549 0.028431373 0
0.089338235 0.029656863 0
0.08627451 0.025735294 0
0.082352941 0.019607843 0
0.099019608 0.031372549 0
0.11948529 0.04754902 0
0.1370098 0.061764706 0
0.1564951 0.075980392 0
0.17647059 0.090196078 0
0.19987745 0.10441176 0
0.2247549 0.11936275 0
0.24987745 0.13284314 0
0.28578431 0.15294118 0
0.31911765 0.16960784 0
0.35392157 0.1872549 0
0.39166667 0.2122549 0
0.44313725 0.24705882 0
0.49460784 0.28039216 0
0.54705882 0.31593137 0
0.59852941 0.35012255 0
0.65147059 0.38235294 0
0.70845588 0.41752451 0
0.76666667 0.45416667 0
0.82303922 0.48676471 0
0.86176471 0.5127451 0
0.1122549 0.034803922 0
0.10637255 0.031066176 0
0.096568627 0.023406863 0
0.086703431 0.016176471 0
0.10539216 0.031372549 0
0.12555147 0.04754902 0
0.14007353 0.060784314 0
0.15980392 0.073835784 0
0.18039216 0.090196078 0
0.20098039 0.103125 0
0.22156863 0.11605392 0
0.24908088 0.13235294 0
0.28602941 0.15294118 0
0.32254902 0.17261029 0
0.35735294 0.1872549 0
0.39773284 0.2122549 0
0.44705882 0.24362745 0
0.49852941 0.27824755 0
0.55085784 0.31372549 0
0.60189951 0.34754902 0
0.65661765 0.38235294 0
0.71268382 0.41715686 0
0.77022059 0.45196078 0
0.82303922 0.48333333 0
0.85882353 0.50637255 0
0.13529412 0.045098039 0
0.13137255 0.03995098 0
0.125 0.035294118 0
0.12156863 0.033333333 0
0.1254902 0.039215686 0
0.12794118 0.045343137 0
0.14313725 0.057352941 0
0.16568627 0.072058824 0
0.18823529 0.08627451 0
0.21078431 0.10294118 0
0.22794118 0.11568627 0
0.25735294 0.13235294 0
0.29607843 0.15294118 0
0.33333333 0.17132353 0
0.37058824 0.19019608 0
0.41053922 0.21617647 0
0.45294118 0.24509804 0
0.50441176 0.27794118 0
0.55588235 0.3127451 0
0.60563725 0.34730392 0
0.66078431 0.37941176 0
0.71617647 0.41372549 0
0.77303922 0.4495098 0
0.82426471 0.48210784 0
0.8627451 0.50588235 0
0.16666667 0.055882353 0
0.16403186 0.055392157 0
0.16139706 0.051960784 0
0.15833333 0.051470588 0
0.15465686 0.053676471 0
0.15398284 0.055392157 0
0.15735294 0.058455882 0
0.17647059 0.073835784 0
0.20098039 0.090196078 0
0.22107843 0.1026348 0
0.24264706 0.11568627 0
0.27395833 0.13627451 0
0.30857843 0.15294118 0
0.3471201 0.17352941 0
0.38480392 0.19411765 0
0.42598039 0.22009804 0
0.46764706 0.24754902 0
0.5122549 0.27794118 0
0.55833333 0.30980392 0
0.60931373 0.34362745 0
0.66102941 0.37818627 0
0.71715686 0.41323529 0
0.77855392 0.44803922 0
0.83137255 0.48284314 0
0.87107843 0.50588235 0
0.20098039 0.07254902 0
0.19816176 0.069607843 0
0.19534314 0.067892157 0
0.18970588 0.065686275 0
0.18872549 0.065686275 0
0.18566176 0.069607843 0
0.18921569 0.07254902 0
0.20171569 0.083946078 0
0.21078431 0.090196078 0
0.22745098 0.1004902 0
0.25686275 0.11568627 0
0.29031863 0.13627451 0
0.32254902 0.15294118 0
0.35784314 0.17352941 0
0.39828431 0.19411765 0
0.44019608 0.22365196 0
0.48137255 0.25098039 0
0.52254902 0.28186275 0
0.56764706 0.31102941 0
0.61323529 0.34362745 0
0.66617647 0.375 0
0.72352941 0.40980392 0
0.78308824 0.44730392 0
0.84166667 0.48284314 0
0.88137255 0.50882353 0
0.23186275 0.087745098 0
0.22941176 0.083823529 0
0.22696078 0.079901961 0
0.22040441 0.076164216 0
0.21936275 0.077941176 0
0.221875 0.080392157 0
0.22512255 0.083823529 0
0.22346814 0.087745098 0
0.22107843 0.090196078 0
0.23535539 0.096017157 0
0.26813725 0.11568627 0
0.30324755 0.13627451 0
0.33676471 0.15294118 0
0.36813725 0.17205882 0
0.40931373 0.19411765 0
0.4504902 0.22401961 0
0.49558824 0.25490196 0
0.53676471 0.28186275 0
0.57794118 0.3127451 0
0.62040441 0.34362745 0
0.67279412 0.3745098 0
0.72990196 0.40980392 0
0.79056373 0.44705882 0
0.84895833 0.48431373 0
0.89166667 0.51127451 0
0.26666667 0.098039216 0
0.26421569 0.098039216 0
0.25882353 0.093137255 0
0.25147059 0.086764706 0
0.25294118 0.090196078 0
0.25882353 0.094117647 0
0.2627451 0.097058824 0
0.25882353 0.098039216 0
0.25490196 0.094117647 0
0.25735294 0.1004902 0
0.28529412 0.11568627 0
0.32009804 0.13627451 0
0.34705882 0.15098039 0
0.37794118 0.16960784 0
0.41568627 0.19313725 0
0.4622549 0.22401961 0
0.50588235 0.25490196 0
0.55098039 0.28333333 0
0.59215686 0.3127451 0
0.63676471 0.34362745 0
0.68823529 0.3745098 0
0.74411765 0.40980392 0
0.80196078 0.44705882 0
0.85833333 0.48431373 0
0.90588235 0.51372549 0
0.31421569 0.1122549 0
0.31084559 0.11133578 0
0.30931373 0.10796569 0
0.30637255 0.10686275 0
0.31397059 0.10686275 0
0.31666667 0.10863971 0
0.31813725 0.11078431 0
0.31666667 0.1122549 0
0.31519608 0.1122549 0
0.3151348 0.11715686 0
0.32156863 0.12598039 0
0.34607843 0.14050245 0
0.36568627 0.15343137 0
0.38645833 0.1653799 0
0.42781863 0.18921569 0
0.475 0.22401961 0
0.52009804 0.25245098 0
0.56519608 0.28186275 0
0.60882353 0.3127451 0
0.6536152 0.34362745 0
0.70882353 0.37647059 0
0.76421569 0.40980392 0
0.81960784 0.44705882 0
0.87254902 0.48131127 0
0.9122549 0.50735294 0
0.36078431 0.12647059 0
0.35784314 0.12647059 0
0.35784314 0.12352941 0
0.36519608 0.12352941 0
0.37254902 0.125 0
0.37843137 0.12745098 0
0.37843137 0.12745098 0
0.37843137 0.12855392 0
0.37843137 0.13137255 0
0.37561275 0.13321078 0
0.37352941 0.13995098 0
0.38333333 0.1495098 0
0.40441176 0.15980392 0
0.41911765 0.16911765 0
0.44534314 0.18921569 0
0.48958333 0.22009804 0
0.53431373 0.25098039 0
0.58002451 0.28186275 0
0.6254902 0.3127451 0
0.67401961 0.34362745 0
0.7254902 0.37598039 0
0.78002451 0.40931373 0
0.83529412 0.44387255 0
0.88676471 0.475 0
0.92254902 0.50098039 0
0.40931373 0.13676471 0
0.40686275 0.13676471 0
0.41017157 0.14019608 0
0.42052696 0.140625 0
0.43088235 0.14411765 0
0.44019608 0.14411765 0
0.44019608 0.14460784 0
0.44019608 0.14589461 0
0.44019608 0.14803922 0
0.43627451 0.15067402 0
0.42879902 0.15330882 0
0.42928922 0.15980392 0
0.43970588 0.16470588 0
0.44656863 0.16917892 0
0.46703431 0.18664216 0
0.50686275 0.21617647 0
0.54852941 0.24705882 0
0.59577206 0.27794118 0
0.64313725 0.30931373 0
0.69160539 0.34019608 0
0.74215686 0.37107843 0
0.79411765 0.40545343 0
0.84938725 0.43933824 0
0.8995098 0.46979167 0
0.93284314 0.49068627 0
0.46862745 0.15098039 0
0.47058824 0.15098039 0
0.48137255 0.15343137 0
0.49191176 0.15686275 0
0.49705882 0.15980392 0
0.5002451 0.16078431 0
0.50196078 0.16078431 0
0.50196078 0.1627451 0
0.49803922 0.1627451 0
0.49681373 0.16593137 0
0.49313725 0.16911765 0
0.48848039 0.17058824 0
0.48235294 0.17058824 0
0.47622549 0.16862745 0
0.48480392 0.17794118 0
0.52745098 0.21029412 0
0.57254902 0.24313725 0
0.62083333 0.27401961 0
0.66960784 0.30490196 0
0.71740196 0.33382353 0
0.76372549 0.36568627 0
0.81029412 0.3997549 0
0.86323529 0.43235294 0
0.90980392 0.4625 0
0.94313725 0.48431373 0
0.52843137 0.16127451 0
0.53511029 0.16158088 0
0.5504902 0.16654412 0
0.56758578 0.17261029 0
0.57598039 0.1752451 0
0.57254902 0.17745098 0
0.56911765 0.17745098 0
0.56403186 0.17745098 0
0.55931373 0.17745098 0
0.55539216 0.17959559 0
0.55183824 0.18223039 0
0.54803922 0.18480392 0
0.54240196 0.18308824 0
0.5372549 0.18137255 0
0.5372549 0.18517157 0
0.55931373 0.20833333 0
0.60147059 0.23921569 0
0.64920343 0.27009804 0
0.6995098 0.29963235 0
0.74460784 0.32751225 0
0.79166667 0.35833333 0
0.83829657 0.39319853 0
0.88333333 0.42830882 0
0.92794118 0.45931373 0
0.96127451 0.48186275 0
0.58627451 0.17156863 0
0.60012255 0.17512255 0
0.61936275 0.18014706 0
0.63627451 0.18590686 0
0.65 0.19068627 0
0.65183824 0.19154412 0
0.64509804 0.19411765 0
0.63443627 0.19411765 0
0.61764706 0.19411765 0
0.61017157 0.19301471 0
0.60759804 0.19509804 0
0.61237745 0.19803922 0
0.61617647 0.20196078 0
0.61568627 0.20196078 0
0.61568627 0.20490196 0
0.61813725 0.21556373 0
0.63921569 0.23529412 0
0.68137255 0.26617647 0
0.73039216 0.29387255 0
0.7754902 0.32144608 0
0.82254902 0.35196078 0
0.86568627 0.38333333 0
0.90710784 0.42058824 0
0.94693627 0.45245098 0
0.97843137 0.47843137 0
0.66029412 0.18333333 0
0.67248775 0.18823529 0
0.69178922 0.19362745 0
0.70882353 0.19754902 0
0.71960784 0.20220588 0
0.7254902 0.20539216 0
0.72218137 0.20686275 0
0.71170343 0.20931373 0
0.69411765 0.20686275 0
0.67199755 0.20539216 0
0.67830882 0.21029412 0
0.68841912 0.21685049 0
0.69411765 0.22181373 0
0.69411765 0.22254902 0
0.69411765 0.22254902 0
0.69503676 0.23186275 0
0.7004902 0.24215686 0
0.71783088 0.25980392 0
0.76164216 0.28676471 0
0.80980392 0.31470588 0
0.85539216 0.34166667 0
0.89656863 0.36893382 0
0.93480392 0.40490196 0
0.96905637 0.44068627 0
0.99362745 0.46617647 0
0.74509804 0.2 0
0.75147059 0.20245098 0
0.76960784 0.20784314 0
0.7872549 0.21176471 0
0.79803922 0.21568627 0
0.80392157 0.21960784 0
0.80098039 0.21960784 0
0.79460784 0.21960784 0
0.78039216 0.21960784 0
0.76617647 0.21960784 0
0.76470588 0.2245098 0
0.76813725 0.23088235 0
0.77254902 0.23529412 0
0.77303922 0.23921569 0
0.77647059 0.24313725 0
0.77647059 0.24852941 0
0.77647059 0.25490196 0
0.77892157 0.26519608 0
0.79901961 0.28039216 0
0.84117647 0.30098039 0
0.88627451 0.3254902 0
0.93088235 0.35441176 0
0.96176471 0.38529412 0
0.9872549 0.41617647 0
0.99607843 0.43529412 0
0.83137255 0.21666667 0
0.83229167 0.21666667 0
0.84509804 0.22095588 0
0.86194853 0.22579657 0
0.87083333 0.22916667 0
0.8786152 0.23020833 0
0.88272059 0.23382353 0
0.87696078 0.23382353 0
0.86666667 0.23382353 0
0.85484069 0.23382353 0
0.85098039 0.2377451 0
0.85098039 0.24166667 0
0.84852941 0.24754902 0
0.85116422 0.25343137 0
0.85821078 0.25698529 0
0.85882353 0.26127451 0
0.85882353 0.26519608 0
0.85490196 0.27303922 0
0.86164216 0.28186275 0
0.88167892 0.29362745 0
0.92034314 0.31127451 0
0.96176471 0.33627451 0
0.98541667 0.36470588 0
0.99515931 0.39227941 0
0.99607843 0.40441176 0
0.9127451 0.22941176 0
0.91372549 0.23235294 0
0.92181373 0.23333333 0
0.93492647 0.23713235 0
0.93921569 0.24068627 0
0.94264706 0.24411765 0
0.94607843 0.24411765 0
0.94313725 0.24411765 0
0.93921569 0.24411765 0
0.92990196 0.24313725 0
0.92671569 0.24509804 0
0.92095588 0.25147059 0
0.92009804 0.25784314 0
0.92401961 0.26384804 0
0.93039216 0.26764706 0
0.93676471 0.27156863 0
0.94019608 0.2754902 0
0.93627451 0.28186275 0
0.93627451 0.29044118 0
0.94362745 0.29509804 0
0.96372549 0.30343137 0
0.98664216 0.32205882 0
0.99289216 0.34901961 0
0.99607843 0.37169118 0
0.99705882 0.3745098 0
0.98137255 0.24607843 0
0.9877451 0.24607843 0
0.99583333 0.24656863 0
0.98719363 0.2504902 0
0.98284314 0.25441176 0
0.97941176 0.25790441 0
0.98284314 0.25833333 0
0.98333333 0.25655637 0
0.99019608 0.25441176 0
0.99595588 0.2504902 0
0.98529412 0.25539216 0
0.975 0.26525735 0
0.96936275 0.27181373 0
0.96764706 0.2783701 0
0.97144608 0.28443627 0
0.97696078 0.28921569 0
0.98333333 0.28921569 0
0.98088235 0.29577206 0
0.97941176 0.30490196 0
0.98376225 0.30882353 0
0.98970588 0.3129902 0
0.99558824 0.31819853 0
0.99607843 0.33615196 0
1 0.34785539 0
1 0.35 0
1 0.26078431 0
1 0.2627451 0
1 0.26666667 0
0.99828431 0.26838235 0
0.99313725 0.27156863 0
0.98823529 0.2745098 0
0.98823529 0.27303922 0
0.99215686 0.27181373 0
0.99607843 0.27058824 0
1 0.27058824 0
0.99754902 0.27303922 0
0.98872549 0.28186275 0
0.98137255 0.28921569 0
0.97843137 0.29852941 0
0.97990196 0.30490196 0
0.98308824 0.30735294 0
0.98823529 0.30980392 0
0.9870098 0.31495098 0
0.98627451 0.32205882 0
0.98995098 0.32720588 0
0.99215686 0.33039216 0
0.99632353 0.33333333 0
1 0.33529412 0
1 0.3372549 0
1 0.34117647 0
1 0.27892157 0
1 0.27922794 0
1 0.28431373 0
1 0.2911152 0
0.99632353 0.2872549 0
0.99258578 0.28768382 0
0.99215686 0.2877451 0
0.99607843 0.28676471 0
1 0.2872549 0
1 0.29117647 0
0.99914216 0.29080882 0
0.99264706 0.29803922 0
0.98651961 0.30490196 0
0.98480392 0.31911765 0
0.98480392 0.32561275 0
0.98609069 0.32647059 0
0.98823529 0.32647059 0
0.99001225 0.33020833 0
0.98958333 0.33786765 0
0.99264706 0.34558824 0
0.99607843 0.35245098 0
1 0.3627451 0
1 0.37303922 0
1 0.37273284 0
1 0.37058824 0
1 0.29901961 0
1 0.29607843 0
1 0.30784314 0
1 0.31433824 0
1 0.30882353 0
0.99865196 0.30392157 0
0.99607843 0.30171569 0
0.99938725 0.29816176 0
1 0.30784314 0
1 0.31176471 0
1 0.30784314 0
0.99644608 0.31139706 0
0.99509804 0.32696078 0
0.99117647 0.34607843 0
0.99117647 0.35906863 0
0.99117647 0.35539216 0
0.99215686 0.34705882 0
0.99509804 0.34595588 0
0.99607843 0.35343137 0
0.99607843 0.36875 0
0.99901961 0.38480392 0
1 0.4004902 0
1 0.40857843 0
1 0.41176471 0
1 0.41176471 0
1 0.37254902 0
1 0.35680147 0
1 0.35453431 0
1 0.37377451 0
1 0.36789216 0
1 0.35882353 0
1 0.35894608 0
1 0.35496324 0
1 0.36078431 0
1 0.3598652 0
1 0.35539216 0
1 0.36029412 0
0.99877451 0.37352941 0
0.99607843 0.39393382 0
0.99607843 0.41029412 0
0.99607843 0.40680147 0
0.99754902 0.39068627 0
1 0.37640931 0
1 0.38835784 0
1 0.40637255 0
1 0.42352941 0
1 0.4377451 0
1 0.44803922 0
1 0.45147059 0
1 0.45147059 0
1 0.43921569 0
1 0.42647059 0
1 0.40686275 0
1 0.41617647 0
1 0.43921569 0
1 0.43529412 0
1 0.43529412 0
1 0.44460784 0
1 0.43529412 0
1 0.42352941 0
1 0.42843137 0
1 0.43529412 0
1 0.43921569 0
1 0.44313725 0
1 0.45294118 0
1 0.45882353 0
1 0.45882353 0
1 0.46519608 0
1 0.45882353 0
1 0.4627451 0
1 0.46470588 0
1 0.47107843 0
1 0.47843137 0
1 0.48235294 0
1 0.47843137 0
0.042647059 0.016666667 0
0.046568627 0.015134804 0
0.05870098 0.019607843 0
0.073529412 0.023529412 0
0.090196078 0.035294118 0
0.11047794 0.048039216 0
0.12745098 0.061764706 0
0.14656863 0.075980392 0
0.16715686 0.090196078 0
0.19803922 0.10686275 0
0.23039216 0.12536765 0
0.26127451 0.14050245 0
0.29215686 0.15686275 0
0.3254902 0.17352941 0
0.35784314 0.19264706 0
0.39803922 0.21709559 0
0.4495098 0.25098039 0
0.49852941 0.28731618 0
0.54852941 0.32120098 0
0.59656863 0.35520833 0
0.6495098 0.3875 0
0.70471814 0.42107843 0
0.76164216 0.45588235 0
0.81911765 0.49068627 0
0.86127451 0.51764706 0
0.063235294 0.020588235 0
0.066812194 0.021714154 0
0.075214461 0.025367647 0
0.078247549 0.023529412 0
0.093658088 0.033333333 0
0.11323529 0.048039216 0
0.13382353 0.063602941 0
0.15106464 0.07689951 0
0.17199755 0.090196078 0
0.20008425 0.10686275 0
0.23016238 0.12329963 0
0.25853248 0.13939185 0
0.29142157 0.15640319 0
0.3254902 0.17352941 0
0.35784314 0.19264706 0
0.39803922 0.21617647 0
0.4495098 0.25098039 0
0.49944853 0.28543964 0
0.54852941 0.3198989 0
0.6 0.35373009 0
0.65193015 0.38627451 0
0.70804228 0.42119332 0
0.76556373 0.45588235 0
0.82269455 0.49160539 0
0.8661152 0.51764706 0
0.090441176 0.030269608 0
0.092432598 0.030729167 0
0.089920343 0.026623775 0
0.085784314 0.022104779 0
0.10116422 0.033639706 0
0.11960784 0.048039216 0
0.13936887 0.063602941 0
0.15686275 0.07689951 0
0.17928922 0.090196078 0
0.20274203 0.10663297 0
0.22775735 0.12098652 0
0.25366115 0.13627451 0
0.28946078 0.15539216 0
0.3254902 0.17348346 0
0.35747549 0.19264706 0
0.398269 0.21617647 0
0.4495098 0.2495098 0
0.50098039 0.28301164 0
0.55254289 0.31712623 0
0.60392157 0.35147059 0
0.65557598 0.38553922 0
0.71136642 0.41979167 0
0.76810662 0.45536152 0
0.82303922 0.48993566 0
0.86458333 0.51372549 0
0.10882353 0.034803922 0
0.11090686 0.036404718 0
0.10540748 0.031387868 0
0.099509804 0.027856924 0
0.11053922 0.035631127 0
0.12608762 0.049731924 0
0.14299939 0.061764706 0
0.16354167 0.076095282 0
0.18431373 0.090196078 0
0.20490196 0.10441176 0
0.22602635 0.1192402 0
0.25324755 0.13627451 0
0.29224877 0.15539216 0
0.32892157 0.17540594 0
0.36286765 0.19264706 0
0.40265012 0.21617647 0
0.45098039 0.24705882 0
0.50379136 0.28138021 0
0.55606618 0.31570159 0
0.60566023 0.34989277 0
0.65916054 0.38250613 0
0.71462163 0.41721814 0
0.77112439 0.45219056 0
0.82537531 0.48628217 0
0.8627451 0.50980392 0
0.13529412 0.043872549 0
0.13682598 0.044178922 0
0.13284314 0.042095588 0
0.1260723 0.039705882 0
0.13088235 0.045588235 0
0.1361826 0.051960784 0
0.14803922 0.061397059 0
0.1700674 0.075061275 0
0.19264706 0.090196078 0
0.21397059 0.1051777 0
0.23627451 0.12034314 0
0.26372549 0.13765319 0
0.29926471 0.1564951 0
0.33716299 0.17598039 0
0.37395833 0.19534314 0
0.41176471 0.21908701 0
0.45686275 0.24705882 0
0.50759804 0.27947304 0
0.55784314 0.31305147 0
0.60867034 0.34745711 0
0.66078431 0.3810049 0
0.71657475 0.41479779 0
0.7745098 0.45098039 0
0.82772672 0.48284314 0
0.86593137 0.50588235 0
0.16617647 0.058026961 0
0.16751685 0.058509498 0
0.16248468 0.055376838 0
0.16096814 0.055537684 0
0.16078431 0.058823529 0
0.15860141 0.061764706 0
0.16335784 0.065073529 0
0.18265165 0.077159926 0
0.20686275 0.092830882 0
0.22745098 0.10594363 0
0.25208333 0.12205882 0
0.28008578 0.13890931 0
0.31176471 0.15701593 0
0.34985447 0.17745098 0
0.38601409 0.19771752 0
0.42598039 0.22353707 0
0.46764706 0.25098039 0
0.51359528 0.27912071 0
0.56199449 0.3127451 0
0.61194853 0.34550398 0
0.6640625 0.37843137 0
0.72015931 0.41323529 0
0.77855392 0.44803922 0
0.83370864 0.48284314 0
0.87107843 0.50588235 0
0.20098039 0.07254902 0
0.19705882 0.070710784 0
0.19669118 0.069607843 0
0.19336703 0.069240196 0
0.19295343 0.072058824 0
0.19276961 0.073207721 0
0.19304534 0.075827206 0
0.20323223 0.084558824 0
0.21715686 0.092647059 0
0.23641238 0.10553002 0
0.26323529 0.12205882 0
0.29508272 0.14019608 0
0.32628676 0.15808824 0
0.36158088 0.17745098 0
0.39901961 0.19941789 0
0.43935355 0.22624081 0
0.48137255 0.25453431 0
0.52518382 0.28186275 0
0.56780025 0.3127451 0
0.6152114 0.34362745 0
0.66795343 0.3778799 0
0.72438725 0.41323529 0
0.78529412 0.44803922 0
0.84166667 0.48284314 0
0.88137255 0.50882353 0
0.23186275 0.085294118 0
0.22849265 0.083823529 0
0.22757353 0.082766544 0
0.22647059 0.082352941 0
0.22493873 0.083088235 0
0.22713695 0.08627451 0
0.22886029 0.087745098 0
0.22670037 0.090540748 0
0.2283701 0.092647059 0
0.24599418 0.10539216 0
0.27745098 0.12205882 0
0.3088848 0.14019608 0
0.33976716 0.15808824 0
0.37176011 0.17598039 0
0.40931373 0.19905025 0
0.4504902 0.22647059 0
0.49405637 0.25490196 0
0.53676471 0.28520987 0
0.58094363 0.31343444 0
0.6221201 0.34362745 0
0.67598039 0.37769608 0
0.73333333 0.41194853 0
0.79166667 0.44705882 0
0.8495098 0.48431373 0
0.89558824 0.51372549 0
0.26421569 0.098039216 0
0.2627451 0.098039216 0
0.26237745 0.094117647 0
0.25998775 0.092830882 0
0.26127451 0.095343137 0
0.26697304 0.098039216 0
0.26911765 0.1004902 0
0.26427696 0.1004902 0
0.26127451 0.10196078 0
0.26617647 0.10686275 0
0.29166667 0.12205882 0
0.32383578 0.14019608 0
0.35343137 0.15612745 0
0.38186275 0.17334559 0
0.41568627 0.19767157 0
0.46078431 0.22647059 0
0.50588235 0.25490196 0
0.55098039 0.28578431 0
0.59313725 0.3127451 0
0.63939951 0.34362745 0
0.69215686 0.37769608 0
0.74754902 0.41194853 0
0.80257353 0.44705882 0
0.85833333 0.48431373 0
0.9122549 0.52009804 0
0.31084559 0.1122549 0
0.31084559 0.11133578 0
0.31006434 0.10948223 0
0.30882353 0.10778186 0
0.31470588 0.11032475 0
0.32382047 0.11378676 0
0.32542892 0.115625 0
0.32303922 0.11619945 0
0.32150735 0.11770833 0
0.3151348 0.11954657 0
0.32233456 0.12743566 0
0.34080116 0.14050245 0
0.36614583 0.15536152 0
0.39368873 0.17205882 0
0.42935049 0.19558824 0
0.47408088 0.22459406 0
0.52009804 0.25490196 0
0.56464461 0.2848652 0
0.60919118 0.3127451 0
0.65735294 0.34362745 0
0.71127451 0.37769608 0
0.76452206 0.41323529 0
0.81960784 0.44790135 0
0.87408088 0.48376225 0
0.91862745 0.51372549 0
0.35784314 0.12647059 0
0.35700061 0.12647059 0
0.35695466 0.12291667 0
0.36164216 0.12352941 0
0.37254902 0.12726716 0
0.38172488 0.12950368 0
0.38465074 0.13128064 0
0.38235294 0.13321078 0
0.38088235 0.13492647 0
0.37412684 0.13515625 0
0.36715686 0.13875613 0
0.37316176 0.14655331 0
0.39509804 0.15900735 0
0.4180913 0.17242647 0
0.44889706 0.19384191 0
0.49019608 0.22365196 0
0.53431373 0.25453431 0
0.57895221 0.28393076 0
0.62647059 0.3127451 0
0.67847733 0.34362745 0
0.73186275 0.37843137 0
0.78466605 0.41136642 0
0.83802083 0.44549632 0
0.88852635 0.47832414 0
0.92438725 0.50098039 0
