site/assets/luts/natron-haldclut--fuji-superia-400--b8c05d708.cube
# LUTr-Project: LUTr — LUTrepository
# LUTr-Schema-Version: 1
# LUTr-ID: natron-haldclut--fuji-superia-400--b8c05d708
# LUTr-Title: fuji superia 400
# LUTr-Collection: Natron HaldCLUT
# LUTr-Collection-ID: natron-haldclut-presets
# LUTr-Source: https://github.com/NatronGitHub/clut
# LUTr-Source-File: submissions/natron-haldclut-presets/negative_old/fuji_superia_400.png
# LUTr-Source-Format: PNG
# LUTr-Source-SHA256: cf3b9266d12fc79453babc33d05de399fd15e700f3ced3b532c0f86662b82bd4
# LUTr-License: CC-BY-SA-4.0
# LUTr-License-URL: https://github.com/NatronGitHub/clut#license
# LUTr-Tags: creative, film, film-emulation, hald-clut, natron, png, cube
# LUTr-Transform-Class: film-emulation
# LUTr-Input-Color-Space: srgb
# LUTr-Output-Color-Space: srgb
# LUTr-Color-Space-Confidence: assumed-display-referred
# LUTr-Conversion-Method: PNG LUT image decoded at 16-bit and sampled to 25x25x25 3D CUBE
# LUTr-Conversion-Date: 2026-07-27
# LUTr-Conversion-Tool: LUTr scripts/convert-all-to-cube.mjs
# LUTr-Conversion-Grid: 25x25x25
# LUTr-Note: Preserve this metadata and the upstream license notices when redistributing.
TITLE "fuji superia 400"
LUT_3D_SIZE 9
DOMAIN_MIN 0 0 0
DOMAIN_MAX 1 1 1
0 0.039215686 0.035294118
0.065686275 0.047058824 0.047058824
0.17254902 0.053921569 0.044117647
0.33088235 0.053921569 0.02745098
0.53137255 0 0.015686275
0.70931373 0.013235294 0.011764706
0.86960784 0.010784314 0.0039215686
0.96127451 0.065196078 0
1 0.21960784 0
0.0039215686 0.10098039 0.066176471
0.065196078 0.10833333 0.04754902
0.18333333 0.11617647 0.031372549
0.34932598 0.11421569 0.021384804
0.54877451 0.07254902 0.0098039216
0.7245098 0.05557598 0.0075367647
0.86960784 0.075980392 0.00012254902
0.97310049 0.16770833 0
0.99607843 0.21568627 0
0.011764706 0.20784314 0.089215686
0.015686275 0.18872549 0.070098039
0.17352941 0.2372549 0.051960784
0.39705882 0.27941176 0.0082107843
0.56372549 0.24705882 0.0044117647
0.73137255 0.23823529 0.0028186275
0.86666667 0.25098039 0
0.95919118 0.29852941 0.0039215686
0.99215686 0.32156863 0.0078431373
0.0014705882 0.33137255 0.1122549
0.0078431373 0.3377451 0.11862745
0.12254902 0.37107843 0.089215686
0.3778799 0.44215686 0.021078431
0.61862745 0.48823529 0.0019607843
0.74503676 0.43235294 0
0.87058824 0.41433824 0
0.95245098 0.42598039 0.0078431373
0.98823529 0.44509804 0.011764706
0.01372549 0.48627451 0.19803922
0.0075980392 0.49607843 0.19607843
0.11911765 0.50098039 0.17794118
0.33872549 0.55980392 0.11348039
0.55882353 0.61960784 0.0068627451
0.79264706 0.66446078 0
0.87598039 0.60441176 0.0078431373
0.96789216 0.55980392 0.0034313725
0.98823529 0.55882353 0
0.049509804 0.6254902 0.28823529
0.090870098 0.62941176 0.28609069
0.21335784 0.62843137 0.27892157
0.34417892 0.65055147 0.27493873
0.52352941 0.69191176 0.22720588
0.70484069 0.7377451 0.13933824
0.87794118 0.76911765 0.045220588
0.96568627 0.74411765 0.0044117647
0.99362745 0.71323529 0.0039215686
0.29705882 0.74509804 0.41176471
0.3127451 0.74411765 0.40625
0.36862745 0.74117647 0.4127451
0.4495098 0.75196078 0.41911765
0.54803922 0.76960784 0.41862745
0.6682598 0.80379902 0.38615196
0.83504902 0.84215686 0.34705882
0.96433824 0.86482843 0.31409314
0.99215686 0.83823529 0.17352941
0.5254902 0.84852941 0.58333333
0.525 0.84852941 0.57199755
0.55098039 0.84460784 0.57806373
0.58823529 0.84460784 0.58314951
0.64485294 0.85637255 0.58676471
0.74264706 0.87941176 0.57941176
0.81813725 0.89607843 0.5745098
0.89852941 0.91427696 0.55680147
0.97941176 0.93382353 0.56372549
0.70980392 0.9254902 0.73333333
0.72107843 0.92941176 0.7372549
0.73333333 0.92941176 0.74117647
0.74509804 0.9254902 0.7372549
0.77254902 0.92941176 0.74313725
0.81323529 0.94117647 0.75245098
0.85588235 0.94901961 0.74803922
0.89901961 0.96078431 0.74558824
0.90980392 0.96078431 0.73333333
0.019117647 0.050980392 0.081862745
0.064767157 0.050980392 0.085294118
0.17169118 0.054411765 0.08872549
0.33088235 0.025306373 0.083517157
0.53529412 0.0056372549 0.084803922
0.72628676 0.0044117647 0.070588235
0.86360294 0.0078431373 0.04754902
0.96911765 0.091727941 0.01127451
0.99607843 0.20784314 0
0.010845588 0.10441176 0.10441176
0.06127451 0.10876225 0.10060509
0.18811275 0.12009804 0.10038297
0.34820006 0.11011029 0.090012255
0.55634191 0.077696078 0.078921569
0.73807445 0.057942708 0.05904565
0.87058824 0.10549939 0.034742647
0.98399203 0.1838848 0.0039215686
0.99993873 0.26078431 0.0078431373
0.011764706 0.20098039 0.12401961
0.064705882 0.20880821 0.13137255
0.1981924 0.23431373 0.11289828
0.39497549 0.2653799 0.069837623
0.57653186 0.25441176 0.043382353
0.74306066 0.24215686 0.0083792892
0.87058824 0.25882353 0.0099264706
0.97222733 0.29897365 0.004028799
0.99607843 0.34301471 0.0039215686
0.0093137255 0.36470588 0.18382353
0.043030025 0.35324755 0.17636336
0.16528799 0.37954963 0.16127451
0.40667892 0.45323223 0.074264706
0.6239277 0.4736826 0.0082720588
0.74558824 0.41525735 0
0.86911765 0.40686275 0.015196078
0.96911765 0.42598039 0.0080269608
0.99558824 0.44901961 0.011764706
0.011764706 0.50539216 0.23823529
0.022916667 0.50977328 0.23780637
0.18480392 0.51629902 0.23063725
0.33854167 0.55588235 0.20278799
0.5685049 0.61593137 0.10147059
0.77843137 0.64705882 0.0044117647
0.87898284 0.596875 0.0099877451
0.96617647 0.56421569 0.0078431373
0.98995098 0.57622549 0.0039215686
0.08872549 0.62941176 0.31734069
0.16437653 0.63682598 0.32630974
0.25147059 0.63097426 0.32438725
0.37009038 0.65392157 0.32647059
0.52089461 0.69387255 0.29460784
0.71183364 0.73785999 0.2287454
0.88860294 0.77562806 0.1467065
0.97352941 0.74019608 0.018313419
0.99362745 0.71372549 0.011948529
0.31960784 0.74767157 0.43529412
0.34742647 0.74901961 0.44276961
0.39460784 0.74500613 0.44583333
0.45833333 0.74803922 0.44264706
0.55140931 0.77352941 0.44227941
0.67931985 0.80441176 0.42624081
0.82591912 0.83431373 0.39362745
0.94869792 0.85746017 0.36372549
0.98823529 0.84620098 0.30551471
0.53192402 0.85245098 0.58633578
0.54722733 0.85245098 0.59492953
0.55893076 0.84938725 0.59036458
0.59270833 0.84460784 0.59411765
0.65465686 0.85808824 0.60199142
0.73164063 0.87696078 0.59487592
0.81056985 0.89869792 0.5872549
0.90294118 0.9151348 0.57843903
0.99160539 0.93474265 0.56323529
0.73235294 0.93676471 0.75245098
0.72598039 0.92990196 0.74552696
0.73676471 0.92941176 0.74595588
0.75772059 0.9317402 0.75508578
0.77818627 0.92941176 0.75269608
0.80931373 0.9372549 0.75165441
0.84901961 0.94644608 0.74607843
0.90245098 0.95778186 0.74503676
0.92156863 0.96078431 0.73676471
0.0039215686 0.070588235 0.18823529
0.061397059 0.058823529 0.17941176
0.16176471 0.069607843 0.17941176
0.31666667 0.057230392 0.19105392
0.54117647 0.020588235 0.19901961
0.73284314 0.0039215686 0.20110294
0.87058824 0.054411765 0.20686275
0.9689951 0.16115196 0.20147059
1 0.26176471 0.20098039
0.0039215686 0.10833333 0.20637255
0.04620098 0.11665135 0.2064951
0.19068627 0.12745098 0.21029412
0.3480239 0.12058824 0.20355392
0.56703431 0.067463235 0.20171569
0.74448529 0.039353554 0.19969363
0.87426471 0.15159314 0.20588235
0.97009804 0.22512255 0.19624694
0.99607843 0.29607843 0.19215686
0.012745098 0.21764706 0.23137255
0.055514706 0.22539828 0.23409926
0.21685049 0.24025735 0.21917892
0.40462623 0.25640319 0.21884191
0.58921569 0.25110294 0.21323529
0.746875 0.24972426 0.19053309
0.8745098 0.2752451 0.1872549
0.9768076 0.32254902 0.17506127
0.99215686 0.35612745 0.17279412
0.018504902 0.38051471 0.26470588
0.13382353 0.39411765 0.28200061
0.23704044 0.40352328 0.28039216
0.41361826 0.43751532 0.25856311
0.60863971 0.45563725 0.22077206
0.73921569 0.4009038 0.16133578
0.86666667 0.41207108 0.13091299
0.97616422 0.43284314 0.13409926
0.99497549 0.46372549 0.11813725
0.11715686 0.53529412 0.33333333
0.17156863 0.53627451 0.33897059
0.27598039 0.53664216 0.34473039
0.3872549 0.55931373 0.33216912
0.58161765 0.61764706 0.29509804
0.75784314 0.61776961 0.22408088
0.86421569 0.57034314 0.13431373
0.96317402 0.55330882 0.057046569
0.99607843 0.5627451 0.064215686
0.22426471 0.64803922 0.39485294
0.27210478 0.65477941 0.40931373
0.3317402 0.64865196 0.40922181
0.41409314 0.65761336 0.40867034
0.54123775 0.68817402 0.39675245
0.72513787 0.73921569 0.37280944
0.87423407 0.75704657 0.33452819
0.95490196 0.72095588 0.21237745
1 0.69215686 0.091666667
0.38553922 0.75906863 0.49509804
0.41029412 0.75664828 0.50193015
0.43921569 0.75196078 0.49883578
0.4926777 0.75098039 0.49901961
0.57806373 0.76960784 0.50085784
0.69105392 0.80343137 0.49926471
0.82720588 0.83762255 0.48651961
0.93958333 0.85358456 0.45612745
0.99607843 0.84313725 0.40416667
0.55588235 0.85625 0.62071078
0.56269914 0.85245098 0.62060355
0.58109681 0.85140931 0.62107843
0.61783088 0.84852941 0.62441789
0.65772059 0.85416667 0.62757353
0.73151042 0.87365196 0.62810968
0.81470588 0.89901961 0.62478554
0.89901961 0.91470588 0.61962316
0.97598039 0.92254902 0.60539216
0.73627451 0.93333333 0.75980392
0.72647059 0.92647059 0.75306373
0.74019608 0.92622549 0.75588235
0.75833333 0.92904412 0.75980392
0.78627451 0.93039216 0.77254902
0.80821078 0.93223039 0.75465686
0.85906863 0.95 0.7754902
0.90245098 0.96078431 0.76715686
0.95196078 0.97156863 0.77058824
0.006372549 0.065196078 0.34656863
0.028431373 0.070404412 0.34803922
0.19509804 0.074509804 0.34620098
0.34264706 0.084803922 0.35140931
0.53382353 0.053431373 0.36372549
0.73284314 0.01127451 0.36519608
0.86666667 0.0049019608 0.35919118
0.98400735 0.021568627 0.34479167
0.99754902 0.28431373 0.37990196
0.0039215686 0.11911765 0.35980392
0.02745098 0.1245098 0.37081036
0.20931373 0.13492647 0.36862745
0.37303922 0.14607843 0.37052696
0.54476103 0.13740809 0.37901348
0.72493873 0.10129442 0.37774969
0.87598039 0.060431985 0.35160846
0.98057598 0.17612592 0.35189951
1 0.34234069 0.39558824
0.0039215686 0.22585784 0.38590686
0.0055300245 0.23128064 0.39313725
0.21556373 0.25566789 0.40462623
0.4227788 0.28405331 0.40588235
0.584375 0.29166667 0.40294118
0.74615502 0.27189032 0.38932292
0.87086397 0.30058211 0.3861826
0.97345282 0.34981618 0.38480392
0.99607843 0.42647059 0.40245098
0.014215686 0.39901961 0.40686275
0.023399203 0.41943168 0.41825214
0.257981 0.42254902 0.42734375
0.43523284 0.44754902 0.43635876
0.59803922 0.45637255 0.4203125
0.74160539 0.44068627 0.39573376
0.86213235 0.44117647 0.37598039
0.96323529 0.46659773 0.37941176
0.99607843 0.50392157 0.37794118
0.18333333 0.55539216 0.44828431
0.26510417 0.56780025 0.46332721
0.3408701 0.56397059 0.46648284
0.44635417 0.57303922 0.46712623
0.59534314 0.6064951 0.46127451
0.74993873 0.6127451 0.4330576
0.85459559 0.57205882 0.36280637
0.94641544 0.57205882 0.35196078
0.99607843 0.58872549 0.34240196
0.37487745 0.67199755 0.52254902
0.39816176 0.67352941 0.52401961
0.44068627 0.67352941 0.52647059
0.48993566 0.67352941 0.51862745
0.58140319 0.69117647 0.51323529
0.7401348 0.74070925 0.51078431
0.86830576 0.7527114 0.48411458
0.95833333 0.70519301 0.39515931
0.99215686 0.69515931 0.36280637
0.46017157 0.76764706 0.57401961
0.48823529 0.76631434 0.58247549
0.50744485 0.76433824 0.57965686
0.548606 0.76617647 0.57794118
0.60980392 0.77303922 0.58186275
0.70281863 0.79987745 0.58246017
0.82720588 0.83504902 0.58596814
0.94681373 0.86122855 0.57317708
0.98762255 0.83529412 0.51752451
0.59166667 0.85637255 0.6653799
0.59705882 0.8562117 0.6654182
0.61519608 0.857981 0.6653799
0.65392157 0.85459559 0.67843137
0.68609069 0.85637255 0.67322304
0.73817402 0.86911765 0.67370558
0.8217065 0.89215686 0.67749694
0.89901961 0.90702359 0.67287837
0.97205882 0.91844363 0.66439951
0.7372549 0.92941176 0.775
0.74362745 0.93186275 0.7776348
0.75477941 0.93161765 0.77830882
0.76862745 0.92941176 0.77892157
0.79019608 0.92941176 0.78553922
0.82107843 0.9372549 0.79215686
0.85980392 0.94656863 0.79215686
0.90245098 0.95079657 0.77696078
0.94509804 0.96470588 0.78431373
0.017647059 0.074509804 0.53529412
0.006127451 0.066666667 0.53529412
0.21078431 0.085294118 0.53186275
0.39852941 0.10073529 0.53455882
0.56176471 0.075490196 0.54117647
0.71960784 0.097794118 0.53063725
0.84117647 0.1745098 0.53431373
0.96323529 0.20343137 0.52941176
0.98431373 0.27254902 0.52156863
0.0078431373 0.13578431 0.53872549
0.022457108 0.13014706 0.53897059
0.23872549 0.14491422 0.54221814
0.42147672 0.16617647 0.55294118
0.57205882 0.17279412 0.5504902
0.70539216 0.19460784 0.54509804
0.84136029 0.24142157 0.54136029
0.94635417 0.28143382 0.5254902
0.99607843 0.31495098 0.5254902
0.00049019608 0.22009804 0.56568627
0.03560049 0.24485294 0.56176471
0.2435049 0.26960784 0.57585784
0.44019608 0.2995098 0.57567402
0.58235294 0.31764706 0.56911765
0.71305147 0.33468137 0.56066176
0.84803922 0.35784314 0.55392157
0.95238971 0.38400735 0.53915441
0.99607843 0.41764706 0.54607843
0.0039215686 0.38137255 0.56666667
0.011029412 0.4020527 0.578125
0.17022059 0.42156863 0.58431373
0.43731618 0.44607843 0.58385417
0.59730392 0.47279412 0.58223039
0.72772672 0.47405025 0.57650123
0.85098039 0.47843137 0.56458333
0.95514706 0.49509804 0.55597426
1 0.5125 0.55098039
0.030392157 0.57352941 0.56862745
0.15845588 0.57254902 0.58235294
0.31862745 0.57132353 0.59068627
0.4692402 0.58321078 0.59411765
0.61470588 0.60539216 0.6
0.73063725 0.61789216 0.59460784
0.84093137 0.5997549 0.55980392
0.94264706 0.6004902 0.54583333
0.99509804 0.61568627 0.54509804
0.39240196 0.69264706 0.60882353
0.41280637 0.68897059 0.61112132
0.46966912 0.69068627 0.61378676
0.5426777 0.69068627 0.61985294
0.61703431 0.69546569 0.61911765
0.73529412 0.72398897 0.61911765
0.84761029 0.71783088 0.58419118
0.94436275 0.69074755 0.52769608
0.99362745 0.69509804 0.51544118
0.52647059 0.78333333 0.65686275
0.54093137 0.78333333 0.66470588
0.57254902 0.78578431 0.66666667
0.60563725 0.78106618 0.6622549
0.6629902 0.78480392 0.6620098
0.72359069 0.79558824 0.66133578
0.83431373 0.83137255 0.66911765
0.94215686 0.85018382 0.65716912
0.99166667 0.82205882 0.60637255
0.6372549 0.86004902 0.72647059
0.64831495 0.86397059 0.73039216
0.6598652 0.86721814 0.72647059
0.68406863 0.8609375 0.72254902
0.71127451 0.85894608 0.71985294
0.75726103 0.86773897 0.72401961
0.82843137 0.88823529 0.73431373
0.90857843 0.9127451 0.74240196
0.9872549 0.92990196 0.73872549
0.75098039 0.92941176 0.80196078
0.75539216 0.92965686 0.8004902
0.75686275 0.9245098 0.79705882
0.78161765 0.92941176 0.80196078
0.80392157 0.93431373 0.81176471
0.82598039 0.93480392 0.81078431
0.86421569 0.94558824 0.81960784
0.91029412 0.95735294 0.81985294
0.95490196 0.97058824 0.82745098
0.014705882 0.078431373 0.67401961
0.073039216 0.079411765 0.68039216
0.26813725 0.081985294 0.68578431
0.44656863 0.10196078 0.68670343
0.60098039 0.15392157 0.67794118
0.72352941 0.19803922 0.67199755
0.82928922 0.22401961 0.67254902
0.93854167 0.31795343 0.67647059
0.98970588 0.39411765 0.67794118
0.003125 0.13841912 0.68560049
0.12959559 0.14464614 0.68936121
0.29742647 0.15212929 0.69473039
0.45833333 0.18088235 0.69215686
0.60677083 0.22205882 0.68823529
0.725 0.25576746 0.68401501
0.82647059 0.29600184 0.67634804
0.93743873 0.36748621 0.68023131
0.99197304 0.42205882 0.68284314
0.014705882 0.2627451 0.7057598
0.1317402 0.26421569 0.69987745
0.30352328 0.27699142 0.70294118
0.47291667 0.30379902 0.70248162
0.61323529 0.34307598 0.7
0.73007047 0.37921262 0.69529718
0.83357843 0.40802696 0.68771446
0.92735907 0.45825674 0.68786765
0.99215686 0.49840686 0.69509804
0.0078431373 0.38235294 0.69607843
0.015632659 0.38890931 0.70606618
0.25454963 0.41666667 0.70598958
0.44714308 0.44236366 0.70876225
0.61960784 0.48085172 0.70784314
0.73382353 0.5098652 0.70268076
0.83823529 0.53114277 0.69944853
0.93596048 0.55104167 0.69472273
0.98823529 0.575 0.7
0.0090686275 0.5495098 0.69142157
0.024632353 0.55750613 0.69543505
0.24963235 0.55343137 0.69926471
0.42251838 0.56838235 0.70514706
0.59877451 0.60196078 0.70784314
0.73382353 0.62843137 0.71029412
0.83529412 0.63872549 0.70876225
0.93823529 0.63970588 0.70309436
0.99338235 0.65392157 0.7
0.29571078 0.69460784 0.69944853
0.3446155 0.69215686 0.70245098
0.42329963 0.69852941 0.70183824
0.53278186 0.69552696 0.71121324
0.6245098 0.7033701 0.71176471
0.73808977 0.7283701 0.72240349
0.83953738 0.72745098 0.70539216
0.93302696 0.72224265 0.6903799
0.99160539 0.72990196 0.68431373
0.53137255 0.7932598 0.72941176
0.55877757 0.79509804 0.73319547
0.58560049 0.79856005 0.73431373
0.63883272 0.79471507 0.73477328
0.69534314 0.79748775 0.74025735
0.74434743 0.79512868 0.73964461
0.84644608 0.83455882 0.75502451
0.9303462 0.8212163 0.71956189
0.98786765 0.79865196 0.67941176
0.67254902 0.87696078 0.78039216
0.67947304 0.87753523 0.78284314
0.69615502 0.8754902 0.78284314
0.72689185 0.87156863 0.78376225
0.75882353 0.87175245 0.78495711
0.78578431 0.87255668 0.78442862
0.83823529 0.8877451 0.78916973
0.91051624 0.9091682 0.79589461
0.98137255 0.91862745 0.79430147
0.78823529 0.94117647 0.84460784
0.78609069 0.9377451 0.84460784
0.79215686 0.93835784 0.84460784
0.79540441 0.92818627 0.83553922
0.82696078 0.94117647 0.84852941
0.84705882 0.940625 0.85189951
0.86801471 0.93823529 0.84497549
0.91207108 0.96109069 0.85686275
0.94264706 0.95686275 0.85
0.1872549 0.096078431 0.80294118
0.26360294 0.11519608 0.80294118
0.38063725 0.10465686 0.80686275
0.51764706 0.15490196 0.80294118
0.64509804 0.22156863 0.79754902
0.7564951 0.30931373 0.78823529
0.85 0.35686275 0.78431373
0.93431373 0.40085784 0.78419118
0.99215686 0.46470588 0.7872549
0.23848039 0.17377451 0.80686275
0.28137255 0.17571998 0.80310968
0.3989277 0.18802083 0.80686275
0.5254902 0.22254902 0.80686275
0.64509804 0.27113971 0.8026348
0.75441176 0.34417892 0.79486826
0.84705882 0.39117647 0.7879902
0.936106 0.41769301 0.79091605
0.99031863 0.49375 0.79117647
0.22058824 0.28235294 0.80686275
0.28967525 0.29509804 0.80686275
0.39901961 0.30294118 0.80686275
0.52046569 0.32974877 0.80686275
0.65196078 0.38529412 0.80686275
0.75441176 0.43125 0.80294118
0.846875 0.46740196 0.79883578
0.92254902 0.4939951 0.79509804
0.98014706 0.54681373 0.79877451
0.099877451 0.39497549 0.80686275
0.22648591 0.4144761 0.80744485
0.37650123 0.42941176 0.80686275
0.50911458 0.45245098 0.80686275
0.64589461 0.49748775 0.80686275
0.7504902 0.53777574 0.80294118
0.84534314 0.56936275 0.80294118
0.92647059 0.58566176 0.79901961
0.98578431 0.62904412 0.8064951
0.010784314 0.52990196 0.79607843
0.027573529 0.5247549 0.80140931
0.25723039 0.54068627 0.79901961
0.46041667 0.56127451 0.80275735
0.61813725 0.59387255 0.80294118
0.74393382 0.63872549 0.80404412
0.84068627 0.6627451 0.81078431
0.92426471 0.6776348 0.80294118
0.98137255 0.70294118 0.80490196
0.20012255 0.68480392 0.79509804
0.25686275 0.68002451 0.79509804
0.36446078 0.6754902 0.79509804
0.47568934 0.67688419 0.79901961
0.59252451 0.68866422 0.80196078
0.73022365 0.72352941 0.80663297
0.83431373 0.74856005 0.81498162
0.91122855 0.75863971 0.81078431
0.97659314 0.76678922 0.80686275
0.46764706 0.79926471 0.80196078
0.50110294 0.79914216 0.80582108
0.54001225 0.79981618 0.80447304
0.61139706 0.80082721 0.80759804
0.68627451 0.80196078 0.81115196
0.76583946 0.80796569 0.81862745
0.84681373 0.83137255 0.82959559
0.91871936 0.83465074 0.81617647
0.98259804 0.83504902 0.81936275
0.66078431 0.87990196 0.83382353
0.6828125 0.88344056 0.83026961
0.68765319 0.87981005 0.83275123
0.72843137 0.8807598 0.8368413
0.77965686 0.88780637 0.84473039
0.81309743 0.88417586 0.84203431
0.85882353 0.88887868 0.84653799
0.92717525 0.911106 0.85992647
0.97598039 0.91078431 0.84215686
0.78333333 0.94019608 0.87156863
0.8002451 0.94546569 0.87941176
0.80294118 0.94509804 0.87941176
0.80784314 0.9372549 0.8754902
0.84117647 0.94117647 0.88333333
0.87058824 0.95085784 0.89007353
0.88431373 0.94289216 0.88357843
0.92205882 0.95294118 0.8872549
0.95686275 0.96372549 0.89509804
0.38676471 0.17156863 0.8995098
0.42892157 0.20588235 0.89166667
0.49840686 0.22598039 0.89509804
0.59313725 0.24932598 0.89577206
0.69901961 0.3127451 0.8877451
0.78921569 0.39068627 0.88627451
0.87401961 0.4627451 0.87990196
0.94215686 0.52015931 0.87591912
0.98431373 0.55882353 0.87156863
0.40245098 0.24754902 0.89558824
0.43160233 0.24498315 0.89945619
0.50185355 0.25851716 0.89901961
0.59705882 0.29411765 0.89193474
0.69313725 0.34978554 0.89120711
0.78981311 0.42273284 0.89166667
0.87041973 0.50108762 0.88380821
0.94215686 0.53448223 0.87591912
0.97647059 0.55490196 0.87205882
0.39203431 0.33884804 0.89558824
0.43333333 0.34731924 0.8995098
0.50183824 0.35882353 0.89911152
0.59584865 0.38578431 0.89901961
0.69289216 0.43333333 0.89154412
0.7855239 0.49162071 0.8873315
0.8700674 0.55833333 0.8872549
0.93823529 0.59339767 0.88333333
0.98823529 0.61531863 0.87941176
0.36942402 0.44785539 0.89901961
0.40890778 0.47058824 0.89515931
0.48622855 0.4696538 0.89558824
0.58903186 0.49117647 0.89509804
0.68985907 0.52034314 0.89136029
0.78529412 0.57194393 0.8872549
0.86867341 0.61528799 0.88543199
0.93404565 0.64574908 0.88333333
0.96011029 0.65490196 0.87941176
0.20098039 0.54803922 0.89166667
0.28866422 0.54607843 0.89512868
0.41280637 0.56709559 0.89148284
0.53979779 0.58250613 0.8875
0.6629902 0.61053922 0.88382353
0.77745098 0.64966299 0.88946078
0.86109069 0.69099265 0.88743873
0.9245098 0.70931373 0.88379289
0.95294118 0.73014706 0.88161765
0.14129902 0.6526348 0.8877451
0.22202053 0.65831036 0.8877451
0.32901348 0.66024816 0.8877451
0.44859069 0.66617647 0.88743873
0.60459559 0.6877451 0.88382353
0.75772825 0.72775735 0.8877451
0.8504902 0.76519608 0.88860294
0.91862745 0.78823529 0.89117647
0.95471814 0.80343137 0.88903186
0.41985294 0.79473039 0.87990196
0.44499081 0.79460784 0.88376225
0.49702819 0.7877451 0.88382353
0.56090686 0.78123468 0.88935355
0.63676471 0.78039216 0.88737745
0.75537684 0.80436581 0.88860294
0.84117647 0.83039216 0.89120711
0.9151348 0.85298713 0.89869792
0.96776961 0.85735294 0.89901961
0.61813725 0.8872549 0.89166667
0.62990196 0.88419884 0.89504442
0.65588235 0.88380821 0.88860294
0.69810049 0.88600643 0.89117647
0.75 0.89139093 0.8955576
0.80261183 0.89117647 0.8995098
0.85713848 0.89473039 0.90439645
0.91900276 0.90294118 0.90734528
0.97297794 0.90729167 0.89901961
0.78088235 0.9495098 0.91029412
0.78333333 0.94466912 0.9098652
0.77328431 0.93394608 0.90477941
0.82126225 0.94852941 0.91421569
0.83897059 0.94509804 0.91421569
0.87401961 0.94883578 0.92205882
0.89816176 0.94852941 0.92598039
0.93339461 0.95686275 0.92990196
0.9495098 0.96078431 0.92990196
0.55686275 0.34901961 0.97254902
0.57598039 0.36421569 0.97254902
0.62156863 0.3754902 0.96862745
0.6872549 0.41813725 0.97009804
0.75490196 0.46666667 0.96470588
0.83431373 0.53235294 0.95294118
0.89215686 0.58627451 0.94607843
0.95 0.66421569 0.94901961
0.96862745 0.67058824 0.94509804
0.56421569 0.3877451 0.96862745
0.57941176 0.39509804 0.97254902
0.61115196 0.39889706 0.96115196
0.6872549 0.44479167 0.97009804
0.76102941 0.49019608 0.96519608
0.83480392 0.5504902 0.96109069
0.89215686 0.59754902 0.94509804
0.94607843 0.66323529 0.94509804
0.99558824 0.70098039 0.95245098
0.56862745 0.46078431 0.97254902
0.57598039 0.46066176 0.96862745
0.61764706 0.4745098 0.96446078
0.68762255 0.50428922 0.96617647
0.75490196 0.53529412 0.96078431
0.82647059 0.58137255 0.95477941
0.89313725 0.64485294 0.95294118
0.94607843 0.69767157 0.94607843
0.9754902 0.7127451 0.94509804
0.55 0.53382353 0.96715686
0.56636029 0.53890931 0.96685049
0.6067402 0.54901961 0.9622549
0.67003676 0.56421569 0.95686275
0.74779412 0.60098039 0.95882353
0.82310049 0.64221814 0.95686275
0.89117647 0.69215686 0.95686275
0.94185049 0.72794118 0.94871324
0.97794118 0.74509804 0.94509804
0.50980392 0.60784314 0.96862745
0.50955882 0.60980392 0.96470588
0.59166667 0.62794118 0.97009804
0.65392157 0.63333333 0.95955882
0.73235294 0.6627451 0.95490196
0.81421569 0.69901961 0.95563725
0.88039216 0.73039216 0.94901961
0.93431373 0.76960784 0.94705882
0.95686275 0.78235294 0.94313725
0.34019608 0.66568627 0.96470588
0.38707108 0.66715686 0.95863971
0.48284314 0.68529412 0.96470588
0.58425245 0.69859069 0.96170343
0.70245098 0.72647059 0.96348039
0.80055147 0.75588235 0.96023284
0.87536765 0.78713235 0.9557598
0.92990196 0.81550245 0.94901961
0.95686275 0.83431373 0.94901961
0.47352941 0.79313725 0.96470588
0.47892157 0.79166667 0.95870098
0.52843137 0.78333333 0.95588235
0.57438725 0.77941176 0.94509804
0.62303922 0.77843137 0.94215686
0.75147059 0.80159314 0.95870098
0.8497549 0.83333333 0.95196078
0.92990196 0.86421569 0.95392157
0.96568627 0.88431373 0.95686275
0.64215686 0.89215686 0.95735294
0.6338848 0.88431373 0.94215686
0.66691176 0.8877451 0.95428922
0.70116422 0.89197304 0.95735294
0.73872549 0.89117647 0.95220588
0.78805147 0.89509804 0.95931373
0.83737745 0.8872549 0.96507353
0.92297794 0.90729167 0.95294118
0.96813725 0.92941176 0.96029412
0.75294118 0.94509804 0.92941176
0.7754902 0.96029412 0.96029412
0.74215686 0.93235294 0.95392157
0.78431373 0.93872549 0.9372549
0.83333333 0.95490196 0.94705882
0.86029412 0.95686275 0.96078431
0.89607843 0.96568627 0.96568627
0.93382353 0.96078431 0.96078431
0.97647059 0.97254902 0.97254902
