site/assets/luts/natron-haldclut--faded-alt--9fb87e177.cube
# LUTr-Project: LUTr — LUTrepository
# LUTr-Schema-Version: 1
# LUTr-ID: natron-haldclut--faded-alt--9fb87e177
# LUTr-Title: faded alt
# LUTr-Collection: Natron HaldCLUT
# LUTr-Collection-ID: natron-haldclut-presets
# LUTr-Source: https://github.com/NatronGitHub/clut
# LUTr-Source-File: submissions/natron-haldclut-presets/various/faded_alt.png
# LUTr-Source-Format: PNG
# LUTr-Source-SHA256: 1122e5f99de53e383388aa26f8e77e103a8f0224c3b38932ac20af9dc020a897
# LUTr-License: CC-BY-SA-4.0
# LUTr-License-URL: https://github.com/NatronGitHub/clut#license
# LUTr-Tags: creative, film, film-emulation, hald-clut, natron, png, vintage, cube
# LUTr-Transform-Class: film-emulation
# LUTr-Input-Color-Space: srgb
# LUTr-Output-Color-Space: srgb
# LUTr-Color-Space-Confidence: assumed-display-referred
# LUTr-Conversion-Method: PNG LUT image decoded at 16-bit and sampled to 25x25x25 3D CUBE
# LUTr-Conversion-Date: 2026-07-27
# LUTr-Conversion-Tool: LUTr scripts/convert-all-to-cube.mjs
# LUTr-Conversion-Grid: 25x25x25
# LUTr-Note: Preserve this metadata and the upstream license notices when redistributing.
TITLE "faded alt"
LUT_3D_SIZE 25
DOMAIN_MIN 0 0 0
DOMAIN_MAX 1 1 1
0.058823529 0.039215686 0.039215686
0.056372549 0.036764706 0.036764706
0.054901961 0.031372549 0.035294118
0.065196078 0.038235294 0.042156863
0.092156863 0.058823529 0.058823529
0.11421569 0.070588235 0.074509804
0.12058824 0.067647059 0.071568627
0.12696078 0.060294118 0.070588235
0.14901961 0.070588235 0.082352941
0.16960784 0.080882353 0.092647059
0.19019608 0.091176471 0.10294118
0.20735294 0.10147059 0.11323529
0.2254902 0.10588235 0.11960784
0.23970588 0.10980392 0.1254902
0.25 0.10980392 0.1254902
0.26029412 0.10833333 0.1254902
0.26666667 0.10196078 0.1254902
0.27794118 0.099019608 0.12254902
0.3 0.11470588 0.13823529
0.32058824 0.125 0.15245098
0.33921569 0.13529412 0.1627451
0.35392157 0.14166667 0.16911765
0.36764706 0.14509804 0.1754902
0.37794118 0.14509804 0.17647059
0.38431373 0.1372549 0.17254902
0.081862745 0.068627451 0.062254902
0.080330882 0.067095588 0.060723039
0.078921569 0.065318627 0.059313725
0.092647059 0.075490196 0.069117647
0.11911765 0.092156863 0.085784314
0.14117647 0.10520833 0.099019608
0.14754902 0.098529412 0.09754902
0.15392157 0.092156863 0.094178922
0.16813725 0.09754902 0.10147059
0.18719363 0.10392157 0.10931373
0.20686275 0.11421569 0.12352941
0.22745098 0.1245098 0.13382353
0.24534314 0.13088235 0.14019608
0.26060049 0.13676471 0.1463848
0.27303922 0.13676471 0.14963235
0.2872549 0.13676471 0.15245098
0.29607843 0.13529412 0.15245098
0.31029412 0.13921569 0.15582108
0.32696078 0.14803922 0.16764706
0.34754902 0.15833333 0.17941176
0.36421569 0.16862745 0.18970588
0.38069853 0.1745098 0.19607843
0.39460784 0.17781863 0.20245098
0.40735294 0.17843137 0.20343137
0.41519608 0.17843137 0.20343137
0.10882353 0.10588235 0.092156863
0.10882353 0.10588235 0.089215686
0.11372549 0.10686275 0.093137255
0.12745098 0.11323529 0.1004902
0.15196078 0.13088235 0.11617647
0.17193627 0.14375 0.12843137
0.17843137 0.13651961 0.1252451
0.18578431 0.13333333 0.1245098
0.19901961 0.13333333 0.12843137
0.21568627 0.13909314 0.13627451
0.23235294 0.14583333 0.14509804
0.25208333 0.15281863 0.15441176
0.26911765 0.15980392 0.16078431
0.28529412 0.16678922 0.16715686
0.30220588 0.17132353 0.1745098
0.31752451 0.1754902 0.17879902
0.32843137 0.1754902 0.18235294
0.3432598 0.18002451 0.18872549
0.36176471 0.18921569 0.2
0.38235294 0.1995098 0.21372549
0.3995098 0.20980392 0.2245098
0.41531863 0.21568627 0.23088235
0.42941176 0.21960784 0.2372549
0.43970588 0.21960784 0.23786765
0.44607843 0.21960784 0.23431373
0.13970588 0.14705882 0.12009804
0.13970588 0.14705882 0.12009804
0.14546569 0.14803922 0.12401961
0.15882353 0.15441176 0.13137255
0.17916667 0.16691176 0.14191176
0.19944853 0.17843137 0.15539216
0.20931373 0.1745098 0.15539216
0.21960784 0.1745098 0.15539216
0.23382353 0.1745098 0.15931373
0.24803922 0.17843137 0.16568627
0.26323529 0.18333333 0.17242647
0.28039216 0.18976716 0.18235294
0.29656863 0.19240196 0.18504902
0.31280637 0.19509804 0.19117647
0.32732843 0.20147059 0.19509804
0.34295343 0.20422794 0.2004902
0.35931373 0.21029412 0.20637255
0.37598039 0.21648284 0.2153799
0.39656863 0.23039216 0.23088235
0.41666667 0.24068627 0.24466912
0.43382353 0.25098039 0.25539216
0.45 0.25686275 0.26519608
0.46029412 0.25992647 0.26556373
0.47058824 0.25735294 0.26519608
0.47696078 0.25735294 0.26519608
0.16862745 0.18823529 0.15098039
0.17058824 0.18823529 0.15098039
0.17941176 0.18921569 0.15490196
0.19313725 0.19387255 0.1622549
0.20980392 0.20196078 0.17058824
0.22818627 0.21004902 0.18039216
0.24019608 0.21176471 0.18235294
0.25318627 0.21176471 0.18627451
0.26470588 0.21568627 0.19019608
0.28137255 0.21813725 0.19656863
0.29705882 0.22352941 0.20294118
0.31127451 0.22720588 0.20931373
0.32745098 0.23039216 0.21372549
0.34362745 0.23529412 0.21813725
0.35784314 0.23872549 0.2245098
0.37352941 0.24313725 0.23088235
0.39019608 0.24901961 0.2372549
0.40759804 0.25735294 0.24754902
0.42745098 0.26568627 0.25784314
0.44411765 0.27598039 0.26985294
0.4627451 0.28529412 0.28039216
0.47916667 0.29264706 0.29068627
0.49117647 0.29754902 0.29558824
0.50147059 0.29607843 0.29411765
0.50588235 0.29803922 0.29411765
0.19705882 0.2254902 0.17794118
0.2 0.2254902 0.18167892
0.21029412 0.22941176 0.18578431
0.2245098 0.23333333 0.19270833
0.24044118 0.23897059 0.19926471
0.25686275 0.24509804 0.20539216
0.27107843 0.25147059 0.21188725
0.28529412 0.25294118 0.21715686
0.2995098 0.25294118 0.22058824
0.3122549 0.25686275 0.22481618
0.32794118 0.26164216 0.23247549
0.34215686 0.26470588 0.23670343
0.35833333 0.26862745 0.24264706
0.3745098 0.27303922 0.24901961
0.38872549 0.27941176 0.25539216
0.40441176 0.28431373 0.26176471
0.42107843 0.28823529 0.26813725
0.44166667 0.29852941 0.27843137
0.45833333 0.30490196 0.28872549
0.475 0.31176471 0.29901961
0.49166667 0.31936275 0.30539216
0.50784314 0.32745098 0.31476716
0.52205882 0.33382353 0.32156863
0.53235294 0.33480392 0.32040441
0.53480392 0.33480392 0.32254902
0.2245098 0.26372549 0.20882353
0.22904412 0.26556373 0.20943627
0.24117647 0.26838235 0.21446078
0.25539216 0.27144608 0.22022059
0.26960784 0.275 0.22647059
0.28431373 0.27977941 0.23247549
0.30098039 0.28553922 0.2370098
0.31617647 0.29056373 0.24448529
0.33039216 0.29411765 0.24803922
0.34313725 0.29473039 0.25257353
0.35882353 0.2997549 0.26004902
0.37561275 0.30551471 0.26715686
0.38921569 0.30980392 0.27352941
0.40539216 0.31421569 0.27990196
0.41960784 0.31838235 0.28627451
0.4377451 0.32365196 0.29264706
0.45588235 0.32941176 0.30294118
0.47254902 0.33970588 0.31323529
0.49142157 0.34607843 0.31960784
0.50637255 0.35294118 0.32990196
0.52058824 0.35735294 0.33431373
0.53529412 0.36213235 0.33835784
0.55196078 0.36568627 0.34313725
0.56213235 0.36960784 0.34705882
0.56568627 0.36960784 0.34705882
0.25 0.3 0.23431373
0.25729167 0.3033701 0.23731618
0.27095588 0.3067402 0.24362745
0.28578431 0.30998775 0.24754902
0.3004902 0.3129902 0.25343137
0.31519608 0.31599265 0.2596201
0.3307598 0.32144608 0.26507353
0.34460784 0.32598039 0.27015931
0.35735294 0.32745098 0.275
0.37101716 0.33082108 0.2783701
0.38970588 0.33982843 0.2877451
0.40735294 0.34656863 0.29803922
0.42205882 0.3502451 0.30441176
0.43627451 0.35490196 0.31060049
0.4504902 0.35845588 0.31715686
0.46862745 0.36366422 0.32352941
0.48676471 0.37058824 0.33382353
0.50343137 0.38088235 0.34411765
0.52303922 0.3872549 0.35343137
0.5372549 0.39362745 0.36078431
0.55343137 0.39803922 0.36519608
0.56617647 0.40196078 0.36911765
0.57990196 0.40379902 0.37205882
0.59264706 0.40588235 0.37303922
0.59264706 0.40588235 0.3745098
0.2745098 0.3372549 0.25882353
0.28480392 0.33970588 0.26519608
0.3 0.34215686 0.27058824
0.31666667 0.34509804 0.2745098
0.32941176 0.34901961 0.28235294
0.34558824 0.35294118 0.28676471
0.35980392 0.35686275 0.29313725
0.37401961 0.36078431 0.29803922
0.38823529 0.36470588 0.30196078
0.40245098 0.37107843 0.30833333
0.42058824 0.37745098 0.31862745
0.43480392 0.38382353 0.325
0.45098039 0.38823529 0.33333333
0.46715686 0.39215686 0.3377451
0.48137255 0.39607843 0.34411765
0.4995098 0.40147059 0.3504902
0.51764706 0.41176471 0.36470588
0.53578431 0.41813725 0.375
0.55392157 0.42745098 0.38137255
0.56813725 0.43137255 0.39166667
0.58431373 0.4372549 0.39607843
0.6004902 0.44313725 0.4
0.61372549 0.44607843 0.40392157
0.62352941 0.44705882 0.40784314
0.62745098 0.44705882 0.40784314
0.30147059 0.37058824 0.28578431
0.31421569 0.37542892 0.290625
0.32990196 0.37879902 0.29791667
0.34411765 0.38235294 0.30275735
0.35833333 0.38627451 0.30808824
0.37273284 0.38805147 0.31341912
0.38786765 0.3935049 0.3182598
0.40245098 0.39650735 0.32346814
0.41911765 0.40196078 0.33039216
0.43333333 0.40833333 0.33921569
0.45147059 0.41409314 0.34558824
0.46568627 0.41893382 0.35214461
0.48063725 0.42426471 0.35906863
0.49460784 0.42726716 0.36470588
0.51127451 0.43272059 0.37144608
0.52794118 0.43964461 0.38137255
0.54852941 0.44901961 0.39166667
0.56519608 0.45931373 0.40196078
0.58639706 0.46960784 0.41678922
0.60294118 0.47598039 0.42303922
0.61838235 0.48039216 0.42818627
0.63186275 0.48431373 0.43351716
0.64558824 0.48786765 0.43835784
0.65588235 0.49215686 0.44172794
0.65833333 0.49215686 0.44264706
0.33627451 0.41176471 0.3127451
0.34546569 0.41360294 0.3185049
0.36004902 0.41568627 0.32377451
0.37365196 0.41948529 0.3310049
0.3872549 0.42254902 0.33431373
0.4 0.42389706 0.33933824
0.41593137 0.42745098 0.34387255
0.43186275 0.43284314 0.35134804
0.44901961 0.43921569 0.35980392
0.46421569 0.44558824 0.36727941
0.47941176 0.45098039 0.3747549
0.49607843 0.45477941 0.37928922
0.51078431 0.46029412 0.38676471
0.5254902 0.46580882 0.39166667
0.54240196 0.47034314 0.39877451
0.55943627 0.47598039 0.40833333
0.57941176 0.48627451 0.41862745
0.59938725 0.49656863 0.43284314
0.61666667 0.50686275 0.44387255
0.63468137 0.51715686 0.45477941
0.65245098 0.52205882 0.46372549
0.66752451 0.52683824 0.46960784
0.68039216 0.53235294 0.47279412
0.68958333 0.53370098 0.47561275
0.69313725 0.5372549 0.47745098
0.36715686 0.44901961 0.34019608
0.37745098 0.4495098 0.34393382
0.38872549 0.45306373 0.34901961
0.40196078 0.45643382 0.35582108
0.41617647 0.45735294 0.36151961
0.43039216 0.46084559 0.36721814
0.44460784 0.46507353 0.37401961
0.46029412 0.47040441 0.38039216
0.47696078 0.47647059 0.3872549
0.49381127 0.48302696 0.39705882
0.50931373 0.48823529 0.40257353
0.52352941 0.49172794 0.40680147
0.53995098 0.49632353 0.4125
0.55980392 0.50091912 0.41905637
0.57401961 0.50698529 0.4254902
0.59215686 0.5158701 0.43707108
0.61029412 0.52401961 0.4495098
0.63088235 0.53645833 0.4622549
0.65098039 0.54803922 0.47757353
0.67205882 0.55833333 0.49209559
0.68848039 0.56642157 0.49828431
0.70140931 0.57058824 0.50398284
0.71519608 0.5745098 0.50821078
0.72371324 0.57843137 0.5096201
0.72745098 0.57843137 0.5122549
0.39411765 0.48431373 0.36470588
0.40441176 0.48627451 0.36862745
0.41715686 0.48823529 0.37352941
0.42892157 0.49019608 0.37990196
0.44411765 0.49411765 0.38529412
0.45784314 0.49828431 0.39436275
0.4745098 0.50343137 0.40098039
0.49117647 0.50857843 0.40857843
0.50784314 0.51372549 0.41568627
0.5245098 0.52009804 0.42401961
0.54068627 0.52647059 0.43186275
0.55612745 0.53112745 0.4372549
0.57352941 0.53627451 0.44411765
0.59093137 0.54166667 0.45122549
0.60637255 0.54656863 0.45588235
0.6245098 0.55441176 0.46764706
0.64117647 0.56470588 0.48039216
0.66176471 0.57745098 0.49460784
0.68431373 0.58921569 0.50980392
0.70490196 0.60343137 0.52671569
0.72254902 0.60980392 0.53333333
0.73602941 0.6122549 0.5375
0.75 0.61715686 0.54068627
0.75759804 0.61960784 0.54387255
0.75882353 0.62156863 0.54509804
0.42058824 0.51911765 0.38529412
0.42959559 0.51942402 0.39166667
0.44522059 0.52438725 0.39852941
0.45931373 0.52745098 0.40533088
0.47401961 0.53308824 0.41519608
0.48872549 0.53878676 0.42156863
0.50539216 0.54215686 0.42892157
0.52058824 0.54675245 0.43676471
0.53872549 0.55098039 0.44460784
0.55294118 0.55735294 0.45098039
0.57205882 0.56727941 0.4622549
0.59307598 0.5783701 0.47634804
0.60955882 0.58455882 0.48431373
0.62205882 0.58235294 0.48382353
0.63578431 0.58627451 0.4877451
0.65539216 0.59509804 0.49705882
0.67598039 0.60539216 0.51127451
0.69656863 0.61617647 0.52794118
0.71715686 0.63039216 0.54362745
0.7377451 0.64460784 0.55784314
0.75637255 0.65098039 0.56617647
0.77064951 0.65686275 0.57058824
0.78480392 0.65992647 0.57401961
0.79148284 0.66256127 0.57794118
0.79411765 0.66470588 0.57794118
0.44117647 0.55 0.40588235
0.45833333 0.55686275 0.41617647
0.47352941 0.5625 0.42622549
0.49019608 0.5682598 0.43578431
0.50490196 0.57254902 0.44411765
0.51960784 0.57659314 0.45245098
0.53627451 0.58039216 0.45882353
0.55257353 0.58468137 0.46519608
0.56960784 0.58921569 0.47156863
0.58627451 0.59607843 0.48186275
0.60294118 0.60490196 0.49215686
0.62745098 0.62254902 0.51237745
0.64362745 0.62598039 0.51862745
0.65551471 0.62352941 0.51862745
0.66960784 0.62745098 0.52156863
0.68627451 0.63284314 0.53125
0.70686275 0.64313725 0.54215686
0.72745098 0.65625 0.55698529
0.74803922 0.66936275 0.5745098
0.76862745 0.68186275 0.58872549
0.78921569 0.68872549 0.59558824
0.80539216 0.69546569 0.60147059
0.81936275 0.70196078 0.60784314
0.82781863 0.70588235 0.60992647
0.83137255 0.70588235 0.6127451
0.48039216 0.59411765 0.44509804
0.49221814 0.59803922 0.45
0.50772059 0.60294118 0.45968137
0.52285539 0.60931373 0.46666667
0.5377451 0.61372549 0.475
0.55392157 0.61764706 0.48284314
0.56813725 0.62156863 0.48970588
0.58382353 0.6254902 0.49607843
0.6004902 0.62941176 0.50245098
0.61770833 0.63578431 0.50974265
0.6377451 0.64607843 0.52303922
0.65471814 0.65490196 0.53333333
0.67107843 0.66127451 0.54215686
0.68743873 0.66488971 0.54969363
0.70147059 0.66862745 0.55453431
0.72015931 0.67401961 0.5627451
0.7377451 0.68431373 0.57303922
0.75833333 0.69460784 0.5872549
0.77892157 0.70551471 0.60147059
0.7995098 0.71764706 0.61550245
0.81740196 0.72671569 0.6245098
0.83676471 0.73578431 0.63235294
0.85343137 0.74215686 0.63933824
0.86378676 0.74705882 0.64362745
0.86715686 0.74705882 0.64362745
0.52156863 0.63921569 0.48235294
0.53186275 0.63921569 0.48627451
0.54215686 0.64411765 0.49117647
0.55637255 0.6504902 0.49803922
0.57058824 0.65294118 0.50784314
0.58529412 0.65882353 0.51372549
0.60196078 0.66176471 0.52058824
0.61715686 0.66421569 0.5254902
0.63529412 0.67058824 0.53333333
0.65196078 0.67696078 0.53970588
0.66764706 0.68235294 0.55
0.68186275 0.68970588 0.55637255
0.7 0.69607843 0.56666667
0.71862745 0.70245098 0.58088235
0.73529412 0.70980392 0.58823529
0.75196078 0.71519608 0.59754902
0.77254902 0.7254902 0.60784314
0.78921569 0.73333333 0.61813725
0.80980392 0.74215686 0.62843137
0.82696078 0.75245098 0.64264706
0.84705882 0.7627451 0.65294118
0.86715686 0.77303922 0.65931373
0.88431373 0.78039216 0.66960784
0.89558824 0.78823529 0.67598039
0.89803922 0.78823529 0.67843137
0.56029412 0.68039216 0.51715686
0.56758578 0.68376225 0.52052696
0.57941176 0.68529412 0.52598039
0.59117647 0.68823529 0.53235294
0.60661765 0.69411765 0.53872549
0.61991422 0.69656863 0.54509804
0.63566176 0.70294118 0.55208333
0.65104167 0.70539216 0.55784314
0.66617647 0.71176471 0.56421569
0.68131127 0.71476716 0.57058824
0.69558824 0.71960784 0.57696078
0.7122549 0.7245098 0.58480392
0.72892157 0.73210784 0.59509804
0.74920343 0.74099265 0.60784314
0.76617647 0.75 0.61813725
0.78529412 0.75637255 0.62843137
0.80343137 0.76421569 0.63872549
0.82101716 0.77303922 0.64901961
0.84007353 0.78088235 0.65686275
0.85735294 0.78970588 0.66960784
0.87671569 0.8 0.67990196
0.89430147 0.80998775 0.6877451
0.90943627 0.81813725 0.69656863
0.91525735 0.82303922 0.70202206
0.91862745 0.82303922 0.70294118
0.59607843 0.72156863 0.55196078
0.60355392 0.7254902 0.55588235
0.61568627 0.72647059 0.56004902
0.62598039 0.72941176 0.56715686
0.64068627 0.73529412 0.57352941
0.65453431 0.7377451 0.57941176
0.66862745 0.74117647 0.58333333
0.68284314 0.74509804 0.58933824
0.69705882 0.74901961 0.59509804
0.71127451 0.75294118 0.60147059
0.72647059 0.75686275 0.60784314
0.74056373 0.76078431 0.61433824
0.75784314 0.76666667 0.62401961
0.77647059 0.77598039 0.63394608
0.79632353 0.78627451 0.64509804
0.81372549 0.79362745 0.65539216
0.83431373 0.80294118 0.66862745
0.85208333 0.81029412 0.67598039
0.87058824 0.81960784 0.68627451
0.88823529 0.82696078 0.69656863
0.90490196 0.8372549 0.70686275
0.92009804 0.84607843 0.71580882
0.92720588 0.85 0.72034314
0.93039216 0.85110294 0.72352941
0.93039216 0.85294118 0.72745098
0.62990196 0.7627451 0.58627451
0.63970588 0.76666667 0.58890931
0.65012255 0.76764706 0.5942402
0.66078431 0.77058824 0.59852941
0.6747549 0.77647059 0.60441176
0.68878676 0.77892157 0.61078431
0.6995098 0.78235294 0.61715686
0.71501225 0.78627451 0.62205882
0.72794118 0.79019608 0.62598039
0.74460784 0.79411765 0.63235294
0.75735294 0.79803922 0.63872549
0.77401961 0.80196078 0.64901961
0.78872549 0.80588235 0.65343137
0.80692402 0.81078431 0.66176471
0.82401961 0.82058824 0.67205882
0.84332108 0.82745098 0.68235294
0.86127451 0.8377451 0.69313725
0.87971814 0.84540441 0.70343137
0.89852941 0.85441176 0.71372549
0.9161152 0.86470588 0.72401961
0.93210784 0.87279412 0.73382353
0.93719363 0.87696078 0.73976716
0.94068627 0.87732843 0.7439951
0.94068627 0.88088235 0.74558824
0.94068627 0.88088235 0.74803922
0.66078431 0.80196078 0.61372549
0.66911765 0.80392157 0.61764706
0.68137255 0.80784314 0.62254902
0.69166667 0.81151961 0.62892157
0.70588235 0.81568627 0.63529412
0.72009804 0.81960784 0.64166667
0.73382353 0.82352941 0.64852941
0.74852941 0.82745098 0.65441176
0.7627451 0.83137255 0.66078431
0.77818627 0.83529412 0.66593137
0.79166667 0.83921569 0.67303922
0.80710784 0.84313725 0.67990196
0.8245098 0.84803922 0.68921569
0.83602941 0.84926471 0.69044118
0.85147059 0.85441176 0.69705882
0.87156863 0.8622549 0.70735294
0.88823529 0.87058824 0.71764706
0.90686275 0.87892157 0.72794118
0.92352941 0.88676471 0.73823529
0.93848039 0.89387255 0.74852941
0.94705882 0.89411765 0.75784314
0.95098039 0.89828431 0.76495098
0.95098039 0.90196078 0.77009804
0.95171569 0.90465686 0.77205882
0.95490196 0.90588235 0.7745098
0.69117647 0.84068627 0.64068627
0.69803922 0.84117647 0.64675245
0.70833333 0.84595588 0.65208333
0.72248775 0.84901961 0.659375
0.73676471 0.85465686 0.66617647
0.75147059 0.86078431 0.67598039
0.76813725 0.86470588 0.68284314
0.78118873 0.86862745 0.6877451
0.79754902 0.87254902 0.69166667
0.81176471 0.87647059 0.69822304
0.82598039 0.88039216 0.70441176
0.84019608 0.88431373 0.71127451
0.85441176 0.88602941 0.71691176
0.86862745 0.88780637 0.71954657
0.88198529 0.89080882 0.72303922
0.89852941 0.89705882 0.73235294
0.91911765 0.90392157 0.74264706
0.93333333 0.91158088 0.75294118
0.94693627 0.91605392 0.7627451
0.95343137 0.91519608 0.77303922
0.95343137 0.9125 0.77941176
0.95735294 0.91470588 0.78976716
0.96115196 0.92120098 0.8004902
0.96127451 0.92401961 0.80539216
0.96519608 0.92647059 0.80588235
0.71568627 0.8754902 0.66862745
0.725 0.87904412 0.67218137
0.7370098 0.88333333 0.68039216
0.75036765 0.88713235 0.68688725
0.76617647 0.89264706 0.69705882
0.78235294 0.89852941 0.70735294
0.79901961 0.90490196 0.71372549
0.81531863 0.90980392 0.71973039
0.83137255 0.91372549 0.72647059
0.84509804 0.91764706 0.73039216
0.86004902 0.92156863 0.73529412
0.87107843 0.92242647 0.74215686
0.88382353 0.92205882 0.74313725
0.8995098 0.92291667 0.74742647
0.91372549 0.92867647 0.75318627
0.93125 0.93480392 0.75931373
0.95 0.94117647 0.76960784
0.95845588 0.94387255 0.77806373
0.96372549 0.94142157 0.7870098
0.96372549 0.93541667 0.79362745
0.96372549 0.92794118 0.8
0.96384804 0.92879902 0.81078431
0.96764706 0.93529412 0.82818627
0.97156863 0.94313725 0.83958333
0.97254902 0.94705882 0.84313725
0.74166667 0.91176471 0.69313725
0.75140931 0.9151348 0.6995098
0.76507353 0.91911765 0.70735294
0.78020833 0.92334559 0.71617647
0.79509804 0.92794118 0.72647059
0.81145833 0.93382353 0.73627451
0.82659314 0.94068627 0.74129902
0.84417892 0.94613971 0.74859069
0.86323529 0.95343137 0.75588235
0.8783701 0.95827206 0.76280637
0.89166667 0.96127451 0.76580882
0.90196078 0.95753676 0.76764706
0.9122549 0.95735294 0.76911765
0.92696078 0.95784314 0.77334559
0.94754902 0.96568627 0.77990196
0.96568627 0.9745098 0.78872549
0.97941176 0.97696078 0.79656863
0.97794118 0.96911765 0.80202206
0.97401961 0.96164216 0.80784314
0.97273284 0.95245098 0.81421569
0.97009804 0.94534314 0.82254902
0.96881127 0.93921569 0.82959559
0.97365196 0.9495098 0.85159314
0.97886029 0.95980392 0.8716299
0.98186275 0.96372549 0.87892157
0.76470588 0.94509804 0.71372549
0.77352941 0.94509804 0.72009804
0.78529412 0.94509804 0.72941176
0.7995098 0.94901961 0.73676471
0.81568627 0.95294118 0.74509804
0.83186275 0.95735294 0.75343137
0.84901961 0.96470588 0.76078431
0.86568627 0.97009804 0.77009804
0.88235294 0.98039216 0.77647059
0.90294118 0.98676471 0.78431373
0.91470588 0.9872549 0.78823529
0.92107843 0.98431373 0.78823529
0.93333333 0.98039216 0.78823529
0.9495098 0.98431373 0.79215686
0.96666667 0.99117647 0.79901961
0.9872549 0.99754902 0.80539216
0.98823529 0.99215686 0.81176471
0.98578431 0.98578431 0.81813725
0.98333333 0.9754902 0.8245098
0.98039216 0.96911765 0.83480392
0.97647059 0.95882353 0.84117647
0.97598039 0.95245098 0.84705882
0.97941176 0.95980392 0.86764706
0.98431373 0.97009804 0.89313725
0.98823529 0.97647059 0.90588235
0.058823529 0.039215686 0.041666667
0.056372549 0.036213235 0.038296569
0.052818627 0.030392157 0.033210784
0.060968137 0.034007353 0.037928922
0.090196078 0.057598039 0.058823529
0.11029412 0.068137255 0.070588235
0.11764706 0.06372549 0.070588235
0.1245098 0.057291667 0.068137255
0.14509804 0.070588235 0.078431373
0.16960784 0.080882353 0.092647059
0.19019608 0.093995098 0.10686275
0.21470588 0.1091299 0.12303922
0.24068627 0.12573529 0.13921569
0.24491422 0.11746324 0.13333333
0.2557598 0.11617647 0.13517157
0.26666667 0.11617647 0.13670343
0.27941176 0.11862745 0.13823529
0.28970588 0.115625 0.14068627
0.3067402 0.125 0.15134804
0.33057598 0.13872549 0.16488971
0.34754902 0.14803922 0.1754902
0.36421569 0.15410539 0.18314951
0.37977941 0.15784314 0.18860294
0.39552696 0.16568627 0.19705882
0.39852941 0.16176471 0.19705882
0.081862745 0.069546569 0.064705882
0.079641544 0.067708333 0.061680453
0.078553922 0.064705882 0.059865196
0.092578125 0.074203431 0.068826593
0.11988358 0.094607843 0.088235294
0.13970588 0.10392157 0.099195772
0.14713542 0.099923407 0.097931985
0.15300245 0.092156863 0.093627451
0.16813725 0.096078431 0.10147059
0.18627451 0.10392157 0.11142004
0.20686275 0.11527267 0.12352941
0.22873775 0.12598039 0.13675705
0.25055147 0.13851103 0.14877451
0.26440717 0.14068627 0.15356158
0.27765012 0.14290748 0.15614277
0.28970588 0.14405637 0.1591682
0.30392157 0.14558824 0.1627451
0.31701134 0.149303 0.16741728
0.33333333 0.15441176 0.1754902
0.35147059 0.16599265 0.18578431
0.37058824 0.17545956 0.19699755
0.38694853 0.1818704 0.20599724
0.40098039 0.18549326 0.21049326
0.41554075 0.18998928 0.21652114
0.42003676 0.18872549 0.21464461
0.11127451 0.10833333 0.093137255
0.10882353 0.10680147 0.091666667
0.11372549 0.10870098 0.093290441
0.12752757 0.11665135 0.1027114
0.15318627 0.13547794 0.11966912
0.17205882 0.14505208 0.13088235
0.17889093 0.13786765 0.12732843
0.18555453 0.13333333 0.12473958
0.19901961 0.13333333 0.12843137
0.21568627 0.1394761 0.13780637
0.23235294 0.14598652 0.14693627
0.25261949 0.15539216 0.1569087
0.27034314 0.1629902 0.16715686
0.28903186 0.16969975 0.17352941
0.30505515 0.17512255 0.18072917
0.32061887 0.17964154 0.18627451
0.33590686 0.18578431 0.1932598
0.34993873 0.18860294 0.19856005
0.36614583 0.19558824 0.20637255
0.38517157 0.2053462 0.21795343
0.40269608 0.2129902 0.2278799
0.41919424 0.21991422 0.23702512
0.4330576 0.22316176 0.24096201
0.44362745 0.22598039 0.24460784
0.45 0.22598039 0.24460784
