site/assets/luts/natron-haldclut--polaroid-px-680-cold---a0ca9c0b3.cube
# LUTr-Project: LUTr — LUTrepository
# LUTr-Schema-Version: 1
# LUTr-ID: natron-haldclut--polaroid-px-680-cold---a0ca9c0b3
# LUTr-Title: polaroid px-680 cold --
# LUTr-Collection: Natron HaldCLUT
# LUTr-Collection-ID: natron-haldclut-presets
# LUTr-Source: https://github.com/NatronGitHub/clut
# LUTr-Source-File: submissions/natron-haldclut-presets/instant_consumer/polaroid_px-680_cold_--.png
# LUTr-Source-Format: PNG
# LUTr-Source-SHA256: 1d77e9920931c953a6e63cc6223581fe42ce9730c8f369e914955277c82e012f
# LUTr-License: CC-BY-SA-4.0
# LUTr-License-URL: https://github.com/NatronGitHub/clut#license
# LUTr-Tags: creative, film, film-emulation, hald-clut, natron, png, cool, cube
# LUTr-Transform-Class: film-emulation
# LUTr-Input-Color-Space: srgb
# LUTr-Output-Color-Space: srgb
# LUTr-Color-Space-Confidence: assumed-display-referred
# LUTr-Conversion-Method: PNG LUT image decoded at 16-bit and sampled to 25x25x25 3D CUBE
# LUTr-Conversion-Date: 2026-07-27
# LUTr-Conversion-Tool: LUTr scripts/convert-all-to-cube.mjs
# LUTr-Conversion-Grid: 25x25x25
# LUTr-Note: Preserve this metadata and the upstream license notices when redistributing.
TITLE "polaroid px-680 cold --"
LUT_3D_SIZE 9
DOMAIN_MIN 0 0 0
DOMAIN_MAX 1 1 1
0 0 0
0.049509804 0.031372549 0.019117647
0.17058824 0.042156863 0.025490196
0.37401961 0.065196078 0.039215686
0.58039216 0.076470588 0.078431373
0.73529412 0.18627451 0.14019608
0.83823529 0.30490196 0.20490196
0.92303922 0.39754902 0.25980392
1 0.49411765 0.31764706
0.0044117647 0.07745098 0.035784314
0.031801471 0.088664216 0.056862745
0.18982843 0.11139706 0.02879902
0.38578431 0.12401961 0.037928922
0.58039216 0.15710784 0.080392157
0.72352941 0.24479167 0.15569853
0.83431373 0.325 0.19803922
0.92303922 0.42107843 0.26764706
0.96862745 0.48137255 0.30931373
0.0039215686 0.21078431 0.095098039
0.0039215686 0.2182598 0.081372549
0.11764706 0.2372549 0.07254902
0.39080882 0.26580882 0.054779412
0.58039216 0.27058824 0.067156863
0.71384804 0.3254902 0.15686275
0.82647059 0.38431373 0.19019608
0.91213235 0.45784314 0.25196078
0.98823529 0.53627451 0.31372549
0 0.35735294 0.14460784
0.0039215686 0.36488971 0.14607843
0.028063725 0.38382353 0.15245098
0.3161152 0.4216299 0.14417892
0.55637255 0.4377451 0.13235294
0.70147059 0.42794118 0.13621324
0.80441176 0.4567402 0.19313725
0.89313725 0.51960784 0.25833333
0.98039216 0.575 0.29558824
0 0.49607843 0.22352941
0.0039215686 0.49607843 0.20955882
0.00098039216 0.50539216 0.21568627
0.20661765 0.52352941 0.21446078
0.50294118 0.55686275 0.21960784
0.67769608 0.57647059 0.21495098
0.78235294 0.58039216 0.20784314
0.88382353 0.59460784 0.23039216
0.97647059 0.62352941 0.28039216
0 0.59019608 0.24215686
0.0078431373 0.60177696 0.25765931
0.0039215686 0.60441176 0.26813725
0.19313725 0.61617647 0.26868873
0.42647059 0.6377451 0.27205882
0.61372549 0.67107843 0.26715686
0.75539216 0.70245098 0.28321078
0.86648284 0.70784314 0.26844363
0.925 0.71176471 0.2877451
0.0039215686 0.70882353 0.29607843
0.010416667 0.70625 0.3
0.0078431373 0.70122549 0.30294118
0.20281863 0.70735294 0.31360294
0.4127451 0.72647059 0.32254902
0.57107843 0.74522059 0.32855392
0.70661765 0.76691176 0.31862745
0.85343137 0.80343137 0.32794118
0.95098039 0.81862745 0.34215686
0.00098039216 0.80931373 0.33823529
0.014031863 0.80980392 0.34258578
0.18333333 0.81372549 0.35306373
0.31715686 0.81764706 0.37205882
0.44191176 0.82720588 0.36936275
0.57941176 0.83854167 0.37745098
0.70196078 0.85735294 0.38002451
0.83290441 0.88431373 0.38970588
0.94901961 0.91078431 0.40147059
0.36862745 0.94117647 0.42745098
0.40245098 0.94460784 0.43088235
0.42647059 0.94117647 0.43137255
0.4754902 0.93333333 0.43921569
0.56666667 0.95098039 0.45686275
0.64754902 0.94509804 0.45882353
0.74803922 0.95784314 0.46666667
0.84901961 0.96911765 0.47892157
0.94901961 0.98431373 0.49803922
0.015686275 0.030882353 0.10735294
0.046078431 0.03817402 0.10686275
0.17928922 0.035294118 0.12352941
0.38155637 0.045404412 0.16127451
0.58431373 0.14240196 0.20784314
0.72352941 0.25686275 0.25833333
0.82696078 0.34448529 0.28590686
0.91519608 0.43970588 0.32107843
0.98039216 0.50931373 0.35980392
0.0044117647 0.1 0.14264706
0.02745098 0.1042356 0.14210325
0.19874387 0.13039216 0.15070466
0.39721967 0.15778186 0.17303922
0.58627451 0.21590074 0.21348039
0.71617647 0.28801317 0.24528186
0.82659314 0.36660539 0.27928922
0.91519608 0.4474954 0.31678156
0.98866422 0.52150735 0.35196078
0 0.23088235 0.1817402
0.0039215686 0.23480392 0.18137255
0.14908088 0.24923407 0.17809436
0.41260723 0.27794118 0.1877451
0.57843137 0.29803922 0.19803922
0.71265319 0.34715074 0.22740502
0.81997549 0.41127451 0.26780025
0.90698529 0.48186275 0.3051777
0.98431373 0.54754902 0.34411765
0.0026348039 0.37273284 0.22058824
0.0039215686 0.38012408 0.2245098
0.020710784 0.396875 0.21666667
0.3462546 0.4287454 0.21911765
0.56804534 0.44754902 0.21544118
0.70098805 0.43344822 0.21463695
0.80409007 0.4754136 0.24370404
0.90098039 0.52461703 0.28596814
0.98394608 0.58247549 0.32873775
0.0034313725 0.49583333 0.23995098
0.0078431373 0.50171569 0.25496324
0.016237745 0.50729167 0.25980392
0.26593137 0.52598039 0.25661765
0.50453431 0.5560049 0.25294118
0.66798407 0.57843137 0.25490196
0.78186275 0.58431373 0.25851716
0.88753064 0.59044118 0.2627451
0.97328431 0.62745098 0.29730392
0 0.6004902 0.2846201
0.0078431373 0.60553768 0.2872549
0.0078431373 0.60833333 0.29117647
0.22185968 0.61770833 0.29521293
0.43848039 0.6377451 0.29901961
0.60881587 0.665625 0.30030637
0.76260723 0.69888174 0.29857537
0.86655944 0.69887408 0.30655637
0.9591299 0.71568627 0.31470588
0.0039215686 0.70588235 0.31776961
0.011764706 0.70265012 0.31470588
0.035447304 0.70490196 0.32205882
0.24229473 0.71314338 0.3323989
0.42371324 0.72843137 0.3377451
0.57593444 0.74411765 0.33480392
0.71688113 0.77254902 0.34558824
0.8569087 0.80735294 0.34558824
0.96127451 0.81875 0.35343137
0.027941176 0.81023284 0.35392157
0.068688725 0.81072304 0.35821844
0.20225184 0.81404718 0.36144301
0.3372549 0.81995251 0.37726716
0.45860907 0.82527574 0.38137255
0.58355545 0.83854167 0.38572304
0.71147365 0.86009498 0.39433211
0.83682598 0.88344822 0.40441176
0.95294118 0.90778186 0.40490196
0.36470588 0.93333333 0.42745098
0.39620098 0.94215686 0.4348652
0.43039216 0.93860294 0.43884804
0.48707108 0.93939951 0.446875
0.55882353 0.9372549 0.45490196
0.65539216 0.95165441 0.46666667
0.75196078 0.96066176 0.47781863
0.84810049 0.96427696 0.48278186
0.94411765 0.97990196 0.50098039
0 0.045098039 0.24215686
0.046078431 0.088235294 0.25
0.20490196 0.093382353 0.2625
0.36678922 0.099019608 0.27732843
0.58088235 0.14068627 0.30392157
0.72316176 0.26531863 0.34068627
0.82254902 0.3754902 0.37156863
0.91519608 0.49313725 0.40539216
0.99117647 0.55490196 0.4254902
0.0068627451 0.13296569 0.26654412
0.034313725 0.14931066 0.27401961
0.21375613 0.18005515 0.27720588
0.38690257 0.16559436 0.29446998
0.58627451 0.22254902 0.32218137
0.71928615 0.31570159 0.34594056
0.82254902 0.40091912 0.37153799
0.91127451 0.49658395 0.40078125
0.99215686 0.56360294 0.4245098
0.0031862745 0.26789216 0.29313725
0.019117647 0.26596201 0.29485294
0.20808824 0.27886029 0.30269608
0.42686887 0.30637255 0.3064951
0.58529412 0.3432598 0.32267157
0.71222426 0.40539216 0.35165441
0.81862745 0.46176471 0.37095588
0.90664828 0.52365196 0.39068627
0.9872549 0.58137255 0.41666667
0.0024509804 0.40098039 0.30968137
0.03046875 0.39960172 0.31300551
0.21124387 0.41755515 0.31773897
0.39754902 0.43581495 0.3182598
0.57303922 0.45367647 0.32218137
0.70206801 0.46444547 0.32904412
0.80686275 0.51102941 0.35235907
0.90061275 0.55761336 0.37143076
0.98431373 0.60931373 0.39522059
0.0034313725 0.51323529 0.32892157
0.054044118 0.51341912 0.33259804
0.13051471 0.51960784 0.33088235
0.32659314 0.53321078 0.3346201
0.52426471 0.56372549 0.33627451
0.67935049 0.58743873 0.33964461
0.78884804 0.59019608 0.33443627
0.8877451 0.61256127 0.34846814
0.97303922 0.64705882 0.37254902
0.0025735294 0.6004902 0.33958333
0.018321078 0.60833333 0.33921569
0.12230392 0.61210172 0.34252451
0.30257353 0.61931679 0.34852941
0.47493873 0.64148284 0.35428922
0.6294424 0.67401961 0.35882353
0.75759804 0.68676471 0.35637255
0.8707261 0.70030637 0.35735294
0.96678922 0.71703431 0.3627451
0.0066176471 0.70098039 0.35196078
0.013848039 0.70098039 0.34898897
0.16789216 0.70490196 0.35686275
0.3064951 0.7127451 0.36783088
0.44460784 0.72855392 0.37156863
0.58440564 0.74558824 0.37239583
0.72469363 0.77230392 0.38039216
0.85098039 0.79908088 0.38431373
0.96151961 0.81862745 0.38921569
0.080882353 0.80588235 0.37647059
0.11913297 0.80932904 0.37732843
0.24856005 0.81700368 0.38367034
0.36783088 0.82156863 0.39615502
0.47009804 0.82530637 0.40343137
0.58284314 0.83823529 0.40735294
0.70916054 0.86001838 0.41148897
0.8332261 0.87647059 0.42009804
0.9557598 0.90686275 0.43529412
0.37254902 0.9372549 0.43921569
0.38406863 0.93394608 0.44264706
0.43235294 0.93651961 0.44632353
0.50343137 0.94227941 0.46176471
0.56960784 0.93921569 0.47156863
0.65539216 0.94901961 0.48137255
0.75098039 0.9502451 0.48063725
0.84509804 0.95269608 0.49019608
0.90588235 0.96470588 0.50196078
0.011764706 0.12009804 0.37598039
0.070588235 0.12824755 0.37971814
0.28480392 0.175 0.38345588
0.40876225 0.23131127 0.38382353
0.55686275 0.23455882 0.3995098
0.70300245 0.27898284 0.41574755
0.82009804 0.38186275 0.43517157
0.91127451 0.49136029 0.45998775
0.98431373 0.55294118 0.47303922
0.011764706 0.18529412 0.38382353
0.080085784 0.19800092 0.39166667
0.28641238 0.25686275 0.3877451
0.42408088 0.28596048 0.3946155
0.56029412 0.29564951 0.40382966
0.7127451 0.32537531 0.42058824
0.82801777 0.3963848 0.43221507
0.91127451 0.50081955 0.45637255
0.98823529 0.59656863 0.48823529
0.0039215686 0.30196078 0.39558824
0.033992034 0.30110294 0.3995098
0.29191176 0.33167892 0.40245098
0.45317096 0.38982843 0.40735294
0.59264706 0.39803922 0.42009804
0.71190257 0.42909007 0.43566176
0.81789216 0.49669118 0.45098039
0.90735294 0.54937194 0.45998775
0.98529412 0.62892157 0.48823529
0.011213235 0.41519608 0.39405637
0.020029105 0.41206342 0.3901348
0.28062194 0.43650429 0.40868566
0.45876225 0.46903339 0.41519608
0.59607843 0.4958027 0.425
0.70807292 0.51975337 0.43535539
0.81078431 0.55758272 0.4455576
0.90225184 0.60177696 0.45706189
0.97947304 0.64803922 0.47156863
0.036519608 0.50465686 0.3872549
0.17533701 0.51568627 0.39739583
0.31715686 0.53057598 0.40851716
0.43553922 0.54831495 0.41519608
0.57622549 0.57769608 0.41911765
0.69172794 0.59019608 0.42058824
0.79754902 0.59852941 0.41881127
0.89558824 0.63823529 0.43685662
0.94411765 0.65882353 0.44730392
0.25729167 0.60980392 0.40729167
0.30107996 0.6122549 0.4116345
0.3466299 0.62009804 0.4127451
0.40518536 0.62947304 0.41092984
0.52015931 0.64923407 0.4174326
0.65204504 0.67892157 0.42116268
0.77683824 0.70176164 0.42136949
0.88009344 0.70820312 0.42370558
0.98002451 0.71911765 0.42156863
0.22316176 0.70098039 0.40882353
0.25496324 0.70490196 0.40882353
0.29840686 0.70845588 0.40490196
0.3801011 0.71588542 0.41029412
0.48854167 0.72935049 0.42058824
0.6040288 0.74558824 0.42118566
0.73207721 0.7739277 0.42895221
0.86372549 0.80245098 0.43333333
0.96531863 0.81862745 0.4372549
0.2286152 0.81029412 0.42107843
0.24656863 0.81323529 0.41056219
0.30882353 0.81372549 0.41421569
0.39264706 0.81764706 0.42254902
0.4986826 0.82852328 0.43235294
0.6008655 0.84479167 0.44296109
0.72156863 0.86029412 0.45226716
0.84397212 0.87834712 0.46617647
0.96764706 0.91078431 0.47401961
0.39215686 0.94411765 0.46127451
0.39166667 0.92647059 0.45753676
0.44117647 0.9372549 0.46629902
0.48480392 0.92058824 0.46666667
0.56911765 0.93578431 0.48406863
0.66623775 0.95496324 0.5088848
0.74558824 0.93762255 0.49754902
0.85275735 0.96292892 0.52616422
0.94215686 0.975 0.54215686
0.10196078 0.18823529 0.47254902
0.23480392 0.23039216 0.47254902
0.3745098 0.26960784 0.47058824
0.50857843 0.35980392 0.4745098
0.59607843 0.39509804 0.47647059
0.7127451 0.40441176 0.4870098
0.8 0.4004902 0.49411765
0.90343137 0.46813725 0.50416667
0.98627451 0.55294118 0.51764706
0.12156863 0.24240196 0.47058824
0.23333333 0.26544118 0.4745098
0.38492647 0.31115196 0.47647059
0.51240809 0.38961397 0.47833946
0.60551471 0.4439951 0.48223039
0.68627451 0.41436887 0.48489583
0.80533088 0.42126225 0.49803922
0.90539216 0.49681373 0.50609681
0.98088235 0.55882353 0.51789216
0.11960784 0.34117647 0.4745098
0.23443627 0.35245098 0.47824755
0.38431373 0.38529412 0.47843137
0.52610294 0.44172794 0.48235294
0.60833333 0.48823529 0.48627451
0.69803922 0.47279412 0.49019608
0.80931373 0.49558824 0.50245098
0.90147059 0.55343137 0.51550245
0.98137255 0.625 0.53970588
0.014460784 0.43284314 0.4627451
0.13109681 0.43805147 0.46528799
0.34283088 0.46231618 0.47561275
0.49877451 0.50196078 0.48235294
0.62083333 0.54203431 0.49019608
0.70882353 0.55438113 0.49923407
0.81219363 0.58082108 0.51348039
0.90318627 0.63636642 0.53097426
0.96348039 0.66666667 0.53995098
0.15294118 0.52156863 0.44607843
0.21752451 0.52340686 0.45085784
0.34019608 0.54117647 0.46495098
0.48039216 0.56654412 0.47965686
0.60490196 0.59656863 0.4877451
0.70612745 0.61519608 0.49448529
0.80686275 0.64656863 0.50245098
0.8995098 0.68088235 0.51789216
0.98235294 0.71078431 0.52941176
0.24411765 0.59852941 0.44191176
0.2864277 0.60441176 0.44901961
0.37205882 0.61856618 0.45686275
0.48186275 0.63731618 0.4703125
0.56776961 0.66151961 0.47904412
0.67696078 0.68115809 0.48327206
0.79215686 0.70447304 0.48627451
0.88970588 0.73088235 0.49675245
0.97769608 0.75245098 0.50637255
0.30784314 0.69117647 0.45147059
0.32843137 0.69485294 0.45
0.39963235 0.7067402 0.46066176
0.46507353 0.7185049 0.4627451
0.54044118 0.73504902 0.47058824
0.6375 0.75882353 0.47843137
0.75330882 0.7814951 0.48627451
0.87352941 0.80269608 0.49117647
0.97058824 0.81470588 0.49509804
0.3377451 0.80171569 0.4629902
0.36764706 0.80245098 0.46715686
0.4 0.80582108 0.46323529
0.43970588 0.81764706 0.46151961
0.52328431 0.82928922 0.47107843
0.61994485 0.84181985 0.48480392
0.72965686 0.86127451 0.49577206
0.84901961 0.88039216 0.51666667
0.95294118 0.90710784 0.52818627
0.43529412 0.9254902 0.50392157
0.44313725 0.92941176 0.50196078
0.46470588 0.93186275 0.50147059
0.50637255 0.93480392 0.50073529
0.57843137 0.94019608 0.51470588
0.66715686 0.9504902 0.53529412
0.75833333 0.95539216 0.54754902
0.86029412 0.96323529 0.57083333
0.9372549 0.9745098 0.58431373
0.325 0.29215686 0.54411765
0.36911765 0.30949755 0.54166667
0.475 0.34509804 0.54411765
0.58584559 0.42352941 0.54558824
0.67352941 0.52254902 0.5495098
0.74074755 0.54705882 0.55196078
0.79019608 0.51960784 0.55196078
0.89019608 0.53088235 0.56243873
0.97647059 0.5754902 0.58088235
0.31795343 0.33333333 0.54411765
0.38072151 0.35083487 0.54411765
0.47584252 0.38512561 0.54411765
0.59057138 0.44957108 0.55196078
0.67352941 0.5354473 0.55557598
0.73529412 0.55833333 0.55262714
0.78720895 0.52892157 0.55081189
0.88645833 0.54934896 0.56421569
0.97567402 0.58578431 0.58333333
0.31568627 0.4 0.54019608
0.37219669 0.41554841 0.54558824
0.47598039 0.44276961 0.54411765
0.58958333 0.4916973 0.55196078
0.67745098 0.55759804 0.55588235
0.72768076 0.57284007 0.55588235
0.7932598 0.57671569 0.56053922
0.88988971 0.58676471 0.5717065
0.97892157 0.63296569 0.59117647
0.25245098 0.47843137 0.52990196
0.30991881 0.48369332 0.53370864
0.43480392 0.50882353 0.53843444
0.55573683 0.53465839 0.54616268
0.67380515 0.6 0.55588235
0.73347886 0.61828278 0.55980392
0.79685968 0.62884498 0.56539522
0.89166667 0.63547794 0.57579657
0.98131127 0.67941176 0.59509804
0.22892157 0.54656863 0.51078431
0.27582721 0.5504902 0.51666667
0.3752451 0.5622549 0.52254902
0.48673407 0.58085172 0.53284314
0.64031863 0.625 0.54901961
0.72625613 0.65977328 0.5578125
0.80594363 0.67536765 0.56580882
0.89558824 0.69745711 0.58367034
0.98161765 0.74191176 0.61029412
0.24852941 0.60833333 0.49313725
0.28841146 0.61439951 0.49607077
0.36816789 0.62365196 0.50696998
0.47647059 0.64460784 0.51799173
0.59852941 0.66884191 0.53403799
0.71568627 0.71323529 0.55585938
0.8098652 0.72696078 0.56127451
0.90031403 0.75 0.57567402
0.96936275 0.7838848 0.59810049
0.26053922 0.67745098 0.48198529
0.2751685 0.68079044 0.48382353
0.35490196 0.69497549 0.49558824
0.46862745 0.71427696 0.50827206
0.57990196 0.73333333 0.5216299
0.67382047 0.76360294 0.53958333
0.78382353 0.7932598 0.55625
0.89313725 0.81038603 0.56377145
0.98333333 0.8254902 0.57585784
0.27824755 0.78658088 0.49607843
0.32557445 0.78890931 0.5
0.38970588 0.79649203 0.50257353
0.47886029 0.81275276 0.51047028
0.56804534 0.8231924 0.52205882
0.64852941 0.84509038 0.53401501
0.74963235 0.86484375 0.55294118
0.8682981 0.88731618 0.56971507
0.98039216 0.90735294 0.59705882
0.4495098 0.93872549 0.5504902
0.43854167 0.92579657 0.54656863
0.4814951 0.92071078 0.5432598
0.5278799 0.91905637 0.54313725
0.59558824 0.94068627 0.55784314
0.67107843 0.95441176 0.57303922
0.75772059 0.93333333 0.58039216
0.86599265 0.95704657 0.61519608
0.97009804 0.94754902 0.61715686
0.46372549 0.40392157 0.61862745
0.49656863 0.41813725 0.61470588
0.56568627 0.4497549 0.62254902
0.65183824 0.4995098 0.62156863
0.73088235 0.56666667 0.62254902
0.78921569 0.64019608 0.62977941
0.83259804 0.63823529 0.62622549
0.87254902 0.62879902 0.62696078
0.95196078 0.65686275 0.65392157
0.47144608 0.42953431 0.61862745
0.50179228 0.44074755 0.61862745
0.56568627 0.46813725 0.61773897
0.64799326 0.51617647 0.61776961
0.72653186 0.58357843 0.62254902
0.78884804 0.66141238 0.63333333
0.83039216 0.64568015 0.62904412
0.87668505 0.63909314 0.63086703
0.95294118 0.65772059 0.65379902
0.44803922 0.47156863 0.61470588
0.49316789 0.48296569 0.61862745
0.55257353 0.50459559 0.61764706
0.64460784 0.54313725 0.62000613
0.72855392 0.61237745 0.63026961
0.78921569 0.67438725 0.63370098
0.83805147 0.67665441 0.63823529
0.8807598 0.67254902 0.63872549
0.96372549 0.68627451 0.66151961
0.39558824 0.52843137 0.60441176
0.44064032 0.53627451 0.61047794
0.52196691 0.55392157 0.61553309
0.61862745 0.5884038 0.62254902
0.71151961 0.63872549 0.63008578
0.78878676 0.70588235 0.63915441
0.83786765 0.71482843 0.64653799
0.87683824 0.70333946 0.64149816
0.96372549 0.71813725 0.66568627
0.28921569 0.58333333 0.58088235
0.33229167 0.5875 0.58523284
0.44019608 0.59938725 0.59816176
0.55704657 0.61476716 0.60490196
0.67303922 0.65612745 0.62107843
0.77175245 0.71979167 0.64724265
0.84607843 0.75784314 0.66176471
0.89509804 0.74362745 0.66176471
0.97598039 0.74901961 0.675
0.2872549 0.64313725 0.56727941
0.31845895 0.64705882 0.56948529
0.38207721 0.65098039 0.5786152
0.47745098 0.66519608 0.58434436
0.6127451 0.68805147 0.60006127
0.73858762 0.73872549 0.63431373
0.84041054 0.79411765 0.66109069
0.91038603 0.79473039 0.67299326
0.97218137 0.8060049 0.69276961
0.27720588 0.70098039 0.55
0.32034314 0.70490196 0.55248162
0.33786765 0.70471814 0.55098039
0.43921569 0.71911765 0.56320466
0.55943627 0.73406863 0.57634804
0.68235294 0.76488971 0.59889706
0.80294118 0.80686275 0.64411765
0.90634191 0.83860294 0.67460172
0.99117647 0.85980392 0.69607843
0.052083333 0.76740196 0.52732843
0.16548713 0.77792586 0.53517157
0.26176471 0.77297794 0.53088235
0.37703738 0.78541667 0.53880208
0.51838235 0.80410539 0.5591299
0.65050551 0.83422181 0.59215686
0.77791054 0.86470588 0.63223039
0.88829657 0.89252451 0.66354167
0.97205882 0.90428922 0.68590686
0.31666667 0.93137255 0.5872549
0.32340686 0.92561275 0.59019608
0.39117647 0.92622549 0.59313725
0.47267157 0.92904412 0.59987745
0.56666667 0.92598039 0.60588235
0.65980392 0.9432598 0.6254902
0.77254902 0.95416667 0.65098039
0.87990196 0.95588235 0.68872549
0.97647059 0.96960784 0.7254902
0.58578431 0.52745098 0.71127451
0.60490196 0.5278799 0.71568627
0.65134804 0.56127451 0.71568627
0.70392157 0.59117647 0.71617647
0.77745098 0.64877451 0.72009804
0.83480392 0.71029412 0.72892157
0.87610294 0.75404412 0.73137255
0.91470588 0.77101716 0.74313725
0.93333333 0.7627451 0.74705882
0.58970588 0.54264706 0.71568627
0.60882353 0.55005362 0.71573989
0.64776348 0.56642157 0.71568627
0.70392157 0.60026808 0.71960784
0.7752451 0.65566789 0.72310049
0.83464308 0.71904105 0.73268229
0.88382353 0.76236213 0.7384038
0.91825214 0.76580116 0.74313725
0.9533701 0.75441176 0.74705882
0.575 0.57352941 0.72352941
0.59411765 0.58098958 0.72352941
0.64056373 0.59365809 0.71605392
0.69705882 0.62550551 0.71960784
0.7692402 0.67175245 0.72696078
0.8384038 0.72904412 0.73529412
0.88394608 0.77784926 0.74304534
0.92287071 0.77706801 0.75098039
0.95294118 0.77303922 0.75882353
0.53431373 0.6 0.7122549
0.559375 0.60735294 0.71568627
0.60490196 0.61960784 0.71871936
0.68167892 0.64962469 0.72383578
0.75343137 0.69093137 0.72573529
0.83007812 0.74509804 0.73921569
0.88382353 0.79865196 0.75379902
0.92261029 0.80343137 0.76096814
0.96078431 0.79215686 0.76488971
0.42671569 0.65245098 0.70441176
0.46666667 0.65242034 0.7041973
0.54093137 0.65441176 0.70441176
0.62346814 0.67098652 0.71504289
0.72242647 0.70784314 0.72659314
0.80940564 0.7625 0.74675245
0.87696078 0.8158701 0.76648284
0.91838235 0.83262868 0.77015931
0.94485294 0.82303922 0.77230392
0.33676471 0.69675245 0.68382353
0.36699602 0.69675245 0.68717065
0.40631127 0.6935815 0.68062194
0.49676777 0.70213695 0.68596814
0.63848039 0.72990196 0.70750613
0.76685049 0.76459099 0.7323606
0.87567402 0.83200061 0.76757047
0.92477788 0.86323529 0.78868719
0.96617647 0.84981618 0.79558824
0.29056373 0.75196078 0.65821078
0.31960784 0.75196078 0.66029412
0.37058824 0.75196078 0.66556373
0.44442402 0.75588235 0.66902574
0.55582108 0.76672794 0.68578431
0.69068627 0.78814338 0.71164216
0.81966912 0.83161765 0.75272672
0.92303922 0.88419118 0.79938725
0.97732843 0.89178922 0.82598039
0.23823529 0.81029412 0.64074755
0.2721201 0.81415441 0.64853707
0.32555147 0.81801471 0.64944853
0.39904259 0.81840533 0.65006127
0.5127451 0.82990196 0.66565564
0.63183977 0.84139859 0.68529412
0.76507353 0.87310049 0.72559743
0.91525735 0.91954657 0.80772825
0.99166667 0.9377451 0.85545343
0.022058824 0.91911765 0.65784314
0.0053308824 0.92064951 0.65392157
0.1872549 0.93468137 0.67365196
0.30833333 0.91029412 0.66519608
0.47573529 0.9245098 0.68676471
0.565625 0.915625 0.67640931
0.7372549 0.94019608 0.72352941
0.88731618 0.96072304 0.78676471
0.97254902 0.96862745 0.82941176
0.69019608 0.66666667 0.85098039
0.68970588 0.65833333 0.83529412
0.72058824 0.6745098 0.83627451
0.76470588 0.6995098 0.84215686
0.81960784 0.7372549 0.84901961
0.87352941 0.77794118 0.84705882
0.91862745 0.82156863 0.85490196
0.94607843 0.86372549 0.85539216
0.96470588 0.85882353 0.8627451
0.68627451 0.67058824 0.84754902
0.69319853 0.67352941 0.84613971
0.72830882 0.69264706 0.85441176
0.76715686 0.71194853 0.85085784
0.81789216 0.73921569 0.84754902
0.87598039 0.78186275 0.86078431
0.91568627 0.82144608 0.84840686
0.94558824 0.84411765 0.85147059
0.97303922 0.8627451 0.8745098
0.67941176 0.68921569 0.85882353
0.67843137 0.67794118 0.83872549
0.71593137 0.70171569 0.85392157
0.75992647 0.72156863 0.85245098
0.81176471 0.75245098 0.8504902
0.86960784 0.79264706 0.8567402
0.91470588 0.82941176 0.85196078
0.94558824 0.85441176 0.86176471
0.9754902 0.87352941 0.88137255
0.64068627 0.70441176 0.84705882
0.65980392 0.7096201 0.86078431
0.69754902 0.72303922 0.86568627
0.73964461 0.73572304 0.85183824
0.80147059 0.7627451 0.85171569
0.86231618 0.80055147 0.85582108
0.91286765 0.84411765 0.8627451
0.95294118 0.88694853 0.87928922
0.97401961 0.89019608 0.8877451
0.61372549 0.74117647 0.86862745
0.60980392 0.7372549 0.85735294
0.64313725 0.74215686 0.85833333
0.70294118 0.75294118 0.86348039
0.77156863 0.7754902 0.8627451
0.85539216 0.82058824 0.87745098
0.90686275 0.85245098 0.86617647
0.94779412 0.89093137 0.87279412
0.96078431 0.9 0.88431373
0.48921569 0.77009804 0.8627451
0.49803922 0.76795343 0.85686275
0.54901961 0.77401961 0.86372549
0.62506127 0.78039216 0.87064951
0.70465686 0.79411765 0.86519608
0.81470588 0.825 0.88382353
0.89485294 0.85919118 0.86544118
0.95686275 0.91109069 0.90814951
0.96470588 0.90196078 0.8745098
0.3754902 0.8254902 0.85882353
0.40245098 0.82169118 0.84840686
0.44019608 0.83284314 0.87132353
0.5127451 0.82696078 0.86237745
0.58039216 0.82941176 0.8872549
0.72745098 0.84166667 0.89264706
0.86151961 0.87647059 0.89803922
0.95257353 0.92598039 0.92193627
0.98137255 0.94313725 0.93235294
0.35294118 0.90392157 0.88382353
0.36709559 0.9033701 0.88572304
0.40980392 0.90379902 0.89093137
0.47107843 0.90098039 0.88841912
0.54632353 0.90122549 0.89779412
0.64675245 0.896875 0.88596814
0.76568627 0.90392157 0.90147059
0.92610294 0.93431373 0.94178922
0.98480392 0.96519608 0.95
0.30980392 0.98039216 0.90980392
0.29509804 0.97303922 0.89117647
0.36666667 0.97745098 0.91176471
0.43627451 0.95539216 0.90343137
0.51176471 0.9745098 0.91372549
0.61470588 0.96372549 0.9127451
0.73235294 0.95392157 0.92156863
0.85784314 0.97990196 0.94019608
0.99215686 0.99215686 0.98823529
