site/assets/luts/natron-haldclut--rollei-retro-80s--829266177.cube
# LUTr-Project: LUTr — LUTrepository
# LUTr-Schema-Version: 1
# LUTr-ID: natron-haldclut--rollei-retro-80s--829266177
# LUTr-Title: rollei retro 80s
# LUTr-Collection: Natron HaldCLUT
# LUTr-Collection-ID: natron-haldclut-presets
# LUTr-Source: https://github.com/NatronGitHub/clut
# LUTr-Source-File: submissions/natron-haldclut-presets/bw/rollei_retro_80s.png
# LUTr-Source-Format: PNG
# LUTr-Source-SHA256: 5607fbe36346030c6503d164d9e15eed668f19d86276bdfba65627206b895a7f
# LUTr-License: CC-BY-SA-4.0
# LUTr-License-URL: https://github.com/NatronGitHub/clut#license
# LUTr-Tags: creative, film, film-emulation, hald-clut, natron, png, vintage, cube
# LUTr-Transform-Class: film-emulation
# LUTr-Input-Color-Space: srgb
# LUTr-Output-Color-Space: srgb
# LUTr-Color-Space-Confidence: assumed-display-referred
# LUTr-Conversion-Method: PNG LUT image decoded at 16-bit and sampled to 25x25x25 3D CUBE
# LUTr-Conversion-Date: 2026-07-27
# LUTr-Conversion-Tool: LUTr scripts/convert-all-to-cube.mjs
# LUTr-Conversion-Grid: 25x25x25
# LUTr-Note: Preserve this metadata and the upstream license notices when redistributing.
TITLE "rollei retro 80s"
LUT_3D_SIZE 9
DOMAIN_MIN 0 0 0
DOMAIN_MAX 1 1 1
0.0039215686 0.0039215686 0.0039215686
0.015686275 0.015686275 0.015686275
0.052941176 0.052941176 0.052941176
0.095098039 0.095098039 0.095098039
0.16862745 0.16862745 0.16862745
0.27107843 0.27107843 0.27107843
0.45686275 0.45686275 0.45686275
0.65 0.65 0.65
0.81176471 0.81176471 0.81176471
0.019607843 0.019607843 0.019607843
0.031311275 0.031311275 0.031311275
0.054779412 0.054779412 0.054779412
0.10245098 0.10245098 0.10245098
0.17205882 0.17205882 0.17205882
0.30490196 0.30490196 0.30490196
0.48382353 0.48382353 0.48382353
0.67303922 0.67303922 0.67303922
0.8004902 0.8004902 0.8004902
0.043137255 0.043137255 0.043137255
0.054779412 0.054779412 0.054779412
0.078186275 0.078186275 0.078186275
0.12941176 0.12941176 0.12941176
0.2 0.2 0.2
0.33909314 0.33909314 0.33909314
0.51470588 0.51470588 0.51470588
0.68909314 0.68909314 0.68909314
0.80196078 0.80196078 0.80196078
0.066666667 0.066666667 0.066666667
0.076654412 0.076654412 0.076654412
0.099509804 0.099509804 0.099509804
0.15 0.15 0.15
0.23382353 0.23382353 0.23382353
0.38235294 0.38235294 0.38235294
0.53958333 0.53958333 0.53958333
0.71078431 0.71078431 0.71078431
0.82990196 0.82990196 0.82990196
0.11372549 0.11372549 0.11372549
0.125 0.125 0.125
0.15196078 0.15196078 0.15196078
0.2002451 0.2002451 0.2002451
0.28823529 0.28823529 0.28823529
0.42696078 0.42696078 0.42696078
0.59313725 0.59313725 0.59313725
0.72990196 0.72990196 0.72990196
0.84901961 0.84901961 0.84901961
0.1754902 0.1754902 0.1754902
0.18284314 0.18284314 0.18284314
0.20698529 0.20698529 0.20698529
0.26813725 0.26813725 0.26813725
0.36593137 0.36593137 0.36593137
0.50196078 0.50196078 0.50196078
0.65490196 0.65490196 0.65490196
0.77959559 0.77959559 0.77959559
0.87843137 0.87843137 0.87843137
0.25784314 0.25784314 0.25784314
0.26519608 0.26519608 0.26519608
0.29215686 0.29215686 0.29215686
0.36531863 0.36531863 0.36531863
0.47009804 0.47009804 0.47009804
0.5807598 0.5807598 0.5807598
0.71176471 0.71176471 0.71176471
0.81911765 0.81911765 0.81911765
0.90686275 0.90686275 0.90686275
0.35931373 0.35931373 0.35931373
0.38535539 0.38535539 0.38535539
0.41960784 0.41960784 0.41960784
0.47745098 0.47745098 0.47745098
0.57426471 0.57426471 0.57426471
0.67254902 0.67254902 0.67254902
0.77647059 0.77647059 0.77647059
0.86427696 0.86427696 0.86427696
0.92598039 0.92598039 0.92598039
0.48235294 0.48235294 0.48235294
0.51666667 0.51666667 0.51666667
0.55098039 0.55098039 0.55098039
0.60098039 0.60098039 0.60098039
0.67843137 0.67843137 0.67843137
0.75588235 0.75588235 0.75588235
0.83333333 0.83333333 0.83333333
0.89509804 0.89509804 0.89509804
0.95686275 0.95686275 0.95686275
0.011764706 0.011764706 0.011764706
0.030453431 0.030453431 0.030453431
0.061642157 0.061642157 0.061642157
0.10245098 0.10245098 0.10245098
0.1877451 0.1877451 0.1877451
0.31519608 0.31519608 0.31519608
0.48382353 0.48382353 0.48382353
0.67261029 0.67261029 0.67261029
0.81960784 0.81960784 0.81960784
0.023468137 0.023468137 0.023468137
0.041727941 0.041727941 0.041727941
0.069592525 0.069592525 0.069592525
0.11803002 0.11803002 0.11803002
0.20248162 0.20248162 0.20248162
0.32869945 0.32869945 0.32869945
0.50036765 0.50036765 0.50036765
0.68512561 0.68512561 0.68512561
0.81666667 0.81666667 0.81666667
0.05 0.05 0.05
0.058655025 0.058655025 0.058655025
0.091666667 0.091666667 0.091666667
0.14468444 0.14468444 0.14468444
0.22598039 0.22598039 0.22598039
0.3506587 0.3506587 0.3506587
0.52218137 0.52218137 0.52218137
0.70036765 0.70036765 0.70036765
0.82328431 0.82328431 0.82328431
0.080392157 0.080392157 0.080392157
0.090379902 0.090379902 0.090379902
0.12254902 0.12254902 0.12254902
0.1754902 0.1754902 0.1754902
0.25294118 0.25294118 0.25294118
0.38841912 0.38841912 0.38841912
0.56262255 0.56262255 0.56262255
0.72555147 0.72555147 0.72555147
0.83921569 0.83921569 0.83921569
0.11936275 0.11936275 0.11936275
0.13063725 0.13063725 0.13063725
0.16715686 0.16715686 0.16715686
0.21626838 0.21626838 0.21626838
0.3129902 0.3129902 0.3129902
0.43823529 0.43823529 0.43823529
0.60704657 0.60704657 0.60704657
0.75248162 0.75248162 0.75248162
0.8495098 0.8495098 0.8495098
0.1846201 0.1846201 0.1846201
0.19068627 0.19068627 0.19068627
0.22596507 0.22596507 0.22596507
0.28498009 0.28498009 0.28498009
0.38823529 0.38823529 0.38823529
0.51575521 0.51575521 0.51575521
0.66030944 0.66030944 0.66030944
0.78768382 0.78768382 0.78768382
0.88235294 0.88235294 0.88235294
0.26127451 0.26127451 0.26127451
0.28431373 0.28431373 0.28431373
0.31421569 0.31421569 0.31421569
0.38333333 0.38333333 0.38333333
0.48578431 0.48578431 0.48578431
0.60093444 0.60093444 0.60093444
0.72218137 0.72218137 0.72218137
0.8182598 0.8182598 0.8182598
0.90772059 0.90772059 0.90772059
0.3745098 0.3745098 0.3745098
0.39313725 0.39313725 0.39313725
0.4310049 0.4310049 0.4310049
0.49264706 0.49264706 0.49264706
0.59359681 0.59359681 0.59359681
0.69558824 0.69558824 0.69558824
0.78296569 0.78296569 0.78296569
0.86078431 0.86078431 0.86078431
0.93382353 0.93382353 0.93382353
0.51666667 0.51666667 0.51666667
0.51758578 0.51758578 0.51758578
0.54730392 0.54730392 0.54730392
0.58578431 0.58578431 0.58578431
0.6879902 0.6879902 0.6879902
0.75980392 0.75980392 0.75980392
0.83247549 0.83247549 0.83247549
0.89901961 0.89901961 0.89901961
0.96127451 0.96127451 0.96127451
0.018627451 0.018627451 0.018627451
0.046568627 0.046568627 0.046568627
0.079656863 0.079656863 0.079656863
0.13333333 0.13333333 0.13333333
0.21078431 0.21078431 0.21078431
0.3372549 0.3372549 0.3372549
0.52720588 0.52720588 0.52720588
0.69644608 0.69644608 0.69644608
0.82745098 0.82745098 0.82745098
0.035171569 0.035171569 0.035171569
0.056985294 0.056985294 0.056985294
0.088786765 0.088786765 0.088786765
0.14491422 0.14491422 0.14491422
0.22800245 0.22800245 0.22800245
0.35490196 0.35490196 0.35490196
0.53710172 0.53710172 0.53710172
0.70338542 0.70338542 0.70338542
0.83088235 0.83088235 0.83088235
0.071568627 0.071568627 0.071568627
0.083823529 0.083823529 0.083823529
0.11862745 0.11862745 0.11862745
0.16764706 0.16764706 0.16764706
0.25257353 0.25257353 0.25257353
0.38186275 0.38186275 0.38186275
0.54901961 0.54901961 0.54901961
0.71847426 0.71847426 0.71847426
0.80980392 0.80980392 0.80980392
0.10343137 0.10343137 0.10343137
0.11844363 0.11844363 0.11844363
0.1495098 0.1495098 0.1495098
0.19852941 0.19852941 0.19852941
0.28112745 0.28112745 0.28112745
0.42173713 0.42173713 0.42173713
0.58382353 0.58382353 0.58382353
0.73681066 0.73681066 0.73681066
0.84705882 0.84705882 0.84705882
0.15196078 0.15196078 0.15196078
0.16617647 0.16617647 0.16617647
0.19803922 0.19803922 0.19803922
0.25030637 0.25030637 0.25030637
0.34509804 0.34509804 0.34509804
0.47696078 0.47696078 0.47696078
0.6314951 0.6314951 0.6314951
0.7754902 0.7754902 0.7754902
0.87205882 0.87205882 0.87205882
0.21764706 0.21764706 0.21764706
0.22686887 0.22686887 0.22686887
0.25735294 0.25735294 0.25735294
0.32169118 0.32169118 0.32169118
0.41519608 0.41519608 0.41519608
0.54656863 0.54656863 0.54656863
0.68446691 0.68446691 0.68446691
0.80261949 0.80261949 0.80261949
0.89166667 0.89166667 0.89166667
0.29509804 0.29509804 0.29509804
0.31519608 0.31519608 0.31519608
0.34846814 0.34846814 0.34846814
0.41240809 0.41240809 0.41240809
0.51654412 0.51654412 0.51654412
0.62352941 0.62352941 0.62352941
0.73688725 0.73688725 0.73688725
0.8330576 0.8330576 0.8330576
0.91764706 0.91764706 0.91764706
0.41311275 0.41311275 0.41311275
0.42830882 0.42830882 0.42830882
0.4676777 0.4676777 0.4676777
0.52218137 0.52218137 0.52218137
0.61685049 0.61685049 0.61685049
0.70998775 0.70998775 0.70998775
0.79604779 0.79604779 0.79604779
0.87501532 0.87501532 0.87501532
0.94166667 0.94166667 0.94166667
0.54901961 0.54901961 0.54901961
0.55943627 0.55943627 0.55943627
0.58897059 0.58897059 0.58897059
0.6192402 0.6192402 0.6192402
0.71078431 0.71078431 0.71078431
0.76360294 0.76360294 0.76360294
0.84583333 0.84583333 0.84583333
0.90943627 0.90943627 0.90943627
0.95294118 0.95294118 0.95294118
0.019607843 0.019607843 0.019607843
0.064215686 0.064215686 0.064215686
0.10637255 0.10637255 0.10637255
0.16421569 0.16421569 0.16421569
0.24411765 0.24411765 0.24411765
0.38480392 0.38480392 0.38480392
0.56813725 0.56813725 0.56813725
0.72205882 0.72205882 0.72205882
0.84313725 0.84313725 0.84313725
0.060294118 0.060294118 0.060294118
0.081211703 0.081211703 0.081211703
0.11470588 0.11470588 0.11470588
0.1707644 0.1707644 0.1707644
0.25505515 0.25505515 0.25505515
0.39607843 0.39607843 0.39607843
0.56484375 0.56484375 0.56484375
0.72992494 0.72992494 0.72992494
0.84852941 0.84852941 0.84852941
0.096691176 0.096691176 0.096691176
0.11078431 0.11078431 0.11078431
0.14558824 0.14558824 0.14558824
0.19705882 0.19705882 0.19705882
0.28186275 0.28186275 0.28186275
0.41980699 0.41980699 0.41980699
0.58308824 0.58308824 0.58308824
0.73907782 0.73907782 0.73907782
0.84558824 0.84558824 0.84558824
0.13676471 0.13676471 0.13676471
0.1495098 0.1495098 0.1495098
0.17647059 0.17647059 0.17647059
0.23993566 0.23993566 0.23993566
0.32352941 0.32352941 0.32352941
0.46006434 0.46006434 0.46006434
0.60833333 0.60833333 0.60833333
0.75637255 0.75637255 0.75637255
0.86121324 0.86121324 0.86121324
0.18284314 0.18284314 0.18284314
0.19803922 0.19803922 0.19803922
0.23284314 0.23284314 0.23284314
0.29362745 0.29362745 0.29362745
0.38529412 0.38529412 0.38529412
0.5151348 0.5151348 0.5151348
0.65741422 0.65741422 0.65741422
0.79313725 0.79313725 0.79313725
0.88946078 0.88946078 0.88946078
0.25545343 0.25545343 0.25545343
0.27156863 0.27156863 0.27156863
0.30660233 0.30660233 0.30660233
0.37352941 0.37352941 0.37352941
0.46617647 0.46617647 0.46617647
0.58324908 0.58324908 0.58324908
0.71482843 0.71482843 0.71482843
0.8172258 0.8172258 0.8172258
0.89411765 0.89411765 0.89411765
0.34571078 0.34571078 0.34571078
0.37271752 0.37271752 0.37271752
0.41078431 0.41078431 0.41078431
0.47633272 0.47633272 0.47633272
0.5627451 0.5627451 0.5627451
0.66631434 0.66631434 0.66631434
0.76605392 0.76605392 0.76605392
0.85012255 0.85012255 0.85012255
0.92291667 0.92291667 0.92291667
0.47205882 0.47205882 0.47205882
0.49291513 0.49291513 0.49291513
0.52624081 0.52624081 0.52624081
0.58781403 0.58781403 0.58781403
0.65597426 0.65597426 0.65597426
0.73744638 0.73744638 0.73744638
0.81801471 0.81801471 0.81801471
0.88645833 0.88645833 0.88645833
0.94932598 0.94932598 0.94932598
0.58921569 0.58921569 0.58921569
0.60079657 0.60079657 0.60079657
0.62401961 0.62401961 0.62401961
0.69117647 0.69117647 0.69117647
0.74166667 0.74166667 0.74166667
0.79846814 0.79846814 0.79846814
0.86078431 0.86078431 0.86078431
0.91862745 0.91862745 0.91862745
0.975 0.975 0.975
0.043137255 0.043137255 0.043137255
0.091176471 0.091176471 0.091176471
0.13823529 0.13823529 0.13823529
0.19901961 0.19901961 0.19901961
0.29019608 0.29019608 0.29019608
0.43480392 0.43480392 0.43480392
0.59754902 0.59754902 0.59754902
0.74509804 0.74509804 0.74509804
0.86470588 0.86470588 0.86470588
0.087254902 0.087254902 0.087254902
0.10729167 0.10729167 0.10729167
0.15245098 0.15245098 0.15245098
0.22000613 0.22000613 0.22000613
0.30931373 0.30931373 0.30931373
0.44479167 0.44479167 0.44479167
0.60171569 0.60171569 0.60171569
0.75245098 0.75245098 0.75245098
0.85661765 0.85661765 0.85661765
0.12647059 0.12647059 0.12647059
0.14185049 0.14185049 0.14185049
0.18137255 0.18137255 0.18137255
0.24650735 0.24650735 0.24650735
0.33995098 0.33995098 0.33995098
0.47303922 0.47303922 0.47303922
0.62745098 0.62745098 0.62745098
0.7685049 0.7685049 0.7685049
0.86960784 0.86960784 0.86960784
0.17352941 0.17352941 0.17352941
0.19264706 0.19264706 0.19264706
0.22855392 0.22855392 0.22855392
0.28704044 0.28704044 0.28704044
0.39117647 0.39117647 0.39117647
0.5198223 0.5198223 0.5198223
0.66409314 0.66409314 0.66409314
0.78529412 0.78529412 0.78529412
0.88284314 0.88284314 0.88284314
0.23529412 0.23529412 0.23529412
0.25441176 0.25441176 0.25441176
0.28431373 0.28431373 0.28431373
0.35808824 0.35808824 0.35808824
0.45294118 0.45294118 0.45294118
0.58051471 0.58051471 0.58051471
0.70955882 0.70955882 0.70955882
0.81335784 0.81335784 0.81335784
0.89509804 0.89509804 0.89509804
0.31029412 0.31029412 0.31029412
0.33529412 0.33529412 0.33529412
0.36991422 0.36991422 0.36991422
0.44071691 0.44071691 0.44071691
0.53186275 0.53186275 0.53186275
0.64849877 0.64849877 0.64849877
0.7466299 0.7466299 0.7466299
0.83805147 0.83805147 0.83805147
0.90588235 0.90588235 0.90588235
0.41960784 0.41960784 0.41960784
0.43658088 0.43658088 0.43658088
0.47107843 0.47107843 0.47107843
0.54148284 0.54148284 0.54148284
0.61740196 0.61740196 0.61740196
0.71666667 0.71666667 0.71666667
0.79620098 0.79620098 0.79620098
0.8745098 0.8745098 0.8745098
0.92058824 0.92058824 0.92058824
0.55539216 0.55539216 0.55539216
0.56617647 0.56617647 0.56617647
0.59307598 0.59307598 0.59307598
0.64175858 0.64175858 0.64175858
0.70514706 0.70514706 0.70514706
0.77058824 0.77058824 0.77058824
0.84044118 0.84044118 0.84044118
0.90297181 0.90297181 0.90297181
0.95294118 0.95294118 0.95294118
0.6745098 0.6745098 0.6745098
0.67843137 0.67843137 0.67843137
0.6872549 0.6872549 0.6872549
0.72279412 0.72279412 0.72279412
0.7745098 0.7745098 0.7745098
0.82303922 0.82303922 0.82303922
0.87647059 0.87647059 0.87647059
0.92622549 0.92622549 0.92622549
0.96470588 0.96470588 0.96470588
0.07745098 0.07745098 0.07745098
0.12401961 0.12401961 0.12401961
0.1692402 0.1692402 0.1692402
0.24558824 0.24558824 0.24558824
0.34607843 0.34607843 0.34607843
0.48480392 0.48480392 0.48480392
0.64852941 0.64852941 0.64852941
0.77352941 0.77352941 0.77352941
0.8745098 0.8745098 0.8745098
0.12401961 0.12401961 0.12401961
0.15882353 0.15882353 0.15882353
0.20102635 0.20102635 0.20102635
0.27254902 0.27254902 0.27254902
0.37484681 0.37484681 0.37484681
0.51145833 0.51145833 0.51145833
0.66038603 0.66038603 0.66038603
0.78306526 0.78306526 0.78306526
0.87714461 0.87714461 0.87714461
0.16715686 0.16715686 0.16715686
0.20231311 0.20231311 0.20231311
0.23921569 0.23921569 0.23921569
0.30735294 0.30735294 0.30735294
0.40588235 0.40588235 0.40588235
0.54250919 0.54250919 0.54250919
0.68630515 0.68630515 0.68630515
0.79473039 0.79473039 0.79473039
0.8810049 0.8810049 0.8810049
0.23137255 0.23137255 0.23137255
0.25833333 0.25833333 0.25833333
0.28921569 0.28921569 0.28921569
0.35637255 0.35637255 0.35637255
0.46498162 0.46498162 0.46498162
0.5877451 0.5877451 0.5877451
0.71196385 0.71196385 0.71196385
0.81415441 0.81415441 0.81415441
0.89264706 0.89264706 0.89264706
0.30441176 0.30441176 0.30441176
0.32616422 0.32616422 0.32616422
0.36047794 0.36047794 0.36047794
0.42941176 0.42941176 0.42941176
0.52230392 0.52230392 0.52230392
0.64730392 0.64730392 0.64730392
0.75055147 0.75055147 0.75055147
0.83985907 0.83985907 0.83985907
0.91323529 0.91323529 0.91323529
0.39552696 0.39552696 0.39552696
0.41991422 0.41991422 0.41991422
0.4555913 0.4555913 0.4555913
0.51813725 0.51813725 0.51813725
0.6041973 0.6041973 0.6041973
0.69117647 0.69117647 0.69117647
0.78359375 0.78359375 0.78359375
0.8653799 0.8653799 0.8653799
0.9278799 0.9278799 0.9278799
0.5060049 0.5060049 0.5060049
0.52544424 0.52544424 0.52544424
0.56020221 0.56020221 0.56020221
0.61078431 0.61078431 0.61078431
0.67573529 0.67573529 0.67573529
0.75032169 0.75032169 0.75032169
0.82454044 0.82454044 0.82454044
0.88970588 0.88970588 0.88970588
0.95 0.95 0.95
0.62058824 0.62058824 0.62058824
0.63676471 0.63676471 0.63676471
0.67051164 0.67051164 0.67051164
0.70790441 0.70790441 0.70790441
0.75235907 0.75235907 0.75235907
0.80539216 0.80539216 0.80539216
0.86703431 0.86703431 0.86703431
0.92448683 0.92448683 0.92448683
0.96470588 0.96470588 0.96470588
0.71127451 0.71127451 0.71127451
0.73578431 0.73578431 0.73578431
0.74803922 0.74803922 0.74803922
0.77794118 0.77794118 0.77794118
0.81519608 0.81519608 0.81519608
0.85392157 0.85392157 0.85392157
0.9004902 0.9004902 0.9004902
0.94313725 0.94313725 0.94313725
0.96617647 0.96617647 0.96617647
0.13039216 0.13039216 0.13039216
0.18186275 0.18186275 0.18186275
0.24117647 0.24117647 0.24117647
0.31801471 0.31801471 0.31801471
0.41617647 0.41617647 0.41617647
0.54938725 0.54938725 0.54938725
0.7 0.7 0.7
0.80686275 0.80686275 0.80686275
0.89117647 0.89117647 0.89117647
0.17879902 0.17879902 0.17879902
0.21665135 0.21665135 0.21665135
0.27487745 0.27487745 0.27487745
0.34705882 0.34705882 0.34705882
0.45079657 0.45079657 0.45079657
0.57967218 0.57967218 0.57967218
0.71106005 0.71106005 0.71106005
0.81372549 0.81372549 0.81372549
0.89509804 0.89509804 0.89509804
0.24632353 0.24632353 0.24632353
0.275 0.275 0.275
0.32058824 0.32058824 0.32058824
0.38909314 0.38909314 0.38909314
0.48872549 0.48872549 0.48872549
0.61470588 0.61470588 0.61470588
0.73651961 0.73651961 0.73651961
0.82426471 0.82426471 0.82426471
0.90514706 0.90514706 0.90514706
0.3122549 0.3122549 0.3122549
0.33471201 0.33471201 0.33471201
0.37576593 0.37576593 0.37576593
0.44741115 0.44741115 0.44741115
0.55324755 0.55324755 0.55324755
0.66127451 0.66127451 0.66127451
0.76715686 0.76715686 0.76715686
0.84754902 0.84754902 0.84754902
0.91654412 0.91654412 0.91654412
0.40735294 0.40735294 0.40735294
0.40980392 0.40980392 0.40980392
0.45416667 0.45416667 0.45416667
0.52328431 0.52328431 0.52328431
0.6127451 0.6127451 0.6127451
0.70098039 0.70098039 0.70098039
0.79056373 0.79056373 0.79056373
0.86881127 0.86881127 0.86881127
0.92941176 0.92941176 0.92941176
0.49460784 0.49460784 0.49460784
0.51279105 0.51279105 0.51279105
0.54828431 0.54828431 0.54828431
0.60833333 0.60833333 0.60833333
0.68039216 0.68039216 0.68039216
0.74970895 0.74970895 0.74970895
0.82401961 0.82401961 0.82401961
0.88970588 0.88970588 0.88970588
0.9372549 0.9372549 0.9372549
0.59509804 0.59509804 0.59509804
0.61259191 0.61259191 0.61259191
0.64019608 0.64019608 0.64019608
0.69059436 0.69059436 0.69059436
0.74117647 0.74117647 0.74117647
0.79485294 0.79485294 0.79485294
0.8627451 0.8627451 0.8627451
0.91231618 0.91231618 0.91231618
0.95318627 0.95318627 0.95318627
0.70637255 0.70637255 0.70637255
0.71323529 0.71323529 0.71323529
0.73272059 0.73272059 0.73272059
0.76363358 0.76363358 0.76363358
0.80055147 0.80055147 0.80055147
0.84656863 0.84656863 0.84656863
0.89754902 0.89754902 0.89754902
0.93823529 0.93823529 0.93823529
0.96997549 0.96997549 0.96997549
0.78627451 0.78627451 0.78627451
0.79313725 0.79313725 0.79313725
0.80416667 0.80416667 0.80416667
0.82732843 0.82732843 0.82732843
0.85490196 0.85490196 0.85490196
0.89264706 0.89264706 0.89264706
0.92745098 0.92745098 0.92745098
0.95428922 0.95428922 0.95428922
0.97254902 0.97254902 0.97254902
0.19705882 0.19705882 0.19705882
0.25931373 0.25931373 0.25931373
0.31776961 0.31776961 0.31776961
0.40520833 0.40520833 0.40520833
0.51004902 0.51004902 0.51004902
0.64264706 0.64264706 0.64264706
0.74803922 0.74803922 0.74803922
0.83333333 0.83333333 0.83333333
0.91029412 0.91029412 0.91029412
0.2745098 0.2745098 0.2745098
0.31759344 0.31759344 0.31759344
0.36862745 0.36862745 0.36862745
0.44738817 0.44738817 0.44738817
0.54957108 0.54957108 0.54957108
0.66550245 0.66550245 0.66550245
0.75984988 0.75984988 0.75984988
0.84160539 0.84160539 0.84160539
0.91415441 0.91415441 0.91415441
0.35294118 0.35294118 0.35294118
0.37990196 0.37990196 0.37990196
0.42512255 0.42512255 0.42512255
0.49394914 0.49394914 0.49394914
0.59178922 0.59178922 0.59178922
0.70071998 0.70071998 0.70071998
0.78648897 0.78648897 0.78648897
0.8595435 0.8595435 0.8595435
0.92205882 0.92205882 0.92205882
0.42873775 0.42873775 0.42873775
0.44803922 0.44803922 0.44803922
0.48809743 0.48809743 0.48809743
0.55631127 0.55631127 0.55631127
0.63946078 0.63946078 0.63946078
0.72941176 0.72941176 0.72941176
0.81292892 0.81292892 0.81292892
0.8745098 0.8745098 0.8745098
0.93382353 0.93382353 0.93382353
0.52941176 0.52941176 0.52941176
0.54313725 0.54313725 0.54313725
0.57457108 0.57457108 0.57457108
0.62775735 0.62775735 0.62775735
0.70147059 0.70147059 0.70147059
0.77254902 0.77254902 0.77254902
0.83210784 0.83210784 0.83210784
0.89751838 0.89751838 0.89751838
0.94117647 0.94117647 0.94117647
0.6127451 0.6127451 0.6127451
0.621875 0.621875 0.621875
0.65579044 0.65579044 0.65579044
0.69705882 0.69705882 0.69705882
0.75407475 0.75407475 0.75407475
0.80919884 0.80919884 0.80919884
0.86265319 0.86265319 0.86265319
0.91127451 0.91127451 0.91127451
0.94509804 0.94509804 0.94509804
0.69901961 0.69901961 0.69901961
0.70294118 0.70294118 0.70294118
0.73578431 0.73578431 0.73578431
0.7622549 0.7622549 0.7622549
0.80618873 0.80618873 0.80618873
0.85026042 0.85026042 0.85026042
0.88872549 0.88872549 0.88872549
0.93550858 0.93550858 0.93550858
0.96078431 0.96078431 0.96078431
0.78627451 0.78627451 0.78627451
0.79024969 0.79024969 0.79024969
0.80232843 0.80232843 0.80232843
0.82401961 0.82401961 0.82401961
0.85882353 0.85882353 0.85882353
0.88572304 0.88572304 0.88572304
0.92352941 0.92352941 0.92352941
0.95441176 0.95441176 0.95441176
0.97647059 0.97647059 0.97647059
0.84803922 0.84803922 0.84803922
0.85196078 0.85196078 0.85196078
0.8622549 0.8622549 0.8622549
0.87794118 0.87794118 0.87794118
0.9004902 0.9004902 0.9004902
0.92745098 0.92745098 0.92745098
0.94901961 0.94901961 0.94901961
0.96519608 0.96519608 0.96519608
0.97647059 0.97647059 0.97647059
0.34117647 0.34117647 0.34117647
0.34117647 0.34117647 0.34117647
0.44607843 0.44607843 0.44607843
0.51323529 0.51323529 0.51323529
0.63137255 0.63137255 0.63137255
0.71666667 0.71666667 0.71666667
0.79509804 0.79509804 0.79509804
0.86764706 0.86764706 0.86764706
0.9372549 0.9372549 0.9372549
0.36421569 0.36421569 0.36421569
0.4254902 0.4254902 0.4254902
0.48247549 0.48247549 0.48247549
0.55539216 0.55539216 0.55539216
0.64656863 0.64656863 0.64656863
0.72028186 0.72028186 0.72028186
0.79889706 0.79889706 0.79889706
0.86372549 0.86372549 0.86372549
0.9254902 0.9254902 0.9254902
0.46568627 0.46568627 0.46568627
0.4877451 0.4877451 0.4877451
0.53333333 0.53333333 0.53333333
0.60294118 0.60294118 0.60294118
0.68431373 0.68431373 0.68431373
0.75036765 0.75036765 0.75036765
0.8245098 0.8245098 0.8245098
0.88321078 0.88321078 0.88321078
0.94019608 0.94019608 0.94019608
0.51421569 0.51421569 0.51421569
0.55441176 0.55441176 0.55441176
0.60147059 0.60147059 0.60147059
0.66470588 0.66470588 0.66470588
0.72401961 0.72401961 0.72401961
0.78970588 0.78970588 0.78970588
0.85085784 0.85085784 0.85085784
0.90116422 0.90116422 0.90116422
0.94509804 0.94509804 0.94509804
0.65490196 0.65490196 0.65490196
0.65686275 0.65686275 0.65686275
0.68872549 0.68872549 0.68872549
0.72720588 0.72720588 0.72720588
0.7754902 0.7754902 0.7754902
0.81985294 0.81985294 0.81985294
0.87598039 0.87598039 0.87598039
0.91421569 0.91421569 0.91421569
0.94901961 0.94901961 0.94901961
0.7245098 0.7245098 0.7245098
0.71991422 0.71991422 0.71991422
0.74742647 0.74742647 0.74742647
0.77401961 0.77401961 0.77401961
0.81397059 0.81397059 0.81397059
0.85 0.85 0.85
0.88762255 0.88762255 0.88762255
0.93008578 0.93008578 0.93008578
0.95294118 0.95294118 0.95294118
0.79803922 0.79803922 0.79803922
0.79901961 0.79901961 0.79901961
0.81372549 0.81372549 0.81372549
0.82794118 0.82794118 0.82794118
0.85882353 0.85882353 0.85882353
0.89693627 0.89693627 0.89693627
0.91960784 0.91960784 0.91960784
0.95036765 0.95036765 0.95036765
0.96078431 0.96078431 0.96078431
0.85588235 0.85588235 0.85588235
0.85974265 0.85974265 0.85974265
0.87414216 0.87414216 0.87414216
0.88547794 0.88547794 0.88547794
0.91053922 0.91053922 0.91053922
0.92745098 0.92745098 0.92745098
0.94656863 0.94656863 0.94656863
0.97303922 0.97303922 0.97303922
0.97303922 0.97303922 0.97303922
0.91372549 0.91372549 0.91372549
0.91078431 0.91078431 0.91078431
0.88921569 0.88921569 0.88921569
0.94215686 0.94215686 0.94215686
0.94509804 0.94509804 0.94509804
0.95686275 0.95686275 0.95686275
0.96078431 0.96078431 0.96078431
0.97647059 0.97647059 0.97647059
0.97647059 0.97647059 0.97647059
