site/assets/luts/ocio-aces--ocioutilityap0-to-gamma22-encoded-adobergb--da00784a5.cube
# LUTr-Project: LUTr — LUTrepository
# LUTr-Schema-Version: 1
# LUTr-ID: ocio-aces--ocioutilityap0-to-gamma22-encoded-adobergb--da00784a5
# LUTr-Title: OCIO.Utility.AP0 to Gamma2.2 Encoded AdobeRGB
# LUTr-Collection: OCIO ACES
# LUTr-Collection-ID: aswf-opencolorio-config-aces
# LUTr-Source: https://github.com/AcademySoftwareFoundation/OpenColorIO-Config-ACES
# LUTr-Source-File: submissions/aswf-opencolorio-config-aces/opencolorio_config_aces/clf/transforms/ocio/utility/OCIO.Utility.AP0_to_Gamma2.2_Encoded_AdobeRGB.clf
# LUTr-Source-Format: CLF
# LUTr-Source-SHA256: 7da68d311310cb79e83ae915cde59880325d5309740e2af70f24d28a5e901b01
# LUTr-License: BSD-3-Clause
# LUTr-License-URL: https://github.com/AcademySoftwareFoundation/OpenColorIO-Config-ACES/blob/main/LICENSE
# LUTr-Tags: technical, aces, ocio, clf, color-management, cube
# LUTr-Transform-Class: color-space-conversion
# LUTr-Input-Color-Space: ACES2065-1
# LUTr-Output-Color-Space: 2.2 gamma-corrected AdobeRGB primaries, D65 white point
# LUTr-Color-Space-Confidence: descriptor-only
# LUTr-Conversion-Method: CLF operations evaluated as float and sampled to 33x33x33 3D CUBE
# LUTr-Conversion-Date: 2026-07-27
# LUTr-Conversion-Tool: LUTr scripts/convert-all-to-cube.mjs
# LUTr-Conversion-Grid: 33x33x33
# LUTr-Conversion-Warning: A sampled 3D CUBE is bounded to DOMAIN_MIN/MAX 0..1 and cannot preserve CLF values outside its input domain.
# LUTr-Upstream-ID: urn:aswf:ocio:transformId:1.0:OCIO:Utility:AP0_to_Gamma2.2_Encoded_AdobeRGB:1.0
# LUTr-Upstream-Name: AP0 to Gamma 2.2 Encoded AdobeRGB
# LUTr-Upstream-Input-Descriptor: ACES2065-1
# LUTr-Upstream-Output-Descriptor: 2.2 gamma-corrected AdobeRGB primaries, D65 white point
# LUTr-Upstream-Operations: Matrix → Exponent
# LUTr-Note: Preserve this metadata and the upstream license notices when redistributing.
TITLE "OCIO.Utility.AP0 to Gamma2.2 Encoded AdobeRGB"
LUT_3D_SIZE 5
DOMAIN_MIN 0 0 0
DOMAIN_MAX 1 1 1
0 0 0
0.68211634 -0.069119979 -0.0065313815
0.93484343 -0.13823996 -0.013062763
1.12411 -0.20735994 -0.019594144
1.281207 -0.27647991 -0.026125526
-0.1049984 0.6148915 -0.022543695
0.60081736 0.55511681 -0.029075077
0.88124679 0.48639794 -0.035606458
1.0816572 0.4034153 -0.04213784
1.2451295 0.29195872 -0.048669221
-0.2099968 0.84271149 -0.04508739
0.50352219 0.8030043 -0.051618772
0.82342282 0.76079001 -0.058150153
1.0371056 0.71556021 -0.064681535
1.2077526 0.6666105 -0.071212916
-0.3149952 1.0133252 -0.067631085
0.3757068 0.98180411 -0.074162467
0.76026303 0.94902004 -0.080693848
0.99013136 0.91481803 -0.08722523
1.1689342 0.87900916 -0.093756611
-0.41999359 1.1549398 -0.090174781
0.12942557 1.1281239 -0.096706162
0.69007936 1.1005209 -0.10323754
0.94031909 1.0720616 -0.10976893
1.1285046 1.042666 -0.11630031
-0.076141681 -0.024059793 0.55971317
0.62443153 -0.093179772 0.55371833
0.89636047 -0.16229975 0.54764464
1.0935217 -0.23141973 0.54148906
1.2551687 -0.30053971 0.53524841
-0.18114008 0.59490065 0.53868154
0.53240135 0.53240135 0.53240135
0.83979146 0.45954745 0.52603105
1.0495761 0.36918947 0.51956686
1.2181621 0.23821477 0.51300475
-0.28613848 0.82914843 0.51661581
0.41559508 0.78861722 0.51000808
0.77823545 0.74541911 0.50329606
1.0033045 0.69898731 0.49647493
1.1797554 0.64852421 0.48953953
-0.39113688 1.0024879 0.4933574
0.23139971 0.97054298 0.48636858
0.71019957 0.93728445 0.4792572
0.95432023 0.90254658 0.47201696
1.1397874 0.86612615 0.46464103
-0.49613527 1.1456909 0.46870325
-0.064995196 1.1186083 0.46126363
0.63327156 1.0907156 0.45367726
0.9021173 1.06194 0.44593561
1.0980635 1.0321975 0.43802933
-0.15228336 -0.048119587 0.76708934
0.55951399 -0.11723957 0.76299463
0.85578614 -0.18635954 0.75887339
1.0618713 -0.25547952 0.75472514
1.2284659 -0.3245995 0.75054937
-0.25728176 0.57406978 0.75284281
0.4513481 0.50845952 0.74865444
0.79572341 0.43066914 0.74443777
1.0162735 0.33065505 0.74019226
1.1904589 0.16327736 0.73591735
-0.36228016 0.81531394 0.7382654
0.29622065 0.77390827 0.73397702
0.72965838 0.72965838 0.72965838
0.96807926 0.68192922 0.72530887
1.1509379 0.62981179 0.72092785
-0.46727856 0.99150821 0.72333435
-0.036138478 0.95912292 0.71893889
0.655497 0.92536995 0.71451097
0.91682009 0.89007171 0.71004989
1.1097182 0.85300913 0.70555494
-0.57227696 1.1363515 0.70802422
-0.14113688 1.1089946 0.70351373
0.56957488 1.0808033 0.6989683
0.86186932 1.0517014 0.69438714
1.0665751 1.0216002 0.68976945
-0.22842504 -0.07217938 0.92239271
0.48398984 -0.14129936 0.91911375
0.81276217 -0.21041934 0.91582069
1.0290469 -0.27953932 0.91251338
1.2010483 -0.34865929 0.90919163
-0.33342344 0.5522904 0.91101509
0.34732152 0.48308273 0.90768676
0.74851392 0.39925765 0.90434372
0.98160768 0.28579145 0.90098581
1.1619602 -0.0054795224 0.89761281
-0.43842184 0.80119204 0.89946445
-0.0072817599 0.75885617 0.89608459
0.67685349 0.71347842 0.89268937
0.93124542 0.66434341 0.88927859
1.1212279 0.61040763 0.88585205
-0.54342024 0.98038077 0.88773314
-0.11228016 0.94753743 0.88429941
0.59468016 0.91326858 0.88084962
0.87738356 0.87738356 0.87738356
1.0786386 0.83964565 0.87390099
-0.64841864 1.1269193 0.8758129
-0.21727856 1.0992799 0.87232281
0.49591435 1.0707809 0.86881589
0.81923024 1.0413419 0.86529191
1.0339303 1.0108693 0.86175064
-0.30456672 -0.096239173 1.0512993
0.39068688 -0.16535915 1.0484979
0.76681637 -0.23447913 1.0456875
0.99491612 -0.30359911 1.042868
1.1728586 -0.37271909 1.0400393
-0.40956512 0.52942885 1.0415917
0.17475737 0.45599667 1.0387589
0.69743094 0.3645592 1.0359167
0.94540764 0.2302851 1.0330652
1.1325976 -0.029539316 1.0302042
-0.51456352 0.78676514 1.0317744
-0.083423441 0.74343722 1.0289091
0.61857455 0.69684599 1.0260342
0.89257559 0.64618078 1.0231496
1.0905424 0.59023394 1.0202552
-0.61956192 0.96909977 1.0218437
-0.18842184 0.93577951 1.0189449
0.52529324 0.90097179 1.0160361
0.83569721 0.86447145 1.0131174
1.046446 0.8260221 1.0101885
-0.72456032 1.1173913 1.011796
-0.29342024 1.0894611 1.0088625
0.40597169 1.0606447 1.0059187
0.77374745 1.0308572 1.0029646
1 1 1
