site/assets/luts/ocio-aces--ocioutilityap0-to-gamma18-encoded-rec709--6469cdc90.cube
# LUTr-Project: LUTr — LUTrepository
# LUTr-Schema-Version: 1
# LUTr-ID: ocio-aces--ocioutilityap0-to-gamma18-encoded-rec709--6469cdc90
# LUTr-Title: OCIO.Utility.AP0 to Gamma1.8 Encoded Rec709
# LUTr-Collection: OCIO ACES
# LUTr-Collection-ID: aswf-opencolorio-config-aces
# LUTr-Source: https://github.com/AcademySoftwareFoundation/OpenColorIO-Config-ACES
# LUTr-Source-File: submissions/aswf-opencolorio-config-aces/opencolorio_config_aces/clf/transforms/ocio/utility/OCIO.Utility.AP0_to_Gamma1.8_Encoded_Rec709.clf
# LUTr-Source-Format: CLF
# LUTr-Source-SHA256: 09021806122c632ad5057b1ef352f603c421bcd26c759f5b76d6266e53ac0fa8
# LUTr-License: BSD-3-Clause
# LUTr-License-URL: https://github.com/AcademySoftwareFoundation/OpenColorIO-Config-ACES/blob/main/LICENSE
# LUTr-Tags: technical, aces, ocio, clf, color-management, cube
# LUTr-Transform-Class: color-space-conversion
# LUTr-Input-Color-Space: ACES2065-1
# LUTr-Output-Color-Space: 1.8 gamma-corrected Rec.709 primaries, D65 white point
# LUTr-Color-Space-Confidence: descriptor-only
# LUTr-Conversion-Method: CLF operations evaluated as float and sampled to 33x33x33 3D CUBE
# LUTr-Conversion-Date: 2026-07-27
# LUTr-Conversion-Tool: LUTr scripts/convert-all-to-cube.mjs
# LUTr-Conversion-Grid: 33x33x33
# LUTr-Conversion-Warning: A sampled 3D CUBE is bounded to DOMAIN_MIN/MAX 0..1 and cannot preserve CLF values outside its input domain.
# LUTr-Upstream-ID: urn:aswf:ocio:transformId:1.0:OCIO:Utility:AP0_to_Gamma1.8_Encoded_Rec709:1.0
# LUTr-Upstream-Name: AP0 to Gamma 1.8 Encoded Rec.709
# LUTr-Upstream-Input-Descriptor: ACES2065-1
# LUTr-Upstream-Output-Descriptor: 1.8 gamma-corrected Rec.709 primaries, D65 white point
# LUTr-Upstream-Operations: Matrix → Exponent
# LUTr-Note: Preserve this metadata and the upstream license notices when redistributing.
TITLE "OCIO.Utility.AP0 to Gamma1.8 Encoded Rec709"
LUT_3D_SIZE 33
DOMAIN_MIN 0 0 0
DOMAIN_MAX 1 1 1
0 0 0
0.2437627 -0.0086399973 -0.00048056453
0.35826645 -0.017279995 -0.00096112906
0.44878116 -0.025919992 -0.0014416936
0.52655656 -0.034559989 -0.0019222581
0.59605169 -0.043199987 -0.0024028227
0.65958916 -0.051839984 -0.0028833872
0.71856518 -0.060479981 -0.0033639517
0.77389834 -0.069119979 -0.0038445162
0.82623195 -0.077759976 -0.0043250808
0.87603773 -0.086399973 -0.0048056453
0.92367406 -0.095039971 -0.0052862098
0.96942093 -0.10367997 -0.0057667744
1.0135021 -0.11231997 -0.0062473389
1.0561 -0.12095996 -0.0067279034
1.0973655 -0.12959996 -0.007208468
1.1374251 -0.13823996 -0.0076890325
1.1763864 -0.14687995 -0.008169597
1.2143416 -0.15551995 -0.0086501615
1.2513705 -0.16415995 -0.0091307261
1.2875429 -0.17279995 -0.0096112906
1.3229198 -0.18143994 -0.010091855
1.3575556 -0.19007994 -0.01057242
1.3914984 -0.19871994 -0.011052984
1.4247914 -0.20735994 -0.011533549
1.4574733 -0.21599993 -0.012014113
1.4895791 -0.22463993 -0.012494678
1.5211406 -0.23327993 -0.012975242
1.5521866 -0.24191992 -0.013455807
1.5827437 -0.25055992 -0.013936371
1.6128359 -0.25919992 -0.014416936
1.6424854 -0.26783992 -0.0148975
1.6717129 -0.27647991 -0.015378065
-0.035441593 0.17387608 -0.0047804792
0.17491759 0.15345293 -0.0052610438
0.31098958 0.13057304 -0.0057416083
0.41005911 0.10389538 -0.0062221728
0.49279534 0.069987326 -0.0067027374
0.56564291 -0.00030251511 -0.0071833019
0.63164663 -0.0089425124 -0.0076638664
0.69253833 -0.01758251 -0.008144431
0.74941696 -0.026222507 -0.0086249955
0.80303271 -0.034862504 -0.00910556
0.85392527 -0.043502502 -0.0095861245
0.9024986 -0.052142499 -0.010066689
0.94906461 -0.060782496 -0.010547254
0.9938702 -0.069422494 -0.011027818
1.0371149 -0.078062491 -0.011508383
1.0789626 -0.086702488 -0.011988947
1.1195502 -0.095342486 -0.012469512
1.1589932 -0.10398248 -0.012950076
1.1973903 -0.11262248 -0.013430641
1.2348267 -0.12126248 -0.013911205
1.2713762 -0.12990247 -0.01439177
1.3071038 -0.13854247 -0.014872334
1.3420667 -0.14718247 -0.015352899
1.3763155 -0.15582247 -0.015833463
1.4098957 -0.16446246 -0.016314028
1.4428478 -0.17310246 -0.016794593
1.4752086 -0.18174246 -0.017275157
1.5070112 -0.19038246 -0.017755722
1.5382857 -0.19902245 -0.018236286
1.5690595 -0.20766245 -0.018716851
1.5993579 -0.21630245 -0.019197415
1.6292039 -0.22494245 -0.01967798
1.6586188 -0.23358244 -0.020158544
-0.070883187 0.25555167 -0.0095609585
0.06801584 0.24091773 -0.010041523
0.25708242 0.22553507 -0.010522088
0.36815879 0.20926267 -0.011002652
0.45707211 0.19190771 -0.011483217
0.53386572 0.17319379 -0.011963781
0.60267802 0.15269862 -0.012444346
0.66570421 0.12971416 -0.01292491
0.72427831 0.10286279 -0.013405475
0.77928441 0.068564968 -0.013886039
0.83134489 -0.00060503022 -0.014366604
0.88091797 -0.0092450275 -0.014847168
0.92835283 -0.017885025 -0.015327733
0.97392298 -0.026525022 -0.015808297
1.0178475 -0.035165019 -0.016288862
1.0603051 -0.043805017 -0.016769426
1.101444 -0.052445014 -0.017249991
1.1413886 -0.061085011 -0.017730556
1.1802449 -0.069725009 -0.01821112
1.2181036 -0.078365006 -0.018691685
1.2550434 -0.087005003 -0.019172249
1.2911332 -0.095645001 -0.019652814
1.3264333 -0.104285 -0.020133378
1.3609974 -0.112925 -0.020613943
1.394873 -0.12156499 -0.021094507
1.4281029 -0.13020499 -0.021575072
1.4607253 -0.13884499 -0.022055636
1.492775 -0.14748498 -0.022536201
1.5242835 -0.15612498 -0.023016765
1.5552792 -0.16476498 -0.02349733
1.5857885 -0.17340498 -0.023977894
1.6158353 -0.18204497 -0.024458459
1.6454415 -0.19068497 -0.024939023
-0.10632478 0.32011586 -0.014341438
-0.027522087 0.30799197 -0.014822002
0.19200269 0.29547359 -0.015302567
0.32203336 0.28251568 -0.015783131
0.41895931 0.26906372 -0.016263696
0.50049708 0.25505067 -0.01674426
0.57254971 0.24039249 -0.017224825
0.63797527 0.22498129 -0.017705389
0.69842132 0.20867463 -0.018185954
0.75494242 0.19127737 -0.018666519
0.8082628 0.17250935 -0.019147083
0.85890582 0.15194132 -0.019627648
0.90726458 0.12885069 -0.020108212
0.95364342 0.10182183 -0.020588777
0.99828378 0.067118603 -0.021069341
1.0413811 -0.00090754533 -0.021549906
1.0830964 -0.0095475426 -0.02203047
1.1235641 -0.01818754 -0.022511035
1.1628978 -0.026827537 -0.022991599
1.2011947 -0.035467535 -0.023472164
1.2385388 -0.044107532 -0.023952728
1.2750029 -0.052747529 -0.024433293
1.3106512 -0.061387527 -0.024913857
1.3455401 -0.070027524 -0.025394422
1.3797198 -0.078667521 -0.025874986
1.4132351 -0.087307519 -0.026355551
1.4461262 -0.095947516 -0.026836116
1.4784294 -0.10458751 -0.02731668
1.5101776 -0.11322751 -0.027797245
1.5414006 -0.12186751 -0.028277809
1.5721256 -0.13050751 -0.028758374
1.6023775 -0.1391475 -0.029238938
1.6321792 -0.1477875 -0.029719503
-0.14176637 0.3755931 -0.019121917
-0.06296368 0.36496588 -0.019602482
0.099965227 0.3540851 -0.020083046
0.26987147 0.34292997 -0.020563611
0.3778429 0.33147667 -0.021044175
0.46524445 0.31969759 -0.02152474
0.54109567 0.30756056 -0.022005304
0.60924657 0.2950276 -0.022485869
0.67177465 0.28205338 -0.022966433
0.72995562 0.26858299 -0.023446998
0.78464086 0.25454889 -0.023927562
0.8364328 0.23986633 -0.024408127
0.88577667 0.22442643 -0.024888691
0.93301282 0.20808525 -0.025369256
0.97840844 0.19064537 -0.02584982
1.022178 0.17182273 -0.026330385
1.0644968 0.15118099 -0.026810949
1.1055104 0.12798258 -0.027291514
1.1453412 0.1007723 -0.027772079
1.1840933 0.06564686 -0.028252643
1.2218563 -0.0012100604 -0.028733208
1.2587077 -0.0098500578 -0.029213772
1.2947155 -0.018490055 -0.029694337
1.3299394 -0.027130052 -0.030174901
1.3644322 -0.03577005 -0.030655466
1.3982411 -0.044410047 -0.03113603
1.4314082 -0.053050044 -0.031616595
1.4639716 -0.061690042 -0.032097159
1.4959655 -0.070330039 -0.032577724
1.5274212 -0.078970036 -0.033058288
1.5583669 -0.087610034 -0.033538853
1.5888287 -0.096250031 -0.034019417
1.6188302 -0.10489003 -0.034499982
-0.17720797 0.42516401 -0.023902396
-0.098405274 0.41556243 -0.024382961
-0.01960258 0.40577999 -0.024863525
0.20794906 0.39580512 -0.02534409
0.3327821 0.38562495 -0.025824654
0.42771075 0.37522508 -0.026305219
0.50810515 0.3645893 -0.026785783
0.5793905 0.35369928 -0.027266348
0.64425408 0.34253414 -0.027746912
0.70426493 0.33106992 -0.028227477
0.76043572 0.31927889 -0.028708042
0.81346596 0.30712867 -0.029188606
0.86386339 0.29458108 -0.029669171
0.91201062 0.28159047 -0.030149735
0.9582047 0.26810157 -0.0306303
1.0026818 0.25404632 -0.031110864
1.0456335 0.23933924 -0.031591429
1.0872177 0.22387047 -0.032071993
1.1275666 0.20749454 -0.032552558
1.1667919 0.19001169 -0.033033122
1.2049895 0.17113391 -0.033513687
1.242242 0.15041758 -0.033994251
1.2786214 0.12710973 -0.034474816
1.3141909 0.099713944 -0.03495538
1.3490063 0.064148233 -0.035435945
1.3831173 -0.0015125755 -0.035916509
1.4165681 -0.010152573 -0.036397074
1.4493986 -0.01879257 -0.036877639
1.4816446 -0.027432568 -0.037358203
1.5133387 -0.036072565 -0.037838768
1.5445104 -0.044712562 -0.038319332
1.5751868 -0.053352559 -0.038799897
1.6053925 -0.061992557 -0.039280461
-0.21264956 0.47048532 -0.028682875
-0.13384687 0.46164466 -0.02916344
-0.055044174 0.45266642 -0.029644005
0.12522108 0.4435434 -0.030124569
0.28219297 0.43426773 -0.030605134
0.38733239 0.42483077 -0.031085698
0.47330353 0.41522303 -0.031566263
0.54824916 0.40543406 -0.032046827
0.61575895 0.39545223 -0.032527392
0.67780152 0.38526462 -0.033007956
0.73559782 0.37485677 -0.033488521
0.78996821 0.36421241 -0.033969085
0.84149606 0.35331313 -0.03444965
0.89061415 0.34213794 -0.034930214
0.93765425 0.33066277 -0.035410779
0.9828775 0.31885974 -0.035891343
1.0264939 0.3066963 -0.036371908
1.0686754 0.29413401 -0.036852472
1.1095649 0.28112695 -0.037333037
1.1492828 0.26761946 -0.037813602
1.1879317 0.25354294 -0.038294166
1.2255998 0.23881123 -0.038774731
1.2623635 0.2233134 -0.039255295
1.29829 0.20690248 -0.03973586
1.3334381 0.18937631 -0.040216424
1.3678601 0.17044286 -0.040696989
1.4016026 0.14965106 -0.041177553
1.4347074 0.12623205 -0.041658118
1.4672121 0.098646526 -0.042138682
1.4991506 0.062621058 -0.042619247
1.5305538 -0.0018150907 -0.043099811
1.5614497 -0.010455088 -0.043580376
1.5918642 -0.019095085 -0.04406094
-0.24809115 0.51255295 -0.033463355
-0.16928846 0.50430669 -0.033943919
-0.090485767 0.49595112 -0.034424484
-0.011683074 0.48748137 -0.034905048
0.22297168 0.47889223 -0.035385613
0.34325998 0.47017803 -0.035866177
0.43632122 0.46133266 -0.036346742
0.51562315 0.45234948 -0.036827306
0.58616727 0.44322126 -0.037307871
0.65048431 0.43394009 -0.037788435
0.71007001 0.42449731 -0.038269
0.76589745 0.41488342 -0.038749565
0.81864263 0.40508789 -0.039230129
0.86879829 0.39509908 -0.039710694
0.91673698 0.38490401 -0.040191258
0.96274868 0.37448817 -0.040671823
1.0070645 0.36383521 -0.041152387
1.0498721 0.35292664 -0.041632952
1.0913265 0.34174138 -0.042113516
1.1315577 0.33025522 -0.042594081
1.1706757 0.31844015 -0.043074645
1.2087747 0.30626343 -0.04355521
1.2459364 0.2936864 -0.044035774
1.2822317 0.28066282 -0.044516339
1.317723 0.26713665 -0.044996903
1.3524655 0.25303877 -0.045477468
1.3865082 0.23828228 -0.045958033
1.4198949 0.22275521 -0.046438597
1.4526651 0.20630907 -0.046919162
1.4848542 0.18873922 -0.047399726
1.5164946 0.16974956 -0.047880291
1.5476153 0.14888139 -0.048360855
1.5782433 0.12534947 -0.04884142
-0.28353275 0.55202213 -0.038243834
-0.20473005 0.54425736 -0.038724398
-0.12592736 0.53640294 -0.039204963
-0.047124667 0.5284554 -0.039685528
0.14692234 0.52041108 -0.040166092
0.29409829 0.51226602 -0.040646657
0.39663941 0.50401601 -0.041127221
0.48125429 0.49565652 -0.041607786
0.55532875 0.48718269 -0.04208835
0.62221668 0.47858926 -0.042568915
0.68378582 0.46987058 -0.043049479
0.74120561 0.4610205 -0.043530044
0.79526698 0.45203237 -0.044010608
0.84653508 0.44289893 -0.044491173
0.8954307 0.43361225 -0.044971737
0.94227738 0.42416365 -0.045452302
0.98733037 0.41454358 -0.045932866
1.0307953 0.40474148 -0.046413431
1.072841 0.39474568 -0.046893996
1.1136076 0.38454314 -0.04737456
1.1532137 0.37411928 -0.047855125
1.1917603 0.3634577 -0.048335689
1.2293341 0.35253982 -0.048816254
1.2660109 0.34134444 -0.049296818
1.3018565 0.32984727 -0.049777383
1.3369294 0.31802012 -0.050257947
1.3712811 0.30583007 -0.050738512
1.4049578 0.29323824 -0.051219076
1.4380006 0.28019808 -0.051699641
1.4704469 0.26665314 -0.052180205
1.5023303 0.25253379 -0.05266077
1.5336812 0.23775238 -0.053141334
1.5645277 0.22219591 -0.053621899
-0.31897434 0.58935172 -0.043024313
-0.24017165 0.58198763 -0.043504878
-0.16136895 0.57454822 -0.043985442
-0.08256626 0.56703094 -0.044466007
-0.0037635671 0.55943307 -0.044946571
0.23722468 0.55175174 -0.045427136
0.353488 0.54398388 -0.0459077
0.44479784 0.53612626 -0.046388265
0.52305446 0.5281754 -0.046868829
0.59288194 0.52012762 -0.047349394
0.65666716 0.51197896 -0.047829959
0.71583737 0.50372519 -0.048310523
0.7713282 0.49536179 -0.048791088
0.82379325 0.48688386 -0.049271652
0.87371087 0.47828614 -0.049752217
0.92144392 0.46956297 -0.050232781
0.96727556 0.46070817 -0.050713346
1.0114319 0.45171508 -0.05119391
1.054097 0.4425764 -0.051674475
1.095423 0.43328421 -0.052155039
1.1355376 0.42382977 -0.052635604
1.1745492 0.41420351 -0.053116168
1.2125505 0.40439484 -0.053596733
1.249622 0.39439203 -0.054077297
1.2858338 0.384182 -0.054557862
1.3212475 0.3737501 -0.055038426
1.3559176 0.36307988 -0.055518991
1.3898924 0.35215265 -0.055999556
1.4232155 0.34094714 -0.05648012
1.4559258 0.32943891 -0.056960685
1.4880583 0.31759964 -0.057441249
1.5196451 0.30539623 -0.057921814
1.5507152 0.29278953 -0.058402378
-0.35441593 0.62487822 -0.047804792
-0.27561324 0.61785456 -0.048285357
-0.19681055 0.61076644 -0.048765922
-0.11800785 0.60361189 -0.049246486
-0.03920516 0.59638885 -0.049727051
0.16631321 0.58909513 -0.050207615
0.30562991 0.58172844 -0.05068818
0.40577491 0.57428635 -0.051168744
0.48910133 0.56676629 -0.051649309
0.56233685 0.55916555 -0.052129873
0.62862124 0.55148124 -0.052610438
0.68972852 0.5437103 -0.053091002
0.74677966 0.53584947 -0.053571567
0.80053765 0.52789528 -0.054052131
0.8515502 0.51984404 -0.054532696
0.90022661 0.51169177 -0.05501326
0.94688244 0.50343424 -0.055493825
0.99176724 0.49506691 -0.055974389
1.0350825 0.48658488 -0.056454954
1.0769936 0.47798287 -0.056935519
1.1176386 0.46925519 -0.057416083
1.1571339 0.46039567 -0.057896648
1.195579 0.4513976 -0.058377212
1.2330595 0.4422537 -0.058857777
1.2696498 0.43295597 -0.059338341
1.3054153 0.42349569 -0.059818906
1.3404135 0.41386322 -0.06029947
1.3746953 0.40404796 -0.060780035
1.4083065 0.39403812 -0.061260599
1.4412878 0.38382058 -0.061741164
1.473676 0.37338063 -0.062221728
1.5055046 0.36270173 -0.062702293
1.5368036 0.35176514 -0.063182857
-0.38985753 0.65885724 -0.052585272
-0.31105483 0.65212767 -0.053065836
-0.23225214 0.64534208 -0.053546401
-0.15344945 0.63849892 -0.054026965
-0.074646754 0.63159658 -0.05450753
0.047537731 0.62463336 -0.054988094
0.25082311 0.61760748 -0.055468659
0.36348454 0.61051707 -0.055949223
0.45314716 0.60336016 -0.056429788
0.53040225 0.59613467 -0.056910352
0.59953631 0.58883844 -0.057390917
0.6628038 0.58146915 -0.057871482
0.72156779 0.57402438 -0.058352046
0.77672853 0.56650154 -0.058832611
0.82891822 0.55889793 -0.059313175
0.87860145 0.55121064 -0.05979374
0.92613171 0.5434366 -0.060274304
0.97178556 0.53557257 -0.060754869
1.0157843 0.52761504 -0.061235433
1.0583084 0.51956033 -0.061715998
1.0995073 0.51140445 -0.062196562
1.1395064 0.50314316 -0.062677127
1.1784125 0.49477189 -0.063157691
1.2163169 0.48628575 -0.063638256
1.253299 0.47767944 -0.06411882
1.289428 0.46894725 -0.064599385
1.3247646 0.460083 -0.065079949
1.3593626 0.45107995 -0.065560514
1.3932701 0.4419308 -0.066041079
1.4265299 0.43262753 -0.066521643
1.4591806 0.42316139 -0.067002208
1.4912569 0.41352271 -0.067482772
1.5227905 0.40370084 -0.067963337
-0.42529912 0.69148851 -0.057365751
-0.34649643 0.68501644 -0.057846315
-0.26769373 0.67849508 -0.05832688
-0.18889104 0.67192318 -0.058807445
-0.11008835 0.66529945 -0.059288009
-0.031285654 0.65862254 -0.059768574
0.18404174 0.65189104 -0.060249138
0.31682346 0.64510346 -0.060729703
0.41474874 0.63825826 -0.061210267
0.49684891 0.63135382 -0.061690832
0.56927577 0.62438843 -0.062171396
0.63497401 0.61736032 -0.062651961
0.69563053 0.61026762 -0.063132525
0.75232062 0.60310834 -0.06361309
0.8057807 0.59588042 -0.064093654
0.85654182 0.58858167 -0.064574219
0.90500216 0.58120978 -0.065054783
0.95146964 0.57376231 -0.065535348
0.99618828 0.5662367 -0.066015912
1.0393554 0.5586302 -0.066496477
1.0811335 0.55093992 -0.066977042
1.121658 0.5431628 -0.067457606
1.1610435 0.53529555 -0.067938171
1.199388 0.52733469 -0.068418735
1.2367758 0.5192765 -0.0688993
1.2732804 0.511117 -0.069379864
1.3089663 0.50285194 -0.069860429
1.3438903 0.49447674 -0.070340993
1.3781028 0.48598648 -0.070821558
1.4116489 0.47737586 -0.071302122
1.444569 0.46863915 -0.071782687
1.4768995 0.45977016 -0.072263251
1.5086735 0.45076212 -0.072743816
-0.46074071 0.72293167 -0.06214623
-0.38193802 0.7166876 -0.062626795
-0.30313533 0.71039971 -0.063107359
-0.22433263 0.70406698 -0.063587924
-0.14552994 0.69768835 -0.064068488
-0.066727247 0.69126272 -0.064549053
0.085978657 0.68478894 -0.065029617
0.26385562 0.67826583 -0.065510182
0.37326581 0.67169214 -0.065990746
0.46137517 0.66506658 -0.066471311
0.5376695 0.65838778 -0.066951875
0.60613212 0.65165434 -0.06743244
0.66889531 0.64486477 -0.067913005
0.72726203 0.63801752 -0.068393569
0.78209898 0.63111098 -0.068874134
0.83401798 0.62414343 -0.069354698
0.88347035 0.61711309 -0.069835263
0.93080059 0.61001808 -0.070315827
0.97627888 0.60285644 -0.070796392
1.0201218 0.59562607 -0.071276956
1.0625064 0.5883248 -0.071757521
1.1035794 0.58095031 -0.072238085
1.1434642 0.57350015 -0.07271865
1.1822657 0.56597175 -0.073199214
1.220074 0.55836237 -0.073679779
1.2569674 0.55066911 -0.074160343
1.2930141 0.54288888 -0.074640908
1.3282741 0.53501841 -0.075121473
1.3628007 0.52705421 -0.075602037
1.3966413 0.51899254 -0.076082602
1.4298382 0.51082942 -0.076563166
1.4624296 0.50256058 -0.077043731
1.49445 0.49418144 -0.077524295
-0.49618231 0.75331676 -0.066926709
-0.41737961 0.74727651 -0.067407274
-0.33857692 0.74119694 -0.067887839
-0.25977423 0.73507722 -0.068368403
-0.18097153 0.72891647 -0.068848968
-0.10216884 0.72271377 -0.069329532
-0.023366147 0.71646819 -0.069810097
0.20049751 0.71017875 -0.070290661
0.32770918 0.70384443 -0.070771226
0.42356986 0.69746417 -0.07125179
0.50450103 0.69103687 -0.071732355
0.57614767 0.68456139 -0.072212919
0.64127635 0.67803653 -0.072693484
0.70149274 0.67146105 -0.073174048
0.75782913 0.66483364 -0.073654613
0.81099661 0.65815295 -0.074135177
0.86151026 0.65141757 -0.074615742
0.90975764 0.64462601 -0.075096306
0.95603922 0.63777671 -0.075576871
1.0005937 0.63086806 -0.076057436
1.0436144 0.62389834 -0.076538
1.0852607 0.61686577 -0.077018565
1.1256659 0.60976847 -0.077499129
1.1649426 0.60260445 -0.077979694
1.2031873 0.59537164 -0.078460258
1.2404832 0.58806785 -0.078940823
1.2769028 0.58069074 -0.079421387
1.3125097 0.57323789 -0.079901952
1.34736 0.56570671 -0.080382516
1.3815035 0.55809444 -0.080863081
1.4149849 0.55039818 -0.081343645
1.4478442 0.54261485 -0.08182421
1.4801174 0.53474116 -0.082304774
-0.5316239 0.78275142 -0.071707189
-0.45282121 0.77689483 -0.072187753
-0.37401851 0.77100272 -0.072668318
-0.29521582 0.76507435 -0.073148882
-0.21641313 0.75910901 -0.073629447
-0.13761043 0.75310592 -0.074110011
-0.058807741 0.74706431 -0.074590576
0.11378025 0.74098335 -0.07507114
0.27639227 0.73486221 -0.075551705
0.38284619 0.7287 -0.076032269
0.46948744 0.72249582 -0.076512834
0.544859 0.71624872 -0.076993399
0.61267099 0.70995773 -0.077473963
0.67494276 0.70362181 -0.077954528
0.73292082 0.69723993 -0.078435092
0.7874401 0.69081096 -0.078915657
0.83909291 0.68433377 -0.079396221
0.88831788 0.67780716 -0.079876786
0.93545081 0.67122988 -0.08035735
0.98075571 0.66460063 -0.080837915
1.0244447 0.65791806 -0.081318479
1.0666913 0.65118073 -0.081799044
1.1076396 0.64438718 -0.082279608
1.147411 0.63753583 -0.082760173
1.1861088 0.63062507 -0.083240737
1.2238219 0.62365318 -0.083721302
1.2606272 0.61661838 -0.084201866
1.2965923 0.60951877 -0.084682431
1.3317763 0.60235238 -0.085162996
1.3662319 0.59511712 -0.08564356
1.4000059 0.5878108 -0.086124125
1.4331403 0.58043109 -0.086604689
1.4656728 0.57297554 -0.087085254
-0.56706549 0.81132597 -0.076487668
-0.4882628 0.80563606 -0.076968232
-0.40946011 0.79991382 -0.077448797
-0.33065741 0.79415864 -0.077929362
-0.25185472 0.7883699 -0.078409926
-0.17305203 0.78254695 -0.078890491
-0.094249334 0.77668914 -0.079371055
-0.015446641 0.77079576 -0.07985162
0.21593683 0.76486611 -0.080332184
0.33831298 0.75889946 -0.080812749
0.4322464 0.75289504 -0.081293313
0.5120614 0.74685206 -0.081773878
0.58295462 0.74076972 -0.082254442
0.64752951 0.73464715 -0.082735007
0.70731603 0.72848349 -0.083215571
0.76330578 0.72227782 -0.083696136
0.81618581 0.7160292 -0.0841767
0.86645589 0.70973665 -0.084657265
0.91449332 0.70339915 -0.085137829
0.9605914 0.69701563 -0.085618394
1.0049836 0.690585 -0.086098959
1.0478595 0.6841061 -0.086579523
1.0893754 0.67757773 -0.087060088
1.1296624 0.67099866 -0.087540652
1.1688313 0.66436756 -0.088021217
1.2069771 0.6576831 -0.088501781
1.2441818 0.65094383 -0.088982346
1.280517 0.64414827 -0.08946291
1.3160454 0.63729487 -0.089943475
1.3508225 0.630382 -0.090424039
1.3848976 0.62340794 -0.090904604
1.4183147 0.6163709 -0.091385168
1.4511135 0.60926899 -0.091865733
-0.60250709 0.83911709 -0.081268147
-0.52370439 0.83357936 -0.081748712
-0.4449017 0.82801204 -0.082229276
-0.36609901 0.82241462 -0.082709841
-0.28729631 0.81678655 -0.083190405
-0.20849362 0.81112728 -0.08367097
-0.12969093 0.80543625 -0.084151534
-0.050888234 0.79971287 -0.084632099
0.13695308 0.79395652 -0.085112663
0.28848958 0.7881666 -0.085593228
0.39223849 0.78234244 -0.086073792
0.47748908 0.77648339 -0.086554357
0.55197339 0.77058876 -0.087034922
0.61915451 0.76465783 -0.087515486
0.68094716 0.75868987 -0.087996051
0.73854488 0.75268411 -0.088476615
0.79275239 0.74663977 -0.08895718
0.8441434 0.74055603 -0.089437744
0.89314433 0.73443204 -0.089918309
0.94008261 0.72826692 -0.090398873
0.98521626 0.72205977 -0.090879438
1.028753 0.71580963 -0.091360002
1.070863 0.70951552 -0.091840567
1.1116879 0.70317642 -0.092321131
1.151347 0.69679127 -0.092801696
1.1899421 0.69035897 -0.09328226
1.2275606 0.68387836 -0.093762825
1.2642786 0.67734824 -0.094243389
1.3001626 0.67076737 -0.094723954
1.3352711 0.66413443 -0.095204519
1.3696562 0.65744807 -0.095685083
1.4033641 0.65070685 -0.096165648
1.4364364 0.6439093 -0.096646212
-0.63794868 0.86619056 -0.086048626
-0.55914599 0.86079253 -0.086529191
-0.48034329 0.85536729 -0.087009755
-0.4015406 0.84991438 -0.08749032
-0.32273791 0.84443334 -0.087970885
-0.24393521 0.83892369 -0.088451449
-0.16513252 0.83338493 -0.088932014
-0.086329828 0.82781657 -0.089412578
-0.0075271342 0.82221808 -0.089893143
0.23053921 0.81658893 -0.090373707
0.3486573 0.81092856 -0.090854272
0.44078578 0.80523641 -0.091334836
0.5195335 0.79951188 -0.091815401
0.58969857 0.79375437 -0.092295965
0.65373473 0.78796326 -0.09277653
0.71310121 0.78213789 -0.093257094
0.76875118 0.77627761 -0.093737659
0.82134875 0.77038172 -0.094218223
0.87137904 0.7644495 -0.094698788
0.91920946 0.75848023 -0.095179352
0.96512638 0.75247314 -0.095659917
1.0093583 0.74642743 -0.096140482
1.0520909 0.74034229 -0.096621046
1.0934778 0.73421688 -0.097101611
1.1336477 0.7280503 -0.097582175
1.1727097 0.72184166 -0.09806274
1.2107573 0.71559 -0.098543304
1.2478716 0.70929433 -0.099023869
1.284123 0.70295364 -0.099504433
1.3195735 0.69656686 -0.099984998
1.3542779 0.69013289 -0.10046556
1.388285 0.68365056 -0.10094613
1.4216383 0.67711869 -0.10142669
-0.67339027 0.89260332 -0.090829106
-0.59458758 0.88733416 -0.09130967
-0.51578489 0.88203985 -0.091790235
-0.43698219 0.87671999 -0.092270799
-0.3581795 0.87137418 -0.092751364
-0.27937681 0.86600201 -0.093231928
-0.20057411 0.86060304 -0.093712493
-0.12177142 0.85517684 -0.094193057
