site/assets/luts/ocio-aces--sonyinputlinear-sgamut-to-aces2065-1--f5f13d4b6.cube
# LUTr-Project: LUTr — LUTrepository
# LUTr-Schema-Version: 1
# LUTr-ID: ocio-aces--sonyinputlinear-sgamut-to-aces2065-1--f5f13d4b6
# LUTr-Title: Sony.Input.Linear SGamut to ACES2065-1
# LUTr-Collection: OCIO ACES
# LUTr-Collection-ID: aswf-opencolorio-config-aces
# LUTr-Source: https://github.com/AcademySoftwareFoundation/OpenColorIO-Config-ACES
# LUTr-Source-File: submissions/aswf-opencolorio-config-aces/opencolorio_config_aces/clf/transforms/sony/input/Sony.Input.Linear_SGamut_to_ACES2065-1.clf
# LUTr-Source-Format: CLF
# LUTr-Source-SHA256: a67fdcea090b471aabd2bfaa6295ab321f1ab04733154f29c6f5afaa0aac835b
# LUTr-License: BSD-3-Clause
# LUTr-License-URL: https://github.com/AcademySoftwareFoundation/OpenColorIO-Config-ACES/blob/main/LICENSE
# LUTr-Tags: technical, aces, ocio, clf, color-management, cube
# LUTr-Transform-Class: color-space-conversion
# LUTr-Input-Color-Space: Linear S-Gamut
# LUTr-Output-Color-Space: ACES2065-1
# LUTr-Color-Space-Confidence: descriptor-only
# LUTr-Conversion-Method: CLF operations evaluated as float and sampled to 33x33x33 3D CUBE
# LUTr-Conversion-Date: 2026-07-27
# LUTr-Conversion-Tool: LUTr scripts/convert-all-to-cube.mjs
# LUTr-Conversion-Grid: 33x33x33
# LUTr-Conversion-Warning: A sampled 3D CUBE is bounded to DOMAIN_MIN/MAX 0..1 and cannot preserve CLF values outside its input domain.
# LUTr-Upstream-ID: urn:aswf:ocio:transformId:1.0:Sony:Input:Linear_SGamut_to_ACES2065-1:1.0
# LUTr-Upstream-Name: Linear S-Gamut to ACES2065-1
# LUTr-Upstream-Input-Descriptor: Linear S-Gamut
# LUTr-Upstream-Output-Descriptor: ACES2065-1
# LUTr-Upstream-Operations: Matrix
# LUTr-Note: Preserve this metadata and the upstream license notices when redistributing.
TITLE "Sony.Input.Linear SGamut to ACES2065-1"
LUT_3D_SIZE 9
DOMAIN_MIN 0 0 0
DOMAIN_MAX 1 1 1
0 0 0
0.094122824 0.0027134622 -0.0011770066
0.18824565 0.0054269244 -0.0023540132
0.28236847 0.0081403865 -0.0035310198
0.3764913 0.010853849 -0.0047080264
0.47061412 0.013567311 -0.005885033
0.56473695 0.016280773 -0.0070620396
0.65885977 0.018994235 -0.0082390462
0.7529826 0.021707697 -0.0094160527
0.017921277 0.12691485 0.00042130223
0.1120441 0.12962832 -0.00075570436
0.20616693 0.13234178 -0.001932711
0.30028975 0.13505524 -0.0031097175
0.39441257 0.1377687 -0.0042867241
0.4885354 0.14048217 -0.0054637307
0.58265822 0.14319563 -0.0066407373
0.67678105 0.14590909 -0.0078177439
0.77090387 0.14862255 -0.0089947505
0.035842554 0.25382971 0.00084260446
0.12996538 0.25654317 -0.00033440213
0.2240882 0.25925663 -0.0015114087
0.31821103 0.2619701 -0.0026884153
0.41233385 0.26468356 -0.0038654219
0.50645668 0.26739702 -0.0050424285
0.6005795 0.27011048 -0.0062194351
0.69470233 0.27282394 -0.0073964417
0.78882515 0.27553741 -0.0085734483
0.053763831 0.38074456 0.0012639067
0.14788666 0.38345803 0.000086900103
0.24200948 0.38617149 -0.0010901065
0.3361323 0.38888495 -0.0022671131
0.43025513 0.39159841 -0.0034441197
0.52437795 0.39431187 -0.0046211263
0.61850078 0.39702534 -0.0057981329
0.7126236 0.3997388 -0.0069751395
0.80674643 0.40245226 -0.0081521461
0.071685108 0.50765942 0.0016852089
0.16580793 0.51037288 0.00050820234
0.25993076 0.51308634 -0.00066880426
0.35405358 0.5157998 -0.0018458109
0.44817641 0.51851327 -0.0030228174
0.54229923 0.52122673 -0.004199824
0.63642205 0.52394019 -0.0053768306
0.73054488 0.52665365 -0.0065538372
0.8246677 0.52936712 -0.0077308438
0.089606385 0.63457427 0.0021065112
0.18372921 0.63728773 0.00092950457
0.27785203 0.6400012 -0.00024750203
0.37197486 0.64271466 -0.0014245086
0.46609768 0.64542812 -0.0026015152
0.56022051 0.64814158 -0.0037785218
0.65434333 0.65085505 -0.0049555284
0.74846616 0.65356851 -0.006132535
0.84258898 0.65628197 -0.0073095416
0.10752766 0.76148913 0.0025278134
0.20165049 0.76420259 0.0013508068
0.29577331 0.76691605 0.00017380021
0.38989614 0.76962951 -0.0010032064
0.48401896 0.77234298 -0.002180213
0.57814178 0.77505644 -0.0033572196
0.67226461 0.7777699 -0.0045342262
0.76638743 0.78048336 -0.0057112328
0.86051026 0.78319682 -0.0068882394
0.12544894 0.88840398 0.0029491156
0.21957176 0.89111744 0.001772109
0.31369459 0.89383091 0.00059510244
0.40781741 0.89654437 -0.00058190415
0.50194024 0.89925783 -0.0017589107
0.59606306 0.90197129 -0.0029359173
0.69018589 0.90468475 -0.0041129239
0.78430871 0.90739822 -0.0052899305
0.87843153 0.91011168 -0.0064669371
0.14337022 1.0153188 0.0033704179
0.23749304 1.0180323 0.0021934113
0.33161587 1.0207458 0.0010164047
0.42573869 1.0234592 -0.00016060192
0.51986151 1.0261727 -0.0013376085
0.61398434 1.0288861 -0.0025146151
0.70810716 1.0315996 -0.0036916217
0.80222999 1.0343131 -0.0048686283
0.89635281 1.0370265 -0.0060456349
0.012955899 -0.0046283166 0.1257557
0.10707872 -0.0019148544 0.1245787
0.20120155 0.00079860774 0.12340169
0.29532437 0.0035120699 0.12222468
0.3894472 0.0062255321 0.12104768
0.48357002 0.0089389943 0.11987067
0.57769285 0.011652456 0.11869366
0.67181567 0.014365919 0.11751666
0.76593849 0.017079381 0.11633965
0.030877176 0.12228654 0.12617701
0.125 0.125 0.125
0.21912282 0.12771346 0.12382299
0.31324565 0.13042692 0.12264599
0.40736847 0.13314039 0.12146898
0.5014913 0.13585385 0.12029197
0.59561412 0.13856731 0.11911497
0.68973695 0.14128077 0.11793796
0.78385977 0.14399424 0.11676095
0.048798453 0.24920139 0.12659831
0.14292128 0.25191485 0.1254213
0.2370441 0.25462832 0.1242443
0.33116693 0.25734178 0.12306729
0.42528975 0.26005524 0.12189028
0.51941257 0.2627687 0.12071328
0.6135354 0.26548217 0.11953627
0.70765822 0.26819563 0.11835926
0.80178105 0.27090909 0.11718226
0.06671973 0.37611625 0.12701961
0.16084255 0.37882971 0.1258426
0.25496538 0.38154317 0.1246656
0.3490882 0.38425663 0.12348859
0.44321103 0.3869701 0.12231158
0.53733385 0.38968356 0.12113458
0.63145668 0.39239702 0.11995757
0.7255795 0.39511048 0.11878056
0.81970233 0.39782394 0.11760356
0.084641007 0.5030311 0.12744091
0.17876383 0.50574456 0.12626391
0.27288666 0.50845803 0.1250869
0.36700948 0.51117149 0.12390989
0.4611323 0.51388495 0.12273289
0.55525513 0.51659841 0.12155588
0.64937795 0.51931187 0.12037887
0.74350078 0.52202534 0.11920187
0.8376236 0.5247388 0.11802486
0.10256228 0.62994596 0.12786222
0.19668511 0.63265942 0.12668521
0.29080793 0.63537288 0.1255082
0.38493076 0.63808634 0.1243312
0.47905358 0.6407998 0.12315419
0.57317641 0.64351327 0.12197718
0.66729923 0.64622673 0.12080018
0.76142205 0.64894019 0.11962317
0.85554488 0.65165365 0.11844616
0.12048356 0.75686081 0.12828352
0.21460639 0.75957427 0.12710651
0.30872921 0.76228773 0.1259295
0.40285203 0.7650012 0.1247525
0.49697486 0.76771466 0.12357549
0.59109768 0.77042812 0.12239848
0.68522051 0.77314158 0.12122148
0.77934333 0.77585505 0.12004447
0.87346616 0.77856851 0.11886747
0.13840484 0.88377566 0.12870482
0.23252766 0.88648913 0.12752781
0.32665049 0.88920259 0.12635081
0.42077331 0.89191605 0.1251738
0.51489614 0.89462951 0.12399679
0.60901896 0.89734298 0.12281979
0.70314178 0.90005644 0.12164278
0.79726461 0.9027699 0.12046577
0.89138743 0.90548336 0.11928877
0.15632611 1.0106905 0.12912612
0.25044894 1.013404 0.12794912
0.34457176 1.0161174 0.12677211
0.43869459 1.0188309 0.1255951
0.53281741 1.0215444 0.1244181
0.62694024 1.0242578 0.12324109
0.72106306 1.0269713 0.12206408
0.81518589 1.0296848 0.12088708
0.90930871 1.0323982 0.11971007
0.025911797 -0.0092566332 0.25151141
0.12003462 -0.0065431711 0.2503344
0.21415745 -0.0038297089 0.2491574
0.30828027 -0.0011162467 0.24798039
0.40240309 0.0015972155 0.24680338
0.49652592 0.0043106777 0.24562638
0.59064874 0.0070241398 0.24444937
0.68477157 0.009737602 0.24327236
0.77889439 0.012451064 0.24209536
0.043833074 0.11765822 0.25193271
0.1379559 0.12037168 0.2507557
0.23207872 0.12308515 0.2495787
0.32620155 0.12579861 0.24840169
0.42032437 0.12851207 0.24722468
0.5144472 0.13122553 0.24604768
0.60857002 0.13393899 0.24487067
0.70269285 0.13665246 0.24369366
0.79681567 0.13936592 0.24251666
0.061754351 0.24457308 0.25235401
0.15587718 0.24728654 0.25117701
0.25 0.25 0.25
0.34412282 0.25271346 0.24882299
0.43824565 0.25542692 0.24764599
0.53236847 0.25814039 0.24646898
0.6264913 0.26085385 0.24529197
0.72061412 0.26356731 0.24411497
0.81473695 0.26628077 0.24293796
0.079675628 0.37148793 0.25277532
0.17379845 0.37420139 0.25159831
0.26792128 0.37691485 0.2504213
0.3620441 0.37962832 0.2492443
0.45616693 0.38234178 0.24806729
0.55028975 0.38505524 0.24689028
0.64441257 0.3877687 0.24571328
0.7385354 0.39048217 0.24453627
0.83265822 0.39319563 0.24335926
0.097596905 0.49840278 0.25319662
0.19171973 0.50111625 0.25201961
0.28584255 0.50382971 0.2508426
0.37996538 0.50654317 0.2496656
0.4740882 0.50925663 0.24848859
0.56821103 0.5119701 0.24731158
0.66233385 0.51468356 0.24613458
0.75645668 0.51739702 0.24495757
0.8505795 0.52011048 0.24378056
0.11551818 0.62531764 0.25361792
0.20964101 0.6280311 0.25244091
0.30376383 0.63074456 0.25126391
0.39788666 0.63345803 0.2500869
0.49200948 0.63617149 0.24890989
0.5861323 0.63888495 0.24773289
0.68025513 0.64159841 0.24655588
0.77437795 0.64431187 0.24537887
0.86850078 0.64702534 0.24420187
0.13343946 0.75223249 0.25403922
0.22756228 0.75494596 0.25286222
0.32168511 0.75765942 0.25168521
0.41580793 0.76037288 0.2505082
0.50993076 0.76308634 0.2493312
0.60405358 0.7657998 0.24815419
0.69817641 0.76851327 0.24697718
0.79229923 0.77122673 0.24580018
0.88642205 0.77394019 0.24462317
0.15136074 0.87914735 0.25446052
0.24548356 0.88186081 0.25328352
0.33960639 0.88457427 0.25210651
0.43372921 0.88728773 0.2509295
0.52785203 0.8900012 0.2497525
0.62197486 0.89271466 0.24857549
0.71609768 0.89542812 0.24739848
0.81022051 0.89814158 0.24622148
0.90434333 0.90085505 0.24504447
0.16928201 1.0060622 0.25488183
0.26340484 1.0087757 0.25370482
0.35752766 1.0114891 0.25252781
0.45165049 1.0142026 0.25135081
0.54577331 1.0169161 0.2501738
0.63989614 1.0196295 0.24899679
0.73401896 1.022343 0.24781979
0.82814178 1.0250564 0.24664278
0.92226461 1.0277699 0.24546577
0.038867696 -0.01388495 0.37726711
0.13299052 -0.011171488 0.37609011
0.22711334 -0.0084580255 0.3749131
0.32123617 -0.0057445633 0.37373609
0.41535899 -0.0030311011 0.37255909
0.50948182 -0.00031763895 0.37138208
0.60360464 0.0023958232 0.37020507
0.69772747 0.0051092854 0.36902807
0.79185029 0.0078227476 0.36785106
0.056788973 0.1130299 0.37768842
0.1509118 0.11574337 0.37651141
0.24503462 0.11845683 0.3753344
0.33915745 0.12117029 0.3741574
0.43328027 0.12388375 0.37298039
0.52740309 0.12659722 0.37180338
0.62152592 0.12931068 0.37062638
0.71564874 0.13202414 0.36944937
0.80977157 0.1347376 0.36827236
0.07471025 0.23994476 0.37810972
0.16883307 0.24265822 0.37693271
0.2629559 0.24537168 0.3757557
0.35707872 0.24808515 0.3745787
0.45120155 0.25079861 0.37340169
0.54532437 0.25351207 0.37222468
0.6394472 0.25622553 0.37104768
0.73357002 0.25893899 0.36987067
0.82769285 0.26165246 0.36869366
0.092631527 0.36685961 0.37853102
0.18675435 0.36957308 0.37735401
0.28087718 0.37228654 0.37617701
0.375 0.375 0.375
0.46912282 0.37771346 0.37382299
0.56324565 0.38042692 0.37264599
0.65736847 0.38314039 0.37146898
0.7514913 0.38585385 0.37029197
0.84561412 0.38856731 0.36911497
0.1105528 0.49377447 0.37895232
0.20467563 0.49648793 0.37777532
0.29879845 0.49920139 0.37659831
0.39292128 0.50191485 0.3754213
0.4870441 0.50462832 0.3742443
0.58116693 0.50734178 0.37306729
0.67528975 0.51005524 0.37189028
0.76941257 0.5127687 0.37071328
0.8635354 0.51548217 0.36953627
0.12847408 0.62068932 0.37937362
0.22259691 0.62340278 0.37819662
0.31671973 0.62611625 0.37701961
0.41084255 0.62882971 0.3758426
0.50496538 0.63154317 0.3746656
0.5990882 0.63425663 0.37348859
0.69321103 0.6369701 0.37231158
0.78733385 0.63968356 0.37113458
0.88145668 0.64239702 0.36995757
0.14639536 0.74760418 0.37979493
0.24051818 0.75031764 0.37861792
0.33464101 0.7530311 0.37744091
0.42876383 0.75574456 0.37626391
0.52288666 0.75845803 0.3750869
0.61700948 0.76117149 0.37390989
0.7111323 0.76388495 0.37273289
0.80525513 0.76659841 0.37155588
0.89937795 0.76931187 0.37037887
0.16431663 0.87451903 0.38021623
0.25843946 0.87723249 0.37903922
0.35256228 0.87994596 0.37786222
0.44668511 0.88265942 0.37668521
0.54080793 0.88537288 0.3755082
0.63493076 0.88808634 0.3743312
0.72905358 0.8907998 0.37315419
0.82317641 0.89351327 0.37197718
0.91729923 0.89622673 0.37080018
0.18223791 1.0014339 0.38063753
0.27636074 1.0041473 0.37946052
0.37048356 1.0068608 0.37828352
0.46460639 1.0095743 0.37710651
0.55872921 1.0122877 0.3759295
0.65285203 1.0150012 0.3747525
0.74697486 1.0177147 0.37357549
0.84109768 1.0204281 0.37239848
0.93522051 1.0231416 0.37122148
0.051823594 -0.018513266 0.50302282
0.14594642 -0.015799804 0.50184581
0.24006924 -0.013086342 0.5006688
0.33419207 -0.01037288 0.4994918
0.42831489 -0.0076594178 0.49831479
0.52243772 -0.0049459556 0.49713778
0.61656054 -0.0022324934 0.49596078
0.71068337 0.00048096879 0.49478377
0.80480619 0.003194431 0.49360676
0.069744871 0.10840159 0.50344412
0.1638677 0.11111505 0.50226711
0.25799052 0.11382851 0.50109011
0.35211334 0.11654197 0.4999131
0.44623617 0.11925544 0.49873609
0.54035899 0.1219689 0.49755909
0.63448182 0.12468236 0.49638208
0.72860464 0.12739582 0.49520507
0.82272747 0.13010929 0.49402807
0.087666148 0.23531644 0.50386542
0.18178897 0.2380299 0.50268842
0.2759118 0.24074337 0.50151141
0.37003462 0.24345683 0.5003344
0.46415745 0.24617029 0.4991574
0.55828027 0.24888375 0.49798039
0.65240309 0.25159722 0.49680338
0.74652592 0.25431068 0.49562638
0.84064874 0.25702414 0.49444937
0.10558743 0.3622313 0.50428672
0.19971025 0.36494476 0.50310972
0.29383307 0.36765822 0.50193271
0.3879559 0.37037168 0.5007557
0.48207872 0.37308515 0.4995787
0.57620155 0.37579861 0.49840169
0.67032437 0.37851207 0.49722468
0.7644472 0.38122553 0.49604768
0.85857002 0.38393899 0.49487067
0.1235087 0.48914615 0.50470803
0.21763153 0.49185961 0.50353102
0.31175435 0.49457308 0.50235401
0.40587718 0.49728654 0.50117701
0.5 0.5 0.5
0.59412282 0.50271346 0.49882299
0.68824565 0.50542692 0.49764599
0.78236847 0.50814039 0.49646898
0.8764913 0.51085385 0.49529197
0.14142998 0.61606101 0.50512933
0.2355528 0.61877447 0.50395232
0.32967563 0.62148793 0.50277532
0.42379845 0.62420139 0.50159831
0.51792128 0.62691485 0.5004213
0.6120441 0.62962832 0.4992443
0.70616693 0.63234178 0.49806729
0.80028975 0.63505524 0.49689028
0.89441257 0.6377687 0.49571328
0.15935126 0.74297586 0.50555063
0.25347408 0.74568932 0.50437362
0.34759691 0.74840278 0.50319662
0.44171973 0.75111625 0.50201961
0.53584255 0.75382971 0.5008426
0.62996538 0.75654317 0.4996656
0.7240882 0.75925663 0.49848859
0.81821103 0.7619701 0.49731158
0.91233385 0.76468356 0.49613458
0.17727253 0.86989071 0.50597193
0.27139536 0.87260418 0.50479493
0.36551818 0.87531764 0.50361792
0.45964101 0.8780311 0.50244091
0.55376383 0.88074456 0.50126391
0.64788666 0.88345803 0.5000869
0.74200948 0.88617149 0.49890989
0.8361323 0.88888495 0.49773289
0.93025513 0.89159841 0.49655588
0.19519381 0.99680557 0.50639324
0.28931663 0.99951903 0.50521623
0.38343946 1.0022325 0.50403922
0.47756228 1.004946 0.50286222
0.57168511 1.0076594 0.50168521
0.66580793 1.0103729 0.5005082
0.75993076 1.0130863 0.4993312
0.85405358 1.0157998 0.49815419
0.94817641 1.0185133 0.49697718
0.064779493 -0.023141583 0.62877852
0.15890232 -0.020428121 0.62760152
0.25302514 -0.017714659 0.62642451
0.34714797 -0.015001197 0.6252475
0.44127079 -0.012287734 0.6240705
0.53539361 -0.0095742722 0.62289349
0.62951644 -0.00686081 0.62171648
0.72363926 -0.0041473478 0.62053948
0.81776209 -0.0014338857 0.61936247
0.08270077 0.10377327 0.62919982
0.17682359 0.10648673 0.62802282
0.27094642 0.1092002 0.62684581
0.36506924 0.11191366 0.6256688
0.45919207 0.11462712 0.6244918
0.55331489 0.11734058 0.62331479
0.64743772 0.12005404 0.62213778
0.74156054 0.12276751 0.62096078
0.83568337 0.12548097 0.61978377
0.10062205 0.23068813 0.62962113
0.19474487 0.23340159 0.62844412
0.2888677 0.23611505 0.62726711
0.38299052 0.23882851 0.62609011
0.47711334 0.24154197 0.6249131
0.57123617 0.24425544 0.62373609
0.66535899 0.2469689 0.62255909
0.75948182 0.24968236 0.62138208
0.85360464 0.25239582 0.62020507
0.11854332 0.35760298 0.63004243
0.21266615 0.36031644 0.62886542
0.30678897 0.3630299 0.62768842
0.4009118 0.36574337 0.62651141
0.49503462 0.36845683 0.6253344
0.58915745 0.37117029 0.6241574
0.68328027 0.37388375 0.62298039
0.77740309 0.37659722 0.62180338
0.87152592 0.37931068 0.62062638
0.1364646 0.48451783 0.63046373
0.23058743 0.4872313 0.62928672
0.32471025 0.48994476 0.62810972
0.41883307 0.49265822 0.62693271
0.5129559 0.49537168 0.6257557
0.60707872 0.49808515 0.6245787
0.70120155 0.50079861 0.62340169
0.79532437 0.50351207 0.62222468
0.8894472 0.50622553 0.62104768
0.15438588 0.61143269 0.63088503
0.2485087 0.61414615 0.62970803
0.34263153 0.61685961 0.62853102
0.43675435 0.61957308 0.62735401
0.53087718 0.62228654 0.62617701
0.625 0.625 0.625
0.71912282 0.62771346 0.62382299
0.81324565 0.63042692 0.62264599
0.90736847 0.63314039 0.62146898
0.17230715 0.73834754 0.63130634
0.26642998 0.74106101 0.63012933
0.3605528 0.74377447 0.62895232
0.45467563 0.74648793 0.62777532
0.54879845 0.74920139 0.62659831
0.64292128 0.75191485 0.6254213
0.7370441 0.75462832 0.6242443
0.83116693 0.75734178 0.62306729
0.92528975 0.76005524 0.62189028
0.19022843 0.8652624 0.63172764
0.28435126 0.86797586 0.63055063
0.37847408 0.87068932 0.62937362
0.47259691 0.87340278 0.62819662
0.56671973 0.87611625 0.62701961
0.66084255 0.87882971 0.6258426
0.75496538 0.88154317 0.6246656
0.8490882 0.88425663 0.62348859
0.94321103 0.8869701 0.62231158
0.20814971 0.99217725 0.63214894
0.30227253 0.99489071 0.63097193
0.39639536 0.99760418 0.62979493
0.49051818 1.0003176 0.62861792
0.58464101 1.0030311 0.62744091
0.67876383 1.0057446 0.62626391
0.77288666 1.008458 0.6250869
0.86700948 1.0111715 0.62390989
0.9611323 1.0138849 0.62273289
0.077735391 -0.0277699 0.75453423
0.17185822 -0.025056438 0.75335722
0.26598104 -0.022342975 0.75218021
0.36010386 -0.019629513 0.75100321
0.45422669 -0.016916051 0.7498262
0.54834951 -0.014202589 0.74864919
0.64247234 -0.011489127 0.74747219
0.73659516 -0.0087756644 0.74629518
0.83071799 -0.0060622023 0.74511817
0.095656668 0.099144955 0.75495553
0.18977949 0.10185842 0.75377852
0.28390232 0.10457188 0.75260152
0.37802514 0.10728534 0.75142451
0.47214797 0.1099988 0.7502475
0.56627079 0.11271227 0.7490705
0.66039361 0.11542573 0.74789349
0.75451644 0.11813919 0.74671648
0.84863926 0.12085265 0.74553948
0.11357795 0.22605981 0.75537683
0.20770077 0.22877327 0.75419982
0.30182359 0.23148673 0.75302282
0.39594642 0.2342002 0.75184581
0.49006924 0.23691366 0.7506688
0.58419207 0.23962712 0.7494918
0.67831489 0.24234058 0.74831479
0.77243772 0.24505404 0.74713778
0.86656054 0.24776751 0.74596078
0.13149922 0.35297466 0.75579813
0.22562205 0.35568813 0.75462113
0.31974487 0.35840159 0.75344412
0.4138677 0.36111505 0.75226711
0.50799052 0.36382851 0.75109011
0.60211334 0.36654197 0.7499131
0.69623617 0.36925544 0.74873609
0.79035899 0.3719689 0.74755909
0.88448182 0.37468236 0.74638208
0.1494205 0.47988952 0.75621944
0.24354332 0.48260298 0.75504243
0.33766615 0.48531644 0.75386542
0.43178897 0.4880299 0.75268842
0.5259118 0.49074337 0.75151141
0.62003462 0.49345683 0.7503344
0.71415745 0.49617029 0.7491574
0.80828027 0.49888375 0.74798039
0.90240309 0.50159722 0.74680338
0.16734178 0.60680437 0.75664074
0.2614646 0.60951783 0.75546373
0.35558743 0.6122313 0.75428672
0.44971025 0.61494476 0.75310972
0.54383307 0.61765822 0.75193271
0.6379559 0.62037168 0.7507557
0.73207872 0.62308515 0.7495787
0.82620155 0.62579861 0.74840169
0.92032437 0.62851207 0.74722468
0.18526305 0.73371923 0.75706204
0.27938588 0.73643269 0.75588503
0.3735087 0.73914615 0.75470803
0.46763153 0.74185961 0.75353102
0.56175435 0.74457308 0.75235401
0.65587718 0.74728654 0.75117701
0.75 0.75 0.75
0.84412282 0.75271346 0.74882299
0.93824565 0.75542692 0.74764599
0.20318433 0.86063408 0.75748334
0.29730715 0.86334754 0.75630634
0.39142998 0.86606101 0.75512933
0.4855528 0.86877447 0.75395232
0.57967563 0.87148793 0.75277532
0.67379845 0.87420139 0.75159831
0.76792128 0.87691485 0.7504213
0.8620441 0.87962832 0.7492443
0.95616693 0.88234178 0.74806729
0.22110561 0.98754894 0.75790464
0.31522843 0.9902624 0.75672764
0.40935126 0.99297586 0.75555063
0.50347408 0.99568932 0.75437362
0.59759691 0.99840278 0.75319662
0.69171973 1.0011162 0.75201961
0.78584255 1.0038297 0.7508426
0.87996538 1.0065432 0.7496656
0.9740882 1.0092566 0.74848859
0.09069129 -0.032398216 0.88028993
0.18481411 -0.029684754 0.87911292
0.27893694 -0.026971292 0.87793592
0.37305976 -0.02425783 0.87675891
0.46718259 -0.021544368 0.8755819
0.56130541 -0.018830905 0.8744049
0.65542824 -0.016117443 0.87322789
0.74955106 -0.013403981 0.87205088
0.84367389 -0.010690519 0.87087388
0.10861257 0.094516638 0.88071123
0.20273539 0.0972301 0.87953423
0.29685822 0.099943562 0.87835722
0.39098104 0.10265702 0.87718021
0.48510386 0.10537049 0.87600321
0.57922669 0.10808395 0.8748262
0.67334951 0.11079741 0.87364919
0.76747234 0.11351087 0.87247219
0.86159516 0.11622434 0.87129518
0.12653384 0.22143149 0.88113253
0.22065667 0.22414495 0.87995553
0.31477949 0.22685842 0.87877852
0.40890232 0.22957188 0.87760152
0.50302514 0.23228534 0.87642451
0.59714797 0.2349988 0.8752475
0.69127079 0.23771227 0.8740705
0.78539361 0.24042573 0.87289349
0.87951644 0.24313919 0.87171648
0.14445512 0.34834635 0.88155384
0.23857795 0.35105981 0.88037683
0.33270077 0.35377327 0.87919982
0.42682359 0.35648673 0.87802282
0.52094642 0.3592002 0.87684581
0.61506924 0.36191366 0.8756688
0.70919207 0.36462712 0.8744918
0.80331489 0.36734058 0.87331479
0.89743772 0.37005404 0.87213778
0.1623764 0.4752612 0.88197514
0.25649922 0.47797466 0.88079813
0.35062205 0.48068813 0.87962113
0.44474487 0.48340159 0.87844412
0.5388677 0.48611505 0.87726711
0.63299052 0.48882851 0.87609011
0.72711334 0.49154197 0.8749131
0.82123617 0.49425544 0.87373609
0.91535899 0.4969689 0.87255909
0.18029767 0.60217606 0.88239644
0.2744205 0.60488952 0.88121944
0.36854332 0.60760298 0.88004243
0.46266615 0.61031644 0.87886542
0.55678897 0.6130299 0.87768842
0.6509118 0.61574337 0.87651141
0.74503462 0.61845683 0.8753344
0.83915745 0.62117029 0.8741574
0.93328027 0.62388375 0.87298039
0.19821895 0.72909091 0.88281774
0.29234178 0.73180437 0.88164074
0.3864646 0.73451783 0.88046373
0.48058743 0.7372313 0.87928672
0.57471025 0.73994476 0.87810972
0.66883307 0.74265822 0.87693271
0.7629559 0.74537168 0.8757557
0.85707872 0.74808515 0.8745787
0.95120155 0.75079861 0.87340169
0.21614023 0.85600576 0.88323905
0.31026305 0.85871923 0.88206204
0.40438588 0.86143269 0.88088503
0.4985087 0.86414615 0.87970803
0.59263153 0.86685961 0.87853102
0.68675435 0.86957308 0.87735401
0.78087718 0.87228654 0.87617701
0.875 0.875 0.875
0.96912282 0.87771346 0.87382299
0.23406151 0.98292062 0.88366035
0.32818433 0.98563408 0.88248334
0.42230715 0.98834754 0.88130634
0.51642998 0.99106101 0.88012933
0.6105528 0.99377447 0.87895232
0.70467563 0.99648793 0.87777532
0.79879845 0.99920139 0.87659831
0.89292128 1.0019149 0.8754213
0.9870441 1.0046283 0.8742443
0.10364719 -0.037026533 1.0060456
0.19777001 -0.034313071 1.0048686
0.29189284 -0.031599609 1.0036916
0.38601566 -0.028886146 1.0025146
0.48013849 -0.026172684 1.0013376
0.57426131 -0.023459222 1.0001606
0.66838413 -0.02074576 0.9989836
0.76250696 -0.018032298 0.99780659
0.85662978 -0.015318836 0.99662958
0.12156847 0.089888321 1.0064669
0.21569129 0.092601784 1.0052899
0.30981411 0.095315246 1.0041129
0.40393694 0.098028708 1.0029359
0.49805976 0.10074217 1.0017589
0.59218259 0.10345563 1.0005819
0.68630541 0.10616909 0.9994049
0.78042824 0.10888256 0.99822789
0.87455106 0.11159602 0.99705088
0.13948974 0.21680318 1.0068882
0.23361257 0.21951664 1.0057112
0.32773539 0.2222301 1.0045342
0.42185822 0.22494356 1.0033572
0.51598104 0.22765702 1.0021802
0.61010386 0.23037049 1.0010032
0.70422669 0.23308395 0.9998262
0.79834951 0.23579741 0.99864919
0.89247234 0.23851087 0.99747219
0.15741102 0.34371803 1.0073095
0.25153384 0.34643149 1.0061325
0.34565667 0.34914495 1.0049555
0.43977949 0.35185842 1.0037785
0.53390232 0.35457188 1.0026015
0.62802514 0.35728534 1.0014245
0.72214797 0.3599988 1.0002475
0.81627079 0.36271227 0.9990705
0.91039361 0.36542573 0.99789349
0.1753323 0.47063288 1.0077308
0.26945512 0.47334635 1.0065538
0.36357795 0.47605981 1.0053768
0.45770077 0.47877327 1.0041998
0.55182359 0.48148673 1.0030228
0.64594642 0.4842002 1.0018458
0.74006924 0.48691366 1.0006688
0.83419207 0.48962712 0.9994918
0.92831489 0.49234058 0.99831479
0.19325357 0.59754774 1.0081521
0.2873764 0.6002612 1.0069751
0.38149922 0.60297466 1.0057981
0.47562205 0.60568813 1.0046211
0.56974487 0.60840159 1.0034441
0.6638677 0.61111505 1.0022671
0.75799052 0.61382851 1.0010901
0.85211334 0.61654197 0.9999131
0.94623617 0.61925544 0.99873609
0.21117485 0.72446259 1.0085734
0.30529767 0.72717606 1.0073964
0.3994205 0.72988952 1.0062194
0.49354332 0.73260298 1.0050424
0.58766615 0.73531644 1.0038654
0.68178897 0.7380299 1.0026884
0.7759118 0.74074337 1.0015114
0.87003462 0.74345683 1.0003344
0.96415745 0.74617029 0.9991574
0.22909613 0.85137745 1.0089948
0.32321895 0.85409091 1.0078177
0.41734178 0.85680437 1.0066407
0.5114646 0.85951783 1.0054637
0.60558743 0.8622313 1.0042867
0.69971025 0.86494476 1.0031097
0.79383307 0.86765822 1.0019327
0.8879559 0.87037168 1.0007557
0.98207872 0.87308515 0.9995787
0.2470174 0.9782923 1.0094161
0.34114023 0.98100576 1.008239
0.43526305 0.98371923 1.007062
0.52938588 0.98643269 1.005885
0.6235087 0.98914615 1.004708
0.71763153 0.99185961 1.003531
0.81175435 0.99457308 1.002354
0.90587718 0.99728654 1.001177
1 1 1
