site/assets/luts/ocio-aces--ocioutilityap0-to-gamma22-encoded-adobergb--da00784a5.cube
# LUTr-Project: LUTr — LUTrepository
# LUTr-Schema-Version: 1
# LUTr-ID: ocio-aces--ocioutilityap0-to-gamma22-encoded-adobergb--da00784a5
# LUTr-Title: OCIO.Utility.AP0 to Gamma2.2 Encoded AdobeRGB
# LUTr-Collection: OCIO ACES
# LUTr-Collection-ID: aswf-opencolorio-config-aces
# LUTr-Source: https://github.com/AcademySoftwareFoundation/OpenColorIO-Config-ACES
# LUTr-Source-File: submissions/aswf-opencolorio-config-aces/opencolorio_config_aces/clf/transforms/ocio/utility/OCIO.Utility.AP0_to_Gamma2.2_Encoded_AdobeRGB.clf
# LUTr-Source-Format: CLF
# LUTr-Source-SHA256: 7da68d311310cb79e83ae915cde59880325d5309740e2af70f24d28a5e901b01
# LUTr-License: BSD-3-Clause
# LUTr-License-URL: https://github.com/AcademySoftwareFoundation/OpenColorIO-Config-ACES/blob/main/LICENSE
# LUTr-Tags: technical, aces, ocio, clf, color-management, cube
# LUTr-Transform-Class: color-space-conversion
# LUTr-Input-Color-Space: ACES2065-1
# LUTr-Output-Color-Space: 2.2 gamma-corrected AdobeRGB primaries, D65 white point
# LUTr-Color-Space-Confidence: descriptor-only
# LUTr-Conversion-Method: CLF operations evaluated as float and sampled to 33x33x33 3D CUBE
# LUTr-Conversion-Date: 2026-07-27
# LUTr-Conversion-Tool: LUTr scripts/convert-all-to-cube.mjs
# LUTr-Conversion-Grid: 33x33x33
# LUTr-Conversion-Warning: A sampled 3D CUBE is bounded to DOMAIN_MIN/MAX 0..1 and cannot preserve CLF values outside its input domain.
# LUTr-Upstream-ID: urn:aswf:ocio:transformId:1.0:OCIO:Utility:AP0_to_Gamma2.2_Encoded_AdobeRGB:1.0
# LUTr-Upstream-Name: AP0 to Gamma 2.2 Encoded AdobeRGB
# LUTr-Upstream-Input-Descriptor: ACES2065-1
# LUTr-Upstream-Output-Descriptor: 2.2 gamma-corrected AdobeRGB primaries, D65 white point
# LUTr-Upstream-Operations: Matrix → Exponent
# LUTr-Note: Preserve this metadata and the upstream license notices when redistributing.
TITLE "OCIO.Utility.AP0 to Gamma2.2 Encoded AdobeRGB"
LUT_3D_SIZE 33
DOMAIN_MIN 0 0 0
DOMAIN_MAX 1 1 1
0 0 0
0.26498249 -0.0086399973 -0.00081642268
0.36315966 -0.017279995 -0.0016328454
0.43668424 -0.025919992 -0.002449268
0.49771191 -0.034559989 -0.0032656907
0.5508631 -0.043199987 -0.0040821134
0.59847766 -0.051839984 -0.0048985361
0.64193213 -0.060479981 -0.0057149588
0.68211634 -0.069119979 -0.0065313815
0.71964425 -0.077759976 -0.0073478041
0.75496029 -0.086399973 -0.0081642268
0.78839825 -0.095039971 -0.0089806495
0.82021625 -0.10367997 -0.0097970722
0.85061873 -0.11231997 -0.010613495
0.87977079 -0.12095996 -0.011429918
0.90780804 -0.12959996 -0.01224634
0.93484343 -0.13823996 -0.013062763
0.96097221 -0.14687995 -0.013879186
0.98627559 -0.15551995 -0.014695608
1.0108234 -0.16415995 -0.015512031
1.0346764 -0.17279995 -0.016328454
1.0578874 -0.18143994 -0.017144876
1.0805032 -0.19007994 -0.017961299
1.1025652 -0.19871994 -0.018777722
1.12411 -0.20735994 -0.019594144
1.1451706 -0.21599993 -0.020410567
1.1657767 -0.22463993 -0.02122699
1.185955 -0.23327993 -0.022043412
1.2057297 -0.24191992 -0.022859835
1.225123 -0.25055992 -0.023676258
1.2441549 -0.25919992 -0.02449268
1.2628439 -0.26783992 -0.025309103
1.281207 -0.27647991 -0.026125526
-0.0131248 0.23886758 -0.0028179619
0.23340019 0.21564684 -0.0036343846
0.34233892 0.18895155 -0.0044508073
0.42019259 0.15671519 -0.0052672299
0.48369684 0.11341753 -0.0060836526
0.53849662 -0.00030251511 -0.0069000753
0.58730712 -0.0089425124 -0.007716498
0.63167887 -0.01758251 -0.0085329207
0.67259471 -0.026222507 -0.0093493434
0.71072335 -0.034862504 -0.010165766
0.74654381 -0.043502502 -0.010982189
0.78041292 -0.052142499 -0.011798611
0.81260485 -0.060782496 -0.012615034
0.84333554 -0.069422494 -0.013431457
0.87277864 -0.078062491 -0.014247879
0.90107621 -0.086702488 -0.015064302
0.92834621 -0.095342486 -0.015880725
0.95468782 -0.10398248 -0.016697147
0.98018538 -0.11262248 -0.01751357
1.0049113 -0.12126248 -0.018329993
1.0289283 -0.12990247 -0.019146416
1.0522912 -0.13854247 -0.019962838
1.075048 -0.14718247 -0.020779261
1.0972412 -0.15582247 -0.021595684
1.1189088 -0.16446246 -0.022412106
1.1400845 -0.17310246 -0.023228529
1.1607987 -0.18174246 -0.024044952
1.1810789 -0.19038246 -0.024861374
1.2009498 -0.19902245 -0.025677797
1.220434 -0.20766245 -0.02649422
1.2395522 -0.21630245 -0.027310642
1.2583231 -0.22494245 -0.028127065
1.2767641 -0.23358244 -0.028943488
-0.0262496 0.32736907 -0.0056359238
0.19560382 0.31194397 -0.0064523465
0.31987598 0.29554494 -0.0072687692
0.40288558 0.27797447 -0.0080851918
0.46917698 0.25895892 -0.0089016145
0.5257798 0.23810015 -0.0097180372
0.57587578 0.21477885 -0.01053446
0.62122204 0.18793367 -0.011350883
0.66290863 0.15543922 -0.012167305
0.70166611 0.11152745 -0.012983728
0.73801197 -0.00060503022 -0.013800151
0.77232839 -0.0092450275 -0.014616573
0.80490697 -0.017885025 -0.015432996
0.83597613 -0.026525022 -0.016249419
0.86571866 -0.035165019 -0.017065841
0.89428352 -0.043805017 -0.017882264
0.92179399 -0.052445014 -0.018698687
0.94835342 -0.061085011 -0.019515109
0.97404946 -0.069725009 -0.020331532
0.9989572 -0.078365006 -0.021147955
1.0231415 -0.087005003 -0.021964377
1.046659 -0.095645001 -0.0227808
1.0695593 -0.104285 -0.023597223
1.0918862 -0.112925 -0.024413645
1.1136785 -0.12156499 -0.025230068
1.1349711 -0.13020499 -0.026046491
1.155795 -0.13884499 -0.026862914
1.1761785 -0.14748498 -0.027679336
1.1961469 -0.15612498 -0.028495759
1.2157234 -0.16476498 -0.029312182
1.2349289 -0.17340498 -0.030128604
1.2537827 -0.18204497 -0.030945027
1.2723025 -0.19068497 -0.03176145
-0.039374399 0.39364755 -0.0084538857
0.14595124 0.38140253 -0.0092703084
0.29534022 0.36866687 -0.010086731
0.38463743 0.35538038 -0.010903154
0.45409715 0.34146966 -0.011719576
0.51268298 0.32684369 -0.012535999
0.56416562 0.31138723 -0.013352422
0.61054973 0.29495087 -0.014168844
0.65304977 0.27733497 -0.014985267
0.69246644 0.25826255 -0.01580169
0.72936017 0.23732974 -0.016618113
0.76414107 0.21390663 -0.017434535
0.79711978 0.18690913 -0.018250958
0.82853819 0.15415056 -0.019067381
0.85858894 0.10959815 -0.019883803
0.88742839 -0.00090754533 -0.020700226
0.91518545 -0.0095475426 -0.021516649
0.94196787 -0.01818754 -0.022333071
0.96786683 -0.026827537 -0.023149494
0.99296021 -0.035467535 -0.023965917
1.0173152 -0.044107532 -0.024782339
1.0409903 -0.052747529 -0.025598762
1.0640367 -0.061387527 -0.026415185
1.0864994 -0.070027524 -0.027231607
1.1084186 -0.078667521 -0.02804803
1.1298298 -0.087307519 -0.028864453
1.1507652 -0.095947516 -0.029680875
1.1712536 -0.10458751 -0.030497298
1.1913208 -0.11322751 -0.031313721
1.2109907 -0.12186751 -0.032130143
1.2302847 -0.13050751 -0.032946566
1.2492225 -0.1391475 -0.033762989
1.2678221 -0.1477875 -0.034579412
-0.052499199 0.44866074 -0.011271848
0.050278096 0.43824354 -0.01208827
0.2680759 0.42752058 -0.012904693
0.3652868 0.41646495 -0.013721116
0.43839143 0.40504563 -0.014537538
0.49917208 0.39322653 -0.015353961
0.55215645 0.38096522 -0.016170384
0.59964888 0.36821135 -0.016986806
0.64300911 0.35490433 -0.017803229
0.68311781 0.34097024 -0.018619652
0.72058351 0.3263173 -0.019436074
0.75584718 0.31082929 -0.020252497
0.78924027 0.29435535 -0.02106892
0.8210193 0.2766937 -0.021885342
0.85138752 0.25756391 -0.022701765
0.88050916 0.23655631 -0.023518188
0.90851917 0.21303013 -0.02433461
0.93552999 0.18587781 -0.025151033
0.96163646 0.15284885 -0.025967456
0.98691947 0.10762724 -0.026783879
1.0114486 -0.0012100604 -0.027600301
1.0352843 -0.0098500578 -0.028416724
1.0584794 -0.018490055 -0.029233147
1.0810804 -0.027130052 -0.030049569
1.1031285 -0.03577005 -0.030865992
1.1246604 -0.044410047 -0.031682415
1.1457089 -0.053050044 -0.032498837
1.1663036 -0.061690042 -0.03331526
1.1864712 -0.070330039 -0.034131683
1.2062358 -0.078970036 -0.034948105
1.2256195 -0.087610034 -0.035764528
1.2446423 -0.096250031 -0.036580951
1.2633227 -0.10489003 -0.037397373
-0.065623999 0.49657371 -0.014089809
-0.011731489 0.48737617 -0.014906232
0.23699411 0.47796562 -0.015722655
0.34462102 0.46832745 -0.016539078
0.42198007 0.45844533 -0.0173555
0.48520772 0.44830089 -0.018171923
0.53982556 0.43787341 -0.018988346
0.58850504 0.42713927 -0.019804768
0.63277681 0.41607146 -0.020621191
0.67361318 0.40463879 -0.021437614
0.71167675 0.39280496 -0.022254036
0.74744268 0.38052731 -0.023070459
0.78126528 0.36775516 -0.023886882
0.81341692 0.35442753 -0.024703304
0.84411229 0.34046993 -0.025519727
0.8735241 0.32578988 -0.02633615
0.90179371 0.31027014 -0.027152572
0.92903853 0.29375839 -0.027968995
0.95535731 0.27605065 -0.028785418
0.98083406 0.256863 -0.02960184
1.0055409 0.23577985 -0.030418263
1.0295404 0.21214928 -0.031234686
1.052887 0.18483959 -0.032051108
1.0756287 0.15153371 -0.032867531
1.0978079 0.10561206 -0.033683954
1.1194623 -0.0015125755 -0.034500377
1.1406257 -0.010152573 -0.035316799
1.1613284 -0.01879257 -0.036133222
1.1815977 -0.027432568 -0.036949645
1.2014583 -0.036072565 -0.037766067
1.2209328 -0.044712562 -0.03858249
1.2400418 -0.053352559 -0.039398913
1.2588039 -0.061992557 -0.040215335
-0.078748799 0.53949569 -0.016907771
-0.024856289 0.53118425 -0.017724194
0.20002681 0.52271384 -0.018540617
0.32235001 0.51407554 -0.019357039
0.40476507 0.50525955 -0.020173462
0.47074391 0.49625512 -0.020989885
0.52714728 0.48705036 -0.021806307
0.57710221 0.47763209 -0.02262273
0.62234213 0.46798567 -0.023439153
0.66394493 0.45809468 -0.024255576
0.70263426 0.4479407 -0.025071998
0.7389233 0.4375029 -0.025888421
0.77319144 0.42675756 -0.026704844
0.80572835 0.41567752 -0.027521266
0.83676108 0.40423145 -0.028337689
0.86647141 0.39238284 -0.029154112
0.89500756 0.38008879 -0.029970534
0.92249222 0.36729829 -0.030786957
0.94902828 0.35394995 -0.03160338
0.97470304 0.33996874 -0.032419802
0.9995913 0.32526144 -0.033236225
1.0237577 0.30970978 -0.034052648
1.0472587 0.29315997 -0.03486907
1.0701436 0.27540579 -0.035685493
1.0924561 0.25615978 -0.036501916
1.1142351 0.2350003 -0.037318338
1.1355152 0.21126402 -0.038134761
1.1563275 0.18379433 -0.038951184
1.1766999 0.15020474 -0.039767606
1.1966579 0.10354968 -0.040584029
1.2162245 -0.0018150907 -0.041400452
1.2354207 -0.010455088 -0.042216875
1.2542657 -0.019095085 -0.043033297
-0.091873599 0.57866758 -0.019725733
-0.037981089 0.57103644 -0.020542156
0.15216144 0.563281 -0.021358579
0.29806033 0.55539535 -0.022175001
0.38662375 0.54737308 -0.022991424
0.45572644 0.53920727 -0.023807847
0.51409233 0.53089041 -0.024624269
0.56542256 0.52241427 -0.025440692
0.61169329 0.51376992 -0.026257115
0.65410483 0.50494753 -0.027073537
0.69345001 0.49593629 -0.02788996
0.73028447 0.48672428 -0.028706383
0.76501521 0.47729828 -0.029522805
0.79795078 0.46764358 -0.030339228
0.82933159 0.45774371 -0.031155651
0.85934919 0.44758017 -0.031972073
0.88815913 0.43713201 -0.032788496
0.91588971 0.42637543 -0.033604919
0.94264822 0.41528314 -0.034421342
0.96852541 0.40382362 -0.035237764
0.9935989 0.39196018 -0.036054187
1.0179356 0.37964967 -0.03687061
1.0415939 0.36684074 -0.037687032
1.0646246 0.3534716 -0.038503455
1.0870728 0.33946666 -0.039319878
1.1089784 0.32473197 -0.0401363
1.130377 0.30914821 -0.040952723
1.1513004 0.29256009 -0.041769146
1.1717776 0.27475912 -0.042585568
1.1918343 0.25545424 -0.043401991
1.2114942 0.23421764 -0.044218414
1.2307788 0.21037429 -0.045034836
1.2497076 0.18274188 -0.045851259
-0.1049984 0.6148915 -0.022543695
-0.051105889 0.60780337 -0.023360118
0.06890635 0.60061469 -0.024176541
0.27112707 0.59332132 -0.024992963
0.36739919 0.58591882 -0.025809386
0.44009067 0.57840243 -0.026625809
0.50062716 0.57076703 -0.027442231
0.55344617 0.56300713 -0.028258654
0.60081736 0.55511681 -0.029075077
0.64408392 0.54708963 -0.029891499
0.68411752 0.53891867 -0.030707922
0.72152131 0.53059637 -0.031524345
0.75673282 0.5221145 -0.032340767
0.79008122 0.51346409 -0.03315719
0.82182141 0.50463527 -0.033973613
0.85215547 0.49561721 -0.034790035
0.88124679 0.48639794 -0.035606458
0.90922963 0.4769642 -0.036422881
0.93621594 0.4673012 -0.037239303
0.96230017 0.45739242 -0.038055726
0.98756285 0.44721928 -0.038872149
1.0120734 0.43676075 -0.039688571
1.0358919 0.42599289 -0.040504994
1.059071 0.4148883 -0.041321417
1.0816572 0.4034153 -0.04213784
1.1036915 0.39153698 -0.042954262
1.1252105 0.37920993 -0.043770685
1.146247 0.36638251 -0.044587108
1.1668303 0.35299247 -0.04540353
1.1869872 0.33896369 -0.046219953
1.2067417 0.32420146 -0.047036376
1.2261157 0.30858541 -0.047852798
1.2451295 0.29195872 -0.048669221
-0.1181232 0.64872091 -0.025361657
-0.064230688 0.64207887 -0.02617808
-0.010338179 0.63535339 -0.026994502
0.24052384 0.62854144 -0.027810925
0.34688514 0.62163978 -0.028627348
0.42375851 0.61464498 -0.02944377
0.48671299 0.60755339 -0.030260193
0.5411506 0.60036112 -0.031076616
0.58970005 0.59306401 -0.031893039
0.63387246 0.5856576 -0.032709461
0.6746298 0.57813713 -0.033525884
0.71262862 0.57049747 -0.034342307
0.74834027 0.56273311 -0.035158729
0.78211652 0.5548381 -0.035975152
0.81422802 0.54680601 -0.036791575
0.84488818 0.53862988 -0.037607997
0.8742688 0.53030214 -0.03842442
0.90251053 0.52181453 -0.039240843
0.92973023 0.51315804 -0.040057265
0.95602625 0.50432278 -0.040873688
0.98148223 0.49529789 -0.041690111
1.00617 0.48607134 -0.042506533
1.030152 0.47662983 -0.043322956
1.0534824 0.46695851 -0.044139379
1.076209 0.45704081 -0.044955801
1.0983742 0.44685804 -0.045772224
1.1200155 0.4363891 -0.046588647
1.1411666 0.42560995 -0.047405069
1.1618578 0.41449302 -0.048221492
1.1821162 0.40300648 -0.049037915
1.2019666 0.39111322 -0.049854338
1.2214314 0.37876958 -0.05067076
1.2405311 0.36592358 -0.051487183
-0.131248 0.68055644 -0.028179619
-0.077355488 0.67428913 -0.028996042
-0.023462978 0.66795117 -0.029812464
0.20433551 0.66154027 -0.030628887
0.32480147 0.65505397 -0.03144531
0.40663415 0.64848973 -0.032261732
0.47230461 0.64184482 -0.033078155
0.52851051 0.63511636 -0.033894578
0.57832553 0.62830132 -0.034711
0.6234598 0.62139646 -0.035527423
0.66497931 0.61439833 -0.036343846
0.70360081 0.60730329 -0.037160268
0.73983329 0.60010742 -0.037976691
0.77405334 0.59280656 -0.038793114
0.80654873 0.58539624 -0.039609537
0.83754514 0.57787168 -0.040425959
0.86722338 0.57022775 -0.041242382
0.89573089 0.56245892 -0.042058805
0.92318981 0.55455922 -0.042875227
0.94970256 0.54652221 -0.04369165
0.97535609 0.53834091 -0.044508073
1.0002249 0.53000771 -0.045324495
1.0243735 0.52151434 -0.046140918
1.0478579 0.51285176 -0.046957341
1.0707275 0.50401006 -0.047773763
1.0930258 0.49497831 -0.048590186
1.1147914 0.48574447 -0.049406609
1.136059 0.47629517 -0.050223031
1.1568596 0.46661553 -0.051039454
1.177221 0.45668887 -0.051855877
1.1971686 0.44649646 -0.052672299
1.2167254 0.43601708 -0.053488722
1.2359122 0.42522658 -0.054305145
-0.1443728 0.71069897 -0.030997581
-0.090480288 0.70475208 -0.031814004
-0.036587778 0.6987444 -0.032630426
0.15808161 0.69267412 -0.033446849
0.30075098 0.68653937 -0.034263272
0.38859792 0.68033817 -0.035079694
0.45734878 0.67406842 -0.035896117
0.51549706 0.66772795 -0.03671254
0.56667617 0.66131445 -0.037528962
0.6128343 0.65482547 -0.038345385
0.65515786 0.64825845 -0.039161808
0.69443191 0.64161066 -0.03997823
0.73120737 0.63487923 -0.040794653
0.76588816 0.6280611 -0.041611076
0.79878075 0.62115303 -0.042427498
0.83012408 0.61415157 -0.043243921
0.86010863 0.60705306 -0.044060344
0.88888916 0.59985359 -0.044876766
0.91659333 0.59254897 -0.045693189
0.94332797 0.58513474 -0.046509612
0.96918346 0.57760609 -0.047326034
0.9942371 0.56995788 -0.048142457
1.0185556 0.56218457 -0.04895888
1.042197 0.55428018 -0.049775303
1.0652121 0.54623824 -0.050591725
1.0876458 0.53805175 -0.051408148
1.1095378 0.52971308 -0.052224571
1.1309238 0.52121395 -0.053040993
1.1518354 0.51254527 -0.053857416
1.1723013 0.50369711 -0.054673839
1.1923475 0.49465849 -0.055490261
1.2119974 0.48541734 -0.056306684
1.2312725 0.47596024 -0.057123107
-0.1574976 0.7393812 -0.033815543
-0.10360509 0.73371228 -0.034631965
-0.049712578 0.72799033 -0.035448388
0.082856991 0.72221394 -0.036264811
0.27413762 0.7163816 -0.037081233
0.36949711 0.71049176 -0.037897656
0.44178209 0.70454277 -0.038714079
0.50207718 0.69853293 -0.039530502
0.55473229 0.69246042 -0.040346924
0.60198313 0.68632338 -0.041163347
0.64515659 0.68011981 -0.04197977
0.68511548 0.67384763 -0.042796192
0.72245765 0.66750464 -0.043612615
0.75761722 0.66108854 -0.044429038
0.7909211 0.65459687 -0.04524546
0.82262259 0.64802707 -0.046061883
0.8529226 0.6413764 -0.046878306
0.88198368 0.63464198 -0.047694728
0.90993943 0.62782076 -0.048511151
0.9369013 0.62090948 -0.049327574
0.96296332 0.61390469 -0.050143996
0.98820573 0.60680272 -0.050960419
1.0126976 0.59959963 -0.051776842
1.036499 0.59229125 -0.052593264
1.0596622 0.58487309 -0.053409687
1.0822337 0.57734035 -0.05422611
1.1042542 0.56968786 -0.055042532
1.1257603 0.56191006 -0.055858955
1.1467847 0.55400097 -0.056675378
1.1673567 0.54595409 -0.057491801
1.1875029 0.5377624 -0.058308223
1.2072472 0.52941826 -0.059124646
1.2266118 0.52091335 -0.059941069
-0.1706224 0.76678742 -0.036633505
-0.11672989 0.76136253 -0.037449927
-0.062837378 0.75589089 -0.03826635
-0.0089448679 0.75037134 -0.039082773
0.24399251 0.74480266 -0.039899195
0.34913168 0.7391836 -0.040715618
0.42552805 0.73351284 -0.041532041
0.4882127 0.72778901 -0.042348463
0.54247175 0.72201068 -0.043164886
0.59089216 0.71617636 -0.043981309
0.63496584 0.71028447 -0.044797731
0.67564459 0.70433338 -0.045614154
0.71357896 0.69832138 -0.046430577
0.74923656 0.69224665 -0.047247
0.78296666 0.68610731 -0.048063422
0.81503815 0.67990137 -0.048879845
0.84566322 0.67362675 -0.049696268
0.87501274 0.66728124 -0.05051269
0.90322667 0.66086253 -0.051329113
0.93042132 0.65436817 -0.052145536
0.95669462 0.64779559 -0.052961958
0.98212988 0.64114204 -0.053778381
1.0067987 0.63440464 -0.054594804
1.0307631 0.62758031 -0.055411226
1.0540773 0.62066582 -0.056227649
1.0767889 0.61365769 -0.057044072
1.0989401 0.60655224 -0.057860494
1.1205684 0.59934555 -0.058676917
1.1417073 0.5920334 -0.05949334
1.1623869 0.58461131 -0.060309762
1.1826344 0.57707447 -0.061126185
1.2024745 0.56941768 -0.061942608
1.2219297 0.56163539 -0.06275903
-0.1837472 0.79306645 -0.039451467
-0.12985469 0.787858 -0.040267889
-0.075962178 0.78260794 -0.041084312
-0.022069668 0.77731529 -0.041900735
0.20853792 0.77197907 -0.042717157
0.32723094 0.76659825 -0.04353358
0.40849298 0.76117175 -0.044350003
0.47385915 0.75569845 -0.045166425
0.52986954 0.7501772 -0.045982848
0.57954574 0.74460678 -0.046799271
0.62457508 0.73898593 -0.047615693
0.66601175 0.73331333 -0.048432116
0.70456578 0.72758762 -0.049248539
0.74074194 0.72180736 -0.050064961
0.7749141 0.71597105 -0.050881384
0.80736811 0.71007711 -0.051697807
0.83832833 0.70412392 -0.052514229
0.86797457 0.69810975 -0.053330652
0.89645353 0.69203279 -0.054147075
0.92388676 0.68589116 -0.054963497
0.95037627 0.67968285 -0.05577992
0.97600862 0.67340578 -0.056596343
1.0008581 0.66705775 -0.057412766
1.0249888 0.66063644 -0.058229188
1.0484567 0.65413938 -0.059045611
1.071311 0.64756401 -0.059862034
1.093595 0.64090757 -0.060678456
1.1153474 0.63416718 -0.061494879
1.1366026 0.62733976 -0.062311302
1.1573914 0.62042205 -0.063127724
1.1777418 0.61341057 -0.063944147
1.197679 0.60630165 -0.06476057
1.217226 0.59909133 -0.065576992
-0.196872 0.81834053 -0.042269428
-0.14297949 0.81332572 -0.043085851
-0.089086977 0.80827355 -0.043902274
-0.035194468 0.80318323 -0.044718696
0.16374714 0.79805392 -0.045535119
0.30341307 0.79288477 -0.046351542
0.39056012 0.78767489 -0.047167965
0.45896425 0.78242335 -0.047984387
0.51689721 0.7771292 -0.04880081
0.56792646 0.77179143 -0.049617233
0.61397276 0.76640903 -0.050433655
0.65620886 0.76098091 -0.051250078
0.69541215 0.75550595 -0.052066501
0.73212887 0.749983 -0.052882923
0.76675991 0.74441083 -0.053699346
0.79960968 0.73878819 -0.054515769
0.83091566 0.73311376 -0.055332191
0.86086727 0.72738617 -0.056148614
0.88961846 0.72160397 -0.056965037
0.91729631 0.71576566 -0.057781459
0.94400714 0.70986968 -0.058597882
0.96984098 0.70391439 -0.059414305
0.99487481 0.69789805 -0.060230727
1.0191751 0.69181886 -0.06104715
1.0427997 0.68567492 -0.061863573
1.0657992 0.67946424 -0.062679995
1.0882184 0.67318473 -0.063496418
1.110097 0.66683417 -0.064312841
1.1314702 0.66041025 -0.065129264
1.15237 0.6539105 -0.065945686
1.1728247 0.64733233 -0.066762109
1.1928604 0.640673 -0.067578532
1.2125004 0.63392962 -0.068394954
-0.2099968 0.84271149 -0.04508739
-0.15610429 0.83787121 -0.045903813
-0.10221178 0.83299717 -0.046720236
-0.048319267 0.82808869 -0.047536658
0.094436453 0.82314506 -0.048353081
0.27710903 0.81816557 -0.049169504
0.37158084 0.81314946 -0.049985926
0.44346578 0.80809597 -0.050802349
0.50352219 0.8030043 -0.051618772
0.55601485 0.79787361 -0.052435194
0.60314619 0.79270305 -0.053251617
0.64622713 0.78749172 -0.05406804
0.68611171 0.78223871 -0.054884463
0.72339253 0.77694305 -0.055700885
0.75850039 0.77160374 -0.056517308
0.79175991 0.76621975 -0.057333731
0.82342282 0.76079001 -0.058150153
0.85368891 0.75531339 -0.058966576
0.88271983 0.74978873 -0.059782999
0.91064857 0.74421482 -0.060599421
0.93758605 0.73859039 -0.061415844
0.96362593 0.73291413 -0.062232267
0.98884811 0.72718464 -0.063048689
1.0133214 0.7214005 -0.063865112
1.0371056 0.71556021 -0.064681535
1.0602531 0.70966218 -0.065497957
1.0828098 0.70370478 -0.06631438
1.1048166 0.69768627 -0.067130803
1.1263098 0.69160484 -0.067947225
1.1473221 0.6854586 -0.068763648
1.1678828 0.67924555 -0.069580071
1.1880183 0.67296359 -0.070396493
1.2077526 0.6666105 -0.071212916
-0.2231216 0.8662652 -0.047905352
-0.16922909 0.86158327 -0.048721775
-0.11533658 0.85687063 -0.049538198
-0.061444067 0.8521267 -0.05035462
-0.0075515573 0.84735089 -0.051171043
0.24740304 0.84254258 -0.051987466
0.35136101 0.83770113 -0.052803888
0.4272888 0.83282589 -0.053620311
0.4897069 0.82791619 -0.054436734
0.54378906 0.82297132 -0.055253156
0.5920814 0.81799056 -0.056069579
0.63605698 0.81297316 -0.056886002
0.67665756 0.80791835 -0.057702424
0.71452779 0.80282532 -0.058518847
0.75013157 0.79769325 -0.05933527
0.78381568 0.79252128 -0.060151692
0.81584732 0.78730851 -0.060968115
0.84643741 0.78205402 -0.061784538
0.87575593 0.77675684 -0.062600961
0.90394212 0.77141599 -0.063417383
0.93111179 0.76603042 -0.064233806
0.95736243 0.76059905 -0.065050229
0.98277703 0.75512077 -0.065866651
1.0074269 0.74959441 -0.066683074
1.0313739 0.74401875 -0.067499497
1.0546719 0.73839253 -0.068315919
1.0773685 0.73271442 -0.069132342
1.0995057 0.72698305 -0.069948765
1.1211209 0.72119697 -0.070765187
1.1422476 0.71535468 -0.07158161
1.1629157 0.70945461 -0.072398033
1.1831524 0.70349509 -0.073214455
1.2029823 0.69747441 -0.074030878
-0.2362464 0.88907484 -0.050723314
-0.18235389 0.88453741 -0.051539737
-0.12846138 0.8799719 -0.052356159
-0.074568867 0.8753778 -0.053172582
-0.020676357 0.8707546 -0.053989005
0.21264114 0.86610178 -0.054805428
0.32963897 0.86141879 -0.05562185
0.41034172 0.85670506 -0.056438273
0.4754076 0.85196003 -0.057254696
0.53122441 0.84718309 -0.058071118
0.58076289 0.84237363 -0.058887541
0.62568798 0.83753101 -0.059703964
0.66704228 0.83265458 -0.060520386
0.70552916 0.82774365 -0.061336809
0.74164926 0.82279754 -0.062153232
0.7757737 0.81781551 -0.062969654
0.8081865 0.81279681 -0.063786077
0.83911064 0.80774067 -0.0646025
0.86872497 0.8026463 -0.065418922
0.89717547 0.79751284 -0.066235345
0.92458309 0.79233946 -0.067051768
0.95104941 0.78712524 -0.06786819
0.97666063 0.78186927 -0.068684613
1.0014907 0.77657058 -0.069501036
1.0256036 0.77122818 -0.070317458
1.0490551 0.76584103 -0.071133881
1.0718941 0.76040804 -0.071950304
1.0941639 0.7549281 -0.072766727
1.1159031 0.74940003 -0.073583149
1.1371458 0.74382262 -0.074399572
1.1579229 0.73819461 -0.075215995
1.1782624 0.73251466 -0.076032417
1.1981892 0.72678139 -0.07684884
-0.2493712 0.91120341 -0.053541276
-0.19547869 0.90679852 -0.054357699
-0.14158618 0.90236782 -0.055174121
-0.087693667 0.89791087 -0.055990544
-0.033801157 0.89342723 -0.056806967
0.16918682 0.88891644 -0.057623389
