site/assets/luts/ocio-aces--redinputlinear-redwidegamutrgb-to-aces2065-1--c238aa9d4.cube
# LUTr-Project: LUTr — LUTrepository
# LUTr-Schema-Version: 1
# LUTr-ID: ocio-aces--redinputlinear-redwidegamutrgb-to-aces2065-1--c238aa9d4
# LUTr-Title: RED.Input.Linear REDWideGamutRGB to ACES2065-1
# LUTr-Collection: OCIO ACES
# LUTr-Collection-ID: aswf-opencolorio-config-aces
# LUTr-Source: https://github.com/AcademySoftwareFoundation/OpenColorIO-Config-ACES
# LUTr-Source-File: submissions/aswf-opencolorio-config-aces/opencolorio_config_aces/clf/transforms/red/input/RED.Input.Linear_REDWideGamutRGB_to_ACES2065-1.clf
# LUTr-Source-Format: CLF
# LUTr-Source-SHA256: 785d8b60da3c8f2b367f51a64f11d71cad2547cdf059e40e8dae810d44648970
# LUTr-License: BSD-3-Clause
# LUTr-License-URL: https://github.com/AcademySoftwareFoundation/OpenColorIO-Config-ACES/blob/main/LICENSE
# LUTr-Tags: technical, aces, ocio, clf, color-management, cube
# LUTr-Transform-Class: color-space-conversion
# LUTr-Input-Color-Space: Linear REDWideGamutRGB
# LUTr-Output-Color-Space: ACES2065-1
# LUTr-Color-Space-Confidence: descriptor-only
# LUTr-Conversion-Method: CLF operations evaluated as float and sampled to 33x33x33 3D CUBE
# LUTr-Conversion-Date: 2026-07-27
# LUTr-Conversion-Tool: LUTr scripts/convert-all-to-cube.mjs
# LUTr-Conversion-Grid: 33x33x33
# LUTr-Conversion-Warning: A sampled 3D CUBE is bounded to DOMAIN_MIN/MAX 0..1 and cannot preserve CLF values outside its input domain.
# LUTr-Upstream-ID: urn:aswf:ocio:transformId:1.0:RED:Input:Linear_REDWideGamutRGB_to_ACES2065-1:1.0
# LUTr-Upstream-Name: Linear REDWideGamutRGB to ACES2065-1
# LUTr-Upstream-Input-Descriptor: Linear REDWideGamutRGB
# LUTr-Upstream-Output-Descriptor: ACES2065-1
# LUTr-Upstream-Operations: Matrix
# LUTr-Note: Preserve this metadata and the upstream license notices when redistributing.
TITLE "RED.Input.Linear REDWideGamutRGB to ACES2065-1"
LUT_3D_SIZE 5
DOMAIN_MIN 0 0 0
DOMAIN_MAX 1 1 1
0 0 0
0.1962647 0.0057934587 -0.018440109
0.3925294 0.011586917 -0.036880218
0.5887941 0.017380376 -0.055320327
0.7850588 0.023173835 -0.073760435
0.020964689 0.27197439 -0.078647518
0.21722939 0.27776785 -0.097087627
0.41349409 0.2835613 -0.11552774
0.60975879 0.28935476 -0.13396784
0.80602349 0.29514822 -0.15240795
0.041929378 0.54394877 -0.15729504
0.23819408 0.54974223 -0.17573514
0.43445878 0.55553569 -0.19417525
0.63072348 0.56132915 -0.21261536
0.82698818 0.56712261 -0.23105547
0.062894067 0.81592316 -0.23594255
0.25915877 0.82171662 -0.25438266
0.45542347 0.82751008 -0.27282277
0.65168817 0.83330354 -0.29126288
0.84795287 0.839097 -0.30970299
0.083858757 1.0878975 -0.31459007
0.28012346 1.093691 -0.33303018
0.47638816 1.0994845 -0.35147029
0.67265286 1.1052779 -0.3699104
0.86891756 1.1110714 -0.38835051
0.03277061 -0.027767846 0.34708763
0.22903531 -0.021974387 0.32864752
0.42530001 -0.016180929 0.31020741
0.62156471 -0.01038747 0.2917673
0.81782941 -0.0045940112 0.27332719
0.053735299 0.24420654 0.26844011
0.25 0.25 0.25
0.4462647 0.25579346 0.23155989
0.6425294 0.26158692 0.21311978
0.8387941 0.26738038 0.19467967
0.074699988 0.51618093 0.18979259
0.27096469 0.52197439 0.17135248
0.46722939 0.52776785 0.15291237
0.66349409 0.5335613 0.13447226
0.85975879 0.53935476 0.11603216
0.095664677 0.78815532 0.11114507
0.29192938 0.79394877 0.092704964
0.48819408 0.79974223 0.074264855
0.68445878 0.80553569 0.055824746
0.88072348 0.81132915 0.037384637
0.11662937 1.0601297 0.032497555
0.31289407 1.0659232 0.014057446
0.50915877 1.0717166 -0.0043826631
0.70542347 1.0775101 -0.022822772
0.90168817 1.0833035 -0.041262881
0.06554122 -0.055535692 0.69417525
0.26180592 -0.049742233 0.67573514
0.45807062 -0.043948775 0.65729504
0.65433532 -0.038155316 0.63885493
0.85060002 -0.032361857 0.62041482
0.086505909 0.2164387 0.61552774
0.28277061 0.22223215 0.59708763
0.47903531 0.22802561 0.57864752
0.67530001 0.23381907 0.56020741
0.87156471 0.23961253 0.5417673
0.1074706 0.48841308 0.53688022
0.3037353 0.49420654 0.51844011
0.5 0.5 0.5
0.6962647 0.50579346 0.48155989
0.8925294 0.51158692 0.46311978
0.12843529 0.76038747 0.4582327
0.32469999 0.76618093 0.43979259
0.52096469 0.77197439 0.42135248
0.71722939 0.77776785 0.40291237
0.91349409 0.7835613 0.38447226
0.14939998 1.0323619 0.37958518
0.34566468 1.0381553 0.36114507
0.54192938 1.0439488 0.34270496
0.73819408 1.0497422 0.32426486
0.93445878 1.0555357 0.30582475
0.09831183 -0.083303538 1.0412629
0.29457653 -0.077510079 1.0228228
0.49084123 -0.071716621 1.0043827
0.68710593 -0.065923162 0.98594255
0.88337063 -0.060129703 0.96750245
0.11927652 0.18867085 0.96261536
0.31554122 0.19446431 0.94417525
0.51180592 0.20025777 0.92573514
0.70807062 0.20605123 0.90729504
0.90433532 0.21184468 0.88885493
0.14024121 0.46064524 0.88396784
0.33650591 0.4664387 0.86552774
0.53277061 0.47223215 0.84708763
0.72903531 0.47802561 0.82864752
0.92530001 0.48381907 0.81020741
0.1612059 0.73261962 0.80532033
0.3574706 0.73841308 0.78688022
0.5537353 0.74420654 0.76844011
0.75 0.75 0.75
0.9462647 0.75579346 0.73155989
0.18217059 1.004594 0.72667281
0.37843529 1.0103875 0.7082327
0.57469999 1.0161809 0.68979259
0.77096469 1.0219744 0.67135248
0.96722939 1.0277678 0.65291237
0.13108244 -0.11107138 1.3883505
0.32734714 -0.10527793 1.3699104
0.52361184 -0.099484467 1.3514703
0.71987654 -0.093691008 1.3330302
0.91614124 -0.087897549 1.3145901
0.15204713 0.160903 1.309703
0.34831183 0.16669646 1.2912629
0.54457653 0.17248992 1.2728228
0.74084123 0.17828338 1.2543827
0.93710593 0.18407684 1.2359426
0.17301182 0.43287739 1.2310555
0.36927652 0.43867085 1.2126154
0.56554122 0.44446431 1.1941753
0.76180592 0.45025777 1.1757351
0.95807062 0.45605123 1.157295
0.19397651 0.70485178 1.152408
0.39024121 0.71064524 1.1339678
0.58650591 0.7164387 1.1155277
0.78277061 0.72223215 1.0970876
0.97903531 0.72802561 1.0786475
0.2149412 0.97682617 1.0737604
0.4112059 0.98261962 1.0553203
0.6074706 0.98841308 1.0368802
0.8037353 0.99420654 1.0184401
1 1 1
