site/assets/luts/ocio-aces--sonyinputslog3-sgamut3cine-to-aces2065-1--a40c421c7.cube
# LUTr-Project: LUTr — LUTrepository
# LUTr-Schema-Version: 1
# LUTr-ID: ocio-aces--sonyinputslog3-sgamut3cine-to-aces2065-1--a40c421c7
# LUTr-Title: Sony.Input.SLog3 SGamut3Cine to ACES2065-1
# LUTr-Collection: OCIO ACES
# LUTr-Collection-ID: aswf-opencolorio-config-aces
# LUTr-Source: https://github.com/AcademySoftwareFoundation/OpenColorIO-Config-ACES
# LUTr-Source-File: submissions/aswf-opencolorio-config-aces/opencolorio_config_aces/clf/transforms/sony/input/Sony.Input.SLog3_SGamut3Cine_to_ACES2065-1.clf
# LUTr-Source-Format: CLF
# LUTr-Source-SHA256: a201ab523888e7eb71bb627e2ca230f28545f93f2caa727bce2caf649ff94f0a
# LUTr-License: BSD-3-Clause
# LUTr-License-URL: https://github.com/AcademySoftwareFoundation/OpenColorIO-Config-ACES/blob/main/LICENSE
# LUTr-Tags: technical, aces, ocio, clf, color-management, cube
# LUTr-Transform-Class: color-space-conversion
# LUTr-Input-Color-Space: Sony S-Log3 S-Gamut3.Cine
# LUTr-Output-Color-Space: ACES2065-1
# LUTr-Color-Space-Confidence: descriptor-only
# LUTr-Conversion-Method: CLF operations evaluated as float and sampled to 33x33x33 3D CUBE
# LUTr-Conversion-Date: 2026-07-27
# LUTr-Conversion-Tool: LUTr scripts/convert-all-to-cube.mjs
# LUTr-Conversion-Grid: 33x33x33
# LUTr-Conversion-Warning: A sampled 3D CUBE is bounded to DOMAIN_MIN/MAX 0..1 and cannot preserve CLF values outside its input domain.
# LUTr-Upstream-ID: urn:aswf:ocio:transformId:1.0:Sony:Input:SLog3_SGamut3Cine_to_ACES2065-1:1.0
# LUTr-Upstream-Name: Sony S-Log3 S-Gamut3.Cine to ACES2065-1
# LUTr-Upstream-Input-Descriptor: Sony S-Log3 S-Gamut3.Cine
# LUTr-Upstream-Output-Descriptor: ACES2065-1
# LUTr-Upstream-Operations: Log → Matrix
# LUTr-Note: Preserve this metadata and the upstream license notices when redistributing.
TITLE "Sony.Input.SLog3 SGamut3Cine to ACES2065-1"
LUT_3D_SIZE 5
DOMAIN_MIN 0 0 0
DOMAIN_MAX 1 1 1
-0.014023696 -0.014023696 -0.014023696
0.017122746 -0.01421463 -0.015481929
0.26020003 -0.015704744 -0.026862472
2.5709654 -0.029870211 -0.13504931
24.537792 -0.16453138 -1.1635058
-0.00074422087 0.039029233 -0.015312512
0.030402221 0.038838299 -0.016770745
0.27347951 0.037348185 -0.028151287
2.5842449 0.023182718 -0.13633813
24.551071 -0.11147845 -1.1647946
0.10289326 0.45307209 -0.025370861
0.1340397 0.45288116 -0.026829095
0.37711698 0.45139104 -0.038209637
2.6878823 0.43722558 -0.14639648
24.654709 0.30256441 -1.1748529
1.0881021 4.3890873 -0.12098854
1.1192486 4.3888964 -0.12244677
1.3623259 4.3874063 -0.13382732
3.6730912 4.3732408 -0.24201416
25.639918 4.2385796 -1.2704706
10.453792 41.806025 -1.0299588
10.484939 41.805834 -1.031417
10.728016 41.804344 -1.0427976
13.038781 41.790179 -1.1509844
35.005608 41.655518 -2.1794409
-0.0096910115 -0.018127089 0.037481955
0.021455431 -0.018318024 0.036023721
0.26453272 -0.019808137 0.024643179
2.5752981 -0.033973605 -0.08354366
24.542125 -0.16863477 -1.1120001
0.0035884636 0.03492584 0.036193139
0.034734906 0.034734906 0.034734906
0.27781219 0.033244792 0.023354363
2.5885775 0.019079325 -0.084832476
24.555404 -0.11558184 -1.1132889
0.10722594 0.4489687 0.026134789
0.13837238 0.44877776 0.024676556
0.38144967 0.44728765 0.013296014
2.692215 0.43312218 -0.094890825
24.659042 0.29846102 -1.1233473
1.0924348 4.3849839 -0.06948289
1.1235813 4.384793 -0.070941123
1.3666585 4.3833029 -0.082321666
3.6774239 4.3691374 -0.1905085
25.64425 4.2344763 -1.2189649
10.458125 41.801922 -0.97845314
10.489271 41.801731 -0.97991138
10.732349 41.800241 -0.99129192
13.043114 41.786075 -1.0994788
35.009941 41.651414 -2.1279352
0.024122711 -0.050151349 0.43944933
0.055269154 -0.050342283 0.4379911
0.29834644 -0.051832397 0.42661056
2.6091118 -0.065997864 0.31842372
24.575938 -0.20065903 -0.71003273
0.037402186 0.0029015804 0.43816052
0.068548629 0.0027106463 0.43670228
0.31162591 0.0012205325 0.42532174
2.6223913 -0.012944935 0.3171349
24.589218 -0.1476061 -0.71132154
0.14103967 0.41694444 0.42810217
0.17218611 0.41675351 0.42664393
0.41526339 0.41526339 0.41526339
2.7260287 0.40109792 0.30707655
24.692855 0.26643676 -0.72137989
1.1262485 4.3529597 0.33248449
1.157395 4.3527687 0.33102625
1.4004723 4.3512786 0.31964571
3.7112376 4.3371132 0.21145887
25.678064 4.202452 -0.81699757
10.491939 41.769898 -0.57648577
10.523085 41.769707 -0.577944
10.766162 41.768217 -0.58932454
13.076928 41.754051 -0.69751138
35.043754 41.61939 -1.7259678
0.34556607 -0.35458354 4.2606714
0.37671252 -0.35477447 4.2592132
0.6197898 -0.35626458 4.2478327
2.9305552 -0.37043005 4.1396458
24.897382 -0.50509122 3.1111894
0.35884555 -0.30153061 4.2593826
0.38999199 -0.30172154 4.2579244
0.63306927 -0.30321165 4.2465438
2.9438346 -0.31737712 4.138357
24.910661 -0.45203829 3.1099006
0.46248303 0.11251225 4.2493243
0.49362947 0.11232132 4.247866
0.73670675 0.1108312 4.2364855
3.0474721 0.096665737 4.1282987
25.014299 -0.037995431 3.0998422
1.4476919 4.0485275 4.1537066
1.4788383 4.0483366 4.1522484
1.7219156 4.0468464 4.1408678
4.032681 4.032681 4.032681
25.999508 3.8980198 3.0042245
10.813382 41.465465 3.2447363
10.844528 41.465274 3.2432781
11.087606 41.463784 3.2318976
13.398371 41.449619 3.1237107
35.365198 41.314958 2.0952543
3.4013028 -3.2486069 40.586351
3.4324492 -3.2487979 40.584893
3.6755265 -3.250288 40.573513
5.9862919 -3.2644535 40.465326
27.953118 -3.3991146 39.436869
3.4145823 -3.195554 40.585063
3.4457287 -3.195745 40.583604
3.688806 -3.1972351 40.572224
5.9995714 -3.2114005 40.464037
27.966398 -3.3460617 39.435581
3.5182198 -2.7815112 40.575004
3.5493662 -2.7817021 40.573546
3.7924435 -2.7831922 40.562166
6.1032088 -2.7973577 40.453979
28.070035 -2.9320188 39.425522
4.5034286 1.1545041 40.479387
4.5345751 1.1543131 40.477928
4.7776523 1.152823 40.466548
7.0884177 1.1386576 40.358361
29.055244 1.0039964 39.329905
13.869119 38.571442 39.570416
13.900265 38.571251 39.568958
14.143342 38.569761 39.557578
16.454108 38.555596 39.449391
38.420934 38.420934 38.420934
