site/assets/luts/ocio-aces--ocioutilityap0-to-linear-rec2020--b2bc1ebc0.cube
# LUTr-Project: LUTr — LUTrepository
# LUTr-Schema-Version: 1
# LUTr-ID: ocio-aces--ocioutilityap0-to-linear-rec2020--b2bc1ebc0
# LUTr-Title: OCIO.Utility.AP0 to Linear Rec2020
# LUTr-Collection: OCIO ACES
# LUTr-Collection-ID: aswf-opencolorio-config-aces
# LUTr-Source: https://github.com/AcademySoftwareFoundation/OpenColorIO-Config-ACES
# LUTr-Source-File: submissions/aswf-opencolorio-config-aces/opencolorio_config_aces/clf/transforms/ocio/utility/OCIO.Utility.AP0_to_Linear_Rec2020.clf
# LUTr-Source-Format: CLF
# LUTr-Source-SHA256: a8fbac330d4ac3c5ca2bd14bb018460cb648740b8edfe63567c27c68c2a12d5c
# LUTr-License: BSD-3-Clause
# LUTr-License-URL: https://github.com/AcademySoftwareFoundation/OpenColorIO-Config-ACES/blob/main/LICENSE
# LUTr-Tags: technical, aces, ocio, clf, color-management, cube
# LUTr-Transform-Class: color-space-conversion
# LUTr-Input-Color-Space: ACES2065-1
# LUTr-Output-Color-Space: linear Rec.2020 primaries, D65 white point
# LUTr-Color-Space-Confidence: descriptor-only
# LUTr-Conversion-Method: CLF operations evaluated as float and sampled to 33x33x33 3D CUBE
# LUTr-Conversion-Date: 2026-07-27
# LUTr-Conversion-Tool: LUTr scripts/convert-all-to-cube.mjs
# LUTr-Conversion-Grid: 33x33x33
# LUTr-Conversion-Warning: A sampled 3D CUBE is bounded to DOMAIN_MIN/MAX 0..1 and cannot preserve CLF values outside its input domain.
# LUTr-Upstream-ID: urn:aswf:ocio:transformId:1.0:OCIO:Utility:AP0_to_Linear_Rec2020:1.0
# LUTr-Upstream-Name: AP0 to Linear Rec.2020
# LUTr-Upstream-Input-Descriptor: ACES2065-1
# LUTr-Upstream-Output-Descriptor: linear Rec.2020 primaries, D65 white point
# LUTr-Upstream-Operations: Matrix
# LUTr-Note: Preserve this metadata and the upstream license notices when redistributing.
TITLE "OCIO.Utility.AP0 to Linear Rec2020"
LUT_3D_SIZE 33
DOMAIN_MIN 0 0 0
DOMAIN_MAX 1 1 1
0 0 0
0.046575298 -0.0025052344 0.00010086347
0.093150595 -0.0050104687 0.00020172695
0.13972589 -0.0075157031 0.00030259042
0.18630119 -0.010020937 0.0004034539
0.23287649 -0.012526172 0.00050431737
0.27945179 -0.015031406 0.00060518085
0.32602708 -0.017536641 0.00070604432
0.37260238 -0.020041875 0.0008069078
0.41917768 -0.022547109 0.00090777127
0.46575298 -0.025052344 0.0010086347
0.51232827 -0.027557578 0.0011094982
0.55890357 -0.030062812 0.0012103617
0.60547887 -0.032568047 0.0013112252
0.65205417 -0.035073281 0.0014120886
0.69862946 -0.037578516 0.0015129521
0.74520476 -0.04008375 0.0016138156
0.79178006 -0.042588984 0.0017146791
0.83835536 -0.045094219 0.0018155425
0.88493065 -0.047599453 0.001916406
0.93150595 -0.050104687 0.0020172695
0.97808125 -0.052609922 0.002118133
1.0246565 -0.055115156 0.0022189964
1.0712318 -0.057620391 0.0023198599
1.1178071 -0.060125625 0.0024207234
1.1643824 -0.062630859 0.0025215869
1.2109577 -0.065136094 0.0026224503
1.257533 -0.067641328 0.0027233138
1.3041083 -0.070146562 0.0028241773
1.3506836 -0.072651797 0.0029250408
1.3972589 -0.075157031 0.0030259042
1.4438342 -0.077662266 0.0031267677
1.4904095 -0.0801675 0.0032276312
-0.0083178412 0.036942723 -0.0010867649
0.038257456 0.034437488 -0.00098590139
0.084832754 0.031932254 -0.00088503792
0.13140805 0.029427019 -0.00078417444
0.17798335 0.026921785 -0.00068331097
0.22455865 0.024416551 -0.00058244749
0.27113394 0.021911316 -0.00048158402
0.31770924 0.019406082 -0.00038072054
0.36428454 0.016900848 -0.00027985707
0.41085984 0.014395613 -0.00017899359
0.45743513 0.011890379 -0.00007813012
0.50401043 0.0093851445 0.000022733355
0.55058573 0.0068799101 0.00012359683
0.59716103 0.0043746757 0.0002244603
0.64373632 0.0018694413 0.00032532378
0.69031162 -0.00063579303 0.00042618725
0.73688692 -0.0031410274 0.00052705073
0.78346222 -0.0056462618 0.0006279142
0.83003751 -0.0081514961 0.00072877768
0.87661281 -0.010656731 0.00082964115
0.92318811 -0.013161965 0.00093050463
0.96976341 -0.015667199 0.0010313681
1.0163387 -0.018172434 0.0011322316
1.062914 -0.020677668 0.0012330951
1.1094893 -0.023182902 0.0013339585
1.1560646 -0.025688137 0.001434822
1.2026399 -0.028193371 0.0015356855
1.2492152 -0.030698605 0.001636549
1.2957905 -0.03320384 0.0017374124
1.3423658 -0.035709074 0.0018382759
1.3889411 -0.038214309 0.0019391394
1.4355164 -0.040719543 0.0020400028
1.4820917 -0.043224777 0.0021408663
-0.016635682 0.073885445 -0.0021735297
0.029939615 0.071380211 -0.0020726663
0.076514913 0.068874976 -0.0019718028
0.12309021 0.066369742 -0.0018709393
0.16966551 0.063864508 -0.0017700758
0.21624081 0.061359273 -0.0016692124
0.2628161 0.058854039 -0.0015683489
0.3093914 0.056348804 -0.0014674854
0.3559667 0.05384357 -0.0013666219
0.402542 0.051338336 -0.0012657585
0.44911729 0.048833101 -0.001164895
0.49569259 0.046327867 -0.0010640315
0.54226789 0.043822633 -0.00096316804
0.58884319 0.041317398 -0.00086230456
0.63541848 0.038812164 -0.00076144109
0.68199378 0.03630693 -0.00066057761
0.72856908 0.033801695 -0.00055971414
0.77514438 0.031296461 -0.00045885066
0.82171967 0.028791226 -0.00035798719
0.86829497 0.026285992 -0.00025712371
0.91487027 0.023780758 -0.00015626024
0.96144557 0.021275523 -0.000055396765
1.0080209 0.018770289 0.00004546671
1.0545962 0.016265055 0.00014633018
1.1011715 0.01375982 0.00024719366
1.1477468 0.011254586 0.00034805713
1.1943221 0.0087493514 0.00044892061
1.2408974 0.0062441171 0.00054978408
1.2874726 0.0037388827 0.00065064756
1.3340479 0.0012336483 0.00075151103
1.3806232 -0.0012715861 0.00085237451
1.4271985 -0.0037768204 0.00095323798
1.4737738 -0.0062820548 0.0010541015
-0.024953524 0.11082817 -0.0032602946
0.021621774 0.10832293 -0.0031594311
0.068197071 0.1058177 -0.0030585677
0.11477237 0.10331246 -0.0029577042
0.16134767 0.10080723 -0.0028568407
0.20792296 0.098301996 -0.0027559772
0.25449826 0.095796761 -0.0026551138
0.30107356 0.093291527 -0.0025542503
0.34764886 0.090786293 -0.0024533868
0.39422415 0.088281058 -0.0023525233
0.44079945 0.085775824 -0.0022516599
0.48737475 0.08327059 -0.0021507964
0.53395005 0.080765355 -0.0020499329
0.58052534 0.078260121 -0.0019490694
0.62710064 0.075754886 -0.001848206
0.67367594 0.073249652 -0.0017473425
0.72025124 0.070744418 -0.001646479
0.76682653 0.068239183 -0.0015456155
0.81340183 0.065733949 -0.0014447521
0.85997713 0.063228715 -0.0013438886
0.90655243 0.06072348 -0.0012430251
0.95312772 0.058218246 -0.0011421616
0.99970302 0.055713011 -0.0010412982
1.0462783 0.053207777 -0.00094043468
1.0928536 0.050702543 -0.00083957121
1.1394289 0.048197308 -0.00073870773
1.1860042 0.045692074 -0.00063784426
1.2325795 0.04318684 -0.00053698078
1.2791548 0.040681605 -0.00043611731
1.3257301 0.038176371 -0.00033525383
1.3723054 0.035671136 -0.00023439036
1.4188807 0.033165902 -0.00013352688
1.465456 0.030660668 -0.000032663409
-0.033271365 0.14777089 -0.0043470595
0.013303933 0.14526566 -0.004246196
0.05987923 0.14276042 -0.0041453325
0.10645453 0.14025519 -0.004044469
0.15302983 0.13774995 -0.0039436056
0.19960512 0.13524472 -0.0038427421
0.24618042 0.13273948 -0.0037418786
0.29275572 0.13023425 -0.0036410151
0.33933102 0.12772902 -0.0035401517
0.38590631 0.12522378 -0.0034392882
0.43248161 0.12271855 -0.0033384247
0.47905691 0.12021331 -0.0032375612
0.52563221 0.11770808 -0.0031366978
0.5722075 0.11520284 -0.0030358343
0.6187828 0.11269761 -0.0029349708
0.6653581 0.11019237 -0.0028341073
0.7119334 0.10768714 -0.0027332439
0.75850869 0.10518191 -0.0026323804
0.80508399 0.10267667 -0.0025315169
0.85165929 0.10017144 -0.0024306534
0.89823459 0.097666203 -0.00232979
0.94480988 0.095160968 -0.0022289265
0.99138518 0.092655734 -0.002128063
1.0379605 0.0901505 -0.0020271995
1.0845358 0.087645265 -0.0019263361
1.1311111 0.085140031 -0.0018254726
1.1776864 0.082634796 -0.0017246091
1.2242617 0.080129562 -0.0016237457
1.270837 0.077624328 -0.0015228822
1.3174123 0.075119093 -0.0014220187
1.3639876 0.072613859 -0.0013211552
1.4105629 0.070108625 -0.0012202918
1.4571382 0.06760339 -0.0011194283
-0.041589206 0.18471361 -0.0054338243
0.0049860914 0.18220838 -0.0053329609
0.051561389 0.17970314 -0.0052320974
0.098136686 0.17719791 -0.0051312339
0.14471198 0.17469268 -0.0050303704
0.19128728 0.17218744 -0.004929507
0.23786258 0.16968221 -0.0048286435
0.28443788 0.16717697 -0.00472778
0.33101317 0.16467174 -0.0046269165
0.37758847 0.1621665 -0.0045260531
0.42416377 0.15966127 -0.0044251896
0.47073907 0.15715603 -0.0043243261
0.51731436 0.1546508 -0.0042234626
0.56388966 0.15214557 -0.0041225992
0.61046496 0.14964033 -0.0040217357
0.65704026 0.1471351 -0.0039208722
0.70361555 0.14462986 -0.0038200087
0.75019085 0.14212463 -0.0037191453
0.79676615 0.13961939 -0.0036182818
0.84334145 0.13711416 -0.0035174183
0.88991674 0.13460893 -0.0034165548
0.93649204 0.13210369 -0.0033156914
0.98306734 0.12959846 -0.0032148279
1.0296426 0.12709322 -0.0031139644
1.0762179 0.12458799 -0.0030131009
1.1227932 0.12208275 -0.0029122375
1.1693685 0.11957752 -0.002811374
1.2159438 0.11707228 -0.0027105105
1.2625191 0.11456705 -0.002609647
1.3090944 0.11206182 -0.0025087836
1.3556697 0.10955658 -0.0024079201
1.402245 0.10705135 -0.0023070566
1.4488203 0.10454611 -0.0022061931
-0.049907047 0.22165634 -0.0065205892
-0.0033317498 0.2191511 -0.0064197257
0.043243548 0.21664587 -0.0063188623
0.089818845 0.21414063 -0.0062179988
0.13639414 0.2116354 -0.0061171353
0.18296944 0.20913016 -0.0060162718
0.22954474 0.20662493 -0.0059154084
0.27612004 0.20411969 -0.0058145449
0.32269533 0.20161446 -0.0057136814
0.36927063 0.19910923 -0.0056128179
0.41584593 0.19660399 -0.0055119545
0.46242123 0.19409876 -0.005411091
0.50899652 0.19159352 -0.0053102275
0.55557182 0.18908829 -0.005209364
0.60214712 0.18658305 -0.0051085006
0.64872242 0.18407782 -0.0050076371
0.69529771 0.18157259 -0.0049067736
0.74187301 0.17906735 -0.0048059101
0.78844831 0.17656212 -0.0047050467
0.83502361 0.17405688 -0.0046041832
0.8815989 0.17155165 -0.0045033197
0.9281742 0.16904641 -0.0044024562
0.9747495 0.16654118 -0.0043015928
1.0213248 0.16403594 -0.0042007293
1.0679001 0.16153071 -0.0040998658
1.1144754 0.15902548 -0.0039990023
1.1610507 0.15652024 -0.0038981389
1.207626 0.15401501 -0.0037972754
1.2542013 0.15150977 -0.0036964119
1.3007766 0.14900454 -0.0035955484
1.3473519 0.1464993 -0.003494685
1.3939272 0.14399407 -0.0033938215
1.4405025 0.14148884 -0.003292958
-0.058224889 0.25859906 -0.0076073541
-0.011649591 0.25609382 -0.0075064906
0.034925706 0.25358859 -0.0074056271
0.081501004 0.25108335 -0.0073047636
0.1280763 0.24857812 -0.0072039002
0.1746516 0.24607289 -0.0071030367
0.2212269 0.24356765 -0.0070021732
0.26780219 0.24106242 -0.0069013097
0.31437749 0.23855718 -0.0068004463
0.36095279 0.23605195 -0.0066995828
0.40752809 0.23354671 -0.0065987193
0.45410338 0.23104148 -0.0064978558
0.50067868 0.22853625 -0.0063969924
0.54725398 0.22603101 -0.0062961289
0.59382928 0.22352578 -0.0061952654
0.64040457 0.22102054 -0.0060944019
0.68697987 0.21851531 -0.0059935385
0.73355517 0.21601007 -0.005892675
0.78013047 0.21350484 -0.0057918115
0.82670576 0.2109996 -0.005690948
0.87328106 0.20849437 -0.0055900846
0.91985636 0.20598914 -0.0054892211
0.96643166 0.2034839 -0.0053883576
1.013007 0.20097867 -0.0052874942
1.0595823 0.19847343 -0.0051866307
1.1061575 0.1959682 -0.0050857672
1.1527328 0.19346296 -0.0049849037
1.1993081 0.19095773 -0.0048840403
1.2458834 0.1884525 -0.0047831768
1.2924587 0.18594726 -0.0046823133
1.339034 0.18344203 -0.0045814498
1.3856093 0.18093679 -0.0044805864
1.4321846 0.17843156 -0.0043797229
-0.06654273 0.29554178 -0.0086941189
-0.019967432 0.29303655 -0.0085932555
0.026607865 0.29053131 -0.008492392
0.073183163 0.28802608 -0.0083915285
0.11975846 0.28552084 -0.008290665
0.16633376 0.28301561 -0.0081898016
0.21290906 0.28051037 -0.0080889381
0.25948435 0.27800514 -0.0079880746
0.30605965 0.27549991 -0.0078872111
0.35263495 0.27299467 -0.0077863477
0.39921025 0.27048944 -0.0076854842
0.44578554 0.2679842 -0.0075846207
0.49236084 0.26547897 -0.0074837572
0.53893614 0.26297373 -0.0073828938
0.58551144 0.2604685 -0.0072820303
0.63208673 0.25796326 -0.0071811668
0.67866203 0.25545803 -0.0070803033
0.72523733 0.2529528 -0.0069794399
0.77181263 0.25044756 -0.0068785764
0.81838792 0.24794233 -0.0067777129
0.86496322 0.24543709 -0.0066768494
0.91153852 0.24293186 -0.006575986
0.95811382 0.24042662 -0.0064751225
1.0046891 0.23792139 -0.006374259
1.0512644 0.23541616 -0.0062733955
1.0978397 0.23291092 -0.0061725321
1.144415 0.23040569 -0.0060716686
1.1909903 0.22790045 -0.0059708051
1.2375656 0.22539522 -0.0058699416
1.2841409 0.22288998 -0.0057690782
1.3307162 0.22038475 -0.0056682147
1.3772915 0.21787951 -0.0055673512
1.4238668 0.21537428 -0.0054664877
-0.074860571 0.3324845 -0.0097808838
-0.028285274 0.32997927 -0.0096800203
0.018290024 0.32747403 -0.0095791569
0.064865322 0.3249688 -0.0094782934
0.11144062 0.32246357 -0.0093774299
0.15801592 0.31995833 -0.0092765664
0.20459121 0.3174531 -0.009175703
0.25116651 0.31494786 -0.0090748395
0.29774181 0.31244263 -0.008973976
0.34431711 0.30993739 -0.0088731125
0.3908924 0.30743216 -0.0087722491
0.4374677 0.30492692 -0.0086713856
0.484043 0.30242169 -0.0085705221
0.5306183 0.29991646 -0.0084696586
0.57719359 0.29741122 -0.0083687952
0.62376889 0.29490599 -0.0082679317
0.67034419 0.29240075 -0.0081670682
0.71691949 0.28989552 -0.0080662047
0.76349478 0.28739028 -0.0079653413
0.81007008 0.28488505 -0.0078644778
0.85664538 0.28237982 -0.0077636143
0.90322068 0.27987458 -0.0076627508
0.94979597 0.27736935 -0.0075618874
0.99637127 0.27486411 -0.0074610239
1.0429466 0.27235888 -0.0073601604
1.0895219 0.26985364 -0.0072592969
1.1360972 0.26734841 -0.0071584335
1.1826725 0.26484317 -0.00705757
1.2292478 0.26233794 -0.0069567065
1.2758231 0.25983271 -0.006855843
1.3223984 0.25732747 -0.0067549796
1.3689737 0.25482224 -0.0066541161
1.4155489 0.252317 -0.0065532526
-0.083178412 0.36942723 -0.010867649
-0.036603115 0.36692199 -0.010766785
0.0099721828 0.36441676 -0.010665922
0.05654748 0.36191152 -0.010565058
0.10312278 0.35940629 -0.010464195
0.14969808 0.35690105 -0.010363331
0.19627337 0.35439582 -0.010262468
0.24284867 0.35189058 -0.010161604
0.28942397 0.34938535 -0.010060741
0.33599927 0.34688012 -0.0099598774
0.38257456 0.34437488 -0.0098590139
0.42914986 0.34186965 -0.0097581504
0.47572516 0.33936441 -0.009657287
0.52230046 0.33685918 -0.0095564235
0.56887575 0.33435394 -0.00945556
0.61545105 0.33184871 -0.0093546965
0.66202635 0.32934348 -0.0092538331
0.70860165 0.32683824 -0.0091529696
0.75517694 0.32433301 -0.0090521061
0.80175224 0.32182777 -0.0089512427
0.84832754 0.31932254 -0.0088503792
0.89490284 0.3168173 -0.0087495157
0.94147813 0.31431207 -0.0086486522
0.98805343 0.31180683 -0.0085477888
1.0346287 0.3093016 -0.0084469253
1.081204 0.30679637 -0.0083460618
1.1277793 0.30429113 -0.0082451983
1.1743546 0.3017859 -0.0081443349
1.2209299 0.29928066 -0.0080434714
1.2675052 0.29677543 -0.0079426079
1.3140805 0.29427019 -0.0078417444
1.3606558 0.29176496 -0.007740881
1.4072311 0.28925973 -0.0076400175
-0.091496253 0.40636995 -0.011954414
-0.044920956 0.40386471 -0.01185355
0.0016543415 0.40135948 -0.011752687
0.048229639 0.39885424 -0.011651823
0.094804937 0.39634901 -0.01155096
0.14138023 0.39384378 -0.011450096
0.18795553 0.39133854 -0.011349233
0.23453083 0.38883331 -0.011248369
0.28110613 0.38632807 -0.011147506
0.32768142 0.38382284 -0.011046642
0.37425672 0.3813176 -0.010945779
0.42083202 0.37881237 -0.010844915
0.46740732 0.37630714 -0.010744052
0.51398261 0.3738019 -0.010643188
0.56055791 0.37129667 -0.010542325
0.60713321 0.36879143 -0.010441461
0.65370851 0.3662862 -0.010340598
0.7002838 0.36378096 -0.010239734
0.7468591 0.36127573 -0.010138871
0.7934344 0.35877049 -0.010038008
0.8400097 0.35626526 -0.009937144
0.88658499 0.35376003 -0.0098362806
0.93316029 0.35125479 -0.0097354171
0.97973559 0.34874956 -0.0096345536
1.0263109 0.34624432 -0.0095336901
1.0728862 0.34373909 -0.0094328267
1.1194615 0.34123385 -0.0093319632
1.1660368 0.33872862 -0.0092310997
1.2126121 0.33622339 -0.0091302362
1.2591874 0.33371815 -0.0090293728
1.3057627 0.33121292 -0.0089285093
1.352338 0.32870768 -0.0088276458
1.3989133 0.32620245 -0.0087267823
-0.099814095 0.44331267 -0.013041178
-0.053238797 0.44080744 -0.012940315
-0.0066634997 0.4383022 -0.012839451
0.039911798 0.43579697 -0.012738588
0.086487095 0.43329173 -0.012637725
0.13306239 0.4307865 -0.012536861
0.17963769 0.42828126 -0.012435998
0.22621299 0.42577603 -0.012335134
0.27278829 0.4232708 -0.012234271
0.31936358 0.42076556 -0.012133407
0.36593888 0.41826033 -0.012032544
0.41251418 0.41575509 -0.01193168
0.45908948 0.41324986 -0.011830817
0.50566477 0.41074462 -0.011729953
0.55224007 0.40823939 -0.01162909
0.59881537 0.40573415 -0.011528226
0.64539067 0.40322892 -0.011427363
0.69196596 0.40072369 -0.011326499
0.73854126 0.39821845 -0.011225636
0.78511656 0.39571322 -0.011124772
0.83169186 0.39320798 -0.011023909
0.87826715 0.39070275 -0.010923045
0.92484245 0.38819751 -0.010822182
0.97141775 0.38569228 -0.010721318
1.017993 0.38318705 -0.010620455
1.0645683 0.38068181 -0.010519592
1.1111436 0.37817658 -0.010418728
1.1577189 0.37567134 -0.010317865
1.2042942 0.37316611 -0.010217001
1.2508695 0.37066087 -0.010116138
1.2974448 0.36815564 -0.010015274
1.3440201 0.3656504 -0.0099144107
1.3905954 0.36314517 -0.0098135472
-0.10813194 0.48025539 -0.014127943
-0.061556638 0.47775016 -0.01402708
-0.014981341 0.47524492 -0.013926216
0.031593957 0.47273969 -0.013825353
0.078169254 0.47023446 -0.013724489
0.12474455 0.46772922 -0.013623626
0.17131985 0.46522399 -0.013522762
0.21789515 0.46271875 -0.013421899
0.26447044 0.46021352 -0.013321035
0.31104574 0.45770828 -0.013220172
0.35762104 0.45520305 -0.013119309
0.40419634 0.45269781 -0.013018445
0.45077163 0.45019258 -0.012917582
0.49734693 0.44768735 -0.012816718
0.54392223 0.44518211 -0.012715855
0.59049753 0.44267688 -0.012614991
0.63707282 0.44017164 -0.012514128
0.68364812 0.43766641 -0.012413264
0.73022342 0.43516117 -0.012312401
0.77679872 0.43265594 -0.012211537
0.82337401 0.43015071 -0.012110674
0.86994931 0.42764547 -0.01200981
0.91652461 0.42514024 -0.011908947
0.96309991 0.422635 -0.011808083
1.0096752 0.42012977 -0.01170722
1.0562505 0.41762453 -0.011606356
1.1028258 0.4151193 -0.011505493
1.1494011 0.41261406 -0.011404629
1.1959764 0.41010883 -0.011303766
1.2425517 0.4076036 -0.011202903
1.289127 0.40509836 -0.011102039
1.3357023 0.40259313 -0.011001176
1.3822776 0.40008789 -0.010900312
-0.11644978 0.51719812 -0.015214708
-0.06987448 0.51469288 -0.015113845
-0.023299182 0.51218765 -0.015012981
0.023276115 0.50968241 -0.014912118
0.069851413 0.50717718 -0.014811254
0.11642671 0.50467194 -0.014710391
0.16300201 0.50216671 -0.014609527
0.20957731 0.49966147 -0.014508664
0.2561526 0.49715624 -0.0144078
0.3027279 0.49465101 -0.014306937
0.3493032 0.49214577 -0.014206073
0.3958785 0.48964054 -0.01410521
0.44245379 0.4871353 -0.014004346
0.48902909 0.48463007 -0.013903483
0.53560439 0.48212483 -0.013802619
0.58217969 0.4796196 -0.013701756
0.62875498 0.47711437 -0.013600893
0.67533028 0.47460913 -0.013500029
0.72190558 0.4721039 -0.013399166
0.76848088 0.46959866 -0.013298302
0.81505617 0.46709343 -0.013197439
0.86163147 0.46458819 -0.013096575
0.90820677 0.46208296 -0.012995712
0.95478207 0.45957772 -0.012894848
1.0013574 0.45707249 -0.012793985
1.0479327 0.45456726 -0.012693121
1.094508 0.45206202 -0.012592258
1.1410833 0.44955679 -0.012491394
1.1876586 0.44705155 -0.012390531
1.2342339 0.44454632 -0.012289667
1.2808091 0.44204108 -0.012188804
1.3273844 0.43953585 -0.01208794
1.3739597 0.43703062 -0.011987077
-0.12476762 0.55414084 -0.016301473
-0.078192321 0.5516356 -0.01620061
-0.031617023 0.54913037 -0.016099746
0.014958274 0.54662513 -0.015998883
0.061533572 0.5441199 -0.015898019
0.10810887 0.54161467 -0.015797156
0.15468417 0.53910943 -0.015696292
0.20125946 0.5366042 -0.015595429
0.24783476 0.53409896 -0.015494565
0.29441006 0.53159373 -0.015393702
0.34098536 0.52908849 -0.015292838
0.38756065 0.52658326 -0.015191975
0.43413595 0.52407803 -0.015091111
0.48071125 0.52157279 -0.014990248
0.52728655 0.51906756 -0.014889384
0.57386184 0.51656232 -0.014788521
0.62043714 0.51405709 -0.014687657
0.66701244 0.51155185 -0.014586794
0.71358774 0.50904662 -0.01448593
0.76016303 0.50654138 -0.014385067
0.80673833 0.50403615 -0.014284204
0.85331363 0.50153092 -0.01418334
0.89988893 0.49902568 -0.014082477
0.94646422 0.49652045 -0.013981613
0.99303952 0.49401521 -0.01388075
1.0396148 0.49150998 -0.013779886
1.0861901 0.48900474 -0.013679023
1.1327654 0.48649951 -0.013578159
1.1793407 0.48399428 -0.013477296
1.225916 0.48148904 -0.013376432
1.2724913 0.47898381 -0.013275569
1.3190666 0.47647857 -0.013174705
1.3656419 0.47397334 -0.013073842
-0.13308546 0.59108356 -0.017388238
-0.086510162 0.58857833 -0.017287374
-0.039934865 0.58607309 -0.017186511
0.0066404329 0.58356786 -0.017085647
0.05321573 0.58106262 -0.016984784
0.099791028 0.57855739 -0.01688392
0.14636633 0.57605215 -0.016783057
0.19294162 0.57354692 -0.016682194
0.23951692 0.57104169 -0.01658133
0.28609222 0.56853645 -0.016480467
0.33266752 0.56603122 -0.016379603
0.37924281 0.56352598 -0.01627874
0.42581811 0.56102075 -0.016177876
0.47239341 0.55851551 -0.016077013
0.51896871 0.55601028 -0.015976149
0.565544 0.55350504 -0.015875286
0.6121193 0.55099981 -0.015774422
0.6586946 0.54849458 -0.015673559
0.7052699 0.54598934 -0.015572695
0.75184519 0.54348411 -0.015471832
0.79842049 0.54097887 -0.015370968
0.84499579 0.53847364 -0.015270105
0.89157109 0.5359684 -0.015169241
0.93814638 0.53346317 -0.015068378
0.98472168 0.53095794 -0.014967514
1.031297 0.5284527 -0.014866651
1.0778723 0.52594747 -0.014765788
1.1244476 0.52344223 -0.014664924
1.1710229 0.520937 -0.014564061
1.2175982 0.51843176 -0.014463197
1.2641735 0.51592653 -0.014362334
1.3107488 0.5134213 -0.01426147
1.3573241 0.51091606 -0.014160607
-0.1414033 0.62802628 -0.018475003
-0.094828003 0.62552105 -0.018374139
-0.048252706 0.62301581 -0.018273276
-0.0016774083 0.62051058 -0.018172412
0.044897889 0.61800535 -0.018071549
0.091473187 0.61550011 -0.017970685
0.13804848 0.61299488 -0.017869822
0.18462378 0.61048964 -0.017768958
0.23119908 0.60798441 -0.017668095
0.27777438 0.60547917 -0.017567231
0.32434967 0.60297394 -0.017466368
0.37092497 0.60046871 -0.017365505
0.41750027 0.59796347 -0.017264641
0.46407557 0.59545824 -0.017163778
0.51065086 0.592953 -0.017062914
0.55722616 0.59044777 -0.016962051
0.60380146 0.58794253 -0.016861187
0.65037676 0.5854373 -0.016760324
0.69695205 0.58293206 -0.01665946
0.74352735 0.58042683 -0.016558597
0.79010265 0.5779216 -0.016457733
0.83667795 0.57541636 -0.01635687
0.88325324 0.57291113 -0.016256006
0.92982854 0.57040589 -0.016155143
0.97640384 0.56790066 -0.016054279
1.0229791 0.56539542 -0.015953416
1.0695544 0.56289019 -0.015852552
1.1161297 0.56038496 -0.015751689
1.162705 0.55787972 -0.015650825
1.2092803 0.55537449 -0.015549962
1.2558556 0.55286925 -0.015449098
1.3024309 0.55036402 -0.015348235
1.3490062 0.54785878 -0.015247372
-0.14972114 0.66496901 -0.019561768
-0.10314584 0.66246377 -0.019460904
-0.056570547 0.65995854 -0.019360041
-0.0099952495 0.6574533 -0.019259177
0.036580048 0.65494807 -0.019158314
0.083155345 0.65244283 -0.01905745
0.12973064 0.6499376 -0.018956587
0.17630594 0.64743237 -0.018855723
0.22288124 0.64492713 -0.01875486
0.26945654 0.6424219 -0.018653996
0.31603183 0.63991666 -0.018553133
0.36260713 0.63741143 -0.018452269
0.40918243 0.63490619 -0.018351406
0.45575773 0.63240096 -0.018250542
0.50233302 0.62989572 -0.018149679
0.54890832 0.62739049 -0.018048815
0.59548362 0.62488526 -0.017947952
0.64205892 0.62238002 -0.017847089
0.68863421 0.61987479 -0.017746225
0.73520951 0.61736955 -0.017645362
0.78178481 0.61486432 -0.017544498
0.82836011 0.61235908 -0.017443635
0.8749354 0.60985385 -0.017342771
0.9215107 0.60734862 -0.017241908
0.968086 0.60484338 -0.017141044
1.0146613 0.60233815 -0.017040181
1.0612366 0.59983291 -0.016939317
1.1078119 0.59732768 -0.016838454
1.1543872 0.59482244 -0.01673759
1.2009625 0.59231721 -0.016636727
