site/assets/luts/ocio-aces--sonyinputslog2-curve--e335c045a.cube
# LUTr-Project: LUTr — LUTrepository
# LUTr-Schema-Version: 1
# LUTr-ID: ocio-aces--sonyinputslog2-curve--e335c045a
# LUTr-Title: Sony.Input.SLog2-Curve
# LUTr-Collection: OCIO ACES
# LUTr-Collection-ID: aswf-opencolorio-config-aces
# LUTr-Source: https://github.com/AcademySoftwareFoundation/OpenColorIO-Config-ACES
# LUTr-Source-File: submissions/aswf-opencolorio-config-aces/opencolorio_config_aces/clf/transforms/sony/input/Sony.Input.SLog2-Curve.clf
# LUTr-Source-Format: CLF
# LUTr-Source-SHA256: 29d45822ec64a446188ac825a520d4e3558a7ac84a3958c34a514235b853102f
# LUTr-License: BSD-3-Clause
# LUTr-License-URL: https://github.com/AcademySoftwareFoundation/OpenColorIO-Config-ACES/blob/main/LICENSE
# LUTr-Tags: technical, aces, ocio, clf, color-management, cube
# LUTr-Transform-Class: color-space-conversion
# LUTr-Input-Color-Space: S-Log2 Log (arbitrary primaries)
# LUTr-Output-Color-Space: S-Log2 Linear (arbitrary primaries)
# LUTr-Color-Space-Confidence: descriptor-only
# LUTr-Conversion-Method: CLF operations evaluated as float and sampled to 33x33x33 3D CUBE
# LUTr-Conversion-Date: 2026-07-27
# LUTr-Conversion-Tool: LUTr scripts/convert-all-to-cube.mjs
# LUTr-Conversion-Grid: 33x33x33
# LUTr-Conversion-Warning: A sampled 3D CUBE is bounded to DOMAIN_MIN/MAX 0..1 and cannot preserve CLF values outside its input domain.
# LUTr-Upstream-ID: urn:aswf:ocio:transformId:1.0:Sony:Input:SLog2-Curve_to_Linear:1.0
# LUTr-Upstream-Name: S-Log2 Log to Linear Curve
# LUTr-Upstream-Input-Descriptor: S-Log2 Log (arbitrary primaries)
# LUTr-Upstream-Output-Descriptor: S-Log2 Linear (arbitrary primaries)
# LUTr-Upstream-Operations: Log
# LUTr-Note: Preserve this metadata and the upstream license notices when redistributing.
TITLE "Sony.Input.SLog2-Curve"
LUT_3D_SIZE 5
DOMAIN_MIN 0 0 0
DOMAIN_MAX 1 1 1
-0.026210564 -0.026210564 -0.026210564
0.082794823 -0.026210564 -0.026210564
0.56968864 -0.026210564 -0.026210564
2.871965 -0.026210564 -0.026210564
13.758274 -0.026210564 -0.026210564
-0.026210564 0.082794823 -0.026210564
0.082794823 0.082794823 -0.026210564
0.56968864 0.082794823 -0.026210564
2.871965 0.082794823 -0.026210564
13.758274 0.082794823 -0.026210564
-0.026210564 0.56968864 -0.026210564
0.082794823 0.56968864 -0.026210564
0.56968864 0.56968864 -0.026210564
2.871965 0.56968864 -0.026210564
13.758274 0.56968864 -0.026210564
-0.026210564 2.871965 -0.026210564
0.082794823 2.871965 -0.026210564
0.56968864 2.871965 -0.026210564
2.871965 2.871965 -0.026210564
13.758274 2.871965 -0.026210564
-0.026210564 13.758274 -0.026210564
0.082794823 13.758274 -0.026210564
0.56968864 13.758274 -0.026210564
2.871965 13.758274 -0.026210564
13.758274 13.758274 -0.026210564
-0.026210564 -0.026210564 0.082794823
0.082794823 -0.026210564 0.082794823
0.56968864 -0.026210564 0.082794823
2.871965 -0.026210564 0.082794823
13.758274 -0.026210564 0.082794823
-0.026210564 0.082794823 0.082794823
0.082794823 0.082794823 0.082794823
0.56968864 0.082794823 0.082794823
2.871965 0.082794823 0.082794823
13.758274 0.082794823 0.082794823
-0.026210564 0.56968864 0.082794823
0.082794823 0.56968864 0.082794823
0.56968864 0.56968864 0.082794823
2.871965 0.56968864 0.082794823
13.758274 0.56968864 0.082794823
-0.026210564 2.871965 0.082794823
0.082794823 2.871965 0.082794823
0.56968864 2.871965 0.082794823
2.871965 2.871965 0.082794823
13.758274 2.871965 0.082794823
-0.026210564 13.758274 0.082794823
0.082794823 13.758274 0.082794823
0.56968864 13.758274 0.082794823
2.871965 13.758274 0.082794823
13.758274 13.758274 0.082794823
-0.026210564 -0.026210564 0.56968864
0.082794823 -0.026210564 0.56968864
0.56968864 -0.026210564 0.56968864
2.871965 -0.026210564 0.56968864
13.758274 -0.026210564 0.56968864
-0.026210564 0.082794823 0.56968864
0.082794823 0.082794823 0.56968864
0.56968864 0.082794823 0.56968864
2.871965 0.082794823 0.56968864
13.758274 0.082794823 0.56968864
-0.026210564 0.56968864 0.56968864
0.082794823 0.56968864 0.56968864
0.56968864 0.56968864 0.56968864
2.871965 0.56968864 0.56968864
13.758274 0.56968864 0.56968864
-0.026210564 2.871965 0.56968864
0.082794823 2.871965 0.56968864
0.56968864 2.871965 0.56968864
2.871965 2.871965 0.56968864
13.758274 2.871965 0.56968864
-0.026210564 13.758274 0.56968864
0.082794823 13.758274 0.56968864
0.56968864 13.758274 0.56968864
2.871965 13.758274 0.56968864
13.758274 13.758274 0.56968864
-0.026210564 -0.026210564 2.871965
0.082794823 -0.026210564 2.871965
0.56968864 -0.026210564 2.871965
2.871965 -0.026210564 2.871965
13.758274 -0.026210564 2.871965
-0.026210564 0.082794823 2.871965
0.082794823 0.082794823 2.871965
0.56968864 0.082794823 2.871965
2.871965 0.082794823 2.871965
13.758274 0.082794823 2.871965
-0.026210564 0.56968864 2.871965
0.082794823 0.56968864 2.871965
0.56968864 0.56968864 2.871965
2.871965 0.56968864 2.871965
13.758274 0.56968864 2.871965
-0.026210564 2.871965 2.871965
0.082794823 2.871965 2.871965
0.56968864 2.871965 2.871965
2.871965 2.871965 2.871965
13.758274 2.871965 2.871965
-0.026210564 13.758274 2.871965
0.082794823 13.758274 2.871965
0.56968864 13.758274 2.871965
2.871965 13.758274 2.871965
13.758274 13.758274 2.871965
-0.026210564 -0.026210564 13.758274
0.082794823 -0.026210564 13.758274
0.56968864 -0.026210564 13.758274
2.871965 -0.026210564 13.758274
13.758274 -0.026210564 13.758274
-0.026210564 0.082794823 13.758274
0.082794823 0.082794823 13.758274
0.56968864 0.082794823 13.758274
2.871965 0.082794823 13.758274
13.758274 0.082794823 13.758274
-0.026210564 0.56968864 13.758274
0.082794823 0.56968864 13.758274
0.56968864 0.56968864 13.758274
2.871965 0.56968864 13.758274
13.758274 0.56968864 13.758274
-0.026210564 2.871965 13.758274
0.082794823 2.871965 13.758274
0.56968864 2.871965 13.758274
2.871965 2.871965 13.758274
13.758274 2.871965 13.758274
-0.026210564 13.758274 13.758274
0.082794823 13.758274 13.758274
0.56968864 13.758274 13.758274
2.871965 13.758274 13.758274
13.758274 13.758274 13.758274
