site/assets/luts/ocio-aces--ocioutilityap0-to-gamma18-encoded-rec709--6469cdc90.cube
# LUTr-Project: LUTr — LUTrepository
# LUTr-Schema-Version: 1
# LUTr-ID: ocio-aces--ocioutilityap0-to-gamma18-encoded-rec709--6469cdc90
# LUTr-Title: OCIO.Utility.AP0 to Gamma1.8 Encoded Rec709
# LUTr-Collection: OCIO ACES
# LUTr-Collection-ID: aswf-opencolorio-config-aces
# LUTr-Source: https://github.com/AcademySoftwareFoundation/OpenColorIO-Config-ACES
# LUTr-Source-File: submissions/aswf-opencolorio-config-aces/opencolorio_config_aces/clf/transforms/ocio/utility/OCIO.Utility.AP0_to_Gamma1.8_Encoded_Rec709.clf
# LUTr-Source-Format: CLF
# LUTr-Source-SHA256: 09021806122c632ad5057b1ef352f603c421bcd26c759f5b76d6266e53ac0fa8
# LUTr-License: BSD-3-Clause
# LUTr-License-URL: https://github.com/AcademySoftwareFoundation/OpenColorIO-Config-ACES/blob/main/LICENSE
# LUTr-Tags: technical, aces, ocio, clf, color-management, cube
# LUTr-Transform-Class: color-space-conversion
# LUTr-Input-Color-Space: ACES2065-1
# LUTr-Output-Color-Space: 1.8 gamma-corrected Rec.709 primaries, D65 white point
# LUTr-Color-Space-Confidence: descriptor-only
# LUTr-Conversion-Method: CLF operations evaluated as float and sampled to 33x33x33 3D CUBE
# LUTr-Conversion-Date: 2026-07-27
# LUTr-Conversion-Tool: LUTr scripts/convert-all-to-cube.mjs
# LUTr-Conversion-Grid: 33x33x33
# LUTr-Conversion-Warning: A sampled 3D CUBE is bounded to DOMAIN_MIN/MAX 0..1 and cannot preserve CLF values outside its input domain.
# LUTr-Upstream-ID: urn:aswf:ocio:transformId:1.0:OCIO:Utility:AP0_to_Gamma1.8_Encoded_Rec709:1.0
# LUTr-Upstream-Name: AP0 to Gamma 1.8 Encoded Rec.709
# LUTr-Upstream-Input-Descriptor: ACES2065-1
# LUTr-Upstream-Output-Descriptor: 1.8 gamma-corrected Rec.709 primaries, D65 white point
# LUTr-Upstream-Operations: Matrix → Exponent
# LUTr-Note: Preserve this metadata and the upstream license notices when redistributing.
TITLE "OCIO.Utility.AP0 to Gamma1.8 Encoded Rec709"
LUT_3D_SIZE 9
DOMAIN_MIN 0 0 0
DOMAIN_MAX 1 1 1
0 0 0
0.52655656 -0.034559989 -0.0019222581
0.77389834 -0.069119979 -0.0038445162
0.96942093 -0.10367997 -0.0057667744
1.1374251 -0.13823996 -0.0076890325
1.2875429 -0.17279995 -0.0096112906
1.4247914 -0.20735994 -0.011533549
1.5521866 -0.24191992 -0.013455807
1.6717129 -0.27647991 -0.015378065
-0.14176637 0.3755931 -0.019121917
0.3778429 0.33147667 -0.021044175
0.67177465 0.28205338 -0.022966433
0.88577667 0.22442643 -0.024888691
1.0644968 0.15118099 -0.026810949
1.2218563 -0.0012100604 -0.028733208
1.3644322 -0.03577005 -0.030655466
1.4959655 -0.070330039 -0.032577724
1.6188302 -0.10489003 -0.034499982
-0.28353275 0.55202213 -0.038243834
0.14692234 0.52041108 -0.040166092
0.55532875 0.48718269 -0.04208835
0.79526698 0.45203237 -0.044010608
0.98733037 0.41454358 -0.045932866
1.1532137 0.37411928 -0.047855125
1.3018565 0.32984727 -0.049777383
1.4380006 0.28019808 -0.051699641
1.5645277 0.22219591 -0.053621899
-0.42529912 0.69148851 -0.057365751
-0.11008835 0.66529945 -0.059288009
0.41474874 0.63825826 -0.061210267
0.69563053 0.61026762 -0.063132525
0.90500216 0.58120978 -0.065054783
1.0811335 0.55093992 -0.066977042
1.2367758 0.5192765 -0.0688993
1.3781028 0.48598648 -0.070821558
1.5086735 0.45076212 -0.072743816
-0.56706549 0.81132597 -0.076487668
-0.25185472 0.7883699 -0.078409926
0.21593683 0.76486611 -0.080332184
0.58295462 0.74076972 -0.082254442
0.81618581 0.7160292 -0.0841767
1.0049836 0.690585 -0.086098959
1.1688313 0.66436756 -0.088021217
1.3160454 0.63729487 -0.089943475
1.4511135 0.60926899 -0.091865733
-0.70883187 0.91840507 -0.095609585
-0.39362109 0.8976645 -0.097531843
-0.078410321 0.87653326 -0.099454101
0.44919482 0.85498635 -0.10137636
0.71884909 0.83299597 -0.10329862
0.92390632 0.810531 -0.10522088
1.0975678 0.78755645 -0.10714313
1.2515527 0.76403271 -0.10906539
1.3916658 0.73991467 -0.11098765
-0.85059824 1.0163045 -0.1147315
-0.53538747 0.99720762 -0.11665376
-0.22017669 0.97781355 -0.11857602
0.27049249 0.95810675 -0.12049828
0.60957054 0.93807018 -0.12242053
0.83668423 0.91768522 -0.12434279
1.0223922 0.89693137 -0.12626505
1.1842837 0.875786 -0.12818731
1.3301129 0.85422406 -0.13010957
-0.99236461 1.1071756 -0.13385342
-0.67715384 1.0893627 -0.13577568
-0.36194307 1.0713137 -0.13769794
-0.046732295 1.053018 -0.13962019
0.48164548 1.0344644 -0.14154245
0.74148256 1.0156407 -0.14346471
0.94250596 0.99653367 -0.14538697
1.1138076 0.97712893 -0.14730923
1.2661913 0.95741087 -0.14923148
-1.134131 1.1924338 -0.15297534
-0.81892021 1.1756609 -0.15489759
-0.50370944 1.1586944 -0.15681985
-0.18849867 1.1415268 -0.15874211
0.31736981 1.1241501 -0.16066437
0.63528744 1.1065558 -0.16258663
0.85678852 1.0887348 -0.16450888
1.0395668 1.0706773 -0.16643114
1.1995764 1.0523728 -0.1683534
-0.0484444 -0.012029897 0.3434192
0.47993667 -0.046589886 0.34090062
0.74027347 -0.081149875 0.33836707
0.94150823 -0.11570986 0.33581824
1.1129347 -0.15026985 0.33325385
1.2654036 -0.18482984 0.33067357
1.4043991 -0.21938983 0.32807708
1.5331604 -0.25394982 0.32546404
1.6537941 -0.28850981 0.32283412
-0.19021077 0.36072812 0.31766213
0.31498026 0.31498026 0.31498026
0.63391891 0.26314816 0.31228
0.85571161 0.201387 0.30956094
1.0386443 0.1179095 0.30682263
1.1987539 -0.013239957 0.30406463
1.3433114 -0.047799946 0.30128646
1.4763627 -0.082359936 0.29848765
1.6004398 -0.11691992 0.29566769
-0.33197715 0.54118655 0.2901127
-0.016766374 0.50904189 0.28722722
0.51080773 0.47518375 0.28431836
0.76239532 0.43927403 0.28138549
0.95983401 0.40084342 0.27842797
1.1289972 0.35920574 0.27544509
1.2799153 0.31328262 0.27243614
1.4177603 0.26118628 0.26940037
1.545623 0.19895246 0.26633698
-0.47374352 0.68246373 0.26028817
-0.15853275 0.65598803 0.25713836
0.35709377 0.62862831 0.25395737
0.65887013 0.60028077 0.25074418
0.87546484 0.5708191 0.24749771
1.0556067 0.54008702 0.24421681
1.2139005 0.50788704 0.24090026
1.3571521 0.47396338 0.23754677
1.4892045 0.43797428 0.23415498
-0.61550989 0.80339483 0.22743344
-0.30029912 0.78025283 0.22391985
0.096670085 0.75654817 0.22036159
0.54025306 0.73223379 0.21675676
0.78401514 0.70725555 0.21310332
0.97788405 0.68155066 0.20939907
1.1448789 0.65504556 0.20564163
1.2942964 0.62765312 0.20182845
1.4310215 0.59926885 0.19795674
-0.75727627 0.91122841 0.1902364
-0.44206549 0.89035453 0.1861735
-0.12685472 0.86908156 0.1820384
0.39555864 0.8473836 0.17782674
0.68308724 0.82523174 0.17353372
0.89486776 0.80259358 0.169154
1.0723538 0.77943262 0.16468162
1.2288973 0.75570744 0.16010988
1.3708809 0.73137077 0.15543122
-0.89904264 1.0096899 0.14597852
-0.58383187 0.99049127 0.14092991
-0.26862109 0.97099018 0.13573226
0.18203754 0.9511706 0.13037023
0.56846674 0.93101496 0.12482564
0.80516816 0.91050402 0.11907658
0.99567139 0.88961658 0.11309629
1.1605863 0.86832919 0.10685152
1.3085509 0.84661584 0.10029996
-1.040809 1.1010013 0.086433817
-0.72559824 1.0831074 0.0785745
-0.41038747 1.0649737 0.070028158
-0.095176694 1.0465896 0.06054991
0.43123762 1.0279434 0.049696016
0.70663612 1.0090227 0.036472117
0.9139398 0.98981367 0.017063061
1.0888943 0.97030171 -0.0012650506
1.2437492 0.95047067 -0.0031873087
-1.1825754 1.1866169 -0.0069311608
-0.86736461 1.1697774 -0.0088534189
-0.55215384 1.1527418 -0.010775677
-0.23694307 1.1355023 -0.012697935
0.24284193 1.1180509 -0.014620193
0.59560194 1.1003787 -0.016542451
0.82588564 1.0824766 -0.018464709
1.0132081 1.0643343 -0.020386968
1.1761254 1.0459412 -0.022309226
-0.0968888 -0.024059793 0.50473505
0.42937022 -0.058619783 0.50288695
0.70537948 -0.093179772 0.5010334
0.91291717 -0.12773976 0.49917435
1.0880054 -0.16229975 0.49730975
1.2429501 -0.19685974 0.49543953
1.3837671 -0.23141973 0.49356365
1.5139434 -0.26597972 0.49168205
1.6357186 -0.30053971 0.48979467
-0.23865517 0.345356 0.48610194
0.23987622 0.29776156 0.48419719
0.59416077 0.2430873 0.48228642
0.82477658 0.17601081 0.48036958
1.0122665 0.074323022 0.4784466
1.1752897 -0.025269854 0.47651742
1.3219216 -0.059829843 0.47458197
1.4565495 -0.094389832 0.47264018
1.5818789 -0.12894982 0.47069199
-0.38042155 0.53017456 0.46687898
-0.065210773 0.49746581 0.46491151
0.46293736 0.46293736 0.46293736
0.72834833 0.42621208 0.46095644
0.93169248 0.38675793 0.45896869
1.1043578 0.34377943 0.45697404
1.2576689 0.29598541 0.45497239
1.3972861 0.24099597 0.45296367
1.5265314 0.17329566 0.4509478
-0.52218792 0.67334245 0.44700078
-0.20697715 0.64656964 0.44496334
0.29075993 0.61887887 0.4429184
0.62038982 0.59015919 0.44086589
0.84510774 0.56027486 0.4388057
1.0295763 0.52905676 0.43673775
1.1906749 0.49628947 0.43466193
1.3359395 0.46169116 0.43257815
1.4695296 0.42488047 0.43048631
-0.66395429 0.79540054 0.42638864
-0.34874352 0.77206765 0.42427244
-0.033532747 0.74815642 0.42214775
0.49466047 0.7236175 0.42001448
0.75075174 0.69839395 0.4178725
0.95016986 0.67241949 0.4157217
1.1205187 0.64561619 0.41356197
1.2722511 0.6178914 0.41139317
1.4107012 0.58913339 0.40921519
-0.80572067 0.90400625 0.40494642
-0.49050989 0.88299622 0.40274061
-0.17529912 0.8615784 0.40052509
0.33533152 0.83972589 0.39829972
0.64576015 0.81740863 0.39606436
0.86505491 0.79459286 0.39381886
1.0466564 0.77124047 0.39156307
1.2059027 0.74730814 0.38929683
1.3498407 0.72274626 0.38702
-0.94748704 1.0030405 0.3825545
-0.63227627 0.98373829 0.38024544
-0.31706549 0.96412823 0.37792511
-0.0018547208 0.94419375 0.37559333
0.52483303 0.92391671 0.3732499
0.7726326 0.90327723 0.37089465
0.96836415 0.88225335 0.36852737
1.1364952 0.86082078 0.36614787
1.2867009 0.83895253 0.36375592
-1.0892534 1.0947992 0.35906079
-0.77404264 1.076823 0.35663092
-0.45883187 1.0586034 0.35418774
-0.14362109 1.0401295 0.35173099
0.37559285 1.0213892 0.34926045
0.67035692 1.0023697 0.34677584
0.8846407 0.98305697 0.34427691
1.0635163 0.96343584 0.34176338
1.2209782 0.94348968 0.33923498
-1.2310198 1.1807771 0.33426677
-0.91580901 1.1638702 0.33169279
-0.60059824 1.1467645 0.32910273
-0.28538747 1.1294522 0.32649626
0.14207936 1.1119249 0.32387303
0.55367723 1.0941738 0.3212327
0.79402856 1.0761893 0.31857489
0.98628897 1.057961 0.31589922
1.1522941 1.0394779 0.3132053
-0.1453332 -0.03608969 0.63225452
0.37350619 -0.070649679 0.63071193
0.66904607 -0.10520967 0.62916632
0.88359103 -0.13976966 0.62761766
1.0626106 -0.17432965 0.62606595
1.2201672 -0.20888964 0.62451114
1.3628861 -0.24344963 0.62295324
1.4945293 -0.27800961 0.62139221
1.6174819 -0.3125696 0.61982804
-0.28709957 0.32941578 0.61677251
0.13748849 0.27970635 0.61519895
0.5521492 0.22160372 0.61362217
0.792884 0.14728838 0.61204214
0.98532686 -0.0027397612 0.61045884
1.1514446 -0.03729975 0.60887224
1.3002512 -0.07185974 0.60728233
1.4365182 -0.10641973 0.60568909
1.563142 -0.14097972 0.60409248
-0.42886595 0.51897646 0.60097315
-0.11365517 0.4856701 0.5993665
0.41072648 0.45042611 0.59775641
0.69297733 0.41282171 0.59614283
0.90285383 0.37224948 0.59452575
1.0792705 0.3277782 0.59290515
1.2351031 0.27783853 0.591281
1.376569 0.21935029 0.58965327
1.5072469 0.14414988 0.58802193
-0.57063232 0.66412123 0.58483426
-0.25542155 0.6370402 0.58319215
0.20909617 0.60900498 0.58154634
0.57989679 0.57989679 0.57989679
0.81385195 0.54956941 0.57824348
1.0030084 0.51783937 0.57658638
1.1670812 0.4844709 0.57492546
1.3144539 0.44915223 0.57326069
1.4496418 0.41145555 0.57159205
-0.71239869 0.78734146 0.56833091
-0.39718792 0.76381244 0.56665066
-0.081977147 0.73968868 0.56496642
0.44542324 0.71491834 0.56327816
0.7162649 0.68944147 0.56158584
0.92179329 0.66318802 0.55988942
1.0957272 0.63607534 0.55818889
1.2498959 0.6080047 0.5564842
1.3901439 0.57885647 0.55477532
-0.85416507 0.89673763 0.55143491
-0.53895429 0.87558853 0.54971349
-0.22374352 0.8540226 0.54798775
0.2648045 0.8320119 0.54625765
0.60662047 0.80952515 0.54452315
0.83439634 0.78652716 0.54278423
1.0204439 0.76297812 0.54104083
1.1825519 0.73883263 0.53929293
1.3285349 0.71403862 0.53754048
-0.99593144 0.99635559 0.53411418
-0.68072067 0.97694802 0.53234811
-0.36550989 0.95722699 0.53057735
-0.050299121 0.93717541 0.52880184
0.47808002 0.91677457 0.52702155
0.73896187 0.89600388 0.52523644
0.94042643 0.87484063 0.52344646
1.1119886 0.85325962 0.52165157
1.2645499 0.8312328 0.51985173
-1.1376978 1.0885689 0.51633191
-0.82248704 1.0705092 0.5145172
-0.50727627 1.0522023 0.51269735
-0.19206549 1.0336371 0.51087232
0.31237519 1.0148011 0.50904207
0.6324337 0.99568118 0.50720653
0.85454378 0.97626291 0.50536566
1.0376443 0.9565306 0.50351941
1.1978623 0.93646712 0.50166774
-1.2794642 1.1749141 0.49804556
-0.96425341 1.1579389 0.49617756
-0.64904264 1.1407622 0.49430392
-0.33383187 1.123376 0.49242458
-0.018621094 1.1057719 0.49053949
0.50904169 1.0879406 0.48864858
0.76111431 1.0698724 0.4867518
0.95876878 1.0515567 0.48484909
1.1280618 1.0329822 0.48294038
-0.1937776 -0.048119587 0.74182651
0.30995491 -0.082679576 0.7404694
0.63106022 -0.11723957 0.7391103
0.85346461 -0.15179955 0.73774919
1.0367206 -0.18635954 0.73638608
1.1970389 -0.22091953 0.73502094
1.3417458 -0.25547952 0.73365377
1.4749112 -0.29003951 0.73228455
1.5990791 -0.3245995 0.73091329
-0.33554397 0.31283296 0.72823665
-0.020333199 0.26066608 0.72685928
0.50740708 0.19830538 0.72547982
0.75993026 0.11313189 0.72409826
0.95778462 -0.014769658 0.72271459
1.1271978 -0.049329647 0.72132879
1.2782879 -0.083889636 0.71994087
1.4162609 -0.11844963 0.71855079
1.5442238 -0.15300961 0.71715857
-0.47731035 0.50758163 0.71444079
-0.16209957 0.4736406 0.71304215
0.35255436 0.43763043 0.71164131
0.65609871 0.39907444 0.71023826
0.87325858 0.35727379 0.70883299
1.0537078 0.31112596 0.70742549
1.2122026 0.25868916 0.70601574
1.3555994 0.19584029 0.70460374
1.487763 0.10923511 0.70318947
-0.61907672 0.65479642 0.70042844
-0.30386595 0.62739532 0.69900742
0.083048568 0.59900133 0.69758408
0.53700235 0.56948699 0.69615842
0.78160477 0.53869446 0.69473042
0.97586504 0.50642411 0.69330006
1.1430995 0.47241704 0.69186734
1.2926836 0.43632676 0.69043224
1.4295332 0.39767065 0.68899476
-0.76084309 0.77921584 0.68618815
-0.44563232 0.75548523 0.68474354
-0.13042155 0.73114267 0.68329649
0.39137956 0.70613366 0.68184698
0.680395 0.680395 0.680395
0.89269994 0.65385258 0.67894054
1.0704787 0.6264186 0.67748358
1.2272161 0.59798768 0.67602411
1.3693406 0.56843146 0.67456212
-0.90260947 0.88942156 0.67170739
-0.58739869 0.86813036 0.67023787
-0.27218792 0.84641294 0.66876577
0.17415823 0.82424026 0.66729107
0.56534641 0.80157977 0.66581376
0.80280872 0.77839475 0.66433383
0.99368134 0.75464355 0.66285125
1.1588262 0.73027862 0.66136601
1.3069521 0.70524519 0.6598781
-1.0443758 0.98963462 0.65697246
-0.72916507 0.97011978 0.65547658
-0.41395429 0.95028571 0.65397797
-0.09874352 0.93011477 0.65247659
0.4273399 0.90958763 0.65097246
0.70401614 0.88868299 0.64946553
0.91180832 0.86737732 0.6479558
1.0870419 0.84564447 0.64644326
1.242084 0.82345529 0.64492788
-1.1861422 1.0823099 0.64196826
-0.87093144 1.0641654 0.64044441
-0.55572067 1.0457699 0.63891766
-0.24050989 1.0271119 0.63738799
0.23663002 1.0081786 0.63585537
0.5925964 0.98895655 0.63431979
0.82357379 0.96943082 0.63278123
1.0112457 0.94958525 0.63123967
1.1743839 0.92940218 0.6296951
-1.3279086 1.1690276 0.6266781
-1.0126978 1.1519831 0.62512451
-0.69748704 1.1347345 0.62356783
-0.38227627 1.1172734 0.62200804
-0.067065494 1.0995913 0.62044511
0.46102616 1.0816787 0.61887903
0.72701955 1.0635256 0.61730977
0.93060156 1.0451211 0.61573731
1.1034057 1.0264537 0.61416163
-0.242222 -0.060149483 0.83973305
0.23360148 -0.094709473 0.83850425
0.59114938 -0.12926946 0.83727401
0.82246223 -0.16382945 0.83604232
1.0103026 -0.19838944 0.83480918
1.1735473 -0.23294943 0.83357458
1.3203357 -0.26750942 0.83233852
1.4550821 -0.30206941 0.83110098
1.5805054 -0.3366294 0.82986197
-0.38398837 0.29551482 0.82744457
-0.068777599 0.24044111 0.82620118
0.45925627 0.17257275 0.82495628
0.72579122 0.067253435 0.82370989
0.92959362 -0.026799555 0.82246198
1.1025263 -0.061359544 0.82121255
1.2560185 -0.095919533 0.8199616
1.3957691 -0.13047952 0.81870912
1.5251182 -0.16503951 0.81745511
-0.52575475 0.49597836 0.81500833
-0.21054397 0.46136153 0.81374976
0.28539701 0.42452817 0.81248963
0.61748116 0.38493738 0.81122793
0.84283816 0.34177808 0.80996466
1.0276389 0.29372782 0.80869982
1.1889506 0.23833124 0.80743339
1.334367 0.16981379 0.80616536
1.4680727 0.061208891 0.80489574
-0.66752112 0.64536415 0.80241838
-0.35231035 0.61763034 0.80114402
-0.037099573 0.58886219 0.79986802
0.49117074 0.55892269 0.7985904
0.74825606 0.52764097 0.79731114
0.94810379 0.49479919 0.79603024
1.1187084 0.46011193 0.79474769
1.2706159 0.42319232 0.79346348
1.4091958 0.38349236 0.7921776
-0.80928749 0.77102186 0.78966838
-0.49407672 0.74708394 0.78837755
-0.17886595 0.72251598 0.78708504
0.33055498 0.69726067 0.78579082
0.64294364 0.67125127 0.78449489
0.86282739 0.64440927 0.78319725
1.0447444 0.61664126 0.78189789
1.2041958 0.58783458 0.78059679
1.3482812 0.5578512 0.77929396
-0.95105387 0.88205704 0.77675151
-0.63584309 0.86062057 0.77544352
-0.32063232 0.83874814 0.77413376
-0.0054215467 0.81640956 0.77282222
0.5215057 0.79357088 0.7715089
0.77019378 0.77019378 0.77019378
0.96632925 0.74623469 0.76887687
1.1347053 0.72164368 0.76755816
1.2850804 0.69636316 0.76623762
-1.0928202 0.98287694 0.76366047
-0.77760947 0.96325288 0.76233454
-0.46239869 0.94330363 0.76100676
-0.14718792 0.92301099 0.75967713
0.37123515 0.90235497 0.75834563
0.66762371 0.88131353 0.75701226
0.88245281 0.85986227 0.75567701
1.0616287 0.83797406 0.75433986
1.2192882 0.81561856 0.75300082
-1.2345866 1.0760218 0.75038738
-0.91937584 1.0577912 0.74904269
-0.60416507 1.0393057 0.74769606
-0.28895429 1.0205533 0.7463475
0.13237259 1.0015212 0.74499698
0.55049006 0.98219514 0.7436445
0.7916426 0.96255998 0.74229004
0.98428376 0.94259903 0.74093361
1.1505239 0.92229401 0.73957519
-1.376353 1.1631173 0.73692374
-1.0611422 1.1460027 0.7355594
-0.74593144 1.128681 0.73419303
-0.43072067 1.111144 0.73282462
-0.11550989 1.0933828 0.73145417
0.40862244 1.0753877 0.73008166
0.69159447 1.0571483 0.72870708
0.90173509 1.0386537 0.72733043
1.0783008 1.0198918 0.72595169
-0.2906664 -0.07217938 0.92924627
0.12750549 -0.10673937 0.92811323
0.54895493 -0.14129936 0.92697908
0.79049528 -0.17585935 0.92584382
0.98332008 -0.21041934 0.92470744
1.1496734 -0.24497933 0.92356995
1.2986442 -0.27953932 0.92243133
1.4350345 -0.31409931 0.92129159
1.5617554 -0.34865929 0.92015072
-0.43243277 0.27734346 0.91792546
-0.117222 0.21875194 0.91678124
0.40667246 0.14331168 0.91563588
0.69031598 -0.004269462 0.91448937
0.90070139 -0.038829451 0.9133417
1.077405 -0.073389441 0.91219288
1.2334286 -0.10794943 0.91104291
1.3750338 -0.14250942 0.90989177
1.5058193 -0.17706941 0.90873946
-0.57419915 0.48415374 0.90649184
-0.25898837 0.44881525 0.90533607
0.20207157 0.41109407 0.90417912
0.576826 0.37037214 0.90302099
0.81151272 0.32569863 0.90186167
1.00103 0.27546285 0.90070115
1.165329 0.21647482 0.89953944
1.3128609 0.14010228 0.89837653
1.4481689 -0.0054795224 0.89721241
-0.71596552 0.63582027 0.89494165
-0.40075475 0.60774025 0.89377396
-0.085543973 0.57858142 0.89260504
0.44162593 0.54819616 0.89143489
0.71367323 0.51639904 0.89026352
0.91967639 0.48295153 0.88909091
1.0938842 0.44753771 0.88791706
1.2482373 0.40972331 0.88674197
1.3886207 0.36888167 0.88556563
-0.85773189 0.76275761 0.88327097
-0.54252112 0.73860638 0.88209093
-0.22731035 0.7138061 0.88090962
0.25901703 0.68829641 0.87972705
0.60365888 0.66200679 0.87854321
0.83210342 0.63485393 0.87735809
1.0184927 0.6067383 0.87617168
1.1808181 0.57753921 0.87498399
1.3269554 0.5471079 0.87379501
-0.99949827 0.87464299 0.87147559
-0.68428749 0.85305799 0.87028277
-0.36907672 0.8310269 0.86908865
-0.053865946 0.8085183 0.86789321
0.47449315 0.7854968 0.86669645
0.73643428 0.76192236 0.86549837
0.93834321 0.73774933 0.86429896
1.1101671 0.71292529 0.86309822
1.2629067 0.68738955 0.86189614
-1.1412646 0.97608188 0.85955108
-0.82605387 0.95634659 0.85834503
-0.51084309 0.93627995 0.85713762
-0.19563232 0.91586319 0.85592885
0.30731585 0.89507563 0.85471871
0.62956962 0.87389444 0.8535072
0.85229431 0.85229431 0.85229431
1.0357191 0.83024706 0.85108004
1.1961463 0.80772112 0.84986439
-1.283031 1.0697042 0.84749273
-0.96782024 1.0513861 0.84627295
-0.65260947 1.0328092 0.84505177
-0.33739869 1.0139609 0.84382917
-0.02218792 0.99482811 0.84260515
0.50563155 0.97539628 0.84137971
0.75864592 0.95564969 0.84015284
0.95671757 0.93557113 0.83892453
1.1262612 0.91514174 0.83769479
-1.4247974 1.1571829 0.83529554
-1.1095866 1.1399971 0.83406151
-0.79437584 1.1226015 0.83282603
-0.47916507 1.1049875 0.83158907
-0.16395429 1.087146 0.83035064
0.35017533 1.069067 0.82911073
0.65465389 1.0507401 0.82786934
0.87210958 1.0321539 0.82662646
1.0527192 1.0132959 0.82538208
-0.3391108 -0.084209277 1.0123332
-0.023900025 -0.11876927 1.0112753
0.5039881 -0.15332926 1.0102164
0.75745879 -0.18788924 1.0091567
0.95573172 -0.22244923 1.0080961
1.1253961 -0.25700922 1.0070346
1.2766589 -0.29156921 1.0059722
1.4147602 -0.3261292 1.0049089
1.5428235 -0.36068919 1.0038447
-0.48087717 0.25816494 1.0017695
-0.1656664 0.19518498 1.0007026
0.3479677 0.10818709 0.99963483
0.6533179 -0.016299359 0.99856614
0.87104785 -0.050859348 0.99749654
1.051806 -0.085419337 0.99642601
1.2105028 -0.11997933 0.99535457
1.3540452 -0.15453932 0.9942822
1.4863204 -0.18909931 0.9932089
-0.62264355 0.47209341 0.99111585
-0.30743277 0.43598188 0.99003981
0.067337966 0.39729917 0.98896283
0.53373582 0.35533345 0.98788492
0.77918843 0.30895726 0.98680606
0.97384268 0.25617261 0.98572626
1.1413179 0.19268804 0.98464551
1.2910691 0.10414363 0.98356381
1.4280437 -0.017509419 0.98248116
-0.76440992 0.62616039 0.98036981
-0.44919915 0.59771969 0.97928434
-0.13398837 0.56815238 0.9781979
0.38716446 0.53729903 0.9771105
0.67769421 0.5049578 0.97602212
0.8905279 0.47086664 0.97493278
1.0686009 0.43467426 0.97384246
1.2255329 0.39589034 0.97275116
1.3677989 0.35379253 0.97165888
-0.90617629 0.7544211 0.9695287
-0.59096552 0.73005024 0.96843352
-0.27575475 0.70501035 0.96733735
0.16598276 0.67923777 0.96624017
0.56221224 0.65265785 0.96514201
0.80044372 0.62518212 0.96404284
0.9916881 0.59670431 0.96294267
1.157064 0.56709487 0.96184149
1.3053518 0.53619312 0.9607393
-1.0479427 0.86717831 0.95858974
-0.73273189 0.84544138 0.95748456
-0.41752112 0.82324783 0.95637835
-0.10231035 0.80056493 0.95527113
0.42341354 0.77735577 0.95416287
0.70138834 0.75357846 0.95305359
0.90967285 0.72918516 0.95194327
1.0851871 0.70412075 0.95083191
1.240417 0.67832123 0.94971952
-1.189709 0.96924876 0.94754998
-0.87449827 0.94940016 0.9464345
-0.55928749 0.92921388 0.94531797
-0.24407672 0.90867049 0.94420038
0.23028482 0.88774862 0.94308173
0.58957862 0.86642461 0.94196202
0.82125673 0.84467221 0.94084124
1.0092802 0.8224621 0.93971939
1.1726405 0.79976142 0.93859647
-1.3314754 1.0633565 0.93640635
-1.0162646 1.0449497 0.93528025
-0.70105387 1.0262798 0.93415307
-0.38584309 1.007334 0.93302479
-0.07063232 0.98809884 0.93189542
0.45733278 0.9685593 0.93076496
0.7244587 0.94869918 0.9296334
0.92850073 0.92850073 0.92850073
1.101573 0.90794447 0.92736696
-1.4732418 1.151224 0.9251556
-1.158031 1.1339661 0.92401855
-0.84282024 1.1164955 0.92288038
-0.52760947 1.0988034 0.92174108
-0.21239869 1.0808804 0.92060065
0.28257624 1.0627164 0.91945909
0.61596434 1.0443005 0.9183164
0.84165605 1.0256211 0.91717257
1.0266304 1.0066655 0.9160276
-0.3875552 -0.096239173 1.090288
-0.072344425 -0.13079916 1.0892911
0.45555143 -0.16535915 1.0882934
0.72322689 -0.19991914 1.087295
0.92749097 -0.23447913 1.0862959
1.1006923 -0.26903912 1.085296
1.2543664 -0.30359911 1.0842954
1.3942508 -0.3381591 1.0832941
1.523704 -0.37271909 1.082292
-0.52932157 0.23777142 1.0803382
-0.2141108 0.169079 1.0793339
0.27995222 0.059531113 1.0783289
0.61456149 -0.028329255 1.0773231
0.84056367 -0.062889245 1.0763166
1.0256987 -0.097449234 1.0753093
1.1872242 -0.13200922 1.0743013
1.3327931 -0.16656921 1.0732925
1.4666146 -0.2011292 1.0722829
-0.67108795 0.45978139 1.0703145
-0.35587717 0.42283889 1.0693027
-0.040666399 0.38310992 1.0682902
0.48766107 0.33976731 1.0672768
0.74575369 0.29145626 1.0662627
0.9460341 0.23564246 1.0652478
1.1168957 0.16627384 1.0642322
1.268979 0.052801413 1.0632158
1.4076891 -0.029539316 1.0621986
-0.81285432 0.61637978 1.0602152
-0.49764355 0.5875629 1.0591957
-0.18243277 0.55756789 1.0581754
0.32572257 0.52622214 1.0571543
0.64011723 0.49330531 1.0561324
0.86059525 0.45852834 1.0551098
1.0428296 0.42149876 1.0540863
1.202487 0.38165937 1.053062
1.3467203 0.33816993 1.052037
-0.95462069 0.74601023 1.0500383
-0.63940992 0.72141312 1.0490109
-0.32419915 0.69612592 1.0479826
-0.0089883726 0.67008142 1.0469536
0.5181613 0.64320054 1.0459238
0.76774877 0.6153891 1.0448931
0.96429091 0.58653347 1.0438617
1.1329132 0.55649432 1.0428294
1.2834583 0.52509761 1.0417963
-1.0963871 0.85966188 1.0397819
-0.78117629 0.83776949 1.0387463
-0.46596552 0.81540951 1.03771
-0.15075475 0.79254785 1.0366728
0.36683613 0.76914596 1.0356348
0.66488151 0.74516 1.034596
0.88026057 0.72053975 1.0335563
1.0597383 0.69522723 1.0325158
1.2175964 0.66915486 1.0314744
-1.2381534 0.96237689 1.0294438
-0.92294267 0.94241283 1.0284
-0.60773189 0.92210455 1.0273553
-0.29252112 0.90143195 1.0263098
0.12205935 0.88037291 1.0252634
0.54728805 0.85890291 1.0242161
0.78925088 0.83699467 1.023168
0.98227528 0.81461773 1.0221191
1.1487515 0.79173784 1.0210693
-1.3799198 1.0569785 1.0190221
-1.064709 1.0384814 1.0179697
-0.74949827 1.0197169 1.0169165
-0.43428749 1.0006721 1.0158624
-0.11907672 0.9813327 1.0148074
0.40455157 0.96168349 1.0137515
0.68892885 0.9417077 1.0126947
0.89958052 0.92138701 1.0116371
1.0764339 0.90070127 1.0105786
-1.5216862 1.1452404 1.0085144
-1.2064754 1.1279094 1.0074532
-0.89126464 1.1103627 1.0063912
-0.57605387 1.0925913 1.0053283
-0.26084309 1.0745856 1.0042644
0.19834057 1.0563352 1.0031997
0.57522404 1.037829 1.002134
0.8102942 1.0190549 1.0010675
1 1 1
