site/assets/luts/ocio-aces--blackmagicdesigninputdavinci-intermediate-widegamut-to-aces2065-1--df09476ba.cube
# LUTr-Project: LUTr — LUTrepository
# LUTr-Schema-Version: 1
# LUTr-ID: ocio-aces--blackmagicdesigninputdavinci-intermediate-widegamut-to-aces2065-1--df09476ba
# LUTr-Title: BlackmagicDesign.Input.DaVinci Intermediate WideGamut to ACES2065-1
# LUTr-Collection: OCIO ACES
# LUTr-Collection-ID: aswf-opencolorio-config-aces
# LUTr-Source: https://github.com/AcademySoftwareFoundation/OpenColorIO-Config-ACES
# LUTr-Source-File: submissions/aswf-opencolorio-config-aces/opencolorio_config_aces/clf/transforms/blackmagic/input/BlackmagicDesign.Input.DaVinci_Intermediate_WideGamut_to_ACES2065-1.clf
# LUTr-Source-Format: CLF
# LUTr-Source-SHA256: 352a494196ab4de1d7bc15b2bd6340c738329550344db43ecc411e8ce1308cc5
# LUTr-License: BSD-3-Clause
# LUTr-License-URL: https://github.com/AcademySoftwareFoundation/OpenColorIO-Config-ACES/blob/main/LICENSE
# LUTr-Tags: technical, aces, ocio, clf, color-management, cube
# LUTr-Transform-Class: color-space-conversion
# LUTr-Input-Color-Space: DaVinci Intermediate Wide Gamut
# LUTr-Output-Color-Space: ACES2065-1
# LUTr-Color-Space-Confidence: descriptor-only
# LUTr-Conversion-Method: CLF operations evaluated as float and sampled to 33x33x33 3D CUBE
# LUTr-Conversion-Date: 2026-07-27
# LUTr-Conversion-Tool: LUTr scripts/convert-all-to-cube.mjs
# LUTr-Conversion-Grid: 33x33x33
# LUTr-Conversion-Warning: A sampled 3D CUBE is bounded to DOMAIN_MIN/MAX 0..1 and cannot preserve CLF values outside its input domain.
# LUTr-Upstream-ID: urn:aswf:ocio:transformId:1.0:BlackmagicDesign:Input:DaVinci_Intermediate_WideGamut_to_ACES2065-1:1.0
# LUTr-Upstream-Name: DaVinci Intermediate Wide Gamut to ACES2065-1
# LUTr-Upstream-Input-Descriptor: DaVinci Intermediate Wide Gamut
# LUTr-Upstream-Output-Descriptor: ACES2065-1
# LUTr-Upstream-Operations: Log → Matrix
# LUTr-Note: Preserve this metadata and the upstream license notices when redistributing.
TITLE "BlackmagicDesign.Input.DaVinci Intermediate WideGamut to ACES2065-1"
LUT_3D_SIZE 33
DOMAIN_MIN 0 0 0
DOMAIN_MAX 1 1 1
3.2894634e-11 3.2894634e-11 3.2894634e-11
0.0022439437 0.000062502248 -0.00027443068
0.0049452323 0.00013774323 -0.00060479395
0.0085753634 0.00023885595 -0.0010487532
0.013453721 0.00037473644 -0.0016453685
0.02000951 0.00055733966 -0.002447131
0.028819518 0.0008027313 -0.0035245809
0.040658862 0.0011325013 -0.0049725137
0.056569185 0.0015756632 -0.0069183206
0.077950297 0.0021712071 -0.0095331964
0.10668334 0.0029715297 -0.013047202
0.14529629 0.0040470446 -0.017769503
0.19718636 0.005492377 -0.024115576
0.26691893 0.0074346895 -0.032643757
0.36062915 0.010044869 -0.044104367
0.48656178 0.013552564 -0.059505726
0.65579656 0.018266385 -0.080202868
0.883223 0.024601061 -0.10801676
1.1888504 0.033113926 -0.1453945
1.5995683 0.044553953 -0.19562464
2.1515122 0.059927653 -0.26312649
2.8932429 0.080587626 -0.35383897
3.890019 0.10835156 -0.47574309
5.2295382 0.14566218 -0.63956414
7.0296532 0.19580211 -0.85971533
9.4487409 0.26318274 -1.1555659
12.699636 0.35373231 -1.5531451
17.068356 0.4754175 -2.0874326
22.939269 0.63894434 -2.8054358
30.828904 0.85870016 -3.7703255
41.431403 1.1540194 -5.0669942
55.679589 1.5508846 -6.8095246
74.827038 2.0842126 -9.1512269
0.00050288966 0.0033344256 -0.00038309205
0.0027468333 0.0033969278 -0.00065752276
0.0054481219 0.0034721688 -0.00098788603
0.0090782531 0.0035732815 -0.0014318453
0.013956611 0.003709162 -0.0020284606
0.0205124 0.0038917652 -0.0028302231
0.029322408 0.0041371569 -0.003907673
0.041161752 0.0044669268 -0.0053556058
0.057072074 0.0049100888 -0.0073014127
0.078453187 0.0055056326 -0.0099162885
0.10718623 0.0063059553 -0.013430294
0.14579918 0.0073814702 -0.018152595
0.19768925 0.0088268026 -0.024498668
0.26742182 0.010769115 -0.033026849
0.36113204 0.013379295 -0.044487459
0.48706467 0.016886989 -0.059888818
0.65629945 0.02160081 -0.08058596
0.88372589 0.027935486 -0.10839985
1.1893533 0.036448351 -0.14577759
1.6000712 0.047888379 -0.19600773
2.1520151 0.063262079 -0.26350958
2.8937458 0.083922051 -0.35422206
3.8905219 0.11168599 -0.47612618
5.2300411 0.1489966 -0.63994723
7.0301561 0.19913653 -0.86009842
9.4492438 0.26651716 -1.155949
12.700139 0.35706673 -1.5535282
17.068859 0.47875192 -2.0878157
22.939771 0.64227877 -2.8058189
30.829407 0.86203459 -3.7707086
41.431906 1.1573538 -5.0673773
55.680092 1.554219 -6.8099077
74.827541 2.087547 -9.15161
0.0011082747 0.0073484505 -0.00084426329
0.0033522184 0.0074109527 -0.001118694
0.006053507 0.0074861937 -0.0014490573
0.0096836381 0.0075873064 -0.0018930165
0.014561996 0.0077231869 -0.0024896318
0.021117785 0.0079057902 -0.0032913943
0.029927793 0.0081511818 -0.0043688442
0.041767137 0.0084809518 -0.005816777
0.057677459 0.0089241137 -0.0077625839
0.079058572 0.0095196576 -0.01037746
0.10779162 0.01031998 -0.013891465
0.14640456 0.011395495 -0.018613767
0.19829464 0.012840828 -0.02495984
0.2680272 0.01478314 -0.03348802
0.36173742 0.01739332 -0.04494863
0.48767006 0.020901014 -0.060349989
0.65690484 0.025614835 -0.081047132
0.88433127 0.031949511 -0.10886102
1.1899587 0.040462376 -0.14623876
1.6006766 0.051902404 -0.1964689
2.1526205 0.067276104 -0.26397076
2.8943512 0.087936076 -0.35468324
3.8911273 0.11570001 -0.47658735
5.2306465 0.15301063 -0.6404084
7.0307615 0.20315056 -0.86055959
9.4498491 0.27053119 -1.1564101
12.700744 0.36108076 -1.5539894
17.069465 0.48276595 -2.0882769
22.940377 0.64629279 -2.8062801
30.830012 0.86604861 -3.7711698
41.432511 1.1613678 -5.0678385
55.680698 1.5582331 -6.8103688
74.828146 2.0915611 -9.1520711
0.0019218225 0.012742705 -0.001464009
0.0041657661 0.012805207 -0.0017384397
0.0068670547 0.012880448 -0.002068803
0.010497186 0.01298156 -0.0025127622
0.015375544 0.013117441 -0.0031093776
0.021931333 0.013300044 -0.0039111401
0.030741341 0.013545436 -0.00498859
0.042580685 0.013875206 -0.0064365228
0.058491007 0.014318368 -0.0083823296
0.07987212 0.014913912 -0.010997205
0.10860516 0.015714234 -0.014511211
0.14721811 0.016789749 -0.019233512
0.19910819 0.018235082 -0.025579585
0.26884075 0.020177394 -0.034107766
0.36255097 0.022787574 -0.045568376
0.4884836 0.026295268 -0.060969735
0.65771838 0.031009089 -0.081666877
0.88514482 0.037343765 -0.10948077
1.1907722 0.04585663 -0.14685851
1.6014901 0.057296658 -0.19708865
2.153434 0.072670358 -0.2645905
2.8951647 0.09333033 -0.35530298
3.8919408 0.12109427 -0.4772071
5.23146 0.15840488 -0.64102815
7.0315751 0.20854481 -0.86117934
9.4506627 0.27592544 -1.1570299
12.701558 0.36647501 -1.5546091
17.070278 0.4881602 -2.0888966
22.94119 0.65168705 -2.8068998
30.830826 0.87144287 -3.7717895
41.433325 1.1667621 -5.0684582
55.681511 1.5636273 -6.8109886
74.82896 2.0969553 -9.1526909
0.00301511 0.019991782 -0.0022968554
0.0052590536 0.020054284 -0.0025712861
0.0079603422 0.020129525 -0.0029016493
0.011590473 0.020230638 -0.0033456086
0.016468831 0.020366518 -0.0039422239
0.02302462 0.020549121 -0.0047439864
0.031834628 0.020794513 -0.0058214363
0.043673972 0.021124283 -0.0072693691
0.059584294 0.021567445 -0.009215176
0.080965407 0.022162989 -0.011830052
0.10969845 0.022963311 -0.015344057
0.1483114 0.024038826 -0.020066359
0.20020147 0.025484159 -0.026412432
0.26993404 0.027426471 -0.034940612
0.36364426 0.030036651 -0.046401222
0.48957689 0.033544345 -0.061802581
0.65881167 0.038258166 -0.082499724
0.88623811 0.044592842 -0.11031361
1.1918655 0.053105707 -0.14769135
1.6025834 0.064545735 -0.19792149
2.1545273 0.079919435 -0.26542335
2.896258 0.10057941 -0.35613583
3.8930341 0.12834335 -0.47803994
5.2325533 0.16565396 -0.64186099
7.0326684 0.21579389 -0.86201218
9.451756 0.28317452 -1.1578627
12.702651 0.37372409 -1.555442
17.071371 0.49540928 -2.0897295
22.942284 0.65893612 -2.8077326
30.831919 0.87869194 -3.7726224
41.434418 1.1740112 -5.0692911
55.682605 1.5708764 -6.8118214
74.830053 2.1042044 -9.1535237
0.0044843262 0.029733466 -0.0034160773
0.0067282698 0.029795969 -0.003690508
0.0094295584 0.029871209 -0.0040208713
0.01305969 0.029972322 -0.0044648305
0.017938047 0.030108203 -0.0050614458
0.024493836 0.030290806 -0.0058632083
0.033303845 0.030536198 -0.0069406582
0.045143189 0.030865968 -0.008388591
0.061053511 0.031309129 -0.010334398
0.082434623 0.031904673 -0.012949274
0.11116767 0.032704996 -0.016463279
0.14978062 0.033780511 -0.021185581
0.20167069 0.035225843 -0.027531654
0.27140325 0.037168156 -0.036059834
0.36511347 0.039778335 -0.047520444
0.49104611 0.04328603 -0.062921803
0.66028089 0.047999851 -0.083618946
0.88770733 0.054334527 -0.11143283
1.1933347 0.062847392 -0.14881058
1.6040526 0.07428742 -0.19904071
2.1559965 0.08966112 -0.26654257
2.8977272 0.11032109 -0.35725505
3.8945033 0.13808503 -0.47915917
5.2340225 0.17539564 -0.64298022
7.0341376 0.22553558 -0.8631314
9.4532252 0.2929162 -1.1589819
12.70412 0.38346577 -1.5565612
17.072841 0.50515096 -2.0908487
22.943753 0.66867781 -2.8088519
30.833388 0.88843363 -3.7737416
41.435887 1.1837529 -5.0704103
55.684074 1.5806181 -6.8129406
74.831523 2.1139461 -9.1546429
0.0064587348 0.042824845 -0.0049201455
0.0087026784 0.042887347 -0.0051945762
0.011403967 0.042962588 -0.0055249395
0.015034098 0.043063701 -0.0059688987
0.019912456 0.043199581 -0.0065655141
0.026468245 0.043382185 -0.0073672766
0.035278253 0.043627576 -0.0084447265
0.047117597 0.043957346 -0.0098926593
0.063027919 0.044400508 -0.011838466
0.084409032 0.044996052 -0.014453342
0.11314208 0.045796375 -0.017967347
0.15175502 0.04687189 -0.022689649
0.2036451 0.048317222 -0.029035722
0.27337766 0.050259535 -0.037563903
0.36708788 0.052869714 -0.049024512
0.49302052 0.056377409 -0.064425872
0.6622553 0.06109123 -0.085123014
0.88968173 0.067425906 -0.1129369
1.1953091 0.075938771 -0.15031464
1.606027 0.087378798 -0.20054478
2.1579709 0.1027525 -0.26804664
2.8997017 0.12341247 -0.35875912
3.8964777 0.15117641 -0.48066324
5.2359969 0.18848702 -0.64448428
7.036112 0.23862695 -0.86463547
9.4551996 0.30600758 -1.160486
12.706095 0.39655715 -1.5580653
17.074815 0.51824234 -2.0923528
22.945727 0.68176919 -2.8103559
30.835363 0.90152501 -3.7752457
41.437862 1.1968442 -5.0719144
55.686048 1.5937095 -6.8144447
74.833497 2.1270374 -9.156147
0.0091120471 0.060417716 -0.0069413901
0.011355991 0.060480218 -0.0072158208
0.014057279 0.060555459 -0.0075461841
0.01768741 0.060656572 -0.0079901433
0.022565768 0.060792453 -0.0085867587
0.029121557 0.060975056 -0.0093885212
0.037931566 0.061220447 -0.010465971
0.04977091 0.061550217 -0.011913904
0.065681232 0.061993379 -0.013859711
0.087062344 0.062588923 -0.016474587
0.11579539 0.063389246 -0.019988592
0.15440834 0.064464761 -0.024710893
0.20629841 0.065910093 -0.031056966
0.27603097 0.067852406 -0.039585147
0.36974119 0.070462585 -0.051045757
0.49567383 0.07397028 -0.066447116
0.66490861 0.078684101 -0.087144259
0.89233505 0.085018777 -0.11495815
1.1979624 0.093531642 -0.15233589
1.6086803 0.10497167 -0.20256603
2.1606242 0.12034537 -0.27006788
2.902355 0.14100534 -0.36078036
3.899131 0.16876928 -0.48268448
5.2386502 0.20607989 -0.64650553
7.0387653 0.25621983 -0.86665672
9.4578529 0.32360045 -1.1625073
12.708748 0.41415002 -1.5600865
17.077468 0.53583521 -2.094374
22.948381 0.69936206 -2.8123772
30.838016 0.91911788 -3.7772669
41.440515 1.2144371 -5.0739356
55.688701 1.6113023 -6.816466
74.83615 2.1446303 -9.1581683
0.012677705 0.084059925 -0.009657643
0.014921649 0.084122427 -0.0099320737
0.017622937 0.084197668 -0.010262437
0.021253069 0.084298781 -0.010706396
0.026131426 0.084434662 -0.011303012
0.032687216 0.084617265 -0.012104774
0.041497224 0.084862656 -0.013182224
0.053336568 0.085192426 -0.014630157
0.06924689 0.085635588 -0.016575964
0.090628002 0.086231132 -0.019190839
0.11936105 0.087031455 -0.022704845
0.15797399 0.08810697 -0.027427146
0.20986407 0.089552302 -0.033773219
0.27959663 0.091494615 -0.0423014
0.37330685 0.094104794 -0.05376201
0.49923949 0.097612489 -0.069163369
0.66847427 0.10232631 -0.089860511
0.8959007 0.10866099 -0.1176744
1.2015281 0.11717385 -0.15505214
1.612246 0.12861388 -0.20528228
2.1641899 0.14398758 -0.27278414
2.9059206 0.16464755 -0.36349662
3.9026967 0.19241149 -0.48540073
5.2422159 0.2297221 -0.64922178
7.042331 0.27986203 -0.86937297
9.4614186 0.34724266 -1.1652235
12.712313 0.43779223 -1.5628027
17.081034 0.55947742 -2.0970903
22.951946 0.72300427 -2.8150934
30.841581 0.94276009 -3.7799832
41.444081 1.2380793 -5.0766519
55.692267 1.6349445 -6.8191822
74.839716 2.1682725 -9.1608845
0.017469421 0.11583155 -0.013307884
0.019713364 0.11589405 -0.013582315
0.022414653 0.11596929 -0.013912678
0.026044784 0.1160704 -0.014356637
0.030923142 0.11620628 -0.014953253
0.037478931 0.11638889 -0.015755015
0.046288939 0.11663428 -0.016832465
0.058128283 0.11696405 -0.018280398
0.074038605 0.11740721 -0.020226205
0.095419718 0.11800275 -0.02284108
0.12415276 0.11880308 -0.026355086
0.16276571 0.11987859 -0.031077387
0.21465578 0.12132392 -0.03742346
0.28438835 0.12326624 -0.045951641
0.37809857 0.12587642 -0.057412251
0.5040312 0.12938411 -0.07281361
0.67326598 0.13409793 -0.093510752
0.90069242 0.14043261 -0.12132464
1.2063198 0.14894547 -0.15870238
1.6170377 0.1603855 -0.20893252
2.1689816 0.1757592 -0.27643438
2.9107123 0.19641917 -0.36714686
3.9074884 0.22418311 -0.48905097
5.2470076 0.26149373 -0.65287202
7.0471227 0.31163366 -0.87302321
9.4662103 0.37901428 -1.1688738
12.717105 0.46956385 -1.566453
17.085826 0.59124904 -2.1007405
22.956738 0.75477589 -2.8187437
30.846373 0.97453171 -3.7836334
41.448873 1.2698509 -5.0803021
55.697059 1.6667162 -6.8228324
74.844508 2.2000441 -9.1645347
0.023908776 0.15852789 -0.018213266
0.026152719 0.1585904 -0.018487697
0.028854008 0.15866564 -0.01881806
0.032484139 0.15876675 -0.01926202
0.037362497 0.15890263 -0.019858635
0.043918286 0.15908523 -0.020660397
0.052728294 0.15933062 -0.021737847
0.064567638 0.15966039 -0.02318578
0.08047796 0.16010356 -0.025131587
0.10185907 0.1606991 -0.027746463
0.13059212 0.16149942 -0.031260468
0.16920506 0.16257494 -0.03598277
0.22109514 0.16402027 -0.042328843
0.2908277 0.16596258 -0.050857023
0.38453792 0.16857276 -0.062317633
0.51047056 0.17208046 -0.077718992
0.67970534 0.17679428 -0.098416135
0.90713177 0.18312895 -0.12623002
1.2127592 0.19164182 -0.16360776
1.6234771 0.20308185 -0.2138379
2.175421 0.21845555 -0.28133976
2.9171517 0.23911552 -0.37205224
3.9139278 0.26687946 -0.49395636
5.253447 0.30419007 -0.65777741
7.053562 0.35433 -0.87792859
9.4726496 0.42171063 -1.1737791
12.723545 0.5122602 -1.5713584
17.092265 0.63394539 -2.1056459
22.963177 0.79747223 -2.8236491
30.852813 1.0172281 -3.7885388
41.455312 1.3125473 -5.0852075
55.703498 1.7094125 -6.8277378
74.850947 2.2427405 -9.1694401
0.032562314 0.21590545 -0.024805373
0.034806257 0.21596795 -0.025079803
0.037507546 0.21604319 -0.025410167
0.041137677 0.21614431 -0.025854126
0.046016035 0.21628019 -0.026450741
0.052571824 0.21646279 -0.027252504
0.061381832 0.21670818 -0.028329953
0.073221176 0.21703795 -0.029777886
0.089131498 0.21748111 -0.031723693
0.11051261 0.21807666 -0.034338569
0.13924565 0.21887698 -0.037852574
0.1778586 0.21995249 -0.042574876
0.22974868 0.22139783 -0.048920949
0.29948124 0.22334014 -0.05744913
0.39319146 0.22595032 -0.068909739
0.51912409 0.22945801 -0.084311099
0.68835887 0.23417183 -0.10500824
0.91578531 0.24050651 -0.13282213
1.2214127 0.24901937 -0.17019987
1.6321306 0.2604594 -0.22043001
2.1840745 0.2758331 -0.28793187
2.9258052 0.29649307 -0.37864435
3.9225813 0.32425701 -0.50054846
5.2621005 0.36156763 -0.66436951
7.0622156 0.41170756 -0.8845207
9.4813032 0.47908819 -1.1803712
12.732198 0.56963776 -1.5779505
17.100919 0.69132295 -2.112238
22.971831 0.85484979 -2.8302412
30.861466 1.0746056 -3.7951309
41.463965 1.3699248 -5.0917996
55.712152 1.7667901 -6.8343299
74.859601 2.3001181 -9.1760322
0.044191385 0.29301237 -0.033664185
0.046435328 0.29307487 -0.033938616
0.049136617 0.29315012 -0.034268979
0.052766748 0.29325123 -0.034712939
0.057645106 0.29338711 -0.035309554
0.064200895 0.29356971 -0.036111316
0.073010903 0.2938151 -0.037188766
0.084850247 0.29414487 -0.038636699
0.10076057 0.29458804 -0.040582506
0.12214168 0.29518358 -0.043197382
0.15087473 0.2959839 -0.046711387
0.18948767 0.29705942 -0.051433689
0.24137775 0.29850475 -0.057779762
0.31111031 0.30044706 -0.066307942
0.40482053 0.30305724 -0.077768552
0.53075317 0.30656494 -0.093169912
0.69998794 0.31127876 -0.11386705
0.92741438 0.31761343 -0.14168094
1.2330418 0.3261263 -0.17905868
1.6437597 0.33756633 -0.22928882
2.1957036 0.35294003 -0.29679068
2.9374343 0.3736 -0.38750316
3.9342104 0.40136394 -0.50940727
5.2737296 0.43867455 -0.67322832
7.0738446 0.48881448 -0.89337951
9.4929323 0.55619511 -1.1892301
12.743827 0.64674468 -1.5868093
17.112548 0.76842987 -2.1210968
22.98346 0.93195671 -2.8391
30.873095 1.1517125 -3.8039897
41.475595 1.4470318 -5.1006584
55.723781 1.843897 -6.8431887
74.87123 2.377225 -9.1848911
0.059819131 0.39663264 -0.045569116
0.062063075 0.39669514 -0.045843546
0.064764363 0.39677038 -0.04617391
0.068394494 0.3968715 -0.046617869
0.073272852 0.39700738 -0.047214484
0.079828641 0.39718998 -0.048016247
0.088638649 0.39743537 -0.049093697
0.10047799 0.39776514 -0.050541629
0.11638832 0.3982083 -0.052487436
0.13776943 0.39880385 -0.055102312
0.16650247 0.39960417 -0.058616317
0.20511542 0.40067968 -0.063338619
0.25700549 0.40212502 -0.069684692
0.32673806 0.40406733 -0.078212873
0.42044828 0.40667751 -0.089673482
0.54638091 0.4101852 -0.10507484
0.71561569 0.41489902 -0.12577198
0.94304213 0.4212337 -0.15358587
1.2486695 0.42974657 -0.19096361
1.6593874 0.44118659 -0.24119375
2.2113313 0.45656029 -0.30869561
2.9530621 0.47722027 -0.39940809
3.9498381 0.5049842 -0.52131221
5.2893573 0.54229482 -0.68513325
7.0894724 0.59243475 -0.90528444
9.50856 0.65981538 -1.201135
12.759455 0.75036495 -1.5987142
17.128175 0.87205014 -2.1330017
22.999088 1.035577 -2.8510049
30.888723 1.2553328 -3.8158946
41.491222 1.550652 -5.1125633
55.739409 1.9475173 -6.8550937
74.886857 2.4808452 -9.196796
0.080820504 0.53588291 -0.061567576
0.083064448 0.53594541 -0.061842007
0.085765736 0.53602065 -0.06217237
0.089395867 0.53612176 -0.062616329
0.094274225 0.53625764 -0.063212945
0.10083001 0.53644025 -0.064014707
0.10964002 0.53668564 -0.065092157
0.12147937 0.53701541 -0.06654009
0.13738969 0.53745857 -0.068485897
0.1587708 0.53805411 -0.071100772
0.18750384 0.53885444 -0.074614778
0.22611679 0.53992995 -0.079337079
0.27800687 0.54137528 -0.085683152
0.34773943 0.5433176 -0.094211333
0.44144965 0.54592778 -0.10567194
0.56738228 0.54943547 -0.1210733
0.73661706 0.55414929 -0.14177044
0.9640435 0.56048397 -0.16958433
1.2696709 0.56899683 -0.20696207
1.6803888 0.58043686 -0.25719221
2.2323327 0.59581056 -0.32469407
2.9740634 0.61647053 -0.41540655
3.9708395 0.64423447 -0.53731067
5.3103587 0.68154509 -0.70113171
7.1104738 0.73168502 -0.9212829
9.5295614 0.79906565 -1.2171334
12.780456 0.88961522 -1.6147127
17.149177 1.0113004 -2.1490002
23.020089 1.1748272 -2.8670034
30.909724 1.3945831 -3.8318931
41.512224 1.6899023 -5.1285618
55.76041 2.0867675 -6.8710921
74.907859 2.6200955 -9.2127944
0.10904323 0.72301461 -0.083067133
0.11128718 0.72307711 -0.083341564
0.11398847 0.72315235 -0.083671927
0.1176186 0.72325347 -0.084115887
0.12249696 0.72338935 -0.084712502
0.12905274 0.72357195 -0.085514265
0.13786275 0.72381734 -0.086591714
0.1497021 0.72414711 -0.088039647
0.16561242 0.72459027 -0.089985454
0.18699353 0.72518582 -0.09260033
0.21572657 0.72598614 -0.096114335
0.25433952 0.72706165 -0.10083664
0.3062296 0.72850699 -0.10718271
0.37596216 0.7304493 -0.11571089
0.46967238 0.73305948 -0.1271715
0.59560501 0.73656717 -0.14257286
0.76483979 0.74128099 -0.16327
0.99226623 0.74761567 -0.19108389
1.2978936 0.75612854 -0.22846163
1.7086115 0.76756856 -0.27869177
2.2605554 0.78294226 -0.34619363
3.0022862 0.80360224 -0.43690611
3.9990622 0.83136617 -0.55881022
5.3385814 0.86867679 -0.72263127
7.1386965 0.91881672 -0.94278246
9.5577841 0.98619735 -1.238633
12.808679 1.0767469 -1.6362122
17.1774 1.1984321 -2.1704998
23.048312 1.361959 -2.8885029
30.937947 1.5817148 -3.8533927
41.540446 1.877034 -5.1500613
55.788633 2.2738992 -6.8925917
74.936081 2.8072272 -9.234294
0.1469704 0.97449186 -0.11195935
0.14921434 0.97455436 -0.11223378
0.15191563 0.9746296 -0.11256414
0.15554576 0.97473071 -0.1130081
0.16042412 0.97486659 -0.11360472
0.16697991 0.9750492 -0.11440648
0.17578991 0.97529459 -0.11548393
0.18762926 0.97562436 -0.11693186
0.20353958 0.97606752 -0.11887767
0.22492069 0.97666307 -0.12149255
0.25365374 0.97746339 -0.12500655
0.29226669 0.9785389 -0.12972885
0.34415676 0.97998424 -0.13607493
0.41388932 0.98192655 -0.14460311
0.50759954 0.98453673 -0.15606372
0.63353218 0.98804442 -0.17146508
0.80276696 0.99275824 -0.19216222
1.0301934 0.99909292 -0.21997611
1.3358208 1.0076058 -0.25735385
1.7465387 1.0190458 -0.30758399
2.2984826 1.0344195 -0.37508584
3.0402133 1.0550795 -0.46579832
4.0369894 1.0828434 -0.58770244
5.3765086 1.120154 -0.75152349
7.1766236 1.170294 -0.97167468
9.5957113 1.2376746 -1.2675252
12.846606 1.3282242 -1.6651045
17.215327 1.4499094 -2.199392
23.086239 1.6134362 -2.9173951
30.975874 1.833192 -3.8822849
41.578374 2.1285112 -5.1789536
55.82656 2.5253765 -6.9214839
74.974009 3.0587045 -9.2631862
0.19793888 1.31244 -0.1507862
0.20018282 1.3125025 -0.15106063
0.20288411 1.3125777 -0.151391
0.20651424 1.3126788 -0.15183495
0.2113926 1.3128147 -0.15243157
0.21794839 1.3129973 -0.15323333
0.22675839 1.3132427 -0.15431078
0.23859774 1.3135725 -0.15575872
0.25450806 1.3140156 -0.15770452
0.27588917 1.3146112 -0.1603194
0.30462222 1.3154115 -0.1638334
0.34323517 1.316487 -0.1685557
0.39512524 1.3179324 -0.17490178
0.4648578 1.3198747 -0.18342996
0.55856802 1.3224848 -0.19489057
0.68450066 1.3259925 -0.21029193
0.85373544 1.3307064 -0.23098907
1.0811619 1.337041 -0.25880296
1.3867893 1.3455539 -0.2961807
1.7975072 1.3569939 -0.34641084
2.3494511 1.3723676 -0.41391269
3.0911818 1.3930276 -0.50462517
4.0879579 1.4207915 -0.62652929
5.4274771 1.4581022 -0.79035034
7.2275921 1.5082421 -1.0105015
9.6466797 1.5756227 -1.3063521
12.897575 1.6661723 -1.7039313
17.266295 1.7878575 -2.2382188
23.137207 1.9513843 -2.956222
31.026843 2.1711401 -3.9211117
41.629342 2.4664594 -5.2177804
55.877528 2.8633246 -6.9603108
75.024977 3.3966526 -9.3020131
0.26643295 1.7665921 -0.20296373
0.2686769 1.7666546 -0.20323816
0.27137818 1.7667299 -0.20356853
0.27500832 1.766831 -0.20401248
0.27988667 1.7669668 -0.2046091
0.28644246 1.7671495 -0.20541086
0.29525247 1.7673948 -0.20648831
0.30709181 1.7677246 -0.20793624
0.32300214 1.7681678 -0.20988205
0.34438325 1.7687633 -0.21249693
0.37311629 1.7695636 -0.21601093
0.41172924 1.7706392 -0.22073323
0.46361932 1.7720845 -0.22707931
0.53335188 1.7740268 -0.23560749
0.6270621 1.776637 -0.2470681
0.75299473 1.7801447 -0.26246946
0.92222951 1.7848585 -0.2831666
1.149656 1.7911932 -0.31098049
1.4552833 1.799706 -0.34835823
1.8660012 1.8111461 -0.39858837
2.4179451 1.8265198 -0.46609022
3.1596759 1.8471797 -0.5568027
4.1564519 1.8749437 -0.67870682
5.4959711 1.9122543 -0.84252787
7.2960862 1.9623942 -1.0626791
9.7151738 2.0297749 -1.3585296
12.966069 2.1203244 -1.7561088
17.334789 2.2420096 -2.2903964
23.205702 2.4055365 -3.0083995
31.095337 2.6252923 -3.9732893
41.697836 2.9206115 -5.2699579
55.946022 3.3174767 -7.0124883
75.093471 3.8508047 -9.3541906
0.35847883 2.3769052 -0.27308259
0.36072277 2.3769677 -0.27335702
0.36342406 2.377043 -0.27368738
0.36705419 2.3771441 -0.27413134
0.37193255 2.37728 -0.27472796
0.37848834 2.3774626 -0.27552972
0.38729835 2.3777079 -0.27660717
0.39913769 2.3780377 -0.2780551
0.41504801 2.3784809 -0.28000091
0.43642913 2.3790764 -0.28261579
0.46516217 2.3798767 -0.28612979
0.50377512 2.3809523 -0.29085209
0.55566519 2.3823976 -0.29719817
0.62539776 2.3843399 -0.30572635
0.71910798 2.3869501 -0.31718696
0.84504061 2.3904578 -0.33258832
1.0142754 2.3951716 -0.35328546
1.2417018 2.4015063 -0.38109935
1.5473292 2.4100191 -0.41847709
1.9580471 2.4214592 -0.46870723
2.509991 2.4368329 -0.53620908
3.2517217 2.4574928 -0.62692156
