site/assets/luts/ocio-aces--sonyinputslog3-sgamut3-to-aces2065-1--23ac9044b.cube
# LUTr-Project: LUTr — LUTrepository
# LUTr-Schema-Version: 1
# LUTr-ID: ocio-aces--sonyinputslog3-sgamut3-to-aces2065-1--23ac9044b
# LUTr-Title: Sony.Input.SLog3 SGamut3 to ACES2065-1
# LUTr-Collection: OCIO ACES
# LUTr-Collection-ID: aswf-opencolorio-config-aces
# LUTr-Source: https://github.com/AcademySoftwareFoundation/OpenColorIO-Config-ACES
# LUTr-Source-File: submissions/aswf-opencolorio-config-aces/opencolorio_config_aces/clf/transforms/sony/input/Sony.Input.SLog3_SGamut3_to_ACES2065-1.clf
# LUTr-Source-Format: CLF
# LUTr-Source-SHA256: f1544e7aef78e9050714ad87aa985584704aad51c797a821420915bfb706a826
# LUTr-License: BSD-3-Clause
# LUTr-License-URL: https://github.com/AcademySoftwareFoundation/OpenColorIO-Config-ACES/blob/main/LICENSE
# LUTr-Tags: technical, aces, ocio, clf, color-management, cube
# LUTr-Transform-Class: color-space-conversion
# LUTr-Input-Color-Space: Sony S-Log3 S-Gamut3
# LUTr-Output-Color-Space: ACES2065-1
# LUTr-Color-Space-Confidence: descriptor-only
# LUTr-Conversion-Method: CLF operations evaluated as float and sampled to 33x33x33 3D CUBE
# LUTr-Conversion-Date: 2026-07-27
# LUTr-Conversion-Tool: LUTr scripts/convert-all-to-cube.mjs
# LUTr-Conversion-Grid: 33x33x33
# LUTr-Conversion-Warning: A sampled 3D CUBE is bounded to DOMAIN_MIN/MAX 0..1 and cannot preserve CLF values outside its input domain.
# LUTr-Upstream-ID: urn:aswf:ocio:transformId:1.0:Sony:Input:SLog3_SGamut3_to_ACES2065-1:1.0
# LUTr-Upstream-Name: Sony S-Log3 S-Gamut3 to ACES2065-1
# LUTr-Upstream-Input-Descriptor: Sony S-Log3 S-Gamut3
# LUTr-Upstream-Output-Descriptor: ACES2065-1
# LUTr-Upstream-Operations: Log → Matrix
# LUTr-Note: Preserve this metadata and the upstream license notices when redistributing.
TITLE "Sony.Input.SLog3 SGamut3 to ACES2065-1"
LUT_3D_SIZE 33
DOMAIN_MIN 0 0 0
DOMAIN_MAX 1 1 1
-0.014023696 -0.014023696 -0.014023696
-0.010470252 -0.013921254 -0.014068132
-0.0069168079 -0.013818812 -0.014112568
-0.003363364 -0.01371637 -0.014157003
0.00019008004 -0.013613928 -0.014201439
0.003743524 -0.013511486 -0.014245875
0.0081896102 -0.01338331 -0.014301473
0.01442634 -0.013203511 -0.014379464
0.022690682 -0.012965259 -0.01448281
0.033641833 -0.012649549 -0.014619754
0.048153296 -0.012231199 -0.01480122
0.067382559 -0.011676839 -0.015041682
0.092863418 -0.010942253 -0.01536032
0.12662832 -0.009968846 -0.01578255
0.17137048 -0.0086789766 -0.016342051
0.23065869 -0.0069697596 -0.017083451
0.30922201 -0.0047048617 -0.018065886
0.41332693 -0.0017036263 -0.019367719
0.55127723 0.0022733361 -0.021092788
0.73407635 0.0075432429 -0.023378692
0.97630502 0.014526441 -0.026407764
1.2972843 0.023779936 -0.030421612
1.7226166 0.036041821 -0.035740396
2.2862281 0.052290148 -0.042788361
3.0330745 0.073820945 -0.052127681
4.022727 0.10235159 -0.064503292
5.3341238 0.14015778 -0.080902319
7.0718669 0.19025509 -0.10263281
9.3745651 0.25663946 -0.13142807
12.42589 0.34460595 -0.16958491
16.469226 0.46117109 -0.22014686
21.827086 0.61563255 -0.28714693
28.926831 0.82031074 -0.37592929
-0.013347109 -0.0092322457 -0.01400779
-0.0097936652 -0.0091298037 -0.014052226
-0.0062402212 -0.0090273616 -0.014096662
-0.0026867772 -0.0089249195 -0.014141098
0.00086666677 -0.0088224775 -0.014185534
0.0044201108 -0.0087200354 -0.01422997
0.0088661969 -0.0085918594 -0.014285568
0.015102926 -0.0084120611 -0.014363558
0.023367269 -0.0081738088 -0.014466904
0.03431842 -0.0078580986 -0.014603848
0.048829883 -0.0074397483 -0.014785314
0.068059146 -0.0068853889 -0.015025776
0.093540005 -0.0061508025 -0.015344415
0.12730491 -0.0051773958 -0.015766645
0.17204707 -0.0038875263 -0.016326146
0.23133528 -0.0021783094 -0.017067545
0.3098986 0.000086588492 -0.01804998
0.41400351 0.0030878239 -0.019351813
0.55195382 0.0070647864 -0.021076883
0.73475294 0.012334693 -0.023362787
0.97698161 0.019317891 -0.026391858
1.2979609 0.028571386 -0.030405706
1.7232932 0.040833271 -0.03572449
2.2869047 0.057081598 -0.042772456
3.0337511 0.078612395 -0.052111775
4.0234035 0.10714304 -0.064487386
5.3348004 0.14494923 -0.080886413
7.0725435 0.19504654 -0.1026169
9.3752417 0.26143091 -0.13141216
12.426567 0.3493974 -0.169569
16.469903 0.46596254 -0.22013095
21.827762 0.620424 -0.28713102
28.927507 0.82510219 -0.37591338
-0.012670522 -0.0044407955 -0.013991885
-0.0091170785 -0.0043383535 -0.014036321
-0.0055636345 -0.0042359114 -0.014080757
-0.0020101905 -0.0041334693 -0.014125192
0.0015432535 -0.0040310273 -0.014169628
0.0050966975 -0.0039285852 -0.014214064
0.0095427837 -0.0038004092 -0.014269662
0.015779513 -0.0036206109 -0.014347653
0.024043856 -0.0033823585 -0.014450998
0.034995007 -0.0030666484 -0.014587943
0.04950647 -0.0026482981 -0.014769409
0.068735733 -0.0020939387 -0.015009871
0.094216592 -0.0013593523 -0.015328509
0.12798149 -0.00038594558 -0.015750739
0.17272365 0.00090392387 -0.01631024
0.23201187 0.0026131408 -0.01705164
0.31057518 0.0048780387 -0.018034075
0.4146801 0.0078792741 -0.019335907
0.55263041 0.011856237 -0.021060977
0.73542953 0.017126143 -0.023346881
0.9776582 0.024109341 -0.026375953
1.2986375 0.033362836 -0.030389801
1.7239698 0.045624721 -0.035708585
2.2875813 0.061873049 -0.04275655
3.0344277 0.083403845 -0.05209587
4.0240801 0.11193449 -0.064471481
5.335477 0.14974068 -0.080870508
7.0732201 0.19983799 -0.102601
9.3759183 0.26622236 -0.13139625
12.427243 0.35418885 -0.16955309
16.47058 0.47075399 -0.22011505
21.828439 0.62521545 -0.28711512
28.928184 0.82989364 -0.37589748
-0.011993936 0.0003506547 -0.013975979
-0.0084404917 0.00045309676 -0.014020415
-0.0048870478 0.00055553882 -0.014064851
-0.0013336038 0.00065798088 -0.014109287
0.0022198402 0.00076042294 -0.014153723
0.0057732842 0.000862865 -0.014198159
0.01021937 0.00099104099 -0.014253757
0.0164561 0.0011708393 -0.014331747
0.024720443 0.0014090917 -0.014435093
0.035671594 0.0017248019 -0.014572037
0.050183057 0.0021431521 -0.014753503
0.069412319 0.0026975115 -0.014993965
0.094893179 0.003432098 -0.015312603
0.12865808 0.0044055046 -0.015734834
0.17340024 0.0056953741 -0.016294335
0.23268845 0.007404591 -0.017035734
0.31125177 0.0096694889 -0.018018169
0.41535669 0.012670724 -0.019320002
0.55330699 0.016647687 -0.021045071
0.73610611 0.021917593 -0.023330976
0.97833478 0.028900792 -0.026360047
1.299314 0.038154287 -0.030373895
1.7246464 0.050416171 -0.035692679
2.2882579 0.066664499 -0.042740645
3.0351043 0.088195295 -0.052079964
4.0247567 0.11672594 -0.064455575
5.3361536 0.15453213 -0.080854602
7.0738967 0.20462944 -0.10258509
9.3765949 0.27101381 -0.13138035
12.42792 0.3589803 -0.16953719
16.471256 0.47554544 -0.22009914
21.829116 0.6300069 -0.28709921
28.928861 0.83468509 -0.37588157
-0.011317349 0.0051421049 -0.013960074
-0.007763905 0.005244547 -0.01400451
-0.004210461 0.005346989 -0.014048945
-0.00065701703 0.0054494311 -0.014093381
0.002896427 0.0055518732 -0.014137817
0.006449871 0.0056543152 -0.014182253
0.010895957 0.0057824912 -0.014237851
0.017132686 0.0059622896 -0.014315842
0.025397029 0.0062005419 -0.014419187
0.03634818 0.0065162521 -0.014556132
0.050859643 0.0069346023 -0.014737598
0.070088906 0.0074889618 -0.01497806
0.095569765 0.0082235482 -0.015296698
0.12933467 0.0091969548 -0.015718928
0.17407683 0.010486824 -0.016278429
0.23336504 0.012196041 -0.017019829
0.31192836 0.014460939 -0.018002264
0.41603327 0.017462175 -0.019304096
0.55398358 0.021439137 -0.021029166
0.7367827 0.026709044 -0.02331507
0.97901137 0.033692242 -0.026344142
1.2999906 0.042945737 -0.030357989
1.725323 0.055207622 -0.035676773
2.2889345 0.071455949 -0.042724739
3.0357808 0.092986746 -0.052064058
4.0254333 0.12151739 -0.06443967
5.3368302 0.15932358 -0.080838697
7.0745733 0.20942089 -0.10256919
9.3772714 0.27580526 -0.13136444
12.428596 0.36377175 -0.16952128
16.471933 0.48033689 -0.22008323
21.829792 0.63479835 -0.2870833
28.929537 0.83947655 -0.37586567
-0.010640762 0.0099335551 -0.013944168
-0.0070873183 0.010035997 -0.013988604
-0.0035338743 0.010138439 -0.01403304
0.000019569705 0.010240881 -0.014077476
0.0035730137 0.010343323 -0.014121912
0.0071264577 0.010445765 -0.014166347
0.011572544 0.010573941 -0.014221946
0.017809273 0.01075374 -0.014299936
0.026073616 0.010991992 -0.014403282
0.037024767 0.011307702 -0.014540226
0.05153623 0.011726053 -0.014721692
0.070765493 0.012280412 -0.014962154
0.096246352 0.013014998 -0.015280792
0.13001125 0.013988405 -0.015703023
0.17475341 0.015278275 -0.016262524
0.23404163 0.016987491 -0.017003923
0.31260494 0.019252389 -0.017986358
0.41670986 0.022253625 -0.019288191
0.55466017 0.026230587 -0.02101326
0.73745929 0.031500494 -0.023299165
0.97968796 0.038483692 -0.026328236
1.3006672 0.047737187 -0.030342084
1.7259996 0.059999072 -0.035660868
2.2896111 0.076247399 -0.042708834
3.0364574 0.097778196 -0.052048153
4.0261099 0.12630884 -0.064423764
5.3375068 0.16411503 -0.080822791
7.0752499 0.21421234 -0.10255328
9.377948 0.28059671 -0.13134854
12.429273 0.3685632 -0.16950538
16.472609 0.48512834 -0.22006733
21.830469 0.6395898 -0.2870674
28.930214 0.844268 -0.37584976
-0.0097942137 0.015928641 -0.013924267
-0.0062407697 0.016031083 -0.013968703
-0.0026873257 0.016133525 -0.014013139
0.00086611827 0.016235967 -0.014057575
0.0044195623 0.016338409 -0.014102011
0.0079730063 0.016440851 -0.014146446
0.012419092 0.016569027 -0.014202045
0.018655822 0.016748825 -0.014280035
0.026920165 0.016987078 -0.014383381
0.037871316 0.017302788 -0.014520325
0.052382779 0.017721138 -0.014701791
0.071612041 0.018275497 -0.014942253
0.097092901 0.019010084 -0.015260891
0.1308578 0.019983491 -0.015683122
0.17559996 0.02127336 -0.016242623
0.23488818 0.022982577 -0.016984022
0.31345149 0.025247475 -0.017966457
0.41755641 0.02824871 -0.01926829
0.55550671 0.032225673 -0.020993359
0.73830584 0.037495579 -0.023279264
0.9805345 0.044478777 -0.026308335
1.3015138 0.053732273 -0.030322183
1.7268461 0.065994157 -0.035640967
2.2904576 0.082242485 -0.042688933
3.037304 0.10377328 -0.052028252
4.0269564 0.13230392 -0.064403863
5.3383533 0.17011012 -0.08080289
7.0760964 0.22020743 -0.10253338
9.3787946 0.2865918 -0.13132864
12.430119 0.37455829 -0.16948548
16.473456 0.49112343 -0.22004743
21.831315 0.64558489 -0.2870475
28.93106 0.85026308 -0.37582986
-0.0086067211 0.024338222 -0.013896351
-0.0050532772 0.024440665 -0.013940787
-0.0014998332 0.024543107 -0.013985223
0.0020536108 0.024645549 -0.014029659
0.0056070548 0.024747991 -0.014074094
0.0091604988 0.024850433 -0.01411853
0.013606585 0.024978609 -0.014174129
0.019843314 0.025158407 -0.014252119
0.028107657 0.025396659 -0.014355465
0.039058808 0.02571237 -0.014492409
0.053570271 0.02613072 -0.014673875
0.072799534 0.026685079 -0.014914337
0.098280393 0.027419666 -0.015232975
0.1320453 0.028393072 -0.015655205
0.17678745 0.029682942 -0.016214707
0.23607567 0.031392159 -0.016956106
0.31463898 0.033657057 -0.017938541
0.4187439 0.036658292 -0.019240374
0.55669421 0.040635255 -0.020965443
0.73949333 0.045905161 -0.023251348
0.981722 0.052888359 -0.026280419
1.3027013 0.062141854 -0.030294267
1.7280336 0.074403739 -0.035613051
2.2916451 0.090652067 -0.042661016
3.0384915 0.11218286 -0.052000336
4.0281439 0.1407135 -0.064375947
5.3395408 0.1785197 -0.080774974
7.0772839 0.22861701 -0.10250546
9.3799821 0.29500138 -0.13130072
12.431307 0.38296787 -0.16945756
16.474643 0.49953301 -0.22001951
21.832503 0.65399447 -0.28701958
28.932248 0.85867266 -0.37580194
-0.0070331647 0.035481831 -0.013859359
-0.0034797207 0.035584273 -0.013903795
0.000073723313 0.035686715 -0.013948231
0.0036271673 0.035789157 -0.013992667
0.0071806113 0.035891599 -0.014037102
0.010734055 0.035994041 -0.014081538
0.015180141 0.036122217 -0.014137137
0.021416871 0.036302015 -0.014215127
0.029681214 0.036540268 -0.014318473
0.040632365 0.036855978 -0.014455417
0.055143828 0.037274328 -0.014636883
0.07437309 0.037828688 -0.014877345
0.09985395 0.038563274 -0.015195983
0.13361885 0.039536681 -0.015618214
0.17836101 0.04082655 -0.016177715
0.23764923 0.042535767 -0.016919114
0.31621254 0.044800665 -0.017901549
0.42031746 0.0478019 -0.019203382
0.55826776 0.051778863 -0.020928451
0.74106689 0.05704877 -0.023214356
0.98329555 0.064031968 -0.026243427
1.3042748 0.073285463 -0.030257275
1.7296072 0.085547347 -0.035576059
2.2932187 0.10179567 -0.042624025
3.040065 0.12332647 -0.051963344
4.0297175 0.15185711 -0.064338955
5.3411144 0.18966331 -0.080737982
7.0788575 0.23976062 -0.10246847
9.3815556 0.30614499 -0.13126373
12.43288 0.39411148 -0.16942057
16.476217 0.51067662 -0.21998252
21.834076 0.66513808 -0.28698259
28.933821 0.86981627 -0.37576495
-0.0049480316 0.050248321 -0.013810341
-0.0013945877 0.050350763 -0.013854777
0.0021588563 0.050453205 -0.013899212
0.0057123003 0.050555647 -0.013943648
0.0092657443 0.050658089 -0.013988084
0.012819188 0.050760531 -0.01403252
0.017265274 0.050888707 -0.014088118
0.023502004 0.051068505 -0.014166109
0.031766347 0.051306758 -0.014269454
0.042717498 0.051622468 -0.014406399
0.057228961 0.052040818 -0.014587864
0.076458223 0.052595177 -0.014828327
0.10193908 0.053329764 -0.015146965
0.13570399 0.05430317 -0.015569195
0.18044614 0.05559304 -0.016128696
0.23973436 0.057302257 -0.016870096
0.31829767 0.059567155 -0.017852531
0.42240259 0.06256839 -0.019154363
0.5603529 0.066545353 -0.020879433
0.74315202 0.071815259 -0.023165337
0.98538069 0.078798457 -0.026194408
1.3063599 0.088051952 -0.030208256
1.7316923 0.10031384 -0.03552704
2.2953038 0.11656216 -0.042575006
3.0421502 0.13809296 -0.051914325
4.0318026 0.1666236 -0.064289937
5.3431995 0.2044298 -0.080688964
7.0809426 0.25452711 -0.10241945
9.3836408 0.32091148 -0.13121471
12.434966 0.40887797 -0.16937155
16.478302 0.52544311 -0.2199335
21.836161 0.67990457 -0.28693357
28.935906 0.88458276 -0.37571593
-0.0021850042 0.069815521 -0.013745386
0.0013684398 0.069917964 -0.013789822
0.0049218838 0.070020406 -0.013834258
0.0084753278 0.070122848 -0.013878694
0.012028772 0.07022529 -0.013923129
0.015582216 0.070327732 -0.013967565
0.020028302 0.070455908 -0.014023164
0.026265031 0.070635706 -0.014101154
0.034529374 0.070873958 -0.0142045
0.045480525 0.071189669 -0.014341444
0.059991988 0.071608019 -0.01452291
0.079221251 0.072162378 -0.014763372
0.10470211 0.072896965 -0.01508201
0.13846701 0.073870371 -0.015504241
0.18320917 0.075160241 -0.016063742
0.24249739 0.076869458 -0.016805141
0.3210607 0.079134356 -0.017787576
0.42516562 0.082135591 -0.019089409
0.56311592 0.086112554 -0.020814478
0.74591505 0.09138246 -0.023100383
0.98814371 0.098365658 -0.026129454
1.309123 0.10761915 -0.030143302
1.7344553 0.11988104 -0.035462086
2.2980668 0.13612937 -0.042510052
3.0449132 0.15766016 -0.051849371
4.0345656 0.1861908 -0.064224982
5.3459625 0.223997 -0.080624009
7.0837056 0.27409431 -0.1023545
9.3864038 0.34047868 -0.13114976
12.437729 0.42844517 -0.1693066
16.481065 0.54501031 -0.21986855
21.838924 0.69947177 -0.28686862
28.938669 0.90414996 -0.37565098
0.0014763069 0.095744185 -0.013659314
0.0050297509 0.095846627 -0.01370375
0.0085831949 0.095949069 -0.013748186
0.012136639 0.096051512 -0.013792622
0.015690083 0.096153954 -0.013837058
0.019243527 0.096256396 -0.013881493
0.023689613 0.096384572 -0.013937092
0.029926342 0.09656437 -0.014015082
0.038190685 0.096802622 -0.014118428
0.049141836 0.097118333 -0.014255372
0.063653299 0.097536683 -0.014436838
0.082882562 0.098091042 -0.0146773
0.10836342 0.098825629 -0.014995938
0.14212832 0.099799035 -0.015418169
0.18687048 0.1010889 -0.01597767
0.2461587 0.10279812 -0.016719069
0.32472201 0.10506302 -0.017701504
0.42882693 0.10806425 -0.019003337
0.56677724 0.11204122 -0.020728406
0.74957636 0.11731112 -0.023014311
0.99180502 0.12429432 -0.026043382
1.3127843 0.13354782 -0.03005723
1.7381166 0.1458097 -0.035376014
2.3017281 0.16205803 -0.04242398
3.0485745 0.18358883 -0.051763299
4.038227 0.21211947 -0.06413891
5.3496238 0.24992566 -0.080537937
7.087367 0.30002297 -0.10226843
9.3900651 0.36640734 -0.13106368
12.44139 0.45437383 -0.16922052
16.484726 0.57093897 -0.21978247
21.842586 0.72540043 -0.28678254
28.942331 0.93007863 -0.37556491
0.0063279414 0.13010248 -0.01354526
0.0098813854 0.13020492 -0.013589695
0.013434829 0.13030736 -0.013634131
0.016988273 0.1304098 -0.013678567
0.020541717 0.13051225 -0.013723003
0.024095161 0.13061469 -0.013767439
0.028541248 0.13074286 -0.013823037
0.034777977 0.13092266 -0.013901027
0.04304232 0.13116091 -0.014004373
0.053993471 0.13147662 -0.014141317
0.068504934 0.13189498 -0.014322783
0.087734196 0.13244933 -0.014563245
0.11321506 0.13318392 -0.014881884
0.14697996 0.13415733 -0.015304114
0.19172212 0.1354472 -0.015863615
0.25101033 0.13715641 -0.016605015
0.32957365 0.13942131 -0.017587449
0.43367856 0.14242255 -0.018889282
0.57162887 0.14639951 -0.020614352
0.75442799 0.15166942 -0.022900256
0.99665666 0.15865261 -0.025929327
1.3176359 0.16790611 -0.029943175
1.7429683 0.18016799 -0.035261959
2.3065798 0.19641632 -0.042309925
3.0534261 0.21794712 -0.051649244
4.0430786 0.24647776 -0.064024855
5.3544755 0.28428395 -0.080423883
7.0922186 0.33438126 -0.10215437
9.3949167 0.40076563 -0.13094963
12.446242 0.48873212 -0.16910647
16.489578 0.60529727 -0.21966842
21.847437 0.75975873 -0.28666849
28.947182 0.96443692 -0.37545085
0.012756883 0.17563094 -0.013394125
0.016310327 0.17573338 -0.013438561
0.019863771 0.17583583 -0.013482997
0.023417215 0.17593827 -0.013527432
0.026970659 0.17604071 -0.013571868
0.030524103 0.17614315 -0.013616304
0.034970189 0.17627133 -0.013671902
0.041206919 0.17645113 -0.013749893
0.049471262 0.17668938 -0.013853238
0.060422413 0.17700509 -0.013990183
0.074933876 0.17742344 -0.014171649
0.094163138 0.1779778 -0.014412111
0.119644 0.17871239 -0.014730749
0.1534089 0.17968579 -0.015152979
0.19815106 0.18097566 -0.01571248
0.25743927 0.18268488 -0.01645388
0.33600259 0.18494978 -0.017436315
0.4401075 0.18795101 -0.018738147
0.57805781 0.19192797 -0.020463217
0.76085693 0.19719788 -0.022749121
1.0030856 0.20418108 -0.025778193
1.3240649 0.21343457 -0.029792041
1.7493972 0.22569646 -0.035110825
2.3130087 0.24194479 -0.04215879
3.0598551 0.26347558 -0.05149811
4.0495075 0.29200622 -0.063873721
5.3609044 0.32981242 -0.080272748
7.0986475 0.37990973 -0.10200324
9.4013457 0.4462941 -0.13079849
12.452671 0.53426059 -0.16895533
16.496007 0.65082573 -0.21951729
21.853866 0.80528719 -0.28651736
28.953611 1.0099654 -0.37529972
0.021275929 0.2359611 -0.013193855
0.024829373 0.23606354 -0.013238291
0.028382817 0.23616598 -0.013282727
0.031936261 0.23626842 -0.013327162
0.035489705 0.23637087 -0.013371598
0.039043149 0.23647331 -0.013416034
0.043489235 0.23660148 -0.013471632
0.049725964 0.23678128 -0.013549623
0.057990307 0.23701953 -0.013652968
0.068941458 0.23733524 -0.013789913
0.083452921 0.23775359 -0.013971379
0.10268218 0.23830795 -0.014211841
0.12816304 0.23904254 -0.014530479
0.16192795 0.24001595 -0.014952709
0.2066701 0.24130582 -0.01551221
0.26595832 0.24301503 -0.01625361
0.34452163 0.24527993 -0.017236045
0.44862655 0.24828117 -0.018537878
0.58657686 0.25225813 -0.020262947
0.76937598 0.25752804 -0.022548851
1.0116046 0.26451123 -0.025577923
1.3325839 0.27376473 -0.029591771
1.7579163 0.28602661 -0.034910555
2.3215277 0.30227494 -0.04195852
3.0683741 0.32380574 -0.05129784
4.0580266 0.35233638 -0.063673451
5.3694235 0.39014257 -0.080072478
7.1071666 0.44023988 -0.10180297
9.4098647 0.50662425 -0.13059823
12.46119 0.59459074 -0.16875506
16.504526 0.71115589 -0.21931702
21.862385 0.86561735 -0.28631709
28.96213 1.0702955 -0.37509945
0.032564588 0.3159051 -0.012928476
0.036118032 0.31600754 -0.012972911
0.039671476 0.31610998 -0.013017347
0.04322492 0.31621242 -0.013061783
0.046778364 0.31631487 -0.013106219
0.050331808 0.31641731 -0.013150655
0.054777894 0.31654548 -0.013206253
0.061014624 0.31672528 -0.013284243
0.069278967 0.31696353 -0.013387589
0.080230118 0.31727924 -0.013524533
0.094741581 0.31769759 -0.013705999
0.11397084 0.31825195 -0.013946461
0.1394517 0.31898654 -0.0142651
0.17321661 0.31995995 -0.01468733
0.21795876 0.32124982 -0.015246831
0.27724698 0.32295903 -0.015988231
0.35581029 0.32522393 -0.016970665
0.45991521 0.32822517 -0.018272498
0.59786552 0.33220213 -0.019997568
0.78066464 0.33747204 -0.022283472
1.0228933 0.34445523 -0.025312543
1.3438726 0.35370873 -0.029326391
1.7692049 0.36597061 -0.034645175
2.3328164 0.38221894 -0.041693141
3.0796628 0.40374974 -0.05103246
4.0693152 0.43228038 -0.063408071
5.3807121 0.47008657 -0.079807099
7.1184552 0.52018388 -0.10153759
9.4211534 0.58656825 -0.13033285
12.472478 0.67453474 -0.16848968
16.515815 0.79109989 -0.21905164
21.873674 0.94556135 -0.28605171
28.973419 1.1502395 -0.37483407
0.047523287 0.42183957 -0.012576819
0.051076731 0.42194201 -0.012621255
0.054630175 0.42204445 -0.012665691
0.058183619 0.4221469 -0.012710127
0.061737063 0.42224934 -0.012754562
0.065290507 0.42235178 -0.012798998
0.069736593 0.42247996 -0.012854597
0.075973322 0.42265975 -0.012932587
0.084237665 0.42289801 -0.013035933
0.095188816 0.42321372 -0.013172877
0.10970028 0.42363207 -0.013354343
0.12892954 0.42418643 -0.013594805
0.1544104 0.42492101 -0.013913443
0.1881753 0.42589442 -0.014335674
0.23291746 0.42718429 -0.014895175
0.29220568 0.42889351 -0.015636574
0.37076899 0.4311584 -0.016619009
0.47487391 0.43415964 -0.017920842
0.61282422 0.4381366 -0.019645911
0.79562334 0.44340651 -0.021931816
1.037852 0.45038971 -0.024960887
1.3588313 0.4596432 -0.028974735
1.7841636 0.47190509 -0.034293519
2.3477751 0.48815341 -0.041341485
3.0946215 0.50968421 -0.050680804
4.0842739 0.53821485 -0.063056415
5.3956708 0.57602105 -0.079455442
7.1334139 0.62611836 -0.10118593
9.4361121 0.69250273 -0.12998119
12.487437 0.78046922 -0.16813803
16.530773 0.89703436 -0.21869998
21.888633 1.0514958 -0.28570005
28.988378 1.256174 -0.37448241
0.067345185 0.56221424 -0.012110836
0.070898629 0.56231668 -0.012155272
0.074452073 0.56241912 -0.012199708
0.078005517 0.56252156 -0.012244144
0.081558961 0.56262401 -0.012288579
0.085112405 0.56272645 -0.012333015
0.089558491 0.56285462 -0.012388614
0.09579522 0.56303442 -0.012466604
0.10405956 0.56327268 -0.01256995
0.11501071 0.56358839 -0.012706894
0.12952218 0.56400674 -0.01288836
0.14875144 0.5645611 -0.013128822
0.1742323 0.56529568 -0.01344746
0.2079972 0.56626909 -0.013869691
0.25273936 0.56755896 -0.014429192
0.31202757 0.56926817 -0.015170591
0.39059089 0.57153307 -0.016153026
0.49469581 0.57453431 -0.017454859
0.63264611 0.57851127 -0.019179928
0.81544524 0.58378118 -0.021465833
1.0576739 0.59076438 -0.024494904
1.3786532 0.60001787 -0.028508752
1.8039855 0.61227975 -0.033827536
2.367597 0.62852808 -0.040875502
3.1144434 0.65005888 -0.050214821
4.1040958 0.67858952 -0.062590432
5.4154927 0.71639571 -0.078989459
7.1532358 0.76649302 -0.10071995
9.455934 0.83287739 -0.12951521
12.507259 0.92084388 -0.16767205
16.550595 1.037409 -0.218234
21.908455 1.1918705 -0.28523407
29.0082 1.3965487 -0.37401643
0.09361135 0.7482259 -0.011493358
0.097164794 0.74832834 -0.011537794
0.10071824 0.74843079 -0.01158223
0.10427168 0.74853323 -0.011626666
0.10782513 0.74863567 -0.011671101
0.11137857 0.74873811 -0.011715537
0.11582466 0.74886629 -0.011771136
0.12206139 0.74904609 -0.011849126
0.13032573 0.74928434 -0.011952472
0.14127688 0.74960005 -0.012089416
0.15578834 0.7500184 -0.012270882
0.17501761 0.75057276 -0.012511344
0.20049846 0.75130734 -0.012829982
0.23426337 0.75228075 -0.013252213
0.27900553 0.75357062 -0.013811714
0.33829374 0.75527984 -0.014553113
0.41685706 0.75754474 -0.015535548
0.52096197 0.76054597 -0.016837381
0.65891228 0.76452293 -0.01856245
0.8417114 0.76979284 -0.020848355
1.0839401 0.77677604 -0.023877426
1.4049193 0.78602953 -0.027891274
1.8302517 0.79829142 -0.033210058
2.3938632 0.81453975 -0.040258024
3.1407095 0.83607054 -0.049597343
4.130362 0.86460118 -0.061972954
5.4417589 0.90240738 -0.078371981
7.179502 0.95250469 -0.10010247
9.4822001 1.0188891 -0.12889773
12.533525 1.1068555 -0.16705457
16.576861 1.2234207 -0.21761652
21.934721 1.3778822 -0.28461659
29.034466 1.5825603 -0.37339895
0.12841687 0.99471153 -0.010675133
