site/assets/luts/ocio-aces--arriinputlinear-arri-wide-gamut-4-to-aces2065-1--e3d9c08b8.cube
# LUTr-Project: LUTr — LUTrepository
# LUTr-Schema-Version: 1
# LUTr-ID: ocio-aces--arriinputlinear-arri-wide-gamut-4-to-aces2065-1--e3d9c08b8
# LUTr-Title: ARRI.Input.Linear ARRI Wide Gamut 4 to ACES2065-1
# LUTr-Collection: OCIO ACES
# LUTr-Collection-ID: aswf-opencolorio-config-aces
# LUTr-Source: https://github.com/AcademySoftwareFoundation/OpenColorIO-Config-ACES
# LUTr-Source-File: submissions/aswf-opencolorio-config-aces/opencolorio_config_aces/clf/transforms/arri/input/ARRI.Input.Linear_ARRI_Wide_Gamut_4_to_ACES2065-1.clf
# LUTr-Source-Format: CLF
# LUTr-Source-SHA256: 745ca828360c79a6da066f2075ee3870f77c610107c4711b7666bcfb00298f28
# LUTr-License: BSD-3-Clause
# LUTr-License-URL: https://github.com/AcademySoftwareFoundation/OpenColorIO-Config-ACES/blob/main/LICENSE
# LUTr-Tags: technical, aces, ocio, clf, color-management, cube
# LUTr-Transform-Class: color-space-conversion
# LUTr-Input-Color-Space: Linear ARRI Wide Gamut 4
# LUTr-Output-Color-Space: ACES2065-1
# LUTr-Color-Space-Confidence: descriptor-only
# LUTr-Conversion-Method: CLF operations evaluated as float and sampled to 33x33x33 3D CUBE
# LUTr-Conversion-Date: 2026-07-27
# LUTr-Conversion-Tool: LUTr scripts/convert-all-to-cube.mjs
# LUTr-Conversion-Grid: 33x33x33
# LUTr-Conversion-Warning: A sampled 3D CUBE is bounded to DOMAIN_MIN/MAX 0..1 and cannot preserve CLF values outside its input domain.
# LUTr-Upstream-ID: urn:aswf:ocio:transformId:1.0:ARRI:Input:Linear_ARRI_Wide_Gamut_4_to_ACES2065-1:1.0
# LUTr-Upstream-Name: Linear ARRI Wide Gamut 4 to ACES2065-1
# LUTr-Upstream-Input-Descriptor: Linear ARRI Wide Gamut 4
# LUTr-Upstream-Output-Descriptor: ACES2065-1
# LUTr-Upstream-Operations: Matrix
# LUTr-Note: Preserve this metadata and the upstream license notices when redistributing.
TITLE "ARRI.Input.Linear ARRI Wide Gamut 4 to ACES2065-1"
LUT_3D_SIZE 33
DOMAIN_MIN 0 0 0
DOMAIN_MAX 1 1 1
0 0 0
0.023467418 0.000025682409 -0.000015623504
0.046934835 0.000051364817 -0.000031247009
0.070402253 0.000077047226 -0.000046870513
0.09386967 0.00010272963 -0.000062494018
0.11733709 0.00012841204 -0.000078117522
0.14080451 0.00015409445 -0.000093741027
0.16427192 0.00017977686 -0.00010936453
0.18773934 0.00020545927 -0.00012498804
0.21120676 0.00023114168 -0.00014061154
0.23467418 0.00025682409 -0.00015623504
0.25814159 0.0002825065 -0.00017185855
0.28160901 0.0003081889 -0.00018748205
0.30507643 0.00033387131 -0.00020310556
0.32854385 0.00035955372 -0.00021872906
0.35201126 0.00038523613 -0.00023435257
0.37547868 0.00041091854 -0.00024997607
0.3989461 0.00043660095 -0.00026559958
0.42241352 0.00046228336 -0.00028122308
0.44588093 0.00048796577 -0.00029684659
0.46934835 0.00051364817 -0.00031247009
0.49281577 0.00053933058 -0.00032809359
0.51628319 0.00056501299 -0.0003437171
0.5397506 0.0005906954 -0.0003593406
0.56321802 0.00061637781 -0.00037496411
0.58668544 0.00064206022 -0.00039058761
0.61015286 0.00066774263 -0.00040621112
0.63362027 0.00069342504 -0.00042183462
0.65708769 0.00071910744 -0.00043745813
0.68055511 0.00074478985 -0.00045308163
0.70402253 0.00077047226 -0.00046870513
0.72748995 0.00079615467 -0.00048432864
0.75095736 0.00082183708 -0.00049995214
0.0045132121 0.031481175 -0.000026693038
0.02798063 0.031506857 -0.000042316543
0.051448047 0.031532539 -0.000057940047
0.074915465 0.031558222 -0.000073563552
0.098382882 0.031583904 -0.000089187056
0.1218503 0.031609587 -0.00010481056
0.14531772 0.031635269 -0.00012043407
0.16878514 0.031660951 -0.00013605757
0.19225255 0.031686634 -0.00015168107
0.21571997 0.031712316 -0.00016730458
0.23918739 0.031737999 -0.00018292808
0.26265481 0.031763681 -0.00019855159
0.28612222 0.031789363 -0.00021417509
0.30958964 0.031815046 -0.0002297986
0.33305706 0.031840728 -0.0002454221
0.35652448 0.031866411 -0.00026104561
0.37999189 0.031892093 -0.00027666911
0.40345931 0.031917775 -0.00029229261
0.42692673 0.031943458 -0.00030791612
0.45039415 0.03196914 -0.00032353962
0.47386156 0.031994823 -0.00033916313
0.49732898 0.032020505 -0.00035478663
0.5207964 0.032046188 -0.00037041014
0.54426382 0.03207187 -0.00038603364
0.56773123 0.032097552 -0.00040165715
0.59119865 0.032123235 -0.00041728065
0.61466607 0.032148917 -0.00043290416
0.63813349 0.0321746 -0.00044852766
0.6616009 0.032200282 -0.00046415116
0.68506832 0.032225964 -0.00047977467
0.70853574 0.032251647 -0.00049539817
0.73200316 0.032277329 -0.00051102168
0.75547057 0.032303012 -0.00052664518
0.0090264242 0.062962349 -0.000053386077
0.032493842 0.062988031 -0.000069009581
0.055961259 0.063013714 -0.000084633086
0.079428677 0.063039396 -0.00010025659
0.10289609 0.063065079 -0.00011588009
0.12636351 0.063090761 -0.0001315036
0.14983093 0.063116444 -0.0001471271
0.17329835 0.063142126 -0.00016275061
0.19676576 0.063167808 -0.00017837411
0.22023318 0.063193491 -0.00019399762
0.2437006 0.063219173 -0.00020962112
0.26716802 0.063244856 -0.00022524463
0.29063544 0.063270538 -0.00024086813
0.31410285 0.06329622 -0.00025649164
0.33757027 0.063321903 -0.00027211514
0.36103769 0.063347585 -0.00028773864
0.38450511 0.063373268 -0.00030336215
0.40797252 0.06339895 -0.00031898565
0.43143994 0.063424632 -0.00033460916
0.45490736 0.063450315 -0.00035023266
0.47837478 0.063475997 -0.00036585617
0.50184219 0.06350168 -0.00038147967
0.52530961 0.063527362 -0.00039710318
0.54877703 0.063553044 -0.00041272668
0.57224445 0.063578727 -0.00042835018
0.59571186 0.063604409 -0.00044397369
0.61917928 0.063630092 -0.00045959719
0.6426467 0.063655774 -0.0004752207
0.66611412 0.063681456 -0.0004908442
0.68958153 0.063707139 -0.00050646771
0.71304895 0.063732821 -0.00052209121
0.73651637 0.063758504 -0.00053771472
0.75998379 0.063784186 -0.00055333822
0.013539636 0.094443524 -0.000080079115
0.037007054 0.094469206 -0.00009570262
0.060474471 0.094494888 -0.00011132612
0.083941889 0.094520571 -0.00012694963
0.10740931 0.094546253 -0.00014257313
0.13087672 0.094571936 -0.00015819664
0.15434414 0.094597618 -0.00017382014
0.17781156 0.0946233 -0.00018944365
0.20127898 0.094648983 -0.00020506715
0.22474639 0.094674665 -0.00022069066
0.24821381 0.094700348 -0.00023631416
0.27168123 0.09472603 -0.00025193766
0.29514865 0.094751712 -0.00026756117
0.31861606 0.094777395 -0.00028318467
0.34208348 0.094803077 -0.00029880818
0.3655509 0.09482876 -0.00031443168
0.38901832 0.094854442 -0.00033005519
0.41248574 0.094880125 -0.00034567869
0.43595315 0.094905807 -0.0003613022
0.45942057 0.094931489 -0.0003769257
0.48288799 0.094957172 -0.00039254921
0.50635541 0.094982854 -0.00040817271
0.52982282 0.095008537 -0.00042379621
0.55329024 0.095034219 -0.00043941972
0.57675766 0.095059901 -0.00045504322
0.60022508 0.095085584 -0.00047066673
0.62369249 0.095111266 -0.00048629023
0.64715991 0.095136949 -0.00050191374
0.67062733 0.095162631 -0.00051753724
0.69409475 0.095188313 -0.00053316075
0.71756216 0.095213996 -0.00054878425
0.74102958 0.095239678 -0.00056440775
0.764497 0.095265361 -0.00058003126
0.018052848 0.1259247 -0.00010677215
0.041520266 0.12595038 -0.00012239566
0.064987684 0.12597606 -0.00013801916
0.088455101 0.12600175 -0.00015364267
0.11192252 0.12602743 -0.00016926617
0.13538994 0.12605311 -0.00018488968
0.15885735 0.12607879 -0.00020051318
0.18232477 0.12610447 -0.00021613669
0.20579219 0.12613016 -0.00023176019
0.22925961 0.12615584 -0.00024738369
0.25272702 0.12618152 -0.0002630072
0.27619444 0.1262072 -0.0002786307
0.29966186 0.12623289 -0.00029425421
0.32312928 0.12625857 -0.00030987771
0.34659669 0.12628425 -0.00032550122
0.37006411 0.12630993 -0.00034112472
0.39353153 0.12633562 -0.00035674823
0.41699895 0.1263613 -0.00037237173
0.44046636 0.12638698 -0.00038799523
0.46393378 0.12641266 -0.00040361874
0.4874012 0.12643835 -0.00041924224
0.51086862 0.12646403 -0.00043486575
0.53433604 0.12648971 -0.00045048925
0.55780345 0.12651539 -0.00046611276
0.58127087 0.12654108 -0.00048173626
0.60473829 0.12656676 -0.00049735977
0.62820571 0.12659244 -0.00051298327
0.65167312 0.12661812 -0.00052860678
0.67514054 0.12664381 -0.00054423028
0.69860796 0.12666949 -0.00055985378
0.72207538 0.12669517 -0.00057547729
0.74554279 0.12672085 -0.00059110079
0.76901021 0.12674654 -0.0006067243
0.02256606 0.15740587 -0.00013346519
0.046033478 0.15743156 -0.0001490887
0.069500896 0.15745724 -0.0001647122
0.092968313 0.15748292 -0.00018033571
0.11643573 0.1575086 -0.00019595921
0.13990315 0.15753428 -0.00021158271
0.16337057 0.15755997 -0.00022720622
0.18683798 0.15758565 -0.00024282972
0.2103054 0.15761133 -0.00025845323
0.23377282 0.15763701 -0.00027407673
0.25724024 0.1576627 -0.00028970024
0.28070765 0.15768838 -0.00030532374
0.30417507 0.15771406 -0.00032094725
0.32764249 0.15773974 -0.00033657075
0.35110991 0.15776543 -0.00035219426
0.37457732 0.15779111 -0.00036781776
0.39804474 0.15781679 -0.00038344126
0.42151216 0.15784247 -0.00039906477
0.44497958 0.15786816 -0.00041468827
0.46844699 0.15789384 -0.00043031178
0.49191441 0.15791952 -0.00044593528
0.51538183 0.1579452 -0.00046155879
0.53884925 0.15797089 -0.00047718229
0.56231666 0.15799657 -0.0004928058
0.58578408 0.15802225 -0.0005084293
0.6092515 0.15804793 -0.0005240528
0.63271892 0.15807362 -0.00053967631
0.65618634 0.1580993 -0.00055529981
0.67965375 0.15812498 -0.00057092332
0.70312117 0.15815066 -0.00058654682
0.72658859 0.15817634 -0.00060217033
0.75005601 0.15820203 -0.00061779383
0.77352342 0.15822771 -0.00063341734
0.027079273 0.18888705 -0.00016015823
0.05054669 0.18891273 -0.00017578174
0.074014108 0.18893841 -0.00019140524
0.097481525 0.18896409 -0.00020702874
0.12094894 0.18898978 -0.00022265225
0.14441636 0.18901546 -0.00023827575
0.16788378 0.18904114 -0.00025389926
0.1913512 0.18906682 -0.00026952276
0.21481861 0.18909251 -0.00028514627
0.23828603 0.18911819 -0.00030076977
0.26175345 0.18914387 -0.00031639328
0.28522087 0.18916955 -0.00033201678
0.30868828 0.18919524 -0.00034764028
0.3321557 0.18922092 -0.00036326379
0.35562312 0.1892466 -0.00037888729
0.37909054 0.18927228 -0.0003945108
0.40255795 0.18929797 -0.0004101343
0.42602537 0.18932365 -0.00042575781
0.44949279 0.18934933 -0.00044138131
0.47296021 0.18937501 -0.00045700482
0.49642762 0.1894007 -0.00047262832
0.51989504 0.18942638 -0.00048825183
0.54336246 0.18945206 -0.00050387533
0.56682988 0.18947774 -0.00051949883
0.59029729 0.18950342 -0.00053512234
0.61376471 0.18952911 -0.00055074584
0.63723213 0.18955479 -0.00056636935
0.66069955 0.18958047 -0.00058199285
0.68416696 0.18960615 -0.00059761636
0.70763438 0.18963184 -0.00061323986
0.7311018 0.18965752 -0.00062886337
0.75456922 0.1896832 -0.00064448687
0.77803664 0.18970888 -0.00066011037
0.031592485 0.22036822 -0.00018685127
0.055059902 0.2203939 -0.00020247477
0.07852732 0.22041959 -0.00021809828
0.10199474 0.22044527 -0.00023372178
0.12546215 0.22047095 -0.00024934529
0.14892957 0.22049663 -0.00026496879
0.17239699 0.22052232 -0.0002805923
0.19586441 0.220548 -0.0002962158
0.21933183 0.22057368 -0.00031183931
0.24279924 0.22059936 -0.00032746281
0.26626666 0.22062505 -0.00034308631
0.28973408 0.22065073 -0.00035870982
0.3132015 0.22067641 -0.00037433332
0.33666891 0.22070209 -0.00038995683
0.36013633 0.22072778 -0.00040558033
0.38360375 0.22075346 -0.00042120384
0.40707117 0.22077914 -0.00043682734
0.43053858 0.22080482 -0.00045245085
0.454006 0.22083051 -0.00046807435
0.47747342 0.22085619 -0.00048369785
0.50094084 0.22088187 -0.00049932136
0.52440825 0.22090755 -0.00051494486
0.54787567 0.22093323 -0.00053056837
0.57134309 0.22095892 -0.00054619187
0.59481051 0.2209846 -0.00056181538
0.61827792 0.22101028 -0.00057743888
0.64174534 0.22103596 -0.00059306239
0.66521276 0.22106165 -0.00060868589
0.68868018 0.22108733 -0.00062430939
0.71214759 0.22111301 -0.0006399329
0.73561501 0.22113869 -0.0006555564
0.75908243 0.22116438 -0.00067117991
0.78254985 0.22119006 -0.00068680341
0.036105697 0.2518494 -0.00021354431
0.059573114 0.25187508 -0.00022916781
0.083040532 0.25190076 -0.00024479132
0.10650795 0.25192644 -0.00026041482
0.12997537 0.25195213 -0.00027603833
0.15344278 0.25197781 -0.00029166183
0.1769102 0.25200349 -0.00030728533
0.20037762 0.25202917 -0.00032290884
0.22384504 0.25205486 -0.00033853234
0.24731245 0.25208054 -0.00035415585
0.27077987 0.25210622 -0.00036977935
0.29424729 0.2521319 -0.00038540286
0.31771471 0.25215759 -0.00040102636
0.34118213 0.25218327 -0.00041664987
0.36464954 0.25220895 -0.00043227337
0.38811696 0.25223463 -0.00044789688
0.41158438 0.25226031 -0.00046352038
0.4350518 0.252286 -0.00047914388
0.45851921 0.25231168 -0.00049476739
0.48198663 0.25233736 -0.00051039089
0.50545405 0.25236304 -0.0005260144
0.52892147 0.25238873 -0.0005416379
0.55238888 0.25241441 -0.00055726141
0.5758563 0.25244009 -0.00057288491
0.59932372 0.25246577 -0.00058850842
0.62279114 0.25249146 -0.00060413192
0.64625855 0.25251714 -0.00061975542
0.66972597 0.25254282 -0.00063537893
0.69319339 0.2525685 -0.00065100243
0.71666081 0.25259419 -0.00066662594
0.74012822 0.25261987 -0.00068224944
0.76359564 0.25264555 -0.00069787295
0.78706306 0.25267123 -0.00071349645
0.040618909 0.28333057 -0.00024023735
0.064086326 0.28335625 -0.00025586085
0.087553744 0.28338194 -0.00027148436
0.11102116 0.28340762 -0.00028710786
0.13448858 0.2834333 -0.00030273136
0.157956 0.28345898 -0.00031835487
0.18142341 0.28348467 -0.00033397837
0.20489083 0.28351035 -0.00034960188
0.22835825 0.28353603 -0.00036522538
0.25182567 0.28356171 -0.00038084889
0.27529308 0.28358739 -0.00039647239
0.2987605 0.28361308 -0.0004120959
0.32222792 0.28363876 -0.0004277194
0.34569534 0.28366444 -0.0004433429
0.36916275 0.28369012 -0.00045896641
0.39263017 0.28371581 -0.00047458991
0.41609759 0.28374149 -0.00049021342
0.43956501 0.28376717 -0.00050583692
0.46303243 0.28379285 -0.00052146043
0.48649984 0.28381854 -0.00053708393
0.50996726 0.28384422 -0.00055270744
0.53343468 0.2838699 -0.00056833094
0.5569021 0.28389558 -0.00058395445
0.58036951 0.28392127 -0.00059957795
0.60383693 0.28394695 -0.00061520145
0.62730435 0.28397263 -0.00063082496
0.65077177 0.28399831 -0.00064644846
0.67423918 0.284024 -0.00066207197
0.6977066 0.28404968 -0.00067769547
0.72117402 0.28407536 -0.00069331898
0.74464144 0.28410104 -0.00070894248
0.76810885 0.28412673 -0.00072456599
0.79157627 0.28415241 -0.00074018949
0.045132121 0.31481175 -0.00026693038
0.068599538 0.31483743 -0.00028255389
0.092066956 0.31486311 -0.00029817739
0.11553437 0.31488879 -0.0003138009
0.13900179 0.31491447 -0.0003294244
0.16246921 0.31494016 -0.00034504791
0.18593663 0.31496584 -0.00036067141
0.20940404 0.31499152 -0.00037629492
0.23287146 0.3150172 -0.00039191842
0.25633888 0.31504289 -0.00040754193
0.2798063 0.31506857 -0.00042316543
0.30327371 0.31509425 -0.00043878893
0.32674113 0.31511993 -0.00045441244
0.35020855 0.31514562 -0.00047003594
0.37367597 0.3151713 -0.00048565945
0.39714338 0.31519698 -0.00050128295
0.4206108 0.31522266 -0.00051690646
0.44407822 0.31524835 -0.00053252996
0.46754564 0.31527403 -0.00054815347
0.49101306 0.31529971 -0.00056377697
0.51448047 0.31532539 -0.00057940047
0.53794789 0.31535108 -0.00059502398
0.56141531 0.31537676 -0.00061064748
0.58488273 0.31540244 -0.00062627099
0.60835014 0.31542812 -0.00064189449
0.63181756 0.31545381 -0.000657518
0.65528498 0.31547949 -0.0006731415
0.6787524 0.31550517 -0.00068876501
0.70221981 0.31553085 -0.00070438851
0.72568723 0.31555654 -0.00072001201
0.74915465 0.31558222 -0.00073563552
0.77262207 0.3156079 -0.00075125902
0.79608948 0.31563358 -0.00076688253
0.049645333 0.34629292 -0.00029362342
0.073112751 0.3463186 -0.00030924693
0.096580168 0.34634428 -0.00032487043
0.12004759 0.34636997 -0.00034049394
0.143515 0.34639565 -0.00035611744
0.16698242 0.34642133 -0.00037174095
0.19044984 0.34644701 -0.00038736445
0.21391726 0.3464727 -0.00040298795
0.23738467 0.34649838 -0.00041861146
0.26085209 0.34652406 -0.00043423496
0.28431951 0.34654974 -0.00044985847
0.30778693 0.34657543 -0.00046548197
0.33125434 0.34660111 -0.00048110548
0.35472176 0.34662679 -0.00049672898
0.37818918 0.34665247 -0.00051235249
0.4016566 0.34667816 -0.00052797599
0.42512401 0.34670384 -0.0005435995
0.44859143 0.34672952 -0.000559223
0.47205885 0.3467552 -0.0005748465
0.49552627 0.34678089 -0.00059047001
0.51899368 0.34680657 -0.00060609351
0.5424611 0.34683225 -0.00062171702
0.56592852 0.34685793 -0.00063734052
0.58939594 0.34688362 -0.00065296403
0.61286336 0.3469093 -0.00066858753
0.63633077 0.34693498 -0.00068421104
0.65979819 0.34696066 -0.00069983454
0.68326561 0.34698634 -0.00071545804
0.70673303 0.34701203 -0.00073108155
0.73020044 0.34703771 -0.00074670505
0.75366786 0.34706339 -0.00076232856
0.77713528 0.34708907 -0.00077795206
0.8006027 0.34711476 -0.00079357557
0.054158545 0.37777409 -0.00032031646
0.077625963 0.37779978 -0.00033593997
0.10109338 0.37782546 -0.00035156347
0.1245608 0.37785114 -0.00036718698
0.14802822 0.37787682 -0.00038281048
0.17149563 0.37790251 -0.00039843398
0.19496305 0.37792819 -0.00041405749
0.21843047 0.37795387 -0.00042968099
0.24189789 0.37797955 -0.0004453045
0.2653653 0.37800524 -0.000460928
0.28883272 0.37803092 -0.00047655151
0.31230014 0.3780566 -0.00049217501
0.33576756 0.37808228 -0.00050779852
0.35923497 0.37810797 -0.00052342202
0.38270239 0.37813365 -0.00053904552
0.40616981 0.37815933 -0.00055466903
0.42963723 0.37818501 -0.00057029253
0.45310464 0.3782107 -0.00058591604
0.47657206 0.37823638 -0.00060153954
0.50003948 0.37826206 -0.00061716305
0.5235069 0.37828774 -0.00063278655
0.54697431 0.37831342 -0.00064841006
0.57044173 0.37833911 -0.00066403356
0.59390915 0.37836479 -0.00067965706
0.61737657 0.37839047 -0.00069528057
0.64084398 0.37841615 -0.00071090407
0.6643114 0.37844184 -0.00072652758
0.68777882 0.37846752 -0.00074215108
0.71124624 0.3784932 -0.00075777459
0.73471366 0.37851888 -0.00077339809
0.75818107 0.37854457 -0.0007890216
0.78164849 0.37857025 -0.0008046451
0.80511591 0.37859593 -0.00082026861
0.058671757 0.40925527 -0.0003470095
0.082139175 0.40928095 -0.000362633
0.10560659 0.40930663 -0.00037825651
0.12907401 0.40933232 -0.00039388001
0.15254143 0.409358 -0.00040950352
0.17600885 0.40938368 -0.00042512702
0.19947626 0.40940936 -0.00044075053
0.22294368 0.40943505 -0.00045637403
0.2464111 0.40946073 -0.00047199754
0.26987852 0.40948641 -0.00048762104
0.29334593 0.40951209 -0.00050324455
0.31681335 0.40953778 -0.00051886805
0.34028077 0.40956346 -0.00053449155
0.36374819 0.40958914 -0.00055011506
0.3872156 0.40961482 -0.00056573856
0.41068302 0.4096405 -0.00058136207
0.43415044 0.40966619 -0.00059698557
0.45761786 0.40969187 -0.00061260908
0.48108527 0.40971755 -0.00062823258
0.50455269 0.40974323 -0.00064385609
0.52802011 0.40976892 -0.00065947959
0.55148753 0.4097946 -0.00067510309
0.57495494 0.40982028 -0.0006907266
0.59842236 0.40984596 -0.0007063501
0.62188978 0.40987165 -0.00072197361
0.6453572 0.40989733 -0.00073759711
0.66882461 0.40992301 -0.00075322062
0.69229203 0.40994869 -0.00076884412
0.71575945 0.40997438 -0.00078446763
0.73922687 0.41000006 -0.00080009113
0.76269428 0.41002574 -0.00081571463
0.7861617 0.41005142 -0.00083133814
0.80962912 0.41007711 -0.00084696164
0.063184969 0.44073644 -0.00037370254
0.086652387 0.44076213 -0.00038932604
0.1101198 0.44078781 -0.00040494955
0.13358722 0.44081349 -0.00042057305
0.15705464 0.44083917 -0.00043619656
0.18052206 0.44086486 -0.00045182006
0.20398947 0.44089054 -0.00046744357
0.22745689 0.44091622 -0.00048306707
0.25092431 0.4409419 -0.00049869057
0.27439173 0.44096759 -0.00051431408
0.29785915 0.44099327 -0.00052993758
0.32132656 0.44101895 -0.00054556109
0.34479398 0.44104463 -0.00056118459
0.3682614 0.44107031 -0.0005768081
0.39172882 0.441096 -0.0005924316
0.41519623 0.44112168 -0.00060805511
0.43866365 0.44114736 -0.00062367861
0.46213107 0.44117304 -0.00063930212
0.48559849 0.44119873 -0.00065492562
0.5090659 0.44122441 -0.00067054912
0.53253332 0.44125009 -0.00068617263
0.55600074 0.44127577 -0.00070179613
0.57946816 0.44130146 -0.00071741964
0.60293557 0.44132714 -0.00073304314
0.62640299 0.44135282 -0.00074866665
0.64987041 0.4413785 -0.00076429015
0.67333783 0.44140419 -0.00077991366
0.69680524 0.44142987 -0.00079553716
0.72027266 0.44145555 -0.00081116066
0.74374008 0.44148123 -0.00082678417
0.7672075 0.44150692 -0.00084240767
0.79067491 0.4415326 -0.00085803118
0.81414233 0.44155828 -0.00087365468
0.067698181 0.47221762 -0.00040039558
0.091165599 0.4722433 -0.00041601908
0.11463302 0.47226898 -0.00043164259
0.13810043 0.47229467 -0.00044726609
0.16156785 0.47232035 -0.0004628896
0.18503527 0.47234603 -0.0004785131
0.20850269 0.47237171 -0.0004941366
0.2319701 0.47239739 -0.00050976011
0.25543752 0.47242308 -0.00052538361
0.27890494 0.47244876 -0.00054100712
0.30237236 0.47247444 -0.00055663062
0.32583977 0.47250012 -0.00057225413
0.34930719 0.47252581 -0.00058787763
0.37277461 0.47255149 -0.00060350114
0.39624203 0.47257717 -0.00061912464
0.41970945 0.47260285 -0.00063474814
0.44317686 0.47262854 -0.00065037165
0.46664428 0.47265422 -0.00066599515
0.4901117 0.4726799 -0.00068161866
0.51357912 0.47270558 -0.00069724216
0.53704653 0.47273127 -0.00071286567
0.56051395 0.47275695 -0.00072848917
0.58398137 0.47278263 -0.00074411268
0.60744879 0.47280831 -0.00075973618
0.6309162 0.472834 -0.00077535968
0.65438362 0.47285968 -0.00079098319
0.67785104 0.47288536 -0.00080660669
0.70131846 0.47291104 -0.0008222302
0.72478587 0.47293673 -0.0008378537
0.74825329 0.47296241 -0.00085347721
0.77172071 0.47298809 -0.00086910071
0.79518813 0.47301377 -0.00088472422
0.81865554 0.47303945 -0.00090034772
0.072211393 0.50369879 -0.00042708862
0.095678811 0.50372447 -0.00044271212
0.11914623 0.50375016 -0.00045833562
0.14261365 0.50377584 -0.00047395913
0.16608106 0.50380152 -0.00048958263
0.18954848 0.5038272 -0.00050520614
0.2130159 0.50385289 -0.00052082964
0.23648332 0.50387857 -0.00053645315
0.25995073 0.50390425 -0.00055207665
0.28341815 0.50392993 -0.00056770016
0.30688557 0.50395562 -0.00058332366
0.33035299 0.5039813 -0.00059894717
0.3538204 0.50400698 -0.00061457067
0.37728782 0.50403266 -0.00063019417
0.40075524 0.50405835 -0.00064581768
0.42422266 0.50408403 -0.00066144118
0.44769007 0.50410971 -0.00067706469
0.47115749 0.50413539 -0.00069268819
0.49462491 0.50416108 -0.0007083117
0.51809233 0.50418676 -0.0007239352
0.54155975 0.50421244 -0.00073955871
0.56502716 0.50423812 -0.00075518221
0.58849458 0.50426381 -0.00077080571
0.611962 0.50428949 -0.00078642922
0.63542942 0.50431517 -0.00080205272
0.65889683 0.50434085 -0.00081767623
0.68236425 0.50436654 -0.00083329973
0.70583167 0.50439222 -0.00084892324
0.72929909 0.5044179 -0.00086454674
0.7527665 0.50444358 -0.00088017025
0.77623392 0.50446926 -0.00089579375
0.79970134 0.50449495 -0.00091141725
0.82316876 0.50452063 -0.00092704076
0.076724605 0.53517997 -0.00045378165
0.10019202 0.53520565 -0.00046940516
0.12365944 0.53523133 -0.00048502866
0.14712686 0.53525701 -0.00050065217
0.17059428 0.5352827 -0.00051627567
0.19406169 0.53530838 -0.00053189918
0.21752911 0.53533406 -0.00054752268
0.24099653 0.53535974 -0.00056314619
0.26446395 0.53538543 -0.00057876969
0.28793136 0.53541111 -0.00059439319
0.31139878 0.53543679 -0.0006100167
0.3348662 0.53546247 -0.0006256402
0.35833362 0.53548816 -0.00064126371
0.38180103 0.53551384 -0.00065688721
0.40526845 0.53553952 -0.00067251072
0.42873587 0.5355652 -0.00068813422
0.45220329 0.53559089 -0.00070375773
0.4756707 0.53561657 -0.00071938123
0.49913812 0.53564225 -0.00073500473
0.52260554 0.53566793 -0.00075062824
0.54607296 0.53569362 -0.00076625174
0.56954037 0.5357193 -0.00078187525
0.59300779 0.53574498 -0.00079749875
0.61647521 0.53577066 -0.00081312226
0.63994263 0.53579634 -0.00082874576
0.66341005 0.53582203 -0.00084436927
0.68687746 0.53584771 -0.00085999277
0.71034488 0.53587339 -0.00087561628
0.7338123 0.53589907 -0.00089123978
0.75727972 0.53592476 -0.00090686328
0.78074713 0.53595044 -0.00092248679
0.80421455 0.53597612 -0.00093811029
0.82768197 0.5360018 -0.0009537338
0.081237818 0.56666114 -0.00048047469
0.10470524 0.56668682 -0.0004960982
