site/assets/luts/ocio-aces--sonyinputslog2-sgamut-to-aces2065-1--cbb60e272.cube
# LUTr-Project: LUTr — LUTrepository
# LUTr-Schema-Version: 1
# LUTr-ID: ocio-aces--sonyinputslog2-sgamut-to-aces2065-1--cbb60e272
# LUTr-Title: Sony.Input.SLog2 SGamut to ACES2065-1
# LUTr-Collection: OCIO ACES
# LUTr-Collection-ID: aswf-opencolorio-config-aces
# LUTr-Source: https://github.com/AcademySoftwareFoundation/OpenColorIO-Config-ACES
# LUTr-Source-File: submissions/aswf-opencolorio-config-aces/opencolorio_config_aces/clf/transforms/sony/input/Sony.Input.SLog2_SGamut_to_ACES2065-1.clf
# LUTr-Source-Format: CLF
# LUTr-Source-SHA256: 2f89ad4beed0c970cf57896cb48a045cdeb2b4aec0f4b1d8692b333bacaf4cce
# LUTr-License: BSD-3-Clause
# LUTr-License-URL: https://github.com/AcademySoftwareFoundation/OpenColorIO-Config-ACES/blob/main/LICENSE
# LUTr-Tags: technical, aces, ocio, clf, color-management, cube
# LUTr-Transform-Class: color-space-conversion
# LUTr-Input-Color-Space: Sony S-Log2 S-Gamut
# LUTr-Output-Color-Space: ACES2065-1
# LUTr-Color-Space-Confidence: descriptor-only
# LUTr-Conversion-Method: CLF operations evaluated as float and sampled to 33x33x33 3D CUBE
# LUTr-Conversion-Date: 2026-07-27
# LUTr-Conversion-Tool: LUTr scripts/convert-all-to-cube.mjs
# LUTr-Conversion-Grid: 33x33x33
# LUTr-Conversion-Warning: A sampled 3D CUBE is bounded to DOMAIN_MIN/MAX 0..1 and cannot preserve CLF values outside its input domain.
# LUTr-Upstream-ID: urn:aswf:ocio:transformId:1.0:Sony:Input:SLog2_SGamut_to_ACES2065-1:1.0
# LUTr-Upstream-Name: Sony S-Log2 S-Gamut to ACES2065-1
# LUTr-Upstream-Input-Descriptor: Sony S-Log2 S-Gamut
# LUTr-Upstream-Output-Descriptor: ACES2065-1
# LUTr-Upstream-Operations: Log → Matrix
# LUTr-Note: Preserve this metadata and the upstream license notices when redistributing.
TITLE "Sony.Input.SLog2 SGamut to ACES2065-1"
LUT_3D_SIZE 33
DOMAIN_MIN 0 0 0
DOMAIN_MAX 1 1 1
-0.026210564 -0.026210564 -0.026210564
-0.019221945 -0.02600909 -0.026297957
-0.012233325 -0.025807615 -0.02638535
-0.0052234975 -0.025605529 -0.026473008
0.0027580495 -0.02537543 -0.026572817
0.012450364 -0.025096011 -0.02669402
0.024220131 -0.0247567 -0.026841201
0.038512634 -0.024344663 -0.027019929
0.055868595 -0.023844309 -0.027236965
0.076944638 -0.023236708 -0.027500521
0.10253813 -0.022498875 -0.027820568
0.13361733 -0.021602894 -0.028209213
0.17135806 -0.020514869 -0.028681162
0.21718815 -0.019193635 -0.029254267
0.27284147 -0.017589209 -0.029950212
0.34042353 -0.015640888 -0.030795327
0.42249116 -0.013274965 -0.031821583
0.52214919 -0.010401929 -0.033067807
0.64316794 -0.0069130851 -0.034581148
0.79012589 -0.0026764417 -0.036418858
0.96858285 0.0024682849 -0.038650463
1.1852903 0.0087157337 -0.041360392
1.4484469 0.016302262 -0.044651167
1.7680086 0.02551489 -0.048647288
2.1560652 0.036702154 -0.053499939
2.627298 0.0502873 -0.059392708
3.1995349 0.06678429 -0.066548535
3.8944253 0.086817249 -0.075238144
4.7382586 0.11114408 -0.085790286
5.7629594 0.14068513 -0.098604177
7.0072949 0.17655801 -0.1141646
8.5183416 0.2201199 -0.13306025
10.353266 0.27301886 -0.156006
-0.02487991 -0.016787137 -0.026179283
-0.01789129 -0.016585662 -0.026266676
-0.01090267 -0.016384187 -0.026354068
-0.0038928427 -0.016182101 -0.026441726
0.0040887043 -0.015952002 -0.026541536
0.013781018 -0.015672583 -0.026662738
0.025550786 -0.015333273 -0.026809919
0.039843288 -0.014921235 -0.026988647
0.05719925 -0.014420881 -0.027205683
0.078275293 -0.01381328 -0.027469239
0.10386878 -0.013075447 -0.027789286
0.13494798 -0.012179466 -0.028177932
0.17268871 -0.011091441 -0.02864988
0.2185188 -0.0097702074 -0.029222985
0.27417212 -0.0081657806 -0.029918931
0.34175419 -0.0062174605 -0.030764045
0.42382182 -0.003851537 -0.031790301
0.52347984 -0.00097850075 -0.033036525
0.6444986 0.0025103429 -0.034549866
0.79145655 0.0067469862 -0.036387576
0.9699135 0.011891713 -0.038619182
1.186621 0.018139162 -0.04132911
1.4497776 0.02572569 -0.044619885
1.7693393 0.034938318 -0.048616006
2.1573959 0.046125582 -0.053468657
2.6286286 0.059710728 -0.059361426
3.2008656 0.076207718 -0.066517253
3.8957559 0.096240677 -0.075206862
4.7395893 0.12056751 -0.085759004
5.7642901 0.15010855 -0.098572895
7.0086256 0.18598144 -0.11413332
8.5196723 0.22954333 -0.13302897
10.354597 0.28244229 -0.15597472
-0.023549255 -0.0073637086 -0.026148001
-0.016560635 -0.007162234 -0.026235394
-0.0095720154 -0.0069607595 -0.026322787
-0.0025621879 -0.0067586735 -0.026410445
0.0054193592 -0.0065285739 -0.026510254
0.015111673 -0.0062491546 -0.026631456
0.026881441 -0.0059098446 -0.026778637
0.041173943 -0.0054978068 -0.026957365
0.058529905 -0.0049974526 -0.027174402
0.079605948 -0.0043898524 -0.027437958
0.10519944 -0.0036520191 -0.027758004
0.13627864 -0.0027560383 -0.02814665
0.17401937 -0.0016680127 -0.028618598
0.21984945 -0.00034677941 -0.029191704
0.27550278 0.0012576474 -0.029887649
0.34308484 0.0032059674 -0.030732763
0.42515247 0.005571891 -0.031759019
0.5248105 0.0084449272 -0.033005244
0.64582925 0.011933771 -0.034518584
0.7927872 0.016170414 -0.036356294
0.97124416 0.021315141 -0.0385879
1.1879516 0.02756259 -0.041297828
1.4511082 0.035149118 -0.044588604
1.7706699 0.044361746 -0.048584725
2.1587265 0.05554901 -0.053437375
2.6299593 0.069134156 -0.059330144
3.2021962 0.085631146 -0.066485971
3.8970866 0.1056641 -0.07517558
4.7409199 0.12999093 -0.085727722
5.7656207 0.15953198 -0.098541613
7.0099562 0.19540487 -0.11410204
8.5210029 0.23896676 -0.13299769
10.355928 0.29186571 -0.15594344
-0.022214562 0.0020883159 -0.026116624
-0.015225942 0.0022897904 -0.026204017
-0.0082373226 0.002491265 -0.02629141
-0.001227495 0.002693351 -0.026379068
0.006754052 0.0029234506 -0.026478877
0.016446366 0.0032028698 -0.02660008
0.028216133 0.0035421799 -0.026747261
0.042508636 0.0039542177 -0.026925989
0.059864598 0.0044545718 -0.027143025
0.080940641 0.005062172 -0.027406581
0.10653413 0.0058000054 -0.027726628
0.13761333 0.0066959862 -0.028115273
0.17535406 0.0077840118 -0.028587222
0.22118415 0.0091052451 -0.029160327
0.27683747 0.010709672 -0.029856272
0.34441954 0.012657992 -0.030701387
0.42648716 0.015023915 -0.031727643
0.52614519 0.017896952 -0.032973867
0.64716395 0.021385795 -0.034487208
0.7941219 0.025622439 -0.036324918
0.97257885 0.030767165 -0.038556523
1.1892863 0.037014614 -0.041266452
1.4524429 0.044601143 -0.044557227
1.7720046 0.05381377 -0.048553348
2.1600612 0.065001035 -0.053405999
2.631294 0.07858618 -0.059298768
3.2035309 0.09508317 -0.066454595
3.8984213 0.11511613 -0.075144204
4.7422546 0.13944296 -0.085696346
5.7669554 0.16898401 -0.098510237
7.0112909 0.20485689 -0.11407066
8.5223376 0.24841878 -0.13296631
10.357262 0.30131774 -0.15591206
-0.020694851 0.012850603 -0.026080898
-0.013706231 0.013052078 -0.026168291
-0.0067176113 0.013253552 -0.026255684
0.00029221621 0.013455638 -0.026343342
0.0082737633 0.013685738 -0.026443151
0.017966077 0.013965157 -0.026564354
0.029735845 0.014304467 -0.026711535
0.044028347 0.014716505 -0.026890262
0.061384309 0.015216859 -0.027107299
0.082460352 0.015824459 -0.027370855
0.10805384 0.016562293 -0.027690902
0.13913304 0.017458274 -0.028079547
0.17687377 0.018546299 -0.028551495
0.22270386 0.019867532 -0.029124601
0.27835718 0.021471959 -0.029820546
0.34593925 0.023420279 -0.03066566
0.42800688 0.025786203 -0.031691917
0.5276649 0.028659239 -0.032938141
0.64868366 0.032148083 -0.034451481
0.79564161 0.036384726 -0.036289192
0.97409856 0.041529453 -0.038520797
1.190806 0.047776901 -0.041230726
1.4539626 0.05536343 -0.044521501
1.7735243 0.064576057 -0.048517622
2.1615809 0.075763322 -0.053370273
2.6328137 0.089348468 -0.059263042
3.2050506 0.10584546 -0.066418869
3.899941 0.12587842 -0.075108477
4.7437743 0.15020525 -0.08566062
5.7684751 0.17974629 -0.098474511
7.0128106 0.21561918 -0.11403493
8.5238573 0.25918107 -0.13293058
10.358782 0.31208003 -0.15587633
-0.018849404 0.025919682 -0.026037515
-0.011860784 0.026121157 -0.026124907
-0.0048721647 0.026322631 -0.0262123
0.0021376628 0.026524717 -0.026299958
0.01011921 0.026754817 -0.026399767
0.019811524 0.027034236 -0.02652097
0.031581291 0.027373546 -0.026668151
0.045873794 0.027785584 -0.026846879
0.063229755 0.028285938 -0.027063915
0.084305799 0.028893538 -0.027327471
0.10989929 0.029631372 -0.027647518
0.14097849 0.030527353 -0.028036164
0.17871922 0.031615378 -0.028508112
0.22454931 0.032936611 -0.029081217
0.28020263 0.034541038 -0.029777162
0.34778469 0.036489358 -0.030622277
0.42985232 0.038855282 -0.031648533
0.52951035 0.041728318 -0.032894757
0.6505291 0.045217162 -0.034408098
0.79748705 0.049453805 -0.036245808
0.97594401 0.054598532 -0.038477413
1.1926515 0.06084598 -0.041187342
1.4558081 0.068432509 -0.044478117
1.7753698 0.077645136 -0.048474238
2.1634264 0.088832401 -0.053326889
2.6346591 0.10241755 -0.059219658
3.2068961 0.11891454 -0.066375485
3.9017864 0.1389475 -0.075065094
4.7456198 0.16327432 -0.085617236
5.7703206 0.19281537 -0.098431127
7.0146561 0.22868826 -0.11399155
8.5257028 0.27225015 -0.1328872
10.360628 0.3251491 -0.15583295
-0.016608404 0.041789991 -0.025984832
-0.0096197843 0.041991466 -0.026072225
-0.0026311646 0.04219294 -0.026159618
0.0043786629 0.042395026 -0.026247276
0.01236021 0.042625126 -0.026347085
0.022052524 0.042904545 -0.026468287
0.033822291 0.043243855 -0.026615468
0.048114794 0.043655893 -0.026794196
0.065470756 0.044156247 -0.027011233
0.086546799 0.044763847 -0.027274789
0.11214029 0.045501681 -0.027594835
0.14321949 0.046397662 -0.027983481
0.18096022 0.047485687 -0.028455429
0.22679031 0.04880692 -0.029028535
0.28244363 0.050411347 -0.02972448
0.35002569 0.052359667 -0.030569594
0.43209332 0.054725591 -0.03159585
0.53175135 0.057598627 -0.032842075
0.6527701 0.061087471 -0.034355415
0.79972805 0.065324114 -0.036193125
0.97818501 0.070468841 -0.038424731
1.1948925 0.076716289 -0.041134659
1.4580491 0.084302818 -0.044425435
1.7776108 0.093515445 -0.048421556
2.1656674 0.10470271 -0.053274206
2.6369001 0.11828786 -0.059166975
3.2091371 0.13478485 -0.066322802
3.9040274 0.1548178 -0.075012411
4.7478608 0.17914463 -0.085564553
5.7725616 0.20868568 -0.098378444
7.0168971 0.24455857 -0.11393887
8.5279438 0.28812046 -0.13283452
10.362869 0.34101941 -0.15578027
-0.013887067 0.061061947 -0.025920858
-0.0068984476 0.061263421 -0.02600825
0.000090172127 0.061464896 -0.026095643
0.0070999996 0.061666982 -0.026183301
0.015081547 0.061897081 -0.02628311
0.024773861 0.062176501 -0.026404313
0.036543628 0.062515811 -0.026551494
0.050836131 0.062927849 -0.026730222
0.068192092 0.063428203 -0.026947258
0.089268135 0.064035803 -0.027210814
0.11486162 0.064773636 -0.027530861
0.14594083 0.065669617 -0.027919507
0.18368156 0.066757643 -0.028391455
0.22951164 0.068078876 -0.02896456
0.28516496 0.069683303 -0.029660505
0.35274703 0.071631623 -0.03050562
0.43481466 0.073997546 -0.031531876
0.53447269 0.076870583 -0.0327781
0.65549144 0.080359426 -0.034291441
0.80244939 0.084596069 -0.036129151
0.98090635 0.089740796 -0.038360756
1.1976138 0.095988245 -0.041070685
1.4607704 0.10357477 -0.04436146
1.7803321 0.1127874 -0.048357581
2.1683887 0.12397467 -0.053210232
2.6396215 0.13755981 -0.059103001
3.2118584 0.1540568 -0.066258828
3.9067488 0.17408976 -0.074948437
4.7505821 0.19841659 -0.085500579
5.7752829 0.22795764 -0.09831447
7.0196184 0.26383052 -0.11387489
8.5306651 0.30739241 -0.13277054
10.36559 0.36029137 -0.15571629
-0.010582439 0.084464659 -0.025843171
-0.0035938188 0.084666133 -0.025930564
0.0033948009 0.084867608 -0.026017956
0.010404628 0.085069694 -0.026105614
0.018386175 0.085299793 -0.026205424
0.02807849 0.085579212 -0.026326626
0.039848257 0.085918523 -0.026473807
0.054140759 0.08633056 -0.026652535
0.071496721 0.086830915 -0.026869571
0.092572764 0.087438515 -0.027133127
0.11816625 0.088176348 -0.027453174
0.14924546 0.089072329 -0.02784182
0.18698618 0.090160354 -0.028313768
0.23281627 0.091481588 -0.028886873
0.28846959 0.093086015 -0.029582819
0.35605166 0.095034335 -0.030427933
0.43811929 0.097400258 -0.031454189
0.53777731 0.10027329 -0.032700413
0.65879607 0.10376214 -0.034213754
0.80575402 0.10799878 -0.036051464
0.98421098 0.11314351 -0.03828307
1.2009184 0.11939096 -0.040992998
1.4640751 0.12697749 -0.044283773
1.7836367 0.13619011 -0.048279894
2.1716933 0.14737738 -0.053132545
2.6429261 0.16096252 -0.059025314
3.215163 0.17745951 -0.066181141
3.9100534 0.19749247 -0.07487075
4.7538867 0.2218193 -0.085422892
5.7785876 0.25136035 -0.098236783
7.022923 0.28723323 -0.11379721
8.5339697 0.33079512 -0.13269286
10.368895 0.38369408 -0.15563861
-0.0065694947 0.11288351 -0.025748833
0.00041912504 0.11308499 -0.025836225
0.0074077448 0.11328646 -0.025923618
0.014417572 0.11348855 -0.026011276
0.022399119 0.11371865 -0.026111085
0.032091433 0.11399807 -0.026232288
0.043861201 0.11433738 -0.026379469
0.058153703 0.11474942 -0.026558197
0.075509665 0.11524977 -0.026775233
0.096585708 0.11585737 -0.027038789
0.1221792 0.1165952 -0.027358836
0.1532584 0.11749118 -0.027747481
0.19099913 0.11857921 -0.02821943
0.23682922 0.11990044 -0.028792535
0.29248254 0.12150487 -0.02948848
0.3600646 0.12345319 -0.030333595
0.44213223 0.12581911 -0.031359851
0.54179026 0.12869215 -0.032606075
0.66280901 0.13218099 -0.034119416
0.80976696 0.13641764 -0.035957126
0.98822392 0.14156236 -0.038188731
1.2049314 0.14780981 -0.04089866
1.468088 0.15539634 -0.044189435
1.7876497 0.16460897 -0.048185556
2.1757063 0.17579623 -0.053038207
2.646939 0.18938138 -0.058930976
3.219176 0.20587837 -0.066086803
3.9140663 0.22591133 -0.074776412
4.7578997 0.25023816 -0.085328554
5.7826005 0.27977921 -0.098142445
7.026936 0.31565209 -0.11370287
8.5379827 0.35921398 -0.13259852
10.372908 0.41211294 -0.15554427
-0.0016964153 0.14739368 -0.025634274
0.0052922044 0.14759515 -0.025721666
0.012280824 0.14779662 -0.025809059
0.019290652 0.14799871 -0.025896717
0.027272199 0.14822881 -0.025996526
0.036964513 0.14850823 -0.026117729
0.04873428 0.14884754 -0.02626491
0.063026783 0.14925958 -0.026443638
0.080382744 0.14975993 -0.026660674
0.10145879 0.15036753 -0.02692423
0.12705228 0.15110536 -0.027244277
0.15813148 0.15200135 -0.027632923
0.19587221 0.15308937 -0.028104871
0.24170229 0.1544106 -0.028677976
0.29735561 0.15601503 -0.029373922
0.36493768 0.15796335 -0.030219036
0.44700531 0.16032927 -0.031245292
0.54666334 0.16320231 -0.032491516
0.66768209 0.16669115 -0.034004857
0.81464004 0.1709278 -0.035842567
0.993097 0.17607252 -0.038074173
1.2098045 0.18231997 -0.040784101
1.4729611 0.1899065 -0.044074876
1.7925227 0.19911913 -0.048070997
2.1805794 0.21030639 -0.052923648
2.6518121 0.22389154 -0.058816417
3.2240491 0.24038853 -0.065972244
3.9189394 0.26042149 -0.074661853
4.7627728 0.28474832 -0.085213995
5.7874736 0.31428937 -0.098027886
7.0318091 0.35016225 -0.11358831
8.5428558 0.39372414 -0.13248396
10.377781 0.4466231 -0.15542971
0.0042211612 0.18930075 -0.02549516
0.011209781 0.18950223 -0.025582553
0.018198401 0.1897037 -0.025669946
0.025208228 0.18990579 -0.025757604
0.033189775 0.19013589 -0.025857413
0.042882089 0.19041531 -0.025978616
0.054651857 0.19075462 -0.026125797
0.068944359 0.19116666 -0.026304524
0.086300321 0.19166701 -0.026521561
0.10737636 0.19227461 -0.026785117
0.13296985 0.19301244 -0.027105164
0.16404906 0.19390842 -0.027493809
0.20178978 0.19499645 -0.027965757
0.24761987 0.19631768 -0.028538863
0.30327319 0.19792211 -0.029234808
0.37085526 0.19987043 -0.030079922
0.45292289 0.20223635 -0.031106179
0.55258091 0.20510939 -0.032352403
0.67359967 0.20859823 -0.033865743
0.82055762 0.21283488 -0.035703454
0.99901458 0.2179796 -0.037935059
1.215722 0.22422705 -0.040644988
1.4788787 0.23181358 -0.043935763
1.7984403 0.24102621 -0.047931884
2.1864969 0.25221347 -0.052784535
2.6577297 0.26579862 -0.058677304
3.2299666 0.28229561 -0.065833131
3.924857 0.30232857 -0.07452274
4.7686903 0.3266554 -0.085074882
5.7933912 0.35619644 -0.097888773
7.0377266 0.39206933 -0.1134492
8.5487733 0.43563122 -0.13234485
10.383698 0.48853018 -0.1552906
0.011407113 0.24019021 -0.02532623
0.018395732 0.24039168 -0.025413622
0.025384352 0.24059316 -0.025501015
0.03239418 0.24079524 -0.025588673
0.040375727 0.24102534 -0.025688482
0.050068041 0.24130476 -0.025809685
0.061837808 0.24164407 -0.025956866
0.076130311 0.24205611 -0.026135594
0.093486272 0.24255646 -0.02635263
0.11456232 0.24316406 -0.026616186
0.1401558 0.2439019 -0.026936233
0.17123501 0.24479788 -0.027324879
0.20897574 0.2458859 -0.027796827
0.25480582 0.24720714 -0.028369932
0.31045914 0.24881156 -0.029065877
0.37804121 0.25075988 -0.029910992
0.46010884 0.25312581 -0.030937248
0.55976687 0.25599884 -0.032183472
0.68078562 0.25948769 -0.033696813
0.82774357 0.26372433 -0.035534523
1.0062005 0.26886906 -0.037766128
1.222908 0.2751165 -0.040476057
1.4860646 0.28270303 -0.043766832
1.8056263 0.29191566 -0.047762953
2.1936829 0.30310293 -0.052615604
2.6649157 0.31668807 -0.058508373
3.2371526 0.33318506 -0.0656642
3.9320429 0.35321802 -0.074353809
4.7758763 0.37754485 -0.084905951
5.8005771 0.4070859 -0.097719842
7.0449126 0.44295878 -0.11328027
8.5559593 0.48652067 -0.13217592
10.390884 0.53941963 -0.15512166
0.020133303 0.30198732 -0.02512109
0.027121923 0.30218879 -0.025208483
0.034110542 0.30239027 -0.025295875
0.04112037 0.30259235 -0.025383533
0.049101917 0.30282245 -0.025483343
0.058794231 0.30310187 -0.025604545
0.070563998 0.30344118 -0.025751726
0.084856501 0.30385322 -0.025930454
0.10221246 0.30435358 -0.02614749
0.12328851 0.30496118 -0.026411047
0.14888199 0.30569901 -0.026731093
0.1799612 0.30659499 -0.027119739
0.21770193 0.30768302 -0.027591687
0.26353201 0.30900425 -0.028164793
0.31918533 0.31060868 -0.028860738
0.3867674 0.312557 -0.029705852
0.46883503 0.31492292 -0.030732108
0.56849306 0.31779596 -0.031978333
0.68951181 0.3212848 -0.033491673
0.83646976 0.32552144 -0.035329383
1.0149267 0.33066617 -0.037560989
1.2316342 0.33691362 -0.040270917
1.4947908 0.34450015 -0.043561692
1.8143525 0.35371277 -0.047557813
2.2024091 0.36490004 -0.052410464
2.6736418 0.37848518 -0.058303233
3.2458788 0.39498217 -0.06545906
3.9407691 0.41501513 -0.074148669
4.7846025 0.43934196 -0.084700811
5.8093033 0.46888301 -0.097514702
7.0536388 0.5047559 -0.11307513
8.5646855 0.54831779 -0.13197078
10.39961 0.60121674 -0.15491652
0.030729867 0.37703004 -0.024871981
0.037718487 0.37723152 -0.024959373
0.044707107 0.37743299 -0.025046766
0.051716934 0.37763508 -0.025134424
0.059698481 0.37786518 -0.025234233
0.069390796 0.3781446 -0.025355436
0.081160563 0.37848391 -0.025502617
0.095453065 0.37889594 -0.025681345
0.11280903 0.3793963 -0.025898381
0.13388507 0.3800039 -0.026161937
0.15947856 0.38074173 -0.026481984
0.19055776 0.38163771 -0.02687063
0.22829849 0.38272574 -0.027342578
0.27412858 0.38404697 -0.027915683
0.3297819 0.3856514 -0.028611628
0.39736397 0.38759972 -0.029456743
0.47943159 0.38996564 -0.030482999
0.57908962 0.39283868 -0.031729223
0.70010838 0.39632752 -0.033242564
0.84706632 0.40056417 -0.035080274
1.0255233 0.40570889 -0.037311879
1.2422308 0.41195634 -0.040021808
1.5053874 0.41954287 -0.043312583
1.824949 0.4287555 -0.047308704
2.2130056 0.43994276 -0.052161355
2.6842384 0.45352791 -0.058054124
3.2564753 0.4700249 -0.065209951
3.9513657 0.49005786 -0.07389956
4.795199 0.51438469 -0.084451702
5.8198999 0.54392573 -0.097265593
7.0642353 0.57979862 -0.11282602
8.575282 0.62336051 -0.13172167
10.410207 0.67625947 -0.15466742
0.043597702 0.46815744 -0.024569477
0.050586322 0.46835892 -0.02465687
0.057574942 0.46856039 -0.024744263
0.064584769 0.46876248 -0.024831921
0.072566316 0.46899258 -0.02493173
0.082258631 0.469272 -0.025052932
0.094028398 0.46961131 -0.025200113
0.1083209 0.47002335 -0.025378841
0.12567686 0.4705237 -0.025595878
0.14675291 0.4711313 -0.025859434
0.17234639 0.47186913 -0.026179481
0.2034256 0.47276511 -0.026568126
0.24116633 0.47385314 -0.027040074
0.28699641 0.47517437 -0.02761318
0.34264973 0.4767788 -0.028309125
0.4102318 0.47872712 -0.029154239
0.49229943 0.48109304 -0.030180496
0.59195746 0.48396608 -0.03142672
0.71297621 0.48745492 -0.03294006
0.85993416 0.49169157 -0.034777771
1.0383911 0.49683629 -0.037009376
1.2550986 0.50308374 -0.039719304
1.5182552 0.51067027 -0.04301008
1.8378169 0.5198829 -0.047006201
2.2258735 0.53107016 -0.051858851
2.6971062 0.54465531 -0.057751621
3.2693432 0.5611523 -0.064907448
3.9642335 0.58118526 -0.073597056
4.8080669 0.60551209 -0.084149198
5.8327677 0.63505314 -0.09696309
7.0771032 0.67092602 -0.11252351
8.5881499 0.71448791 -0.13141916
10.423075 0.76738687 -0.15436491
0.059223633 0.57881712 -0.024202135
0.066212253 0.57901859 -0.024289528
0.073200872 0.57922007 -0.024376921
0.0802107 0.57942215 -0.024464579
0.088192247 0.57965225 -0.024564388
0.097884561 0.57993167 -0.02468559
0.10965433 0.58027098 -0.024832771
0.12394683 0.58068302 -0.025011499
0.14130279 0.58118337 -0.025228536
0.16237884 0.58179097 -0.025492092
0.18797232 0.58252881 -0.025812138
0.21905153 0.58342479 -0.026200784
0.25679226 0.58451281 -0.026672732
0.30262234 0.58583405 -0.027245838
0.35827566 0.58743847 -0.027941783
0.42585773 0.58938679 -0.028786897
0.50792536 0.59175272 -0.029813153
0.60758339 0.59462575 -0.031059378
0.72860214 0.5981146 -0.032572718
0.87556009 0.60235124 -0.034410428
1.054017 0.60749597 -0.036642034
1.2707245 0.61374342 -0.039351962
1.5338811 0.62132995 -0.042642738
1.8534428 0.63054257 -0.046638859
2.2414994 0.64172984 -0.051491509
2.7127322 0.65531498 -0.057384278
3.2849691 0.67181197 -0.064540105
3.9798595 0.69184493 -0.073229714
4.8236928 0.71617176 -0.083781856
5.8483936 0.74571281 -0.096595747
7.0927291 0.78158569 -0.11215617
8.6037758 0.82514758 -0.13105182
10.438701 0.87804654 -0.15399757
0.078198829 0.71319562 -0.023756057
0.085187449 0.71339709 -0.02384345
0.092176069 0.71359857 -0.023930842
0.099185896 0.71380065 -0.0240185
0.10716744 0.71403075 -0.02411831
0.11685976 0.71431017 -0.024239512
0.12862952 0.71464948 -0.024386693
0.14292203 0.71506152 -0.024565421
0.16027799 0.71556187 -0.024782457
0.18135403 0.71616947 -0.025046013
0.20694752 0.71690731 -0.02536606
0.23802672 0.71780329 -0.025754706
0.27576745 0.71889131 -0.026226654
0.32159754 0.72021255 -0.026799759
0.37725086 0.72181697 -0.027495705
0.44483293 0.72376529 -0.028340819
0.52690056 0.72613122 -0.029367075
0.62655858 0.72900425 -0.0306133
0.74757734 0.7324931 -0.03212664
0.89453529 0.73672974 -0.03396435
1.0729922 0.74187447 -0.036195956
1.2896997 0.74812192 -0.038905884
1.5528563 0.75570844 -0.042196659
1.872418 0.76492107 -0.04619278
2.2604746 0.77610834 -0.051045431
2.7317074 0.78969348 -0.0569382
3.3039443 0.80619047 -0.064094027
3.9988347 0.82622343 -0.072783636
4.842668 0.85055026 -0.083335778
5.8673688 0.88009131 -0.096149669
7.1117043 0.91596419 -0.11171009
8.622751 0.95952608 -0.13060574
10.457676 1.012425 -0.15355149
0.10124117 0.87637684 -0.023214366
0.10822979 0.87657832 -0.023301759
0.11521841 0.87677979 -0.023389152
0.12222824 0.87698188 -0.023476809
0.13020979 0.87721198 -0.023576619
0.1399021 0.8774914 -0.023697821
0.15167187 0.87783071 -0.023845002
0.16596437 0.87824274 -0.02402373
0.18332033 0.8787431 -0.024240767
0.20439638 0.8793507 -0.024504323
0.22998987 0.88008853 -0.024824369
0.26106907 0.88098451 -0.025213015
0.2988098 0.88207254 -0.025684963
0.34463988 0.88339377 -0.026258069
0.40029321 0.8849982 -0.026954014
0.46787527 0.88694652 -0.027799128
0.5499429 0.88931244 -0.028825384
0.64960093 0.89218548 -0.030071609
0.77061968 0.89567432 -0.031584949
0.91757763 0.89991096 -0.033422659
1.0960346 0.90505569 -0.035654265
1.3127421 0.91130314 -0.038364193
1.5758987 0.91888967 -0.041654969
1.8954603 0.9281023 -0.04565109
2.2835169 0.93928956 -0.05050374
2.7547497 0.95287471 -0.056396509
3.3269866 0.9693717 -0.063552336
4.021877 0.98940466 -0.072241945
4.8657104 1.0137315 -0.082794087
5.8904112 1.0432725 -0.095607978
7.1347467 1.0791454 -0.1111684
8.6457933 1.1227073 -0.13006405
10.480718 1.1756063 -0.1530098
0.12922242 1.0745344 -0.022556569
0.13621104 1.0747358 -0.022643962
0.14319966 1.0749373 -0.022731355
0.15020949 1.0751394 -0.022819012
0.15819104 1.0753695 -0.022918822
