site/assets/luts/ocio-aces--ocioutilityap0-to-linear-adobergb--446f00b0d.cube
# LUTr-Project: LUTr — LUTrepository
# LUTr-Schema-Version: 1
# LUTr-ID: ocio-aces--ocioutilityap0-to-linear-adobergb--446f00b0d
# LUTr-Title: OCIO.Utility.AP0 to Linear AdobeRGB
# LUTr-Collection: OCIO ACES
# LUTr-Collection-ID: aswf-opencolorio-config-aces
# LUTr-Source: https://github.com/AcademySoftwareFoundation/OpenColorIO-Config-ACES
# LUTr-Source-File: submissions/aswf-opencolorio-config-aces/opencolorio_config_aces/clf/transforms/ocio/utility/OCIO.Utility.AP0_to_Linear_AdobeRGB.clf
# LUTr-Source-Format: CLF
# LUTr-Source-SHA256: f08785a4205221666ba841e0e2bb27af38a06cdc8901a760761505dddc40ce0e
# LUTr-License: BSD-3-Clause
# LUTr-License-URL: https://github.com/AcademySoftwareFoundation/OpenColorIO-Config-ACES/blob/main/LICENSE
# LUTr-Tags: technical, aces, ocio, clf, color-management, cube
# LUTr-Transform-Class: color-space-conversion
# LUTr-Input-Color-Space: ACES2065-1
# LUTr-Output-Color-Space: linear Adobe RGB (1998) primaries, D65 white point
# LUTr-Color-Space-Confidence: descriptor-only
# LUTr-Conversion-Method: CLF operations evaluated as float and sampled to 33x33x33 3D CUBE
# LUTr-Conversion-Date: 2026-07-27
# LUTr-Conversion-Tool: LUTr scripts/convert-all-to-cube.mjs
# LUTr-Conversion-Grid: 33x33x33
# LUTr-Conversion-Warning: A sampled 3D CUBE is bounded to DOMAIN_MIN/MAX 0..1 and cannot preserve CLF values outside its input domain.
# LUTr-Upstream-ID: urn:aswf:ocio:transformId:1.0:OCIO:Utility:AP0_to_Linear_AdobeRGB:1.0
# LUTr-Upstream-Name: AP0 to Linear Adobe RGB (1998)
# LUTr-Upstream-Input-Descriptor: ACES2065-1
# LUTr-Upstream-Output-Descriptor: linear Adobe RGB (1998) primaries, D65 white point
# LUTr-Upstream-Operations: Matrix
# LUTr-Note: Preserve this metadata and the upstream license notices when redistributing.
TITLE "OCIO.Utility.AP0 to Linear AdobeRGB"
LUT_3D_SIZE 33
DOMAIN_MIN 0 0 0
DOMAIN_MAX 1 1 1
0 0 0
0.05389251 -0.0086399973 -0.00081642268
0.10778502 -0.017279995 -0.0016328454
0.16167753 -0.025919992 -0.002449268
0.21557004 -0.034559989 -0.0032656907
0.26946255 -0.043199987 -0.0040821134
0.32335506 -0.051839984 -0.0048985361
0.37724757 -0.060479981 -0.0057149588
0.43114008 -0.069119979 -0.0065313815
0.48503259 -0.077759976 -0.0073478041
0.5389251 -0.086399973 -0.0081642268
0.59281761 -0.095039971 -0.0089806495
0.64671012 -0.10367997 -0.0097970722
0.70060263 -0.11231997 -0.010613495
0.75449514 -0.12095996 -0.011429918
0.80838765 -0.12959996 -0.01224634
0.86228016 -0.13823996 -0.013062763
0.91617267 -0.14687995 -0.013879186
0.97006518 -0.15551995 -0.014695608
1.0239577 -0.16415995 -0.015512031
1.0778502 -0.17279995 -0.016328454
1.1317427 -0.18143994 -0.017144876
1.1856352 -0.19007994 -0.017961299
1.2395277 -0.19871994 -0.018777722
1.2934202 -0.20735994 -0.019594144
1.3473127 -0.21599993 -0.020410567
1.4012053 -0.22463993 -0.02122699
1.4550978 -0.23327993 -0.022043412
1.5089903 -0.24191992 -0.022859835
1.5628828 -0.25055992 -0.023676258
1.6167753 -0.25919992 -0.02449268
1.6706678 -0.26783992 -0.025309103
1.7245603 -0.27647991 -0.026125526
-0.0131248 0.042897471 -0.0028179619
0.04076771 0.034257474 -0.0036343846
0.09466022 0.025617477 -0.0044508073
0.14855273 0.01697748 -0.0052672299
0.20244524 0.0083374822 -0.0060836526
0.25633775 -0.00030251511 -0.0069000753
0.31023026 -0.0089425124 -0.007716498
0.36412277 -0.01758251 -0.0085329207
0.41801528 -0.026222507 -0.0093493434
0.47190779 -0.034862504 -0.010165766
0.5258003 -0.043502502 -0.010982189
0.57969281 -0.052142499 -0.011798611
0.63358532 -0.060782496 -0.012615034
0.68747783 -0.069422494 -0.013431457
0.74137034 -0.078062491 -0.014247879
0.79526285 -0.086702488 -0.015064302
0.84915536 -0.095342486 -0.015880725
0.90304787 -0.10398248 -0.016697147
0.95694038 -0.11262248 -0.01751357
1.0108329 -0.12126248 -0.018329993
1.0647254 -0.12990247 -0.019146416
1.1186179 -0.13854247 -0.019962838
1.1725104 -0.14718247 -0.020779261
1.2264029 -0.15582247 -0.021595684
1.2802954 -0.16446246 -0.022412106
1.3341879 -0.17310246 -0.023228529
1.3880805 -0.18174246 -0.024044952
1.441973 -0.19038246 -0.024861374
1.4958655 -0.19902245 -0.025677797
1.549758 -0.20766245 -0.02649422
1.6036505 -0.21630245 -0.027310642
1.657543 -0.22494245 -0.028127065
1.7114355 -0.23358244 -0.028943488
-0.0262496 0.085794943 -0.0056359238
0.02764291 0.077154946 -0.0064523465
0.08153542 0.068514948 -0.0072687692
0.13542793 0.059874951 -0.0080851918
0.18932044 0.051234954 -0.0089016145
0.24321295 0.042594956 -0.0097180372
0.29710546 0.033954959 -0.01053446
0.35099797 0.025314962 -0.011350883
0.40489048 0.016674964 -0.012167305
0.45878299 0.0080349671 -0.012983728
0.5126755 -0.00060503022 -0.013800151
0.56656801 -0.0092450275 -0.014616573
0.62046052 -0.017885025 -0.015432996
0.67435303 -0.026525022 -0.016249419
0.72824554 -0.035165019 -0.017065841
0.78213805 -0.043805017 -0.017882264
0.83603056 -0.052445014 -0.018698687
0.88992307 -0.061085011 -0.019515109
0.94381558 -0.069725009 -0.020331532
0.99770809 -0.078365006 -0.021147955
1.0516006 -0.087005003 -0.021964377
1.1054931 -0.095645001 -0.0227808
1.1593856 -0.104285 -0.023597223
1.2132781 -0.112925 -0.024413645
1.2671706 -0.12156499 -0.025230068
1.3210631 -0.13020499 -0.026046491
1.3749557 -0.13884499 -0.026862914
1.4288482 -0.14748498 -0.027679336
1.4827407 -0.15612498 -0.028495759
1.5366332 -0.16476498 -0.029312182
1.5905257 -0.17340498 -0.030128604
1.6444182 -0.18204497 -0.030945027
1.6983107 -0.19068497 -0.03176145
-0.039374399 0.12869241 -0.0084538857
0.01451811 0.12005242 -0.0092703084
0.06841062 0.11141242 -0.010086731
0.12230313 0.10277242 -0.010903154
0.17619564 0.094132425 -0.011719576
0.23008815 0.085492428 -0.012535999
0.28398066 0.076852431 -0.013352422
0.33787317 0.068212433 -0.014168844
0.39176568 0.059572436 -0.014985267
0.44565819 0.050932439 -0.01580169
0.4995507 0.042292441 -0.016618113
0.55344321 0.033652444 -0.017434535
0.60733572 0.025012447 -0.018250958
0.66122823 0.016372449 -0.019067381
0.71512074 0.007732452 -0.019883803
0.76901325 -0.00090754533 -0.020700226
0.82290576 -0.0095475426 -0.021516649
0.87679827 -0.01818754 -0.022333071
0.93069078 -0.026827537 -0.023149494
0.98458329 -0.035467535 -0.023965917
1.0384758 -0.044107532 -0.024782339
1.0923683 -0.052747529 -0.025598762
1.1462608 -0.061387527 -0.026415185
1.2001533 -0.070027524 -0.027231607
1.2540458 -0.078667521 -0.02804803
1.3079383 -0.087307519 -0.028864453
1.3618309 -0.095947516 -0.029680875
1.4157234 -0.10458751 -0.030497298
1.4696159 -0.11322751 -0.031313721
1.5235084 -0.12186751 -0.032130143
1.5774009 -0.13050751 -0.032946566
1.6312934 -0.1391475 -0.033762989
1.6851859 -0.1477875 -0.034579412
-0.052499199 0.17158989 -0.011271848
0.0013933106 0.16294989 -0.01208827
0.055285821 0.15430989 -0.012904693
0.10917833 0.14566989 -0.013721116
0.16307084 0.1370299 -0.014537538
0.21696335 0.1283899 -0.015353961
0.27085586 0.1197499 -0.016170384
0.32474837 0.1111099 -0.016986806
0.37864088 0.10246991 -0.017803229
0.43253339 0.09382991 -0.018619652
0.4864259 0.085189913 -0.019436074
0.54031841 0.076549915 -0.020252497
0.59421092 0.067909918 -0.02106892
0.64810343 0.059269921 -0.021885342
0.70199594 0.050629923 -0.022701765
0.75588845 0.041989926 -0.023518188
0.80978096 0.033349929 -0.02433461
0.86367347 0.024709932 -0.025151033
0.91756598 0.016069934 -0.025967456
0.97145849 0.0074299369 -0.026783879
1.025351 -0.0012100604 -0.027600301
1.0792435 -0.0098500578 -0.028416724
1.133136 -0.018490055 -0.029233147
1.1870285 -0.027130052 -0.030049569
1.240921 -0.03577005 -0.030865992
1.2948135 -0.044410047 -0.031682415
1.3487061 -0.053050044 -0.032498837
1.4025986 -0.061690042 -0.03331526
1.4564911 -0.070330039 -0.034131683
1.5103836 -0.078970036 -0.034948105
1.5642761 -0.087610034 -0.035764528
1.6181686 -0.096250031 -0.036580951
1.6720611 -0.10489003 -0.037397373
-0.065623999 0.21448736 -0.014089809
-0.011731489 0.20584736 -0.014906232
0.042161021 0.19720736 -0.015722655
0.096053531 0.18856737 -0.016539078
0.14994604 0.17992737 -0.0173555
0.20383855 0.17128737 -0.018171923
0.25773106 0.16264737 -0.018988346
0.31162357 0.15400738 -0.019804768
0.36551608 0.14536738 -0.020621191
0.41940859 0.13672738 -0.021437614
0.4733011 0.12808738 -0.022254036
0.52719361 0.11944739 -0.023070459
0.58108612 0.11080739 -0.023886882
0.63497863 0.10216739 -0.024703304
0.68887114 0.093527395 -0.025519727
0.74276365 0.084887398 -0.02633615
0.79665616 0.0762474 -0.027152572
0.85054867 0.067607403 -0.027968995
0.90444118 0.058967406 -0.028785418
0.95833369 0.050327408 -0.02960184
1.0122262 0.041687411 -0.030418263
1.0661187 0.033047414 -0.031234686
1.1200112 0.024407416 -0.032051108
1.1739037 0.015767419 -0.032867531
1.2277962 0.0071274218 -0.033683954
1.2816887 -0.0015125755 -0.034500377
1.3355813 -0.010152573 -0.035316799
1.3894738 -0.01879257 -0.036133222
1.4433663 -0.027432568 -0.036949645
1.4972588 -0.036072565 -0.037766067
1.5511513 -0.044712562 -0.03858249
1.6050438 -0.053352559 -0.039398913
1.6589363 -0.061992557 -0.040215335
-0.078748799 0.25738483 -0.016907771
-0.024856289 0.24874483 -0.017724194
0.029036221 0.24010483 -0.018540617
0.082928731 0.23146484 -0.019357039
0.13682124 0.22282484 -0.020173462
0.19071375 0.21418484 -0.020989885
0.24460626 0.20554485 -0.021806307
0.29849877 0.19690485 -0.02262273
0.35239128 0.18826485 -0.023439153
0.40628379 0.17962485 -0.024255576
0.4601763 0.17098486 -0.025071998
0.51406881 0.16234486 -0.025888421
0.56796132 0.15370486 -0.026704844
0.62185383 0.14506486 -0.027521266
0.67574634 0.13642487 -0.028337689
0.72963885 0.12778487 -0.029154112
0.78353136 0.11914487 -0.029970534
0.83742387 0.11050487 -0.030786957
0.89131638 0.10186488 -0.03160338
0.94520889 0.09322488 -0.032419802
0.9991014 0.084584883 -0.033236225
1.0529939 0.075944885 -0.034052648
1.1068864 0.067304888 -0.03486907
1.1607789 0.058664891 -0.035685493
1.2146714 0.050024893 -0.036501916
1.2685639 0.041384896 -0.037318338
1.3224565 0.032744899 -0.038134761
1.376349 0.024104901 -0.038951184
1.4302415 0.015464904 -0.039767606
1.484134 0.0068249067 -0.040584029
1.5380265 -0.0018150907 -0.041400452
1.591919 -0.010455088 -0.042216875
1.6458115 -0.019095085 -0.043033297
-0.091873599 0.3002823 -0.019725733
-0.037981089 0.2916423 -0.020542156
0.015911421 0.28300231 -0.021358579
0.069803931 0.27436231 -0.022175001
0.12369644 0.26572231 -0.022991424
0.17758895 0.25708231 -0.023807847
0.23148146 0.24844232 -0.024624269
0.28537397 0.23980232 -0.025440692
0.33926648 0.23116232 -0.026257115
0.39315899 0.22252232 -0.027073537
0.4470515 0.21388233 -0.02788996
0.50094401 0.20524233 -0.028706383
0.55483652 0.19660233 -0.029522805
0.60872903 0.18796234 -0.030339228
0.66262154 0.17932234 -0.031155651
0.71651405 0.17068234 -0.031972073
0.77040656 0.16204234 -0.032788496
0.82429907 0.15340235 -0.033604919
0.87819158 0.14476235 -0.034421342
0.93208409 0.13612235 -0.035237764
0.9859766 0.12748235 -0.036054187
1.0398691 0.11884236 -0.03687061
1.0937616 0.11020236 -0.037687032
1.1476541 0.10156236 -0.038503455
1.2015466 0.092922365 -0.039319878
1.2554391 0.084282367 -0.0401363
1.3093317 0.07564237 -0.040952723
1.3632242 0.067002373 -0.041769146
1.4171167 0.058362375 -0.042585568
1.4710092 0.049722378 -0.043401991
1.5249017 0.041082381 -0.044218414
1.5787942 0.032442384 -0.045034836
1.6326867 0.023802386 -0.045851259
-0.1049984 0.34317977 -0.022543695
-0.051105889 0.33453977 -0.023360118
0.0027866213 0.32589978 -0.024176541
0.056679131 0.31725978 -0.024992963
0.11057164 0.30861978 -0.025809386
0.16446415 0.29997979 -0.026625809
0.21835666 0.29133979 -0.027442231
0.27224917 0.28269979 -0.028258654
0.32614168 0.27405979 -0.029075077
0.38003419 0.2654198 -0.029891499
0.4339267 0.2567798 -0.030707922
0.48781921 0.2481398 -0.031524345
0.54171172 0.2394998 -0.032340767
0.59560423 0.23085981 -0.03315719
0.64949674 0.22221981 -0.033973613
0.70338925 0.21357981 -0.034790035
0.75728176 0.20493981 -0.035606458
0.81117427 0.19629982 -0.036422881
0.86506678 0.18765982 -0.037239303
0.91895929 0.17901982 -0.038055726
0.9728518 0.17037983 -0.038872149
1.0267443 0.16173983 -0.039688571
1.0806368 0.15309983 -0.040504994
1.1345293 0.14445983 -0.041321417
1.1884218 0.13581984 -0.04213784
1.2423143 0.12717984 -0.042954262
1.2962069 0.11853984 -0.043770685
1.3500994 0.10989984 -0.044587108
1.4039919 0.10125985 -0.04540353
1.4578844 0.09261985 -0.046219953
1.5117769 0.083979852 -0.047036376
1.5656694 0.075339855 -0.047852798
1.6195619 0.066699858 -0.048669221
-0.1181232 0.38607724 -0.025361657
-0.064230688 0.37743725 -0.02617808
-0.010338179 0.36879725 -0.026994502
0.043554331 0.36015725 -0.027810925
0.097446841 0.35151725 -0.028627348
0.15133935 0.34287726 -0.02944377
0.20523186 0.33423726 -0.030260193
0.25912437 0.32559726 -0.031076616
0.31301688 0.31695726 -0.031893039
0.36690939 0.30831727 -0.032709461
0.4208019 0.29967727 -0.033525884
0.47469441 0.29103727 -0.034342307
0.52858692 0.28239728 -0.035158729
0.58247943 0.27375728 -0.035975152
0.63637194 0.26511728 -0.036791575
0.69026445 0.25647728 -0.037607997
0.74415696 0.24783729 -0.03842442
0.79804947 0.23919729 -0.039240843
0.85194198 0.23055729 -0.040057265
0.90583449 0.22191729 -0.040873688
0.959727 0.2132773 -0.041690111
1.0136195 0.2046373 -0.042506533
1.067512 0.1959973 -0.043322956
1.1214045 0.18735731 -0.044139379
1.175297 0.17871731 -0.044955801
1.2291895 0.17007731 -0.045772224
1.2830821 0.16143731 -0.046588647
1.3369746 0.15279732 -0.047405069
1.3908671 0.14415732 -0.048221492
1.4447596 0.13551732 -0.049037915
1.4986521 0.12687732 -0.049854338
1.5525446 0.11823733 -0.05067076
1.6064371 0.10959733 -0.051487183
-0.131248 0.42897471 -0.028179619
-0.077355488 0.42033472 -0.028996042
-0.023462978 0.41169472 -0.029812464
0.030429532 0.40305472 -0.030628887
0.084322041 0.39441473 -0.03144531
0.13821455 0.38577473 -0.032261732
0.19210706 0.37713473 -0.033078155
0.24599957 0.36849473 -0.033894578
0.29989208 0.35985474 -0.034711
0.35378459 0.35121474 -0.035527423
0.4076771 0.34257474 -0.036343846
0.46156961 0.33393474 -0.037160268
0.51546212 0.32529475 -0.037976691
0.56935463 0.31665475 -0.038793114
0.62324714 0.30801475 -0.039609537
0.67713965 0.29937476 -0.040425959
0.73103216 0.29073476 -0.041242382
0.78492467 0.28209476 -0.042058805
0.83881718 0.27345476 -0.042875227
0.89270969 0.26481477 -0.04369165
0.9466022 0.25617477 -0.044508073
1.0004947 0.24753477 -0.045324495
1.0543872 0.23889477 -0.046140918
1.1082797 0.23025478 -0.046957341
1.1621722 0.22161478 -0.047773763
1.2160647 0.21297478 -0.048590186
1.2699573 0.20433478 -0.049406609
1.3238498 0.19569479 -0.050223031
1.3777423 0.18705479 -0.051039454
1.4316348 0.17841479 -0.051855877
1.4855273 0.1697748 -0.052672299
1.5394198 0.1611348 -0.053488722
1.5933123 0.1524948 -0.054305145
-0.1443728 0.47187219 -0.030997581
-0.090480288 0.46323219 -0.031814004
-0.036587778 0.45459219 -0.032630426
0.017304732 0.44595219 -0.033446849
0.071197242 0.4373122 -0.034263272
0.12508975 0.4286722 -0.035079694
0.17898226 0.4200322 -0.035896117
0.23287477 0.41139221 -0.03671254
0.28676728 0.40275221 -0.037528962
0.34065979 0.39411221 -0.038345385
0.3945523 0.38547221 -0.039161808
0.44844481 0.37683222 -0.03997823
0.50233732 0.36819222 -0.040794653
0.55622983 0.35955222 -0.041611076
0.61012234 0.35091222 -0.042427498
0.66401485 0.34227223 -0.043243921
0.71790736 0.33363223 -0.044060344
0.77179987 0.32499223 -0.044876766
0.82569238 0.31635223 -0.045693189
0.87958489 0.30771224 -0.046509612
0.9334774 0.29907224 -0.047326034
0.98736991 0.29043224 -0.048142457
1.0412624 0.28179225 -0.04895888
1.0951549 0.27315225 -0.049775303
1.1490474 0.26451225 -0.050591725
1.2029399 0.25587225 -0.051408148
1.2568325 0.24723226 -0.052224571
1.310725 0.23859226 -0.053040993
1.3646175 0.22995226 -0.053857416
1.41851 0.22131226 -0.054673839
1.4724025 0.21267227 -0.055490261
1.526295 0.20403227 -0.056306684
1.5801875 0.19539227 -0.057123107
-0.1574976 0.51476966 -0.033815543
-0.10360509 0.50612966 -0.034631965
-0.049712578 0.49748966 -0.035448388
0.0041799319 0.48884967 -0.036264811
0.058072442 0.48020967 -0.037081233
0.11196495 0.47156967 -0.037897656
0.16585746 0.46292967 -0.038714079
0.21974997 0.45428968 -0.039530502
0.27364248 0.44564968 -0.040346924
0.32753499 0.43700968 -0.041163347
0.3814275 0.42836968 -0.04197977
0.43532001 0.41972969 -0.042796192
0.48921252 0.41108969 -0.043612615
0.54310503 0.40244969 -0.044429038
0.59699754 0.3938097 -0.04524546
0.65089005 0.3851697 -0.046061883
0.70478256 0.3765297 -0.046878306
0.75867507 0.3678897 -0.047694728
0.81256758 0.35924971 -0.048511151
0.86646009 0.35060971 -0.049327574
0.9203526 0.34196971 -0.050143996
0.97424511 0.33332971 -0.050960419
1.0281376 0.32468972 -0.051776842
1.0820301 0.31604972 -0.052593264
1.1359226 0.30740972 -0.053409687
1.1898151 0.29876972 -0.05422611
1.2437077 0.29012973 -0.055042532
1.2976002 0.28148973 -0.055858955
1.3514927 0.27284973 -0.056675378
1.4053852 0.26420974 -0.057491801
1.4592777 0.25556974 -0.058308223
1.5131702 0.24692974 -0.059124646
1.5670627 0.23828974 -0.059941069
-0.1706224 0.55766713 -0.036633505
-0.11672989 0.54902713 -0.037449927
-0.062837378 0.54038713 -0.03826635
-0.0089448679 0.53174714 -0.039082773
0.044947642 0.52310714 -0.039899195
0.098840152 0.51446714 -0.040715618
0.15273266 0.50582715 -0.041532041
0.20662517 0.49718715 -0.042348463
0.26051768 0.48854715 -0.043164886
0.31441019 0.47990715 -0.043981309
0.3683027 0.47126716 -0.044797731
0.42219521 0.46262716 -0.045614154
0.47608772 0.45398716 -0.046430577
0.52998023 0.44534716 -0.047247
0.58387274 0.43670717 -0.048063422
0.63776525 0.42806717 -0.048879845
0.69165776 0.41942717 -0.049696268
0.74555027 0.41078717 -0.05051269
0.79944278 0.40214718 -0.051329113
0.85333529 0.39350718 -0.052145536
0.9072278 0.38486718 -0.052961958
0.96112031 0.37622719 -0.053778381
1.0150128 0.36758719 -0.054594804
1.0689053 0.35894719 -0.055411226
1.1227978 0.35030719 -0.056227649
1.1766903 0.3416672 -0.057044072
1.2305829 0.3330272 -0.057860494
1.2844754 0.3243872 -0.058676917
1.3383679 0.3157472 -0.05949334
1.3922604 0.30710721 -0.060309762
1.4461529 0.29846721 -0.061126185
1.5000454 0.28982721 -0.061942608
1.5539379 0.28118722 -0.06275903
-0.1837472 0.6005646 -0.039451467
-0.12985469 0.5919246 -0.040267889
-0.075962178 0.58328461 -0.041084312
-0.022069668 0.57464461 -0.041900735
0.031822842 0.56600461 -0.042717157
0.085715352 0.55736461 -0.04353358
0.13960786 0.54872462 -0.044350003
0.19350037 0.54008462 -0.045166425
0.24739288 0.53144462 -0.045982848
0.30128539 0.52280462 -0.046799271
0.3551779 0.51416463 -0.047615693
0.40907041 0.50552463 -0.048432116
0.46296292 0.49688463 -0.049248539
0.51685543 0.48824464 -0.050064961
0.57074794 0.47960464 -0.050881384
0.62464045 0.47096464 -0.051697807
0.67853296 0.46232464 -0.052514229
0.73242547 0.45368465 -0.053330652
0.78631798 0.44504465 -0.054147075
0.84021049 0.43640465 -0.054963497
0.894103 0.42776465 -0.05577992
0.94799551 0.41912466 -0.056596343
1.001888 0.41048466 -0.057412766
1.0557805 0.40184466 -0.058229188
1.109673 0.39320467 -0.059045611
1.1635656 0.38456467 -0.059862034
1.2174581 0.37592467 -0.060678456
1.2713506 0.36728467 -0.061494879
1.3252431 0.35864468 -0.062311302
1.3791356 0.35000468 -0.063127724
1.4330281 0.34136468 -0.063944147
1.4869206 0.33272468 -0.06476057
1.5408131 0.32408469 -0.065576992
-0.196872 0.64346207 -0.042269428
-0.14297949 0.63482208 -0.043085851
-0.089086977 0.62618208 -0.043902274
-0.035194468 0.61754208 -0.044718696
0.018698042 0.60890208 -0.045535119
0.072590552 0.60026209 -0.046351542
0.12648306 0.59162209 -0.047167965
0.18037557 0.58298209 -0.047984387
0.23426808 0.57434209 -0.04880081
0.28816059 0.5657021 -0.049617233
0.3420531 0.5570621 -0.050433655
0.39594561 0.5484221 -0.051250078
0.44983812 0.5397821 -0.052066501
0.50373063 0.53114211 -0.052882923
0.55762314 0.52250211 -0.053699346
0.61151565 0.51386211 -0.054515769
0.66540816 0.50522212 -0.055332191
0.71930067 0.49658212 -0.056148614
0.77319318 0.48794212 -0.056965037
0.82708569 0.47930212 -0.057781459
0.8809782 0.47066213 -0.058597882
0.93487071 0.46202213 -0.059414305
0.98876322 0.45338213 -0.060230727
1.0426557 0.44474213 -0.06104715
1.0965482 0.43610214 -0.061863573
1.1504408 0.42746214 -0.062679995
1.2043333 0.41882214 -0.063496418
1.2582258 0.41018214 -0.064312841
1.3121183 0.40154215 -0.065129264
1.3660108 0.39290215 -0.065945686
1.4199033 0.38426215 -0.066762109
1.4737958 0.37562216 -0.067578532
1.5276883 0.36698216 -0.068394954
-0.2099968 0.68635954 -0.04508739
-0.15610429 0.67771955 -0.045903813
-0.10221178 0.66907955 -0.046720236
-0.048319267 0.66043955 -0.047536658
0.0055732425 0.65179955 -0.048353081
0.059465752 0.64315956 -0.049169504
0.11335826 0.63451956 -0.049985926
0.16725077 0.62587956 -0.050802349
0.22114328 0.61723957 -0.051618772
0.27503579 0.60859957 -0.052435194
0.3289283 0.59995957 -0.053251617
0.38282081 0.59131957 -0.05406804
0.43671332 0.58267958 -0.054884463
0.49060583 0.57403958 -0.055700885
0.54449834 0.56539958 -0.056517308
0.59839085 0.55675958 -0.057333731
0.65228336 0.54811959 -0.058150153
0.70617587 0.53947959 -0.058966576
0.76006838 0.53083959 -0.059782999
0.81396089 0.52219959 -0.060599421
0.8678534 0.5135596 -0.061415844
0.92174591 0.5049196 -0.062232267
0.97563842 0.4962796 -0.063048689
1.0295309 0.48763961 -0.063865112
1.0834234 0.47899961 -0.064681535
1.137316 0.47035961 -0.065497957
1.1912085 0.46171961 -0.06631438
1.245101 0.45307962 -0.067130803
1.2989935 0.44443962 -0.067947225
1.352886 0.43579962 -0.068763648
1.4067785 0.42715962 -0.069580071
1.460671 0.41851963 -0.070396493
1.5145635 0.40987963 -0.071212916
-0.2231216 0.72925702 -0.047905352
-0.16922909 0.72061702 -0.048721775
-0.11533658 0.71197702 -0.049538198
-0.061444067 0.70333702 -0.05035462
-0.0075515573 0.69469703 -0.051171043
0.046340953 0.68605703 -0.051987466
0.10023346 0.67741703 -0.052803888
0.15412597 0.66877703 -0.053620311
0.20801848 0.66013704 -0.054436734
0.26191099 0.65149704 -0.055253156
0.3158035 0.64285704 -0.056069579
0.36969601 0.63421704 -0.056886002
0.42358852 0.62557705 -0.057702424
0.47748103 0.61693705 -0.058518847
0.53137354 0.60829705 -0.05933527
0.58526605 0.59965706 -0.060151692
0.63915856 0.59101706 -0.060968115
0.69305107 0.58237706 -0.061784538
0.74694358 0.57373706 -0.062600961
0.80083609 0.56509707 -0.063417383
0.8547286 0.55645707 -0.064233806
0.90862111 0.54781707 -0.065050229
0.96251362 0.53917707 -0.065866651
1.0164061 0.53053708 -0.066683074
1.0702986 0.52189708 -0.067499497
1.1241912 0.51325708 -0.068315919
1.1780837 0.50461709 -0.069132342
1.2319762 0.49597709 -0.069948765
1.2858687 0.48733709 -0.070765187
1.3397612 0.47869709 -0.07158161
1.3936537 0.4700571 -0.072398033
1.4475462 0.4614171 -0.073214455
1.5014387 0.4527771 -0.074030878
-0.2362464 0.77215449 -0.050723314
-0.18235389 0.76351449 -0.051539737
-0.12846138 0.75487449 -0.052356159
-0.074568867 0.74623449 -0.053172582
-0.020676357 0.7375945 -0.053989005
0.033216153 0.7289545 -0.054805428
0.087108663 0.7203145 -0.05562185
0.14100117 0.71167451 -0.056438273
0.19489368 0.70303451 -0.057254696
0.24878619 0.69439451 -0.058071118
0.3026787 0.68575451 -0.058887541
0.35657121 0.67711452 -0.059703964
0.41046372 0.66847452 -0.060520386
0.46435623 0.65983452 -0.061336809
0.51824874 0.65119452 -0.062153232
0.57214125 0.64255453 -0.062969654
0.62603376 0.63391453 -0.063786077
0.67992627 0.62527453 -0.0646025
0.73381878 0.61663454 -0.065418922
0.78771129 0.60799454 -0.066235345
0.8416038 0.59935454 -0.067051768
0.89549631 0.59071454 -0.06786819
0.94938882 0.58207455 -0.068684613
1.0032813 0.57343455 -0.069501036
1.0571738 0.56479455 -0.070317458
1.1110664 0.55615455 -0.071133881
1.1649589 0.54751456 -0.071950304
1.2188514 0.53887456 -0.072766727
1.2727439 0.53023456 -0.073583149
1.3266364 0.52159456 -0.074399572
1.3805289 0.51295457 -0.075215995
1.4344214 0.50431457 -0.076032417
1.4883139 0.49567457 -0.07684884
-0.2493712 0.81505196 -0.053541276
-0.19547869 0.80641196 -0.054357699
-0.14158618 0.79777196 -0.055174121
-0.087693667 0.78913197 -0.055990544
-0.033801157 0.78049197 -0.056806967
