site/assets/luts/ocio-aces--blackmagicdesigninputlinear-davinci-widegamut-to-aces2065-1--1e7e4ea6b.cube
# LUTr-Project: LUTr — LUTrepository
# LUTr-Schema-Version: 1
# LUTr-ID: ocio-aces--blackmagicdesigninputlinear-davinci-widegamut-to-aces2065-1--1e7e4ea6b
# LUTr-Title: BlackmagicDesign.Input.Linear DaVinci WideGamut to ACES2065-1
# LUTr-Collection: OCIO ACES
# LUTr-Collection-ID: aswf-opencolorio-config-aces
# LUTr-Source: https://github.com/AcademySoftwareFoundation/OpenColorIO-Config-ACES
# LUTr-Source-File: submissions/aswf-opencolorio-config-aces/opencolorio_config_aces/clf/transforms/blackmagic/input/BlackmagicDesign.Input.Linear_DaVinci_WideGamut_to_ACES2065-1.clf
# LUTr-Source-Format: CLF
# LUTr-Source-SHA256: 82c11888f20c7ec148c648291db9277bb1f286c5fac261b8208284f6f5582bd6
# LUTr-License: BSD-3-Clause
# LUTr-License-URL: https://github.com/AcademySoftwareFoundation/OpenColorIO-Config-ACES/blob/main/LICENSE
# LUTr-Tags: technical, aces, ocio, clf, color-management, cube
# LUTr-Transform-Class: color-space-conversion
# LUTr-Input-Color-Space: Linear DaVinci Wide Gamut
# LUTr-Output-Color-Space: ACES2065-1
# LUTr-Color-Space-Confidence: descriptor-only
# LUTr-Conversion-Method: CLF operations evaluated as float and sampled to 33x33x33 3D CUBE
# LUTr-Conversion-Date: 2026-07-27
# LUTr-Conversion-Tool: LUTr scripts/convert-all-to-cube.mjs
# LUTr-Conversion-Grid: 33x33x33
# LUTr-Conversion-Warning: A sampled 3D CUBE is bounded to DOMAIN_MIN/MAX 0..1 and cannot preserve CLF values outside its input domain.
# LUTr-Upstream-ID: urn:aswf:ocio:transformId:1.0:BlackmagicDesign:Input:Linear_DaVinci_WideGamut_to_ACES2065-1:1.0
# LUTr-Upstream-Name: Linear DaVinci Wide Gamut to ACES2065-1
# LUTr-Upstream-Input-Descriptor: Linear DaVinci Wide Gamut
# LUTr-Upstream-Output-Descriptor: ACES2065-1
# LUTr-Upstream-Operations: Matrix
# LUTr-Note: Preserve this metadata and the upstream license notices when redistributing.
TITLE "BlackmagicDesign.Input.Linear DaVinci WideGamut to ACES2065-1"
LUT_3D_SIZE 5
DOMAIN_MIN 0 0 0
DOMAIN_MAX 1 1 1
0 0 0
0.18706757 0.0052105309 -0.022878064
0.37413515 0.010421062 -0.045756129
0.56120272 0.015631593 -0.068634193
0.74827029 0.020842123 -0.091512257
0.041923665 0.27797619 -0.031936678
0.22899124 0.28318672 -0.054814743
0.41605881 0.28839725 -0.077692807
0.60312638 0.29360778 -0.10057087
0.79019396 0.29881831 -0.12344894
0.08384733 0.55595237 -0.063873356
0.2709149 0.5611629 -0.086751421
0.45798247 0.56637343 -0.10962949
0.64505005 0.57158396 -0.13250755
0.83211762 0.57679449 -0.15538561
0.12577099 0.83392856 -0.095810035
0.31283857 0.83913909 -0.1186881
0.49990614 0.84434962 -0.14156616
0.68697371 0.84956015 -0.16444423
0.87404128 0.85477068 -0.18732229
0.16769466 1.1119047 -0.12774671
0.35476223 1.1171153 -0.15062478
0.5418298 1.1223258 -0.17350284
0.72889738 1.1275363 -0.19638091
0.91596495 1.1327469 -0.21925897
0.021008763 -0.033186717 0.30481474
0.20807634 -0.027976186 0.28193668
0.39514391 -0.022765655 0.25905861
0.58221148 -0.017555124 0.23618055
0.76927905 -0.012344593 0.21330249
0.062932427 0.24478947 0.27287806
0.25 0.25 0.25
0.43706757 0.25521053 0.22712194
0.62413515 0.26042106 0.20424387
0.81120272 0.26563159 0.18136581
0.10485609 0.52276565 0.24094139
0.29192366 0.52797619 0.21806332
0.47899124 0.53318672 0.19518526
0.66605881 0.53839725 0.17230719
0.85312638 0.54360778 0.14942913
0.14677976 0.80074184 0.20900471
0.33384733 0.80595237 0.18612664
0.5209149 0.8111629 0.16324858
0.70798247 0.81637343 0.14037051
0.89505005 0.82158396 0.11749245
0.18870342 1.078718 0.17706803
0.37577099 1.0839286 0.15418997
0.56283857 1.0891391 0.1313119
0.74990614 1.0943496 0.10843384
0.93697371 1.0995601 0.085555772
0.042017525 -0.066373433 0.60962949
0.2290851 -0.061162902 0.58675142
0.41615267 -0.055952371 0.56387336
0.60322024 -0.05074184 0.54099529
0.79028782 -0.04553131 0.51811723
0.08394119 0.21160275 0.57769281
0.27100876 0.21681328 0.55481474
0.45807634 0.22202381 0.53193668
0.64514391 0.22723435 0.50905861
0.83221148 0.23244488 0.48618055
0.12586485 0.48957894 0.54575613
0.31293243 0.49478947 0.52287806
0.5 0.5 0.5
0.68706757 0.50521053 0.47712194
0.87413515 0.51042106 0.45424387
0.16778852 0.76755512 0.51381945
0.35485609 0.77276565 0.49094139
0.54192366 0.77797619 0.46806332
0.72899124 0.78318672 0.44518526
0.91605881 0.78839725 0.42230719
0.20971218 1.0455313 0.48188277
0.39677976 1.0507418 0.45900471
0.58384733 1.0559524 0.43612664
0.7709149 1.0611629 0.41324858
0.95798247 1.0663734 0.39037051
0.063026288 -0.09956015 0.91444423
0.25009386 -0.094349619 0.89156616
0.43716143 -0.089139088 0.8686881
0.62422901 -0.083928557 0.84581003
0.81129658 -0.078718026 0.82293197
0.10494995 0.17841604 0.88250755
0.29201753 0.18362657 0.85962949
0.4790851 0.1888371 0.83675142
0.66615267 0.19404763 0.81387336
0.85322024 0.19925816 0.79099529
0.14687362 0.45639222 0.85057087
0.33394119 0.46160275 0.82769281
0.52100876 0.46681328 0.80481474
0.70807634 0.47202381 0.78193668
0.89514391 0.47723435 0.75905861
0.18879728 0.73436841 0.81863419
0.37586485 0.73957894 0.79575613
0.56293243 0.74478947 0.77287806
0.75 0.75 0.75
0.93706757 0.75521053 0.72712194
0.23072095 1.0123446 0.78669751
0.41778852 1.0175551 0.76381945
0.60485609 1.0227657 0.74094139
0.79192366 1.0279762 0.71806332
0.97899124 1.0331867 0.69518526
0.08403505 -0.13274687 1.219259
0.27110262 -0.12753634 1.1963809
0.4581702 -0.1223258 1.1735028
0.64523777 -0.11711527 1.1506248
0.83230534 -0.11190474 1.1277467
0.12595872 0.14522932 1.1873223
0.31302629 0.15043985 1.1644442
0.50009386 0.15565038 1.1415662
0.68716143 0.16086091 1.1186881
0.87422901 0.16607144 1.09581
0.16788238 0.42320551 1.1553856
0.35494995 0.42841604 1.1325075
0.54201753 0.43362657 1.1096295
0.7290851 0.4388371 1.0867514
0.91615267 0.44404763 1.0638734
0.20980604 0.70118169 1.1234489
0.39687362 0.70639222 1.1005709
0.58394119 0.71160275 1.0776928
0.77100876 0.71681328 1.0548147
0.95807634 0.72202381 1.0319367
0.25172971 0.97915788 1.0915123
0.43879728 0.98436841 1.0686342
0.62586485 0.98957894 1.0457561
0.81293243 0.99478947 1.0228781
1 1 1
