site/assets/luts/ocio-aces--sonyinputslog2-curve--e335c045a.cube
# LUTr-Project: LUTr — LUTrepository
# LUTr-Schema-Version: 1
# LUTr-ID: ocio-aces--sonyinputslog2-curve--e335c045a
# LUTr-Title: Sony.Input.SLog2-Curve
# LUTr-Collection: OCIO ACES
# LUTr-Collection-ID: aswf-opencolorio-config-aces
# LUTr-Source: https://github.com/AcademySoftwareFoundation/OpenColorIO-Config-ACES
# LUTr-Source-File: submissions/aswf-opencolorio-config-aces/opencolorio_config_aces/clf/transforms/sony/input/Sony.Input.SLog2-Curve.clf
# LUTr-Source-Format: CLF
# LUTr-Source-SHA256: 29d45822ec64a446188ac825a520d4e3558a7ac84a3958c34a514235b853102f
# LUTr-License: BSD-3-Clause
# LUTr-License-URL: https://github.com/AcademySoftwareFoundation/OpenColorIO-Config-ACES/blob/main/LICENSE
# LUTr-Tags: technical, aces, ocio, clf, color-management, cube
# LUTr-Transform-Class: color-space-conversion
# LUTr-Input-Color-Space: S-Log2 Log (arbitrary primaries)
# LUTr-Output-Color-Space: S-Log2 Linear (arbitrary primaries)
# LUTr-Color-Space-Confidence: descriptor-only
# LUTr-Conversion-Method: CLF operations evaluated as float and sampled to 33x33x33 3D CUBE
# LUTr-Conversion-Date: 2026-07-27
# LUTr-Conversion-Tool: LUTr scripts/convert-all-to-cube.mjs
# LUTr-Conversion-Grid: 33x33x33
# LUTr-Conversion-Warning: A sampled 3D CUBE is bounded to DOMAIN_MIN/MAX 0..1 and cannot preserve CLF values outside its input domain.
# LUTr-Upstream-ID: urn:aswf:ocio:transformId:1.0:Sony:Input:SLog2-Curve_to_Linear:1.0
# LUTr-Upstream-Name: S-Log2 Log to Linear Curve
# LUTr-Upstream-Input-Descriptor: S-Log2 Log (arbitrary primaries)
# LUTr-Upstream-Output-Descriptor: S-Log2 Linear (arbitrary primaries)
# LUTr-Upstream-Operations: Log
# LUTr-Note: Preserve this metadata and the upstream license notices when redistributing.
TITLE "Sony.Input.SLog2-Curve"
LUT_3D_SIZE 33
DOMAIN_MIN 0 0 0
DOMAIN_MAX 1 1 1
-0.026210564 -0.026210564 -0.026210564
-0.016929314 -0.026210564 -0.026210564
-0.0076480645 -0.026210564 -0.026210564
0.0016613506 -0.026210564 -0.026210564
0.01226126 -0.026210564 -0.026210564
0.025133156 -0.026210564 -0.026210564
0.040764019 -0.026210564 -0.026210564
0.059745204 -0.026210564 -0.026210564
0.082794823 -0.026210564 -0.026210564
0.1107849 -0.026210564 -0.026210564
0.14477438 -0.026210564 -0.026210564
0.18604918 -0.026210564 -0.026210564
0.23617083 -0.026210564 -0.026210564
0.29703557 -0.026210564 -0.026210564
0.37094607 -0.026210564 -0.026210564
0.46069856 -0.026210564 -0.026210564
0.56968864 -0.026210564 -0.026210564
0.70203967 -0.026210564 -0.026210564
0.86275887 -0.026210564 -0.026210564
1.0579267 -0.026210564 -0.026210564
1.2949268 -0.026210564 -0.026210564
1.5827255 -0.026210564 -0.026210564
1.9322112 -0.026210564 -0.026210564
2.3566057 -0.026210564 -0.026210564
2.871965 -0.026210564 -0.026210564
3.4977866 -0.026210564 -0.026210564
4.257747 -0.026210564 -0.026210564
5.1805975 -0.026210564 -0.026210564
6.301252 -0.026210564 -0.026210564
7.6621079 -0.026210564 -0.026210564
9.3146501 -0.026210564 -0.026210564
11.321399 -0.026210564 -0.026210564
13.758274 -0.026210564 -0.026210564
-0.026210564 -0.016929314 -0.026210564
-0.016929314 -0.016929314 -0.026210564
-0.0076480645 -0.016929314 -0.026210564
0.0016613506 -0.016929314 -0.026210564
0.01226126 -0.016929314 -0.026210564
0.025133156 -0.016929314 -0.026210564
0.040764019 -0.016929314 -0.026210564
0.059745204 -0.016929314 -0.026210564
0.082794823 -0.016929314 -0.026210564
0.1107849 -0.016929314 -0.026210564
0.14477438 -0.016929314 -0.026210564
0.18604918 -0.016929314 -0.026210564
0.23617083 -0.016929314 -0.026210564
0.29703557 -0.016929314 -0.026210564
0.37094607 -0.016929314 -0.026210564
0.46069856 -0.016929314 -0.026210564
0.56968864 -0.016929314 -0.026210564
0.70203967 -0.016929314 -0.026210564
0.86275887 -0.016929314 -0.026210564
1.0579267 -0.016929314 -0.026210564
1.2949268 -0.016929314 -0.026210564
1.5827255 -0.016929314 -0.026210564
1.9322112 -0.016929314 -0.026210564
2.3566057 -0.016929314 -0.026210564
2.871965 -0.016929314 -0.026210564
3.4977866 -0.016929314 -0.026210564
4.257747 -0.016929314 -0.026210564
5.1805975 -0.016929314 -0.026210564
6.301252 -0.016929314 -0.026210564
7.6621079 -0.016929314 -0.026210564
9.3146501 -0.016929314 -0.026210564
11.321399 -0.016929314 -0.026210564
13.758274 -0.016929314 -0.026210564
-0.026210564 -0.0076480645 -0.026210564
-0.016929314 -0.0076480645 -0.026210564
-0.0076480645 -0.0076480645 -0.026210564
0.0016613506 -0.0076480645 -0.026210564
0.01226126 -0.0076480645 -0.026210564
0.025133156 -0.0076480645 -0.026210564
0.040764019 -0.0076480645 -0.026210564
0.059745204 -0.0076480645 -0.026210564
0.082794823 -0.0076480645 -0.026210564
0.1107849 -0.0076480645 -0.026210564
0.14477438 -0.0076480645 -0.026210564
0.18604918 -0.0076480645 -0.026210564
0.23617083 -0.0076480645 -0.026210564
0.29703557 -0.0076480645 -0.026210564
0.37094607 -0.0076480645 -0.026210564
0.46069856 -0.0076480645 -0.026210564
0.56968864 -0.0076480645 -0.026210564
0.70203967 -0.0076480645 -0.026210564
0.86275887 -0.0076480645 -0.026210564
1.0579267 -0.0076480645 -0.026210564
1.2949268 -0.0076480645 -0.026210564
1.5827255 -0.0076480645 -0.026210564
1.9322112 -0.0076480645 -0.026210564
2.3566057 -0.0076480645 -0.026210564
2.871965 -0.0076480645 -0.026210564
3.4977866 -0.0076480645 -0.026210564
4.257747 -0.0076480645 -0.026210564
5.1805975 -0.0076480645 -0.026210564
6.301252 -0.0076480645 -0.026210564
7.6621079 -0.0076480645 -0.026210564
9.3146501 -0.0076480645 -0.026210564
11.321399 -0.0076480645 -0.026210564
13.758274 -0.0076480645 -0.026210564
-0.026210564 0.0016613506 -0.026210564
-0.016929314 0.0016613506 -0.026210564
-0.0076480645 0.0016613506 -0.026210564
0.0016613506 0.0016613506 -0.026210564
0.01226126 0.0016613506 -0.026210564
0.025133156 0.0016613506 -0.026210564
0.040764019 0.0016613506 -0.026210564
0.059745204 0.0016613506 -0.026210564
0.082794823 0.0016613506 -0.026210564
0.1107849 0.0016613506 -0.026210564
0.14477438 0.0016613506 -0.026210564
0.18604918 0.0016613506 -0.026210564
0.23617083 0.0016613506 -0.026210564
0.29703557 0.0016613506 -0.026210564
0.37094607 0.0016613506 -0.026210564
0.46069856 0.0016613506 -0.026210564
0.56968864 0.0016613506 -0.026210564
0.70203967 0.0016613506 -0.026210564
0.86275887 0.0016613506 -0.026210564
1.0579267 0.0016613506 -0.026210564
1.2949268 0.0016613506 -0.026210564
1.5827255 0.0016613506 -0.026210564
1.9322112 0.0016613506 -0.026210564
2.3566057 0.0016613506 -0.026210564
2.871965 0.0016613506 -0.026210564
3.4977866 0.0016613506 -0.026210564
4.257747 0.0016613506 -0.026210564
5.1805975 0.0016613506 -0.026210564
6.301252 0.0016613506 -0.026210564
7.6621079 0.0016613506 -0.026210564
9.3146501 0.0016613506 -0.026210564
11.321399 0.0016613506 -0.026210564
13.758274 0.0016613506 -0.026210564
-0.026210564 0.01226126 -0.026210564
-0.016929314 0.01226126 -0.026210564
-0.0076480645 0.01226126 -0.026210564
0.0016613506 0.01226126 -0.026210564
0.01226126 0.01226126 -0.026210564
0.025133156 0.01226126 -0.026210564
0.040764019 0.01226126 -0.026210564
0.059745204 0.01226126 -0.026210564
0.082794823 0.01226126 -0.026210564
0.1107849 0.01226126 -0.026210564
0.14477438 0.01226126 -0.026210564
0.18604918 0.01226126 -0.026210564
0.23617083 0.01226126 -0.026210564
0.29703557 0.01226126 -0.026210564
0.37094607 0.01226126 -0.026210564
0.46069856 0.01226126 -0.026210564
0.56968864 0.01226126 -0.026210564
0.70203967 0.01226126 -0.026210564
0.86275887 0.01226126 -0.026210564
1.0579267 0.01226126 -0.026210564
1.2949268 0.01226126 -0.026210564
1.5827255 0.01226126 -0.026210564
1.9322112 0.01226126 -0.026210564
2.3566057 0.01226126 -0.026210564
2.871965 0.01226126 -0.026210564
3.4977866 0.01226126 -0.026210564
4.257747 0.01226126 -0.026210564
5.1805975 0.01226126 -0.026210564
6.301252 0.01226126 -0.026210564
7.6621079 0.01226126 -0.026210564
9.3146501 0.01226126 -0.026210564
11.321399 0.01226126 -0.026210564
13.758274 0.01226126 -0.026210564
-0.026210564 0.025133156 -0.026210564
-0.016929314 0.025133156 -0.026210564
-0.0076480645 0.025133156 -0.026210564
0.0016613506 0.025133156 -0.026210564
0.01226126 0.025133156 -0.026210564
0.025133156 0.025133156 -0.026210564
0.040764019 0.025133156 -0.026210564
0.059745204 0.025133156 -0.026210564
0.082794823 0.025133156 -0.026210564
0.1107849 0.025133156 -0.026210564
0.14477438 0.025133156 -0.026210564
0.18604918 0.025133156 -0.026210564
0.23617083 0.025133156 -0.026210564
0.29703557 0.025133156 -0.026210564
0.37094607 0.025133156 -0.026210564
0.46069856 0.025133156 -0.026210564
0.56968864 0.025133156 -0.026210564
0.70203967 0.025133156 -0.026210564
0.86275887 0.025133156 -0.026210564
1.0579267 0.025133156 -0.026210564
1.2949268 0.025133156 -0.026210564
1.5827255 0.025133156 -0.026210564
1.9322112 0.025133156 -0.026210564
2.3566057 0.025133156 -0.026210564
2.871965 0.025133156 -0.026210564
3.4977866 0.025133156 -0.026210564
4.257747 0.025133156 -0.026210564
5.1805975 0.025133156 -0.026210564
6.301252 0.025133156 -0.026210564
7.6621079 0.025133156 -0.026210564
9.3146501 0.025133156 -0.026210564
11.321399 0.025133156 -0.026210564
13.758274 0.025133156 -0.026210564
-0.026210564 0.040764019 -0.026210564
-0.016929314 0.040764019 -0.026210564
-0.0076480645 0.040764019 -0.026210564
0.0016613506 0.040764019 -0.026210564
0.01226126 0.040764019 -0.026210564
0.025133156 0.040764019 -0.026210564
0.040764019 0.040764019 -0.026210564
0.059745204 0.040764019 -0.026210564
0.082794823 0.040764019 -0.026210564
0.1107849 0.040764019 -0.026210564
0.14477438 0.040764019 -0.026210564
0.18604918 0.040764019 -0.026210564
0.23617083 0.040764019 -0.026210564
0.29703557 0.040764019 -0.026210564
0.37094607 0.040764019 -0.026210564
0.46069856 0.040764019 -0.026210564
0.56968864 0.040764019 -0.026210564
0.70203967 0.040764019 -0.026210564
0.86275887 0.040764019 -0.026210564
1.0579267 0.040764019 -0.026210564
1.2949268 0.040764019 -0.026210564
1.5827255 0.040764019 -0.026210564
1.9322112 0.040764019 -0.026210564
2.3566057 0.040764019 -0.026210564
2.871965 0.040764019 -0.026210564
3.4977866 0.040764019 -0.026210564
4.257747 0.040764019 -0.026210564
5.1805975 0.040764019 -0.026210564
6.301252 0.040764019 -0.026210564
7.6621079 0.040764019 -0.026210564
9.3146501 0.040764019 -0.026210564
11.321399 0.040764019 -0.026210564
13.758274 0.040764019 -0.026210564
-0.026210564 0.059745204 -0.026210564
-0.016929314 0.059745204 -0.026210564
-0.0076480645 0.059745204 -0.026210564
0.0016613506 0.059745204 -0.026210564
0.01226126 0.059745204 -0.026210564
0.025133156 0.059745204 -0.026210564
0.040764019 0.059745204 -0.026210564
0.059745204 0.059745204 -0.026210564
0.082794823 0.059745204 -0.026210564
0.1107849 0.059745204 -0.026210564
0.14477438 0.059745204 -0.026210564
0.18604918 0.059745204 -0.026210564
0.23617083 0.059745204 -0.026210564
0.29703557 0.059745204 -0.026210564
0.37094607 0.059745204 -0.026210564
0.46069856 0.059745204 -0.026210564
0.56968864 0.059745204 -0.026210564
0.70203967 0.059745204 -0.026210564
0.86275887 0.059745204 -0.026210564
1.0579267 0.059745204 -0.026210564
1.2949268 0.059745204 -0.026210564
1.5827255 0.059745204 -0.026210564
1.9322112 0.059745204 -0.026210564
2.3566057 0.059745204 -0.026210564
2.871965 0.059745204 -0.026210564
3.4977866 0.059745204 -0.026210564
4.257747 0.059745204 -0.026210564
5.1805975 0.059745204 -0.026210564
6.301252 0.059745204 -0.026210564
7.6621079 0.059745204 -0.026210564
9.3146501 0.059745204 -0.026210564
11.321399 0.059745204 -0.026210564
13.758274 0.059745204 -0.026210564
-0.026210564 0.082794823 -0.026210564
-0.016929314 0.082794823 -0.026210564
-0.0076480645 0.082794823 -0.026210564
0.0016613506 0.082794823 -0.026210564
0.01226126 0.082794823 -0.026210564
0.025133156 0.082794823 -0.026210564
0.040764019 0.082794823 -0.026210564
0.059745204 0.082794823 -0.026210564
0.082794823 0.082794823 -0.026210564
0.1107849 0.082794823 -0.026210564
0.14477438 0.082794823 -0.026210564
0.18604918 0.082794823 -0.026210564
0.23617083 0.082794823 -0.026210564
0.29703557 0.082794823 -0.026210564
0.37094607 0.082794823 -0.026210564
0.46069856 0.082794823 -0.026210564
0.56968864 0.082794823 -0.026210564
0.70203967 0.082794823 -0.026210564
0.86275887 0.082794823 -0.026210564
1.0579267 0.082794823 -0.026210564
1.2949268 0.082794823 -0.026210564
1.5827255 0.082794823 -0.026210564
1.9322112 0.082794823 -0.026210564
2.3566057 0.082794823 -0.026210564
2.871965 0.082794823 -0.026210564
3.4977866 0.082794823 -0.026210564
4.257747 0.082794823 -0.026210564
5.1805975 0.082794823 -0.026210564
6.301252 0.082794823 -0.026210564
7.6621079 0.082794823 -0.026210564
9.3146501 0.082794823 -0.026210564
11.321399 0.082794823 -0.026210564
13.758274 0.082794823 -0.026210564
-0.026210564 0.1107849 -0.026210564
-0.016929314 0.1107849 -0.026210564
-0.0076480645 0.1107849 -0.026210564
0.0016613506 0.1107849 -0.026210564
0.01226126 0.1107849 -0.026210564
0.025133156 0.1107849 -0.026210564
0.040764019 0.1107849 -0.026210564
0.059745204 0.1107849 -0.026210564
0.082794823 0.1107849 -0.026210564
0.1107849 0.1107849 -0.026210564
0.14477438 0.1107849 -0.026210564
0.18604918 0.1107849 -0.026210564
0.23617083 0.1107849 -0.026210564
0.29703557 0.1107849 -0.026210564
0.37094607 0.1107849 -0.026210564
0.46069856 0.1107849 -0.026210564
0.56968864 0.1107849 -0.026210564
0.70203967 0.1107849 -0.026210564
0.86275887 0.1107849 -0.026210564
1.0579267 0.1107849 -0.026210564
1.2949268 0.1107849 -0.026210564
1.5827255 0.1107849 -0.026210564
1.9322112 0.1107849 -0.026210564
2.3566057 0.1107849 -0.026210564
2.871965 0.1107849 -0.026210564
3.4977866 0.1107849 -0.026210564
4.257747 0.1107849 -0.026210564
5.1805975 0.1107849 -0.026210564
6.301252 0.1107849 -0.026210564
7.6621079 0.1107849 -0.026210564
9.3146501 0.1107849 -0.026210564
11.321399 0.1107849 -0.026210564
13.758274 0.1107849 -0.026210564
-0.026210564 0.14477438 -0.026210564
-0.016929314 0.14477438 -0.026210564
-0.0076480645 0.14477438 -0.026210564
0.0016613506 0.14477438 -0.026210564
0.01226126 0.14477438 -0.026210564
0.025133156 0.14477438 -0.026210564
0.040764019 0.14477438 -0.026210564
0.059745204 0.14477438 -0.026210564
0.082794823 0.14477438 -0.026210564
0.1107849 0.14477438 -0.026210564
0.14477438 0.14477438 -0.026210564
0.18604918 0.14477438 -0.026210564
0.23617083 0.14477438 -0.026210564
0.29703557 0.14477438 -0.026210564
0.37094607 0.14477438 -0.026210564
0.46069856 0.14477438 -0.026210564
0.56968864 0.14477438 -0.026210564
0.70203967 0.14477438 -0.026210564
0.86275887 0.14477438 -0.026210564
1.0579267 0.14477438 -0.026210564
1.2949268 0.14477438 -0.026210564
1.5827255 0.14477438 -0.026210564
1.9322112 0.14477438 -0.026210564
2.3566057 0.14477438 -0.026210564
2.871965 0.14477438 -0.026210564
3.4977866 0.14477438 -0.026210564
4.257747 0.14477438 -0.026210564
5.1805975 0.14477438 -0.026210564
6.301252 0.14477438 -0.026210564
7.6621079 0.14477438 -0.026210564
9.3146501 0.14477438 -0.026210564
11.321399 0.14477438 -0.026210564
13.758274 0.14477438 -0.026210564
-0.026210564 0.18604918 -0.026210564
-0.016929314 0.18604918 -0.026210564
-0.0076480645 0.18604918 -0.026210564
0.0016613506 0.18604918 -0.026210564
0.01226126 0.18604918 -0.026210564
0.025133156 0.18604918 -0.026210564
0.040764019 0.18604918 -0.026210564
0.059745204 0.18604918 -0.026210564
0.082794823 0.18604918 -0.026210564
0.1107849 0.18604918 -0.026210564
0.14477438 0.18604918 -0.026210564
0.18604918 0.18604918 -0.026210564
0.23617083 0.18604918 -0.026210564
0.29703557 0.18604918 -0.026210564
0.37094607 0.18604918 -0.026210564
0.46069856 0.18604918 -0.026210564
0.56968864 0.18604918 -0.026210564
0.70203967 0.18604918 -0.026210564
0.86275887 0.18604918 -0.026210564
1.0579267 0.18604918 -0.026210564
1.2949268 0.18604918 -0.026210564
1.5827255 0.18604918 -0.026210564
1.9322112 0.18604918 -0.026210564
2.3566057 0.18604918 -0.026210564
2.871965 0.18604918 -0.026210564
3.4977866 0.18604918 -0.026210564
4.257747 0.18604918 -0.026210564
5.1805975 0.18604918 -0.026210564
6.301252 0.18604918 -0.026210564
7.6621079 0.18604918 -0.026210564
9.3146501 0.18604918 -0.026210564
11.321399 0.18604918 -0.026210564
13.758274 0.18604918 -0.026210564
-0.026210564 0.23617083 -0.026210564
-0.016929314 0.23617083 -0.026210564
-0.0076480645 0.23617083 -0.026210564
0.0016613506 0.23617083 -0.026210564
0.01226126 0.23617083 -0.026210564
0.025133156 0.23617083 -0.026210564
0.040764019 0.23617083 -0.026210564
0.059745204 0.23617083 -0.026210564
0.082794823 0.23617083 -0.026210564
0.1107849 0.23617083 -0.026210564
0.14477438 0.23617083 -0.026210564
0.18604918 0.23617083 -0.026210564
0.23617083 0.23617083 -0.026210564
0.29703557 0.23617083 -0.026210564
0.37094607 0.23617083 -0.026210564
0.46069856 0.23617083 -0.026210564
0.56968864 0.23617083 -0.026210564
0.70203967 0.23617083 -0.026210564
0.86275887 0.23617083 -0.026210564
1.0579267 0.23617083 -0.026210564
1.2949268 0.23617083 -0.026210564
1.5827255 0.23617083 -0.026210564
1.9322112 0.23617083 -0.026210564
2.3566057 0.23617083 -0.026210564
2.871965 0.23617083 -0.026210564
3.4977866 0.23617083 -0.026210564
4.257747 0.23617083 -0.026210564
5.1805975 0.23617083 -0.026210564
6.301252 0.23617083 -0.026210564
7.6621079 0.23617083 -0.026210564
9.3146501 0.23617083 -0.026210564
11.321399 0.23617083 -0.026210564
13.758274 0.23617083 -0.026210564
-0.026210564 0.29703557 -0.026210564
-0.016929314 0.29703557 -0.026210564
-0.0076480645 0.29703557 -0.026210564
0.0016613506 0.29703557 -0.026210564
0.01226126 0.29703557 -0.026210564
0.025133156 0.29703557 -0.026210564
0.040764019 0.29703557 -0.026210564
0.059745204 0.29703557 -0.026210564
0.082794823 0.29703557 -0.026210564
0.1107849 0.29703557 -0.026210564
0.14477438 0.29703557 -0.026210564
0.18604918 0.29703557 -0.026210564
0.23617083 0.29703557 -0.026210564
0.29703557 0.29703557 -0.026210564
0.37094607 0.29703557 -0.026210564
0.46069856 0.29703557 -0.026210564
0.56968864 0.29703557 -0.026210564
0.70203967 0.29703557 -0.026210564
0.86275887 0.29703557 -0.026210564
1.0579267 0.29703557 -0.026210564
1.2949268 0.29703557 -0.026210564
1.5827255 0.29703557 -0.026210564
1.9322112 0.29703557 -0.026210564
2.3566057 0.29703557 -0.026210564
2.871965 0.29703557 -0.026210564
3.4977866 0.29703557 -0.026210564
4.257747 0.29703557 -0.026210564
5.1805975 0.29703557 -0.026210564
6.301252 0.29703557 -0.026210564
7.6621079 0.29703557 -0.026210564
9.3146501 0.29703557 -0.026210564
11.321399 0.29703557 -0.026210564
13.758274 0.29703557 -0.026210564
-0.026210564 0.37094607 -0.026210564
-0.016929314 0.37094607 -0.026210564
-0.0076480645 0.37094607 -0.026210564
0.0016613506 0.37094607 -0.026210564
0.01226126 0.37094607 -0.026210564
0.025133156 0.37094607 -0.026210564
0.040764019 0.37094607 -0.026210564
0.059745204 0.37094607 -0.026210564
0.082794823 0.37094607 -0.026210564
0.1107849 0.37094607 -0.026210564
0.14477438 0.37094607 -0.026210564
0.18604918 0.37094607 -0.026210564
0.23617083 0.37094607 -0.026210564
0.29703557 0.37094607 -0.026210564
0.37094607 0.37094607 -0.026210564
0.46069856 0.37094607 -0.026210564
0.56968864 0.37094607 -0.026210564
0.70203967 0.37094607 -0.026210564
0.86275887 0.37094607 -0.026210564
1.0579267 0.37094607 -0.026210564
1.2949268 0.37094607 -0.026210564
1.5827255 0.37094607 -0.026210564
1.9322112 0.37094607 -0.026210564
2.3566057 0.37094607 -0.026210564
2.871965 0.37094607 -0.026210564
3.4977866 0.37094607 -0.026210564
4.257747 0.37094607 -0.026210564
5.1805975 0.37094607 -0.026210564
6.301252 0.37094607 -0.026210564
7.6621079 0.37094607 -0.026210564
9.3146501 0.37094607 -0.026210564
11.321399 0.37094607 -0.026210564
13.758274 0.37094607 -0.026210564
-0.026210564 0.46069856 -0.026210564
-0.016929314 0.46069856 -0.026210564
-0.0076480645 0.46069856 -0.026210564
0.0016613506 0.46069856 -0.026210564
0.01226126 0.46069856 -0.026210564
0.025133156 0.46069856 -0.026210564
0.040764019 0.46069856 -0.026210564
0.059745204 0.46069856 -0.026210564
0.082794823 0.46069856 -0.026210564
0.1107849 0.46069856 -0.026210564
0.14477438 0.46069856 -0.026210564
0.18604918 0.46069856 -0.026210564
0.23617083 0.46069856 -0.026210564
0.29703557 0.46069856 -0.026210564
0.37094607 0.46069856 -0.026210564
0.46069856 0.46069856 -0.026210564
0.56968864 0.46069856 -0.026210564
0.70203967 0.46069856 -0.026210564
0.86275887 0.46069856 -0.026210564
1.0579267 0.46069856 -0.026210564
1.2949268 0.46069856 -0.026210564
1.5827255 0.46069856 -0.026210564
1.9322112 0.46069856 -0.026210564
2.3566057 0.46069856 -0.026210564
2.871965 0.46069856 -0.026210564
3.4977866 0.46069856 -0.026210564
4.257747 0.46069856 -0.026210564
5.1805975 0.46069856 -0.026210564
6.301252 0.46069856 -0.026210564
7.6621079 0.46069856 -0.026210564
9.3146501 0.46069856 -0.026210564
11.321399 0.46069856 -0.026210564
13.758274 0.46069856 -0.026210564
-0.026210564 0.56968864 -0.026210564
-0.016929314 0.56968864 -0.026210564
-0.0076480645 0.56968864 -0.026210564
0.0016613506 0.56968864 -0.026210564
0.01226126 0.56968864 -0.026210564
0.025133156 0.56968864 -0.026210564
0.040764019 0.56968864 -0.026210564
0.059745204 0.56968864 -0.026210564
0.082794823 0.56968864 -0.026210564
0.1107849 0.56968864 -0.026210564
0.14477438 0.56968864 -0.026210564
0.18604918 0.56968864 -0.026210564
0.23617083 0.56968864 -0.026210564
0.29703557 0.56968864 -0.026210564
0.37094607 0.56968864 -0.026210564
0.46069856 0.56968864 -0.026210564
0.56968864 0.56968864 -0.026210564
0.70203967 0.56968864 -0.026210564
0.86275887 0.56968864 -0.026210564
1.0579267 0.56968864 -0.026210564
1.2949268 0.56968864 -0.026210564
1.5827255 0.56968864 -0.026210564
1.9322112 0.56968864 -0.026210564
2.3566057 0.56968864 -0.026210564
2.871965 0.56968864 -0.026210564
3.4977866 0.56968864 -0.026210564
4.257747 0.56968864 -0.026210564
5.1805975 0.56968864 -0.026210564
6.301252 0.56968864 -0.026210564
7.6621079 0.56968864 -0.026210564
9.3146501 0.56968864 -0.026210564
11.321399 0.56968864 -0.026210564
13.758274 0.56968864 -0.026210564
-0.026210564 0.70203967 -0.026210564
-0.016929314 0.70203967 -0.026210564
-0.0076480645 0.70203967 -0.026210564
0.0016613506 0.70203967 -0.026210564
0.01226126 0.70203967 -0.026210564
0.025133156 0.70203967 -0.026210564
0.040764019 0.70203967 -0.026210564
0.059745204 0.70203967 -0.026210564
0.082794823 0.70203967 -0.026210564
0.1107849 0.70203967 -0.026210564
0.14477438 0.70203967 -0.026210564
0.18604918 0.70203967 -0.026210564
0.23617083 0.70203967 -0.026210564
0.29703557 0.70203967 -0.026210564
0.37094607 0.70203967 -0.026210564
0.46069856 0.70203967 -0.026210564
0.56968864 0.70203967 -0.026210564
0.70203967 0.70203967 -0.026210564
0.86275887 0.70203967 -0.026210564
1.0579267 0.70203967 -0.026210564
1.2949268 0.70203967 -0.026210564
1.5827255 0.70203967 -0.026210564
1.9322112 0.70203967 -0.026210564
2.3566057 0.70203967 -0.026210564
2.871965 0.70203967 -0.026210564
3.4977866 0.70203967 -0.026210564
4.257747 0.70203967 -0.026210564
5.1805975 0.70203967 -0.026210564
6.301252 0.70203967 -0.026210564
7.6621079 0.70203967 -0.026210564
9.3146501 0.70203967 -0.026210564
11.321399 0.70203967 -0.026210564
13.758274 0.70203967 -0.026210564
-0.026210564 0.86275887 -0.026210564
-0.016929314 0.86275887 -0.026210564
-0.0076480645 0.86275887 -0.026210564
0.0016613506 0.86275887 -0.026210564
0.01226126 0.86275887 -0.026210564
0.025133156 0.86275887 -0.026210564
0.040764019 0.86275887 -0.026210564
0.059745204 0.86275887 -0.026210564
0.082794823 0.86275887 -0.026210564
0.1107849 0.86275887 -0.026210564
0.14477438 0.86275887 -0.026210564
0.18604918 0.86275887 -0.026210564
0.23617083 0.86275887 -0.026210564
0.29703557 0.86275887 -0.026210564
0.37094607 0.86275887 -0.026210564
0.46069856 0.86275887 -0.026210564
0.56968864 0.86275887 -0.026210564
0.70203967 0.86275887 -0.026210564
0.86275887 0.86275887 -0.026210564
1.0579267 0.86275887 -0.026210564
1.2949268 0.86275887 -0.026210564
1.5827255 0.86275887 -0.026210564
1.9322112 0.86275887 -0.026210564
2.3566057 0.86275887 -0.026210564
2.871965 0.86275887 -0.026210564
3.4977866 0.86275887 -0.026210564
4.257747 0.86275887 -0.026210564
5.1805975 0.86275887 -0.026210564
6.301252 0.86275887 -0.026210564
7.6621079 0.86275887 -0.026210564
9.3146501 0.86275887 -0.026210564
