site/assets/luts/ocio-aces--sonyinputlinear-sgamut-to-aces2065-1--f5f13d4b6.cube
# LUTr-Project: LUTr — LUTrepository
# LUTr-Schema-Version: 1
# LUTr-ID: ocio-aces--sonyinputlinear-sgamut-to-aces2065-1--f5f13d4b6
# LUTr-Title: Sony.Input.Linear SGamut to ACES2065-1
# LUTr-Collection: OCIO ACES
# LUTr-Collection-ID: aswf-opencolorio-config-aces
# LUTr-Source: https://github.com/AcademySoftwareFoundation/OpenColorIO-Config-ACES
# LUTr-Source-File: submissions/aswf-opencolorio-config-aces/opencolorio_config_aces/clf/transforms/sony/input/Sony.Input.Linear_SGamut_to_ACES2065-1.clf
# LUTr-Source-Format: CLF
# LUTr-Source-SHA256: a67fdcea090b471aabd2bfaa6295ab321f1ab04733154f29c6f5afaa0aac835b
# LUTr-License: BSD-3-Clause
# LUTr-License-URL: https://github.com/AcademySoftwareFoundation/OpenColorIO-Config-ACES/blob/main/LICENSE
# LUTr-Tags: technical, aces, ocio, clf, color-management, cube
# LUTr-Transform-Class: color-space-conversion
# LUTr-Input-Color-Space: Linear S-Gamut
# LUTr-Output-Color-Space: ACES2065-1
# LUTr-Color-Space-Confidence: descriptor-only
# LUTr-Conversion-Method: CLF operations evaluated as float and sampled to 33x33x33 3D CUBE
# LUTr-Conversion-Date: 2026-07-27
# LUTr-Conversion-Tool: LUTr scripts/convert-all-to-cube.mjs
# LUTr-Conversion-Grid: 33x33x33
# LUTr-Conversion-Warning: A sampled 3D CUBE is bounded to DOMAIN_MIN/MAX 0..1 and cannot preserve CLF values outside its input domain.
# LUTr-Upstream-ID: urn:aswf:ocio:transformId:1.0:Sony:Input:Linear_SGamut_to_ACES2065-1:1.0
# LUTr-Upstream-Name: Linear S-Gamut to ACES2065-1
# LUTr-Upstream-Input-Descriptor: Linear S-Gamut
# LUTr-Upstream-Output-Descriptor: ACES2065-1
# LUTr-Upstream-Operations: Matrix
# LUTr-Note: Preserve this metadata and the upstream license notices when redistributing.
TITLE "Sony.Input.Linear SGamut to ACES2065-1"
LUT_3D_SIZE 5
DOMAIN_MIN 0 0 0
DOMAIN_MAX 1 1 1
0 0 0
0.18824565 0.0054269244 -0.0023540132
0.3764913 0.010853849 -0.0047080264
0.56473695 0.016280773 -0.0070620396
0.7529826 0.021707697 -0.0094160527
0.035842554 0.25382971 0.00084260446
0.2240882 0.25925663 -0.0015114087
0.41233385 0.26468356 -0.0038654219
0.6005795 0.27011048 -0.0062194351
0.78882515 0.27553741 -0.0085734483
0.071685108 0.50765942 0.0016852089
0.25993076 0.51308634 -0.00066880426
0.44817641 0.51851327 -0.0030228174
0.63642205 0.52394019 -0.0053768306
0.8246677 0.52936712 -0.0077308438
0.10752766 0.76148913 0.0025278134
0.29577331 0.76691605 0.00017380021
0.48401896 0.77234298 -0.002180213
0.67226461 0.7777699 -0.0045342262
0.86051026 0.78319682 -0.0068882394
0.14337022 1.0153188 0.0033704179
0.33161587 1.0207458 0.0010164047
0.51986151 1.0261727 -0.0013376085
0.70810716 1.0315996 -0.0036916217
0.89635281 1.0370265 -0.0060456349
0.025911797 -0.0092566332 0.25151141
0.21415745 -0.0038297089 0.2491574
0.40240309 0.0015972155 0.24680338
0.59064874 0.0070241398 0.24444937
0.77889439 0.012451064 0.24209536
0.061754351 0.24457308 0.25235401
0.25 0.25 0.25
0.43824565 0.25542692 0.24764599
0.6264913 0.26085385 0.24529197
0.81473695 0.26628077 0.24293796
0.097596905 0.49840278 0.25319662
0.28584255 0.50382971 0.2508426
0.4740882 0.50925663 0.24848859
0.66233385 0.51468356 0.24613458
0.8505795 0.52011048 0.24378056
0.13343946 0.75223249 0.25403922
0.32168511 0.75765942 0.25168521
0.50993076 0.76308634 0.2493312
0.69817641 0.76851327 0.24697718
0.88642205 0.77394019 0.24462317
0.16928201 1.0060622 0.25488183
0.35752766 1.0114891 0.25252781
0.54577331 1.0169161 0.2501738
0.73401896 1.022343 0.24781979
0.92226461 1.0277699 0.24546577
0.051823594 -0.018513266 0.50302282
0.24006924 -0.013086342 0.5006688
0.42831489 -0.0076594178 0.49831479
0.61656054 -0.0022324934 0.49596078
0.80480619 0.003194431 0.49360676
0.087666148 0.23531644 0.50386542
0.2759118 0.24074337 0.50151141
0.46415745 0.24617029 0.4991574
0.65240309 0.25159722 0.49680338
0.84064874 0.25702414 0.49444937
0.1235087 0.48914615 0.50470803
0.31175435 0.49457308 0.50235401
0.5 0.5 0.5
0.68824565 0.50542692 0.49764599
0.8764913 0.51085385 0.49529197
0.15935126 0.74297586 0.50555063
0.34759691 0.74840278 0.50319662
0.53584255 0.75382971 0.5008426
0.7240882 0.75925663 0.49848859
0.91233385 0.76468356 0.49613458
0.19519381 0.99680557 0.50639324
0.38343946 1.0022325 0.50403922
0.57168511 1.0076594 0.50168521
0.75993076 1.0130863 0.4993312
0.94817641 1.0185133 0.49697718
0.077735391 -0.0277699 0.75453423
0.26598104 -0.022342975 0.75218021
0.45422669 -0.016916051 0.7498262
0.64247234 -0.011489127 0.74747219
0.83071799 -0.0060622023 0.74511817
0.11357795 0.22605981 0.75537683
0.30182359 0.23148673 0.75302282
0.49006924 0.23691366 0.7506688
0.67831489 0.24234058 0.74831479
0.86656054 0.24776751 0.74596078
0.1494205 0.47988952 0.75621944
0.33766615 0.48531644 0.75386542
0.5259118 0.49074337 0.75151141
0.71415745 0.49617029 0.7491574
0.90240309 0.50159722 0.74680338
0.18526305 0.73371923 0.75706204
0.3735087 0.73914615 0.75470803
0.56175435 0.74457308 0.75235401
0.75 0.75 0.75
0.93824565 0.75542692 0.74764599
0.22110561 0.98754894 0.75790464
0.40935126 0.99297586 0.75555063
0.59759691 0.99840278 0.75319662
0.78584255 1.0038297 0.7508426
0.9740882 1.0092566 0.74848859
0.10364719 -0.037026533 1.0060456
0.29189284 -0.031599609 1.0036916
0.48013849 -0.026172684 1.0013376
0.66838413 -0.02074576 0.9989836
0.85662978 -0.015318836 0.99662958
0.13948974 0.21680318 1.0068882
0.32773539 0.2222301 1.0045342
0.51598104 0.22765702 1.0021802
0.70422669 0.23308395 0.9998262
0.89247234 0.23851087 0.99747219
0.1753323 0.47063288 1.0077308
0.36357795 0.47605981 1.0053768
0.55182359 0.48148673 1.0030228
0.74006924 0.48691366 1.0006688
0.92831489 0.49234058 0.99831479
0.21117485 0.72446259 1.0085734
0.3994205 0.72988952 1.0062194
0.58766615 0.73531644 1.0038654
0.7759118 0.74074337 1.0015114
0.96415745 0.74617029 0.9991574
0.2470174 0.9782923 1.0094161
0.43526305 0.98371923 1.007062
0.6235087 0.98914615 1.004708
0.81175435 0.99457308 1.002354
1 1 1
