site/assets/luts/ocio-aces--ocioutilityap0-to-srgb-encoded-ap1--762247e96.cube
# LUTr-Project: LUTr — LUTrepository
# LUTr-Schema-Version: 1
# LUTr-ID: ocio-aces--ocioutilityap0-to-srgb-encoded-ap1--762247e96
# LUTr-Title: OCIO.Utility.AP0 to sRGB Encoded AP1
# LUTr-Collection: OCIO ACES
# LUTr-Collection-ID: aswf-opencolorio-config-aces
# LUTr-Source: https://github.com/AcademySoftwareFoundation/OpenColorIO-Config-ACES
# LUTr-Source-File: submissions/aswf-opencolorio-config-aces/opencolorio_config_aces/clf/transforms/ocio/utility/OCIO.Utility.AP0_to_sRGB_Encoded_AP1.clf
# LUTr-Source-Format: CLF
# LUTr-Source-SHA256: 009cb10e31270458132fa1c34cab78bfde5f3c74e06cd338f958e27bdf60023d
# LUTr-License: BSD-3-Clause
# LUTr-License-URL: https://github.com/AcademySoftwareFoundation/OpenColorIO-Config-ACES/blob/main/LICENSE
# LUTr-Tags: technical, aces, ocio, clf, color-management, cube
# LUTr-Transform-Class: color-space-conversion
# LUTr-Input-Color-Space: ACES2065-1
# LUTr-Output-Color-Space: sRGB Encoded AP1 primaries, ACES ~=D60 white point
# LUTr-Color-Space-Confidence: descriptor-only
# LUTr-Conversion-Method: CLF operations evaluated as float and sampled to 33x33x33 3D CUBE
# LUTr-Conversion-Date: 2026-07-27
# LUTr-Conversion-Tool: LUTr scripts/convert-all-to-cube.mjs
# LUTr-Conversion-Grid: 33x33x33
# LUTr-Conversion-Warning: A sampled 3D CUBE is bounded to DOMAIN_MIN/MAX 0..1 and cannot preserve CLF values outside its input domain.
# LUTr-Upstream-ID: urn:aswf:ocio:transformId:1.0:OCIO:Utility:AP0_to_sRGB_Encoded_AP1:1.0
# LUTr-Upstream-Name: AP0 to sRGB Encoded AP1
# LUTr-Upstream-Input-Descriptor: ACES2065-1
# LUTr-Upstream-Output-Descriptor: sRGB Encoded AP1 primaries, ACES ~=D60 white point
# LUTr-Upstream-Operations: Matrix → Exponent
# LUTr-Note: Preserve this metadata and the upstream license notices when redistributing.
TITLE "OCIO.Utility.AP0 to sRGB Encoded AP1"
LUT_3D_SIZE 33
DOMAIN_MIN 0 0 0
DOMAIN_MAX 1 1 1
0 0 0
0.000067901027 -0.0000035813277 3.8904487e-7
0.00013580205 -0.0000071626554 7.7808974e-7
0.00020370308 -0.000010743983 0.0000011671346
0.00027160411 -0.000014325311 0.0000015561795
0.00033950513 -0.000017906639 0.0000019452243
0.00040740616 -0.000021487966 0.0000023342692
0.00047530719 -0.000025069294 0.0000027233141
0.00054320822 -0.000028650622 0.000003112359
0.00061110924 -0.000032231949 0.0000035014038
0.00067901027 -0.000035813277 0.0000038904487
0.0007469113 -0.000039394605 0.0000042794936
0.00081481232 -0.000042975932 0.0000046685384
0.00088271335 -0.00004655726 0.0000050575833
0.00095061438 -0.000050138588 0.0000054466282
0.0010185154 -0.000053719916 0.000005835673
0.0010864164 -0.000057301243 0.0000062247179
0.0011543175 -0.000060882571 0.0000066137628
0.0012222185 -0.000064463899 0.0000070028076
0.0012901195 -0.000068045226 0.0000073918525
0.0013580205 -0.000071626554 0.0000077808974
0.0014259216 -0.000075207882 0.0000081699423
0.0014938226 -0.000078789209 0.0000085589871
0.0015617236 -0.000082370537 0.000008948032
0.0016296246 -0.000085951865 0.0000093370769
0.0016975257 -0.000089533193 0.0000097261217
0.0017654267 -0.00009311452 0.000010115167
0.0018333277 -0.000096695848 0.000010504211
0.0019012288 -0.00010027718 0.000010893256
0.0019691298 -0.0001038585 0.000011282301
0.0020370308 -0.00010743983 0.000011671346
0.0021049318 -0.00011102116 0.000012060391
0.0021728329 -0.00011460249 0.000012449436
-0.000011064412 0.00005502621 -2.8220921e-7
0.000056836615 0.000051444882 1.0683566e-7
0.00012473764 0.000047863555 4.9588053e-7
0.00019263867 0.000044282227 8.849254e-7
0.0002605397 0.000040700899 0.0000012739703
0.00032844072 0.000037119571 0.0000016630151
0.00039634175 0.000033538244 0.00000205206
0.00046424278 0.000029956916 0.0000024411049
0.0005321438 0.000026375588 0.0000028301497
0.00060004483 0.000022794261 0.0000032191946
0.00066794586 0.000019212933 0.0000036082395
0.00073584688 0.000015631605 0.0000039972844
0.00080374791 0.000012050278 0.0000043863292
0.00087164894 0.0000084689498 0.0000047753741
0.00093954997 0.0000048876221 0.000005164419
0.001007451 0.0000013062944 0.0000055534638
0.001075352 -0.0000022750333 0.0000059425087
0.001143253 -0.000005856361 0.0000063315536
0.0012111541 -0.0000094376887 0.0000067205984
0.0012790551 -0.000013019016 0.0000071096433
0.0013469561 -0.000016600344 0.0000074986882
0.0014148572 -0.000020181672 0.000007887733
0.0014827582 -0.000023763 0.0000082767779
0.0015506592 -0.000027344327 0.0000086658228
0.0016185602 -0.000030925655 0.0000090548677
0.0016864613 -0.000034506983 0.0000094439125
0.0017543623 -0.00003808831 0.0000098329574
0.0018222633 -0.000041669638 0.000010222002
0.0018901643 -0.000045250966 0.000010611047
0.0019580654 -0.000048832293 0.000011000092
0.0020259664 -0.000052413621 0.000011389137
0.0020938674 -0.000055994949 0.000011778182
0.0021617685 -0.000059576277 0.000012167227
-0.000022128824 0.00011005242 -5.6441841e-7
0.000045772203 0.00010647109 -1.7537354e-7
0.00011367323 0.00010288976 2.1367133e-7
0.00018157426 0.000099308437 6.027162e-7
0.00024947528 0.000095727109 9.9176107e-7
0.00031737631 0.000092145781 0.0000013808059
0.00038527734 0.000088564454 0.0000017698508
0.00045317836 0.000084983126 0.0000021588957
0.00052107939 0.000081401798 0.0000025479405
0.00058898042 0.000077820471 0.0000029369854
0.00065688145 0.000074239143 0.0000033260303
0.00072478247 0.000070657815 0.0000037150751
0.0007926835 0.000067076488 0.00000410412
0.00086058453 0.00006349516 0.0000044931649
0.00092848555 0.000059913832 0.0000048822098
0.00099638658 0.000056332504 0.0000052712546
0.0010642876 0.000052751177 0.0000056602995
0.0011321886 0.000049169849 0.0000060493444
0.0012000897 0.000045588521 0.0000064383892
0.0012679907 0.000042007194 0.0000068274341
0.0013358917 0.000038425866 0.000007216479
0.0014037927 0.000034844538 0.0000076055238
0.0014716938 0.00003126321 0.0000079945687
0.0015395948 0.000027681883 0.0000083836136
0.0016074958 0.000024100555 0.0000087726584
0.0016753969 0.000020519227 0.0000091617033
0.0017432979 0.0000169379 0.0000095507482
0.0018111989 0.000013356572 0.0000099397931
0.0018790999 0.0000097752443 0.000010328838
0.001947001 0.0000061939166 0.000010717883
0.002014902 0.0000026125889 0.000011106928
0.002082803 -9.6873885e-7 0.000011495973
0.002150704 -0.0000045500666 0.000011885017
-0.000033193236 0.00016507863 -8.4662762e-7
0.000034707791 0.0001614973 -4.5758275e-7
0.00010260882 0.00015791597 -6.8537878e-8
0.00017050984 0.00015433465 3.2050699e-7
0.00023841087 0.00015075332 7.0955186e-7
0.0003063119 0.00014717199 0.0000010985967
0.00037421293 0.00014359066 0.0000014876416
0.00044211395 0.00014000934 0.0000018766865
0.00051001498 0.00013642801 0.0000022657313
0.00057791601 0.00013284668 0.0000026547762
0.00064581703 0.00012926535 0.0000030438211
0.00071371806 0.00012568403 0.0000034328659
0.00078161909 0.0001221027 0.0000038219108
0.00084952011 0.00011852137 0.0000042109557
0.00091742114 0.00011494004 0.0000046000006
0.00098532217 0.00011135871 0.0000049890454
0.0010532232 0.00010777739 0.0000053780903
0.0011211242 0.00010419606 0.0000057671352
0.0011890252 0.00010061473 0.00000615618
0.0012569263 0.000097033404 0.0000065452249
0.0013248273 0.000093452076 0.0000069342698
0.0013927283 0.000089870748 0.0000073233146
0.0014606294 0.00008628942 0.0000077123595
0.0015285304 0.000082708093 0.0000081014044
0.0015964314 0.000079126765 0.0000084904492
0.0016643324 0.000075545437 0.0000088794941
0.0017322335 0.00007196411 0.000009268539
0.0018001345 0.000068382782 0.0000096575838
0.0018680355 0.000064801454 0.000010046629
0.0019359365 0.000061220127 0.000010435674
0.0020038376 0.000057638799 0.000010824718
0.0020717386 0.000054057471 0.000011213763
0.0021396396 0.000050476143 0.000011602808
-0.000044257648 0.00022010484 -0.0000011288368
0.000023643379 0.00021652351 -7.3979195e-7
0.000091544406 0.00021294218 -3.5074708e-7
0.00015944543 0.00020936086 3.8297786e-8
0.00022734646 0.00020577953 4.2734265e-7
0.00029524749 0.0002021982 8.1638752e-7
0.00036314851 0.00019861687 0.0000012054324
0.00043104954 0.00019503555 0.0000015944773
0.00049895057 0.00019145422 0.0000019835221
0.00056685159 0.00018787289 0.000002372567
0.00063475262 0.00018429156 0.0000027616119
0.00070265365 0.00018071024 0.0000031506567
0.00077055468 0.00017712891 0.0000035397016
0.0008384557 0.00017354758 0.0000039287465
0.00090635673 0.00016996625 0.0000043177913
0.00097425776 0.00016638492 0.0000047068362
0.0010421588 0.0001628036 0.0000050958811
0.0011100598 0.00015922227 0.000005484926
0.0011779608 0.00015564094 0.0000058739708
0.0012458619 0.00015205961 0.0000062630157
0.0013137629 0.00014847829 0.0000066520606
0.0013816639 0.00014489696 0.0000070411054
0.0014495649 0.00014131563 0.0000074301503
0.001517466 0.0001377343 0.0000078191952
0.001585367 0.00013415298 0.00000820824
0.001653268 0.00013057165 0.0000085972849
0.0017211691 0.00012699032 0.0000089863298
0.0017890701 0.00012340899 0.0000093753746
0.0018569711 0.00011982766 0.0000097644195
0.0019248721 0.00011624634 0.000010153464
0.0019927732 0.00011266501 0.000010542509
0.0020606742 0.00010908368 0.000010931554
0.0021285752 0.00010550235 0.000011320599
-0.00005532206 0.00027513105 -0.000001411046
0.000012578967 0.00027154972 -0.0000010220012
0.000080479994 0.00026796839 -6.3295629e-7
0.00014838102 0.00026438707 -2.4391142e-7
0.00021628205 0.00026080574 1.4513345e-7
0.00028418307 0.00025722441 5.3417832e-7
0.0003520841 0.00025364308 9.2322319e-7
0.00041998513 0.00025006176 0.0000013122681
0.00048788616 0.00024648043 0.0000017013129
0.00055578718 0.0002428991 0.0000020903578
0.00062368821 0.00023931777 0.0000024794027
0.00069158924 0.00023573645 0.0000028684475
0.00075949026 0.00023215512 0.0000032574924
0.00082739129 0.00022857379 0.0000036465373
0.00089529232 0.00022499246 0.0000040355821
0.00096319334 0.00022141113 0.000004424627
0.0010310944 0.00021782981 0.0000048136719
0.0010989954 0.00021424848 0.0000052027167
0.0011668964 0.00021066715 0.0000055917616
0.0012347975 0.00020708582 0.0000059808065
0.0013026985 0.0002035045 0.0000063698514
0.0013705995 0.00019992317 0.0000067588962
0.0014385005 0.00019634184 0.0000071479411
0.0015064016 0.00019276051 0.000007536986
0.0015743026 0.00018917919 0.0000079260308
0.0016422036 0.00018559786 0.0000083150757
0.0017101046 0.00018201653 0.0000087041206
0.0017780057 0.0001784352 0.0000090931654
0.0018459067 0.00017485387 0.0000094822103
0.0019138077 0.00017127255 0.0000098712552
0.0019817087 0.00016769122 0.0000102603
0.0020496098 0.00016410989 0.000010649345
0.0021175108 0.00016052856 0.00001103839
-0.000066386472 0.00033015726 -0.0000016932552
0.0000015145549 0.00032657593 -0.0000013042104
0.000069415582 0.0003229946 -9.1516549e-7
0.00013731661 0.00031941328 -5.2612063e-7
0.00020521764 0.00031583195 -1.3707576e-7
0.00027311866 0.00031225062 2.5196911e-7
0.00034101969 0.00030866929 6.4101398e-7
0.00040892072 0.00030508797 0.0000010300589
0.00047682174 0.00030150664 0.0000014191037
0.00054472277 0.00029792531 0.0000018081486
0.0006126238 0.00029434398 0.0000021971935
0.00068052482 0.00029076266 0.0000025862383
0.00074842585 0.00028718133 0.0000029752832
0.00081632688 0.0002836 0.0000033643281
0.00088422791 0.00028001867 0.0000037533729
0.00095212893 0.00027643734 0.0000041424178
0.00102003 0.00027285602 0.0000045314627
0.001087931 0.00026927469 0.0000049205075
0.001155832 0.00026569336 0.0000053095524
0.001223733 0.00026211203 0.0000056985973
0.0012916341 0.00025853071 0.0000060876421
0.0013595351 0.00025494938 0.000006476687
0.0014274361 0.00025136805 0.0000068657319
0.0014953371 0.00024778672 0.0000072547768
0.0015632382 0.0002442054 0.0000076438216
0.0016311392 0.00024062407 0.0000080328665
0.0016990402 0.00023704274 0.0000084219114
0.0017669413 0.00023346141 0.0000088109562
0.0018348423 0.00022988008 0.0000092000011
0.0019027433 0.00022629876 0.000009589046
0.0019706443 0.00022271743 0.0000099780908
0.0020385454 0.0002191361 0.000010367136
0.0021064464 0.00021555477 0.000010756181
-0.000077450884 0.00038518347 -0.0000019754644
-0.0000095498571 0.00038160214 -0.0000015864196
0.00005835117 0.00037802081 -0.0000011973747
0.0001262522 0.00037443949 -8.0832983e-7
0.00019415322 0.00037085816 -4.1928496e-7
0.00026205425 0.00036727683 -3.0240092e-8
0.00032995528 0.0003636955 3.5880478e-7
0.0003978563 0.00036011418 7.4784965e-7
0.00046575733 0.00035653285 0.0000011368945
0.00053365836 0.00035295152 0.0000015259394
0.00060155939 0.00034937019 0.0000019149843
0.00066946041 0.00034578887 0.0000023040291
0.00073736144 0.00034220754 0.000002693074
0.00080526247 0.00033862621 0.0000030821189
0.00087316349 0.00033504488 0.0000034711637
0.00094106452 0.00033146355 0.0000038602086
0.0010089655 0.00032788223 0.0000042492535
0.0010768666 0.0003243009 0.0000046382983
0.0011447676 0.00032071957 0.0000050273432
0.0012126686 0.00031713824 0.0000054163881
0.0012805697 0.00031355692 0.0000058054329
0.0013484707 0.00030997559 0.0000061944778
0.0014163717 0.00030639426 0.0000065835227
0.0014842727 0.00030281293 0.0000069725676
0.0015521738 0.00029923161 0.0000073616124
0.0016200748 0.00029565028 0.0000077506573
0.0016879758 0.00029206895 0.0000081397022
0.0017558768 0.00028848762 0.000008528747
0.0018237779 0.00028490629 0.0000089177919
0.0018916789 0.00028132497 0.0000093068368
0.0019595799 0.00027774364 0.0000096958816
0.002027481 0.00027416231 0.000010084927
0.002095382 0.00027058098 0.000010473971
-0.000088515296 0.00044020968 -0.0000022576736
-0.000020614269 0.00043662835 -0.0000018686288
0.000047286758 0.00043304702 -0.0000014795839
0.00011518778 0.0004294657 -0.000001090539
0.00018308881 0.00042588437 -7.0149417e-7
0.00025098984 0.00042230304 -3.124493e-7
0.00031889087 0.00041872171 7.6595571e-8
0.00038679189 0.00041514039 4.6564044e-7
0.00045469292 0.00041155906 8.5468531e-7
0.00052259395 0.00040797773 0.0000012437302
0.00059049497 0.0004043964 0.000001632775
0.000658396 0.00040081508 0.0000020218199
0.00072629703 0.00039723375 0.0000024108648
0.00079419805 0.00039365242 0.0000027999097
0.00086209908 0.00039007109 0.0000031889545
0.00093000011 0.00038648976 0.0000035779994
0.00099790114 0.00038290844 0.0000039670443
0.0010658022 0.00037932711 0.0000043560891
0.0011337032 0.00037574578 0.000004745134
0.0012016042 0.00037216445 0.0000051341789
0.0012695052 0.00036858313 0.0000055232237
0.0013374063 0.0003650018 0.0000059122686
0.0014053073 0.00036142047 0.0000063013135
0.0014732083 0.00035783914 0.0000066903583
0.0015411094 0.00035425782 0.0000070794032
0.0016090104 0.00035067649 0.0000074684481
0.0016769114 0.00034709516 0.000007857493
0.0017448124 0.00034351383 0.0000082465378
0.0018127135 0.0003399325 0.0000086355827
0.0018806145 0.00033635118 0.0000090246276
0.0019485155 0.00033276985 0.0000094136724
0.0020164165 0.00032918852 0.0000098027173
0.0020843176 0.00032560719 0.000010191762
-0.000099579708 0.00049523589 -0.0000025398828
-0.000031678681 0.00049165456 -0.000002150838
0.000036222346 0.00048807323 -0.0000017617931
0.00010412337 0.00048449191 -0.0000013727482
0.0001720244 0.00048091058 -9.8370337e-7
0.00023992543 0.00047732925 -5.946585e-7
0.00030782645 0.00047374792 -2.0561363e-7
0.00037572748 0.0004701666 1.8343123e-7
0.00044362851 0.00046658527 5.724761e-7
0.00051152953 0.00046300394 9.6152097e-7
0.00057943056 0.00045942261 0.0000013505658
0.00064733159 0.00045584129 0.0000017396107
0.00071523262 0.00045225996 0.0000021286556
0.00078313364 0.00044867863 0.0000025177004
0.00085103467 0.0004450973 0.0000029067453
0.0009189357 0.00044151597 0.0000032957902
0.00098683672 0.00043793465 0.0000036848351
0.0010547378 0.00043435332 0.0000040738799
0.0011226388 0.00043077199 0.0000044629248
0.0011905398 0.00042719066 0.0000048519697
0.0012584408 0.00042360934 0.0000052410145
0.0013263419 0.00042002801 0.0000056300594
0.0013942429 0.00041644668 0.0000060191043
0.0014621439 0.00041286535 0.0000064081491
0.0015300449 0.00040928403 0.000006797194
0.001597946 0.0004057027 0.0000071862389
0.001665847 0.00040212137 0.0000075752837
0.001733748 0.00039854004 0.0000079643286
0.001801649 0.00039495871 0.0000083533735
0.0018695501 0.00039137739 0.0000087424184
0.0019374511 0.00038779606 0.0000091314632
0.0020053521 0.00038421473 0.0000095205081
0.0020732532 0.0003806334 0.000009909553
-0.00011064412 0.0005502621 -0.0000028220921
-0.000042743093 0.00054668077 -0.0000024330472
0.000025157934 0.00054309944 -0.0000020440023
0.000093058961 0.00053951812 -0.0000016549574
0.00016095999 0.00053593679 -0.0000012659126
0.00022886101 0.00053235546 -8.7686771e-7
0.00029676204 0.00052877413 -4.8782284e-7
0.00036466307 0.00052519281 -9.877797e-8
0.0004325641 0.00052161148 2.902669e-7
0.00050046512 0.00051803015 6.7931177e-7
0.00056836615 0.00051444882 0.0000010683566
0.00063626718 0.0005108675 0.0000014574015
0.0007041682 0.00050728617 0.0000018464464
0.00077206923 0.00050370484 0.0000022354912
0.00083997026 0.00050012351 0.0000026245361
0.00090787128 0.00049654218 0.000003013581
0.00097577231 0.00049296086 0.0000034026259
0.0010436733 0.00048937953 0.0000037916707
0.0011115744 0.0004857982 0.0000041807156
0.0011794754 0.00048221687 0.0000045697605
0.0012473764 0.00047863555 0.0000049588053
0.0013152774 0.00047505422 0.0000053478502
0.0013831785 0.00047147289 0.0000057368951
0.0014510795 0.00046789156 0.0000061259399
0.0015189805 0.00046431024 0.0000065149848
0.0015868816 0.00046072891 0.0000069040297
0.0016547826 0.00045714758 0.0000072930745
0.0017226836 0.00045356625 0.0000076821194
0.0017905846 0.00044998492 0.0000080711643
0.0018584857 0.0004464036 0.0000084602091
0.0019263867 0.00044282227 0.000008849254
0.0019942877 0.00043924094 0.0000092382989
0.0020621887 0.00043565961 0.0000096273438
-0.00012170853 0.00060528831 -0.0000031043013
-0.000053807505 0.00060170698 -0.0000027152564
0.000014093522 0.00059812565 -0.0000023262115
0.000081994549 0.00059454433 -0.0000019371667
0.00014989558 0.000590963 -0.0000015481218
0.0002177966 0.00058738167 -0.0000011590769
0.00028569763 0.00058380034 -7.7003204e-7
0.00035359866 0.00058021902 -3.8098718e-7
0.00042149968 0.00057663769 8.0576933e-9
0.00048940071 0.00057305636 3.9710256e-7
0.00055730174 0.00056947503 7.8614743e-7
0.00062520276 0.00056589371 0.0000011751923
0.00069310379 0.00056231238 0.0000015642372
0.00076100482 0.00055873105 0.000001953282
0.00082890585 0.00055514972 0.0000023423269
0.00089680687 0.00055156839 0.0000027313718
0.0009647079 0.00054798707 0.0000031204166
0.0010326089 0.00054440574 0.0000035094615
0.00110051 0.00054082441 0.0000038985064
0.001168411 0.00053724308 0.0000042875513
0.001236312 0.00053366176 0.0000046765961
0.001304213 0.00053008043 0.000005065641
0.0013721141 0.0005264991 0.0000054546859
0.0014400151 0.00052291777 0.0000058437307
0.0015079161 0.00051933645 0.0000062327756
0.0015758171 0.00051575512 0.0000066218205
0.0016437182 0.00051217379 0.0000070108653
0.0017116192 0.00050859246 0.0000073999102
0.0017795202 0.00050501113 0.0000077889551
0.0018474213 0.00050142981 0.0000081779999
0.0019153223 0.00049784848 0.0000085670448
0.0019832233 0.00049426715 0.0000089560897
0.0020511243 0.00049068582 0.0000093451346
-0.00013277294 0.00066031452 -0.0000033865105
-0.000064871917 0.00065673319 -0.0000029974656
0.0000030291098 0.00065315186 -0.0000026084207
0.000070930137 0.00064957054 -0.0000022193759
0.00013883116 0.00064598921 -0.000001830331
0.00020673219 0.00064240788 -0.0000014412861
0.00027463322 0.00063882655 -0.0000010522413
0.00034253424 0.00063524523 -6.6319638e-7
0.00041043527 0.0006316639 -2.7415151e-7
0.0004783363 0.00062808257 1.1489336e-7
0.00054623733 0.00062450124 5.0393823e-7
0.00061413835 0.00062091992 8.929831e-7
0.00068203938 0.00061733859 0.000001282028
0.00074994041 0.00061375726 0.0000016710728
0.00081784143 0.00061017593 0.0000020601177
0.00088574246 0.0006065946 0.0000024491626
0.00095364349 0.00060301328 0.0000028382074
0.0010215445 0.00059943195 0.0000032272523
0.0010894455 0.00059585062 0.0000036162972
0.0011573466 0.00059226929 0.000004005342
0.0012252476 0.00058868797 0.0000043943869
0.0012931486 0.00058510664 0.0000047834318
0.0013610496 0.00058152531 0.0000051724767
0.0014289507 0.00057794398 0.0000055615215
0.0014968517 0.00057436265 0.0000059505664
0.0015647527 0.00057078133 0.0000063396113
0.0016326538 0.0005672 0.0000067286561
0.0017005548 0.00056361867 0.000007117701
0.0017684558 0.00056003734 0.0000075067459
0.0018363568 0.00055645602 0.0000078957907
0.0019042579 0.00055287469 0.0000082848356
0.0019721589 0.00054929336 0.0000086738805
0.0020400599 0.00054571203 0.0000090629253
-0.00014383736 0.00071534073 -0.0000036687197
-0.000075936329 0.0007117594 -0.0000032796748
-0.0000080353022 0.00070817807 -0.0000028906299
0.000059865725 0.00070459675 -0.0000025015851
0.00012776675 0.00070101542 -0.0000021125402
0.00019566778 0.00069743409 -0.0000017234953
0.00026356881 0.00069385276 -0.0000013344505
0.00033146983 0.00069027144 -9.4540559e-7
0.00039937086 0.00068669011 -5.5636072e-7
0.00046727189 0.00068310878 -1.6731585e-7
0.00053517291 0.00067952745 2.2172902e-7
0.00060307394 0.00067594613 6.1077389e-7
0.00067097497 0.0006723648 9.9981876e-7
0.00073887599 0.00066878347 0.0000013888636
0.00080677702 0.00066520214 0.0000017779085
0.00087467805 0.00066162081 0.0000021669534
0.00094257908 0.00065803949 0.0000025559982
0.0010104801 0.00065445816 0.0000029450431
0.0010783811 0.00065087683 0.000003334088
0.0011462822 0.0006472955 0.0000037231328
0.0012141832 0.00064371418 0.0000041121777
0.0012820842 0.00064013285 0.0000045012226
0.0013499852 0.00063655152 0.0000048902674
0.0014178863 0.00063297019 0.0000052793123
0.0014857873 0.00062938886 0.0000056683572
0.0015536883 0.00062580754 0.0000060574021
0.0016215893 0.00062222621 0.0000064464469
0.0016894904 0.00061864488 0.0000068354918
0.0017573914 0.00061506355 0.0000072245367
0.0018252924 0.00061148223 0.0000076135815
0.0018931935 0.0006079009 0.0000080026264
0.0019610945 0.00060431957 0.0000083916713
0.0020289955 0.00060073824 0.0000087807161
-0.00015490177 0.00077036694 -0.0000039509289
-0.000087000741 0.00076678561 -0.000003561884
-0.000019099714 0.00076320428 -0.0000031728391
0.000048801313 0.00075962296 -0.0000027837943
0.00011670234 0.00075604163 -0.0000023947494
0.00018460337 0.0007524603 -0.0000020057045
0.00025250439 0.00074887897 -0.0000016166597
0.00032040542 0.00074529765 -0.0000012276148
0.00038830645 0.00074171632 -8.3856992e-7
0.00045620747 0.00073813499 -4.4952505e-7
0.0005241085 0.00073455366 -6.0480185e-8
0.00059200953 0.00073097234 3.2856468e-7
0.00065991056 0.00072739101 7.1760955e-7
0.00072781158 0.00072380968 0.0000011066544
0.00079571261 0.00072022835 0.0000014956993
0.00086361364 0.00071664702 0.0000018847442
0.00093151466 0.0007130657 0.000002273789
0.00099941569 0.00070948437 0.0000026628339
0.0010673167 0.00070590304 0.0000030518788
0.0011352177 0.00070232171 0.0000034409236
0.0012031188 0.00069874039 0.0000038299685
0.0012710198 0.00069515906 0.0000042190134
0.0013389208 0.00069157773 0.0000046080582
0.0014068219 0.0006879964 0.0000049971031
0.0014747229 0.00068441507 0.000005386148
0.0015426239 0.00068083375 0.0000057751929
0.0016105249 0.00067725242 0.0000061642377
0.001678426 0.00067367109 0.0000065532826
0.001746327 0.00067008976 0.0000069423275
0.001814228 0.00066650844 0.0000073313723
0.001882129 0.00066292711 0.0000077204172
0.0019500301 0.00065934578 0.0000081094621
0.0020179311 0.00065576445 0.0000084985069
-0.00016596618 0.00082539315 -0.0000042331381
-0.000098065153 0.00082181182 -0.0000038440932
-0.000030164126 0.00081823049 -0.0000034550483
0.000037736901 0.00081464917 -0.0000030660035
0.00010563793 0.00081106784 -0.0000026769586
0.00017353895 0.00080748651 -0.0000022879137
0.00024143998 0.00080390518 -0.0000018988689
0.00030934101 0.00080032386 -0.000001509824
0.00037724204 0.00079674253 -0.0000011207791
0.00044514306 0.0007931612 -7.3173426e-7
0.00051304409 0.00078957987 -3.4268939e-7
0.00058094512 0.00078599855 4.6355479e-8
0.00064884614 0.00078241722 4.3540035e-7
0.00071674717 0.00077883589 8.2444522e-7
0.0007846482 0.00077525456 0.0000012134901
0.00085254922 0.00077167323 0.000001602535
