site/assets/luts/ocio-aces--ocioutilityap0-to-linear-rec2020--b2bc1ebc0.cube
# LUTr-Project: LUTr — LUTrepository
# LUTr-Schema-Version: 1
# LUTr-ID: ocio-aces--ocioutilityap0-to-linear-rec2020--b2bc1ebc0
# LUTr-Title: OCIO.Utility.AP0 to Linear Rec2020
# LUTr-Collection: OCIO ACES
# LUTr-Collection-ID: aswf-opencolorio-config-aces
# LUTr-Source: https://github.com/AcademySoftwareFoundation/OpenColorIO-Config-ACES
# LUTr-Source-File: submissions/aswf-opencolorio-config-aces/opencolorio_config_aces/clf/transforms/ocio/utility/OCIO.Utility.AP0_to_Linear_Rec2020.clf
# LUTr-Source-Format: CLF
# LUTr-Source-SHA256: a8fbac330d4ac3c5ca2bd14bb018460cb648740b8edfe63567c27c68c2a12d5c
# LUTr-License: BSD-3-Clause
# LUTr-License-URL: https://github.com/AcademySoftwareFoundation/OpenColorIO-Config-ACES/blob/main/LICENSE
# LUTr-Tags: technical, aces, ocio, clf, color-management, cube
# LUTr-Transform-Class: color-space-conversion
# LUTr-Input-Color-Space: ACES2065-1
# LUTr-Output-Color-Space: linear Rec.2020 primaries, D65 white point
# LUTr-Color-Space-Confidence: descriptor-only
# LUTr-Conversion-Method: CLF operations evaluated as float and sampled to 33x33x33 3D CUBE
# LUTr-Conversion-Date: 2026-07-27
# LUTr-Conversion-Tool: LUTr scripts/convert-all-to-cube.mjs
# LUTr-Conversion-Grid: 33x33x33
# LUTr-Conversion-Warning: A sampled 3D CUBE is bounded to DOMAIN_MIN/MAX 0..1 and cannot preserve CLF values outside its input domain.
# LUTr-Upstream-ID: urn:aswf:ocio:transformId:1.0:OCIO:Utility:AP0_to_Linear_Rec2020:1.0
# LUTr-Upstream-Name: AP0 to Linear Rec.2020
# LUTr-Upstream-Input-Descriptor: ACES2065-1
# LUTr-Upstream-Output-Descriptor: linear Rec.2020 primaries, D65 white point
# LUTr-Upstream-Operations: Matrix
# LUTr-Note: Preserve this metadata and the upstream license notices when redistributing.
TITLE "OCIO.Utility.AP0 to Linear Rec2020"
LUT_3D_SIZE 5
DOMAIN_MIN 0 0 0
DOMAIN_MAX 1 1 1
0 0 0
0.37260238 -0.020041875 0.0008069078
0.74520476 -0.04008375 0.0016138156
1.1178071 -0.060125625 0.0024207234
1.4904095 -0.0801675 0.0032276312
-0.06654273 0.29554178 -0.0086941189
0.30605965 0.27549991 -0.0078872111
0.67866203 0.25545803 -0.0070803033
1.0512644 0.23541616 -0.0062733955
1.4238668 0.21537428 -0.0054664877
-0.13308546 0.59108356 -0.017388238
0.23951692 0.57104169 -0.01658133
0.6121193 0.55099981 -0.015774422
0.98472168 0.53095794 -0.014967514
1.3573241 0.51091606 -0.014160607
-0.19962819 0.88662534 -0.026082357
0.17297419 0.86658347 -0.025275449
0.54557657 0.84654159 -0.024468541
0.91817895 0.82649972 -0.023661633
1.2907813 0.80645784 -0.022854726
-0.26617092 1.1821671 -0.034776476
0.10643146 1.1621252 -0.033969568
0.47903384 1.1420834 -0.03316266
0.85163622 1.1220415 -0.032355752
1.2242386 1.1019996 -0.031548845
-0.05605965 -0.025499905 0.25788721
0.31654273 -0.04554178 0.25869412
0.68914511 -0.065583655 0.25950103
1.0617475 -0.08562553 0.26030793
1.4343499 -0.10566741 0.26111484
-0.12260238 0.27004187 0.24919309
0.25 0.25 0.25
0.62260238 0.22995813 0.25080691
0.99520476 0.20991625 0.25161382
1.3678071 0.18987438 0.25242072
-0.18914511 0.56558366 0.24049897
0.18345727 0.54554178 0.24130588
0.55605965 0.52549991 0.24211279
0.92866203 0.50545803 0.2429197
1.3012644 0.48541616 0.2437266
-0.25568784 0.86112544 0.23180485
0.11691454 0.84108356 0.23261176
0.48951692 0.82104169 0.23341867
0.8621193 0.80099981 0.23422558
1.2347217 0.78095794 0.23503249
-0.32223057 1.1566672 0.22311074
0.050371811 1.1366253 0.22391764
0.42297419 1.1165835 0.22472455
0.79557657 1.0965416 0.22553146
1.168179 1.0764997 0.22633837
-0.1121193 -0.050999811 0.51577442
0.26048308 -0.071041686 0.51658133
0.63308546 -0.091083561 0.51738824
1.0056878 -0.11112544 0.51819515
1.3782902 -0.13116731 0.51900205
-0.17866203 0.24454197 0.5070803
0.19394035 0.22450009 0.50788721
0.56654273 0.20445822 0.50869412
0.93914511 0.18441634 0.50950103
1.3117475 0.16437447 0.51030793
-0.24520476 0.54008375 0.49838618
0.12739762 0.52004187 0.49919309
0.5 0.5 0.5
0.87260238 0.47995813 0.50080691
1.2452048 0.45991625 0.50161382
-0.31174749 0.83562553 0.48969207
0.06085489 0.81558366 0.49049897
0.43345727 0.79554178 0.49130588
0.80605965 0.77549991 0.49211279
1.178662 0.75545803 0.4929197
-0.37829022 1.1311673 0.48099795
-0.0056878398 1.1111254 0.48180485
0.36691454 1.0910836 0.48261176
0.73951692 1.0710417 0.48341867
1.1121193 1.0509998 0.48422558
-0.16817895 -0.076499716 0.77366163
0.20442343 -0.096541591 0.77446854
0.57702581 -0.11658347 0.77527545
0.94962819 -0.13662534 0.77608236
1.3222306 -0.15666722 0.77688926
-0.23472168 0.21904206 0.76496751
0.1378807 0.19900019 0.76577442
0.51048308 0.17895831 0.76658133
0.88308546 0.15891644 0.76738824
1.2556878 0.13887456 0.76819515
-0.30126441 0.51458384 0.7562734
0.07133797 0.49454197 0.7570803
0.44394035 0.47450009 0.75788721
0.81654273 0.45445822 0.75869412
1.1891451 0.43441634 0.75950103
-0.36780714 0.81012562 0.74757928
0.0047952397 0.79008375 0.74838618
0.37739762 0.77004187 0.74919309
0.75 0.75 0.75
1.1226024 0.72995813 0.75080691
-0.43434987 1.1056674 0.73888516
-0.06174749 1.0856255 0.73969207
0.31085489 1.0655837 0.74049897
0.68345727 1.0455418 0.74130588
1.0560597 1.0254999 0.74211279
-0.2242386 -0.10199962 1.0315488
0.14836378 -0.1220415 1.0323558
0.52096616 -0.14208337 1.0331627
0.89356854 -0.16212525 1.0339696
1.2661709 -0.18216712 1.0347765
-0.29078133 0.19354216 1.0228547
0.081821049 0.17350028 1.0236616
0.45442343 0.15345841 1.0244685
0.82702581 0.13341653 1.0252754
1.1996282 0.11337466 1.0260824
-0.35732406 0.48908394 1.0141606
0.015278319 0.46904206 1.0149675
0.3878807 0.44900019 1.0157744
0.76048308 0.42895831 1.0165813
1.1330855 0.40891644 1.0173882
-0.42386679 0.78462572 1.0054665
-0.051264411 0.76458384 1.0062734
0.32133797 0.74454197 1.0070803
0.69394035 0.72450009 1.0078872
1.0665427 0.70445822 1.0086941
-0.49040952 1.0801675 0.99677237
-0.11780714 1.0601256 0.99757928
0.25479524 1.0400837 0.99838618
0.62739762 1.0200419 0.99919309
1 1 1
