site/assets/luts/ocio-aces--blackmagicdesigninputdavinci-intermediate-widegamut-to-aces2065-1--df09476ba.cube
# LUTr-Project: LUTr — LUTrepository
# LUTr-Schema-Version: 1
# LUTr-ID: ocio-aces--blackmagicdesigninputdavinci-intermediate-widegamut-to-aces2065-1--df09476ba
# LUTr-Title: BlackmagicDesign.Input.DaVinci Intermediate WideGamut to ACES2065-1
# LUTr-Collection: OCIO ACES
# LUTr-Collection-ID: aswf-opencolorio-config-aces
# LUTr-Source: https://github.com/AcademySoftwareFoundation/OpenColorIO-Config-ACES
# LUTr-Source-File: submissions/aswf-opencolorio-config-aces/opencolorio_config_aces/clf/transforms/blackmagic/input/BlackmagicDesign.Input.DaVinci_Intermediate_WideGamut_to_ACES2065-1.clf
# LUTr-Source-Format: CLF
# LUTr-Source-SHA256: 352a494196ab4de1d7bc15b2bd6340c738329550344db43ecc411e8ce1308cc5
# LUTr-License: BSD-3-Clause
# LUTr-License-URL: https://github.com/AcademySoftwareFoundation/OpenColorIO-Config-ACES/blob/main/LICENSE
# LUTr-Tags: technical, aces, ocio, clf, color-management, cube
# LUTr-Transform-Class: color-space-conversion
# LUTr-Input-Color-Space: DaVinci Intermediate Wide Gamut
# LUTr-Output-Color-Space: ACES2065-1
# LUTr-Color-Space-Confidence: descriptor-only
# LUTr-Conversion-Method: CLF operations evaluated as float and sampled to 33x33x33 3D CUBE
# LUTr-Conversion-Date: 2026-07-27
# LUTr-Conversion-Tool: LUTr scripts/convert-all-to-cube.mjs
# LUTr-Conversion-Grid: 33x33x33
# LUTr-Conversion-Warning: A sampled 3D CUBE is bounded to DOMAIN_MIN/MAX 0..1 and cannot preserve CLF values outside its input domain.
# LUTr-Upstream-ID: urn:aswf:ocio:transformId:1.0:BlackmagicDesign:Input:DaVinci_Intermediate_WideGamut_to_ACES2065-1:1.0
# LUTr-Upstream-Name: DaVinci Intermediate Wide Gamut to ACES2065-1
# LUTr-Upstream-Input-Descriptor: DaVinci Intermediate Wide Gamut
# LUTr-Upstream-Output-Descriptor: ACES2065-1
# LUTr-Upstream-Operations: Log → Matrix
# LUTr-Note: Preserve this metadata and the upstream license notices when redistributing.
TITLE "BlackmagicDesign.Input.DaVinci Intermediate WideGamut to ACES2065-1"
LUT_3D_SIZE 9
DOMAIN_MIN 0 0 0
DOMAIN_MAX 1 1 1
3.2894634e-11 3.2894634e-11 3.2894634e-11
0.013453721 0.00037473644 -0.0016453685
0.056569185 0.0015756632 -0.0069183206
0.19718636 0.005492377 -0.024115576
0.65579656 0.018266385 -0.080202868
2.1515122 0.059927653 -0.26312649
7.0296532 0.19580211 -0.85971533
22.939269 0.63894434 -2.8054358
74.827038 2.0842126 -9.1512269
0.00301511 0.019991782 -0.0022968554
0.016468831 0.020366518 -0.0039422239
0.059584294 0.021567445 -0.009215176
0.20020147 0.025484159 -0.026412432
0.65881167 0.038258166 -0.082499724
2.1545273 0.079919435 -0.26542335
7.0326684 0.21579389 -0.86201218
22.942284 0.65893612 -2.8077326
74.830053 2.1042044 -9.1535237
0.012677705 0.084059925 -0.009657643
0.026131426 0.084434662 -0.011303012
0.06924689 0.085635588 -0.016575964
0.20986407 0.089552302 -0.033773219
0.66847427 0.10232631 -0.089860511
2.1641899 0.14398758 -0.27278414
7.042331 0.27986203 -0.86937297
22.951946 0.72300427 -2.8150934
74.839716 2.1682725 -9.1608845
0.044191385 0.29301237 -0.033664185
0.057645106 0.29338711 -0.035309554
0.10076057 0.29458804 -0.040582506
0.24137775 0.29850475 -0.057779762
0.69998794 0.31127876 -0.11386705
2.1957036 0.35294003 -0.29679068
7.0738446 0.48881448 -0.89337951
22.98346 0.93195671 -2.8391
74.87123 2.377225 -9.1848911
0.1469704 0.97449186 -0.11195935
0.16042412 0.97486659 -0.11360472
0.20353958 0.97606752 -0.11887767
0.34415676 0.97998424 -0.13607493
0.80276696 0.99275824 -0.19216222
2.2984826 1.0344195 -0.37508584
7.1766236 1.170294 -0.97167468
23.086239 1.6134362 -2.9173951
74.974009 3.0587045 -9.2631862
0.48217483 3.1970755 -0.36731194
0.49562856 3.1974502 -0.3689573
0.53874402 3.1986512 -0.37423026
0.6793612 3.2025679 -0.39142751
1.1379714 3.2153419 -0.4475148
2.633687 3.2570031 -0.63043843
7.5118281 3.3928776 -1.2270273
23.421443 3.8360198 -3.1727477
75.309213 5.2812881 -9.5185388
1.5754138 10.445831 -1.2001213
1.5888675 10.446205 -1.2017666
1.6319829 10.447406 -1.2070396
1.7726001 10.451323 -1.2242369
2.2312103 10.464097 -1.2803241
3.7269259 10.505758 -1.4632478
8.605067 10.641633 -2.0598366
24.514682 11.084775 -4.0055571
76.402452 12.530043 -10.351348
5.1409135 34.086989 -3.9162535
5.1543672 34.087364 -3.9178989
5.1974827 34.088565 -3.9231718
5.3380999 34.092482 -3.9403691
5.7967101 34.105256 -3.9964564
7.2924257 34.146917 -4.17938
12.170567 34.282792 -4.7759688
28.080182 34.725934 -6.7216893
79.967952 36.171202 -13.06748
16.769468 111.19049 -12.774673
16.782922 111.19086 -12.776318
16.826037 111.19206 -12.781591
16.966654 111.19598 -12.798788
17.425265 111.20875 -12.854876
18.92098 111.25042 -13.037799
23.799121 111.38629 -13.634388
39.708737 111.82943 -15.580109
91.596506 113.2747 -21.9259
0.0015109302 -0.0023867569 0.021921985
0.014964651 -0.0020120205 0.020276617
0.058080115 -0.00081109377 0.015003665
0.19869729 0.0031056201 -0.0021935911
0.65730749 0.015879628 -0.058280883
2.1530231 0.057540896 -0.24120451
7.0311642 0.19341535 -0.83779334
22.94078 0.63655758 -2.7835138
74.828549 2.0818258 -9.1293049
0.0045260401 0.017605025 0.01962513
0.017979761 0.017979761 0.017979761
0.061095225 0.019180688 0.012706809
0.2017124 0.023097402 -0.0044904465
0.6603226 0.035871409 -0.060577739
2.1560382 0.077532678 -0.24350136
7.0341793 0.21340713 -0.8400902
22.943795 0.65654937 -2.7858107
74.831564 2.1018176 -9.1316017
0.014188635 0.081673168 0.012264342
0.027642357 0.082047905 0.010618974
0.07075782 0.083248831 0.0053460215
0.211375 0.087165545 -0.011851234
0.6699852 0.099939553 -0.067938526
2.1657008 0.14160082 -0.25086215
7.0438419 0.27747528 -0.84745099
22.953457 0.72061751 -2.7931714
74.841227 2.1658858 -9.1389625
0.045702315 0.29062562 -0.0117422
0.059156036 0.29100035 -0.013387569
0.1022715 0.29220128 -0.018660521
0.24288868 0.29611799 -0.035857777
0.70149888 0.308892 -0.091945069
2.1972145 0.35055327 -0.27486869
7.0753556 0.48642772 -0.87145753
22.984971 0.92956996 -2.817178
74.872741 2.3748382 -9.1629691
0.14848133 0.9721051 -0.090037364
0.16193505 0.97247984 -0.091682733
0.20505051 0.97368076 -0.096955685
0.34566769 0.97759748 -0.11415294
0.80427789 0.99037149 -0.17024023
2.2999935 1.0320328 -0.35316386
7.1781346 1.1679072 -0.94975269
23.08775 1.6110494 -2.8954732
74.97552 3.0563177 -9.2412642
0.48368576 3.1946887 -0.34538995
0.49713949 3.1950635 -0.34703532
0.54025495 3.1962644 -0.35230827
0.68087213 3.2001811 -0.36950553
1.1394823 3.2129551 -0.42559282
2.635198 3.2546164 -0.60851644
7.513339 3.3904908 -1.2051053
23.422954 3.8336331 -3.1508257
75.310724 5.2789013 -9.4966168
1.5769247 10.443444 -1.1781993
1.5903784 10.443819 -1.1798447
1.6334939 10.44502 -1.1851176
1.774111 10.448936 -1.2023149
2.2327212 10.46171 -1.2584022
3.7284369 10.503372 -1.4413258
8.6065779 10.639246 -2.0379146
24.516193 11.082388 -3.9836351
76.403963 12.527657 -10.329426
5.1424244 34.084603 -3.8943315
5.1558781 34.084977 -3.8959769
5.1989936 34.086178 -3.9012499
5.3396108 34.090095 -3.9184471
5.798221 34.102869 -3.9745344
7.2939366 34.14453 -4.157458
12.172078 34.280405 -4.7540469
28.081693 34.723547 -6.6997673
79.969463 36.168815 -13.045558
16.770979 111.1881 -12.752751
16.784433 111.18848 -12.754396
16.827548 111.18968 -12.759669
16.968165 111.19359 -12.776866
17.426776 111.20637 -12.832954
18.922491 111.24803 -13.015877
23.800632 111.3839 -13.612466
39.710248 111.82705 -15.558187
91.598017 113.27231 -21.903978
0.0063530443 -0.010035654 0.092175898
0.019806765 -0.0096609179 0.090530529
0.062922229 -0.0084599911 0.085257577
0.20353941 -0.0045432773 0.068060321
0.6621496 0.0082307303 0.011973029
2.1578652 0.049891999 -0.17095059
7.0360063 0.18576645 -0.76753943
22.945622 0.62890869 -2.7132599
74.833391 2.0741769 -9.059051
0.0093681542 0.0099561275 0.089879042
0.022821875 0.010330864 0.088233674
0.065937339 0.011531791 0.082960722
0.20655452 0.015448505 0.065763466
0.66516471 0.028222512 0.0096761738
2.1608803 0.069883781 -0.17324745
7.0390214 0.20575824 -0.76983629
22.948637 0.64890047 -2.7155567
74.836406 2.0941687 -9.0613478
0.019030749 0.074024271 0.082518255
0.032484471 0.074399007 0.080872886
0.075599934 0.075599934 0.075599934
0.21621711 0.079516648 0.058402678
0.67482731 0.092290655 0.0023153862
2.1705429 0.13395192 -0.18060824
7.048684 0.26982638 -0.77719707
22.958299 0.71296861 -2.7229175
74.846069 2.1582369 -9.0687086
0.050544429 0.28297672 0.058511712
0.06399815 0.28335145 0.056866344
0.10711361 0.28455238 0.051593392
0.24773079 0.2884691 0.034396136
0.70634099 0.3012431 -0.021691156
2.2020566 0.34290437 -0.20461478
7.0801977 0.47877883 -0.80120362
22.989813 0.92192106 -2.7469241
74.877583 2.3671893 -9.0927152
0.15332344 0.9644562 -0.019783452
0.16677716 0.96483094 -0.02142882
0.20989262 0.96603187 -0.026701772
0.3505098 0.96994858 -0.043899028
0.80912 0.98272259 -0.09998632
2.3048356 1.0243839 -0.28290994
7.1829767 1.1602583 -0.87949878
23.092592 1.6034005 -2.8252192
74.980362 3.0486688 -9.1710103
0.48852788 3.1870398 -0.27513604
0.5019816 3.1874146 -0.27678141
0.54509706 3.1886155 -0.28205436
0.68571424 3.1925322 -0.29925162
1.1443244 3.2053062 -0.35533891
2.6400401 3.2469675 -0.53826253
7.5181811 3.3828419 -1.1348514
23.427796 3.8259842 -3.0805718
75.315566 5.2712524 -9.4263629
1.5817668 10.435795 -1.1079454
1.5952205 10.43617 -1.1095907
1.638336 10.437371 -1.1148637
1.7789532 10.441287 -1.132061
2.2375634 10.454061 -1.1881482
3.733279 10.495723 -1.3710719
8.61142 10.631597 -1.9676607
24.521035 11.074739 -3.9133812
76.408805 12.520008 -10.259172
5.1472665 34.076954 -3.8240776
5.1607203 34.077329 -3.825723
5.2038357 34.078529 -3.8309959
5.3444529 34.082446 -3.8481932
5.8030631 34.09522 -3.9042805
7.2987787 34.136881 -4.0872041
12.17692 34.272756 -4.6837929
28.086535 34.715898 -6.6295134
79.974305 36.161166 -12.975304
16.775821 111.18045 -12.682497
16.789275 111.18083 -12.684142
16.83239 111.18203 -12.689415
16.973007 111.18594 -12.706613
17.431618 111.19872 -12.7627
18.927333 111.24038 -12.945623
23.805474 111.37625 -13.542212
39.71509 111.8194 -15.487933
91.602859 113.26466 -21.833724
0.022145161 -0.03498184 0.32130267
0.035598882 -0.034607104 0.3196573
0.078714345 -0.033406177 0.31438435
0.21933152 -0.029489463 0.29718709
0.67794172 -0.016715456 0.2410998
2.1736573 0.024945813 0.058176179
7.0517984 0.16082027 -0.53841266
22.961414 0.6039625 -2.4841331
74.849183 2.0492308 -8.8299242
0.025160271 -0.014990059 0.31900582
0.038613992 -0.014615322 0.31736045
0.081729455 -0.013414395 0.3120875
0.22234663 -0.0094976815 0.29489024
0.68095683 0.003276326 0.23880295
2.1766725 0.044937595 0.055879323
7.0548135 0.18081205 -0.54070951
22.964429 0.62395428 -2.48643
74.852198 2.0692225 -8.8322211
0.034822866 0.049078085 0.31164503
0.048276587 0.049452821 0.30999966
0.091392051 0.050653748 0.30472671
0.23200923 0.054570462 0.28752945
0.69061943 0.067344469 0.23144216
2.1863351 0.10900574 0.048518536
7.0644761 0.24488019 -0.5480703
22.974091 0.68802243 -2.4937908
74.861861 2.1332907 -8.8395818
0.066336546 0.25803053 0.28763849
0.079790267 0.25840527 0.28599312
0.12290573 0.2596062 0.28072017
0.26352291 0.26352291 0.26352291
0.72213311 0.27629692 0.20743562
2.2178487 0.31795819 0.024511993
7.0959898 0.45383264 -0.57207684
23.005605 0.89697487 -2.5177973
74.893375 2.3422431 -8.8635884
0.16911556 0.93951002 0.20934332
0.18256928 0.93988475 0.20769795
0.22568474 0.94108568 0.202425
0.36630192 0.94500239 0.18522775
0.82491212 0.9577764 0.12914045
2.3206277 0.99943767 -0.053783171
7.1987688 1.1353121 -0.65037201
23.108384 1.5784544 -2.5960925
74.996154 3.0237226 -8.9418835
0.50432 3.1620936 -0.046009265
0.51777372 3.1624684 -0.047654634
0.56088918 3.1636693 -0.052927586
0.70150636 3.167586 -0.070124842
1.1601166 3.18036 -0.12621213
2.6558322 3.2220213 -0.30913576
7.5339732 3.3578958 -0.90572459
23.443589 3.801038 -2.8514451
75.331358 5.2463062 -9.1972361
1.5975589 10.410849 -0.8788186
1.6110126 10.411224 -0.88046397
1.6541281 10.412425 -0.88573692
1.7947453 10.416341 -0.90293418
2.2533555 10.429115 -0.95902147
3.7490711 10.470777 -1.1419451
8.6272122 10.606651 -1.7385339
24.536827 11.049793 -3.6842544
76.424597 12.495061 -10.030045
5.1630587 34.052008 -3.5949508
5.1765124 34.052382 -3.5965962
5.2196278 34.053583 -3.6018692
5.360245 34.0575 -3.6190664
5.8188552 34.070274 -3.6751537
7.3145708 34.111935 -3.8580773
12.192712 34.24781 -4.4546662
28.102327 34.690952 -6.4003866
79.990097 36.13622 -12.746178
16.791613 111.15551 -12.45337
16.805067 111.15588 -12.455016
16.848182 111.15708 -12.460288
16.9888 111.161 -12.477486
17.44741 111.17377 -12.533573
18.943125 111.21543 -12.716497
23.821266 111.35131 -13.313086
39.730882 111.79445 -15.258806
91.618651 113.23972 -21.604597
0.073649719 -0.11634157 1.0685789
0.087103441 -0.11596683 1.0669335
0.1302189 -0.1147659 1.0616606
0.27083608 -0.11084919 1.0444633
0.72944628 -0.098075183 0.98837603
2.2251619 -0.056413914 0.8054524
7.103303 0.079460542 0.20886357
23.012918 0.52260277 -1.7368569
74.900688 1.967871 -8.082648
0.076664829 -0.096349785 1.066282
0.09011855 -0.095975049 1.0646367
0.13323401 -0.094774122 1.0593637
0.27385119 -0.090857408 1.0421665
0.73246139 -0.078083401 0.98607917
2.228177 -0.036422132 0.80315555
7.1063181 0.099452324 0.20656671
23.015933 0.54259456 -1.7391537
74.903703 1.9878628 -8.0849448
0.086327425 -0.032281642 1.0589213
0.099781146 -0.031906906 1.0572759
0.14289661 -0.030705979 1.0520029
0.28351379 -0.026789265 1.0348057
0.74212398 -0.014015257 0.97871838
2.2378396 0.027646011 0.79579476
7.1159807 0.16352047 0.19920592
23.025596 0.6066627 -1.7465145
74.913366 2.051931 -8.0923056
0.1178411 0.17667081 1.0349147
0.13129483 0.17704554 1.0332693
0.17441029 0.17824647 1.0279964
0.31502747 0.18216318 1.0107991
0.77363766 0.19493719 0.95471184
2.2693533 0.23659846 0.77178822
7.1474944 0.37247291 0.17519938
23.05711 0.81561515 -1.7705211
74.944879 2.2608834 -8.1163122
0.22062012 0.85815029 0.95661954
0.23407384 0.85852503 0.95497418
0.2771893 0.85972595 0.94970122
0.41780648 0.86364267 0.93250397
0.87641668 0.87641668 0.87641668
2.3721323 0.91807794 0.69349305
7.2502734 1.0539524 0.096904217
23.159889 1.4970946 -1.8488162
75.047658 2.9423629 -8.1946073
0.55582455 3.0807339 0.70126696
0.56927828 3.0811087 0.69962159
0.61239374 3.0823096 0.69434864
0.75301092 3.0862263 0.67715138
1.2116211 3.0990003 0.62106409
2.7073367 3.1406616 0.43814046
7.5854778 3.276536 -0.15844837
23.495093 3.7196783 -2.1041688
75.382863 5.1649465 -8.4499599
1.6490635 10.329489 -0.13154238
1.6625172 10.329864 -0.13318775
1.7056327 10.331065 -0.1384607
1.8462498 10.334982 -0.15565796
2.30486 10.347756 -0.21174525
3.8005757 10.389417 -0.39466887
8.6787167 10.525291 -0.99125771
24.588332 10.968433 -2.9369782
76.476102 12.413702 -9.2827692
5.2145632 33.970648 -2.8476746
5.2280169 33.971023 -2.84932
5.2711324 33.972224 -2.8545929
5.4117496 33.97614 -2.8717902
5.8703598 33.988914 -2.9278775
7.3660754 34.030576 -3.1108011
12.244216 34.16645 -3.7073899
28.153832 34.609592 -5.6531104
80.041601 36.054861 -11.998901
16.843118 111.07415 -11.706094
16.856571 111.07452 -11.707739
16.899687 111.07572 -11.713012
17.040304 111.07964 -11.73021
17.498914 111.09241 -11.786297
18.99463 111.13407 -11.96922
23.872771 111.26995 -12.565809
39.782386 111.71309 -14.51153
91.670156 113.15836 -20.857321
0.24162717 -0.38168895 3.5057526
0.25508089 -0.38131421 3.5041073
0.29819636 -0.38011329 3.4988343
0.43881354 -0.37619657 3.481637
0.89742373 -0.36342256 3.4255498
2.3931394 -0.32176129 3.2426261
7.2712804 -0.18588684 2.6460373
23.180896 0.25725539 0.70031683
75.068665 1.7025237 -5.6454742
0.24464228 -0.36169717 3.5034558
0.258096 -0.36132243 3.5018104
0.30121147 -0.3601215 3.4965374
0.44182865 -0.35620479 3.4793402
0.90043884 -0.34343078 3.4232529
2.3961545 -0.30176951 3.2403293
7.2742955 -0.16589506 2.6437404
23.183911 0.27724718 0.69801998
75.07168 1.7225154 -5.6477711
0.25430488 -0.29762902 3.496095
0.2677586 -0.29725429 3.4944496
0.31087406 -0.29605336 3.4891767
0.45149124 -0.29213665 3.4719794
0.91010144 -0.27936264 3.4158921
2.4058171 -0.23770137 3.2329685
7.2839581 -0.10182691 2.6363797
23.193573 0.34131532 0.69065919
75.081343 1.7865836 -5.6551319
0.28581856 -0.088676576 3.4720884
0.29927228 -0.088301839 3.4704431
0.34238774 -0.087100912 3.4651701
0.48300492 -0.083184199 3.4479729
0.94161512 -0.070410191 3.3918856
2.4373307 -0.028748922 3.2089619
7.3154718 0.10712553 2.6123731
23.225087 0.55026777 0.66665265
75.112857 1.995536 -5.6791384
0.38859757 0.59280291 3.3937933
0.40205129 0.59317765 3.3921479
0.44516675 0.59437857 3.386875
0.58578393 0.59829529 3.3696777
1.0443941 0.61106929 3.3135904
2.5401098 0.65273056 3.1306668
7.4182508 0.78860502 2.5340779
23.327866 1.2317473 0.58835749
75.215636 2.6770155 -5.7574336
0.72380201 2.8153865 3.1384407
0.73725573 2.8157613 3.1367953
0.78037119 2.8169622 3.1315224
0.92098837 2.8208789 3.1143251
1.3795986 2.8336529 3.0582378
2.8753142 2.8753142 2.8753142
7.7534553 3.0111886 2.2787254
23.663071 3.4543309 0.3330049
75.55084 4.8995991 -6.0127862
1.8170409 10.064142 2.3056313
1.8304946 10.064517 2.303986
1.8736101 10.065717 2.298713
2.0142273 10.069634 2.2815158
2.4728375 10.082408 2.2254285
3.9685531 10.124069 2.0425049
8.8466942 10.259944 1.445916
24.75631 10.703086 -0.49980444
76.644079 12.148354 -6.8455955
5.3825407 33.705301 -0.41050089
5.3959944 33.705675 -0.41214626
5.4391099 33.706876 -0.41741921
5.579727 33.710793 -0.43461647
6.0383372 33.723567 -0.49070376
7.5340529 33.765228 -0.67362739
12.412194 33.901103 -1.2702162
28.321809 34.344245 -3.2159367
80.209579 35.789513 -9.5617278
17.011095 110.8088 -9.2689202
17.024549 110.80917 -9.2705656
17.067664 110.81037 -9.2758385
17.208282 110.81429 -9.2930358
17.666892 110.82707 -9.3491231
19.162607 110.86873 -9.5320467
24.040748 111.0046 -10.128636
39.950364 111.44774 -12.074356
91.838133 112.89301 -18.420147
0.78947042 -1.2470954 11.454374
0.80292415 -1.2467207 11.452729
0.84603961 -1.2455197 11.447456
0.98665679 -1.241603 11.430258
1.445267 -1.228829 11.374171
2.9409826 -1.1871677 11.191248
7.8191237 -1.0512933 10.594659
23.728739 -0.60815106 8.6489382
75.616509 0.8371172 2.3031472
0.79248553 -1.2271036 11.452077
0.80593926 -1.2267289 11.450432
0.84905472 -1.225528 11.445159
0.9896719 -1.2216112 11.427962
1.4482821 -1.2088372 11.371874
2.9439977 -1.167176 11.188951
7.8221388 -1.0313015 10.592362
23.731754 -0.58815928 8.6466414
75.619524 0.85710898 2.3008503
0.80214813 -1.1630355 11.444716
0.81560185 -1.1626607 11.443071
0.85871731 -1.1614598 11.437798
0.99933449 -1.1575431 11.420601
1.4579447 -1.1447691 11.364514
2.9536603 -1.1031078 11.18159
7.8318014 -0.96723337 10.585001
23.741417 -0.52409114 8.6392806
75.629186 0.92117713 2.2934895
0.83366181 -0.95408303 11.42071
0.84711553 -0.95370829 11.419064
0.89023099 -0.95250737 11.413792
1.0308482 -0.94859065 11.396594
1.4894584 -0.93581665 11.340507
2.985174 -0.89415538 11.157583
7.8633151 -0.75828092 10.560995
23.77293 -0.31513869 8.6152741
75.6607 1.1301296 2.269483
0.93644082 -0.27260354 11.342415
0.94989454 -0.27222881 11.340769
0.99301 -0.27102788 11.335496
1.1336272 -0.26711117 11.318299
1.5922374 -0.25433716 11.262212
3.087953 -0.21267589 11.079288
7.9660941 -0.076801435 10.482699
23.875709 0.3663408 8.5369789
75.763479 1.8116091 2.1911878
1.2716453 1.9499801 11.087062
1.285099 1.9503548 11.085417
1.3282144 1.9515557 11.080144
1.4688316 1.9554725 11.062947
1.9274418 1.9682465 11.006859
3.4231574 2.0099077 10.823936
8.3012985 2.1457822 10.227347
24.210914 2.5889244 8.2816263
76.098683 4.0341927 1.9358352
2.3648842 9.1987353 10.254253
2.3783379 9.1991101 10.252607
2.4214534 9.200311 10.247334
2.5620705 9.2042277 10.230137
3.0206807 9.2170017 10.17405
4.5163964 9.258663 9.9911263
9.3945374 9.3945374 9.3945374
25.304153 9.8376797 7.448817
77.191922 11.282948 1.1030259
5.9303839 32.839894 7.5381205
5.9438376 32.840269 7.5364751
5.9869531 32.84147 7.5312022
6.1275703 32.845386 7.5140049
6.5861805 32.85816 7.4579176
8.0818961 32.899822 7.274994
12.960037 33.035696 6.6784052
28.869652 33.478838 4.7326847
80.757422 34.924107 -1.6131064
17.558938 109.94339 -1.3202988
17.572392 109.94377 -1.3219442
17.615508 109.94497 -1.3272171
17.756125 109.94888 -1.3444144
18.214735 109.96166 -1.4005017
19.710451 110.00332 -1.5834253
24.588592 110.13919 -2.1800141
40.498207 110.58234 -4.1257346
92.385977 112.02761 -10.471526
2.5762116 -4.0695402 37.378083
2.5896653 -4.0691654 37.376438
2.6327808 -4.0679645 37.371165
2.7733979 -4.0640478 37.353967
3.2320081 -4.0512738 37.29788
4.7277238 -4.0096125 37.114956
9.6058648 -3.8737381 36.518368
25.51548 -3.4305958 34.572647
77.40325 -1.9853276 28.226856
2.5792267 -4.0495484 37.375786
2.5926804 -4.0491737 37.374141
2.6357959 -4.0479727 37.368868
2.7764131 -4.044056 37.351671
3.2350232 -4.031282 37.295583
4.7307389 -3.9896207 37.11266
9.6088799 -3.8537463 36.516071
25.518495 -3.4106041 34.57035
77.406265 -1.9653358 28.224559
2.5888893 -3.9854803 37.368425
2.602343 -3.9851055 37.36678
2.6454585 -3.9839046 37.361507
2.7860756 -3.9799879 37.34431
3.2446858 -3.9672139 37.288222
4.7404015 -3.9255526 37.105299
9.6185425 -3.7896782 36.50871
25.528158 -3.3465359 34.56299
77.415927 -1.9012677 28.217198
2.620403 -3.7765278 37.344419
2.6338567 -3.7761531 37.342773
2.6769721 -3.7749521 37.3375
2.8175893 -3.7710354 37.320303
3.2761995 -3.7582614 37.264216
4.7719151 -3.7166002 37.081292
9.6500562 -3.5807257 36.484703
25.559672 -3.1375835 34.538983
77.447441 -1.6923152 28.193192
2.723182 -3.0950483 37.266124
2.7366357 -3.0946736 37.264478
2.7797512 -3.0934727 37.259205
2.9203683 -3.0895559 37.242008
3.3789785 -3.0767819 37.185921
4.8746942 -3.0351207 37.002997
9.7528352 -2.8992462 36.406408
25.662451 -2.456104 34.460688
77.55022 -1.0108357 28.114897
3.0583864 -0.8724647 37.010771
3.0718401 -0.87208996 37.009126
3.1149556 -0.87088903 37.003853
3.2555728 -0.86697232 36.986655
3.714183 -0.85419831 36.930568
5.2098986 -0.81253704 36.747645
10.08804 -0.67666259 36.151056
25.997655 -0.23352036 34.205335
77.885425 1.2117479 27.859544
4.1516253 6.3762905 36.177962
4.1650791 6.3766653 36.176316
4.2081945 6.3778662 36.171043
4.3488117 6.3817829 36.153846
4.8074219 6.3945569 36.097759
6.3031375 6.4362182 35.914835
11.181279 6.5720926 35.318246
27.090894 7.0152349 33.372526
78.978664 8.4605031 27.026735
7.7171251 30.017449 33.461829
7.7305788 30.017824 33.460184
7.7736943 30.019025 33.454911
7.9143114 30.022942 33.437714
8.3729216 30.035716 33.381627
9.8686373 30.077377 33.198703
14.746778 30.213251 32.602114
30.656394 30.656394 30.656394
82.544163 32.101662 24.310603
19.34568 107.12095 24.60341
19.359133 107.12132 24.601765
19.402249 107.12252 24.596492
19.542866 107.12644 24.579295
20.001476 107.13921 24.523207
21.497192 107.18088 24.340284
26.375333 107.31675 23.743695
42.284948 107.75989 21.797974
94.172718 109.20516 15.452183
8.403506 -13.274688 121.92591
8.4169598 -13.274314 121.92427
8.4600752 -13.273113 121.91899
8.6006924 -13.269196 121.9018
9.0593026 -13.256422 121.84571
10.555018 -13.214761 121.66279
15.433159 -13.078886 121.0662
31.342775 -12.635744 119.12048
83.230544 -11.190476 112.77469
8.4065212 -13.254696 121.92362
8.4199749 -13.254322 121.92197
8.4630903 -13.253121 121.9167
8.6037075 -13.249204 121.8995
9.0623177 -13.23643 121.84341
10.558033 -13.194769 121.66049
15.436174 -13.058894 121.0639
31.34579 -12.615752 119.11818
83.233559 -11.170484 112.77239
8.4161838 -13.190628 121.91625
8.4296375 -13.190254 121.91461
8.4727529 -13.189053 121.90934
8.6133701 -13.185136 121.89214
9.0719803 -13.172362 121.83605
10.567696 -13.130701 121.65313
15.445837 -12.994826 121.05654
31.355452 -12.551684 119.11082
83.243222 -11.106416 112.76503
8.4476974 -12.981676 121.89225
8.4611512 -12.981301 121.8906
8.5042666 -12.9801 121.88533
8.6448838 -12.976183 121.86813
9.103494 -12.963409 121.81204
10.59921 -12.921748 121.62912
15.477351 -12.785874 121.03253
31.386966 -12.342732 119.08681
83.274736 -10.897463 112.74102
8.5504764 -12.300196 121.81395
8.5639302 -12.299822 121.81231
8.6070456 -12.298621 121.80703
8.7476628 -12.294704 121.78984
9.206273 -12.28193 121.73375
10.701989 -12.240269 121.55083
15.58013 -12.104394 120.95424
31.489745 -11.661252 119.00852
83.377515 -10.215984 112.66273
8.8856809 -10.077613 121.5586
8.8991346 -10.077238 121.55695
8.9422501 -10.076037 121.55168
9.0828672 -10.07212 121.53448
9.5414774 -10.059346 121.4784
11.037193 -10.017685 121.29547
15.915334 -9.8818106 120.69888
31.824949 -9.4386684 118.75316
83.712719 -7.9934002 112.40737
9.9789198 -2.8288575 120.72579
9.9923735 -2.8284828 120.72415
10.035489 -2.8272819 120.71887
10.176106 -2.8233651 120.70168
10.634716 -2.8105911 120.64559
12.130432 -2.7689299 120.46266
17.008573 -2.6330554 119.86608
32.918188 -2.1899132 117.92035
84.805958 -0.74464492 111.57456
13.54442 20.812301 118.00966
13.557873 20.812676 118.00801
13.600989 20.813877 118.00274
13.741606 20.817794 117.98554
14.200216 20.830568 117.92946
15.695932 20.872229 117.74653
20.574073 21.008103 117.14994
36.483688 21.451246 115.20422
88.371458 22.896514 108.85843
25.172974 97.9158 109.15124
25.186428 97.916174 109.14959
25.229543 97.917375 109.14432
25.37016 97.921292 109.12712
25.828771 97.934066 109.07104
27.324486 97.975727 108.88811
32.202627 98.111602 108.29152
48.112243 98.554744 106.3458
100.00001 100.00001 100.00001
