site/assets/luts/ocio-aces--sonyinputlinear-venice-sgamut3-to-aces2065-1--bc32b4575.cube
# LUTr-Project: LUTr — LUTrepository
# LUTr-Schema-Version: 1
# LUTr-ID: ocio-aces--sonyinputlinear-venice-sgamut3-to-aces2065-1--bc32b4575
# LUTr-Title: Sony.Input.Linear Venice SGamut3 to ACES2065-1
# LUTr-Collection: OCIO ACES
# LUTr-Collection-ID: aswf-opencolorio-config-aces
# LUTr-Source: https://github.com/AcademySoftwareFoundation/OpenColorIO-Config-ACES
# LUTr-Source-File: submissions/aswf-opencolorio-config-aces/opencolorio_config_aces/clf/transforms/sony/input/Sony.Input.Linear_Venice_SGamut3_to_ACES2065-1.clf
# LUTr-Source-Format: CLF
# LUTr-Source-SHA256: 6a34694cf6483e8047e51ac733095a1a0320f813fab567669baec1df4a2f4e58
# LUTr-License: BSD-3-Clause
# LUTr-License-URL: https://github.com/AcademySoftwareFoundation/OpenColorIO-Config-ACES/blob/main/LICENSE
# LUTr-Tags: technical, aces, ocio, clf, color-management, cube
# LUTr-Transform-Class: color-space-conversion
# LUTr-Input-Color-Space: Linear Venice S-Gamut3
# LUTr-Output-Color-Space: ACES2065-1
# LUTr-Color-Space-Confidence: descriptor-only
# LUTr-Conversion-Method: CLF operations evaluated as float and sampled to 33x33x33 3D CUBE
# LUTr-Conversion-Date: 2026-07-27
# LUTr-Conversion-Tool: LUTr scripts/convert-all-to-cube.mjs
# LUTr-Conversion-Grid: 33x33x33
# LUTr-Conversion-Warning: A sampled 3D CUBE is bounded to DOMAIN_MIN/MAX 0..1 and cannot preserve CLF values outside its input domain.
# LUTr-Upstream-ID: urn:aswf:ocio:transformId:1.0:Sony:Input:Linear_Venice_SGamut3_to_ACES2065-1:1.0
# LUTr-Upstream-Name: Linear Venice S-Gamut3 to ACES2065-1
# LUTr-Upstream-Input-Descriptor: Linear Venice S-Gamut3
# LUTr-Upstream-Output-Descriptor: ACES2065-1
# LUTr-Upstream-Operations: Matrix
# LUTr-Note: Preserve this metadata and the upstream license notices when redistributing.
TITLE "Sony.Input.Linear Venice SGamut3 to ACES2065-1"
LUT_3D_SIZE 5
DOMAIN_MIN 0 0 0
DOMAIN_MAX 1 1 1
0 0 0
0.19833244 0.0038952646 -0.0047161869
0.39666487 0.0077905293 -0.0094323739
0.59499731 0.011685794 -0.014148561
0.79332974 0.015581059 -0.018864748
0.022269656 0.25817808 0.003192353
0.22060209 0.26207334 -0.0015238339
0.41893453 0.26596861 -0.0062400209
0.61726696 0.26986387 -0.010956208
0.8155994 0.27375914 -0.015672395
0.044539313 0.51635615 0.006384706
0.24287175 0.52025142 0.0016685191
0.44120418 0.52414668 -0.0030476679
0.63953662 0.52804195 -0.0077638548
0.83786905 0.53193721 -0.012480042
0.066808969 0.77453423 0.0095770591
0.2651414 0.77842949 0.0048608721
0.46347384 0.78232476 0.00014468517
0.66180628 0.78622002 -0.0045715018
0.86013871 0.79011529 -0.0092876887
0.089078626 1.0327123 0.012769412
0.28741106 1.0366076 0.0080532251
0.4857435 1.0405028 0.0033370382
0.68407593 1.0443981 -0.0013791488
0.88240837 1.0482934 -0.0060953357
0.029397908 -0.012073341 0.25152383
0.22773034 -0.0081780767 0.24680765
0.42606278 -0.0042828121 0.24209146
0.62439521 -0.00038754747 0.23737527
0.82272765 0.0035077172 0.23265909
0.051667565 0.24610474 0.25471619
0.25 0.25 0.25
0.44833244 0.25389526 0.24528381
0.64666487 0.25779053 0.24056763
0.84499731 0.26168579 0.23585144
0.073937221 0.50428281 0.25790854
0.27226966 0.50817808 0.25319235
0.47060209 0.51207334 0.24847617
0.66893453 0.51596861 0.24375998
0.86726696 0.51986387 0.23904379
0.096206878 0.76246089 0.26110089
0.29453931 0.76635615 0.25638471
0.49287175 0.77025142 0.25166852
0.69120418 0.77414668 0.24695233
0.88953662 0.77804195 0.24223615
0.11847653 1.020639 0.26429325
0.31680897 1.0245342 0.25957706
0.5151414 1.0284295 0.25486087
0.71347384 1.0323248 0.25014469
0.91180628 1.03622 0.2454285
0.058795817 -0.024146683 0.50304767
0.25712825 -0.020251418 0.49833148
0.45546069 -0.016356153 0.49361529
0.65379312 -0.012460889 0.48889911
0.85212556 -0.0085656242 0.48418292
0.081065473 0.23403139 0.50624002
0.27939791 0.23792666 0.50152383
0.47773034 0.24182192 0.49680765
0.67606278 0.24571719 0.49209146
0.87439521 0.24961245 0.48737527
0.10333513 0.49220947 0.50943237
0.30166756 0.49610474 0.50471619
0.5 0.5 0.5
0.69833244 0.50389526 0.49528381
0.89666487 0.50779053 0.49056763
0.12560479 0.75038755 0.51262473
0.32393722 0.75428281 0.50790854
0.52226966 0.75817808 0.50319235
0.72060209 0.76207334 0.49847617
0.91893453 0.76596861 0.49375998
0.14787444 1.0085656 0.51581708
0.34620688 1.0124609 0.51110089
0.54453931 1.0163562 0.50638471
0.74287175 1.0202514 0.50166852
0.94120418 1.0241467 0.49695233
0.088193725 -0.036220024 0.7545715
0.28652616 -0.032324759 0.74985531
0.4848586 -0.028429495 0.74513913
0.68319103 -0.02453423 0.74042294
0.88152347 -0.020638966 0.73570675
0.11046338 0.22195805 0.75776385
0.30879582 0.22585332 0.75304767
0.50712825 0.22974858 0.74833148
0.70546069 0.23364385 0.74361529
0.90379312 0.23753911 0.73889911
0.13273304 0.48013613 0.76095621
0.33106547 0.48403139 0.75624002
0.52939791 0.48792666 0.75152383
0.72773034 0.49182192 0.74680765
0.92606278 0.49571719 0.74209146
0.15500269 0.73831421 0.76414856
0.35333513 0.74220947 0.75943237
0.55166756 0.74610474 0.75471619
0.75 0.75 0.75
0.94833244 0.75389526 0.74528381
0.17727235 0.99649228 0.76734091
0.37560479 1.0003875 0.76262473
0.57393722 1.0042828 0.75790854
0.77226966 1.0081781 0.75319235
0.97060209 1.0120733 0.74847617
0.11759163 -0.048293365 1.0060953
0.31592407 -0.044398101 1.0013791
0.5142565 -0.040502836 0.99666296
0.71258894 -0.036607572 0.99194677
0.91092137 -0.032712307 0.98723059
0.13986129 0.20988471 1.0092877
0.33819372 0.21377998 1.0045715
0.53652616 0.21767524 0.99985531
0.7348586 0.22157051 0.99513913
0.93319103 0.22546577 0.99042294
0.16213095 0.46806279 1.01248
0.36046338 0.47195805 1.0077639
0.55879582 0.47585332 1.0030477
0.75712825 0.47974858 0.99833148
0.95546069 0.48364385 0.99361529
0.1844006 0.72624086 1.0156724
0.38273304 0.73013613 1.0109562
0.58106547 0.73403139 1.00624
0.77939791 0.73792666 1.0015238
0.97773034 0.74182192 0.99680765
0.20667026 0.98441894 1.0188647
0.40500269 0.98831421 1.0141486
0.60333513 0.99220947 1.0094324
0.80166756 0.99610474 1.0047162
1 1 1
