site/assets/luts/ocio-aces--djiinputlinear-dgamut-to-aces2065-1--ad0c5dad6.cube
# LUTr-Project: LUTr — LUTrepository
# LUTr-Schema-Version: 1
# LUTr-ID: ocio-aces--djiinputlinear-dgamut-to-aces2065-1--ad0c5dad6
# LUTr-Title: DJI.Input.Linear DGamut to ACES2065-1
# LUTr-Collection: OCIO ACES
# LUTr-Collection-ID: aswf-opencolorio-config-aces
# LUTr-Source: https://github.com/AcademySoftwareFoundation/OpenColorIO-Config-ACES
# LUTr-Source-File: submissions/aswf-opencolorio-config-aces/opencolorio_config_aces/clf/transforms/dji/input/DJI.Input.Linear_DGamut_to_ACES2065-1.clf
# LUTr-Source-Format: CLF
# LUTr-Source-SHA256: 85faa18959c7ef92acab84a2e00043781a0eb082c1e53c2b946cb9dc29bded8a
# LUTr-License: BSD-3-Clause
# LUTr-License-URL: https://github.com/AcademySoftwareFoundation/OpenColorIO-Config-ACES/blob/main/LICENSE
# LUTr-Tags: technical, aces, ocio, clf, color-management, cube
# LUTr-Transform-Class: color-space-conversion
# LUTr-Input-Color-Space: Linear DJI D-Gamut
# LUTr-Output-Color-Space: ACES2065-1
# LUTr-Color-Space-Confidence: descriptor-only
# LUTr-Conversion-Method: CLF operations evaluated as float and sampled to 33x33x33 3D CUBE
# LUTr-Conversion-Date: 2026-07-27
# LUTr-Conversion-Tool: LUTr scripts/convert-all-to-cube.mjs
# LUTr-Conversion-Grid: 33x33x33
# LUTr-Conversion-Warning: A sampled 3D CUBE is bounded to DOMAIN_MIN/MAX 0..1 and cannot preserve CLF values outside its input domain.
# LUTr-Upstream-ID: urn:aswf:ocio:transformId:1.0:DJI:Input:Linear_DGamut_to_ACES2065-1:1.0
# LUTr-Upstream-Name: Linear DJI D-Gamut to ACES2065-1
# LUTr-Upstream-Input-Descriptor: Linear DJI D-Gamut
# LUTr-Upstream-Output-Descriptor: ACES2065-1
# LUTr-Upstream-Operations: Matrix
# LUTr-Note: Preserve this metadata and the upstream license notices when redistributing.
TITLE "DJI.Input.Linear DGamut to ACES2065-1"
LUT_3D_SIZE 33
DOMAIN_MIN 0 0 0
DOMAIN_MAX 1 1 1
0 0 0
0.021602476 0.0020694501 -0.00054057941
0.043204953 0.0041389002 -0.0010811588
0.064807429 0.0062083504 -0.0016217382
0.086409906 0.0082778005 -0.0021623176
0.10801238 0.010347251 -0.002702897
0.12961486 0.012416701 -0.0032434764
0.15121733 0.014486151 -0.0037840559
0.17281981 0.016555601 -0.0043246353
0.19442229 0.018625051 -0.0048652147
0.21602476 0.020694501 -0.0054057941
0.23762724 0.022763951 -0.0059463735
0.25922972 0.024833401 -0.0064869529
0.28083219 0.026902852 -0.0070275323
0.30243467 0.028972302 -0.0075681117
0.32403715 0.031041752 -0.0081086911
0.34563962 0.033111202 -0.0086492705
0.3672421 0.035180652 -0.0091898499
0.38884458 0.037250102 -0.0097304293
0.41044705 0.039319552 -0.010271009
0.43204953 0.041389002 -0.010811588
0.453652 0.043458452 -0.011352168
0.47525448 0.045527903 -0.011892747
0.49685696 0.047597353 -0.012433326
0.51845943 0.049666803 -0.012973906
0.54006191 0.051736253 -0.013514485
0.56166439 0.053805703 -0.014055065
0.58326686 0.055875153 -0.014595644
0.60486934 0.057944603 -0.015136223
0.62647182 0.060014053 -0.015676803
0.64807429 0.062083504 -0.016217382
0.66967677 0.064152954 -0.016757962
0.69127925 0.066222404 -0.017298541
0.006699454 0.031613003 -0.0024180891
0.02830193 0.033682453 -0.0029586685
0.049904407 0.035751903 -0.0034992479
0.071506883 0.037821353 -0.0040398273
0.09310936 0.039890803 -0.0045804067
0.11471184 0.041960253 -0.0051209861
0.13631431 0.044029703 -0.0056615655
0.15791679 0.046099153 -0.0062021449
0.17951927 0.048168603 -0.0067427243
0.20112174 0.050238054 -0.0072833037
0.22272422 0.052307504 -0.0078238831
0.24432669 0.054376954 -0.0083644625
0.26592917 0.056446404 -0.008905042
0.28753165 0.058515854 -0.0094456214
0.30913412 0.060585304 -0.0099862008
0.3307366 0.062654754 -0.01052678
0.35233908 0.064724204 -0.01106736
0.37394155 0.066793655 -0.011607939
0.39554403 0.068863105 -0.012148518
0.41714651 0.070932555 -0.012689098
0.43874898 0.073002005 -0.013229677
0.46035146 0.075071455 -0.013770257
0.48195394 0.077140905 -0.014310836
0.50355641 0.079210355 -0.014851415
0.52515889 0.081279805 -0.015391995
0.54676136 0.083349255 -0.015932574
0.56836384 0.085418706 -0.016473154
0.58996632 0.087488156 -0.017013733
0.61156879 0.089557606 -0.017554312
0.63317127 0.091627056 -0.018094892
0.65477375 0.093696506 -0.018635471
0.67637622 0.095765956 -0.019176051
0.6979787 0.097835406 -0.01971663
0.013398908 0.063226005 -0.0048361781
0.035001384 0.065295455 -0.0053767575
0.056603861 0.067364905 -0.0059173369
0.078206337 0.069434355 -0.0064579164
0.099808814 0.071503805 -0.0069984958
0.12141129 0.073573256 -0.0075390752
0.14301377 0.075642706 -0.0080796546
0.16461624 0.077712156 -0.008620234
0.18621872 0.079781606 -0.0091608134
0.2078212 0.081851056 -0.0097013928
0.22942367 0.083920506 -0.010241972
0.25102615 0.085989956 -0.010782552
0.27262863 0.088059406 -0.011323131
0.2942311 0.090128857 -0.01186371
0.31583358 0.092198307 -0.01240429
0.33743605 0.094267757 -0.012944869
0.35903853 0.096337207 -0.013485449
0.38064101 0.098406657 -0.014026028
0.40224348 0.10047611 -0.014566607
0.42384596 0.10254556 -0.015107187
0.44544844 0.10461501 -0.015647766
0.46705091 0.10668446 -0.016188346
0.48865339 0.10875391 -0.016728925
0.51025587 0.11082336 -0.017269504
0.53185834 0.11289281 -0.017810084
0.55346082 0.11496226 -0.018350663
0.5750633 0.11703171 -0.018891243
0.59666577 0.11910116 -0.019431822
0.61826825 0.12117061 -0.019972402
0.63987072 0.12324006 -0.020512981
0.6614732 0.12530951 -0.02105356
0.68307568 0.12737896 -0.02159414
0.70467815 0.12944841 -0.022134719
0.020098362 0.094839008 -0.0072542672
0.041700838 0.096908458 -0.0077948466
0.063303315 0.098977908 -0.008335426
0.084905791 0.10104736 -0.0088760054
0.10650827 0.10311681 -0.0094165848
0.12811074 0.10518626 -0.0099571642
0.14971322 0.10725571 -0.010497744
0.1713157 0.10932516 -0.011038323
0.19291817 0.11139461 -0.011578902
0.21452065 0.11346406 -0.012119482
0.23612313 0.11553351 -0.012660061
0.2577256 0.11760296 -0.013200641
0.27932808 0.11967241 -0.01374122
0.30093056 0.12174186 -0.014281799
0.32253303 0.12381131 -0.014822379
0.34413551 0.12588076 -0.015362958
0.36573798 0.12795021 -0.015903538
0.38734046 0.13001966 -0.016444117
0.40894294 0.13208911 -0.016984697
0.43054541 0.13415856 -0.017525276
0.45214789 0.13622801 -0.018065855
0.47375037 0.13829746 -0.018606435
0.49535284 0.14036691 -0.019147014
0.51695532 0.14243636 -0.019687594
0.5385578 0.14450581 -0.020228173
0.56016027 0.14657526 -0.020768752
0.58176275 0.14864471 -0.021309332
0.60336523 0.15071416 -0.021849911
0.6249677 0.15278361 -0.022390491
0.64657018 0.15485306 -0.02293107
0.66817265 0.15692251 -0.023471649
0.68977513 0.15899196 -0.024012229
0.71137761 0.16106141 -0.024552808
0.026797816 0.12645201 -0.0096723563
0.048400292 0.12852146 -0.010212936
0.070002769 0.13059091 -0.010753515
0.091605245 0.13266036 -0.011294094
0.11320772 0.13472981 -0.011834674
0.1348102 0.13679926 -0.012375253
0.15641267 0.13886871 -0.012915833
0.17801515 0.14093816 -0.013456412
0.19961763 0.14300761 -0.013996992
0.2212201 0.14507706 -0.014537571
0.24282258 0.14714651 -0.01507815
0.26442506 0.14921596 -0.01561873
0.28602753 0.15128541 -0.016159309
0.30763001 0.15335486 -0.016699889
0.32923249 0.15542431 -0.017240468
0.35083496 0.15749376 -0.017781047
0.37243744 0.15956321 -0.018321627
0.39403992 0.16163266 -0.018862206
0.41564239 0.16370211 -0.019402786
0.43724487 0.16577156 -0.019943365
0.45884734 0.16784101 -0.020483944
0.48044982 0.16991046 -0.021024524
0.5020523 0.17197991 -0.021565103
0.52365477 0.17404936 -0.022105683
0.54525725 0.17611881 -0.022646262
0.56685973 0.17818826 -0.023186841
0.5884622 0.18025771 -0.023727421
0.61006468 0.18232716 -0.024268
0.63166716 0.18439661 -0.02480858
0.65326963 0.18646606 -0.025349159
0.67487211 0.18853551 -0.025889738
0.69647459 0.19060496 -0.026430318
0.71807706 0.19267441 -0.026970897
0.03349727 0.15806501 -0.012090445
0.055099746 0.16013446 -0.012631025
0.076702223 0.16220391 -0.013171604
0.098304699 0.16427336 -0.013712184
0.11990718 0.16634281 -0.014252763
0.14150965 0.16841226 -0.014793342
0.16311213 0.17048171 -0.015333922
0.1847146 0.17255116 -0.015874501
0.20631708 0.17462061 -0.016415081
0.22791956 0.17669006 -0.01695566
0.24952203 0.17875951 -0.017496239
0.27112451 0.18082896 -0.018036819
0.29272699 0.18289841 -0.018577398
0.31432946 0.18496786 -0.019117978
0.33593194 0.18703731 -0.019658557
0.35753442 0.18910676 -0.020199136
0.37913689 0.19117621 -0.020739716
0.40073937 0.19324566 -0.021280295
0.42234185 0.19531511 -0.021820875
0.44394432 0.19738456 -0.022361454
0.4655468 0.19945401 -0.022902033
0.48714927 0.20152347 -0.023442613
0.50875175 0.20359292 -0.023983192
0.53035423 0.20566237 -0.024523772
0.5519567 0.20773182 -0.025064351
0.57355918 0.20980127 -0.025604931
0.59516166 0.21187072 -0.02614551
0.61676413 0.21394017 -0.026686089
0.63836661 0.21600962 -0.027226669
0.65996909 0.21807907 -0.027767248
0.68157156 0.22014852 -0.028307828
0.70317404 0.22221797 -0.028848407
0.72477652 0.22428742 -0.029388986
0.040196724 0.18967802 -0.014508534
0.0617992 0.19174747 -0.015049114
0.083401677 0.19381692 -0.015589693
0.10500415 0.19588637 -0.016130273
0.12660663 0.19795582 -0.016670852
0.14820911 0.20002527 -0.017211431
0.16981158 0.20209472 -0.017752011
0.19141406 0.20416417 -0.01829259
0.21301654 0.20623362 -0.01883317
0.23461901 0.20830307 -0.019373749
0.25622149 0.21037252 -0.019914328
0.27782396 0.21244197 -0.020454908
0.29942644 0.21451142 -0.020995487
0.32102892 0.21658087 -0.021536067
0.34263139 0.21865032 -0.022076646
0.36423387 0.22071977 -0.022617226
0.38583635 0.22278922 -0.023157805
0.40743882 0.22485867 -0.023698384
0.4290413 0.22692812 -0.024238964
0.45064378 0.22899757 -0.024779543
0.47224625 0.23106702 -0.025320123
0.49384873 0.23313647 -0.025860702
0.51545121 0.23520592 -0.026401281
0.53705368 0.23727537 -0.026941861
0.55865616 0.23934482 -0.02748244
0.58025863 0.24141427 -0.02802302
0.60186111 0.24348372 -0.028563599
0.62346359 0.24555317 -0.029104178
0.64506606 0.24762262 -0.029644758
0.66666854 0.24969207 -0.030185337
0.68827102 0.25176152 -0.030725917
0.70987349 0.25383097 -0.031266496
0.73147597 0.25590042 -0.031807075
0.046896178 0.22129102 -0.016926623
0.068498654 0.22336047 -0.017467203
0.090101131 0.22542992 -0.018007782
0.11170361 0.22749937 -0.018548362
0.13330608 0.22956882 -0.019088941
0.15490856 0.23163827 -0.01962952
0.17651104 0.23370772 -0.0201701
0.19811351 0.23577717 -0.020710679
0.21971599 0.23784662 -0.021251259
0.24131847 0.23991607 -0.021791838
0.26292094 0.24198552 -0.022332418
0.28452342 0.24405497 -0.022872997
0.3061259 0.24612442 -0.023413576
0.32772837 0.24819387 -0.023954156
0.34933085 0.25026332 -0.024494735
0.37093332 0.25233277 -0.025035315
0.3925358 0.25440222 -0.025575894
0.41413828 0.25647167 -0.026116473
0.43574075 0.25854112 -0.026657053
0.45734323 0.26061057 -0.027197632
0.47894571 0.26268002 -0.027738212
0.50054818 0.26474947 -0.028278791
0.52215066 0.26681892 -0.02881937
0.54375314 0.26888837 -0.02935995
0.56535561 0.27095782 -0.029900529
0.58695809 0.27302727 -0.030441109
0.60856056 0.27509672 -0.030981688
0.63016304 0.27716617 -0.031522267
0.65176552 0.27923562 -0.032062847
0.67336799 0.28130507 -0.032603426
0.69497047 0.28337452 -0.033144006
0.71657295 0.28544397 -0.033684585
0.73817542 0.28751342 -0.034225164
0.053595632 0.25290402 -0.019344713
0.075198108 0.25497347 -0.019885292
0.096800585 0.25704292 -0.020425871
0.11840306 0.25911237 -0.020966451
0.14000554 0.26118182 -0.02150703
0.16160801 0.26325127 -0.02204761
0.18321049 0.26532072 -0.022588189
0.20481297 0.26739017 -0.023128768
0.22641544 0.26945962 -0.023669348
0.24801792 0.27152907 -0.024209927
0.2696204 0.27359852 -0.024750507
0.29122287 0.27566797 -0.025291086
0.31282535 0.27773742 -0.025831665
0.33442783 0.27980687 -0.026372245
0.3560303 0.28187632 -0.026912824
0.37763278 0.28394577 -0.027453404
0.39923525 0.28601522 -0.027993983
0.42083773 0.28808467 -0.028534562
0.44244021 0.29015412 -0.029075142
0.46404268 0.29222357 -0.029615721
0.48564516 0.29429302 -0.030156301
0.50724764 0.29636247 -0.03069688
0.52885011 0.29843192 -0.031237459
0.55045259 0.30050137 -0.031778039
0.57205507 0.30257082 -0.032318618
0.59365754 0.30464027 -0.032859198
0.61526002 0.30670972 -0.033399777
0.6368625 0.30877917 -0.033940357
0.65846497 0.31084862 -0.034480936
0.68006745 0.31291807 -0.035021515
0.70166992 0.31498752 -0.035562095
0.7232724 0.31705697 -0.036102674
0.74487488 0.31912642 -0.036643254
0.060295086 0.28451702 -0.021762802
0.081897562 0.28658647 -0.022303381
0.10350004 0.28865592 -0.02284396
0.12510252 0.29072537 -0.02338454
0.14670499 0.29279482 -0.023925119
0.16830747 0.29486427 -0.024465699
0.18990994 0.29693372 -0.025006278
0.21151242 0.29900317 -0.025546857
0.2331149 0.30107262 -0.026087437
0.25471737 0.30314207 -0.026628016
0.27631985 0.30521152 -0.027168596
0.29792233 0.30728097 -0.027709175
0.3195248 0.30935042 -0.028249754
0.34112728 0.31141987 -0.028790334
0.36272976 0.31348932 -0.029330913
0.38433223 0.31555877 -0.029871493
0.40593471 0.31762822 -0.030412072
0.42753719 0.31969767 -0.030952652
0.44913966 0.32176712 -0.031493231
0.47074214 0.32383657 -0.03203381
0.49234461 0.32590602 -0.03257439
0.51394709 0.32797548 -0.033114969
0.53554957 0.33004493 -0.033655549
0.55715204 0.33211438 -0.034196128
0.57875452 0.33418383 -0.034736707
0.600357 0.33625328 -0.035277287
0.62195947 0.33832273 -0.035817866
0.64356195 0.34039218 -0.036358446
0.66516443 0.34246163 -0.036899025
0.6867669 0.34453108 -0.037439604
0.70836938 0.34660053 -0.037980184
0.72997186 0.34866998 -0.038520763
0.75157433 0.35073943 -0.039061343
0.06699454 0.31613003 -0.024180891
0.088597016 0.31819948 -0.02472147
0.11019949 0.32026893 -0.025262049
0.13180197 0.32233838 -0.025802629
0.15340445 0.32440783 -0.026343208
0.17500692 0.32647728 -0.026883788
0.1966094 0.32854673 -0.027424367
0.21821187 0.33061618 -0.027964947
0.23981435 0.33268563 -0.028505526
0.26141683 0.33475508 -0.029046105
0.2830193 0.33682453 -0.029586685
0.30462178 0.33889398 -0.030127264
0.32622426 0.34096343 -0.030667844
0.34782673 0.34303288 -0.031208423
0.36942921 0.34510233 -0.031749002
0.39103169 0.34717178 -0.032289582
0.41263416 0.34924123 -0.032830161
0.43423664 0.35131068 -0.033370741
0.45583912 0.35338013 -0.03391132
0.47744159 0.35544958 -0.034451899
0.49904407 0.35751903 -0.034992479
0.52064654 0.35958848 -0.035533058
0.54224902 0.36165793 -0.036073638
0.5638515 0.36372738 -0.036614217
0.58545397 0.36579683 -0.037154796
0.60705645 0.36786628 -0.037695376
0.62865893 0.36993573 -0.038235955
0.6502614 0.37200518 -0.038776535
0.67186388 0.37407463 -0.039317114
0.69346636 0.37614408 -0.039857693
0.71506883 0.37821353 -0.040398273
0.73667131 0.38028298 -0.040938852
0.75827379 0.38235243 -0.041479432
0.073693994 0.34774303 -0.02659898
0.09529647 0.34981248 -0.027139559
0.11689895 0.35188193 -0.027680139
0.13850142 0.35395138 -0.028220718
0.1601039 0.35602083 -0.028761297
0.18170638 0.35809028 -0.029301877
0.20330885 0.36015973 -0.029842456
0.22491133 0.36222918 -0.030383036
0.24651381 0.36429863 -0.030923615
0.26811628 0.36636808 -0.031464194
0.28971876 0.36843753 -0.032004774
0.31132123 0.37050698 -0.032545353
0.33292371 0.37257643 -0.033085933
0.35452619 0.37464588 -0.033626512
0.37612866 0.37671533 -0.034167091
0.39773114 0.37878478 -0.034707671
0.41933362 0.38085423 -0.03524825
0.44093609 0.38292368 -0.03578883
0.46253857 0.38499313 -0.036329409
0.48414105 0.38706258 -0.036869988
0.50574352 0.38913203 -0.037410568
0.527346 0.39120148 -0.037951147
0.54894848 0.39327093 -0.038491727
0.57055095 0.39534038 -0.039032306
0.59215343 0.39740983 -0.039572885
0.6137559 0.39947928 -0.040113465
0.63535838 0.40154873 -0.040654044
0.65696086 0.40361818 -0.041194624
0.67856333 0.40568763 -0.041735203
0.70016581 0.40775708 -0.042275783
0.72176829 0.40982653 -0.042816362
0.74337076 0.41189598 -0.043356941
0.76497324 0.41396543 -0.043897521
0.080393448 0.37935603 -0.029017069
0.10199592 0.38142548 -0.029557648
0.1235984 0.38349493 -0.030098228
0.14520088 0.38556438 -0.030638807
0.16680335 0.38763383 -0.031179386
0.18840583 0.38970328 -0.031719966
0.21000831 0.39177273 -0.032260545
0.23161078 0.39384218 -0.032801125
0.25321326 0.39591163 -0.033341704
0.27481574 0.39798108 -0.033882283
0.29641821 0.40005053 -0.034422863
0.31802069 0.40211998 -0.034963442
0.33962316 0.40418943 -0.035504022
0.36122564 0.40625888 -0.036044601
0.38282812 0.40832833 -0.03658518
0.40443059 0.41039778 -0.03712576
0.42603307 0.41246723 -0.037666339
0.44763555 0.41453668 -0.038206919
0.46923802 0.41660613 -0.038747498
0.4908405 0.41867558 -0.039288078
0.51244298 0.42074503 -0.039828657
0.53404545 0.42281448 -0.040369236
0.55564793 0.42488393 -0.040909816
0.57725041 0.42695338 -0.041450395
0.59885288 0.42902283 -0.041990975
0.62045536 0.43109228 -0.042531554
0.64205783 0.43316173 -0.043072133
0.66366031 0.43523118 -0.043612713
0.68526279 0.43730063 -0.044153292
0.70686526 0.43937008 -0.044693872
0.72846774 0.44143953 -0.045234451
0.75007022 0.44350898 -0.04577503
0.77167269 0.44557843 -0.04631561
0.087092902 0.41096903 -0.031435158
0.10869538 0.41303848 -0.031975737
0.13029785 0.41510793 -0.032516317
0.15190033 0.41717738 -0.033056896
0.17350281 0.41924683 -0.033597475
0.19510528 0.42131628 -0.034138055
0.21670776 0.42338573 -0.034678634
0.23831024 0.42545518 -0.035219214
0.25991271 0.42752463 -0.035759793
0.28151519 0.42959408 -0.036300373
0.30311767 0.43166353 -0.036840952
0.32472014 0.43373298 -0.037381531
0.34632262 0.43580243 -0.037922111
0.3679251 0.43787188 -0.03846269
0.38952757 0.43994133 -0.03900327
0.41113005 0.44201078 -0.039543849
0.43273252 0.44408023 -0.040084428
0.454335 0.44614968 -0.040625008
0.47593748 0.44821913 -0.041165587
0.49753995 0.45028858 -0.041706167
0.51914243 0.45235803 -0.042246746
0.54074491 0.45442749 -0.042787325
0.56234738 0.45649694 -0.043327905
0.58394986 0.45856639 -0.043868484
0.60555234 0.46063584 -0.044409064
0.62715481 0.46270529 -0.044949643
0.64875729 0.46477474 -0.045490222
0.67035977 0.46684419 -0.046030802
0.69196224 0.46891364 -0.046571381
0.71356472 0.47098309 -0.047111961
0.73516719 0.47305254 -0.04765254
0.75676967 0.47512199 -0.048193119
0.77837215 0.47719144 -0.048733699
0.093792356 0.44258204 -0.033853247
0.11539483 0.44465149 -0.034393826
0.13699731 0.44672094 -0.034934406
0.15859979 0.44879039 -0.035474985
0.18020226 0.45085984 -0.036015565
0.20180474 0.45292929 -0.036556144
0.22340721 0.45499874 -0.037096723
0.24500969 0.45706819 -0.037637303
0.26661217 0.45913764 -0.038177882
0.28821464 0.46120709 -0.038718462
0.30981712 0.46327654 -0.039259041
0.3314196 0.46534599 -0.03979962
0.35302207 0.46741544 -0.0403402
0.37462455 0.46948489 -0.040880779
0.39622703 0.47155434 -0.041421359
0.4178295 0.47362379 -0.041961938
0.43943198 0.47569324 -0.042502517
0.46103446 0.47776269 -0.043043097
0.48263693 0.47983214 -0.043583676
0.50423941 0.48190159 -0.044124256
0.52584188 0.48397104 -0.044664835
0.54744436 0.48604049 -0.045205414
0.56904684 0.48810994 -0.045745994
0.59064931 0.49017939 -0.046286573
0.61225179 0.49224884 -0.046827153
0.63385427 0.49431829 -0.047367732
0.65545674 0.49638774 -0.047908312
0.67705922 0.49845719 -0.048448891
0.6986617 0.50052664 -0.04898947
0.72026417 0.50259609 -0.04953005
0.74186665 0.50466554 -0.050070629
0.76346913 0.50673499 -0.050611209
0.7850716 0.50880444 -0.051151788
0.10049181 0.47419504 -0.036271336
0.12209429 0.47626449 -0.036811915
0.14369676 0.47833394 -0.037352495
0.16529924 0.48040339 -0.037893074
0.18690172 0.48247284 -0.038433654
0.20850419 0.48454229 -0.038974233
0.23010667 0.48661174 -0.039514812
0.25170914 0.48868119 -0.040055392
0.27331162 0.49075064 -0.040595971
0.2949141 0.49282009 -0.041136551
0.31651657 0.49488954 -0.04167713
0.33811905 0.49695899 -0.042217709
0.35972153 0.49902844 -0.042758289
0.381324 0.50109789 -0.043298868
0.40292648 0.50316734 -0.043839448
0.42452896 0.50523679 -0.044380027
0.44613143 0.50730624 -0.044920607
0.46773391 0.50937569 -0.045461186
0.48933639 0.51144514 -0.046001765
0.51093886 0.51351459 -0.046542345
0.53254134 0.51558404 -0.047082924
0.55414381 0.51765349 -0.047623504
0.57574629 0.51972294 -0.048164083
0.59734877 0.52179239 -0.048704662
0.61895124 0.52386184 -0.049245242
0.64055372 0.52593129 -0.049785821
0.6621562 0.52800074 -0.050326401
0.68375867 0.53007019 -0.05086698
0.70536115 0.53213964 -0.051407559
0.72696363 0.53420909 -0.051948139
0.7485661 0.53627854 -0.052488718
0.77016858 0.53834799 -0.053029298
0.79177106 0.54041744 -0.053569877
0.10719126 0.50580804 -0.038689425
0.12879374 0.50787749 -0.039230004
0.15039622 0.50994694 -0.039770584
0.17199869 0.51201639 -0.040311163
0.19360117 0.51408584 -0.040851743
0.21520365 0.51615529 -0.041392322
0.23680612 0.51822474 -0.041932901
0.2584086 0.52029419 -0.042473481
0.28001108 0.52236364 -0.04301406
0.30161355 0.52443309 -0.04355464
0.32321603 0.52650254 -0.044095219
0.3448185 0.52857199 -0.044635799
0.36642098 0.53064144 -0.045176378
0.38802346 0.53271089 -0.045716957
0.40962593 0.53478034 -0.046257537
0.43122841 0.53684979 -0.046798116
0.45283089 0.53891924 -0.047338696
0.47443336 0.54098869 -0.047879275
0.49603584 0.54305814 -0.048419854
0.51763832 0.54512759 -0.048960434
0.53924079 0.54719704 -0.049501013
0.56084327 0.54926649 -0.050041593
0.58244575 0.55133594 -0.050582172
0.60404822 0.55340539 -0.051122751
0.6256507 0.55547484 -0.051663331
0.64725317 0.55754429 -0.05220391
0.66885565 0.55961374 -0.05274449
0.69045813 0.56168319 -0.053285069
0.7120606 0.56375264 -0.053825648
0.73366308 0.56582209 -0.054366228
0.75526556 0.56789154 -0.054906807
0.77686803 0.56996099 -0.055447387
0.79847051 0.57203044 -0.055987966
0.11389072 0.53742104 -0.041107514
0.13549319 0.53949049 -0.041648094
0.15709567 0.54155994 -0.042188673
0.17869815 0.54362939 -0.042729252
0.20030062 0.54569884 -0.043269832
0.2219031 0.54776829 -0.043810411
0.24350558 0.54983774 -0.044350991
0.26510805 0.55190719 -0.04489157
0.28671053 0.55397664 -0.045432149
0.30831301 0.55604609 -0.045972729
0.32991548 0.55811554 -0.046513308
0.35151796 0.56018499 -0.047053888
0.37312043 0.56225444 -0.047594467
0.39472291 0.56432389 -0.048135046
0.41632539 0.56639334 -0.048675626
0.43792786 0.56846279 -0.049216205
0.45953034 0.57053224 -0.049756785
0.48113282 0.57260169 -0.050297364
0.50273529 0.57467114 -0.050837943
0.52433777 0.57674059 -0.051378523
0.54594025 0.57881004 -0.051919102
0.56754272 0.5808795 -0.052459682
0.5891452 0.58294895 -0.053000261
0.61074768 0.5850184 -0.05354084
0.63235015 0.58708785 -0.05408142
0.65395263 0.5891573 -0.054621999
0.6755551 0.59122675 -0.055162579
0.69715758 0.5932962 -0.055703158
0.71876006 0.59536565 -0.056243738
0.74036253 0.5974351 -0.056784317
0.76196501 0.59950455 -0.057324896
0.78356749 0.601574 -0.057865476
0.80516996 0.60364345 -0.058406055
0.12059017 0.56903405 -0.043525603
0.14219265 0.5711035 -0.044066183
0.16379512 0.57317295 -0.044606762
0.1853976 0.5752424 -0.045147341
0.20700008 0.57731185 -0.045687921
0.22860255 0.5793813 -0.0462285
0.25020503 0.58145075 -0.04676908
0.27180751 0.5835202 -0.047309659
0.29340998 0.58558965 -0.047850238
0.31501246 0.5876591 -0.048390818
0.33661494 0.58972855 -0.048931397
0.35821741 0.591798 -0.049471977
0.37981989 0.59386745 -0.050012556
0.40142237 0.5959369 -0.050553135
0.42302484 0.59800635 -0.051093715
0.44462732 0.6000758 -0.051634294
0.46622979 0.60214525 -0.052174874
0.48783227 0.6042147 -0.052715453
0.50943475 0.60628415 -0.053256033
0.53103722 0.6083536 -0.053796612
0.5526397 0.61042305 -0.054337191
0.57424218 0.6124925 -0.054877771
0.59584465 0.61456195 -0.05541835
0.61744713 0.6166314 -0.05595893
0.63904961 0.61870085 -0.056499509
0.66065208 0.6207703 -0.057040088
0.68225456 0.62283975 -0.057580668
0.70385704 0.6249092 -0.058121247
0.72545951 0.62697865 -0.058661827
0.74706199 0.6290481 -0.059202406
0.76866446 0.63111755 -0.059742985
0.79026694 0.633187 -0.060283565
0.81186942 0.63525645 -0.060824144
0.12728963 0.60064705 -0.045943692
0.1488921 0.6027165 -0.046484272
0.17049458 0.60478595 -0.047024851
0.19209706 0.6068554 -0.04756543
0.21369953 0.60892485 -0.04810601
0.23530201 0.6109943 -0.048646589
0.25690448 0.61306375 -0.049187169
