site/assets/luts/ocio-aces--appleinputapple-log-to-aces2065-1--c8358ecd0.cube
# LUTr-Project: LUTr — LUTrepository
# LUTr-Schema-Version: 1
# LUTr-ID: ocio-aces--appleinputapple-log-to-aces2065-1--c8358ecd0
# LUTr-Title: Apple.Input.Apple Log to ACES2065-1
# LUTr-Collection: OCIO ACES
# LUTr-Collection-ID: aswf-opencolorio-config-aces
# LUTr-Source: https://github.com/AcademySoftwareFoundation/OpenColorIO-Config-ACES
# LUTr-Source-File: submissions/aswf-opencolorio-config-aces/opencolorio_config_aces/clf/transforms/apple/input/Apple.Input.Apple_Log_to_ACES2065-1.clf
# LUTr-Source-Format: CLF
# LUTr-Source-SHA256: 060f87488cd58a35b23f4f2b3355425109eeaa5f78cabc86819d2b7bcf107182
# LUTr-License: BSD-3-Clause
# LUTr-License-URL: https://github.com/AcademySoftwareFoundation/OpenColorIO-Config-ACES/blob/main/LICENSE
# LUTr-Tags: technical, aces, ocio, clf, color-management, cube
# LUTr-Transform-Class: color-space-conversion
# LUTr-Input-Color-Space: Apple Log
# LUTr-Output-Color-Space: ACES2065-1
# LUTr-Color-Space-Confidence: descriptor-only
# LUTr-Conversion-Method: CLF operations evaluated as float and sampled to 33x33x33 3D CUBE
# LUTr-Conversion-Date: 2026-07-27
# LUTr-Conversion-Tool: LUTr scripts/convert-all-to-cube.mjs
# LUTr-Conversion-Grid: 33x33x33
# LUTr-Conversion-Warning: A sampled 3D CUBE is bounded to DOMAIN_MIN/MAX 0..1 and cannot preserve CLF values outside its input domain.
# LUTr-Upstream-ID: urn:aswf:ocio:transformId:1.0:Apple:Input:Apple_Log_to_ACES2065-1:1.0
# LUTr-Upstream-Name: Apple Log to ACES2065-1
# LUTr-Upstream-Input-Descriptor: Apple Log
# LUTr-Upstream-Output-Descriptor: ACES2065-1
# LUTr-Upstream-Builtin-Transform: APPLE_LOG_to_ACES2065-1
# LUTr-Upstream-Operations: LUT1D → Matrix
# LUTr-Note: Preserve this metadata and the upstream license notices when redistributing.
TITLE "Apple.Input.Apple Log to ACES2065-1"
LUT_3D_SIZE 5
DOMAIN_MIN 0 0 0
DOMAIN_MAX 1 1 1
-0.056410879 -0.056410879 -0.056410879
-0.005986495 -0.052995076 -0.056453496
0.1169765 -0.044665428 -0.056557421
1.0500799 0.018544016 -0.057346052
8.1309259 0.49820826 -0.063330575
-0.044701058 0.0073768092 -0.054297052
0.0057233264 0.010792612 -0.054339669
0.12868633 0.01912226 -0.054443594
1.0617897 0.082331704 -0.055232225
8.1426357 0.56199595 -0.061216748
-0.016145929 0.16292706 -0.049142353
0.034278455 0.16634286 -0.04918497
0.15724145 0.17467251 -0.049288895
1.0903448 0.23788195 -0.050077526
8.1711909 0.7175462 -0.056062049
0.20054435 1.3433184 -0.010025973
0.25096874 1.3467342 -0.01006859
0.37393174 1.3550639 -0.010172515
1.3070351 1.4182733 -0.010961147
8.3878811 1.8979376 -0.016945669
1.8448965 10.300707 0.28680829
1.8953208 10.304123 0.28676567
2.0182838 10.312452 0.28666175
2.9513872 10.375662 0.28587312
10.032233 10.855326 0.27988859
-0.044291733 -0.049361019 0.015771262
0.0061326506 -0.045945216 0.015728645
0.12909565 -0.037615568 0.01562472
1.062199 0.025593876 0.014836089
8.1430451 0.50525812 0.008851566
-0.032581912 0.014426669 0.017885089
0.017842472 0.017842472 0.017842472
0.14080547 0.02617212 0.017738547
1.0739089 0.089381564 0.016949916
8.1547549 0.56904581 0.010965393
-0.0040267838 0.16997692 0.023039788
0.0463976 0.17339272 0.022997171
0.1693606 0.18172237 0.022893246
1.102464 0.24493181 0.022104615
8.18331 0.72459606 0.016120092
0.2126635 1.3503683 0.062156168
0.26308788 1.3537841 0.062113551
0.38605088 1.3621138 0.062009626
1.3191543 1.4253232 0.061220994
8.4000003 1.9049874 0.055236472
1.8570156 10.307757 0.35899043
1.90744 10.311173 0.35894781
2.030403 10.319502 0.35884389
2.9635064 10.382712 0.35805526
10.044352 10.862376 0.35207074
-0.014738442 -0.032169497 0.19179191
0.035685942 -0.028753694 0.19174929
0.15864894 -0.020424046 0.19164536
1.0917523 0.042785398 0.19085673
8.1725983 0.52244965 0.18487221
-0.003028621 0.031618191 0.19390573
0.047395763 0.035033994 0.19386312
0.17035876 0.043363642 0.19375919
1.1034622 0.10657309 0.19297056
8.1843082 0.58623733 0.18698604
0.025526507 0.18716844 0.19906043
0.075950891 0.19058424 0.19901781
0.19891389 0.19891389 0.19891389
1.1320173 0.26212333 0.19812526
8.2128633 0.74178758 0.19214074
0.24221679 1.3675598 0.23817681
0.29264117 1.3709756 0.23813419
0.41560417 1.3793053 0.23803027
1.3487076 1.4425147 0.23724164
8.4295536 1.922179 0.23125712
1.8865689 10.324948 0.53501108
1.9369933 10.328364 0.53496846
2.0599563 10.336694 0.53486453
2.9930597 10.399903 0.5340759
10.073906 10.879567 0.52809138
0.20952639 0.098288185 1.5275227
0.25995077 0.10170399 1.5274801
0.38291377 0.11003364 1.5273761
1.3160172 0.17324308 1.5265875
8.3968632 0.65290733 1.520603
0.22123621 0.16207587 1.5296365
0.27166059 0.16549168 1.5295939
0.39462359 0.17382132 1.52949
1.327727 0.23703077 1.5287013
8.408573 0.71669502 1.5227168
0.24979134 0.31762612 1.5347912
0.30021572 0.32104192 1.5347486
0.42317872 0.32937157 1.5346447
1.3562821 0.39258102 1.533856
8.4371281 0.87224526 1.5278715
0.46648162 1.4980175 1.5739076
0.51690601 1.5014333 1.573865
0.639869 1.509763 1.573761
1.5729724 1.5729724 1.5729724
8.6538184 2.0526366 1.5669879
2.1108337 10.455406 1.8707418
2.1612581 10.458822 1.8706992
2.2842211 10.467151 1.8705953
3.2173245 10.530361 1.8698067
10.298171 11.010025 1.8638221
1.9113579 1.088265 11.663703
1.9617823 1.0916808 11.66366
2.0847453 1.1000105 11.663556
3.0178486 1.1632199 11.662767
10.098695 1.6428842 11.656783
1.9230677 1.1520527 11.665816
1.9734921 1.1554685 11.665774
2.0964551 1.1637982 11.66567
3.0295585 1.2270076 11.664881
10.110404 1.7066719 11.658897
1.9516228 1.307603 11.670971
2.0020472 1.3110188 11.670928
2.1250102 1.3193484 11.670825
3.0581136 1.3825579 11.670036
10.13896 1.8622221 11.664051
2.1683131 2.4879944 11.710087
2.2187375 2.4914102 11.710045
2.3417005 2.4997398 11.709941
3.2748039 2.5629492 11.709152
10.35565 3.0426135 11.703168
3.8126652 11.445383 12.006922
3.8630896 11.448799 12.006879
3.9860526 11.457128 12.006775
4.919156 11.520338 12.005987
12.000002 12.000002 12.000002
