site/assets/luts/ocio-aces--sonyinputslog3-sgamut3cine-to-aces2065-1--a40c421c7.cube
# LUTr-Project: LUTr — LUTrepository
# LUTr-Schema-Version: 1
# LUTr-ID: ocio-aces--sonyinputslog3-sgamut3cine-to-aces2065-1--a40c421c7
# LUTr-Title: Sony.Input.SLog3 SGamut3Cine to ACES2065-1
# LUTr-Collection: OCIO ACES
# LUTr-Collection-ID: aswf-opencolorio-config-aces
# LUTr-Source: https://github.com/AcademySoftwareFoundation/OpenColorIO-Config-ACES
# LUTr-Source-File: submissions/aswf-opencolorio-config-aces/opencolorio_config_aces/clf/transforms/sony/input/Sony.Input.SLog3_SGamut3Cine_to_ACES2065-1.clf
# LUTr-Source-Format: CLF
# LUTr-Source-SHA256: a201ab523888e7eb71bb627e2ca230f28545f93f2caa727bce2caf649ff94f0a
# LUTr-License: BSD-3-Clause
# LUTr-License-URL: https://github.com/AcademySoftwareFoundation/OpenColorIO-Config-ACES/blob/main/LICENSE
# LUTr-Tags: technical, aces, ocio, clf, color-management, cube
# LUTr-Transform-Class: color-space-conversion
# LUTr-Input-Color-Space: Sony S-Log3 S-Gamut3.Cine
# LUTr-Output-Color-Space: ACES2065-1
# LUTr-Color-Space-Confidence: descriptor-only
# LUTr-Conversion-Method: CLF operations evaluated as float and sampled to 33x33x33 3D CUBE
# LUTr-Conversion-Date: 2026-07-27
# LUTr-Conversion-Tool: LUTr scripts/convert-all-to-cube.mjs
# LUTr-Conversion-Grid: 33x33x33
# LUTr-Conversion-Warning: A sampled 3D CUBE is bounded to DOMAIN_MIN/MAX 0..1 and cannot preserve CLF values outside its input domain.
# LUTr-Upstream-ID: urn:aswf:ocio:transformId:1.0:Sony:Input:SLog3_SGamut3Cine_to_ACES2065-1:1.0
# LUTr-Upstream-Name: Sony S-Log3 S-Gamut3.Cine to ACES2065-1
# LUTr-Upstream-Input-Descriptor: Sony S-Log3 S-Gamut3.Cine
# LUTr-Upstream-Output-Descriptor: ACES2065-1
# LUTr-Upstream-Operations: Log → Matrix
# LUTr-Note: Preserve this metadata and the upstream license notices when redistributing.
TITLE "Sony.Input.SLog3 SGamut3Cine to ACES2065-1"
LUT_3D_SIZE 9
DOMAIN_MIN 0 0 0
DOMAIN_MAX 1 1 1
-0.014023696 -0.014023696 -0.014023696
-0.0019655168 -0.014097615 -0.014588243
0.017122746 -0.01421463 -0.015481929
0.076653403 -0.014579565 -0.018269072
0.26020003 -0.015704744 -0.026862472
0.82611626 -0.019173927 -0.053357887
2.5709654 -0.029870211 -0.13504931
7.9507343 -0.062849302 -0.38692265
24.537792 -0.16453138 -1.1635058
-0.0088826179 0.0065154629 -0.014522654
0.0031755612 0.0064415438 -0.015087201
0.022263824 0.0063245288 -0.015980887
0.081794481 0.0059595936 -0.01876803
0.26534111 0.004834415 -0.02736143
0.83125733 0.0013652321 -0.053856845
2.5761065 -0.0093310523 -0.13554827
7.9558753 -0.042310143 -0.38742161
24.542933 -0.14399222 -1.1640047
-0.00074422087 0.039029233 -0.015312512
0.011313958 0.038955314 -0.015877059
0.030402221 0.038838299 -0.016770745
0.089932878 0.038473364 -0.019557888
0.27347951 0.037348185 -0.028151287
0.83939573 0.033879002 -0.054646702
2.5842449 0.023182718 -0.13633813
7.9640137 -0.0097963726 -0.38821147
24.551071 -0.11147845 -1.1647946
0.024637037 0.14043008 -0.017775844
0.036695216 0.14035616 -0.018340391
0.055783479 0.14023915 -0.019234077
0.11531414 0.13987421 -0.02202122
0.29886076 0.13874904 -0.03061462
0.86477699 0.13527985 -0.057110035
2.6096261 0.12458357 -0.13880146
7.989395 0.091604478 -0.3906748
24.576453 -0.0100776 -1.1672579
0.10289326 0.45307209 -0.025370861
0.11495144 0.45299817 -0.025935408
0.1340397 0.45288116 -0.026829095
0.19357036 0.45251622 -0.029616238
0.37711698 0.45139104 -0.038209637
0.94303321 0.44792186 -0.064705052
2.6878823 0.43722558 -0.14639648
8.0676512 0.40424649 -0.39826982
24.654709 0.30256441 -1.1748529
0.34417508 1.4170189 -0.048788036
0.35623326 1.416945 -0.049352583
0.37532152 1.416828 -0.050246269
0.43485218 1.416463 -0.053033412
0.61839881 1.4153379 -0.061626812
1.184315 1.4118687 -0.088122227
2.9291642 1.4011724 -0.16981365
8.308933 1.3681933 -0.42168699
24.895991 1.2665112 -1.1982701
1.0881021 4.3890873 -0.12098854
1.1001603 4.3890134 -0.12155309
1.1192486 4.3888964 -0.12244677
1.1787792 4.3885315 -0.12523392
1.3623259 4.3874063 -0.13382732
1.9282421 4.3839371 -0.16032273
3.6730912 4.3732408 -0.24201416
9.0528601 4.3402617 -0.4938875
25.639918 4.2385796 -1.2704706
3.3817993 13.552654 -0.34359921
3.3938575 13.55258 -0.34416375
3.4129457 13.552463 -0.34505744
3.4724764 13.552098 -0.34784458
3.656023 13.550973 -0.35643798
4.2219393 13.547504 -0.3829334
5.9667884 13.536807 -0.46462482
11.346557 13.503828 -0.71649816
27.933615 13.402146 -1.4930813
10.453792 41.806025 -1.0299588
10.46585 41.805951 -1.0305233
10.484939 41.805834 -1.031417
10.544469 41.805469 -1.0342042
10.728016 41.804344 -1.0427976
11.293932 41.800875 -1.069293
13.038781 41.790179 -1.1509844
18.41855 41.7572 -1.4028578
35.005608 41.655518 -2.1794409
-0.01234632 -0.015612303 0.0059164423
-0.00028814113 -0.015686222 0.005351895
0.018800122 -0.015803237 0.0044582089
0.078330779 -0.016168172 0.0016710659
0.26187741 -0.017293351 -0.0069223334
0.82779363 -0.020762534 -0.033417749
2.5726428 -0.031458818 -0.11510917
7.9524116 -0.064437909 -0.36698251
24.539469 -0.16611999 -1.1435656
-0.0072052422 0.004926856 0.0054174842
0.0048529369 0.0048529369 0.0048529369
0.0239412 0.0047359219 0.0039592508
0.083471857 0.0043709867 0.0011721078
0.26701848 0.0032458081 -0.0074212915
0.83293471 -0.00022337485 -0.033916707
2.5777838 -0.010919659 -0.11560813
7.9575527 -0.04389875 -0.36748147
24.54461 -0.14558083 -1.1440646
0.00093315482 0.037440626 0.0046276266
0.012991334 0.037366707 0.0040630794
0.032079597 0.037249692 0.0031693933
0.091610254 0.036884757 0.00038225024
0.27515688 0.035759578 -0.0082111491
0.84107311 0.032290396 -0.034706564
2.5859222 0.021594111 -0.11639799
7.9656911 -0.011384979 -0.36827133
24.552749 -0.11306706 -1.1448544
0.026314412 0.13884148 0.0021642942
0.038372592 0.13876756 0.0015997469
0.057460855 0.13865054 0.00070606084
0.11699151 0.13828561 -0.0020810822
0.30053814 0.13716043 -0.010674482
0.86645436 0.13369125 -0.037169897
2.6113035 0.12299496 -0.11886132
7.9910724 0.090015871 -0.37073466
24.57813 -0.011666207 -1.1473178
0.10457063 0.45148349 -0.005430723
0.11662881 0.45140957 -0.0059952703
0.13571708 0.45129255 -0.0068889563
0.19524773 0.45092762 -0.0096760994
0.37879436 0.44980244 -0.018269499
0.94471059 0.44633325 -0.044764914
2.6895597 0.43563697 -0.12645634
8.0693286 0.40265788 -0.37832968
24.656386 0.3009758 -1.1549128
0.34585246 1.4154303 -0.028847898
0.35791064 1.4153564 -0.029412445
0.3769989 1.4152394 -0.030306131
0.43652956 1.4148744 -0.033093274
0.62007619 1.4137492 -0.041686673
1.1859924 1.4102801 -0.068182089
2.9308415 1.3995838 -0.14987351
8.3106104 1.3666047 -0.40174685
24.897668 1.2649226 -1.17833
1.0897795 4.3874987 -0.1010484
1.1018377 4.3874248 -0.10161295
1.1209259 4.3873078 -0.10250664
1.1804566 4.3869429 -0.10529378
1.3640032 4.3858177 -0.11388718
1.9299195 4.3823485 -0.14038259
3.6747686 4.3716522 -0.22207402
9.0545375 4.3386731 -0.47394736
25.641595 4.236991 -1.2505305
3.3834767 13.551065 -0.32365907
3.3955349 13.550991 -0.32422362
3.4146231 13.550874 -0.3251173
3.4741538 13.550509 -0.32790444
3.6577004 13.549384 -0.33649784
4.2236166 13.545915 -0.36299326
5.9684658 13.535219 -0.44468468
11.348235 13.50224 -0.69655802
27.935292 13.400558 -1.4731411
10.45547 41.804437 -1.0100187
10.467528 41.804363 -1.0105832
10.486616 41.804246 -1.0114769
10.546147 41.803881 -1.014264
10.729693 41.802756 -1.0228574
11.29561 41.799286 -1.0493528
13.040459 41.78859 -1.1310443
18.420228 41.755611 -1.3829176
35.007285 41.653929 -2.1595007
-0.0096910115 -0.018127089 0.037481955
0.0023671676 -0.018201009 0.036917407
0.021455431 -0.018318024 0.036023721
0.080986087 -0.018682959 0.033236578
0.26453272 -0.019808137 0.024643179
0.83044894 -0.02327732 -0.0018522362
2.5752981 -0.033973605 -0.08354366
7.9550669 -0.066952695 -0.335417
24.542125 -0.16863477 -1.1120001
-0.0045499335 0.0024120694 0.036982997
0.0075082456 0.0023381503 0.036418449
0.026596509 0.0022211353 0.035524763
0.086127165 0.0018562002 0.03273762
0.26967379 0.00073102155 0.024144221
0.83559002 -0.0027381614 -0.0023511943
2.5804392 -0.013434446 -0.084042618
7.960208 -0.046413536 -0.33591596
24.547266 -0.14809561 -1.1124991
0.0035884636 0.03492584 0.036193139
0.015646643 0.034851921 0.035628592
0.034734906 0.034734906 0.034734906
0.094265562 0.034369971 0.031947763
0.27781219 0.033244792 0.023354363
0.84372842 0.029775609 -0.0031410518
2.5885775 0.019079325 -0.084832476
7.9683464 -0.013899766 -0.33670582
24.555404 -0.11558184 -1.1132889
0.028969721 0.13632669 0.033729807
0.0410279 0.13625277 0.033165259
0.060116163 0.13613576 0.032271573
0.11964682 0.13577082 0.02948443
0.30319345 0.13464564 0.020891031
0.86910967 0.13117646 -0.0056043842
2.6139588 0.12048017 -0.087295808
7.9937277 0.087501084 -0.33916915
24.580785 -0.014180994 -1.1157523
0.10722594 0.4489687 0.026134789
0.11928412 0.44889478 0.025570242
0.13837238 0.44877776 0.024676556
0.19790304 0.44841283 0.021889413
0.38144967 0.44728765 0.013296014
0.94736589 0.44381847 -0.013199401
2.692215 0.43312218 -0.094890825
8.0719839 0.40014309 -0.34676417
24.659042 0.29846102 -1.1233473
0.34850777 1.4129155 0.0027176147
0.36056595 1.4128416 0.0021530674
0.37965421 1.4127246 0.0012593813
0.43918487 1.4123596 -0.0015277617
0.62273149 1.4112345 -0.010121161
1.1886477 1.4077653 -0.036616576
2.9334969 1.397069 -0.118308
8.3132657 1.3640899 -0.37018134
24.900323 1.2624078 -1.1467644
1.0924348 4.3849839 -0.06948289
1.104493 4.38491 -0.070047437
1.1235813 4.384793 -0.070941123
1.1831119 4.3844281 -0.073728266
1.3666585 4.3833029 -0.082321666
1.9325748 4.3798337 -0.10881708
3.6774239 4.3691374 -0.1905085
9.0571928 4.3361583 -0.44238184
25.64425 4.2344763 -1.2189649
3.386132 13.548551 -0.29209356
3.3981902 13.548477 -0.2926581
3.4172784 13.54836 -0.29355179
3.4768091 13.547995 -0.29633893
3.6603557 13.54687 -0.30493233
4.2262719 13.5434 -0.33142775
5.9711211 13.532704 -0.41311917
11.35089 13.499725 -0.66499251
27.937948 13.398043 -1.4415756
10.458125 41.801922 -0.97845314
10.470183 41.801848 -0.97901769
10.489271 41.801731 -0.97991138
10.548802 41.801366 -0.98269852
10.732349 41.800241 -0.99129192
11.298265 41.796772 -1.0177873
13.043114 41.786075 -1.0994788
18.422883 41.753096 -1.3513521
35.009941 41.651414 -2.1279352
-0.0014098875 -0.025969966 0.13592547
0.010648292 -0.026043885 0.13536092
0.029736555 -0.0261609 0.13446724
0.089267211 -0.026525835 0.13168009
0.27281384 -0.027651014 0.12308669
0.83873006 -0.031120197 0.096591278
2.5835792 -0.041816481 0.014899854
7.9633481 -0.074795572 -0.23697349
24.550406 -0.17647765 -1.0135566
0.0037311905 -0.0054308074 0.13542651
0.01578937 -0.0055047265 0.13486196
0.034877633 -0.0056217415 0.13396828
0.094408289 -0.0059866766 0.13118113
0.27795492 -0.0071118552 0.12258773
0.84387114 -0.010581038 0.096092319
2.5887203 -0.021277323 0.014400896
7.9684892 -0.054256413 -0.23747244
24.555547 -0.15593849 -1.0140555
0.011869588 0.027082963 0.13463665
0.023927767 0.027009044 0.13407211
0.04301603 0.026892029 0.13317842
0.10254669 0.026527094 0.13039128
0.28609331 0.025401915 0.12179788
0.85200954 0.021932732 0.095302462
2.5968587 0.011236448 0.013611038
7.9766275 -0.021742643 -0.2382623
24.563685 -0.12342472 -1.0148454
0.037250845 0.12848381 0.13217332
0.049309024 0.12840989 0.13160877
0.068397287 0.12829288 0.13071509
0.12792794 0.12792794 0.12792794
0.31147457 0.12680277 0.11933454
0.8773908 0.12333358 0.09283913
2.6222399 0.1126373 0.011147706
8.0020088 0.079658207 -0.24072563
24.589066 -0.02202387 -1.0173087
0.11550707 0.44112582 0.1245783
0.12756525 0.4410519 0.12401376
0.14665351 0.44093489 0.12312007
0.20618417 0.44056995 0.12033293
0.38973079 0.43944477 0.11173953
0.95564702 0.43597559 0.085244112
2.7004962 0.42527931 0.0035526886
8.080265 0.39230022 -0.24832065
24.667323 0.29061814 -1.0249038
0.35678889 1.4050726 0.10116113
0.36884707 1.4049987 0.10059658
0.38793533 1.4048817 0.099702895
0.44746599 1.4045168 0.096915752
0.63101262 1.4033916 0.088322353
1.1969288 1.3999224 0.061826938
2.941778 1.3892261 -0.019864486
8.3215469 1.356247 -0.27173783
24.908605 1.2545649 -1.0483209
1.1007159 4.3771411 0.028960624
1.1127741 4.3770671 0.028396077
1.1318624 4.3769501 0.02750239
1.191393 4.3765852 0.024715247
1.3749397 4.37546 0.016121848
1.9408559 4.3719908 -0.010373567
3.685705 4.3612945 -0.092064991
9.0654739 4.3283155 -0.34393833
25.652532 4.2266334 -1.1205214
3.3944131 13.540708 -0.19365004
3.4064713 13.540634 -0.19421459
3.4255596 13.540517 -0.19510828
3.4850902 13.540152 -0.19789542
3.6686368 13.539027 -0.20648882
4.2345531 13.535557 -0.23298423
5.9794022 13.524861 -0.31467566
11.359171 13.491882 -0.566549
27.946229 13.3902 -1.3431321
10.466406 41.794079 -0.88000963
10.478464 41.794005 -0.88057418
10.497552 41.793888 -0.88146786
10.557083 41.793523 -0.88425501
10.74063 41.792398 -0.89284841
11.306546 41.788929 -0.91934382
13.051395 41.778232 -1.0010352
18.431164 41.745253 -1.2529086
35.018222 41.643571 -2.0294917
0.024122711 -0.050151349 0.43944933
0.03618089 -0.050225268 0.43888479
0.055269154 -0.050342283 0.4379911
0.11479981 -0.050707218 0.43520396
0.29834644 -0.051832397 0.42661056
0.86426266 -0.05530158 0.40011514
2.6091118 -0.065997864 0.31842372
7.9888807 -0.098976955 0.066550378
24.575938 -0.20065903 -0.71003273
0.029263789 -0.02961219 0.43895037
0.041321968 -0.029686109 0.43838583
0.060410232 -0.029803124 0.43749214
0.11994089 -0.030168059 0.434705
0.30348752 -0.031293238 0.4261116
0.86940374 -0.034762421 0.39961618
2.6142529 -0.045458705 0.31792476
7.9940218 -0.078437796 0.06605142
24.581079 -0.18011987 -0.71053168
0.037402186 0.0029015804 0.43816052
0.049460366 0.0028276613 0.43759597
0.068548629 0.0027106463 0.43670228
0.12807929 0.0023457111 0.43391514
0.31162591 0.0012205325 0.42532174
0.87754214 -0.0022486505 0.39882633
2.6223913 -0.012944935 0.3171349
8.0021601 -0.045924025 0.065261562
24.589218 -0.1476061 -0.71132154
0.062783444 0.10430243 0.43569718
0.074841623 0.10422851 0.43513264
0.093929886 0.1041115 0.43423895
0.15346054 0.10374656 0.43145181
0.33700717 0.10262138 0.42285841
0.9029234 0.0991522 0.39636299
2.6477725 0.088455915 0.31467157
8.0275414 0.055476825 0.06279823
24.614599 -0.046205253 -0.71378487
0.14103967 0.41694444 0.42810217
0.15309784 0.41687052 0.42753762
0.17218611 0.41675351 0.42664393
0.23171676 0.41638857 0.42385679
0.41526339 0.41526339 0.41526339
0.98117962 0.41179421 0.38876798
2.7260287 0.40109792 0.30707655
8.1057976 0.36811883 0.055203213
24.692855 0.26643676 -0.72137989
0.38232149 1.3808912 0.40468499
0.39437967 1.3808173 0.40412045
0.41346793 1.3807003 0.40322676
0.47299859 1.3803354 0.40043962
0.65654522 1.3792102 0.39184622
1.2224614 1.375741 0.3653508
2.9673106 1.3650447 0.28365938
8.3470795 1.3320656 0.031786038
24.934137 1.2303836 -0.74479707
1.1262485 4.3529597 0.33248449
1.1383067 4.3528858 0.33191994
1.157395 4.3527687 0.33102625
1.2169256 4.3524038 0.32823911
1.4004723 4.3512786 0.31964571
1.9663885 4.3478094 0.2931503
3.7112376 4.3371132 0.21145887
9.0910065 4.3041341 -0.040414467
25.678064 4.202452 -0.81699757
3.4199457 13.516526 0.10987382
3.4320039 13.516452 0.10930927
3.4510922 13.516335 0.10841559
3.5106228 13.51597 0.10562845
3.6941694 13.514845 0.097035046
4.2600857 13.511376 0.070539631
6.0049348 13.50068 -0.011151793
11.384704 13.467701 -0.26302513
27.971761 13.366019 -1.0396082
10.491939 41.769898 -0.57648577
10.503997 41.769824 -0.57705031
10.523085 41.769707 -0.577944
10.582616 41.769342 -0.58073114
10.766162 41.768217 -0.58932454
11.332079 41.764747 -0.61581996
13.076928 41.754051 -0.69751138
18.456697 41.721072 -0.94938472
35.043754 41.61939 -1.7259678
0.10284555 -0.12470808 1.3752828
0.11490373 -0.124782 1.3747183
0.13399199 -0.12489902 1.3738246
0.19352265 -0.12526395 1.3710374
0.37706928 -0.12638913 1.362444
0.9429855 -0.12985831 1.3359486
2.6878346 -0.1405546 1.2542572
8.0676035 -0.17353369 1.0023839
24.654661 -0.27521576 0.22580076
0.10798663 -0.10416892 1.3747839
0.12004481 -0.10424284 1.3742193
0.13913307 -0.10435986 1.3733256
0.19866373 -0.10472479 1.3705385
0.38221036 -0.10584997 1.3619451
0.94812658 -0.10931915 1.3354497
2.6929757 -0.12001544 1.2537582
8.0727446 -0.15299453 1.0018849
24.659802 -0.25467661 0.2253018
0.11612503 -0.071655152 1.373994
0.12818321 -0.071729071 1.3734295
0.14727147 -0.071846086 1.3725358
0.20680213 -0.072211021 1.3697486
0.39034875 -0.0733362 1.3611552
0.95626498 -0.076805383 1.3346598
2.7011141 -0.087501667 1.2529684
8.080883 -0.12048076 1.001095
24.667941 -0.22216284 0.22451194
0.14150629 0.029745698 1.3715307
0.15356446 0.029671779 1.3709661
0.17265273 0.029554764 1.3700724
0.23218338 0.029189829 1.3672853
0.41573001 0.028064651 1.3586919
0.98164624 0.024595468 1.3321965
2.7264954 0.013899183 1.2505051
8.1062642 -0.019079907 0.99863171
24.693322 -0.12076199 0.22204861
0.21976251 0.34238771 1.3639356
0.23182069 0.34231379 1.3633711
0.25090895 0.34219677 1.3624774
0.31043961 0.34183184 1.3596903
0.49398623 0.34070666 1.3510969
1.0599025 0.33723748 1.3246015
2.8047516 0.32654119 1.24291
8.1845205 0.2935621 0.99103669
24.771578 0.19188002 0.21445359
0.46104433 1.3063345 1.3405185
0.47310251 1.3062606 1.3399539
0.49219077 1.3061436 1.3390602
0.55172143 1.3057786 1.3362731
0.73526806 1.3046535 1.3276797
1.3011843 1.3011843 1.3011843
3.0460334 1.290488 1.2194929
8.4258023 1.2575089 0.96761952
25.01286 1.1558268 0.19103642
1.2049714 4.2784029 1.268318
1.2170296 4.278329 1.2677534
1.2361178 4.278212 1.2668597
1.2956485 4.2778471 1.2640726
1.4791951 4.2767219 1.2554792
2.0451113 4.2732527 1.2289838
3.7899605 4.2625564 1.1472924
9.1697293 4.2295773 0.89541901
25.756787 4.1278953 0.11883591
3.4986686 13.44197 1.0457073
3.5107267 13.441896 1.0451428
3.529815 13.441779 1.0442491
3.5893457 13.441414 1.0414619
3.7728923 13.440289 1.0328685
4.3388085 13.436819 1.0063731
6.0836576 13.426123 0.92468169
11.463427 13.393144 0.67280835
28.050484 13.291462 -0.10377476
10.570661 41.695341 0.35934771
10.58272 41.695267 0.35878317
10.601808 41.69515 0.35788948
10.661339 41.694785 0.35510234
10.844885 41.69366 0.34650894
11.410801 41.690191 0.32001352
13.155651 41.679494 0.2383221
18.535419 41.646515 -0.01355124
35.122477 41.544833 -0.79013434
0.34556607 -0.35458354 4.2606714
0.35762425 -0.35465745 4.2601069
0.37671252 -0.35477447 4.2592132
0.43624317 -0.35513941 4.2564261
0.6197898 -0.35626458 4.2478327
1.185706 -0.35973377 4.2213372
2.9305552 -0.37043005 4.1396458
8.310324 -0.40340914 3.8877725
24.897382 -0.50509122 3.1111894
0.35070715 -0.33404438 4.2601725
0.36276533 -0.3341183 4.2596079
0.38185359 -0.33423531 4.2587142
0.44138425 -0.33460025 4.2559271
0.62493088 -0.33572542 4.2473337
1.1908471 -0.33919461 4.2208383
2.9356962 -0.34989089 4.1391469
8.3154651 -0.38286998 3.8872735
24.902523 -0.48455206 3.1106904
0.35884555 -0.30153061 4.2593826
0.37090373 -0.30160453 4.2588181
0.38999199 -0.30172154 4.2579244
0.44952265 -0.30208648 4.2551372
0.63306927 -0.30321165 4.2465438
1.1989855 -0.30668084 4.2200484
2.9438346 -0.31737712 4.138357
8.3236035 -0.35035621 3.8864837
24.910661 -0.45203829 3.1099006
0.38422681 -0.20012976 4.2569193
0.39628498 -0.20020368 4.2563547
0.41537325 -0.20032069 4.2554611
0.4749039 -0.20068563 4.2526739
0.65845053 -0.2018108 4.2440805
1.2243668 -0.20527999 4.2175851
2.9692159 -0.21597627 4.1358937
8.3489848 -0.24895536 3.8840203
24.936042 -0.35063744 3.1074372
0.46248303 0.11251225 4.2493243
0.47454121 0.11243833 4.2487597
0.49362947 0.11232132 4.247866
0.55316013 0.11195638 4.2450789
0.73670675 0.1108312 4.2364855
1.302623 0.10736202 4.2099901
3.0474721 0.096665737 4.1282987
8.427241 0.063686647 3.8764253
25.014299 -0.037995431 3.0998422
0.70376485 1.0764591 4.2259071
0.71582303 1.0763851 4.2253425
0.73491129 1.0762681 4.2244489
0.79444195 1.0759032 4.2216617
0.97798858 1.074778 4.2130683
1.5439048 1.0713088 4.1865729
3.2887539 1.0606125 4.1048815
8.6685228 1.0276335 3.8530081
25.25558 0.92595138 3.076425
1.4476919 4.0485275 4.1537066
1.4597501 4.0484536 4.153142
1.4788383 4.0483366 4.1522484
1.538369 4.0479716 4.1494612
1.7219156 4.0468464 4.1408678
2.2878318 4.0433773 4.1143724
4.032681 4.032681 4.032681
9.4124499 3.9997019 3.7808076
25.999508 3.8980198 3.0042245
3.7413891 13.212094 3.9310959
3.7534473 13.21202 3.9305314
3.7725355 13.211903 3.9296377
3.8320662 13.211538 3.9268505
4.0156128 13.210413 3.9182572
4.581529 13.206944 3.8917617
6.3263782 13.196248 3.8100703
11.706147 13.163268 3.558197
28.293205 13.061586 2.7816139
10.813382 41.465465 3.2447363
10.82544 41.465392 3.2441718
10.844528 41.465274 3.2432781
10.904059 41.46491 3.240491
11.087606 41.463784 3.2318976
11.653522 41.460315 3.2054021
13.398371 41.449619 3.1237107
18.77814 41.41664 2.8718374
35.365198 41.314958 2.0952543
1.0939289 -1.0633421 13.156984
1.1059871 -1.063416 13.15642
1.1250754 -1.0635331 13.155526
1.184606 -1.063898 13.152739
1.3681527 -1.0650232 13.144146
1.9340689 -1.0684924 13.11765
3.678918 -1.0791886 13.035959
9.0586869 -1.1121677 12.784085
25.645745 -1.2138498 12.007502
1.09907 -1.042803 13.156485
1.1111282 -1.0428769 13.155921
1.1302165 -1.0429939 13.155027
1.1897471 -1.0433588 13.15224
1.3732937 -1.044484 13.143647
1.93921 -1.0479532 13.117151
3.6840591 -1.0586495 13.03546
9.063828 -1.0916286 12.783586
25.650886 -1.1933107 12.007003
1.1072084 -1.0102892 13.155696
1.1192666 -1.0103631 13.155131
1.1383549 -1.0104801 13.154237
1.1978855 -1.0108451 13.15145
1.3814321 -1.0119702 13.142857
1.9473484 -1.0154394 13.116361
3.6921975 -1.0261357 13.03467
9.0719664 -1.0591148 12.782797
25.659024 -1.1607969 12.006213
1.1325897 -0.90888835 13.153232
1.1446479 -0.90896227 13.152668
1.1637361 -0.90907928 13.151774
1.2232668 -0.90944422 13.148987
1.4068134 -0.9105694 13.140393
1.9727296 -0.91403858 13.113898
3.7175788 -0.92473486 13.032207
9.0973476 -0.95771396 12.780333
25.684405 -1.059396 12.00375
1.2108459 -0.59624634 13.145637
1.2229041 -0.59632026 13.145073
1.2419923 -0.59643727 13.144179
1.301523 -0.59680221 13.141392
1.4850696 -0.59792739 13.132798
2.0509858 -0.60139657 13.106303
3.795835 -0.61209286 13.024612
9.1756039 -0.64507195 12.772738
25.762662 -0.74675402 11.996155
1.4521277 0.36770047 13.12222
1.4641859 0.36762655 13.121655
1.4832742 0.36750953 13.120762
1.5428048 0.3671446 13.117975
1.7263514 0.36601942 13.109381
2.2922677 0.36255024 13.082886
4.0371168 0.35185395 13.001194
9.4168857 0.31887486 12.749321
26.003943 0.21719278 11.972738
2.1960548 3.3397689 13.05002
2.2081129 3.339695 13.049455
2.2272012 3.339578 13.048561
2.2867319 3.339213 13.045774
2.4702785 3.3380879 13.037181
3.0361947 3.3346187 13.010685
4.7810438 3.3239224 12.928994
10.160813 3.2909433 12.677121
26.74787 3.1892612 11.900537
4.4897519 12.503336 12.827409
4.5018101 12.503262 12.826844
4.5208984 12.503145 12.825951
4.580429 12.50278 12.823163
4.7639757 12.501654 12.81457
5.3298919 12.498185 12.788075
7.074741 12.487489 12.706383
12.45451 12.45451 12.45451
29.041568 12.352828 11.677927
11.561745 40.756707 12.141049
11.573803 40.756633 12.140485
11.592891 40.756516 12.139591
11.652422 40.756151 12.136804
11.835969 40.755026 12.12821
12.401885 40.751557 12.101715
14.146734 40.74086 12.020024
19.526503 40.707881 11.76815
36.11356 40.606199 10.991567
3.4013028 -3.2486069 40.586351
3.413361 -3.2486809 40.585787
3.4324492 -3.2487979 40.584893
3.4919799 -3.2491628 40.582106
3.6755265 -3.250288 40.573513
4.2414427 -3.2537572 40.547017
5.9862919 -3.2644535 40.465326
11.366061 -3.2974326 40.213453
27.953118 -3.3991146 39.436869
3.4064439 -3.2280678 40.585853
3.4185021 -3.2281417 40.585288
3.4375903 -3.2282587 40.584394
3.497121 -3.2286237 40.581607
3.6806676 -3.2297488 40.573014
4.2465838 -3.233218 40.546518
5.991433 -3.2439143 40.464827
11.371202 -3.2768934 40.212954
27.958259 -3.3785755 39.43637
3.4145823 -3.195554 40.585063
3.4266405 -3.1956279 40.584498
3.4457287 -3.195745 40.583604
3.5052594 -3.1961099 40.580817
3.688806 -3.1972351 40.572224
4.2547222 -3.2007042 40.545728
5.9995714 -3.2114005 40.464037
11.37934 -3.2443796 40.212164
27.966398 -3.3460617 39.435581
3.4399635 -3.0941532 40.582599
3.4520217 -3.0942271 40.582035
3.47111 -3.0943441 40.581141
3.5306406 -3.094709 40.578354
3.7141873 -3.0958342 40.569761
4.2801035 -3.0993034 40.543265
6.0249526 -3.1099997 40.461574
11.404721 -3.1429788 40.2097
27.991779 -3.2446608 39.433117
3.5182198 -2.7815112 40.575004
3.5302779 -2.7815851 40.57444
3.5493662 -2.7817021 40.573546
3.6088968 -2.782067 40.570759
3.7924435 -2.7831922 40.562166
4.3583597 -2.7866614 40.53567
6.1032088 -2.7973577 40.453979
11.482978 -2.8303368 40.202105
28.070035 -2.9320188 39.425522
3.7595016 -1.8175644 40.551587
3.7715598 -1.8176383 40.551023
3.790648 -1.8177553 40.550129
3.8501787 -1.8181202 40.547342
4.0337253 -1.8192454 40.538748
4.5996415 -1.8227146 40.512253
6.3444907 -1.8334109 40.430562
11.72426 -1.86639 40.178688
28.311317 -1.968072 39.402105
4.5034286 1.1545041 40.479387
4.5154868 1.1544302 40.478822
4.5345751 1.1543131 40.477928
4.5941057 1.1539482 40.475141
4.7776523 1.152823 40.466548
5.3435686 1.1493539 40.440052
7.0884177 1.1386576 40.358361
12.468187 1.1056785 40.106488
29.055244 1.0039964 39.329905
6.7971258 10.318071 40.256776
6.809184 10.317997 40.256211
6.8282722 10.31788 40.255318
6.8878029 10.317515 40.252531
7.0713495 10.31639 40.243937
7.6372658 10.31292 40.217442
9.3821149 10.302224 40.13575
14.761884 10.269245 39.883877
31.348941 10.167563 39.107294
13.869119 38.571442 39.570416
13.881177 38.571368 39.569852
13.900265 38.571251 39.568958
13.959796 38.570886 39.566171
14.143342 38.569761 39.557578
14.709259 38.566292 39.531082
16.454108 38.555596 39.449391
21.833877 38.522616 39.197517
38.420934 38.420934 38.420934
