site/assets/luts/ocio-aces--sonyinputslog2-sgamut-to-aces2065-1--cbb60e272.cube
# LUTr-Project: LUTr — LUTrepository
# LUTr-Schema-Version: 1
# LUTr-ID: ocio-aces--sonyinputslog2-sgamut-to-aces2065-1--cbb60e272
# LUTr-Title: Sony.Input.SLog2 SGamut to ACES2065-1
# LUTr-Collection: OCIO ACES
# LUTr-Collection-ID: aswf-opencolorio-config-aces
# LUTr-Source: https://github.com/AcademySoftwareFoundation/OpenColorIO-Config-ACES
# LUTr-Source-File: submissions/aswf-opencolorio-config-aces/opencolorio_config_aces/clf/transforms/sony/input/Sony.Input.SLog2_SGamut_to_ACES2065-1.clf
# LUTr-Source-Format: CLF
# LUTr-Source-SHA256: 2f89ad4beed0c970cf57896cb48a045cdeb2b4aec0f4b1d8692b333bacaf4cce
# LUTr-License: BSD-3-Clause
# LUTr-License-URL: https://github.com/AcademySoftwareFoundation/OpenColorIO-Config-ACES/blob/main/LICENSE
# LUTr-Tags: technical, aces, ocio, clf, color-management, cube
# LUTr-Transform-Class: color-space-conversion
# LUTr-Input-Color-Space: Sony S-Log2 S-Gamut
# LUTr-Output-Color-Space: ACES2065-1
# LUTr-Color-Space-Confidence: descriptor-only
# LUTr-Conversion-Method: CLF operations evaluated as float and sampled to 33x33x33 3D CUBE
# LUTr-Conversion-Date: 2026-07-27
# LUTr-Conversion-Tool: LUTr scripts/convert-all-to-cube.mjs
# LUTr-Conversion-Grid: 33x33x33
# LUTr-Conversion-Warning: A sampled 3D CUBE is bounded to DOMAIN_MIN/MAX 0..1 and cannot preserve CLF values outside its input domain.
# LUTr-Upstream-ID: urn:aswf:ocio:transformId:1.0:Sony:Input:SLog2_SGamut_to_ACES2065-1:1.0
# LUTr-Upstream-Name: Sony S-Log2 S-Gamut to ACES2065-1
# LUTr-Upstream-Input-Descriptor: Sony S-Log2 S-Gamut
# LUTr-Upstream-Output-Descriptor: ACES2065-1
# LUTr-Upstream-Operations: Log → Matrix
# LUTr-Note: Preserve this metadata and the upstream license notices when redistributing.
TITLE "Sony.Input.SLog2 SGamut to ACES2065-1"
LUT_3D_SIZE 9
DOMAIN_MIN 0 0 0
DOMAIN_MAX 1 1 1
-0.026210564 -0.026210564 -0.026210564
0.0027580495 -0.02537543 -0.026572817
0.055868595 -0.023844309 -0.027236965
0.17135806 -0.020514869 -0.028681162
0.42249116 -0.013274965 -0.031821583
0.96858285 0.0024682849 -0.038650463
2.1560652 0.036702154 -0.053499939
4.7382586 0.11114408 -0.085790286
10.353266 0.27301886 -0.156006
-0.020694851 0.012850603 -0.026080898
0.0082737633 0.013685738 -0.026443151
0.061384309 0.015216859 -0.027107299
0.17687377 0.018546299 -0.028551495
0.42800688 0.025786203 -0.031691917
0.97409856 0.041529453 -0.038520797
2.1615809 0.075763322 -0.053370273
4.7437743 0.15020525 -0.08566062
10.358782 0.31208003 -0.15587633
-0.010582439 0.084464659 -0.025843171
0.018386175 0.085299793 -0.026205424
0.071496721 0.086830915 -0.026869571
0.18698618 0.090160354 -0.028313768
0.43811929 0.097400258 -0.031454189
0.98421098 0.11314351 -0.03828307
2.1716933 0.14737738 -0.053132545
4.7538867 0.2218193 -0.085422892
10.368895 0.38369408 -0.15563861
0.011407113 0.24019021 -0.02532623
0.040375727 0.24102534 -0.025688482
0.093486272 0.24255646 -0.02635263
0.20897574 0.2458859 -0.027796827
0.46010884 0.25312581 -0.030937248
1.0062005 0.26886906 -0.037766128
2.1936829 0.30310293 -0.052615604
4.7758763 0.37754485 -0.084905951
10.390884 0.53941963 -0.15512166
0.059223633 0.57881712 -0.024202135
0.088192247 0.57965225 -0.024564388
0.14130279 0.58118337 -0.025228536
0.25679226 0.58451281 -0.026672732
0.50792536 0.59175272 -0.029813153
1.054017 0.60749597 -0.036642034
2.2414994 0.64172984 -0.051491509
4.8236928 0.71617176 -0.083781856
10.438701 0.87804654 -0.15399757
0.16320118 1.315165 -0.02175778
0.19216979 1.3160002 -0.022120032
0.24528034 1.3175313 -0.02278418
0.3607698 1.3208607 -0.024228377
0.61190291 1.3281006 -0.027368798
1.1579946 1.3438439 -0.034197678
2.345477 1.3780778 -0.049047154
4.9276704 1.4525197 -0.081337501
10.542678 1.6143945 -0.15155321
0.3893015 2.9163617 -0.016442502
0.41827011 2.9171968 -0.016804754
0.47138066 2.9187279 -0.017468902
0.58687012 2.9220574 -0.018913099
0.83800322 2.9292973 -0.02205352
1.3840949 2.9450405 -0.028882401
2.5715773 2.9792744 -0.043731876
5.1537707 3.0537163 -0.076022223
10.768779 3.2155911 -0.14623794
0.88095911 6.3981813 -0.0048843717
0.90992772 6.3990165 -0.0052466244
0.96303827 6.4005476 -0.0059107722
1.0785277 6.403877 -0.0073549687
1.3296608 6.4111169 -0.01049539
1.8757525 6.4268602 -0.01732427
3.0632349 6.4610941 -0.032173746
5.6454283 6.535536 -0.064464093
11.260436 6.6974108 -0.13467981
1.950074 13.969436 0.020248909
1.9790426 13.970271 0.019886656
2.0321531 13.971803 0.019222508
2.1476426 13.975132 0.017778312
2.3987757 13.982372 0.01463789
2.9448674 13.998115 0.00780901
4.1323498 14.032349 -0.0070404654
6.7145432 14.106791 -0.039330812
12.329551 14.268666 -0.10954653
-0.022223068 -0.027635043 0.012493846
0.0067455459 -0.026799908 0.012131594
0.059856091 -0.025268787 0.011467446
0.17534555 -0.021939347 0.010023249
0.42647866 -0.014699443 0.006882828
0.97257035 0.0010438066 0.000053947502
2.1600527 0.035277676 -0.014795528
4.7422461 0.1097196 -0.047085875
10.357254 0.27159438 -0.11730159
-0.016707354 0.011426125 0.012623512
0.01226126 0.01226126 0.01226126
0.065371805 0.013792381 0.011597112
0.18086127 0.017121821 0.010152915
0.43199437 0.024361725 0.0070124941
0.97808606 0.040104974 0.00018361363
2.1655684 0.074338844 -0.014665862
4.7477618 0.14878077 -0.046956209
10.36277 0.31065555 -0.11717192
-0.0065949421 0.08304018 0.01286124
0.022373672 0.083875315 0.012498987
0.075484217 0.085406436 0.011834839
0.19097368 0.088735876 0.010390643
0.44210678 0.09597578 0.0072502217
0.98819847 0.11171903 0.00042134121
2.1756808 0.1459529 -0.014428134
4.7578742 0.22039482 -0.046718481
10.372882 0.3822696 -0.11693419
0.015394609 0.23876573 0.013378181
0.044363223 0.23960086 0.013015928
0.097473769 0.24113198 0.012351781
0.21296323 0.24446142 0.010907584
0.46409634 0.25170133 0.0077671629
1.010188 0.26744458 0.00093828244
2.1976704 0.30167845 -0.013911193
4.7798638 0.37612037 -0.04620154
10.394872 0.53799515 -0.11641725
0.063211129 0.57739264 0.014502276
0.092179743 0.57822777 0.014140023
0.14529029 0.5797589 0.013475875
0.26077975 0.58308834 0.012031679
0.51191286 0.59032824 0.0088912573
1.0580045 0.60607149 0.0020623768
2.2454869 0.64030536 -0.012787099
4.8276803 0.71474728 -0.045077446
10.442688 0.87662206 -0.11529316
0.16718868 1.3137406 0.016946631
0.19615729 1.3145757 0.016584378
0.24926784 1.3161068 0.015920231
0.3647573 1.3194363 0.014476034
0.6158904 1.3266762 0.011335613
1.1619821 1.3424194 0.0045067323
2.3494644 1.3766533 -0.010342743
4.9316579 1.4510952 -0.04263309
10.546666 1.61297 -0.1128488
0.39328899 2.9149372 0.022261909
0.42225761 2.9157724 0.021899656
0.47536815 2.9173035 0.021235509
0.59085761 2.9206329 0.019791312
0.84199072 2.9278728 0.016650891
1.3880824 2.9436161 0.0098220102
2.5755648 2.9778499 -0.0050274652
5.1577582 3.0522919 -0.037317812
10.772766 3.2141666 -0.10753353
0.88494661 6.3967569 0.033820039
0.91391522 6.397592 0.033457786
0.96702577 6.3991231 0.032793639
1.0825152 6.4024526 0.031349442
1.3336483 6.4096925 0.028209021
1.87974 6.4254357 0.02138014
3.0672224 6.4596696 0.0065306649
5.6494158 6.5341115 -0.025759682
11.264424 6.6959863 -0.095975396
1.9540615 13.968012 0.05895332
1.9830301 13.968847 0.058591067
2.0361406 13.970378 0.057926919
2.1516301 13.973708 0.056482723
2.4027632 13.980947 0.053342301
2.9488549 13.996691 0.046513421
4.1363373 14.030925 0.031663945
6.7185307 14.105367 -0.00062640164
12.333539 14.267241 -0.070842115
-0.014912463 -0.030246656 0.08345383
0.014056151 -0.029411521 0.083091577
0.067166697 -0.0278804 0.082427429
0.18265616 -0.02455096 0.080983233
0.43378926 -0.017311056 0.077842811
0.97988095 -0.0015678067 0.071013931
2.1673633 0.032666063 0.056164456
4.7495567 0.10710799 0.023874109
10.364565 0.26898277 -0.046341605
-0.0093967488 0.0088145116 0.083583496
0.019571865 0.0096496464 0.083221243
0.072682411 0.011180768 0.082557095
0.18817187 0.014510208 0.081112899
0.43930498 0.021750111 0.077972478
0.98539667 0.037493361 0.071143597
2.172879 0.07172723 0.056294122
4.7550724 0.14616915 0.024003775
10.37008 0.30804393 -0.046211939
0.00071566341 0.080428567 0.083821223
0.029684277 0.081263702 0.083458971
0.082794823 0.082794823 0.082794823
0.19828429 0.086124263 0.081350626
0.44941739 0.093364167 0.078210205
0.99550908 0.10910742 0.071381325
2.1829914 0.14334129 0.056531849
4.7651848 0.21778321 0.024241502
10.380193 0.37965799 -0.045974211
0.022705215 0.23615412 0.084338165
0.051673829 0.23698925 0.083975912
0.10478437 0.23852037 0.083311764
0.22027384 0.24184981 0.081867568
0.47140694 0.24908971 0.078727146
1.0174986 0.26483296 0.071898266
2.204981 0.29906683 0.05704879
4.7871744 0.37350876 0.024758443
10.402182 0.53538354 -0.04545727
0.070521735 0.57478103 0.085462259
0.099490349 0.57561616 0.085100006
0.15260089 0.57714728 0.084435859
0.26809036 0.58047672 0.082991662
0.51922346 0.58771663 0.079851241
1.0653151 0.60345988 0.07302236
2.2527975 0.63769375 0.058172885
4.8349909 0.71213567 0.025882538
10.449999 0.87401045 -0.044333176
0.17449928 1.311129 0.087906615
0.2034679 1.3119641 0.087544362
0.25657844 1.3134952 0.086880214
0.3720679 1.3168247 0.085436018
0.62320101 1.3240646 0.082295596
1.1692927 1.3398078 0.075466716
2.3567751 1.3740417 0.06061724
4.9389685 1.4484836 0.028326893
10.553976 1.6103584 -0.04188882
0.4005996 2.9123256 0.093221892
0.42956821 2.9131607 0.09285964
0.48267876 2.9146919 0.092195492
0.59816822 2.9180213 0.090751295
0.84930132 2.9252612 0.087610874
1.395393 2.9410045 0.080781994
2.5828754 2.9752383 0.065932518
5.1650688 3.0496802 0.033642171
10.780077 3.211555 -0.036573542
0.89225721 6.3941453 0.10478002
0.92122583 6.3949804 0.10441777
0.97433637 6.3965115 0.10375362
1.0898258 6.399841 0.10230943
1.3409589 6.4070809 0.099169004
1.8870506 6.4228241 0.092340124
3.074533 6.457058 0.077490648
5.6567264 6.5314999 0.045200301
11.271734 6.6933747 -0.025015412
1.9613721 13.9654 0.1299133
1.9903407 13.966235 0.12955105
2.0434512 13.967767 0.1288869
2.1589407 13.971096 0.12744271
2.4100738 13.978336 0.12430228
2.9561655 13.994079 0.1174734
4.1436479 14.028313 0.10262393
6.7258413 14.102755 0.070333582
12.340849 14.26463 0.0001178683
0.00098452927 -0.035925638 0.23775709
0.029953143 -0.035090503 0.23739484
0.083063689 -0.033559382 0.23673069
0.19855315 -0.030229942 0.23528649
0.44968626 -0.022990038 0.23214607
0.99577794 -0.0072467884 0.22531719
2.1832603 0.026987081 0.21046772
4.7654537 0.101429 0.17817737
10.380462 0.26330378 0.10796166
0.006500243 0.0031355299 0.23788676
0.035468857 0.0039706646 0.2375245
0.088579403 0.0055017859 0.23686036
0.20406887 0.0088312258 0.23541616
0.45520197 0.016071129 0.23227574
1.0012937 0.031814379 0.22544686
2.188776 0.066048249 0.21059738
4.7709694 0.14049017 0.17830704
10.385977 0.30236495 0.10809132
0.016612655 0.074749585 0.23812449
0.045581269 0.07558472 0.23776223
0.098691815 0.077115841 0.23709808
0.21418128 0.080445281 0.23565389
0.46531438 0.087685185 0.23251347
1.0114061 0.10342843 0.22568459
2.1988884 0.1376623 0.21083511
4.7810818 0.21210423 0.17854476
10.39609 0.37397901 0.10832905
0.038602206 0.23047513 0.23864143
0.06757082 0.23131027 0.23827917
0.12068137 0.23284139 0.23761503
0.23617083 0.23617083 0.23617083
0.48730393 0.24341073 0.23303041
1.0333956 0.25915398 0.22620153
2.220878 0.29338785 0.21135205
4.8030714 0.36782978 0.17906171
10.418079 0.52970456 0.10884599
0.086418727 0.56910204 0.23976552
0.11538734 0.56993718 0.23940327
0.16849789 0.5714683 0.23873912
0.28398735 0.57479774 0.23729492
0.53512045 0.58203764 0.2341545
1.0812121 0.59778089 0.22732562
2.2686945 0.63201476 0.21247615
4.8508879 0.70645669 0.1801858
10.465896 0.86833147 0.10997009
0.19039627 1.30545 0.24220988
0.21936489 1.3062851 0.24184762
0.27247543 1.3078162 0.24118348
0.3879649 1.3111457 0.23973928
0.639098 1.3183856 0.23659886
1.1851897 1.3341288 0.22976998
2.372672 1.3683627 0.2149205
4.9548655 1.4428046 0.18263016
10.569873 1.6046794 0.11241444
0.41649659 2.9066466 0.24752515
0.4454652 2.9074818 0.2471629
0.49857575 2.9090129 0.24649875
0.61406521 2.9123423 0.24505456
0.86519832 2.9195822 0.24191414
1.41129 2.9353255 0.23508526
2.5987724 2.9695593 0.22023578
5.1809658 3.0440013 0.18794543
10.795974 3.205876 0.11772972
0.9081542 6.3884663 0.25908328
0.93712282 6.3893014 0.25872103
0.99023336 6.3908325 0.25805688
1.1057228 6.394162 0.25661269
1.3568559 6.4014019 0.25347227
1.9029476 6.4171451 0.24664339
3.09043 6.451379 0.23179391
5.6726234 6.5258209 0.19950356
11.287631 6.6876957 0.12928785
1.9772691 13.959721 0.28421656
2.0062377 13.960556 0.28385431
2.0593482 13.962088 0.28319016
2.1748377 13.965417 0.28174597
2.4259708 13.972657 0.27860555
2.9720625 13.9884 0.27177667
4.1595448 14.022634 0.25692719
6.7417383 14.097076 0.22463684
12.356746 14.258951 0.15442113
0.035552712 -0.048274646 0.57329123
0.064521326 -0.047439511 0.57292897
0.11763187 -0.04590839 0.57226482
0.23312134 -0.04257895 0.57082063
0.48425444 -0.035339046 0.56768021
1.0303461 -0.019595796 0.56085133
2.2178285 0.014638073 0.54600185
4.8000219 0.089079997 0.5137115
10.41503 0.25095478 0.44349579
0.041068426 -0.0092134782 0.57342089
0.07003704 -0.0083783435 0.57305864
0.12314759 -0.0068472222 0.57239449
0.23863705 -0.0035177823 0.57095029
0.48977015 0.0037221214 0.56780987
1.0358618 0.019465371 0.56098099
2.2233442 0.053699241 0.54613152
4.8055376 0.12814116 0.51384117
10.420545 0.29001594 0.44362546
0.051180838 0.062400577 0.57365862
0.080149452 0.063235712 0.57329637
0.13326 0.064766833 0.57263222
0.24874946 0.068096273 0.57118802
0.49988257 0.075336177 0.5680476
1.0459743 0.091079427 0.56121872
2.2334566 0.1253133 0.54636924
4.81565 0.19975522 0.5140789
10.430658 0.36163 0.44386318
0.073170389 0.21812613 0.57417556
0.102139 0.21896126 0.57381331
0.15524955 0.22049238 0.57314916
0.27073901 0.22382182 0.57170496
0.52187212 0.23106172 0.56856454
1.0679638 0.24680497 0.56173566
2.2554462 0.28103884 0.54688619
4.8376396 0.35548077 0.51459584
10.452647 0.51735555 0.44438013
0.12098691 0.55675304 0.57529965
0.14995552 0.55758817 0.5749374
0.20306607 0.55911929 0.57427325
0.31855553 0.56244873 0.57282906
0.56968864 0.56968864 0.56968864
1.1157803 0.58543189 0.56285976
2.3032627 0.61966576 0.54801028
4.8854561 0.69410768 0.51571993
10.500464 0.85598246 0.44550422
0.22496446 1.293101 0.57774401
0.25393307 1.2939361 0.57738176
0.30704362 1.2954672 0.57671761
0.42253308 1.2987967 0.57527341
0.67366618 1.3060366 0.57213299
1.2197579 1.3217798 0.56530411
2.4072402 1.3560137 0.55045464
4.9894336 1.4304556 0.51816429
10.604441 1.5923304 0.44794858
0.45106477 2.8942976 0.58305929
0.48003339 2.8951327 0.58269704
0.53314393 2.8966639 0.58203289
0.6486334 2.8999933 0.58058869
0.8997665 2.9072332 0.57744827
1.4458582 2.9229765 0.57061939
2.6333405 2.9572103 0.55576991
5.2155339 3.0316523 0.52347957
10.830542 3.193527 0.45326385
0.94272239 6.3761173 0.59461742
0.971691 6.3769524 0.59425517
1.0248015 6.3784835 0.59359102
1.140291 6.381813 0.59214682
1.3914241 6.3890529 0.5890064
1.9375158 6.4047961 0.58217752
3.1249982 6.43903 0.56732804
5.7071916 6.5134719 0.5350377
11.322199 6.6753467 0.46482198
2.0118373 13.947372 0.6197507
2.0408059 13.948207 0.61938845
2.0939164 13.949739 0.6187243
2.2094059 13.953068 0.6172801
2.460539 13.960308 0.61413968
3.0066307 13.976051 0.6073108
4.194113 14.010285 0.59246132
6.7763064 14.084727 0.56017098
12.391314 14.246602 0.48995526
0.1107216 -0.075127699 1.3029139
0.13969022 -0.074292565 1.3025516
0.19280076 -0.072761443 1.3018875
0.30829023 -0.069432003 1.3004433
0.55942333 -0.0621921 1.2973029
1.105515 -0.04644885 1.290474
2.2929974 -0.012214981 1.2756245
4.8751908 0.062226943 1.2433342
10.490199 0.22410172 1.1731184
0.11623732 -0.036066532 1.3030435
0.14520593 -0.035231397 1.3026813
0.19831648 -0.033700276 1.3020171
0.31380594 -0.030370836 1.3005729
0.56493905 -0.023130932 1.2974325
1.1110307 -0.0073876822 1.2906036
2.2985131 0.026846187 1.2757542
4.8807065 0.10128811 1.2434638
10.495714 0.26316289 1.1732481
0.12634973 0.035547524 1.3032813
0.15531834 0.036382658 1.302919
0.20842889 0.03791378 1.3022549
0.32391835 0.04124322 1.3008107
0.57505146 0.048483123 1.2976703
1.1211431 0.064226373 1.2908414
2.3086255 0.098460242 1.2759919
4.8908189 0.17290217 1.2437015
10.505827 0.33477695 1.1734858
0.14833928 0.19127307 1.3037982
0.1773079 0.19210821 1.303436
0.23041844 0.19363933 1.3027718
0.34590791 0.19696877 1.3013276
0.59704101 0.20420867 1.2981872
1.1431327 0.21995192 1.2913583
2.3306151 0.25418579 1.2765088
4.9128085 0.32862771 1.2442185
10.527816 0.49050249 1.1740028
0.1961558 0.52989998 1.3049223
0.22512442 0.53073512 1.3045601
0.27823496 0.53226624 1.3038959
0.39372443 0.53559568 1.3024517
0.64485753 0.54283558 1.2993113
1.1909492 0.55857883 1.2924824
2.3784316 0.5928127 1.2776329
4.960625 0.66725463 1.2453426
10.575633 0.82912941 1.1751269
0.30013335 1.2662479 1.3073667
0.32910196 1.267083 1.3070044
0.38221251 1.2686142 1.3063403
0.49770197 1.2719436 1.3048961
0.74883508 1.2791835 1.3017556
1.2949268 1.2949268 1.2949268
2.4824091 1.3291606 1.2800773
5.0646025 1.4036026 1.2477869
10.67961 1.5654773 1.1775712
0.52623367 2.8674446 1.3126819
0.55520228 2.8682797 1.3123197
0.60831282 2.8698108 1.3116555
0.72380229 2.8731403 1.3102113
0.97493539 2.8803802 1.3070709
1.5210271 2.8961234 1.300242
2.7085094 2.9303573 1.2853926
5.2907028 3.0047992 1.2531022
10.905711 3.166674 1.1828865
1.0178913 6.3492642 1.3242401
1.0468599 6.3500993 1.3238778
1.0999704 6.3516305 1.3232137
1.2154599 6.3549599 1.3217695
1.466593 6.3621998 1.3186291
2.0126847 6.3779431 1.3118002
3.2001671 6.4121769 1.2969507
5.7823605 6.4866189 1.2646603
11.397368 6.6484936 1.1944446
2.0870062 13.920519 1.3493734
2.1159748 13.921354 1.3490111
2.1690853 13.922885 1.3483469
2.2845748 13.926215 1.3469028
2.5357079 13.933455 1.3437623
3.0817996 13.949198 1.3369335
4.2692819 13.983432 1.322084
6.8514753 14.057874 1.2897936
12.466483 14.219749 1.2195779
0.27417719 -0.13351996 2.8894863
0.3031458 -0.13268482 2.8891241
0.35625635 -0.1311537 2.8884599
0.47174581 -0.12782426 2.8870157
0.72287891 -0.12058436 2.8838753
1.2689706 -0.10484111 2.8770464
2.456453 -0.07060724 2.862197
5.0386464 0.0038346845 2.8299066
10.653654 0.16570946 2.7596909
0.2796929 -0.094458791 2.889616
0.30866151 -0.093623656 2.8892537
0.36177206 -0.092092535 2.8885896
0.47726152 -0.088763095 2.8871454
0.72839463 -0.081523191 2.884005
1.2744863 -0.065779941 2.8771761
2.4619687 -0.031546072 2.8623266
5.0441621 0.042895852 2.8300363
10.65917 0.20477063 2.7598206
0.28980531 -0.022844735 2.8898537
0.31877393 -0.0220096 2.8894915
0.37188447 -0.020478479 2.8888273
0.48737394 -0.017149039 2.8873831
0.73850704 -0.0099091356 2.8842427
1.2845987 0.0058341142 2.8774138
2.4720811 0.040067984 2.8625643
5.0542745 0.11450991 2.830274
10.669282 0.27638469 2.7600583
0.31179486 0.13288081 2.8903707
0.34076348 0.13371595 2.8900084
0.39387402 0.13524707 2.8893443
0.50936349 0.13857651 2.8879001
0.76049659 0.14581641 2.8847596
1.3065883 0.16155966 2.8779308
2.4940706 0.19579353 2.8630813
5.076264 0.27023546 2.8307909
10.691272 0.43211024 2.7605752
0.35961138 0.47150772 2.8914948
0.38858 0.47234286 2.8911325
0.44169054 0.47387398 2.8904684
0.55718001 0.47720342 2.8890242
0.80831311 0.48444332 2.8858837
1.3544048 0.50018657 2.8790549
2.5418872 0.53442044 2.8642054
5.1240806 0.60886237 2.831915
10.739088 0.77073715 2.7616993
0.46358893 1.2078557 2.8939391
0.49255754 1.2086908 2.8935769
0.54566809 1.2102219 2.8929127
0.66115755 1.2135514 2.8914685
0.91229066 1.2207913 2.8883281
1.4583823 1.2365345 2.8814992
2.6458647 1.2707684 2.8666497
5.2280581 1.3452103 2.8343594
10.843066 1.5070851 2.7641437
0.68968925 2.8090523 2.8992544
0.71865786 2.8098874 2.8988921
0.77176841 2.8114186 2.898228
0.88725787 2.814748 2.8967838
1.138391 2.8219879 2.8936434
1.6844827 2.8377311 2.8868145
2.871965 2.871965 2.871965
5.4541584 2.9464069 2.8396747
11.069166 3.1082817 2.769459
1.1813469 6.290872 2.9108125
1.2103155 6.2917071 2.9104503
1.263426 6.2932382 2.9097861
1.3789155 6.2965677 2.9083419
1.6300486 6.3038076 2.9052015
2.1761403 6.3195508 2.8983726
3.3636226 6.3537847 2.8835231
5.945816 6.4282266 2.8512328
11.560824 6.5901014 2.7810171
2.2504617 13.862127 2.9359458
2.2794303 13.862962 2.9355836
2.3325409 13.864493 2.9349194
2.4480304 13.867823 2.9334752
2.6991635 13.875063 2.9303348
3.2452551 13.890806 2.9235059
4.4327375 13.92504 2.9086564
7.0149309 13.999482 2.8763661
12.629939 14.161356 2.8061504
0.62961314 -0.26049457 6.3395055
0.65858175 -0.25965943 6.3391433
0.7116923 -0.25812831 6.3384791
0.82718176 -0.25479887 6.3370349
1.0783149 -0.24755897 6.3338945
1.6244066 -0.23181572 6.3270656
2.8118889 -0.19758185 6.3122161
5.3940823 -0.12313992 6.2799258
11.00909 0.038734857 6.2097101
0.63512885 -0.2214334 6.3396352
0.66409747 -0.22059826 6.3392729
0.71720801 -0.21906714 6.3386088
0.83269748 -0.2157377 6.3371646
1.0838306 -0.2084978 6.3340242
1.6299223 -0.19275455 6.3271953
2.8174046 -0.15852068 6.3123458
5.399598 -0.084078755 6.2800555
11.014606 0.077796025 6.2098398
0.64524126 -0.14981934 6.3398729
0.67420988 -0.14898421 6.3395107
0.72732042 -0.14745309 6.3388465
0.84280989 -0.14412365 6.3374023
1.093943 -0.13688374 6.3342619
1.6400347 -0.12114049 6.327433
2.827517 -0.086906624 6.3125835
5.4097104 -0.0124647 6.2802932
11.024718 0.14941008 6.2100775
0.66723082 0.005906206 6.3403899
0.69619943 0.0067413407 6.3400276
0.74930998 0.008272462 6.3393635
0.86479944 0.011601902 6.3379193
1.1159325 0.018841806 6.3347788
1.6620242 0.034585055 6.32795
2.8495066 0.068818925 6.3131005
5.4317 0.14326085 6.2808101
11.046708 0.30513563 6.2105944
0.71504734 0.34453312 6.3415139
0.74401595 0.34536825 6.3411517
0.7971265 0.34689937 6.3404875
0.91261596 0.35022881 6.3390434
1.1637491 0.35746872 6.3359029
1.7098408 0.37321197 6.329074
2.8973231 0.40744584 6.3142246
5.4795165 0.48188776 6.2819342
11.094524 0.64376254 6.2117185
0.81902488 1.080881 6.3439583
0.8479935 1.0817162 6.3435961
0.90110404 1.0832473 6.3429319
1.0165935 1.0865767 6.3414877
1.2677266 1.0938166 6.3383473
1.8138183 1.1095599 6.3315184
3.0013007 1.1437938 6.3166689
5.5834941 1.2182357 6.2843786
11.198502 1.3801105 6.2141629
1.0451252 2.6820777 6.3492736
1.0740938 2.6829128 6.3489113
1.1272044 2.6844439 6.3482472
1.2426938 2.6877734 6.346803
1.4938269 2.6950133 6.3436626
2.0399186 2.7107565 6.3368337
3.227401 2.7449904 6.3219842
5.8095944 2.8194323 6.2896939
11.424602 2.9813071 6.2194781
1.5367828 6.1638973 6.3608317
1.5657514 6.1647325 6.3604695
1.618862 6.1662636 6.3598053
1.7343514 6.169593 6.3583611
1.9854845 6.1768329 6.3552207
2.5315762 6.1925762 6.3483918
3.7190586 6.2268101 6.3335423
6.301252 6.301252 6.301252
11.91626 6.4631268 6.2310363
2.6058977 13.735152 6.385965
2.6348663 13.735987 6.3856027
2.6879768 13.737519 6.3849386
2.8034663 13.740848 6.3834944
3.0545994 13.748088 6.380354
3.6006911 13.763831 6.3735251
4.7881735 13.798065 6.3586756
7.3703669 13.872507 6.3263853
12.985375 14.034382 6.2561696
1.4025125 -0.53660224 13.84161
1.4314811 -0.53576711 13.841248
1.4845917 -0.53423598 13.840584
1.6000811 -0.53090654 13.839139
1.8512142 -0.52366664 13.835999
2.3973059 -0.50792339 13.82917
3.5847883 -0.47368952 13.814321
6.1669817 -0.3992476 13.78203
11.78199 -0.23737282 13.711815
1.4080282 -0.49754107 13.84174
1.4369968 -0.49670594 13.841377
1.4901074 -0.49517482 13.840713
1.6055969 -0.49184538 13.839269
1.85673 -0.48460547 13.836129
2.4028216 -0.46886222 13.8293
3.590304 -0.43462835 13.81445
6.1724974 -0.36018643 13.78216
11.787505 -0.19831165 13.711944
1.4181406 -0.42592702 13.841977
1.4471093 -0.42509188 13.841615
1.5002198 -0.42356076 13.840951
1.6157093 -0.42023132 13.839507
1.8668424 -0.41299142 13.836366
2.4129341 -0.39724817 13.829538
3.6004164 -0.3630143 13.814688
6.1826098 -0.28857237 13.782398
11.797618 -0.12669759 13.712182
1.4401302 -0.27020147 13.842494
1.4690988 -0.26936633 13.842132
1.5222094 -0.26783521 13.841468
1.6376988 -0.26450577 13.840024
1.8888319 -0.25726587 13.836883
2.4349236 -0.24152262 13.830054
3.622406 -0.20728875 13.815205
6.2045994 -0.13284683 13.782915
11.819607 0.029027954 13.712699
1.4879467 0.068425443 13.843618
1.5169153 0.069260577 13.843256
1.5700259 0.070791699 13.842592
1.6855153 0.074121139 13.841148
1.9366484 0.081361042 13.838007
2.4827401 0.097104292 13.831179
3.6702225 0.13133816 13.816329
6.2524159 0.20578009 13.784039
11.867424 0.36765487 13.713823
1.5919243 0.80477337 13.846063
1.6208929 0.80560851 13.845701
1.6740034 0.80713963 13.845036
1.7894929 0.81046907 13.843592
2.040626 0.81770897 13.840452
2.5867177 0.83345222 13.833623
3.7742 0.86768609 13.818773
6.3563934 0.94212802 13.786483
11.971401 1.1040028 13.716267
1.8180246 2.40597 13.851378
1.8469932 2.4068052 13.851016
1.9001037 2.4083363 13.850352
2.0155932 2.4116657 13.848908
2.2667263 2.4189056 13.845767
2.812818 2.4346489 13.838938
4.0003003 2.4688827 13.824089
6.5824938 2.5433247 13.791798
12.197502 2.7051994 13.721583
2.3096822 5.8877897 13.862936
2.3386508 5.8886248 13.862574
2.3917613 5.8901559 13.86191
2.5072508 5.8934854 13.860466
2.7583839 5.9007253 13.857325
3.3044756 5.9164685 13.850496
4.491958 5.9507024 13.835647
7.0741514 6.0251443 13.803357
12.689159 6.1870191 13.733141
3.3787971 13.459045 13.88807
3.4077657 13.45988 13.887707
3.4608762 13.461411 13.887043
3.5763657 13.46474 13.885599
3.8274988 13.47198 13.882459
4.3735905 13.487724 13.87563
5.5610728 13.521957 13.86078
8.1432662 13.596399 13.82849
13.758274 13.758274 13.758274
