site/assets/luts/ocio-aces--ocioutilityap0-to-linear-rec709--0cbf8af93.cube
# LUTr-Project: LUTr — LUTrepository
# LUTr-Schema-Version: 1
# LUTr-ID: ocio-aces--ocioutilityap0-to-linear-rec709--0cbf8af93
# LUTr-Title: OCIO.Utility.AP0 to Linear Rec709
# LUTr-Collection: OCIO ACES
# LUTr-Collection-ID: aswf-opencolorio-config-aces
# LUTr-Source: https://github.com/AcademySoftwareFoundation/OpenColorIO-Config-ACES
# LUTr-Source-File: submissions/aswf-opencolorio-config-aces/opencolorio_config_aces/clf/transforms/ocio/utility/OCIO.Utility.AP0_to_Linear_Rec709.clf
# LUTr-Source-Format: CLF
# LUTr-Source-SHA256: d15b67c61507a44f5abeba61e37663cabe3c85986eda0238176894eaa228e11b
# LUTr-License: BSD-3-Clause
# LUTr-License-URL: https://github.com/AcademySoftwareFoundation/OpenColorIO-Config-ACES/blob/main/LICENSE
# LUTr-Tags: technical, aces, ocio, clf, color-management, cube
# LUTr-Transform-Class: color-space-conversion
# LUTr-Input-Color-Space: ACES2065-1
# LUTr-Output-Color-Space: linear Rec.709 primaries, D65 white point
# LUTr-Color-Space-Confidence: descriptor-only
# LUTr-Conversion-Method: CLF operations evaluated as float and sampled to 33x33x33 3D CUBE
# LUTr-Conversion-Date: 2026-07-27
# LUTr-Conversion-Tool: LUTr scripts/convert-all-to-cube.mjs
# LUTr-Conversion-Grid: 33x33x33
# LUTr-Conversion-Warning: A sampled 3D CUBE is bounded to DOMAIN_MIN/MAX 0..1 and cannot preserve CLF values outside its input domain.
# LUTr-Upstream-ID: urn:aswf:ocio:transformId:1.0:OCIO:Utility:AP0_to_Linear_Rec709:1.0
# LUTr-Upstream-Name: AP0 to Linear Rec.709 (sRGB)
# LUTr-Upstream-Input-Descriptor: ACES2065-1
# LUTr-Upstream-Output-Descriptor: linear Rec.709 primaries, D65 white point
# LUTr-Upstream-Operations: Matrix
# LUTr-Note: Preserve this metadata and the upstream license notices when redistributing.
TITLE "OCIO.Utility.AP0 to Linear Rec709"
LUT_3D_SIZE 9
DOMAIN_MIN 0 0 0
DOMAIN_MAX 1 1 1
0 0 0
0.31521077 -0.034559989 -0.0019222581
0.63042155 -0.069119979 -0.0038445162
0.94563232 -0.10367997 -0.0057667744
1.2608431 -0.13823996 -0.0076890325
1.5760539 -0.17279995 -0.0096112906
1.8912646 -0.20735994 -0.011533549
2.2064754 -0.24191992 -0.013455807
2.5216862 -0.27647991 -0.015378065
-0.14176637 0.17158989 -0.019121917
0.1734444 0.1370299 -0.021044175
0.48865517 0.10246991 -0.022966433
0.80386595 0.067909918 -0.024888691
1.1190767 0.033349929 -0.026810949
1.4342875 -0.0012100604 -0.028733208
1.7494983 -0.03577005 -0.030655466
2.064709 -0.070330039 -0.032577724
2.3799198 -0.10489003 -0.034499982
-0.28353275 0.34317977 -0.038243834
0.031678026 0.30861978 -0.040166092
0.3468888 0.27405979 -0.04208835
0.66209957 0.2394998 -0.044010608
0.97731035 0.20493981 -0.045932866
1.2925211 0.17037983 -0.047855125
1.6077319 0.13581984 -0.049777383
1.9229427 0.10125985 -0.051699641
2.2381534 0.066699858 -0.053621899
-0.42529912 0.51476966 -0.057365751
-0.11008835 0.48020967 -0.059288009
0.20512243 0.44564968 -0.061210267
0.5203332 0.41108969 -0.063132525
0.83554397 0.3765297 -0.065054783
1.1507547 0.34196971 -0.066977042
1.4659655 0.30740972 -0.0688993
1.7811763 0.27284973 -0.070821558
2.0963871 0.23828974 -0.072743816
-0.56706549 0.68635954 -0.076487668
-0.25185472 0.65179955 -0.078409926
0.063356053 0.61723957 -0.080332184
0.37856683 0.58267958 -0.082254442
0.6937776 0.54811959 -0.0841767
1.0089884 0.5135596 -0.086098959
1.3241991 0.47899961 -0.088021217
1.6394099 0.44443962 -0.089943475
1.9546207 0.40987963 -0.091865733
-0.70883187 0.85794943 -0.095609585
-0.39362109 0.82338944 -0.097531843
-0.078410321 0.78882945 -0.099454101
0.23680045 0.75426946 -0.10137636
0.55201123 0.71970947 -0.10329862
0.867222 0.68514948 -0.10522088
1.1824328 0.65058949 -0.10714313
1.4976435 0.6160295 -0.10906539
1.8128543 0.58146952 -0.11098765
-0.85059824 1.0295393 -0.1147315
-0.53538747 0.99497933 -0.11665376
-0.22017669 0.96041934 -0.11857602
0.095034079 0.92585935 -0.12049828
0.41024485 0.89129936 -0.12242053
0.72545563 0.85673937 -0.12434279
1.0406664 0.82217938 -0.12626505
1.3558772 0.78761939 -0.12818731
1.6710879 0.7530594 -0.13010957
-0.99236461 1.2011292 -0.13385342
-0.67715384 1.1665692 -0.13577568
-0.36194307 1.1320092 -0.13769794
-0.046732295 1.0974492 -0.13962019
0.26847848 1.0628892 -0.14154245
0.58368925 1.0283293 -0.14346471
0.89890003 0.99376927 -0.14538697
1.2141108 0.95920928 -0.14730923
1.5293216 0.92464929 -0.14923148
-1.134131 1.3727191 -0.15297534
-0.81892021 1.3381591 -0.15489759
-0.50370944 1.3035991 -0.15681985
-0.18849867 1.2690391 -0.15874211
0.12671211 1.2344791 -0.16066437
0.44192288 1.1999191 -0.16258663
0.75713365 1.1653592 -0.16450888
1.0723444 1.1307992 -0.16643114
1.3875552 1.0962392 -0.1683534
-0.0484444 -0.012029897 0.14604418
0.26676637 -0.046589886 0.14412192
0.58197715 -0.081149875 0.14219966
0.89718792 -0.11570986 0.1402774
1.2123987 -0.15026985 0.13835514
1.5276095 -0.18482984 0.13643288
1.8428202 -0.21938983 0.13451063
2.158031 -0.25394982 0.13258837
2.4732418 -0.28850981 0.13066611
-0.19021077 0.15955999 0.12692226
0.125 0.125 0.125
0.44021077 0.090440011 0.12307774
0.75542155 0.055880021 0.12115548
1.0706323 0.021320032 0.11923323
1.3858431 -0.013239957 0.11731097
1.7010539 -0.047799946 0.11538871
2.0162646 -0.082359936 0.11346645
2.3314754 -0.11691992 0.11154419
-0.33197715 0.33114988 0.10780034
-0.016766374 0.29658989 0.10587808
0.2984444 0.2620299 0.10395582
0.61365517 0.22746991 0.10203357
0.92886595 0.19290992 0.10011131
1.2440767 0.15834993 0.098189051
1.5592875 0.12378994 0.096266792
1.8744983 0.08922995 0.094344534
2.189709 0.054669961 0.092422276
-0.47374352 0.50273976 0.088678424
-0.15853275 0.46817977 0.086756166
0.15667803 0.43361978 0.084833908
0.4718888 0.39905979 0.08291165
0.78709957 0.3644998 0.080989392
1.1023103 0.32993981 0.079067134
1.4175211 0.29537983 0.077144875
1.7327319 0.26081984 0.075222617
2.0479427 0.22625985 0.073300359
-0.61550989 0.67432965 0.069556507
-0.30029912 0.63976966 0.067634249
0.014911653 0.60520967 0.065711991
0.33012243 0.57064968 0.063789733
0.6453332 0.53608969 0.061867475
0.96054397 0.5015297 0.059945217
1.2757547 0.46696971 0.058022958
1.5909655 0.43240972 0.0561007
1.9061763 0.39784973 0.054178442
-0.75727627 0.84591953 0.05043459
-0.44206549 0.81135954 0.048512332
-0.12685472 0.77679955 0.046590074
0.18835605 0.74223957 0.044667816
0.50356683 0.70767958 0.042745558
0.8187776 0.67311959 0.0408233
1.1339884 0.6385596 0.038901041
1.4491991 0.60399961 0.036978783
1.7644099 0.56943962 0.035056525
-0.89904264 1.0175094 0.031312673
-0.58383187 0.98294943 0.029390415
-0.26862109 0.94838944 0.027468157
0.046589679 0.91382945 0.025545899
0.36180045 0.87926946 0.023623641
0.67701123 0.84470947 0.021701383
0.992222 0.81014948 0.019779124
1.3074328 0.77558949 0.017856866
1.6226435 0.7410295 0.015934608
-1.040809 1.1890993 0.012190756
-0.72559824 1.1545393 0.010268498
-0.41038747 1.1199793 0.00834624
-0.095176694 1.0854193 0.0064239819
0.22003408 1.0508593 0.0045017237
0.53524485 1.0162994 0.0025794656
0.85045563 0.98173937 0.0006572075
1.1656664 0.94717938 -0.0012650506
1.4808772 0.91261939 -0.0031873087
-1.1825754 1.3606892 -0.0069311608
-0.86736461 1.3261292 -0.0088534189
-0.55215384 1.2915692 -0.010775677
-0.23694307 1.2570092 -0.012697935
0.078267705 1.2224492 -0.014620193
0.39347848 1.1878892 -0.016542451
0.70868925 1.1533293 -0.018464709
1.0239 1.1187693 -0.020386968
1.3391108 1.0842093 -0.022309226
-0.0968888 -0.024059793 0.29208835
0.21832197 -0.058619783 0.29016609
0.53353275 -0.093179772 0.28824383
0.84874352 -0.12773976 0.28632158
1.1639543 -0.16229975 0.28439932
1.4791651 -0.19685974 0.28247706
1.7943758 -0.23141973 0.2805548
2.1095866 -0.26597972 0.27863254
2.4247974 -0.30053971 0.27671029
-0.23865517 0.14753009 0.27296643
0.0765556 0.1129701 0.27104418
0.39176637 0.078410114 0.26912192
0.70697715 0.043850125 0.26719966
1.0221879 0.0092901355 0.2652774
1.3373987 -0.025269854 0.26335514
1.6526095 -0.059829843 0.26143288
1.9678202 -0.094389832 0.25951063
2.283031 -0.12894982 0.25758837
-0.38042155 0.31911998 0.25384452
-0.065210773 0.28455999 0.25192226
0.25 0.25 0.25
0.56521077 0.21544001 0.24807774
0.88042155 0.18088002 0.24615548
1.1956323 0.14632003 0.24423323
1.5108431 0.11176004 0.24231097
1.8260539 0.077200054 0.24038871
2.1412646 0.042640064 0.23846645
-0.52218792 0.49070986 0.2347226
-0.20697715 0.45614988 0.23280034
0.10823363 0.42158989 0.23087808
0.4234444 0.3870299 0.22895582
0.73865517 0.35246991 0.22703357
1.0538659 0.31790992 0.22511131
1.3690767 0.28334993 0.22318905
1.6842875 0.24878994 0.22126679
1.9994983 0.21422995 0.21934453
-0.66395429 0.66229975 0.21560068
-0.34874352 0.62773976 0.21367842
-0.033532747 0.59317977 0.21175617
0.28167803 0.55861978 0.20983391
0.5968888 0.52405979 0.20791165
0.91209957 0.4894998 0.20598939
1.2273103 0.45493981 0.20406713
1.5425211 0.42037983 0.20214488
1.8577319 0.38581984 0.20022262
-0.80572067 0.83388964 0.19647877
-0.49050989 0.79932965 0.19455651
-0.17529912 0.76476966 0.19263425
0.13991165 0.73020967 0.19071199
0.45512243 0.69564968 0.18878973
0.7703332 0.66108969 0.18686747
1.085544 0.6265297 0.18494522
1.4007547 0.59196971 0.18302296
1.7159655 0.55740972 0.1811007
-0.94748704 1.0054795 0.17735685
-0.63227627 0.97091953 0.17543459
-0.31706549 0.93635954 0.17351233
-0.0018547208 0.90179955 0.17159007
0.31335605 0.86723957 0.16966782
0.62856683 0.83267958 0.16774556
0.9437776 0.79811959 0.1658233
1.2589884 0.7635596 0.16390104
1.5741991 0.72899961 0.16197878
-1.0892534 1.1770694 0.15823493
-0.77404264 1.1425094 0.15631267
-0.45883187 1.1079494 0.15439042
-0.14362109 1.0733894 0.15246816
0.17158968 1.0388295 0.1505459
0.48680045 1.0042695 0.14862364
0.80201123 0.96970947 0.14670138
1.117222 0.93514948 0.14477912
1.4324328 0.90058949 0.14285687
-1.2310198 1.3486593 0.13911301
-0.91580901 1.3140993 0.13719076
-0.60059824 1.2795393 0.1352685
-0.28538747 1.2449793 0.13334624
0.029823306 1.2104193 0.13142398
0.34503408 1.1758593 0.12950172
0.66024485 1.1412994 0.12757947
0.97545563 1.1067394 0.12565721
1.2906664 1.0721794 0.12373495
-0.1453332 -0.03608969 0.43813253
0.16987757 -0.070649679 0.43621027
0.48508835 -0.10520967 0.43428801
0.80029912 -0.13976966 0.43236575
1.1155099 -0.17432965 0.43044349
1.4307207 -0.20888964 0.42852123
1.7459314 -0.24344963 0.42659898
2.0611422 -0.27800961 0.42467672
2.376353 -0.3125696 0.42275446
-0.28709957 0.1355002 0.41901061
0.0281112 0.10094021 0.41708835
0.34332197 0.066380217 0.41516609
0.65853275 0.031820228 0.41324383
0.97374352 -0.0027397612 0.41132158
1.2889543 -0.03729975 0.40939932
1.6041651 -0.07185974 0.40747706
1.9193758 -0.10641973 0.4055548
2.2345866 -0.14097972 0.40363254
-0.42886595 0.30709008 0.39988869
-0.11365517 0.27253009 0.39796643
0.2015556 0.2379701 0.39604418
0.51676637 0.20341011 0.39412192
0.83197715 0.16885012 0.39219966
1.1471879 0.13429014 0.3902774
1.4623987 0.099730146 0.38835514
1.7776095 0.065170157 0.38643288
2.0928202 0.030610168 0.38451063
-0.57063232 0.47867997 0.38076677
-0.25542155 0.44411998 0.37884452
0.059789227 0.40955999 0.37692226
0.375 0.375 0.375
0.69021077 0.34044001 0.37307774
1.0054215 0.30588002 0.37115548
1.3206323 0.27132003 0.36923323
1.6358431 0.23676004 0.36731097
1.9510539 0.20220005 0.36538871
-0.71239869 0.65026985 0.36164486
-0.39718792 0.61570986 0.3597226
-0.081977147 0.58114988 0.35780034
0.23323363 0.54658989 0.35587808
0.5484444 0.5120299 0.35395582
0.86365517 0.47746991 0.35203357
1.1788659 0.44290992 0.35011131
1.4940767 0.40834993 0.34818905
1.8092875 0.37378994 0.34626679
-0.85416507 0.82185974 0.34252294
-0.53895429 0.78729975 0.34060068
-0.22374352 0.75273976 0.33867842
0.091467253 0.71817977 0.33675617
0.40667803 0.68361978 0.33483391
0.7218888 0.64905979 0.33291165
1.0370996 0.6144998 0.33098939
1.3523103 0.57993981 0.32906713
1.6675211 0.54537983 0.32714488
-0.99593144 0.99344963 0.32340102
-0.68072067 0.95888964 0.32147877
-0.36550989 0.92432965 0.31955651
-0.050299121 0.88976966 0.31763425
0.26491165 0.85520967 0.31571199
0.58012243 0.82064968 0.31378973
0.8953332 0.78608969 0.31186747
1.210544 0.7515297 0.30994522
1.5257547 0.71696971 0.30802296
-1.1376978 1.1650395 0.30427911
-0.82248704 1.1304795 0.30235685
-0.50727627 1.0959195 0.30043459
-0.19206549 1.0613595 0.29851233
0.12314528 1.0267996 0.29659007
0.43835605 0.99223957 0.29466782
0.75356683 0.95767958 0.29274556
1.0687776 0.92311959 0.2908233
1.3839884 0.8885596 0.28890104
-1.2794642 1.3366294 0.28515719
-0.96425341 1.3020694 0.28323493
-0.64904264 1.2675094 0.28131267
-0.33383187 1.2329494 0.27939042
-0.018621094 1.1983894 0.27746816
0.29658968 1.1638295 0.2755459
0.61180045 1.1292695 0.27362364
0.92701123 1.0947095 0.27170138
1.242222 1.0601495 0.26977912
-0.1937776 -0.048119587 0.5841767
0.12143317 -0.082679576 0.58225444
0.43664395 -0.11723957 0.58033218
0.75185472 -0.15179955 0.57840993
1.0670655 -0.18635954 0.57648767
1.3822763 -0.22091953 0.57456541
1.697487 -0.25547952 0.57264315
2.0126978 -0.29003951 0.57072089
2.3279086 -0.3245995 0.56879864
-0.33554397 0.1234703 0.56505478
-0.020333199 0.08891031 0.56313253
0.29487757 0.054350321 0.56121027
0.61008835 0.019790331 0.55928801
0.92529912 -0.014769658 0.55736575
1.2405099 -0.049329647 0.55544349
1.5557207 -0.083889636 0.55352123
1.8709314 -0.11844963 0.55159898
2.1861422 -0.15300961 0.54967672
-0.47731035 0.29506019 0.54593287
-0.16209957 0.2605002 0.54401061
0.1531112 0.22594021 0.54208835
0.46832197 0.19138022 0.54016609
0.78353275 0.15682023 0.53824383
1.0987435 0.12226024 0.53632158
1.4139543 0.08770025 0.53439932
1.7291651 0.05314026 0.53247706
2.0443758 0.018580271 0.5305548
-0.61907672 0.46665007 0.52681095
-0.30386595 0.43209008 0.52488869
0.011344827 0.39753009 0.52296643
0.3265556 0.3629701 0.52104418
0.64176637 0.32841011 0.51912192
0.95697715 0.29385012 0.51719966
1.2721879 0.25929014 0.5152774
1.5873987 0.22473015 0.51335514
1.9026095 0.19017016 0.51143288
-0.76084309 0.63823996 0.50768903
-0.44563232 0.60367997 0.50576677
-0.13042155 0.56911998 0.50384452
0.18478923 0.53455999 0.50192226
0.5 0.5 0.5
0.81521077 0.46544001 0.49807774
1.1304215 0.43088002 0.49615548
1.4456323 0.39632003 0.49423323
1.7608431 0.36176004 0.49231097
-0.90260947 0.80982984 0.48856712
-0.58739869 0.77526985 0.48664486
-0.27218792 0.74070986 0.4847226
0.043022853 0.70614988 0.48280034
0.35823363 0.67158989 0.48087808
0.6734444 0.6370299 0.47895582
0.98865517 0.60246991 0.47703357
1.3038659 0.56790992 0.47511131
1.6190767 0.53334993 0.47318905
-1.0443758 0.98141973 0.4694452
-0.72916507 0.94685974 0.46752294
-0.41395429 0.91229975 0.46560068
-0.09874352 0.87773976 0.46367842
0.21646725 0.84317977 0.46175617
0.53167803 0.80861978 0.45983391
0.8468888 0.77405979 0.45791165
1.1620996 0.7394998 0.45598939
1.4773103 0.70493981 0.45406713
-1.1861422 1.1530096 0.45032328
-0.87093144 1.1184496 0.44840102
-0.55572067 1.0838896 0.44647877
-0.24050989 1.0493296 0.44455651
0.074700879 1.0147697 0.44263425
0.38991165 0.98020967 0.44071199
0.70512243 0.94564968 0.43878973
1.0203332 0.91108969 0.43686747
1.335544 0.8765297 0.43494522
-1.3279086 1.3245995 0.43120136
-1.0126978 1.2900395 0.42927911
-0.69748704 1.2554795 0.42735685
-0.38227627 1.2209195 0.42543459
-0.067065494 1.1863595 0.42351233
0.24814528 1.1517996 0.42159007
0.56335605 1.1172396 0.41966782
0.87856683 1.0826796 0.41774556
1.1937776 1.0481196 0.4158233
-0.242222 -0.060149483 0.73022088
0.072988774 -0.094709473 0.72829862
0.38819955 -0.12926946 0.72637636
0.70341032 -0.16382945 0.7244541
1.0186211 -0.19838944 0.72253184
1.3338319 -0.23294943 0.72060958
1.6490426 -0.26750942 0.71868733
1.9642534 -0.30206941 0.71676507
2.2794642 -0.3366294 0.71484281
-0.38398837 0.1114404 0.71109896
-0.068777599 0.076880413 0.7091767
0.24643317 0.042320424 0.70725444
0.56164395 0.0077604347 0.70533218
0.87685472 -0.026799555 0.70340993
1.1920655 -0.061359544 0.70148767
1.5072763 -0.095919533 0.69956541
1.822487 -0.13047952 0.69764315
2.1376978 -0.16503951 0.69572089
-0.52575475 0.28303029 0.69197704
-0.21054397 0.2484703 0.69005478
0.1046668 0.21391031 0.68813253
0.41987757 0.17935032 0.68621027
0.73508835 0.14479033 0.68428801
1.0502991 0.11023034 0.68236575
1.3655099 0.075670353 0.68044349
1.6807207 0.041110364 0.67852123
1.9959314 0.0065503743 0.67659898
-0.66752112 0.45462017 0.67285512
-0.35231035 0.42006019 0.67093287
-0.037099573 0.3855002 0.66901061
0.2781112 0.35094021 0.66708835
0.59332197 0.31638022 0.66516609
0.90853275 0.28182023 0.66324383
1.2237435 0.24726024 0.66132158
1.5389543 0.21270025 0.65939932
1.8541651 0.17814026 0.65747706
-0.80928749 0.62621006 0.65373321
-0.49407672 0.59165007 0.65181095
-0.17886595 0.55709008 0.64988869
0.13634483 0.52253009 0.64796643
0.4515556 0.4879701 0.64604418
0.76676637 0.45341011 0.64412192
1.0819771 0.41885012 0.64219966
1.3971879 0.38429014 0.6402774
1.7123987 0.34973015 0.63835514
-0.95105387 0.79779995 0.63461129
-0.63584309 0.76323996 0.63268903
-0.32063232 0.72867997 0.63076677
-0.0054215467 0.69411998 0.62884452
0.30978923 0.65955999 0.62692226
0.625 0.625 0.625
0.94021077 0.59044001 0.62307774
1.2554215 0.55588002 0.62115548
1.5706323 0.52132003 0.61923323
-1.0928202 0.96938983 0.61548937
-0.77760947 0.93482984 0.61356712
-0.46239869 0.90026985 0.61164486
-0.14718792 0.86570986 0.6097226
0.16802285 0.83114988 0.60780034
0.48323363 0.79658989 0.60587808
0.7984444 0.7620299 0.60395582
1.1136552 0.72746991 0.60203357
1.4288659 0.69290992 0.60011131
-1.2345866 1.1409797 0.59636746
-0.91937584 1.1064197 0.5944452
-0.60416507 1.0718597 0.59252294
-0.28895429 1.0372998 0.59060068
0.02625648 1.0027398 0.58867842
0.34146725 0.96817977 0.58675617
0.65667803 0.93361978 0.58483391
0.9718888 0.89905979 0.58291165
1.2870996 0.8644998 0.58098939
-1.376353 1.3125696 0.57724554
-1.0611422 1.2780096 0.57532328
-0.74593144 1.2434496 0.57340102
-0.43072067 1.2088896 0.57147877
-0.11550989 1.1743296 0.56955651
0.19970088 1.1397697 0.56763425
0.51491165 1.1052097 0.56571199
0.83012243 1.0706497 0.56378973
1.1453332 1.0360897 0.56186747
-0.2906664 -0.07217938 0.87626505
0.024544374 -0.10673937 0.87434279
0.33975515 -0.14129936 0.87242053
0.65496592 -0.17585935 0.87049828
0.97017669 -0.21041934 0.86857602
1.2853875 -0.24497933 0.86665376
1.6005982 -0.27953932 0.8647315
1.915809 -0.31409931 0.86280924
2.2310198 -0.34865929 0.86088699
-0.43243277 0.099410506 0.85714313
-0.117222 0.064850517 0.85522088
0.19798877 0.030290527 0.85329862
0.51319955 -0.004269462 0.85137636
0.82841032 -0.038829451 0.8494541
1.1436211 -0.073389441 0.84753184
1.4588319 -0.10794943 0.84560958
1.7740426 -0.14250942 0.84368733
2.0892534 -0.17706941 0.84176507
-0.57419915 0.27100039 0.83802122
-0.25898837 0.2364404 0.83609896
0.056222401 0.20188041 0.8341767
0.37143317 0.16732042 0.83225444
0.68664395 0.13276043 0.83033218
1.0018547 0.098200445 0.82840993
1.3170655 0.063640456 0.82648767
1.6322763 0.029080467 0.82456541
1.947487 -0.0054795224 0.82264315
-0.71596552 0.44259028 0.8188993
-0.40075475 0.40803029 0.81697704
-0.085543973 0.3734703 0.81505478
0.2296668 0.33891031 0.81313253
0.54487757 0.30435032 0.81121027
0.86008835 0.26979033 0.80928801
1.1752991 0.23523034 0.80736575
1.4905099 0.20067035 0.80544349
1.8057207 0.16611036 0.80352123
-0.85773189 0.61418016 0.79977738
-0.54252112 0.57962017 0.79785512
-0.22731035 0.54506019 0.79593287
0.087900427 0.5105002 0.79401061
0.4031112 0.47594021 0.79208835
0.71832197 0.44138022 0.79016609
1.0335327 0.40682023 0.78824383
1.3487435 0.37226024 0.78632158
1.6639543 0.33770025 0.78439932
-0.99949827 0.78577005 0.78065547
-0.68428749 0.75121006 0.77873321
-0.36907672 0.71665007 0.77681095
-0.053865946 0.68209008 0.77488869
0.26134483 0.64753009 0.77296643
0.5765556 0.6129701 0.77104418
0.89176637 0.57841011 0.76912192
1.2069771 0.54385012 0.76719966
1.5221879 0.50929014 0.7652774
-1.1412646 0.95735994 0.76153355
-0.82605387 0.92279995 0.75961129
-0.51084309 0.88823996 0.75768903
-0.19563232 0.85367997 0.75576677
0.11957845 0.81911998 0.75384452
0.43478923 0.78455999 0.75192226
0.75 0.75 0.75
1.0652108 0.71544001 0.74807774
1.3804215 0.68088002 0.74615548
-1.283031 1.1289498 0.74241163
-0.96782024 1.0943898 0.74048937
-0.65260947 1.0598298 0.73856712
-0.33739869 1.0252699 0.73664486
-0.02218792 0.99070986 0.7347226
0.29302285 0.95614988 0.73280034
0.60823363 0.92158989 0.73087808
0.9234444 0.8870299 0.72895582
1.2386552 0.85246991 0.72703357
-1.4247974 1.3005397 0.72328971
-1.1095866 1.2659797 0.72136746
-0.79437584 1.2314197 0.7194452
-0.47916507 1.1968597 0.71752294
-0.16395429 1.1622998 0.71560068
0.15125648 1.1277398 0.71367842
0.46646725 1.0931798 0.71175617
0.78167803 1.0586198 0.70983391
1.0968888 1.0240598 0.70791165
-0.3391108 -0.084209277 1.0223092
-0.023900025 -0.11876927 1.020387
0.29131075 -0.15332926 1.0184647
0.60652152 -0.18788924 1.0165425
0.92173229 -0.22244923 1.0146202
1.2369431 -0.25700922 1.0126979
1.5521538 -0.29156921 1.0107757
1.8673646 -0.3261292 1.0088534
2.1825754 -0.36068919 1.0069312
-0.48087717 0.087380609 1.0031873
-0.1656664 0.05282062 1.0012651
0.14954437 0.018260631 0.99934279
0.46475515 -0.016299359 0.99742053
0.77996592 -0.050859348 0.99549828
1.0951767 -0.085419337 0.99357602
1.4103875 -0.11997933 0.99165376
1.7255982 -0.15453932 0.9897315
2.040809 -0.18909931 0.98780924
-0.62264355 0.2589705 0.98406539
-0.30743277 0.22441051 0.98214313
0.0077780009 0.18985052 0.98022088
0.32298877 0.15529053 0.97829862
0.63819955 0.12073054 0.97637636
0.95341032 0.086170549 0.9744541
1.2686211 0.051610559 0.97253184
1.5838319 0.01705057 0.97060958
1.8990426 -0.017509419 0.96868733
-0.76440992 0.43056038 0.96494347
-0.44919915 0.39600039 0.96302122
-0.13398837 0.3614404 0.96109896
0.1812224 0.32688041 0.9591767
0.49643317 0.29232042 0.95725444
0.81164395 0.25776043 0.95533218
1.1268547 0.22320045 0.95340993
1.4420655 0.18864046 0.95148767
1.7572763 0.15408047 0.94956541
-0.90617629 0.60215027 0.94582156
-0.59096552 0.56759028 0.9438993
-0.27575475 0.53303029 0.94197704
0.039456027 0.4984703 0.94005478
0.3546668 0.46391031 0.93813253
0.66987757 0.42935032 0.93621027
0.98508835 0.39479033 0.93428801
1.3002991 0.36023034 0.93236575
1.6155099 0.32567035 0.93044349
-1.0479427 0.77374015 0.92669964
-0.73273189 0.73918016 0.92477738
-0.41752112 0.70462017 0.92285512
-0.10231035 0.67006019 0.92093287
0.21290043 0.6355002 0.91901061
0.5281112 0.60094021 0.91708835
0.84332197 0.56638022 0.91516609
1.1585327 0.53182023 0.91324383
1.4737435 0.49726024 0.91132158
-1.189709 0.94533004 0.90757772
-0.87449827 0.91077005 0.90565547
-0.55928749 0.87621006 0.90373321
-0.24407672 0.84165007 0.90181095
0.071134054 0.80709008 0.89988869
0.38634483 0.77253009 0.89796643
0.7015556 0.7379701 0.89604418
1.0167664 0.70341011 0.89412192
1.3319771 0.66885012 0.89219966
-1.3314754 1.1169199 0.88845581
-1.0162646 1.0823599 0.88653355
-0.70105387 1.0477999 0.88461129
-0.38584309 1.01324 0.88268903
-0.07063232 0.97867997 0.88076677
0.24457845 0.94411998 0.87884452
0.55978923 0.90955999 0.87692226
0.875 0.875 0.875
1.1902108 0.84044001 0.87307774
-1.4732418 1.2885098 0.86933389
-1.158031 1.2539498 0.86741163
-0.84282024 1.2193898 0.86548937
-0.52760947 1.1848298 0.86356712
-0.21239869 1.1502699 0.86164486
0.10281208 1.1157099 0.8597226
0.41802285 1.0811499 0.85780034
0.73323363 1.0465899 0.85587808
1.0484444 1.0120299 0.85395582
-0.3875552 -0.096239173 1.1683534
-0.072344425 -0.13079916 1.1664311
0.24286635 -0.16535915 1.1645089
0.55807712 -0.19991914 1.1625866
0.87328789 -0.23447913 1.1606644
1.1884987 -0.26903912 1.1587421
1.5037094 -0.30359911 1.1568199
1.8189202 -0.3381591 1.1548976
2.134131 -0.37271909 1.1529753
-0.52932157 0.075350713 1.1492315
-0.2141108 0.040790723 1.1473092
0.10109997 0.006230734 1.145387
0.41631075 -0.028329255 1.1434647
0.73152152 -0.062889245 1.1415425
1.0467323 -0.097449234 1.1396202
1.3619431 -0.13200922 1.1376979
1.6771538 -0.16656921 1.1357757
1.9923646 -0.2011292 1.1338534
-0.67108795 0.2469406 1.1301096
-0.35587717 0.21238061 1.1281873
-0.040666399 0.17782062 1.1262651
0.27454437 0.14326063 1.1243428
0.58975515 0.10870064 1.1224205
0.90496592 0.074140652 1.1204983
1.2201767 0.039580663 1.118576
1.5353875 0.0050206735 1.1166538
1.8505982 -0.029539316 1.1147315
-0.81285432 0.41853048 1.1109876
-0.49764355 0.3839705 1.1090654
-0.18243277 0.34941051 1.1071431
0.132778 0.31485052 1.1052209
0.44798877 0.28029053 1.1032986
0.76319955 0.24573054 1.1013764
1.0784103 0.21117055 1.0994541
1.3936211 0.17661056 1.0975318
1.7088319 0.14205057 1.0956096
-0.95462069 0.59012037 1.0918657
-0.63940992 0.55556038 1.0899435
-0.32419915 0.52100039 1.0880212
-0.0089883726 0.4864404 1.086099
0.3062224 0.45188041 1.0841767
0.62143317 0.41732042 1.0822544
0.93664395 0.38276043 1.0803322
1.2518547 0.34820045 1.0784099
1.5670655 0.31364046 1.0764877
-1.0963871 0.76171026 1.0727438
-0.78117629 0.72715027 1.0708216
-0.46596552 0.69259028 1.0688993
-0.15075475 0.65803029 1.066977
0.16445603 0.6234703 1.0650548
0.4796668 0.58891031 1.0631325
0.79487757 0.55435032 1.0612103
1.1100883 0.51979033 1.059288
1.4252991 0.48523034 1.0573658
-1.2381534 0.93330014 1.0536219
-0.92294267 0.89874015 1.0516996
-0.60773189 0.86418016 1.0497774
-0.29252112 0.82962017 1.0478551
0.022689654 0.79506019 1.0459329
0.33790043 0.7605002 1.0440106
0.6531112 0.72594021 1.0420884
0.96832197 0.69138022 1.0401661
1.2835327 0.65682023 1.0382438
-1.3799198 1.10489 1.0345
-1.064709 1.07033 1.0325777
-0.74949827 1.03577 1.0306555
-0.43428749 1.0012101 1.0287332
-0.11907672 0.96665007 1.0268109
0.19613405 0.93209008 1.0248887
0.51134483 0.89753009 1.0229664
0.8265556 0.8629701 1.0210442
1.1417664 0.82841011 1.0191219
-1.5216862 1.2764799 1.0153781
-1.2064754 1.2419199 1.0134558
-0.89126464 1.2073599 1.0115335
-0.57605387 1.1727999 1.0096113
-0.26084309 1.13824 1.007689
0.05436768 1.10368 1.0057668
0.36957845 1.06912 1.0038445
0.68478923 1.03456 1.0019223
1 1 1
