site/assets/luts/ocio-aces--blackmagicdesigninputdavinci-intermediate-widegamut-to-aces2065-1--df09476ba.cube
# LUTr-Project: LUTr — LUTrepository
# LUTr-Schema-Version: 1
# LUTr-ID: ocio-aces--blackmagicdesigninputdavinci-intermediate-widegamut-to-aces2065-1--df09476ba
# LUTr-Title: BlackmagicDesign.Input.DaVinci Intermediate WideGamut to ACES2065-1
# LUTr-Collection: OCIO ACES
# LUTr-Collection-ID: aswf-opencolorio-config-aces
# LUTr-Source: https://github.com/AcademySoftwareFoundation/OpenColorIO-Config-ACES
# LUTr-Source-File: submissions/aswf-opencolorio-config-aces/opencolorio_config_aces/clf/transforms/blackmagic/input/BlackmagicDesign.Input.DaVinci_Intermediate_WideGamut_to_ACES2065-1.clf
# LUTr-Source-Format: CLF
# LUTr-Source-SHA256: 352a494196ab4de1d7bc15b2bd6340c738329550344db43ecc411e8ce1308cc5
# LUTr-License: BSD-3-Clause
# LUTr-License-URL: https://github.com/AcademySoftwareFoundation/OpenColorIO-Config-ACES/blob/main/LICENSE
# LUTr-Tags: technical, aces, ocio, clf, color-management, cube
# LUTr-Transform-Class: color-space-conversion
# LUTr-Input-Color-Space: DaVinci Intermediate Wide Gamut
# LUTr-Output-Color-Space: ACES2065-1
# LUTr-Color-Space-Confidence: descriptor-only
# LUTr-Conversion-Method: CLF operations evaluated as float and sampled to 33x33x33 3D CUBE
# LUTr-Conversion-Date: 2026-07-27
# LUTr-Conversion-Tool: LUTr scripts/convert-all-to-cube.mjs
# LUTr-Conversion-Grid: 33x33x33
# LUTr-Conversion-Warning: A sampled 3D CUBE is bounded to DOMAIN_MIN/MAX 0..1 and cannot preserve CLF values outside its input domain.
# LUTr-Upstream-ID: urn:aswf:ocio:transformId:1.0:BlackmagicDesign:Input:DaVinci_Intermediate_WideGamut_to_ACES2065-1:1.0
# LUTr-Upstream-Name: DaVinci Intermediate Wide Gamut to ACES2065-1
# LUTr-Upstream-Input-Descriptor: DaVinci Intermediate Wide Gamut
# LUTr-Upstream-Output-Descriptor: ACES2065-1
# LUTr-Upstream-Operations: Log → Matrix
# LUTr-Note: Preserve this metadata and the upstream license notices when redistributing.
TITLE "BlackmagicDesign.Input.DaVinci Intermediate WideGamut to ACES2065-1"
LUT_3D_SIZE 5
DOMAIN_MIN 0 0 0
DOMAIN_MAX 1 1 1
3.2894634e-11 3.2894634e-11 3.2894634e-11
0.056569185 0.0015756632 -0.0069183206
0.65579656 0.018266385 -0.080202868
7.0296532 0.19580211 -0.85971533
74.827038 2.0842126 -9.1512269
0.012677705 0.084059925 -0.009657643
0.06924689 0.085635588 -0.016575964
0.66847427 0.10232631 -0.089860511
7.042331 0.27986203 -0.86937297
74.839716 2.1682725 -9.1608845
0.1469704 0.97449186 -0.11195935
0.20353958 0.97606752 -0.11887767
0.80276696 0.99275824 -0.19216222
7.1766236 1.170294 -0.97167468
74.974009 3.0587045 -9.2631862
1.5754138 10.445831 -1.2001213
1.6319829 10.447406 -1.2070396
2.2312103 10.464097 -1.2803241
8.605067 10.641633 -2.0598366
76.402452 12.530043 -10.351348
16.769468 111.19049 -12.774673
16.826037 111.19206 -12.781591
17.425265 111.20875 -12.854876
23.799121 111.38629 -13.634388
91.596506 113.2747 -21.9259
0.0063530443 -0.010035654 0.092175898
0.062922229 -0.0084599911 0.085257577
0.6621496 0.0082307303 0.011973029
7.0360063 0.18576645 -0.76753943
74.833391 2.0741769 -9.059051
0.019030749 0.074024271 0.082518255
0.075599934 0.075599934 0.075599934
0.67482731 0.092290655 0.0023153862
7.048684 0.26982638 -0.77719707
74.846069 2.1582369 -9.0687086
0.15332344 0.9644562 -0.019783452
0.20989262 0.96603187 -0.026701772
0.80912 0.98272259 -0.09998632
7.1829767 1.1602583 -0.87949878
74.980362 3.0486688 -9.1710103
1.5817668 10.435795 -1.1079454
1.638336 10.437371 -1.1148637
2.2375634 10.454061 -1.1881482
8.61142 10.631597 -1.9676607
76.408805 12.520008 -10.259172
16.775821 111.18045 -12.682497
16.83239 111.18203 -12.689415
17.431618 111.19872 -12.7627
23.805474 111.37625 -13.542212
91.602859 113.26466 -21.833724
0.073649719 -0.11634157 1.0685789
0.1302189 -0.1147659 1.0616606
0.72944628 -0.098075183 0.98837603
7.103303 0.079460542 0.20886357
74.900688 1.967871 -8.082648
0.086327425 -0.032281642 1.0589213
0.14289661 -0.030705979 1.0520029
0.74212398 -0.014015257 0.97871838
7.1159807 0.16352047 0.19920592
74.913366 2.051931 -8.0923056
0.22062012 0.85815029 0.95661954
0.2771893 0.85972595 0.94970122
0.87641668 0.87641668 0.87641668
7.2502734 1.0539524 0.096904217
75.047658 2.9423629 -8.1946073
1.6490635 10.329489 -0.13154238
1.7056327 10.331065 -0.1384607
2.30486 10.347756 -0.21174525
8.6787167 10.525291 -0.99125771
76.476102 12.413702 -9.2827692
16.843118 111.07415 -11.706094
16.899687 111.07572 -11.713012
17.498914 111.09241 -11.786297
23.872771 111.26995 -12.565809
91.670156 113.15836 -20.857321
0.78947042 -1.2470954 11.454374
0.84603961 -1.2455197 11.447456
1.445267 -1.228829 11.374171
7.8191237 -1.0512933 10.594659
75.616509 0.8371172 2.3031472
0.80214813 -1.1630355 11.444716
0.85871731 -1.1614598 11.437798
1.4579447 -1.1447691 11.364514
7.8318014 -0.96723337 10.585001
75.629186 0.92117713 2.2934895
0.93644082 -0.27260354 11.342415
0.99301 -0.27102788 11.335496
1.5922374 -0.25433716 11.262212
7.9660941 -0.076801435 10.482699
75.763479 1.8116091 2.1911878
2.3648842 9.1987353 10.254253
2.4214534 9.200311 10.247334
3.0206807 9.2170017 10.17405
9.3945374 9.3945374 9.3945374
77.191922 11.282948 1.1030259
17.558938 109.94339 -1.3202988
17.615508 109.94497 -1.3272171
18.214735 109.96166 -1.4005017
24.588592 110.13919 -2.1800141
92.385977 112.02761 -10.471526
8.403506 -13.274688 121.92591
8.4600752 -13.273113 121.91899
9.0593026 -13.256422 121.84571
15.433159 -13.078886 121.0662
83.230544 -11.190476 112.77469
8.4161838 -13.190628 121.91625
8.4727529 -13.189053 121.90934
9.0719803 -13.172362 121.83605
15.445837 -12.994826 121.05654
83.243222 -11.106416 112.76503
8.5504764 -12.300196 121.81395
8.6070456 -12.298621 121.80703
9.206273 -12.28193 121.73375
15.58013 -12.104394 120.95424
83.377515 -10.215984 112.66273
9.9789198 -2.8288575 120.72579
10.035489 -2.8272819 120.71887
10.634716 -2.8105911 120.64559
17.008573 -2.6330554 119.86608
84.805958 -0.74464492 111.57456
25.172974 97.9158 109.15124
25.229543 97.917375 109.14432
25.828771 97.934066 109.07104
32.202627 98.111602 108.29152
100.00001 100.00001 100.00001
