site/assets/luts/ocio-aces--panasonicinputlinear-vgamut-to-aces2065-1--3250fc7ee.cube
# LUTr-Project: LUTr — LUTrepository
# LUTr-Schema-Version: 1
# LUTr-ID: ocio-aces--panasonicinputlinear-vgamut-to-aces2065-1--3250fc7ee
# LUTr-Title: Panasonic.Input.Linear VGamut to ACES2065-1
# LUTr-Collection: OCIO ACES
# LUTr-Collection-ID: aswf-opencolorio-config-aces
# LUTr-Source: https://github.com/AcademySoftwareFoundation/OpenColorIO-Config-ACES
# LUTr-Source-File: submissions/aswf-opencolorio-config-aces/opencolorio_config_aces/clf/transforms/panasonic/input/Panasonic.Input.Linear_VGamut_to_ACES2065-1.clf
# LUTr-Source-Format: CLF
# LUTr-Source-SHA256: e10859c4e82faa7577936bd8f0a7c2ec4bba66dd4341079bbd1fd913a551f145
# LUTr-License: BSD-3-Clause
# LUTr-License-URL: https://github.com/AcademySoftwareFoundation/OpenColorIO-Config-ACES/blob/main/LICENSE
# LUTr-Tags: technical, aces, ocio, clf, color-management, cube
# LUTr-Transform-Class: color-space-conversion
# LUTr-Input-Color-Space: Linear Panasonic V-Gamut
# LUTr-Output-Color-Space: ACES2065-1
# LUTr-Color-Space-Confidence: descriptor-only
# LUTr-Conversion-Method: CLF operations evaluated as float and sampled to 33x33x33 3D CUBE
# LUTr-Conversion-Date: 2026-07-27
# LUTr-Conversion-Tool: LUTr scripts/convert-all-to-cube.mjs
# LUTr-Conversion-Grid: 33x33x33
# LUTr-Conversion-Warning: A sampled 3D CUBE is bounded to DOMAIN_MIN/MAX 0..1 and cannot preserve CLF values outside its input domain.
# LUTr-Upstream-ID: urn:aswf:ocio:transformId:1.0:Panasonic:Input:Linear_VGamut_to_ACES2065-1:1.0
# LUTr-Upstream-Name: Linear Panasonic V-Gamut to ACES2065-1
# LUTr-Upstream-Input-Descriptor: Linear Panasonic V-Gamut
# LUTr-Upstream-Output-Descriptor: ACES2065-1
# LUTr-Upstream-Operations: Matrix
# LUTr-Note: Preserve this metadata and the upstream license notices when redistributing.
TITLE "Panasonic.Input.Linear VGamut to ACES2065-1"
LUT_3D_SIZE 9
DOMAIN_MIN 0 0 0
DOMAIN_MAX 1 1 1
0 0 0
0.090577088 0.0026737807 -0.0011544454
0.18115418 0.0053475614 -0.0023088907
0.27173126 0.008021342 -0.0034633361
0.36230835 0.010695123 -0.0046177814
0.45288544 0.013368903 -0.0057722268
0.54346253 0.016042684 -0.0069266722
0.63403962 0.018716465 -0.0080811175
0.7246167 0.021390245 -0.0092355629
0.020864411 0.12311352 -0.0001321132
0.1114415 0.1257873 -0.0012865586
0.20201859 0.12846108 -0.0024410039
0.29259568 0.13113486 -0.0035954493
0.38317276 0.13380864 -0.0047498946
0.47374985 0.13648242 -0.00590434
0.56432694 0.1391562 -0.0070587854
0.65490403 0.14182998 -0.0082132307
0.74548112 0.14450376 -0.0093676761
0.041728822 0.24622704 -0.00026422641
0.13230591 0.24890082 -0.0014186718
0.222883 0.2515746 -0.0025731171
0.31346009 0.25424838 -0.0037275625
0.40403717 0.25692216 -0.0048820078
0.49461426 0.25959594 -0.0060364532
0.58519135 0.26226972 -0.0071908986
0.67576844 0.2649435 -0.0083453439
0.76634553 0.26761728 -0.0094997893
0.062593233 0.36934056 -0.00039633961
0.15317032 0.37201434 -0.001550785
0.24374741 0.37468812 -0.0027052303
0.3343245 0.3773619 -0.0038596757
0.42490159 0.38003568 -0.0050141211
0.51547867 0.38270946 -0.0061685664
0.60605576 0.38538324 -0.0073230118
0.69663285 0.38805702 -0.0084774571
0.78720994 0.3907308 -0.0096319025
0.083457644 0.49245408 -0.00052845282
0.17403473 0.49512786 -0.0016828982
0.26461182 0.49780164 -0.0028373435
0.35518891 0.50047542 -0.0039917889
0.445766 0.5031492 -0.0051462343
0.53634308 0.50582298 -0.0063006796
0.62692017 0.50849676 -0.007455125
0.71749726 0.51117054 -0.0086095703
0.80807435 0.51384432 -0.0097640157
0.10432206 0.6155676 -0.00066056602
0.19489914 0.61824138 -0.0018150114
0.28547623 0.62091516 -0.0029694567
0.37605332 0.62358894 -0.0041239021
0.46663041 0.62626272 -0.0052783475
0.5572075 0.6289365 -0.0064327928
0.64778458 0.63161028 -0.0075872382
0.73836167 0.63428406 -0.0087416835
0.82893876 0.63695784 -0.0098961289
0.12518647 0.73868112 -0.00079267923
0.21576355 0.7413549 -0.0019471246
0.30634064 0.74402868 -0.0031015699
0.39691773 0.74670246 -0.0042560153
0.48749482 0.74937624 -0.0054104607
0.57807191 0.75205002 -0.006564906
0.66864899 0.7547238 -0.0077193514
0.75922608 0.75739758 -0.0088737967
0.84980317 0.76007136 -0.010028242
0.14605088 0.86179464 -0.00092479243
0.23662797 0.86446842 -0.0020792378
0.32720505 0.8671422 -0.0032336832
0.41778214 0.86981598 -0.0043881285
0.50835923 0.87248976 -0.0055425739
0.59893632 0.87516354 -0.0066970192
0.68951341 0.87783732 -0.0078514646
0.78009049 0.8805111 -0.0090059099
0.87066758 0.88318488 -0.010160355
0.16691529 0.98490816 -0.0010569056
0.25749238 0.98758194 -0.002211351
0.34806946 0.99025572 -0.0033657964
0.43864655 0.9929295 -0.0045202417
0.52922364 0.99560328 -0.0056746871
0.61980073 0.99827706 -0.0068291324
0.71037782 1.0009508 -0.0079835778
0.8009549 1.0036246 -0.0091380232
0.89153199 1.0062984 -0.010292469
0.013558501 -0.00078730014 0.12628656
0.10413559 0.0018864805 0.12513211
0.19471268 0.0045602612 0.12397767
0.28528977 0.0072340419 0.12282322
0.37586685 0.0099078226 0.12166878
0.46644394 0.012581603 0.12051433
0.55702103 0.015255384 0.11935989
0.64759812 0.017929165 0.11820544
0.73817521 0.020602945 0.117051
0.034422912 0.12232622 0.12615445
0.125 0.125 0.125
0.21557709 0.12767378 0.12384555
0.30615418 0.13034756 0.12269111
0.39673126 0.13302134 0.12153666
0.48730835 0.13569512 0.12038222
0.57788544 0.1383689 0.11922777
0.66846253 0.14104268 0.11807333
0.75903962 0.14371646 0.11691888
0.055287323 0.24543974 0.12602233
0.14586441 0.24811352 0.12486789
0.2364415 0.2507873 0.12371344
0.32701859 0.25346108 0.122559
0.41759568 0.25613486 0.12140455
0.50817276 0.25880864 0.12025011
0.59874985 0.26148242 0.11909566
0.68932694 0.2641562 0.11794121
0.77990403 0.26682998 0.11678677
0.076151734 0.36855326 0.12589022
0.16672882 0.37122704 0.12473577
0.25730591 0.37390082 0.12358133
0.347883 0.3765746 0.12242688
0.43846009 0.37924838 0.12127244
0.52903717 0.38192216 0.12011799
0.61961426 0.38459594 0.11896355
0.71019135 0.38726972 0.1178091
0.80076844 0.3899435 0.11665466
0.097016145 0.49166678 0.12575811
0.18759323 0.49434056 0.12460366
0.27817032 0.49701434 0.12344922
0.36874741 0.49968812 0.12229477
0.4593245 0.5023619 0.12114032
0.54990159 0.50503568 0.11998588
0.64047867 0.50770946 0.11883143
0.73105576 0.51038324 0.11767699
0.82163285 0.51305702 0.11652254
0.11788056 0.6147803 0.12562599
0.20845764 0.61745408 0.12447155
0.29903473 0.62012786 0.1233171
0.38961182 0.62280164 0.12216266
0.48018891 0.62547542 0.12100821
0.570766 0.6281492 0.11985377
0.66134308 0.63082298 0.11869932
0.75192017 0.63349676 0.11754488
0.84249726 0.63617054 0.11639043
0.13874497 0.73789382 0.12549388
0.22932206 0.7405676 0.12433943
0.31989914 0.74324138 0.12318499
0.41047623 0.74591516 0.12203054
0.50105332 0.74858894 0.1208761
0.59163041 0.75126272 0.11972165
0.6822075 0.7539365 0.11856721
0.77278458 0.75661028 0.11741276
0.86336167 0.75928406 0.11625832
0.15960938 0.86100734 0.12536177
0.25018647 0.86368112 0.12420732
0.34076355 0.8663549 0.12305288
0.43134064 0.86902868 0.12189843
0.52191773 0.87170246 0.12074398
0.61249482 0.87437624 0.11958954
0.70307191 0.87705002 0.11843509
0.79364899 0.8797238 0.11728065
0.88422608 0.88239758 0.1161262
0.18047379 0.98412086 0.12522965
0.27105088 0.98679464 0.12407521
0.36162797 0.98946842 0.12292076
0.45220505 0.9921422 0.12176632
0.54278214 0.99481598 0.12061187
0.63335923 0.99748976 0.11945743
0.72393632 1.0001635 0.11830298
0.81451341 1.0028373 0.11714854
0.90509049 1.0055111 0.11599409
0.027117002 -0.0015746003 0.25257312
0.11769409 0.0010991804 0.25141867
0.20827118 0.0037729611 0.25026423
0.29884827 0.0064467418 0.24910978
0.38942535 0.0091205224 0.24795534
0.48000244 0.011794303 0.24680089
0.57057953 0.014468084 0.24564644
0.66115662 0.017141864 0.244492
0.75173371 0.019815645 0.24333755
0.047981413 0.12153892 0.252441
0.1385585 0.1242127 0.25128656
0.22913559 0.12688648 0.25013211
0.31971268 0.12956026 0.24897767
0.41028977 0.13223404 0.24782322
0.50086685 0.13490782 0.24666878
0.59144394 0.1375816 0.24551433
0.68202103 0.14025538 0.24435989
0.77259812 0.14292916 0.24320544
0.068845824 0.24465244 0.25230889
0.15942291 0.24732622 0.25115445
0.25 0.25 0.25
0.34057709 0.25267378 0.24884555
0.43115418 0.25534756 0.24769111
0.52173126 0.25802134 0.24653666
0.61230835 0.26069512 0.24538222
0.70288544 0.2633689 0.24422777
0.79346253 0.26604268 0.24307333
0.089710235 0.36776596 0.25217678
0.18028732 0.37043974 0.25102233
0.27086441 0.37311352 0.24986789
0.3614415 0.3757873 0.24871344
0.45201859 0.37846108 0.247559
0.54259568 0.38113486 0.24640455
0.63317276 0.38380864 0.24525011
0.72374985 0.38648242 0.24409566
0.81432694 0.3891562 0.24294121
0.11057465 0.49087948 0.25204466
0.20115173 0.49355326 0.25089022
0.29172882 0.49622704 0.24973577
0.38230591 0.49890082 0.24858133
0.472883 0.5015746 0.24742688
0.56346009 0.50424838 0.24627244
0.65403717 0.50692216 0.24511799
0.74461426 0.50959594 0.24396355
0.83519135 0.51226972 0.2428091
0.13143906 0.613993 0.25191255
0.22201615 0.61666678 0.25075811
0.31259323 0.61934056 0.24960366
0.40317032 0.62201434 0.24844922
0.49374741 0.62468812 0.24729477
0.5843245 0.6273619 0.24614032
0.67490159 0.63003568 0.24498588
0.76547867 0.63270946 0.24383143
0.85605576 0.63538324 0.24267699
0.15230347 0.73710652 0.25178044
0.24288056 0.7397803 0.25062599
0.33345764 0.74245408 0.24947155
0.42403473 0.74512786 0.2483171
0.51461182 0.74780164 0.24716266
0.60518891 0.75047542 0.24600821
0.695766 0.7531492 0.24485377
0.78634308 0.75582298 0.24369932
0.87692017 0.75849676 0.24254488
0.17316788 0.86022004 0.25164832
0.26374497 0.86289382 0.25049388
0.35432206 0.8655676 0.24933943
0.44489914 0.86824138 0.24818499
0.53547623 0.87091516 0.24703054
0.62605332 0.87358894 0.2458761
0.71663041 0.87626272 0.24472165
0.8072075 0.8789365 0.24356721
0.89778458 0.88161028 0.24241276
0.19403229 0.98333356 0.25151621
0.28460938 0.98600734 0.25036177
0.37518647 0.98868112 0.24920732
0.46576355 0.9913549 0.24805288
0.55634064 0.99402868 0.24689843
0.64691773 0.99670246 0.24574398
0.73749482 0.99937624 0.24458954
0.82807191 1.00205 0.24343509
0.91864899 1.0047238 0.24228065
0.040675503 -0.0023619004 0.37885968
0.13125259 0.00031188026 0.37770523
0.22182968 0.0029856609 0.37655078
0.31240677 0.0056594416 0.37539634
0.40298385 0.0083332223 0.37424189
0.49356094 0.011007003 0.37308745
0.58413803 0.013680784 0.371933
0.67471512 0.016354564 0.37077856
0.76529221 0.019028345 0.36962411
0.061539914 0.12075162 0.37872756
0.152117 0.1234254 0.37757312
0.24269409 0.12609918 0.37641867
0.33327118 0.12877296 0.37526423
0.42384827 0.13144674 0.37410978
0.51442535 0.13412052 0.37295534
0.60500244 0.1367943 0.37180089
0.69557953 0.13946808 0.37064644
0.78615662 0.14214186 0.369492
0.082404325 0.24386514 0.37859545
0.17298141 0.24653892 0.377441
0.2635585 0.2492127 0.37628656
0.35413559 0.25188648 0.37513211
0.44471268 0.25456026 0.37397767
0.53528977 0.25723404 0.37282322
0.62586685 0.25990782 0.37166878
0.71644394 0.2625816 0.37051433
0.80702103 0.26525538 0.36935989
0.10326874 0.36697866 0.37846334
0.19384582 0.36965244 0.37730889
0.28442291 0.37232622 0.37615445
0.375 0.375 0.375
0.46557709 0.37767378 0.37384555
0.55615418 0.38034756 0.37269111
0.64673126 0.38302134 0.37153666
0.73730835 0.38569512 0.37038222
0.82788544 0.3883689 0.36922777
0.12413315 0.49009218 0.37833122
0.21471023 0.49276596 0.37717678
0.30528732 0.49543974 0.37602233
0.39586441 0.49811352 0.37486789
0.4864415 0.5007873 0.37371344
0.57701859 0.50346108 0.372559
0.66759568 0.50613486 0.37140455
0.75817276 0.50880864 0.37025011
0.84874985 0.51148242 0.36909566
0.14499756 0.6132057 0.37819911
0.23557465 0.61587948 0.37704466
0.32615173 0.61855326 0.37589022
0.41672882 0.62122704 0.37473577
0.50730591 0.62390082 0.37358133
0.597883 0.6265746 0.37242688
0.68846009 0.62924838 0.37127244
0.77903717 0.63192216 0.37011799
0.86961426 0.63459594 0.36896355
0.16586197 0.73631922 0.378067
0.25643906 0.738993 0.37691255
0.34701615 0.74166678 0.37575811
0.43759323 0.74434056 0.37460366
0.52817032 0.74701434 0.37344922
0.61874741 0.74968812 0.37229477
0.7093245 0.7523619 0.37114032
0.79990159 0.75503568 0.36998588
0.89047867 0.75770946 0.36883143
0.18672638 0.85943274 0.37793488
0.27730347 0.86210652 0.37678044
0.36788056 0.8647803 0.37562599
0.45845764 0.86745408 0.37447155
0.54903473 0.87012786 0.3733171
0.63961182 0.87280164 0.37216266
0.73018891 0.87547542 0.37100821
0.820766 0.8781492 0.36985377
0.91134308 0.88082298 0.36869932
0.20759079 0.98254626 0.37780277
0.29816788 0.98522004 0.37664832
0.38874497 0.98789382 0.37549388
0.47932206 0.9905676 0.37433943
0.56989914 0.99324138 0.37318499
0.66047623 0.99591516 0.37203054
0.75105332 0.99858894 0.3708761
0.84163041 1.0012627 0.36972165
0.9322075 1.0039365 0.36856721
0.054234004 -0.0031492006 0.50514623
0.14481109 -0.00047541988 0.50399179
0.23538818 0.0021983608 0.50283734
0.32596527 0.0048721415 0.5016829
0.41654236 0.0075459221 0.50052845
0.50711944 0.010219703 0.49937401
0.59769653 0.012893484 0.49821956
0.68827362 0.015567264 0.49706512
0.77885071 0.018241045 0.49591067
0.075098415 0.11996432 0.50501412
0.1656755 0.1226381 0.50385968
0.25625259 0.12531188 0.50270523
0.34682968 0.12798566 0.50155078
0.43740677 0.13065944 0.50039634
0.52798385 0.13333322 0.49924189
0.61856094 0.136007 0.49808745
0.70913803 0.13868078 0.496933
0.79971512 0.14135456 0.49577856
0.095962826 0.24307784 0.50488201
0.18653991 0.24575162 0.50372756
0.277117 0.2484254 0.50257312
0.36769409 0.25109918 0.50141867
0.45827118 0.25377296 0.50026423
0.54884827 0.25644674 0.49910978
0.63942535 0.25912052 0.49795534
0.73000244 0.2617943 0.49680089
0.82057953 0.26446808 0.49564644
0.11682724 0.36619136 0.50474989
0.20740432 0.36886514 0.50359545
0.29798141 0.37153892 0.502441
0.3885585 0.3742127 0.50128656
0.47913559 0.37688648 0.50013211
0.56971268 0.37956026 0.49897767
0.66028977 0.38223404 0.49782322
0.75086685 0.38490782 0.49666878
0.84144394 0.3875816 0.49551433
0.13769165 0.48930488 0.50461778
0.22826874 0.49197866 0.50346334
0.31884582 0.49465244 0.50230889
0.40942291 0.49732622 0.50115445
0.5 0.5 0.5
0.59057709 0.50267378 0.49884555
0.68115418 0.50534756 0.49769111
0.77173126 0.50802134 0.49653666
0.86230835 0.51069512 0.49538222
0.15855606 0.6124184 0.50448567
0.24913315 0.61509218 0.50333122
0.33971023 0.61776596 0.50217678
0.43028732 0.62043974 0.50102233
0.52086441 0.62311352 0.49986789
0.6114415 0.6257873 0.49871344
0.70201859 0.62846108 0.497559
0.79259568 0.63113486 0.49640455
0.88317276 0.63380864 0.49525011
0.17942047 0.73553192 0.50435356
0.26999756 0.7382057 0.50319911
0.36057465 0.74087948 0.50204466
0.45115173 0.74355326 0.50089022
0.54172882 0.74622704 0.49973577
0.63230591 0.74890082 0.49858133
0.722883 0.7515746 0.49742688
0.81346009 0.75424838 0.49627244
0.90403717 0.75692216 0.49511799
0.20028488 0.85864544 0.50422144
0.29086197 0.86131922 0.503067
0.38143906 0.863993 0.50191255
0.47201615 0.86666678 0.50075811
0.56259323 0.86934056 0.49960366
0.65317032 0.87201434 0.49844922
0.74374741 0.87468812 0.49729477
0.8343245 0.8773619 0.49614032
0.92490159 0.88003568 0.49498588
0.22114929 0.98175896 0.50408933
0.31172638 0.98443274 0.50293488
0.40230347 0.98710652 0.50178044
0.49288056 0.9897803 0.50062599
0.58345764 0.99245408 0.49947155
0.67403473 0.99512786 0.4983171
0.76461182 0.99780164 0.49716266
0.85518891 1.0004754 0.49600821
0.945766 1.0031492 0.49485377
0.067792505 -0.0039365007 0.63143279
0.15836959 -0.00126272 0.63027835
0.24894668 0.0014110607 0.6291239
0.33952377 0.0040848413 0.62796946
0.43010086 0.006758622 0.62681501
0.52067794 0.0094324027 0.62566057
0.61125503 0.012106183 0.62450612
0.70183212 0.014779964 0.62335168
0.79240921 0.017453745 0.62219723
0.088656916 0.11917702 0.63130068
0.179234 0.1218508 0.63014623
0.26981109 0.12452458 0.62899179
0.36038818 0.12719836 0.62783734
0.45096527 0.12987214 0.6266829
0.54154236 0.13254592 0.62552845
0.63211944 0.1352197 0.62437401
0.72269653 0.13789348 0.62321956
0.81327362 0.14056726 0.62206512
0.10952133 0.24229054 0.63116857
0.20009841 0.24496432 0.63001412
0.2906755 0.2476381 0.62885968
0.38125259 0.25031188 0.62770523
0.47182968 0.25298566 0.62655078
0.56240677 0.25565944 0.62539634
0.65298385 0.25833322 0.62424189
0.74356094 0.261007 0.62308745
0.83413803 0.26368078 0.621933
0.13038574 0.36540406 0.63103645
0.22096283 0.36807784 0.62988201
0.31153991 0.37075162 0.62872756
0.402117 0.3734254 0.62757312
0.49269409 0.37609918 0.62641867
0.58327118 0.37877296 0.62526423
0.67384827 0.38144674 0.62410978
0.76442535 0.38412052 0.62295534
0.85500244 0.3867943 0.62180089
0.15125015 0.48851758 0.63090434
0.24182724 0.49119136 0.62974989
0.33240432 0.49386514 0.62859545
0.42298141 0.49653892 0.627441
0.5135585 0.4992127 0.62628656
0.60413559 0.50188648 0.62513211
0.69471268 0.50456026 0.62397767
0.78528977 0.50723404 0.62282322
0.87586685 0.50990782 0.62166878
0.17211456 0.6116311 0.63077223
0.26269165 0.61430488 0.62961778
0.35326874 0.61697866 0.62846334
0.44384582 0.61965244 0.62730889
0.53442291 0.62232622 0.62615445
0.625 0.625 0.625
0.71557709 0.62767378 0.62384555
0.80615418 0.63034756 0.62269111
0.89673126 0.63302134 0.62153666
0.19297897 0.73474462 0.63064011
0.28355606 0.7374184 0.62948567
0.37413315 0.74009218 0.62833122
0.46471023 0.74276596 0.62717678
0.55528732 0.74543974 0.62602233
0.64586441 0.74811352 0.62486789
0.7364415 0.7507873 0.62371344
0.82701859 0.75346108 0.622559
0.91759568 0.75613486 0.62140455
0.21384338 0.85785814 0.630508
0.30442047 0.86053192 0.62935356
0.39499756 0.8632057 0.62819911
0.48557465 0.86587948 0.62704466
0.57615173 0.86855326 0.62589022
0.66672882 0.87122704 0.62473577
0.75730591 0.87390082 0.62358133
0.847883 0.8765746 0.62242688
0.93846009 0.87924838 0.62127244
0.23470779 0.98097166 0.63037589
0.32528488 0.98364544 0.62922144
0.41586197 0.98631922 0.628067
0.50643906 0.988993 0.62691255
0.59701615 0.99166678 0.62575811
0.68759323 0.99434056 0.62460366
0.77817032 0.99701434 0.62344922
0.86874741 0.99968812 0.62229477
0.9593245 1.0023619 0.62114032
0.081351006 -0.0047238008 0.75771935
0.17192809 -0.0020500202 0.75656491
0.26250518 0.00062376052 0.75541046
0.35308227 0.0032975412 0.75425602
0.44365936 0.0059713219 0.75310157
0.53423645 0.0086451025 0.75194712
0.62481353 0.011318883 0.75079268
0.71539062 0.013992664 0.74963823
0.80596771 0.016666445 0.74848379
0.10221542 0.11838972 0.75758724
0.1927925 0.1210635 0.75643279
0.28336959 0.12373728 0.75527835
0.37394668 0.12641106 0.7541239
0.46452377 0.12908484 0.75296946
0.55510086 0.13175862 0.75181501
0.64567794 0.1344324 0.75066057
0.73625503 0.13710618 0.74950612
0.82683212 0.13977996 0.74835168
0.12307983 0.24150324 0.75745512
0.21365692 0.24417702 0.75630068
0.304234 0.2468508 0.75514623
0.39481109 0.24952458 0.75399179
0.48538818 0.25219836 0.75283734
0.57596527 0.25487214 0.7516829
0.66654236 0.25754592 0.75052845
0.75711944 0.2602197 0.74937401
0.84769653 0.26289348 0.74821956
0.14394424 0.36461676 0.75732301
0.23452133 0.36729054 0.75616857
0.32509841 0.36996432 0.75501412
0.4156755 0.3726381 0.75385968
0.50625259 0.37531188 0.75270523
0.59682968 0.37798566 0.75155078
0.68740677 0.38065944 0.75039634
0.77798385 0.38333322 0.74924189
0.86856094 0.386007 0.74808745
0.16480865 0.48773028 0.7571909
0.25538574 0.49040406 0.75603645
0.34596283 0.49307784 0.75488201
0.43653991 0.49575162 0.75372756
0.527117 0.4984254 0.75257312
0.61769409 0.50109918 0.75141867
0.70827118 0.50377296 0.75026423
0.79884827 0.50644674 0.74910978
0.88942535 0.50912052 0.74795534
0.18567306 0.6108438 0.75705879
0.27625015 0.61351758 0.75590434
0.36682724 0.61619136 0.75474989
0.45740432 0.61886514 0.75359545
0.54798141 0.62153892 0.752441
0.6385585 0.6242127 0.75128656
0.72913559 0.62688648 0.75013211
0.81971268 0.62956026 0.74897767
0.91028977 0.63223404 0.74782322
0.20653747 0.73395732 0.75692667
0.29711456 0.7366311 0.75577223
0.38769165 0.73930488 0.75461778
0.47826874 0.74197866 0.75346334
0.56884582 0.74465244 0.75230889
0.65942291 0.74732622 0.75115445
0.75 0.75 0.75
0.84057709 0.75267378 0.74884555
0.93115418 0.75534756 0.74769111
0.22740188 0.85707084 0.75679456
0.31797897 0.85974462 0.75564011
0.40855606 0.8624184 0.75448567
0.49913315 0.86509218 0.75333122
0.58971023 0.86776596 0.75217678
0.68028732 0.87043974 0.75102233
0.77086441 0.87311352 0.74986789
0.8614415 0.8757873 0.74871344
0.95201859 0.87846108 0.747559
0.24826629 0.98018435 0.75666245
0.33884338 0.98285814 0.755508
0.42942047 0.98553192 0.75435356
0.51999756 0.9882057 0.75319911
0.61057465 0.99087948 0.75204466
0.70115173 0.99355326 0.75089022
0.79172882 0.99622704 0.74973577
0.88230591 0.99890082 0.74858133
0.972883 1.0015746 0.74742688
0.094909507 -0.005511101 0.88400591
0.18548659 -0.0028373203 0.88285146
0.27606368 -0.00016353962 0.88169702
0.36664077 0.0025102411 0.88054257
0.45721786 0.0051840217 0.87938813
0.54779495 0.0078578024 0.87823368
0.63837203 0.010531583 0.87707924
0.72894912 0.013205364 0.87592479
0.81952621 0.015879144 0.87477035
0.11577392 0.11760242 0.8838738
0.20635101 0.1202762 0.88271935
0.29692809 0.12294998 0.88156491
0.38750518 0.12562376 0.88041046
0.47808227 0.12829754 0.87925602
0.56865936 0.13097132 0.87810157
0.65923645 0.1336451 0.87694712
0.74981353 0.13631888 0.87579268
0.84039062 0.13899266 0.87463823
0.13663833 0.24071594 0.88374168
0.22721542 0.24338972 0.88258724
0.3177925 0.2460635 0.88143279
0.40836959 0.24873728 0.88027835
0.49894668 0.25141106 0.8791239
0.58952377 0.25408484 0.87796946
0.68010086 0.25675862 0.87681501
0.77067794 0.2594324 0.87566057
0.86125503 0.26210618 0.87450612
0.15750274 0.36382946 0.88360957
0.24807983 0.36650324 0.88245512
0.33865692 0.36917702 0.88130068
0.429234 0.3718508 0.88014623
0.51981109 0.37452458 0.87899179
0.61038818 0.37719836 0.87783734
0.70096527 0.37987214 0.8766829
0.79154236 0.38254592 0.87552845
0.88211944 0.3852197 0.87437401
0.17836715 0.48694298 0.88347746
0.26894424 0.48961676 0.88232301
0.35952133 0.49229054 0.88116857
0.45009841 0.49496432 0.88001412
0.5406755 0.4976381 0.87885968
0.63125259 0.50031188 0.87770523
0.72182968 0.50298566 0.87655078
0.81240677 0.50565944 0.87539634
0.90298385 0.50833322 0.87424189
0.19923156 0.6100565 0.88334534
0.28980865 0.61273028 0.8821909
0.38038574 0.61540406 0.88103645
0.47096283 0.61807784 0.87988201
0.56153991 0.62075162 0.87872756
0.652117 0.6234254 0.87757312
0.74269409 0.62609918 0.87641867
0.83327118 0.62877296 0.87526423
0.92384827 0.63144674 0.87410978
0.22009597 0.73317002 0.88321323
0.31067306 0.7358438 0.88205879
0.40125015 0.73851758 0.88090434
0.49182724 0.74119136 0.87974989
0.58240432 0.74386514 0.87859545
0.67298141 0.74653892 0.877441
0.7635585 0.7492127 0.87628656
0.85413559 0.75188648 0.87513211
0.94471268 0.75456026 0.87397767
0.24096038 0.85628354 0.88308112
0.33153747 0.85895732 0.88192667
0.42211456 0.8616311 0.88077223
0.51269165 0.86430488 0.87961778
0.60326874 0.86697866 0.87846334
0.69384582 0.86965244 0.87730889
0.78442291 0.87232622 0.87615445
0.875 0.875 0.875
0.96557709 0.87767378 0.87384555
0.26182479 0.97939705 0.882949
0.35240188 0.98207084 0.88179456
0.44297897 0.98474462 0.88064011
0.53355606 0.9874184 0.87948567
0.62413315 0.99009218 0.87833122
0.71471023 0.99276596 0.87717678
0.80528732 0.99543974 0.87602233
0.89586441 0.99811352 0.87486789
0.9864415 1.0007873 0.87371344
0.10846801 -0.0062984011 1.0102925
0.1990451 -0.0036246204 1.009138
0.28962218 -0.00095083976 1.0079836
0.38019927 0.0017229409 1.0068291
0.47077636 0.0043967216 1.0056747
0.56135345 0.0070705023 1.0045202
0.65193054 0.0097442829 1.0033658
0.74250762 0.012418064 1.0022114
0.83308471 0.015091844 1.0010569
0.12933242 0.11681512 1.0101604
0.21990951 0.1194889 1.0090059
0.31048659 0.12216268 1.0078515
0.40106368 0.12483646 1.006697
0.49164077 0.12751024 1.0055426
0.58221786 0.13018402 1.0043881
0.67279495 0.1328578 1.0032337
0.76337203 0.13553158 1.0020792
0.85394912 0.13820536 1.0009248
0.15019683 0.23992864 1.0100282
0.24077392 0.24260242 1.0088738
0.33135101 0.2452762 1.0077194
0.42192809 0.24794998 1.0065649
0.51250518 0.25062376 1.0054105
0.60308227 0.25329754 1.004256
0.69365936 0.25597132 1.0031016
0.78423645 0.2586451 1.0019471
0.87481353 0.26131888 1.0007927
0.17106124 0.36304216 1.0098961
0.26163833 0.36571594 1.0087417
0.35221542 0.36838972 1.0075872
0.4427925 0.3710635 1.0064328
0.53336959 0.37373728 1.0052783
0.62394668 0.37641106 1.0041239
0.71452377 0.37908484 1.0029695
0.80510086 0.38175862 1.001815
0.89567794 0.3844324 1.0006606
0.19192565 0.48615568 1.009764
0.28250274 0.48882946 1.0086096
0.37307983 0.49150324 1.0074551
0.46365692 0.49417702 1.0063007
0.554234 0.4968508 1.0051462
0.64481109 0.49952458 1.0039918
0.73538818 0.50219836 1.0028373
0.82596527 0.50487214 1.0016829
0.91654236 0.50754592 1.0005285
0.21279006 0.6092692 1.0096319
0.30336715 0.61194298 1.0084775
0.39394424 0.61461676 1.007323
0.48452133 0.61729054 1.0061686
0.57509841 0.61996432 1.0050141
0.6656755 0.6226381 1.0038597
0.75625259 0.62531188 1.0027052
0.84682968 0.62798566 1.0015508
0.93740677 0.63065944 1.0003963
0.23365447 0.73238272 1.0094998
0.32423156 0.7350565 1.0083453
0.41480865 0.73773028 1.0071909
0.50538574 0.74040406 1.0060365
0.59596283 0.74307784 1.004882
0.68653991 0.74575162 1.0037276
0.777117 0.7484254 1.0025731
0.86769409 0.75109918 1.0014187
0.95827118 0.75377296 1.0002642
0.25451888 0.85549624 1.0093677
0.34509597 0.85817002 1.0082132
0.43567306 0.8608438 1.0070588
0.52625015 0.86351758 1.0059043
0.61682724 0.86619136 1.0047499
0.70740432 0.86886514 1.0035954
0.79798141 0.87153892 1.002441
0.8885585 0.8742127 1.0012866
0.97913559 0.87688648 1.0001321
0.2753833 0.97860975 1.0092356
0.36596038 0.98128354 1.0080811
0.45653747 0.98395732 1.0069267
0.54711456 0.9866311 1.0057722
0.63769165 0.98930488 1.0046178
0.72826874 0.99197866 1.0034633
0.81884582 0.99465244 1.0023089
0.90942291 0.99732622 1.0011544
1 1 1
