site/assets/luts/ocio-aces--ocioutilityap0-to-srgb-encoded-p3-d65--1d9b28f81.cube
# LUTr-Project: LUTr — LUTrepository
# LUTr-Schema-Version: 1
# LUTr-ID: ocio-aces--ocioutilityap0-to-srgb-encoded-p3-d65--1d9b28f81
# LUTr-Title: OCIO.Utility.AP0 to sRGB Encoded P3-D65
# LUTr-Collection: OCIO ACES
# LUTr-Collection-ID: aswf-opencolorio-config-aces
# LUTr-Source: https://github.com/AcademySoftwareFoundation/OpenColorIO-Config-ACES
# LUTr-Source-File: submissions/aswf-opencolorio-config-aces/opencolorio_config_aces/clf/transforms/ocio/utility/OCIO.Utility.AP0_to_sRGB_Encoded_P3-D65.clf
# LUTr-Source-Format: CLF
# LUTr-Source-SHA256: 2a8ce70ff88d113265fe5838452f538c2a74da8b8c40d72c0aa255bb61abb89a
# LUTr-License: BSD-3-Clause
# LUTr-License-URL: https://github.com/AcademySoftwareFoundation/OpenColorIO-Config-ACES/blob/main/LICENSE
# LUTr-Tags: technical, aces, ocio, clf, color-management, cube
# LUTr-Transform-Class: color-space-conversion
# LUTr-Input-Color-Space: ACES2065-1
# LUTr-Output-Color-Space: sRGB Encoded P3-D65 primaries, D65 white point
# LUTr-Color-Space-Confidence: descriptor-only
# LUTr-Conversion-Method: CLF operations evaluated as float and sampled to 33x33x33 3D CUBE
# LUTr-Conversion-Date: 2026-07-27
# LUTr-Conversion-Tool: LUTr scripts/convert-all-to-cube.mjs
# LUTr-Conversion-Grid: 33x33x33
# LUTr-Conversion-Warning: A sampled 3D CUBE is bounded to DOMAIN_MIN/MAX 0..1 and cannot preserve CLF values outside its input domain.
# LUTr-Upstream-ID: urn:aswf:ocio:transformId:1.0:OCIO:Utility:AP0_to_sRGB_Encoded_P3-D65:1.0
# LUTr-Upstream-Name: AP0 to sRGB Encoded P3-D65
# LUTr-Upstream-Input-Descriptor: ACES2065-1
# LUTr-Upstream-Output-Descriptor: sRGB Encoded P3-D65 primaries, D65 white point
# LUTr-Upstream-Operations: Matrix → Exponent
# LUTr-Note: Preserve this metadata and the upstream license notices when redistributing.
TITLE "OCIO.Utility.AP0 to sRGB Encoded P3-D65"
LUT_3D_SIZE 5
DOMAIN_MIN 0 0 0
DOMAIN_MAX 1 1 1
0 0 0
0.00075783064 -0.000068712081 0.0000033902105
0.0015156613 -0.00013742416 0.000006780421
0.0022734919 -0.00020613624 0.000010170632
0.0030313226 -0.00027484833 0.000013560842
-0.00025788771 0.00048260396 -0.00002218571
0.00049994294 0.00041389188 -0.000018795499
0.0012577736 0.0003451798 -0.000015405289
0.0020156042 0.00027646772 -0.000012015078
0.0027734349 0.00020775564 -0.0000086248677
-0.00051577541 0.00096520793 -0.00004437142
0.00024205523 0.00089649585 -0.000040981209
0.00099988587 0.00082778376 -0.000037590999
0.0017577165 0.00075907168 -0.000034200788
0.0025155472 0.0006903596 -0.000030810577
-0.00077366312 0.0014478119 -0.000066557129
-0.000015832476 0.0013790998 -0.000063166919
0.00074199816 0.0013103877 -0.000059776708
0.0014998288 0.0012416756 -0.000056386498
0.0022576594 0.0011729636 -0.000052996287
-0.0010315508 0.0019304159 -0.000088742839
-0.00027372018 0.0018617038 -0.000085352629
0.00048411046 0.0017929917 -0.000081962418
0.0012419411 0.0017242796 -0.000078572208
0.0019997717 0.0016555675 -0.000075181997
-0.00012568808 -0.000039637023 0.00039305036
0.00063214256 -0.0001083491 0.00039644057
0.0013899732 -0.00017706119 0.00039983078
0.0021478038 -0.00024577327 0.00040322099
0.0029056345 -0.00031448535 0.0004066112
-0.00038357578 0.00044296694 0.00037086465
0.00037425486 0.00037425486 0.00037425486
0.0011320855 0.00030554278 0.00037764507
0.0018899161 0.0002368307 0.00038103528
0.0026477468 0.00016811861 0.00038442549
-0.00064146349 0.0009255709 0.00034867894
0.00011636715 0.00085685882 0.00035206915
0.00087419779 0.00078814674 0.00035545936
0.0016320284 0.00071943466 0.00035884957
0.0023898591 0.00065072258 0.00036223978
-0.00089935119 0.0014081749 0.00032649323
-0.00014152055 0.0013394628 0.00032988344
0.00061631009 0.0012707507 0.00033327365
0.0013741407 0.0012020386 0.00033666386
0.0021319714 0.0011333265 0.00034005407
-0.0011572389 0.0018907788 0.00030430752
-0.00039940826 0.0018220667 0.00030769773
0.00035842238 0.0017533547 0.00031108794
0.001116253 0.0016846426 0.00031447815
0.0018740837 0.0016159305 0.00031786836
-0.00025137615 -0.000079274047 0.00078610072
0.00050645449 -0.00014798613 0.00078949093
0.0012642851 -0.00021669821 0.00079288114
0.0020221158 -0.00028541029 0.00079627135
0.0027799464 -0.00035412237 0.00079966156
-0.00050926386 0.00040332992 0.00076391501
0.00024856678 0.00033461784 0.00076730522
0.0010063974 0.00026590575 0.00077069543
0.0017642281 0.00019719367 0.00077408564
0.0025220587 0.00012848159 0.00077747585
-0.00076715157 0.00088593388 0.0007417293
-0.0000093209243 0.0008172218 0.00074511951
0.00074850972 0.00074850972 0.00074850972
0.0015063404 0.00067979764 0.00075189993
0.002264171 0.00061108555 0.00075529014
-0.0010250393 0.0013685378 0.00071954359
-0.00026720863 0.0012998258 0.0007229338
0.00049062201 0.0012311137 0.00072632401
0.0012484527 0.0011624016 0.00072971422
0.0020062833 0.0010936895 0.00073310443
-0.001282927 0.0018511418 0.00069735788
-0.00052509634 0.0017824297 0.00070074809
0.00023273431 0.0017137176 0.0007041383
0.00099056495 0.0016450056 0.00070752851
0.0017483956 0.0015762935 0.00071091872
-0.00037706423 -0.00011891107 0.0011791511
0.00038076641 -0.00018762315 0.0011825413
0.0011385971 -0.00025633523 0.0011859315
0.0018964277 -0.00032504731 0.0011893217
0.0026542583 -0.0003937594 0.0011927119
-0.00063495194 0.00036369289 0.0011569654
0.0001228787 0.00029498081 0.0011603556
0.00088070935 0.00022626873 0.0011637458
0.00163854 0.00015755665 0.001167136
0.0023963706 0.000088844568 0.0011705262
-0.00089283964 0.00084629686 0.0011347797
-0.000135009 0.00077758477 0.0011381699
0.00062282164 0.00070887269 0.0011415601
0.0013806523 0.00064016061 0.0011449503
0.0021384829 0.00057144853 0.0011483405
-0.0011507273 0.0013289008 0.0011125939
-0.00039289671 0.0012601887 0.0011159842
0.00036493393 0.0011914767 0.0011193744
0.0011227646 0.0011227646 0.0011227646
0.0018805952 0.0010540525 0.0011261548
-0.0014086151 0.0018115048 0.0010904082
-0.00065078441 0.0017427927 0.0010937984
0.00010704623 0.0016740806 0.0010971887
0.00086487687 0.0016053685 0.0011005789
0.0016227075 0.0015366565 0.0011039691
-0.00050275231 -0.00015854809 0.0015722014
0.00025507833 -0.00022726018 0.0015755916
0.001012909 -0.00029597226 0.0015789819
0.0017707396 -0.00036468434 0.0015823721
0.0025285703 -0.00043339642 0.0015857623
-0.00076064001 0.00032405587 0.0015500157
-0.0000028093721 0.00025534379 0.0015534059
0.00075502127 0.00018663171 0.0015567961
0.0015128519 0.00011791963 0.0015601864
0.0022706826 0.000049207544 0.0015635766
-0.0010185277 0.00080665983 0.00152783
-0.00026069708 0.00073794775 0.0015312202
0.00049713356 0.00066923567 0.0015346104
0.0012549642 0.00060052359 0.0015380006
0.0020127948 0.00053181151 0.0015413909
-0.0012764154 0.0012892638 0.0015056443
-0.00051858478 0.0012205517 0.0015090345
0.00023924586 0.0011518396 0.0015124247
0.0009970765 0.0010831276 0.0015158149
0.0017549071 0.0010144155 0.0015192051
-0.0015343031 0.0017718678 0.0014834586
-0.00077647249 0.0017031557 0.0014868488
-0.000018641849 0.0016344436 0.001490239
0.00073918879 0.0015657315 0.0014936292
0.0014970194 0.0014970194 0.0014970194
