site/assets/luts/ocio-aces--appleinputapple-log-curve--f0cfcc059.cube
# LUTr-Project: LUTr — LUTrepository
# LUTr-Schema-Version: 1
# LUTr-ID: ocio-aces--appleinputapple-log-curve--f0cfcc059
# LUTr-Title: Apple.Input.Apple Log-Curve
# LUTr-Collection: OCIO ACES
# LUTr-Collection-ID: aswf-opencolorio-config-aces
# LUTr-Source: https://github.com/AcademySoftwareFoundation/OpenColorIO-Config-ACES
# LUTr-Source-File: submissions/aswf-opencolorio-config-aces/opencolorio_config_aces/clf/transforms/apple/input/Apple.Input.Apple_Log-Curve.clf
# LUTr-Source-Format: CLF
# LUTr-Source-SHA256: d174df49d3e327662d67a26c0b602da39acc31a678c0700c9e257fdabc2f27da
# LUTr-License: BSD-3-Clause
# LUTr-License-URL: https://github.com/AcademySoftwareFoundation/OpenColorIO-Config-ACES/blob/main/LICENSE
# LUTr-Tags: technical, aces, ocio, clf, color-management, cube
# LUTr-Transform-Class: color-space-conversion
# LUTr-Input-Color-Space: Apple Log (arbitrary primaries)
# LUTr-Output-Color-Space: Linear (arbitrary primaries)
# LUTr-Color-Space-Confidence: descriptor-only
# LUTr-Conversion-Method: CLF operations evaluated as float and sampled to 33x33x33 3D CUBE
# LUTr-Conversion-Date: 2026-07-27
# LUTr-Conversion-Tool: LUTr scripts/convert-all-to-cube.mjs
# LUTr-Conversion-Grid: 33x33x33
# LUTr-Conversion-Warning: A sampled 3D CUBE is bounded to DOMAIN_MIN/MAX 0..1 and cannot preserve CLF values outside its input domain.
# LUTr-Upstream-ID: urn:aswf:ocio:transformId:1.0:Apple:Input:Apple_Log-Curve_to_Linear:1.0
# LUTr-Upstream-Name: Apple Log to Linear Curve
# LUTr-Upstream-Input-Descriptor: Apple Log (arbitrary primaries)
# LUTr-Upstream-Output-Descriptor: Linear (arbitrary primaries)
# LUTr-Upstream-Builtin-Transform: CURVE - APPLE_LOG_to_LINEAR
# LUTr-Upstream-Operations: LUT1D
# LUTr-Note: Preserve this metadata and the upstream license notices when redistributing.
TITLE "Apple.Input.Apple Log-Curve"
LUT_3D_SIZE 33
DOMAIN_MIN 0 0 0
DOMAIN_MAX 1 1 1
-0.056410879 -0.056410879 -0.056410879
-0.03070375 -0.056410879 -0.056410879
-0.020055506 -0.056410879 -0.056410879
-0.011884823 -0.056410879 -0.056410879
-0.0049966178 -0.056410879 -0.056410879
0.0010720128 -0.056410879 -0.056410879
0.0065584742 -0.056410879 -0.056410879
0.01169212 -0.056410879 -0.056410879
0.017842472 -0.056410879 -0.056410879
0.025766015 -0.056410879 -0.056410879
0.035973974 -0.056410879 -0.056410879
0.04912496 -0.056410879 -0.056410879
0.066067465 -0.056410879 -0.056410879
0.087894619 -0.056410879 -0.056410879
0.1160147 -0.056410879 -0.056410879
0.152242 -0.056410879 -0.056410879
0.19891389 -0.056410879 -0.056410879
0.25904161 -0.056410879 -0.056410879
0.33650461 -0.056410879 -0.056410879
0.43630072 -0.056410879 -0.056410879
0.56486875 -0.056410879 -0.056410879
0.73050392 -0.056410879 -0.056410879
0.94389284 -0.056410879 -0.056410879
1.2188033 -0.056410879 -0.056410879
1.5729724 -0.056410879 -0.056410879
2.0292511 -0.056410879 -0.056410879
2.6170783 -0.056410879 -0.056410879
3.3743799 -0.056410879 -0.056410879
4.3500175 -0.056410879 -0.056410879
5.6069379 -0.056410879 -0.056410879
7.2262378 -0.056410879 -0.056410879
9.3123932 -0.056410879 -0.056410879
12.000002 -0.056410879 -0.056410879
-0.056410879 -0.03070375 -0.056410879
-0.03070375 -0.03070375 -0.056410879
-0.020055506 -0.03070375 -0.056410879
-0.011884823 -0.03070375 -0.056410879
-0.0049966178 -0.03070375 -0.056410879
0.0010720128 -0.03070375 -0.056410879
0.0065584742 -0.03070375 -0.056410879
0.01169212 -0.03070375 -0.056410879
0.017842472 -0.03070375 -0.056410879
0.025766015 -0.03070375 -0.056410879
0.035973974 -0.03070375 -0.056410879
0.04912496 -0.03070375 -0.056410879
0.066067465 -0.03070375 -0.056410879
0.087894619 -0.03070375 -0.056410879
0.1160147 -0.03070375 -0.056410879
0.152242 -0.03070375 -0.056410879
0.19891389 -0.03070375 -0.056410879
0.25904161 -0.03070375 -0.056410879
0.33650461 -0.03070375 -0.056410879
0.43630072 -0.03070375 -0.056410879
0.56486875 -0.03070375 -0.056410879
0.73050392 -0.03070375 -0.056410879
0.94389284 -0.03070375 -0.056410879
1.2188033 -0.03070375 -0.056410879
1.5729724 -0.03070375 -0.056410879
2.0292511 -0.03070375 -0.056410879
2.6170783 -0.03070375 -0.056410879
3.3743799 -0.03070375 -0.056410879
4.3500175 -0.03070375 -0.056410879
5.6069379 -0.03070375 -0.056410879
7.2262378 -0.03070375 -0.056410879
9.3123932 -0.03070375 -0.056410879
12.000002 -0.03070375 -0.056410879
-0.056410879 -0.020055506 -0.056410879
-0.03070375 -0.020055506 -0.056410879
-0.020055506 -0.020055506 -0.056410879
-0.011884823 -0.020055506 -0.056410879
-0.0049966178 -0.020055506 -0.056410879
0.0010720128 -0.020055506 -0.056410879
0.0065584742 -0.020055506 -0.056410879
0.01169212 -0.020055506 -0.056410879
0.017842472 -0.020055506 -0.056410879
0.025766015 -0.020055506 -0.056410879
0.035973974 -0.020055506 -0.056410879
0.04912496 -0.020055506 -0.056410879
0.066067465 -0.020055506 -0.056410879
0.087894619 -0.020055506 -0.056410879
0.1160147 -0.020055506 -0.056410879
0.152242 -0.020055506 -0.056410879
0.19891389 -0.020055506 -0.056410879
0.25904161 -0.020055506 -0.056410879
0.33650461 -0.020055506 -0.056410879
0.43630072 -0.020055506 -0.056410879
0.56486875 -0.020055506 -0.056410879
0.73050392 -0.020055506 -0.056410879
0.94389284 -0.020055506 -0.056410879
1.2188033 -0.020055506 -0.056410879
1.5729724 -0.020055506 -0.056410879
2.0292511 -0.020055506 -0.056410879
2.6170783 -0.020055506 -0.056410879
3.3743799 -0.020055506 -0.056410879
4.3500175 -0.020055506 -0.056410879
5.6069379 -0.020055506 -0.056410879
7.2262378 -0.020055506 -0.056410879
9.3123932 -0.020055506 -0.056410879
12.000002 -0.020055506 -0.056410879
-0.056410879 -0.011884823 -0.056410879
-0.03070375 -0.011884823 -0.056410879
-0.020055506 -0.011884823 -0.056410879
-0.011884823 -0.011884823 -0.056410879
-0.0049966178 -0.011884823 -0.056410879
0.0010720128 -0.011884823 -0.056410879
0.0065584742 -0.011884823 -0.056410879
0.01169212 -0.011884823 -0.056410879
0.017842472 -0.011884823 -0.056410879
0.025766015 -0.011884823 -0.056410879
0.035973974 -0.011884823 -0.056410879
0.04912496 -0.011884823 -0.056410879
0.066067465 -0.011884823 -0.056410879
0.087894619 -0.011884823 -0.056410879
0.1160147 -0.011884823 -0.056410879
0.152242 -0.011884823 -0.056410879
0.19891389 -0.011884823 -0.056410879
0.25904161 -0.011884823 -0.056410879
0.33650461 -0.011884823 -0.056410879
0.43630072 -0.011884823 -0.056410879
0.56486875 -0.011884823 -0.056410879
0.73050392 -0.011884823 -0.056410879
0.94389284 -0.011884823 -0.056410879
1.2188033 -0.011884823 -0.056410879
1.5729724 -0.011884823 -0.056410879
2.0292511 -0.011884823 -0.056410879
2.6170783 -0.011884823 -0.056410879
3.3743799 -0.011884823 -0.056410879
4.3500175 -0.011884823 -0.056410879
5.6069379 -0.011884823 -0.056410879
7.2262378 -0.011884823 -0.056410879
9.3123932 -0.011884823 -0.056410879
12.000002 -0.011884823 -0.056410879
-0.056410879 -0.0049966178 -0.056410879
-0.03070375 -0.0049966178 -0.056410879
-0.020055506 -0.0049966178 -0.056410879
-0.011884823 -0.0049966178 -0.056410879
-0.0049966178 -0.0049966178 -0.056410879
0.0010720128 -0.0049966178 -0.056410879
0.0065584742 -0.0049966178 -0.056410879
0.01169212 -0.0049966178 -0.056410879
0.017842472 -0.0049966178 -0.056410879
0.025766015 -0.0049966178 -0.056410879
0.035973974 -0.0049966178 -0.056410879
0.04912496 -0.0049966178 -0.056410879
0.066067465 -0.0049966178 -0.056410879
0.087894619 -0.0049966178 -0.056410879
0.1160147 -0.0049966178 -0.056410879
0.152242 -0.0049966178 -0.056410879
0.19891389 -0.0049966178 -0.056410879
0.25904161 -0.0049966178 -0.056410879
0.33650461 -0.0049966178 -0.056410879
0.43630072 -0.0049966178 -0.056410879
0.56486875 -0.0049966178 -0.056410879
0.73050392 -0.0049966178 -0.056410879
0.94389284 -0.0049966178 -0.056410879
1.2188033 -0.0049966178 -0.056410879
1.5729724 -0.0049966178 -0.056410879
2.0292511 -0.0049966178 -0.056410879
2.6170783 -0.0049966178 -0.056410879
3.3743799 -0.0049966178 -0.056410879
4.3500175 -0.0049966178 -0.056410879
5.6069379 -0.0049966178 -0.056410879
7.2262378 -0.0049966178 -0.056410879
9.3123932 -0.0049966178 -0.056410879
12.000002 -0.0049966178 -0.056410879
-0.056410879 0.0010720128 -0.056410879
-0.03070375 0.0010720128 -0.056410879
-0.020055506 0.0010720128 -0.056410879
-0.011884823 0.0010720128 -0.056410879
-0.0049966178 0.0010720128 -0.056410879
0.0010720128 0.0010720128 -0.056410879
0.0065584742 0.0010720128 -0.056410879
0.01169212 0.0010720128 -0.056410879
0.017842472 0.0010720128 -0.056410879
0.025766015 0.0010720128 -0.056410879
0.035973974 0.0010720128 -0.056410879
0.04912496 0.0010720128 -0.056410879
0.066067465 0.0010720128 -0.056410879
0.087894619 0.0010720128 -0.056410879
0.1160147 0.0010720128 -0.056410879
0.152242 0.0010720128 -0.056410879
0.19891389 0.0010720128 -0.056410879
0.25904161 0.0010720128 -0.056410879
0.33650461 0.0010720128 -0.056410879
0.43630072 0.0010720128 -0.056410879
0.56486875 0.0010720128 -0.056410879
0.73050392 0.0010720128 -0.056410879
0.94389284 0.0010720128 -0.056410879
1.2188033 0.0010720128 -0.056410879
1.5729724 0.0010720128 -0.056410879
2.0292511 0.0010720128 -0.056410879
2.6170783 0.0010720128 -0.056410879
3.3743799 0.0010720128 -0.056410879
4.3500175 0.0010720128 -0.056410879
5.6069379 0.0010720128 -0.056410879
7.2262378 0.0010720128 -0.056410879
9.3123932 0.0010720128 -0.056410879
12.000002 0.0010720128 -0.056410879
-0.056410879 0.0065584742 -0.056410879
-0.03070375 0.0065584742 -0.056410879
-0.020055506 0.0065584742 -0.056410879
-0.011884823 0.0065584742 -0.056410879
-0.0049966178 0.0065584742 -0.056410879
0.0010720128 0.0065584742 -0.056410879
0.0065584742 0.0065584742 -0.056410879
0.01169212 0.0065584742 -0.056410879
0.017842472 0.0065584742 -0.056410879
0.025766015 0.0065584742 -0.056410879
0.035973974 0.0065584742 -0.056410879
0.04912496 0.0065584742 -0.056410879
0.066067465 0.0065584742 -0.056410879
0.087894619 0.0065584742 -0.056410879
0.1160147 0.0065584742 -0.056410879
0.152242 0.0065584742 -0.056410879
0.19891389 0.0065584742 -0.056410879
0.25904161 0.0065584742 -0.056410879
0.33650461 0.0065584742 -0.056410879
0.43630072 0.0065584742 -0.056410879
0.56486875 0.0065584742 -0.056410879
0.73050392 0.0065584742 -0.056410879
0.94389284 0.0065584742 -0.056410879
1.2188033 0.0065584742 -0.056410879
1.5729724 0.0065584742 -0.056410879
2.0292511 0.0065584742 -0.056410879
2.6170783 0.0065584742 -0.056410879
3.3743799 0.0065584742 -0.056410879
4.3500175 0.0065584742 -0.056410879
5.6069379 0.0065584742 -0.056410879
7.2262378 0.0065584742 -0.056410879
9.3123932 0.0065584742 -0.056410879
12.000002 0.0065584742 -0.056410879
-0.056410879 0.01169212 -0.056410879
-0.03070375 0.01169212 -0.056410879
-0.020055506 0.01169212 -0.056410879
-0.011884823 0.01169212 -0.056410879
-0.0049966178 0.01169212 -0.056410879
0.0010720128 0.01169212 -0.056410879
0.0065584742 0.01169212 -0.056410879
0.01169212 0.01169212 -0.056410879
0.017842472 0.01169212 -0.056410879
0.025766015 0.01169212 -0.056410879
0.035973974 0.01169212 -0.056410879
0.04912496 0.01169212 -0.056410879
0.066067465 0.01169212 -0.056410879
0.087894619 0.01169212 -0.056410879
0.1160147 0.01169212 -0.056410879
0.152242 0.01169212 -0.056410879
0.19891389 0.01169212 -0.056410879
0.25904161 0.01169212 -0.056410879
0.33650461 0.01169212 -0.056410879
0.43630072 0.01169212 -0.056410879
0.56486875 0.01169212 -0.056410879
0.73050392 0.01169212 -0.056410879
0.94389284 0.01169212 -0.056410879
1.2188033 0.01169212 -0.056410879
1.5729724 0.01169212 -0.056410879
2.0292511 0.01169212 -0.056410879
2.6170783 0.01169212 -0.056410879
3.3743799 0.01169212 -0.056410879
4.3500175 0.01169212 -0.056410879
5.6069379 0.01169212 -0.056410879
7.2262378 0.01169212 -0.056410879
9.3123932 0.01169212 -0.056410879
12.000002 0.01169212 -0.056410879
-0.056410879 0.017842472 -0.056410879
-0.03070375 0.017842472 -0.056410879
-0.020055506 0.017842472 -0.056410879
-0.011884823 0.017842472 -0.056410879
-0.0049966178 0.017842472 -0.056410879
0.0010720128 0.017842472 -0.056410879
0.0065584742 0.017842472 -0.056410879
0.01169212 0.017842472 -0.056410879
0.017842472 0.017842472 -0.056410879
0.025766015 0.017842472 -0.056410879
0.035973974 0.017842472 -0.056410879
0.04912496 0.017842472 -0.056410879
0.066067465 0.017842472 -0.056410879
0.087894619 0.017842472 -0.056410879
0.1160147 0.017842472 -0.056410879
0.152242 0.017842472 -0.056410879
0.19891389 0.017842472 -0.056410879
0.25904161 0.017842472 -0.056410879
0.33650461 0.017842472 -0.056410879
0.43630072 0.017842472 -0.056410879
0.56486875 0.017842472 -0.056410879
0.73050392 0.017842472 -0.056410879
0.94389284 0.017842472 -0.056410879
1.2188033 0.017842472 -0.056410879
1.5729724 0.017842472 -0.056410879
2.0292511 0.017842472 -0.056410879
2.6170783 0.017842472 -0.056410879
3.3743799 0.017842472 -0.056410879
4.3500175 0.017842472 -0.056410879
5.6069379 0.017842472 -0.056410879
7.2262378 0.017842472 -0.056410879
9.3123932 0.017842472 -0.056410879
12.000002 0.017842472 -0.056410879
-0.056410879 0.025766015 -0.056410879
-0.03070375 0.025766015 -0.056410879
-0.020055506 0.025766015 -0.056410879
-0.011884823 0.025766015 -0.056410879
-0.0049966178 0.025766015 -0.056410879
0.0010720128 0.025766015 -0.056410879
0.0065584742 0.025766015 -0.056410879
0.01169212 0.025766015 -0.056410879
0.017842472 0.025766015 -0.056410879
0.025766015 0.025766015 -0.056410879
0.035973974 0.025766015 -0.056410879
0.04912496 0.025766015 -0.056410879
0.066067465 0.025766015 -0.056410879
0.087894619 0.025766015 -0.056410879
0.1160147 0.025766015 -0.056410879
0.152242 0.025766015 -0.056410879
0.19891389 0.025766015 -0.056410879
0.25904161 0.025766015 -0.056410879
0.33650461 0.025766015 -0.056410879
0.43630072 0.025766015 -0.056410879
0.56486875 0.025766015 -0.056410879
0.73050392 0.025766015 -0.056410879
0.94389284 0.025766015 -0.056410879
1.2188033 0.025766015 -0.056410879
1.5729724 0.025766015 -0.056410879
2.0292511 0.025766015 -0.056410879
2.6170783 0.025766015 -0.056410879
3.3743799 0.025766015 -0.056410879
4.3500175 0.025766015 -0.056410879
5.6069379 0.025766015 -0.056410879
7.2262378 0.025766015 -0.056410879
9.3123932 0.025766015 -0.056410879
12.000002 0.025766015 -0.056410879
-0.056410879 0.035973974 -0.056410879
-0.03070375 0.035973974 -0.056410879
-0.020055506 0.035973974 -0.056410879
-0.011884823 0.035973974 -0.056410879
-0.0049966178 0.035973974 -0.056410879
0.0010720128 0.035973974 -0.056410879
0.0065584742 0.035973974 -0.056410879
0.01169212 0.035973974 -0.056410879
0.017842472 0.035973974 -0.056410879
0.025766015 0.035973974 -0.056410879
0.035973974 0.035973974 -0.056410879
0.04912496 0.035973974 -0.056410879
0.066067465 0.035973974 -0.056410879
0.087894619 0.035973974 -0.056410879
0.1160147 0.035973974 -0.056410879
0.152242 0.035973974 -0.056410879
0.19891389 0.035973974 -0.056410879
0.25904161 0.035973974 -0.056410879
0.33650461 0.035973974 -0.056410879
0.43630072 0.035973974 -0.056410879
0.56486875 0.035973974 -0.056410879
0.73050392 0.035973974 -0.056410879
0.94389284 0.035973974 -0.056410879
1.2188033 0.035973974 -0.056410879
1.5729724 0.035973974 -0.056410879
2.0292511 0.035973974 -0.056410879
2.6170783 0.035973974 -0.056410879
3.3743799 0.035973974 -0.056410879
4.3500175 0.035973974 -0.056410879
5.6069379 0.035973974 -0.056410879
7.2262378 0.035973974 -0.056410879
9.3123932 0.035973974 -0.056410879
12.000002 0.035973974 -0.056410879
-0.056410879 0.04912496 -0.056410879
-0.03070375 0.04912496 -0.056410879
-0.020055506 0.04912496 -0.056410879
-0.011884823 0.04912496 -0.056410879
-0.0049966178 0.04912496 -0.056410879
0.0010720128 0.04912496 -0.056410879
0.0065584742 0.04912496 -0.056410879
0.01169212 0.04912496 -0.056410879
0.017842472 0.04912496 -0.056410879
0.025766015 0.04912496 -0.056410879
0.035973974 0.04912496 -0.056410879
0.04912496 0.04912496 -0.056410879
0.066067465 0.04912496 -0.056410879
0.087894619 0.04912496 -0.056410879
0.1160147 0.04912496 -0.056410879
0.152242 0.04912496 -0.056410879
0.19891389 0.04912496 -0.056410879
0.25904161 0.04912496 -0.056410879
0.33650461 0.04912496 -0.056410879
0.43630072 0.04912496 -0.056410879
0.56486875 0.04912496 -0.056410879
0.73050392 0.04912496 -0.056410879
0.94389284 0.04912496 -0.056410879
1.2188033 0.04912496 -0.056410879
1.5729724 0.04912496 -0.056410879
2.0292511 0.04912496 -0.056410879
2.6170783 0.04912496 -0.056410879
3.3743799 0.04912496 -0.056410879
4.3500175 0.04912496 -0.056410879
5.6069379 0.04912496 -0.056410879
7.2262378 0.04912496 -0.056410879
9.3123932 0.04912496 -0.056410879
12.000002 0.04912496 -0.056410879
-0.056410879 0.066067465 -0.056410879
-0.03070375 0.066067465 -0.056410879
-0.020055506 0.066067465 -0.056410879
-0.011884823 0.066067465 -0.056410879
-0.0049966178 0.066067465 -0.056410879
0.0010720128 0.066067465 -0.056410879
0.0065584742 0.066067465 -0.056410879
0.01169212 0.066067465 -0.056410879
0.017842472 0.066067465 -0.056410879
0.025766015 0.066067465 -0.056410879
0.035973974 0.066067465 -0.056410879
0.04912496 0.066067465 -0.056410879
0.066067465 0.066067465 -0.056410879
0.087894619 0.066067465 -0.056410879
0.1160147 0.066067465 -0.056410879
0.152242 0.066067465 -0.056410879
0.19891389 0.066067465 -0.056410879
0.25904161 0.066067465 -0.056410879
0.33650461 0.066067465 -0.056410879
0.43630072 0.066067465 -0.056410879
0.56486875 0.066067465 -0.056410879
0.73050392 0.066067465 -0.056410879
0.94389284 0.066067465 -0.056410879
1.2188033 0.066067465 -0.056410879
1.5729724 0.066067465 -0.056410879
2.0292511 0.066067465 -0.056410879
2.6170783 0.066067465 -0.056410879
3.3743799 0.066067465 -0.056410879
4.3500175 0.066067465 -0.056410879
5.6069379 0.066067465 -0.056410879
7.2262378 0.066067465 -0.056410879
9.3123932 0.066067465 -0.056410879
12.000002 0.066067465 -0.056410879
-0.056410879 0.087894619 -0.056410879
-0.03070375 0.087894619 -0.056410879
-0.020055506 0.087894619 -0.056410879
-0.011884823 0.087894619 -0.056410879
-0.0049966178 0.087894619 -0.056410879
0.0010720128 0.087894619 -0.056410879
0.0065584742 0.087894619 -0.056410879
0.01169212 0.087894619 -0.056410879
0.017842472 0.087894619 -0.056410879
0.025766015 0.087894619 -0.056410879
0.035973974 0.087894619 -0.056410879
0.04912496 0.087894619 -0.056410879
0.066067465 0.087894619 -0.056410879
0.087894619 0.087894619 -0.056410879
0.1160147 0.087894619 -0.056410879
0.152242 0.087894619 -0.056410879
0.19891389 0.087894619 -0.056410879
0.25904161 0.087894619 -0.056410879
0.33650461 0.087894619 -0.056410879
0.43630072 0.087894619 -0.056410879
0.56486875 0.087894619 -0.056410879
0.73050392 0.087894619 -0.056410879
0.94389284 0.087894619 -0.056410879
1.2188033 0.087894619 -0.056410879
1.5729724 0.087894619 -0.056410879
2.0292511 0.087894619 -0.056410879
2.6170783 0.087894619 -0.056410879
3.3743799 0.087894619 -0.056410879
4.3500175 0.087894619 -0.056410879
5.6069379 0.087894619 -0.056410879
7.2262378 0.087894619 -0.056410879
9.3123932 0.087894619 -0.056410879
12.000002 0.087894619 -0.056410879
-0.056410879 0.1160147 -0.056410879
-0.03070375 0.1160147 -0.056410879
-0.020055506 0.1160147 -0.056410879
-0.011884823 0.1160147 -0.056410879
-0.0049966178 0.1160147 -0.056410879
0.0010720128 0.1160147 -0.056410879
0.0065584742 0.1160147 -0.056410879
0.01169212 0.1160147 -0.056410879
0.017842472 0.1160147 -0.056410879
0.025766015 0.1160147 -0.056410879
0.035973974 0.1160147 -0.056410879
0.04912496 0.1160147 -0.056410879
0.066067465 0.1160147 -0.056410879
0.087894619 0.1160147 -0.056410879
0.1160147 0.1160147 -0.056410879
0.152242 0.1160147 -0.056410879
0.19891389 0.1160147 -0.056410879
0.25904161 0.1160147 -0.056410879
0.33650461 0.1160147 -0.056410879
0.43630072 0.1160147 -0.056410879
0.56486875 0.1160147 -0.056410879
0.73050392 0.1160147 -0.056410879
0.94389284 0.1160147 -0.056410879
1.2188033 0.1160147 -0.056410879
1.5729724 0.1160147 -0.056410879
2.0292511 0.1160147 -0.056410879
2.6170783 0.1160147 -0.056410879
3.3743799 0.1160147 -0.056410879
4.3500175 0.1160147 -0.056410879
5.6069379 0.1160147 -0.056410879
7.2262378 0.1160147 -0.056410879
9.3123932 0.1160147 -0.056410879
12.000002 0.1160147 -0.056410879
-0.056410879 0.152242 -0.056410879
-0.03070375 0.152242 -0.056410879
-0.020055506 0.152242 -0.056410879
-0.011884823 0.152242 -0.056410879
-0.0049966178 0.152242 -0.056410879
0.0010720128 0.152242 -0.056410879
0.0065584742 0.152242 -0.056410879
0.01169212 0.152242 -0.056410879
0.017842472 0.152242 -0.056410879
0.025766015 0.152242 -0.056410879
0.035973974 0.152242 -0.056410879
0.04912496 0.152242 -0.056410879
0.066067465 0.152242 -0.056410879
0.087894619 0.152242 -0.056410879
0.1160147 0.152242 -0.056410879
0.152242 0.152242 -0.056410879
0.19891389 0.152242 -0.056410879
0.25904161 0.152242 -0.056410879
0.33650461 0.152242 -0.056410879
0.43630072 0.152242 -0.056410879
0.56486875 0.152242 -0.056410879
0.73050392 0.152242 -0.056410879
0.94389284 0.152242 -0.056410879
1.2188033 0.152242 -0.056410879
1.5729724 0.152242 -0.056410879
2.0292511 0.152242 -0.056410879
2.6170783 0.152242 -0.056410879
3.3743799 0.152242 -0.056410879
4.3500175 0.152242 -0.056410879
5.6069379 0.152242 -0.056410879
7.2262378 0.152242 -0.056410879
9.3123932 0.152242 -0.056410879
12.000002 0.152242 -0.056410879
-0.056410879 0.19891389 -0.056410879
-0.03070375 0.19891389 -0.056410879
-0.020055506 0.19891389 -0.056410879
-0.011884823 0.19891389 -0.056410879
-0.0049966178 0.19891389 -0.056410879
0.0010720128 0.19891389 -0.056410879
0.0065584742 0.19891389 -0.056410879
0.01169212 0.19891389 -0.056410879
0.017842472 0.19891389 -0.056410879
0.025766015 0.19891389 -0.056410879
0.035973974 0.19891389 -0.056410879
0.04912496 0.19891389 -0.056410879
0.066067465 0.19891389 -0.056410879
0.087894619 0.19891389 -0.056410879
0.1160147 0.19891389 -0.056410879
0.152242 0.19891389 -0.056410879
0.19891389 0.19891389 -0.056410879
0.25904161 0.19891389 -0.056410879
0.33650461 0.19891389 -0.056410879
0.43630072 0.19891389 -0.056410879
0.56486875 0.19891389 -0.056410879
0.73050392 0.19891389 -0.056410879
0.94389284 0.19891389 -0.056410879
1.2188033 0.19891389 -0.056410879
1.5729724 0.19891389 -0.056410879
2.0292511 0.19891389 -0.056410879
2.6170783 0.19891389 -0.056410879
3.3743799 0.19891389 -0.056410879
4.3500175 0.19891389 -0.056410879
5.6069379 0.19891389 -0.056410879
7.2262378 0.19891389 -0.056410879
9.3123932 0.19891389 -0.056410879
12.000002 0.19891389 -0.056410879
-0.056410879 0.25904161 -0.056410879
-0.03070375 0.25904161 -0.056410879
-0.020055506 0.25904161 -0.056410879
-0.011884823 0.25904161 -0.056410879
-0.0049966178 0.25904161 -0.056410879
0.0010720128 0.25904161 -0.056410879
0.0065584742 0.25904161 -0.056410879
0.01169212 0.25904161 -0.056410879
0.017842472 0.25904161 -0.056410879
0.025766015 0.25904161 -0.056410879
0.035973974 0.25904161 -0.056410879
0.04912496 0.25904161 -0.056410879
0.066067465 0.25904161 -0.056410879
0.087894619 0.25904161 -0.056410879
0.1160147 0.25904161 -0.056410879
0.152242 0.25904161 -0.056410879
0.19891389 0.25904161 -0.056410879
0.25904161 0.25904161 -0.056410879
0.33650461 0.25904161 -0.056410879
0.43630072 0.25904161 -0.056410879
0.56486875 0.25904161 -0.056410879
0.73050392 0.25904161 -0.056410879
0.94389284 0.25904161 -0.056410879
1.2188033 0.25904161 -0.056410879
1.5729724 0.25904161 -0.056410879
2.0292511 0.25904161 -0.056410879
2.6170783 0.25904161 -0.056410879
3.3743799 0.25904161 -0.056410879
4.3500175 0.25904161 -0.056410879
5.6069379 0.25904161 -0.056410879
7.2262378 0.25904161 -0.056410879
9.3123932 0.25904161 -0.056410879
12.000002 0.25904161 -0.056410879
-0.056410879 0.33650461 -0.056410879
-0.03070375 0.33650461 -0.056410879
-0.020055506 0.33650461 -0.056410879
-0.011884823 0.33650461 -0.056410879
-0.0049966178 0.33650461 -0.056410879
0.0010720128 0.33650461 -0.056410879
0.0065584742 0.33650461 -0.056410879
0.01169212 0.33650461 -0.056410879
0.017842472 0.33650461 -0.056410879
0.025766015 0.33650461 -0.056410879
0.035973974 0.33650461 -0.056410879
0.04912496 0.33650461 -0.056410879
0.066067465 0.33650461 -0.056410879
0.087894619 0.33650461 -0.056410879
0.1160147 0.33650461 -0.056410879
0.152242 0.33650461 -0.056410879
0.19891389 0.33650461 -0.056410879
0.25904161 0.33650461 -0.056410879
0.33650461 0.33650461 -0.056410879
