site/assets/luts/ocio-aces--sonyinputslog2-sgamut-to-aces2065-1--cbb60e272.cube
# LUTr-Project: LUTr — LUTrepository
# LUTr-Schema-Version: 1
# LUTr-ID: ocio-aces--sonyinputslog2-sgamut-to-aces2065-1--cbb60e272
# LUTr-Title: Sony.Input.SLog2 SGamut to ACES2065-1
# LUTr-Collection: OCIO ACES
# LUTr-Collection-ID: aswf-opencolorio-config-aces
# LUTr-Source: https://github.com/AcademySoftwareFoundation/OpenColorIO-Config-ACES
# LUTr-Source-File: submissions/aswf-opencolorio-config-aces/opencolorio_config_aces/clf/transforms/sony/input/Sony.Input.SLog2_SGamut_to_ACES2065-1.clf
# LUTr-Source-Format: CLF
# LUTr-Source-SHA256: 2f89ad4beed0c970cf57896cb48a045cdeb2b4aec0f4b1d8692b333bacaf4cce
# LUTr-License: BSD-3-Clause
# LUTr-License-URL: https://github.com/AcademySoftwareFoundation/OpenColorIO-Config-ACES/blob/main/LICENSE
# LUTr-Tags: technical, aces, ocio, clf, color-management, cube
# LUTr-Transform-Class: color-space-conversion
# LUTr-Input-Color-Space: Sony S-Log2 S-Gamut
# LUTr-Output-Color-Space: ACES2065-1
# LUTr-Color-Space-Confidence: descriptor-only
# LUTr-Conversion-Method: CLF operations evaluated as float and sampled to 33x33x33 3D CUBE
# LUTr-Conversion-Date: 2026-07-27
# LUTr-Conversion-Tool: LUTr scripts/convert-all-to-cube.mjs
# LUTr-Conversion-Grid: 33x33x33
# LUTr-Conversion-Warning: A sampled 3D CUBE is bounded to DOMAIN_MIN/MAX 0..1 and cannot preserve CLF values outside its input domain.
# LUTr-Upstream-ID: urn:aswf:ocio:transformId:1.0:Sony:Input:SLog2_SGamut_to_ACES2065-1:1.0
# LUTr-Upstream-Name: Sony S-Log2 S-Gamut to ACES2065-1
# LUTr-Upstream-Input-Descriptor: Sony S-Log2 S-Gamut
# LUTr-Upstream-Output-Descriptor: ACES2065-1
# LUTr-Upstream-Operations: Log → Matrix
# LUTr-Note: Preserve this metadata and the upstream license notices when redistributing.
TITLE "Sony.Input.SLog2 SGamut to ACES2065-1"
LUT_3D_SIZE 5
DOMAIN_MIN 0 0 0
DOMAIN_MAX 1 1 1
-0.026210564 -0.026210564 -0.026210564
0.055868595 -0.023844309 -0.027236965
0.42249116 -0.013274965 -0.031821583
2.1560652 0.036702154 -0.053499939
10.353266 0.27301886 -0.156006
-0.010582439 0.084464659 -0.025843171
0.071496721 0.086830915 -0.026869571
0.43811929 0.097400258 -0.031454189
2.1716933 0.14737738 -0.053132545
10.368895 0.38369408 -0.15563861
0.059223633 0.57881712 -0.024202135
0.14130279 0.58118337 -0.025228536
0.50792536 0.59175272 -0.029813153
2.2414994 0.64172984 -0.051491509
10.438701 0.87804654 -0.15399757
0.3893015 2.9163617 -0.016442502
0.47138066 2.9187279 -0.017468902
0.83800322 2.9292973 -0.02205352
2.5715773 2.9792744 -0.043731876
10.768779 3.2155911 -0.14623794
1.950074 13.969436 0.020248909
2.0321531 13.971803 0.019222508
2.3987757 13.982372 0.01463789
4.1323498 14.032349 -0.0070404654
12.329551 14.268666 -0.10954653
-0.014912463 -0.030246656 0.08345383
0.067166697 -0.0278804 0.082427429
0.43378926 -0.017311056 0.077842811
2.1673633 0.032666063 0.056164456
10.364565 0.26898277 -0.046341605
0.00071566341 0.080428567 0.083821223
0.082794823 0.082794823 0.082794823
0.44941739 0.093364167 0.078210205
2.1829914 0.14334129 0.056531849
10.380193 0.37965799 -0.045974211
0.070521735 0.57478103 0.085462259
0.15260089 0.57714728 0.084435859
0.51922346 0.58771663 0.079851241
2.2527975 0.63769375 0.058172885
10.449999 0.87401045 -0.044333176
0.4005996 2.9123256 0.093221892
0.48267876 2.9146919 0.092195492
0.84930132 2.9252612 0.087610874
2.5828754 2.9752383 0.065932518
10.780077 3.211555 -0.036573542
1.9613721 13.9654 0.1299133
2.0434512 13.967767 0.1288869
2.4100738 13.978336 0.12430228
4.1436479 14.028313 0.10262393
12.340849 14.26463 0.0001178683
0.035552712 -0.048274646 0.57329123
0.11763187 -0.04590839 0.57226482
0.48425444 -0.035339046 0.56768021
2.2178285 0.014638073 0.54600185
10.41503 0.25095478 0.44349579
0.051180838 0.062400577 0.57365862
0.13326 0.064766833 0.57263222
0.49988257 0.075336177 0.5680476
2.2334566 0.1253133 0.54636924
10.430658 0.36163 0.44386318
0.12098691 0.55675304 0.57529965
0.20306607 0.55911929 0.57427325
0.56968864 0.56968864 0.56968864
2.3032627 0.61966576 0.54801028
10.500464 0.85598246 0.44550422
0.45106477 2.8942976 0.58305929
0.53314393 2.8966639 0.58203289
0.8997665 2.9072332 0.57744827
2.6333405 2.9572103 0.55576991
10.830542 3.193527 0.45326385
2.0118373 13.947372 0.6197507
2.0939164 13.949739 0.6187243
2.460539 13.960308 0.61413968
4.194113 14.010285 0.59246132
12.391314 14.246602 0.48995526
0.27417719 -0.13351996 2.8894863
0.35625635 -0.1311537 2.8884599
0.72287891 -0.12058436 2.8838753
2.456453 -0.07060724 2.862197
10.653654 0.16570946 2.7596909
0.28980531 -0.022844735 2.8898537
0.37188447 -0.020478479 2.8888273
0.73850704 -0.0099091356 2.8842427
2.4720811 0.040067984 2.8625643
10.669282 0.27638469 2.7600583
0.35961138 0.47150772 2.8914948
0.44169054 0.47387398 2.8904684
0.80831311 0.48444332 2.8858837
2.5418872 0.53442044 2.8642054
10.739088 0.77073715 2.7616993
0.68968925 2.8090523 2.8992544
0.77176841 2.8114186 2.898228
1.138391 2.8219879 2.8936434
2.871965 2.871965 2.871965
11.069166 3.1082817 2.769459
2.2504617 13.862127 2.9359458
2.3325409 13.864493 2.9349194
2.6991635 13.875063 2.9303348
4.4327375 13.92504 2.9086564
12.629939 14.161356 2.8061504
1.4025125 -0.53660224 13.84161
1.4845917 -0.53423598 13.840584
1.8512142 -0.52366664 13.835999
3.5847883 -0.47368952 13.814321
11.78199 -0.23737282 13.711815
1.4181406 -0.42592702 13.841977
1.5002198 -0.42356076 13.840951
1.8668424 -0.41299142 13.836366
3.6004164 -0.3630143 13.814688
11.797618 -0.12669759 13.712182
1.4879467 0.068425443 13.843618
1.5700259 0.070791699 13.842592
1.9366484 0.081361042 13.838007
3.6702225 0.13133816 13.816329
11.867424 0.36765487 13.713823
1.8180246 2.40597 13.851378
1.9001037 2.4083363 13.850352
2.2667263 2.4189056 13.845767
4.0003003 2.4688827 13.824089
12.197502 2.7051994 13.721583
3.3787971 13.459045 13.88807
3.4608762 13.461411 13.887043
3.8274988 13.47198 13.882459
5.5610728 13.521957 13.86078
13.758274 13.758274 13.758274
