site/assets/luts/ocio-aces--ocioutilityap0-to-linear-adobergb--446f00b0d.cube
# LUTr-Project: LUTr — LUTrepository
# LUTr-Schema-Version: 1
# LUTr-ID: ocio-aces--ocioutilityap0-to-linear-adobergb--446f00b0d
# LUTr-Title: OCIO.Utility.AP0 to Linear AdobeRGB
# LUTr-Collection: OCIO ACES
# LUTr-Collection-ID: aswf-opencolorio-config-aces
# LUTr-Source: https://github.com/AcademySoftwareFoundation/OpenColorIO-Config-ACES
# LUTr-Source-File: submissions/aswf-opencolorio-config-aces/opencolorio_config_aces/clf/transforms/ocio/utility/OCIO.Utility.AP0_to_Linear_AdobeRGB.clf
# LUTr-Source-Format: CLF
# LUTr-Source-SHA256: f08785a4205221666ba841e0e2bb27af38a06cdc8901a760761505dddc40ce0e
# LUTr-License: BSD-3-Clause
# LUTr-License-URL: https://github.com/AcademySoftwareFoundation/OpenColorIO-Config-ACES/blob/main/LICENSE
# LUTr-Tags: technical, aces, ocio, clf, color-management, cube
# LUTr-Transform-Class: color-space-conversion
# LUTr-Input-Color-Space: ACES2065-1
# LUTr-Output-Color-Space: linear Adobe RGB (1998) primaries, D65 white point
# LUTr-Color-Space-Confidence: descriptor-only
# LUTr-Conversion-Method: CLF operations evaluated as float and sampled to 33x33x33 3D CUBE
# LUTr-Conversion-Date: 2026-07-27
# LUTr-Conversion-Tool: LUTr scripts/convert-all-to-cube.mjs
# LUTr-Conversion-Grid: 33x33x33
# LUTr-Conversion-Warning: A sampled 3D CUBE is bounded to DOMAIN_MIN/MAX 0..1 and cannot preserve CLF values outside its input domain.
# LUTr-Upstream-ID: urn:aswf:ocio:transformId:1.0:OCIO:Utility:AP0_to_Linear_AdobeRGB:1.0
# LUTr-Upstream-Name: AP0 to Linear Adobe RGB (1998)
# LUTr-Upstream-Input-Descriptor: ACES2065-1
# LUTr-Upstream-Output-Descriptor: linear Adobe RGB (1998) primaries, D65 white point
# LUTr-Upstream-Operations: Matrix
# LUTr-Note: Preserve this metadata and the upstream license notices when redistributing.
TITLE "OCIO.Utility.AP0 to Linear AdobeRGB"
LUT_3D_SIZE 9
DOMAIN_MIN 0 0 0
DOMAIN_MAX 1 1 1
0 0 0
0.21557004 -0.034559989 -0.0032656907
0.43114008 -0.069119979 -0.0065313815
0.64671012 -0.10367997 -0.0097970722
0.86228016 -0.13823996 -0.013062763
1.0778502 -0.17279995 -0.016328454
1.2934202 -0.20735994 -0.019594144
1.5089903 -0.24191992 -0.022859835
1.7245603 -0.27647991 -0.026125526
-0.052499199 0.17158989 -0.011271848
0.16307084 0.1370299 -0.014537538
0.37864088 0.10246991 -0.017803229
0.59421092 0.067909918 -0.02106892
0.80978096 0.033349929 -0.02433461
1.025351 -0.0012100604 -0.027600301
1.240921 -0.03577005 -0.030865992
1.4564911 -0.070330039 -0.034131683
1.6720611 -0.10489003 -0.037397373
-0.1049984 0.34317977 -0.022543695
0.11057164 0.30861978 -0.025809386
0.32614168 0.27405979 -0.029075077
0.54171172 0.2394998 -0.032340767
0.75728176 0.20493981 -0.035606458
0.9728518 0.17037983 -0.038872149
1.1884218 0.13581984 -0.04213784
1.4039919 0.10125985 -0.04540353
1.6195619 0.066699858 -0.048669221
-0.1574976 0.51476966 -0.033815543
0.058072442 0.48020967 -0.037081233
0.27364248 0.44564968 -0.040346924
0.48921252 0.41108969 -0.043612615
0.70478256 0.3765297 -0.046878306
0.9203526 0.34196971 -0.050143996
1.1359226 0.30740972 -0.053409687
1.3514927 0.27284973 -0.056675378
1.5670627 0.23828974 -0.059941069
-0.2099968 0.68635954 -0.04508739
0.0055732425 0.65179955 -0.048353081
0.22114328 0.61723957 -0.051618772
0.43671332 0.58267958 -0.054884463
0.65228336 0.54811959 -0.058150153
0.8678534 0.5135596 -0.061415844
1.0834234 0.47899961 -0.064681535
1.2989935 0.44443962 -0.067947225
1.5145635 0.40987963 -0.071212916
-0.262496 0.85794943 -0.056359238
-0.046925957 0.82338944 -0.059624929
0.16864408 0.78882945 -0.062890619
0.38421412 0.75426946 -0.06615631
0.59978416 0.71970947 -0.069422001
0.8153542 0.68514948 -0.072687692
1.0309242 0.65058949 -0.075953382
1.2464943 0.6160295 -0.079219073
1.4620643 0.58146952 -0.082484764
-0.3149952 1.0295393 -0.067631085
-0.099425156 0.99497933 -0.070896776
0.11614488 0.96041934 -0.074162467
0.33171492 0.92585935 -0.077428158
0.54728496 0.89129936 -0.080693848
0.762855 0.85673937 -0.083959539
0.97842504 0.82217938 -0.08722523
1.1939951 0.78761939 -0.090490921
1.4095651 0.7530594 -0.093756611
-0.36749439 1.2011292 -0.078902933
-0.15192436 1.1665692 -0.082168624
0.063645684 1.1320092 -0.085434315
0.27921572 1.0974492 -0.088700005
0.49478576 1.0628892 -0.091965696
0.7103558 1.0283293 -0.095231387
0.92592584 0.99376927 -0.098497077
1.1414959 0.95920928 -0.10176277
1.3570659 0.92464929 -0.10502846
-0.41999359 1.3727191 -0.090174781
-0.20442355 1.3381591 -0.093440471
0.011146485 1.3035991 -0.096706162
0.22671652 1.2690391 -0.099971853
0.44228656 1.2344791 -0.10323754
0.6578566 1.1999191 -0.10650323
0.87342664 1.1653592 -0.10976893
1.0889967 1.1307992 -0.11303462
1.3045667 1.0962392 -0.11630031
-0.03807084 -0.012029897 0.13953754
0.1774992 -0.046589886 0.13627185
0.39306924 -0.081149875 0.13300616
0.60863928 -0.11570986 0.12974047
0.82420932 -0.15026985 0.12647478
1.0397794 -0.18482984 0.12320908
1.2553494 -0.21938983 0.11994339
1.4709194 -0.25394982 0.1166777
1.6864895 -0.28850981 0.11341201
-0.09057004 0.15955999 0.12826569
0.125 0.125 0.125
0.34057004 0.090440011 0.12173431
0.55614008 0.055880021 0.11846862
0.77171012 0.021320032 0.11520293
0.98728016 -0.013239957 0.11193724
1.2028502 -0.047799946 0.10867155
1.4184202 -0.082359936 0.10540586
1.6339903 -0.11691992 0.10214016
-0.14306924 0.33114988 0.11699384
0.072500801 0.29658989 0.11372815
0.28807084 0.2620299 0.11046246
0.50364088 0.22746991 0.10719677
0.71921092 0.19290992 0.10393108
0.93478096 0.15834993 0.10066539
1.150351 0.12378994 0.097399699
1.365921 0.08922995 0.094134008
1.5814911 0.054669961 0.090868317
-0.19556844 0.50273976 0.105722
0.020001601 0.46817977 0.1024563
0.23557164 0.43361978 0.099190614
0.45114168 0.39905979 0.095924923
0.66671172 0.3644998 0.092659233
0.88228176 0.32993981 0.089393542
1.0978518 0.29537983 0.086127851
1.3134218 0.26081984 0.08286216
1.5289919 0.22625985 0.07959647
-0.24806764 0.67432965 0.094450148
-0.032497598 0.63976966 0.091184457
0.18307244 0.60520967 0.087918767
0.39864248 0.57064968 0.084653076
0.61421252 0.53608969 0.081387385
0.82978256 0.5015297 0.078121694
1.0453526 0.46696971 0.074856004
1.2609226 0.43240972 0.071590313
1.4764927 0.39784973 0.068324622
-0.30056684 0.84591953 0.0831783
-0.084996797 0.81135954 0.07991261
0.13057324 0.77679955 0.076646919
0.34614328 0.74223957 0.073381228
0.56171332 0.70767958 0.070115537
0.77728336 0.67311959 0.066849847
0.9928534 0.6385596 0.063584156
1.2084234 0.60399961 0.060318465
1.4239935 0.56943962 0.057052775
-0.35306604 1.0175094 0.071906453
-0.137496 0.98294943 0.068640762
0.078074043 0.94838944 0.065375071
0.29364408 0.91382945 0.062109381
0.50921412 0.87926946 0.05884369
0.72478416 0.84470947 0.055577999
0.9403542 0.81014948 0.052312308
1.1559242 0.77558949 0.049046618
1.3714943 0.7410295 0.045780927
-0.40556524 1.1890993 0.060634605
-0.1899952 1.1545393 0.057368915
0.025574844 1.1199793 0.054103224
0.24114488 1.0854193 0.050837533
0.45671492 1.0508593 0.047571842
0.67228496 1.0162994 0.044306152
0.887855 0.98173937 0.041040461
1.103425 0.94717938 0.03777477
1.3189951 0.91261939 0.034509079
-0.45806443 1.3606892 0.049362758
-0.24249439 1.3261292 0.046097067
-0.026924355 1.2915692 0.042831376
0.18864568 1.2570092 0.039565685
0.40421572 1.2224492 0.036299995
0.61978576 1.1878892 0.033034304
0.8353558 1.1533293 0.029768613
1.0509258 1.1187693 0.026502923
1.2664959 1.0842093 0.023237232
-0.076141681 -0.024059793 0.27907508
0.13942836 -0.058619783 0.27580939
0.3549984 -0.093179772 0.2725437
0.57056844 -0.12773976 0.269278
0.78613848 -0.16229975 0.26601231
1.0017085 -0.19685974 0.26274662
1.2172786 -0.23141973 0.25948093
1.4328486 -0.26597972 0.25621524
1.6484186 -0.30053971 0.25294955
-0.12864088 0.14753009 0.26780323
0.08692916 0.1129701 0.26453754
0.3024992 0.078410114 0.26127185
0.51806924 0.043850125 0.25800616
0.73363928 0.0092901355 0.25474047
0.94920932 -0.025269854 0.25147478
1.1647794 -0.059829843 0.24820908
1.3803494 -0.094389832 0.24494339
1.5959194 -0.12894982 0.2416777
-0.18114008 0.31911998 0.25653138
0.03442996 0.28455999 0.25326569
0.25 0.25 0.25
0.46557004 0.21544001 0.24673431
0.68114008 0.18088002 0.24346862
0.89671012 0.14632003 0.24020293
1.1122802 0.11176004 0.23693724
1.3278502 0.077200054 0.23367155
1.5434202 0.042640064 0.23040586
-0.23363928 0.49070986 0.24525953
-0.018069239 0.45614988 0.24199384
0.1975008 0.42158989 0.23872815
0.41307084 0.3870299 0.23546246
0.62864088 0.35246991 0.23219677
0.84421092 0.31790992 0.22893108
1.059781 0.28334993 0.22566539
1.275351 0.24878994 0.2223997
1.490921 0.21422995 0.21913401
-0.28613848 0.66229975 0.23398769
-0.070568438 0.62773976 0.230722
0.1450016 0.59317977 0.2274563
0.36057164 0.55861978 0.22419061
0.57614168 0.52405979 0.22092492
0.79171172 0.4894998 0.21765923
1.0072818 0.45493981 0.21439354
1.2228518 0.42037983 0.21112785
1.4384218 0.38581984 0.20786216
-0.33863768 0.83388964 0.22271584
-0.12306764 0.79932965 0.21945015
0.092502402 0.76476966 0.21618446
0.30807244 0.73020967 0.21291877
0.52364248 0.69564968 0.20965308
0.73921252 0.66108969 0.20638739
0.95478256 0.6265297 0.20312169
1.1703526 0.59196971 0.199856
1.3859226 0.55740972 0.19659031
-0.39113688 1.0054795 0.21144399
-0.17556684 0.97091953 0.2081783
0.040003203 0.93635954 0.20491261
0.25557324 0.90179955 0.20164692
0.47114328 0.86723957 0.19838123
0.68671332 0.83267958 0.19511554
0.90228336 0.79811959 0.19184985
1.1178534 0.7635596 0.18858416
1.3334234 0.72899961 0.18531847
-0.44363608 1.1770694 0.20017214
-0.22806604 1.1425094 0.19690645
-0.012495996 1.1079494 0.19364076
0.20307404 1.0733894 0.19037507
0.41864408 1.0388295 0.18710938
0.63421412 1.0042695 0.18384369
0.84978416 0.96970947 0.180578
1.0653542 0.93514948 0.17731231
1.2809242 0.90058949 0.17404662
-0.49613527 1.3486593 0.1889003
-0.28056524 1.3140993 0.18563461
-0.064995196 1.2795393 0.18236891
0.15057484 1.2449793 0.17910322
0.36614488 1.2104193 0.17583753
0.58171492 1.1758593 0.17257184
0.79728496 1.1412994 0.16930615
1.012855 1.1067394 0.16604046
1.228425 1.0721794 0.16277477
-0.11421252 -0.03608969 0.41861261
0.10135752 -0.070649679 0.41534692
0.31692756 -0.10520967 0.41208123
0.5324976 -0.13976966 0.40881554
0.74806764 -0.17432965 0.40554985
0.96363768 -0.20888964 0.40228416
1.1792077 -0.24344963 0.39901847
1.3947778 -0.27800961 0.39575278
1.6103478 -0.3125696 0.39248709
-0.16671172 0.1355002 0.40734077
0.048858319 0.10094021 0.40407508
0.26442836 0.066380217 0.40080939
0.4799984 0.031820228 0.3975437
0.69556844 -0.0027397612 0.394278
0.91113848 -0.03729975 0.39101231
1.1267085 -0.07185974 0.38774662
1.3422786 -0.10641973 0.38448093
1.5578486 -0.14097972 0.38121524
-0.21921092 0.30709008 0.39606892
-0.0036408799 0.27253009 0.39280323
0.21192916 0.2379701 0.38953754
0.4274992 0.20341011 0.38627185
0.64306924 0.16885012 0.38300616
0.85863928 0.13429014 0.37974047
1.0742093 0.099730146 0.37647478
1.2897794 0.065170157 0.37320908
1.5053494 0.030610168 0.36994339
-0.27171012 0.47867997 0.38479707
-0.056140079 0.44411998 0.38153138
0.15942996 0.40955999 0.37826569
0.375 0.375 0.375
0.59057004 0.34044001 0.37173431
0.80614008 0.30588002 0.36846862
1.0217101 0.27132003 0.36520293
1.2372802 0.23676004 0.36193724
1.4528502 0.20220005 0.35867155
-0.32420932 0.65026985 0.37352522
-0.10863928 0.61570986 0.37025953
0.10693076 0.58114988 0.36699384
0.3225008 0.54658989 0.36372815
0.53807084 0.5120299 0.36046246
0.75364088 0.47746991 0.35719677
0.96921092 0.44290992 0.35393108
1.184781 0.40834993 0.35066539
1.400351 0.37378994 0.3473997
-0.37670852 0.82185974 0.36225338
-0.16113848 0.78729975 0.35898769
0.054431562 0.75273976 0.355722
0.2700016 0.71817977 0.3524563
0.48557164 0.68361978 0.34919061
0.70114168 0.64905979 0.34592492
0.91671172 0.6144998 0.34265923
1.1322818 0.57993981 0.33939354
1.3478518 0.54537983 0.33612785
-0.42920772 0.99344963 0.35098153
-0.21363768 0.95888964 0.34771584
0.0019323626 0.92432965 0.34445015
0.2175024 0.88976966 0.34118446
0.43307244 0.85520967 0.33791877
0.64864248 0.82064968 0.33465308
0.86421252 0.78608969 0.33138739
1.0797826 0.7515297 0.32812169
1.2953526 0.71696971 0.324856
-0.48170692 1.1650395 0.33970968
-0.26613688 1.1304795 0.33644399
-0.050566837 1.0959195 0.3331783
0.1650032 1.0613595 0.32991261
0.38057324 1.0267996 0.32664692
0.59614328 0.99223957 0.32338123
0.81171332 0.95767958 0.32011554
1.0272834 0.92311959 0.31684985
1.2428534 0.8885596 0.31358416
-0.53420612 1.3366294 0.32843783
-0.31863608 1.3020694 0.32517214
-0.10306604 1.2675094 0.32190645
0.112504 1.2329494 0.31864076
0.32807404 1.1983894 0.31537507
0.54364408 1.1638295 0.31210938
0.75921412 1.1292695 0.30884369
0.97478416 1.0947095 0.305578
1.1903542 1.0601495 0.30231231
-0.15228336 -0.048119587 0.55815015
0.063286678 -0.082679576 0.55488446
0.27885672 -0.11723957 0.55161877
0.49442676 -0.15179955 0.54835308
0.7099968 -0.18635954 0.54508739
0.92556684 -0.22091953 0.5418217
1.1411369 -0.25547952 0.53855601
1.3567069 -0.29003951 0.53529032
1.572277 -0.3245995 0.53202463
-0.20478256 0.1234703 0.54687831
0.010787479 0.08891031 0.54361261
0.22635752 0.054350321 0.54034692
0.44192756 0.019790331 0.53708123
0.6574976 -0.014769658 0.53381554
0.87306764 -0.049329647 0.53054985
1.0886377 -0.083889636 0.52728416
1.3042077 -0.11844963 0.52401847
1.5197778 -0.15300961 0.52075278
-0.25728176 0.29506019 0.53560646
-0.04171172 0.2605002 0.53234077
0.17385832 0.22594021 0.52907508
0.38942836 0.19138022 0.52580939
0.6049984 0.15682023 0.5225437
0.82056844 0.12226024 0.519278
1.0361385 0.08770025 0.51601231
1.2517085 0.05314026 0.51274662
1.4672786 0.018580271 0.50948093
-0.30978096 0.46665007 0.52433461
-0.09421092 0.43209008 0.52106892
0.12135912 0.39753009 0.51780323
0.33692916 0.3629701 0.51453754
0.5524992 0.32841011 0.51127185
0.76806924 0.29385012 0.50800616
0.98363928 0.25929014 0.50474047
1.1992093 0.22473015 0.50147478
1.4147794 0.19017016 0.49820908
-0.36228016 0.63823996 0.51306276
-0.14671012 0.60367997 0.50979707
0.068859921 0.56911998 0.50653138
0.28442996 0.53455999 0.50326569
0.5 0.5 0.5
0.71557004 0.46544001 0.49673431
0.93114008 0.43088002 0.49346862
1.1467101 0.39632003 0.49020293
1.3622802 0.36176004 0.48693724
-0.41477936 0.80982984 0.50179092
-0.19920932 0.77526985 0.49852522
0.016360722 0.74070986 0.49525953
0.23193076 0.70614988 0.49199384
0.4475008 0.67158989 0.48872815
0.66307084 0.6370299 0.48546246
0.87864088 0.60246991 0.48219677
1.0942109 0.56790992 0.47893108
1.309781 0.53334993 0.47566539
-0.46727856 0.98141973 0.49051907
-0.25170852 0.94685974 0.48725338
-0.036138478 0.91229975 0.48398769
0.17943156 0.87773976 0.480722
0.3950016 0.84317977 0.4774563
0.61057164 0.80861978 0.47419061
0.82614168 0.77405979 0.47092492
1.0417117 0.7394998 0.46765923
1.2572818 0.70493981 0.46439354
-0.51977776 1.1530096 0.47924722
-0.30420772 1.1184496 0.47598153
-0.088637677 1.0838896 0.47271584
0.12693236 1.0493296 0.46945015
0.3425024 1.0147697 0.46618446
0.55807244 0.98020967 0.46291877
0.77364248 0.94564968 0.45965308
0.98921252 0.91108969 0.45638739
1.2047826 0.8765297 0.45312169
-0.57227696 1.3245995 0.46797537
-0.35670692 1.2900395 0.46470968
-0.14113688 1.2554795 0.46144399
0.074433163 1.2209195 0.4581783
0.2900032 1.1863595 0.45491261
0.50557324 1.1517996 0.45164692
0.72114328 1.1172396 0.44838123
0.93671332 1.0826796 0.44511554
1.1522834 1.0481196 0.44184985
-0.1903542 -0.060149483 0.69768769
0.025215838 -0.094709473 0.694422
0.24078588 -0.12926946 0.69115631
0.45635592 -0.16382945 0.68789062
0.67192596 -0.19838944 0.68462493
0.887496 -0.23294943 0.68135924
1.103066 -0.26750942 0.67809355
1.3186361 -0.30206941 0.67482786
1.5342061 -0.3366294 0.67156217
-0.2428534 0.1114404 0.68641584
-0.027283361 0.076880413 0.68315015
0.18828668 0.042320424 0.67988446
0.40385672 0.0077604347 0.67661877
0.61942676 -0.026799555 0.67335308
0.8349968 -0.061359544 0.67008739
1.0505668 -0.095919533 0.6668217
1.2661369 -0.13047952 0.66355601
1.4817069 -0.16503951 0.66029032
-0.2953526 0.28303029 0.675144
-0.079782561 0.2484703 0.67187831
0.13578748 0.21391031 0.66861261
0.35135752 0.17935032 0.66534692
0.56692756 0.14479033 0.66208123
0.7824976 0.11023034 0.65881554
0.99806764 0.075670353 0.65554985
1.2136377 0.041110364 0.65228416
1.4292077 0.0065503743 0.64901847
-0.3478518 0.45462017 0.66387215
-0.13228176 0.42006019 0.66060646
0.08328828 0.3855002 0.65734077
0.29885832 0.35094021 0.65407508
0.51442836 0.31638022 0.65080939
0.7299984 0.28182023 0.6475437
0.94556844 0.24726024 0.644278
1.1611385 0.21270025 0.64101231
1.3767085 0.17814026 0.63774662
-0.400351 0.62621006 0.6526003
-0.18478096 0.59165007 0.64933461
0.03078908 0.55709008 0.64606892
0.24635912 0.52253009 0.64280323
0.46192916 0.4879701 0.63953754
0.6774992 0.45341011 0.63627185
0.89306924 0.41885012 0.63300616
1.1086393 0.38429014 0.62974047
1.3242093 0.34973015 0.62647478
-0.4528502 0.79779995 0.64132845
-0.23728016 0.76323996 0.63806276
-0.021710119 0.72867997 0.63479707
0.19385992 0.69411998 0.63153138
0.40942996 0.65955999 0.62826569
0.625 0.625 0.625
0.84057004 0.59044001 0.62173431
1.0561401 0.55588002 0.61846862
1.2717101 0.52132003 0.61520293
-0.5053494 0.96938983 0.63005661
-0.28977936 0.93482984 0.62679092
-0.074209318 0.90026985 0.62352522
0.14136072 0.86570986 0.62025953
0.35693076 0.83114988 0.61699384
0.5725008 0.79658989 0.61372815
0.78807084 0.7620299 0.61046246
1.0036409 0.72746991 0.60719677
1.2192109 0.69290992 0.60393108
-0.5578486 1.1409797 0.61878476
-0.34227856 1.1064197 0.61551907
-0.12670852 1.0718597 0.61225338
0.088861522 1.0372998 0.60898769
0.30443156 1.0027398 0.605722
0.5200016 0.96817977 0.6024563
0.73557164 0.93361978 0.59919061
0.95114168 0.89905979 0.59592492
1.1667117 0.8644998 0.59265923
-0.6103478 1.3125696 0.60751291
-0.39477776 1.2780096 0.60424722
-0.17920772 1.2434496 0.60098153
0.036362323 1.2088896 0.59771584
0.25193236 1.1743296 0.59445015
0.4675024 1.1397697 0.59118446
0.68307244 1.1052097 0.58791877
0.89864248 1.0706497 0.58465308
1.1142125 1.0360897 0.58138739
-0.22842504 -0.07217938 0.83722523
-0.012855002 -0.10673937 0.83395954
0.20271504 -0.14129936 0.83069385
0.41828508 -0.17585935 0.82742816
0.63385512 -0.21041934 0.82416247
0.84942516 -0.24497933 0.82089678
1.0649952 -0.27953932 0.81763109
1.2805652 -0.31409931 0.81436539
1.4961353 -0.34865929 0.8110997
-0.28092424 0.099410506 0.82595338
-0.065354202 0.064850517 0.82268769
0.15021584 0.030290527 0.819422
0.36578588 -0.004269462 0.81615631
0.58135592 -0.038829451 0.81289062
0.79692596 -0.073389441 0.80962493
1.012496 -0.10794943 0.80635924
1.228066 -0.14250942 0.80309355
1.4436361 -0.17706941 0.79982786
-0.33342344 0.27100039 0.81468153
-0.1178534 0.2364404 0.81141584
0.097716639 0.20188041 0.80815015
0.31328668 0.16732042 0.80488446
0.52885672 0.13276043 0.80161877
0.74442676 0.098200445 0.79835308
0.9599968 0.063640456 0.79508739
1.1755668 0.029080467 0.7918217
1.3911369 -0.0054795224 0.78855601
-0.38592264 0.44259028 0.80340969
-0.1703526 0.40803029 0.800144
0.045217439 0.3734703 0.79687831
0.26078748 0.33891031 0.79361261
0.47635752 0.30435032 0.79034692
0.69192756 0.26979033 0.78708123
0.9074976 0.23523034 0.78381554
1.1230676 0.20067035 0.78054985
1.3386377 0.16611036 0.77728416
-0.43842184 0.61418016 0.79213784
-0.2228518 0.57962017 0.78887215
-0.0072817599 0.54506019 0.78560646
0.20828828 0.5105002 0.78234077
0.42385832 0.47594021 0.77907508
0.63942836 0.44138022 0.77580939
0.8549984 0.40682023 0.7725437
1.0705684 0.37226024 0.769278
1.2861385 0.33770025 0.76601231
-0.49092104 0.78577005 0.78086599
-0.275351 0.75121006 0.7776003
-0.059780959 0.71665007 0.77433461
0.15578908 0.68209008 0.77106892
0.37135912 0.64753009 0.76780323
0.58692916 0.6129701 0.76453754
0.8024992 0.57841011 0.76127185
1.0180692 0.54385012 0.75800616
1.2336393 0.50929014 0.75474047
-0.54342024 0.95735994 0.76959414
-0.3278502 0.92279995 0.76632845
-0.11228016 0.88823996 0.76306276
0.10328988 0.85367997 0.75979707
0.31885992 0.81911998 0.75653138
0.53442996 0.78455999 0.75326569
0.75 0.75 0.75
0.96557004 0.71544001 0.74673431
1.1811401 0.68088002 0.74346862
-0.59591944 1.1289498 0.7583223
-0.3803494 1.0943898 0.75505661
-0.16477936 1.0598298 0.75179092
0.050790682 1.0252699 0.74852522
0.26636072 0.99070986 0.74525953
0.48193076 0.95614988 0.74199384
0.6975008 0.92158989 0.73872815
0.91307084 0.8870299 0.73546246
1.1286409 0.85246991 0.73219677
-0.64841864 1.3005397 0.74705045
-0.4328486 1.2659797 0.74378476
-0.21727856 1.2314197 0.74051907
-0.0017085173 1.1968597 0.73725338
0.21386152 1.1622998 0.73398769
0.42943156 1.1277398 0.730722
0.6450016 1.0931798 0.7274563
0.86057164 1.0586198 0.72419061
1.0761417 1.0240598 0.72092492
-0.26649588 -0.084209277 0.97676277
-0.050925843 -0.11876927 0.97349708
0.1646442 -0.15332926 0.97023139
0.38021424 -0.18788924 0.9669657
0.59578428 -0.22244923 0.96370001
0.81135432 -0.25700922 0.96043431
1.0269244 -0.29156921 0.95716862
1.2424944 -0.3261292 0.95390293
1.4580644 -0.36068919 0.95063724
-0.31899508 0.087380609 0.96549092
-0.10342504 0.05282062 0.96222523
0.112145 0.018260631 0.95895954
0.32771504 -0.016299359 0.95569385
0.54328508 -0.050859348 0.95242816
0.75885512 -0.085419337 0.94916247
0.97442516 -0.11997933 0.94589678
1.1899952 -0.15453932 0.94263109
1.4055652 -0.18909931 0.93936539
-0.37149428 0.2589705 0.95421907
-0.15592424 0.22441051 0.95095338
0.059645798 0.18985052 0.94768769
0.27521584 0.15529053 0.944422
0.49078588 0.12073054 0.94115631
0.70635592 0.086170549 0.93789062
0.92192596 0.051610559 0.93462493
1.137496 0.01705057 0.93135924
1.353066 -0.017509419 0.92809355
-0.42399348 0.43056038 0.94294723
-0.20842344 0.39600039 0.93968153
0.0071465991 0.3614404 0.93641584
0.22271664 0.32688041 0.93315015
0.43828668 0.29232042 0.92988446
0.65385672 0.25776043 0.92661877
0.86942676 0.22320045 0.92335308
1.0849968 0.18864046 0.92008739
1.3005668 0.15408047 0.9168217
-0.47649268 0.60215027 0.93167538
-0.26092264 0.56759028 0.92840969
-0.0453526 0.53303029 0.925144
0.17021744 0.4984703 0.92187831
0.38578748 0.46391031 0.91861261
0.60135752 0.42935032 0.91534692
0.81692756 0.39479033 0.91208123
1.0324976 0.36023034 0.90881554
1.2480676 0.32567035 0.90554985
-0.52899188 0.77374015 0.92040353
-0.31342184 0.73918016 0.91713784
-0.097851799 0.70462017 0.91387215
0.11771824 0.67006019 0.91060646
0.33328828 0.6355002 0.90734077
0.54885832 0.60094021 0.90407508
0.76442836 0.56638022 0.90080939
0.9799984 0.53182023 0.8975437
1.1955684 0.49726024 0.894278
-0.58149108 0.94533004 0.90913168
-0.36592104 0.91077005 0.90586599
-0.150351 0.87621006 0.9026003
0.065219041 0.84165007 0.89933461
0.28078908 0.80709008 0.89606892
0.49635912 0.77253009 0.89280323
0.71192916 0.7379701 0.88953754
0.9274992 0.70341011 0.88627185
1.1430692 0.66885012 0.88300616
-0.63399028 1.1169199 0.89785984
-0.41842024 1.0823599 0.89459414
-0.2028502 1.0477999 0.89132845
0.012719842 1.01324 0.88806276
0.22828988 0.97867997 0.88479707
0.44385992 0.94411998 0.88153138
0.65942996 0.90955999 0.87826569
0.875 0.875 0.875
1.09057 0.84044001 0.87173431
-0.68648948 1.2885098 0.88658799
-0.47091944 1.2539498 0.8833223
-0.2553494 1.2193898 0.88005661
-0.039779358 1.1848298 0.87679092
0.17579068 1.1502699 0.87352522
0.39136072 1.1157099 0.87025953
0.60693076 1.0811499 0.86699384
0.8225008 1.0465899 0.86372815
1.0380708 1.0120299 0.86046246
-0.30456672 -0.096239173 1.1163003
-0.088996683 -0.13079916 1.1130346
0.12657336 -0.16535915 1.1097689
0.3421434 -0.19991914 1.1065032
0.55771344 -0.23447913 1.1032375
0.77328348 -0.26903912 1.0999719
0.98885351 -0.30359911 1.0967062
1.2044236 -0.3381591 1.0934405
1.4199936 -0.37271909 1.0901748
-0.35706592 0.075350713 1.1050285
-0.14149588 0.040790723 1.1017628
0.074074157 0.006230734 1.0984971
0.2896442 -0.028329255 1.0952314
0.50521424 -0.062889245 1.0919657
0.72078428 -0.097449234 1.0887
0.93635432 -0.13200922 1.0854343
1.1519244 -0.16656921 1.0821686
1.3674944 -0.2011292 1.0789029
-0.40956512 0.2469406 1.0937566
-0.19399508 0.21238061 1.0904909
0.021574958 0.17782062 1.0872252
0.237145 0.14326063 1.0839595
0.45271504 0.10870064 1.0806938
0.66828508 0.074140652 1.0774282
0.88385512 0.039580663 1.0741625
1.0994252 0.0050206735 1.0708968
1.3149952 -0.029539316 1.0676311
-0.46206432 0.41853048 1.0824848
-0.24649428 0.3839705 1.0792191
-0.030924241 0.34941051 1.0759534
0.1846458 0.31485052 1.0726877
0.40021584 0.28029053 1.069422
0.61578588 0.24573054 1.0661563
0.83135592 0.21117055 1.0628906
1.046926 0.17661056 1.0596249
1.262496 0.14205057 1.0563592
-0.51456352 0.59012037 1.0712129
-0.29899348 0.55556038 1.0679472
-0.083423441 0.52100039 1.0646815
0.1321466 0.4864404 1.0614158
0.34771664 0.45188041 1.0581502
0.56328668 0.41732042 1.0548845
0.77885672 0.38276043 1.0516188
0.99442676 0.34820045 1.0483531
1.2099968 0.31364046 1.0450874
-0.56706272 0.76171026 1.0599411
-0.35149268 0.72715027 1.0566754
-0.13592264 0.69259028 1.0534097
0.0796474 0.65803029 1.050144
0.29521744 0.6234703 1.0468783
0.51078748 0.58891031 1.0436126
0.72635752 0.55435032 1.0403469
0.94192756 0.51979033 1.0370812
1.1574976 0.48523034 1.0338155
-0.61956192 0.93330014 1.0486692
-0.40399188 0.89874015 1.0454035
-0.18842184 0.86418016 1.0421378
0.027148201 0.82962017 1.0388721
0.24271824 0.79506019 1.0356065
0.45828828 0.7605002 1.0323408
0.67385832 0.72594021 1.0290751
0.88942836 0.69138022 1.0258094
1.1049984 0.65682023 1.0225437
-0.67206112 1.10489 1.0373974
-0.45649108 1.07033 1.0341317
-0.24092104 1.03577 1.030866
-0.025350999 1.0012101 1.0276003
0.19021904 0.96665007 1.0243346
0.40578908 0.93209008 1.0210689
0.62135912 0.89753009 1.0178032
0.83692916 0.8629701 1.0145375
1.0524992 0.82841011 1.0112718
-0.72456032 1.2764799 1.0261255
-0.50899028 1.2419199 1.0228598
-0.29342024 1.2073599 1.0195941
-0.077850198 1.1727999 1.0163285
0.13771984 1.13824 1.0130628
0.35328988 1.10368 1.0097971
0.56885992 1.06912 1.0065314
0.78442996 1.03456 1.0032657
1 1 1
