site/assets/luts/ocio-aces--ocioutilityst2084-curve--fcffeddee.cube
# LUTr-Project: LUTr — LUTrepository
# LUTr-Schema-Version: 1
# LUTr-ID: ocio-aces--ocioutilityst2084-curve--fcffeddee
# LUTr-Title: OCIO.Utility.ST2084-Curve
# LUTr-Collection: OCIO ACES
# LUTr-Collection-ID: aswf-opencolorio-config-aces
# LUTr-Source: https://github.com/AcademySoftwareFoundation/OpenColorIO-Config-ACES
# LUTr-Source-File: submissions/aswf-opencolorio-config-aces/opencolorio_config_aces/clf/transforms/ocio/utility/OCIO.Utility.ST2084-Curve.clf
# LUTr-Source-Format: CLF
# LUTr-Source-SHA256: c1dfd2bfede99f15c5b80adf7cdd810273a0a5112ca541d15236cfa8c81fa282
# LUTr-License: BSD-3-Clause
# LUTr-License-URL: https://github.com/AcademySoftwareFoundation/OpenColorIO-Config-ACES/blob/main/LICENSE
# LUTr-Tags: technical, aces, ocio, clf, color-management, cube
# LUTr-Transform-Class: color-space-conversion
# LUTr-Input-Color-Space: generic linear RGB
# LUTr-Output-Color-Space: generic ST.2084 (PQ) encoded RGB mapping 1.0 to 100nits
# LUTr-Color-Space-Confidence: descriptor-only
# LUTr-Conversion-Method: CLF operations evaluated as float and sampled to 33x33x33 3D CUBE
# LUTr-Conversion-Date: 2026-07-27
# LUTr-Conversion-Tool: LUTr scripts/convert-all-to-cube.mjs
# LUTr-Conversion-Grid: 33x33x33
# LUTr-Conversion-Warning: A sampled 3D CUBE is bounded to DOMAIN_MIN/MAX 0..1 and cannot preserve CLF values outside its input domain.
# LUTr-Upstream-ID: urn:aswf:ocio:transformId:1.0:OCIO:Utility:Linear_to_ST2084-Curve:1.0
# LUTr-Upstream-Name: Linear to ST.2084
# LUTr-Upstream-Input-Descriptor: generic linear RGB
# LUTr-Upstream-Output-Descriptor: generic ST.2084 (PQ) encoded RGB mapping 1.0 to 100nits
# LUTr-Upstream-Builtin-Transform: CURVE - LINEAR_to_ST-2084
# LUTr-Upstream-Operations: LUT1D
# LUTr-Note: Preserve this metadata and the upstream license notices when redistributing.
TITLE "OCIO.Utility.ST2084-Curve"
LUT_3D_SIZE 33
DOMAIN_MIN 0 0 0
DOMAIN_MAX 1 1 1
7.3095589e-7 7.3095589e-7 7.3095589e-7
0.21596771 7.3095589e-7 7.3095589e-7
0.26392043 7.3095589e-7 7.3095589e-7
0.29463428 7.3095589e-7 7.3095589e-7
0.31757447 7.3095589e-7 7.3095589e-7
0.33600244 7.3095589e-7 7.3095589e-7
0.35145769 7.3095589e-7 7.3095589e-7
0.36479655 7.3095589e-7 7.3095589e-7
0.37654707 7.3095589e-7 7.3095589e-7
0.38705894 7.3095589e-7 7.3095589e-7
0.39657634 7.3095589e-7 7.3095589e-7
0.40527675 7.3095589e-7 7.3095589e-7
0.41329336 7.3095589e-7 7.3095589e-7
0.42072889 7.3095589e-7 7.3095589e-7
0.42766419 7.3095589e-7 7.3095589e-7
0.43416414 7.3095589e-7 7.3095589e-7
0.44028157 7.3095589e-7 7.3095589e-7
0.44606018 7.3095589e-7 7.3095589e-7
0.45153648 7.3095589e-7 7.3095589e-7
0.45674127 7.3095589e-7 7.3095589e-7
0.46170086 7.3095589e-7 7.3095589e-7
0.46643782 7.3095589e-7 7.3095589e-7
0.47097176 7.3095589e-7 7.3095589e-7
0.47531974 7.3095589e-7 7.3095589e-7
0.47949675 7.3095589e-7 7.3095589e-7
0.48351601 7.3095589e-7 7.3095589e-7
0.48738924 7.3095589e-7 7.3095589e-7
0.49112689 7.3095589e-7 7.3095589e-7
0.49473831 7.3095589e-7 7.3095589e-7
0.49823195 7.3095589e-7 7.3095589e-7
0.50161541 7.3095589e-7 7.3095589e-7
0.50489545 7.3095589e-7 7.3095589e-7
0.5080784 7.3095589e-7 7.3095589e-7
7.3095589e-7 0.21596771 7.3095589e-7
0.21596771 0.21596771 7.3095589e-7
0.26392043 0.21596771 7.3095589e-7
0.29463428 0.21596771 7.3095589e-7
0.31757447 0.21596771 7.3095589e-7
0.33600244 0.21596771 7.3095589e-7
0.35145769 0.21596771 7.3095589e-7
0.36479655 0.21596771 7.3095589e-7
0.37654707 0.21596771 7.3095589e-7
0.38705894 0.21596771 7.3095589e-7
0.39657634 0.21596771 7.3095589e-7
0.40527675 0.21596771 7.3095589e-7
0.41329336 0.21596771 7.3095589e-7
0.42072889 0.21596771 7.3095589e-7
0.42766419 0.21596771 7.3095589e-7
0.43416414 0.21596771 7.3095589e-7
0.44028157 0.21596771 7.3095589e-7
0.44606018 0.21596771 7.3095589e-7
0.45153648 0.21596771 7.3095589e-7
0.45674127 0.21596771 7.3095589e-7
0.46170086 0.21596771 7.3095589e-7
0.46643782 0.21596771 7.3095589e-7
0.47097176 0.21596771 7.3095589e-7
0.47531974 0.21596771 7.3095589e-7
0.47949675 0.21596771 7.3095589e-7
0.48351601 0.21596771 7.3095589e-7
0.48738924 0.21596771 7.3095589e-7
0.49112689 0.21596771 7.3095589e-7
0.49473831 0.21596771 7.3095589e-7
0.49823195 0.21596771 7.3095589e-7
0.50161541 0.21596771 7.3095589e-7
0.50489545 0.21596771 7.3095589e-7
0.5080784 0.21596771 7.3095589e-7
7.3095589e-7 0.26392043 7.3095589e-7
0.21596771 0.26392043 7.3095589e-7
0.26392043 0.26392043 7.3095589e-7
0.29463428 0.26392043 7.3095589e-7
0.31757447 0.26392043 7.3095589e-7
0.33600244 0.26392043 7.3095589e-7
0.35145769 0.26392043 7.3095589e-7
0.36479655 0.26392043 7.3095589e-7
0.37654707 0.26392043 7.3095589e-7
0.38705894 0.26392043 7.3095589e-7
0.39657634 0.26392043 7.3095589e-7
0.40527675 0.26392043 7.3095589e-7
0.41329336 0.26392043 7.3095589e-7
0.42072889 0.26392043 7.3095589e-7
0.42766419 0.26392043 7.3095589e-7
0.43416414 0.26392043 7.3095589e-7
0.44028157 0.26392043 7.3095589e-7
0.44606018 0.26392043 7.3095589e-7
0.45153648 0.26392043 7.3095589e-7
0.45674127 0.26392043 7.3095589e-7
0.46170086 0.26392043 7.3095589e-7
0.46643782 0.26392043 7.3095589e-7
0.47097176 0.26392043 7.3095589e-7
0.47531974 0.26392043 7.3095589e-7
0.47949675 0.26392043 7.3095589e-7
0.48351601 0.26392043 7.3095589e-7
0.48738924 0.26392043 7.3095589e-7
0.49112689 0.26392043 7.3095589e-7
0.49473831 0.26392043 7.3095589e-7
0.49823195 0.26392043 7.3095589e-7
0.50161541 0.26392043 7.3095589e-7
0.50489545 0.26392043 7.3095589e-7
0.5080784 0.26392043 7.3095589e-7
7.3095589e-7 0.29463428 7.3095589e-7
0.21596771 0.29463428 7.3095589e-7
0.26392043 0.29463428 7.3095589e-7
0.29463428 0.29463428 7.3095589e-7
0.31757447 0.29463428 7.3095589e-7
0.33600244 0.29463428 7.3095589e-7
0.35145769 0.29463428 7.3095589e-7
0.36479655 0.29463428 7.3095589e-7
0.37654707 0.29463428 7.3095589e-7
0.38705894 0.29463428 7.3095589e-7
0.39657634 0.29463428 7.3095589e-7
0.40527675 0.29463428 7.3095589e-7
0.41329336 0.29463428 7.3095589e-7
0.42072889 0.29463428 7.3095589e-7
0.42766419 0.29463428 7.3095589e-7
0.43416414 0.29463428 7.3095589e-7
0.44028157 0.29463428 7.3095589e-7
0.44606018 0.29463428 7.3095589e-7
0.45153648 0.29463428 7.3095589e-7
0.45674127 0.29463428 7.3095589e-7
0.46170086 0.29463428 7.3095589e-7
0.46643782 0.29463428 7.3095589e-7
0.47097176 0.29463428 7.3095589e-7
0.47531974 0.29463428 7.3095589e-7
0.47949675 0.29463428 7.3095589e-7
0.48351601 0.29463428 7.3095589e-7
0.48738924 0.29463428 7.3095589e-7
0.49112689 0.29463428 7.3095589e-7
0.49473831 0.29463428 7.3095589e-7
0.49823195 0.29463428 7.3095589e-7
0.50161541 0.29463428 7.3095589e-7
0.50489545 0.29463428 7.3095589e-7
0.5080784 0.29463428 7.3095589e-7
7.3095589e-7 0.31757447 7.3095589e-7
0.21596771 0.31757447 7.3095589e-7
0.26392043 0.31757447 7.3095589e-7
0.29463428 0.31757447 7.3095589e-7
0.31757447 0.31757447 7.3095589e-7
0.33600244 0.31757447 7.3095589e-7
0.35145769 0.31757447 7.3095589e-7
0.36479655 0.31757447 7.3095589e-7
0.37654707 0.31757447 7.3095589e-7
0.38705894 0.31757447 7.3095589e-7
0.39657634 0.31757447 7.3095589e-7
0.40527675 0.31757447 7.3095589e-7
0.41329336 0.31757447 7.3095589e-7
0.42072889 0.31757447 7.3095589e-7
0.42766419 0.31757447 7.3095589e-7
0.43416414 0.31757447 7.3095589e-7
0.44028157 0.31757447 7.3095589e-7
0.44606018 0.31757447 7.3095589e-7
0.45153648 0.31757447 7.3095589e-7
0.45674127 0.31757447 7.3095589e-7
0.46170086 0.31757447 7.3095589e-7
0.46643782 0.31757447 7.3095589e-7
0.47097176 0.31757447 7.3095589e-7
0.47531974 0.31757447 7.3095589e-7
0.47949675 0.31757447 7.3095589e-7
0.48351601 0.31757447 7.3095589e-7
0.48738924 0.31757447 7.3095589e-7
0.49112689 0.31757447 7.3095589e-7
0.49473831 0.31757447 7.3095589e-7
0.49823195 0.31757447 7.3095589e-7
0.50161541 0.31757447 7.3095589e-7
0.50489545 0.31757447 7.3095589e-7
0.5080784 0.31757447 7.3095589e-7
7.3095589e-7 0.33600244 7.3095589e-7
0.21596771 0.33600244 7.3095589e-7
0.26392043 0.33600244 7.3095589e-7
0.29463428 0.33600244 7.3095589e-7
0.31757447 0.33600244 7.3095589e-7
0.33600244 0.33600244 7.3095589e-7
0.35145769 0.33600244 7.3095589e-7
0.36479655 0.33600244 7.3095589e-7
0.37654707 0.33600244 7.3095589e-7
0.38705894 0.33600244 7.3095589e-7
0.39657634 0.33600244 7.3095589e-7
0.40527675 0.33600244 7.3095589e-7
0.41329336 0.33600244 7.3095589e-7
0.42072889 0.33600244 7.3095589e-7
0.42766419 0.33600244 7.3095589e-7
0.43416414 0.33600244 7.3095589e-7
0.44028157 0.33600244 7.3095589e-7
0.44606018 0.33600244 7.3095589e-7
0.45153648 0.33600244 7.3095589e-7
0.45674127 0.33600244 7.3095589e-7
0.46170086 0.33600244 7.3095589e-7
0.46643782 0.33600244 7.3095589e-7
0.47097176 0.33600244 7.3095589e-7
0.47531974 0.33600244 7.3095589e-7
0.47949675 0.33600244 7.3095589e-7
0.48351601 0.33600244 7.3095589e-7
0.48738924 0.33600244 7.3095589e-7
0.49112689 0.33600244 7.3095589e-7
0.49473831 0.33600244 7.3095589e-7
0.49823195 0.33600244 7.3095589e-7
0.50161541 0.33600244 7.3095589e-7
0.50489545 0.33600244 7.3095589e-7
0.5080784 0.33600244 7.3095589e-7
7.3095589e-7 0.35145769 7.3095589e-7
0.21596771 0.35145769 7.3095589e-7
0.26392043 0.35145769 7.3095589e-7
0.29463428 0.35145769 7.3095589e-7
0.31757447 0.35145769 7.3095589e-7
0.33600244 0.35145769 7.3095589e-7
0.35145769 0.35145769 7.3095589e-7
0.36479655 0.35145769 7.3095589e-7
0.37654707 0.35145769 7.3095589e-7
0.38705894 0.35145769 7.3095589e-7
0.39657634 0.35145769 7.3095589e-7
0.40527675 0.35145769 7.3095589e-7
0.41329336 0.35145769 7.3095589e-7
0.42072889 0.35145769 7.3095589e-7
0.42766419 0.35145769 7.3095589e-7
0.43416414 0.35145769 7.3095589e-7
0.44028157 0.35145769 7.3095589e-7
0.44606018 0.35145769 7.3095589e-7
0.45153648 0.35145769 7.3095589e-7
0.45674127 0.35145769 7.3095589e-7
0.46170086 0.35145769 7.3095589e-7
0.46643782 0.35145769 7.3095589e-7
0.47097176 0.35145769 7.3095589e-7
0.47531974 0.35145769 7.3095589e-7
0.47949675 0.35145769 7.3095589e-7
0.48351601 0.35145769 7.3095589e-7
0.48738924 0.35145769 7.3095589e-7
0.49112689 0.35145769 7.3095589e-7
0.49473831 0.35145769 7.3095589e-7
0.49823195 0.35145769 7.3095589e-7
0.50161541 0.35145769 7.3095589e-7
0.50489545 0.35145769 7.3095589e-7
0.5080784 0.35145769 7.3095589e-7
7.3095589e-7 0.36479655 7.3095589e-7
0.21596771 0.36479655 7.3095589e-7
0.26392043 0.36479655 7.3095589e-7
0.29463428 0.36479655 7.3095589e-7
0.31757447 0.36479655 7.3095589e-7
0.33600244 0.36479655 7.3095589e-7
0.35145769 0.36479655 7.3095589e-7
0.36479655 0.36479655 7.3095589e-7
0.37654707 0.36479655 7.3095589e-7
0.38705894 0.36479655 7.3095589e-7
0.39657634 0.36479655 7.3095589e-7
0.40527675 0.36479655 7.3095589e-7
0.41329336 0.36479655 7.3095589e-7
0.42072889 0.36479655 7.3095589e-7
0.42766419 0.36479655 7.3095589e-7
0.43416414 0.36479655 7.3095589e-7
0.44028157 0.36479655 7.3095589e-7
0.44606018 0.36479655 7.3095589e-7
0.45153648 0.36479655 7.3095589e-7
0.45674127 0.36479655 7.3095589e-7
0.46170086 0.36479655 7.3095589e-7
0.46643782 0.36479655 7.3095589e-7
0.47097176 0.36479655 7.3095589e-7
0.47531974 0.36479655 7.3095589e-7
0.47949675 0.36479655 7.3095589e-7
0.48351601 0.36479655 7.3095589e-7
0.48738924 0.36479655 7.3095589e-7
0.49112689 0.36479655 7.3095589e-7
0.49473831 0.36479655 7.3095589e-7
0.49823195 0.36479655 7.3095589e-7
0.50161541 0.36479655 7.3095589e-7
0.50489545 0.36479655 7.3095589e-7
0.5080784 0.36479655 7.3095589e-7
7.3095589e-7 0.37654707 7.3095589e-7
0.21596771 0.37654707 7.3095589e-7
0.26392043 0.37654707 7.3095589e-7
0.29463428 0.37654707 7.3095589e-7
0.31757447 0.37654707 7.3095589e-7
0.33600244 0.37654707 7.3095589e-7
0.35145769 0.37654707 7.3095589e-7
0.36479655 0.37654707 7.3095589e-7
0.37654707 0.37654707 7.3095589e-7
0.38705894 0.37654707 7.3095589e-7
0.39657634 0.37654707 7.3095589e-7
0.40527675 0.37654707 7.3095589e-7
0.41329336 0.37654707 7.3095589e-7
0.42072889 0.37654707 7.3095589e-7
0.42766419 0.37654707 7.3095589e-7
0.43416414 0.37654707 7.3095589e-7
0.44028157 0.37654707 7.3095589e-7
0.44606018 0.37654707 7.3095589e-7
0.45153648 0.37654707 7.3095589e-7
0.45674127 0.37654707 7.3095589e-7
0.46170086 0.37654707 7.3095589e-7
0.46643782 0.37654707 7.3095589e-7
0.47097176 0.37654707 7.3095589e-7
0.47531974 0.37654707 7.3095589e-7
0.47949675 0.37654707 7.3095589e-7
0.48351601 0.37654707 7.3095589e-7
0.48738924 0.37654707 7.3095589e-7
0.49112689 0.37654707 7.3095589e-7
0.49473831 0.37654707 7.3095589e-7
0.49823195 0.37654707 7.3095589e-7
0.50161541 0.37654707 7.3095589e-7
0.50489545 0.37654707 7.3095589e-7
0.5080784 0.37654707 7.3095589e-7
7.3095589e-7 0.38705894 7.3095589e-7
0.21596771 0.38705894 7.3095589e-7
0.26392043 0.38705894 7.3095589e-7
0.29463428 0.38705894 7.3095589e-7
0.31757447 0.38705894 7.3095589e-7
0.33600244 0.38705894 7.3095589e-7
0.35145769 0.38705894 7.3095589e-7
0.36479655 0.38705894 7.3095589e-7
0.37654707 0.38705894 7.3095589e-7
0.38705894 0.38705894 7.3095589e-7
0.39657634 0.38705894 7.3095589e-7
0.40527675 0.38705894 7.3095589e-7
0.41329336 0.38705894 7.3095589e-7
0.42072889 0.38705894 7.3095589e-7
0.42766419 0.38705894 7.3095589e-7
0.43416414 0.38705894 7.3095589e-7
0.44028157 0.38705894 7.3095589e-7
0.44606018 0.38705894 7.3095589e-7
0.45153648 0.38705894 7.3095589e-7
0.45674127 0.38705894 7.3095589e-7
0.46170086 0.38705894 7.3095589e-7
0.46643782 0.38705894 7.3095589e-7
0.47097176 0.38705894 7.3095589e-7
0.47531974 0.38705894 7.3095589e-7
0.47949675 0.38705894 7.3095589e-7
0.48351601 0.38705894 7.3095589e-7
0.48738924 0.38705894 7.3095589e-7
0.49112689 0.38705894 7.3095589e-7
0.49473831 0.38705894 7.3095589e-7
0.49823195 0.38705894 7.3095589e-7
0.50161541 0.38705894 7.3095589e-7
0.50489545 0.38705894 7.3095589e-7
0.5080784 0.38705894 7.3095589e-7
7.3095589e-7 0.39657634 7.3095589e-7
0.21596771 0.39657634 7.3095589e-7
0.26392043 0.39657634 7.3095589e-7
0.29463428 0.39657634 7.3095589e-7
0.31757447 0.39657634 7.3095589e-7
0.33600244 0.39657634 7.3095589e-7
0.35145769 0.39657634 7.3095589e-7
0.36479655 0.39657634 7.3095589e-7
0.37654707 0.39657634 7.3095589e-7
0.38705894 0.39657634 7.3095589e-7
0.39657634 0.39657634 7.3095589e-7
0.40527675 0.39657634 7.3095589e-7
0.41329336 0.39657634 7.3095589e-7
0.42072889 0.39657634 7.3095589e-7
0.42766419 0.39657634 7.3095589e-7
0.43416414 0.39657634 7.3095589e-7
0.44028157 0.39657634 7.3095589e-7
0.44606018 0.39657634 7.3095589e-7
0.45153648 0.39657634 7.3095589e-7
0.45674127 0.39657634 7.3095589e-7
0.46170086 0.39657634 7.3095589e-7
0.46643782 0.39657634 7.3095589e-7
0.47097176 0.39657634 7.3095589e-7
0.47531974 0.39657634 7.3095589e-7
0.47949675 0.39657634 7.3095589e-7
0.48351601 0.39657634 7.3095589e-7
0.48738924 0.39657634 7.3095589e-7
0.49112689 0.39657634 7.3095589e-7
0.49473831 0.39657634 7.3095589e-7
0.49823195 0.39657634 7.3095589e-7
0.50161541 0.39657634 7.3095589e-7
0.50489545 0.39657634 7.3095589e-7
0.5080784 0.39657634 7.3095589e-7
7.3095589e-7 0.40527675 7.3095589e-7
0.21596771 0.40527675 7.3095589e-7
0.26392043 0.40527675 7.3095589e-7
0.29463428 0.40527675 7.3095589e-7
0.31757447 0.40527675 7.3095589e-7
0.33600244 0.40527675 7.3095589e-7
0.35145769 0.40527675 7.3095589e-7
0.36479655 0.40527675 7.3095589e-7
0.37654707 0.40527675 7.3095589e-7
0.38705894 0.40527675 7.3095589e-7
0.39657634 0.40527675 7.3095589e-7
0.40527675 0.40527675 7.3095589e-7
0.41329336 0.40527675 7.3095589e-7
0.42072889 0.40527675 7.3095589e-7
0.42766419 0.40527675 7.3095589e-7
0.43416414 0.40527675 7.3095589e-7
0.44028157 0.40527675 7.3095589e-7
0.44606018 0.40527675 7.3095589e-7
0.45153648 0.40527675 7.3095589e-7
0.45674127 0.40527675 7.3095589e-7
0.46170086 0.40527675 7.3095589e-7
0.46643782 0.40527675 7.3095589e-7
0.47097176 0.40527675 7.3095589e-7
0.47531974 0.40527675 7.3095589e-7
0.47949675 0.40527675 7.3095589e-7
0.48351601 0.40527675 7.3095589e-7
0.48738924 0.40527675 7.3095589e-7
0.49112689 0.40527675 7.3095589e-7
0.49473831 0.40527675 7.3095589e-7
0.49823195 0.40527675 7.3095589e-7
0.50161541 0.40527675 7.3095589e-7
0.50489545 0.40527675 7.3095589e-7
0.5080784 0.40527675 7.3095589e-7
7.3095589e-7 0.41329336 7.3095589e-7
0.21596771 0.41329336 7.3095589e-7
0.26392043 0.41329336 7.3095589e-7
0.29463428 0.41329336 7.3095589e-7
0.31757447 0.41329336 7.3095589e-7
0.33600244 0.41329336 7.3095589e-7
0.35145769 0.41329336 7.3095589e-7
0.36479655 0.41329336 7.3095589e-7
0.37654707 0.41329336 7.3095589e-7
0.38705894 0.41329336 7.3095589e-7
0.39657634 0.41329336 7.3095589e-7
0.40527675 0.41329336 7.3095589e-7
0.41329336 0.41329336 7.3095589e-7
0.42072889 0.41329336 7.3095589e-7
0.42766419 0.41329336 7.3095589e-7
0.43416414 0.41329336 7.3095589e-7
0.44028157 0.41329336 7.3095589e-7
0.44606018 0.41329336 7.3095589e-7
0.45153648 0.41329336 7.3095589e-7
0.45674127 0.41329336 7.3095589e-7
0.46170086 0.41329336 7.3095589e-7
0.46643782 0.41329336 7.3095589e-7
0.47097176 0.41329336 7.3095589e-7
0.47531974 0.41329336 7.3095589e-7
0.47949675 0.41329336 7.3095589e-7
0.48351601 0.41329336 7.3095589e-7
0.48738924 0.41329336 7.3095589e-7
0.49112689 0.41329336 7.3095589e-7
0.49473831 0.41329336 7.3095589e-7
0.49823195 0.41329336 7.3095589e-7
0.50161541 0.41329336 7.3095589e-7
0.50489545 0.41329336 7.3095589e-7
0.5080784 0.41329336 7.3095589e-7
7.3095589e-7 0.42072889 7.3095589e-7
0.21596771 0.42072889 7.3095589e-7
0.26392043 0.42072889 7.3095589e-7
0.29463428 0.42072889 7.3095589e-7
0.31757447 0.42072889 7.3095589e-7
0.33600244 0.42072889 7.3095589e-7
0.35145769 0.42072889 7.3095589e-7
0.36479655 0.42072889 7.3095589e-7
0.37654707 0.42072889 7.3095589e-7
0.38705894 0.42072889 7.3095589e-7
0.39657634 0.42072889 7.3095589e-7
0.40527675 0.42072889 7.3095589e-7
0.41329336 0.42072889 7.3095589e-7
0.42072889 0.42072889 7.3095589e-7
0.42766419 0.42072889 7.3095589e-7
0.43416414 0.42072889 7.3095589e-7
0.44028157 0.42072889 7.3095589e-7
0.44606018 0.42072889 7.3095589e-7
0.45153648 0.42072889 7.3095589e-7
0.45674127 0.42072889 7.3095589e-7
0.46170086 0.42072889 7.3095589e-7
0.46643782 0.42072889 7.3095589e-7
0.47097176 0.42072889 7.3095589e-7
0.47531974 0.42072889 7.3095589e-7
0.47949675 0.42072889 7.3095589e-7
0.48351601 0.42072889 7.3095589e-7
0.48738924 0.42072889 7.3095589e-7
0.49112689 0.42072889 7.3095589e-7
0.49473831 0.42072889 7.3095589e-7
0.49823195 0.42072889 7.3095589e-7
0.50161541 0.42072889 7.3095589e-7
0.50489545 0.42072889 7.3095589e-7
0.5080784 0.42072889 7.3095589e-7
7.3095589e-7 0.42766419 7.3095589e-7
0.21596771 0.42766419 7.3095589e-7
0.26392043 0.42766419 7.3095589e-7
0.29463428 0.42766419 7.3095589e-7
0.31757447 0.42766419 7.3095589e-7
0.33600244 0.42766419 7.3095589e-7
0.35145769 0.42766419 7.3095589e-7
0.36479655 0.42766419 7.3095589e-7
0.37654707 0.42766419 7.3095589e-7
0.38705894 0.42766419 7.3095589e-7
0.39657634 0.42766419 7.3095589e-7
0.40527675 0.42766419 7.3095589e-7
0.41329336 0.42766419 7.3095589e-7
0.42072889 0.42766419 7.3095589e-7
0.42766419 0.42766419 7.3095589e-7
0.43416414 0.42766419 7.3095589e-7
0.44028157 0.42766419 7.3095589e-7
0.44606018 0.42766419 7.3095589e-7
0.45153648 0.42766419 7.3095589e-7
0.45674127 0.42766419 7.3095589e-7
0.46170086 0.42766419 7.3095589e-7
0.46643782 0.42766419 7.3095589e-7
0.47097176 0.42766419 7.3095589e-7
0.47531974 0.42766419 7.3095589e-7
0.47949675 0.42766419 7.3095589e-7
0.48351601 0.42766419 7.3095589e-7
0.48738924 0.42766419 7.3095589e-7
0.49112689 0.42766419 7.3095589e-7
0.49473831 0.42766419 7.3095589e-7
0.49823195 0.42766419 7.3095589e-7
0.50161541 0.42766419 7.3095589e-7
0.50489545 0.42766419 7.3095589e-7
0.5080784 0.42766419 7.3095589e-7
7.3095589e-7 0.43416414 7.3095589e-7
0.21596771 0.43416414 7.3095589e-7
0.26392043 0.43416414 7.3095589e-7
0.29463428 0.43416414 7.3095589e-7
0.31757447 0.43416414 7.3095589e-7
0.33600244 0.43416414 7.3095589e-7
0.35145769 0.43416414 7.3095589e-7
0.36479655 0.43416414 7.3095589e-7
0.37654707 0.43416414 7.3095589e-7
0.38705894 0.43416414 7.3095589e-7
0.39657634 0.43416414 7.3095589e-7
0.40527675 0.43416414 7.3095589e-7
0.41329336 0.43416414 7.3095589e-7
0.42072889 0.43416414 7.3095589e-7
0.42766419 0.43416414 7.3095589e-7
0.43416414 0.43416414 7.3095589e-7
0.44028157 0.43416414 7.3095589e-7
0.44606018 0.43416414 7.3095589e-7
0.45153648 0.43416414 7.3095589e-7
0.45674127 0.43416414 7.3095589e-7
0.46170086 0.43416414 7.3095589e-7
0.46643782 0.43416414 7.3095589e-7
0.47097176 0.43416414 7.3095589e-7
0.47531974 0.43416414 7.3095589e-7
0.47949675 0.43416414 7.3095589e-7
0.48351601 0.43416414 7.3095589e-7
0.48738924 0.43416414 7.3095589e-7
0.49112689 0.43416414 7.3095589e-7
0.49473831 0.43416414 7.3095589e-7
0.49823195 0.43416414 7.3095589e-7
0.50161541 0.43416414 7.3095589e-7
0.50489545 0.43416414 7.3095589e-7
0.5080784 0.43416414 7.3095589e-7
7.3095589e-7 0.44028157 7.3095589e-7
0.21596771 0.44028157 7.3095589e-7
0.26392043 0.44028157 7.3095589e-7
0.29463428 0.44028157 7.3095589e-7
0.31757447 0.44028157 7.3095589e-7
0.33600244 0.44028157 7.3095589e-7
0.35145769 0.44028157 7.3095589e-7
0.36479655 0.44028157 7.3095589e-7
0.37654707 0.44028157 7.3095589e-7
0.38705894 0.44028157 7.3095589e-7
0.39657634 0.44028157 7.3095589e-7
0.40527675 0.44028157 7.3095589e-7
0.41329336 0.44028157 7.3095589e-7
0.42072889 0.44028157 7.3095589e-7
0.42766419 0.44028157 7.3095589e-7
0.43416414 0.44028157 7.3095589e-7
0.44028157 0.44028157 7.3095589e-7
0.44606018 0.44028157 7.3095589e-7
0.45153648 0.44028157 7.3095589e-7
0.45674127 0.44028157 7.3095589e-7
0.46170086 0.44028157 7.3095589e-7
0.46643782 0.44028157 7.3095589e-7
0.47097176 0.44028157 7.3095589e-7
0.47531974 0.44028157 7.3095589e-7
0.47949675 0.44028157 7.3095589e-7
0.48351601 0.44028157 7.3095589e-7
0.48738924 0.44028157 7.3095589e-7
0.49112689 0.44028157 7.3095589e-7
0.49473831 0.44028157 7.3095589e-7
0.49823195 0.44028157 7.3095589e-7
0.50161541 0.44028157 7.3095589e-7
0.50489545 0.44028157 7.3095589e-7
0.5080784 0.44028157 7.3095589e-7
7.3095589e-7 0.44606018 7.3095589e-7
0.21596771 0.44606018 7.3095589e-7
0.26392043 0.44606018 7.3095589e-7
0.29463428 0.44606018 7.3095589e-7
0.31757447 0.44606018 7.3095589e-7
0.33600244 0.44606018 7.3095589e-7
0.35145769 0.44606018 7.3095589e-7
0.36479655 0.44606018 7.3095589e-7
0.37654707 0.44606018 7.3095589e-7
0.38705894 0.44606018 7.3095589e-7
0.39657634 0.44606018 7.3095589e-7
0.40527675 0.44606018 7.3095589e-7
0.41329336 0.44606018 7.3095589e-7
0.42072889 0.44606018 7.3095589e-7
0.42766419 0.44606018 7.3095589e-7
0.43416414 0.44606018 7.3095589e-7
0.44028157 0.44606018 7.3095589e-7
0.44606018 0.44606018 7.3095589e-7
0.45153648 0.44606018 7.3095589e-7
0.45674127 0.44606018 7.3095589e-7
0.46170086 0.44606018 7.3095589e-7
0.46643782 0.44606018 7.3095589e-7
0.47097176 0.44606018 7.3095589e-7
0.47531974 0.44606018 7.3095589e-7
0.47949675 0.44606018 7.3095589e-7
0.48351601 0.44606018 7.3095589e-7
0.48738924 0.44606018 7.3095589e-7
0.49112689 0.44606018 7.3095589e-7
0.49473831 0.44606018 7.3095589e-7
0.49823195 0.44606018 7.3095589e-7
0.50161541 0.44606018 7.3095589e-7
0.50489545 0.44606018 7.3095589e-7
0.5080784 0.44606018 7.3095589e-7
7.3095589e-7 0.45153648 7.3095589e-7
0.21596771 0.45153648 7.3095589e-7
0.26392043 0.45153648 7.3095589e-7
0.29463428 0.45153648 7.3095589e-7
0.31757447 0.45153648 7.3095589e-7
0.33600244 0.45153648 7.3095589e-7
0.35145769 0.45153648 7.3095589e-7
0.36479655 0.45153648 7.3095589e-7
0.37654707 0.45153648 7.3095589e-7
0.38705894 0.45153648 7.3095589e-7
0.39657634 0.45153648 7.3095589e-7
0.40527675 0.45153648 7.3095589e-7
0.41329336 0.45153648 7.3095589e-7
0.42072889 0.45153648 7.3095589e-7
0.42766419 0.45153648 7.3095589e-7
0.43416414 0.45153648 7.3095589e-7
0.44028157 0.45153648 7.3095589e-7
0.44606018 0.45153648 7.3095589e-7
0.45153648 0.45153648 7.3095589e-7
0.45674127 0.45153648 7.3095589e-7
0.46170086 0.45153648 7.3095589e-7
0.46643782 0.45153648 7.3095589e-7
0.47097176 0.45153648 7.3095589e-7
0.47531974 0.45153648 7.3095589e-7
0.47949675 0.45153648 7.3095589e-7
0.48351601 0.45153648 7.3095589e-7
0.48738924 0.45153648 7.3095589e-7
0.49112689 0.45153648 7.3095589e-7
0.49473831 0.45153648 7.3095589e-7
0.49823195 0.45153648 7.3095589e-7
0.50161541 0.45153648 7.3095589e-7
0.50489545 0.45153648 7.3095589e-7
0.5080784 0.45153648 7.3095589e-7
7.3095589e-7 0.45674127 7.3095589e-7
