site/assets/luts/ocio-aces--sonyinputslog3-sgamut3-to-aces2065-1--23ac9044b.cube
# LUTr-Project: LUTr — LUTrepository
# LUTr-Schema-Version: 1
# LUTr-ID: ocio-aces--sonyinputslog3-sgamut3-to-aces2065-1--23ac9044b
# LUTr-Title: Sony.Input.SLog3 SGamut3 to ACES2065-1
# LUTr-Collection: OCIO ACES
# LUTr-Collection-ID: aswf-opencolorio-config-aces
# LUTr-Source: https://github.com/AcademySoftwareFoundation/OpenColorIO-Config-ACES
# LUTr-Source-File: submissions/aswf-opencolorio-config-aces/opencolorio_config_aces/clf/transforms/sony/input/Sony.Input.SLog3_SGamut3_to_ACES2065-1.clf
# LUTr-Source-Format: CLF
# LUTr-Source-SHA256: f1544e7aef78e9050714ad87aa985584704aad51c797a821420915bfb706a826
# LUTr-License: BSD-3-Clause
# LUTr-License-URL: https://github.com/AcademySoftwareFoundation/OpenColorIO-Config-ACES/blob/main/LICENSE
# LUTr-Tags: technical, aces, ocio, clf, color-management, cube
# LUTr-Transform-Class: color-space-conversion
# LUTr-Input-Color-Space: Sony S-Log3 S-Gamut3
# LUTr-Output-Color-Space: ACES2065-1
# LUTr-Color-Space-Confidence: descriptor-only
# LUTr-Conversion-Method: CLF operations evaluated as float and sampled to 33x33x33 3D CUBE
# LUTr-Conversion-Date: 2026-07-27
# LUTr-Conversion-Tool: LUTr scripts/convert-all-to-cube.mjs
# LUTr-Conversion-Grid: 33x33x33
# LUTr-Conversion-Warning: A sampled 3D CUBE is bounded to DOMAIN_MIN/MAX 0..1 and cannot preserve CLF values outside its input domain.
# LUTr-Upstream-ID: urn:aswf:ocio:transformId:1.0:Sony:Input:SLog3_SGamut3_to_ACES2065-1:1.0
# LUTr-Upstream-Name: Sony S-Log3 S-Gamut3 to ACES2065-1
# LUTr-Upstream-Input-Descriptor: Sony S-Log3 S-Gamut3
# LUTr-Upstream-Output-Descriptor: ACES2065-1
# LUTr-Upstream-Operations: Log → Matrix
# LUTr-Note: Preserve this metadata and the upstream license notices when redistributing.
TITLE "Sony.Input.SLog3 SGamut3 to ACES2065-1"
LUT_3D_SIZE 5
DOMAIN_MIN 0 0 0
DOMAIN_MAX 1 1 1
-0.014023696 -0.014023696 -0.014023696
0.022690682 -0.012965259 -0.01448281
0.30922201 -0.0047048617 -0.018065886
3.0330745 0.073820945 -0.052127681
28.926831 0.82031074 -0.37592929
-0.0070331647 0.035481831 -0.013859359
0.029681214 0.036540268 -0.014318473
0.31621254 0.044800665 -0.017901549
3.040065 0.12332647 -0.051963344
28.933821 0.86981627 -0.37576495
0.047523287 0.42183957 -0.012576819
0.084237665 0.42289801 -0.013035933
0.37076899 0.4311584 -0.016619009
3.0946215 0.50968421 -0.050680804
28.988378 1.256174 -0.37448241
0.56615323 4.0946718 -0.00038461024
0.60286761 4.0957302 -0.0008437238
0.88939893 4.1039906 -0.0044268001
3.6132514 4.1825164 -0.038488595
29.507008 4.9290062 -0.3622902
5.4964045 39.009713 0.11551817
5.5331189 39.010772 0.11505906
5.8196503 39.019032 0.11147598
8.5435027 39.097558 0.077414188
34.437259 39.844048 -0.24638742
-0.008970004 -0.015829058 0.035029682
0.027744374 -0.014770621 0.034570569
0.3142757 -0.0065102237 0.030987493
3.0381282 0.072015583 -0.0030743022
28.931884 0.81850538 -0.32687591
-0.0019794727 0.033676469 0.035194019
0.034734906 0.034734906 0.034734906
0.32126623 0.042995303 0.031151829
3.0451187 0.12152111 -0.0029099654
28.938875 0.86801091 -0.32671157
0.052576979 0.42003421 0.036476559
0.089291357 0.42109265 0.036017446
0.37582268 0.42935304 0.032434369
3.0996752 0.50787885 -0.0016274254
28.993431 1.2543686 -0.32542903
0.57120692 4.0928664 0.048668768
0.6079213 4.0939249 0.048209655
0.89445263 4.1021853 0.044626578
3.6183051 4.1807111 0.010564783
29.512061 4.9272009 -0.31323682
5.5014582 39.007908 0.16457155
5.5381726 39.008966 0.16411244
5.8247039 39.017227 0.16052936
8.5485564 39.095752 0.12646757
34.442313 39.842242 -0.19733404
0.030470704 -0.029918708 0.4178587
0.067185082 -0.028860271 0.41739959
0.35371641 -0.020599874 0.41381651
3.0775689 0.057925932 0.37975472
28.971325 0.80441573 0.055953112
0.037461235 0.019586818 0.41802304
0.074175613 0.020645255 0.41756393
0.36070694 0.028905652 0.41398085
3.0845594 0.10743146 0.37991906
28.978316 0.85392126 0.056117449
0.092017686 0.40594456 0.41930558
0.12873206 0.40700299 0.41884647
0.41526339 0.41526339 0.41526339
3.1391159 0.4937892 0.3812016
29.032872 1.240279 0.057399989
0.61064763 4.0787768 0.43149779
0.64736201 4.0798352 0.43103868
0.93389333 4.0880956 0.4274556
3.6577458 4.1666214 0.39339381
29.551502 4.9131112 0.069592198
5.5408989 38.993818 0.54740057
5.5776133 38.994877 0.54694146
5.8641447 39.003137 0.54335838
8.5879971 39.081663 0.50929659
34.481753 39.828153 0.18549498
0.40540587 -0.16385914 4.0571459
0.44212024 -0.1628007 4.0566868
0.72865157 -0.15454031 4.0531037
3.4525041 -0.076014499 4.0190419
29.34626 0.6704753 3.6952403
0.4123964 -0.11435361 4.0573102
0.44911078 -0.11329518 4.0568511
0.7356421 -0.10503478 4.053268
3.4594946 -0.026508973 4.0192062
29.353251 0.71998083 3.6954046
0.46695285 0.27200413 4.0585928
0.50366723 0.27306256 4.0581336
0.79019855 0.28132296 4.0545506
3.514051 0.35984877 4.0204888
29.407807 1.1063386 3.6966872
0.98558279 3.9448363 4.070785
1.0222972 3.9458948 4.0703258
1.3088285 3.9541552 4.0667428
4.032681 4.032681 4.032681
29.926437 4.7791708 3.7088794
5.9158341 38.859878 4.1866877
5.9525485 38.860936 4.1862286
6.2390798 38.869197 4.1826456
8.9629323 38.947722 4.1485838
34.856689 39.694212 3.8247822
3.9696516 -1.4371369 38.653298
4.006366 -1.4360785 38.652839
4.2928973 -1.4278181 38.649256
7.0167498 -1.3492923 38.615194
32.910506 -0.6028025 38.291392
3.9766422 -1.3876314 38.653462
4.0133565 -1.386573 38.653003
4.2998879 -1.3783126 38.64942
7.0237404 -1.2997868 38.615358
32.917497 -0.55329697 38.291557
4.0311986 -1.0012737 38.654745
4.067913 -1.0002152 38.654286
4.3544443 -0.99195484 38.650703
7.0782968 -0.91342903 38.616641
32.972053 -0.16693923 38.292839
4.5498286 2.6715585 38.666937
4.5865429 2.672617 38.666478
4.8730743 2.6808774 38.662895
7.5969268 2.7594032 38.628833
33.490683 3.505893 38.305032
9.4800799 37.5866 38.78284
9.5167943 37.587658 38.782381
9.8033256 37.595919 38.778798
12.527178 37.674445 38.744736
38.420934 38.420934 38.420934
