site/assets/luts/ocio-aces--blackmagicdesigninputlinear-davinci-widegamut-to-aces2065-1--1e7e4ea6b.cube
# LUTr-Project: LUTr — LUTrepository
# LUTr-Schema-Version: 1
# LUTr-ID: ocio-aces--blackmagicdesigninputlinear-davinci-widegamut-to-aces2065-1--1e7e4ea6b
# LUTr-Title: BlackmagicDesign.Input.Linear DaVinci WideGamut to ACES2065-1
# LUTr-Collection: OCIO ACES
# LUTr-Collection-ID: aswf-opencolorio-config-aces
# LUTr-Source: https://github.com/AcademySoftwareFoundation/OpenColorIO-Config-ACES
# LUTr-Source-File: submissions/aswf-opencolorio-config-aces/opencolorio_config_aces/clf/transforms/blackmagic/input/BlackmagicDesign.Input.Linear_DaVinci_WideGamut_to_ACES2065-1.clf
# LUTr-Source-Format: CLF
# LUTr-Source-SHA256: 82c11888f20c7ec148c648291db9277bb1f286c5fac261b8208284f6f5582bd6
# LUTr-License: BSD-3-Clause
# LUTr-License-URL: https://github.com/AcademySoftwareFoundation/OpenColorIO-Config-ACES/blob/main/LICENSE
# LUTr-Tags: technical, aces, ocio, clf, color-management, cube
# LUTr-Transform-Class: color-space-conversion
# LUTr-Input-Color-Space: Linear DaVinci Wide Gamut
# LUTr-Output-Color-Space: ACES2065-1
# LUTr-Color-Space-Confidence: descriptor-only
# LUTr-Conversion-Method: CLF operations evaluated as float and sampled to 33x33x33 3D CUBE
# LUTr-Conversion-Date: 2026-07-27
# LUTr-Conversion-Tool: LUTr scripts/convert-all-to-cube.mjs
# LUTr-Conversion-Grid: 33x33x33
# LUTr-Conversion-Warning: A sampled 3D CUBE is bounded to DOMAIN_MIN/MAX 0..1 and cannot preserve CLF values outside its input domain.
# LUTr-Upstream-ID: urn:aswf:ocio:transformId:1.0:BlackmagicDesign:Input:Linear_DaVinci_WideGamut_to_ACES2065-1:1.0
# LUTr-Upstream-Name: Linear DaVinci Wide Gamut to ACES2065-1
# LUTr-Upstream-Input-Descriptor: Linear DaVinci Wide Gamut
# LUTr-Upstream-Output-Descriptor: ACES2065-1
# LUTr-Upstream-Operations: Matrix
# LUTr-Note: Preserve this metadata and the upstream license notices when redistributing.
TITLE "BlackmagicDesign.Input.Linear DaVinci WideGamut to ACES2065-1"
LUT_3D_SIZE 9
DOMAIN_MIN 0 0 0
DOMAIN_MAX 1 1 1
0 0 0
0.093533786 0.0026052654 -0.011439032
0.18706757 0.0052105309 -0.022878064
0.28060136 0.0078157963 -0.034317097
0.37413515 0.010421062 -0.045756129
0.46766893 0.013026327 -0.057195161
0.56120272 0.015631593 -0.068634193
0.6547365 0.018236858 -0.080073225
0.74827029 0.020842123 -0.091512257
0.020961832 0.13898809 -0.015968339
0.11449562 0.14159336 -0.027407371
0.20802941 0.14419862 -0.038846403
0.30156319 0.14680389 -0.050285436
0.39509698 0.14940915 -0.061724468
0.48863076 0.15201442 -0.0731635
0.58216455 0.15461969 -0.084602532
0.67569834 0.15722495 -0.096041564
0.76923212 0.15983022 -0.1074806
0.041923665 0.27797619 -0.031936678
0.13545745 0.28058145 -0.04337571
0.22899124 0.28318672 -0.054814743
0.32252502 0.28579198 -0.066253775
0.41605881 0.28839725 -0.077692807
0.5095926 0.29100251 -0.089131839
0.60312638 0.29360778 -0.10057087
0.69666017 0.29621304 -0.1120099
0.79019396 0.29881831 -0.12344894
0.062885497 0.41696428 -0.047905017
0.15641928 0.41956954 -0.059344049
0.24995307 0.42217481 -0.070783082
0.34348686 0.42478007 -0.082222114
0.43702064 0.42738534 -0.093661146
0.53055443 0.42999061 -0.10510018
0.62408822 0.43259587 -0.11653921
0.717622 0.43520114 -0.12797824
0.81115579 0.4378064 -0.13941727
0.08384733 0.55595237 -0.063873356
0.17738112 0.55855764 -0.075312389
0.2709149 0.5611629 -0.086751421
0.36444869 0.56376817 -0.098190453
0.45798247 0.56637343 -0.10962949
0.55151626 0.5689787 -0.12106852
0.64505005 0.57158396 -0.13250755
0.73858383 0.57418923 -0.14394658
0.83211762 0.57679449 -0.15538561
0.10480916 0.69494046 -0.079841696
0.19834295 0.69754573 -0.091280728
0.29187673 0.700151 -0.10271976
0.38541052 0.70275626 -0.11415879
0.47894431 0.70536153 -0.12559782
0.57247809 0.70796679 -0.13703686
0.66601188 0.71057206 -0.14847589
0.75954567 0.71317732 -0.15991492
0.85307945 0.71578259 -0.17135395
0.12577099 0.83392856 -0.095810035
0.21930478 0.83653382 -0.10724907
0.31283857 0.83913909 -0.1186881
0.40637235 0.84174435 -0.13012713
0.49990614 0.84434962 -0.14156616
0.59343993 0.84695488 -0.1530052
0.68697371 0.84956015 -0.16444423
0.7805075 0.85216542 -0.17588326
0.87404128 0.85477068 -0.18732229
0.14673283 0.97291665 -0.11177837
0.24026661 0.97552192 -0.12321741
0.3338004 0.97812718 -0.13465644
0.42733419 0.98073245 -0.14609547
0.52086797 0.98333771 -0.1575345
0.61440176 0.98594298 -0.16897353
0.70793554 0.98854824 -0.18041257
0.80146933 0.99115351 -0.1918516
0.89500312 0.99375877 -0.20329063
0.16769466 1.1119047 -0.12774671
0.26122845 1.11451 -0.13918574
0.35476223 1.1171153 -0.15062478
0.44829602 1.1197205 -0.16206381
0.5418298 1.1223258 -0.17350284
0.63536359 1.1249311 -0.18494187
0.72889738 1.1275363 -0.19638091
0.82243116 1.1301416 -0.20781994
0.91596495 1.1327469 -0.21925897
0.010504381 -0.016593358 0.15240737
0.10403817 -0.013988093 0.14096834
0.19757195 -0.011382827 0.12952931
0.29110574 -0.008777562 0.11809027
0.38463953 -0.0061722965 0.10665124
0.47817331 -0.0035670311 0.09521221
0.5717071 -0.00096176567 0.083773178
0.66524089 0.0016434998 0.072334146
0.75877467 0.0042487652 0.060895114
0.031466214 0.12239473 0.13643903
0.125 0.125 0.125
0.21853379 0.12760527 0.11356097
0.31206757 0.13021053 0.10212194
0.40560136 0.1328158 0.090682903
0.49913515 0.13542106 0.079243871
0.59266893 0.13802633 0.067804839
0.68620272 0.14063159 0.056365807
0.7797365 0.14323686 0.044926775
0.052428046 0.26138283 0.12047069
0.14596183 0.26398809 0.10903166
0.23949562 0.26659336 0.097592629
0.33302941 0.26919862 0.086153597
0.42656319 0.27180389 0.074714564
0.52009698 0.27440915 0.063275532
0.61363076 0.27701442 0.0518365
0.70716455 0.27961969 0.040397468
0.80069834 0.28222495 0.028958436
0.073389879 0.40037092 0.10450235
0.16692366 0.40297619 0.093063322
0.26045745 0.40558145 0.08162429
0.35399124 0.40818672 0.070185257
0.44752502 0.41079198 0.058746225
0.54105881 0.41339725 0.047307193
0.6345926 0.41600251 0.035868161
0.72812638 0.41860778 0.024429129
0.82166017 0.42121304 0.012990097
0.094351711 0.53935901 0.088534015
0.1878855 0.54196428 0.077094983
0.28141928 0.54456954 0.065655951
0.37495307 0.54717481 0.054216918
0.46848686 0.54978007 0.042777886
0.56202064 0.55238534 0.031338854
0.65555443 0.55499061 0.019899822
0.74908822 0.55759587 0.0084607896
0.842622 0.56020114 -0.0029782425
0.11531354 0.67834711 0.072565676
0.20884733 0.68095237 0.061126644
0.30238112 0.68355764 0.049687611
0.3959149 0.6861629 0.038248579
0.48944869 0.68876817 0.026809547
0.58298247 0.69137343 0.015370515
0.67651626 0.6939787 0.0039314827
0.77005005 0.69658396 -0.0075075495
0.86358383 0.69918923 -0.018946582
0.13627538 0.8173352 0.056597337
0.22980916 0.81994046 0.045158304
0.32334295 0.82254573 0.033719272
0.41687673 0.825151 0.02228024
0.51041052 0.82775626 0.010841208
0.60394431 0.83036153 -0.00059782422
0.69747809 0.83296679 -0.012036856
0.79101188 0.83557206 -0.023475889
0.88454567 0.83817732 -0.034914921
0.15723721 0.95632329 0.040628998
0.25077099 0.95892856 0.029189965
0.34430478 0.96153382 0.017750933
0.43783857 0.96413909 0.006311901
0.53137235 0.96674435 -0.0051271311
0.62490614 0.96934962 -0.016566163
0.71843993 0.97195488 -0.028005195
0.81197371 0.97456015 -0.039444228
0.9055075 0.97716542 -0.05088326
0.17819904 1.0953114 0.024660658
0.27173283 1.0979166 0.013221626
0.36526661 1.1005219 0.0017825941
0.4588004 1.1031272 -0.0096564381
0.55233419 1.1057324 -0.02109547
0.64586797 1.1083377 -0.032534502
0.73940176 1.110943 -0.043973535
0.83293554 1.1135482 -0.055412567
0.92646933 1.1161535 -0.066851599
0.021008763 -0.033186717 0.30481474
0.11454255 -0.030581451 0.29337571
0.20807634 -0.027976186 0.28193668
0.30161012 -0.02537092 0.27049765
0.39514391 -0.022765655 0.25905861
0.48867769 -0.020160389 0.24761958
0.58221148 -0.017555124 0.23618055
0.67574527 -0.014949859 0.22474152
0.76927905 -0.012344593 0.21330249
0.041970595 0.10580138 0.2888464
0.13550438 0.10840664 0.27740737
0.22903817 0.11101191 0.26596834
0.32257195 0.11361717 0.25452931
0.41610574 0.11622244 0.24309027
0.50963953 0.1188277 0.23165124
0.60317331 0.12143297 0.22021221
0.6967071 0.12403823 0.20877318
0.79024089 0.1266435 0.19733415
0.062932427 0.24478947 0.27287806
0.15646621 0.24739473 0.26143903
0.25 0.25 0.25
0.34353379 0.25260527 0.23856097
0.43706757 0.25521053 0.22712194
0.53060136 0.2578158 0.2156829
0.62413515 0.26042106 0.20424387
0.71766893 0.26302633 0.19280484
0.81120272 0.26563159 0.18136581
0.08389426 0.38377756 0.25690973
0.17742805 0.38638283 0.24547069
0.27096183 0.38898809 0.23403166
0.36449562 0.39159336 0.22259263
0.45802941 0.39419862 0.2111536
0.55156319 0.39680389 0.19971456
0.64509698 0.39940915 0.18827553
0.73863076 0.40201442 0.1768365
0.83216455 0.40461969 0.16539747
0.10485609 0.52276565 0.24094139
0.19838988 0.52537092 0.22950235
0.29192366 0.52797619 0.21806332
0.38545745 0.53058145 0.20662429
0.47899124 0.53318672 0.19518526
0.57252502 0.53579198 0.18374623
0.66605881 0.53839725 0.17230719
0.7595926 0.54100251 0.16086816
0.85312638 0.54360778 0.14942913
0.12581792 0.66175375 0.22497305
0.21935171 0.66435901 0.21353401
0.3128855 0.66696428 0.20209498
0.40641928 0.66956954 0.19065595
0.49995307 0.67217481 0.17921692
0.59348686 0.67478007 0.16777789
0.68702064 0.67738534 0.15633885
0.78055443 0.67999061 0.14489982
0.87408822 0.68259587 0.13346079
0.14677976 0.80074184 0.20900471
0.24031354 0.80334711 0.19756568
0.33384733 0.80595237 0.18612664
0.42738112 0.80855764 0.17468761
0.5209149 0.8111629 0.16324858
0.61444869 0.81376817 0.15180955
0.70798247 0.81637343 0.14037051
0.80151626 0.8189787 0.12893148
0.89505005 0.82158396 0.11749245
0.16774159 0.93972993 0.19303637
0.26127538 0.9423352 0.18159734
0.35480916 0.94494046 0.1701583
0.44834295 0.94754573 0.15871927
0.54187673 0.950151 0.14728024
0.63541052 0.95275626 0.13584121
0.72894431 0.95536153 0.12440218
0.82247809 0.95796679 0.11296314
0.91601188 0.96057206 0.10152411
0.18870342 1.078718 0.17706803
0.28223721 1.0813233 0.165629
0.37577099 1.0839286 0.15418997
0.46930478 1.0865338 0.14275093
0.56283857 1.0891391 0.1313119
0.65637235 1.0917444 0.11987287
0.74990614 1.0943496 0.10843384
0.84343993 1.0969549 0.096994805
0.93697371 1.0995601 0.085555772
0.031513144 -0.049780075 0.45722211
0.12504693 -0.047174809 0.44578308
0.21858072 -0.044569544 0.43434405
0.3121145 -0.041964279 0.42290502
0.40564829 -0.039359013 0.41146599
0.49918208 -0.036753748 0.40002695
0.59271586 -0.034148482 0.38858792
0.68624965 -0.031543217 0.37714889
0.77978343 -0.028937951 0.36570986
0.052474976 0.089208018 0.44125377
0.14600876 0.091813283 0.42981474
0.23954255 0.094418549 0.41837571
0.33307634 0.097023814 0.40693668
0.42661012 0.09962908 0.39549765
0.52014391 0.10223435 0.38405861
0.61367769 0.10483961 0.37261958
0.70721148 0.10744488 0.36118055
0.80074527 0.11005014 0.34974152
0.073436809 0.22819611 0.42528544
0.16697059 0.23080138 0.4138464
0.26050438 0.23340664 0.40240737
0.35403817 0.23601191 0.39096834
0.44757195 0.23861717 0.37952931
0.54110574 0.24122244 0.36809027
0.63463953 0.2438277 0.35665124
0.72817331 0.24643297 0.34521221
0.8217071 0.24903823 0.33377318
0.094398641 0.3671842 0.4093171
0.18793243 0.36978947 0.39787806
0.28146621 0.37239473 0.38643903
0.375 0.375 0.375
0.46853379 0.37760527 0.36356097
0.56206757 0.38021053 0.35212194
0.65560136 0.3828158 0.3406829
0.74913515 0.38542106 0.32924387
0.84266893 0.38802633 0.31780484
0.11536047 0.5061723 0.39334876
0.20889426 0.50877756 0.38190973
0.30242805 0.51138283 0.37047069
0.39596183 0.51398809 0.35903166
0.48949562 0.51659336 0.34759263
0.58302941 0.51919862 0.3361536
0.67656319 0.52180389 0.32471456
0.77009698 0.52440915 0.31327553
0.86363076 0.52701442 0.3018365
0.13632231 0.64516039 0.37738042
0.22985609 0.64776565 0.36594139
0.32338988 0.65037092 0.35450235
0.41692366 0.65297619 0.34306332
0.51045745 0.65558145 0.33162429
0.60399124 0.65818672 0.32018526
0.69752502 0.66079198 0.30874623
0.79105881 0.66339725 0.29730719
0.8845926 0.66600251 0.28586816
0.15728414 0.78414848 0.36141208
0.25081792 0.78675375 0.34997305
0.34435171 0.78935901 0.33853401
0.4378855 0.79196428 0.32709498
0.53141928 0.79456954 0.31565595
0.62495307 0.79717481 0.30421692
0.71848686 0.79978007 0.29277789
0.81202064 0.80238534 0.28133885
0.90555443 0.80499061 0.26989982
0.17824597 0.92313658 0.34544374
0.27177976 0.92574184 0.33400471
0.36531354 0.92834711 0.32256568
0.45884733 0.93095237 0.31112664
0.55238112 0.93355764 0.29968761
0.6459149 0.9361629 0.28824858
0.73944869 0.93876817 0.27680955
0.83298247 0.94137343 0.26537051
0.92651626 0.9439787 0.25393148
0.1992078 1.0621247 0.3294754
0.29274159 1.0647299 0.31803637
0.38627538 1.0673352 0.30659734
0.47980916 1.0699405 0.2951583
0.57334295 1.0725457 0.28371927
0.66687673 1.075151 0.27228024
0.76041052 1.0777563 0.26084121
0.85394431 1.0803615 0.24940218
0.94747809 1.0829668 0.23796314
0.042017525 -0.066373433 0.60962949
0.13555131 -0.063768168 0.59819045
0.2290851 -0.061162902 0.58675142
0.32261888 -0.058557637 0.57531239
0.41615267 -0.055952371 0.56387336
0.50968646 -0.053347106 0.55243432
0.60322024 -0.05074184 0.54099529
0.69675403 -0.048136575 0.52955626
0.79028782 -0.04553131 0.51811723
0.062979358 0.07261466 0.59366115
0.15651314 0.075219925 0.58222211
0.25004693 0.077825191 0.57078308
0.34358072 0.080430456 0.55934405
0.4371145 0.083035721 0.54790502
0.53064829 0.085640987 0.53646599
0.62418208 0.088246252 0.52502695
0.71771586 0.090851518 0.51358792
0.81124965 0.093456783 0.50214889
0.08394119 0.21160275 0.57769281
0.17747498 0.21420802 0.56625377
0.27100876 0.21681328 0.55481474
0.36454255 0.21941855 0.54337571
0.45807634 0.22202381 0.53193668
0.55161012 0.22462908 0.52049765
0.64514391 0.22723435 0.50905861
0.73867769 0.22983961 0.49761958
0.83221148 0.23244488 0.48618055
0.10490302 0.35059085 0.56172447
0.19843681 0.35319611 0.55028544
0.29197059 0.35580138 0.5388464
0.38550438 0.35840664 0.52740737
0.47903817 0.36101191 0.51596834
0.57257195 0.36361717 0.50452931
0.66610574 0.36622244 0.49309027
0.75963953 0.3688277 0.48165124
0.85317331 0.37143297 0.47021221
0.12586485 0.48957894 0.54575613
0.21939864 0.4921842 0.5343171
0.31293243 0.49478947 0.52287806
0.40646621 0.49739473 0.51143903
0.5 0.5 0.5
0.59353379 0.50260527 0.48856097
0.68706757 0.50521053 0.47712194
0.78060136 0.5078158 0.4656829
0.87413515 0.51042106 0.45424387
0.14682669 0.62856703 0.52978779
0.24036047 0.6311723 0.51834876
0.33389426 0.63377756 0.50690973
0.42742805 0.63638283 0.49547069
0.52096183 0.63898809 0.48403166
0.61449562 0.64159336 0.47259263
0.70802941 0.64419862 0.4611536
0.80156319 0.64680389 0.44971456
0.89509698 0.64940915 0.43827553
0.16778852 0.76755512 0.51381945
0.26132231 0.77016039 0.50238042
0.35485609 0.77276565 0.49094139
0.44838988 0.77537092 0.47950235
0.54192366 0.77797619 0.46806332
0.63545745 0.78058145 0.45662429
0.72899124 0.78318672 0.44518526
0.82252502 0.78579198 0.43374623
0.91605881 0.78839725 0.42230719
0.18875035 0.90654322 0.49785111
0.28228414 0.90914848 0.48641208
0.37581792 0.91175375 0.47497305
0.46935171 0.91435901 0.46353401
0.5628855 0.91696428 0.45209498
0.65641928 0.91956954 0.44065595
0.74995307 0.92217481 0.42921692
0.84348686 0.92478007 0.41777789
0.93702064 0.92738534 0.40633885
0.20971218 1.0455313 0.48188277
0.30324597 1.0481366 0.47044374
0.39677976 1.0507418 0.45900471
0.49031354 1.0533471 0.44756568
0.58384733 1.0559524 0.43612664
0.67738112 1.0585576 0.42468761
0.7709149 1.0611629 0.41324858
0.86444869 1.0637682 0.40180955
0.95798247 1.0663734 0.39037051
0.052521906 -0.082966791 0.76203686
0.14605569 -0.080361526 0.75059782
0.23958948 -0.07775626 0.73915879
0.33312327 -0.075150995 0.72771976
0.42665705 -0.07254573 0.71628073
0.52019084 -0.069940464 0.7048417
0.61372462 -0.067335199 0.69340266
0.70725841 -0.064729933 0.68196363
0.8007922 -0.062124668 0.6705246
0.073483739 0.056021301 0.74606852
0.16701753 0.058626567 0.73462949
0.26055131 0.061231832 0.72319045
0.3540851 0.063837098 0.71175142
0.44761888 0.066442363 0.70031239
0.54115267 0.069047629 0.68887336
0.63468646 0.071652894 0.67743432
0.72822024 0.07425816 0.66599529
0.82175403 0.076863425 0.65455626
0.094445571 0.19500939 0.73010018
0.18797936 0.19761466 0.71866115
0.28151314 0.20021993 0.70722211
0.37504693 0.20282519 0.69578308
0.46858072 0.20543046 0.68434405
0.5621145 0.20803572 0.67290502
0.65564829 0.21064099 0.66146599
0.74918208 0.21324625 0.65002695
0.84271586 0.21585152 0.63858792
0.1154074 0.33399749 0.71413184
0.20894119 0.33660275 0.70269281
0.30247498 0.33920802 0.69125377
0.39600876 0.34181328 0.67981474
0.48954255 0.34441855 0.66837571
0.58307634 0.34702381 0.65693668
0.67661012 0.34962908 0.64549765
0.77014391 0.35223435 0.63405861
0.86367769 0.35483961 0.62261958
0.13636924 0.47298558 0.6981635
0.22990302 0.47559085 0.68672447
0.32343681 0.47819611 0.67528544
0.41697059 0.48080138 0.6638464
0.51050438 0.48340664 0.65240737
0.60403817 0.48601191 0.64096834
0.69757195 0.48861717 0.62952931
0.79110574 0.49122244 0.61809027
0.88463953 0.4938277 0.60665124
0.15733107 0.61197367 0.68219516
0.25086485 0.61457894 0.67075613
0.34439864 0.6171842 0.6593171
0.43793243 0.61978947 0.64787806
0.53146621 0.62239473 0.63643903
0.625 0.625 0.625
0.71853379 0.62760527 0.61356097
0.81206757 0.63021053 0.60212194
0.90560136 0.6328158 0.5906829
0.1782929 0.75096177 0.66622682
0.27182669 0.75356703 0.65478779
0.36536047 0.7561723 0.64334876
0.45889426 0.75877756 0.63190973
0.55242805 0.76138283 0.62047069
0.64596183 0.76398809 0.60903166
0.73949562 0.76659336 0.59759263
0.83302941 0.76919862 0.5861536
0.92656319 0.77180389 0.57471456
0.19925473 0.88994986 0.65025848
0.29278852 0.89255512 0.63881945
0.38632231 0.89516039 0.62738042
0.47985609 0.89776565 0.61594139
0.57338988 0.90037092 0.60450235
0.66692366 0.90297619 0.59306332
0.76045745 0.90558145 0.58162429
0.85399124 0.90818672 0.57018526
0.94752502 0.91079198 0.55874623
0.22021657 1.028938 0.63429014
0.31375035 1.0315432 0.62285111
0.40728414 1.0341485 0.61141208
0.50081792 1.0367537 0.59997305
0.59435171 1.039359 0.58853401
0.6878855 1.0419643 0.57709498
0.78141928 1.0445695 0.56565595
0.87495307 1.0471748 0.55421692
0.96848686 1.0497801 0.54277789
0.063026288 -0.09956015 0.91444423
0.15656007 -0.096954884 0.9030052
0.25009386 -0.094349619 0.89156616
0.34362765 -0.091744353 0.88012713
0.43716143 -0.089139088 0.8686881
0.53069522 -0.086533822 0.85724907
0.62422901 -0.083928557 0.84581003
0.71776279 -0.081323292 0.834371
0.81129658 -0.078718026 0.82293197
0.08398812 0.039427943 0.89847589
0.17752191 0.042033209 0.88703686
0.27105569 0.044638474 0.87559782
0.36458948 0.04724374 0.86415879
0.45812327 0.049849005 0.85271976
0.55165705 0.05245427 0.84128073
0.64519084 0.055059536 0.8298417
0.73872462 0.057664801 0.81840266
0.83225841 0.060270067 0.80696363
0.10494995 0.17841604 0.88250755
0.19848374 0.1810213 0.87106852
0.29201753 0.18362657 0.85962949
0.38555131 0.18623183 0.84819045
0.4790851 0.1888371 0.83675142
0.57261888 0.19144236 0.82531239
0.66615267 0.19404763 0.81387336
0.75968646 0.19665289 0.80243432
0.85322024 0.19925816 0.79099529
0.12591178 0.31740413 0.86653921
0.21944557 0.32000939 0.85510018
0.31297936 0.32261466 0.84366115
0.40651314 0.32521993 0.83222211
0.50004693 0.32782519 0.82078308
0.59358072 0.33043046 0.80934405
0.6871145 0.33303572 0.79790502
0.78064829 0.33564099 0.78646599
0.87418208 0.33824625 0.77502695
0.14687362 0.45639222 0.85057087
0.2404074 0.45899749 0.83913184
0.33394119 0.46160275 0.82769281
0.42747498 0.46420802 0.81625377
0.52100876 0.46681328 0.80481474
0.61454255 0.46941855 0.79337571
0.70807634 0.47202381 0.78193668
0.80161012 0.47462908 0.77049765
0.89514391 0.47723435 0.75905861
0.16783545 0.59538031 0.83460253
0.26136924 0.59798558 0.8231635
0.35490302 0.60059085 0.81172447
0.44843681 0.60319611 0.80028544
0.54197059 0.60580138 0.7888464
0.63550438 0.60840664 0.77740737
0.72903817 0.61101191 0.76596834
0.82257195 0.61361717 0.75452931
0.91610574 0.61622244 0.74309027
0.18879728 0.73436841 0.81863419
0.28233107 0.73697367 0.80719516
0.37586485 0.73957894 0.79575613
0.46939864 0.7421842 0.7843171
0.56293243 0.74478947 0.77287806
0.65646621 0.74739473 0.76143903
0.75 0.75 0.75
0.84353379 0.75260527 0.73856097
0.93706757 0.75521053 0.72712194
0.20975911 0.8733565 0.80266585
0.3032929 0.87596177 0.79122682
0.39682669 0.87856703 0.77978779
0.49036047 0.8811723 0.76834876
0.58389426 0.88377756 0.75690973
0.67742805 0.88638283 0.74547069
0.77096183 0.88898809 0.73403166
0.86449562 0.89159336 0.72259263
0.95802941 0.89419862 0.7111536
0.23072095 1.0123446 0.78669751
0.32425473 1.0149499 0.77525848
0.41778852 1.0175551 0.76381945
0.51132231 1.0201604 0.75238042
0.60485609 1.0227657 0.74094139
0.69838988 1.0253709 0.72950235
0.79192366 1.0279762 0.71806332
0.88545745 1.0305815 0.70662429
0.97899124 1.0331867 0.69518526
0.073530669 -0.11615351 1.0668516
0.16706446 -0.11354824 1.0554126
0.26059824 -0.11094298 1.0439735
0.35413203 -0.10833771 1.0325345
0.44766581 -0.10573245 1.0210955
0.5411996 -0.10312718 1.0096564
0.63473339 -0.10052192 0.99821741
0.72826717 -0.09791665 0.98677837
0.82180096 -0.095311384 0.97533934
0.094492501 0.022834585 1.0508833
0.18802629 0.02543985 1.0394442
0.28156007 0.028045116 1.0280052
0.37509386 0.030650381 1.0165662
0.46862765 0.033255647 1.0051271
0.56216143 0.035860912 0.9936881
0.65569522 0.038466178 0.98224907
0.74922901 0.041071443 0.97081003
0.84276279 0.043676708 0.959371
0.11545433 0.16182268 1.0349149
0.20898812 0.16442794 1.0234759
0.30252191 0.16703321 1.0120369
0.39605569 0.16963847 1.0005978
0.48958948 0.17224374 0.98915879
0.58312327 0.174849 0.97771976
0.67665705 0.17745427 0.96628073
0.77019084 0.18005954 0.9548417
0.86372462 0.1826648 0.94340266
0.13641617 0.30081077 1.0189466
0.22994995 0.30341604 1.0075075
0.32348374 0.3060213 0.99606852
0.41701753 0.30862657 0.98462949
0.51055131 0.31123183 0.97319045
0.6040851 0.3138371 0.96175142
0.69761888 0.31644236 0.95031239
0.79115267 0.31904763 0.93887336
0.88468646 0.32165289 0.92743432
0.157378 0.43979886 1.0029782
0.25091178 0.44240413 0.99153921
0.34444557 0.44500939 0.98010018
0.43797936 0.44761466 0.96866115
0.53151314 0.45021993 0.95722211
0.62504693 0.45282519 0.94578308
0.71858072 0.45543046 0.93434405
0.8121145 0.45803572 0.92290502
0.90564829 0.46064099 0.91146599
0.17833983 0.57878696 0.9870099
0.27187362 0.58139222 0.97557087
0.3654074 0.58399749 0.96413184
0.45894119 0.58660275 0.95269281
0.55247498 0.58920802 0.94125377
0.64600876 0.59181328 0.92981474
0.73954255 0.59441855 0.91837571
0.83307634 0.59702381 0.90693668
0.92661012 0.59962908 0.89549765
0.19930166 0.71777505 0.97104156
0.29283545 0.72038031 0.95960253
0.38636924 0.72298558 0.9481635
0.47990302 0.72559085 0.93672447
0.57343681 0.72819611 0.92528544
0.66697059 0.73080138 0.9138464
0.76050438 0.73340664 0.90240737
0.85403817 0.73601191 0.89096834
0.94757195 0.73861717 0.87952931
0.2202635 0.85676314 0.95507323
0.31379728 0.85936841 0.94363419
0.40733107 0.86197367 0.93219516
0.50086485 0.86457894 0.92075613
0.59439864 0.8671842 0.9093171
0.68793243 0.86978947 0.89787806
0.78146621 0.87239473 0.88643903
0.875 0.875 0.875
0.96853379 0.87760527 0.86356097
0.24122533 0.99575123 0.93910489
0.33475911 0.9983565 0.92766585
0.4282929 1.0009618 0.91622682
0.52182669 1.003567 0.90478779
0.61536047 1.0061723 0.89334876
0.70889426 1.0087776 0.88190973
0.80242805 1.0113828 0.87047069
0.89596183 1.0139881 0.85903166
0.98949562 1.0165934 0.84759263
0.08403505 -0.13274687 1.219259
0.17756884 -0.1301416 1.2078199
0.27110262 -0.12753634 1.1963809
0.36463641 -0.12493107 1.1849419
0.4581702 -0.1223258 1.1735028
0.55170398 -0.11972054 1.1620638
0.64523777 -0.11711527 1.1506248
0.73877155 -0.11451001 1.1391857
0.83230534 -0.11190474 1.1277467
0.10499688 0.0062412267 1.2032906
0.19853067 0.0088464921 1.1918516
0.29206446 0.011451758 1.1804126
0.38559824 0.014057023 1.1689735
0.47913203 0.016662288 1.1575345
0.57266581 0.019267554 1.1460955
0.6661996 0.021872819 1.1346564
0.75973339 0.024478085 1.1232174
0.85326717 0.02708335 1.1117784
0.12595872 0.14522932 1.1873223
0.2194925 0.14783458 1.1758833
0.31302629 0.15043985 1.1644442
0.40656007 0.15304512 1.1530052
0.50009386 0.15565038 1.1415662
0.59362765 0.15825565 1.1301271
0.68716143 0.16086091 1.1186881
0.78069522 0.16346618 1.1072491
0.87422901 0.16607144 1.09581
0.14692055 0.28421741 1.171354
0.24045433 0.28682268 1.1599149
0.33398812 0.28942794 1.1484759
0.42752191 0.29203321 1.1370369
0.52105569 0.29463847 1.1255978
0.61458948 0.29724374 1.1141588
0.70812327 0.299849 1.1027198
0.80165705 0.30245427 1.0912807
0.89519084 0.30505954 1.0798417
0.16788238 0.42320551 1.1553856
0.26141617 0.42581077 1.1439466
0.35494995 0.42841604 1.1325075
0.44848374 0.4310213 1.1210685
0.54201753 0.43362657 1.1096295
0.63555131 0.43623183 1.0981905
0.7290851 0.4388371 1.0867514
0.82261888 0.44144236 1.0753124
0.91615267 0.44404763 1.0638734
0.18884421 0.5621936 1.1394173
0.282378 0.56479886 1.1279782
0.37591178 0.56740413 1.1165392
0.46944557 0.57000939 1.1051002
0.56297936 0.57261466 1.0936611
0.65651314 0.57521993 1.0822221
0.75004693 0.57782519 1.0707831
0.84358072 0.58043046 1.059344
0.9371145 0.58303572 1.047905
0.20980604 0.70118169 1.1234489
0.30333983 0.70378696 1.1120099
0.39687362 0.70639222 1.1005709
0.4904074 0.70899749 1.0891318
0.58394119 0.71160275 1.0776928
0.67747498 0.71420802 1.0662538
0.77100876 0.71681328 1.0548147
0.86454255 0.71941855 1.0433757
0.95807634 0.72202381 1.0319367
0.23076788 0.84016978 1.1074806
0.32430166 0.84277505 1.0960416
0.41783545 0.84538031 1.0846025
0.51136924 0.84798558 1.0731635
0.60490302 0.85059085 1.0617245
0.69843681 0.85319611 1.0502854
0.79197059 0.85580138 1.0388464
0.88550438 0.85840664 1.0274074
0.97903817 0.86101191 1.0159683
0.25172971 0.97915788 1.0915123
0.3452635 0.98176314 1.0800732
0.43879728 0.98436841 1.0686342
0.53233107 0.98697367 1.0571952
0.62586485 0.98957894 1.0457561
0.71939864 0.9921842 1.0343171
0.81293243 0.99478947 1.0228781
0.90646621 0.99739473 1.011439
1 1 1
