site/assets/luts/ocio-aces--canoninputcanonlog3-cinemagamut-d55-to-aces2065-1--8b48de9f1.cube
# LUTr-Project: LUTr — LUTrepository
# LUTr-Schema-Version: 1
# LUTr-ID: ocio-aces--canoninputcanonlog3-cinemagamut-d55-to-aces2065-1--8b48de9f1
# LUTr-Title: Canon.Input.CanonLog3 CinemaGamut-D55 to ACES2065-1
# LUTr-Collection: OCIO ACES
# LUTr-Collection-ID: aswf-opencolorio-config-aces
# LUTr-Source: https://github.com/AcademySoftwareFoundation/OpenColorIO-Config-ACES
# LUTr-Source-File: submissions/aswf-opencolorio-config-aces/opencolorio_config_aces/clf/transforms/canon/input/Canon.Input.CanonLog3_CinemaGamut-D55_to_ACES2065-1.clf
# LUTr-Source-Format: CLF
# LUTr-Source-SHA256: a054fe5c7cc83361477bb05b631e20f4ebfb685f77899fd9017cf0e66edabbe7
# LUTr-License: BSD-3-Clause
# LUTr-License-URL: https://github.com/AcademySoftwareFoundation/OpenColorIO-Config-ACES/blob/main/LICENSE
# LUTr-Tags: technical, aces, ocio, clf, color-management, cube
# LUTr-Transform-Class: color-space-conversion
# LUTr-Input-Color-Space: Canon Log 3 Cinema Gamut (Daylight)
# LUTr-Output-Color-Space: ACES2065-1
# LUTr-Color-Space-Confidence: descriptor-only
# LUTr-Conversion-Method: CLF operations evaluated as float and sampled to 33x33x33 3D CUBE
# LUTr-Conversion-Date: 2026-07-27
# LUTr-Conversion-Tool: LUTr scripts/convert-all-to-cube.mjs
# LUTr-Conversion-Grid: 33x33x33
# LUTr-Conversion-Warning: A sampled 3D CUBE is bounded to DOMAIN_MIN/MAX 0..1 and cannot preserve CLF values outside its input domain.
# LUTr-Upstream-ID: urn:aswf:ocio:transformId:1.0:Canon:Input:CanonLog3_CinemaGamut-D55_to_ACES2065-1:1.0
# LUTr-Upstream-Name: Canon Log 3 Cinema Gamut (Daylight) to ACES2065-1
# LUTr-Upstream-Input-Descriptor: Canon Log 3 Cinema Gamut (Daylight)
# LUTr-Upstream-Output-Descriptor: ACES2065-1
# LUTr-Upstream-Builtin-Transform: CANON_CLOG3-CGAMUT_to_ACES2065-1
# LUTr-Upstream-Operations: LUT1D → Matrix
# LUTr-Note: Preserve this metadata and the upstream license notices when redistributing.
TITLE "Canon.Input.CanonLog3 CinemaGamut-D55 to ACES2065-1"
LUT_3D_SIZE 5
DOMAIN_MIN 0 0 0
DOMAIN_MAX 1 1 1
-0.073813342 -0.073813342 -0.073813342
0.038678951 -0.073274153 -0.075200255
0.42568175 -0.071419204 -0.079971599
2.2809855 -0.062526517 -0.10284557
11.175371 -0.019894693 -0.21250413
-0.051844382 0.089376688 -0.10600779
0.060647911 0.089915877 -0.1073947
0.44765071 0.091770826 -0.11216605
2.3029544 0.10066351 -0.13504002
11.19734 0.14329534 -0.24469857
0.023734562 0.65079291 -0.21676508
0.13622686 0.6513321 -0.21815199
0.52322965 0.65318705 -0.22292334
2.3785334 0.66207974 -0.24579731
11.272919 0.70471156 -0.35545586
0.38606243 3.3422401 -0.74773904
0.49855472 3.3427793 -0.74912596
0.88555752 3.3446343 -0.7538973
2.7408612 3.353527 -0.77677127
11.635247 3.3961588 -0.88642983
2.1230738 16.245124 -3.2932452
2.2355661 16.245663 -3.2946321
2.6225689 16.247518 -3.2994035
4.4778726 16.256411 -3.3222774
13.372258 16.299043 -3.431936
-0.06085285 -0.090120817 0.10718976
0.051639443 -0.089581628 0.10580285
0.43864224 -0.087726678 0.10103151
2.293946 -0.078833992 0.078157534
11.188331 -0.036202168 -0.031501021
-0.038883891 0.073069214 0.074995316
0.073608402 0.073608403 0.073608403
0.4606112 0.075463352 0.068837059
2.3159149 0.084356039 0.045963087
11.2103 0.12698786 -0.063695469
0.036695054 0.63448544 -0.035761973
0.14918735 0.63502463 -0.037148886
0.53619015 0.63687958 -0.04192023
2.3914939 0.64577226 -0.064794202
11.285879 0.68840409 -0.17445276
0.39902292 3.3259327 -0.56673594
0.51151521 3.3264719 -0.56812285
0.89851801 3.3283268 -0.57289419
2.7538217 3.3372195 -0.59576817
11.648207 3.3798513 -0.70542672
2.1360343 16.228817 -3.1122421
2.2485266 16.229356 -3.113629
2.6355294 16.231211 -3.1184004
4.4908331 16.240104 -3.1412743
13.385219 16.282735 -3.2509329
-0.016265381 -0.14622278 0.72988761
0.096226912 -0.14568359 0.7285007
0.48322971 -0.14382864 0.72372935
2.3385334 -0.13493595 0.70085538
11.232919 -0.092304129 0.59119682
0.0057035784 0.016967253 0.69769316
0.11819587 0.017506441 0.69630625
0.50519867 0.019361391 0.6915349
2.3605024 0.028254077 0.66866093
11.254888 0.070885901 0.55900238
0.081282523 0.57838348 0.58693587
0.19377482 0.57892267 0.58554896
0.58077761 0.58077762 0.58077762
2.4360813 0.5896703 0.55790364
11.330467 0.63230213 0.44824509
0.44361039 3.2698307 0.055961907
0.55610268 3.2703699 0.054574993
0.94310548 3.2722249 0.04980365
2.7984092 3.2811175 0.026929677
11.692795 3.3237494 -0.082728878
2.1806218 16.172715 -2.4895443
2.2931141 16.173254 -2.4909312
2.6801169 16.175109 -2.4957025
4.5354206 16.184002 -2.5185765
13.429806 16.226633 -2.628235
0.19748836 -0.41517736 3.7151209
0.30998066 -0.41463818 3.713734
0.69698345 -0.41278323 3.7089626
2.5522872 -0.40389054 3.6860887
11.446673 -0.36125872 3.5764301
0.21945732 -0.25198733 3.6829264
0.33194962 -0.25144815 3.6815395
0.71895241 -0.2495932 3.6767682
2.5742561 -0.24070051 3.6538942
11.468642 -0.19806869 3.5442356
0.29503627 0.30942889 3.5721691
0.40752856 0.30996808 3.5707822
0.79453136 0.31182303 3.5660109
2.6498351 0.32071571 3.5431369
11.54422 0.36334754 3.4334784
0.65736413 3.0008761 3.0411952
0.76985643 3.0014153 3.0398083
1.1568592 3.0032703 3.0350369
3.0121629 3.012163 3.012163
11.906548 3.0547948 2.9025044
2.3943755 15.90376 0.49568901
2.5068678 15.904299 0.4943021
2.8938706 15.906154 0.48953075
4.7491743 15.915047 0.46665678
13.64356 15.957679 0.35699823
1.2222306 -1.7045543 18.026425
1.3347229 -1.7040151 18.025038
1.7217257 -1.7021601 18.020266
3.5770295 -1.6932674 17.997392
12.471415 -1.6506356 17.887734
1.2441996 -1.5413642 17.99423
1.3566919 -1.540825 17.992843
1.7436947 -1.5389701 17.988072
3.5989984 -1.5300774 17.965198
12.493384 -1.4874456 17.855539
1.3197786 -0.979948 17.883473
1.4322708 -0.97940881 17.882086
1.8192736 -0.97755386 17.877315
3.6745774 -0.96866118 17.854441
12.568963 -0.92602935 17.744782
1.6821064 1.7114992 17.352499
1.7945987 1.7120384 17.351112
2.1816015 1.7138934 17.346341
4.0369052 1.7227861 17.323467
12.931291 1.7654179 17.213808
3.4191178 14.614383 14.806993
3.5316101 14.614923 14.805606
3.9186129 14.616777 14.800835
5.7739166 14.62567 14.777961
14.668302 14.668302 14.668302
