site/assets/luts/ocio-aces--appleinputapple-log-to-aces2065-1--c8358ecd0.cube
# LUTr-Project: LUTr — LUTrepository
# LUTr-Schema-Version: 1
# LUTr-ID: ocio-aces--appleinputapple-log-to-aces2065-1--c8358ecd0
# LUTr-Title: Apple.Input.Apple Log to ACES2065-1
# LUTr-Collection: OCIO ACES
# LUTr-Collection-ID: aswf-opencolorio-config-aces
# LUTr-Source: https://github.com/AcademySoftwareFoundation/OpenColorIO-Config-ACES
# LUTr-Source-File: submissions/aswf-opencolorio-config-aces/opencolorio_config_aces/clf/transforms/apple/input/Apple.Input.Apple_Log_to_ACES2065-1.clf
# LUTr-Source-Format: CLF
# LUTr-Source-SHA256: 060f87488cd58a35b23f4f2b3355425109eeaa5f78cabc86819d2b7bcf107182
# LUTr-License: BSD-3-Clause
# LUTr-License-URL: https://github.com/AcademySoftwareFoundation/OpenColorIO-Config-ACES/blob/main/LICENSE
# LUTr-Tags: technical, aces, ocio, clf, color-management, cube
# LUTr-Transform-Class: color-space-conversion
# LUTr-Input-Color-Space: Apple Log
# LUTr-Output-Color-Space: ACES2065-1
# LUTr-Color-Space-Confidence: descriptor-only
# LUTr-Conversion-Method: CLF operations evaluated as float and sampled to 33x33x33 3D CUBE
# LUTr-Conversion-Date: 2026-07-27
# LUTr-Conversion-Tool: LUTr scripts/convert-all-to-cube.mjs
# LUTr-Conversion-Grid: 33x33x33
# LUTr-Conversion-Warning: A sampled 3D CUBE is bounded to DOMAIN_MIN/MAX 0..1 and cannot preserve CLF values outside its input domain.
# LUTr-Upstream-ID: urn:aswf:ocio:transformId:1.0:Apple:Input:Apple_Log_to_ACES2065-1:1.0
# LUTr-Upstream-Name: Apple Log to ACES2065-1
# LUTr-Upstream-Input-Descriptor: Apple Log
# LUTr-Upstream-Output-Descriptor: ACES2065-1
# LUTr-Upstream-Builtin-Transform: APPLE_LOG_to_ACES2065-1
# LUTr-Upstream-Operations: LUT1D → Matrix
# LUTr-Note: Preserve this metadata and the upstream license notices when redistributing.
TITLE "Apple.Input.Apple Log to ACES2065-1"
LUT_3D_SIZE 9
DOMAIN_MIN 0 0 0
DOMAIN_MAX 1 1 1
-0.056410879 -0.056410879 -0.056410879
-0.021496193 -0.05404572 -0.056440388
-0.005986495 -0.052995076 -0.056453496
0.026762405 -0.05077663 -0.056481175
0.1169765 -0.044665428 -0.056557421
0.36549119 -0.027830772 -0.056767458
1.0500799 0.018544016 -0.057346052
2.9359313 0.14629365 -0.058939919
8.1309259 0.49820826 -0.063330575
-0.048302803 -0.012243218 -0.05494723
-0.013388117 -0.0098780587 -0.054976739
0.002121581 -0.0088274148 -0.054989847
0.034870481 -0.0066089685 -0.055017525
0.12508458 -0.00049776685 -0.055093772
0.37359927 0.01633689 -0.055303809
1.058188 0.062711677 -0.055882403
2.9440394 0.19046131 -0.057476269
8.139034 0.54237592 -0.061866926
-0.044701058 0.0073768092 -0.054297052
-0.0097863714 0.0097419682 -0.054326561
0.0057233264 0.010792612 -0.054339669
0.038472226 0.013011058 -0.054367347
0.12868633 0.01912226 -0.054443594
0.37720101 0.035956917 -0.054653631
1.0617897 0.082331704 -0.055232225
2.9476412 0.21008134 -0.056826091
8.1426357 0.56199595 -0.061216748
-0.037095932 0.048804715 -0.052924194
-0.0021812459 0.051169874 -0.052953703
0.013328452 0.052220518 -0.052966811
0.046077352 0.054438964 -0.052994489
0.13629145 0.060550166 -0.053070736
0.38480614 0.077384822 -0.053280773
1.0693948 0.12375961 -0.053859367
2.9552463 0.25150925 -0.055453233
8.1502409 0.60342386 -0.05984389
-0.016145929 0.16292706 -0.049142353
0.018768757 0.16529222 -0.049171861
0.034278455 0.16634286 -0.04918497
0.067027355 0.16856131 -0.049212648
0.15724145 0.17467251 -0.049288895
0.40575614 0.19150716 -0.049498932
1.0903448 0.23788195 -0.050077526
2.9761963 0.36563159 -0.051671392
8.1711909 0.7175462 -0.056062049
0.041565487 0.47730229 -0.038724434
0.076480173 0.47966745 -0.038753943
0.091989871 0.48071809 -0.038767052
0.12473877 0.48293654 -0.03879473
0.21495287 0.48904774 -0.038870976
0.46346756 0.5058824 -0.039081014
1.1480563 0.55225718 -0.039659608
3.0339077 0.68000682 -0.041253474
8.2289023 1.0319214 -0.04564413
0.20054435 1.3433184 -0.010025973
0.23545904 1.3456836 -0.010055482
0.25096874 1.3467342 -0.01006859
0.28371764 1.3489527 -0.010096269
0.37393174 1.3550639 -0.010172515
0.62244643 1.3718985 -0.010382552
1.3070351 1.4182733 -0.010961147
3.1928866 1.546023 -0.012555013
8.3878811 1.8979376 -0.016945669
0.63848691 3.728952 0.069030304
0.67340159 3.7313172 0.069000795
0.68891129 3.7323678 0.068987686
0.72166019 3.7345863 0.068960008
0.81187429 3.7406975 0.068883762
1.060389 3.7575321 0.068673724
1.7449777 3.8039069 0.06809513
3.6308291 3.9316565 0.066501264
8.8258237 4.2835712 0.062110608
1.8448965 10.300707 0.28680829
1.8798111 10.303072 0.28677878
1.8953208 10.304123 0.28676567
1.9280697 10.306341 0.286738
2.0182838 10.312452 0.28666175
2.2667985 10.329287 0.28645171
2.9513872 10.375662 0.28587312
4.8372387 10.503411 0.28427925
10.032233 10.855326 0.27988859
-0.04801938 -0.051529438 -0.0064307582
-0.013104694 -0.049164279 -0.0064602671
0.002405004 -0.048113635 -0.0064733754
0.035153904 -0.045895189 -0.0065010538
0.125368 -0.039783987 -0.0065773001
0.37388269 -0.022949331 -0.0067873374
1.0584714 0.023425456 -0.0073659316
2.9443228 0.15117509 -0.0089597978
8.1393174 0.5030897 -0.013350454
-0.039911304 -0.0073617768 -0.0049671089
-0.0049966178 -0.0049966178 -0.0049966178
0.01051308 -0.0039459739 -0.0050097261
0.04326198 -0.0017275276 -0.0050374045
0.13347608 0.004383674 -0.0051136508
0.38199077 0.021218331 -0.0053236881
1.0665795 0.067593118 -0.0059022824
2.9524309 0.19534276 -0.0074961485
8.1474255 0.54725737 -0.011886805
-0.036309559 0.01225825 -0.004316931
-0.0013948724 0.014623409 -0.0043464399
0.014114825 0.015674053 -0.0043595482
0.046863725 0.017892499 -0.0043872266
0.13707782 0.024003701 -0.0044634729
0.38559251 0.040838357 -0.0046735102
1.0701812 0.087213145 -0.0052521044
2.9560327 0.21496278 -0.0068459706
8.1510272 0.56687739 -0.011236627
-0.028704433 0.053686156 -0.0029440731
0.0062102531 0.056051315 -0.0029735819
0.021719951 0.057101958 -0.0029866903
0.054468851 0.059320405 -0.0030143687
0.14468295 0.065431606 -0.003090615
0.39319764 0.082266263 -0.0033006523
1.0777863 0.12864105 -0.0038792465
2.9636378 0.25639069 -0.0054731126
8.1586324 0.6083053 -0.0098637691
-0.0077544304 0.1678085 0.00083776818
0.027160256 0.17017366 0.00080825931
0.042669954 0.1712243 0.00079515097
0.075418854 0.17344275 0.00076747257
0.16563295 0.17955395 0.00069122627
0.41414764 0.19638861 0.00048118897
1.0987363 0.24276339 -0.000097405256
2.9845878 0.37051303 -0.0016912714
8.1795824 0.72242764 -0.0060819279
0.049956986 0.48218373 0.011255686
0.084871672 0.48454889 0.011226178
0.10038137 0.48559953 0.011213069
0.13313027 0.48781798 0.011185391
0.22334437 0.49392918 0.011109144
0.47185906 0.51076384 0.010899107
1.1564478 0.55713863 0.010320513
3.0422992 0.68488826 0.0087266468
8.2372938 1.0368029 0.0043359903
0.20893585 1.3481999 0.039954148
0.24385054 1.350565 0.039924639
0.25936024 1.3516157 0.03991153
0.29210914 1.3538341 0.039883852
0.38232324 1.3599453 0.039807606
0.63083792 1.37678 0.039597568
1.3154266 1.4231548 0.039018974
3.2012781 1.5509044 0.037425108
8.3962726 1.902819 0.033034452
0.64687841 3.7338335 0.11901042
0.68179309 3.7361986 0.11898092
0.69730279 3.7372493 0.11896781
0.73005169 3.7394677 0.11894013
0.82026579 3.7455789 0.11886388
1.0687805 3.7624136 0.11865385
1.7533692 3.8087883 0.11807525
3.6392206 3.936538 0.11648138
8.8342152 4.2884526 0.11209073
1.853288 10.305588 0.33678841
1.8882026 10.307954 0.3367589
1.9037123 10.309004 0.33674579
1.9364612 10.311223 0.33671812
2.0266753 10.317334 0.33664187
2.27519 10.334168 0.33643183
2.9597787 10.380543 0.33585324
4.8456302 10.508293 0.33425937
10.040625 10.860208 0.32986872
-0.044291733 -0.049361019 0.015771262
-0.0093770472 -0.04699586 0.015741753
0.0061326506 -0.045945216 0.015728645
0.038881551 -0.04372677 0.015700966
0.12909565 -0.037615568 0.01562472
0.37761034 -0.020780912 0.015414683
1.062199 0.025593876 0.014836089
2.9480505 0.15334351 0.013242222
8.1430451 0.50525812 0.008851566
-0.036183657 -0.0051933577 0.017234911
-0.0012689711 -0.0028281987 0.017205402
0.014240727 -0.0017775548 0.017192294
0.046989627 0.00044089146 0.017164616
0.13720373 0.0065520931 0.017088369
0.38571841 0.02338675 0.016878332
1.0703071 0.069761537 0.016299738
2.9561586 0.19751117 0.014705872
8.1511531 0.54942578 0.010315215
-0.032581912 0.014426669 0.017885089
0.0023327742 0.016791828 0.01785558
0.017842472 0.017842472 0.017842472
0.050591372 0.020060918 0.017814794
0.14080547 0.02617212 0.017738547
0.38932016 0.043006777 0.01752851
1.0739089 0.089381564 0.016949916
2.9597603 0.2171312 0.01535605
8.1547549 0.56904581 0.010965393
-0.024976786 0.055854575 0.019257947
0.0099378997 0.058219734 0.019228438
0.025447598 0.059270378 0.01921533
0.058196497 0.061488824 0.019187652
0.1484106 0.067600026 0.019111405
0.39692528 0.084434682 0.018901368
1.081514 0.13080947 0.018322774
2.9673654 0.25855911 0.016728908
8.16236 0.61047372 0.012338251
-0.0040267838 0.16997692 0.023039788
0.030887902 0.17234208 0.02301028
0.0463976 0.17339272 0.022997171
0.0791465 0.17561117 0.022969493
0.1693606 0.18172237 0.022893246
0.41787529 0.19855702 0.022683209
1.102464 0.24493181 0.022104615
2.9883154 0.37268145 0.020510749
8.18331 0.72459606 0.016120092
0.053684632 0.48435215 0.033457707
0.088599319 0.48671731 0.033428198
0.10410902 0.48776795 0.033415089
0.13685792 0.4899864 0.033387411
0.22707202 0.4960976 0.033311165
0.4755867 0.51293226 0.033101127
1.1601754 0.55930704 0.032522533
3.0460268 0.68705668 0.030928667
8.2410214 1.0389713 0.026538011
0.2126635 1.3503683 0.062156168
0.24757819 1.3527335 0.062126659
0.26308788 1.3537841 0.062113551
0.29583678 1.3560026 0.062085872
0.38605088 1.3621138 0.062009626
0.63456557 1.3789484 0.061799589
1.3191543 1.4253232 0.061220994
3.2050057 1.5530728 0.059627128
8.4000003 1.9049874 0.055236472
0.65060605 3.7360019 0.14121244
0.68552074 3.738367 0.14118294
0.70103044 3.7394177 0.14116983
0.73377934 3.7416361 0.14114215
0.82399344 3.7477473 0.1410659
1.0725081 3.764582 0.14085587
1.7570968 3.8109568 0.14027727
3.6429483 3.9387064 0.13868341
8.8379428 4.290621 0.13429275
1.8570156 10.307757 0.35899043
1.8919303 10.310122 0.35896092
1.90744 10.311173 0.35894781
1.9401889 10.313391 0.35892014
2.030403 10.319502 0.35884389
2.2789177 10.336337 0.35863385
2.9635064 10.382712 0.35805526
4.8493578 10.510461 0.35646139
10.044352 10.862376 0.35207074
-0.036420766 -0.044782378 0.062651075
-0.0015060796 -0.042417219 0.062621567
0.014003618 -0.041366575 0.062608458
0.046752518 -0.039148129 0.06258078
0.13696662 -0.033036927 0.062504534
0.38548131 -0.016202271 0.062294496
1.07007 0.030172517 0.061715902
2.9559214 0.15792215 0.060122036
8.150916 0.50983676 0.055731379
-0.02831269 -0.00061471657 0.064114725
0.0066019964 0.0017504424 0.064085216
0.022111694 0.0028010863 0.064072108
0.054860594 0.0050195326 0.064044429
0.14507469 0.011130734 0.063968183
0.39358938 0.027965391 0.063758146
1.0781781 0.074340178 0.063179551
2.9640295 0.20208982 0.061585685
8.1590241 0.55400443 0.057195029
-0.024710944 0.01900531 0.064764903
0.010203742 0.021370469 0.064735394
0.02571344 0.022421113 0.064722285
0.058462339 0.024639559 0.064694607
0.14867644 0.030750761 0.064618361
0.39719113 0.047585418 0.064408323
1.0817798 0.093960205 0.063829729
2.9676313 0.22170984 0.062235863
8.1626258 0.57362445 0.057845207
-0.017105819 0.060433216 0.066137761
0.017808867 0.062798375 0.066108252
0.033318565 0.063849019 0.066095143
0.066067465 0.066067465 0.066067465
0.15628156 0.072178667 0.065991219
0.40479625 0.089013323 0.065781181
1.089385 0.13538811 0.065202587
2.9752364 0.26313775 0.063608721
8.170231 0.61505236 0.059218065
0.0038441838 0.17455556 0.069919602
0.03875887 0.17692072 0.069890093
0.054268568 0.17797136 0.069876985
0.087017468 0.18018981 0.069849306
0.17723157 0.18630101 0.06977306
0.42574625 0.20313567 0.069563023
1.110335 0.24951045 0.068984428
2.9961864 0.37726009 0.067390562
8.191181 0.7291747 0.062999906
0.0615556 0.48893079 0.08033752
0.096470286 0.49129595 0.080308011
0.11197998 0.49234659 0.080294903
0.14472888 0.49456504 0.080267224
0.23494298 0.50067624 0.080190978
0.48345767 0.5175109 0.079980941
1.1680464 0.56388569 0.079402347
3.0538978 0.69163532 0.077808481
8.2488924 1.0435499 0.073417824
0.22053447 1.3549469 0.10903598
0.25544915 1.3573121 0.10900647
0.27095885 1.3583627 0.10899336
0.30370775 1.3605812 0.10896569
0.39392185 1.3666924 0.10888944
0.64243654 1.383527 0.1086794
1.3270252 1.4299018 0.10810081
3.2128767 1.5576515 0.10650694
8.4078713 1.9095661 0.10211629
0.65847702 3.7405805 0.18809226
0.69339171 3.7429457 0.18806275
0.7089014 3.7439963 0.18804964
0.7416503 3.7462148 0.18802196
0.8318644 3.752326 0.18794572
1.0803791 3.7691606 0.18773568
1.7649678 3.8155354 0.18715708
3.6508192 3.943285 0.18556322
8.8458138 4.2951997 0.18117256
1.8648866 10.312335 0.40587025
1.8998013 10.314701 0.40584074
1.915311 10.315751 0.40582763
1.9480599 10.31797 0.40579995
2.038274 10.324081 0.4057237
2.2867886 10.340916 0.40551367
2.9713774 10.38729 0.40493507
4.8572288 10.51504 0.40334121
10.052223 10.866955 0.39895055
-0.014738442 -0.032169497 0.19179191
0.020176244 -0.029804338 0.1917624
0.035685942 -0.028753694 0.19174929
0.068434842 -0.026535248 0.19172161
0.15864894 -0.020424046 0.19164536
0.40716363 -0.0035893893 0.19143533
1.0917523 0.042785398 0.19085673
2.9776038 0.17053504 0.18926287
8.1725983 0.52244965 0.18487221
-0.0066303664 0.011998165 0.19325555
0.02828432 0.014363324 0.19322605
0.043794018 0.015413967 0.19321294
0.076542918 0.017632414 0.19318526
0.16675702 0.023743615 0.19310901
0.4152717 0.040578272 0.19289898
1.0998604 0.086953059 0.19232038
2.9857118 0.2147027 0.19072652
8.1807064 0.56661731 0.18633586
-0.003028621 0.031618191 0.19390573
0.031886065 0.03398335 0.19387622
0.047395763 0.035033994 0.19386312
0.080144663 0.037252441 0.19383544
0.17035876 0.043363642 0.19375919
0.41887345 0.060198299 0.19354915
1.1034622 0.10657309 0.19297056
2.9893136 0.23432272 0.19137669
8.1843082 0.58623733 0.18698604
0.0045765045 0.073046097 0.19527859
0.039491191 0.075411256 0.19524908
0.055000888 0.0764619 0.19523597
0.087749788 0.078680346 0.1952083
0.17796389 0.084791548 0.19513205
0.42647858 0.1016262 0.19492201
1.1110673 0.14800099 0.19434342
2.9969187 0.27575063 0.19274955
8.1919133 0.62766524 0.18835889
0.025526507 0.18716844 0.19906043
0.060441193 0.1895336 0.19903092
0.075950891 0.19058424 0.19901781
0.10869979 0.19280269 0.19899014
0.19891389 0.19891389 0.19891389
0.44742858 0.21574855 0.19870385
1.1320173 0.26212333 0.19812526
3.0178687 0.38987297 0.19653139
8.2128633 0.74178758 0.19214074
0.083237923 0.50154367 0.20947835
0.11815261 0.50390883 0.20944884
0.13366231 0.50495947 0.20943573
0.16641121 0.50717792 0.20940805
0.25662531 0.51328912 0.20933181
0.50513999 0.53012378 0.20912177
1.1897287 0.57649857 0.20854318
3.0755801 0.7042482 0.20694931
8.2705747 1.0561628 0.20255865
0.24221679 1.3675598 0.23817681
0.27713148 1.369925 0.2381473
0.29264117 1.3709756 0.23813419
0.32539007 1.3731941 0.23810652
0.41560417 1.3793053 0.23803027
0.66411886 1.3961399 0.23782023
1.3487076 1.4425147 0.23724164
3.234559 1.5702644 0.23564777
8.4295536 1.922179 0.23125712
0.68015934 3.7531934 0.31723309
0.71507403 3.7555586 0.31720358
0.73058373 3.7566092 0.31719047
0.76333263 3.7588276 0.31716279
0.85354673 3.7649388 0.31708655
1.1020614 3.7817735 0.31687651
1.7866501 3.8281483 0.31629791
3.6725016 3.9558979 0.31470405
8.8674961 4.3078125 0.31031339
1.8865689 10.324948 0.53501108
1.9214836 10.327313 0.53498157
1.9369933 10.328364 0.53496846
1.9697422 10.330583 0.53494078
2.0599563 10.336694 0.53486453
2.308471 10.353528 0.5346545
2.9930597 10.399903 0.5340759
4.8789111 10.527653 0.53248204
10.073906 10.879567 0.52809138
0.044990313 0.0025754741 0.54753888
0.079904999 0.0049406331 0.54750938
0.095414697 0.0059912769 0.54749627
0.1281636 0.0082097232 0.54746859
0.2183777 0.014320925 0.54739234
0.46689238 0.031155581 0.54718231
1.1514811 0.077530369 0.54660371
3.0373325 0.20528001 0.54500985
8.2323271 0.55719462 0.54061919
0.053098389 0.046743135 0.54900253
0.088013075 0.049108294 0.54897303
0.10352277 0.050158938 0.54895992
0.13627167 0.052377385 0.54893224
0.22648577 0.058488586 0.54885599
0.47500046 0.075323243 0.54864595
1.1595892 0.12169803 0.54806736
3.0454406 0.24944767 0.54647349
8.2404352 0.60136228 0.54208284
0.056700134 0.066363162 0.54965271
0.091614821 0.068728321 0.5496232
0.10712452 0.069778965 0.54961009
0.13987342 0.071997411 0.54958242
0.23008752 0.078108613 0.54950617
0.47860221 0.09494327 0.54929613
1.1631909 0.14131806 0.54871754
3.0490423 0.26906769 0.54712367
8.2440369 0.6209823 0.54273302
0.06430526 0.10779107 0.55102557
0.099219946 0.11015623 0.55099606
0.11472964 0.11120687 0.55098295
0.14747854 0.11342532 0.55095527
0.23769264 0.11953652 0.55087903
0.48620733 0.13637118 0.55066899
1.170796 0.18274596 0.5500904
3.0566475 0.3104956 0.54849653
8.2516421 0.66241021 0.54410587
0.085255263 0.22191341 0.55480741
0.12016995 0.22427857 0.5547779
0.13567965 0.22532921 0.55476479
0.16842855 0.22754766 0.55473712
0.25864265 0.23365886 0.55466087
0.50715733 0.25049352 0.55445083
1.191746 0.2968683 0.55387224
3.0775975 0.42461794 0.55227837
8.2725921 0.77653255 0.54788771
0.14296668 0.53628864 0.56522533
0.17788137 0.5386538 0.56519582
0.19339106 0.53970445 0.56518271
0.22613996 0.54192289 0.56515503
0.31635406 0.54803409 0.56507879
0.56486875 0.56486875 0.56486875
1.2494575 0.61124354 0.56429016
3.1353089 0.73899317 0.56269629
8.3303035 1.0909078 0.55830563
0.30194555 1.4023048 0.59392379
0.33686023 1.40467 0.59389428
0.35236993 1.4057206 0.59388117
0.38511883 1.407939 0.59385349
0.47533293 1.4140502 0.59377725
0.72384762 1.4308849 0.59356721
1.4084363 1.4772597 0.59298862
3.2942878 1.6050093 0.59139475
8.4892823 1.9569239 0.58700409
0.7398881 3.7879384 0.67298007
0.77480278 3.7903035 0.67295056
0.79031248 3.7913542 0.67293745
0.82306138 3.7935726 0.67290977
0.91327548 3.7996838 0.67283353
1.1617902 3.8165185 0.67262349
1.8463789 3.8628933 0.67204489
3.7322303 3.9906429 0.67045103
8.9272249 4.3425575 0.66606037
1.9462977 10.359693 0.89075805
1.9812123 10.362058 0.89072855
1.996722 10.363109 0.89071544
2.0294709 10.365328 0.89068776
2.119685 10.371439 0.89061151
2.3681997 10.388273 0.89040148
3.0527884 10.434648 0.88982288
4.9386399 10.562398 0.88822901
10.133634 10.914312 0.88383836
0.20952639 0.098288185 1.5275227
0.24444107 0.10065334 1.5274932
0.25995077 0.10170399 1.5274801
0.29269967 0.10392243 1.5274524
0.38291377 0.11003364 1.5273761
0.63142846 0.12686829 1.5271661
1.3160172 0.17324308 1.5265875
3.2018686 0.30099272 1.5249936
8.3968632 0.65290733 1.520603
0.21763446 0.14245585 1.5289863
0.25254915 0.14482101 1.5289568
0.26805885 0.14587165 1.5289437
0.30080775 0.1480901 1.528916
0.39102185 0.1542013 1.5288398
0.63953654 0.17103595 1.5286297
1.3241252 0.21741074 1.5280511
3.2099767 0.34516038 1.5264573
8.4049713 0.69707499 1.5220666
0.22123621 0.16207587 1.5296365
0.2561509 0.16444103 1.529607
0.27166059 0.16549168 1.5295939
0.30440949 0.16771012 1.5295662
0.39462359 0.17382132 1.52949
0.64313828 0.19065598 1.5292799
1.327727 0.23703077 1.5287013
3.2135784 0.36478041 1.5271075
8.408573 0.71669502 1.5227168
0.22884134 0.20350378 1.5310094
0.26375602 0.20586894 1.5309798
0.27926572 0.20691958 1.5309667
0.31201462 0.20913803 1.5309391
0.40222872 0.21524923 1.5308628
0.65074341 0.23208389 1.5306528
1.3353321 0.27845867 1.5300742
3.2211835 0.40620831 1.5284803
8.4161781 0.75812292 1.5240897
0.24979134 0.31762612 1.5347912
0.28470602 0.31999128 1.5347617
0.30021572 0.32104192 1.5347486
0.33296462 0.32326037 1.5347209
0.42317872 0.32937157 1.5346447
0.67169341 0.34620623 1.5344346
1.3562821 0.39258102 1.533856
3.2421336 0.52033065 1.5322622
8.4371281 0.87224526 1.5278715
0.30750275 0.63200135 1.5452091
0.34241744 0.63436651 1.5451796
0.35792714 0.63541716 1.5451665
0.39067604 0.6376356 1.5451388
0.48089014 0.6437468 1.5450626
0.72940483 0.66058146 1.5448525
1.4139935 0.70695625 1.5442739
3.299845 0.83470589 1.5426801
8.4948395 1.1866205 1.5382894
0.46648162 1.4980175 1.5739076
0.50139631 1.5003827 1.5738781
0.51690601 1.5014333 1.573865
0.54965491 1.5036518 1.5738373
0.639869 1.509763 1.573761
0.88838369 1.5265976 1.573551
1.5729724 1.5729724 1.5729724
3.4588238 1.700722 1.5713785
8.6538184 2.0526366 1.5669879
0.90442417 3.8836511 1.6529639
0.93933886 3.8860162 1.6529343
0.95484856 3.8870669 1.6529212
0.98759746 3.8892853 1.6528936
1.0778116 3.8953965 1.6528173
1.3263262 3.9122312 1.6526073
2.010915 3.958606 1.6520287
3.8967664 4.0863556 1.6504348
9.091761 4.4382702 1.6460442
2.1108337 10.455406 1.8707418
2.1457484 10.457771 1.8707123
2.1612581 10.458822 1.8706992
2.194007 10.46104 1.8706715
2.2842211 10.467151 1.8705953
2.5327358 10.483986 1.8703853
3.2173245 10.530361 1.8698067
5.1031759 10.658111 1.8682128
10.298171 11.010025 1.8638221
0.6627775 0.36195008 4.2271054
0.69769219 0.36431524 4.2270758
0.71320189 0.36536588 4.2270627
0.74595079 0.36758433 4.2270351
0.83616488 0.37369553 4.2269588
1.0846796 0.39053019 4.2267488
1.7692683 0.43690497 4.2261702
3.6551197 0.56465461 4.2245763
8.8501143 0.91656922 4.2201857
0.67088558 0.40611774 4.228569
0.70580026 0.4084829 4.2285395
0.72130996 0.40953354 4.2285264
0.75405886 0.41175199 4.2284987
0.84427296 0.41786319 4.2284225
1.0927876 0.43469785 4.2282124
1.7773764 0.48107263 4.2276338
3.6632278 0.60882227 4.22604
8.8582224 0.96073688 4.2216493
0.67448732 0.42573777 4.2292192
0.70940201 0.42810293 4.2291897
0.72491171 0.42915357 4.2291766
0.75766061 0.43137202 4.2291489
0.84787471 0.43748322 4.2290726
1.0963894 0.45431787 4.2288626
1.7809781 0.50069266 4.228284
3.6668295 0.6284423 4.2266901
8.8618241 0.98035691 4.2222995
0.68209245 0.46716567 4.230592
0.71700713 0.46953083 4.2305625
0.73251683 0.47058147 4.2305494
0.76526573 0.47279992 4.2305217
0.85547983 0.47891112 4.2304455
1.1039945 0.49574578 4.2302355
1.7885832 0.54212057 4.2296569
3.6744347 0.6698702 4.228063
8.8694292 1.0217848 4.2236723
0.70304245 0.58128801 4.2343739
0.73795714 0.58365317 4.2343444
0.75346684 0.58470382 4.2343313
0.78621574 0.58692226 4.2343036
0.87642983 0.59303346 4.2342273
1.1249445 0.60986812 4.2340173
1.8095332 0.65624291 4.2334387
3.6953847 0.78399255 4.2318448
8.8903792 1.1359072 4.2274542
0.76075387 0.89566325 4.2447918
0.79566855 0.89802841 4.2447623
0.81117825 0.89907905 4.2447492
0.84392715 0.9012975 4.2447215
0.93414125 0.9074087 4.2446453
1.1826559 0.92424335 4.2444352
1.8672446 0.97061814 4.2438566
3.7530961 1.0983678 4.2422628
8.9480907 1.4502824 4.2378721
0.91973274 1.7616794 4.2734903
0.95464742 1.7640446 4.2734608
0.97015712 1.7650952 4.2734476
1.002906 1.7673136 4.27342
1.0931201 1.7734248 4.2733437
1.3416348 1.7902595 4.2731337
2.0262235 1.8366343 4.2725551
3.9120749 1.9643839 4.2709612
9.1070695 2.3162985 4.2665706
1.3576753 4.147313 4.3525465
1.39259 4.1496781 4.352517
1.4080997 4.1507288 4.3525039
1.4408486 4.1529472 4.3524762
1.5310627 4.1590584 4.3524
1.7795774 4.1758931 4.35219
2.4641661 4.2222679 4.3516114
4.3500175 4.3500175 4.3500175
9.5450121 4.7019321 4.3456268
2.5640848 10.719068 4.5703245
2.5989995 10.721433 4.570295
2.6145092 10.722484 4.5702819
2.6472581 10.724702 4.5702542
2.7374722 10.730813 4.570178
2.9859869 10.747648 4.5699679
3.6705756 10.794023 4.5693894
5.5564271 10.921772 4.5677955
10.751422 11.273687 4.5634048
1.9113579 1.088265 11.663703
1.9462726 1.0906302 11.663673
1.9617823 1.0916808 11.66366
1.9945312 1.0938993 11.663632
2.0847453 1.1000105 11.663556
2.3332599 1.1168451 11.663346
3.0178486 1.1632199 11.662767
4.9037001 1.2909696 11.661173
10.098695 1.6428842 11.656783
1.9194659 1.1324327 11.665166
1.9543806 1.1347979 11.665137
1.9698903 1.1358485 11.665124
2.0026392 1.1380669 11.665096
2.0928533 1.1441781 11.66502
2.341368 1.1610128 11.66481
3.0259567 1.2073876 11.664231
4.9118082 1.3351372 11.662637
10.106803 1.6870518 11.658246
1.9230677 1.1520527 11.665816
1.9579824 1.1544179 11.665787
1.9734921 1.1554685 11.665774
2.006241 1.157687 11.665746
2.0964551 1.1637982 11.66567
2.3449698 1.1806328 11.66546
3.0295585 1.2270076 11.664881
4.9154099 1.3547573 11.663287
10.110404 1.7066719 11.658897
1.9306728 1.1934806 11.667189
1.9655875 1.1958458 11.66716
1.9810972 1.1968964 11.667147
2.0138461 1.1991149 11.667119
2.1040602 1.2052261 11.667043
2.3525749 1.2220607 11.666833
3.0371636 1.2684355 11.666254
4.923015 1.3961852 11.66466
10.11801 1.7480998 11.66027
1.9516228 1.307603 11.670971
1.9865375 1.3099681 11.670942
2.0020472 1.3110188 11.670928
2.0347961 1.3132372 11.670901
2.1250102 1.3193484 11.670825
2.3735249 1.3361831 11.670614
3.0581136 1.3825579 11.670036
4.943965 1.5103075 11.668442
10.13896 1.8622221 11.664051
2.0093342 1.6219782 11.681389
2.0442489 1.6243434 11.681359
2.0597586 1.625394 11.681346
2.0925075 1.6276125 11.681319
2.1827216 1.6337237 11.681242
2.4312363 1.6505583 11.681032
3.115825 1.6969331 11.680454
5.0016764 1.8246827 11.67886
10.196671 2.1765973 11.674469
2.1683131 2.4879944 11.710087
2.2032278 2.4903595 11.710058
2.2187375 2.4914102 11.710045
2.2514864 2.4936286 11.710017
2.3417005 2.4997398 11.709941
2.5902152 2.5165745 11.709731
3.2748039 2.5629492 11.709152
5.1606553 2.6906989 11.707558
10.35565 3.0426135 11.703168
2.6062557 4.8736279 11.789144
2.6411703 4.8759931 11.789114
2.65668 4.8770437 11.789101
2.6894289 4.8792622 11.789073
2.779643 4.8853734 11.788997
3.0281577 4.902208 11.788787
3.7127464 4.9485828 11.788209
5.5985979 5.0763325 11.786615
10.793592 5.4282471 11.782224
3.8126652 11.445383 12.006922
3.8475799 11.447748 12.006892
3.8630896 11.448799 12.006879
3.8958385 11.451017 12.006851
3.9860526 11.457128 12.006775
4.2345673 11.473963 12.006565
4.919156 11.520338 12.005987
6.8050074 11.648087 12.004393
12.000002 12.000002 12.000002
