site/assets/luts/ocio-aces--ocioutilityap0-to-gamma18-encoded-rec709--6469cdc90.cube
# LUTr-Project: LUTr — LUTrepository
# LUTr-Schema-Version: 1
# LUTr-ID: ocio-aces--ocioutilityap0-to-gamma18-encoded-rec709--6469cdc90
# LUTr-Title: OCIO.Utility.AP0 to Gamma1.8 Encoded Rec709
# LUTr-Collection: OCIO ACES
# LUTr-Collection-ID: aswf-opencolorio-config-aces
# LUTr-Source: https://github.com/AcademySoftwareFoundation/OpenColorIO-Config-ACES
# LUTr-Source-File: submissions/aswf-opencolorio-config-aces/opencolorio_config_aces/clf/transforms/ocio/utility/OCIO.Utility.AP0_to_Gamma1.8_Encoded_Rec709.clf
# LUTr-Source-Format: CLF
# LUTr-Source-SHA256: 09021806122c632ad5057b1ef352f603c421bcd26c759f5b76d6266e53ac0fa8
# LUTr-License: BSD-3-Clause
# LUTr-License-URL: https://github.com/AcademySoftwareFoundation/OpenColorIO-Config-ACES/blob/main/LICENSE
# LUTr-Tags: technical, aces, ocio, clf, color-management, cube
# LUTr-Transform-Class: color-space-conversion
# LUTr-Input-Color-Space: ACES2065-1
# LUTr-Output-Color-Space: 1.8 gamma-corrected Rec.709 primaries, D65 white point
# LUTr-Color-Space-Confidence: descriptor-only
# LUTr-Conversion-Method: CLF operations evaluated as float and sampled to 33x33x33 3D CUBE
# LUTr-Conversion-Date: 2026-07-27
# LUTr-Conversion-Tool: LUTr scripts/convert-all-to-cube.mjs
# LUTr-Conversion-Grid: 33x33x33
# LUTr-Conversion-Warning: A sampled 3D CUBE is bounded to DOMAIN_MIN/MAX 0..1 and cannot preserve CLF values outside its input domain.
# LUTr-Upstream-ID: urn:aswf:ocio:transformId:1.0:OCIO:Utility:AP0_to_Gamma1.8_Encoded_Rec709:1.0
# LUTr-Upstream-Name: AP0 to Gamma 1.8 Encoded Rec.709
# LUTr-Upstream-Input-Descriptor: ACES2065-1
# LUTr-Upstream-Output-Descriptor: 1.8 gamma-corrected Rec.709 primaries, D65 white point
# LUTr-Upstream-Operations: Matrix → Exponent
# LUTr-Note: Preserve this metadata and the upstream license notices when redistributing.
TITLE "OCIO.Utility.AP0 to Gamma1.8 Encoded Rec709"
LUT_3D_SIZE 5
DOMAIN_MIN 0 0 0
DOMAIN_MAX 1 1 1
0 0 0
0.77389834 -0.069119979 -0.0038445162
1.1374251 -0.13823996 -0.0076890325
1.4247914 -0.20735994 -0.011533549
1.6717129 -0.27647991 -0.015378065
-0.28353275 0.55202213 -0.038243834
0.55532875 0.48718269 -0.04208835
0.98733037 0.41454358 -0.045932866
1.3018565 0.32984727 -0.049777383
1.5645277 0.22219591 -0.053621899
-0.56706549 0.81132597 -0.076487668
0.21593683 0.76486611 -0.080332184
0.81618581 0.7160292 -0.0841767
1.1688313 0.66436756 -0.088021217
1.4511135 0.60926899 -0.091865733
-0.85059824 1.0163045 -0.1147315
-0.22017669 0.97781355 -0.11857602
0.60957054 0.93807018 -0.12242053
1.0223922 0.89693137 -0.12626505
1.3301129 0.85422406 -0.13010957
-1.134131 1.1924338 -0.15297534
-0.50370944 1.1586944 -0.15681985
0.31736981 1.1241501 -0.16066437
0.85678852 1.0887348 -0.16450888
1.1995764 1.0523728 -0.1683534
-0.0968888 -0.024059793 0.50473505
0.70537948 -0.093179772 0.5010334
1.0880054 -0.16229975 0.49730975
1.3837671 -0.23141973 0.49356365
1.6357186 -0.30053971 0.48979467
-0.38042155 0.53017456 0.46687898
0.46293736 0.46293736 0.46293736
0.93169248 0.38675793 0.45896869
1.2576689 0.29598541 0.45497239
1.5265314 0.17329566 0.4509478
-0.66395429 0.79540054 0.42638864
-0.033532747 0.74815642 0.42214775
0.75075174 0.69839395 0.4178725
1.1205187 0.64561619 0.41356197
1.4107012 0.58913339 0.40921519
-0.94748704 1.0030405 0.3825545
-0.31706549 0.96412823 0.37792511
0.52483303 0.92391671 0.3732499
0.96836415 0.88225335 0.36852737
1.2867009 0.83895253 0.36375592
-1.2310198 1.1807771 0.33426677
-0.60059824 1.1467645 0.32910273
0.14207936 1.1119249 0.32387303
0.79402856 1.0761893 0.31857489
1.1522941 1.0394779 0.3132053
-0.1937776 -0.048119587 0.74182651
0.63106022 -0.11723957 0.7391103
1.0367206 -0.18635954 0.73638608
1.3417458 -0.25547952 0.73365377
1.5990791 -0.3245995 0.73091329
-0.47731035 0.50758163 0.71444079
0.35255436 0.43763043 0.71164131
0.87325858 0.35727379 0.70883299
1.2122026 0.25868916 0.70601574
1.487763 0.10923511 0.70318947
-0.76084309 0.77921584 0.68618815
-0.13042155 0.73114267 0.68329649
0.680395 0.680395 0.680395
1.0704787 0.6264186 0.67748358
1.3693406 0.56843146 0.67456212
-1.0443758 0.98963462 0.65697246
-0.41395429 0.95028571 0.65397797
0.4273399 0.90958763 0.65097246
0.91180832 0.86737732 0.6479558
1.242084 0.82345529 0.64492788
-1.3279086 1.1690276 0.6266781
-0.69748704 1.1347345 0.62356783
-0.067065494 1.0995913 0.62044511
0.72701955 1.0635256 0.61730977
1.1034057 1.0264537 0.61416163
-0.2906664 -0.07217938 0.92924627
0.54895493 -0.14129936 0.92697908
0.98332008 -0.21041934 0.92470744
1.2986442 -0.27953932 0.92243133
1.5617554 -0.34865929 0.92015072
-0.57419915 0.48415374 0.90649184
0.20207157 0.41109407 0.90417912
0.81151272 0.32569863 0.90186167
1.165329 0.21647482 0.89953944
1.4481689 -0.0054795224 0.89721241
-0.85773189 0.76275761 0.88327097
-0.22731035 0.7138061 0.88090962
0.60365888 0.66200679 0.87854321
1.0184927 0.6067383 0.87617168
1.3269554 0.5471079 0.87379501
-1.1412646 0.97608188 0.85955108
-0.51084309 0.93627995 0.85713762
0.30731585 0.89507563 0.85471871
0.85229431 0.85229431 0.85229431
1.1961463 0.80772112 0.84986439
-1.4247974 1.1571829 0.83529554
-0.79437584 1.1226015 0.83282603
-0.16395429 1.087146 0.83035064
0.65465389 1.0507401 0.82786934
1.0527192 1.0132959 0.82538208
-0.3875552 -0.096239173 1.090288
0.45555143 -0.16535915 1.0882934
0.92749097 -0.23447913 1.0862959
1.2543664 -0.30359911 1.0842954
1.523704 -0.37271909 1.082292
-0.67108795 0.45978139 1.0703145
-0.040666399 0.38310992 1.0682902
0.74575369 0.29145626 1.0662627
1.1168957 0.16627384 1.0642322
1.4076891 -0.029539316 1.0621986
-0.95462069 0.74601023 1.0500383
-0.32419915 0.69612592 1.0479826
0.5181613 0.64320054 1.0459238
0.96429091 0.58653347 1.0438617
1.2834583 0.52509761 1.0417963
-1.2381534 0.96237689 1.0294438
-0.60773189 0.92210455 1.0273553
0.12205935 0.88037291 1.0252634
0.78925088 0.83699467 1.023168
1.1487515 0.79173784 1.0210693
-1.5216862 1.1452404 1.0085144
-0.89126464 1.1103627 1.0063912
-0.26084309 1.0745856 1.0042644
0.57522404 1.037829 1.002134
1 1 1
