site/assets/luts/ocio-aces--redinputlog3g10-curve--3fbc1e159.cube
# LUTr-Project: LUTr — LUTrepository
# LUTr-Schema-Version: 1
# LUTr-ID: ocio-aces--redinputlog3g10-curve--3fbc1e159
# LUTr-Title: RED.Input.Log3G10-Curve
# LUTr-Collection: OCIO ACES
# LUTr-Collection-ID: aswf-opencolorio-config-aces
# LUTr-Source: https://github.com/AcademySoftwareFoundation/OpenColorIO-Config-ACES
# LUTr-Source-File: submissions/aswf-opencolorio-config-aces/opencolorio_config_aces/clf/transforms/red/input/RED.Input.Log3G10-Curve.clf
# LUTr-Source-Format: CLF
# LUTr-Source-SHA256: d477efad2f230619d83f1aa2679d45adff6f83a35231ac0c01a33dd822e88777
# LUTr-License: BSD-3-Clause
# LUTr-License-URL: https://github.com/AcademySoftwareFoundation/OpenColorIO-Config-ACES/blob/main/LICENSE
# LUTr-Tags: technical, aces, ocio, clf, color-management, cube
# LUTr-Transform-Class: color-space-conversion
# LUTr-Input-Color-Space: RED Log3G10 Log (arbitrary primaries)
# LUTr-Output-Color-Space: RED Log3G10 Linear (arbitrary primaries)
# LUTr-Color-Space-Confidence: descriptor-only
# LUTr-Conversion-Method: CLF operations evaluated as float and sampled to 33x33x33 3D CUBE
# LUTr-Conversion-Date: 2026-07-27
# LUTr-Conversion-Tool: LUTr scripts/convert-all-to-cube.mjs
# LUTr-Conversion-Grid: 33x33x33
# LUTr-Conversion-Warning: A sampled 3D CUBE is bounded to DOMAIN_MIN/MAX 0..1 and cannot preserve CLF values outside its input domain.
# LUTr-Upstream-ID: urn:aswf:ocio:transformId:1.0:RED:Input:Log3G10-Curve_to_Linear:1.0
# LUTr-Upstream-Name: RED Log3G10 Log to Linear Curve
# LUTr-Upstream-Input-Descriptor: RED Log3G10 Log (arbitrary primaries)
# LUTr-Upstream-Output-Descriptor: RED Log3G10 Linear (arbitrary primaries)
# LUTr-Upstream-Operations: Log
# LUTr-Note: Preserve this metadata and the upstream license notices when redistributing.
TITLE "RED.Input.Log3G10-Curve"
LUT_3D_SIZE 5
DOMAIN_MIN 0 0 0
DOMAIN_MAX 1 1 1
-0.01 -0.01 -0.01
0.067074457 -0.01 -0.01
1.070716 -0.01 -0.01
14.139848 -0.01 -0.01
184.32235 -0.01 -0.01
-0.01 0.067074457 -0.01
0.067074457 0.067074457 -0.01
1.070716 0.067074457 -0.01
14.139848 0.067074457 -0.01
184.32235 0.067074457 -0.01
-0.01 1.070716 -0.01
0.067074457 1.070716 -0.01
1.070716 1.070716 -0.01
14.139848 1.070716 -0.01
184.32235 1.070716 -0.01
-0.01 14.139848 -0.01
0.067074457 14.139848 -0.01
1.070716 14.139848 -0.01
14.139848 14.139848 -0.01
184.32235 14.139848 -0.01
-0.01 184.32235 -0.01
0.067074457 184.32235 -0.01
1.070716 184.32235 -0.01
14.139848 184.32235 -0.01
184.32235 184.32235 -0.01
-0.01 -0.01 0.067074457
0.067074457 -0.01 0.067074457
1.070716 -0.01 0.067074457
14.139848 -0.01 0.067074457
184.32235 -0.01 0.067074457
-0.01 0.067074457 0.067074457
0.067074457 0.067074457 0.067074457
1.070716 0.067074457 0.067074457
14.139848 0.067074457 0.067074457
184.32235 0.067074457 0.067074457
-0.01 1.070716 0.067074457
0.067074457 1.070716 0.067074457
1.070716 1.070716 0.067074457
14.139848 1.070716 0.067074457
184.32235 1.070716 0.067074457
-0.01 14.139848 0.067074457
0.067074457 14.139848 0.067074457
1.070716 14.139848 0.067074457
14.139848 14.139848 0.067074457
184.32235 14.139848 0.067074457
-0.01 184.32235 0.067074457
0.067074457 184.32235 0.067074457
1.070716 184.32235 0.067074457
14.139848 184.32235 0.067074457
184.32235 184.32235 0.067074457
-0.01 -0.01 1.070716
0.067074457 -0.01 1.070716
1.070716 -0.01 1.070716
14.139848 -0.01 1.070716
184.32235 -0.01 1.070716
-0.01 0.067074457 1.070716
0.067074457 0.067074457 1.070716
1.070716 0.067074457 1.070716
14.139848 0.067074457 1.070716
184.32235 0.067074457 1.070716
-0.01 1.070716 1.070716
0.067074457 1.070716 1.070716
1.070716 1.070716 1.070716
14.139848 1.070716 1.070716
184.32235 1.070716 1.070716
-0.01 14.139848 1.070716
0.067074457 14.139848 1.070716
1.070716 14.139848 1.070716
14.139848 14.139848 1.070716
184.32235 14.139848 1.070716
-0.01 184.32235 1.070716
0.067074457 184.32235 1.070716
1.070716 184.32235 1.070716
14.139848 184.32235 1.070716
184.32235 184.32235 1.070716
-0.01 -0.01 14.139848
0.067074457 -0.01 14.139848
1.070716 -0.01 14.139848
14.139848 -0.01 14.139848
184.32235 -0.01 14.139848
-0.01 0.067074457 14.139848
0.067074457 0.067074457 14.139848
1.070716 0.067074457 14.139848
14.139848 0.067074457 14.139848
184.32235 0.067074457 14.139848
-0.01 1.070716 14.139848
0.067074457 1.070716 14.139848
1.070716 1.070716 14.139848
14.139848 1.070716 14.139848
184.32235 1.070716 14.139848
-0.01 14.139848 14.139848
0.067074457 14.139848 14.139848
1.070716 14.139848 14.139848
14.139848 14.139848 14.139848
184.32235 14.139848 14.139848
-0.01 184.32235 14.139848
0.067074457 184.32235 14.139848
1.070716 184.32235 14.139848
14.139848 184.32235 14.139848
184.32235 184.32235 14.139848
-0.01 -0.01 184.32235
0.067074457 -0.01 184.32235
1.070716 -0.01 184.32235
14.139848 -0.01 184.32235
184.32235 -0.01 184.32235
-0.01 0.067074457 184.32235
0.067074457 0.067074457 184.32235
1.070716 0.067074457 184.32235
14.139848 0.067074457 184.32235
184.32235 0.067074457 184.32235
-0.01 1.070716 184.32235
0.067074457 1.070716 184.32235
1.070716 1.070716 184.32235
14.139848 1.070716 184.32235
184.32235 1.070716 184.32235
-0.01 14.139848 184.32235
0.067074457 14.139848 184.32235
1.070716 14.139848 184.32235
14.139848 14.139848 184.32235
184.32235 14.139848 184.32235
-0.01 184.32235 184.32235
0.067074457 184.32235 184.32235
1.070716 184.32235 184.32235
14.139848 184.32235 184.32235
184.32235 184.32235 184.32235
