site/assets/luts/ocio-aces--sonyinputslog3-sgamut3-to-aces2065-1--23ac9044b.cube
# LUTr-Project: LUTr — LUTrepository
# LUTr-Schema-Version: 1
# LUTr-ID: ocio-aces--sonyinputslog3-sgamut3-to-aces2065-1--23ac9044b
# LUTr-Title: Sony.Input.SLog3 SGamut3 to ACES2065-1
# LUTr-Collection: OCIO ACES
# LUTr-Collection-ID: aswf-opencolorio-config-aces
# LUTr-Source: https://github.com/AcademySoftwareFoundation/OpenColorIO-Config-ACES
# LUTr-Source-File: submissions/aswf-opencolorio-config-aces/opencolorio_config_aces/clf/transforms/sony/input/Sony.Input.SLog3_SGamut3_to_ACES2065-1.clf
# LUTr-Source-Format: CLF
# LUTr-Source-SHA256: f1544e7aef78e9050714ad87aa985584704aad51c797a821420915bfb706a826
# LUTr-License: BSD-3-Clause
# LUTr-License-URL: https://github.com/AcademySoftwareFoundation/OpenColorIO-Config-ACES/blob/main/LICENSE
# LUTr-Tags: technical, aces, ocio, clf, color-management, cube
# LUTr-Transform-Class: color-space-conversion
# LUTr-Input-Color-Space: Sony S-Log3 S-Gamut3
# LUTr-Output-Color-Space: ACES2065-1
# LUTr-Color-Space-Confidence: descriptor-only
# LUTr-Conversion-Method: CLF operations evaluated as float and sampled to 33x33x33 3D CUBE
# LUTr-Conversion-Date: 2026-07-27
# LUTr-Conversion-Tool: LUTr scripts/convert-all-to-cube.mjs
# LUTr-Conversion-Grid: 33x33x33
# LUTr-Conversion-Warning: A sampled 3D CUBE is bounded to DOMAIN_MIN/MAX 0..1 and cannot preserve CLF values outside its input domain.
# LUTr-Upstream-ID: urn:aswf:ocio:transformId:1.0:Sony:Input:SLog3_SGamut3_to_ACES2065-1:1.0
# LUTr-Upstream-Name: Sony S-Log3 S-Gamut3 to ACES2065-1
# LUTr-Upstream-Input-Descriptor: Sony S-Log3 S-Gamut3
# LUTr-Upstream-Output-Descriptor: ACES2065-1
# LUTr-Upstream-Operations: Log → Matrix
# LUTr-Note: Preserve this metadata and the upstream license notices when redistributing.
TITLE "Sony.Input.SLog3 SGamut3 to ACES2065-1"
LUT_3D_SIZE 9
DOMAIN_MIN 0 0 0
DOMAIN_MAX 1 1 1
-0.014023696 -0.014023696 -0.014023696
0.00019008004 -0.013613928 -0.014201439
0.022690682 -0.012965259 -0.01448281
0.092863418 -0.010942253 -0.01536032
0.30922201 -0.0047048617 -0.018065886
0.97630502 0.014526441 -0.026407764
3.0330745 0.073820945 -0.052127681
9.3745651 0.25663946 -0.13142807
28.926831 0.82031074 -0.37592929
-0.011317349 0.0051421049 -0.013960074
0.002896427 0.0055518732 -0.014137817
0.025397029 0.0062005419 -0.014419187
0.095569765 0.0082235482 -0.015296698
0.31192836 0.014460939 -0.018002264
0.97901137 0.033692242 -0.026344142
3.0357808 0.092986746 -0.052064058
9.3772714 0.27580526 -0.13136444
28.929537 0.83947655 -0.37586567
-0.0070331647 0.035481831 -0.013859359
0.0071806113 0.035891599 -0.014037102
0.029681214 0.036540268 -0.014318473
0.09985395 0.038563274 -0.015195983
0.31621254 0.044800665 -0.017901549
0.98329555 0.064031968 -0.026243427
3.040065 0.12332647 -0.051963344
9.3815556 0.30614499 -0.13126373
28.933821 0.86981627 -0.37576495
0.0063279414 0.13010248 -0.01354526
0.020541717 0.13051225 -0.013723003
0.04304232 0.13116091 -0.014004373
0.11321506 0.13318392 -0.014881884
0.32957365 0.13942131 -0.017587449
0.99665666 0.15865261 -0.025929327
3.0534261 0.21794712 -0.051649244
9.3949167 0.40076563 -0.13094963
28.947182 0.96443692 -0.37545085
0.047523287 0.42183957 -0.012576819
0.061737063 0.42224934 -0.012754562
0.084237665 0.42289801 -0.013035933
0.1544104 0.42492101 -0.013913443
0.37076899 0.4311584 -0.016619009
1.037852 0.45038971 -0.024960887
3.0946215 0.50968421 -0.050680804
9.4361121 0.69250273 -0.12998119
28.988378 1.256174 -0.37448241
0.17453796 1.3213317 -0.0095908955
0.18875173 1.3217415 -0.0097686388
0.21125233 1.3223902 -0.010050009
0.28142507 1.3244132 -0.01092752
0.49778366 1.3306506 -0.013633085
1.1648667 1.3498819 -0.021974963
3.2216361 1.4091764 -0.04769488
9.5631267 1.5919949 -0.12699527
29.115392 2.1556662 -0.37149649
0.56615323 4.0946718 -0.00038461024
0.580367 4.0950815 -0.00056235361
0.60286761 4.0957302 -0.0008437238
0.67304034 4.0977532 -0.0017212344
0.88939893 4.1039906 -0.0044268001
1.5564819 4.1232219 -0.012768678
3.6132514 4.1825164 -0.038488595
9.954742 4.3653349 -0.11778898
29.507008 4.9290062 -0.3622902
1.7735927 12.645513 0.028000472
1.7878064 12.645923 0.027822729
1.810307 12.646572 0.027541359
1.8804798 12.648595 0.026663848
2.0968384 12.654832 0.023958283
2.7639214 12.674063 0.015616405
4.8206909 12.733358 -0.010103512
11.162181 12.916176 -0.089403898
30.714447 13.479848 -0.33390512
5.4964045 39.009713 0.11551817
5.5106183 39.010123 0.11534043
5.5331189 39.010772 0.11505906
5.6032917 39.012795 0.11418155
5.8196503 39.019032 0.11147598
6.4867333 39.038263 0.10313411
8.5435027 39.097558 0.077414188
14.884993 39.280376 -0.0018861971
34.437259 39.844048 -0.24638742
-0.012067186 -0.014722632 0.0049670581
0.00214659 -0.014312864 0.0047893147
0.024647192 -0.013664195 0.0045079445
0.094819928 -0.011641189 0.003630434
0.31117852 -0.005403798 0.00092486825
0.97826153 0.013827505 -0.0074170096
3.035031 0.073122008 -0.033136927
9.3765216 0.25594052 -0.11243731
28.928787 0.81961181 -0.35693853
-0.0093608391 0.0044431686 0.0050306803
0.0048529369 0.0048529369 0.0048529369
0.027353539 0.0055016056 0.0045715667
0.097526275 0.0075246119 0.0036940561
0.31388487 0.013762003 0.00098849039
0.98096788 0.032993306 -0.0073533875
3.0377373 0.092287809 -0.033073304
9.379228 0.27510632 -0.11237369
28.931494 0.83877761 -0.35687491
-0.0050766548 0.034782894 0.005131395
0.0091371212 0.035192663 0.0049536516
0.031637724 0.035841331 0.0046722814
0.10181046 0.037864338 0.0037947708
0.31816905 0.044101729 0.0010892051
0.98525206 0.063333031 -0.0072526727
3.0420215 0.12262754 -0.03297259
9.3835121 0.30544605 -0.11227298
28.935778 0.86911733 -0.3567742
0.0082844513 0.12940354 0.0054454945
0.022498227 0.12981331 0.0052677511
0.04499883 0.13046198 0.0049863809
0.11517157 0.13248498 0.0041088703
0.33153016 0.13872238 0.0014033046
0.99861317 0.15795368 -0.0069385733
3.0553826 0.21724818 -0.03265849
9.3968732 0.4000667 -0.11195888
28.949139 0.96373798 -0.3564601
0.049479797 0.42114063 0.006413935
0.063693573 0.4215504 0.0062361916
0.086194175 0.42219907 0.0059548214
0.15636691 0.42422208 0.0050773109
0.3727255 0.43045947 0.0023717451
1.0398085 0.44969077 -0.0059701327
3.096578 0.50898527 -0.03169005
9.4380686 0.69180379 -0.11099044
28.990334 1.2554751 -0.35549166
0.17649447 1.3206328 0.0093998586
0.19070824 1.3210426 0.0092221152
0.21320884 1.3216912 0.008940745
0.28338158 1.3237142 0.0080632344
0.49974017 1.3299516 0.0053576687
1.1668232 1.3491829 -0.0029842091
3.2235927 1.4084774 -0.028704126
9.5650833 1.591296 -0.10800451
29.117349 2.1549672 -0.35250573
0.56810974 4.0939728 0.018606144
0.58232351 4.0943826 0.0184284
0.60482412 4.0950313 0.01814703
0.67499685 4.0970543 0.01726952
0.89135544 4.1032917 0.014563954
1.5584385 4.122523 0.0062220761
3.6152079 4.1818175 -0.019497841
9.9566985 4.364636 -0.098798226
29.508964 4.9283073 -0.34329945
1.7755492 12.644814 0.046991226
1.7897629 12.645224 0.046813483
1.8122636 12.645873 0.046532113
1.8824363 12.647896 0.045654602
2.0987949 12.654133 0.042949037
2.7658779 12.673365 0.034607159
4.8226474 12.732659 0.0088872418
11.164138 12.915478 -0.070413144
30.716404 13.479149 -0.31491437
5.4983611 39.009014 0.13450893
5.5125748 39.009424 0.13433118
5.5350754 39.010073 0.13404981
5.6052482 39.012096 0.1331723
5.8216068 39.018333 0.13046674
6.4886898 39.037564 0.12212486
8.5454592 39.096859 0.096404942
14.88695 39.279677 0.017104557
34.439216 39.843349 -0.22739667
-0.008970004 -0.015829058 0.035029682
0.005243772 -0.01541929 0.034851939
0.027744374 -0.014770621 0.034570569
0.09791711 -0.012747615 0.033693058
0.3142757 -0.0065102237 0.030987493
0.98135871 0.012721079 0.022645615
3.0381282 0.072015583 -0.0030743022
9.3796188 0.2548341 -0.082374688
28.931884 0.81850538 -0.32687591
-0.006263657 0.0033367429 0.035093305
0.0079501189 0.0037465112 0.034915561
0.030450721 0.0043951799 0.034634191
0.10062346 0.0064181862 0.03375668
0.31698205 0.012655577 0.031051115
0.98406506 0.03188688 0.022709237
3.0408345 0.091181384 -0.0030106801
9.3823251 0.2739999 -0.082311066
28.934591 0.83767118 -0.32681229
-0.0019794727 0.033676469 0.035194019
0.012234303 0.034086237 0.035016276
0.034734906 0.034734906 0.034734906
0.10490764 0.036757912 0.033857395
0.32126623 0.042995303 0.031151829
0.98834924 0.062226606 0.022809952
3.0451187 0.12152111 -0.0029099654
9.3866093 0.30433962 -0.082210351
28.938875 0.86801091 -0.32671157
0.011381633 0.12829712 0.035508119
0.025595409 0.12870688 0.035330375
0.048096012 0.12935555 0.035049005
0.11826875 0.13137856 0.034171495
0.33462734 0.13761595 0.031465929
1.0017104 0.15684725 0.023124051
3.0584798 0.21614176 -0.0025958659
9.3999704 0.39896027 -0.081896251
28.952236 0.96263156 -0.32639747
0.052576979 0.42003421 0.036476559
0.066790755 0.42044398 0.036298816
0.089291357 0.42109265 0.036017446
0.15946409 0.42311565 0.035139935
0.37582268 0.42935304 0.032434369
1.0429057 0.44858434 0.024092492
3.0996752 0.50787885 -0.0016274254
9.4411658 0.69069736 -0.080927811
28.993431 1.2543686 -0.32542903
0.17959165 1.3195264 0.039462483
0.19380542 1.3199361 0.03928474
0.21630603 1.3205848 0.039003369
0.28647876 1.3226078 0.038125859
0.50283735 1.3288452 0.035420293
1.1699204 1.3480765 0.027078415
3.2266898 1.407371 0.0013584982
9.5681804 1.5901895 -0.077941887
29.120446 2.1538608 -0.32244311
0.57120692 4.0928664 0.048668768
0.5854207 4.0932762 0.048491025
0.6079213 4.0939249 0.048209655
0.67809403 4.0959479 0.047332144
0.89445263 4.1021853 0.044626578
1.5615356 4.1214166 0.0362847
3.6183051 4.1807111 0.010564783
9.9597957 4.3635296 -0.068735602
29.512061 4.9272009 -0.31323682
1.7786464 12.643708 0.077053851
1.7928601 12.644118 0.076876107
1.8153607 12.644766 0.076594737
1.8855335 12.646789 0.075717227
2.1018921 12.653027 0.073011661
2.7689751 12.672258 0.064669783
4.8257445 12.731553 0.038949866
11.167235 12.914371 -0.040350519
30.719501 13.478042 -0.28485174
5.5014582 39.007908 0.16457155
5.515672 39.008318 0.16439381
5.5381726 39.008966 0.16411244
5.6083454 39.010989 0.16323493
5.8247039 39.017227 0.16052936
6.491787 39.036458 0.15218748
8.5485564 39.095752 0.12646757
14.890047 39.278571 0.047167181
34.442313 39.842242 -0.19733404
0.00068919243 -0.019279673 0.12878613
0.014902968 -0.018869905 0.12860839
0.037403571 -0.018221236 0.12832702
0.10757631 -0.01619823 0.12744951
0.3239349 -0.0099608388 0.12474394
0.99101791 0.0092704639 0.11640206
3.0477874 0.068564968 0.090682147
9.389278 0.25138348 0.011381762
28.941544 0.81505477 -0.23311946
0.0033955394 -0.00011387216 0.12884975
0.017609315 0.00029589608 0.12867201
0.040109918 0.00094456482 0.12839064
0.11028265 0.0029675711 0.12751313
0.32664124 0.0092049621 0.12480756
0.99372426 0.028436265 0.11646569
3.0504937 0.087730769 0.090745769
9.3919843 0.27054928 0.011445384
28.94425 0.83422057 -0.23305584
0.0076797237 0.030225854 0.12895047
0.0218935 0.030635622 0.12877273
0.044394102 0.031284291 0.12849136
0.11456684 0.033307297 0.12761384
0.33092543 0.039544688 0.12490828
0.99800844 0.058775991 0.1165664
3.0547779 0.11807049 0.090846484
9.3962685 0.30088901 0.011546099
28.948534 0.86456029 -0.23295512
0.02104083 0.1248465 0.12926457
0.035254606 0.12525627 0.12908682
0.057755208 0.12590494 0.12880545
0.12792794 0.12792794 0.12792794
0.34428654 0.13416533 0.12522238
1.0113695 0.15339664 0.1168805
3.068139 0.21269114 0.091160583
9.4096296 0.39550966 0.011860198
28.961895 0.95918094 -0.23264102
0.062236175 0.41658359 0.13023301
0.076449951 0.41699336 0.13005527
0.098950553 0.41764203 0.1297739
0.16912329 0.41966504 0.12889638
0.38548188 0.42590243 0.12619082
1.0525649 0.44513373 0.11784894
3.1093344 0.50442823 0.092129024
9.450825 0.68724675 0.012828639
29.003091 1.250918 -0.23167258
0.18925084 1.3160758 0.13321893
0.20346462 1.3164855 0.13304119
0.22596522 1.3171342 0.13275982
0.29613796 1.3191572 0.13188231
0.51249655 1.3253946 0.12917674
1.1795796 1.3446259 0.12083486
3.236349 1.4039204 0.095114948
9.5778396 1.5867389 0.015814562
29.130105 2.1504102 -0.22868666
0.58086612 4.0894158 0.14242522
0.59507989 4.0898256 0.14224747
0.61758049 4.0904742 0.1419661
0.68775323 4.0924972 0.14108859
0.90411182 4.0987346 0.13838303
1.5711948 4.1179659 0.13004115
3.6279643 4.1772604 0.10432123
9.9694549 4.360079 0.025020847
29.521721 4.9237502 -0.21948037
1.7883056 12.640257 0.1708103
1.8025193 12.640667 0.17063256
1.8250199 12.641316 0.17035119
1.8951927 12.643339 0.16947368
2.1115513 12.649576 0.16676811
2.7786343 12.668807 0.15842623
4.8354037 12.728102 0.13270632
11.176894 12.91092 0.05340593
30.72916 13.474592 -0.19109529
5.5111174 39.004457 0.258328
5.5253312 39.004867 0.25815026
5.5478318 39.005516 0.25786889
5.6180046 39.007539 0.25699138
5.8343631 39.013776 0.25428581
6.5014462 39.033007 0.24594393
8.5582156 39.092302 0.22022402
14.899706 39.27512 0.14092363
34.451972 39.838792 -0.10357759
0.030470704 -0.029918708 0.4178587
0.04468448 -0.02950894 0.41768096
0.067185082 -0.028860271 0.41739959
0.13735782 -0.026837265 0.41652208
0.35371641 -0.020599874 0.41381651
1.0207994 -0.0013685716 0.40547464
3.0775689 0.057925932 0.37975472
9.4190595 0.24074445 0.30045433
28.971325 0.80441573 0.055953112
0.033177051 -0.010752908 0.41792233
0.047390827 -0.010343139 0.41774458
0.069891429 -0.0096944706 0.41746321
0.14006416 -0.0076714643 0.4165857
0.35642276 -0.0014340734 0.41388014
1.0235058 0.017797229 0.40553826
3.0802752 0.077091733 0.37981834
9.4217658 0.25991025 0.30051796
28.974032 0.82358153 0.056016735
0.037461235 0.019586818 0.41802304
0.051675011 0.019996586 0.4178453
0.074175613 0.020645255 0.41756393
0.14434835 0.022668261 0.41668642
0.36070694 0.028905652 0.41398085
1.02779 0.048136955 0.40563897
3.0845594 0.10743146 0.37991906
9.42605 0.29024997 0.30061867
28.978316 0.85392126 0.056117449
0.050822341 0.11420747 0.41833714
0.065036117 0.11461723 0.4181594
0.087536719 0.1152659 0.41787803
0.15770946 0.11728891 0.41700052
0.37406805 0.1235263 0.41429495
1.0411511 0.1427576 0.40595307
3.0979205 0.20205211 0.38023316
9.4394111 0.38487062 0.30093277
28.991677 0.94854191 0.056431549
0.092017686 0.40594456 0.41930558
0.10623146 0.40635433 0.41912784
0.12873206 0.40700299 0.41884647
0.1989048 0.409026 0.41796896
0.41526339 0.41526339 0.41526339
1.0823464 0.43449469 0.40692151
3.1391159 0.4937892 0.3812016
9.4806065 0.67660771 0.30190121
29.032872 1.240279 0.057399989
0.21903236 1.3054367 0.42229151
0.23324613 1.3058465 0.42211376
0.25574673 1.3064952 0.42183239
0.32591947 1.3085182 0.42095488
0.54227806 1.3147556 0.41824932
1.2093611 1.3339869 0.40990744
3.2661305 1.3932814 0.38418752
9.6076211 1.5760999 0.30488714
29.159887 2.1397712 0.060385913
0.61064763 4.0787768 0.43149779
0.6248614 4.0791865 0.43132005
0.64736201 4.0798352 0.43103868
0.71753474 4.0818582 0.43016117
0.93389333 4.0880956 0.4274556
1.6009763 4.1073269 0.41911372
3.6577458 4.1666214 0.39339381
9.9992364 4.3494399 0.31409342
29.551502 4.9131112 0.069592198
1.8180871 12.629618 0.45988287
1.8323008 12.630028 0.45970513
1.8548014 12.630677 0.45942376
1.9249742 12.6327 0.45854625
2.1413328 12.638937 0.45584068
2.8084158 12.658168 0.44749881
4.8651853 12.717463 0.42177889
11.206676 12.900281 0.3424785
30.758942 13.463953 0.097977281
5.5408989 38.993818 0.54740057
5.5551127 38.994228 0.54722283
5.5776133 38.994877 0.54694146
5.6477861 38.9969 0.54606395
5.8641447 39.003137 0.54335838
6.5312277 39.022368 0.53501651
8.5879971 39.081663 0.50929659
14.929488 39.264481 0.4299962
34.481753 39.828153 0.18549498
0.12229391 -0.062721288 1.3091356
0.13650769 -0.062311519 1.3089578
0.15900829 -0.061662851 1.3086764
0.22918103 -0.059639844 1.3077989
0.44553962 -0.053402453 1.3050934
1.1126226 -0.034171151 1.2967515
3.1693921 0.025123353 1.2710316
9.5108827 0.20794187 1.1917312
29.063148 0.77161315 0.94722996
0.12500026 -0.043555487 1.3091992
0.13921404 -0.043145718 1.3090214
0.16171464 -0.04249705 1.3087401
0.23188737 -0.040474043 1.3078625
0.44824597 -0.034236652 1.305157
1.115329 -0.01500535 1.2968151
3.1720984 0.044289154 1.2710952
9.5135891 0.22710767 1.1917948
29.065855 0.79077895 0.94729358
0.12928444 -0.013215761 1.3092999
0.14349822 -0.012805993 1.3091221
0.16599882 -0.012157324 1.3088408
0.23617156 -0.010134318 1.3079633
0.45253015 -0.0038969266 1.3052577
1.1196132 0.015334376 1.2969158
3.1763826 0.07462888 1.2711959
9.5178732 0.25744739 1.1918955
29.070139 0.82111868 0.94739429
0.14264555 0.081404886 1.309614
0.15685933 0.081814654 1.3094362
0.17935993 0.082463323 1.3091549
0.24953266 0.08448633 1.3082774
0.46589126 0.09072372 1.3055718
1.1329743 0.10995502 1.2972299
3.1897437 0.16924953 1.27151
9.5312343 0.35206804 1.1922096
29.0835 0.91573933 0.94770839
0.1838409 0.37314198 1.3105824
0.19805467 0.37355175 1.3104047
0.22055527 0.37420042 1.3101233
0.29072801 0.37622342 1.3092458
0.5070866 0.38246081 1.3065402
1.1741696 0.40169212 1.2981984
3.2309391 0.46098662 1.2724784
9.5724297 0.64380513 1.1931781
29.124695 1.2074764 0.94867683
0.31085557 1.2726341 1.3135684
0.32506934 1.2730439 1.3133906
0.34756994 1.2736926 1.3131092
0.41774268 1.2757156 1.3122317
0.63410127 1.281953 1.3095262
1.3011843 1.3011843 1.3011843
3.3579538 1.3604788 1.2754644
9.6994444 1.5432973 1.196164
29.25171 2.1069686 0.95166276
0.70247084 4.0459742 1.3227746
0.71668461 4.046384 1.3225969
0.73918522 4.0470326 1.3223155
0.80935795 4.0490556 1.321438
1.0257165 4.055293 1.3187324
1.6927996 4.0745243 1.3103906
3.749569 4.1338188 1.2846707
10.09106 4.3166373 1.2053703
29.643325 4.8803086 0.96086904
1.9099103 12.596816 1.3511597
1.924124 12.597225 1.350982
1.9466247 12.597874 1.3507006
2.0167974 12.599897 1.3498231
2.233156 12.606135 1.3471175
2.900239 12.625366 1.3387757
4.9570085 12.68466 1.3130557
11.298499 12.867479 1.2337553
30.850765 13.43115 0.98925413
5.6327222 38.961016 1.4386774
5.6469359 38.961425 1.4384997
5.6694365 38.962074 1.4382183
5.7396093 38.964097 1.4373408
5.9559679 38.970334 1.4346352
6.6230509 38.989566 1.4262934
8.6798203 39.04886 1.4005734
15.021311 39.231679 1.321273
34.573577 39.79535 1.0767718
0.40540587 -0.16385914 4.0571459
0.41961964 -0.16344937 4.0569681
0.44212024 -0.1628007 4.0566868
0.51229298 -0.1607777 4.0558093
0.72865157 -0.15454031 4.0531037
1.3957346 -0.135309 4.0447618
3.4525041 -0.076014499 4.0190419
9.7939947 0.10680402 3.9397415
29.34626 0.6704753 3.6952403
0.40811221 -0.14469334 4.0572095
0.42232599 -0.14428357 4.0570318
0.44482659 -0.1436349 4.0567504
0.51499933 -0.1416119 4.0558729
0.73135792 -0.1353745 4.0531673
1.3984409 -0.1161432 4.0448254
3.4552104 -0.056848698 4.0191055
9.796701 0.12596982 3.9398051
29.348967 0.6896411 3.6953039
0.4123964 -0.11435361 4.0573102
0.42661017 -0.11394384 4.0571325
0.44911078 -0.11329518 4.0568511
0.51928351 -0.11127217 4.0559736
0.7356421 -0.10503478 4.053268
1.4027251 -0.085803476 4.0449261
3.4594946 -0.026508973 4.0192062
9.8009852 0.15630954 3.9399058
29.353251 0.71998083 3.6954046
0.4257575 -0.019732966 4.0576243
0.43997128 -0.019323198 4.0574466
0.46247188 -0.018674529 4.0571652
0.53264462 -0.016651523 4.0562877
0.74900321 -0.010414132 4.0535821
1.4160862 0.0088171708 4.0452402
3.4728557 0.068111675 4.0195203
9.8143463 0.25093019 3.9402199
29.366612 0.81460147 3.6957187
0.46695285 0.27200413 4.0585928
0.48116662 0.27241389 4.058415
0.50366723 0.27306256 4.0581336
0.57383996 0.27508557 4.0572561
0.79019855 0.28132296 4.0545506
1.4572816 0.30055426 4.0462087
3.514051 0.35984877 4.0204888
9.8555416 0.54266728 3.9411884
29.407807 1.1063386 3.6966872
0.59396752 1.1714963 4.0615787
0.60818129 1.1719061 4.0614009
0.6306819 1.1725547 4.0611196
0.70085463 1.1745777 4.0602421
0.91721322 1.1808151 4.0575365
1.5842962 1.2000464 4.0491946
3.6410657 1.2593409 4.0234747
9.9825563 1.4421594 3.9441743
29.534822 2.0058307 3.6996731
0.98558279 3.9448363 4.070785
0.99979657 3.9452461 4.0706072
1.0222972 3.9458948 4.0703258
1.0924699 3.9479178 4.0694483
1.3088285 3.9541552 4.0667428
1.9759115 3.9733865 4.0584009
4.032681 4.032681 4.032681
10.374172 4.2154995 3.9533806
29.926437 4.7791708 3.7088794
2.1930222 12.495678 4.09917
2.207236 12.496088 4.0989923
2.2297366 12.496736 4.0987109
2.2999093 12.498759 4.0978334
2.5162679 12.504997 4.0951279
3.1833509 12.524228 4.086786
5.2401204 12.583523 4.0610661
11.581611 12.766341 3.9817657
31.133877 13.330012 3.7372645
5.9158341 38.859878 4.1866877
5.9300479 38.860287 4.18651
5.9525485 38.860936 4.1862286
6.0227212 38.862959 4.1853511
6.2390798 38.869197 4.1826456
6.9061628 38.888428 4.1743037
8.9629323 38.947722 4.1485838
15.304423 39.130541 4.0692834
34.856689 39.694212 3.8247822
1.2783048 -0.47569027 12.52989
1.2925185 -0.4752805 12.529712
1.3150191 -0.47463183 12.529431
1.3851919 -0.47260882 12.528553
1.6015505 -0.46637143 12.525848
2.2686335 -0.44714013 12.517506
4.3254029 -0.38784563 12.491786
10.666894 -0.20502711 12.412486
30.219159 0.35864417 12.167985
1.2810111 -0.45652447 12.529954
1.2952249 -0.4561147 12.529776
1.3177255 -0.45546603 12.529495
1.3878982 -0.45344302 12.528617
1.6042568 -0.44720563 12.525912
2.2713398 -0.42797433 12.51757
4.3281093 -0.36867982 12.49185
10.6696 -0.18586131 12.412549
30.221866 0.37780997 12.168048
1.2852953 -0.42618474 12.530054
1.2995091 -0.42577497 12.529877
1.3220097 -0.4251263 12.529595
1.3921824 -0.4231033 12.528718
1.608541 -0.41686591 12.526012
2.275624 -0.3976346 12.51767
4.3323935 -0.3383401 12.49195
10.673884 -0.15552158 12.41265
30.22615 0.4081497 12.168149
1.2986564 -0.33156409 12.530369
1.3128702 -0.33115432 12.530191
1.3353708 -0.33050566 12.529909
1.4055435 -0.32848265 12.529032
1.6219021 -0.32224526 12.526326
2.2889851 -0.30301396 12.517984
4.3457546 -0.24371945 12.492265
10.687245 -0.060900937 12.412964
30.239511 0.50277035 12.168463
1.3398517 -0.039827 12.531337
1.3540655 -0.039417232 12.531159
1.3765661 -0.038768563 12.530878
1.4467389 -0.036745557 12.53
1.6630974 -0.030508166 12.527295
2.3301805 -0.011276863 12.518953
4.3869499 0.048017641 12.493233
10.728441 0.23083615 12.413933
30.280706 0.79450744 12.169431
1.4668664 0.85966517 12.534323
1.4810802 0.86007494 12.534145
1.5035808 0.8607236 12.533864
1.5737535 0.86274661 12.532986
1.7901121 0.868984 12.530281
2.4571951 0.8882153 12.521939
4.5139646 0.94750981 12.496219
10.855455 1.1303283 12.416919
30.407721 1.6939996 12.172417
1.8584817 3.6330052 12.543529
1.8726955 3.633415 12.543351
1.8951961 3.6340636 12.54307
1.9653688 3.6360867 12.542193
2.1817274 3.642324 12.539487
2.8488104 3.6615553 12.531145
4.9055799 3.7208499 12.505425
11.24707 3.9036684 12.426125
30.799336 4.4673397 12.181624
3.0659211 12.183847 12.571914
3.0801349 12.184257 12.571737
3.1026355 12.184905 12.571455
3.1728082 12.186928 12.570578
3.3891668 12.193166 12.567872
4.0562498 12.212397 12.55953
6.1130193 12.271691 12.53381
12.45451 12.45451 12.45451
32.006776 13.018181 12.210009
6.788733 38.548047 12.659432
6.8029468 38.548456 12.659254
6.8254474 38.549105 12.658973
6.8956201 38.551128 12.658095
7.1119787 38.557365 12.65539
7.7790617 38.576597 12.647048
9.8358312 38.635891 12.621328
16.177322 38.81871 12.542028
35.729587 39.382381 12.297526
3.9696516 -1.4371369 38.653298
3.9838654 -1.4367272 38.65312
4.006366 -1.4360785 38.652839
4.0765388 -1.4340555 38.651961
4.2928973 -1.4278181 38.649256
4.9599804 -1.4085868 38.640914
7.0167498 -1.3492923 38.615194
13.35824 -1.1664738 38.535894
32.910506 -0.6028025 38.291392
3.972358 -1.4179711 38.653362
3.9865718 -1.4175614 38.653184
4.0090724 -1.4169127 38.652903
4.0792451 -1.4148897 38.652025
4.2956037 -1.4086523 38.649319
4.9626867 -1.389421 38.640978
7.0194562 -1.3301265 38.615258
13.360947 -1.147308 38.535957
32.913212 -0.58363669 38.291456
3.9766422 -1.3876314 38.653462
3.9908559 -1.3872216 38.653285
4.0133565 -1.386573 38.653003
4.0835293 -1.38455 38.652126
4.2998879 -1.3783126 38.64942
4.9669709 -1.3590813 38.641078
7.0237404 -1.2997868 38.615358
13.365231 -1.1169683 38.536058
32.917497 -0.55329697 38.291557
3.9900033 -1.2930108 38.653776
4.0042171 -1.292601 38.653599
4.0267177 -1.2919523 38.653317
4.0968904 -1.2899293 38.65244
4.313249 -1.2836919 38.649734
4.980332 -1.2644606 38.641392
7.0371015 -1.2051661 38.615673
13.378592 -1.0223476 38.536372
32.930858 -0.45867632 38.291871
4.0311986 -1.0012737 38.654745
4.0454124 -1.0008639 38.654567
4.067913 -1.0002152 38.654286
4.1380857 -0.99819223 38.653408
4.3544443 -0.99195484 38.650703
5.0215273 -0.97272353 38.642361
7.0782968 -0.91342903 38.616641
13.419787 -0.73061051 38.537341
32.972053 -0.16693923 38.292839
4.1582133 -0.1017815 38.657731
4.1724271 -0.10137173 38.657553
4.1949277 -0.10072307 38.657272
4.2651004 -0.098700059 38.656394
4.481459 -0.092462668 38.653689
5.148542 -0.073231365 38.645347
7.2053115 -0.013936861 38.619627
13.546802 0.16888165 38.540326
33.099068 0.73255294 38.295825
4.5498286 2.6715585 38.666937
4.5640423 2.6719683 38.666759
4.5865429 2.672617 38.666478
4.6567157 2.67464 38.665601
4.8730743 2.6808774 38.662895
5.5401573 2.7001087 38.654553
7.5969268 2.7594032 38.628833
13.938417 2.9422217 38.549533
33.490683 3.505893 38.305032
5.757268 11.2224 38.695322
5.7714818 11.22281 38.695144
5.7939824 11.223459 38.694863
5.8641551 11.225482 38.693986
6.0805137 11.231719 38.69128
6.7475967 11.25095 38.682938
8.8043662 11.310245 38.657218
15.145857 11.493063 38.577918
34.698122 12.056735 38.333417
9.4800799 37.5866 38.78284
9.4942937 37.58701 38.782662
9.5167943 37.587658 38.782381
9.586967 37.589681 38.781503
9.8033256 37.595919 38.778798
10.470409 37.61515 38.770456
12.527178 37.674445 38.744736
18.868669 37.857263 38.665436
38.420934 38.420934 38.420934
