site/assets/luts/ocio-aces--appleinputapple-log-curve--f0cfcc059.cube
# LUTr-Project: LUTr — LUTrepository
# LUTr-Schema-Version: 1
# LUTr-ID: ocio-aces--appleinputapple-log-curve--f0cfcc059
# LUTr-Title: Apple.Input.Apple Log-Curve
# LUTr-Collection: OCIO ACES
# LUTr-Collection-ID: aswf-opencolorio-config-aces
# LUTr-Source: https://github.com/AcademySoftwareFoundation/OpenColorIO-Config-ACES
# LUTr-Source-File: submissions/aswf-opencolorio-config-aces/opencolorio_config_aces/clf/transforms/apple/input/Apple.Input.Apple_Log-Curve.clf
# LUTr-Source-Format: CLF
# LUTr-Source-SHA256: d174df49d3e327662d67a26c0b602da39acc31a678c0700c9e257fdabc2f27da
# LUTr-License: BSD-3-Clause
# LUTr-License-URL: https://github.com/AcademySoftwareFoundation/OpenColorIO-Config-ACES/blob/main/LICENSE
# LUTr-Tags: technical, aces, ocio, clf, color-management, cube
# LUTr-Transform-Class: color-space-conversion
# LUTr-Input-Color-Space: Apple Log (arbitrary primaries)
# LUTr-Output-Color-Space: Linear (arbitrary primaries)
# LUTr-Color-Space-Confidence: descriptor-only
# LUTr-Conversion-Method: CLF operations evaluated as float and sampled to 33x33x33 3D CUBE
# LUTr-Conversion-Date: 2026-07-27
# LUTr-Conversion-Tool: LUTr scripts/convert-all-to-cube.mjs
# LUTr-Conversion-Grid: 33x33x33
# LUTr-Conversion-Warning: A sampled 3D CUBE is bounded to DOMAIN_MIN/MAX 0..1 and cannot preserve CLF values outside its input domain.
# LUTr-Upstream-ID: urn:aswf:ocio:transformId:1.0:Apple:Input:Apple_Log-Curve_to_Linear:1.0
# LUTr-Upstream-Name: Apple Log to Linear Curve
# LUTr-Upstream-Input-Descriptor: Apple Log (arbitrary primaries)
# LUTr-Upstream-Output-Descriptor: Linear (arbitrary primaries)
# LUTr-Upstream-Builtin-Transform: CURVE - APPLE_LOG_to_LINEAR
# LUTr-Upstream-Operations: LUT1D
# LUTr-Note: Preserve this metadata and the upstream license notices when redistributing.
TITLE "Apple.Input.Apple Log-Curve"
LUT_3D_SIZE 5
DOMAIN_MIN 0 0 0
DOMAIN_MAX 1 1 1
-0.056410879 -0.056410879 -0.056410879
0.017842472 -0.056410879 -0.056410879
0.19891389 -0.056410879 -0.056410879
1.5729724 -0.056410879 -0.056410879
12.000002 -0.056410879 -0.056410879
-0.056410879 0.017842472 -0.056410879
0.017842472 0.017842472 -0.056410879
0.19891389 0.017842472 -0.056410879
1.5729724 0.017842472 -0.056410879
12.000002 0.017842472 -0.056410879
-0.056410879 0.19891389 -0.056410879
0.017842472 0.19891389 -0.056410879
0.19891389 0.19891389 -0.056410879
1.5729724 0.19891389 -0.056410879
12.000002 0.19891389 -0.056410879
-0.056410879 1.5729724 -0.056410879
0.017842472 1.5729724 -0.056410879
0.19891389 1.5729724 -0.056410879
1.5729724 1.5729724 -0.056410879
12.000002 1.5729724 -0.056410879
-0.056410879 12.000002 -0.056410879
0.017842472 12.000002 -0.056410879
0.19891389 12.000002 -0.056410879
1.5729724 12.000002 -0.056410879
12.000002 12.000002 -0.056410879
-0.056410879 -0.056410879 0.017842472
0.017842472 -0.056410879 0.017842472
0.19891389 -0.056410879 0.017842472
1.5729724 -0.056410879 0.017842472
12.000002 -0.056410879 0.017842472
-0.056410879 0.017842472 0.017842472
0.017842472 0.017842472 0.017842472
0.19891389 0.017842472 0.017842472
1.5729724 0.017842472 0.017842472
12.000002 0.017842472 0.017842472
-0.056410879 0.19891389 0.017842472
0.017842472 0.19891389 0.017842472
0.19891389 0.19891389 0.017842472
1.5729724 0.19891389 0.017842472
12.000002 0.19891389 0.017842472
-0.056410879 1.5729724 0.017842472
0.017842472 1.5729724 0.017842472
0.19891389 1.5729724 0.017842472
1.5729724 1.5729724 0.017842472
12.000002 1.5729724 0.017842472
-0.056410879 12.000002 0.017842472
0.017842472 12.000002 0.017842472
0.19891389 12.000002 0.017842472
1.5729724 12.000002 0.017842472
12.000002 12.000002 0.017842472
-0.056410879 -0.056410879 0.19891389
0.017842472 -0.056410879 0.19891389
0.19891389 -0.056410879 0.19891389
1.5729724 -0.056410879 0.19891389
12.000002 -0.056410879 0.19891389
-0.056410879 0.017842472 0.19891389
0.017842472 0.017842472 0.19891389
0.19891389 0.017842472 0.19891389
1.5729724 0.017842472 0.19891389
12.000002 0.017842472 0.19891389
-0.056410879 0.19891389 0.19891389
0.017842472 0.19891389 0.19891389
0.19891389 0.19891389 0.19891389
1.5729724 0.19891389 0.19891389
12.000002 0.19891389 0.19891389
-0.056410879 1.5729724 0.19891389
0.017842472 1.5729724 0.19891389
0.19891389 1.5729724 0.19891389
1.5729724 1.5729724 0.19891389
12.000002 1.5729724 0.19891389
-0.056410879 12.000002 0.19891389
0.017842472 12.000002 0.19891389
0.19891389 12.000002 0.19891389
1.5729724 12.000002 0.19891389
12.000002 12.000002 0.19891389
-0.056410879 -0.056410879 1.5729724
0.017842472 -0.056410879 1.5729724
0.19891389 -0.056410879 1.5729724
1.5729724 -0.056410879 1.5729724
12.000002 -0.056410879 1.5729724
-0.056410879 0.017842472 1.5729724
0.017842472 0.017842472 1.5729724
0.19891389 0.017842472 1.5729724
1.5729724 0.017842472 1.5729724
12.000002 0.017842472 1.5729724
-0.056410879 0.19891389 1.5729724
0.017842472 0.19891389 1.5729724
0.19891389 0.19891389 1.5729724
1.5729724 0.19891389 1.5729724
12.000002 0.19891389 1.5729724
-0.056410879 1.5729724 1.5729724
0.017842472 1.5729724 1.5729724
0.19891389 1.5729724 1.5729724
1.5729724 1.5729724 1.5729724
12.000002 1.5729724 1.5729724
-0.056410879 12.000002 1.5729724
0.017842472 12.000002 1.5729724
0.19891389 12.000002 1.5729724
1.5729724 12.000002 1.5729724
12.000002 12.000002 1.5729724
-0.056410879 -0.056410879 12.000002
0.017842472 -0.056410879 12.000002
0.19891389 -0.056410879 12.000002
1.5729724 -0.056410879 12.000002
12.000002 -0.056410879 12.000002
-0.056410879 0.017842472 12.000002
0.017842472 0.017842472 12.000002
0.19891389 0.017842472 12.000002
1.5729724 0.017842472 12.000002
12.000002 0.017842472 12.000002
-0.056410879 0.19891389 12.000002
0.017842472 0.19891389 12.000002
0.19891389 0.19891389 12.000002
1.5729724 0.19891389 12.000002
12.000002 0.19891389 12.000002
-0.056410879 1.5729724 12.000002
0.017842472 1.5729724 12.000002
0.19891389 1.5729724 12.000002
1.5729724 1.5729724 12.000002
12.000002 1.5729724 12.000002
-0.056410879 12.000002 12.000002
0.017842472 12.000002 12.000002
0.19891389 12.000002 12.000002
1.5729724 12.000002 12.000002
12.000002 12.000002 12.000002
