site/assets/luts/ocio-aces--redinputlinear-redwidegamutrgb-to-aces2065-1--c238aa9d4.cube
# LUTr-Project: LUTr — LUTrepository
# LUTr-Schema-Version: 1
# LUTr-ID: ocio-aces--redinputlinear-redwidegamutrgb-to-aces2065-1--c238aa9d4
# LUTr-Title: RED.Input.Linear REDWideGamutRGB to ACES2065-1
# LUTr-Collection: OCIO ACES
# LUTr-Collection-ID: aswf-opencolorio-config-aces
# LUTr-Source: https://github.com/AcademySoftwareFoundation/OpenColorIO-Config-ACES
# LUTr-Source-File: submissions/aswf-opencolorio-config-aces/opencolorio_config_aces/clf/transforms/red/input/RED.Input.Linear_REDWideGamutRGB_to_ACES2065-1.clf
# LUTr-Source-Format: CLF
# LUTr-Source-SHA256: 785d8b60da3c8f2b367f51a64f11d71cad2547cdf059e40e8dae810d44648970
# LUTr-License: BSD-3-Clause
# LUTr-License-URL: https://github.com/AcademySoftwareFoundation/OpenColorIO-Config-ACES/blob/main/LICENSE
# LUTr-Tags: technical, aces, ocio, clf, color-management, cube
# LUTr-Transform-Class: color-space-conversion
# LUTr-Input-Color-Space: Linear REDWideGamutRGB
# LUTr-Output-Color-Space: ACES2065-1
# LUTr-Color-Space-Confidence: descriptor-only
# LUTr-Conversion-Method: CLF operations evaluated as float and sampled to 33x33x33 3D CUBE
# LUTr-Conversion-Date: 2026-07-27
# LUTr-Conversion-Tool: LUTr scripts/convert-all-to-cube.mjs
# LUTr-Conversion-Grid: 33x33x33
# LUTr-Conversion-Warning: A sampled 3D CUBE is bounded to DOMAIN_MIN/MAX 0..1 and cannot preserve CLF values outside its input domain.
# LUTr-Upstream-ID: urn:aswf:ocio:transformId:1.0:RED:Input:Linear_REDWideGamutRGB_to_ACES2065-1:1.0
# LUTr-Upstream-Name: Linear REDWideGamutRGB to ACES2065-1
# LUTr-Upstream-Input-Descriptor: Linear REDWideGamutRGB
# LUTr-Upstream-Output-Descriptor: ACES2065-1
# LUTr-Upstream-Operations: Matrix
# LUTr-Note: Preserve this metadata and the upstream license notices when redistributing.
TITLE "RED.Input.Linear REDWideGamutRGB to ACES2065-1"
LUT_3D_SIZE 9
DOMAIN_MIN 0 0 0
DOMAIN_MAX 1 1 1
0 0 0
0.098132351 0.0028967294 -0.0092200544
0.1962647 0.0057934587 -0.018440109
0.29439705 0.0086901881 -0.027660163
0.3925294 0.011586917 -0.036880218
0.49066175 0.014483647 -0.046100272
0.5887941 0.017380376 -0.055320327
0.68692645 0.020277105 -0.064540381
0.7850588 0.023173835 -0.073760435
0.010482345 0.13598719 -0.039323759
0.1086147 0.13888392 -0.048543813
0.20674705 0.14178065 -0.057763868
0.3048794 0.14467738 -0.066983922
0.40301175 0.14757411 -0.076203977
0.5011441 0.15047084 -0.085424031
0.59927645 0.15336757 -0.094644086
0.6974088 0.1562643 -0.10386414
0.79554115 0.15916103 -0.11308419
0.020964689 0.27197439 -0.078647518
0.11909704 0.27487112 -0.087867572
0.21722939 0.27776785 -0.097087627
0.31536174 0.28066458 -0.10630768
0.41349409 0.2835613 -0.11552774
0.51162644 0.28645803 -0.12474779
0.60975879 0.28935476 -0.13396784
0.70789114 0.29225149 -0.1431879
0.80602349 0.29514822 -0.15240795
0.031447034 0.40796158 -0.11797128
0.12957938 0.41085831 -0.12719133
0.22771173 0.41375504 -0.13641139
0.32584409 0.41665177 -0.14563144
0.42397644 0.4195485 -0.15485149
0.52210879 0.42244523 -0.16407155
0.62024114 0.42534196 -0.1732916
0.71837349 0.42823869 -0.18251166
0.81650584 0.43113542 -0.19173171
0.041929378 0.54394877 -0.15729504
0.14006173 0.5468455 -0.16651509
0.23819408 0.54974223 -0.17573514
0.33632643 0.55263896 -0.1849552
0.43445878 0.55553569 -0.19417525
0.53259113 0.55843242 -0.20339531
0.63072348 0.56132915 -0.21261536
0.72885583 0.56422588 -0.22183542
0.82698818 0.56712261 -0.23105547
0.052411723 0.67993597 -0.1966188
0.15054407 0.6828327 -0.20583885
0.24867642 0.68572943 -0.2150589
0.34680877 0.68862616 -0.22427896
0.44494112 0.69152289 -0.23349901
0.54307348 0.69441962 -0.24271907
0.64120583 0.69731634 -0.25193912
0.73933818 0.70021307 -0.26115918
0.83747053 0.7031098 -0.27037923
0.062894067 0.81592316 -0.23594255
0.16102642 0.81881989 -0.24516261
0.25915877 0.82171662 -0.25438266
0.35729112 0.82461335 -0.26360272
0.45542347 0.82751008 -0.27282277
0.55355582 0.83040681 -0.28204283
0.65168817 0.83330354 -0.29126288
0.74982052 0.83620027 -0.30048294
0.84795287 0.839097 -0.30970299
0.073376412 0.95191036 -0.27526631
0.17150876 0.95480708 -0.28448637
0.26964111 0.95770381 -0.29370642
0.36777346 0.96060054 -0.30292648
0.46590581 0.96349727 -0.31214653
0.56403816 0.966394 -0.32136659
0.66217052 0.96929073 -0.33058664
0.76030287 0.97218746 -0.33980669
0.85843522 0.97508419 -0.34902675
0.083858757 1.0878975 -0.31459007
0.18199111 1.0907943 -0.32381013
0.28012346 1.093691 -0.33303018
0.37825581 1.0965877 -0.34225024
0.47638816 1.0994845 -0.35147029
0.57452051 1.1023812 -0.36069034
0.67265286 1.1052779 -0.3699104
0.77078521 1.1081747 -0.37913045
0.86891756 1.1110714 -0.38835051
0.016385305 -0.013883923 0.17354381
0.11451766 -0.010987194 0.16432376
0.21265001 -0.0080904643 0.1551037
0.31078236 -0.0051937349 0.14588365
0.40891471 -0.0022970056 0.1366636
0.50704706 0.00059972377 0.12744354
0.60517941 0.0034964531 0.11822349
0.70331176 0.0063931825 0.10900343
0.80144411 0.0092899118 0.099783378
0.026867649 0.12210327 0.13422005
0.125 0.125 0.125
0.22313235 0.12789673 0.11577995
0.3212647 0.13079346 0.10655989
0.41939705 0.13369019 0.097339837
0.5175294 0.13658692 0.088119782
0.61566175 0.13948365 0.078899728
0.7137941 0.14238038 0.069679673
0.81192645 0.14527711 0.060459619
0.037349994 0.25809046 0.094896295
0.13548234 0.26098719 0.085676241
0.2336147 0.26388392 0.076456187
0.33174705 0.26678065 0.067236132
0.4298794 0.26967738 0.058016078
0.52801175 0.27257411 0.048796023
0.6261441 0.27547084 0.039575969
0.72427645 0.27836757 0.030355914
0.8224088 0.2812643 0.02113586
0.047832339 0.39407766 0.055572536
0.14596469 0.39697439 0.046352482
0.24409704 0.39987112 0.037132428
0.34222939 0.40276785 0.027912373
0.44036174 0.40566458 0.018692319
0.53849409 0.4085613 0.0094722642
0.63662644 0.41145803 0.00025220982
0.73475879 0.41435476 -0.0089678446
0.83289114 0.41725149 -0.018187899
0.058314683 0.53006485 0.016248777
0.15644703 0.53296158 0.0070287229
0.25457938 0.53585831 -0.0021913315
0.35271173 0.53875504 -0.011411386
0.45084409 0.54165177 -0.02063144
0.54897644 0.5445485 -0.029851495
0.64710879 0.54744523 -0.039071549
0.74524114 0.55034196 -0.048291604
0.84337349 0.55323869 -0.057511658
0.068797028 0.66605205 -0.023074982
0.16692938 0.66894877 -0.032295036
0.26506173 0.6718455 -0.041515091
0.36319408 0.67474223 -0.050735145
0.46132643 0.67763896 -0.059955199
0.55945878 0.68053569 -0.069175254
0.65759113 0.68343242 -0.078395308
0.75572348 0.68632915 -0.087615363
0.85385583 0.68922588 -0.096835417
0.079279372 0.80203924 -0.062398741
0.17741172 0.80493597 -0.071618795
0.27554407 0.8078327 -0.08083885
0.37367642 0.81072943 -0.090058904
0.47180877 0.81362616 -0.099278958
0.56994112 0.81652289 -0.10849901
0.66807348 0.81941962 -0.11771907
0.76620583 0.82231634 -0.12693912
0.86433818 0.82521307 -0.13615918
0.089761717 0.93802643 -0.1017225
0.18789407 0.94092316 -0.11094255
0.28602642 0.94381989 -0.12016261
0.38415877 0.94671662 -0.12938266
0.48229112 0.94961335 -0.13860272
0.58042347 0.95251008 -0.14782277
0.67855582 0.95540681 -0.15704283
0.77668817 0.95830354 -0.16626288
0.87482052 0.96120027 -0.17548294
0.10024406 1.0740136 -0.14104626
0.19837641 1.0769104 -0.15026631
0.29650876 1.0798071 -0.15948637
0.39464111 1.0827038 -0.16870642
0.49277346 1.0856005 -0.17792648
0.59090581 1.0884973 -0.18714653
0.68903816 1.091394 -0.19636659
0.78717052 1.0942907 -0.20558664
0.88530287 1.0971875 -0.21480669
0.03277061 -0.027767846 0.34708763
0.13090296 -0.024871117 0.33786757
0.22903531 -0.021974387 0.32864752
0.32716766 -0.019077658 0.31942746
0.42530001 -0.016180929 0.31020741
0.52343236 -0.013284199 0.30098735
0.62156471 -0.01038747 0.2917673
0.71969706 -0.0074907405 0.28254725
0.81782941 -0.0045940112 0.27332719
0.043252954 0.10821935 0.30776387
0.1413853 0.11111608 0.29854381
0.23951766 0.11401281 0.28932376
0.33765001 0.11690954 0.2801037
0.43578236 0.11980627 0.27088365
0.53391471 0.12270299 0.2616636
0.63204706 0.12559972 0.25244354
0.73017941 0.12849645 0.24322349
0.82831176 0.13139318 0.23400343
0.053735299 0.24420654 0.26844011
0.15186765 0.24710327 0.25922005
0.25 0.25 0.25
0.34813235 0.25289673 0.24077995
0.4462647 0.25579346 0.23155989
0.54439705 0.25869019 0.22233984
0.6425294 0.26158692 0.21311978
0.74066175 0.26448365 0.20389973
0.8387941 0.26738038 0.19467967
0.064217644 0.38019373 0.22911635
0.16234999 0.38309046 0.2198963
0.26048234 0.38598719 0.21067624
0.3586147 0.38888392 0.20145619
0.45674705 0.39178065 0.19223613
0.5548794 0.39467738 0.18301608
0.65301175 0.39757411 0.17379602
0.7511441 0.40047084 0.16457597
0.84927645 0.40336757 0.15535591
0.074699988 0.51618093 0.18979259
0.17283234 0.51907766 0.18057254
0.27096469 0.52197439 0.17135248
0.36909704 0.52487112 0.16213243
0.46722939 0.52776785 0.15291237
0.56536174 0.53066458 0.14369232
0.66349409 0.5335613 0.13447226
0.76162644 0.53645803 0.12525221
0.85975879 0.53935476 0.11603216
0.085182333 0.65216812 0.15046883
0.18331468 0.65506485 0.14124878
0.28144703 0.65796158 0.13202872
0.37957938 0.66085831 0.12280867
0.47771173 0.66375504 0.11358861
0.57584409 0.66665177 0.10436856
0.67397644 0.6695485 0.095148505
0.77210879 0.67244523 0.085928451
0.87024114 0.67534196 0.076708396
0.095664677 0.78815532 0.11114507
0.19379703 0.79105205 0.10192502
0.29192938 0.79394877 0.092704964
0.39006173 0.7968455 0.083484909
0.48819408 0.79974223 0.074264855
0.58632643 0.80263896 0.065044801
0.68445878 0.80553569 0.055824746
0.78259113 0.80843242 0.046604692
0.88072348 0.81132915 0.037384637
0.10614702 0.92414251 0.071821314
0.20427937 0.92703924 0.062601259
0.30241172 0.92993597 0.053381205
0.40054407 0.9328327 0.04416115
0.49867642 0.93572943 0.034941096
0.59680877 0.93862616 0.025721042
0.69494112 0.94152289 0.016500987
0.79307348 0.94441962 0.0072809327
0.89120583 0.94731634 -0.0019391217
0.11662937 1.0601297 0.032497555
0.21476172 1.0630264 0.0232775
0.31289407 1.0659232 0.014057446
0.41102642 1.0688199 0.0048373914
0.50915877 1.0717166 -0.0043826631
0.60729112 1.0746133 -0.013602717
0.70542347 1.0775101 -0.022822772
0.80355582 1.0804068 -0.032042826
0.90168817 1.0833035 -0.041262881
0.049155915 -0.041651769 0.52063144
0.14728827 -0.03875504 0.51141139
0.24542062 -0.03585831 0.50219133
0.34355297 -0.032961581 0.49297128
0.44168532 -0.030064852 0.48375122
0.53981767 -0.027168122 0.47453117
0.63795002 -0.024271393 0.46531111
0.73608237 -0.021374664 0.45609106
0.83421472 -0.018477934 0.44687101
0.059638259 0.094335425 0.48130768
0.15777061 0.097232154 0.47208763
0.25590296 0.10012888 0.46286757
0.35403531 0.10302561 0.45364752
0.45216766 0.10592234 0.44442746
0.55030001 0.10881907 0.43520741
0.64843236 0.1117158 0.42598735
0.74656471 0.11461253 0.4167673
0.84469706 0.11750926 0.40754725
0.070120604 0.23032262 0.44198392
0.16825295 0.23321935 0.43276387
0.2663853 0.23611608 0.42354381
0.36451766 0.23901281 0.41432376
0.46265001 0.24190954 0.4051037
0.56078236 0.24480627 0.39588365
0.65891471 0.24770299 0.3866636
0.75704706 0.25059972 0.37744354
0.85517941 0.25349645 0.36822349
0.080602948 0.36630981 0.40266016
0.1787353 0.36920654 0.39344011
0.27686765 0.37210327 0.38422005
0.375 0.375 0.375
0.47313235 0.37789673 0.36577995
0.5712647 0.38079346 0.35655989
0.66939705 0.38369019 0.34733984
0.7675294 0.38658692 0.33811978
0.86566175 0.38948365 0.32889973
0.091085293 0.50229701 0.3633364
0.18921764 0.50519373 0.35411635
0.28734999 0.50809046 0.3448963
0.38548234 0.51098719 0.33567624
0.4836147 0.51388392 0.32645619
0.58174705 0.51678065 0.31723613
0.6798794 0.51967738 0.30801608
0.77801175 0.52257411 0.29879602
0.8761441 0.52547084 0.28957597
0.10156764 0.6382842 0.32401265
0.19969999 0.64118093 0.31479259
0.29783234 0.64407766 0.30557254
0.39596469 0.64697439 0.29635248
0.49409704 0.64987112 0.28713243
0.59222939 0.65276785 0.27791237
0.69036174 0.65566458 0.26869232
0.78849409 0.6585613 0.25947226
0.88662644 0.66145803 0.25025221
0.11204998 0.77427139 0.28468889
0.21018233 0.77716812 0.27546883
0.30831468 0.78006485 0.26624878
0.40644703 0.78296158 0.25702872
0.50457938 0.78585831 0.24780867
0.60271173 0.78875504 0.23858861
0.70084409 0.79165177 0.22936856
0.79897644 0.7945485 0.22014851
0.89710879 0.79744523 0.21092845
0.12253233 0.91025859 0.24536513
0.22066468 0.91315532 0.23614507
0.31879703 0.91605205 0.22692502
0.41692938 0.91894877 0.21770496
0.51506173 0.9218455 0.20848491
0.61319408 0.92474223 0.19926486
0.71132643 0.92763896 0.1900448
0.80945878 0.93053569 0.18082475
0.90759113 0.93343242 0.17160469
0.13301467 1.0462458 0.20604137
0.23114702 1.0491425 0.19682131
0.32927937 1.0520392 0.18760126
0.42741172 1.054936 0.1783812
0.52554407 1.0578327 0.16916115
0.62367642 1.0607294 0.1599411
0.72180877 1.0636262 0.15072104
0.81994112 1.0665229 0.14150099
0.91807348 1.0694196 0.13228093
0.06554122 -0.055535692 0.69417525
0.16367357 -0.052638963 0.6849552
0.26180592 -0.049742233 0.67573514
0.35993827 -0.046845504 0.66651509
0.45807062 -0.043948775 0.65729504
0.55620297 -0.041052045 0.64807498
0.65433532 -0.038155316 0.63885493
0.75246767 -0.035258587 0.62963487
0.85060002 -0.032361857 0.62041482
0.076023564 0.080451502 0.65485149
0.17415591 0.083348231 0.64563144
0.27228827 0.08624496 0.63641139
0.37042062 0.08914169 0.62719133
0.46855297 0.092038419 0.61797128
0.56668532 0.094935148 0.60875122
0.66481767 0.097831878 0.59953117
0.76295002 0.10072861 0.59031111
0.86108237 0.10362534 0.58109106
0.086505909 0.2164387 0.61552774
0.18463826 0.21933542 0.60630768
0.28277061 0.22223215 0.59708763
0.38090296 0.22512888 0.58786757
0.47903531 0.22802561 0.57864752
0.57716766 0.23092234 0.56942746
0.67530001 0.23381907 0.56020741
0.77343236 0.2367158 0.55098735
0.87156471 0.23961253 0.5417673
0.096988253 0.35242589 0.57620398
0.1951206 0.35532262 0.56698392
0.29325295 0.35821935 0.55776387
0.3913853 0.36111608 0.54854381
0.48951766 0.36401281 0.53932376
0.58765001 0.36690954 0.5301037
0.68578236 0.36980627 0.52088365
0.78391471 0.37270299 0.5116636
0.88204706 0.37559972 0.50244354
0.1074706 0.48841308 0.53688022
0.20560295 0.49130981 0.52766016
0.3037353 0.49420654 0.51844011
0.40186765 0.49710327 0.50922005
0.5 0.5 0.5
0.59813235 0.50289673 0.49077995
0.6962647 0.50579346 0.48155989
0.79439705 0.50869019 0.47233984
0.8925294 0.51158692 0.46311978
0.11795294 0.62440028 0.49755646
0.21608529 0.62729701 0.4883364
0.31421764 0.63019373 0.47911635
0.41234999 0.63309046 0.4698963
0.51048234 0.63598719 0.46067624
0.6086147 0.63888392 0.45145619
0.70674705 0.64178065 0.44223613
0.8048794 0.64467738 0.43301608
0.90301175 0.64757411 0.42379602
0.12843529 0.76038747 0.4582327
0.22656764 0.7632842 0.44901265
0.32469999 0.76618093 0.43979259
0.42283234 0.76907766 0.43057254
0.52096469 0.77197439 0.42135248
0.61909704 0.77487112 0.41213243
0.71722939 0.77776785 0.40291237
0.81536174 0.78066458 0.39369232
0.91349409 0.7835613 0.38447226
0.13891763 0.89637466 0.41890894
0.23704998 0.89927139 0.40968889
0.33518233 0.90216812 0.40046883
0.43331468 0.90506485 0.39124878
0.53144703 0.90796158 0.38202872
0.62957938 0.91085831 0.37280867
0.72771173 0.91375504 0.36358861
0.82584409 0.91665177 0.35436856
0.92397644 0.9195485 0.34514851
0.14939998 1.0323619 0.37958518
0.24753233 1.0352586 0.37036513
0.34566468 1.0381553 0.36114507
0.44379703 1.041052 0.35192502
0.54192938 1.0439488 0.34270496
0.64006173 1.0468455 0.33348491
0.73819408 1.0497422 0.32426486
0.83632643 1.052639 0.3150448
0.93445878 1.0555357 0.30582475
0.081926525 -0.069419615 0.86771907
0.18005888 -0.066522886 0.85849901
0.27819123 -0.063626156 0.84927896
0.37632358 -0.060729427 0.8400589
0.47445593 -0.057832698 0.83083885
0.57258828 -0.054935968 0.8216188
0.67072063 -0.052039239 0.81239874
0.76885298 -0.04914251 0.80317869
0.86698533 -0.04624578 0.79395863
0.092408869 0.066567579 0.82839531
0.19054122 0.069464308 0.81917525
0.28867357 0.072361037 0.8099552
0.38680592 0.075257767 0.80073514
0.48493827 0.078154496 0.79151509
0.58307062 0.081051225 0.78229504
0.68120297 0.083947955 0.77307498
0.77933532 0.086844684 0.76385493
0.87746767 0.089741413 0.75463487
0.10289121 0.20255477 0.78907155
0.20102356 0.2054515 0.77985149
0.29915591 0.20834823 0.77063144
0.39728827 0.21124496 0.76141139
0.49542062 0.21414169 0.75219133
0.59355297 0.21703842 0.74297128
0.69168532 0.21993515 0.73375122
0.78981767 0.22283188 0.72453117
0.88795002 0.22572861 0.71531111
0.11337356 0.33854197 0.74974779
0.21150591 0.3414387 0.74052774
0.30963826 0.34433542 0.73130768
0.40777061 0.34723215 0.72208763
0.50590296 0.35012888 0.71286757
0.60403531 0.35302561 0.70364752
0.70216766 0.35592234 0.69442746
0.80030001 0.35881907 0.68520741
0.89843236 0.3617158 0.67598735
0.1238559 0.47452916 0.71042403
0.22198825 0.47742589 0.70120398
0.3201206 0.48032262 0.69198392
0.41825295 0.48321935 0.68276387
0.5163853 0.48611608 0.67354381
0.61451766 0.48901281 0.66432376
0.71265001 0.49190954 0.6551037
0.81078236 0.49480627 0.64588365
0.90891471 0.49770299 0.6366636
0.13433825 0.61051635 0.67110027
0.2324706 0.61341308 0.66188022
0.33060295 0.61630981 0.65266016
0.4287353 0.61920654 0.64344011
0.52686765 0.62210327 0.63422005
0.625 0.625 0.625
0.72313235 0.62789673 0.61577995
0.8212647 0.63079346 0.60655989
0.91939705 0.63369019 0.59733984
0.14482059 0.74650355 0.63177651
0.24295294 0.74940028 0.62255646
0.34108529 0.75229701 0.6133364
0.43921764 0.75519373 0.60411635
0.53734999 0.75809046 0.5948963
0.63548234 0.76098719 0.58567624
0.7336147 0.76388392 0.57645619
0.83174705 0.76678065 0.56723613
0.9298794 0.76967738 0.55801608
0.15530294 0.88249074 0.59245275
0.25343529 0.88538747 0.5832327
0.35156764 0.8882842 0.57401265
0.44969999 0.89118093 0.56479259
0.54783234 0.89407766 0.55557254
0.64596469 0.89697439 0.54635248
0.74409704 0.89987112 0.53713243
0.84222939 0.90276785 0.52791237
0.94036174 0.90566458 0.51869232
0.16578528 1.0184779 0.55312899
0.26391763 1.0213747 0.54390894
0.36204998 1.0242714 0.53468889
0.46018233 1.0271681 0.52546883
0.55831468 1.0300649 0.51624878
0.65644703 1.0329616 0.50702872
0.75457938 1.0358583 0.49780867
0.85271173 1.038755 0.48858861
0.95084409 1.0416518 0.47936856
0.09831183 -0.083303538 1.0412629
0.19644418 -0.080406809 1.0320428
0.29457653 -0.077510079 1.0228228
0.39270888 -0.07461335 1.0136027
0.49084123 -0.071716621 1.0043827
0.58897358 -0.068819891 0.99516261
0.68710593 -0.065923162 0.98594255
0.78523828 -0.063026433 0.9767225
0.88337063 -0.060129703 0.96750245
0.10879417 0.052683656 1.0019391
0.20692652 0.055580385 0.99271907
0.30505888 0.058477114 0.98349901
0.40319123 0.061373844 0.97427896
0.50132358 0.064270573 0.9650589
0.59945593 0.067167302 0.95583885
0.69758828 0.070064032 0.9466188
0.79572063 0.072960761 0.93739874
0.89385298 0.07585749 0.92817869
0.11927652 0.18867085 0.96261536
0.21740887 0.19156758 0.95339531
0.31554122 0.19446431 0.94417525
0.41367357 0.19736104 0.9349552
0.51180592 0.20025777 0.92573514
0.60993827 0.2031545 0.91651509
0.70807062 0.20605123 0.90729504
0.80620297 0.20894795 0.89807498
0.90433532 0.21184468 0.88885493
0.12975886 0.32465804 0.9232916
0.22789121 0.32755477 0.91407155
0.32602356 0.3304515 0.90485149
0.42415591 0.33334823 0.89563144
0.52228827 0.33624496 0.88641139
0.62042062 0.33914169 0.87719133
0.71855297 0.34203842 0.86797128
0.81668532 0.34493515 0.85875122
0.91481767 0.34783188 0.84953117
0.14024121 0.46064524 0.88396784
0.23837356 0.46354197 0.87474779
0.33650591 0.4664387 0.86552774
0.43463826 0.46933542 0.85630768
0.53277061 0.47223215 0.84708763
0.63090296 0.47512888 0.83786757
0.72903531 0.47802561 0.82864752
0.82716766 0.48092234 0.81942746
0.92530001 0.48381907 0.81020741
0.15072355 0.59663243 0.84464409
0.2488559 0.59952916 0.83542403
0.34698825 0.60242589 0.82620398
0.4451206 0.60532262 0.81698392
0.54325295 0.60821935 0.80776387
0.6413853 0.61111608 0.79854381
0.73951766 0.61401281 0.78932376
0.83765001 0.61690954 0.7801037
0.93578236 0.61980627 0.77088365
0.1612059 0.73261962 0.80532033
0.25933825 0.73551635 0.79610027
0.3574706 0.73841308 0.78688022
0.45560295 0.74130981 0.77766016
0.5537353 0.74420654 0.76844011
0.65186765 0.74710327 0.75922005
0.75 0.75 0.75
0.84813235 0.75289673 0.74077995
0.9462647 0.75579346 0.73155989
0.17168824 0.86860682 0.76599657
0.26982059 0.87150355 0.75677651
0.36795294 0.87440028 0.74755646
0.46608529 0.87729701 0.7383364
0.56421764 0.88019373 0.72911635
0.66234999 0.88309046 0.7198963
0.76048234 0.88598719 0.71067624
0.8586147 0.88888392 0.70145619
0.95674705 0.89178065 0.69223613
0.18217059 1.004594 0.72667281
0.28030294 1.0074907 0.71745275
0.37843529 1.0103875 0.7082327
0.47656764 1.0132842 0.69901265
0.57469999 1.0161809 0.68979259
0.67283234 1.0190777 0.68057254
0.77096469 1.0219744 0.67135248
0.86909704 1.0248711 0.66213243
0.96722939 1.0277678 0.65291237
0.11469713 -0.097187461 1.2148067
0.21282948 -0.094290732 1.2055866
0.31096184 -0.091394002 1.1963666
0.40909419 -0.088497273 1.1871465
0.50722654 -0.085600544 1.1779265
0.60535889 -0.082703814 1.1687064
0.70349124 -0.079807085 1.1594864
0.80162359 -0.076910356 1.1502663
0.89975594 -0.074013626 1.1410463
0.12517948 0.038799733 1.1754829
0.22331183 0.041696462 1.1662629
0.32144418 0.044593191 1.1570428
0.41957653 0.047489921 1.1478228
0.51770888 0.05038665 1.1386027
0.61584123 0.053283379 1.1293827
0.71397358 0.056180109 1.1201626
0.81210593 0.059076838 1.1109426
0.91023828 0.061973567 1.1017225
0.13566182 0.17478693 1.1361592
0.23379417 0.17768366 1.1269391
0.33192652 0.18058038 1.1177191
0.43005888 0.18347711 1.108499
0.52819123 0.18637384 1.099279
0.62632358 0.18927057 1.0900589
0.72445593 0.1921673 1.0808388
0.82258828 0.19506403 1.0716188
0.92072063 0.19796076 1.0623987
0.14614417 0.31077412 1.0968354
0.24427652 0.31367085 1.0876154
0.34240887 0.31656758 1.0783953
0.44054122 0.31946431 1.0691753
0.53867357 0.32236104 1.0599552
0.63680592 0.32525777 1.0507351
0.73493827 0.3281545 1.0415151
0.83307062 0.33105123 1.032295
0.93120297 0.33394795 1.023075
0.15662651 0.44676131 1.0575117
0.25475886 0.44965804 1.0482916
0.35289121 0.45255477 1.0390715
0.45102356 0.4554515 1.0298515
0.54915591 0.45834823 1.0206314
0.64728827 0.46124496 1.0114114
0.74542062 0.46414169 1.0021913
0.84355297 0.46703842 0.99297128
0.94168532 0.46993515 0.98375122
0.16710886 0.58274851 1.0181879
0.26524121 0.58564524 1.0089678
0.36337356 0.58854197 0.99974779
0.46150591 0.5914387 0.99052774
0.55963826 0.59433542 0.98130768
0.65777061 0.59723215 0.97208763
0.75590296 0.60012888 0.96286757
0.85403531 0.60302561 0.95364752
0.95216766 0.60592234 0.94442746
0.1775912 0.7187357 0.97886414
0.27572355 0.72163243 0.96964409
0.3738559 0.72452916 0.96042403
0.47198825 0.72742589 0.95120398
0.5701206 0.73032262 0.94198392
0.66825295 0.73321935 0.93276387
0.7663853 0.73611608 0.92354381
0.86451766 0.73901281 0.91432376
0.96265001 0.74190954 0.9051037
0.18807355 0.85472289 0.93954038
0.2862059 0.85761962 0.93032033
0.38433825 0.86051635 0.92110027
0.4824706 0.86341308 0.91188022
0.58060295 0.86630981 0.90266016
0.6787353 0.86920654 0.89344011
0.77686765 0.87210327 0.88422005
0.875 0.875 0.875
0.97313235 0.87789673 0.86577995
0.19855589 0.99071009 0.90021662
0.29668824 0.99360682 0.89099657
0.39482059 0.99650355 0.88177651
0.49295294 0.99940028 0.87255646
0.59108529 1.002297 0.8633364
0.68921764 1.0051937 0.85411635
0.78734999 1.0080905 0.8448963
0.88548234 1.0109872 0.83567624
0.9836147 1.0138839 0.82645619
0.13108244 -0.11107138 1.3883505
0.22921479 -0.10817465 1.3791305
0.32734714 -0.10527793 1.3699104
0.42547949 -0.1023812 1.3606903
0.52361184 -0.099484467 1.3514703
0.62174419 -0.096587737 1.3422502
0.71987654 -0.093691008 1.3330302
0.81800889 -0.090794279 1.3238101
0.91614124 -0.087897549 1.3145901
0.14156478 0.02491581 1.3490267
0.23969713 0.027812539 1.3398067
0.33782948 0.030709268 1.3305866
0.43596184 0.033605998 1.3213666
0.53409419 0.036502727 1.3121465
0.63222654 0.039399456 1.3029265
0.73035889 0.042296186 1.2937064
0.82849124 0.045192915 1.2844864
0.92662359 0.048089644 1.2752663
0.15204713 0.160903 1.309703
0.25017948 0.16379973 1.3004829
0.34831183 0.16669646 1.2912629
0.44644418 0.16959319 1.2820428
0.54457653 0.17248992 1.2728228
0.64270888 0.17538665 1.2636027
0.74084123 0.17828338 1.2543827
0.83897358 0.18118011 1.2451626
0.93710593 0.18407684 1.2359426
0.16252947 0.2968902 1.2703792
0.26066182 0.29978693 1.2611592
0.35879417 0.30268366 1.2519391
0.45692652 0.30558038 1.2427191
0.55505888 0.30847711 1.233499
0.65319123 0.31137384 1.224279
0.75132358 0.31427057 1.2150589
0.84945593 0.3171673 1.2058388
0.94758828 0.32006403 1.1966188
0.17301182 0.43287739 1.2310555
0.27114417 0.43577412 1.2218354
0.36927652 0.43867085 1.2126154
0.46740887 0.44156758 1.2033953
0.56554122 0.44446431 1.1941753
0.66367357 0.44736104 1.1849552
0.76180592 0.45025777 1.1757351
0.85993827 0.4531545 1.1665151
0.95807062 0.45605123 1.157295
0.18349416 0.56886458 1.1917317
0.28162651 0.57176131 1.1825117
0.37975886 0.57465804 1.1732916
0.47789121 0.57755477 1.1640715
0.57602356 0.5804515 1.1548515
0.67415591 0.58334823 1.1456314
0.77228827 0.58624496 1.1364114
0.87042062 0.58914169 1.1271913
0.96855297 0.59203842 1.1179713
0.19397651 0.70485178 1.152408
0.29210886 0.70774851 1.1431879
0.39024121 0.71064524 1.1339678
0.48837356 0.71354197 1.1247478
0.58650591 0.7164387 1.1155277
0.68463826 0.71933542 1.1063077
0.78277061 0.72223215 1.0970876
0.88090296 0.72512888 1.0878676
0.97903531 0.72802561 1.0786475
0.20445885 0.84083897 1.1130842
0.3025912 0.8437357 1.1038641
0.40072355 0.84663243 1.0946441
0.4988559 0.84952916 1.085424
0.59698825 0.85242589 1.076204
0.6951206 0.85532262 1.0669839
0.79325295 0.85821935 1.0577639
0.8913853 0.86111608 1.0485438
0.98951766 0.86401281 1.0393238
0.2149412 0.97682617 1.0737604
0.31307355 0.97972289 1.0645404
0.4112059 0.98261962 1.0553203
0.50933825 0.98551635 1.0461003
0.6074706 0.98841308 1.0368802
0.70560295 0.99130981 1.0276602
0.8037353 0.99420654 1.0184401
0.90186765 0.99710327 1.0092201
1 1 1
