site/assets/luts/ocio-aces--ocioutilitysrgb-curve--10030ef67.cube
# LUTr-Project: LUTr — LUTrepository
# LUTr-Schema-Version: 1
# LUTr-ID: ocio-aces--ocioutilitysrgb-curve--10030ef67
# LUTr-Title: OCIO.Utility.sRGB-Curve
# LUTr-Collection: OCIO ACES
# LUTr-Collection-ID: aswf-opencolorio-config-aces
# LUTr-Source: https://github.com/AcademySoftwareFoundation/OpenColorIO-Config-ACES
# LUTr-Source-File: submissions/aswf-opencolorio-config-aces/opencolorio_config_aces/clf/transforms/ocio/utility/OCIO.Utility.sRGB-Curve.clf
# LUTr-Source-Format: CLF
# LUTr-Source-SHA256: 2419f9f38d526dce39f89a80b1c4e1b80b67594f41bd081b572a2bb26de9156c
# LUTr-License: BSD-3-Clause
# LUTr-License-URL: https://github.com/AcademySoftwareFoundation/OpenColorIO-Config-ACES/blob/main/LICENSE
# LUTr-Tags: technical, aces, ocio, clf, color-management, cube
# LUTr-Transform-Class: color-space-conversion
# LUTr-Input-Color-Space: generic linear RGB
# LUTr-Output-Color-Space: sRGB encoded RGB
# LUTr-Color-Space-Confidence: descriptor-only
# LUTr-Conversion-Method: CLF operations evaluated as float and sampled to 33x33x33 3D CUBE
# LUTr-Conversion-Date: 2026-07-27
# LUTr-Conversion-Tool: LUTr scripts/convert-all-to-cube.mjs
# LUTr-Conversion-Grid: 33x33x33
# LUTr-Conversion-Warning: A sampled 3D CUBE is bounded to DOMAIN_MIN/MAX 0..1 and cannot preserve CLF values outside its input domain.
# LUTr-Upstream-ID: urn:aswf:ocio:transformId:1.0:OCIO:Utility:Linear_to_sRGB-Curve:1.0
# LUTr-Upstream-Name: Linear to sRGB
# LUTr-Upstream-Input-Descriptor: generic linear RGB
# LUTr-Upstream-Output-Descriptor: sRGB encoded RGB
# LUTr-Upstream-Operations: Exponent
# LUTr-Note: Preserve this metadata and the upstream license notices when redistributing.
TITLE "OCIO.Utility.sRGB-Curve"
LUT_3D_SIZE 33
DOMAIN_MIN 0 0 0
DOMAIN_MAX 1 1 1
0 0 0
0.000046781857 0 0
0.000093563715 0 0
0.00014034557 0 0
0.00018712743 0 0
0.00023390929 0 0
0.00028069114 0 0
0.000327473 0 0
0.00037425486 0 0
0.00042103672 0 0
0.00046781857 0 0
0.00051460043 0 0
0.00056138229 0 0
0.00060816415 0 0
0.000654946 0 0
0.00070172786 0 0
0.00074850972 0 0
0.00079529157 0 0
0.00084207343 0 0
0.00088885529 0 0
0.00093563715 0 0
0.000982419 0 0
0.0010292009 0 0
0.0010759827 0 0
0.0011227646 0 0
0.0011695464 0 0
0.0012163283 0 0
0.0012631101 0 0
0.001309892 0 0
0.0013566739 0 0
0.0014034557 0 0
0.0014502376 0 0
0.0014970194 0 0
0 0.000046781857 0
0.000046781857 0.000046781857 0
0.000093563715 0.000046781857 0
0.00014034557 0.000046781857 0
0.00018712743 0.000046781857 0
0.00023390929 0.000046781857 0
0.00028069114 0.000046781857 0
0.000327473 0.000046781857 0
0.00037425486 0.000046781857 0
0.00042103672 0.000046781857 0
0.00046781857 0.000046781857 0
0.00051460043 0.000046781857 0
0.00056138229 0.000046781857 0
0.00060816415 0.000046781857 0
0.000654946 0.000046781857 0
0.00070172786 0.000046781857 0
0.00074850972 0.000046781857 0
0.00079529157 0.000046781857 0
0.00084207343 0.000046781857 0
0.00088885529 0.000046781857 0
0.00093563715 0.000046781857 0
0.000982419 0.000046781857 0
0.0010292009 0.000046781857 0
0.0010759827 0.000046781857 0
0.0011227646 0.000046781857 0
0.0011695464 0.000046781857 0
0.0012163283 0.000046781857 0
0.0012631101 0.000046781857 0
0.001309892 0.000046781857 0
0.0013566739 0.000046781857 0
0.0014034557 0.000046781857 0
0.0014502376 0.000046781857 0
0.0014970194 0.000046781857 0
0 0.000093563715 0
0.000046781857 0.000093563715 0
0.000093563715 0.000093563715 0
0.00014034557 0.000093563715 0
0.00018712743 0.000093563715 0
0.00023390929 0.000093563715 0
0.00028069114 0.000093563715 0
0.000327473 0.000093563715 0
0.00037425486 0.000093563715 0
0.00042103672 0.000093563715 0
0.00046781857 0.000093563715 0
0.00051460043 0.000093563715 0
0.00056138229 0.000093563715 0
0.00060816415 0.000093563715 0
0.000654946 0.000093563715 0
0.00070172786 0.000093563715 0
0.00074850972 0.000093563715 0
0.00079529157 0.000093563715 0
0.00084207343 0.000093563715 0
0.00088885529 0.000093563715 0
0.00093563715 0.000093563715 0
0.000982419 0.000093563715 0
0.0010292009 0.000093563715 0
0.0010759827 0.000093563715 0
0.0011227646 0.000093563715 0
0.0011695464 0.000093563715 0
0.0012163283 0.000093563715 0
0.0012631101 0.000093563715 0
0.001309892 0.000093563715 0
0.0013566739 0.000093563715 0
0.0014034557 0.000093563715 0
0.0014502376 0.000093563715 0
0.0014970194 0.000093563715 0
0 0.00014034557 0
0.000046781857 0.00014034557 0
0.000093563715 0.00014034557 0
0.00014034557 0.00014034557 0
0.00018712743 0.00014034557 0
0.00023390929 0.00014034557 0
0.00028069114 0.00014034557 0
0.000327473 0.00014034557 0
0.00037425486 0.00014034557 0
0.00042103672 0.00014034557 0
0.00046781857 0.00014034557 0
0.00051460043 0.00014034557 0
0.00056138229 0.00014034557 0
0.00060816415 0.00014034557 0
0.000654946 0.00014034557 0
0.00070172786 0.00014034557 0
0.00074850972 0.00014034557 0
0.00079529157 0.00014034557 0
0.00084207343 0.00014034557 0
0.00088885529 0.00014034557 0
0.00093563715 0.00014034557 0
0.000982419 0.00014034557 0
0.0010292009 0.00014034557 0
0.0010759827 0.00014034557 0
0.0011227646 0.00014034557 0
0.0011695464 0.00014034557 0
0.0012163283 0.00014034557 0
0.0012631101 0.00014034557 0
0.001309892 0.00014034557 0
0.0013566739 0.00014034557 0
0.0014034557 0.00014034557 0
0.0014502376 0.00014034557 0
0.0014970194 0.00014034557 0
0 0.00018712743 0
0.000046781857 0.00018712743 0
0.000093563715 0.00018712743 0
0.00014034557 0.00018712743 0
0.00018712743 0.00018712743 0
0.00023390929 0.00018712743 0
0.00028069114 0.00018712743 0
0.000327473 0.00018712743 0
0.00037425486 0.00018712743 0
0.00042103672 0.00018712743 0
0.00046781857 0.00018712743 0
0.00051460043 0.00018712743 0
0.00056138229 0.00018712743 0
0.00060816415 0.00018712743 0
0.000654946 0.00018712743 0
0.00070172786 0.00018712743 0
0.00074850972 0.00018712743 0
0.00079529157 0.00018712743 0
0.00084207343 0.00018712743 0
0.00088885529 0.00018712743 0
0.00093563715 0.00018712743 0
0.000982419 0.00018712743 0
0.0010292009 0.00018712743 0
0.0010759827 0.00018712743 0
0.0011227646 0.00018712743 0
0.0011695464 0.00018712743 0
0.0012163283 0.00018712743 0
0.0012631101 0.00018712743 0
0.001309892 0.00018712743 0
0.0013566739 0.00018712743 0
0.0014034557 0.00018712743 0
0.0014502376 0.00018712743 0
0.0014970194 0.00018712743 0
0 0.00023390929 0
0.000046781857 0.00023390929 0
0.000093563715 0.00023390929 0
0.00014034557 0.00023390929 0
0.00018712743 0.00023390929 0
0.00023390929 0.00023390929 0
0.00028069114 0.00023390929 0
0.000327473 0.00023390929 0
0.00037425486 0.00023390929 0
0.00042103672 0.00023390929 0
0.00046781857 0.00023390929 0
0.00051460043 0.00023390929 0
0.00056138229 0.00023390929 0
0.00060816415 0.00023390929 0
0.000654946 0.00023390929 0
0.00070172786 0.00023390929 0
0.00074850972 0.00023390929 0
0.00079529157 0.00023390929 0
0.00084207343 0.00023390929 0
0.00088885529 0.00023390929 0
0.00093563715 0.00023390929 0
0.000982419 0.00023390929 0
0.0010292009 0.00023390929 0
0.0010759827 0.00023390929 0
0.0011227646 0.00023390929 0
0.0011695464 0.00023390929 0
0.0012163283 0.00023390929 0
0.0012631101 0.00023390929 0
0.001309892 0.00023390929 0
0.0013566739 0.00023390929 0
0.0014034557 0.00023390929 0
0.0014502376 0.00023390929 0
0.0014970194 0.00023390929 0
0 0.00028069114 0
0.000046781857 0.00028069114 0
0.000093563715 0.00028069114 0
0.00014034557 0.00028069114 0
0.00018712743 0.00028069114 0
0.00023390929 0.00028069114 0
0.00028069114 0.00028069114 0
0.000327473 0.00028069114 0
0.00037425486 0.00028069114 0
0.00042103672 0.00028069114 0
0.00046781857 0.00028069114 0
0.00051460043 0.00028069114 0
0.00056138229 0.00028069114 0
0.00060816415 0.00028069114 0
0.000654946 0.00028069114 0
0.00070172786 0.00028069114 0
0.00074850972 0.00028069114 0
0.00079529157 0.00028069114 0
0.00084207343 0.00028069114 0
0.00088885529 0.00028069114 0
0.00093563715 0.00028069114 0
0.000982419 0.00028069114 0
0.0010292009 0.00028069114 0
0.0010759827 0.00028069114 0
0.0011227646 0.00028069114 0
0.0011695464 0.00028069114 0
0.0012163283 0.00028069114 0
0.0012631101 0.00028069114 0
0.001309892 0.00028069114 0
0.0013566739 0.00028069114 0
0.0014034557 0.00028069114 0
0.0014502376 0.00028069114 0
0.0014970194 0.00028069114 0
0 0.000327473 0
0.000046781857 0.000327473 0
0.000093563715 0.000327473 0
0.00014034557 0.000327473 0
0.00018712743 0.000327473 0
0.00023390929 0.000327473 0
0.00028069114 0.000327473 0
0.000327473 0.000327473 0
0.00037425486 0.000327473 0
0.00042103672 0.000327473 0
0.00046781857 0.000327473 0
0.00051460043 0.000327473 0
0.00056138229 0.000327473 0
0.00060816415 0.000327473 0
0.000654946 0.000327473 0
0.00070172786 0.000327473 0
0.00074850972 0.000327473 0
0.00079529157 0.000327473 0
0.00084207343 0.000327473 0
0.00088885529 0.000327473 0
0.00093563715 0.000327473 0
0.000982419 0.000327473 0
0.0010292009 0.000327473 0
0.0010759827 0.000327473 0
0.0011227646 0.000327473 0
0.0011695464 0.000327473 0
0.0012163283 0.000327473 0
0.0012631101 0.000327473 0
0.001309892 0.000327473 0
0.0013566739 0.000327473 0
0.0014034557 0.000327473 0
0.0014502376 0.000327473 0
0.0014970194 0.000327473 0
0 0.00037425486 0
0.000046781857 0.00037425486 0
0.000093563715 0.00037425486 0
0.00014034557 0.00037425486 0
0.00018712743 0.00037425486 0
0.00023390929 0.00037425486 0
0.00028069114 0.00037425486 0
0.000327473 0.00037425486 0
0.00037425486 0.00037425486 0
0.00042103672 0.00037425486 0
0.00046781857 0.00037425486 0
0.00051460043 0.00037425486 0
0.00056138229 0.00037425486 0
0.00060816415 0.00037425486 0
0.000654946 0.00037425486 0
0.00070172786 0.00037425486 0
0.00074850972 0.00037425486 0
0.00079529157 0.00037425486 0
0.00084207343 0.00037425486 0
0.00088885529 0.00037425486 0
0.00093563715 0.00037425486 0
0.000982419 0.00037425486 0
0.0010292009 0.00037425486 0
0.0010759827 0.00037425486 0
0.0011227646 0.00037425486 0
0.0011695464 0.00037425486 0
0.0012163283 0.00037425486 0
0.0012631101 0.00037425486 0
0.001309892 0.00037425486 0
0.0013566739 0.00037425486 0
0.0014034557 0.00037425486 0
0.0014502376 0.00037425486 0
0.0014970194 0.00037425486 0
0 0.00042103672 0
0.000046781857 0.00042103672 0
0.000093563715 0.00042103672 0
0.00014034557 0.00042103672 0
0.00018712743 0.00042103672 0
0.00023390929 0.00042103672 0
0.00028069114 0.00042103672 0
0.000327473 0.00042103672 0
0.00037425486 0.00042103672 0
0.00042103672 0.00042103672 0
0.00046781857 0.00042103672 0
0.00051460043 0.00042103672 0
0.00056138229 0.00042103672 0
0.00060816415 0.00042103672 0
0.000654946 0.00042103672 0
0.00070172786 0.00042103672 0
0.00074850972 0.00042103672 0
0.00079529157 0.00042103672 0
0.00084207343 0.00042103672 0
0.00088885529 0.00042103672 0
0.00093563715 0.00042103672 0
0.000982419 0.00042103672 0
0.0010292009 0.00042103672 0
0.0010759827 0.00042103672 0
0.0011227646 0.00042103672 0
0.0011695464 0.00042103672 0
0.0012163283 0.00042103672 0
0.0012631101 0.00042103672 0
0.001309892 0.00042103672 0
0.0013566739 0.00042103672 0
0.0014034557 0.00042103672 0
0.0014502376 0.00042103672 0
0.0014970194 0.00042103672 0
0 0.00046781857 0
0.000046781857 0.00046781857 0
0.000093563715 0.00046781857 0
0.00014034557 0.00046781857 0
0.00018712743 0.00046781857 0
0.00023390929 0.00046781857 0
0.00028069114 0.00046781857 0
0.000327473 0.00046781857 0
0.00037425486 0.00046781857 0
0.00042103672 0.00046781857 0
0.00046781857 0.00046781857 0
0.00051460043 0.00046781857 0
0.00056138229 0.00046781857 0
0.00060816415 0.00046781857 0
0.000654946 0.00046781857 0
0.00070172786 0.00046781857 0
0.00074850972 0.00046781857 0
0.00079529157 0.00046781857 0
0.00084207343 0.00046781857 0
0.00088885529 0.00046781857 0
0.00093563715 0.00046781857 0
0.000982419 0.00046781857 0
0.0010292009 0.00046781857 0
0.0010759827 0.00046781857 0
0.0011227646 0.00046781857 0
0.0011695464 0.00046781857 0
0.0012163283 0.00046781857 0
0.0012631101 0.00046781857 0
0.001309892 0.00046781857 0
0.0013566739 0.00046781857 0
0.0014034557 0.00046781857 0
0.0014502376 0.00046781857 0
0.0014970194 0.00046781857 0
0 0.00051460043 0
0.000046781857 0.00051460043 0
0.000093563715 0.00051460043 0
0.00014034557 0.00051460043 0
0.00018712743 0.00051460043 0
0.00023390929 0.00051460043 0
0.00028069114 0.00051460043 0
0.000327473 0.00051460043 0
0.00037425486 0.00051460043 0
0.00042103672 0.00051460043 0
0.00046781857 0.00051460043 0
0.00051460043 0.00051460043 0
0.00056138229 0.00051460043 0
0.00060816415 0.00051460043 0
0.000654946 0.00051460043 0
0.00070172786 0.00051460043 0
0.00074850972 0.00051460043 0
0.00079529157 0.00051460043 0
0.00084207343 0.00051460043 0
0.00088885529 0.00051460043 0
0.00093563715 0.00051460043 0
0.000982419 0.00051460043 0
0.0010292009 0.00051460043 0
0.0010759827 0.00051460043 0
0.0011227646 0.00051460043 0
0.0011695464 0.00051460043 0
0.0012163283 0.00051460043 0
0.0012631101 0.00051460043 0
0.001309892 0.00051460043 0
0.0013566739 0.00051460043 0
0.0014034557 0.00051460043 0
0.0014502376 0.00051460043 0
0.0014970194 0.00051460043 0
0 0.00056138229 0
0.000046781857 0.00056138229 0
0.000093563715 0.00056138229 0
0.00014034557 0.00056138229 0
0.00018712743 0.00056138229 0
0.00023390929 0.00056138229 0
0.00028069114 0.00056138229 0
0.000327473 0.00056138229 0
0.00037425486 0.00056138229 0
0.00042103672 0.00056138229 0
0.00046781857 0.00056138229 0
0.00051460043 0.00056138229 0
0.00056138229 0.00056138229 0
0.00060816415 0.00056138229 0
0.000654946 0.00056138229 0
0.00070172786 0.00056138229 0
0.00074850972 0.00056138229 0
0.00079529157 0.00056138229 0
0.00084207343 0.00056138229 0
0.00088885529 0.00056138229 0
0.00093563715 0.00056138229 0
0.000982419 0.00056138229 0
0.0010292009 0.00056138229 0
0.0010759827 0.00056138229 0
0.0011227646 0.00056138229 0
0.0011695464 0.00056138229 0
0.0012163283 0.00056138229 0
0.0012631101 0.00056138229 0
0.001309892 0.00056138229 0
0.0013566739 0.00056138229 0
0.0014034557 0.00056138229 0
0.0014502376 0.00056138229 0
0.0014970194 0.00056138229 0
0 0.00060816415 0
0.000046781857 0.00060816415 0
0.000093563715 0.00060816415 0
0.00014034557 0.00060816415 0
0.00018712743 0.00060816415 0
0.00023390929 0.00060816415 0
0.00028069114 0.00060816415 0
0.000327473 0.00060816415 0
0.00037425486 0.00060816415 0
0.00042103672 0.00060816415 0
0.00046781857 0.00060816415 0
0.00051460043 0.00060816415 0
0.00056138229 0.00060816415 0
0.00060816415 0.00060816415 0
0.000654946 0.00060816415 0
0.00070172786 0.00060816415 0
0.00074850972 0.00060816415 0
0.00079529157 0.00060816415 0
0.00084207343 0.00060816415 0
0.00088885529 0.00060816415 0
0.00093563715 0.00060816415 0
0.000982419 0.00060816415 0
0.0010292009 0.00060816415 0
0.0010759827 0.00060816415 0
0.0011227646 0.00060816415 0
0.0011695464 0.00060816415 0
0.0012163283 0.00060816415 0
0.0012631101 0.00060816415 0
0.001309892 0.00060816415 0
0.0013566739 0.00060816415 0
0.0014034557 0.00060816415 0
0.0014502376 0.00060816415 0
0.0014970194 0.00060816415 0
0 0.000654946 0
0.000046781857 0.000654946 0
0.000093563715 0.000654946 0
0.00014034557 0.000654946 0
0.00018712743 0.000654946 0
0.00023390929 0.000654946 0
0.00028069114 0.000654946 0
0.000327473 0.000654946 0
0.00037425486 0.000654946 0
0.00042103672 0.000654946 0
0.00046781857 0.000654946 0
0.00051460043 0.000654946 0
0.00056138229 0.000654946 0
0.00060816415 0.000654946 0
0.000654946 0.000654946 0
0.00070172786 0.000654946 0
0.00074850972 0.000654946 0
0.00079529157 0.000654946 0
0.00084207343 0.000654946 0
0.00088885529 0.000654946 0
0.00093563715 0.000654946 0
0.000982419 0.000654946 0
0.0010292009 0.000654946 0
0.0010759827 0.000654946 0
0.0011227646 0.000654946 0
0.0011695464 0.000654946 0
0.0012163283 0.000654946 0
0.0012631101 0.000654946 0
0.001309892 0.000654946 0
0.0013566739 0.000654946 0
0.0014034557 0.000654946 0
0.0014502376 0.000654946 0
0.0014970194 0.000654946 0
0 0.00070172786 0
0.000046781857 0.00070172786 0
0.000093563715 0.00070172786 0
0.00014034557 0.00070172786 0
0.00018712743 0.00070172786 0
0.00023390929 0.00070172786 0
0.00028069114 0.00070172786 0
0.000327473 0.00070172786 0
0.00037425486 0.00070172786 0
0.00042103672 0.00070172786 0
0.00046781857 0.00070172786 0
0.00051460043 0.00070172786 0
0.00056138229 0.00070172786 0
0.00060816415 0.00070172786 0
0.000654946 0.00070172786 0
0.00070172786 0.00070172786 0
0.00074850972 0.00070172786 0
0.00079529157 0.00070172786 0
0.00084207343 0.00070172786 0
0.00088885529 0.00070172786 0
0.00093563715 0.00070172786 0
0.000982419 0.00070172786 0
0.0010292009 0.00070172786 0
0.0010759827 0.00070172786 0
0.0011227646 0.00070172786 0
0.0011695464 0.00070172786 0
0.0012163283 0.00070172786 0
0.0012631101 0.00070172786 0
0.001309892 0.00070172786 0
0.0013566739 0.00070172786 0
0.0014034557 0.00070172786 0
0.0014502376 0.00070172786 0
0.0014970194 0.00070172786 0
0 0.00074850972 0
0.000046781857 0.00074850972 0
0.000093563715 0.00074850972 0
0.00014034557 0.00074850972 0
0.00018712743 0.00074850972 0
0.00023390929 0.00074850972 0
0.00028069114 0.00074850972 0
0.000327473 0.00074850972 0
0.00037425486 0.00074850972 0
0.00042103672 0.00074850972 0
0.00046781857 0.00074850972 0
0.00051460043 0.00074850972 0
0.00056138229 0.00074850972 0
0.00060816415 0.00074850972 0
0.000654946 0.00074850972 0
0.00070172786 0.00074850972 0
0.00074850972 0.00074850972 0
0.00079529157 0.00074850972 0
0.00084207343 0.00074850972 0
0.00088885529 0.00074850972 0
0.00093563715 0.00074850972 0
0.000982419 0.00074850972 0
0.0010292009 0.00074850972 0
0.0010759827 0.00074850972 0
0.0011227646 0.00074850972 0
0.0011695464 0.00074850972 0
0.0012163283 0.00074850972 0
0.0012631101 0.00074850972 0
0.001309892 0.00074850972 0
0.0013566739 0.00074850972 0
0.0014034557 0.00074850972 0
0.0014502376 0.00074850972 0
0.0014970194 0.00074850972 0
0 0.00079529157 0
0.000046781857 0.00079529157 0
0.000093563715 0.00079529157 0
0.00014034557 0.00079529157 0
0.00018712743 0.00079529157 0
0.00023390929 0.00079529157 0
0.00028069114 0.00079529157 0
0.000327473 0.00079529157 0
0.00037425486 0.00079529157 0
0.00042103672 0.00079529157 0
0.00046781857 0.00079529157 0
0.00051460043 0.00079529157 0
0.00056138229 0.00079529157 0
0.00060816415 0.00079529157 0
0.000654946 0.00079529157 0
0.00070172786 0.00079529157 0
0.00074850972 0.00079529157 0
0.00079529157 0.00079529157 0
0.00084207343 0.00079529157 0
0.00088885529 0.00079529157 0
0.00093563715 0.00079529157 0
0.000982419 0.00079529157 0
0.0010292009 0.00079529157 0
0.0010759827 0.00079529157 0
0.0011227646 0.00079529157 0
0.0011695464 0.00079529157 0
0.0012163283 0.00079529157 0
0.0012631101 0.00079529157 0
0.001309892 0.00079529157 0
0.0013566739 0.00079529157 0
0.0014034557 0.00079529157 0
0.0014502376 0.00079529157 0
0.0014970194 0.00079529157 0
0 0.00084207343 0
0.000046781857 0.00084207343 0
0.000093563715 0.00084207343 0
0.00014034557 0.00084207343 0
0.00018712743 0.00084207343 0
0.00023390929 0.00084207343 0
0.00028069114 0.00084207343 0
0.000327473 0.00084207343 0
0.00037425486 0.00084207343 0
0.00042103672 0.00084207343 0
0.00046781857 0.00084207343 0
0.00051460043 0.00084207343 0
0.00056138229 0.00084207343 0
0.00060816415 0.00084207343 0
0.000654946 0.00084207343 0
0.00070172786 0.00084207343 0
0.00074850972 0.00084207343 0
0.00079529157 0.00084207343 0
0.00084207343 0.00084207343 0
0.00088885529 0.00084207343 0
0.00093563715 0.00084207343 0
0.000982419 0.00084207343 0
0.0010292009 0.00084207343 0
0.0010759827 0.00084207343 0
0.0011227646 0.00084207343 0
0.0011695464 0.00084207343 0
0.0012163283 0.00084207343 0
0.0012631101 0.00084207343 0
0.001309892 0.00084207343 0
0.0013566739 0.00084207343 0
0.0014034557 0.00084207343 0
0.0014502376 0.00084207343 0
0.0014970194 0.00084207343 0
0 0.00088885529 0
0.000046781857 0.00088885529 0
0.000093563715 0.00088885529 0
0.00014034557 0.00088885529 0
0.00018712743 0.00088885529 0
0.00023390929 0.00088885529 0
0.00028069114 0.00088885529 0
0.000327473 0.00088885529 0
0.00037425486 0.00088885529 0
0.00042103672 0.00088885529 0
0.00046781857 0.00088885529 0
0.00051460043 0.00088885529 0
0.00056138229 0.00088885529 0
0.00060816415 0.00088885529 0
0.000654946 0.00088885529 0
0.00070172786 0.00088885529 0
0.00074850972 0.00088885529 0
0.00079529157 0.00088885529 0
0.00084207343 0.00088885529 0
0.00088885529 0.00088885529 0
0.00093563715 0.00088885529 0
0.000982419 0.00088885529 0
0.0010292009 0.00088885529 0
0.0010759827 0.00088885529 0
0.0011227646 0.00088885529 0
0.0011695464 0.00088885529 0
0.0012163283 0.00088885529 0
0.0012631101 0.00088885529 0
0.001309892 0.00088885529 0
0.0013566739 0.00088885529 0
0.0014034557 0.00088885529 0
0.0014502376 0.00088885529 0
0.0014970194 0.00088885529 0
0 0.00093563715 0
0.000046781857 0.00093563715 0
0.000093563715 0.00093563715 0
0.00014034557 0.00093563715 0
0.00018712743 0.00093563715 0
0.00023390929 0.00093563715 0
0.00028069114 0.00093563715 0
0.000327473 0.00093563715 0
0.00037425486 0.00093563715 0
0.00042103672 0.00093563715 0
0.00046781857 0.00093563715 0
0.00051460043 0.00093563715 0
0.00056138229 0.00093563715 0
0.00060816415 0.00093563715 0
0.000654946 0.00093563715 0
0.00070172786 0.00093563715 0
0.00074850972 0.00093563715 0
0.00079529157 0.00093563715 0
0.00084207343 0.00093563715 0
0.00088885529 0.00093563715 0
0.00093563715 0.00093563715 0
0.000982419 0.00093563715 0
0.0010292009 0.00093563715 0
0.0010759827 0.00093563715 0
0.0011227646 0.00093563715 0
0.0011695464 0.00093563715 0
0.0012163283 0.00093563715 0
0.0012631101 0.00093563715 0
0.001309892 0.00093563715 0
0.0013566739 0.00093563715 0
0.0014034557 0.00093563715 0
0.0014502376 0.00093563715 0
0.0014970194 0.00093563715 0
0 0.000982419 0
0.000046781857 0.000982419 0
0.000093563715 0.000982419 0
0.00014034557 0.000982419 0
0.00018712743 0.000982419 0
0.00023390929 0.000982419 0
0.00028069114 0.000982419 0
0.000327473 0.000982419 0
0.00037425486 0.000982419 0
0.00042103672 0.000982419 0
0.00046781857 0.000982419 0
0.00051460043 0.000982419 0
0.00056138229 0.000982419 0
0.00060816415 0.000982419 0
0.000654946 0.000982419 0
0.00070172786 0.000982419 0
0.00074850972 0.000982419 0
0.00079529157 0.000982419 0
0.00084207343 0.000982419 0
0.00088885529 0.000982419 0
0.00093563715 0.000982419 0
0.000982419 0.000982419 0
0.0010292009 0.000982419 0
0.0010759827 0.000982419 0
0.0011227646 0.000982419 0
0.0011695464 0.000982419 0
0.0012163283 0.000982419 0
0.0012631101 0.000982419 0
0.001309892 0.000982419 0
0.0013566739 0.000982419 0
0.0014034557 0.000982419 0
0.0014502376 0.000982419 0
0.0014970194 0.000982419 0
0 0.0010292009 0
0.000046781857 0.0010292009 0
0.000093563715 0.0010292009 0
0.00014034557 0.0010292009 0
0.00018712743 0.0010292009 0
0.00023390929 0.0010292009 0
0.00028069114 0.0010292009 0
0.000327473 0.0010292009 0
0.00037425486 0.0010292009 0
0.00042103672 0.0010292009 0
0.00046781857 0.0010292009 0
0.00051460043 0.0010292009 0
0.00056138229 0.0010292009 0
0.00060816415 0.0010292009 0
0.000654946 0.0010292009 0
0.00070172786 0.0010292009 0
0.00074850972 0.0010292009 0
0.00079529157 0.0010292009 0
0.00084207343 0.0010292009 0
0.00088885529 0.0010292009 0
0.00093563715 0.0010292009 0
0.000982419 0.0010292009 0
0.0010292009 0.0010292009 0
0.0010759827 0.0010292009 0
0.0011227646 0.0010292009 0
0.0011695464 0.0010292009 0
0.0012163283 0.0010292009 0
0.0012631101 0.0010292009 0
0.001309892 0.0010292009 0
0.0013566739 0.0010292009 0
0.0014034557 0.0010292009 0
0.0014502376 0.0010292009 0
0.0014970194 0.0010292009 0
0 0.0010759827 0
0.000046781857 0.0010759827 0
0.000093563715 0.0010759827 0
0.00014034557 0.0010759827 0
0.00018712743 0.0010759827 0
0.00023390929 0.0010759827 0
0.00028069114 0.0010759827 0
0.000327473 0.0010759827 0
0.00037425486 0.0010759827 0
0.00042103672 0.0010759827 0
0.00046781857 0.0010759827 0
0.00051460043 0.0010759827 0
0.00056138229 0.0010759827 0
0.00060816415 0.0010759827 0
0.000654946 0.0010759827 0
0.00070172786 0.0010759827 0
0.00074850972 0.0010759827 0
0.00079529157 0.0010759827 0
0.00084207343 0.0010759827 0
0.00088885529 0.0010759827 0
0.00093563715 0.0010759827 0
0.000982419 0.0010759827 0
0.0010292009 0.0010759827 0
0.0010759827 0.0010759827 0
