site/assets/luts/ocio-aces--djiinputdlog-dgamut-to-aces2065-1--203a8b4c5.cube
# LUTr-Project: LUTr — LUTrepository
# LUTr-Schema-Version: 1
# LUTr-ID: ocio-aces--djiinputdlog-dgamut-to-aces2065-1--203a8b4c5
# LUTr-Title: DJI.Input.DLog DGamut to ACES2065-1
# LUTr-Collection: OCIO ACES
# LUTr-Collection-ID: aswf-opencolorio-config-aces
# LUTr-Source: https://github.com/AcademySoftwareFoundation/OpenColorIO-Config-ACES
# LUTr-Source-File: submissions/aswf-opencolorio-config-aces/opencolorio_config_aces/clf/transforms/dji/input/DJI.Input.DLog_DGamut_to_ACES2065-1.clf
# LUTr-Source-Format: CLF
# LUTr-Source-SHA256: 9617d4ccb9fc6d0d8986337cdcfac6c1ac70f58e411c29b187760816f29cefe9
# LUTr-License: BSD-3-Clause
# LUTr-License-URL: https://github.com/AcademySoftwareFoundation/OpenColorIO-Config-ACES/blob/main/LICENSE
# LUTr-Tags: technical, aces, ocio, clf, color-management, cube
# LUTr-Transform-Class: color-space-conversion
# LUTr-Input-Color-Space: DJI D-Log - D-Gamut
# LUTr-Output-Color-Space: ACES2065-1
# LUTr-Color-Space-Confidence: descriptor-only
# LUTr-Conversion-Method: CLF operations evaluated as float and sampled to 33x33x33 3D CUBE
# LUTr-Conversion-Date: 2026-07-27
# LUTr-Conversion-Tool: LUTr scripts/convert-all-to-cube.mjs
# LUTr-Conversion-Grid: 33x33x33
# LUTr-Conversion-Warning: A sampled 3D CUBE is bounded to DOMAIN_MIN/MAX 0..1 and cannot preserve CLF values outside its input domain.
# LUTr-Upstream-ID: urn:aswf:ocio:transformId:1.0:DJI:Input:DLog_DGamut_to_ACES2065-1:1.0
# LUTr-Upstream-Name: DJI D-Log - D-Gamut to ACES2065-1
# LUTr-Upstream-Input-Descriptor: DJI D-Log - D-Gamut
# LUTr-Upstream-Output-Descriptor: ACES2065-1
# LUTr-Upstream-Operations: Log → Matrix
# LUTr-Note: Preserve this metadata and the upstream license notices when redistributing.
TITLE "DJI.Input.DLog DGamut to ACES2065-1"
LUT_3D_SIZE 9
DOMAIN_MIN 0 0 0
DOMAIN_MAX 1 1 1
-0.015418093 -0.015418093 -0.015418093
-0.0010778268 -0.01404434 -0.015776943
0.022437555 -0.01179164 -0.016365391
0.094330154 -0.0049045521 -0.018164428
0.31498028 0.016233044 -0.023685967
0.99219156 0.081107781 -0.040632472
3.0706636 0.28021894 -0.092644063
9.4498337 0.89132362 -0.25227613
29.028549 2.7669037 -0.74221302
-0.010970827 0.0055674118 -0.017023281
0.003369439 0.0069411647 -0.017382132
0.026884821 0.0091938653 -0.017970579
0.09877742 0.016080953 -0.019769617
0.31942755 0.037218549 -0.025291156
0.99663883 0.10209329 -0.04223766
3.0751108 0.30120445 -0.094249252
9.4542809 0.91230912 -0.25388132
29.032996 2.7878892 -0.74381821
-0.0036781348 0.039979755 -0.019655493
0.010662132 0.041353508 -0.020014343
0.034177514 0.043606208 -0.020602791
0.10607011 0.050493296 -0.022401828
0.32672024 0.071630893 -0.027923367
1.0039315 0.13650563 -0.044869872
3.0824035 0.33561679 -0.096881463
9.4615736 0.94672146 -0.25651353
29.040289 2.8223015 -0.74645042
0.018617511 0.14518718 -0.027702844
0.032957777 0.14656093 -0.028061694
0.056473159 0.14881363 -0.028650142
0.12836576 0.15570072 -0.030449179
0.34901589 0.17683832 -0.035970718
1.0262272 0.24171305 -0.052917223
3.1046992 0.44082421 -0.10492881
9.4838693 1.0519289 -0.26456088
29.062584 2.9275089 -0.75449777
0.087046488 0.46808595 -0.052401478
0.10138675 0.4694597 -0.052760328
0.12490214 0.4717124 -0.053348776
0.19679474 0.47859949 -0.055147813
0.41744486 0.49973709 -0.060669352
1.0946561 0.56461182 -0.077615857
3.1731282 0.76372298 -0.12962745
9.5522983 1.3748277 -0.28925952
29.131013 3.2504077 -0.77919641
0.2970662 1.459115 -0.12820562
0.31140646 1.4604888 -0.12856447
0.33492185 1.4627415 -0.12915292
0.40681444 1.4696285 -0.13095196
0.62746457 1.4907661 -0.13647349
1.3046759 1.5556409 -0.15342
3.3831479 1.754752 -0.20543159
9.762318 2.3658567 -0.36506366
29.341033 4.2414368 -0.85500055
0.94165098 4.500745 -0.36086091
0.95599125 4.5021188 -0.36121976
0.97950663 4.5043715 -0.36180821
1.0513992 4.5112586 -0.36360725
1.2720494 4.5323962 -0.36912879
1.9492606 4.5972709 -0.38607529
4.0277327 4.7963821 -0.43808688
10.406903 5.4074868 -0.59771895
29.985618 7.2830668 -1.0876558
2.919987 13.836004 -1.074918
2.9343272 13.837378 -1.0752769
2.9578426 13.839631 -1.0758653
3.0297352 13.846518 -1.0776643
3.2503853 13.867656 -1.0831859
3.9275966 13.93253 -1.1001324
6.0060686 14.131641 -1.152144
12.385239 14.742746 -1.311776
31.963954 16.618326 -1.8017129
8.9918232 42.48744 -3.2664758
9.0061635 42.488814 -3.2668347
9.0296789 42.491067 -3.2674231
9.1015715 42.497954 -3.2692222
9.3222216 42.519091 -3.2747437
9.9994329 42.583966 -3.2916902
12.077905 42.783077 -3.3437018
18.457075 43.394182 -3.5033339
38.03579 45.269762 -3.9932708
-0.013461091 -0.017032816 0.00729048
0.00087917578 -0.015659063 0.0069316298
0.024394558 -0.013406363 0.006343182
0.096287157 -0.0065192753 0.0045441448
0.31693728 0.014618321 -0.00097739419
0.99414856 0.079493058 -0.017923899
3.0726206 0.27860422 -0.06993549
9.4517907 0.88970889 -0.22956756
29.030506 2.7652889 -0.71950445
-0.0090138248 0.0039526886 0.0056852918
0.0053264416 0.0053264416 0.0053264416
0.028841824 0.0075791421 0.0047379937
0.10073442 0.01446623 0.0029389565
0.32138455 0.035603826 -0.0025825824
0.99859583 0.10047856 -0.019529087
3.0770678 0.29958972 -0.071540679
9.4562379 0.9106944 -0.23117275
29.034953 2.7862745 -0.72110964
-0.0017211322 0.038365032 0.0030530802
0.012619134 0.039738785 0.00269423
0.036134516 0.041991485 0.0021057821
0.10802711 0.048878573 0.00030674496
0.32867724 0.070016169 -0.005214794
1.0058885 0.13489091 -0.022161299
3.0843605 0.33400207 -0.07417289
9.4635306 0.94510674 -0.23380496
29.042246 2.8206868 -0.72374185
0.020574513 0.14357246 -0.0049942706
0.03491478 0.14494621 -0.0053531208
0.058430162 0.14719891 -0.0059415687
0.13032276 0.154086 -0.0077406059
0.35097289 0.17522359 -0.013262145
1.0281842 0.24009833 -0.03020865
3.1066562 0.43920949 -0.082220241
9.4858263 1.0503142 -0.24185231
29.064541 2.9258942 -0.7317892
0.089003491 0.46647122 -0.029692905
0.10334376 0.46784498 -0.030051755
0.12685914 0.47009768 -0.030640203
0.19875174 0.47698477 -0.03243924
0.41940187 0.49812236 -0.037960779
1.0966131 0.5629971 -0.054907284
3.1750852 0.76210826 -0.10691888
9.5542553 1.3732129 -0.26655094
29.13297 3.248793 -0.75648783
0.2990232 1.4575003 -0.10549705
0.31336347 1.458874 -0.1058559
0.33687885 1.4611267 -0.10644434
0.40877145 1.4680138 -0.10824338
0.62942157 1.4891514 -0.11376492
1.3066329 1.5540262 -0.13071143
3.3851049 1.7531373 -0.18272302
9.764275 2.364242 -0.34235509
29.34299 4.239822 -0.83229197
0.94360799 4.4991303 -0.33815234
0.95794825 4.5005041 -0.33851119
0.98146364 4.5027568 -0.33909964
1.0533562 4.5096439 -0.34089867
1.2740064 4.5307815 -0.34642021
1.9512176 4.5956562 -0.36336672
4.0296897 4.7947674 -0.41537831
10.40886 5.405872 -0.57501038
29.987575 7.2814521 -1.0649473
2.921944 13.83439 -1.0522094
2.9362842 13.835763 -1.0525683
2.9597996 13.838016 -1.0531567
3.0316922 13.844903 -1.0549558
3.2523424 13.866041 -1.0604773
3.9295536 13.930916 -1.0774238
6.0080257 14.130027 -1.1294354
12.387196 14.741131 -1.2890675
31.965911 16.616711 -1.7790044
8.9937802 42.485825 -3.2437673
9.0081205 42.487199 -3.2441261
9.0316359 42.489452 -3.2447146
9.1035285 42.496339 -3.2465136
9.3241786 42.517476 -3.2520351
10.00139 42.582351 -3.2689816
12.079862 42.781462 -3.3209932
18.459032 43.392567 -3.4806253
38.037747 45.268147 -3.9705622
-0.010251969 -0.019680663 0.044528336
0.0040882978 -0.01830691 0.044169486
0.02760368 -0.01605421 0.043581038
0.099496279 -0.0091671223 0.041782001
0.32014641 0.011970474 0.036260462
0.99735769 0.076845211 0.019313957
3.0758297 0.27595637 -0.032697634
9.4549998 0.88706105 -0.1923297
29.033715 2.7626411 -0.68226659
-0.0058047028 0.0013048416 0.042923148
0.0085355636 0.0026785946 0.042564298
0.032050946 0.0049312951 0.04197585
0.10394354 0.011818383 0.040176813
0.32459367 0.032955979 0.034655274
1.001805 0.097830716 0.017708769
3.080277 0.29694188 -0.034302822
9.4594471 0.90804655 -0.19393489
29.038162 2.7836266 -0.68387178
0.0014879899 0.035717185 0.040290936
0.015828256 0.037090938 0.039932086
0.039343638 0.039343638 0.039343638
0.11123624 0.046230726 0.037544601
0.33188636 0.067368322 0.032023062
1.0090976 0.13224306 0.015076557
3.0875697 0.33135422 -0.036935034
9.4667398 0.94245889 -0.1965671
29.045455 2.8180389 -0.68650399
0.023783635 0.14092461 0.032243585
0.038123902 0.14229836 0.031884735
0.061639284 0.14455106 0.031296287
0.13353188 0.15143815 0.02949725
0.35418201 0.17257575 0.023975711
1.0313933 0.23745048 0.0070292064
3.1098653 0.43656164 -0.044982385
9.4890354 1.0476663 -0.20461445
29.06775 2.9232464 -0.69455134
0.092212613 0.46382338 0.0075449514
0.10655288 0.46519713 0.0071861012
0.13006826 0.46744983 0.0065976533
0.20196086 0.47433692 0.0047986161
0.42261099 0.49547452 -0.00072292283
1.0998223 0.56034925 -0.017669428
3.1782943 0.75946041 -0.069681019
9.5574644 1.3705651 -0.22931309
29.136179 3.2461451 -0.71924998
0.30223232 1.4548524 -0.068259191
0.31657259 1.4562262 -0.068618041
0.34008797 1.4584789 -0.069206489
0.41198057 1.465366 -0.071005526
0.6326307 1.4865036 -0.076527065
1.309842 1.5513783 -0.09347357
3.388314 1.7504895 -0.14548516
9.7674841 2.3615941 -0.30511723
29.346199 4.2371742 -0.79505412
0.94681711 4.4964825 -0.30091448
0.96115738 4.4978562 -0.30127333
0.98467276 4.5001089 -0.30186178
1.0565654 4.506996 -0.30366082
1.2772155 4.5281336 -0.30918236
1.9544268 4.5930083 -0.32612886
4.0328988 4.7921195 -0.37814045
10.412069 5.4032242 -0.53777252
29.990784 7.2788042 -1.0277094
2.9251531 13.831742 -1.0149716
2.9394934 13.833116 -1.0153304
2.9630087 13.835368 -1.0159189
3.0349013 13.842255 -1.0177179
3.2555515 13.863393 -1.0232394
3.9327628 13.928268 -1.040186
6.0112348 14.127379 -1.0921975
12.390405 14.738484 -1.2518296
31.96912 16.614064 -1.7417665
8.9969894 42.483178 -3.2065294
9.0113296 42.484551 -3.2068883
9.034845 42.486804 -3.2074767
9.1067376 42.493691 -3.2092757
9.3273877 42.514829 -3.2147973
10.004599 42.579703 -3.2317438
12.083071 42.778815 -3.2837554
18.462241 43.389919 -3.4433874
38.040956 45.265499 -3.9333243
-0.00044085341 -0.027775816 0.15837408
0.013899413 -0.026402063 0.15801523
0.037414795 -0.024149362 0.15742679
0.10930739 -0.017262275 0.15562775
0.32995752 0.0038753219 0.15010621
1.0071688 0.068750058 0.1331597
3.0856408 0.26786122 0.081148113
9.4648109 0.87896589 -0.078483955
29.043526 2.7545459 -0.56842084
0.0040064124 -0.0067903109 0.1567689
0.018346679 -0.0054165579 0.15641005
0.041862061 -0.0031638574 0.1558216
0.11375466 0.0037232302 0.15402256
0.33440479 0.024860827 0.14850102
1.0116161 0.089735563 0.13155452
3.0900881 0.28884672 0.079542925
9.4692582 0.8999514 -0.080089143
29.047973 2.7755315 -0.57002603
0.011299105 0.027622032 0.15413668
0.025639371 0.028995785 0.15377783
0.049154753 0.031248486 0.15318939
0.12104735 0.038135573 0.15139035
0.34169748 0.05927317 0.14586881
1.0189088 0.12414791 0.1289223
3.0973808 0.32325907 0.076910714
9.4765509 0.93436374 -0.082721355
29.055266 2.8099438 -0.57265824
0.033594751 0.13282946 0.14608933
0.047935017 0.13420321 0.14573048
0.071450399 0.13645591 0.14514203
0.143343 0.143343 0.143343
0.36399313 0.16448059 0.13782146
1.0412044 0.22935533 0.12087495
3.1196764 0.42846649 0.068863363
9.4988465 1.0395712 -0.090768706
29.077561 2.9151512 -0.5807056
0.10202373 0.45572823 0.1213907
0.11636399 0.45710198 0.12103185
0.13987938 0.45935468 0.1204434
0.21177198 0.46624177 0.11864436
0.4324221 0.48737936 0.11312282
1.1096334 0.5522541 0.09617632
3.1881054 0.75136526 0.044164729
9.5672755 1.3624699 -0.11546734
29.14599 3.23805 -0.60540423
0.31204344 1.4467573 0.045586557
0.3263837 1.448131 0.045227707
0.34989909 1.4503837 0.044639259
0.42179168 1.4572708 0.042840222
0.64244181 1.4784084 0.037318683
1.3196531 1.5432832 0.020372178
3.3981251 1.7423943 -0.031639413
9.7772952 2.353499 -0.19127148
29.35601 4.229079 -0.68120837
0.95662822 4.4883873 -0.18706874
0.97096849 4.4897611 -0.18742759
0.99448387 4.4920138 -0.18801603
1.0663765 4.4989009 -0.18981507
1.2870266 4.5200385 -0.19533661
1.9642379 4.5849132 -0.21228311
4.0427099 4.7840244 -0.26429471
10.42188 5.395129 -0.42392677
30.000595 7.2707091 -0.91386366
2.9349642 13.823647 -0.90112583
2.9493045 13.82502 -0.90148468
2.9728199 13.827273 -0.90207312
3.0447125 13.83416 -0.90387216
3.2653626 13.855298 -0.9093937
3.9425739 13.920173 -0.9263402
6.0210459 14.119284 -0.9783518
12.400216 14.730388 -1.1379839
31.978931 16.605968 -1.6279208
9.0068005 42.475082 -3.0926837
9.0211407 42.476456 -3.0930425
9.0446561 42.478709 -3.093631
9.1165487 42.485596 -3.09543
9.3371989 42.506733 -3.1009515
10.01441 42.571608 -3.117898
12.092882 42.770719 -3.1699096
18.472052 43.381824 -3.3295417
38.050767 45.257404 -3.8194786
0.029671061 -0.052621161 0.50778528
0.044011328 -0.051247408 0.50742643
0.06752671 -0.048994707 0.50683798
0.13941931 -0.04210762 0.50503894
0.36006944 -0.020970023 0.4995174
1.0372807 0.043904713 0.4825709
3.1157527 0.24301587 0.43055931
9.4949228 0.85412055 0.27092724
29.073638 2.7297006 -0.21900965
0.034118327 -0.031635656 0.50618009
0.048458594 -0.030261903 0.50582124
0.071973976 -0.028009202 0.50523279
0.14386657 -0.021122115 0.50343375
0.3645167 0.000015481715 0.49791221
1.041728 0.064890218 0.48096571
3.1202 0.26400138 0.42895412
9.4993701 0.87510605 0.26932205
29.078085 2.7506861 -0.22061484
0.04141102 0.0027766872 0.50354788
0.055751286 0.0041504402 0.50318903
0.079266668 0.0064031407 0.50260058
0.15115927 0.013290228 0.50080154
0.37180939 0.034427825 0.49528
1.0490207 0.099302561 0.4783335
3.1274927 0.29841372 0.42632191
9.5066628 0.9095184 0.26668984
29.085378 2.7850984 -0.22324705
0.063706665 0.10798411 0.49550053
0.078046932 0.10935786 0.49514168
0.10156231 0.11161057 0.49455323
0.17345491 0.11849765 0.49275419
0.39410504 0.13963525 0.48723265
1.0713163 0.20450999 0.47028615
3.1497883 0.40362115 0.41827456
9.5289584 1.0147258 0.25864249
29.107673 2.8903059 -0.2312944
0.13213564 0.43088288 0.47080189
0.14647591 0.43225663 0.47044304
0.16999129 0.43450933 0.46985459
0.24188389 0.44139642 0.46805556
0.46253402 0.46253402 0.46253402
1.1397453 0.52740875 0.44558751
3.2182173 0.72651992 0.39357592
9.5973874 1.3376246 0.23394385
29.176102 3.2132046 -0.25599304
0.34215535 1.4219119 0.39499775
0.35649562 1.4232857 0.3946389
0.380011 1.4255384 0.39405045
0.4519036 1.4324255 0.39225141
0.67255373 1.4535631 0.38672988
1.349765 1.5184378 0.36978337
3.428237 1.717549 0.31777178
9.8074071 2.3286536 0.15813971
29.386122 4.2042337 -0.33179718
0.98674014 4.463542 0.16234246
1.0010804 4.4649157 0.16198361
1.0245958 4.4671684 0.16139516
1.0964884 4.4740555 0.15959612
1.3171385 4.4951931 0.15407458
1.9943498 4.5600679 0.13712808
4.0728218 4.759179 0.085116487
10.451992 5.3702837 -0.074515581
30.030707 7.2458637 -0.56445247
2.9650761 13.798801 -0.55171463
2.9794164 13.800175 -0.55207348
3.0029318 13.802428 -0.55266193
3.0748244 13.809315 -0.55446097
3.2954745 13.830452 -0.55998251
3.9726858 13.895327 -0.57692901
6.0511578 14.094438 -0.6289406
12.430328 14.705543 -0.78857267
32.009043 16.581123 -1.2785096
9.0369124 42.450237 -2.7432725
9.0512527 42.451611 -2.7436313
9.074768 42.453863 -2.7442198
9.1466606 42.460751 -2.7460188
9.3673108 42.481888 -2.7515403
10.044522 42.546763 -2.7684868
12.122994 42.745874 -2.8204984
18.502164 43.356979 -2.9801305
38.080879 45.232559 -3.4700674
0.12208945 -0.12887558 1.5801853
0.13642971 -0.12750183 1.5798264
0.15994509 -0.12524913 1.579238
0.23183769 -0.11836204 1.577439
0.45248782 -0.097224445 1.5719174
1.1296991 -0.032349709 1.5549709
3.2081711 0.16676145 1.5029593
9.5873412 0.77786613 1.3433273
29.166056 2.6534462 0.85339037
0.12653671 -0.10789008 1.5785801
0.14087698 -0.10651632 1.5782213
0.16439236 -0.10426362 1.5776328
0.23628496 -0.097376537 1.5758338
0.45693509 -0.07623894 1.5703122
1.1341464 -0.011364204 1.5533657
3.2126184 0.18774696 1.5013541
9.5917885 0.79885163 1.3417221
29.170503 2.6744317 0.85178518
0.1338294 -0.073477735 1.5759479
0.14816967 -0.072103982 1.575589
0.17168505 -0.069851281 1.5750006
0.24357765 -0.062964194 1.5732016
0.46422778 -0.041826597 1.56768
1.1414391 0.023048139 1.5507335
3.2199111 0.2221593 1.4987219
9.5990812 0.83326397 1.3390899
29.177796 2.708844 0.84915297
0.15612505 0.03172969 1.5679005
0.17046532 0.033103443 1.5675417
0.1939807 0.035356143 1.5669532
0.2658733 0.042243231 1.5651542
0.48652342 0.063380827 1.5596327
1.1637347 0.12825556 1.5426862
3.2422067 0.32736672 1.4906746
9.6213768 0.9384714 1.3310425
29.200092 2.8140515 0.84110562
0.22455403 0.35462846 1.5432019
0.23889429 0.35600221 1.5428431
0.26240968 0.35825491 1.5422546
0.33430227 0.365142 1.5404556
0.5549524 0.3862796 1.534934
1.2321637 0.45115433 1.5179875
3.3106357 0.65026549 1.4659759
9.6898058 1.2613702 1.3063439
29.268521 3.1369502 0.81640698
0.43457374 1.3456575 1.4673978
0.448914 1.3470313 1.4670389
0.47242938 1.349284 1.4664505
0.54432198 1.3561711 1.4646514
0.76497211 1.3773087 1.4591299
1.4421834 1.4421834 1.4421834
3.5206554 1.6412946 1.3901718
9.8998255 2.2523992 1.2305397
29.47854 4.1279793 0.74060284
1.0791585 4.3872876 1.2347425
1.0934988 4.3886613 1.2343836
1.1170142 4.390914 1.2337952
1.1889068 4.3978011 1.2319961
1.4095569 4.4189387 1.2264746
2.0867682 4.4838134 1.2095281
4.1652402 4.6829246 1.1575165
10.54441 5.2940293 0.99788444
30.123125 7.1696093 0.50794755
3.0574945 13.722547 0.52068539
3.0718348 13.723921 0.52032654
3.0953502 13.726173 0.51973809
3.1672428 13.73306 0.51793905
3.3878929 13.754198 0.51241751
4.0651042 13.819073 0.49547101
6.1435762 14.018184 0.44345942
12.522746 14.629289 0.28382735
32.101461 16.504869 -0.20610954
9.1293308 42.373983 -1.6708724
9.143671 42.375356 -1.6712313
9.1671864 42.377609 -1.6718197
9.239079 42.384496 -1.6736188
9.4597292 42.405634 -1.6791403
10.13694 42.470508 -1.6960868
12.215412 42.66962 -1.7480984
18.594583 43.280724 -1.9077305
38.173297 45.156304 -2.3976674
0.40573656 -0.36291286 4.8715561
0.42007683 -0.36153911 4.8711973
0.44359221 -0.3592864 4.8706088
0.51548481 -0.35239932 4.8688098
0.73613494 -0.33126172 4.8632882
1.4133462 -0.26638698 4.8463417
3.4918182 -0.067275823 4.7943301
9.8709883 0.54382885 4.6346981
29.449703 2.4194089 4.1447612
0.41018383 -0.34192735 4.8699509
0.42452409 -0.3405536 4.8695921
0.44803948 -0.3383009 4.8690036
0.51993208 -0.33141381 4.8672046
0.7405822 -0.31027622 4.861683
1.4177935 -0.24540148 4.8447365
3.4962655 -0.046290318 4.7927249
9.8754356 0.56481436 4.6330929
29.454151 2.4403944 4.143156
0.41747652 -0.30751501 4.8673187
0.43181679 -0.30614126 4.8669599
0.45533217 -0.30388856 4.8663714
0.52722477 -0.29700147 4.8645724
0.7478749 -0.27586387 4.8590508
1.4250862 -0.21098914 4.8421043
3.5035582 -0.011877975 4.7900927
9.8827283 0.5992267 4.6304607
29.461443 2.4748068 4.1405238
0.43977217 -0.20230759 4.8592714
0.45411243 -0.20093383 4.8589125
0.47762781 -0.19868113 4.8583241
0.54952041 -0.19179404 4.856525
0.77017054 -0.17065645 4.8510035
1.4473818 -0.10578171 4.834057
3.5258538 0.09332945 4.7820454
9.9050239 0.70443412 4.6224133
29.483739 2.5800142 4.1324764
0.50820114 0.12059118 4.8345727
0.52254141 0.12196494 4.8342139
0.54605679 0.12421764 4.8336254
0.61794939 0.13110472 4.8318264
0.83859952 0.15224232 4.8263048
1.5158108 0.21711706 4.8093583
3.5942828 0.41622822 4.7573467
9.9734529 1.0273329 4.5977147
29.552168 2.9029129 4.1077778
0.71822085 1.1116202 4.7587686
0.73256112 1.112994 4.7584097
0.7560765 1.1152467 4.7578213
0.8279691 1.1221338 4.7560222
1.0486192 1.1432714 4.7505007
1.7258305 1.2081461 4.7335542
3.8043025 1.4072573 4.6815426
10.183473 2.0183619 4.5219105
29.762188 3.893942 4.0319736
1.3628056 4.1532503 4.5261133
1.3771459 4.154624 4.5257544
1.4006613 4.1568767 4.525166
1.4725539 4.1637638 4.5233669
1.693204 4.1849014 4.5178454
2.3704153 4.2497762 4.5008989
4.4488873 4.4488873 4.4488873
10.828057 5.059992 4.2892552
30.406772 6.935572 3.7993184
3.3411416 13.48851 3.8120562
3.3554819 13.489883 3.8116973
3.3789973 13.492136 3.8111089
3.4508899 13.499023 3.8093099
3.67154 13.520161 3.8037883
4.3487513 13.585036 3.7868418
6.4272233 13.784147 3.7348302
12.806393 14.395251 3.5751982
32.385108 16.270831 3.0852613
9.4129779 42.139945 1.6204984
9.4273182 42.141319 1.6201395
9.4508335 42.143572 1.6195511
9.5227261 42.150459 1.617752
9.7433763 42.171596 1.6122305
10.420588 42.236471 1.595284
12.49906 42.435582 1.5432724
18.87823 43.046687 1.3836403
38.456945 44.922267 0.89370343
1.2762959 -1.0812115 14.973311
1.2906362 -1.0798377 14.972952
1.3141515 -1.077585 14.972363
1.3860441 -1.0706979 14.970564
1.6066943 -1.0495603 14.965043
2.2839055 -0.98468561 14.948096
4.3623776 -0.78557444 14.896085
10.741548 -0.17446977 14.736453
30.320263 1.7011103 14.246516
1.2807432 -1.060226 14.971705
1.2950834 -1.0588522 14.971347
1.3185988 -1.0565995 14.970758
1.3904914 -1.0497124 14.968959
1.6111415 -1.0285748 14.963438
2.2883528 -0.9637001 14.946491
4.3668248 -0.76458894 14.89448
10.745995 -0.15348427 14.734847
30.32471 1.7220958 14.244911
1.2880358 -1.0258136 14.969073
1.3023761 -1.0244399 14.968714
1.3258915 -1.0221872 14.968126
1.3977841 -1.0153001 14.966327
1.6184342 -0.99416249 14.960805
2.2956455 -0.92928776 14.943859
4.3741175 -0.7301766 14.891847
10.753288 -0.11907192 14.732215
30.332003 1.7565081 14.242278
1.3103315 -0.92060621 14.961026
1.3246718 -0.91923245 14.960667
1.3481871 -0.91697975 14.960079
1.4200797 -0.91009267 14.95828
1.6407299 -0.88895507 14.952758
2.3179411 -0.82408033 14.935812
4.3964132 -0.62496917 14.8838
10.775583 -0.013864498 14.724168
30.354298 1.8617156 14.234231
1.3787605 -0.59770744 14.936327
1.3931007 -0.59633369 14.935968
1.4166161 -0.59408099 14.93538
1.4885087 -0.5871939 14.933581
1.7091588 -0.5660563 14.928059
2.3863701 -0.50118157 14.911113
4.4648421 -0.3020704 14.859101
10.844012 0.30903427 14.699469
30.422727 2.1846143 14.209532
1.5887802 0.39332162 14.860523
1.6031204 0.39469537 14.860164
1.6266358 0.39694807 14.859576
1.6985284 0.40383516 14.857777
1.9191786 0.42497276 14.852255
2.5963898 0.48984749 14.835309
4.6748619 0.68895865 14.783297
11.054032 1.3000633 14.623665
30.632747 3.1756434 14.133728
2.233365 3.4349517 14.627868
2.2477052 3.4363254 14.627509
2.2712206 3.4385781 14.626921
2.3431132 3.4454652 14.625122
2.5637633 3.4666028 14.6196
3.2409746 3.5314775 14.602653
5.3194466 3.7305887 14.550642
11.698617 4.3416934 14.39101
31.277332 6.2172734 13.901073
4.211701 12.770211 13.913811
4.2260412 12.771585 13.913452
4.2495566 12.773837 13.912863
4.3214492 12.780725 13.911064
4.5420993 12.801862 13.905543
5.2193106 12.866737 13.888596
7.2977826 13.065848 13.836585
13.676953 13.676953 13.676953
33.255668 15.552533 13.187016
10.283537 41.421647 11.722253
10.297877 41.42302 11.721894
10.321393 41.425273 11.721306
10.393285 41.43216 11.719507
10.613936 41.453298 11.713985
11.291147 41.518173 11.697039
13.369619 41.717284 11.645027
19.748789 42.328388 11.485395
39.327504 44.203968 10.995458
3.9481846 -3.2857873 45.977245
3.9625249 -3.2844135 45.976886
3.9860403 -3.2821608 45.976298
4.0579329 -3.2752737 45.974499
4.278583 -3.2541361 45.968977
4.9557943 -3.1892614 45.952031
7.0342663 -2.9901502 45.900019
13.413436 -2.3790456 45.740387
32.992151 -0.5034655 45.25045
3.9526319 -3.2648018 45.97564
3.9669722 -3.263428 45.975281
3.9904876 -3.2611753 45.974693
4.0623802 -3.2542882 45.972894
4.2830303 -3.2331506 45.967372
4.9602416 -3.1682759 45.950426
7.0387136 -2.9691647 45.898414
13.417884 -2.3580601 45.738782
32.996599 -0.48248 45.248845
3.9599246 -3.2303894 45.973008
3.9742649 -3.2290157 45.972649
3.9977803 -3.226763 45.972061
4.0696729 -3.2198759 45.970262
4.290323 -3.1987383 45.96474
4.9675343 -3.1338635 45.947794
7.0460063 -2.9347524 45.895782
13.425176 -2.3236477 45.73615
33.003891 -0.44806766 45.246213
3.9822203 -3.125182 45.964961
3.9965605 -3.1238082 45.964602
4.0200759 -3.1215555 45.964013
4.0919685 -3.1146685 45.962214
4.3126186 -3.0935309 45.956693
4.9898299 -3.0286561 45.939746
7.0683019 -2.829545 45.887735
13.447472 -2.2184403 45.728103
33.026187 -0.34286023 45.238166
4.0506492 -2.8022832 45.940262
4.0649895 -2.8009095 45.939903
4.0885049 -2.7986568 45.939315
4.1603975 -2.7917697 45.937516
4.3810476 -2.7706321 45.931994
5.0582589 -2.7057574 45.915048
7.1367309 -2.5066462 45.863036
13.515901 -1.8955415 45.703404
33.094616 -0.019961463 45.213467
4.2606689 -1.8112542 45.864458
4.2750092 -1.8098804 45.864099
4.2985246 -1.8076277 45.863511
4.3704172 -1.8007406 45.861711
4.5910673 -1.779603 45.85619
5.2682786 -1.7147283 45.839243
7.3467506 -1.5156171 45.787232
13.725921 -0.90451246 45.6276
33.304636 0.97106759 45.137663
4.9052537 1.2303759 45.631803
4.919594 1.2317496 45.631444
4.9431094 1.2340023 45.630855
5.015002 1.2408894 45.629056
5.2356521 1.262027 45.623535
5.9128634 1.3269017 45.606588
7.9913354 1.5260129 45.554577
14.370505 2.1371176 45.394944
33.94922 4.0126976 44.905008
6.8835897 10.565635 44.917745
6.89793 10.567009 44.917387
6.9214454 10.569262 44.916798
6.993338 10.576149 44.914999
7.2139881 10.597286 44.909478
7.8911994 10.662161 44.892531
9.9696714 10.861272 44.840519
16.348841 11.472377 44.680887
35.927556 13.347957 44.190951
12.955426 39.217071 42.726188
12.969766 39.218445 42.725829
12.993282 39.220697 42.72524
13.065174 39.227584 42.723441
13.285824 39.248722 42.71792
13.963036 39.313597 42.700973
16.041508 39.512708 42.648962
22.420678 40.123813 42.48933
41.999393 41.999393 41.999393
