site/assets/luts/ocio-aces--ocioutilityap0-to-linear-rec709--0cbf8af93.cube
# LUTr-Project: LUTr — LUTrepository
# LUTr-Schema-Version: 1
# LUTr-ID: ocio-aces--ocioutilityap0-to-linear-rec709--0cbf8af93
# LUTr-Title: OCIO.Utility.AP0 to Linear Rec709
# LUTr-Collection: OCIO ACES
# LUTr-Collection-ID: aswf-opencolorio-config-aces
# LUTr-Source: https://github.com/AcademySoftwareFoundation/OpenColorIO-Config-ACES
# LUTr-Source-File: submissions/aswf-opencolorio-config-aces/opencolorio_config_aces/clf/transforms/ocio/utility/OCIO.Utility.AP0_to_Linear_Rec709.clf
# LUTr-Source-Format: CLF
# LUTr-Source-SHA256: d15b67c61507a44f5abeba61e37663cabe3c85986eda0238176894eaa228e11b
# LUTr-License: BSD-3-Clause
# LUTr-License-URL: https://github.com/AcademySoftwareFoundation/OpenColorIO-Config-ACES/blob/main/LICENSE
# LUTr-Tags: technical, aces, ocio, clf, color-management, cube
# LUTr-Transform-Class: color-space-conversion
# LUTr-Input-Color-Space: ACES2065-1
# LUTr-Output-Color-Space: linear Rec.709 primaries, D65 white point
# LUTr-Color-Space-Confidence: descriptor-only
# LUTr-Conversion-Method: CLF operations evaluated as float and sampled to 33x33x33 3D CUBE
# LUTr-Conversion-Date: 2026-07-27
# LUTr-Conversion-Tool: LUTr scripts/convert-all-to-cube.mjs
# LUTr-Conversion-Grid: 33x33x33
# LUTr-Conversion-Warning: A sampled 3D CUBE is bounded to DOMAIN_MIN/MAX 0..1 and cannot preserve CLF values outside its input domain.
# LUTr-Upstream-ID: urn:aswf:ocio:transformId:1.0:OCIO:Utility:AP0_to_Linear_Rec709:1.0
# LUTr-Upstream-Name: AP0 to Linear Rec.709 (sRGB)
# LUTr-Upstream-Input-Descriptor: ACES2065-1
# LUTr-Upstream-Output-Descriptor: linear Rec.709 primaries, D65 white point
# LUTr-Upstream-Operations: Matrix
# LUTr-Note: Preserve this metadata and the upstream license notices when redistributing.
TITLE "OCIO.Utility.AP0 to Linear Rec709"
LUT_3D_SIZE 5
DOMAIN_MIN 0 0 0
DOMAIN_MAX 1 1 1
0 0 0
0.63042155 -0.069119979 -0.0038445162
1.2608431 -0.13823996 -0.0076890325
1.8912646 -0.20735994 -0.011533549
2.5216862 -0.27647991 -0.015378065
-0.28353275 0.34317977 -0.038243834
0.3468888 0.27405979 -0.04208835
0.97731035 0.20493981 -0.045932866
1.6077319 0.13581984 -0.049777383
2.2381534 0.066699858 -0.053621899
-0.56706549 0.68635954 -0.076487668
0.063356053 0.61723957 -0.080332184
0.6937776 0.54811959 -0.0841767
1.3241991 0.47899961 -0.088021217
1.9546207 0.40987963 -0.091865733
-0.85059824 1.0295393 -0.1147315
-0.22017669 0.96041934 -0.11857602
0.41024485 0.89129936 -0.12242053
1.0406664 0.82217938 -0.12626505
1.6710879 0.7530594 -0.13010957
-1.134131 1.3727191 -0.15297534
-0.50370944 1.3035991 -0.15681985
0.12671211 1.2344791 -0.16066437
0.75713365 1.1653592 -0.16450888
1.3875552 1.0962392 -0.1683534
-0.0968888 -0.024059793 0.29208835
0.53353275 -0.093179772 0.28824383
1.1639543 -0.16229975 0.28439932
1.7943758 -0.23141973 0.2805548
2.4247974 -0.30053971 0.27671029
-0.38042155 0.31911998 0.25384452
0.25 0.25 0.25
0.88042155 0.18088002 0.24615548
1.5108431 0.11176004 0.24231097
2.1412646 0.042640064 0.23846645
-0.66395429 0.66229975 0.21560068
-0.033532747 0.59317977 0.21175617
0.5968888 0.52405979 0.20791165
1.2273103 0.45493981 0.20406713
1.8577319 0.38581984 0.20022262
-0.94748704 1.0054795 0.17735685
-0.31706549 0.93635954 0.17351233
0.31335605 0.86723957 0.16966782
0.9437776 0.79811959 0.1658233
1.5741991 0.72899961 0.16197878
-1.2310198 1.3486593 0.13911301
-0.60059824 1.2795393 0.1352685
0.029823306 1.2104193 0.13142398
0.66024485 1.1412994 0.12757947
1.2906664 1.0721794 0.12373495
-0.1937776 -0.048119587 0.5841767
0.43664395 -0.11723957 0.58033218
1.0670655 -0.18635954 0.57648767
1.697487 -0.25547952 0.57264315
2.3279086 -0.3245995 0.56879864
-0.47731035 0.29506019 0.54593287
0.1531112 0.22594021 0.54208835
0.78353275 0.15682023 0.53824383
1.4139543 0.08770025 0.53439932
2.0443758 0.018580271 0.5305548
-0.76084309 0.63823996 0.50768903
-0.13042155 0.56911998 0.50384452
0.5 0.5 0.5
1.1304215 0.43088002 0.49615548
1.7608431 0.36176004 0.49231097
-1.0443758 0.98141973 0.4694452
-0.41395429 0.91229975 0.46560068
0.21646725 0.84317977 0.46175617
0.8468888 0.77405979 0.45791165
1.4773103 0.70493981 0.45406713
-1.3279086 1.3245995 0.43120136
-0.69748704 1.2554795 0.42735685
-0.067065494 1.1863595 0.42351233
0.56335605 1.1172396 0.41966782
1.1937776 1.0481196 0.4158233
-0.2906664 -0.07217938 0.87626505
0.33975515 -0.14129936 0.87242053
0.97017669 -0.21041934 0.86857602
1.6005982 -0.27953932 0.8647315
2.2310198 -0.34865929 0.86088699
-0.57419915 0.27100039 0.83802122
0.056222401 0.20188041 0.8341767
0.68664395 0.13276043 0.83033218
1.3170655 0.063640456 0.82648767
1.947487 -0.0054795224 0.82264315
-0.85773189 0.61418016 0.79977738
-0.22731035 0.54506019 0.79593287
0.4031112 0.47594021 0.79208835
1.0335327 0.40682023 0.78824383
1.6639543 0.33770025 0.78439932
-1.1412646 0.95735994 0.76153355
-0.51084309 0.88823996 0.75768903
0.11957845 0.81911998 0.75384452
0.75 0.75 0.75
1.3804215 0.68088002 0.74615548
-1.4247974 1.3005397 0.72328971
-0.79437584 1.2314197 0.7194452
-0.16395429 1.1622998 0.71560068
0.46646725 1.0931798 0.71175617
1.0968888 1.0240598 0.70791165
-0.3875552 -0.096239173 1.1683534
0.24286635 -0.16535915 1.1645089
0.87328789 -0.23447913 1.1606644
1.5037094 -0.30359911 1.1568199
2.134131 -0.37271909 1.1529753
-0.67108795 0.2469406 1.1301096
-0.040666399 0.17782062 1.1262651
0.58975515 0.10870064 1.1224205
1.2201767 0.039580663 1.118576
1.8505982 -0.029539316 1.1147315
-0.95462069 0.59012037 1.0918657
-0.32419915 0.52100039 1.0880212
0.3062224 0.45188041 1.0841767
0.93664395 0.38276043 1.0803322
1.5670655 0.31364046 1.0764877
-1.2381534 0.93330014 1.0536219
-0.60773189 0.86418016 1.0497774
0.022689654 0.79506019 1.0459329
0.6531112 0.72594021 1.0420884
1.2835327 0.65682023 1.0382438
-1.5216862 1.2764799 1.0153781
-0.89126464 1.2073599 1.0115335
-0.26084309 1.13824 1.007689
0.36957845 1.06912 1.0038445
1 1 1
