site/assets/luts/ocio-aces--canoninputcanonlog3-cinemagamut-d55-to-aces2065-1--8b48de9f1.cube
# LUTr-Project: LUTr — LUTrepository
# LUTr-Schema-Version: 1
# LUTr-ID: ocio-aces--canoninputcanonlog3-cinemagamut-d55-to-aces2065-1--8b48de9f1
# LUTr-Title: Canon.Input.CanonLog3 CinemaGamut-D55 to ACES2065-1
# LUTr-Collection: OCIO ACES
# LUTr-Collection-ID: aswf-opencolorio-config-aces
# LUTr-Source: https://github.com/AcademySoftwareFoundation/OpenColorIO-Config-ACES
# LUTr-Source-File: submissions/aswf-opencolorio-config-aces/opencolorio_config_aces/clf/transforms/canon/input/Canon.Input.CanonLog3_CinemaGamut-D55_to_ACES2065-1.clf
# LUTr-Source-Format: CLF
# LUTr-Source-SHA256: a054fe5c7cc83361477bb05b631e20f4ebfb685f77899fd9017cf0e66edabbe7
# LUTr-License: BSD-3-Clause
# LUTr-License-URL: https://github.com/AcademySoftwareFoundation/OpenColorIO-Config-ACES/blob/main/LICENSE
# LUTr-Tags: technical, aces, ocio, clf, color-management, cube
# LUTr-Transform-Class: color-space-conversion
# LUTr-Input-Color-Space: Canon Log 3 Cinema Gamut (Daylight)
# LUTr-Output-Color-Space: ACES2065-1
# LUTr-Color-Space-Confidence: descriptor-only
# LUTr-Conversion-Method: CLF operations evaluated as float and sampled to 33x33x33 3D CUBE
# LUTr-Conversion-Date: 2026-07-27
# LUTr-Conversion-Tool: LUTr scripts/convert-all-to-cube.mjs
# LUTr-Conversion-Grid: 33x33x33
# LUTr-Conversion-Warning: A sampled 3D CUBE is bounded to DOMAIN_MIN/MAX 0..1 and cannot preserve CLF values outside its input domain.
# LUTr-Upstream-ID: urn:aswf:ocio:transformId:1.0:Canon:Input:CanonLog3_CinemaGamut-D55_to_ACES2065-1:1.0
# LUTr-Upstream-Name: Canon Log 3 Cinema Gamut (Daylight) to ACES2065-1
# LUTr-Upstream-Input-Descriptor: Canon Log 3 Cinema Gamut (Daylight)
# LUTr-Upstream-Output-Descriptor: ACES2065-1
# LUTr-Upstream-Builtin-Transform: CANON_CLOG3-CGAMUT_to_ACES2065-1
# LUTr-Upstream-Operations: LUT1D → Matrix
# LUTr-Note: Preserve this metadata and the upstream license notices when redistributing.
TITLE "Canon.Input.CanonLog3 CinemaGamut-D55 to ACES2065-1"
LUT_3D_SIZE 33
DOMAIN_MIN 0 0 0
DOMAIN_MAX 1 1 1
-0.073813342 -0.073813342 -0.073813342
-0.055636817 -0.07372622 -0.07403744
-0.040694316 -0.073654599 -0.074221665
-0.028410434 -0.073595721 -0.074373113
-0.017531483 -0.073543577 -0.074507239
-0.0066544648 -0.073491442 -0.074641341
0.0056106159 -0.073432654 -0.074792557
0.020530245 -0.073361142 -0.074976501
0.038678951 -0.073274153 -0.075200255
0.060755608 -0.073168337 -0.075472438
0.087610343 -0.073039619 -0.075803529
0.12027729 -0.072883043 -0.076206278
0.16001439 -0.072692578 -0.076696196
0.20835184 -0.072460891 -0.077292146
0.26715104 -0.07217906 -0.07801708
0.33867625 -0.071836231 -0.078898911
0.42568175 -0.071419204 -0.079971599
0.53151794 -0.070911919 -0.08127645
0.66026043 -0.070294841 -0.082863711
0.81686681 -0.069544208 -0.084794505
1.0073678 -0.068631115 -0.087143185
1.2390991 -0.0675204 -0.090000192
1.5209844 -0.066169291 -0.093475546
1.8638785 -0.06452576 -0.097703074
2.2809855 -0.062526517 -0.10284557
2.7883678 -0.060094575 -0.10910107
3.4055633 -0.057136285 -0.11671045
4.1563394 -0.053537728 -0.12596674
5.069607 -0.04916033 -0.13722638
6.1805339 -0.043835528 -0.15092296
7.5319006 -0.03735827 -0.16758391
9.1757457 -0.029479129 -0.18785082
11.175371 -0.019894693 -0.21250413
-0.070263593 -0.047445067 -0.079015327
-0.052087068 -0.047357945 -0.079239425
-0.037144567 -0.047286324 -0.07942365
-0.024860685 -0.047227445 -0.079575098
-0.013981734 -0.047175301 -0.079709224
-0.0031047163 -0.047123167 -0.079843326
0.0091603644 -0.047064379 -0.079994542
0.024079994 -0.046992867 -0.080178485
0.0422287 -0.046905878 -0.08040224
0.064305357 -0.046800062 -0.080674423
0.091160092 -0.046671344 -0.081005514
0.12382704 -0.046514768 -0.081408263
0.16356414 -0.046324303 -0.08189818
0.21190159 -0.046092616 -0.082494131
0.27070079 -0.045810785 -0.083219064
0.342226 -0.045467956 -0.084100896
0.4292315 -0.045050929 -0.085173584
0.53506769 -0.044543644 -0.086478434
0.66381018 -0.043926566 -0.088065696
0.82041656 -0.043175933 -0.08999649
1.0109175 -0.04226284 -0.092345169
1.2426489 -0.041152125 -0.095202177
1.5245341 -0.039801016 -0.09867753
1.8674282 -0.038157485 -0.10290506
2.2845352 -0.036158242 -0.10804756
2.7919175 -0.0337263 -0.11430305
3.409113 -0.03076801 -0.12191244
4.1598891 -0.027169453 -0.13116873
5.0731567 -0.022792055 -0.14242837
6.1840836 -0.017467253 -0.15612495
7.5354504 -0.010989995 -0.1727859
9.1792955 -0.0031108541 -0.19305281
11.178921 0.0064735817 -0.21770611
-0.067345427 -0.025768318 -0.083291758
-0.049168902 -0.025681196 -0.083515856
-0.034226401 -0.025609575 -0.083700081
-0.021942519 -0.025550697 -0.083851529
-0.011063568 -0.025498553 -0.083985655
-0.00018655021 -0.025446418 -0.084119757
0.01207853 -0.02538763 -0.084270973
0.02699816 -0.025316119 -0.084454917
0.045146866 -0.02522913 -0.084678671
0.067223523 -0.025123314 -0.084950854
0.094078258 -0.024994596 -0.085281945
0.1267452 -0.02483802 -0.085684694
0.16648231 -0.024647555 -0.086174612
0.21481976 -0.024415868 -0.086770562
0.27361896 -0.024134037 -0.087495496
0.34514416 -0.023791208 -0.088377327
0.43214966 -0.02337418 -0.089450015
0.53798586 -0.022866895 -0.090754866
0.66672834 -0.022249818 -0.092342127
0.82333472 -0.021499185 -0.094272921
1.0138357 -0.020586092 -0.096621601
1.245567 -0.019475376 -0.099478608
1.5274523 -0.018124267 -0.10295396
1.8703464 -0.016480736 -0.10718149
2.2874534 -0.014481494 -0.11232399
2.7948357 -0.012049552 -0.11857949
3.4120312 -0.0090912616 -0.12618887
4.1628073 -0.0054927045 -0.13544516
5.0760749 -0.0011153066 -0.1467048
6.1870018 0.0042094954 -0.16040138
7.5383685 0.010686753 -0.17706233
9.1822137 0.018565894 -0.19732924
11.181839 0.02815033 -0.22198254
-0.064946471 -0.0079483675 -0.086807313
-0.046769946 -0.0078612453 -0.08703141
-0.031827445 -0.0077896242 -0.087215636
-0.019543562 -0.0077307461 -0.087367084
-0.0086646116 -0.007678602 -0.08750121
0.0022124063 -0.0076264672 -0.087635312
0.014477487 -0.0075676793 -0.087786528
0.029397116 -0.0074961677 -0.087970471
0.047545822 -0.0074091789 -0.088194226
0.069622479 -0.0073033629 -0.088466408
0.096477214 -0.007174645 -0.0887975
0.12914416 -0.0070180686 -0.089200249
0.16888127 -0.006827604 -0.089690166
0.21721872 -0.006595917 -0.090286117
0.27601791 -0.0063140856 -0.09101105
0.34754312 -0.0059712569 -0.091892882
0.43454862 -0.0055542294 -0.09296557
0.54038481 -0.0050469443 -0.09427042
0.6691273 -0.0044298665 -0.095857682
0.82573368 -0.0036792339 -0.097788476
1.0162346 -0.0027661407 -0.10013716
1.247966 -0.0016554253 -0.10299416
1.5298513 -0.00030431641 -0.10646952
1.8727453 0.0013392148 -0.11069704
2.2898523 0.0033384572 -0.11583954
2.7972346 0.0057703994 -0.12209504
3.4144301 0.0087286894 -0.12970442
4.1652062 0.012327246 -0.13896071
5.0784738 0.016704644 -0.15022036
6.1894008 0.022029446 -0.16391693
7.5407675 0.028506704 -0.18057788
9.1846126 0.036385845 -0.20084479
11.184238 0.045970281 -0.2254981
-0.062821888 0.0078334809 -0.089920787
-0.044645362 0.0079206031 -0.090144884
-0.029702862 0.0079922242 -0.09032911
-0.017418979 0.0080511023 -0.090480557
-0.0065400285 0.0081032464 -0.090614684
0.0043369894 0.0081553812 -0.090748786
0.01660207 0.0082141691 -0.090900002
0.031521699 0.0082856807 -0.091083945
0.049670405 0.0083726695 -0.0913077
0.071747062 0.0084784855 -0.091579882
0.098601798 0.0086072034 -0.091910973
0.13126874 0.0087637798 -0.092313723
0.17100585 0.0089542444 -0.09280364
0.2193433 0.0091859314 -0.093399591
0.27814249 0.0094677628 -0.094124524
0.3496677 0.0098105915 -0.095006356
0.4366732 0.010227619 -0.096079044
0.5425094 0.010734904 -0.097383894
0.67125188 0.011351982 -0.098971156
0.82785826 0.012102614 -0.10090195
1.0183592 0.013015708 -0.10325063
1.2500906 0.014126423 -0.10610764
1.5319759 0.015477532 -0.10958299
1.8748699 0.017121063 -0.11381052
2.2919769 0.019120306 -0.11895302
2.7993592 0.021552248 -0.12520851
3.4165547 0.024510538 -0.1328179
4.1673308 0.028109095 -0.14207419
5.0805984 0.032486493 -0.15333383
6.1915253 0.037811295 -0.16703041
7.5428921 0.044288553 -0.18369136
9.1867372 0.052167694 -0.20395827
11.186362 0.061752129 -0.22861157
-0.060697682 0.023612525 -0.093033707
-0.042521157 0.023699647 -0.093257805
-0.027578656 0.023771269 -0.093442031
-0.015294774 0.023830147 -0.093593478
-0.0044158228 0.023882291 -0.093727604
0.0064611951 0.023934426 -0.093861707
0.018726276 0.023993213 -0.094012922
0.033645905 0.024064725 -0.094196866
0.051794611 0.024151714 -0.094420621
0.073871268 0.02425753 -0.094692803
0.100726 0.024386248 -0.095023894
0.13339295 0.024542824 -0.095426644
0.17313005 0.024733289 -0.095916561
0.2214675 0.024964976 -0.096512512
0.2802667 0.025246807 -0.097237445
0.35179191 0.025589636 -0.098119277
0.43879741 0.026006663 -0.099191964
0.5446336 0.026513948 -0.10049681
0.67337609 0.027131026 -0.10208408
0.82998247 0.027881659 -0.10401487
1.0204834 0.028794752 -0.10636355
1.2522148 0.029905467 -0.10922056
1.5341001 0.031256576 -0.11269591
1.8769941 0.032900108 -0.11692344
2.2941011 0.03489935 -0.12206594
2.8014834 0.037331292 -0.12832143
3.4186789 0.040289582 -0.13593082
4.169455 0.043888139 -0.14518711
5.0827226 0.048265537 -0.15644675
6.1936495 0.053590339 -0.17014333
7.5450163 0.060067597 -0.18680428
9.1888614 0.067946738 -0.20707119
11.188487 0.077531174 -0.23172449
-0.058302397 0.041405201 -0.096543881
-0.040125872 0.041492323 -0.096767979
-0.025183371 0.041563944 -0.096952204
-0.012899489 0.041622822 -0.097103652
-0.0020205382 0.041674966 -0.097237778
0.0088564797 0.041727101 -0.09737188
0.02112156 0.041785889 -0.097523096
0.03604119 0.041857401 -0.09770704
0.054189896 0.04194439 -0.097930794
0.076266553 0.042050206 -0.098202977
0.10312129 0.042178923 -0.098534068
0.13578823 0.0423355 -0.098936817
0.17552534 0.042525964 -0.099426735
0.22386279 0.042757651 -0.10002269
0.28266199 0.043039483 -0.10074762
0.35418719 0.043382311 -0.10162945
0.44119269 0.043799339 -0.10270214
0.54702889 0.044306624 -0.10400699
0.67577137 0.044923702 -0.10559425
0.83237775 0.045674334 -0.10752504
1.0228787 0.046587428 -0.10987372
1.2546101 0.047698143 -0.11273073
1.5364953 0.049049252 -0.11620608
1.8793894 0.050692783 -0.12043361
2.2964964 0.052692026 -0.12557611
2.8038787 0.055123968 -0.13183161
3.4210742 0.058082258 -0.13944099
4.1718503 0.061680815 -0.14869728
5.0851179 0.066058213 -0.15995692
6.1960448 0.071383015 -0.1736535
7.5474116 0.077860273 -0.19031445
9.1912567 0.085739414 -0.21058136
11.190882 0.095323849 -0.23523467
-0.055388698 0.06304877 -0.10081377
-0.037212173 0.063135893 -0.10103786
-0.022269672 0.063207514 -0.10122209
-0.0099857895 0.063266392 -0.10137354
0.00089316129 0.063318536 -0.10150766
0.011770179 0.063370671 -0.10164177
0.02403526 0.063429459 -0.10179298
0.038954889 0.06350097 -0.10197693
0.057103595 0.063587959 -0.10220068
0.079180252 0.063693775 -0.10247286
0.10603499 0.063822493 -0.10280395
0.13870193 0.063979069 -0.1032067
0.17843904 0.064169534 -0.10369662
0.22677649 0.064401221 -0.10429257
0.28557568 0.064683052 -0.1050175
0.35710089 0.065025881 -0.10589934
0.44410639 0.065442909 -0.10697202
0.54994259 0.065950194 -0.10827687
0.67868507 0.066567271 -0.10986414
0.83529145 0.067317904 -0.11179493
1.0257924 0.068230997 -0.11414361
1.2575238 0.069341713 -0.11700062
1.539409 0.070692822 -0.12047597
1.8823031 0.072336353 -0.1247035
2.2994101 0.074335595 -0.129846
2.8067924 0.076767537 -0.13610149
3.4239879 0.079725827 -0.14371088
4.174764 0.083324384 -0.15296717
5.0880316 0.087701782 -0.16422681
6.1989585 0.093026584 -0.17792339
7.5503253 0.099503842 -0.19458434
9.1941704 0.10738298 -0.21485125
11.193796 0.11696742 -0.23950455
-0.051844382 0.089376688 -0.10600779
-0.033667857 0.089463811 -0.10623189
-0.018725356 0.089535432 -0.10641611
-0.006441474 0.08959431 -0.10656756
0.0044374768 0.089646454 -0.10670169
0.015314495 0.089698589 -0.10683579
0.027579575 0.089757377 -0.106987
0.042499205 0.089828888 -0.10717095
0.060647911 0.089915877 -0.1073947
0.082724568 0.090021693 -0.10766689
0.1095793 0.090150411 -0.10799798
0.14224625 0.090306987 -0.10840073
0.18198335 0.090497452 -0.10889064
0.2303208 0.090729139 -0.10948659
0.28912 0.09101097 -0.11021153
0.36064521 0.091353799 -0.11109336
0.44765071 0.091770826 -0.11216605
0.5534869 0.092278112 -0.1134709
0.68222939 0.092895189 -0.11505816
0.83883577 0.093645822 -0.11698895
1.0293367 0.094558915 -0.11933763
1.2610681 0.095669631 -0.12219464
1.5429534 0.097020739 -0.12566999
1.8858474 0.098664271 -0.12989752
2.3029544 0.10066351 -0.13504002
2.8103367 0.10309546 -0.14129552
3.4275322 0.10605375 -0.1489049
4.1783083 0.1096523 -0.15816119
5.0915759 0.1140297 -0.16942083
6.2025028 0.1193545 -0.18311741
7.5538696 0.12583176 -0.19977836
9.1977147 0.1337109 -0.22004527
11.19734 0.14329534 -0.24469857
-0.047532965 0.1214028 -0.11232596
-0.02935644 0.12148992 -0.11255006
-0.014413939 0.12156154 -0.11273429
-0.002130057 0.12162042 -0.11288573
0.0087488938 0.12167256 -0.11301986
0.019625912 0.1217247 -0.11315396
0.031890992 0.12178348 -0.11330518
0.046810622 0.121855 -0.11348912
0.064959328 0.12194198 -0.11371288
0.087035985 0.1220478 -0.11398506
0.11389072 0.12217652 -0.11431615
0.14655766 0.1223331 -0.1147189
0.18629477 0.12252356 -0.11520882
0.23463222 0.12275525 -0.11580477
0.29343142 0.12303708 -0.1165297
0.36495662 0.12337991 -0.11741153
0.45196213 0.12379693 -0.11848422
0.55779832 0.12430422 -0.11978907
0.6865408 0.1249213 -0.12137633
0.84314718 0.12567193 -0.12330713
1.0336481 0.12658502 -0.12565581
1.2653795 0.12769574 -0.12851281
1.5472648 0.12904685 -0.13198817
1.8901588 0.13069038 -0.1362157
2.3072659 0.13268962 -0.14135819
2.8146481 0.13512156 -0.14761369
3.4318437 0.13807985 -0.15522307
4.1826197 0.14167841 -0.16447936
5.0958873 0.14605581 -0.17573901
6.2068143 0.15138061 -0.18943558
7.558181 0.15785787 -0.20609653
9.2020261 0.16573701 -0.22636344
11.201651 0.17532144 -0.25101675
-0.042288423 0.16036035 -0.12001159
-0.024111898 0.16044748 -0.12023568
-0.0091693971 0.1605191 -0.12041991
0.0031144853 0.16057798 -0.12057136
0.013993436 0.16063012 -0.12070548
0.024870454 0.16068225 -0.12083959
0.037135535 0.16074104 -0.1209908
0.052055164 0.16081255 -0.12117474
0.07020387 0.16089954 -0.1213985
0.092280527 0.16100536 -0.12167068
0.11913526 0.16113408 -0.12200177
0.15180221 0.16129065 -0.12240452
0.19153931 0.16148112 -0.12289444
0.23987676 0.16171281 -0.12349039
0.29867596 0.16199464 -0.12421532
0.37020117 0.16233747 -0.12509716
0.45720667 0.16275449 -0.12616984
0.56304286 0.16326178 -0.12747469
0.69178535 0.16387886 -0.12906195
0.84839173 0.16462949 -0.13099275
1.0388927 0.16554258 -0.13334143
1.2706241 0.1666533 -0.13619844
1.5525093 0.16800441 -0.13967379
1.8954034 0.16964794 -0.14390132
2.3125104 0.17164718 -0.14904382
2.8198927 0.17407912 -0.15529931
3.4370882 0.17703741 -0.16290869
4.1878643 0.18063597 -0.17216499
5.1011319 0.18501337 -0.18342463
6.2120588 0.19033817 -0.19712121
7.5634255 0.19681543 -0.21378216
9.2072707 0.20469457 -0.23404907
11.206896 0.214279 -0.25870237
-0.035908797 0.20774955 -0.12936062
-0.017732272 0.20783668 -0.12958472
-0.0027897709 0.2079083 -0.12976894
0.0094941115 0.20796717 -0.12992039
0.020373062 0.20801932 -0.13005452
0.03125008 0.20807145 -0.13018862
0.043515161 0.20813024 -0.13033983
0.05843479 0.20820175 -0.13052378
0.076583496 0.20828874 -0.13074753
0.098660153 0.20839456 -0.13101972
0.12551489 0.20852328 -0.13135081
0.15818183 0.20867985 -0.13175356
0.19791894 0.20887032 -0.13224347
0.24625639 0.209102 -0.13283942
0.30505559 0.20938384 -0.13356436
0.37658079 0.20972666 -0.13444619
0.46358629 0.21014369 -0.13551888
0.56942249 0.21065098 -0.13682373
0.69816497 0.21126805 -0.13841099
0.85477135 0.21201869 -0.14034178
1.0452723 0.21293178 -0.14269046
1.2770037 0.2140425 -0.14554747
1.5588889 0.2153936 -0.14902282
1.901783 0.21703714 -0.15325035
2.31889 0.21903638 -0.15839285
2.8262723 0.22146832 -0.16464835
3.4434678 0.22442661 -0.17225773
4.1942439 0.22802517 -0.18151402
5.1075115 0.23240257 -0.19277366
6.2184384 0.23772737 -0.20647024
7.5698052 0.24420463 -0.22313119
9.2136503 0.25208377 -0.2433981
11.213275 0.2616682 -0.2680514
-0.028148417 0.26539528 -0.14073308
-0.009971892 0.2654824 -0.14095718
0.0049706087 0.26555402 -0.1411414
0.017254491 0.2656129 -0.14129285
0.028133442 0.26566504 -0.14142698
0.03901046 0.26571718 -0.14156108
0.051275541 0.26577597 -0.1417123
0.06619517 0.26584748 -0.14189624
0.084343876 0.26593447 -0.14211999
0.10642053 0.26604028 -0.14239218
0.13327527 0.266169 -0.14272327
0.16594221 0.26632558 -0.14312602
0.20567932 0.26651604 -0.14361593
0.25401677 0.26674773 -0.14421189
0.31281597 0.26702956 -0.14493682
0.38434117 0.26737239 -0.14581865
0.47134667 0.26778942 -0.14689134
0.57718287 0.2682967 -0.14819619
0.70592535 0.26891378 -0.14978345
0.86253173 0.26966441 -0.15171424
1.0530327 0.2705775 -0.15406292
1.2847641 0.27168822 -0.15691993
1.5666493 0.27303933 -0.16039528
1.9095434 0.27468286 -0.16462281
2.3266504 0.2766821 -0.16976531
2.8340327 0.27911404 -0.17602081
3.4512282 0.28207233 -0.18363019
4.2020043 0.28567089 -0.19288648
5.1152719 0.29004829 -0.20414612
6.2261988 0.29537309 -0.2178427
7.5775655 0.30185035 -0.23450365
9.2214107 0.30972949 -0.25477056
11.221036 0.31931393 -0.27942387
-0.018708451 0.33551732 -0.1545669
-0.00053192549 0.33560445 -0.15479099
0.014410575 0.33567607 -0.15497522
0.026694458 0.33573495 -0.15512667
0.037573408 0.33578709 -0.15526079
0.048450426 0.33583922 -0.15539489
0.060715507 0.33589801 -0.15554611
0.075635136 0.33596952 -0.15573005
0.093783842 0.33605651 -0.15595381
0.1158605 0.33616233 -0.15622599
0.14271523 0.33629105 -0.15655708
0.17538218 0.33644762 -0.15695983
0.21511929 0.33663809 -0.15744975
0.26345674 0.33686978 -0.1580457
0.32225593 0.33715161 -0.15877063
0.39378114 0.33749444 -0.15965246
0.48078664 0.33791146 -0.16072515
0.58662283 0.33841875 -0.16203
0.71536532 0.33903583 -0.16361726
0.8719717 0.33978646 -0.16554806
1.0624726 0.34069955 -0.16789674
1.294204 0.34181027 -0.17075375
1.5760893 0.34316138 -0.1742291
1.9189834 0.34480491 -0.17845663
2.3360904 0.34680415 -0.18359912
2.8434726 0.34923609 -0.18985462
3.4606682 0.35219438 -0.197464
4.2114442 0.35579294 -0.20672029
5.1247119 0.36017034 -0.21797994
6.2356388 0.36549514 -0.23167652
7.5870055 0.3719724 -0.24833747
9.2308506 0.37985154 -0.26860437
11.230476 0.38943597 -0.29325768
-0.0072253783 0.42081599 -0.17139478
0.010951147 0.42090311 -0.17161888
0.025893648 0.42097473 -0.17180311
0.03817753 0.42103361 -0.17195455
0.049056481 0.42108576 -0.17208868
0.059933499 0.42113789 -0.17222278
0.07219858 0.42119668 -0.172374
0.087118209 0.42126819 -0.17255794
0.10526691 0.42135518 -0.1727817
0.12734357 0.421461 -0.17305388
0.15419831 0.42158971 -0.17338497
0.18686525 0.42174629 -0.17378772
0.22660236 0.42193676 -0.17427764
0.27493981 0.42216844 -0.17487359
0.333739 0.42245027 -0.17559852
0.40526421 0.4227931 -0.17648035
0.49226971 0.42321013 -0.17755304
0.59810591 0.42371741 -0.17885789
0.72684839 0.42433449 -0.18044515
0.88345477 0.42508513 -0.18237595
1.0739557 0.42599822 -0.18472463
1.3056871 0.42710893 -0.18758163
1.5875724 0.42846004 -0.19105699
1.9304664 0.43010357 -0.19528451
2.3475734 0.43210282 -0.20042701
2.8549557 0.43453476 -0.20668251
3.4721512 0.43749305 -0.21429189
4.2229273 0.44109161 -0.22354818
5.1361949 0.445469 -0.23480783
6.2471219 0.45079381 -0.2485044
7.5984886 0.45727106 -0.26516535
9.2423337 0.4651502 -0.28543226
11.241959 0.47473464 -0.31008557
0.0067429952 0.52457599 -0.19186476
0.024919521 0.52466312 -0.19208886
0.039862021 0.52473474 -0.19227308
0.052145904 0.52479362 -0.19242453
0.063024855 0.52484576 -0.19255866
0.073901872 0.52489789 -0.19269276
0.086166953 0.52495668 -0.19284397
0.10108658 0.52502819 -0.19302792
0.11923529 0.52511518 -0.19325167
0.14131195 0.525221 -0.19352385
0.16816668 0.52534972 -0.19385495
0.20083362 0.52550629 -0.19425769
0.24057073 0.52569676 -0.19474761
0.28890818 0.52592844 -0.19534356
0.34770738 0.52621028 -0.1960685
0.41923258 0.5265531 -0.19695033
0.50623809 0.52697013 -0.19802302
0.61207428 0.52747742 -0.19932787
0.74081676 0.5280945 -0.20091513
0.89742314 0.52884513 -0.20284592
1.0879241 0.52975822 -0.2051946
1.3196555 0.53086894 -0.20805161
1.6015407 0.53222005 -0.21152696
1.9444348 0.53386358 -0.21575449
2.3615418 0.53586282 -0.22089699
2.8689241 0.53829476 -0.22715249
3.4861196 0.54125305 -0.23476187
4.2368957 0.54485161 -0.24401816
5.1501633 0.54922901 -0.2552778
6.2610902 0.55455381 -0.26897438
7.6124569 0.56103107 -0.28563533
9.2563021 0.56891021 -0.30590224
11.255927 0.57849464 -0.33055554
0.023734562 0.65079291 -0.21676508
0.041911088 0.65088003 -0.21698918
0.056853589 0.65095166 -0.2171734
0.069137471 0.65101053 -0.21732485
0.080016422 0.65106268 -0.21745898
0.09089344 0.65111481 -0.21759308
0.10315852 0.6511736 -0.21774429
0.11807815 0.65124511 -0.21792824
0.13622686 0.6513321 -0.21815199
0.15830351 0.65143792 -0.21842417
0.18515825 0.65156664 -0.21875527
0.21782519 0.65172321 -0.21915801
0.2575623 0.65191368 -0.21964793
0.30589975 0.65214536 -0.22024388
0.36469895 0.65242719 -0.22096882
0.43622415 0.65277002 -0.22185065
0.52322965 0.65318705 -0.22292334
0.62906585 0.65369434 -0.22422819
0.75780833 0.65431141 -0.22581545
0.91441471 0.65506205 -0.22774624
1.1049157 0.65597514 -0.23009492
1.336647 0.65708585 -0.23295193
1.6185323 0.65843696 -0.23642728
1.9614264 0.6600805 -0.24065481
2.3785334 0.66207974 -0.24579731
2.8859157 0.66451168 -0.25205281
3.5031112 0.66746997 -0.25966219
4.2538873 0.67106853 -0.26891848
5.1671549 0.67544592 -0.28017812
6.2780818 0.68077073 -0.2938747
7.6294485 0.68724798 -0.31053565
9.2732937 0.69512713 -0.33080256
11.272919 0.70471156 -0.35545586
0.044403632 0.80432709 -0.2470546
0.062580158 0.80441421 -0.2472787
0.077522658 0.80448583 -0.24746292
0.089806541 0.80454471 -0.24761437
0.10068549 0.80459685 -0.2477485
0.11156251 0.80464899 -0.2478826
0.12382759 0.80470778 -0.24803382
0.13874722 0.80477929 -0.24821776
0.15689593 0.80486628 -0.24844151
0.17897258 0.80497209 -0.2487137
0.20582732 0.80510081 -0.24904479
0.23849426 0.80525739 -0.24944754
0.27823137 0.80544785 -0.24993745
0.32656882 0.80567954 -0.25053341
0.38536801 0.80596137 -0.25125834
0.45689322 0.8063042 -0.25214017
0.54389872 0.80672123 -0.25321286
0.64973492 0.80722851 -0.25451771
0.7784774 0.80784559 -0.25610497
0.93508378 0.80859622 -0.25803576
1.1255847 0.80950932 -0.26038444
1.3573161 0.81062003 -0.26324145
1.6392014 0.81197114 -0.2667168
1.9820954 0.81361467 -0.27094433
2.3992024 0.81561391 -0.27608683
2.9065847 0.81804586 -0.28234233
3.5237802 0.82100415 -0.28995171
4.2745563 0.8246027 -0.299208
5.1878239 0.8289801 -0.31046764
6.2987509 0.8343049 -0.32416422
7.6501176 0.84078216 -0.34082517
9.2939627 0.8486613 -0.36109208
11.293588 0.85824574 -0.38574539
0.069546141 0.9910909 -0.28389973
0.087722666 0.99117803 -0.28412383
0.10266517 0.99124965 -0.28430805
0.11494905 0.99130853 -0.2844595
0.125828 0.99136067 -0.28459363
0.13670502 0.9914128 -0.28472773
0.1489701 0.99147159 -0.28487895
0.16388973 0.9915431 -0.28506289
0.18203843 0.99163009 -0.28528664
0.20411509 0.99173591 -0.28555883
0.23096983 0.99186463 -0.28588992
0.26363677 0.9920212 -0.28629267
0.30337388 0.99221167 -0.28678258
0.35171133 0.99244335 -0.28737854
0.41051052 0.99272519 -0.28810347
0.48203573 0.99306801 -0.2889853
0.56904123 0.99348504 -0.29005799
0.67487743 0.99399233 -0.29136284
0.80361991 0.99460941 -0.2929501
0.96022629 0.99536004 -0.29488089
1.1507272 0.99627313 -0.29722957
1.3824586 0.99738385 -0.30008658
1.6643439 0.99873496 -0.30356193
2.007238 1.0003785 -0.30778946
2.424345 1.0023777 -0.31293196
2.9317272 1.0048097 -0.31918746
3.5489228 1.007768 -0.32679684
4.2996988 1.0113665 -0.33605313
5.2129664 1.0157439 -0.34731277
6.3238934 1.0210687 -0.36100935
7.6752601 1.027546 -0.3776703
9.3191052 1.0354251 -0.39793721
11.31873 1.0450096 -0.42259052
0.10013027 1.2182762 -0.3287193
0.1183068 1.2183634 -0.3289434
0.1332493 1.218435 -0.32912762
0.14553318 1.2184939 -0.32927907
0.15641213 1.218546 -0.3294132
0.16728915 1.2185981 -0.3295473
0.17955423 1.2186569 -0.32969851
0.19447386 1.2187284 -0.32988246
0.21262257 1.2188154 -0.33010621
