site/assets/luts/ocio-aces--djiinputdlog-dgamut-to-aces2065-1--203a8b4c5.cube
# LUTr-Project: LUTr — LUTrepository
# LUTr-Schema-Version: 1
# LUTr-ID: ocio-aces--djiinputdlog-dgamut-to-aces2065-1--203a8b4c5
# LUTr-Title: DJI.Input.DLog DGamut to ACES2065-1
# LUTr-Collection: OCIO ACES
# LUTr-Collection-ID: aswf-opencolorio-config-aces
# LUTr-Source: https://github.com/AcademySoftwareFoundation/OpenColorIO-Config-ACES
# LUTr-Source-File: submissions/aswf-opencolorio-config-aces/opencolorio_config_aces/clf/transforms/dji/input/DJI.Input.DLog_DGamut_to_ACES2065-1.clf
# LUTr-Source-Format: CLF
# LUTr-Source-SHA256: 9617d4ccb9fc6d0d8986337cdcfac6c1ac70f58e411c29b187760816f29cefe9
# LUTr-License: BSD-3-Clause
# LUTr-License-URL: https://github.com/AcademySoftwareFoundation/OpenColorIO-Config-ACES/blob/main/LICENSE
# LUTr-Tags: technical, aces, ocio, clf, color-management, cube
# LUTr-Transform-Class: color-space-conversion
# LUTr-Input-Color-Space: DJI D-Log - D-Gamut
# LUTr-Output-Color-Space: ACES2065-1
# LUTr-Color-Space-Confidence: descriptor-only
# LUTr-Conversion-Method: CLF operations evaluated as float and sampled to 33x33x33 3D CUBE
# LUTr-Conversion-Date: 2026-07-27
# LUTr-Conversion-Tool: LUTr scripts/convert-all-to-cube.mjs
# LUTr-Conversion-Grid: 33x33x33
# LUTr-Conversion-Warning: A sampled 3D CUBE is bounded to DOMAIN_MIN/MAX 0..1 and cannot preserve CLF values outside its input domain.
# LUTr-Upstream-ID: urn:aswf:ocio:transformId:1.0:DJI:Input:DLog_DGamut_to_ACES2065-1:1.0
# LUTr-Upstream-Name: DJI D-Log - D-Gamut to ACES2065-1
# LUTr-Upstream-Input-Descriptor: DJI D-Log - D-Gamut
# LUTr-Upstream-Output-Descriptor: ACES2065-1
# LUTr-Upstream-Operations: Log → Matrix
# LUTr-Note: Preserve this metadata and the upstream license notices when redistributing.
TITLE "DJI.Input.DLog DGamut to ACES2065-1"
LUT_3D_SIZE 33
DOMAIN_MIN 0 0 0
DOMAIN_MAX 1 1 1
-0.015418093 -0.015418093 -0.015418093
-0.011833027 -0.015074655 -0.015507806
-0.00824796 -0.014731217 -0.015597518
-0.0046628934 -0.014387778 -0.015687231
-0.0010778268 -0.01404434 -0.015776943
0.0026766719 -0.013684671 -0.015870896
0.0075253766 -0.01322018 -0.01599223
0.013943096 -0.012605382 -0.016152826
0.022437555 -0.01179164 -0.016365391
0.033680776 -0.010714574 -0.016646741
0.048562242 -0.0092889759 -0.017019134
0.068259272 -0.0074020616 -0.017512032
0.094330154 -0.0049045521 -0.018164428
0.12883743 -0.0015988619 -0.019027937
0.17451109 0.002776532 -0.020170872
0.23496449 0.0085677798 -0.021683656
0.31498028 0.016233044 -0.023685967
0.42088876 0.026378748 -0.026336216
0.56106866 0.039807546 -0.029844072
0.74661001 0.057581832 -0.034487051
0.99219156 0.081107781 -0.040632472
1.317242 0.1122466 -0.048766519
1.747477 0.15346178 -0.059532701
2.3169337 0.20801396 -0.073782761
3.0706636 0.28021894 -0.092644063
4.0682964 0.37578907 -0.11760878
5.3887579 0.50228517 -0.15065195
7.1365136 0.66971474 -0.19438771
9.4498337 0.89132362 -0.25227613
12.511732 1.1846439 -0.32889693
16.564444 1.5728811 -0.43031181
21.928591 2.0867498 -0.56454401
29.028549 2.7669037 -0.74221302
-0.014306277 -0.010171717 -0.01581939
-0.01072121 -0.0098282787 -0.015909103
-0.0071361436 -0.0094848405 -0.015998815
-0.003551077 -0.0091414022 -0.016088528
0.000033989608 -0.008797964 -0.01617824
0.0037884884 -0.0084382947 -0.016272193
0.008637193 -0.0079738038 -0.016393527
0.015054913 -0.0073590062 -0.016554123
0.023549372 -0.0065452635 -0.016766688
0.034792592 -0.0054681979 -0.017048038
0.049674059 -0.0040425996 -0.017420431
0.069371088 -0.0021556854 -0.017913329
0.09544197 0.00034182412 -0.018565725
0.12994925 0.0036475143 -0.019429234
0.1756229 0.0080229082 -0.02057217
0.2360763 0.013814156 -0.022084953
0.3160921 0.021479421 -0.024087264
0.42200058 0.031625124 -0.026737514
0.56218047 0.045053922 -0.030245369
0.74772183 0.062828208 -0.034888348
0.99330338 0.086354157 -0.041033769
1.3183538 0.11749298 -0.049167817
1.7485888 0.15870815 -0.059933998
2.3180455 0.21326034 -0.074184058
3.0717754 0.28546532 -0.093045361
4.0694082 0.38103544 -0.11801008
5.3898697 0.50753155 -0.15105325
7.1376254 0.67496112 -0.19478901
9.4509455 0.89656999 -0.25267743
12.512844 1.1898903 -0.32929823
16.565555 1.5781275 -0.43071311
21.929703 2.0919962 -0.56494531
29.02966 2.77215 -0.74261432
-0.01319446 -0.0049253407 -0.016220687
-0.0096093937 -0.0045819025 -0.0163104
-0.0060243271 -0.0042384642 -0.016400112
-0.0024392605 -0.003895026 -0.016489825
0.0011458061 -0.0035515878 -0.016579537
0.0049003048 -0.0031919184 -0.01667349
0.0097490095 -0.0027274276 -0.016794824
0.016166729 -0.00211263 -0.01695542
0.024661188 -0.0012988872 -0.017167985
0.035904409 -0.00022182163 -0.017449335
0.050785875 0.0012037766 -0.017821728
0.070482904 0.0030906908 -0.018314626
0.096553787 0.0055882004 -0.018967023
0.13106107 0.0088938906 -0.019830531
0.17673472 0.013269284 -0.020973467
0.23718812 0.019060532 -0.02248625
0.31720391 0.026725797 -0.024488562
0.42311239 0.0368715 -0.027138811
0.56329229 0.050300299 -0.030646666
0.74883365 0.068074584 -0.035289645
0.99441519 0.091600533 -0.041435066
1.3194656 0.12273935 -0.049569114
1.7497006 0.16395453 -0.060335295
2.3191573 0.21850671 -0.074585355
3.0728872 0.29071169 -0.093446658
4.07052 0.38628182 -0.11841138
5.3909815 0.51277792 -0.15145455
7.1387372 0.68020749 -0.19519031
9.4520573 0.90181637 -0.25307873
12.513955 1.1951367 -0.32969953
16.566667 1.5833739 -0.43111441
21.930815 2.0972426 -0.5653466
29.030772 2.7773964 -0.74301562
-0.012082644 0.00032103552 -0.016621984
-0.0084975772 0.00066447376 -0.016711697
-0.0049125107 0.001007912 -0.016801409
-0.0013274441 0.0013513502 -0.016891122
0.0022576225 0.0016947885 -0.016980835
0.0060121213 0.0020544578 -0.017074787
0.010860826 0.0025189486 -0.017196121
0.017278545 0.0031337462 -0.017356717
0.025773005 0.003947489 -0.017569282
0.037016225 0.0050245546 -0.017850632
0.051897692 0.0064501529 -0.018223025
0.071594721 0.0083370671 -0.018715923
0.097665603 0.010834577 -0.01936832
0.13217288 0.014140267 -0.020231828
0.17784653 0.018515661 -0.021374764
0.23829993 0.024306909 -0.022887547
0.31831573 0.031972173 -0.024889859
0.42422421 0.042117876 -0.027540108
0.5644041 0.055546675 -0.031047963
0.74994546 0.07332096 -0.035690942
0.99552701 0.096846909 -0.041836363
1.3205774 0.12798573 -0.049970411
1.7508124 0.16920091 -0.060736592
2.3202692 0.22375309 -0.074986652
3.073999 0.29595807 -0.093847955
4.0716319 0.3915282 -0.11881267
5.3920933 0.5180243 -0.15185584
7.139849 0.68545387 -0.1955916
9.4531691 0.90706274 -0.25348002
12.515067 1.2003831 -0.33010082
16.567779 1.5886203 -0.43151571
21.931927 2.102489 -0.5657479
29.031884 2.7826428 -0.74341691
-0.010970827 0.0055674118 -0.017023281
-0.0073857608 0.00591085 -0.017112994
-0.0038006942 0.0062542882 -0.017202707
-0.00021562763 0.0065977265 -0.017292419
0.003369439 0.0069411647 -0.017382132
0.0071239377 0.007300834 -0.017476084
0.011972642 0.0077653249 -0.017597418
0.018390362 0.0083801225 -0.017758015
0.026884821 0.0091938653 -0.017970579
0.038128042 0.010270931 -0.018251929
0.053009508 0.011696529 -0.018624322
0.072706537 0.013583443 -0.01911722
0.09877742 0.016080953 -0.019769617
0.1332847 0.019386643 -0.020633125
0.17895835 0.023762037 -0.021776061
0.23941175 0.029553285 -0.023288844
0.31942755 0.037218549 -0.025291156
0.42533603 0.047364253 -0.027941405
0.56551592 0.060793051 -0.03144926
0.75105728 0.078567337 -0.036092239
0.99663883 0.10209329 -0.04223766
1.3216892 0.13323211 -0.050371708
1.7519242 0.17444728 -0.061137889
2.321381 0.22899947 -0.075387949
3.0751108 0.30120445 -0.094249252
4.0727437 0.39677457 -0.11921397
5.3932051 0.52327068 -0.15225714
7.1409608 0.69070024 -0.1959929
9.4542809 0.91230912 -0.25388132
12.516179 1.2056294 -0.33050212
16.568891 1.5938666 -0.431917
21.933039 2.1077353 -0.5661492
29.032996 2.7878892 -0.74381821
-0.0098064659 0.011061735 -0.017443544
-0.0062213993 0.011405173 -0.017533257
-0.0026363327 0.011748611 -0.017622969
0.00094873387 0.012092049 -0.017712682
0.0045338005 0.012435488 -0.017802394
0.0082882992 0.012795157 -0.017896347
0.013137004 0.013259648 -0.01801768
0.019554723 0.013874445 -0.018178277
0.028049183 0.014688188 -0.018390842
0.039292403 0.015765254 -0.018672192
0.05417387 0.017190852 -0.019044585
0.073870899 0.019077766 -0.019537483
0.099941781 0.021575276 -0.020189879
0.13444906 0.024880966 -0.021053388
0.18012271 0.02925636 -0.022196323
0.24057611 0.035047608 -0.023709106
0.32059191 0.042712872 -0.025711418
0.42650039 0.052858575 -0.028361667
0.56668028 0.066287374 -0.031869523
0.75222164 0.084061659 -0.036512501
0.99780319 0.10758761 -0.042657923
1.3228536 0.13872643 -0.05079197
1.7530886 0.1799416 -0.061558152
2.3225453 0.23449379 -0.075808211
3.0762752 0.30669877 -0.094669514
4.073908 0.40226889 -0.11963423
5.3943695 0.528765 -0.1526774
7.1421252 0.69619457 -0.19641316
9.4554453 0.91780344 -0.25430158
12.517343 1.2111238 -0.33092238
16.570055 1.599361 -0.43233727
21.934203 2.1132297 -0.56656946
29.03416 2.7933835 -0.74423847
-0.0083027645 0.018157315 -0.017986287
-0.0047176979 0.018500753 -0.018076
-0.0011326313 0.018844192 -0.018165712
0.0024524353 0.01918763 -0.018255425
0.0060375018 0.019531068 -0.018345138
0.0097920006 0.019890737 -0.01843909
0.014640705 0.020355228 -0.018560424
0.021058425 0.020970026 -0.01872102
0.029552884 0.021783769 -0.018933585
0.040796104 0.022860834 -0.019214935
0.055677571 0.024286433 -0.019587328
0.0753746 0.026173347 -0.020080226
0.10144548 0.028670856 -0.020732623
0.13595276 0.031976546 -0.021596131
0.18162641 0.03635194 -0.022739067
0.24207981 0.042143188 -0.02425185
0.32209561 0.049808453 -0.026254162
0.42800409 0.059954156 -0.028904411
0.56818398 0.073382954 -0.032412266
0.75372534 0.09115724 -0.037055245
0.99930689 0.11468319 -0.043200666
1.3243573 0.14582201 -0.051334714
1.7545923 0.18703718 -0.062100895
2.324049 0.24158937 -0.076350955
3.0777789 0.31379435 -0.095212258
4.0754117 0.40936448 -0.12017698
5.3958732 0.53586058 -0.15322015
7.1436289 0.70329015 -0.19695591
9.456949 0.92489902 -0.25484433
12.518847 1.2182193 -0.33146513
16.571559 1.6064566 -0.43288001
21.935707 2.1203252 -0.5671122
29.035664 2.8004791 -0.74478122
-0.0063124734 0.027548988 -0.018704659
-0.0027274068 0.027892426 -0.018794372
0.00085765977 0.028235864 -0.018884085
0.0044427264 0.028579302 -0.018973797
0.0080277929 0.028922741 -0.01906351
0.011782292 0.02928241 -0.019157462
0.016630996 0.029746901 -0.019278796
0.023048716 0.030361698 -0.019439393
0.031543175 0.031175441 -0.019651958
0.042786396 0.032252507 -0.019933307
0.057667862 0.033678105 -0.020305701
0.077364891 0.035565019 -0.020798598
0.10343577 0.038062529 -0.021450995
0.13794305 0.041368219 -0.022314503
0.18361671 0.045743613 -0.023457439
0.24407011 0.051534861 -0.024970222
0.3240859 0.059200125 -0.026972534
0.42999438 0.069345828 -0.029622783
0.57017428 0.082774627 -0.033130638
0.75571563 0.10054891 -0.037773617
1.0012972 0.12407486 -0.043919039
1.3263476 0.15521368 -0.052053086
1.7565826 0.19642886 -0.062819267
2.3260393 0.25098104 -0.077069327
3.0797692 0.32318602 -0.09593063
4.077402 0.41875615 -0.12089535
5.3978635 0.54525225 -0.15393852
7.1456192 0.71268182 -0.19767428
9.4589393 0.9342907 -0.2555627
12.520837 1.227611 -0.3321835
16.573549 1.6158482 -0.43359838
21.937697 2.1297169 -0.56783057
29.037654 2.8098708 -0.74549959
-0.0036781348 0.039979755 -0.019655493
-0.000093068192 0.040323193 -0.019745206
0.0034919984 0.040666631 -0.019834918
0.007077065 0.04101007 -0.019924631
0.010662132 0.041353508 -0.020014343
0.01441663 0.041713177 -0.020108296
0.019265335 0.042177668 -0.020229629
0.025683054 0.042792466 -0.020390226
0.034177514 0.043606208 -0.020602791
0.045420734 0.044683274 -0.020884141
0.060302201 0.046108872 -0.021256534
0.07999923 0.047995786 -0.021749432
0.10607011 0.050493296 -0.022401828
0.14057739 0.053798986 -0.023265337
0.18625104 0.05817438 -0.024408272
0.24670444 0.063965628 -0.025921055
0.32672024 0.071630893 -0.027923367
0.43262872 0.081776596 -0.030573616
0.57280861 0.095205394 -0.034081472
0.75834997 0.11297968 -0.03872445
1.0039315 0.13650563 -0.044869872
1.3289819 0.16764445 -0.053003919
1.7592169 0.20885962 -0.063770101
2.3286737 0.26341181 -0.07802016
3.0824035 0.33561679 -0.096881463
4.0800364 0.43118692 -0.12184618
5.4004978 0.55768302 -0.15488935
7.1482535 0.72511259 -0.19862511
9.4615736 0.94672146 -0.25651353
12.523472 1.2400418 -0.33313433
16.576184 1.628279 -0.43454921
21.940331 2.1421477 -0.56878141
29.040289 2.8223015 -0.74645042
-0.00019133829 0.056433052 -0.020914011
0.0033937283 0.05677649 -0.021003724
0.0069787949 0.057119928 -0.021093436
0.010563861 0.057463367 -0.021183149
0.014148928 0.057806805 -0.021272861
0.017903427 0.058166474 -0.021366814
0.022752131 0.058630965 -0.021488148
0.029169851 0.059245763 -0.021648744
0.03766431 0.060059505 -0.021861309
0.048907531 0.061136571 -0.022142659
0.063788997 0.062562169 -0.022515052
0.083486026 0.064449083 -0.02300795
0.10955691 0.066946593 -0.023660346
0.14406419 0.070252283 -0.024523855
0.18973784 0.074627677 -0.02566679
0.25019124 0.080418925 -0.027179574
0.33020704 0.08808419 -0.029181885
0.43611552 0.098229893 -0.031832134
0.57629541 0.11165869 -0.03533999
0.76183677 0.12943298 -0.039982969
1.0074183 0.15295893 -0.04612839
1.3324687 0.18409775 -0.054262437
1.7627037 0.22531292 -0.065028619
2.3321605 0.27986511 -0.079278679
3.0858903 0.35207009 -0.098139981
4.0835232 0.44764021 -0.1231047
5.4039846 0.57413632 -0.15614787
7.1517403 0.74156588 -0.19988363
9.4650604 0.96317476 -0.25777205
12.526959 1.2564951 -0.33439285
16.57967 1.6447323 -0.43580773
21.943818 2.158601 -0.57003993
29.043775 2.8387548 -0.74770894
0.0044237669 0.078210548 -0.022579779
0.0080088334 0.078553986 -0.022669492
0.0115939 0.078897424 -0.022759204
0.015178967 0.079240862 -0.022848917
0.018764033 0.079584301 -0.022938629
0.022518532 0.07994397 -0.023032582
0.027367237 0.080408461 -0.023153915
0.033784956 0.081023258 -0.023314512
0.042279415 0.081837001 -0.023527077
0.053522636 0.082914067 -0.023808427
0.068404102 0.084339665 -0.02418082
0.088101132 0.086226579 -0.024673718
0.11417201 0.088724089 -0.025326114
0.14867929 0.092029779 -0.026189623
0.19435295 0.096405173 -0.027332558
0.25480635 0.10219642 -0.028845342
0.33482214 0.10986169 -0.030847653
0.44073062 0.12000739 -0.033497902
0.58091052 0.13343619 -0.037005758
0.76645187 0.15121047 -0.041648736
1.0120334 0.17473642 -0.047794158
1.3370838 0.20587524 -0.055928205
1.7673188 0.24709042 -0.066694387
2.3367756 0.3016426 -0.080944446
3.0905054 0.37384758 -0.099805749
4.0881383 0.46941771 -0.12477047
5.4085997 0.59591381 -0.15781364
7.1563554 0.76334338 -0.2015494
9.4696755 0.98495226 -0.25943782
12.531574 1.2782726 -0.33605862
16.584286 1.6665098 -0.4374735
21.948433 2.1803785 -0.57170569
29.04839 2.8605323 -0.74937471
0.010532295 0.10703512 -0.02478458
0.014117362 0.10737856 -0.024874293
0.017702428 0.107722 -0.024964006
0.021287495 0.10806544 -0.025053718
0.024872562 0.10840888 -0.025143431
0.02862706 0.10876855 -0.025237383
0.033475765 0.10923304 -0.025358717
0.039893485 0.10984783 -0.025519314
0.048387944 0.11066158 -0.025731879
0.059631164 0.11173864 -0.026013228
0.074512631 0.11316424 -0.026385622
0.09420966 0.11505116 -0.026878519
0.12028054 0.11754867 -0.027530916
0.15478782 0.12085436 -0.028394424
0.20046147 0.12522975 -0.02953736
0.26091487 0.131021 -0.031050143
0.34093067 0.13868626 -0.033052455
0.44683915 0.14883197 -0.035702704
0.58701904 0.16226076 -0.039210559
0.7725604 0.18003505 -0.043853538
1.0181419 0.203561 -0.04999896
1.3431924 0.23469982 -0.058133007
1.7734274 0.27591499 -0.068899188
2.3428841 0.33046718 -0.083149248
3.096614 0.40267216 -0.10201055
4.0942468 0.49824228 -0.12697527
5.4147083 0.62473839 -0.16001844
7.162464 0.79216796 -0.2037542
9.4757841 1.0137768 -0.26164262
12.537682 1.3070972 -0.33826342
16.590394 1.6953344 -0.4396783
21.954542 2.209203 -0.5739105
29.054499 2.8893569 -0.75157951
0.018617511 0.14518718 -0.027702844
0.022202577 0.14553062 -0.027792556
0.025787644 0.14587406 -0.027882269
0.029372711 0.14621749 -0.027971981
0.032957777 0.14656093 -0.028061694
0.036712276 0.1469206 -0.028155646
0.041560981 0.14738509 -0.02827698
0.0479787 0.14799989 -0.028437577
0.056473159 0.14881363 -0.028650142
0.06771638 0.1498907 -0.028931492
0.082597846 0.1513163 -0.029303885
0.10229488 0.15320321 -0.029796782
0.12836576 0.15570072 -0.030449179
0.16287304 0.15900641 -0.031312688
0.20854669 0.1633818 -0.032455623
0.26900009 0.16917305 -0.033968406
0.34901589 0.17683832 -0.035970718
0.45492436 0.18698402 -0.038620967
0.59510426 0.20041282 -0.042128823
0.78064562 0.2181871 -0.046771801
1.0262272 0.24171305 -0.052917223
1.3512776 0.27285187 -0.06105127
1.7815126 0.31406705 -0.071817451
2.3509693 0.36861923 -0.086067511
3.1046992 0.44082421 -0.10492881
4.102332 0.53639434 -0.12989353
5.4227935 0.66289044 -0.1629367
7.1705492 0.83032001 -0.20667246
9.4838693 1.0519289 -0.26456088
12.545767 1.3452492 -0.34118168
16.598479 1.7334864 -0.44259657
21.962627 2.2473551 -0.57682876
29.062584 2.9275089 -0.75449777
0.029319059 0.19568503 -0.031565442
0.032904125 0.19602847 -0.031655154
0.036489192 0.19637191 -0.031744867
0.040074258 0.19671535 -0.031834579
0.043659325 0.19705879 -0.031924292
0.047413824 0.19741846 -0.032018244
0.052262528 0.19788295 -0.032139578
0.058680248 0.19849775 -0.032300175
0.067174707 0.19931149 -0.03251274
0.078417928 0.20038855 -0.03279409
0.093299394 0.20181415 -0.033166483
0.11299642 0.20370107 -0.03365938
0.13906731 0.20619858 -0.034311777
0.17357459 0.20950427 -0.035175285
0.21924824 0.21387966 -0.036318221
0.27970164 0.21967091 -0.037831004
0.35971743 0.22733617 -0.039833316
0.46562591 0.23748188 -0.042483565
0.60580581 0.25091067 -0.04599142
0.79134717 0.26868496 -0.050634399
1.0369287 0.29221091 -0.056779821
1.3619791 0.32334973 -0.064913868
1.7922141 0.3645649 -0.075680049
2.3616709 0.41911709 -0.089930109
3.1154007 0.49132207 -0.10879141
4.1130336 0.5868922 -0.13375613
5.433495 0.7133883 -0.1667993
7.1812507 0.88081787 -0.21053506
9.4945708 1.1024267 -0.26842348
12.556469 1.3957471 -0.34504428
16.609181 1.7839843 -0.44645916
21.973329 2.297853 -0.58069136
29.073286 2.9780068 -0.75836037
0.04348357 0.26252373 -0.036677955
0.047068637 0.26286716 -0.036767668
0.050653703 0.2632106 -0.03685738
0.05423877 0.26355404 -0.036947093
0.057823836 0.26389748 -0.037036805
0.061578335 0.26425715 -0.037130758
0.06642704 0.26472164 -0.037252092
0.072844759 0.26533644 -0.037412688
0.081339219 0.26615018 -0.037625253
0.092582439 0.26722725 -0.037906603
0.10746391 0.26865284 -0.038278996
0.12716093 0.27053976 -0.038771894
0.15323182 0.27303727 -0.039424291
0.1877391 0.27634296 -0.040287799
0.23341275 0.28071835 -0.041430735
0.29386615 0.2865096 -0.042943518
0.37388194 0.29417486 -0.044945829
0.47979042 0.30432057 -0.047596079
0.61997032 0.31774937 -0.051103934
0.80551168 0.33552365 -0.055746913
1.0510932 0.3590496 -0.061892334
1.3761436 0.39018842 -0.070026382
1.8063786 0.4314036 -0.080792563
2.3758354 0.48595578 -0.095042623
3.1295652 0.55816076 -0.11390393
4.1271981 0.65373089 -0.13886864
5.4476595 0.78022699 -0.17191181
7.1954152 0.94765656 -0.21564757
9.5087353 1.1692654 -0.27353599
12.570633 1.4625858 -0.3501568
16.623345 1.850823 -0.45157168
21.987493 2.3646917 -0.58580387
29.08745 3.0448455 -0.76347288
0.062231642 0.35099106 -0.043444851
0.065816708 0.3513345 -0.043534564
0.069401775 0.35167794 -0.043624276
0.072986841 0.35202137 -0.043713989
0.076571908 0.35236481 -0.043803701
0.080326407 0.35272448 -0.043897654
0.085175111 0.35318897 -0.044018987
0.091592831 0.35380377 -0.044179584
0.10008729 0.35461751 -0.044392149
0.11133051 0.35569458 -0.044673499
0.12621198 0.35712018 -0.045045892
0.14590901 0.35900709 -0.04553879
0.17197989 0.3615046 -0.046191186
0.20648717 0.36481029 -0.047054695
0.25216082 0.36918568 -0.04819763
0.31261422 0.37497693 -0.049710413
0.39263002 0.3826422 -0.051712725
0.4985385 0.3927879 -0.054362974
0.63871839 0.4062167 -0.05787083
0.82425975 0.42399098 -0.062513808
1.0698413 0.44751693 -0.06865923
1.3948917 0.47865575 -0.076793277
1.8251267 0.51987093 -0.087559459
2.3945834 0.57442311 -0.10180952
3.1483133 0.64662809 -0.12067082
4.1459461 0.74219822 -0.14563554
5.4664076 0.86869432 -0.17867871
7.2141633 1.0361239 -0.22241447
9.5274834 1.2577328 -0.28030289
12.589381 1.5510531 -0.35692369
16.642093 1.9392903 -0.45833857
22.006241 2.453159 -0.59257077
29.106198 3.1333128 -0.77023978
0.087046488 0.46808595 -0.052401478
0.090631555 0.46842939 -0.05249119
0.094216622 0.46877282 -0.052580903
0.097801688 0.46911626 -0.052670616
0.10138675 0.4694597 -0.052760328
0.10514125 0.46981937 -0.052854281
0.10998996 0.47028386 -0.052975614
0.11640768 0.47089866 -0.053136211
0.12490214 0.4717124 -0.053348776
0.13614536 0.47278947 -0.053630126
0.15102682 0.47421507 -0.054002519
0.17072385 0.47610198 -0.054495417
0.19679474 0.47859949 -0.055147813
0.23130202 0.48190518 -0.056011322
0.27697567 0.48628057 -0.057154257
0.33742907 0.49207182 -0.05866704
0.41744486 0.49973709 -0.060669352
0.52335334 0.50988279 -0.063319601
0.66353324 0.52331159 -0.066827457
0.8490746 0.54108587 -0.071470435
1.0946561 0.56461182 -0.077615857
1.4197066 0.59575064 -0.085749904
1.8499416 0.63696582 -0.096516085
2.4193983 0.691518 -0.11076615
3.1731282 0.76372298 -0.12962745
4.170761 0.85929311 -0.15459217
5.4912225 0.98578921 -0.18763534
7.2389782 1.1532188 -0.2313711
9.5522983 1.3748277 -0.28925952
12.614196 1.668148 -0.36588032
16.666908 2.0563852 -0.4672952
22.031056 2.5702539 -0.60152739
29.131013 3.2504077 -0.77919641
0.11989129 0.62307211 -0.064256421
0.12347635 0.62341555 -0.064346134
0.12706142 0.62375899 -0.064435846
0.13064649 0.62410243 -0.064525559
0.13423155 0.62444587 -0.064615271
0.13798605 0.62480554 -0.064709224
0.14283476 0.62527003 -0.064830558
0.14925248 0.62588483 -0.064991154
0.15774694 0.62669857 -0.065203719
0.16899016 0.62777563 -0.065485069
0.18387162 0.62920123 -0.065857462
0.20356865 0.63108815 -0.06635036
0.22963953 0.63358566 -0.067002757
0.26414681 0.63689135 -0.067866265
0.30982047 0.64126674 -0.069009201
0.37027387 0.64705799 -0.070521984
0.45028966 0.65472325 -0.072524296
0.55619814 0.66486896 -0.075174545
0.69637804 0.67829775 -0.0786824
0.88191939 0.69607204 -0.083325379
1.1275009 0.71959799 -0.0894708
1.4525514 0.75073681 -0.097604848
1.8827864 0.79195198 -0.10837103
2.4522431 0.84650417 -0.12262109
3.205973 0.91870915 -0.14148239
4.2036058 1.0142793 -0.16644711
5.5240672 1.1407754 -0.19949028
7.271823 1.3082049 -0.24322604
9.5851431 1.5298138 -0.30111446
12.647041 1.8231341 -0.37773526
16.699753 2.2113714 -0.47915014
22.063901 2.72524 -0.61338234
29.163858 3.4053939 -0.79105135
0.16336449 0.82821097 -0.079947561
0.16694955 0.82855441 -0.080037273
0.17053462 0.82889785 -0.080126986
0.17411969 0.82924129 -0.080216698
0.17770475 0.82958473 -0.080306411
0.18145925 0.8299444 -0.080400363
0.18630796 0.83040889 -0.080521697
0.19272568 0.83102368 -0.080682294
0.20122013 0.83183743 -0.080894859
0.21246335 0.83291449 -0.081176209
0.22734482 0.83434009 -0.081548602
0.24704185 0.83622701 -0.082041499
0.27311273 0.83872451 -0.082693896
0.30762001 0.84203021 -0.083557405
0.35329366 0.8464056 -0.08470034
0.41374706 0.85219685 -0.086213123
0.49376286 0.85986211 -0.088215435
0.59967134 0.87000781 -0.090865684
0.73985123 0.88343661 -0.09437354
0.92539259 0.9012109 -0.099016518
1.1709741 0.92473685 -0.10516194
1.4960246 0.95587567 -0.11329599
1.9262596 0.99709084 -0.12406217
2.4957163 1.051643 -0.13831223
3.2494462 1.123848 -0.15717353
4.247079 1.2194181 -0.18213825
5.5675404 1.3459142 -0.21518142
7.3152962 1.5133438 -0.25891718
9.6286163 1.7349527 -0.3168056
12.690514 2.028273 -0.3934264
16.743226 2.4165102 -0.49484128
22.107374 2.9303789 -0.62907348
29.207331 3.6105327 -0.80674249
0.22090538 1.0997317 -0.10071627
0.22449045 1.1000751 -0.10080598
0.22807551 1.1004185 -0.10089569
0.23166058 1.100762 -0.10098541
0.23524565 1.1011054 -0.10107512
0.23900014 1.1014651 -0.10116907
0.24384885 1.1019296 -0.10129041
0.25026657 1.1025444 -0.101451
0.25876103 1.1033581 -0.10166357
0.27000425 1.1044352 -0.10194492
0.28488571 1.1058608 -0.10231731
