site/assets/luts/ocio-aces--djiinputdlog-dgamut-to-aces2065-1--203a8b4c5.cube
# LUTr-Project: LUTr — LUTrepository
# LUTr-Schema-Version: 1
# LUTr-ID: ocio-aces--djiinputdlog-dgamut-to-aces2065-1--203a8b4c5
# LUTr-Title: DJI.Input.DLog DGamut to ACES2065-1
# LUTr-Collection: OCIO ACES
# LUTr-Collection-ID: aswf-opencolorio-config-aces
# LUTr-Source: https://github.com/AcademySoftwareFoundation/OpenColorIO-Config-ACES
# LUTr-Source-File: submissions/aswf-opencolorio-config-aces/opencolorio_config_aces/clf/transforms/dji/input/DJI.Input.DLog_DGamut_to_ACES2065-1.clf
# LUTr-Source-Format: CLF
# LUTr-Source-SHA256: 9617d4ccb9fc6d0d8986337cdcfac6c1ac70f58e411c29b187760816f29cefe9
# LUTr-License: BSD-3-Clause
# LUTr-License-URL: https://github.com/AcademySoftwareFoundation/OpenColorIO-Config-ACES/blob/main/LICENSE
# LUTr-Tags: technical, aces, ocio, clf, color-management, cube
# LUTr-Transform-Class: color-space-conversion
# LUTr-Input-Color-Space: DJI D-Log - D-Gamut
# LUTr-Output-Color-Space: ACES2065-1
# LUTr-Color-Space-Confidence: descriptor-only
# LUTr-Conversion-Method: CLF operations evaluated as float and sampled to 33x33x33 3D CUBE
# LUTr-Conversion-Date: 2026-07-27
# LUTr-Conversion-Tool: LUTr scripts/convert-all-to-cube.mjs
# LUTr-Conversion-Grid: 33x33x33
# LUTr-Conversion-Warning: A sampled 3D CUBE is bounded to DOMAIN_MIN/MAX 0..1 and cannot preserve CLF values outside its input domain.
# LUTr-Upstream-ID: urn:aswf:ocio:transformId:1.0:DJI:Input:DLog_DGamut_to_ACES2065-1:1.0
# LUTr-Upstream-Name: DJI D-Log - D-Gamut to ACES2065-1
# LUTr-Upstream-Input-Descriptor: DJI D-Log - D-Gamut
# LUTr-Upstream-Output-Descriptor: ACES2065-1
# LUTr-Upstream-Operations: Log → Matrix
# LUTr-Note: Preserve this metadata and the upstream license notices when redistributing.
TITLE "DJI.Input.DLog DGamut to ACES2065-1"
LUT_3D_SIZE 5
DOMAIN_MIN 0 0 0
DOMAIN_MAX 1 1 1
-0.015418093 -0.015418093 -0.015418093
0.022437555 -0.01179164 -0.016365391
0.31498028 0.016233044 -0.023685967
3.0706636 0.28021894 -0.092644063
29.028549 2.7669037 -0.74221302
-0.0036781348 0.039979755 -0.019655493
0.034177514 0.043606208 -0.020602791
0.32672024 0.071630893 -0.027923367
3.0824035 0.33561679 -0.096881463
29.040289 2.8223015 -0.74645042
0.087046488 0.46808595 -0.052401478
0.12490214 0.4717124 -0.053348776
0.41744486 0.49973709 -0.060669352
3.1731282 0.76372298 -0.12962745
29.131013 3.2504077 -0.77919641
0.94165098 4.500745 -0.36086091
0.97950663 4.5043715 -0.36180821
1.2720494 4.5323962 -0.36912879
4.0277327 4.7963821 -0.43808688
29.985618 7.2830668 -1.0876558
8.9918232 42.48744 -3.2664758
9.0296789 42.491067 -3.2674231
9.3222216 42.519091 -3.2747437
12.077905 42.783077 -3.3437018
38.03579 45.269762 -3.9932708
-0.010251969 -0.019680663 0.044528336
0.02760368 -0.01605421 0.043581038
0.32014641 0.011970474 0.036260462
3.0758297 0.27595637 -0.032697634
29.033715 2.7626411 -0.68226659
0.0014879899 0.035717185 0.040290936
0.039343638 0.039343638 0.039343638
0.33188636 0.067368322 0.032023062
3.0875697 0.33135422 -0.036935034
29.045455 2.8180389 -0.68650399
0.092212613 0.46382338 0.0075449514
0.13006826 0.46744983 0.0065976533
0.42261099 0.49547452 -0.00072292283
3.1782943 0.75946041 -0.069681019
29.136179 3.2461451 -0.71924998
0.94681711 4.4964825 -0.30091448
0.98467276 4.5001089 -0.30186178
1.2772155 4.5281336 -0.30918236
4.0328988 4.7921195 -0.37814045
29.990784 7.2788042 -1.0277094
8.9969894 42.483178 -3.2065294
9.034845 42.486804 -3.2074767
9.3273877 42.514829 -3.2147973
12.083071 42.778815 -3.2837554
38.040956 45.265499 -3.9333243
0.029671061 -0.052621161 0.50778528
0.06752671 -0.048994707 0.50683798
0.36006944 -0.020970023 0.4995174
3.1157527 0.24301587 0.43055931
29.073638 2.7297006 -0.21900965
0.04141102 0.0027766872 0.50354788
0.079266668 0.0064031407 0.50260058
0.37180939 0.034427825 0.49528
3.1274927 0.29841372 0.42632191
29.085378 2.7850984 -0.22324705
0.13213564 0.43088288 0.47080189
0.16999129 0.43450933 0.46985459
0.46253402 0.46253402 0.46253402
3.2182173 0.72651992 0.39357592
29.176102 3.2132046 -0.25599304
0.98674014 4.463542 0.16234246
1.0245958 4.4671684 0.16139516
1.3171385 4.4951931 0.15407458
4.0728218 4.759179 0.085116487
30.030707 7.2458637 -0.56445247
9.0369124 42.450237 -2.7432725
9.074768 42.453863 -2.7442198
9.3673108 42.481888 -2.7515403
12.122994 42.745874 -2.8204984
38.080879 45.232559 -3.4700674
0.40573656 -0.36291286 4.8715561
0.44359221 -0.3592864 4.8706088
0.73613494 -0.33126172 4.8632882
3.4918182 -0.067275823 4.7943301
29.449703 2.4194089 4.1447612
0.41747652 -0.30751501 4.8673187
0.45533217 -0.30388856 4.8663714
0.7478749 -0.27586387 4.8590508
3.5035582 -0.011877975 4.7900927
29.461443 2.4748068 4.1405238
0.50820114 0.12059118 4.8345727
0.54605679 0.12421764 4.8336254
0.83859952 0.15224232 4.8263048
3.5942828 0.41622822 4.7573467
29.552168 2.9029129 4.1077778
1.3628056 4.1532503 4.5261133
1.4006613 4.1568767 4.525166
1.693204 4.1849014 4.5178454
4.4488873 4.4488873 4.4488873
30.406772 6.935572 3.7993184
9.4129779 42.139945 1.6204984
9.4508335 42.143572 1.6195511
9.7433763 42.171596 1.6122305
12.49906 42.435582 1.5432724
38.456945 44.922267 0.89370343
3.9481846 -3.2857873 45.977245
3.9860403 -3.2821608 45.976298
4.278583 -3.2541361 45.968977
7.0342663 -2.9901502 45.900019
32.992151 -0.5034655 45.25045
3.9599246 -3.2303894 45.973008
3.9977803 -3.226763 45.972061
4.290323 -3.1987383 45.96474
7.0460063 -2.9347524 45.895782
33.003891 -0.44806766 45.246213
4.0506492 -2.8022832 45.940262
4.0885049 -2.7986568 45.939315
4.3810476 -2.7706321 45.931994
7.1367309 -2.5066462 45.863036
33.094616 -0.019961463 45.213467
4.9052537 1.2303759 45.631803
4.9431094 1.2340023 45.630855
5.2356521 1.262027 45.623535
7.9913354 1.5260129 45.554577
33.94922 4.0126976 44.905008
12.955426 39.217071 42.726188
12.993282 39.220697 42.72524
13.285824 39.248722 42.71792
16.041508 39.512708 42.648962
41.999393 41.999393 41.999393
