site/assets/luts/ocio-aces--ocioutilityap0-to-linear-rec2020--b2bc1ebc0.cube
# LUTr-Project: LUTr — LUTrepository
# LUTr-Schema-Version: 1
# LUTr-ID: ocio-aces--ocioutilityap0-to-linear-rec2020--b2bc1ebc0
# LUTr-Title: OCIO.Utility.AP0 to Linear Rec2020
# LUTr-Collection: OCIO ACES
# LUTr-Collection-ID: aswf-opencolorio-config-aces
# LUTr-Source: https://github.com/AcademySoftwareFoundation/OpenColorIO-Config-ACES
# LUTr-Source-File: submissions/aswf-opencolorio-config-aces/opencolorio_config_aces/clf/transforms/ocio/utility/OCIO.Utility.AP0_to_Linear_Rec2020.clf
# LUTr-Source-Format: CLF
# LUTr-Source-SHA256: a8fbac330d4ac3c5ca2bd14bb018460cb648740b8edfe63567c27c68c2a12d5c
# LUTr-License: BSD-3-Clause
# LUTr-License-URL: https://github.com/AcademySoftwareFoundation/OpenColorIO-Config-ACES/blob/main/LICENSE
# LUTr-Tags: technical, aces, ocio, clf, color-management, cube
# LUTr-Transform-Class: color-space-conversion
# LUTr-Input-Color-Space: ACES2065-1
# LUTr-Output-Color-Space: linear Rec.2020 primaries, D65 white point
# LUTr-Color-Space-Confidence: descriptor-only
# LUTr-Conversion-Method: CLF operations evaluated as float and sampled to 33x33x33 3D CUBE
# LUTr-Conversion-Date: 2026-07-27
# LUTr-Conversion-Tool: LUTr scripts/convert-all-to-cube.mjs
# LUTr-Conversion-Grid: 33x33x33
# LUTr-Conversion-Warning: A sampled 3D CUBE is bounded to DOMAIN_MIN/MAX 0..1 and cannot preserve CLF values outside its input domain.
# LUTr-Upstream-ID: urn:aswf:ocio:transformId:1.0:OCIO:Utility:AP0_to_Linear_Rec2020:1.0
# LUTr-Upstream-Name: AP0 to Linear Rec.2020
# LUTr-Upstream-Input-Descriptor: ACES2065-1
# LUTr-Upstream-Output-Descriptor: linear Rec.2020 primaries, D65 white point
# LUTr-Upstream-Operations: Matrix
# LUTr-Note: Preserve this metadata and the upstream license notices when redistributing.
TITLE "OCIO.Utility.AP0 to Linear Rec2020"
LUT_3D_SIZE 9
DOMAIN_MIN 0 0 0
DOMAIN_MAX 1 1 1
0 0 0
0.18630119 -0.010020937 0.0004034539
0.37260238 -0.020041875 0.0008069078
0.55890357 -0.030062812 0.0012103617
0.74520476 -0.04008375 0.0016138156
0.93150595 -0.050104687 0.0020172695
1.1178071 -0.060125625 0.0024207234
1.3041083 -0.070146562 0.0028241773
1.4904095 -0.0801675 0.0032276312
-0.033271365 0.14777089 -0.0043470595
0.15302983 0.13774995 -0.0039436056
0.33933102 0.12772902 -0.0035401517
0.52563221 0.11770808 -0.0031366978
0.7119334 0.10768714 -0.0027332439
0.89823459 0.097666203 -0.00232979
1.0845358 0.087645265 -0.0019263361
1.270837 0.077624328 -0.0015228822
1.4571382 0.06760339 -0.0011194283
-0.06654273 0.29554178 -0.0086941189
0.11975846 0.28552084 -0.008290665
0.30605965 0.27549991 -0.0078872111
0.49236084 0.26547897 -0.0074837572
0.67866203 0.25545803 -0.0070803033
0.86496322 0.24543709 -0.0066768494
1.0512644 0.23541616 -0.0062733955
1.2375656 0.22539522 -0.0058699416
1.4238668 0.21537428 -0.0054664877
-0.099814095 0.44331267 -0.013041178
0.086487095 0.43329173 -0.012637725
0.27278829 0.4232708 -0.012234271
0.45908948 0.41324986 -0.011830817
0.64539067 0.40322892 -0.011427363
0.83169186 0.39320798 -0.011023909
1.017993 0.38318705 -0.010620455
1.2042942 0.37316611 -0.010217001
1.3905954 0.36314517 -0.0098135472
-0.13308546 0.59108356 -0.017388238
0.05321573 0.58106262 -0.016984784
0.23951692 0.57104169 -0.01658133
0.42581811 0.56102075 -0.016177876
0.6121193 0.55099981 -0.015774422
0.79842049 0.54097887 -0.015370968
0.98472168 0.53095794 -0.014967514
1.1710229 0.520937 -0.014564061
1.3573241 0.51091606 -0.014160607
-0.16635682 0.73885445 -0.021735297
0.019944366 0.72883351 -0.021331843
0.20624556 0.71881258 -0.02092839
0.39254675 0.70879164 -0.020524936
0.57884794 0.6987707 -0.020121482
0.76514913 0.68874976 -0.019718028
0.95145032 0.67872883 -0.019314574
1.1377515 0.66870789 -0.01891112
1.3240527 0.65868695 -0.018507666
-0.19962819 0.88662534 -0.026082357
-0.013326999 0.8766044 -0.025678903
0.17297419 0.86658347 -0.025275449
0.35927538 0.85656253 -0.024871995
0.54557657 0.84654159 -0.024468541
0.73187776 0.83652065 -0.024065087
0.91817895 0.82649972 -0.023661633
1.1044801 0.81647878 -0.02325818
1.2907813 0.80645784 -0.022854726
-0.23289955 1.0343962 -0.030429416
-0.046598364 1.0243753 -0.030025962
0.13970283 1.0143544 -0.029622508
0.32600402 1.0043334 -0.029219055
0.51230521 0.99431248 -0.028815601
0.6986064 0.98429154 -0.028412147
0.88490759 0.97427061 -0.028008693
1.0712088 0.96424967 -0.027605239
1.25751 0.95422873 -0.027201785
-0.26617092 1.1821671 -0.034776476
-0.079869729 1.1721462 -0.034373022
0.10643146 1.1621252 -0.033969568
0.29273265 1.1521043 -0.033566114
0.47903384 1.1420834 -0.03316266
0.66533503 1.1320624 -0.032759206
0.85163622 1.1220415 -0.032355752
1.0379374 1.1120206 -0.031952298
1.2242386 1.1019996 -0.031548845
-0.028029825 -0.012749953 0.12894361
0.15827136 -0.02277089 0.12934706
0.34457255 -0.032791828 0.12975051
0.53087375 -0.042812765 0.13015397
0.71717494 -0.052833703 0.13055742
0.90347613 -0.06285464 0.13096088
1.0897773 -0.072875578 0.13136433
1.2760785 -0.082896515 0.13176778
1.4623797 -0.092917453 0.13217124
-0.06130119 0.13502094 0.12459655
0.125 0.125 0.125
0.31130119 0.11497906 0.12540345
0.49760238 0.10495813 0.12580691
0.68390357 0.094937188 0.12621036
0.87020476 0.08491625 0.12661382
1.056506 0.074895313 0.12701727
1.2428071 0.064874375 0.12742072
1.4291083 0.054853438 0.12782418
-0.094572555 0.28279183 0.12024949
0.091728635 0.27277089 0.12065294
0.27802983 0.26274995 0.12105639
0.46433102 0.25272902 0.12145985
0.65063221 0.24270808 0.1218633
0.8369334 0.23268714 0.12226676
1.0232346 0.2226662 0.12267021
1.2095358 0.21264527 0.12307366
1.395837 0.20262433 0.12347712
-0.12784392 0.43056272 0.11590243
0.05845727 0.42054178 0.11630588
0.24475846 0.41052084 0.11670933
0.43105965 0.40049991 0.11711279
0.61736084 0.39047897 0.11751624
0.80366203 0.38045803 0.1179197
0.98996322 0.37043709 0.11832315
1.1762644 0.36041616 0.1187266
1.3625656 0.35039522 0.11913006
-0.16111528 0.57833361 0.11155537
0.025185905 0.56831267 0.11195882
0.2114871 0.55829173 0.11236228
0.39778829 0.5482708 0.11276573
0.58408948 0.53824986 0.11316918
0.77039067 0.52822892 0.11357264
0.95669186 0.51820798 0.11397609
1.142993 0.50818705 0.11437954
1.3292942 0.49816611 0.114783
-0.19438665 0.7261045 0.10720831
-0.0080854596 0.71608356 0.10761176
0.17821573 0.70606262 0.10801522
0.36451692 0.69604169 0.10841867
0.55081811 0.68602075 0.10882212
0.7371193 0.67599981 0.10922558
0.92342049 0.66597887 0.10962903
1.1097217 0.65595794 0.11003249
1.2960229 0.645937 0.11043594
-0.22765801 0.87387539 0.10286125
-0.041356825 0.86385445 0.1032647
0.14494437 0.85383351 0.10366816
0.33124556 0.84381258 0.10407161
0.51754675 0.83379164 0.10447506
0.70384794 0.8237707 0.10487852
0.89014913 0.81374976 0.10528197
1.0764503 0.80372883 0.10568543
1.2627515 0.79370789 0.10608888
-0.26092938 1.0216463 0.098514189
-0.074628189 1.0116253 0.098917643
0.111673 1.0016044 0.099321097
0.29797419 0.99158347 0.099724551
0.48427538 0.98156253 0.100128
0.67057657 0.97154159 0.10053146
0.85687776 0.96152065 0.10093491
1.043179 0.95149972 0.10133837
1.2294801 0.94147878 0.10174182
-0.29420074 1.1694172 0.09416713
-0.10789955 1.1593962 0.094570584
0.078401636 1.1493753 0.094974038
0.26470283 1.1393544 0.095377492
0.45100402 1.1293334 0.095780945
0.63730521 1.1193125 0.096184399
0.8236064 1.1092915 0.096587853
1.0099076 1.0992706 0.096991307
1.1962088 1.0892497 0.097394761
-0.05605965 -0.025499905 0.25788721
0.13024154 -0.035520843 0.25829067
0.31654273 -0.04554178 0.25869412
0.50284392 -0.055562718 0.25909757
0.68914511 -0.065583655 0.25950103
0.8754463 -0.075604593 0.25990448
1.0617475 -0.08562553 0.26030793
1.2480487 -0.095646468 0.26071139
1.4343499 -0.10566741 0.26111484
-0.089331015 0.12227098 0.25354015
0.096970175 0.11225005 0.25394361
0.28327136 0.10222911 0.25434706
0.46957255 0.092208172 0.25475051
0.65587375 0.082187235 0.25515397
0.84217494 0.072166297 0.25555742
1.0284761 0.06214536 0.25596088
1.2147773 0.052124422 0.25636433
1.4010785 0.042103485 0.25676778
-0.12260238 0.27004187 0.24919309
0.06369881 0.26002094 0.24959655
0.25 0.25 0.25
0.43630119 0.23997906 0.25040345
0.62260238 0.22995813 0.25080691
0.80890357 0.21993719 0.25121036
0.99520476 0.20991625 0.25161382
1.181506 0.19989531 0.25201727
1.3678071 0.18987438 0.25242072
-0.15587375 0.41781277 0.24484603
0.030427445 0.40779183 0.24524949
0.21672864 0.39777089 0.24565294
0.40302983 0.38774995 0.24605639
0.58933102 0.37772902 0.24645985
0.77563221 0.36770808 0.2468633
0.9619334 0.35768714 0.24726676
1.1482346 0.3476662 0.24767021
1.3345358 0.33764527 0.24807366
-0.18914511 0.56558366 0.24049897
-0.0028439199 0.55556272 0.24090243
0.18345727 0.54554178 0.24130588
0.36975846 0.53552084 0.24170933
0.55605965 0.52549991 0.24211279
0.74236084 0.51547897 0.24251624
0.92866203 0.50545803 0.2429197
1.1149632 0.49543709 0.24332315
1.3012644 0.48541616 0.2437266
-0.22241647 0.71335455 0.23615191
-0.036115285 0.70333361 0.23655537
0.15018591 0.69331267 0.23695882
0.3364871 0.68329173 0.23736228
0.52278829 0.6732708 0.23776573
0.70908948 0.66324986 0.23816918
0.89539067 0.65322892 0.23857264
1.0816919 0.64320798 0.23897609
1.267993 0.63318705 0.23937954
-0.25568784 0.86112544 0.23180485
-0.06938665 0.8511045 0.23220831
0.11691454 0.84108356 0.23261176
0.30321573 0.83106262 0.23301522
0.48951692 0.82104169 0.23341867
0.67581811 0.81102075 0.23382212
0.8621193 0.80099981 0.23422558
1.0484205 0.79097887 0.23462903
1.2347217 0.78095794 0.23503249
-0.2889592 1.0088963 0.22745779
-0.10265801 0.99887539 0.22786125
0.083643175 0.98885445 0.2282647
0.26994437 0.97883351 0.22866816
0.45624556 0.96881258 0.22907161
0.64254675 0.95879164 0.22947506
0.82884794 0.9487707 0.22987852
1.0151491 0.93874976 0.23028197
1.2014503 0.92872883 0.23068543
-0.32223057 1.1566672 0.22311074
-0.13592938 1.1466463 0.22351419
0.050371811 1.1366253 0.22391764
0.236673 1.1266044 0.2243211
0.42297419 1.1165835 0.22472455
0.60927538 1.1065625 0.225128
0.79557657 1.0965416 0.22553146
0.98187776 1.0865207 0.22593491
1.168179 1.0764997 0.22633837
-0.084089475 -0.038249858 0.38683082
0.10221171 -0.048270795 0.38723427
0.2885129 -0.058291733 0.38763772
0.47481409 -0.06831267 0.38804118
0.66111528 -0.078333608 0.38844463
0.84741647 -0.088354545 0.38884809
1.0337177 -0.098375483 0.38925154
1.2200189 -0.10839642 0.38965499
1.40632 -0.11841736 0.39005845
-0.11736084 0.10952103 0.38248376
0.06894035 0.099500095 0.38288721
0.25524154 0.089479157 0.38329067
0.44154273 0.07945822 0.38369412
0.62784392 0.069437282 0.38409757
0.81414511 0.059416345 0.38450103
1.0004463 0.049395407 0.38490448
1.1867475 0.03937447 0.38530793
1.3730487 0.029353532 0.38571139
-0.15063221 0.25729192 0.3781367
0.035668985 0.24727098 0.37854015
0.22197017 0.23725005 0.37894361
0.40827136 0.22722911 0.37934706
0.59457255 0.21720817 0.37975051
0.78087375 0.20718723 0.38015397
0.96717494 0.1971663 0.38055742
1.1534761 0.18714536 0.38096088
1.3397773 0.17712442 0.38136433
-0.18390357 0.40506281 0.37378964
0.0023976199 0.39504187 0.37419309
0.18869881 0.38502094 0.37459655
0.375 0.375 0.375
0.56130119 0.36497906 0.37540345
0.74760238 0.35495813 0.37580691
0.93390357 0.34493719 0.37621036
1.1202048 0.33491625 0.37661382
1.306506 0.32489531 0.37701727
-0.21717494 0.5528337 0.36944258
-0.030873745 0.54281277 0.36984603
0.15542745 0.53279183 0.37024949
0.34172864 0.52277089 0.37065294
0.52802983 0.51274995 0.37105639
0.71433102 0.50272902 0.37145985
0.90063221 0.49270808 0.3718633
1.0869334 0.48268714 0.37226676
1.2732346 0.4726662 0.37267021
-0.2504463 0.70060459 0.36509552
-0.06414511 0.69058366 0.36549897
0.12215608 0.68056272 0.36590243
0.30845727 0.67054178 0.36630588
0.49475846 0.66052084 0.36670933
0.68105965 0.65049991 0.36711279
0.86736084 0.64047897 0.36751624
1.053662 0.63045803 0.3679197
1.2399632 0.62043709 0.36832315
-0.28371766 0.84837548 0.36074846
-0.097416475 0.83835455 0.36115191
0.088884715 0.82833361 0.36155537
0.27518591 0.81831267 0.36195882
0.4614871 0.80829173 0.36236228
0.64778829 0.7982708 0.36276573
0.83408948 0.78824986 0.36316918
1.0203907 0.77822892 0.36357264
1.2066919 0.76820798 0.36397609
-0.31698903 0.99614637 0.3564014
-0.13068784 0.98612544 0.35680485
0.05561335 0.9761045 0.35720831
0.24191454 0.96608356 0.35761176
0.42821573 0.95606262 0.35801522
0.61451692 0.94604169 0.35841867
0.80081811 0.93602075 0.35882212
0.9871193 0.92599981 0.35922558
1.1734205 0.91597887 0.35962903
-0.35026039 1.1439173 0.35205434
-0.1639592 1.1338963 0.35245779
0.022341985 1.1238754 0.35286125
0.20864318 1.1138545 0.3532647
0.39494437 1.1038335 0.35366816
0.58124556 1.0938126 0.35407161
0.76754675 1.0837916 0.35447506
0.95384794 1.0737707 0.35487852
1.1401491 1.0637498 0.35528197
-0.1121193 -0.050999811 0.51577442
0.074181889 -0.061020748 0.51617788
0.26048308 -0.071041686 0.51658133
0.44678427 -0.081062623 0.51698478
0.63308546 -0.091083561 0.51738824
0.81938665 -0.1011045 0.51779169
1.0056878 -0.11112544 0.51819515
1.191989 -0.12114637 0.5185986
1.3782902 -0.13116731 0.51900205
-0.14539067 0.09677108 0.51142736
0.040910525 0.086750142 0.51183082
0.22721171 0.076729205 0.51223427
0.4135129 0.066708267 0.51263772
0.59981409 0.05668733 0.51304118
0.78611528 0.046666392 0.51344463
0.97241647 0.036645455 0.51384809
1.1587177 0.026624517 0.51425154
1.3450189 0.01660358 0.51465499
-0.17866203 0.24454197 0.5070803
0.0076391596 0.23452103 0.50748376
0.19394035 0.22450009 0.50788721
0.38024154 0.21447916 0.50829067
0.56654273 0.20445822 0.50869412
0.75284392 0.19443728 0.50909757
0.93914511 0.18441634 0.50950103
1.1254463 0.17439541 0.50990448
1.3117475 0.16437447 0.51030793
-0.2119334 0.39231286 0.50273324
-0.025632205 0.38229192 0.5031367
0.16066898 0.37227098 0.50354015
0.34697017 0.36225005 0.50394361
0.53327136 0.35222911 0.50434706
0.71957255 0.34220817 0.50475051
0.90587375 0.33218723 0.50515397
1.0921749 0.3221663 0.50555742
1.2784761 0.31214536 0.50596088
-0.24520476 0.54008375 0.49838618
-0.05890357 0.53006281 0.49878964
0.12739762 0.52004187 0.49919309
0.31369881 0.51002094 0.49959655
0.5 0.5 0.5
0.68630119 0.48997906 0.50040345
0.87260238 0.47995813 0.50080691
1.0589036 0.46993719 0.50121036
1.2452048 0.45991625 0.50161382
-0.27847613 0.68785464 0.49403912
-0.092174935 0.6778337 0.49444258
0.094126255 0.66781277 0.49484603
0.28042745 0.65779183 0.49524949
0.46672864 0.64777089 0.49565294
0.65302983 0.63774995 0.49605639
0.83933102 0.62772902 0.49645985
1.0256322 0.61770808 0.4968633
1.2119334 0.60768714 0.49726676
-0.31174749 0.83562553 0.48969207
-0.1254463 0.82560459 0.49009552
0.06085489 0.81558366 0.49049897
0.24715608 0.80556272 0.49090243
0.43345727 0.79554178 0.49130588
0.61975846 0.78552084 0.49170933
0.80605965 0.77549991 0.49211279
0.99236084 0.76547897 0.49251624
1.178662 0.75545803 0.4929197
-0.34501885 0.98339642 0.48534501
-0.15871766 0.97337548 0.48574846
0.027583525 0.96335455 0.48615191
0.21388472 0.95333361 0.48655537
0.40018591 0.94331267 0.48695882
0.5864871 0.93329173 0.48736228
0.77278829 0.9232708 0.48776573
0.95908948 0.91324986 0.48816918
1.1453907 0.90322892 0.48857264
-0.37829022 1.1311673 0.48099795
-0.19198903 1.1211464 0.4814014
-0.0056878398 1.1111254 0.48180485
0.18061335 1.1011045 0.48220831
0.36691454 1.0910836 0.48261176
0.55321573 1.0810626 0.48301522
0.73951692 1.0710417 0.48341867
0.92581811 1.0610207 0.48382212
1.1121193 1.0509998 0.48422558
-0.14014913 -0.063749763 0.64471803
0.046152064 -0.073770701 0.64512148
0.23245325 -0.083791638 0.64552494
0.41875444 -0.093812576 0.64592839
0.60505563 -0.10383351 0.64633184
0.79135682 -0.11385445 0.6467353
0.97765801 -0.12387539 0.64713875
1.1639592 -0.13389633 0.64754221
1.3502604 -0.14391726 0.64794566
-0.17342049 0.084021127 0.64037097
0.012880699 0.074000189 0.64077442
0.19918189 0.063979252 0.64117788
0.38548308 0.053958314 0.64158133
0.57178427 0.043937377 0.64198478
0.75808546 0.033916439 0.64238824
0.94438665 0.023895502 0.64279169
1.1306878 0.013874564 0.64319515
1.316989 0.003853627 0.6435986
-0.20669186 0.23179202 0.63602391
-0.020390666 0.22177108 0.63642736
0.16591052 0.21175014 0.63683082
0.35221171 0.2017292 0.63723427
0.5385129 0.19170827 0.63763772
0.72481409 0.18168733 0.63804118
0.91111528 0.17166639 0.63844463
1.0974165 0.16164545 0.63884809
1.2837177 0.15162452 0.63925154
-0.23996322 0.37956291 0.63167685
-0.05366203 0.36954197 0.6320803
0.13263916 0.35952103 0.63248376
0.31894035 0.34950009 0.63288721
0.50524154 0.33947916 0.63329067
0.69154273 0.32945822 0.63369412
0.87784392 0.31943728 0.63409757
1.0641451 0.30941634 0.63450103
1.2504463 0.29939541 0.63490448
-0.27323459 0.5273338 0.62732979
-0.086933395 0.51731286 0.62773324
0.099367795 0.50729192 0.6281367
0.28566898 0.49727098 0.62854015
0.47197017 0.48725005 0.62894361
0.65827136 0.47722911 0.62934706
0.84457255 0.46720817 0.62975051
1.0308737 0.45718723 0.63015397
1.2171749 0.4471663 0.63055742
-0.30650595 0.67510469 0.62298273
-0.12020476 0.66508375 0.62338618
0.06609643 0.65506281 0.62378964
0.25239762 0.64504187 0.62419309
0.43869881 0.63502094 0.62459655
0.625 0.625 0.625
0.81130119 0.61497906 0.62540345
0.99760238 0.60495813 0.62580691
1.1839036 0.59493719 0.62621036
-0.33977732 0.82287558 0.61863567
-0.15347613 0.81285464 0.61903912
0.032825065 0.8028337 0.61944258
0.21912625 0.79281277 0.61984603
0.40542745 0.78279183 0.62024949
0.59172864 0.77277089 0.62065294
0.77802983 0.76274995 0.62105639
0.96433102 0.75272902 0.62145985
1.1506322 0.74270808 0.6218633
-0.37304868 0.97064647 0.61428861
-0.18674749 0.96062553 0.61469207
-0.00044630002 0.95060459 0.61509552
0.18585489 0.94058366 0.61549897
0.37215608 0.93056272 0.61590243
0.55845727 0.92054178 0.61630588
0.74475846 0.91052084 0.61670933
0.93105965 0.90049991 0.61711279
1.1173608 0.89047897 0.61751624
-0.40632005 1.1184174 0.60994155
-0.22001885 1.1083964 0.61034501
-0.033717665 1.0983755 0.61074846
0.15258353 1.0883545 0.61115191
0.33888472 1.0783336 0.61155537
0.52518591 1.0683127 0.61195882
0.7114871 1.0582917 0.61236228
0.89778829 1.0482708 0.61276573
1.0840895 1.0382499 0.61316918
-0.16817895 -0.076499716 0.77366163
0.018122239 -0.086520653 0.77406509
0.20442343 -0.096541591 0.77446854
0.39072462 -0.10656253 0.774872
0.57702581 -0.11658347 0.77527545
0.763327 -0.1266044 0.7756789
0.94962819 -0.13662534 0.77608236
1.1359294 -0.14664628 0.77648581
1.3222306 -0.15666722 0.77688926
-0.20145032 0.071271174 0.76931457
-0.015149126 0.061250237 0.76971803
0.17115206 0.051229299 0.77012148
0.35745325 0.041208362 0.77052494
0.54375444 0.031187424 0.77092839
0.73005563 0.021166487 0.77133184
0.91635682 0.011145549 0.7717353
1.102658 0.0011246118 0.77213875
1.2889592 -0.0088963257 0.77254221
-0.23472168 0.21904206 0.76496751
-0.048420491 0.20902113 0.76537097
0.1378807 0.19900019 0.76577442
0.32418189 0.18897925 0.76617788
0.51048308 0.17895831 0.76658133
0.69678427 0.16893738 0.76698478
0.88308546 0.15891644 0.76738824
1.0693866 0.1488955 0.76779169
1.2556878 0.13887456 0.76819515
-0.26799305 0.36681295 0.76062046
-0.081691856 0.35679202 0.76102391
0.10460933 0.34677108 0.76142736
0.29091052 0.33675014 0.76183082
0.47721171 0.3267292 0.76223427
0.6635129 0.31670827 0.76263772
0.84981409 0.30668733 0.76304118
1.0361153 0.29666639 0.76344463
1.2224165 0.28664545 0.76384809
-0.30126441 0.51458384 0.7562734
-0.11496322 0.50456291 0.75667685
0.07133797 0.49454197 0.7570803
0.25763916 0.48452103 0.75748376
0.44394035 0.47450009 0.75788721
0.63024154 0.46447916 0.75829067
0.81654273 0.45445822 0.75869412
1.0028439 0.44443728 0.75909757
1.1891451 0.43441634 0.75950103
-0.33453578 0.66235473 0.75192634
-0.14823459 0.6523338 0.75232979
0.038066605 0.64231286 0.75273324
0.22436779 0.63229192 0.7531367
0.41066898 0.62227098 0.75354015
0.59697017 0.61225005 0.75394361
0.78327136 0.60222911 0.75434706
0.96957255 0.59220817 0.75475051
1.1558737 0.58218723 0.75515397
-0.36780714 0.81012562 0.74757928
-0.18150595 0.80010469 0.74798273
0.0047952397 0.79008375 0.74838618
0.19109643 0.78006281 0.74878964
0.37739762 0.77004187 0.74919309
0.56369881 0.76002094 0.74959655
0.75 0.75 0.75
0.93630119 0.73997906 0.75040345
1.1226024 0.72995813 0.75080691
-0.40107851 0.95789652 0.74323222
-0.21477732 0.94787558 0.74363567
-0.028476125 0.93785464 0.74403912
0.15782506 0.9278337 0.74444258
0.34412625 0.91781277 0.74484603
0.53042745 0.90779183 0.74524949
0.71672864 0.89777089 0.74565294
0.90302983 0.88774995 0.74605639
1.089331 0.87772902 0.74645985
-0.43434987 1.1056674 0.73888516
-0.24804868 1.0956465 0.73928861
-0.06174749 1.0856255 0.73969207
0.1245537 1.0756046 0.74009552
0.31085489 1.0655837 0.74049897
0.49715608 1.0555627 0.74090243
0.68345727 1.0455418 0.74130588
0.86975846 1.0355208 0.74170933
1.0560597 1.0254999 0.74211279
-0.19620878 -0.089249669 0.90260524
-0.009907586 -0.099270606 0.90300869
0.1763936 -0.10929154 0.90341215
0.36269479 -0.11931248 0.9038156
0.54899598 -0.12933342 0.90421905
0.73529717 -0.13935436 0.90462251
0.92159836 -0.14937529 0.90502596
1.1078996 -0.15939623 0.90542942
1.2942007 -0.16941717 0.90583287
-0.22948014 0.058521222 0.89825818
-0.043178951 0.048500284 0.89866163
0.14312224 0.038479347 0.89906509
0.32942343 0.028458409 0.89946854
0.51572462 0.018437472 0.899872
0.70202581 0.0084165341 0.90027545
0.888327 -0.0016044033 0.9006789
1.0746282 -0.011625341 0.90108236
1.2609294 -0.021646278 0.90148581
-0.26275151 0.20629211 0.89391112
-0.076450316 0.19627117 0.89431457
0.10985087 0.18625024 0.89471803
0.29615206 0.1762293 0.89512148
0.48245325 0.16620836 0.89552494
0.66875444 0.15618742 0.89592839
0.85505563 0.14616649 0.89633184
1.0413568 0.13614555 0.8967353
1.227658 0.12612461 0.89713875
-0.29602287 0.354063 0.88956406
-0.10972168 0.34404206 0.88996751
0.076579509 0.33402113 0.89037097
0.2628807 0.32400019 0.89077442
0.44918189 0.31397925 0.89117788
0.63548308 0.30395831 0.89158133
0.82178427 0.29393738 0.89198478
1.0080855 0.28391644 0.89238824
1.1943866 0.2738955 0.89279169
-0.32929424 0.50183389 0.885217
-0.14299305 0.49181295 0.88562046
0.043308144 0.48179202 0.88602391
0.22960933 0.47177108 0.88642736
0.41591052 0.46175014 0.88683082
0.60221171 0.4517292 0.88723427
0.7885129 0.44170827 0.88763772
0.97481409 0.43168733 0.88804118
1.1611153 0.42166639 0.88844463
-0.3625656 0.64960478 0.88086994
-0.17626441 0.63958384 0.8812734
0.010036779 0.62956291 0.88167685
0.19633797 0.61954197 0.8820803
0.38263916 0.60952103 0.88248376
0.56894035 0.59950009 0.88288721
0.75524154 0.58947916 0.88329067
0.94154273 0.57945822 0.88369412
1.1278439 0.56943728 0.88409757
-0.39583697 0.79737567 0.87652288
-0.20953578 0.78735473 0.87692634
-0.023234585 0.7773338 0.87732979
0.1630666 0.76731286 0.87773324
0.34936779 0.75729192 0.8781367
0.53566898 0.74727098 0.87854015
0.72197017 0.73725005 0.87894361
0.90827136 0.72722911 0.87934706
1.0945726 0.71720817 0.87975051
-0.42910833 0.94514656 0.87217582
-0.24280714 0.93512562 0.87257928
-0.05650595 0.92510469 0.87298273
0.12979524 0.91508375 0.87338618
0.31609643 0.90506281 0.87378964
0.50239762 0.89504187 0.87419309
0.68869881 0.88502094 0.87459655
0.875 0.875 0.875
1.0613012 0.86497906 0.87540345
-0.4623797 1.0929175 0.86782876
-0.27607851 1.0828965 0.86823222
-0.089777315 1.0728756 0.86863567
0.096523875 1.0628546 0.86903912
0.28282506 1.0528337 0.86944258
0.46912625 1.0428128 0.86984603
0.65542745 1.0327918 0.87024949
0.84172864 1.0227709 0.87065294
1.0280298 1.01275 0.87105639
-0.2242386 -0.10199962 1.0315488
-0.037937411 -0.11202056 1.0319523
0.14836378 -0.1220415 1.0323558
0.33466497 -0.13206243 1.0327592
0.52096616 -0.14208337 1.0331627
0.70726735 -0.15210431 1.0335661
0.89356854 -0.16212525 1.0339696
1.0798697 -0.17214618 1.034373
1.2661709 -0.18216712 1.0347765
-0.25750997 0.045771269 1.0272018
-0.071208776 0.035750331 1.0276052
0.11509241 0.025729394 1.0280087
0.3013936 0.015708456 1.0284121
0.48769479 0.005687519 1.0288156
0.67399598 -0.0043334185 1.0292191
0.86029717 -0.014354356 1.0296225
1.0465984 -0.024375293 1.030026
1.2328996 -0.034396231 1.0304294
-0.29078133 0.19354216 1.0228547
-0.10448014 0.18352122 1.0232582
0.081821049 0.17350028 1.0236616
0.26812224 0.16347935 1.0240651
0.45442343 0.15345841 1.0244685
0.64072462 0.14343747 1.024872
0.82702581 0.13341653 1.0252754
1.013327 0.1233956 1.0256789
1.1996282 0.11337466 1.0260824
-0.3240527 0.34131305 1.0185077
-0.13775151 0.33129211 1.0189111
0.048549684 0.32127117 1.0193146
0.23485087 0.31125024 1.019718
0.42115206 0.3012293 1.0201215
0.60745325 0.29120836 1.0205249
0.79375444 0.28118742 1.0209284
0.98005563 0.27116649 1.0213318
1.1663568 0.26114555 1.0217353
-0.35732406 0.48908394 1.0141606
-0.17102287 0.479063 1.0145641
0.015278319 0.46904206 1.0149675
0.20157951 0.45902113 1.015371
0.3878807 0.44900019 1.0157744
0.57418189 0.43897925 1.0161779
0.76048308 0.42895831 1.0165813
0.94678427 0.41893738 1.0169848
1.1330855 0.40891644 1.0173882
-0.39059543 0.63685483 1.0098135
-0.20429424 0.62683389 1.010217
-0.017993046 0.61681295 1.0106205
0.16830814 0.60679202 1.0110239
0.35460933 0.59677108 1.0114274
0.54091052 0.58675014 1.0118308
0.72721171 0.5767292 1.0122343
0.9135129 0.56670827 1.0126377
1.0998141 0.55668733 1.0130412
-0.42386679 0.78462572 1.0054665
-0.2375656 0.77460478 1.0058699
-0.051264411 0.76458384 1.0062734
0.13503678 0.75456291 1.0066768
0.32133797 0.74454197 1.0070803
0.50763916 0.73452103 1.0074838
0.69394035 0.72450009 1.0078872
0.88024154 0.71447916 1.0082907
1.0665427 0.70445822 1.0086941
-0.45713816 0.93239661 1.0011194
-0.27083697 0.92237567 1.0015229
-0.084535775 0.91235473 1.0019263
0.10176541 0.9023338 1.0023298
0.2880666 0.89231286 1.0027332
0.47436779 0.88229192 1.0031367
0.66066898 0.87227098 1.0035402
0.84697017 0.86225005 1.0039436
1.0332714 0.85222911 1.0043471
-0.49040952 1.0801675 0.99677237
-0.30410833 1.0701466 0.99717582
-0.11780714 1.0601256 0.99757928
0.06849405 1.0501047 0.99798273
0.25479524 1.0400837 0.99838618
0.44109643 1.0300628 0.99878964
0.62739762 1.0200419 0.99919309
0.81369881 1.0100209 0.99959655
1 1 1
