site/assets/luts/ocio-aces--djiinputlinear-dgamut-to-aces2065-1--ad0c5dad6.cube
# LUTr-Project: LUTr — LUTrepository
# LUTr-Schema-Version: 1
# LUTr-ID: ocio-aces--djiinputlinear-dgamut-to-aces2065-1--ad0c5dad6
# LUTr-Title: DJI.Input.Linear DGamut to ACES2065-1
# LUTr-Collection: OCIO ACES
# LUTr-Collection-ID: aswf-opencolorio-config-aces
# LUTr-Source: https://github.com/AcademySoftwareFoundation/OpenColorIO-Config-ACES
# LUTr-Source-File: submissions/aswf-opencolorio-config-aces/opencolorio_config_aces/clf/transforms/dji/input/DJI.Input.Linear_DGamut_to_ACES2065-1.clf
# LUTr-Source-Format: CLF
# LUTr-Source-SHA256: 85faa18959c7ef92acab84a2e00043781a0eb082c1e53c2b946cb9dc29bded8a
# LUTr-License: BSD-3-Clause
# LUTr-License-URL: https://github.com/AcademySoftwareFoundation/OpenColorIO-Config-ACES/blob/main/LICENSE
# LUTr-Tags: technical, aces, ocio, clf, color-management, cube
# LUTr-Transform-Class: color-space-conversion
# LUTr-Input-Color-Space: Linear DJI D-Gamut
# LUTr-Output-Color-Space: ACES2065-1
# LUTr-Color-Space-Confidence: descriptor-only
# LUTr-Conversion-Method: CLF operations evaluated as float and sampled to 33x33x33 3D CUBE
# LUTr-Conversion-Date: 2026-07-27
# LUTr-Conversion-Tool: LUTr scripts/convert-all-to-cube.mjs
# LUTr-Conversion-Grid: 33x33x33
# LUTr-Conversion-Warning: A sampled 3D CUBE is bounded to DOMAIN_MIN/MAX 0..1 and cannot preserve CLF values outside its input domain.
# LUTr-Upstream-ID: urn:aswf:ocio:transformId:1.0:DJI:Input:Linear_DGamut_to_ACES2065-1:1.0
# LUTr-Upstream-Name: Linear DJI D-Gamut to ACES2065-1
# LUTr-Upstream-Input-Descriptor: Linear DJI D-Gamut
# LUTr-Upstream-Output-Descriptor: ACES2065-1
# LUTr-Upstream-Operations: Matrix
# LUTr-Note: Preserve this metadata and the upstream license notices when redistributing.
TITLE "DJI.Input.Linear DGamut to ACES2065-1"
LUT_3D_SIZE 9
DOMAIN_MIN 0 0 0
DOMAIN_MAX 1 1 1
0 0 0
0.086409906 0.0082778005 -0.0021623176
0.17281981 0.016555601 -0.0043246353
0.25922972 0.024833401 -0.0064869529
0.34563962 0.033111202 -0.0086492705
0.43204953 0.041389002 -0.010811588
0.51845943 0.049666803 -0.012973906
0.60486934 0.057944603 -0.015136223
0.69127925 0.066222404 -0.017298541
0.026797816 0.12645201 -0.0096723563
0.11320772 0.13472981 -0.011834674
0.19961763 0.14300761 -0.013996992
0.28602753 0.15128541 -0.016159309
0.37243744 0.15956321 -0.018321627
0.45884734 0.16784101 -0.020483944
0.54525725 0.17611881 -0.022646262
0.63166716 0.18439661 -0.02480858
0.71807706 0.19267441 -0.026970897
0.053595632 0.25290402 -0.019344713
0.14000554 0.26118182 -0.02150703
0.22641544 0.26945962 -0.023669348
0.31282535 0.27773742 -0.025831665
0.39923525 0.28601522 -0.027993983
0.48564516 0.29429302 -0.030156301
0.57205507 0.30257082 -0.032318618
0.65846497 0.31084862 -0.034480936
0.74487488 0.31912642 -0.036643254
0.080393448 0.37935603 -0.029017069
0.16680335 0.38763383 -0.031179386
0.25321326 0.39591163 -0.033341704
0.33962316 0.40418943 -0.035504022
0.42603307 0.41246723 -0.037666339
0.51244298 0.42074503 -0.039828657
0.59885288 0.42902283 -0.041990975
0.68526279 0.43730063 -0.044153292
0.77167269 0.44557843 -0.04631561
0.10719126 0.50580804 -0.038689425
0.19360117 0.51408584 -0.040851743
0.28001108 0.52236364 -0.04301406
0.36642098 0.53064144 -0.045176378
0.45283089 0.53891924 -0.047338696
0.53924079 0.54719704 -0.049501013
0.6256507 0.55547484 -0.051663331
0.7120606 0.56375264 -0.053825648
0.79847051 0.57203044 -0.055987966
0.13398908 0.63226005 -0.048361781
0.22039899 0.64053785 -0.050524099
0.30680889 0.64881565 -0.052686417
0.3932188 0.65709345 -0.054848734
0.4796287 0.66537125 -0.057011052
0.56603861 0.67364905 -0.059173369
0.65244851 0.68192685 -0.061335687
0.73885842 0.69020465 -0.063498005
0.82526833 0.69848245 -0.065660322
0.1607869 0.75871206 -0.058034138
0.2471968 0.76698986 -0.060196455
0.33360671 0.77526766 -0.062358773
0.42001661 0.78354546 -0.06452109
0.50642652 0.79182326 -0.066683408
0.59283642 0.80010106 -0.068845726
0.67924633 0.80837886 -0.071008043
0.76565624 0.81665666 -0.073170361
0.85206614 0.82493446 -0.075332679
0.18758471 0.88516407 -0.067706494
0.27399462 0.89344187 -0.069868811
0.36040452 0.90171967 -0.072031129
0.44681443 0.90999747 -0.074193447
0.53322433 0.91827527 -0.076355764
0.61963424 0.92655307 -0.078518082
0.70604415 0.93483087 -0.0806804
0.79245405 0.94310867 -0.082842717
0.87886396 0.95138647 -0.085005035
0.21438253 1.0116161 -0.07737885
0.30079243 1.0198939 -0.079541168
0.38720234 1.0281717 -0.081703485
0.47361224 1.0364495 -0.083865803
0.56002215 1.0447273 -0.086028121
0.64643206 1.0530051 -0.088190438
0.73284196 1.0612829 -0.090352756
0.81925187 1.0695607 -0.092515074
0.90566177 1.0778385 -0.094677391
0.011792278 -0.0097298105 0.13683467
0.098202184 -0.00145201 0.13467236
0.18461209 0.0068257904 0.13251004
0.271022 0.015103591 0.13034772
0.3574319 0.023381391 0.1281854
0.44384181 0.031659192 0.12602309
0.53025171 0.039936992 0.12386077
0.61666162 0.048214793 0.12169845
0.70307152 0.056492593 0.11953613
0.038590094 0.1167222 0.12716232
0.125 0.125 0.125
0.21140991 0.1332778 0.12283768
0.29781981 0.1415556 0.12067536
0.38422972 0.1498334 0.11851305
0.47063962 0.1581112 0.11635073
0.55704953 0.166389 0.11418841
0.64345943 0.1746668 0.11202609
0.72986934 0.1829446 0.10986378
0.06538791 0.24317421 0.11748996
0.15179782 0.25145201 0.11532764
0.23820772 0.25972981 0.11316533
0.32461763 0.26800761 0.11100301
0.41102753 0.27628541 0.10884069
0.49743744 0.28456321 0.10667837
0.58384734 0.29284101 0.10451606
0.67025725 0.30111881 0.10235374
0.75666716 0.30939661 0.10019142
0.092185726 0.36962622 0.10781761
0.17859563 0.37790402 0.10565529
0.26500554 0.38618182 0.10349297
0.35141544 0.39445962 0.10133065
0.43782535 0.40273742 0.099168335
0.52423525 0.41101522 0.097006017
0.61064516 0.41929302 0.094843699
0.69705507 0.42757082 0.092681382
0.78346497 0.43584862 0.090519064
0.11898354 0.49607823 0.098145249
0.20539345 0.50435603 0.095982931
0.29180335 0.51263383 0.093820614
0.37821326 0.52091163 0.091658296
0.46462316 0.52918943 0.089495978
0.55103307 0.53746723 0.087333661
0.63744298 0.54574503 0.085171343
0.72385288 0.55402283 0.083009025
0.81026279 0.56230063 0.080846708
0.14578136 0.62253024 0.088472893
0.23219126 0.63080804 0.086310575
0.31860117 0.63908584 0.084148257
0.40501108 0.64736364 0.08198594
0.49142098 0.65564144 0.079823622
0.57783089 0.66391924 0.077661304
0.66424079 0.67219704 0.075498987
0.7506507 0.68047484 0.073336669
0.8370606 0.68875264 0.071174352
0.17257917 0.74898225 0.078800536
0.25898908 0.75726005 0.076638219
0.34539899 0.76553785 0.074475901
0.43180889 0.77381565 0.072313583
0.5182188 0.78209345 0.070151266
0.6046287 0.79037125 0.067988948
0.69103861 0.79864905 0.065826631
0.77744851 0.80692685 0.063664313
0.86385842 0.81520465 0.061501995
0.19937699 0.87543426 0.06912818
0.2857869 0.88371206 0.066965862
0.3721968 0.89198986 0.064803545
0.45860671 0.90026766 0.062641227
0.54501661 0.90854546 0.06047891
0.63142652 0.91682326 0.058316592
0.71783642 0.92510106 0.056154274
0.80424633 0.93337886 0.053991957
0.89065624 0.94165666 0.051829639
0.22617481 1.0018863 0.059455824
0.31258471 1.0101641 0.057293506
0.39899462 1.0184419 0.055131189
0.48540452 1.0267197 0.052968871
0.57181443 1.0349975 0.050806553
0.65822433 1.0432753 0.048644236
0.74463424 1.0515531 0.046481918
0.83104415 1.0598309 0.0443196
0.91745405 1.0681087 0.042157283
0.023584557 -0.019459621 0.27366935
0.10999446 -0.011181821 0.27150703
0.19640437 -0.00290402 0.26934471
0.28281427 0.0053737804 0.26718239
0.36922418 0.013651581 0.26502008
0.45563409 0.021929381 0.26285776
0.54204399 0.030207182 0.26069544
0.6284539 0.038484982 0.25853312
0.7148638 0.046762783 0.25637081
0.050382373 0.10699239 0.26399699
0.13679228 0.11527019 0.26183467
0.22320218 0.12354799 0.25967236
0.30961209 0.13182579 0.25751004
0.396022 0.14010359 0.25534772
0.4824319 0.14838139 0.2531854
0.56884181 0.15665919 0.25102309
0.65525171 0.16493699 0.24886077
0.74166162 0.17321479 0.24669845
0.077180189 0.2334444 0.25432464
0.16359009 0.2417222 0.25216232
0.25 0.25 0.25
0.33640991 0.2582778 0.24783768
0.42281981 0.2665556 0.24567536
0.50922972 0.2748334 0.24351305
0.59563962 0.2831112 0.24135073
0.68204953 0.291389 0.23918841
0.76845943 0.2996668 0.23702609
0.103978 0.35989641 0.24465228
0.19038791 0.36817421 0.24248996
0.27679782 0.37645201 0.24032764
0.36320772 0.38472981 0.23816533
0.44961763 0.39300761 0.23600301
0.53602753 0.40128541 0.23384069
0.62243744 0.40956321 0.23167837
0.70884734 0.41784101 0.22951606
0.79525725 0.42611881 0.22735374
0.13077582 0.48634842 0.23497992
0.21718573 0.49462622 0.23281761
0.30359563 0.50290402 0.23065529
0.39000554 0.51118182 0.22849297
0.47641544 0.51945962 0.22633065
0.56282535 0.52773742 0.22416833
0.64923525 0.53601522 0.22200602
0.73564516 0.54429302 0.2198437
0.82205507 0.55257082 0.21768138
0.15757364 0.61280043 0.22530757
0.24398354 0.62107823 0.22314525
0.33039345 0.62935603 0.22098293
0.41680335 0.63763383 0.21882061
0.50321326 0.64591163 0.2166583
0.58962316 0.65418943 0.21449598
0.67603307 0.66246723 0.21233366
0.76244298 0.67074503 0.21017134
0.84885288 0.67902283 0.20800903
0.18437145 0.73925244 0.21563521
0.27078136 0.74753024 0.21347289
0.35719126 0.75580804 0.21131057
0.44360117 0.76408584 0.20914826
0.53001108 0.77236364 0.20698594
0.61642098 0.78064144 0.20482362
0.70283089 0.78891924 0.2026613
0.78924079 0.79719704 0.20049899
0.8756507 0.80547484 0.19833667
0.21116927 0.86570445 0.20596285
0.29757917 0.87398225 0.20380054
0.38398908 0.88226005 0.20163822
0.47039899 0.89053785 0.1994759
0.55680889 0.89881565 0.19731358
0.6432188 0.90709345 0.19515127
0.7296287 0.91537125 0.19298895
0.81603861 0.92364905 0.19082663
0.90244851 0.93192685 0.18866431
0.23796708 0.99215646 0.1962905
0.32437699 1.0004343 0.19412818
0.4107869 1.0087121 0.19196586
0.4971968 1.0169899 0.18980354
0.58360671 1.0252677 0.18764123
0.67001661 1.0335455 0.18547891
0.75642652 1.0418233 0.18331659
0.84283642 1.0501011 0.18115427
0.92924633 1.0583789 0.17899196
0.035376835 -0.029189431 0.41050402
0.12178674 -0.020911631 0.4083417
0.20819665 -0.012633831 0.40617939
0.29460655 -0.0043560301 0.40401707
0.38101646 0.0039217704 0.40185475
0.46742636 0.012199571 0.39969243
0.55383627 0.020477371 0.39753012
0.64024617 0.028755172 0.3953678
0.72665608 0.037032972 0.39320548
0.062174651 0.097262579 0.40083167
0.14858456 0.10554038 0.39866935
0.23499446 0.11381818 0.39650703
0.32140437 0.12209598 0.39434471
0.40781427 0.13037378 0.39218239
0.49422418 0.13865158 0.39002008
0.58063409 0.14692938 0.38785776
0.66704399 0.15520718 0.38569544
0.7534539 0.16348498 0.38353312
0.088972467 0.22371459 0.39115931
0.17538237 0.23199239 0.38899699
0.26179228 0.24027019 0.38683467
0.34820218 0.24854799 0.38467236
0.43461209 0.25682579 0.38251004
0.521022 0.26510359 0.38034772
0.6074319 0.27338139 0.3781854
0.69384181 0.28165919 0.37602309
0.78025171 0.28993699 0.37386077
0.11577028 0.3501666 0.38148695
0.20218019 0.3584444 0.37932464
0.28859009 0.3667222 0.37716232
0.375 0.375 0.375
0.46140991 0.3832778 0.37283768
0.54781981 0.3915556 0.37067536
0.63422972 0.3998334 0.36851305
0.72063962 0.4081112 0.36635073
0.80704953 0.416389 0.36418841
0.1425681 0.47661861 0.3718146
0.228978 0.48489641 0.36965228
0.31538791 0.49317421 0.36748996
0.40179782 0.50145201 0.36532764
0.48820772 0.50972981 0.36316533
0.57461763 0.51800761 0.36100301
0.66102753 0.52628541 0.35884069
0.74743744 0.53456321 0.35667837
0.83384734 0.54284101 0.35451606
0.16936591 0.60307062 0.36214224
0.25577582 0.61134842 0.35997992
0.34218573 0.61962622 0.35781761
0.42859563 0.62790402 0.35565529
0.51500554 0.63618182 0.35349297
0.60141544 0.64445962 0.35133065
0.68782535 0.65273742 0.34916833
0.77423525 0.66101522 0.34700602
0.86064516 0.66929302 0.3448437
0.19616373 0.72952263 0.35246988
0.28257364 0.73780043 0.35030757
0.36898354 0.74607823 0.34814525
0.45539345 0.75435603 0.34598293
0.54180335 0.76263383 0.34382061
0.62821326 0.77091163 0.3416583
0.71462316 0.77918943 0.33949598
0.80103307 0.78746723 0.33733366
0.88744298 0.79574503 0.33517134
0.22296155 0.85597464 0.34279753
0.30937145 0.86425244 0.34063521
0.39578136 0.87253024 0.33847289
0.48219126 0.88080804 0.33631057
0.56860117 0.88908584 0.33414826
0.65501108 0.89736364 0.33198594
0.74142098 0.90564144 0.32982362
0.82783089 0.91391924 0.3276613
0.91424079 0.92219704 0.32549899
0.24975936 0.98242665 0.33312517
0.33616927 0.99070445 0.33096285
0.42257917 0.99898225 0.32880054
0.50898908 1.0072601 0.32663822
0.59539899 1.0155379 0.3244759
0.68180889 1.0238157 0.32231358
0.7682188 1.0320935 0.32015127
0.8546287 1.0403713 0.31798895
0.94103861 1.0486491 0.31582663
0.047169113 -0.038919242 0.5473387
0.13357902 -0.030641442 0.54517638
0.21998892 -0.022363641 0.54301406
0.30639883 -0.014085841 0.54085174
0.39280874 -0.0058080401 0.53868943
0.47921864 0.0024697604 0.53652711
0.56562855 0.010747561 0.53436479
0.65203845 0.019025361 0.53220247
0.73844836 0.027303162 0.53004015
0.073966929 0.087532768 0.53766634
0.16037684 0.095810569 0.53550402
0.24678674 0.10408837 0.5333417
0.33319665 0.11236617 0.53117939
0.41960655 0.12064397 0.52901707
0.50601646 0.12892177 0.52685475
0.59242636 0.13719957 0.52469243
0.67883627 0.14547737 0.52253012
0.76524617 0.15375517 0.5203678
0.10076475 0.21398478 0.52799398
0.18717465 0.22226258 0.52583167
0.27358456 0.23054038 0.52366935
0.35999446 0.23881818 0.52150703
0.44640437 0.24709598 0.51934471
0.53281427 0.25537378 0.51718239
0.61922418 0.26365158 0.51502008
0.70563409 0.27192938 0.51285776
0.79204399 0.28020718 0.51069544
0.12756256 0.34043679 0.51832163
0.21397247 0.34871459 0.51615931
0.30038237 0.35699239 0.51399699
0.38679228 0.36527019 0.51183467
0.47320218 0.37354799 0.50967236
0.55961209 0.38182579 0.50751004
0.646022 0.39010359 0.50534772
0.7324319 0.39838139 0.5031854
0.81884181 0.40665919 0.50102309
0.15436038 0.4668888 0.50864927
0.24077028 0.4751666 0.50648695
0.32718019 0.4834444 0.50432464
0.41359009 0.4917222 0.50216232
0.5 0.5 0.5
0.58640991 0.5082778 0.49783768
0.67281981 0.5165556 0.49567536
0.75922972 0.5248334 0.49351305
0.84563962 0.5331112 0.49135073
0.18115819 0.59334081 0.49897691
0.2675681 0.60161861 0.4968146
0.353978 0.60989641 0.49465228
0.44038791 0.61817421 0.49248996
0.52679782 0.62645201 0.49032764
0.61320772 0.63472981 0.48816533
0.69961763 0.64300761 0.48600301
0.78602753 0.65128541 0.48384069
0.87243744 0.65956321 0.48167837
0.20795601 0.71979282 0.48930456
0.29436591 0.72807062 0.48714224
0.38077582 0.73634842 0.48497992
0.46718573 0.74462622 0.48281761
0.55359563 0.75290402 0.48065529
0.64000554 0.76118182 0.47849297
0.72641544 0.76945962 0.47633065
0.81282535 0.77773742 0.47416833
0.89923525 0.78601522 0.47200602
0.23475383 0.84624483 0.4796322
0.32116373 0.85452263 0.47746988
0.40757364 0.86280043 0.47530757
0.49398354 0.87107823 0.47314525
0.58039345 0.87935603 0.47098293
0.66680335 0.88763383 0.46882061
0.75321326 0.89591163 0.4666583
0.83962316 0.90418943 0.46449598
0.92603307 0.91246723 0.46233366
0.26155164 0.97269684 0.46995985
0.34796155 0.98097464 0.46779753
0.43437145 0.98925244 0.46563521
0.52078136 0.99753024 0.46347289
0.60719126 1.005808 0.46131057
0.69360117 1.0140858 0.45914826
0.78001108 1.0223636 0.45698594
0.86642098 1.0306414 0.45482362
0.95283089 1.0389192 0.4526613
0.058961392 -0.048649052 0.68417337
0.1453713 -0.040371252 0.68201105
0.2317812 -0.032093452 0.67984873
0.31819111 -0.023815651 0.67768642
0.40460101 -0.015537851 0.6755241
0.49101092 -0.0072600501 0.67336178
0.57742083 0.0010177504 0.67119946
0.66383073 0.0092955508 0.66903715
0.75024064 0.017573351 0.66687483
0.085759208 0.077802958 0.67450101
0.17216911 0.086080758 0.6723387
0.25857902 0.094358558 0.67017638
0.34498892 0.10263636 0.66801406
0.43139883 0.11091416 0.66585174
0.51780874 0.11919196 0.66368943
0.60421864 0.12746976 0.66152711
0.69062855 0.13574756 0.65936479
0.77703845 0.14402536 0.65720247
0.11255702 0.20425497 0.66482866
0.19896693 0.21253277 0.66266634
0.28537684 0.22081057 0.66050402
0.37178674 0.22908837 0.6583417
0.45819665 0.23736617 0.65617939
0.54460655 0.24564397 0.65401707
0.63101646 0.25392177 0.65185475
0.71742636 0.26219957 0.64969243
0.80383627 0.27047737 0.64753012
0.13935484 0.33070698 0.6551563
0.22576475 0.33898478 0.65299398
0.31217465 0.34726258 0.65083167
0.39858456 0.35554038 0.64866935
0.48499446 0.36381818 0.64650703
0.57140437 0.37209598 0.64434471
0.65781427 0.38037378 0.64218239
0.74422418 0.38865158 0.64002008
0.83063409 0.39692938 0.63785776
0.16615266 0.45715899 0.64548394
0.25256256 0.46543679 0.64332163
0.33897247 0.47371459 0.64115931
0.42538237 0.48199239 0.63899699
0.51179228 0.49027019 0.63683467
0.59820218 0.49854799 0.63467236
0.68461209 0.50682579 0.63251004
0.771022 0.51510359 0.63034772
0.8574319 0.52338139 0.6281854
0.19295047 0.583611 0.63581159
0.27936038 0.5918888 0.63364927
0.36577028 0.6001666 0.63148695
0.45218019 0.6084444 0.62932464
0.53859009 0.6167222 0.62716232
0.625 0.625 0.625
0.71140991 0.6332778 0.62283768
0.79781981 0.6415556 0.62067536
0.88422972 0.6498334 0.61851305
0.21974829 0.71006301 0.62613923
0.30615819 0.71834081 0.62397691
0.3925681 0.72661861 0.6218146
0.478978 0.73489641 0.61965228
0.56538791 0.74317421 0.61748996
0.65179782 0.75145201 0.61532764
0.73820772 0.75972981 0.61316533
0.82461763 0.76800761 0.61100301
0.91102753 0.77628541 0.60884069
0.2465461 0.83651502 0.61646688
0.33295601 0.84479282 0.61430456
0.41936591 0.85307062 0.61214224
0.50577582 0.86134842 0.60997992
0.59218573 0.86962622 0.60781761
0.67859563 0.87790402 0.60565529
0.76500554 0.88618182 0.60349297
0.85141544 0.89445962 0.60133065
0.93782535 0.90273742 0.59916833
0.27334392 0.96296703 0.60679452
0.35975383 0.97124483 0.6046322
0.44616373 0.97952263 0.60246988
0.53257364 0.98780043 0.60030757
0.61898354 0.99607823 0.59814525
0.70539345 1.004356 0.59598293
0.79180335 1.0126338 0.59382061
0.87821326 1.0209116 0.5916583
0.96462316 1.0291894 0.58949598
0.07075367 -0.058378863 0.82100804
0.15716358 -0.050101062 0.81884573
0.24357348 -0.041823262 0.81668341
0.32998339 -0.033545462 0.81452109
0.41639329 -0.025267661 0.81235877
0.5028032 -0.016989861 0.81019646
0.5892131 -0.0087120601 0.80803414
0.67562301 -0.00043425967 0.80587182
0.76203292 0.0078435408 0.8037095
0.097551486 0.068073147 0.81133569
0.18396139 0.076350948 0.80917337
0.2703713 0.084628748 0.80701105
0.3567812 0.092906548 0.80484873
0.44319111 0.10118435 0.80268642
0.52960101 0.10946215 0.8005241
0.61601092 0.11773995 0.79836178
0.70242083 0.12601775 0.79619946
0.78883073 0.13429555 0.79403715
0.1243493 0.19452516 0.80166333
0.21075921 0.20280296 0.79950101
0.29716911 0.21108076 0.7973387
0.38357902 0.21935856 0.79517638
0.46998892 0.22763636 0.79301406
0.55639883 0.23591416 0.79085174
0.64280874 0.24419196 0.78868943
0.72921864 0.25246976 0.78652711
0.81562855 0.26074756 0.78436479
0.15114712 0.32097717 0.79199097
0.23755702 0.32925497 0.78982866
0.32396693 0.33753277 0.78766634
0.41037684 0.34581057 0.78550402
0.49678674 0.35408837 0.7833417
0.58319665 0.36236617 0.78117939
0.66960655 0.37064397 0.77901707
0.75601646 0.37892177 0.77685475
0.84242636 0.38719957 0.77469243
0.17794493 0.44742918 0.78231862
0.26435484 0.45570698 0.7801563
0.35076475 0.46398478 0.77799398
0.43717465 0.47226258 0.77583167
0.52358456 0.48054038 0.77366935
0.60999446 0.48881818 0.77150703
0.69640437 0.49709598 0.76934471
0.78281427 0.50537378 0.76718239
0.86922418 0.51365158 0.76502008
0.20474275 0.57388119 0.77264626
0.29115266 0.58215899 0.77048394
0.37756256 0.59043679 0.76832163
0.46397247 0.59871459 0.76615931
0.55038237 0.60699239 0.76399699
0.63679228 0.61527019 0.76183467
0.72320218 0.62354799 0.75967236
0.80961209 0.63182579 0.75751004
0.896022 0.64010359 0.75534772
0.23154057 0.7003332 0.76297391
0.31795047 0.708611 0.76081159
0.40436038 0.7168888 0.75864927
0.49077028 0.7251666 0.75648695
0.57718019 0.7334444 0.75432464
0.66359009 0.7417222 0.75216232
0.75 0.75 0.75
0.83640991 0.7582778 0.74783768
0.92281981 0.7665556 0.74567536
0.25833838 0.82678521 0.75330155
0.34474829 0.83506301 0.75113923
0.43115819 0.84334081 0.74897691
0.5175681 0.85161861 0.7468146
0.603978 0.85989641 0.74465228
0.69038791 0.86817421 0.74248996
0.77679782 0.87645201 0.74032764
0.86320772 0.88472981 0.73816533
0.94961763 0.89300761 0.73600301
0.2851362 0.95323722 0.74362919
0.3715461 0.96151502 0.74146688
0.45795601 0.96979282 0.73930456
0.54436591 0.97807062 0.73714224
0.63077582 0.98634842 0.73497992
0.71718573 0.99462622 0.73281761
0.80359563 1.002904 0.73065529
0.89000554 1.0111818 0.72849297
0.97641544 1.0194596 0.72633065
0.082545948 -0.068108673 0.95784272
0.16895585 -0.059830873 0.9556804
0.25536576 -0.051553073 0.95351808
0.34177567 -0.043275272 0.95135576
0.42818557 -0.034997472 0.94919345
0.51459548 -0.026719671 0.94703113
0.60100538 -0.018441871 0.94486881
0.68741529 -0.01016407 0.94270649
0.77382519 -0.0018862697 0.94054418
0.10934376 0.058343337 0.94817036
0.19575367 0.066621137 0.94600804
0.28216358 0.074898938 0.94384573
0.36857348 0.083176738 0.94168341
0.45498339 0.091454538 0.93952109
0.54139329 0.099732339 0.93735877
0.6278032 0.10801014 0.93519646
0.7142131 0.11628794 0.93303414
0.80062301 0.12456574 0.93087182
0.13614158 0.18479535 0.938498
0.22255149 0.19307315 0.93633569
0.30896139 0.20135095 0.93417337
0.3953713 0.20962875 0.93201105
0.4817812 0.21790655 0.92984873
0.56819111 0.22618435 0.92768642
0.65460101 0.23446215 0.9255241
0.74101092 0.24273995 0.92336178
0.82742083 0.25101775 0.92119946
0.1629394 0.31124736 0.92882565
0.2493493 0.31952516 0.92666333
0.33575921 0.32780296 0.92450101
0.42216911 0.33608076 0.9223387
0.50857902 0.34435856 0.92017638
0.59498892 0.35263636 0.91801406
0.68139883 0.36091416 0.91585174
0.76780874 0.36919196 0.91368943
0.85421864 0.37746976 0.91152711
0.18973721 0.43769937 0.91915329
0.27614712 0.44597717 0.91699097
0.36255702 0.45425497 0.91482866
0.44896693 0.46253277 0.91266634
0.53537684 0.47081057 0.91050402
0.62178674 0.47908837 0.9083417
0.70819665 0.48736617 0.90617939
0.79460655 0.49564397 0.90401707
0.88101646 0.50392177 0.90185475
0.21653503 0.56415138 0.90948094
0.30294493 0.57242918 0.90731862
0.38935484 0.58070698 0.9051563
0.47576475 0.58898478 0.90299398
0.56217465 0.59726258 0.90083167
0.64858456 0.60554038 0.89866935
0.73499446 0.61381818 0.89650703
0.82140437 0.62209598 0.89434471
0.90781427 0.63037378 0.89218239
0.24333284 0.69060339 0.89980858
0.32974275 0.69888119 0.89764626
0.41615266 0.70715899 0.89548394
0.50256256 0.71543679 0.89332163
0.58897247 0.72371459 0.89115931
0.67538237 0.73199239 0.88899699
0.76179228 0.74027019 0.88683467
0.84820218 0.74854799 0.88467236
0.93461209 0.75682579 0.88251004
0.27013066 0.8170554 0.89013622
0.35654057 0.8253332 0.88797391
0.44295047 0.833611 0.88581159
0.52936038 0.8418888 0.88364927
0.61577028 0.8501666 0.88148695
0.70218019 0.8584444 0.87932464
0.78859009 0.8667222 0.87716232
0.875 0.875 0.875
0.96140991 0.8832778 0.87283768
0.29692848 0.94350741 0.88046387
0.38333838 0.95178521 0.87830155
0.46974829 0.96006301 0.87613923
0.55615819 0.96834081 0.87397691
0.6425681 0.97661861 0.8718146
0.728978 0.98489641 0.86965228
0.81538791 0.99317421 0.86748996
0.90179782 1.001452 0.86532764
0.98820772 1.0097298 0.86316533
0.094338227 -0.077838484 1.0946774
0.18074813 -0.069560683 1.0925151
0.26715804 -0.061282883 1.0903528
0.35356794 -0.053005083 1.0881904
0.43997785 -0.044727282 1.0860281
0.52638776 -0.036449482 1.0838658
0.61279766 -0.028171681 1.0817035
0.69920757 -0.019893881 1.0795412
0.78561747 -0.01161608 1.0773789
0.12113604 0.048613526 1.085005
0.20754595 0.056891327 1.0828427
0.29395585 0.065169127 1.0806804
0.38036576 0.073446927 1.0785181
0.46677567 0.081724728 1.0763558
0.55318557 0.090002528 1.0741934
0.63959548 0.098280329 1.0720311
0.72600538 0.10655813 1.0698688
0.81241529 0.11483593 1.0677065
0.14793386 0.17506554 1.0753327
0.23434376 0.18334334 1.0731704
0.32075367 0.19162114 1.071008
0.40716358 0.19989894 1.0688457
0.49357348 0.20817674 1.0666834
0.57998339 0.21645454 1.0645211
0.66639329 0.22473234 1.0623588
0.7528032 0.23301014 1.0601965
0.8392131 0.24128794 1.0580341
0.17473167 0.30151755 1.0656603
0.26114158 0.30979535 1.063498
0.34755149 0.31807315 1.0613357
0.43396139 0.32635095 1.0591734
0.5203713 0.33462875 1.0570111
0.6067812 0.34290655 1.0548487
0.69319111 0.35118435 1.0526864
0.77960101 0.35946215 1.0505241
0.86601092 0.36773995 1.0483618
0.20152949 0.42796956 1.055988
0.2879394 0.43624736 1.0538256
0.3743493 0.44452516 1.0516633
0.46075921 0.45280296 1.049501
0.54716911 0.46108076 1.0473387
0.63357902 0.46935856 1.0451764
0.71998892 0.47763636 1.0430141
0.80639883 0.48591416 1.0408517
0.89280874 0.49419196 1.0386894
0.22832731 0.55442157 1.0463156
0.31473721 0.56269937 1.0441533
0.40114712 0.57097717 1.041991
0.48755702 0.57925497 1.0398287
0.57396693 0.58753277 1.0376663
0.66037684 0.59581057 1.035504
0.74678674 0.60408837 1.0333417
0.83319665 0.61236617 1.0311794
0.91960655 0.62064397 1.0290171
0.25512512 0.68087358 1.0366433
0.34153503 0.68915138 1.0344809
0.42794493 0.69742918 1.0323186
0.51435484 0.70570698 1.0301563
0.60076475 0.71398478 1.027994
0.68717465 0.72226258 1.0258317
0.77358456 0.73054038 1.0236693
0.85999446 0.73881818 1.021507
0.94640437 0.74709598 1.0193447
0.28192294 0.80732559 1.0269709
0.36833284 0.81560339 1.0248086
0.45474275 0.82388119 1.0226463
0.54115266 0.83215899 1.0204839
0.62756256 0.84043679 1.0183216
0.71397247 0.84871459 1.0161593
0.80038237 0.85699239 1.013997
0.88679228 0.86527019 1.0118347
0.97320218 0.87354799 1.0096724
0.30872075 0.9337776 1.0172985
0.39513066 0.9420554 1.0151362
0.48154057 0.9503332 1.0129739
0.56795047 0.958611 1.0108116
0.65436038 0.9668888 1.0086493
0.74077028 0.9751666 1.006487
0.82718019 0.9834444 1.0043246
0.91359009 0.9917222 1.0021623
1 1 1
