site/assets/luts/ocio-aces--sonyinputslog3-venice-sgamut3-to-aces2065-1--5f6e3e2cc.cube
# LUTr-Project: LUTr — LUTrepository
# LUTr-Schema-Version: 1
# LUTr-ID: ocio-aces--sonyinputslog3-venice-sgamut3-to-aces2065-1--5f6e3e2cc
# LUTr-Title: Sony.Input.SLog3 Venice SGamut3 to ACES2065-1
# LUTr-Collection: OCIO ACES
# LUTr-Collection-ID: aswf-opencolorio-config-aces
# LUTr-Source: https://github.com/AcademySoftwareFoundation/OpenColorIO-Config-ACES
# LUTr-Source-File: submissions/aswf-opencolorio-config-aces/opencolorio_config_aces/clf/transforms/sony/input/Sony.Input.SLog3_Venice_SGamut3_to_ACES2065-1.clf
# LUTr-Source-Format: CLF
# LUTr-Source-SHA256: 17fbeb86216c159ebe36eb72d9def673065e08807cc4344771bf6dc388fc45d5
# LUTr-License: BSD-3-Clause
# LUTr-License-URL: https://github.com/AcademySoftwareFoundation/OpenColorIO-Config-ACES/blob/main/LICENSE
# LUTr-Tags: technical, aces, ocio, clf, color-management, cube
# LUTr-Transform-Class: color-space-conversion
# LUTr-Input-Color-Space: Sony S-Log3 Venice S-Gamut3
# LUTr-Output-Color-Space: ACES2065-1
# LUTr-Color-Space-Confidence: descriptor-only
# LUTr-Conversion-Method: CLF operations evaluated as float and sampled to 33x33x33 3D CUBE
# LUTr-Conversion-Date: 2026-07-27
# LUTr-Conversion-Tool: LUTr scripts/convert-all-to-cube.mjs
# LUTr-Conversion-Grid: 33x33x33
# LUTr-Conversion-Warning: A sampled 3D CUBE is bounded to DOMAIN_MIN/MAX 0..1 and cannot preserve CLF values outside its input domain.
# LUTr-Upstream-ID: urn:aswf:ocio:transformId:1.0:Sony:Input:SLog3_Venice_SGamut3_to_ACES2065-1:1.0
# LUTr-Upstream-Name: Sony S-Log3 Venice S-Gamut3 to ACES2065-1
# LUTr-Upstream-Input-Descriptor: Sony S-Log3 Venice S-Gamut3
# LUTr-Upstream-Output-Descriptor: ACES2065-1
# LUTr-Upstream-Operations: Log → Matrix
# LUTr-Note: Preserve this metadata and the upstream license notices when redistributing.
TITLE "Sony.Input.SLog3 Venice SGamut3 to ACES2065-1"
LUT_3D_SIZE 9
DOMAIN_MIN 0 0 0
DOMAIN_MAX 1 1 1
-0.014023696 -0.014023696 -0.014023696
0.00095169829 -0.013729578 -0.014379799
0.024657953 -0.013263985 -0.014943515
0.098590762 -0.011811939 -0.016701578
0.32654252 -0.0073349487 -0.022122089
1.0293699 0.0064686366 -0.038834763
3.1963475 0.049028246 -0.090363759
9.8776348 0.18024926 -0.24923944
30.477572 0.58483363 -0.73908949
-0.012342191 0.0054704351 -0.013782652
0.0026332028 0.005764553 -0.014138755
0.026339457 0.0062301457 -0.014702471
0.10027227 0.0076821919 -0.016460534
0.32822402 0.012159182 -0.021881045
1.0310514 0.025962768 -0.038593719
3.198029 0.068522377 -0.090122716
9.8793163 0.19974339 -0.24899839
30.479253 0.60432777 -0.73884844
-0.0096803467 0.036329912 -0.013401077
0.0052950475 0.03662403 -0.01375718
0.029001302 0.037089623 -0.014320896
0.10293411 0.038541669 -0.016078959
0.33088587 0.043018659 -0.02149947
1.0337133 0.056822245 -0.038212144
3.2006908 0.099381854 -0.08974114
9.8819782 0.23060286 -0.24861682
30.481915 0.63518724 -0.73846687
-0.0013788389 0.13257151 -0.012211057
0.013596555 0.13286563 -0.01256716
0.03730281 0.13333122 -0.013130876
0.11123562 0.13478327 -0.014888939
0.33918738 0.13926026 -0.02030945
1.0420148 0.15306384 -0.037022124
3.2089923 0.19562345 -0.08855112
9.8902797 0.32684446 -0.2474268
30.490216 0.73142884 -0.73727685
0.024216608 0.42930636 -0.0085419522
0.039192002 0.42960048 -0.0088980551
0.062898257 0.43006607 -0.0094617709
0.13683107 0.43151812 -0.011219834
0.36478282 0.43599511 -0.016640345
1.0676102 0.4497987 -0.033353019
3.2345878 0.49235831 -0.084882015
9.9158751 0.62357931 -0.24375769
30.515812 1.0281637 -0.73360774
0.10313322 1.3442078 0.0027707367
0.11810862 1.3445019 0.0024146338
0.14181487 1.3449675 0.001850918
0.21574768 1.3464195 0.000092854855
0.44369944 1.3508965 -0.0053276559
1.1465268 1.3647001 -0.02204033
3.3135044 1.4072597 -0.073569326
9.9947918 1.5384807 -0.23244501
30.594729 1.9430651 -0.72229505
0.34645119 4.165058 0.037650344
0.36142659 4.1653521 0.037294241
0.38513284 4.1658177 0.036730525
0.45906565 4.1672698 0.034972462
0.68701741 4.1717468 0.029551951
1.3898448 4.1855504 0.012839277
3.5568224 4.22811 -0.038689719
10.23811 4.359331 -0.1975654
30.838047 4.7639154 -0.68741545
1.0966561 12.862384 0.14519215
1.1116315 12.862679 0.14483604
1.1353378 12.863144 0.14427233
1.2092706 12.864596 0.14251427
1.4372224 12.869073 0.13709376
2.1400497 12.882877 0.12038108
4.3070273 12.925436 0.068852085
10.988315 13.056657 -0.090023594
31.588251 13.461242 -0.57987364
3.4097095 39.67823 0.47676812
3.4246849 39.678525 0.47641202
3.4483912 39.67899 0.4758483
3.522324 39.680442 0.47409024
3.7502758 39.684919 0.46866973
4.4531031 39.698723 0.45195706
6.6200807 39.741282 0.40042806
13.301368 39.872503 0.24155238
33.901305 40.277088 -0.24829767
-0.011803962 -0.014935312 0.0049679963
0.0031714324 -0.014641194 0.0046118934
0.026877687 -0.014175601 0.0040481776
0.1008105 -0.012723555 0.0022901144
0.32876225 -0.0082465648 -0.0031303963
1.0315896 0.0055570204 -0.019843071
3.1985672 0.04811663 -0.071372067
9.8798546 0.17933764 -0.23024775
30.479791 0.58392202 -0.72009779
-0.010122457 0.004558819 0.0052090398
0.0048529369 0.0048529369 0.0048529369
0.028559191 0.0053185296 0.0042892211
0.102492 0.0067705758 0.0025311579
0.33044376 0.011247566 -0.0028893528
1.0332711 0.025051151 -0.019602027
3.2002487 0.067610761 -0.071131023
9.8815361 0.19883177 -0.2300067
30.481473 0.60341615 -0.71985675
-0.0074606126 0.035418296 0.005590615
0.0075147816 0.035712414 0.0052345121
0.031221036 0.036178007 0.0046707963
0.10515385 0.037630053 0.0029127331
0.3331056 0.042107043 -0.0025077777
1.035933 0.055910628 -0.019220452
3.2029106 0.098470238 -0.070749448
9.8841979 0.22969125 -0.22962513
30.484135 0.63427563 -0.71947517
0.00084089514 0.13165989 0.0067806353
0.015816289 0.13195401 0.0064245324
0.039522544 0.1324196 0.0058608166
0.11345535 0.13387165 0.0041027534
0.34140711 0.13834864 -0.0013177574
1.0442345 0.15215223 -0.018030432
3.2112121 0.19471184 -0.069559428
9.8924994 0.32593285 -0.22843511
30.492436 0.73051722 -0.71828515
0.026436342 0.42839475 0.01044974
0.041411736 0.42868886 0.010093637
0.065117991 0.42915446 0.0095299213
0.1390508 0.4306065 0.0077718581
0.36700256 0.43508349 0.0023513474
1.0698299 0.44888708 -0.014361327
3.2368075 0.49144669 -0.065890323
9.9180949 0.6226677 -0.224766
30.518032 1.0272521 -0.71461605
0.10535296 1.3432962 0.021762429
0.12032835 1.3435903 0.021406326
0.14403461 1.3440559 0.02084261
0.21796742 1.3455079 0.019084547
0.44591917 1.3499849 0.013664036
1.1487466 1.3637885 -0.0030486379
3.3157241 1.4063481 -0.054577634
9.9970115 1.5375691 -0.21345331
30.596948 1.9421535 -0.70330336
0.34867093 4.1641464 0.056642036
0.36364632 4.1644405 0.056285933
0.38735258 4.1649061 0.055722217
0.46128539 4.1663582 0.053964154
0.68923714 4.1708352 0.048543643
1.3920645 4.1846387 0.031830969
3.5590421 4.2271983 -0.019698027
10.240329 4.3584194 -0.17857371
30.840266 4.7630037 -0.66842375
1.0988759 12.861473 0.16418384
1.1138513 12.861767 0.16382774
1.1375575 12.862232 0.16326402
1.2114903 12.863685 0.16150596
1.4394421 12.868162 0.15608545
2.1422695 12.881965 0.13937277
4.309247 12.924525 0.087843777
10.990534 13.055746 -0.071031902
31.590471 13.46033 -0.56088195
3.4119293 39.677319 0.49575981
3.4269047 39.677613 0.49540371
3.4506109 39.678079 0.49484
3.5245437 39.679531 0.49308193
3.7524955 39.684008 0.48766142
4.4553229 39.697811 0.47094875
6.6223004 39.740371 0.41941975
13.303588 39.871592 0.26054407
33.903525 40.276176 -0.22930598
-0.0082900923 -0.016378413 0.035032106
0.0066853019 -0.016084295 0.034676003
0.030391556 -0.015618702 0.034112287
0.10432437 -0.014166656 0.032354224
0.33227612 -0.0096896657 0.026933713
1.0351035 0.0041139196 0.010221039
3.2020811 0.046673529 -0.041307957
9.8833684 0.17789454 -0.20018364
30.483305 0.58247892 -0.69003368
-0.0066085878 0.0031157181 0.035273149
0.0083668064 0.003409836 0.034917046
0.032073061 0.0038754287 0.034353331
0.10600587 0.0053274749 0.032595267
0.33395763 0.0098044654 0.027174757
1.036785 0.023608051 0.010462082
3.2037626 0.06616766 -0.041066914
9.8850499 0.19738867 -0.19994259
30.484987 0.60197305 -0.68979264
-0.0039467431 0.033975195 0.035654724
0.011028651 0.034269313 0.035298622
0.034734906 0.034734906 0.034734906
0.10866771 0.036186952 0.032976843
0.33661947 0.040663942 0.027556332
1.0394469 0.054467528 0.010843658
3.2064244 0.097027137 -0.040685339
9.8877118 0.22824815 -0.19956102
30.487649 0.63283253 -0.68941107
0.0043547647 0.13021679 0.036844745
0.019330159 0.13051091 0.036488642
0.043036413 0.1309765 0.035924926
0.11696922 0.13242855 0.034166863
0.34492098 0.13690554 0.028746352
1.0477484 0.15070913 0.012033678
3.2147259 0.19326873 -0.039495318
9.8960133 0.32448974 -0.198371
30.49595 0.72907412 -0.68822105
0.029950211 0.42695165 0.040513849
0.044925606 0.42724576 0.040157747
0.06863186 0.42771136 0.039594031
0.14256467 0.4291634 0.037835968
0.37051643 0.43364039 0.032415457
1.0733438 0.44744398 0.015702783
3.2403214 0.49000359 -0.035826214
9.9216087 0.6212246 -0.19470189
30.521546 1.025809 -0.68455194
0.10886683 1.3418531 0.051826538
0.12384222 1.3421472 0.051470436
0.14754848 1.3426128 0.05090672
0.22148128 1.3440648 0.049148657
0.44943304 1.3485418 0.043728146
1.1522604 1.3623454 0.027015472
3.319238 1.404905 -0.024513525
10.000525 1.536126 -0.1833892
30.600462 1.9407104 -0.67323925
0.3521848 4.1627033 0.086706145
0.36716019 4.1629974 0.086350042
0.39086645 4.163463 0.085786327
0.46479926 4.1649151 0.084028263
0.69275101 4.1693921 0.078607753
1.3955784 4.1831956 0.061895079
3.562556 4.2257552 0.010366082
10.243843 4.3569763 -0.1485096
30.84378 4.7615606 -0.63835964
1.1023897 12.86003 0.19424795
1.1173651 12.860324 0.19389185
1.1410714 12.860789 0.19332813
1.2150042 12.862241 0.19157007
1.442956 12.866718 0.18614956
2.1457833 12.880522 0.16943688
4.3127609 12.923082 0.11790789
10.994048 13.054303 -0.040967792
31.593985 13.458887 -0.53081784
3.4154431 39.675876 0.52582392
3.4304185 39.67617 0.52546782
3.4541248 39.676635 0.52490411
3.5280576 39.678088 0.52314604
3.7560094 39.682565 0.51772553
4.4588368 39.696368 0.50101286
6.6258143 39.738928 0.44948386
13.307102 39.870149 0.29060818
33.907038 40.274733 -0.19924187
0.0026686292 -0.020879018 0.12879319
0.017644023 -0.0205849 0.12843708
0.041350278 -0.020119308 0.12787337
0.11528309 -0.018667262 0.12611531
0.34323484 -0.014190271 0.12069479
1.0460622 -0.00038668587 0.10398212
3.2130398 0.042172924 0.052453124
9.8943272 0.17339393 -0.10642255
30.494264 0.57797831 -0.5962726
0.0043501338 -0.0013848873 0.12903423
0.019325528 -0.0010907694 0.12867813
0.043031783 -0.00062517671 0.12811441
0.11696459 0.00082686948 0.12635635
0.34491635 0.0053038599 0.12093584
1.0477437 0.019107445 0.10422316
3.2147213 0.061667055 0.052694167
9.8960087 0.19288806 -0.10618151
30.495945 0.59747244 -0.59603156
0.0070119785 0.02947459 0.12941581
0.021987373 0.029768708 0.1290597
0.045693627 0.0302343 0.12849599
0.11962644 0.031686346 0.12673792
0.34757819 0.036163337 0.12131741
1.0504056 0.049966922 0.10460474
3.2173831 0.092526532 0.053075742
9.8986705 0.22374754 -0.10579994
30.498607 0.62833192 -0.59564998
0.015313486 0.12571619 0.13060583
0.03028888 0.12601031 0.13024972
0.053995135 0.1264759 0.12968601
0.12792794 0.12792794 0.12792794
0.3558797 0.13240493 0.12250743
1.0587071 0.14620852 0.10579476
3.2256847 0.18876813 0.054265763
9.906972 0.31998914 -0.10460992
30.506909 0.72457352 -0.59445996
0.040908933 0.42245104 0.13427493
0.055884327 0.42274516 0.13391883
0.079590582 0.42321075 0.13335511
0.15352339 0.4246628 0.13159705
0.38147515 0.42913979 0.12617654
1.0843025 0.44294337 0.10946386
3.2512801 0.48550298 0.057934868
9.9325675 0.61672399 -0.10094081
30.532504 1.0213084 -0.59079086
0.11982555 1.3373524 0.14558762
0.13480094 1.3376466 0.14523152
0.1585072 1.3381122 0.1446678
0.23244001 1.3395642 0.14290974
0.46039176 1.3440412 0.13748923
1.1632192 1.3578448 0.12077655
3.3301967 1.4004044 0.069247556
10.011484 1.5316254 -0.089628122
30.611421 1.9362098 -0.57947817
0.36314352 4.1582027 0.18046723
0.37811891 4.1584968 0.18011112
0.40182517 4.1589624 0.17954741
0.47575798 4.1604145 0.17778934
0.70370973 4.1648914 0.17236883
1.4065371 4.178695 0.15565616
3.5735147 4.2212546 0.10412716
10.254802 4.3524757 -0.054748515
30.854739 4.75706 -0.54459856
1.1133485 12.855529 0.28800903
1.1283239 12.855823 0.28765293
1.1520301 12.856289 0.28708921
1.2259629 12.857741 0.28533115
1.4539147 12.862218 0.27991064
2.1567421 12.876021 0.26319796
4.3237196 12.918581 0.21166897
11.005007 13.049802 0.052793289
31.604944 13.454386 -0.43705676
3.4264019 39.671375 0.619585
3.4413773 39.671669 0.6192289
3.4650835 39.672135 0.61866519
3.5390163 39.673587 0.61690712
3.7669681 39.678064 0.61148661
4.4697955 39.691867 0.59477394
6.636773 39.734427 0.54324494
13.31806 39.865648 0.38436926
33.917997 40.270232 -0.10548078
0.036456874 -0.034755414 0.41788004
0.051432268 -0.034461296 0.41752394
0.075138523 -0.033995704 0.41696022
0.14907133 -0.032543657 0.41520216
0.37702309 -0.028066667 0.40978165
1.0798505 -0.014263082 0.39306897
3.246828 0.028296528 0.34153998
9.9281154 0.15951754 0.1826643
30.528052 0.56410192 -0.30718575
0.038138378 -0.015261283 0.41812108
0.053113773 -0.014967165 0.41776498
0.076820027 -0.014501572 0.41720127
0.15075284 -0.013049526 0.4154432
0.37870459 -0.0085725359 0.41002269
1.081532 0.0052310494 0.39331002
3.2485095 0.047790659 0.34178102
9.9297969 0.17901167 0.18290534
30.529734 0.58359605 -0.30694471
0.040800223 0.015598194 0.41850266
0.055775617 0.015892312 0.41814656
0.079481872 0.016357904 0.41758284
0.15341468 0.017809951 0.41582478
0.38136644 0.022286941 0.41040427
1.0841938 0.036090526 0.39369159
3.2511714 0.078650136 0.3421626
9.9324588 0.20987115 0.18328692
30.532396 0.61445552 -0.30656313
0.049101731 0.11183979 0.41969268
0.064077125 0.11213391 0.41933658
0.08778338 0.1125995 0.41877286
0.16171619 0.11405155 0.4170148
0.38966794 0.11852854 0.41159429
1.0924953 0.13233212 0.39488161
3.2594729 0.17489173 0.34335262
9.9407603 0.30611274 0.18447694
30.540697 0.71069712 -0.30537311
0.074697178 0.40857464 0.42336178
0.089672572 0.40886876 0.42300568
0.11337883 0.40933436 0.42244197
0.18731164 0.4107864 0.4206839
0.41526339 0.41526339 0.41526339
1.1180908 0.42906698 0.39855072
3.2850683 0.47162659 0.34702172
9.9663557 0.6028476 0.18814604
30.566292 1.007432 -0.30170401
0.15361379 1.3234761 0.43467447
0.16858919 1.3237702 0.43431837
0.19229544 1.3242358 0.43375465
0.26622825 1.3256878 0.43199659
0.49418001 1.3301648 0.42657608
1.1970074 1.3439684 0.40986341
3.363985 1.386528 0.35833441
10.045272 1.517749 0.19945873
30.645209 1.9223334 -0.29039132
0.39693176 4.1443263 0.46955408
0.41190716 4.1446204 0.46919798
0.43561341 4.145086 0.46863426
0.50954622 4.1465381 0.4668762
0.73749798 4.1510151 0.46145569
1.4403254 4.1648186 0.44474301
3.6073029 4.2073782 0.39321402
10.28859 4.3385993 0.23433834
30.888527 4.7431836 -0.25551171
1.1471367 12.841653 0.57709588
1.1621121 12.841947 0.57673978
1.1858184 12.842412 0.57617607
1.2597512 12.843864 0.574418
1.4877029 12.848341 0.56899749
2.1905303 12.862145 0.55228482
4.3575079 12.904705 0.50075582
11.038795 13.035926 0.34188014
31.638732 13.44051 -0.14796991
3.4601901 39.657499 0.90867186
3.4751655 39.657793 0.90831576
3.4988718 39.658258 0.90775204
3.5728046 39.659711 0.90599398
3.8007563 39.664188 0.90057347
4.5035837 39.677991 0.88386079
6.6705613 39.720551 0.8323318
13.351849 39.851772 0.67345612
33.951785 40.256356 0.18360607
0.14063376 -0.077539516 1.3092009
0.15560915 -0.077245398 1.3088448
0.17931541 -0.076779805 1.3082811
0.25324822 -0.075327759 1.306523
0.48119997 -0.070850768 1.3011025
1.1840274 -0.057047183 1.2843899
3.3510049 -0.014487573 1.2328609
10.032292 0.11673344 1.0739852
30.632229 0.52131782 0.58413513
0.14231526 -0.058045384 1.309442
0.15729066 -0.057751267 1.3090859
0.18099691 -0.057285674 1.3085221
0.25492972 -0.055833628 1.3067641
0.48288148 -0.051356637 1.3013436
1.1857089 -0.037553052 1.2846309
3.3526864 0.0050065579 1.2331019
10.033974 0.13622757 1.0742262
30.633911 0.54081195 0.58437617
0.14497711 -0.027185908 1.3098235
0.1599525 -0.02689179 1.3094674
0.18365876 -0.026426197 1.3089037
0.25759157 -0.024974151 1.3071457
0.48554332 -0.02049716 1.3017251
1.1883707 -0.006693575 1.2850125
3.3553483 0.035866035 1.2334835
10.036636 0.16708704 1.0746078
30.636572 0.57167142 0.58475775
0.15327862 0.06905569 1.3110136
0.16825401 0.069349808 1.3106575
0.19196026 0.069815401 1.3100937
0.26589307 0.071267447 1.3083357
0.49384483 0.075744437 1.3029152
1.1966722 0.089548023 1.2862025
3.3636498 0.13210763 1.2346735
10.044937 0.26332864 1.0757978
30.644874 0.66791302 0.58594777
0.17887406 0.36579054 1.3146827
0.19384946 0.36608466 1.3143266
0.21755571 0.36655025 1.3137628
0.29148852 0.3680023 1.3120048
0.51944028 0.37247929 1.3065843
1.2222677 0.38628288 1.2898716
3.3892452 0.42884249 1.2383426
10.070533 0.56006349 1.0794669
30.670469 0.96464787 0.58961687
0.25779068 1.280692 1.3259953
0.27276607 1.2809861 1.3256392
0.29647233 1.2814517 1.3250755
0.37040514 1.2829037 1.3233175
0.59835689 1.2873807 1.317897
1.3011843 1.3011843 1.3011843
3.4681618 1.3437439 1.2496553
10.149449 1.4749649 1.0907796
30.749386 1.8795493 0.60092956
0.50110865 4.1015422 1.360875
0.51608404 4.1018363 1.3605189
0.5397903 4.1023019 1.3599551
0.61372311 4.103754 1.3581971
0.84167486 4.108231 1.3527766
1.5445023 4.1220345 1.3360639
3.7114798 4.1645941 1.2845349
10.392767 4.2958152 1.1256592
30.992704 4.7003995 0.63580917
1.2513136 12.798869 1.4684168
1.266289 12.799163 1.4680607
1.2899952 12.799628 1.4674969
1.3639281 12.80108 1.4657389
1.5918798 12.805557 1.4603184
2.2947072 12.819361 1.4436057
4.4616848 12.861921 1.3920767
11.142972 12.993142 1.233201
31.742909 13.397726 0.74335097
3.564367 39.614715 1.7999927
3.5793424 39.615009 1.7996366
3.6030486 39.615474 1.7990729
3.6769815 39.616926 1.7973149
3.9049332 39.621403 1.7918943
4.6077606 39.635207 1.7751817
6.7747382 39.677767 1.7236527
13.456026 39.808988 1.564777
34.055962 40.213572 1.0749269
0.46183492 -0.20945268 4.057347
0.47681031 -0.20915857 4.0569909
0.50051656 -0.20869297 4.0564272
0.57444937 -0.20724093 4.0546691
0.80240113 -0.20276394 4.0492486
1.5052285 -0.18896035 4.0325359
3.6722061 -0.14640074 3.9810069
10.353493 -0.015179732 3.8221313
30.95343 0.38940465 3.3322812
0.46351642 -0.18995855 4.057588
0.47849181 -0.18966443 4.0572319
0.50219807 -0.18919884 4.0566682
0.57613088 -0.1877468 4.0549102
0.80408263 -0.18326981 4.0494897
1.50691 -0.16946622 4.032777
3.6738876 -0.12690661 3.981248
10.355175 0.0043143992 3.8223723
30.955112 0.40889878 3.3325223
0.46617827 -0.15909908 4.0579696
0.48115366 -0.15880496 4.0576135
0.50485991 -0.15833936 4.0570498
0.57879272 -0.15688732 4.0552917
0.80674448 -0.15241033 4.0498712
1.5095719 -0.13860674 4.0331586
3.6765494 -0.096047133 3.9816296
10.357837 0.035173876 3.8227539
30.957774 0.43975825 3.3329038
0.47447977 -0.062857478 4.0591596
0.48945517 -0.06256336 4.0588035
0.51316142 -0.062097767 4.0582398
0.58709423 -0.060645721 4.0564818
0.81504599 -0.056168731 4.0510612
1.5178734 -0.042365146 4.0343486
3.6848509 0.00019446429 3.9828196
10.366138 0.13141547 3.8239439
30.966075 0.53599985 3.3340938
0.50007522 0.23387738 4.0628287
0.51505061 0.23417149 4.0624726
0.53875687 0.23463709 4.0619089
0.61268968 0.23608913 4.0601509
0.84064143 0.24056612 4.0547304
1.5434688 0.25436971 4.0380177
3.7104464 0.29692932 3.9864887
10.391734 0.42815033 3.827613
30.991671 0.83273471 3.337763
0.57899183 1.1487788 4.0741414
0.59396723 1.1490729 4.0737853
0.61767348 1.1495385 4.0732216
0.69160629 1.1509905 4.0714636
0.91955805 1.1554675 4.066043
1.6223854 1.1692711 4.0493304
3.789363 1.2118307 3.9978014
10.47065 1.3430517 3.8389257
31.070587 1.7476361 3.3490756
0.82230981 3.969629 4.109021
0.8372852 3.9699232 4.1086649
0.86099146 3.9703887 4.1081012
0.93492426 3.9718408 4.1063432
1.162876 3.9763178 4.1009226
1.8657034 3.9901214 4.08421
4.032681 4.032681 4.032681
10.713968 4.163902 3.8738053
31.313905 4.5684864 3.3839553
1.5725148 12.666955 4.2165628
1.5874901 12.66725 4.2162067
1.6111964 12.667715 4.215643
1.6851292 12.669167 4.213885
1.913081 12.673644 4.2084645
2.6159084 12.687448 4.1917518
4.7828859 12.730007 4.1402228
11.464173 12.861228 3.9813471
32.06411 13.265813 3.4914971
3.8855682 39.482801 4.5481388
3.9005435 39.483096 4.5477827
3.9242498 39.483561 4.547219
3.9981826 39.485013 4.5454609
4.2261344 39.48949 4.5400404
4.9289618 39.503294 4.5233278
7.0959393 39.545853 4.4717988
13.777227 39.677074 4.3129231
34.377163 40.081659 3.823073
1.4521715 -0.61617115 12.53051
1.4671469 -0.61587703 12.530154
1.4908532 -0.61541144 12.52959
1.564786 -0.61395939 12.527832
1.7927377 -0.6094824 12.522411
2.4955651 -0.59567881 12.505699
4.6625427 -0.5531192 12.45417
11.34383 -0.42189819 12.295294
31.943767 -0.017313815 11.805444
1.453853 -0.59667701 12.530751
1.4688284 -0.5963829 12.530395
1.4925347 -0.5959173 12.529831
1.5664675 -0.59446526 12.528073
1.7944193 -0.58998827 12.522652
2.4972466 -0.57618468 12.50594
4.6642242 -0.53362507 12.454411
11.345512 -0.40240406 12.295535
31.945448 0.0021803157 11.805685
1.4565149 -0.56581754 12.531132
1.4714903 -0.56552342 12.530776
1.4951965 -0.56505783 12.530213
1.5691293 -0.56360578 12.528455
1.7970811 -0.55912879 12.523034
2.4999085 -0.54532521 12.506321
4.6668861 -0.5027656 12.454792
11.348173 -0.37154459 12.295917
31.94811 0.033039793 11.806067
1.4648164 -0.46957594 12.532322
1.4797918 -0.46928182 12.531966
1.503498 -0.46881623 12.531403
1.5774308 -0.46736418 12.529645
1.8053826 -0.46288719 12.524224
2.50821 -0.44908361 12.507511
4.6751876 -0.406524 12.455982
11.356475 -0.27530299 12.297107
31.956412 0.12928139 11.807257
1.4904118 -0.17284109 12.535992
1.5053872 -0.17254697 12.535635
1.5290935 -0.17208138 12.535072
1.6030263 -0.17062933 12.533314
1.8309781 -0.16615234 12.527893
2.5338054 -0.15234875 12.51118
4.700783 -0.10978914 12.459651
11.38207 0.021431865 12.300776
31.982007 0.42601624 11.810926
1.5693285 0.74206032 12.547304
1.5843038 0.74235444 12.546948
1.6080101 0.74282003 12.546384
1.6819429 0.74427208 12.544626
1.9098947 0.74874907 12.539206
2.6127221 0.76255265 12.522493
4.7796996 0.80511226 12.470964
11.460987 0.93633327 12.312088
32.060924 1.3409177 11.822238
1.8126464 3.5629106 12.582184
1.8276218 3.5632047 12.581828
1.8513281 3.5636703 12.581264
1.9252609 3.5651223 12.579506
2.1532126 3.5695993 12.574085
2.85604 3.5834029 12.557373
5.0230176 3.6259625 12.505844
11.704305 3.7571835 12.346968
32.304242 4.1617679 11.857118
2.5628514 12.260237 12.689726
2.5778268 12.260531 12.68937
2.601533 12.260997 12.688806
2.6754658 12.262449 12.687048
2.9034176 12.266926 12.681627
3.606245 12.280729 12.664915
5.7732225 12.323289 12.613386
12.45451 12.45451 12.45451
33.054447 12.859094 11.96466
4.8759048 39.076083 13.021302
4.8908802 39.076377 13.020946
4.9145864 39.076843 13.020382
4.9885192 39.078295 13.018624
5.216471 39.082772 13.013203
5.9192984 39.096575 12.996491
8.0862759 39.139135 12.944962
14.767563 39.270356 12.786086
35.3675 39.67494 12.296236
4.5056058 -1.8701772 38.655208
4.5205812 -1.8698831 38.654852
4.5442874 -1.8694175 38.654288
4.6182203 -1.8679654 38.65253
4.846172 -1.8634884 38.64711
5.5489994 -1.8496848 38.630397
7.715977 -1.8071252 38.578868
14.397264 -1.6759042 38.419993
34.997201 -1.2713198 37.930143
4.5072873 -1.850683 38.655449
4.5222627 -1.8503889 38.655093
4.5459689 -1.8499233 38.65453
4.6199018 -1.8484713 38.652771
4.8478535 -1.8439943 38.647351
5.5506809 -1.8301907 38.630638
7.7176585 -1.7876311 38.579109
14.398946 -1.6564101 38.420234
34.998883 -1.2518257 37.930384
4.5099491 -1.8198236 38.655831
4.5249245 -1.8195294 38.655475
4.5486308 -1.8190639 38.654911
4.6225636 -1.8176118 38.653153
4.8505154 -1.8131348 38.647733
5.5533427 -1.7993312 38.63102
7.7203203 -1.7567716 38.579491
14.401608 -1.6255506 38.420615
35.001544 -1.2209662 37.930765
4.5182506 -1.723582 38.657021
4.533226 -1.7232878 38.656665
4.5569323 -1.7228223 38.656101
4.6308651 -1.7213702 38.654343
4.8588169 -1.7168932 38.648923
5.5616443 -1.7030896 38.63221
7.7286218 -1.66053 38.580681
14.409909 -1.529309 38.421805
35.009846 -1.1247246 37.931955
4.5438461 -1.4268471 38.66069
4.5588215 -1.426553 38.660334
4.5825277 -1.4260874 38.65977
4.6564606 -1.4246354 38.658012
4.8844123 -1.4201584 38.652592
5.5872397 -1.4063548 38.635879
7.7542173 -1.3637952 38.58435
14.435505 -1.2325742 38.425474
35.035441 -0.82798978 37.935624
4.6227627 -0.5119457 38.672003
4.6377381 -0.51165159 38.671647
4.6614444 -0.51118599 38.671083
4.7353772 -0.50973395 38.669325
4.9633289 -0.50525696 38.663904
5.6661563 -0.49145337 38.647192
7.8331339 -0.44889376 38.595663
14.514421 -0.31767275 38.436787
35.114358 0.086911626 37.946937
4.8660807 2.3089045 38.706882
4.8810561 2.3091987 38.706526
4.9047623 2.3096643 38.705963
4.9786951 2.3111163 38.704204
5.2066469 2.3155933 38.698784
5.9094743 2.3293969 38.682071
8.0764519 2.3719565 38.630542
14.757739 2.5031775 38.471667
35.357676 2.9077619 37.981817
5.6162856 11.006231 38.814424
5.631261 11.006525 38.814068
5.6549673 11.006991 38.813504
5.7289001 11.008443 38.811746
5.9568518 11.01292 38.806326
6.6596792 11.026723 38.789613
8.8266568 11.069283 38.738084
15.507944 11.200504 38.579208
36.107881 11.605088 38.089358
7.929339 37.822077 39.146
7.9443144 37.822371 39.145644
7.9680207 37.822837 39.14508
8.0419535 37.824289 39.143322
8.2699052 37.828766 39.137902
8.9727326 37.842569 39.121189
11.13971 37.885129 39.06966
17.820998 38.01635 38.910784
38.420934 38.420934 38.420934
