site/assets/luts/ocio-aces--ocioutilityap0-to-srgb-encoded-rec709--26daf0819.cube
# LUTr-Project: LUTr — LUTrepository
# LUTr-Schema-Version: 1
# LUTr-ID: ocio-aces--ocioutilityap0-to-srgb-encoded-rec709--26daf0819
# LUTr-Title: OCIO.Utility.AP0 to sRGB-Encoded-Rec709
# LUTr-Collection: OCIO ACES
# LUTr-Collection-ID: aswf-opencolorio-config-aces
# LUTr-Source: https://github.com/AcademySoftwareFoundation/OpenColorIO-Config-ACES
# LUTr-Source-File: submissions/aswf-opencolorio-config-aces/opencolorio_config_aces/clf/transforms/ocio/utility/OCIO.Utility.AP0_to_sRGB-Encoded-Rec709.clf
# LUTr-Source-Format: CLF
# LUTr-Source-SHA256: 164cd9331549225ee0f1916e1543585ab4f17ca27aad88f7952da345ff6b7f83
# LUTr-License: BSD-3-Clause
# LUTr-License-URL: https://github.com/AcademySoftwareFoundation/OpenColorIO-Config-ACES/blob/main/LICENSE
# LUTr-Tags: technical, aces, ocio, clf, color-management, cube
# LUTr-Transform-Class: color-space-conversion
# LUTr-Input-Color-Space: ACES2065-1
# LUTr-Output-Color-Space: sRGB
# LUTr-Color-Space-Confidence: descriptor-only
# LUTr-Conversion-Method: CLF operations evaluated as float and sampled to 33x33x33 3D CUBE
# LUTr-Conversion-Date: 2026-07-27
# LUTr-Conversion-Tool: LUTr scripts/convert-all-to-cube.mjs
# LUTr-Conversion-Grid: 33x33x33
# LUTr-Conversion-Warning: A sampled 3D CUBE is bounded to DOMAIN_MIN/MAX 0..1 and cannot preserve CLF values outside its input domain.
# LUTr-Upstream-ID: urn:aswf:ocio:transformId:1.0:OCIO:Utility:AP0_to_sRGB-Encoded-Rec709:1.0
# LUTr-Upstream-Name: AP0 to sRGB Encoded Rec.709 (sRGB)
# LUTr-Upstream-Input-Descriptor: ACES2065-1
# LUTr-Upstream-Output-Descriptor: sRGB
# LUTr-Upstream-Operations: Matrix → Exponent
# LUTr-Note: Preserve this metadata and the upstream license notices when redistributing.
TITLE "OCIO.Utility.AP0 to sRGB-Encoded-Rec709"
LUT_3D_SIZE 33
DOMAIN_MIN 0 0 0
DOMAIN_MAX 1 1 1
0 0 0
0.00011796916 -0.000012934244 -7.1941444e-7
0.00023593833 -0.000025868488 -0.0000014388289
0.00035390749 -0.000038802732 -0.0000021582433
0.00047187665 -0.000051736976 -0.0000028776578
0.00058984582 -0.000064671219 -0.0000035970722
0.00070781498 -0.000077605463 -0.0000043164866
0.00082578414 -0.000090539707 -0.0000050359011
0.00094375331 -0.00010347395 -0.0000057553155
0.0010617225 -0.0001164082 -0.00000647473
0.0011796916 -0.00012934244 -0.0000071941444
0.0012976608 -0.00014227668 -0.0000079135589
0.00141563 -0.00015521093 -0.0000086329733
0.0015335991 -0.00016814517 -0.0000093523877
0.0016515683 -0.00018107941 -0.000010071802
0.0017695375 -0.00019401366 -0.000010791217
0.0018875066 -0.0002069479 -0.000011510631
0.0020054758 -0.00021988215 -0.000012230045
0.0021234449 -0.00023281639 -0.00001294946
0.0022414141 -0.00024575063 -0.000013668874
0.0023593833 -0.00025868488 -0.000014388289
0.0024773524 -0.00027161912 -0.000015107703
0.0025953216 -0.00028455337 -0.000015827118
0.0027132908 -0.00029748761 -0.000016546532
0.0028312599 -0.00031042185 -0.000017265947
0.0029492291 -0.0003233561 -0.000017985361
0.0030671982 -0.00033629034 -0.000018704775
0.0031851674 -0.00034922459 -0.00001942419
0.0033031366 -0.00036215883 -0.000020143604
0.0034211057 -0.00037509307 -0.000020863019
0.0035390749 -0.00038802732 -0.000021582433
0.0036570441 -0.00040096156 -0.000022301848
0.0037750132 -0.0004138958 -0.000023021262
-0.000053056754 0.000064218348 -0.0000071564703
0.000064912409 0.000051284105 -0.0000078758848
0.00018288157 0.000038349861 -0.0000085952992
0.00030085074 0.000025415617 -0.0000093147137
0.0004188199 0.000012481373 -0.000010034128
0.00053678906 -4.52871e-7 -0.000010753543
0.00065475823 -0.000013387115 -0.000011472957
0.00077272739 -0.000026321359 -0.000012192371
0.00089069655 -0.000039255603 -0.000012911786
0.0010086657 -0.000052189847 -0.0000136312
0.0011266349 -0.00006512409 -0.000014350615
0.001244604 -0.000078058334 -0.000015070029
0.0013625732 -0.000090992578 -0.000015789444
0.0014805424 -0.00010392682 -0.000016508858
0.0015985115 -0.00011686107 -0.000017228273
0.0017164807 -0.00012979531 -0.000017947687
0.0018344499 -0.00014272955 -0.000018667101
0.001952419 -0.0001556638 -0.000019386516
0.0020703882 -0.00016859804 -0.00002010593
0.0021883574 -0.00018153229 -0.000020825345
0.0023063265 -0.00019446653 -0.000021544759
0.0024242957 -0.00020740077 -0.000022264174
0.0025422648 -0.00022033502 -0.000022983588
0.002660234 -0.00023326926 -0.000023703002
0.0027782032 -0.00024620351 -0.000024422417
0.0028961723 -0.00025913775 -0.000025141831
0.0030141415 -0.00027207199 -0.000025861246
0.0031321107 -0.00028500624 -0.00002658066
0.0032500798 -0.00029794048 -0.000027300075
0.003368049 -0.00031087472 -0.000028019489
0.0034860181 -0.00032380897 -0.000028738904
0.0036039873 -0.00033674321 -0.000029458318
0.0037219565 -0.00034967746 -0.000030177732
-0.00010611351 0.0001284367 -0.000014312941
0.000011855655 0.00011550245 -0.000015032355
0.00012982482 0.00010256821 -0.00001575177
0.00024779398 0.000089633965 -0.000016471184
0.00036576315 0.000076699721 -0.000017190598
0.00048373231 0.000063765478 -0.000017910013
0.00060170147 0.000050831234 -0.000018629427
0.00071967064 0.00003789699 -0.000019348842
0.0008376398 0.000024962746 -0.000020068256
0.00095560896 0.000012028502 -0.000020787671
0.0010735781 -9.0574199e-7 -0.000021507085
0.0011915473 -0.000013839986 -0.0000222265
0.0013095165 -0.00002677423 -0.000022945914
0.0014274856 -0.000039708474 -0.000023665328
0.0015454548 -0.000052642718 -0.000024384743
0.0016634239 -0.000065576961 -0.000025104157
0.0017813931 -0.000078511205 -0.000025823572
0.0018993623 -0.000091445449 -0.000026542986
0.0020173314 -0.00010437969 -0.000027262401
0.0021353006 -0.00011731394 -0.000027981815
0.0022532698 -0.00013024818 -0.000028701229
0.0023712389 -0.00014318242 -0.000029420644
0.0024892081 -0.00015611667 -0.000030140058
0.0026071772 -0.00016905091 -0.000030859473
0.0027251464 -0.00018198516 -0.000031578887
0.0028431156 -0.0001949194 -0.000032298302
0.0029610847 -0.00020785364 -0.000033017716
0.0030790539 -0.00022078789 -0.000033737131
0.0031970231 -0.00023372213 -0.000034456545
0.0033149922 -0.00024665638 -0.000035175959
0.0034329614 -0.00025959062 -0.000035895374
0.0035509306 -0.00027252486 -0.000036614788
0.0036688997 -0.00028545911 -0.000037334203
-0.00015917026 0.00019265505 -0.000021469411
-0.000041201099 0.0001797208 -0.000022188825
0.000076768065 0.00016678656 -0.00002290824
0.00019473723 0.00015385231 -0.000023627654
0.00031270639 0.00014091807 -0.000024347069
0.00043067555 0.00012798383 -0.000025066483
0.00054864472 0.00011504958 -0.000025785898
0.00066661388 0.00010211534 -0.000026505312
0.00078458304 0.000089181094 -0.000027224727
0.00090255221 0.00007624685 -0.000027944141
0.0010205214 0.000063312607 -0.000028663555
0.0011384905 0.000050378363 -0.00002938297
0.0012564597 0.000037444119 -0.000030102384
0.0013744289 0.000024509875 -0.000030821799
0.001492398 0.000011575631 -0.000031541213
0.0016103672 -0.000001358613 -0.000032260628
0.0017283364 -0.000014292857 -0.000032980042
0.0018463055 -0.000027227101 -0.000033699457
0.0019642747 -0.000040161345 -0.000034418871
0.0020822438 -0.000053095589 -0.000035138285
0.002200213 -0.000066029832 -0.0000358577
0.0023181822 -0.000078964076 -0.000036577114
0.0024361513 -0.00009189832 -0.000037296529
0.0025541205 -0.00010483256 -0.000038015943
0.0026720897 -0.00011776681 -0.000038735358
0.0027900588 -0.00013070105 -0.000039454772
0.002908028 -0.0001436353 -0.000040174186
0.0030259971 -0.00015656954 -0.000040893601
0.0031439663 -0.00016950378 -0.000041613015
0.0032619355 -0.00018243803 -0.00004233243
0.0033799046 -0.00019537227 -0.000043051844
0.0034978738 -0.00020830652 -0.000043771259
0.003615843 -0.00022124076 -0.000044490673
-0.00021222702 0.00025687339 -0.000028625881
-0.000094257853 0.00024393915 -0.000029345296
0.00002371131 0.00023100491 -0.00003006471
0.00014168047 0.00021807066 -0.000030784125
0.00025964964 0.00020513642 -0.000031503539
0.0003776188 0.00019220217 -0.000032222954
0.00049558796 0.00017926793 -0.000032942368
0.00061355713 0.00016633369 -0.000033661782
0.00073152629 0.00015339944 -0.000034381197
0.00084949545 0.0001404652 -0.000035100611
0.00096746462 0.00012753096 -0.000035820026
0.0010854338 0.00011459671 -0.00003653944
0.0012034029 0.00010166247 -0.000037258855
0.0013213721 0.000088728223 -0.000037978269
0.0014393413 0.000075793979 -0.000038697684
0.0015573104 0.000062859736 -0.000039417098
0.0016752796 0.000049925492 -0.000040136512
0.0017932488 0.000036991248 -0.000040855927
0.0019112179 0.000024057004 -0.000041575341
0.0020291871 0.00001112276 -0.000042294756
0.0021471563 -0.000001811484 -0.00004301417
0.0022651254 -0.000014745728 -0.000043733585
0.0023830946 -0.000027679972 -0.000044452999
0.0025010637 -0.000040614216 -0.000045172413
0.0026190329 -0.00005354846 -0.000045891828
0.0027370021 -0.000066482703 -0.000046611242
0.0028549712 -0.000079416947 -0.000047330657
0.0029729404 -0.000092351191 -0.000048050071
0.0030909096 -0.00010528544 -0.000048769486
0.0032088787 -0.00011821968 -0.0000494889
0.0033268479 -0.00013115392 -0.000050208315
0.003444817 -0.00014408817 -0.000050927729
0.0035627862 -0.00015702241 -0.000051647143
-0.00026528377 0.00032109174 -0.000035782352
-0.00014731461 0.0003081575 -0.000036501766
-0.000029345444 0.00029522325 -0.000037221181
0.00008862372 0.00028228901 -0.000037940595
0.00020659288 0.00026935477 -0.000038660009
0.00032456205 0.00025642052 -0.000039379424
0.00044253121 0.00024348628 -0.000040098838
0.00056050037 0.00023055204 -0.000040818253
0.00067846954 0.00021761779 -0.000041537667
0.0007964387 0.00020468355 -0.000042257082
0.00091440786 0.0001917493 -0.000042976496
0.001032377 0.00017881506 -0.000043695911
0.0011503462 0.00016588082 -0.000044415325
0.0012683154 0.00015294657 -0.000045134739
0.0013862845 0.00014001233 -0.000045854154
0.0015042537 0.00012707808 -0.000046573568
0.0016222228 0.00011414384 -0.000047292983
0.001740192 0.0001012096 -0.000048012397
0.0018581612 0.000088275352 -0.000048731812
0.0019761303 0.000075341108 -0.000049451226
0.0020940995 0.000062406865 -0.000050170641
0.0022120687 0.000049472621 -0.000050890055
0.0023300378 0.000036538377 -0.000051609469
0.002448007 0.000023604133 -0.000052328884
0.0025659762 0.000010669889 -0.000053048298
0.0026839453 -0.000002264355 -0.000053767713
0.0028019145 -0.000015198599 -0.000054487127
0.0029198836 -0.000028132843 -0.000055206542
0.0030378528 -0.000041067087 -0.000055925956
0.003155822 -0.000054001331 -0.00005664537
0.0032737911 -0.000066935574 -0.000057364785
0.0033917603 -0.000079869818 -0.000058084199
0.0035097295 -0.000092804062 -0.000058803614
-0.00031834052 0.00038531009 -0.000042938822
-0.00020037136 0.00037237585 -0.000043658236
-0.000082402198 0.0003594416 -0.000044377651
0.000035566966 0.00034650736 -0.000045097065
0.00015353613 0.00033357312 -0.00004581648
0.00027150529 0.00032063887 -0.000046535894
0.00038947446 0.00030770463 -0.000047255309
0.00050744362 0.00029477038 -0.000047974723
0.00062541278 0.00028183614 -0.000048694138
0.00074338195 0.0002689019 -0.000049413552
0.00086135111 0.00025596765 -0.000050132966
0.00097932027 0.00024303341 -0.000050852381
0.0010972894 0.00023009916 -0.000051571795
0.0012152586 0.00021716492 -0.00005229121
0.0013332278 0.00020423068 -0.000053010624
0.0014511969 0.00019129643 -0.000053730039
0.0015691661 0.00017836219 -0.000054449453
0.0016871353 0.00016542794 -0.000055168868
0.0018051044 0.0001524937 -0.000055888282
0.0019230736 0.00013955946 -0.000056607696
0.0020410427 0.00012662521 -0.000057327111
0.0021590119 0.00011369097 -0.000058046525
0.0022769811 0.00010075673 -0.00005876594
0.0023949502 0.000087822481 -0.000059485354
0.0025129194 0.000074888237 -0.000060204769
0.0026308886 0.000061953994 -0.000060924183
0.0027488577 0.00004901975 -0.000061643597
0.0028668269 0.000036085506 -0.000062363012
0.0029847961 0.000023151262 -0.000063082426
0.0031027652 0.000010217018 -0.000063801841
0.0032207344 -0.000002717226 -0.000064521255
0.0033387035 -0.00001565147 -0.00006524067
0.0034566727 -0.000028585714 -0.000065960084
-0.00037139728 0.00044952844 -0.000050095292
-0.00025342812 0.0004365942 -0.000050814707
-0.00013545895 0.00042365995 -0.000051534121
-0.000017489788 0.00041072571 -0.000052253536
0.00010047938 0.00039779146 -0.00005297295
0.00021844854 0.00038485722 -0.000053692365
0.0003364177 0.00037192298 -0.000054411779
0.00045438687 0.00035898873 -0.000055131193
0.00057235603 0.00034605449 -0.000055850608
0.00069032519 0.00033312024 -0.000056570022
0.00080829436 0.000320186 -0.000057289437
0.00092626352 0.00030725176 -0.000058008851
0.0010442327 0.00029431751 -0.000058728266
0.0011622018 0.00028138327 -0.00005944768
0.001280171 0.00026844902 -0.000060167095
0.0013981402 0.00025551478 -0.000060886509
0.0015161093 0.00024258054 -0.000061605923
0.0016340785 0.00022964629 -0.000062325338
0.0017520477 0.00021671205 -0.000063044752
0.0018700168 0.00020377781 -0.000063764167
0.001987986 0.00019084356 -0.000064483581
0.0021059552 0.00017790932 -0.000065202996
0.0022239243 0.00016497507 -0.00006592241
0.0023418935 0.00015204083 -0.000066641824
0.0024598626 0.00013910659 -0.000067361239
0.0025778318 0.00012617234 -0.000068080653
0.002695801 0.0001132381 -0.000068800068
0.0028137701 0.00010030385 -0.000069519482
0.0029317393 0.00008736961 -0.000070238897
0.0030497085 0.000074435366 -0.000070958311
0.0031676776 0.000061501123 -0.000071677726
0.0032856468 0.000048566879 -0.00007239714
0.0034036159 0.000035632635 -0.000073116554
-0.00042445403 0.00051374679 -0.000057251763
-0.00030648487 0.00050081254 -0.000057971177
-0.00018851571 0.0004878783 -0.000058690592
-0.000070546542 0.00047494406 -0.000059410006
0.000047422621 0.00046200981 -0.00006012942
0.00016539178 0.00044907557 -0.000060848835
0.00028336095 0.00043614132 -0.000061568249
0.00040133011 0.00042320708 -0.000062287664
0.00051929927 0.00041027284 -0.000063007078
0.00063726844 0.00039733859 -0.000063726493
0.0007552376 0.00038440435 -0.000064445907
0.00087320676 0.00037147011 -0.000065165322
0.00099117593 0.00035853586 -0.000065884736
0.0011091451 0.00034560162 -0.00006660415
0.0012271143 0.00033266737 -0.000067323565
0.0013450834 0.00031973313 -0.000068042979
0.0014630526 0.00030679889 -0.000068762394
0.0015810217 0.00029386464 -0.000069481808
0.0016989909 0.0002809304 -0.000070201223
0.0018169601 0.00026799615 -0.000070920637
0.0019349292 0.00025506191 -0.000071640052
0.0020528984 0.00024212767 -0.000072359466
0.0021708676 0.00022919342 -0.00007307888
0.0022888367 0.00021625918 -0.000073798295
0.0024068059 0.00020332493 -0.000074517709
0.0025247751 0.00019039069 -0.000075237124
0.0026427442 0.00017745645 -0.000075956538
0.0027607134 0.0001645222 -0.000076675953
0.0028786825 0.00015158796 -0.000077395367
0.0029966517 0.00013865371 -0.000078114781
0.0031146209 0.00012571947 -0.000078834196
0.00323259 0.00011278523 -0.00007955361
0.0033505592 0.000099850983 -0.000080273025
-0.00047751079 0.00057796514 -0.000064408233
-0.00035954162 0.00056503089 -0.000065127647
-0.00024157246 0.00055209665 -0.000065847062
-0.0001236033 0.0005391624 -0.000066566476
-0.0000056341331 0.00052622816 -0.000067285891
0.00011233503 0.00051329392 -0.000068005305
0.00023030419 0.00050035967 -0.00006872472
0.00034827336 0.00048742543 -0.000069444134
0.00046624252 0.00047449119 -0.000070163549
0.00058421168 0.00046155694 -0.000070882963
0.00070218085 0.0004486227 -0.000071602377
0.00082015001 0.00043568845 -0.000072321792
0.00093811917 0.00042275421 -0.000073041206
0.0010560883 0.00040981997 -0.000073760621
0.0011740575 0.00039688572 -0.000074480035
0.0012920267 0.00038395148 -0.00007519945
0.0014099958 0.00037101723 -0.000075918864
0.001527965 0.00035808299 -0.000076638279
0.0016459342 0.00034514875 -0.000077357693
0.0017639033 0.0003322145 -0.000078077107
0.0018818725 0.00031928026 -0.000078796522
0.0019998416 0.00030634601 -0.000079515936
0.0021178108 0.00029341177 -0.000080235351
0.00223578 0.00028047753 -0.000080954765
0.0023537491 0.00026754328 -0.00008167418
0.0024717183 0.00025460904 -0.000082393594
0.0025896875 0.0002416748 -0.000083113008
0.0027076566 0.00022874055 -0.000083832423
0.0028256258 0.00021580631 -0.000084551837
0.002943595 0.00020287206 -0.000085271252
0.0030615641 0.00018993782 -0.000085990666
0.0031795333 0.00017700358 -0.000086710081
0.0032975024 0.00016406933 -0.000087429495
-0.00053056754 0.00064218348 -0.000071564703
-0.00041259838 0.00062924924 -0.000072284118
-0.00029462921 0.000616315 -0.000073003532
-0.00017666005 0.00060338075 -0.000073722947
-0.000058690887 0.00059044651 -0.000074442361
0.000059278276 0.00057751227 -0.000075161776
0.00017724744 0.00056457802 -0.00007588119
0.0002952166 0.00055164378 -0.000076600604
0.00041318577 0.00053870953 -0.000077320019
0.00053115493 0.00052577529 -0.000078039433
0.00064912409 0.00051284105 -0.000078758848
0.00076709326 0.0004999068 -0.000079478262
0.00088506242 0.00048697256 -0.000080197677
0.0010030316 0.00047403831 -0.000080917091
0.0011210007 0.00046110407 -0.000081636506
0.0012389699 0.00044816983 -0.00008235592
0.0013569391 0.00043523558 -0.000083075334
0.0014749082 0.00042230134 -0.000083794749
0.0015928774 0.00040936709 -0.000084514163
0.0017108466 0.00039643285 -0.000085233578
0.0018288157 0.00038349861 -0.000085952992
0.0019467849 0.00037056436 -0.000086672407
0.0020647541 0.00035763012 -0.000087391821
0.0021827232 0.00034469588 -0.000088111236
0.0023006924 0.00033176163 -0.00008883065
0.0024186615 0.00031882739 -0.000089550064
0.0025366307 0.00030589314 -0.000090269479
0.0026545999 0.0002929589 -0.000090988893
0.002772569 0.00028002466 -0.000091708308
0.0028905382 0.00026709041 -0.000092427722
0.0030085074 0.00025415617 -0.000093147137
0.0031264765 0.00024122192 -0.000093866551
0.0032444457 0.00022828768 -0.000094585965
-0.00058362429 0.00070640183 -0.000078721174
-0.00046565513 0.00069346759 -0.000079440588
-0.00034768597 0.00068053335 -0.000080160003
-0.0002297168 0.0006675991 -0.000080879417
-0.00011174764 0.00065466486 -0.000081598831
0.0000062215222 0.00064173061 -0.000082318246
0.00012419069 0.00062879637 -0.00008303766
0.00024215985 0.00061586213 -0.000083757075
0.00036012901 0.00060292788 -0.000084476489
0.00047809818 0.00058999364 -0.000085195904
0.00059606734 0.00057705939 -0.000085915318
0.0007140365 0.00056412515 -0.000086634733
0.00083200567 0.00055119091 -0.000087354147
0.00094997483 0.00053825666 -0.000088073561
0.001067944 0.00052532242 -0.000088792976
0.0011859132 0.00051238817 -0.00008951239
0.0013038823 0.00049945393 -0.000090231805
0.0014218515 0.00048651969 -0.000090951219
0.0015398206 0.00047358544 -0.000091670634
0.0016577898 0.0004606512 -0.000092390048
0.001775759 0.00044771696 -0.000093109463
0.0018937281 0.00043478271 -0.000093828877
0.0020116973 0.00042184847 -0.000094548291
0.0021296665 0.00040891422 -0.000095267706
0.0022476356 0.00039597998 -0.00009598712
0.0023656048 0.00038304574 -0.000096706535
0.002483574 0.00037011149 -0.000097425949
0.0026015431 0.00035717725 -0.000098145364
0.0027195123 0.000344243 -0.000098864778
0.0028374814 0.00033130876 -0.000099584192
0.0029554506 0.00031837452 -0.00010030361
0.0030734198 0.00030544027 -0.00010102302
0.0031913889 0.00029250603 -0.00010174244
-0.00063668105 0.00077062018 -0.000085877644
-0.00051871189 0.00075768594 -0.000086597058
-0.00040074272 0.00074475169 -0.000087316473
-0.00028277356 0.00073181745 -0.000088035887
-0.0001648044 0.00071888321 -0.000088755302
-0.000046835232 0.00070594896 -0.000089474716
0.000071133931 0.00069301472 -0.000090194131
0.00018910309 0.00068008047 -0.000090913545
0.00030707226 0.00066714623 -0.00009163296
0.00042504142 0.00065421199 -0.000092352374
0.00054301059 0.00064127774 -0.000093071788
0.00066097975 0.0006283435 -0.000093791203
0.00077894891 0.00061540926 -0.000094510617
0.00089691808 0.00060247501 -0.000095230032
0.0010148872 0.00058954077 -0.000095949446
0.0011328564 0.00057660652 -0.000096668861
0.0012508256 0.00056367228 -0.000097388275
0.0013687947 0.00055073804 -0.00009810769
0.0014867639 0.00053780379 -0.000098827104
0.0016047331 0.00052486955 -0.000099546518
0.0017227022 0.0005119353 -0.00010026593
0.0018406714 0.00049900106 -0.00010098535
0.0019586405 0.00048606682 -0.00010170476
0.0020766097 0.00047313257 -0.00010242418
0.0021945789 0.00046019833 -0.00010314359
0.002312548 0.00044726408 -0.00010386301
0.0024305172 0.00043432984 -0.00010458242
0.0025484864 0.0004213956 -0.00010530183
0.0026664555 0.00040846135 -0.00010602125
0.0027844247 0.00039552711 -0.00010674066
0.0029023939 0.00038259287 -0.00010746008
0.003020363 0.00036965862 -0.00010817949
0.0031383322 0.00035672438 -0.00010889891
-0.0006897378 0.00083483853 -0.000093034114
-0.00057176864 0.00082190429 -0.000093753529
-0.00045379948 0.00080897004 -0.000094472943
-0.00033583031 0.0007960358 -0.000095192358
-0.00021786115 0.00078310155 -0.000095911772
-0.000099891986 0.00077016731 -0.000096631187
0.000018077177 0.00075723307 -0.000097350601
0.00013604634 0.00074429882 -0.000098070015
0.0002540155 0.00073136458 -0.00009878943
0.00037198467 0.00071843034 -0.000099508844
0.00048995383 0.00070549609 -0.00010022826
0.00060792299 0.00069256185 -0.00010094767
0.00072589216 0.0006796276 -0.00010166709
0.00084386132 0.00066669336 -0.0001023865
0.00096183048 0.00065375912 -0.00010310592
0.0010797996 0.00064082487 -0.00010382533
0.0011977688 0.00062789063 -0.00010454475
0.001315738 0.00061495638 -0.00010526416
0.0014337071 0.00060202214 -0.00010598357
0.0015516763 0.0005890879 -0.00010670299
0.0016696455 0.00057615365 -0.0001074224
0.0017876146 0.00056321941 -0.00010814182
0.0019055838 0.00055028516 -0.00010886123
0.002023553 0.00053735092 -0.00010958065
0.0021415221 0.00052441668 -0.00011030006
0.0022594913 0.00051148243 -0.00011101948
0.0023774604 0.00049854819 -0.00011173889
0.0024954296 0.00048561395 -0.0001124583
0.0026133988 0.0004726797 -0.00011317772
0.0027313679 0.00045974546 -0.00011389713
0.0028493371 0.00044681121 -0.00011461655
0.0029673063 0.00043387697 -0.00011533596
0.0030852754 0.00042094273 -0.00011605538
-0.00074279456 0.00089905688 -0.00010019058
-0.00062482539 0.00088612264 -0.00010091
-0.00050685623 0.00087318839 -0.00010162941
-0.00038888707 0.00086025415 -0.00010234883
-0.0002709179 0.0008473199 -0.00010306824
-0.00015294874 0.00083438566 -0.00010378766
-0.000034979577 0.00082145142 -0.00010450707
0.000082989587 0.00080851717 -0.00010522649
0.00020095875 0.00079558293 -0.0001059459
0.00031892791 0.00078264868 -0.00010666531
0.00043689708 0.00076971444 -0.00010738473
0.00055486624 0.0007567802 -0.00010810414
0.0006728354 0.00074384595 -0.00010882356
0.00079080457 0.00073091171 -0.00010954297
0.00090877373 0.00071797746 -0.00011026239
0.0010267429 0.00070504322 -0.0001109818
0.0011447121 0.00069210898 -0.00011170122
0.0012626812 0.00067917473 -0.00011242063
0.0013806504 0.00066624049 -0.00011314004
0.0014986195 0.00065330624 -0.00011385946
0.0016165887 0.000640372 -0.00011457887
0.0017345579 0.00062743776 -0.00011529829
0.001852527 0.00061450351 -0.0001160177
0.0019704962 0.00060156927 -0.00011673712
0.0020884654 0.00058863503 -0.00011745653
0.0022064345 0.00057570078 -0.00011817595
0.0023244037 0.00056276654 -0.00011889536
0.0024423729 0.00054983229 -0.00011961477
0.002560342 0.00053689805 -0.00012033419
0.0026783112 0.00052396381 -0.0001210536
0.0027962803 0.00051102956 -0.00012177302
0.0029142495 0.00049809532 -0.00012249243
0.0030322187 0.00048516107 -0.00012321185
-0.00079585131 0.00096327523 -0.00010734706
-0.00067788215 0.00095034098 -0.00010806647
-0.00055991298 0.00093740674 -0.00010878588
-0.00044194382 0.0009244725 -0.0001095053
-0.00032397466 0.00091153825 -0.00011022471
-0.00020600549 0.00089860401 -0.00011094413
-0.000088036331 0.00088566976 -0.00011166354
0.000029932833 0.00087273552 -0.00011238296
0.000147902 0.00085980128 -0.00011310237
0.00026587116 0.00084686703 -0.00011382179
0.00038384032 0.00083393279 -0.0001145412
0.00050180949 0.00082099854 -0.00011526061
0.00061977865 0.0008080643 -0.00011598003
0.00073774781 0.00079513006 -0.00011669944
0.00085571698 0.00078219581 -0.00011741886
