site/assets/luts/ocio-aces--sonyinputslog3-venice-sgamut3-to-aces2065-1--5f6e3e2cc.cube
# LUTr-Project: LUTr — LUTrepository
# LUTr-Schema-Version: 1
# LUTr-ID: ocio-aces--sonyinputslog3-venice-sgamut3-to-aces2065-1--5f6e3e2cc
# LUTr-Title: Sony.Input.SLog3 Venice SGamut3 to ACES2065-1
# LUTr-Collection: OCIO ACES
# LUTr-Collection-ID: aswf-opencolorio-config-aces
# LUTr-Source: https://github.com/AcademySoftwareFoundation/OpenColorIO-Config-ACES
# LUTr-Source-File: submissions/aswf-opencolorio-config-aces/opencolorio_config_aces/clf/transforms/sony/input/Sony.Input.SLog3_Venice_SGamut3_to_ACES2065-1.clf
# LUTr-Source-Format: CLF
# LUTr-Source-SHA256: 17fbeb86216c159ebe36eb72d9def673065e08807cc4344771bf6dc388fc45d5
# LUTr-License: BSD-3-Clause
# LUTr-License-URL: https://github.com/AcademySoftwareFoundation/OpenColorIO-Config-ACES/blob/main/LICENSE
# LUTr-Tags: technical, aces, ocio, clf, color-management, cube
# LUTr-Transform-Class: color-space-conversion
# LUTr-Input-Color-Space: Sony S-Log3 Venice S-Gamut3
# LUTr-Output-Color-Space: ACES2065-1
# LUTr-Color-Space-Confidence: descriptor-only
# LUTr-Conversion-Method: CLF operations evaluated as float and sampled to 33x33x33 3D CUBE
# LUTr-Conversion-Date: 2026-07-27
# LUTr-Conversion-Tool: LUTr scripts/convert-all-to-cube.mjs
# LUTr-Conversion-Grid: 33x33x33
# LUTr-Conversion-Warning: A sampled 3D CUBE is bounded to DOMAIN_MIN/MAX 0..1 and cannot preserve CLF values outside its input domain.
# LUTr-Upstream-ID: urn:aswf:ocio:transformId:1.0:Sony:Input:SLog3_Venice_SGamut3_to_ACES2065-1:1.0
# LUTr-Upstream-Name: Sony S-Log3 Venice S-Gamut3 to ACES2065-1
# LUTr-Upstream-Input-Descriptor: Sony S-Log3 Venice S-Gamut3
# LUTr-Upstream-Output-Descriptor: ACES2065-1
# LUTr-Upstream-Operations: Log → Matrix
# LUTr-Note: Preserve this metadata and the upstream license notices when redistributing.
TITLE "Sony.Input.SLog3 Venice SGamut3 to ACES2065-1"
LUT_3D_SIZE 33
DOMAIN_MIN 0 0 0
DOMAIN_MAX 1 1 1
-0.014023696 -0.014023696 -0.014023696
-0.010279847 -0.013950166 -0.014112722
-0.0065359988 -0.013876637 -0.014201747
-0.0027921503 -0.013803107 -0.014290773
0.00095169829 -0.013729578 -0.014379799
0.0046955468 -0.013656049 -0.014468825
0.0093798681 -0.013564048 -0.014580214
0.015950781 -0.013434995 -0.014736465
0.024657953 -0.013263985 -0.014943515
0.036195901 -0.013037379 -0.015217878
0.051484933 -0.012737101 -0.015581439
0.071744559 -0.012339201 -0.016063197
0.098590762 -0.011811939 -0.016701578
0.13416489 -0.01111326 -0.017547502
0.18130448 -0.010187435 -0.018668444
0.24376954 -0.0089606166 -0.020153813
0.32654252 -0.0073349487 -0.022122089
0.4362257 -0.0051807624 -0.024730267
0.58156781 -0.0023262319 -0.028186386
0.77416188 0.0014563307 -0.03276612
1.0293699 0.0064686366 -0.038834763
1.3675482 0.013110486 -0.046876373
1.8156712 0.021911656 -0.05753238
2.4094828 0.033574161 -0.071652744
3.1963475 0.049028246 -0.090363759
4.2390286 0.069506586 -0.11515788
5.6206942 0.096642606 -0.14801279
7.451551 0.13260078 -0.1915491
9.8776348 0.18024926 -0.24923944
13.092459 0.24338866 -0.32568539
17.35245 0.32705522 -0.42698458
22.9974 0.43792248 -0.56121698
30.477572 0.58483363 -0.73908949
-0.01360332 -0.0091501632 -0.013963435
-0.0098594713 -0.0090766337 -0.014052461
-0.0061156227 -0.0090031042 -0.014141487
-0.0023717741 -0.0089295747 -0.014230512
0.0013720744 -0.0088560453 -0.014319538
0.005115923 -0.0087825158 -0.014408564
0.0098002442 -0.0086905153 -0.014519953
0.016371157 -0.0085614621 -0.014676204
0.025078329 -0.0083904526 -0.014883254
0.036616277 -0.0081638464 -0.015157617
0.051905309 -0.0078635686 -0.015521178
0.072164935 -0.0074656679 -0.016002936
0.099011138 -0.0069384064 -0.016641317
0.13458527 -0.0062397276 -0.017487241
0.18172485 -0.0053139025 -0.018608183
0.24418991 -0.0040870838 -0.020093552
0.32696289 -0.0024614159 -0.022061828
0.43664607 -0.00030722965 -0.024670006
0.58198819 0.0025473009 -0.028126126
0.77458225 0.0063298635 -0.032705859
1.0297903 0.011342169 -0.038774502
1.3679686 0.017984018 -0.046816112
1.8160916 0.026785189 -0.057472119
2.4099031 0.038447694 -0.071592483
3.1967679 0.053901779 -0.090303498
4.239449 0.074380118 -0.11509762
5.6211146 0.10151614 -0.14795253
7.4519713 0.13747431 -0.19148884
9.8780552 0.18512279 -0.24917918
13.09288 0.24826219 -0.32562513
17.35287 0.33192875 -0.42692432
22.997821 0.44279601 -0.56115672
30.477992 0.58970717 -0.73902923
-0.013182944 -0.0042766304 -0.013903174
-0.0094390951 -0.0042031009 -0.0139922
-0.0056952466 -0.0041295715 -0.014081226
-0.001951398 -0.004056042 -0.014170251
0.0017924505 -0.0039825125 -0.014259277
0.0055362991 -0.003908983 -0.014348303
0.01022062 -0.0038169826 -0.014459692
0.016791533 -0.0036879293 -0.014615943
0.025498705 -0.0035169198 -0.014822993
0.037036653 -0.0032903136 -0.015097356
0.052325685 -0.0029900358 -0.015460917
0.072585311 -0.0025921351 -0.015942675
0.099431514 -0.0020648736 -0.016581056
0.13500565 -0.0013661949 -0.017426981
0.18214523 -0.00044036977 -0.018547922
0.24461029 0.00078644894 -0.020033291
0.32738327 0.0024121168 -0.022001567
0.43706645 0.0045663031 -0.024609745
0.58240856 0.0074208336 -0.028065865
0.77500263 0.011203396 -0.032645598
1.0302107 0.016215702 -0.038714241
1.368389 0.022857551 -0.046755852
1.816512 0.031658721 -0.057411858
2.4103235 0.043321227 -0.071532223
3.1971882 0.058775312 -0.090243237
4.2398693 0.079253651 -0.11503736
5.6215349 0.10638967 -0.14789227
7.4523917 0.14234784 -0.19142858
9.8784756 0.18999632 -0.24911892
13.0933 0.25313572 -0.32556487
17.353291 0.33680228 -0.42686405
22.998241 0.44766955 -0.56109646
30.478412 0.5945807 -0.73896896
-0.012762568 0.00059690233 -0.013842913
-0.009018719 0.00067043181 -0.013931939
-0.0052748704 0.00074396129 -0.014020965
-0.0015310219 0.00081749077 -0.01410999
0.0022128267 0.00089102025 -0.014199016
0.0059566752 0.00096454973 -0.014288042
0.010640996 0.0010565502 -0.014399431
0.017211909 0.0011856034 -0.014555682
0.025919081 0.001356613 -0.014762732
0.037457029 0.0015832192 -0.015037095
0.052746061 0.001883497 -0.015400656
0.073005687 0.0022813976 -0.015882414
0.09985189 0.0028086591 -0.016520795
0.13542602 0.0035073379 -0.01736672
0.1825656 0.004433163 -0.018487661
0.24503066 0.0056599817 -0.019973031
0.32780365 0.0072856496 -0.021941306
0.43748683 0.0094398359 -0.024549484
0.58282894 0.012294366 -0.028005604
0.77542301 0.016076929 -0.032585337
1.030631 0.021089235 -0.03865398
1.3688094 0.027731084 -0.046695591
1.8169323 0.036532254 -0.057351597
2.4107439 0.04819476 -0.071471962
3.1976086 0.063648845 -0.090182976
4.2402897 0.084127184 -0.1149771
5.6219553 0.1112632 -0.14783201
7.4528121 0.14722138 -0.19136832
9.878896 0.19486985 -0.24905866
13.09372 0.25800926 -0.32550461
17.353711 0.34167581 -0.42680379
22.998661 0.45254308 -0.5610362
30.478833 0.59945423 -0.7389087
-0.012342191 0.0054704351 -0.013782652
-0.0085983429 0.0055439646 -0.013871678
-0.0048544943 0.0056174941 -0.013960704
-0.0011106458 0.0056910235 -0.01404973
0.0026332028 0.005764553 -0.014138755
0.0063770514 0.0058380825 -0.014227781
0.011061373 0.0059300829 -0.01433917
0.017632285 0.0060591362 -0.014495422
0.026339457 0.0062301457 -0.014702471
0.037877405 0.0064567519 -0.014976834
0.053166437 0.0067570297 -0.015340395
0.073426064 0.0071549304 -0.015822153
0.10027227 0.0076821919 -0.016460534
0.1358464 0.0083808706 -0.017306459
0.18298598 0.0093066957 -0.0184274
0.24545104 0.010533514 -0.01991277
0.32822402 0.012159182 -0.021881045
0.4379072 0.014313369 -0.024489224
0.58324932 0.017167899 -0.027945343
0.77584338 0.020950462 -0.032525076
1.0310514 0.025962768 -0.038593719
1.3692297 0.032604617 -0.04663533
1.8173527 0.041405787 -0.057291336
2.4111643 0.053068292 -0.071411701
3.198029 0.068522377 -0.090122716
4.2407101 0.089000717 -0.11491684
5.6223757 0.11613674 -0.14777174
7.4532325 0.15209491 -0.19130806
9.8793163 0.19974339 -0.24899839
13.094141 0.26288279 -0.32544435
17.354132 0.34654935 -0.42674353
22.999082 0.45741661 -0.56097594
30.479253 0.60432777 -0.73884844
-0.011921815 0.010343968 -0.013722392
-0.0081779667 0.010417497 -0.013811417
-0.0044341182 0.010491027 -0.013900443
-0.00069026963 0.010564556 -0.013989469
0.0030535789 0.010638086 -0.014078494
0.0067974275 0.010711615 -0.01416752
0.011481749 0.010803616 -0.01427891
0.018052661 0.010932669 -0.014435161
0.026759834 0.011103678 -0.01464221
0.038297781 0.011330285 -0.014916573
0.053586813 0.011630562 -0.015280134
0.07384644 0.012028463 -0.015761892
0.10069264 0.012555725 -0.016400273
0.13626677 0.013254403 -0.017246198
0.18340636 0.014180228 -0.01836714
0.24587142 0.015407047 -0.019852509
0.3286444 0.017032715 -0.021820784
0.43832758 0.019186901 -0.024428963
0.58366969 0.022041432 -0.027885082
0.77626376 0.025823995 -0.032464815
1.0314718 0.0308363 -0.038533458
1.3696501 0.037478149 -0.046575069
1.8177731 0.04627932 -0.057231075
2.4115846 0.057941825 -0.07135144
3.1984494 0.07339591 -0.090062455
4.2411305 0.093874249 -0.11485658
5.6227961 0.12101027 -0.14771148
7.4536529 0.15696844 -0.1912478
9.8797367 0.20461692 -0.24893813
13.094561 0.26775632 -0.32538409
17.354552 0.35142288 -0.42668327
22.999502 0.46229014 -0.56091568
30.479673 0.6092013 -0.73878818
-0.011395839 0.016441755 -0.013646993
-0.0076519901 0.016515285 -0.013736019
-0.0039081416 0.016588814 -0.013825044
-0.000164293 0.016662344 -0.01391407
0.0035795556 0.016735873 -0.014003096
0.0073234041 0.016809403 -0.014092122
0.012007725 0.016901403 -0.014203511
0.018578638 0.017030456 -0.014359762
0.02728581 0.017201466 -0.014566812
0.038823758 0.017428072 -0.014841175
0.05411279 0.01772835 -0.015204736
0.074372416 0.018126251 -0.015686493
0.10121862 0.018653512 -0.016324875
0.13679275 0.019352191 -0.017170799
0.18393233 0.020278016 -0.018291741
0.24639739 0.021504835 -0.01977711
0.32917038 0.023130503 -0.021745386
0.43885356 0.025284689 -0.024353564
0.58419567 0.028139219 -0.027809683
0.77678974 0.031921782 -0.032389416
1.0319978 0.036934088 -0.03845806
1.3701761 0.043575937 -0.04649967
1.8182991 0.052377107 -0.057155677
2.4121106 0.064039613 -0.071276041
3.1989753 0.079493698 -0.089987056
4.2416564 0.099972037 -0.11478118
5.623322 0.12710806 -0.14763608
7.4541788 0.16306623 -0.1911724
9.8802627 0.21071471 -0.24886273
13.095087 0.27385411 -0.32530869
17.355078 0.35752067 -0.42660787
23.000028 0.46838793 -0.56084028
30.480199 0.61529909 -0.73871278
-0.010658027 0.024995402 -0.013541228
-0.0069141785 0.025068932 -0.013630253
-0.00317033 0.025142461 -0.013719279
0.00057351858 0.025215991 -0.013808305
0.0043173671 0.02528952 -0.013897331
0.0080612157 0.02536305 -0.013986356
0.012745537 0.02545505 -0.014097746
0.01931645 0.025584103 -0.014253997
0.028023622 0.025755113 -0.014461046
0.039561569 0.025981719 -0.01473541
0.054850602 0.026281997 -0.015098971
0.075110228 0.026679897 -0.015580728
0.10195643 0.027207159 -0.01621911
0.13753056 0.027905838 -0.017065034
0.18467014 0.028831663 -0.018185976
0.24713521 0.030058482 -0.019671345
0.32990819 0.031684149 -0.02163962
0.43959137 0.033838336 -0.024247799
0.58493348 0.036692866 -0.027703918
0.77752755 0.040475429 -0.032283651
1.0327356 0.045487735 -0.038352294
1.3709139 0.052129584 -0.046393905
1.8190369 0.060930754 -0.057049911
2.4128484 0.07259326 -0.071170276
3.1997131 0.088047345 -0.089881291
4.2423943 0.10852568 -0.11467542
5.6240598 0.1356617 -0.14753032
7.4549166 0.17161988 -0.19106663
9.8810005 0.21926835 -0.24875697
13.095825 0.28240776 -0.32520292
17.355816 0.36607431 -0.42650211
23.000766 0.47694158 -0.56073452
30.480937 0.62385273 -0.73860702
-0.0096803467 0.036329912 -0.013401077
-0.0059364982 0.036403442 -0.013490103
-0.0021926496 0.036476971 -0.013579129
0.001551199 0.036550501 -0.013668154
0.0052950475 0.03662403 -0.01375718
0.0090388961 0.036697559 -0.013846206
0.013723217 0.03678956 -0.013957595
0.02029413 0.036918613 -0.014113846
0.029001302 0.037089623 -0.014320896
0.04053925 0.037316229 -0.014595259
0.055828282 0.037616507 -0.01495882
0.076087908 0.038014407 -0.015440578
0.10293411 0.038541669 -0.016078959
0.13850824 0.039240348 -0.016924884
0.18564782 0.040166173 -0.018045825
0.24811289 0.041392991 -0.019531194
0.33088587 0.043018659 -0.02149947
0.44056905 0.045172846 -0.024107648
0.58591116 0.048027376 -0.027563768
0.77850523 0.051809939 -0.032143501
1.0337133 0.056822245 -0.038212144
1.3718916 0.063464094 -0.046253755
1.8200146 0.072265264 -0.056909761
2.4138261 0.083927769 -0.071030126
3.2006908 0.099381854 -0.08974114
4.2433719 0.11986019 -0.11453526
5.6250375 0.14699621 -0.14739017
7.4558943 0.18295439 -0.19092648
9.8819782 0.23060286 -0.24861682
13.096802 0.29374227 -0.32506277
17.356793 0.37740882 -0.42636196
23.001744 0.48827609 -0.56059437
30.481915 0.63518724 -0.73846687
-0.0083848141 0.051349367 -0.013215363
-0.0046409656 0.051422897 -0.013304389
-0.00089711703 0.051496426 -0.013393414
0.0028467315 0.051569956 -0.01348244
0.0065905801 0.051643485 -0.013571466
0.010334429 0.051717015 -0.013660491
0.01501875 0.051809015 -0.013771881
0.021589663 0.051938068 -0.013928132
0.030296835 0.052109078 -0.014135182
0.041834782 0.052335684 -0.014409545
0.057123815 0.052635962 -0.014773106
0.077383441 0.053033863 -0.015254863
0.10422964 0.053561124 -0.015893245
0.13980377 0.054259803 -0.016739169
0.18694336 0.055185628 -0.017860111
0.24940842 0.056412447 -0.01934548
0.3321814 0.058038114 -0.021313755
0.44186458 0.060192301 -0.023921934
0.58720669 0.063046831 -0.027378053
0.77980076 0.066829394 -0.031957786
1.0350088 0.0718417 -0.03802643
1.3731871 0.078483549 -0.04606804
1.8213101 0.087284719 -0.056724047
2.4151216 0.098947225 -0.070844411
3.2019864 0.11440131 -0.089555426
4.2446675 0.13487965 -0.11434955
5.6263331 0.16201567 -0.14720445
7.4571899 0.19797384 -0.19074077
9.8832737 0.24562232 -0.2484311
13.098098 0.30876172 -0.32487706
17.358089 0.39242828 -0.42617624
23.003039 0.50329554 -0.56040865
30.48321 0.6502067 -0.73828115
-0.006668093 0.071251775 -0.012969271
-0.0029242444 0.071325304 -0.013058297
0.00081960416 0.071398834 -0.013147322
0.0045634527 0.071472363 -0.013236348
0.0083073013 0.071545893 -0.013325374
0.01205115 0.071619422 -0.0134144
0.016735471 0.071711423 -0.013525789
0.023306384 0.071840476 -0.01368204
0.032013556 0.072011485 -0.01388909
0.043551504 0.072238092 -0.014163453
0.058840536 0.072538369 -0.014527014
0.079100162 0.07293627 -0.015008772
0.10594636 0.073463532 -0.015647153
0.1415205 0.07416221 -0.016493077
0.18866008 0.075088035 -0.017614019
0.25112514 0.076314854 -0.019099388
0.33389812 0.077940522 -0.021067664
0.4435813 0.080094708 -0.023675842
0.58892341 0.082949239 -0.027131961
0.78151748 0.086731801 -0.031711695
1.0367255 0.091744107 -0.037780338
1.3749038 0.098385956 -0.045821948
1.8230268 0.10718713 -0.056477955
2.4168384 0.11884963 -0.070598319
3.2037031 0.13430372 -0.089309334
4.2463842 0.15478206 -0.11410346
5.6280498 0.18191808 -0.14695836
7.4589066 0.21787625 -0.19049468
9.8849904 0.26552473 -0.24818501
13.099815 0.32866413 -0.32463097
17.359806 0.41233069 -0.42593015
23.004756 0.52319795 -0.56016256
30.484927 0.67010911 -0.73803506
-0.0043932511 0.097624624 -0.012643173
-0.00064940258 0.097698153 -0.012732198
0.003094446 0.097771683 -0.012821224
0.0068382945 0.097845212 -0.01291025
0.010582143 0.097918742 -0.012999276
0.014325992 0.097992271 -0.013088301
0.019010313 0.098084272 -0.013199691
0.025581226 0.098213325 -0.013355942
0.034288398 0.098384334 -0.013562991
0.045826345 0.098610941 -0.013837355
0.061115378 0.098911218 -0.014200916
0.081375004 0.099309119 -0.014682673
0.10822121 0.099836381 -0.015321055
0.14379534 0.10053506 -0.016166979
0.19093492 0.10146088 -0.017287921
0.25339998 0.1026877 -0.01877329
0.33617296 0.10431337 -0.020741565
0.44585614 0.10646756 -0.023349744
0.59119826 0.10932209 -0.026805863
0.78379232 0.11310465 -0.031385596
1.0390004 0.11811696 -0.037454239
1.3771787 0.12475881 -0.04549585
1.8253017 0.13355998 -0.056151856
2.4191132 0.14522248 -0.070272221
3.2059779 0.16067657 -0.088983236
4.248659 0.18115491 -0.11377736
5.6303246 0.20829093 -0.14663226
7.4611814 0.2442491 -0.19016858
9.8872653 0.29189758 -0.24785891
13.10209 0.35503698 -0.32430487
17.362081 0.43870354 -0.42560405
23.007031 0.5495708 -0.55983646
30.487202 0.69648195 -0.73770896
-0.0013788389 0.13257151 -0.012211057
0.0023650096 0.13264504 -0.012300083
0.0061088582 0.13271857 -0.012389108
0.0098527067 0.1327921 -0.012478134
0.013596555 0.13286563 -0.01256716
0.017340404 0.13293916 -0.012656186
0.022024725 0.13303116 -0.012767575
0.028595638 0.13316021 -0.012923826
0.03730281 0.13333122 -0.013130876
0.048840758 0.13355783 -0.013405239
0.06412979 0.1338581 -0.0137688
0.084389416 0.134256 -0.014250558
0.11123562 0.13478327 -0.014888939
0.14680975 0.13548195 -0.015734863
0.19394933 0.13640777 -0.016855805
0.25641439 0.13763459 -0.018341174
0.33918738 0.13926026 -0.02030945
0.44887056 0.14141444 -0.022917628
0.59421267 0.14426897 -0.026373747
0.78680674 0.14805154 -0.030953481
1.0420148 0.15306384 -0.037022124
1.3801931 0.15970569 -0.045063734
1.8283161 0.16850686 -0.055719741
2.4221276 0.18016937 -0.069840105
3.2089923 0.19562345 -0.08855112
4.2516734 0.21610179 -0.11334524
5.633339 0.24323781 -0.14620015
7.4641958 0.27919598 -0.18973646
9.8902797 0.32684446 -0.2474268
13.105104 0.38998386 -0.32387275
17.365095 0.47365042 -0.42517194
23.010045 0.58451769 -0.55940435
30.490216 0.73142884 -0.73727685
0.0026155842 0.17887992 -0.011638457
0.0063594328 0.17895345 -0.011727483
0.010103281 0.17902698 -0.011816508
0.01384713 0.17910051 -0.011905534
0.017590978 0.17917404 -0.01199456
0.021334827 0.17924757 -0.012083585
0.026019148 0.17933957 -0.012194975
0.032590061 0.17946863 -0.012351226
0.041297233 0.17963964 -0.012558276
0.052835181 0.17986624 -0.012832639
0.068124213 0.18016652 -0.0131962
0.088383839 0.18056442 -0.013677957
0.11523004 0.18109168 -0.014316339
0.15080417 0.18179036 -0.015162263
0.19794376 0.18271619 -0.016283205
0.26040882 0.183943 -0.017768574
0.3431818 0.18556867 -0.019736849
0.45286498 0.18772286 -0.022345028
0.59820709 0.19057739 -0.025801147
0.79080116 0.19435995 -0.03038088
1.0460092 0.19937226 -0.036449524
1.3841875 0.20601411 -0.044491134
1.8323105 0.21481528 -0.055147141
2.426122 0.22647778 -0.069267505
3.2129868 0.24193187 -0.08797852
4.2556679 0.26241021 -0.11277264
5.6373335 0.28954623 -0.14562755
7.4681903 0.3255044 -0.18916386
9.8942741 0.37315288 -0.2468542
13.109098 0.43629228 -0.32330015
17.369089 0.51995884 -0.42459934
23.01404 0.6308261 -0.55883174
30.494211 0.77773726 -0.73670425
0.0079086282 0.2402436 -0.010879699
0.011652477 0.24031713 -0.010968725
0.015396325 0.24039066 -0.011057751
0.019140174 0.24046419 -0.011146777
0.022884022 0.24053772 -0.011235802
0.026627871 0.24061125 -0.011324828
0.031312192 0.24070325 -0.011436218
0.037883105 0.2408323 -0.011592469
0.046590277 0.24100331 -0.011799518
0.058128225 0.24122991 -0.012073881
0.073417257 0.24153019 -0.012437442
0.093676883 0.24192809 -0.0129192
0.12052309 0.24245535 -0.013557581
0.15609722 0.24315403 -0.014403506
0.2032368 0.24407986 -0.015524447
0.26570186 0.24530668 -0.017009817
0.34847484 0.24693235 -0.018978092
0.45815802 0.24908653 -0.021586271
0.60350014 0.25194106 -0.02504239
0.7960942 0.25572362 -0.029622123
1.0513022 0.26073593 -0.035690766
1.3894806 0.26737778 -0.043732377
1.8376035 0.27617895 -0.054388383
2.4314151 0.28784146 -0.068508748
3.2182798 0.30329554 -0.087219763
4.2609609 0.32377388 -0.11201389
5.6426265 0.3509099 -0.14486879
7.4734833 0.38686807 -0.1884051
9.8995672 0.43451655 -0.24609544
13.114391 0.49765595 -0.3225414
17.374382 0.58132251 -0.42384058
23.019333 0.69218977 -0.55807299
30.499504 0.83910093 -0.73594549
0.014922486 0.32155712 -0.0098742637
0.018666334 0.32163065 -0.0099632894
0.022410183 0.32170418 -0.010052315
0.026154031 0.32177771 -0.010141341
0.02989788 0.32185124 -0.010230367
0.033641729 0.32192477 -0.010319392
0.03832605 0.32201677 -0.010430782
0.044896962 0.32214582 -0.010587033
0.053604135 0.32231683 -0.010794082
0.065142082 0.32254344 -0.011068446
0.080431114 0.32284372 -0.011432007
0.10069074 0.32324162 -0.011913764
0.12753694 0.32376888 -0.012552146
0.16311107 0.32446756 -0.01339807
0.21025066 0.32539338 -0.014519012
0.27271572 0.3266202 -0.016004381
0.3554887 0.32824587 -0.017972656
0.46517188 0.33040006 -0.020580835
0.61051399 0.33325459 -0.024036954
0.80310806 0.33703715 -0.028616687
1.0583161 0.34204945 -0.034685331
1.3964944 0.3486913 -0.042726941
1.8446174 0.35749247 -0.053382948
2.4384289 0.36915498 -0.067503312
3.2252937 0.38460906 -0.086214327
4.2679748 0.4050874 -0.11100845
5.6496404 0.43222342 -0.14386336
7.4804972 0.4681816 -0.18739967
9.906581 0.51583007 -0.24509001
13.121405 0.57896948 -0.32153596
17.381396 0.66263603 -0.42283514
23.026346 0.7735033 -0.55706755
30.506518 0.92041445 -0.73494005
0.024216608 0.42930636 -0.0085419522
0.027960456 0.42937989 -0.0086309779
0.031704305 0.42945342 -0.0087200037
0.035448154 0.42952695 -0.0088090294
0.039192002 0.42960048 -0.0088980551
0.042935851 0.42967401 -0.0089870809
0.047620172 0.42976601 -0.0090984703
0.054191085 0.42989506 -0.0092547213
0.062898257 0.43006607 -0.0094617709
0.074436204 0.43029268 -0.0097361341
0.089725237 0.43059296 -0.010099695
0.10998486 0.43099086 -0.010581453
0.13683107 0.43151812 -0.011219834
0.1724052 0.4322168 -0.012065759
0.21954478 0.43314262 -0.0131867
0.28200984 0.43436944 -0.014672069
0.36478282 0.43599511 -0.016640345
0.474466 0.4381493 -0.019248523
0.61980812 0.44100383 -0.022704643
0.81240218 0.44478639 -0.027284376
1.0676102 0.4497987 -0.033353019
1.4057885 0.45644054 -0.04139463
1.8539115 0.46524171 -0.052050636
2.4477231 0.47690422 -0.066171001
3.2345878 0.49235831 -0.084882015
4.2772689 0.51283664 -0.10967614
5.6589345 0.53997267 -0.14253104
7.4897913 0.57593084 -0.18606736
9.9158751 0.62357931 -0.24375769
13.130699 0.68671872 -0.32020365
17.39069 0.77038527 -0.42150283
23.035641 0.88125254 -0.55573524
30.515812 1.0281637 -0.73360774
0.036532328 0.5720858 -0.006776495
0.040276176 0.57215932 -0.0068655207
0.044020025 0.57223285 -0.0069545464
0.047763874 0.57230638 -0.0070435722
0.051507722 0.57237991 -0.0071325979
0.055251571 0.57245344 -0.0072216236
0.059935892 0.57254544 -0.007333013
0.066506805 0.5726745 -0.0074892641
0.075213977 0.57284551 -0.0076963137
0.086751924 0.57307211 -0.0079706769
0.10204096 0.57337239 -0.0083342379
0.12230058 0.57377029 -0.0088159956
0.14914679 0.57429755 -0.0094543769
0.18472092 0.57499623 -0.010300301
0.2318605 0.57592206 -0.011421243
0.29432556 0.57714887 -0.012906612
0.37709854 0.57877454 -0.014874888
0.48678172 0.58092873 -0.017483066
0.63212384 0.58378326 -0.020939185
0.8247179 0.58756582 -0.025518919
1.0799259 0.59257813 -0.031587562
1.4181043 0.59921998 -0.039629172
1.8662272 0.60802115 -0.050285179
2.4600388 0.61968365 -0.064405543
3.2469035 0.63513774 -0.083116558
4.2895846 0.65561608 -0.10791068
5.6712502 0.6827521 -0.14076559
7.502107 0.71871027 -0.1843019
9.9281909 0.76635875 -0.24199224
13.143015 0.82949815 -0.31843819
17.403006 0.91316471 -0.41973738
23.047956 1.024032 -0.55396978
30.528128 1.1709431 -0.73184228
0.052851993 0.76128403 -0.0044370726
0.056595841 0.76135756 -0.0045260983
0.06033969 0.76143109 -0.0046151241
0.064083539 0.76150462 -0.0047041498
0.067827387 0.76157815 -0.0047931755
0.071571236 0.76165168 -0.0048822013
0.076255557 0.76174368 -0.0049935907
0.08282647 0.76187273 -0.0051498417
0.091533642 0.76204374 -0.0053568913
0.10307159 0.76227035 -0.0056312545
0.11836062 0.76257063 -0.0059948155
0.13862025 0.76296853 -0.0064765732
0.16546645 0.76349579 -0.0071149545
0.20104058 0.76419447 -0.0079608789
0.24818016 0.76512029 -0.0090818206
0.31064523 0.76634711 -0.01056719
0.39341821 0.76797278 -0.012535465
0.50310139 0.77012697 -0.015143644
0.6484435 0.7729815 -0.018599763
0.84103757 0.77676406 -0.023179496
1.0962456 0.78177637 -0.029248139
1.4344239 0.78841821 -0.03728975
1.8825469 0.79721938 -0.047945756
2.4763584 0.80888189 -0.062066121
3.2632232 0.82433598 -0.080777136
4.3059043 0.84481431 -0.10557126
5.6875699 0.87195034 -0.13842616
7.5184267 0.90790851 -0.18196248
9.9445105 0.95555698 -0.23965281
13.159335 1.0186964 -0.31609877
17.419326 1.1023629 -0.41739795
