site/assets/luts/ocio-aces--arriinputarri-logc3-ei800-to-aces2065-1--23f4446ea.cube
# LUTr-Project: LUTr — LUTrepository
# LUTr-Schema-Version: 1
# LUTr-ID: ocio-aces--arriinputarri-logc3-ei800-to-aces2065-1--23f4446ea
# LUTr-Title: ARRI.Input.ARRI LogC3 EI800 to ACES2065-1
# LUTr-Collection: OCIO ACES
# LUTr-Collection-ID: aswf-opencolorio-config-aces
# LUTr-Source: https://github.com/AcademySoftwareFoundation/OpenColorIO-Config-ACES
# LUTr-Source-File: submissions/aswf-opencolorio-config-aces/opencolorio_config_aces/clf/transforms/arri/input/ARRI.Input.ARRI_LogC3_EI800_to_ACES2065-1.clf
# LUTr-Source-Format: CLF
# LUTr-Source-SHA256: 464c151133fe306d28b8166eee9278e6b77e1275438e1100534b08394e1eef70
# LUTr-License: BSD-3-Clause
# LUTr-License-URL: https://github.com/AcademySoftwareFoundation/OpenColorIO-Config-ACES/blob/main/LICENSE
# LUTr-Tags: technical, aces, ocio, clf, color-management, cube
# LUTr-Transform-Class: color-space-conversion
# LUTr-Input-Color-Space: ARRI LogC3 (EI800)
# LUTr-Output-Color-Space: ACES2065-1
# LUTr-Color-Space-Confidence: descriptor-only
# LUTr-Conversion-Method: CLF operations evaluated as float and sampled to 33x33x33 3D CUBE
# LUTr-Conversion-Date: 2026-07-27
# LUTr-Conversion-Tool: LUTr scripts/convert-all-to-cube.mjs
# LUTr-Conversion-Grid: 33x33x33
# LUTr-Conversion-Warning: A sampled 3D CUBE is bounded to DOMAIN_MIN/MAX 0..1 and cannot preserve CLF values outside its input domain.
# LUTr-Upstream-ID: urn:aswf:ocio:transformId:1.0:ARRI:Input:ARRI_LogC3_EI800_to_ACES2065-1:1.0
# LUTr-Upstream-Name: ARRI LogC3 (EI800) to ACES2065-1
# LUTr-Upstream-Input-Descriptor: ARRI LogC3 (EI800)
# LUTr-Upstream-Output-Descriptor: ACES2065-1
# LUTr-Upstream-Operations: Log → Matrix
# LUTr-Note: Preserve this metadata and the upstream license notices when redistributing.
TITLE "ARRI.Input.ARRI LogC3 EI800 to ACES2065-1"
LUT_3D_SIZE 9
DOMAIN_MIN 0 0 0
DOMAIN_MAX 1 1 1
-0.017290485 -0.017290485 -0.017290485
-0.0014501061 -0.015301372 -0.017242594
0.022712369 -0.012267234 -0.017169541
0.099060949 -0.0026799664 -0.01693871
0.34367736 0.028037083 -0.016199141
1.1274141 0.12645272 -0.013829605
3.6384612 0.44177071 -0.0062377485
11.68371 1.4520312 0.018086119
37.460219 4.6888471 0.096018375
-0.011791422 0.0064040077 -0.018747418
0.0040489575 0.0083931208 -0.018699527
0.028211432 0.011427259 -0.018626474
0.10456001 0.021014527 -0.018395643
0.34917643 0.051731576 -0.017656074
1.1329132 0.15014722 -0.015286538
3.6439602 0.46546521 -0.0076946813
11.689209 1.4757257 0.016629186
37.465718 4.7125416 0.094561442
-0.0034033029 0.042546929 -0.020969783
0.012437076 0.044536043 -0.020921892
0.036599551 0.04757018 -0.020848839
0.11294813 0.057157448 -0.020618008
0.35756455 0.087874498 -0.019878439
1.1413013 0.18629014 -0.017508903
3.6523484 0.50160813 -0.0099170462
11.697597 1.5118686 0.014406821
37.474106 4.7486846 0.092339077
0.023101473 0.15675132 -0.027992011
0.038941852 0.15874044 -0.02794412
0.063104327 0.16177457 -0.027871067
0.13945291 0.17136184 -0.027640236
0.38406932 0.20207889 -0.026900667
1.1678061 0.30049453 -0.024531131
3.6788531 0.61581252 -0.016939274
11.724102 1.626073 0.007384593
37.500611 4.862889 0.085316849
0.10802123 0.52265556 -0.050490821
0.12386161 0.52464468 -0.05044293
0.14802409 0.52767881 -0.050369877
0.22437267 0.53726608 -0.050139046
0.46898908 0.56798313 -0.049399477
1.2527259 0.66639877 -0.047029941
3.7637729 0.98171676 -0.039438084
11.809022 1.9919773 -0.015114217
37.585531 5.2287932 0.062818039
0.38009921 1.6949915 -0.1225757
0.39593959 1.6969806 -0.12252781
0.42010206 1.7000147 -0.12245476
0.49645064 1.709602 -0.12222393
0.74106706 1.740319 -0.12148436
1.5248038 1.8387347 -0.11911482
4.0358509 2.1540527 -0.11152296
12.0811 3.1643132 -0.087199097
37.857609 6.4011291 -0.0092668404
1.2518212 5.4510876 -0.35353146
1.2676616 5.4530767 -0.35348357
1.2918241 5.4561108 -0.35341052
1.3681727 5.4656981 -0.35317969
1.6127891 5.4964151 -0.35244012
2.3965258 5.5948308 -0.35007058
4.9075729 5.9101488 -0.34247873
12.952822 6.9204093 -0.31815486
38.729331 10.157225 -0.2402226
4.0447679 17.485401 -1.0935003
4.0606083 17.48739 -1.0934524
4.0847707 17.490424 -1.0933794
4.1611193 17.500012 -1.0931485
4.4057357 17.530729 -1.092409
5.1894725 17.629144 -1.0900394
7.7005196 17.944462 -1.0824476
15.745768 18.954723 -1.0581237
41.522278 22.191539 -0.98019144
12.993207 56.042642 -3.4643174
13.009047 56.044631 -3.4642695
13.033209 56.047665 -3.4641965
13.109558 56.057252 -3.4639657
13.354174 56.087969 -3.4632261
14.137911 56.186385 -3.4608566
16.648958 56.501703 -3.4532647
24.694207 57.511964 -3.4289408
50.470716 60.74878 -3.3510086
-0.015342291 -0.019686454 0.0074061936
0.00049808863 -0.017697341 0.0074540851
0.024660563 -0.014663203 0.0075271375
0.10100914 -0.005075935 0.0077579685
0.34562556 0.025641114 0.0084975376
1.1293623 0.12405675 0.010867074
3.6404094 0.43937474 0.01845893
11.685658 1.4496353 0.042782798
37.462167 4.6864512 0.12071505
-0.0098432271 0.0040080391 0.0059492607
0.0059971522 0.0059971522 0.0059971522
0.030159627 0.0090312901 0.0060702047
0.10650821 0.018618558 0.0063010356
0.35112462 0.049335607 0.0070406047
1.1348614 0.14775125 0.009410141
3.6459084 0.46306924 0.017001998
11.691157 1.4733297 0.041325865
37.467666 4.7101457 0.11925812
-0.0014551082 0.040150961 0.0037268958
0.014385271 0.042140074 0.0037747874
0.038547746 0.045174212 0.0038478398
0.11489633 0.05476148 0.0040786708
0.35951274 0.085478529 0.0048182398
1.1432495 0.18389417 0.0071877762
3.6542966 0.49921216 0.014779633
11.699545 1.5094727 0.0391035
37.476055 4.7462886 0.11703576
0.025049668 0.15435535 -0.0032953321
0.040890047 0.15634447 -0.0032474406
0.065052522 0.15937861 -0.0031743882
0.1414011 0.16896587 -0.0029435572
0.38601752 0.19968292 -0.0022039881
1.1697543 0.29809856 0.0001655482
3.6808013 0.61341655 0.0077574048
11.72605 1.6236771 0.032081272
37.502559 4.860493 0.11001353
0.10996943 0.52025959 -0.025794142
0.12580981 0.52224871 -0.025746251
0.14997228 0.52528285 -0.025673198
0.22632086 0.53487011 -0.025442367
0.47093728 0.56558716 -0.024702798
1.254674 0.6640028 -0.022333262
3.7657211 0.97932079 -0.014741405
11.81097 1.9895813 0.0095824619
37.587479 5.2263972 0.087514718
0.3820474 1.6925955 -0.097879022
0.39788778 1.6945846 -0.09783113
0.42205026 1.6976188 -0.097758078
0.49839884 1.707206 -0.097527247
0.74301525 1.7379231 -0.096787678
1.526752 1.8363387 -0.094418142
4.0377991 2.1516567 -0.086826285
12.083048 3.1619172 -0.062502418
37.859557 6.3987331 0.015429839
1.2537694 5.4486916 -0.32883479
1.2696098 5.4506807 -0.32878689
1.2937723 5.4537148 -0.32871384
1.3701209 5.4633021 -0.32848301
1.6147373 5.4940192 -0.32774344
2.398474 5.5924348 -0.3253739
4.9095211 5.9077528 -0.31778205
12.95477 6.9180133 -0.29345818
38.731279 10.154829 -0.21552592
4.0467161 17.483005 -1.0688036
4.0625565 17.484994 -1.0687557
4.0867189 17.488028 -1.0686827
4.1630675 17.497616 -1.0684518
4.4076839 17.528333 -1.0677123
5.1914207 17.626748 -1.0653427
7.7024677 17.942066 -1.0577509
15.747716 18.952327 -1.033427
41.524226 22.189143 -0.95549476
12.995155 56.040246 -3.4396208
13.010995 56.042235 -3.4395729
13.035158 56.045269 -3.4394998
13.111506 56.054856 -3.439269
13.356123 56.085574 -3.4385294
14.139859 56.183989 -3.4361599
16.650906 56.499307 -3.428568
24.696155 57.509568 -3.4042442
50.472664 60.746384 -3.3263119
-0.012370569 -0.023341198 0.045077822
0.0034698107 -0.021352085 0.045125713
0.027632285 -0.018317947 0.045198766
0.10398087 -0.008730679 0.045429597
0.34859728 0.02198637 0.046169166
1.132334 0.12040201 0.048538702
3.6433811 0.43572 0.056130559
11.68863 1.4459805 0.080454426
37.465139 4.6827964 0.15838668
-0.006871505 0.00035329521 0.043620889
0.0089688743 0.0023424083 0.04366878
0.033131349 0.0053765462 0.043741833
0.10947993 0.014963814 0.043972664
0.35409634 0.045680864 0.044712233
1.1378331 0.1440965 0.047081769
3.6488802 0.45941449 0.054673626
11.694129 1.469675 0.078997493
37.470638 4.7064909 0.15692975
0.0015166139 0.036496217 0.041398524
0.017356993 0.03848533 0.041446415
0.041519468 0.041519468 0.041519468
0.11786805 0.051106736 0.041750299
0.36248446 0.081823785 0.042489868
1.1462212 0.18023943 0.044859404
3.6572683 0.49555741 0.052451261
11.702517 1.5058179 0.076775128
37.479026 4.7426338 0.15470738
0.02802139 0.15070061 0.034376296
0.043861769 0.15268972 0.034424188
0.068024244 0.15572386 0.03449724
0.14437282 0.16531113 0.034728071
0.38898924 0.19602818 0.03546764
1.172726 0.29444382 0.037837176
3.6837731 0.60976181 0.045429033
11.729022 1.6200223 0.0697529
37.505531 4.8568382 0.14768516
0.11294115 0.51660485 0.011877486
0.12878153 0.51859396 0.011925377
0.152944 0.5216281 0.01199843
0.22929259 0.53121537 0.012229261
0.473909 0.56193242 0.01296883
1.2576458 0.66034806 0.015338366
3.7686928 0.97566605 0.022930223
11.813942 1.9859266 0.04725409
37.590451 5.2227425 0.12518635
0.38501913 1.6889408 -0.060207394
0.40085951 1.6909299 -0.060159502
0.42502198 1.693964 -0.06008645
0.50137056 1.7035513 -0.059855619
0.74598698 1.7342683 -0.05911605
1.5297237 1.832684 -0.056746513
4.0407708 2.148002 -0.049154657
12.08602 3.1582625 -0.02483079
37.862529 6.3950784 0.053101467
1.2567411 5.4450369 -0.29116316
1.2725815 5.447026 -0.29111527
1.296744 5.4500601 -0.29104221
1.3730926 5.4596474 -0.29081138
1.617709 5.4903644 -0.29007181
2.4014458 5.5887801 -0.28770228
4.9124928 5.9040981 -0.28011042
12.957742 6.9143586 -0.25578655
38.734251 10.151174 -0.1778543
4.0496878 17.47935 -1.031132
4.0655282 17.481339 -1.0310841
4.0896907 17.484374 -1.0310111
4.1660392 17.493961 -1.0307802
4.4106557 17.524678 -1.0300407
5.1943924 17.623094 -1.0276711
7.7054395 17.938412 -1.0200793
15.750688 18.948672 -0.99575539
41.527197 22.185488 -0.91782313
12.998127 56.036591 -3.4019491
13.013967 56.03858 -3.4019012
13.038129 56.041614 -3.4018282
13.114478 56.051202 -3.4015974
13.359094 56.081919 -3.4008578
14.142831 56.180334 -3.3984883
16.653878 56.495652 -3.3908964
24.699127 57.505913 -3.3665725
50.475636 60.742729 -3.2886403
-0.002980522 -0.034889457 0.16411262
0.012859857 -0.032900344 0.16416051
0.037022332 -0.029866206 0.16423357
0.11337091 -0.020278938 0.1644644
0.35798733 0.010438111 0.16520397
1.1417241 0.10885375 0.1675735
3.6527711 0.42417174 0.17516536
11.69802 1.4344322 0.19948923
37.474529 4.6712482 0.27742148
0.0025185416 -0.011194964 0.16265569
0.018358921 -0.0092058506 0.16270358
0.042521396 -0.0061717127 0.16277663
0.11886998 0.0034155553 0.16300746
0.36348639 0.034132605 0.16374703
1.1472232 0.13254824 0.16611657
3.6582702 0.44786623 0.17370843
11.703519 1.4581267 0.19803229
37.480028 4.6949427 0.27596455
0.010906661 0.024947958 0.16043332
0.02674704 0.026937071 0.16048122
0.050909515 0.029971209 0.16055427
0.1272581 0.039558477 0.1607851
0.37187451 0.070275526 0.16152467
1.1556113 0.16869117 0.1638942
3.6666583 0.48400916 0.17148606
11.711907 1.4942697 0.19580993
37.488416 4.7310856 0.27374218
0.037411436 0.13915235 0.1534111
0.053251816 0.14114147 0.15345899
0.07741429 0.1441756 0.15353204
0.15376287 0.15376287 0.15376287
0.39837929 0.18447992 0.15450244
1.1821161 0.28289556 0.15687198
3.6931631 0.59821355 0.16446383
11.738412 1.6084741 0.1887877
37.514921 4.84529 0.26671996
0.1223312 0.50505659 0.13091229
0.13817158 0.5070457 0.13096018
0.16233405 0.51007984 0.13103323
0.23868263 0.51966711 0.13126406
0.48329905 0.55038416 0.13200363
1.2670358 0.6487998 0.13437317
3.7780829 0.96411779 0.14196502
11.823332 1.9743783 0.16628889
37.599841 5.2111942 0.24422115
0.39440917 1.6773925 0.058827407
0.41024955 1.6793816 0.058875298
0.43441203 1.6824158 0.05894835
0.51076061 1.692003 0.059179181
0.75537702 1.7227201 0.059918751
1.5391138 1.8211357 0.062288287
4.0501608 2.1364537 0.069880143
12.09541 3.1467142 0.094204011
37.871919 6.3835301 0.17213627
1.2661312 5.4334886 -0.17212836
1.2819716 5.4354777 -0.17208047
1.306134 5.4385118 -0.17200741
1.3824826 5.4480991 -0.17177658
1.627099 5.4788162 -0.17103701
2.4108358 5.5772318 -0.16866748
4.9218829 5.8925498 -0.16107562
12.967132 6.9028103 -0.13675175
38.743641 10.139626 -0.058819496
4.0590779 17.467802 -0.91209719
4.0749182 17.469791 -0.9120493
4.0990807 17.472825 -0.91197625
4.1754293 17.482413 -0.91174542
4.4200457 17.51313 -0.91100585
5.2037825 17.611545 -0.90863631
7.7148295 17.926863 -0.90104446
15.760078 18.937124 -0.87672059
41.536587 22.17394 -0.79878833
13.007517 56.025043 -3.2829143
13.023357 56.027032 -3.2828664
13.047519 56.030066 -3.2827934
13.123868 56.039653 -3.2825626
13.368484 56.070371 -3.281823
14.152221 56.168786 -3.2794535
16.663268 56.484104 -3.2718616
24.708517 57.494365 -3.2475377
50.485026 60.731181 -3.1696055
0.027104642 -0.071889407 0.5454932
0.042945021 -0.069900294 0.54554109
0.067107496 -0.066866156 0.54561415
0.14345608 -0.057278888 0.54584498
0.38807249 -0.026561839 0.54658455
1.1718093 0.071853802 0.54895408
3.6828563 0.38717179 0.55654594
11.728105 1.3974323 0.58086981
37.504614 4.6342482 0.65880206
0.032603705 -0.048194914 0.54403627
0.048444085 -0.046205801 0.54408416
0.072606559 -0.043171663 0.54415721
0.14895514 -0.033584395 0.54438804
0.39357155 -0.0028673454 0.54512761
1.1773083 0.095548295 0.54749715
3.6883554 0.41086628 0.55508901
11.733604 1.4211268 0.57941287
37.510113 4.6579427 0.65734513
0.040991824 -0.012051992 0.5418139
0.056832203 -0.010062879 0.5418618
0.080994678 -0.0070287411 0.54193485
0.15734326 0.0025585269 0.54216568
0.40195967 0.033275576 0.54290525
1.1856964 0.13169122 0.54527478
3.6967435 0.44700921 0.55286664
11.741992 1.4572697 0.57719051
37.518501 4.6940856 0.65512276
0.0674966 0.1021524 0.53479168
0.083336979 0.10414152 0.53483957
0.10749945 0.10717565 0.53491262
0.18384803 0.11676292 0.53514345
0.42846445 0.14747997 0.53588302
1.2122012 0.24589561 0.53825256
3.7232483 0.5612136 0.54584441
11.768497 1.5714741 0.57016828
37.545006 4.80829 0.64810054
0.15241636 0.46805664 0.51229287
0.16825674 0.47004575 0.51234076
0.19241921 0.47307989 0.51241381
0.2687678 0.48266716 0.51264464
0.51338421 0.51338421 0.51338421
1.297121 0.61179985 0.51575375
3.808168 0.92711784 0.5233456
11.853417 1.9373783 0.54766947
37.629926 5.1741943 0.62560173
0.42449434 1.6403926 0.44020799
0.44033472 1.6423817 0.44025588
0.46449719 1.6454158 0.44032893
0.54084577 1.6550031 0.44055976
0.78546219 1.6857201 0.44129933
1.569199 1.7841358 0.44366887
4.080246 2.0994537 0.45126072
12.125495 3.1097143 0.47558459
37.902004 6.3465302 0.55351685
1.2962164 5.3964886 0.20925222
1.3120567 5.3984778 0.20930011
1.3362192 5.4015119 0.20937317
1.4125678 5.4110992 0.209604
1.6571842 5.4418162 0.21034357
2.440921 5.5402319 0.2127131
4.951968 5.8555498 0.22030496
12.997217 6.8658103 0.24462883
38.773726 10.102626 0.32256108
4.089163 17.430802 -0.53071662
4.1050034 17.432791 -0.53066872
4.1291659 17.435825 -0.53059567
4.2055145 17.445413 -0.53036484
4.4501309 17.47613 -0.52962527
5.2338676 17.574545 -0.52725574
7.7449147 17.889863 -0.51966388
15.790163 18.900124 -0.49534001
41.566673 22.13694 -0.41740775
13.037602 55.988043 -2.9015338
13.053442 55.990032 -2.9014859
13.077605 55.993066 -2.9014128
13.153953 56.002654 -2.901182
13.39857 56.033371 -2.9004424
14.182306 56.131786 -2.8980729
16.693353 56.447104 -2.890481
24.738602 57.457365 -2.8661571
50.515111 60.694181 -2.7882249
0.12349576 -0.1904351 1.7674144
0.13933614 -0.18844598 1.7674623
0.16349861 -0.18541184 1.7675353
0.23984719 -0.17582458 1.7677662
0.48446361 -0.14510753 1.7685057
1.2682004 -0.046691887 1.7708753
3.7792474 0.2686261 1.7784671
11.824496 1.2788866 1.802791
37.601005 4.5157025 1.8807233
0.12899482 -0.1667406 1.7659575
0.1448352 -0.16475149 1.7660054
0.16899767 -0.16171735 1.7660784
0.24534625 -0.15213008 1.7663092
0.48996267 -0.12141303 1.7670488
1.2736994 -0.022997394 1.7694184
3.7847465 0.2923206 1.7770102
11.829995 1.3025811 1.8013341
37.606504 4.539397 1.8792663
0.13738294 -0.13059768 1.7637351
0.15322332 -0.12860857 1.763783
0.17738579 -0.12557443 1.7638561
0.25373437 -0.11598716 1.7640869
0.49835079 -0.085270113 1.7648265
1.2820876 0.013145528 1.767196
3.7931346 0.32846352 1.7747878
11.838383 1.338724 1.7991117
37.614893 4.57554 1.877044
0.16388771 -0.016393287 1.7567129
0.17972809 -0.014404174 1.7567608
0.20389057 -0.011370036 1.7568338
0.28023915 -0.0017827679 1.7570647
0.52485556 0.028934281 1.7578042
1.3085923 0.12734992 1.7601738
3.8196394 0.44266791 1.7677656
11.864888 1.4529284 1.7920895
37.641397 4.6897443 1.8700217
0.24880748 0.34951095 1.7342141
0.26464785 0.35150007 1.734262
0.28881033 0.3545342 1.734335
0.36515891 0.36412147 1.7345658
0.60977532 0.39483852 1.7353054
1.3935121 0.49325416 1.7376749
3.9045591 0.80857215 1.7452668
11.949808 1.8188327 1.7695907
37.726317 5.0556486 1.8475229
0.52088545 1.5218469 1.6621292
0.53672583 1.523836 1.6621771
0.56088831 1.5268701 1.6622501
0.63723689 1.5364574 1.662481
0.8818533 1.5671744 1.6632205
1.6655901 1.6655901 1.6655901
4.1766371 1.9809081 1.6731819
12.221886 2.9911686 1.6975058
37.998395 6.2279845 1.775438
1.3926075 5.277943 1.4311734
1.4084478 5.2799321 1.4312213
1.4326103 5.2829662 1.4312944
1.5089589 5.2925535 1.4315252
1.7535753 5.3232705 1.4322648
2.5373121 5.4216862 1.4346343
5.0483591 5.7370042 1.4422262
13.093608 6.7472647 1.46655
38.870117 9.9840806 1.5444823
4.1855541 17.312256 0.69120459
4.2013945 17.314246 0.69125248
4.225557 17.31728 0.69132553
4.3019056 17.326867 0.69155636
4.546522 17.357584 0.69229593
5.3302588 17.456 0.69466547
7.8413058 17.771318 0.70225733
15.886555 18.781578 0.72658119
41.663064 22.018394 0.80451345
13.133993 55.869497 -1.6796125
13.149833 55.871486 -1.6795647
13.173996 55.874521 -1.6794916
13.250344 55.884108 -1.6792608
13.494961 55.914825 -1.6785212
14.278697 56.013241 -1.6761517
16.789745 56.328559 -1.6685598
24.834993 57.338819 -1.6442359
50.611502 60.575635 -1.5663037
0.43232728 -0.57024859 5.6823789
0.44816766 -0.56825948 5.6824268
0.47233014 -0.56522534 5.6824998
0.54867872 -0.55563807 5.6827307
0.79329513 -0.52492102 5.6834702
1.5770319 -0.42650538 5.6858398
4.0880789 -0.11118739 5.6934316
12.133328 0.89907311 5.7177555
37.909837 4.135889 5.7956878
0.43782635 -0.5465541 5.680922
0.45366673 -0.54456498 5.6809699
0.4778292 -0.54153085 5.6810429
0.55417778 -0.53194358 5.6812737
0.7987942 -0.50122653 5.6820133
1.582531 -0.40281089 5.6843828
4.093578 -0.0874929 5.6919747
12.138827 0.92276761 5.7162986
37.915336 4.1595835 5.7942308
0.44621447 -0.51041118 5.6786996
0.46205485 -0.50842206 5.6787475
0.48621732 -0.50538793 5.6788205
0.5625659 -0.49580066 5.6790514
0.80718232 -0.46508361 5.6797909
1.5909191 -0.36666797 5.6821605
4.1019661 -0.051349978 5.6897523
12.147215 0.95891053 5.7140762
37.923724 4.1957265 5.7920085
0.47271924 -0.39620678 5.6716774
0.48855962 -0.39421767 5.6717253
0.5127221 -0.39118353 5.6717983
0.58907068 -0.38159626 5.6720291
0.83368709 -0.35087921 5.6727687
1.6174239 -0.25246357 5.6751383
4.1284709 0.062854416 5.6827301
12.17372 1.0731149 5.707054
37.950229 4.3099308 5.7849862
0.557639 -0.030302543 5.6491786
0.57347938 -0.02831343 5.6492265
0.59764186 -0.025279292 5.6492995
0.67399044 -0.015692024 5.6495303
0.91860685 0.015025025 5.6502699
1.7023436 0.11344067 5.6526394
4.2133907 0.42875866 5.6602313
12.258639 1.4390192 5.6845552
38.035149 4.6758351 5.7624874
0.82971698 1.1420334 5.5770937
0.84555736 1.1440225 5.5771416
0.86971983 1.1470566 5.5772146
0.94606841 1.1566439 5.5774455
1.1906848 1.1873609 5.578185
1.9744216 1.2857766 5.5805546
4.4854686 1.6010946 5.5881464
12.530717 2.6113551 5.6124703
38.307227 5.848171 5.6904025
1.701439 4.8981295 5.3461379
1.7172794 4.9001186 5.3461858
1.7414419 4.9031527 5.3462589
1.8177904 4.91274 5.3464897
2.0624068 4.943457 5.3472293
2.8461436 5.0418727 5.3495988
5.3571907 5.3571907 5.3571907
13.402439 6.3674512 5.3815145
39.178949 9.6042671 5.4594468
4.4943857 16.932443 4.6061691
4.510226 16.934432 4.606217
4.5343885 16.937466 4.60629
4.6107371 16.947053 4.6065209
4.8553535 16.977771 4.6072604
5.6390903 17.076186 4.60963
8.1501373 17.391504 4.6172218
16.195386 18.401765 4.6415457
41.971895 21.638581 4.7194779
13.442824 55.489684 2.2353519
13.458665 55.491673 2.2353998
13.482827 55.494707 2.2354729
13.559176 55.504294 2.2357037
13.803792 55.535011 2.2364433
14.587529 55.633427 2.2388128
17.098576 55.948745 2.2464047
25.143825 56.959006 2.2707286
50.920334 60.195821 2.3486608
1.4218055 -1.7871489 18.225698
1.4376459 -1.7851598 18.225745
1.4618084 -1.7821257 18.225818
1.538157 -1.7725384 18.226049
1.7827734 -1.7418214 18.226789
2.5665102 -1.6434057 18.229158
5.0775572 -1.3280878 18.23675
13.122806 -0.31782724 18.261074
38.899315 2.9189887 18.339006
1.4273046 -1.7634545 18.224241
1.443145 -1.7614653 18.224288
1.4673075 -1.7584312 18.224362
1.543656 -1.7488439 18.224592
1.7882725 -1.7181269 18.225332
2.5720092 -1.6197112 18.227701
5.0830563 -1.3043933 18.235293
13.128305 -0.29413275 18.259617
38.904814 2.9426832 18.337549
1.4356927 -1.7273115 18.222018
1.4515331 -1.7253224 18.222066
1.4756956 -1.7222883 18.222139
1.5520442 -1.712701 18.22237
1.7966606 -1.681984 18.22311
2.5803973 -1.5835683 18.225479
5.0914444 -1.2682503 18.233071
13.136693 -0.25798983 18.257395
38.913202 2.9788261 18.335327
1.4621975 -1.6131071 18.214996
1.4780379 -1.611118 18.215044
1.5022004 -1.6080839 18.215117
1.5785489 -1.5984966 18.215348
1.8231654 -1.5677796 18.216087
2.6069021 -1.4693639 18.218457
5.1179492 -1.1540459 18.226049
13.163198 -0.14378543 18.250373
38.939707 3.0930305 18.328305
1.5471173 -1.2472029 18.192497
1.5629576 -1.2452138 18.192545
1.5871201 -1.2421796 18.192618
1.6634687 -1.2325924 18.192849
1.9080851 -1.2018753 18.193589
2.6918219 -1.1034597 18.195958
5.2028689 -0.7881417 18.20355
13.248118 0.2221188 18.227874
39.024627 3.4589347 18.305806
1.8191952 -0.074866991 18.120412
1.8350356 -0.072877878 18.12046
1.8591981 -0.06984374 18.120533
1.9355467 -0.060256472 18.120764
2.1801631 -0.029539423 18.121504
2.9638999 0.068876218 18.123873
5.4749469 0.38419421 18.131465
13.520196 1.3944547 18.155789
39.296705 4.6312706 18.233721
2.6909173 3.6812291 17.889457
2.7067576 3.6832182 17.889504
2.7309201 3.6862524 17.889577
2.8072687 3.6958396 17.889808
3.0518851 3.7265567 17.890548
3.8356219 3.8249723 17.892917
6.3466689 4.1402903 17.900509
14.391918 5.1505508 17.924833
40.168427 8.3873667 18.002765
5.4838639 15.715543 17.149488
5.4997043 15.717532 17.149536
5.5238668 15.720566 17.149609
5.6002154 15.730153 17.149839
5.8448318 15.76087 17.150579
6.6285685 15.859286 17.152949
9.1396156 16.174604 17.16054
17.184864 17.184864 17.184864
42.961374 20.42168 17.262797
14.432303 54.272783 14.778671
14.448143 54.274773 14.778718
14.472306 54.277807 14.778792
14.548654 54.287394 14.779022
14.793271 54.318111 14.779762
15.577007 54.416527 14.782131
18.088054 54.731845 14.789723
26.133303 55.742105 14.814047
51.909812 58.978921 14.891979
4.5920364 -5.6860269 58.413761
4.6078767 -5.6840378 58.413809
4.6320392 -5.6810037 58.413882
4.7083878 -5.6714164 58.414113
4.9530042 -5.6406994 58.414853
5.736741 -5.5422837 58.417222
8.247788 -5.2269657 58.424814
16.293037 -4.2167052 58.449138
42.069546 -0.97988931 58.52707
4.5975354 -5.6623324 58.412304
4.6133758 -5.6603433 58.412352
4.6375383 -5.6573092 58.412425
4.7138869 -5.6477219 58.412656
4.9585033 -5.6170049 58.413396
5.74224 -5.5185892 58.415765
8.2532871 -5.2032713 58.423357
16.298536 -4.1930107 58.447681
42.075045 -0.95619482 58.525613
4.6059235 -5.6261895 58.410082
4.6217639 -5.6242004 58.41013
4.6459264 -5.6211663 58.410203
4.722275 -5.611579 58.410434
4.9668914 -5.580862 58.411173
5.7506282 -5.4824463 58.413543
8.2616752 -5.1671283 58.421135
16.306924 -4.1568678 58.445458
42.083433 -0.9200519 58.523391
4.6324283 -5.5119851 58.40306
4.6482687 -5.509996 58.403108
4.6724312 -5.5069619 58.403181
4.7487798 -5.4973746 58.403411
4.9933962 -5.4666576 58.404151
5.7771329 -5.3682419 58.406521
8.28818 -5.0529239 58.414112
16.333429 -4.0426634 58.438436
42.109938 -0.8058475 58.516369
4.7173481 -5.1460809 58.380561
4.7331885 -5.1440918 58.380609
4.7573509 -5.1410576 58.380682
4.8336995 -5.1314704 58.380913
5.0783159 -5.1007533 58.381652
5.8620527 -5.0023377 58.384022
8.3730997 -4.6870197 58.391614
16.418348 -3.6767592 58.415937
42.194858 -0.43994326 58.49387
4.9894261 -3.973745 58.308476
5.0052664 -3.9717559 58.308524
5.0294289 -3.9687217 58.308597
5.1057775 -3.9591345 58.308828
5.3503939 -3.9284174 58.309567
6.1341307 -3.8300018 58.311937
8.6451777 -3.5146838 58.319529
16.690426 -2.5044233 58.343853
42.466936 0.73239265 58.421785
5.8611481 -0.21764889 58.07752
5.8769885 -0.21565978 58.077568
5.9011509 -0.21262564 58.077641
5.9774995 -0.20303837 58.077872
6.2221159 -0.17232132 58.078612
7.0058527 -0.073905683 58.080981
9.5168997 0.24141231 58.088573
17.562148 1.2516728 58.112897
43.338658 4.4884887 58.190829
8.6540947 11.816665 57.337551
8.6699351 11.818654 57.337599
8.6940976 11.821688 57.337672
8.7704462 11.831275 57.337903
9.0150626 11.861992 57.338643
9.7987994 11.960408 57.341012
12.309846 12.275726 57.348604
20.355095 13.285986 57.372928
46.131604 16.522802 57.45086
17.602533 50.373905 54.966734
17.618374 50.375895 54.966782
17.642536 50.378929 54.966855
17.718885 50.388516 54.967086
17.963501 50.419233 54.967826
18.747238 50.517649 54.970195
21.258285 50.832967 54.977787
29.303534 51.843227 55.002111
55.080043 55.080043 55.080043
