site/assets/luts/ocio-aces--ocioutilityap0-to-srgb-encoded-p3-d65--1d9b28f81.cube
# LUTr-Project: LUTr — LUTrepository
# LUTr-Schema-Version: 1
# LUTr-ID: ocio-aces--ocioutilityap0-to-srgb-encoded-p3-d65--1d9b28f81
# LUTr-Title: OCIO.Utility.AP0 to sRGB Encoded P3-D65
# LUTr-Collection: OCIO ACES
# LUTr-Collection-ID: aswf-opencolorio-config-aces
# LUTr-Source: https://github.com/AcademySoftwareFoundation/OpenColorIO-Config-ACES
# LUTr-Source-File: submissions/aswf-opencolorio-config-aces/opencolorio_config_aces/clf/transforms/ocio/utility/OCIO.Utility.AP0_to_sRGB_Encoded_P3-D65.clf
# LUTr-Source-Format: CLF
# LUTr-Source-SHA256: 2a8ce70ff88d113265fe5838452f538c2a74da8b8c40d72c0aa255bb61abb89a
# LUTr-License: BSD-3-Clause
# LUTr-License-URL: https://github.com/AcademySoftwareFoundation/OpenColorIO-Config-ACES/blob/main/LICENSE
# LUTr-Tags: technical, aces, ocio, clf, color-management, cube
# LUTr-Transform-Class: color-space-conversion
# LUTr-Input-Color-Space: ACES2065-1
# LUTr-Output-Color-Space: sRGB Encoded P3-D65 primaries, D65 white point
# LUTr-Color-Space-Confidence: descriptor-only
# LUTr-Conversion-Method: CLF operations evaluated as float and sampled to 33x33x33 3D CUBE
# LUTr-Conversion-Date: 2026-07-27
# LUTr-Conversion-Tool: LUTr scripts/convert-all-to-cube.mjs
# LUTr-Conversion-Grid: 33x33x33
# LUTr-Conversion-Warning: A sampled 3D CUBE is bounded to DOMAIN_MIN/MAX 0..1 and cannot preserve CLF values outside its input domain.
# LUTr-Upstream-ID: urn:aswf:ocio:transformId:1.0:OCIO:Utility:AP0_to_sRGB_Encoded_P3-D65:1.0
# LUTr-Upstream-Name: AP0 to sRGB Encoded P3-D65
# LUTr-Upstream-Input-Descriptor: ACES2065-1
# LUTr-Upstream-Output-Descriptor: sRGB Encoded P3-D65 primaries, D65 white point
# LUTr-Upstream-Operations: Matrix → Exponent
# LUTr-Note: Preserve this metadata and the upstream license notices when redistributing.
TITLE "OCIO.Utility.AP0 to sRGB Encoded P3-D65"
LUT_3D_SIZE 33
DOMAIN_MIN 0 0 0
DOMAIN_MAX 1 1 1
0 0 0
0.00009472883 -0.0000085890102 4.2377631e-7
0.00018945766 -0.00001717802 8.4755263e-7
0.00028418649 -0.000025767031 0.0000012713289
0.00037891532 -0.000034356041 0.0000016951053
0.00047364415 -0.000042945051 0.0000021188816
0.00056837298 -0.000051534061 0.0000025426579
0.00066310181 -0.000060123071 0.0000029664342
0.00075783064 -0.000068712081 0.0000033902105
0.00085255947 -0.000077301092 0.0000038139868
0.0009472883 -0.000085890102 0.0000042377631
0.0010420171 -0.000094479112 0.0000046615395
0.001136746 -0.00010306812 0.0000050853158
0.0012314748 -0.00011165713 0.0000055090921
0.0013262036 -0.00012024614 0.0000059328684
0.0014209325 -0.00012883515 0.0000063566447
0.0015156613 -0.00013742416 0.000006780421
0.0016103901 -0.00014601317 0.0000072041973
0.0017051189 -0.00015460218 0.0000076279737
0.0017998478 -0.00016319119 0.00000805175
0.0018945766 -0.0001717802 0.0000084755263
0.0019893054 -0.00018036921 0.0000088993026
0.0020840343 -0.00018895822 0.0000093230789
0.0021787631 -0.00019754723 0.0000097468552
0.0022734919 -0.00020613624 0.000010170632
0.0023682208 -0.00021472525 0.000010594408
0.0024629496 -0.00022331426 0.000011018184
0.0025576784 -0.00023190327 0.00001144196
0.0026524072 -0.00024049228 0.000011865737
0.0027471361 -0.00024908129 0.000012289513
0.0028418649 -0.00025767031 0.000012713289
0.0029365937 -0.00026625932 0.000013137066
0.0030313226 -0.00027484833 0.000013560842
-0.000032235963 0.000060325495 -0.0000027732137
0.000062492867 0.000051736485 -0.0000023494374
0.0001572217 0.000043147475 -0.0000019256611
0.00025195053 0.000034558465 -0.0000015018848
0.00034667936 0.000025969455 -0.0000010781085
0.00044140819 0.000017380445 -6.5433215e-7
0.00053613702 0.0000087914344 -2.3055584e-7
0.00063086585 2.0242425e-7 1.9322048e-7
0.00072559468 -0.0000083865859 6.1699679e-7
0.00082032351 -0.000016975596 0.0000010407731
0.00091505234 -0.000025564606 0.0000014645494
0.0010097812 -0.000034153616 0.0000018883257
0.00110451 -0.000042742627 0.000002312102
0.0011992388 -0.000051331637 0.0000027358784
0.0012939677 -0.000059920647 0.0000031596547
0.0013886965 -0.000068509657 0.000003583431
0.0014834253 -0.000077098667 0.0000040072073
0.0015781541 -0.000085687677 0.0000044309836
0.001672883 -0.000094276688 0.0000048547599
0.0017676118 -0.0001028657 0.0000052785362
0.0018623406 -0.00011145471 0.0000057023126
0.0019570695 -0.00012004372 0.0000061260889
0.0020517983 -0.00012863273 0.0000065498652
0.0021465271 -0.00013722174 0.0000069736415
0.002241256 -0.00014581075 0.0000073974178
0.0023359848 -0.00015439976 0.0000078211941
0.0024307136 -0.00016298877 0.0000082449704
0.0025254425 -0.00017157778 0.0000086687468
0.0026201713 -0.00018016679 0.0000090925231
0.0027149001 -0.0001887558 0.0000095162994
0.0028096289 -0.00019734481 0.0000099400757
0.0029043578 -0.00020593382 0.000010363852
0.0029990866 -0.00021452283 0.000010787628
-0.000064471926 0.00012065099 -0.0000055464274
0.000030256904 0.00011206198 -0.0000051226511
0.00012498573 0.00010347297 -0.0000046988748
0.00021971456 0.00009488396 -0.0000042750985
0.00031444339 0.00008629495 -0.0000038513222
0.00040917222 0.00007770594 -0.0000034275459
0.00050390105 0.00006911693 -0.0000030037696
0.00059862988 0.00006052792 -0.0000025799932
0.00069335871 0.00005193891 -0.0000021562169
0.00078808755 0.000043349899 -0.0000017324406
0.00088281638 0.000034760889 -0.0000013086643
0.00097754521 0.000026171879 -8.8488799e-7
0.001072274 0.000017582869 -4.6111168e-7
0.0011670029 0.0000089938587 -3.7335362e-8
0.0012617317 4.0484851e-7 3.8644095e-7
0.0013564605 -0.0000081841617 8.1021727e-7
0.0014511894 -0.000016773172 0.0000012339936
0.0015459182 -0.000025362182 0.0000016577699
0.001640647 -0.000033951192 0.0000020815462
0.0017353758 -0.000042540202 0.0000025053225
0.0018301047 -0.000051129212 0.0000029290988
0.0019248335 -0.000059718223 0.0000033528751
0.0020195623 -0.000068307233 0.0000037766515
0.0021142912 -0.000076896243 0.0000042004278
0.00220902 -0.000085485253 0.0000046242041
0.0023037488 -0.000094074263 0.0000050479804
0.0023984777 -0.00010266327 0.0000054717567
0.0024932065 -0.00011125228 0.000005895533
0.0025879353 -0.00011984129 0.0000063193093
0.0026826641 -0.0001284303 0.0000067430857
0.002777393 -0.00013701931 0.000007166862
0.0028721218 -0.00014560832 0.0000075906383
0.0029668506 -0.00015419733 0.0000080144146
-0.00009670789 0.00018097649 -0.0000083196412
-0.0000019790596 0.00017238748 -0.0000078958649
0.000092749771 0.00016379847 -0.0000074720885
0.0001874786 0.00015520946 -0.0000070483122
0.00028220743 0.00014662045 -0.0000066245359
0.00037693626 0.00013803144 -0.0000062007596
0.00047166509 0.00012944243 -0.0000057769833
0.00056639392 0.00012085342 -0.000005353207
0.00066112275 0.0001122644 -0.0000049294307
0.00075585158 0.00010367539 -0.0000045056543
0.00085058041 0.000095086385 -0.000004081878
0.00094530924 0.000086497374 -0.0000036581017
0.0010400381 0.000077908364 -0.0000032343254
0.0011347669 0.000069319354 -0.0000028105491
0.0012294957 0.000060730344 -0.0000023867728
0.0013242246 0.000052141334 -0.0000019629965
0.0014189534 0.000043552324 -0.0000015392201
0.0015136822 0.000034963313 -0.0000011154438
0.0016084111 0.000026374303 -6.9166751e-7
0.0017031399 0.000017785293 -2.678912e-7
0.0017978687 0.0000091962829 1.5588511e-7
0.0018925975 6.0727276e-7 5.7966143e-7
0.0019873264 -0.0000079817374 0.0000010034377
0.0020820552 -0.000016570748 0.0000014272141
0.002176784 -0.000025159758 0.0000018509904
0.0022715129 -0.000033748768 0.0000022747667
0.0023662417 -0.000042337778 0.000002698543
0.0024609705 -0.000050926788 0.0000031223193
0.0025556994 -0.000059515798 0.0000035460956
0.0026504282 -0.000068104809 0.0000039698719
0.002745157 -0.000076693819 0.0000043936483
0.0028398858 -0.000085282829 0.0000048174246
0.0029346147 -0.000093871839 0.0000052412009
-0.00012894385 0.00024130198 -0.000011092855
-0.000034215023 0.00023271297 -0.000010669079
0.000060513807 0.00022412396 -0.000010245302
0.00015524264 0.00021553495 -0.0000098215259
0.00024997147 0.00020694594 -0.0000093977496
0.0003447003 0.00019835693 -0.0000089739733
0.00043942913 0.00018976792 -0.000008550197
0.00053415796 0.00018117891 -0.0000081264207
0.00062888679 0.0001725899 -0.0000077026444
0.00072361562 0.00016400089 -0.0000072788681
0.00081834445 0.00015541188 -0.0000068550917
0.00091307328 0.00014682287 -0.0000064313154
0.0010078021 0.00013823386 -0.0000060075391
0.0011025309 0.00012964485 -0.0000055837628
0.0011972598 0.00012105584 -0.0000051599865
0.0012919886 0.00011246683 -0.0000047362102
0.0013867174 0.00010387782 -0.0000043124339
0.0014814463 0.000095288809 -0.0000038886575
0.0015761751 0.000086699799 -0.0000034648812
0.0016709039 0.000078110789 -0.0000030411049
0.0017656328 0.000069521778 -0.0000026173286
0.0018603616 0.000060932768 -0.0000021935523
0.0019550904 0.000052343758 -0.000001769776
0.0020498192 0.000043754748 -0.0000013459997
0.0021445481 0.000035165738 -9.2222335e-7
0.0022392769 0.000026576728 -4.9844704e-7
0.0023340057 0.000017987717 -7.4670724e-8
0.0024287346 0.0000093987072 3.4910559e-7
0.0025234634 8.0969701e-7 7.728819e-7
0.0026181922 -0.0000077793132 0.0000011966582
0.0027129211 -0.000016368323 0.0000016204345
0.0028076499 -0.000024957333 0.0000020442108
0.0029023787 -0.000033546344 0.0000024679872
-0.00016117982 0.00030162748 -0.000013866069
-0.000066450986 0.00029303847 -0.000013442292
0.000028277844 0.00028444946 -0.000013018516
0.00012300667 0.00027586045 -0.00001259474
0.0002177355 0.00026727144 -0.000012170963
0.00031246433 0.00025868243 -0.000011747187
0.00040719316 0.00025009342 -0.000011323411
0.00050192199 0.00024150441 -0.000010899634
0.00059665083 0.0002329154 -0.000010475858
0.00069137966 0.00022432639 -0.000010052082
0.00078610849 0.00021573738 -0.0000096283055
0.00088083732 0.00020714837 -0.0000092045292
0.00097556615 0.00019855936 -0.0000087807528
0.001070295 0.00018997034 -0.0000083569765
0.0011650238 0.00018138133 -0.0000079332002
0.0012597526 0.00017279232 -0.0000075094239
0.0013544815 0.00016420331 -0.0000070856476
0.0014492103 0.0001556143 -0.0000066618713
0.0015439391 0.00014702529 -0.000006238095
0.001638668 0.00013843628 -0.0000058143186
0.0017333968 0.00012984727 -0.0000053905423
0.0018281256 0.00012125826 -0.000004966766
0.0019228544 0.00011266925 -0.0000045429897
0.0020175833 0.00010408024 -0.0000041192134
0.0021123121 0.000095491233 -0.0000036954371
0.0022070409 0.000086902223 -0.0000032716608
0.0023017698 0.000078313213 -0.0000028478844
0.0023964986 0.000069724203 -0.0000024241081
0.0024912274 0.000061135192 -0.0000020003318
0.0025859563 0.000052546182 -0.0000015765555
0.0026806851 0.000043957172 -0.0000011527792
0.0027754139 0.000035368162 -7.2900288e-7
0.0028701427 0.000026779152 -3.0522656e-7
-0.00019341578 0.00036195297 -0.000016639282
-0.000098686949 0.00035336396 -0.000016215506
-0.0000039581191 0.00034477495 -0.00001579173
0.000090770711 0.00033618594 -0.000015367953
0.00018549954 0.00032759693 -0.000014944177
0.00028022837 0.00031900792 -0.000014520401
0.0003749572 0.00031041891 -0.000014096624
0.00046968603 0.0003018299 -0.000013672848
0.00056441486 0.00029324089 -0.000013249072
0.00065914369 0.00028465188 -0.000012825296
0.00075387252 0.00027606287 -0.000012401519
0.00084860135 0.00026747386 -0.000011977743
0.00094333018 0.00025888485 -0.000011553967
0.001038059 0.00025029584 -0.00001113019
0.0011327878 0.00024170683 -0.000010706414
0.0012275167 0.00023311782 -0.000010282638
0.0013222455 0.00022452881 -0.0000098588613
0.0014169743 0.0002159398 -0.000009435085
0.0015117032 0.00020735079 -0.0000090113087
0.001606432 0.00019876178 -0.0000085875324
0.0017011608 0.00019017277 -0.0000081637561
0.0017958897 0.00018158376 -0.0000077399797
0.0018906185 0.00017299475 -0.0000073162034
0.0019853473 0.00016440574 -0.0000068924271
0.0020800761 0.00015581673 -0.0000064686508
0.002174805 0.00014722772 -0.0000060448745
0.0022695338 0.00013863871 -0.0000056210982
0.0023642626 0.0001300497 -0.0000051973219
0.0024589915 0.00012146069 -0.0000047735455
0.0025537203 0.00011287168 -0.0000043497692
0.0026484491 0.00010428267 -0.0000039259929
0.002743178 0.000095693657 -0.0000035022166
0.0028379068 0.000087104647 -0.0000030784403
-0.00022565174 0.00042227847 -0.000019412496
-0.00013092291 0.00041368946 -0.00001898872
-0.000036194082 0.00040510045 -0.000018564943
0.000058534748 0.00039651144 -0.000018141167
0.00015326358 0.00038792243 -0.000017717391
0.00024799241 0.00037933342 -0.000017293614
0.00034272124 0.00037074441 -0.000016869838
0.00043745007 0.0003621554 -0.000016446062
0.0005321789 0.00035356639 -0.000016022286
0.00062690773 0.00034497738 -0.000015598509
0.00072163656 0.00033638837 -0.000015174733
0.00081636539 0.00032779936 -0.000014750957
0.00091109422 0.00031921035 -0.00001432718
0.001005823 0.00031062134 -0.000013903404
0.0011005519 0.00030203233 -0.000013479628
0.0011952807 0.00029344332 -0.000013055851
0.0012900095 0.00028485431 -0.000012632075
0.0013847384 0.0002762653 -0.000012208299
0.0014794672 0.00026767628 -0.000011784522
0.001574196 0.00025908727 -0.000011360746
0.0016689249 0.00025049826 -0.00001093697
0.0017636537 0.00024190925 -0.000010513193
0.0018583825 0.00023332024 -0.000010089417
0.0019531114 0.00022473123 -0.0000096656408
0.0020478402 0.00021614222 -0.0000092418645
0.002142569 0.00020755321 -0.0000088180882
0.0022372978 0.0001989642 -0.0000083943119
0.0023320267 0.00019037519 -0.0000079705356
0.0024267555 0.00018178618 -0.0000075467593
0.0025214843 0.00017319717 -0.0000071229829
0.0026162132 0.00016460816 -0.0000066992066
0.002710942 0.00015601915 -0.0000062754303
0.0028056708 0.00014743014 -0.000005851654
-0.00025788771 0.00048260396 -0.00002218571
-0.00016315888 0.00047401495 -0.000021761933
-0.000068430046 0.00046542594 -0.000021338157
0.000026298785 0.00045683693 -0.000020914381
0.00012102761 0.00044824792 -0.000020490605
0.00021575644 0.00043965891 -0.000020066828
0.00031048528 0.0004310699 -0.000019643052
0.00040521411 0.00042248089 -0.000019219276
0.00049994294 0.00041389188 -0.000018795499
0.00059467177 0.00040530287 -0.000018371723
0.0006894006 0.00039671386 -0.000017947947
0.00078412943 0.00038812485 -0.00001752417
0.00087885826 0.00037953584 -0.000017100394
0.00097358709 0.00037094683 -0.000016676618
0.0010683159 0.00036235782 -0.000016252841
0.0011630447 0.00035376881 -0.000015829065
0.0012577736 0.0003451798 -0.000015405289
0.0013525024 0.00033659079 -0.000014981512
0.0014472312 0.00032800178 -0.000014557736
0.0015419601 0.00031941277 -0.00001413396
0.0016366889 0.00031082376 -0.000013710183
0.0017314177 0.00030223475 -0.000013286407
0.0018261466 0.00029364574 -0.000012862631
0.0019208754 0.00028505673 -0.000012438855
0.0020156042 0.00027646772 -0.000012015078
0.002110333 0.00026787871 -0.000011591302
0.0022050619 0.0002592897 -0.000011167526
0.0022997907 0.00025070069 -0.000010743749
0.0023945195 0.00024211168 -0.000010319973
0.0024892484 0.00023352267 -0.0000098961967
0.0025839772 0.00022493366 -0.0000094724204
0.002678706 0.00021634465 -0.000009048644
0.0027734349 0.00020775564 -0.0000086248677
-0.00029012367 0.00054292946 -0.000024958923
-0.00019539484 0.00053434045 -0.000024535147
-0.00010066601 0.00052575144 -0.000024111371
-0.0000059371787 0.00051716243 -0.000023687595
0.000088791651 0.00050857342 -0.000023263818
0.00018352048 0.00049998441 -0.000022840042
0.00027824931 0.0004913954 -0.000022416266
0.00037297814 0.00048280639 -0.000021992489
0.00046770697 0.00047421738 -0.000021568713
0.0005624358 0.00046562837 -0.000021144937
0.00065716463 0.00045703936 -0.00002072116
0.00075189346 0.00044845035 -0.000020297384
0.00084662229 0.00043986134 -0.000019873608
0.00094135112 0.00043127233 -0.000019449831
0.00103608 0.00042268332 -0.000019026055
0.0011308088 0.00041409431 -0.000018602279
0.0012255376 0.0004055053 -0.000018178502
0.0013202664 0.00039691629 -0.000017754726
0.0014149953 0.00038832728 -0.00001733095
0.0015097241 0.00037973827 -0.000016907174
0.0016044529 0.00037114926 -0.000016483397
0.0016991818 0.00036256025 -0.000016059621
0.0017939106 0.00035397124 -0.000015635845
0.0018886394 0.00034538222 -0.000015212068
0.0019833683 0.00033679321 -0.000014788292
0.0020780971 0.0003282042 -0.000014364516
0.0021728259 0.00031961519 -0.000013940739
0.0022675547 0.00031102618 -0.000013516963
0.0023622836 0.00030243717 -0.000013093187
0.0024570124 0.00029384816 -0.00001266941
0.0025517412 0.00028525915 -0.000012245634
0.0026464701 0.00027667014 -0.000011821858
0.0027411989 0.00026808113 -0.000011398081
-0.00032235963 0.00060325495 -0.000027732137
-0.0002276308 0.00059466594 -0.000027308361
-0.00013290197 0.00058607693 -0.000026884585
-0.000038173142 0.00057748792 -0.000026460808
0.000056555688 0.00056889891 -0.000026037032
0.00015128452 0.0005603099 -0.000025613256
0.00024601335 0.00055172089 -0.000025189479
0.00034074218 0.00054313188 -0.000024765703
0.00043547101 0.00053454287 -0.000024341927
0.00053019984 0.00052595386 -0.00002391815
0.00062492867 0.00051736485 -0.000023494374
0.0007196575 0.00050877584 -0.000023070598
0.00081438633 0.00050018683 -0.000022646821
0.00090911516 0.00049159782 -0.000022223045
0.001003844 0.00048300881 -0.000021799269
0.0010985728 0.0004744198 -0.000021375493
0.0011933017 0.00046583079 -0.000020951716
0.0012880305 0.00045724178 -0.00002052794
0.0013827593 0.00044865277 -0.000020104164
0.0014774881 0.00044006376 -0.000019680387
0.001572217 0.00043147475 -0.000019256611
0.0016669458 0.00042288574 -0.000018832835
0.0017616746 0.00041429673 -0.000018409058
0.0018564035 0.00040570772 -0.000017985282
0.0019511323 0.00039711871 -0.000017561506
0.0020458611 0.0003885297 -0.000017137729
0.00214059 0.00037994069 -0.000016713953
0.0022353188 0.00037135168 -0.000016290177
0.0023300476 0.00036276267 -0.0000158664
0.0024247764 0.00035417366 -0.000015442624
0.0025195053 0.00034558465 -0.000015018848
0.0026142341 0.00033699564 -0.000014595071
0.0027089629 0.00032840663 -0.000014171295
-0.0003545956 0.00066358045 -0.000030505351
-0.00025986677 0.00065499144 -0.000030081575
-0.00016513794 0.00064640243 -0.000029657798
-0.000070409105 0.00063781342 -0.000029234022
0.000024319725 0.00062922441 -0.000028810246
0.00011904856 0.0006206354 -0.000028386469
0.00021377739 0.00061204639 -0.000027962693
0.00030850622 0.00060345738 -0.000027538917
0.00040323505 0.00059486837 -0.00002711514
0.00049796388 0.00058627936 -0.000026691364
0.00059269271 0.00057769035 -0.000026267588
0.00068742154 0.00056910134 -0.000025843811
0.00078215037 0.00056051233 -0.000025420035
0.0008768792 0.00055192332 -0.000024996259
0.00097160803 0.00054333431 -0.000024572483
0.0010663369 0.0005347453 -0.000024148706
0.0011610657 0.00052615629 -0.00002372493
0.0012557945 0.00051756728 -0.000023301154
0.0013505233 0.00050897827 -0.000022877377
0.0014452522 0.00050038926 -0.000022453601
0.001539981 0.00049180025 -0.000022029825
0.0016347098 0.00048321124 -0.000021606048
0.0017294387 0.00047462223 -0.000021182272
0.0018241675 0.00046603322 -0.000020758496
0.0019188963 0.00045744421 -0.000020334719
0.0020136252 0.0004488552 -0.000019910943
0.002108354 0.00044026619 -0.000019487167
0.0022030828 0.00043167718 -0.00001906339
0.0022978116 0.00042308816 -0.000018639614
0.0023925405 0.00041449915 -0.000018215838
0.0024872693 0.00040591014 -0.000017792062
0.0025819981 0.00039732113 -0.000017368285
0.002676727 0.00038873212 -0.000016944509
-0.00038683156 0.00072390595 -0.000033278565
-0.00029210273 0.00071531693 -0.000032854788
-0.0001973739 0.00070672792 -0.000032431012
-0.00010264507 0.00069813891 -0.000032007236
-0.0000079162382 0.0006895499 -0.000031583459
0.000086812592 0.00068096089 -0.000031159683
0.00018154142 0.00067237188 -0.000030735907
0.00027627025 0.00066378287 -0.00003031213
0.00037099908 0.00065519386 -0.000029888354
0.00046572791 0.00064660485 -0.000029464578
0.00056045674 0.00063801584 -0.000029040802
0.00065518557 0.00062942683 -0.000028617025
0.0007499144 0.00062083782 -0.000028193249
0.00084464323 0.00061224881 -0.000027769473
0.00093937206 0.0006036598 -0.000027345696
0.0010341009 0.00059507079 -0.00002692192
0.0011288297 0.00058648178 -0.000026498144
0.0012235586 0.00057789277 -0.000026074367
0.0013182874 0.00056930376 -0.000025650591
0.0014130162 0.00056071475 -0.000025226815
0.001507745 0.00055212574 -0.000024803038
0.0016024739 0.00054353673 -0.000024379262
0.0016972027 0.00053494772 -0.000023955486
0.0017919315 0.00052635871 -0.000023531709
0.0018866604 0.0005177697 -0.000023107933
0.0019813892 0.00050918069 -0.000022684157
0.002076118 0.00050059168 -0.00002226038
0.0021708469 0.00049200267 -0.000021836604
0.0022655757 0.00048341366 -0.000021412828
0.0023603045 0.00047482465 -0.000020989052
0.0024550333 0.00046623564 -0.000020565275
0.0025497622 0.00045764663 -0.000020141499
0.002644491 0.00044905762 -0.000019717723
-0.00041906752 0.00078423144 -0.000036051778
-0.00032433869 0.00077564243 -0.000035628002
-0.00022960986 0.00076705342 -0.000035204226
-0.00013488103 0.00075846441 -0.000034780449
-0.000040152201 0.0007498754 -0.000034356673
0.000054576629 0.00074128639 -0.000033932897
0.00014930546 0.00073269738 -0.00003350912
0.00024403429 0.00072410837 -0.000033085344
0.00033876312 0.00071551936 -0.000032661568
0.00043349195 0.00070693035 -0.000032237792
0.00052822078 0.00069834134 -0.000031814015
0.00062294961 0.00068975233 -0.000031390239
0.00071767844 0.00068116332 -0.000030966463
0.00081240727 0.00067257431 -0.000030542686
0.0009071361 0.0006639853 -0.00003011891
0.0010018649 0.00065539629 -0.000029695134
0.0010965938 0.00064680728 -0.000029271357
0.0011913226 0.00063821827 -0.000028847581
0.0012860514 0.00062962926 -0.000028423805
0.0013807803 0.00062104025 -0.000028000028
0.0014755091 0.00061245124 -0.000027576252
0.0015702379 0.00060386223 -0.000027152476
0.0016649667 0.00059527322 -0.000026728699
0.0017596956 0.00058668421 -0.000026304923
0.0018544244 0.0005780952 -0.000025881147
0.0019491532 0.00056950619 -0.000025457371
0.0020438821 0.00056091718 -0.000025033594
0.0021386109 0.00055232817 -0.000024609818
0.0022333397 0.00054373916 -0.000024186042
0.0023280686 0.00053515015 -0.000023762265
0.0024227974 0.00052656114 -0.000023338489
0.0025175262 0.00051797213 -0.000022914713
0.002612255 0.00050938312 -0.000022490936
-0.00045130349 0.00084455694 -0.000038824992
-0.00035657466 0.00083596793 -0.000038401216
-0.00026184583 0.00082737892 -0.000037977439
-0.00016711699 0.00081878991 -0.000037553663
-0.000072388165 0.0008102009 -0.000037129887
0.000022340665 0.00080161189 -0.000036706111
0.0001170695 0.00079302287 -0.000036282334
0.00021179833 0.00078443386 -0.000035858558
0.00030652716 0.00077584485 -0.000035434782
0.00040125599 0.00076725584 -0.000035011005
0.00049598482 0.00075866683 -0.000034587229
0.00059071365 0.00075007782 -0.000034163453
0.00068544248 0.00074148881 -0.000033739676
0.00078017131 0.0007328998 -0.0000333159
0.00087490014 0.00072431079 -0.000032892124
0.00096962897 0.00071572178 -0.000032468347
0.0010643578 0.00070713277 -0.000032044571
0.0011590866 0.00069854376 -0.000031620795
0.0012538155 0.00068995475 -0.000031197018
0.0013485443 0.00068136574 -0.000030773242
0.0014432731 0.00067277673 -0.000030349466
0.0015380019 0.00066418772 -0.00002992569
0.0016327308 0.00065559871 -0.000029501913
0.0017274596 0.0006470097 -0.000029078137
0.0018221884 0.00063842069 -0.000028654361
0.0019169173 0.00062983168 -0.000028230584
0.0020116461 0.00062124267 -0.000027806808
0.0021063749 0.00061265366 -0.000027383032
0.0022011038 0.00060406465 -0.000026959255
0.0022958326 0.00059547564 -0.000026535479
0.0023905614 0.00058688663 -0.000026111703
0.0024852902 0.00057829762 -0.000025687926
0.0025800191 0.00056970861 -0.00002526415
-0.00048353945 0.00090488243 -0.000041598206
-0.00038881062 0.00089629342 -0.00004117443
-0.00029408179 0.00088770441 -0.000040750653
-0.00019935296 0.0008791154 -0.000040326877
-0.00010462413 0.00087052639 -0.000039903101
-0.0000098952978 0.00086193738 -0.000039479324
0.000084833532 0.00085334837 -0.000039055548
0.00017956236 0.00084475936 -0.000038631772
0.00027429119 0.00083617035 -0.000038207995
0.00036902002 0.00082758134 -0.000037784219
0.00046374885 0.00081899233 -0.000037360443
