site/assets/luts/ocio-aces--redinputlinear-redwidegamutrgb-to-aces2065-1--c238aa9d4.cube
# LUTr-Project: LUTr — LUTrepository
# LUTr-Schema-Version: 1
# LUTr-ID: ocio-aces--redinputlinear-redwidegamutrgb-to-aces2065-1--c238aa9d4
# LUTr-Title: RED.Input.Linear REDWideGamutRGB to ACES2065-1
# LUTr-Collection: OCIO ACES
# LUTr-Collection-ID: aswf-opencolorio-config-aces
# LUTr-Source: https://github.com/AcademySoftwareFoundation/OpenColorIO-Config-ACES
# LUTr-Source-File: submissions/aswf-opencolorio-config-aces/opencolorio_config_aces/clf/transforms/red/input/RED.Input.Linear_REDWideGamutRGB_to_ACES2065-1.clf
# LUTr-Source-Format: CLF
# LUTr-Source-SHA256: 785d8b60da3c8f2b367f51a64f11d71cad2547cdf059e40e8dae810d44648970
# LUTr-License: BSD-3-Clause
# LUTr-License-URL: https://github.com/AcademySoftwareFoundation/OpenColorIO-Config-ACES/blob/main/LICENSE
# LUTr-Tags: technical, aces, ocio, clf, color-management, cube
# LUTr-Transform-Class: color-space-conversion
# LUTr-Input-Color-Space: Linear REDWideGamutRGB
# LUTr-Output-Color-Space: ACES2065-1
# LUTr-Color-Space-Confidence: descriptor-only
# LUTr-Conversion-Method: CLF operations evaluated as float and sampled to 33x33x33 3D CUBE
# LUTr-Conversion-Date: 2026-07-27
# LUTr-Conversion-Tool: LUTr scripts/convert-all-to-cube.mjs
# LUTr-Conversion-Grid: 33x33x33
# LUTr-Conversion-Warning: A sampled 3D CUBE is bounded to DOMAIN_MIN/MAX 0..1 and cannot preserve CLF values outside its input domain.
# LUTr-Upstream-ID: urn:aswf:ocio:transformId:1.0:RED:Input:Linear_REDWideGamutRGB_to_ACES2065-1:1.0
# LUTr-Upstream-Name: Linear REDWideGamutRGB to ACES2065-1
# LUTr-Upstream-Input-Descriptor: Linear REDWideGamutRGB
# LUTr-Upstream-Output-Descriptor: ACES2065-1
# LUTr-Upstream-Operations: Matrix
# LUTr-Note: Preserve this metadata and the upstream license notices when redistributing.
TITLE "RED.Input.Linear REDWideGamutRGB to ACES2065-1"
LUT_3D_SIZE 33
DOMAIN_MIN 0 0 0
DOMAIN_MAX 1 1 1
0 0 0
0.024533088 0.00072418234 -0.0023050136
0.049066175 0.0014483647 -0.0046100272
0.073599263 0.002172547 -0.0069150408
0.098132351 0.0028967294 -0.0092200544
0.12266544 0.0036209117 -0.011525068
0.14719853 0.004345094 -0.013830082
0.17173161 0.0050692764 -0.016135095
0.1962647 0.0057934587 -0.018440109
0.22079779 0.0065176411 -0.020745122
0.24533088 0.0072418234 -0.023050136
0.26986396 0.0079660057 -0.02535515
0.29439705 0.0086901881 -0.027660163
0.31893014 0.0094143704 -0.029965177
0.34346323 0.010138553 -0.03227019
0.36799631 0.010862735 -0.034575204
0.3925294 0.011586917 -0.036880218
0.41706249 0.0123111 -0.039185231
0.44159558 0.013035282 -0.041490245
0.46612866 0.013759464 -0.043795258
0.49066175 0.014483647 -0.046100272
0.51519484 0.015207829 -0.048405286
0.53972793 0.015932011 -0.050710299
0.56426102 0.016656194 -0.053015313
0.5887941 0.017380376 -0.055320327
0.61332719 0.018104558 -0.05762534
0.63786028 0.018828741 -0.059930354
0.66239337 0.019552923 -0.062235367
0.68692645 0.020277105 -0.064540381
0.71145954 0.021001288 -0.066845395
0.73599263 0.02172547 -0.069150408
0.76052572 0.022449653 -0.071455422
0.7850588 0.023173835 -0.073760435
0.0026205861 0.033996798 -0.0098309398
0.027153674 0.034720981 -0.012135953
0.051686761 0.035445163 -0.014440967
0.076219849 0.036169345 -0.016745981
0.10075294 0.036893528 -0.019050994
0.12528602 0.03761771 -0.021356008
0.14981911 0.038341892 -0.023661021
0.1743522 0.039066075 -0.025966035
0.19888529 0.039790257 -0.028271049
0.22341837 0.040514439 -0.030576062
0.24795146 0.041238622 -0.032881076
0.27248455 0.041962804 -0.035186089
0.29701764 0.042686986 -0.037491103
0.32155073 0.043411169 -0.039796117
0.34608381 0.044135351 -0.04210113
0.3706169 0.044859533 -0.044406144
0.39514999 0.045583716 -0.046711157
0.41968308 0.046307898 -0.049016171
0.44421616 0.047032081 -0.051321185
0.46874925 0.047756263 -0.053626198
0.49328234 0.048480445 -0.055931212
0.51781543 0.049204628 -0.058236225
0.54234851 0.04992881 -0.060541239
0.5668816 0.050652992 -0.062846253
0.59141469 0.051377175 -0.065151266
0.61594778 0.052101357 -0.06745628
0.64048086 0.052825539 -0.069761293
0.66501395 0.053549722 -0.072066307
0.68954704 0.054273904 -0.074371321
0.71408013 0.054998086 -0.076676334
0.73861321 0.055722269 -0.078981348
0.7631463 0.056446451 -0.081286362
0.78767939 0.057170633 -0.083591375
0.0052411723 0.067993597 -0.01966188
0.02977426 0.068717779 -0.021966893
0.054307348 0.069441962 -0.024271907
0.078840435 0.070166144 -0.02657692
0.10337352 0.070890326 -0.028881934
0.12790661 0.071614509 -0.031186948
0.1524397 0.072338691 -0.033491961
0.17697279 0.073062873 -0.035796975
0.20150587 0.073787056 -0.038101988
0.22603896 0.074511238 -0.040407002
0.25057205 0.07523542 -0.042712016
0.27510514 0.075959603 -0.045017029
0.29963822 0.076683785 -0.047322043
0.32417131 0.077407967 -0.049627056
0.3487044 0.07813215 -0.05193207
0.37323749 0.078856332 -0.054237084
0.39777057 0.079580514 -0.056542097
0.42230366 0.080304697 -0.058847111
0.44683675 0.081028879 -0.061152124
0.47136984 0.081753061 -0.063457138
0.49590292 0.082477244 -0.065762152
0.52043601 0.083201426 -0.068067165
0.5449691 0.083925608 -0.070372179
0.56950219 0.084649791 -0.072677192
0.59403528 0.085373973 -0.074982206
0.61856836 0.086098155 -0.07728722
0.64310145 0.086822338 -0.079592233
0.66763454 0.08754652 -0.081897247
0.69216763 0.088270702 -0.08420226
0.71670071 0.088994885 -0.086507274
0.7412338 0.089719067 -0.088812288
0.76576689 0.090443249 -0.091117301
0.79029998 0.091167432 -0.093422315
0.0078617584 0.1019904 -0.029492819
0.032394846 0.10271458 -0.031797833
0.056927934 0.10343876 -0.034102846
0.081461021 0.10416294 -0.03640786
0.10599411 0.10488712 -0.038712874
0.1305272 0.10561131 -0.041017887
0.15506028 0.10633549 -0.043322901
0.17959337 0.10705967 -0.045627915
0.20412646 0.10778385 -0.047932928
0.22865955 0.10850804 -0.050237942
0.25319263 0.10923222 -0.052542955
0.27772572 0.1099564 -0.054847969
0.30225881 0.11068058 -0.057152983
0.3267919 0.11140477 -0.059457996
0.35132499 0.11212895 -0.06176301
0.37585807 0.11285313 -0.064068023
0.40039116 0.11357731 -0.066373037
0.42492425 0.11430149 -0.068678051
0.44945734 0.11502568 -0.070983064
0.47399042 0.11574986 -0.073288078
0.49852351 0.11647404 -0.075593091
0.5230566 0.11719822 -0.077898105
0.54758969 0.11792241 -0.080203119
0.57212277 0.11864659 -0.082508132
0.59665586 0.11937077 -0.084813146
0.62118895 0.12009495 -0.087118159
0.64572204 0.12081914 -0.089423173
0.67025512 0.12154332 -0.091728187
0.69478821 0.1222675 -0.0940332
0.7193213 0.12299168 -0.096338214
0.74385439 0.12371587 -0.098643227
0.76838747 0.12444005 -0.10094824
0.79292056 0.12516423 -0.10325325
0.010482345 0.13598719 -0.039323759
0.035015432 0.13671138 -0.041628773
0.05954852 0.13743556 -0.043933786
0.084081607 0.13815974 -0.0462388
0.1086147 0.13888392 -0.048543813
0.13314778 0.13960811 -0.050848827
0.15768087 0.14033229 -0.053153841
0.18221396 0.14105647 -0.055458854
0.20674705 0.14178065 -0.057763868
0.23128013 0.14250483 -0.060068881
0.25581322 0.14322902 -0.062373895
0.28034631 0.1439532 -0.064678909
0.3048794 0.14467738 -0.066983922
0.32941248 0.14540156 -0.069288936
0.35394557 0.14612575 -0.07159395
0.37847866 0.14684993 -0.073898963
0.40301175 0.14757411 -0.076203977
0.42754483 0.14829829 -0.07850899
0.45207792 0.14902248 -0.080814004
0.47661101 0.14974666 -0.083119018
0.5011441 0.15047084 -0.085424031
0.52567718 0.15119502 -0.087729045
0.55021027 0.15191921 -0.090034058
0.57474336 0.15264339 -0.092339072
0.59927645 0.15336757 -0.094644086
0.62380954 0.15409175 -0.096949099
0.64834262 0.15481593 -0.099254113
0.67287571 0.15554012 -0.10155913
0.6974088 0.1562643 -0.10386414
0.72194189 0.15698848 -0.10616915
0.74647497 0.15771266 -0.10847417
0.77100806 0.15843685 -0.11077918
0.79554115 0.15916103 -0.11308419
0.013102931 0.16998399 -0.049154699
0.037636018 0.17070817 -0.051459712
0.062169106 0.17143236 -0.053764726
0.086702194 0.17215654 -0.05606974
0.11123528 0.17288072 -0.058374753
0.13576837 0.1736049 -0.060679767
0.16030146 0.17432909 -0.06298478
0.18483454 0.17505327 -0.065289794
0.20936763 0.17577745 -0.067594808
0.23390072 0.17650163 -0.069899821
0.25843381 0.17722582 -0.072204835
0.28296689 0.17795 -0.074509848
0.30749998 0.17867418 -0.076814862
0.33203307 0.17939836 -0.079119876
0.35656616 0.18012254 -0.081424889
0.38109925 0.18084673 -0.083729903
0.40563233 0.18157091 -0.086034916
0.43016542 0.18229509 -0.08833993
0.45469851 0.18301927 -0.090644944
0.4792316 0.18374346 -0.092949957
0.50376468 0.18446764 -0.095254971
0.52829777 0.18519182 -0.097559985
0.55283086 0.185916 -0.099864998
0.57736395 0.18664019 -0.10217001
0.60189703 0.18736437 -0.10447503
0.62643012 0.18808855 -0.10678004
0.65096321 0.18881273 -0.10908505
0.6754963 0.18953692 -0.11139007
0.70002938 0.1902611 -0.11369508
0.72456247 0.19098528 -0.11600009
0.74909556 0.19170946 -0.11830511
0.77362865 0.19243364 -0.12061012
0.79816173 0.19315783 -0.12291513
0.015723517 0.20398079 -0.058985639
0.040256604 0.20470497 -0.061290652
0.064789692 0.20542916 -0.063595666
0.08932278 0.20615334 -0.065900679
0.11385587 0.20687752 -0.068205693
0.13838895 0.2076017 -0.070510707
0.16292204 0.20832588 -0.07281572
0.18745513 0.20905007 -0.075120734
0.21198822 0.20977425 -0.077425747
0.23652131 0.21049843 -0.079730761
0.26105439 0.21122261 -0.082035775
0.28558748 0.2119468 -0.084340788
0.31012057 0.21267098 -0.086645802
0.33465366 0.21339516 -0.088950815
0.35918674 0.21411934 -0.091255829
0.38371983 0.21484353 -0.093560843
0.40825292 0.21556771 -0.095865856
0.43278601 0.21629189 -0.09817087
0.45731909 0.21701607 -0.10047588
0.48185218 0.21774025 -0.1027809
0.50638527 0.21846444 -0.10508591
0.53091836 0.21918862 -0.10739092
0.55545144 0.2199128 -0.10969594
0.57998453 0.22063698 -0.11200095
0.60451762 0.22136117 -0.11430597
0.62905071 0.22208535 -0.11661098
0.6535838 0.22280953 -0.11891599
0.67811688 0.22353371 -0.12122101
0.70264997 0.2242579 -0.12352602
0.72718306 0.22498208 -0.12583103
0.75171615 0.22570626 -0.12813605
0.77624923 0.22643044 -0.13044106
0.80078232 0.22715463 -0.13274607
0.018344103 0.23797759 -0.068816578
0.042877191 0.23870177 -0.071121592
0.067410278 0.23942595 -0.073426606
0.091943366 0.24015014 -0.075731619
0.11647645 0.24087432 -0.078036633
0.14100954 0.2415985 -0.080341646
0.16554263 0.24232268 -0.08264666
0.19007572 0.24304687 -0.084951674
0.2146088 0.24377105 -0.087256687
0.23914189 0.24449523 -0.089561701
0.26367498 0.24521941 -0.091866714
0.28820807 0.24594359 -0.094171728
0.31274115 0.24666778 -0.096476742
0.33727424 0.24739196 -0.098781755
0.36180733 0.24811614 -0.10108677
0.38634042 0.24884032 -0.10339178
0.41087351 0.24956451 -0.1056968
0.43540659 0.25028869 -0.10800181
0.45993968 0.25101287 -0.11030682
0.48447277 0.25173705 -0.11261184
0.50900586 0.25246124 -0.11491685
0.53353894 0.25318542 -0.11722186
0.55807203 0.2539096 -0.11952688
0.58260512 0.25463378 -0.12183189
0.60713821 0.25535797 -0.1241369
0.63167129 0.25608215 -0.12644192
0.65620438 0.25680633 -0.12874693
0.68073747 0.25753051 -0.13105195
0.70527056 0.25825469 -0.13335696
0.72980364 0.25897888 -0.13566197
0.75433673 0.25970306 -0.13796699
0.77886982 0.26042724 -0.140272
0.80340291 0.26115142 -0.14257701
0.020964689 0.27197439 -0.078647518
0.045497777 0.27269857 -0.080952532
0.070030864 0.27342275 -0.083257545
0.094563952 0.27414693 -0.085562559
0.11909704 0.27487112 -0.087867572
0.14363013 0.2755953 -0.090172586
0.16816321 0.27631948 -0.0924776
0.1926963 0.27704366 -0.094782613
0.21722939 0.27776785 -0.097087627
0.24176248 0.27849203 -0.099392641
0.26629557 0.27921621 -0.10169765
0.29082865 0.27994039 -0.10400267
0.31536174 0.28066458 -0.10630768
0.33989483 0.28138876 -0.10861269
0.36442792 0.28211294 -0.11091771
0.388961 0.28283712 -0.11322272
0.41349409 0.2835613 -0.11552774
0.43802718 0.28428549 -0.11783275
0.46256027 0.28500967 -0.12013776
0.48709335 0.28573385 -0.12244278
0.51162644 0.28645803 -0.12474779
0.53615953 0.28718222 -0.1270528
0.56069262 0.2879064 -0.12935782
0.5852257 0.28863058 -0.13166283
0.60975879 0.28935476 -0.13396784
0.63429188 0.29007895 -0.13627286
0.65882497 0.29080313 -0.13857787
0.68335806 0.29152731 -0.14088289
0.70789114 0.29225149 -0.1431879
0.73242423 0.29297568 -0.14549291
0.75695732 0.29369986 -0.14779793
0.78149041 0.29442404 -0.15010294
0.80602349 0.29514822 -0.15240795
0.023585275 0.30597119 -0.088478458
0.048118363 0.30669537 -0.090783471
0.072651451 0.30741955 -0.093088485
0.097184538 0.30814373 -0.095393499
0.12171763 0.30886792 -0.097698512
0.14625071 0.3095921 -0.10000353
0.1707838 0.31031628 -0.10230854
0.19531689 0.31104046 -0.10461355
0.21984998 0.31176464 -0.10691857
0.24438306 0.31248883 -0.10922358
0.26891615 0.31321301 -0.11152859
0.29344924 0.31393719 -0.11383361
0.31798233 0.31466137 -0.11613862
0.34251541 0.31538556 -0.11844363
0.3670485 0.31610974 -0.12074865
0.39158159 0.31683392 -0.12305366
0.41611468 0.3175581 -0.12535868
0.44064776 0.31828229 -0.12766369
0.46518085 0.31900647 -0.1299687
0.48971394 0.31973065 -0.13227372
0.51424703 0.32045483 -0.13457873
0.53878012 0.32117901 -0.13688374
0.5633132 0.3219032 -0.13918876
0.58784629 0.32262738 -0.14149377
0.61237938 0.32335156 -0.14379878
0.63691247 0.32407574 -0.1461038
0.66144555 0.32479993 -0.14840881
0.68597864 0.32552411 -0.15071383
0.71051173 0.32624829 -0.15301884
0.73504482 0.32697247 -0.15532385
0.7595779 0.32769666 -0.15762887
0.78411099 0.32842084 -0.15993388
0.80864408 0.32914502 -0.16223889
0.026205861 0.33996798 -0.098309398
0.050738949 0.34069217 -0.10061441
0.075272037 0.34141635 -0.10291942
0.099805124 0.34214053 -0.10522444
0.12433821 0.34286471 -0.10752945
0.1488713 0.3435889 -0.10983447
0.17340439 0.34431308 -0.11213948
0.19793747 0.34503726 -0.11444449
0.22247056 0.34576144 -0.11674951
0.24700365 0.34648563 -0.11905452
0.27153674 0.34720981 -0.12135953
0.29606983 0.34793399 -0.12366455
0.32060291 0.34865817 -0.12596956
0.345136 0.34938235 -0.12827457
0.36966909 0.35010654 -0.13057959
0.39420218 0.35083072 -0.1328846
0.41873526 0.3515549 -0.13518962
0.44326835 0.35227908 -0.13749463
0.46780144 0.35300327 -0.13979964
0.49233453 0.35372745 -0.14210466
0.51686761 0.35445163 -0.14440967
0.5414007 0.35517581 -0.14671468
0.56593379 0.3559 -0.1490197
0.59046688 0.35662418 -0.15132471
0.61499996 0.35734836 -0.15362972
0.63953305 0.35807254 -0.15593474
0.66406614 0.35879672 -0.15823975
0.68859923 0.35952091 -0.16054476
0.71313231 0.36024509 -0.16284978
0.7376654 0.36096927 -0.16515479
0.76219849 0.36169345 -0.16745981
0.78673158 0.36241764 -0.16976482
0.81126467 0.36314182 -0.17206983
0.028826448 0.37396478 -0.10814034
0.053359535 0.37468896 -0.11044535
0.077892623 0.37541315 -0.11275036
0.10242571 0.37613733 -0.11505538
0.1269588 0.37686151 -0.11736039
0.15149189 0.37758569 -0.11966541
0.17602497 0.37830988 -0.12197042
0.20055806 0.37903406 -0.12427543
0.22509115 0.37975824 -0.12658045
0.24962424 0.38048242 -0.12888546
0.27415732 0.38120661 -0.13119047
0.29869041 0.38193079 -0.13349549
0.3232235 0.38265497 -0.1358005
0.34775659 0.38337915 -0.13810551
0.37228967 0.38410334 -0.14041053
0.39682276 0.38482752 -0.14271554
0.42135585 0.3855517 -0.14502056
0.44588894 0.38627588 -0.14732557
0.47042202 0.38700006 -0.14963058
0.49495511 0.38772425 -0.1519356
0.5194882 0.38844843 -0.15424061
0.54402129 0.38917261 -0.15654562
0.56855438 0.38989679 -0.15885064
0.59308746 0.39062098 -0.16115565
0.61762055 0.39134516 -0.16346066
0.64215364 0.39206934 -0.16576568
0.66668673 0.39279352 -0.16807069
0.69121981 0.39351771 -0.1703757
0.7157529 0.39424189 -0.17268072
0.74028599 0.39496607 -0.17498573
0.76481908 0.39569025 -0.17729075
0.78935216 0.39641444 -0.17959576
0.81388525 0.39713862 -0.18190077
0.031447034 0.40796158 -0.11797128
0.055980121 0.40868576 -0.12027629
0.080513209 0.40940995 -0.1225813
0.1050463 0.41013413 -0.12488632
0.12957938 0.41085831 -0.12719133
0.15411247 0.41158249 -0.12949635
0.17864556 0.41230667 -0.13180136
0.20317865 0.41303086 -0.13410637
0.22771173 0.41375504 -0.13641139
0.25224482 0.41447922 -0.1387164
0.27677791 0.4152034 -0.14102141
0.301311 0.41592759 -0.14332643
0.32584409 0.41665177 -0.14563144
0.35037717 0.41737595 -0.14793645
0.37491026 0.41810013 -0.15024147
0.39944335 0.41882432 -0.15254648
0.42397644 0.4195485 -0.15485149
0.44850952 0.42027268 -0.15715651
0.47304261 0.42099686 -0.15946152
0.4975757 0.42172105 -0.16176654
0.52210879 0.42244523 -0.16407155
0.54664187 0.42316941 -0.16637656
0.57117496 0.42389359 -0.16868158
0.59570805 0.42461777 -0.17098659
0.62024114 0.42534196 -0.1732916
0.64477422 0.42606614 -0.17559662
0.66930731 0.42679032 -0.17790163
0.6938404 0.4275145 -0.18020664
0.71837349 0.42823869 -0.18251166
0.74290657 0.42896287 -0.18481667
0.76743966 0.42968705 -0.18712169
0.79197275 0.43041123 -0.1894267
0.81650584 0.43113542 -0.19173171
0.03406762 0.44195838 -0.12780222
0.058600707 0.44268256 -0.13010723
0.083133795 0.44340674 -0.13241224
0.10766688 0.44413093 -0.13471726
0.13219997 0.44485511 -0.13702227
0.15673306 0.44557929 -0.13932728
0.18126615 0.44630347 -0.1416323
0.20579923 0.44702766 -0.14393731
0.23033232 0.44775184 -0.14624233
0.25486541 0.44847602 -0.14854734
0.2793985 0.4492002 -0.15085235
0.30393158 0.44992439 -0.15315737
0.32846467 0.45064857 -0.15546238
0.35299776 0.45137275 -0.15776739
0.37753085 0.45209693 -0.16007241
0.40206393 0.45282111 -0.16237742
0.42659702 0.4535453 -0.16468243
0.45113011 0.45426948 -0.16698745
0.4756632 0.45499366 -0.16929246
0.50019628 0.45571784 -0.17159748
0.52472937 0.45644203 -0.17390249
0.54926246 0.45716621 -0.1762075
0.57379555 0.45789039 -0.17851252
0.59832864 0.45861457 -0.18081753
0.62286172 0.45933876 -0.18312254
0.64739481 0.46006294 -0.18542756
0.6719279 0.46078712 -0.18773257
0.69646099 0.4615113 -0.19003758
0.72099407 0.46223548 -0.1923426
0.74552716 0.46295967 -0.19464761
0.77006025 0.46368385 -0.19695263
0.79459334 0.46440803 -0.19925764
0.81912642 0.46513221 -0.20156265
0.036688206 0.47595518 -0.13763316
0.061221294 0.47667936 -0.13993817
0.085754381 0.47740354 -0.14224318
0.11028747 0.47812772 -0.1445482
0.13482056 0.47885191 -0.14685321
0.15935364 0.47957609 -0.14915822
0.18388673 0.48030027 -0.15146324
0.20841982 0.48102445 -0.15376825
0.23295291 0.48174864 -0.15607327
0.25748599 0.48247282 -0.15837828
0.28201908 0.483197 -0.16068329
0.30655217 0.48392118 -0.16298831
0.33108526 0.48464537 -0.16529332
0.35561835 0.48536955 -0.16759833
0.38015143 0.48609373 -0.16990335
0.40468452 0.48681791 -0.17220836
0.42921761 0.4875421 -0.17451337
0.4537507 0.48826628 -0.17681839
0.47828378 0.48899046 -0.1791234
0.50281687 0.48971464 -0.18142842
0.52734996 0.49043882 -0.18373343
0.55188305 0.49116301 -0.18603844
0.57641613 0.49188719 -0.18834346
0.60094922 0.49261137 -0.19064847
0.62548231 0.49333555 -0.19295348
0.6500154 0.49405974 -0.1952585
0.67454848 0.49478392 -0.19756351
0.69908157 0.4955081 -0.19986852
0.72361466 0.49623228 -0.20217354
0.74814775 0.49695647 -0.20447855
0.77268083 0.49768065 -0.20678356
0.79721392 0.49840483 -0.20908858
0.82174701 0.49912901 -0.21139359
0.039308792 0.50995198 -0.1474641
0.06384188 0.51067616 -0.14976911
0.088374967 0.51140034 -0.15207412
0.11290806 0.51212452 -0.15437914
0.13744114 0.51284871 -0.15668415
0.16197423 0.51357289 -0.15898916
0.18650732 0.51429707 -0.16129418
0.21104041 0.51502125 -0.16359919
0.23557349 0.51574543 -0.16590421
0.26010658 0.51646962 -0.16820922
0.28463967 0.5171938 -0.17051423
0.30917276 0.51791798 -0.17281925
0.33370584 0.51864216 -0.17512426
0.35823893 0.51936635 -0.17742927
0.38277202 0.52009053 -0.17973429
0.40730511 0.52081471 -0.1820393
0.43183819 0.52153889 -0.18434431
0.45637128 0.52226308 -0.18664933
0.48090437 0.52298726 -0.18895434
0.50543746 0.52371144 -0.19125935
0.52997054 0.52443562 -0.19356437
0.55450363 0.52515981 -0.19586938
0.57903672 0.52588399 -0.1981744
0.60356981 0.52660817 -0.20047941
0.6281029 0.52733235 -0.20278442
0.65263598 0.52805653 -0.20508944
0.67716907 0.52878072 -0.20739445
0.70170216 0.5295049 -0.20969946
0.72623525 0.53022908 -0.21200448
0.75076833 0.53095326 -0.21430949
0.77530142 0.53167745 -0.2166145
0.79983451 0.53240163 -0.21891952
0.8243676 0.53312581 -0.22122453
0.041929378 0.54394877 -0.15729504
0.066462466 0.54467296 -0.15960005
0.090995554 0.54539714 -0.16190506
0.11552864 0.54612132 -0.16421008
0.14006173 0.5468455 -0.16651509
0.16459482 0.54756969 -0.1688201
0.1891279 0.54829387 -0.17112512
0.21366099 0.54901805 -0.17343013
0.23819408 0.54974223 -0.17573514
0.26272717 0.55046642 -0.17804016
0.28726025 0.5511906 -0.18034517
0.31179334 0.55191478 -0.18265019
0.33632643 0.55263896 -0.1849552
0.36085952 0.55336315 -0.18726021
0.38539261 0.55408733 -0.18956523
0.40992569 0.55481151 -0.19187024
0.43445878 0.55553569 -0.19417525
0.45899187 0.55625987 -0.19648027
0.48352496 0.55698406 -0.19878528
0.50805804 0.55770824 -0.20109029
0.53259113 0.55843242 -0.20339531
0.55712422 0.5591566 -0.20570032
0.58165731 0.55988079 -0.20800534
0.60619039 0.56060497 -0.21031035
0.63072348 0.56132915 -0.21261536
0.65525657 0.56205333 -0.21492038
0.67978966 0.56277752 -0.21722539
0.70432274 0.5635017 -0.2195304
0.72885583 0.56422588 -0.22183542
0.75338892 0.56495006 -0.22414043
0.77792201 0.56567424 -0.22644544
0.80245509 0.56639843 -0.22875046
0.82698818 0.56712261 -0.23105547
0.044549964 0.57794557 -0.16712598
0.069083052 0.57866976 -0.16943099
0.09361614 0.57939394 -0.171736
0.11814923 0.58011812 -0.17404102
0.14268231 0.5808423 -0.17634603
0.1672154 0.58156648 -0.17865104
0.19174849 0.58229067 -0.18095606
0.21628158 0.58301485 -0.18326107
0.24081467 0.58373903 -0.18556608
0.26534775 0.58446321 -0.1878711
0.28988084 0.5851874 -0.19017611
0.31441393 0.58591158 -0.19248113
0.33894702 0.58663576 -0.19478614
0.3634801 0.58735994 -0.19709115
0.38801319 0.58808413 -0.19939617
0.41254628 0.58880831 -0.20170118
0.43707937 0.58953249 -0.20400619
0.46161245 0.59025667 -0.20631121
0.48614554 0.59098086 -0.20861622
0.51067863 0.59170504 -0.21092123
0.53521172 0.59242922 -0.21322625
0.5597448 0.5931534 -0.21553126
0.58427789 0.59387758 -0.21783628
0.60881098 0.59460177 -0.22014129
0.63334407 0.59532595 -0.2224463
0.65787716 0.59605013 -0.22475132
0.68241024 0.59677431 -0.22705633
0.70694333 0.5974985 -0.22936134
0.73147642 0.59822268 -0.23166636
0.75600951 0.59894686 -0.23397137
0.78054259 0.59967104 -0.23627638
0.80507568 0.60039523 -0.2385814
0.82960877 0.60111941 -0.24088641
0.047170551 0.61194237 -0.17695692
0.071703638 0.61266655 -0.17926193
0.096236726 0.61339074 -0.18156694
0.12076981 0.61411492 -0.18387196
0.1453029 0.6148391 -0.18617697
0.16983599 0.61556328 -0.18848198
0.19436908 0.61628747 -0.190787
0.21890216 0.61701165 -0.19309201
0.24343525 0.61773583 -0.19539702
0.26796834 0.61846001 -0.19770204
0.29250143 0.61918419 -0.20000705
0.31703451 0.61990838 -0.20231207
0.3415676 0.62063256 -0.20461708
0.36610069 0.62135674 -0.20692209
0.39063378 0.62208092 -0.20922711
0.41516686 0.62280511 -0.21153212
0.43969995 0.62352929 -0.21383713
0.46423304 0.62425347 -0.21614215
0.48876613 0.62497765 -0.21844716
0.51329922 0.62570184 -0.22075217
0.5378323 0.62642602 -0.22305719
0.56236539 0.6271502 -0.2253622
0.58689848 0.62787438 -0.22766721
0.61143157 0.62859857 -0.22997223
0.63596465 0.62932275 -0.23227724
0.66049774 0.63004693 -0.23458226
0.68503083 0.63077111 -0.23688727
0.70956392 0.63149529 -0.23919228
0.734097 0.63221948 -0.2414973
0.75863009 0.63294366 -0.24380231
0.78316318 0.63366784 -0.24610732
0.80769627 0.63439202 -0.24841234
0.83222935 0.63511621 -0.25071735
0.049791137 0.64593917 -0.18678786
0.074324224 0.64666335 -0.18909287
0.098857312 0.64738753 -0.19139788
0.1233904 0.64811172 -0.1937029
0.14792349 0.6488359 -0.19600791
0.17245657 0.64956008 -0.19831292
0.19698966 0.65028426 -0.20061794
0.22152275 0.65100845 -0.20292295
0.24605584 0.65173263 -0.20522796
0.27058893 0.65245681 -0.20753298
0.29512201 0.65318099 -0.20983799
0.3196551 0.65390518 -0.21214301
0.34418819 0.65462936 -0.21444802
0.36872128 0.65535354 -0.21675303
0.39325436 0.65607772 -0.21905805
0.41778745 0.6568019 -0.22136306
0.44232054 0.65752609 -0.22366807
0.46685363 0.65825027 -0.22597309
