site/assets/luts/ocio-aces--panasonicinputlinear-vgamut-to-aces2065-1--3250fc7ee.cube
# LUTr-Project: LUTr — LUTrepository
# LUTr-Schema-Version: 1
# LUTr-ID: ocio-aces--panasonicinputlinear-vgamut-to-aces2065-1--3250fc7ee
# LUTr-Title: Panasonic.Input.Linear VGamut to ACES2065-1
# LUTr-Collection: OCIO ACES
# LUTr-Collection-ID: aswf-opencolorio-config-aces
# LUTr-Source: https://github.com/AcademySoftwareFoundation/OpenColorIO-Config-ACES
# LUTr-Source-File: submissions/aswf-opencolorio-config-aces/opencolorio_config_aces/clf/transforms/panasonic/input/Panasonic.Input.Linear_VGamut_to_ACES2065-1.clf
# LUTr-Source-Format: CLF
# LUTr-Source-SHA256: e10859c4e82faa7577936bd8f0a7c2ec4bba66dd4341079bbd1fd913a551f145
# LUTr-License: BSD-3-Clause
# LUTr-License-URL: https://github.com/AcademySoftwareFoundation/OpenColorIO-Config-ACES/blob/main/LICENSE
# LUTr-Tags: technical, aces, ocio, clf, color-management, cube
# LUTr-Transform-Class: color-space-conversion
# LUTr-Input-Color-Space: Linear Panasonic V-Gamut
# LUTr-Output-Color-Space: ACES2065-1
# LUTr-Color-Space-Confidence: descriptor-only
# LUTr-Conversion-Method: CLF operations evaluated as float and sampled to 33x33x33 3D CUBE
# LUTr-Conversion-Date: 2026-07-27
# LUTr-Conversion-Tool: LUTr scripts/convert-all-to-cube.mjs
# LUTr-Conversion-Grid: 33x33x33
# LUTr-Conversion-Warning: A sampled 3D CUBE is bounded to DOMAIN_MIN/MAX 0..1 and cannot preserve CLF values outside its input domain.
# LUTr-Upstream-ID: urn:aswf:ocio:transformId:1.0:Panasonic:Input:Linear_VGamut_to_ACES2065-1:1.0
# LUTr-Upstream-Name: Linear Panasonic V-Gamut to ACES2065-1
# LUTr-Upstream-Input-Descriptor: Linear Panasonic V-Gamut
# LUTr-Upstream-Output-Descriptor: ACES2065-1
# LUTr-Upstream-Operations: Matrix
# LUTr-Note: Preserve this metadata and the upstream license notices when redistributing.
TITLE "Panasonic.Input.Linear VGamut to ACES2065-1"
LUT_3D_SIZE 33
DOMAIN_MIN 0 0 0
DOMAIN_MAX 1 1 1
0 0 0
0.022644272 0.00066844517 -0.00028861134
0.045288544 0.0013368903 -0.00057722268
0.067932816 0.0020053355 -0.00086583402
0.090577088 0.0026737807 -0.0011544454
0.11322136 0.0033422258 -0.0014430567
0.13586563 0.004010671 -0.001731668
0.1585099 0.0046791162 -0.0020202794
0.18115418 0.0053475614 -0.0023088907
0.20379845 0.0060160065 -0.0025975021
0.22644272 0.0066844517 -0.0028861134
0.24908699 0.0073528969 -0.0031747247
0.27173126 0.008021342 -0.0034633361
0.29437554 0.0086897872 -0.0037519474
0.31701981 0.0093582324 -0.0040405588
0.33966408 0.010026678 -0.0043291701
0.36230835 0.010695123 -0.0046177814
0.38495262 0.011363568 -0.0049063928
0.4075969 0.012032013 -0.0051950041
0.43024117 0.012700458 -0.0054836155
0.45288544 0.013368903 -0.0057722268
0.47552971 0.014037349 -0.0060608381
0.49817398 0.014705794 -0.0063494495
0.52081826 0.015374239 -0.0066380608
0.54346253 0.016042684 -0.0069266722
0.5661068 0.016711129 -0.0072152835
0.58875107 0.017379574 -0.0075038948
0.61139534 0.01804802 -0.0077925062
0.63403962 0.018716465 -0.0080811175
0.65668389 0.01938491 -0.0083697289
0.67932816 0.020053355 -0.0086583402
0.70197243 0.0207218 -0.0089469515
0.7246167 0.021390245 -0.0092355629
0.0052161028 0.03077838 -0.000033028301
0.027860375 0.031446825 -0.00032163964
0.050504647 0.03211527 -0.00061025098
0.073148919 0.032783715 -0.00089886232
0.095793191 0.033452161 -0.0011874737
0.11843746 0.034120606 -0.001476085
0.14108173 0.034789051 -0.0017646963
0.16372601 0.035457496 -0.0020533077
0.18637028 0.036125941 -0.002341919
0.20901455 0.036794386 -0.0026305304
0.23165882 0.037462832 -0.0029191417
0.25430309 0.038131277 -0.003207753
0.27694737 0.038799722 -0.0034963644
0.29959164 0.039468167 -0.0037849757
0.32223591 0.040136612 -0.0040735871
0.34488018 0.040805057 -0.0043621984
0.36752445 0.041473503 -0.0046508097
0.39016873 0.042141948 -0.0049394211
0.412813 0.042810393 -0.0052280324
0.43545727 0.043478838 -0.0055166438
0.45810154 0.044147283 -0.0058052551
0.48074581 0.044815728 -0.0060938664
0.50339009 0.045484174 -0.0063824778
0.52603436 0.046152619 -0.0066710891
0.54867863 0.046821064 -0.0069597005
0.5713229 0.047489509 -0.0072483118
0.59396717 0.048157954 -0.0075369231
0.61661145 0.048826399 -0.0078255345
0.63925572 0.049494845 -0.0081141458
0.66189999 0.05016329 -0.0084027572
0.68454426 0.050831735 -0.0086913685
0.70718853 0.05150018 -0.0089799798
0.72983281 0.052168625 -0.0092685912
0.010432206 0.06155676 -0.000066056602
0.033076478 0.062225205 -0.00035466794
0.05572075 0.06289365 -0.00064327928
0.078365022 0.063562095 -0.00093189062
0.10100929 0.06423054 -0.001220502
0.12365357 0.064898986 -0.0015091133
0.14629784 0.065567431 -0.0017977246
0.16894211 0.066235876 -0.002086336
0.19158638 0.066904321 -0.0023749473
0.21423065 0.067572766 -0.0026635587
0.23687493 0.068241211 -0.00295217
0.2595192 0.068909657 -0.0032407813
0.28216347 0.069578102 -0.0035293927
0.30480774 0.070246547 -0.003818004
0.32745201 0.070914992 -0.0041066154
0.35009629 0.071583437 -0.0043952267
0.37274056 0.072251882 -0.004683838
0.39538483 0.072920328 -0.0049724494
0.4180291 0.073588773 -0.0052610607
0.44067337 0.074257218 -0.0055496721
0.46331765 0.074925663 -0.0058382834
0.48596192 0.075594108 -0.0061268947
0.50860619 0.076262553 -0.0064155061
0.53125046 0.076930999 -0.0067041174
0.55389473 0.077599444 -0.0069927288
0.57653901 0.078267889 -0.0072813401
0.59918328 0.078936334 -0.0075699514
0.62182755 0.079604779 -0.0078585628
0.64447182 0.080273224 -0.0081471741
0.66711609 0.08094167 -0.0084357855
0.68976037 0.081610115 -0.0087243968
0.71240464 0.08227856 -0.0090130081
0.73504891 0.082947005 -0.0093016195
0.015648308 0.09233514 -0.000099084904
0.03829258 0.093003585 -0.00038769624
0.060936852 0.09367203 -0.00067630758
0.083581124 0.094340475 -0.00096491892
0.1062254 0.09500892 -0.0012535303
0.12886967 0.095677365 -0.0015421416
0.15151394 0.096345811 -0.0018307529
0.17415821 0.097014256 -0.0021193643
0.19680248 0.097682701 -0.0024079756
0.21944676 0.098351146 -0.002696587
0.24209103 0.099019591 -0.0029851983
0.2647353 0.099688036 -0.0032738096
0.28737957 0.10035648 -0.003562421
0.31002384 0.10102493 -0.0038510323
0.33266812 0.10169337 -0.0041396437
0.35531239 0.10236182 -0.004428255
0.37795666 0.10303026 -0.0047168663
0.40060093 0.10369871 -0.0050054777
0.4232452 0.10436715 -0.005294089
0.44588948 0.1050356 -0.0055827004
0.46853375 0.10570404 -0.0058713117
0.49117802 0.10637249 -0.006159923
0.51382229 0.10704093 -0.0064485344
0.53646656 0.10770938 -0.0067371457
0.55911084 0.10837782 -0.0070257571
0.58175511 0.10904627 -0.0073143684
0.60439938 0.10971471 -0.0076029797
0.62704365 0.11038316 -0.0078915911
0.64968792 0.1110516 -0.0081802024
0.6723322 0.11172005 -0.0084688138
0.69497647 0.11238849 -0.0087574251
0.71762074 0.11305694 -0.0090460364
0.74026501 0.11372539 -0.0093346478
0.020864411 0.12311352 -0.0001321132
0.043508683 0.12378196 -0.00042072454
0.066152955 0.12445041 -0.00070933588
0.088797227 0.12511885 -0.00099794722
0.1114415 0.1257873 -0.0012865586
0.13408577 0.12645575 -0.0015751699
0.15673004 0.12712419 -0.0018637812
0.17937432 0.12779264 -0.0021523926
0.20201859 0.12846108 -0.0024410039
0.22466286 0.12912953 -0.0027296153
0.24730713 0.12979797 -0.0030182266
0.2699514 0.13046642 -0.0033068379
0.29259568 0.13113486 -0.0035954493
0.31523995 0.13180331 -0.0038840606
0.33788422 0.13247175 -0.004172672
0.36052849 0.1331402 -0.0044612833
0.38317276 0.13380864 -0.0047498946
0.40581704 0.13447709 -0.005038506
0.42846131 0.13514553 -0.0053271173
0.45110558 0.13581398 -0.0056157287
0.47374985 0.13648242 -0.00590434
0.49639412 0.13715087 -0.0061929513
0.5190384 0.13781931 -0.0064815627
0.54168267 0.13848776 -0.006770174
0.56432694 0.1391562 -0.0070587854
0.58697121 0.13982465 -0.0073473967
0.60961548 0.14049309 -0.007636008
0.63225976 0.14116154 -0.0079246194
0.65490403 0.14182998 -0.0082132307
0.6775483 0.14249843 -0.0085018421
0.70019257 0.14316687 -0.0087904534
0.72283684 0.14383532 -0.0090790647
0.74548112 0.14450376 -0.0093676761
0.026080514 0.1538919 -0.00016514151
0.048724786 0.15456034 -0.00045375285
0.071369058 0.15522879 -0.00074236419
0.09401333 0.15589723 -0.0010309755
0.1166576 0.15656568 -0.0013195869
0.13930187 0.15723413 -0.0016081982
0.16194615 0.15790257 -0.0018968095
0.18459042 0.15857102 -0.0021854209
0.20723469 0.15923946 -0.0024740322
0.22987896 0.15990791 -0.0027626436
0.25252323 0.16057635 -0.0030512549
0.27516751 0.1612448 -0.0033398662
0.29781178 0.16191324 -0.0036284776
0.32045605 0.16258169 -0.0039170889
0.34310032 0.16325013 -0.0042057003
0.36574459 0.16391858 -0.0044943116
0.38838887 0.16458702 -0.0047829229
0.41103314 0.16525547 -0.0050715343
0.43367741 0.16592391 -0.0053601456
0.45632168 0.16659236 -0.005648757
0.47896595 0.1672608 -0.0059373683
0.50161023 0.16792925 -0.0062259796
0.5242545 0.16859769 -0.006514591
0.54689877 0.16926614 -0.0068032023
0.56954304 0.16993458 -0.0070918137
0.59218731 0.17060303 -0.007380425
0.61483159 0.17127147 -0.0076690363
0.63747586 0.17193992 -0.0079576477
0.66012013 0.17260836 -0.008246259
0.6827644 0.17327681 -0.0085348704
0.70540867 0.17394525 -0.0088234817
0.72805295 0.1746137 -0.009112093
0.75069722 0.17528214 -0.0094007044
0.031296617 0.18467028 -0.00019816981
0.053940889 0.18533872 -0.00048678115
0.076585161 0.18600717 -0.00077539249
0.099229433 0.18667561 -0.0010640038
0.1218737 0.18734406 -0.0013526152
0.14451798 0.18801251 -0.0016412265
0.16716225 0.18868095 -0.0019298378
0.18980652 0.1893494 -0.0022184492
0.21245079 0.19001784 -0.0025070605
0.23509506 0.19068629 -0.0027956719
0.25773934 0.19135473 -0.0030842832
0.28038361 0.19202318 -0.0033728945
0.30302788 0.19269162 -0.0036615059
0.32567215 0.19336007 -0.0039501172
0.34831642 0.19402851 -0.0042387286
0.3709607 0.19469696 -0.0045273399
0.39360497 0.1953654 -0.0048159512
0.41624924 0.19603385 -0.0051045626
0.43889351 0.19670229 -0.0053931739
0.46153778 0.19737074 -0.0056817853
0.48418206 0.19803918 -0.0059703966
0.50682633 0.19870763 -0.0062590079
0.5294706 0.19937607 -0.0065476193
0.55211487 0.20004452 -0.0068362306
0.57475914 0.20071296 -0.007124842
0.59740342 0.20138141 -0.0074134533
0.62004769 0.20204985 -0.0077020646
0.64269196 0.2027183 -0.007990676
0.66533623 0.20338674 -0.0082792873
0.6879805 0.20405519 -0.0085678987
0.71062478 0.20472363 -0.00885651
0.73326905 0.20539208 -0.0091451213
0.75591332 0.20606052 -0.0094337327
0.036512719 0.21544866 -0.00023119811
0.059156991 0.2161171 -0.00051980945
0.081801263 0.21678555 -0.00080842079
0.10444554 0.21745399 -0.0010970321
0.12708981 0.21812244 -0.0013856435
0.14973408 0.21879088 -0.0016742548
0.17237835 0.21945933 -0.0019628661
0.19502262 0.22012778 -0.0022514775
0.2176669 0.22079622 -0.0025400888
0.24031117 0.22146467 -0.0028287002
0.26295544 0.22213311 -0.0031173115
0.28559971 0.22280156 -0.0034059228
0.30824398 0.22347 -0.0036945342
0.33088826 0.22413845 -0.0039831455
0.35353253 0.22480689 -0.0042717569
0.3761768 0.22547534 -0.0045603682
0.39882107 0.22614378 -0.0048489795
0.42146534 0.22681223 -0.0051375909
0.44410962 0.22748067 -0.0054262022
0.46675389 0.22814912 -0.0057148136
0.48939816 0.22881756 -0.0060034249
0.51204243 0.22948601 -0.0062920362
0.5346867 0.23015445 -0.0065806476
0.55733098 0.2308229 -0.0068692589
0.57997525 0.23149134 -0.0071578703
0.60261952 0.23215979 -0.0074464816
0.62526379 0.23282823 -0.0077350929
0.64790806 0.23349668 -0.0080237043
0.67055234 0.23416512 -0.0083123156
0.69319661 0.23483357 -0.008600927
0.71584088 0.23550201 -0.0088895383
0.73848515 0.23617046 -0.0091781496
0.76112942 0.2368389 -0.009466761
0.041728822 0.24622704 -0.00026422641
0.064373094 0.24689548 -0.00055283775
0.087017366 0.24756393 -0.00084144909
0.10966164 0.24823237 -0.0011300604
0.13230591 0.24890082 -0.0014186718
0.15495018 0.24956926 -0.0017072831
0.17759445 0.25023771 -0.0019958944
0.20023873 0.25090616 -0.0022845058
0.222883 0.2515746 -0.0025731171
0.24552727 0.25224305 -0.0028617285
0.26817154 0.25291149 -0.0031503398
0.29081581 0.25357994 -0.0034389511
0.31346009 0.25424838 -0.0037275625
0.33610436 0.25491683 -0.0040161738
0.35874863 0.25558527 -0.0043047852
0.3813929 0.25625372 -0.0045933965
0.40403717 0.25692216 -0.0048820078
0.42668145 0.25759061 -0.0051706192
0.44932572 0.25825905 -0.0054592305
0.47196999 0.2589275 -0.0057478419
0.49461426 0.25959594 -0.0060364532
0.51725853 0.26026439 -0.0063250645
0.53990281 0.26093283 -0.0066136759
0.56254708 0.26160128 -0.0069022872
0.58519135 0.26226972 -0.0071908986
0.60783562 0.26293817 -0.0074795099
0.63047989 0.26360661 -0.0077681212
0.65312417 0.26427506 -0.0080567326
0.67576844 0.2649435 -0.0083453439
0.69841271 0.26561195 -0.0086339553
0.72105698 0.26628039 -0.0089225666
0.74370125 0.26694884 -0.0092111779
0.76634553 0.26761728 -0.0094997893
0.046944925 0.27700542 -0.00029725471
0.069589197 0.27767386 -0.00058586605
0.092233469 0.27834231 -0.00087447739
0.11487774 0.27901075 -0.0011630887
0.13752201 0.2796792 -0.0014517001
0.16016628 0.28034764 -0.0017403114
0.18281056 0.28101609 -0.0020289227
0.20545483 0.28168453 -0.0023175341
0.2280991 0.28235298 -0.0026061454
0.25074337 0.28302143 -0.0028947568
0.27338764 0.28368987 -0.0031833681
0.29603192 0.28435832 -0.0034719794
0.31867619 0.28502676 -0.0037605908
0.34132046 0.28569521 -0.0040492021
0.36396473 0.28636365 -0.0043378135
0.386609 0.2870321 -0.0046264248
0.40925328 0.28770054 -0.0049150361
0.43189755 0.28836899 -0.0052036475
0.45454182 0.28903743 -0.0054922588
0.47718609 0.28970588 -0.0057808702
0.49983036 0.29037432 -0.0060694815
0.52247464 0.29104277 -0.0063580928
0.54511891 0.29171121 -0.0066467042
0.56776318 0.29237966 -0.0069353155
0.59040745 0.2930481 -0.0072239269
0.61305172 0.29371655 -0.0075125382
0.635696 0.29438499 -0.0078011495
0.65834027 0.29505344 -0.0080897609
0.68098454 0.29572188 -0.0083783722
0.70362881 0.29639033 -0.0086669836
0.72627308 0.29705877 -0.0089555949
0.74891736 0.29772722 -0.0092442062
0.77156163 0.29839566 -0.0095328176
0.052161028 0.3077838 -0.00033028301
0.0748053 0.30845224 -0.00061889435
0.097449572 0.30912069 -0.00090750569
0.12009384 0.30978913 -0.001196117
0.14273812 0.31045758 -0.0014847284
0.16538239 0.31112602 -0.0017733397
0.18802666 0.31179447 -0.0020619511
0.21067093 0.31246291 -0.0023505624
0.2333152 0.31313136 -0.0026391737
0.25595948 0.31379981 -0.0029277851
0.27860375 0.31446825 -0.0032163964
0.30124802 0.3151367 -0.0035050077
0.32389229 0.31580514 -0.0037936191
0.34653656 0.31647359 -0.0040822304
0.36918084 0.31714203 -0.0043708418
0.39182511 0.31781048 -0.0046594531
0.41446938 0.31847892 -0.0049480644
0.43711365 0.31914737 -0.0052366758
0.45975792 0.31981581 -0.0055252871
0.4824022 0.32048426 -0.0058138985
0.50504647 0.3211527 -0.0061025098
0.52769074 0.32182115 -0.0063911211
0.55033501 0.32248959 -0.0066797325
0.57297928 0.32315804 -0.0069683438
0.59562356 0.32382648 -0.0072569552
0.61826783 0.32449493 -0.0075455665
0.6409121 0.32516337 -0.0078341778
0.66355637 0.32583182 -0.0081227892
0.68620064 0.32650026 -0.0084114005
0.70884492 0.32716871 -0.0087000119
0.73148919 0.32783715 -0.0089886232
0.75413346 0.3285056 -0.0092772345
0.77677773 0.32917404 -0.0095658459
0.05737713 0.33856218 -0.00036331131
0.080021402 0.33923062 -0.00065192265
0.10266567 0.33989907 -0.00094053399
0.12530995 0.34056751 -0.0012291453
0.14795422 0.34123596 -0.0015177567
0.17059849 0.3419044 -0.001806368
0.19324276 0.34257285 -0.0020949794
0.21588703 0.34324129 -0.0023835907
0.23853131 0.34390974 -0.002672202
0.26117558 0.34457819 -0.0029608134
0.28381985 0.34524663 -0.0032494247
0.30646412 0.34591508 -0.0035380361
0.32910839 0.34658352 -0.0038266474
0.35175267 0.34725197 -0.0041152587
0.37439694 0.34792041 -0.0044038701
0.39704121 0.34858886 -0.0046924814
0.41968548 0.3492573 -0.0049810927
0.44232975 0.34992575 -0.0052697041
0.46497403 0.35059419 -0.0055583154
0.4876183 0.35126264 -0.0058469268
0.51026257 0.35193108 -0.0061355381
0.53290684 0.35259953 -0.0064241494
0.55555111 0.35326797 -0.0067127608
0.57819539 0.35393642 -0.0070013721
0.60083966 0.35460486 -0.0072899835
0.62348393 0.35527331 -0.0075785948
0.6461282 0.35594175 -0.0078672061
0.66877247 0.3566102 -0.0081558175
0.69141675 0.35727864 -0.0084444288
0.71406102 0.35794709 -0.0087330402
0.73670529 0.35861553 -0.0090216515
0.75934956 0.35928398 -0.0093102628
0.78199383 0.35995242 -0.0095988742
0.062593233 0.36934056 -0.00039633961
0.085237505 0.370009 -0.00068495095
0.10788178 0.37067745 -0.00097356229
0.13052605 0.37134589 -0.0012621736
0.15317032 0.37201434 -0.001550785
0.17581459 0.37268278 -0.0018393963
0.19845887 0.37335123 -0.0021280077
0.22110314 0.37401967 -0.002416619
0.24374741 0.37468812 -0.0027052303
0.26639168 0.37535656 -0.0029938417
0.28903595 0.37602501 -0.003282453
0.31168023 0.37669346 -0.0035710644
0.3343245 0.3773619 -0.0038596757
0.35696877 0.37803035 -0.004148287
0.37961304 0.37869879 -0.0044368984
0.40225731 0.37936724 -0.0047255097
0.42490159 0.38003568 -0.0050141211
0.44754586 0.38070413 -0.0053027324
0.47019013 0.38137257 -0.0055913437
0.4928344 0.38204102 -0.0058799551
0.51547867 0.38270946 -0.0061685664
0.53812295 0.38337791 -0.0064571777
0.56076722 0.38404635 -0.0067457891
0.58341149 0.3847148 -0.0070344004
0.60605576 0.38538324 -0.0073230118
0.62870003 0.38605169 -0.0076116231
0.65134431 0.38672013 -0.0079002344
0.67398858 0.38738858 -0.0081888458
0.69663285 0.38805702 -0.0084774571
0.71927712 0.38872547 -0.0087660685
0.74192139 0.38939391 -0.0090546798
0.76456567 0.39006236 -0.0093432911
0.78720994 0.3907308 -0.0096319025
0.067809336 0.40011894 -0.00042936792
0.090453608 0.40078738 -0.00071797926
0.11309788 0.40145583 -0.0010065906
0.13574215 0.40212427 -0.0012952019
0.15838642 0.40279272 -0.0015838133
0.1810307 0.40346116 -0.0018724246
0.20367497 0.40412961 -0.002161036
0.22631924 0.40479805 -0.0024496473
0.24896351 0.4054665 -0.0027382586
0.27160778 0.40613494 -0.00302687
0.29425206 0.40680339 -0.0033154813
0.31689633 0.40747184 -0.0036040927
0.3395406 0.40814028 -0.003892704
0.36218487 0.40880873 -0.0041813153
0.38482914 0.40947717 -0.0044699267
0.40747342 0.41014562 -0.004758538
0.43011769 0.41081406 -0.0050471494
0.45276196 0.41148251 -0.0053357607
0.47540623 0.41215095 -0.005624372
0.4980505 0.4128194 -0.0059129834
0.52069478 0.41348784 -0.0062015947
0.54333905 0.41415629 -0.006490206
0.56598332 0.41482473 -0.0067788174
0.58862759 0.41549318 -0.0070674287
0.61127186 0.41616162 -0.0073560401
0.63391614 0.41683007 -0.0076446514
0.65656041 0.41749851 -0.0079332627
0.67920468 0.41816696 -0.0082218741
0.70184895 0.4188354 -0.0085104854
0.72449322 0.41950385 -0.0087990968
0.7471375 0.42017229 -0.0090877081
0.76978177 0.42084074 -0.0093763194
0.79242604 0.42150918 -0.0096649308
0.073025439 0.43089732 -0.00046239622
0.095669711 0.43156576 -0.00075100756
0.11831398 0.43223421 -0.0010396189
0.14095825 0.43290265 -0.0013282302
0.16360253 0.4335711 -0.0016168416
0.1862468 0.43423954 -0.0019054529
0.20889107 0.43490799 -0.0021940643
0.23153534 0.43557643 -0.0024826756
0.25417961 0.43624488 -0.0027712869
0.27682389 0.43691332 -0.0030598983
0.29946816 0.43758177 -0.0033485096
0.32211243 0.43825021 -0.003637121
0.3447567 0.43891866 -0.0039257323
0.36740097 0.43958711 -0.0042143436
0.39004525 0.44025555 -0.004502955
0.41268952 0.440924 -0.0047915663
0.43533379 0.44159244 -0.0050801777
0.45797806 0.44226089 -0.005368789
0.48062233 0.44292933 -0.0056574003
0.50326661 0.44359778 -0.0059460117
0.52591088 0.44426622 -0.006234623
0.54855515 0.44493467 -0.0065232344
0.57119942 0.44560311 -0.0068118457
0.59384369 0.44627156 -0.007100457
0.61648797 0.44694 -0.0073890684
0.63913224 0.44760845 -0.0076776797
0.66177651 0.44827689 -0.007966291
0.68442078 0.44894534 -0.0082549024
0.70706505 0.44961378 -0.0085435137
0.72970933 0.45028223 -0.0088321251
0.7523536 0.45095067 -0.0091207364
0.77499787 0.45161912 -0.0094093477
0.79764214 0.45228756 -0.0096979591
0.078241541 0.4616757 -0.00049542452
0.10088581 0.46234414 -0.00078403586
0.12353009 0.46301259 -0.0010726472
0.14617436 0.46368103 -0.0013612585
0.16881863 0.46434948 -0.0016498699
0.1914629 0.46501792 -0.0019384812
0.21410717 0.46568637 -0.0022270926
0.23675145 0.46635481 -0.0025157039
0.25939572 0.46702326 -0.0028043152
0.28203999 0.4676917 -0.0030929266
0.30468426 0.46836015 -0.0033815379
0.32732853 0.46902859 -0.0036701493
0.34997281 0.46969704 -0.0039587606
0.37261708 0.47036549 -0.0042473719
0.39526135 0.47103393 -0.0045359833
0.41790562 0.47170238 -0.0048245946
0.44054989 0.47237082 -0.005113206
0.46319417 0.47303927 -0.0054018173
0.48583844 0.47370771 -0.0056904286
0.50848271 0.47437616 -0.00597904
0.53112698 0.4750446 -0.0062676513
0.55377125 0.47571305 -0.0065562627
0.57641553 0.47638149 -0.006844874
0.5990598 0.47704994 -0.0071334853
0.62170407 0.47771838 -0.0074220967
0.64434834 0.47838683 -0.007710708
0.66699261 0.47905527 -0.0079993194
0.68963689 0.47972372 -0.0082879307
0.71228116 0.48039216 -0.008576542
0.73492543 0.48106061 -0.0088651534
0.7575697 0.48172905 -0.0091537647
0.78021397 0.4823975 -0.009442376
0.80285825 0.48306594 -0.0097309874
0.083457644 0.49245408 -0.00052845282
0.10610192 0.49312252 -0.00081706416
0.12874619 0.49379097 -0.0011056755
0.15139046 0.49445941 -0.0013942868
0.17403473 0.49512786 -0.0016828982
0.196679 0.4957963 -0.0019715095
0.21932328 0.49646475 -0.0022601209
0.24196755 0.49713319 -0.0025487322
0.26461182 0.49780164 -0.0028373435
0.28725609 0.49847008 -0.0031259549
0.30990036 0.49913853 -0.0034145662
0.33254464 0.49980697 -0.0037031776
0.35518891 0.50047542 -0.0039917889
0.37783318 0.50114387 -0.0042804002
0.40047745 0.50181231 -0.0045690116
0.42312172 0.50248076 -0.0048576229
0.445766 0.5031492 -0.0051462343
0.46841027 0.50381765 -0.0054348456
0.49105454 0.50448609 -0.0057234569
0.51369881 0.50515454 -0.0060120683
0.53634308 0.50582298 -0.0063006796
0.55898736 0.50649143 -0.006589291
0.58163163 0.50715987 -0.0068779023
0.6042759 0.50782832 -0.0071665136
0.62692017 0.50849676 -0.007455125
0.64956444 0.50916521 -0.0077437363
0.67220872 0.50983365 -0.0080323477
0.69485299 0.5105021 -0.008320959
0.71749726 0.51117054 -0.0086095703
0.74014153 0.51183899 -0.0088981817
0.7627858 0.51250743 -0.009186793
0.78543008 0.51317588 -0.0094754044
0.80807435 0.51384432 -0.0097640157
0.088673747 0.52323246 -0.00056148112
0.11131802 0.5239009 -0.00085009246
0.13396229 0.52456935 -0.0011387038
0.15660656 0.52523779 -0.0014273151
0.17925083 0.52590624 -0.0017159265
0.20189511 0.52657468 -0.0020045378
0.22453938 0.52724313 -0.0022931492
0.24718365 0.52791157 -0.0025817605
0.26982792 0.52858002 -0.0028703718
0.29247219 0.52924846 -0.0031589832
0.31511647 0.52991691 -0.0034475945
0.33776074 0.53058535 -0.0037362059
0.36040501 0.5312538 -0.0040248172
0.38304928 0.53192224 -0.0043134285
0.40569355 0.53259069 -0.0046020399
0.42833783 0.53325914 -0.0048906512
0.4509821 0.53392758 -0.0051792626
0.47362637 0.53459603 -0.0054678739
0.49627064 0.53526447 -0.0057564852
0.51891491 0.53593292 -0.0060450966
0.54155919 0.53660136 -0.0063337079
0.56420346 0.53726981 -0.0066223193
0.58684773 0.53793825 -0.0069109306
0.609492 0.5386067 -0.0071995419
0.63213627 0.53927514 -0.0074881533
0.65478055 0.53994359 -0.0077767646
0.67742482 0.54061203 -0.008065376
0.70006909 0.54128048 -0.0083539873
0.72271336 0.54194892 -0.0086425986
0.74535763 0.54261737 -0.00893121
0.76800191 0.54328581 -0.0092198213
0.79064618 0.54395426 -0.0095084327
0.81329045 0.5446227 -0.009797044
0.09388985 0.55401084 -0.00059450942
0.11653412 0.55467928 -0.00088312076
0.13917839 0.55534773 -0.0011717321
0.16182267 0.55601617 -0.0014603434
0.18446694 0.55668462 -0.0017489548
0.20711121 0.55735306 -0.0020375661
0.22975548 0.55802151 -0.0023261775
0.25239975 0.55868995 -0.0026147888
0.27504403 0.5593584 -0.0029034001
0.2976883 0.56002684 -0.0031920115
0.32033257 0.56069529 -0.0034806228
0.34297684 0.56136373 -0.0037692342
0.36562111 0.56203218 -0.0040578455
0.38826539 0.56270062 -0.0043464568
0.41090966 0.56336907 -0.0046350682
0.43355393 0.56403752 -0.0049236795
0.4561982 0.56470596 -0.0052122909
0.47884247 0.56537441 -0.0055009022
0.50148675 0.56604285 -0.0057895135
0.52413102 0.5667113 -0.0060781249
0.54677529 0.56737974 -0.0063667362
