site/assets/luts/ocio-aces--sonyinputslog3-venice-sgamut3-to-aces2065-1--5f6e3e2cc.cube
# LUTr-Project: LUTr — LUTrepository
# LUTr-Schema-Version: 1
# LUTr-ID: ocio-aces--sonyinputslog3-venice-sgamut3-to-aces2065-1--5f6e3e2cc
# LUTr-Title: Sony.Input.SLog3 Venice SGamut3 to ACES2065-1
# LUTr-Collection: OCIO ACES
# LUTr-Collection-ID: aswf-opencolorio-config-aces
# LUTr-Source: https://github.com/AcademySoftwareFoundation/OpenColorIO-Config-ACES
# LUTr-Source-File: submissions/aswf-opencolorio-config-aces/opencolorio_config_aces/clf/transforms/sony/input/Sony.Input.SLog3_Venice_SGamut3_to_ACES2065-1.clf
# LUTr-Source-Format: CLF
# LUTr-Source-SHA256: 17fbeb86216c159ebe36eb72d9def673065e08807cc4344771bf6dc388fc45d5
# LUTr-License: BSD-3-Clause
# LUTr-License-URL: https://github.com/AcademySoftwareFoundation/OpenColorIO-Config-ACES/blob/main/LICENSE
# LUTr-Tags: technical, aces, ocio, clf, color-management, cube
# LUTr-Transform-Class: color-space-conversion
# LUTr-Input-Color-Space: Sony S-Log3 Venice S-Gamut3
# LUTr-Output-Color-Space: ACES2065-1
# LUTr-Color-Space-Confidence: descriptor-only
# LUTr-Conversion-Method: CLF operations evaluated as float and sampled to 33x33x33 3D CUBE
# LUTr-Conversion-Date: 2026-07-27
# LUTr-Conversion-Tool: LUTr scripts/convert-all-to-cube.mjs
# LUTr-Conversion-Grid: 33x33x33
# LUTr-Conversion-Warning: A sampled 3D CUBE is bounded to DOMAIN_MIN/MAX 0..1 and cannot preserve CLF values outside its input domain.
# LUTr-Upstream-ID: urn:aswf:ocio:transformId:1.0:Sony:Input:SLog3_Venice_SGamut3_to_ACES2065-1:1.0
# LUTr-Upstream-Name: Sony S-Log3 Venice S-Gamut3 to ACES2065-1
# LUTr-Upstream-Input-Descriptor: Sony S-Log3 Venice S-Gamut3
# LUTr-Upstream-Output-Descriptor: ACES2065-1
# LUTr-Upstream-Operations: Log → Matrix
# LUTr-Note: Preserve this metadata and the upstream license notices when redistributing.
TITLE "Sony.Input.SLog3 Venice SGamut3 to ACES2065-1"
LUT_3D_SIZE 5
DOMAIN_MIN 0 0 0
DOMAIN_MAX 1 1 1
-0.014023696 -0.014023696 -0.014023696
0.024657953 -0.013263985 -0.014943515
0.32654252 -0.0073349487 -0.022122089
3.1963475 0.049028246 -0.090363759
30.477572 0.58483363 -0.73908949
-0.0096803467 0.036329912 -0.013401077
0.029001302 0.037089623 -0.014320896
0.33088587 0.043018659 -0.02149947
3.2006908 0.099381854 -0.08974114
30.481915 0.63518724 -0.73846687
0.024216608 0.42930636 -0.0085419522
0.062898257 0.43006607 -0.0094617709
0.36478282 0.43599511 -0.016640345
3.2345878 0.49235831 -0.084882015
30.515812 1.0281637 -0.73360774
0.34645119 4.165058 0.037650344
0.38513284 4.1658177 0.036730525
0.68701741 4.1717468 0.029551951
3.5568224 4.22811 -0.038689719
30.838047 4.7639154 -0.68741545
3.4097095 39.67823 0.47676812
3.4483912 39.67899 0.4758483
3.7502758 39.684919 0.46866973
6.6200807 39.741282 0.40042806
33.901305 40.277088 -0.24829767
-0.0082900923 -0.016378413 0.035032106
0.030391556 -0.015618702 0.034112287
0.33227612 -0.0096896657 0.026933713
3.2020811 0.046673529 -0.041307957
30.483305 0.58247892 -0.69003368
-0.0039467431 0.033975195 0.035654724
0.034734906 0.034734906 0.034734906
0.33661947 0.040663942 0.027556332
3.2064244 0.097027137 -0.040685339
30.487649 0.63283253 -0.68941107
0.029950211 0.42695165 0.040513849
0.06863186 0.42771136 0.039594031
0.37051643 0.43364039 0.032415457
3.2403214 0.49000359 -0.035826214
30.521546 1.025809 -0.68455194
0.3521848 4.1627033 0.086706145
0.39086645 4.163463 0.085786327
0.69275101 4.1693921 0.078607753
3.562556 4.2257552 0.010366082
30.84378 4.7615606 -0.63835964
3.4154431 39.675876 0.52582392
3.4541248 39.676635 0.52490411
3.7560094 39.682565 0.51772553
6.6258143 39.738928 0.44948386
33.907038 40.274733 -0.19924187
0.036456874 -0.034755414 0.41788004
0.075138523 -0.033995704 0.41696022
0.37702309 -0.028066667 0.40978165
3.246828 0.028296528 0.34153998
30.528052 0.56410192 -0.30718575
0.040800223 0.015598194 0.41850266
0.079481872 0.016357904 0.41758284
0.38136644 0.022286941 0.41040427
3.2511714 0.078650136 0.3421626
30.532396 0.61445552 -0.30656313
0.074697178 0.40857464 0.42336178
0.11337883 0.40933436 0.42244197
0.41526339 0.41526339 0.41526339
3.2850683 0.47162659 0.34702172
30.566292 1.007432 -0.30170401
0.39693176 4.1443263 0.46955408
0.43561341 4.145086 0.46863426
0.73749798 4.1510151 0.46145569
3.6073029 4.2073782 0.39321402
30.888527 4.7431836 -0.25551171
3.4601901 39.657499 0.90867186
3.4988718 39.658258 0.90775204
3.8007563 39.664188 0.90057347
6.6705613 39.720551 0.8323318
33.951785 40.256356 0.18360607
0.46183492 -0.20945268 4.057347
0.50051656 -0.20869297 4.0564272
0.80240113 -0.20276394 4.0492486
3.6722061 -0.14640074 3.9810069
30.95343 0.38940465 3.3322812
0.46617827 -0.15909908 4.0579696
0.50485991 -0.15833936 4.0570498
0.80674448 -0.15241033 4.0498712
3.6765494 -0.096047133 3.9816296
30.957774 0.43975825 3.3329038
0.50007522 0.23387738 4.0628287
0.53875687 0.23463709 4.0619089
0.84064143 0.24056612 4.0547304
3.7104464 0.29692932 3.9864887
30.991671 0.83273471 3.337763
0.82230981 3.969629 4.109021
0.86099146 3.9703887 4.1081012
1.162876 3.9763178 4.1009226
4.032681 4.032681 4.032681
31.313905 4.5684864 3.3839553
3.8855682 39.482801 4.5481388
3.9242498 39.483561 4.547219
4.2261344 39.48949 4.5400404
7.0959393 39.545853 4.4717988
34.377163 40.081659 3.823073
4.5056058 -1.8701772 38.655208
4.5442874 -1.8694175 38.654288
4.846172 -1.8634884 38.64711
7.715977 -1.8071252 38.578868
34.997201 -1.2713198 37.930143
4.5099491 -1.8198236 38.655831
4.5486308 -1.8190639 38.654911
4.8505154 -1.8131348 38.647733
7.7203203 -1.7567716 38.579491
35.001544 -1.2209662 37.930765
4.5438461 -1.4268471 38.66069
4.5825277 -1.4260874 38.65977
4.8844123 -1.4201584 38.652592
7.7542173 -1.3637952 38.58435
35.035441 -0.82798978 37.935624
4.8660807 2.3089045 38.706882
4.9047623 2.3096643 38.705963
5.2066469 2.3155933 38.698784
8.0764519 2.3719565 38.630542
35.357676 2.9077619 37.981817
7.929339 37.822077 39.146
7.9680207 37.822837 39.14508
8.2699052 37.828766 39.137902
11.13971 37.885129 39.06966
38.420934 38.420934 38.420934
