site/assets/luts/ocio-aces--ocioutilityap0-to-linear-rec709--0cbf8af93.cube
# LUTr-Project: LUTr — LUTrepository
# LUTr-Schema-Version: 1
# LUTr-ID: ocio-aces--ocioutilityap0-to-linear-rec709--0cbf8af93
# LUTr-Title: OCIO.Utility.AP0 to Linear Rec709
# LUTr-Collection: OCIO ACES
# LUTr-Collection-ID: aswf-opencolorio-config-aces
# LUTr-Source: https://github.com/AcademySoftwareFoundation/OpenColorIO-Config-ACES
# LUTr-Source-File: submissions/aswf-opencolorio-config-aces/opencolorio_config_aces/clf/transforms/ocio/utility/OCIO.Utility.AP0_to_Linear_Rec709.clf
# LUTr-Source-Format: CLF
# LUTr-Source-SHA256: d15b67c61507a44f5abeba61e37663cabe3c85986eda0238176894eaa228e11b
# LUTr-License: BSD-3-Clause
# LUTr-License-URL: https://github.com/AcademySoftwareFoundation/OpenColorIO-Config-ACES/blob/main/LICENSE
# LUTr-Tags: technical, aces, ocio, clf, color-management, cube
# LUTr-Transform-Class: color-space-conversion
# LUTr-Input-Color-Space: ACES2065-1
# LUTr-Output-Color-Space: linear Rec.709 primaries, D65 white point
# LUTr-Color-Space-Confidence: descriptor-only
# LUTr-Conversion-Method: CLF operations evaluated as float and sampled to 33x33x33 3D CUBE
# LUTr-Conversion-Date: 2026-07-27
# LUTr-Conversion-Tool: LUTr scripts/convert-all-to-cube.mjs
# LUTr-Conversion-Grid: 33x33x33
# LUTr-Conversion-Warning: A sampled 3D CUBE is bounded to DOMAIN_MIN/MAX 0..1 and cannot preserve CLF values outside its input domain.
# LUTr-Upstream-ID: urn:aswf:ocio:transformId:1.0:OCIO:Utility:AP0_to_Linear_Rec709:1.0
# LUTr-Upstream-Name: AP0 to Linear Rec.709 (sRGB)
# LUTr-Upstream-Input-Descriptor: ACES2065-1
# LUTr-Upstream-Output-Descriptor: linear Rec.709 primaries, D65 white point
# LUTr-Upstream-Operations: Matrix
# LUTr-Note: Preserve this metadata and the upstream license notices when redistributing.
TITLE "OCIO.Utility.AP0 to Linear Rec709"
LUT_3D_SIZE 33
DOMAIN_MIN 0 0 0
DOMAIN_MAX 1 1 1
0 0 0
0.078802693 -0.0086399973 -0.00048056453
0.15760539 -0.017279995 -0.00096112906
0.23640808 -0.025919992 -0.0014416936
0.31521077 -0.034559989 -0.0019222581
0.39401347 -0.043199987 -0.0024028227
0.47281616 -0.051839984 -0.0028833872
0.55161885 -0.060479981 -0.0033639517
0.63042155 -0.069119979 -0.0038445162
0.70922424 -0.077759976 -0.0043250808
0.78802693 -0.086399973 -0.0048056453
0.86682963 -0.095039971 -0.0052862098
0.94563232 -0.10367997 -0.0057667744
1.024435 -0.11231997 -0.0062473389
1.1032377 -0.12095996 -0.0067279034
1.1820404 -0.12959996 -0.007208468
1.2608431 -0.13823996 -0.0076890325
1.3396458 -0.14687995 -0.008169597
1.4184485 -0.15551995 -0.0086501615
1.4972512 -0.16415995 -0.0091307261
1.5760539 -0.17279995 -0.0096112906
1.6548566 -0.18143994 -0.010091855
1.7336593 -0.19007994 -0.01057242
1.8124619 -0.19871994 -0.011052984
1.8912646 -0.20735994 -0.011533549
1.9700673 -0.21599993 -0.012014113
2.04887 -0.22463993 -0.012494678
2.1276727 -0.23327993 -0.012975242
2.2064754 -0.24191992 -0.013455807
2.2852781 -0.25055992 -0.013936371
2.3640808 -0.25919992 -0.014416936
2.4428835 -0.26783992 -0.0148975
2.5216862 -0.27647991 -0.015378065
-0.035441593 0.042897471 -0.0047804792
0.0433611 0.034257474 -0.0052610438
0.12216379 0.025617477 -0.0057416083
0.20096649 0.01697748 -0.0062221728
0.27976918 0.0083374822 -0.0067027374
0.35857187 -0.00030251511 -0.0071833019
0.43737457 -0.0089425124 -0.0076638664
0.51617726 -0.01758251 -0.008144431
0.59497995 -0.026222507 -0.0086249955
0.67378265 -0.034862504 -0.00910556
0.75258534 -0.043502502 -0.0095861245
0.83138803 -0.052142499 -0.010066689
0.91019073 -0.060782496 -0.010547254
0.98899342 -0.069422494 -0.011027818
1.0677961 -0.078062491 -0.011508383
1.1465988 -0.086702488 -0.011988947
1.2254015 -0.095342486 -0.012469512
1.3042042 -0.10398248 -0.012950076
1.3830069 -0.11262248 -0.013430641
1.4618096 -0.12126248 -0.013911205
1.5406123 -0.12990247 -0.01439177
1.619415 -0.13854247 -0.014872334
1.6982177 -0.14718247 -0.015352899
1.7770204 -0.15582247 -0.015833463
1.855823 -0.16446246 -0.016314028
1.9346257 -0.17310246 -0.016794593
2.0134284 -0.18174246 -0.017275157
2.0922311 -0.19038246 -0.017755722
2.1710338 -0.19902245 -0.018236286
2.2498365 -0.20766245 -0.018716851
2.3286392 -0.21630245 -0.019197415
2.4074419 -0.22494245 -0.01967798
2.4862446 -0.23358244 -0.020158544
-0.070883187 0.085794943 -0.0095609585
0.0079195066 0.077154946 -0.010041523
0.0867222 0.068514948 -0.010522088
0.16552489 0.059874951 -0.011002652
0.24432759 0.051234954 -0.011483217
0.32313028 0.042594956 -0.011963781
0.40193297 0.033954959 -0.012444346
0.48073567 0.025314962 -0.01292491
0.55953836 0.016674964 -0.013405475
0.63834105 0.0080349671 -0.013886039
0.71714375 -0.00060503022 -0.014366604
0.79594644 -0.0092450275 -0.014847168
0.87474913 -0.017885025 -0.015327733
0.95355183 -0.026525022 -0.015808297
1.0323545 -0.035165019 -0.016288862
1.1111572 -0.043805017 -0.016769426
1.1899599 -0.052445014 -0.017249991
1.2687626 -0.061085011 -0.017730556
1.3475653 -0.069725009 -0.01821112
1.426368 -0.078365006 -0.018691685
1.5051707 -0.087005003 -0.019172249
1.5839734 -0.095645001 -0.019652814
1.6627761 -0.104285 -0.020133378
1.7415788 -0.112925 -0.020613943
1.8203815 -0.12156499 -0.021094507
1.8991841 -0.13020499 -0.021575072
1.9779868 -0.13884499 -0.022055636
2.0567895 -0.14748498 -0.022536201
2.1355922 -0.15612498 -0.023016765
2.2143949 -0.16476498 -0.02349733
2.2931976 -0.17340498 -0.023977894
2.3720003 -0.18204497 -0.024458459
2.450803 -0.19068497 -0.024939023
-0.10632478 0.12869241 -0.014341438
-0.027522087 0.12005242 -0.014822002
0.051280607 0.11141242 -0.015302567
0.1300833 0.10277242 -0.015783131
0.20888599 0.094132425 -0.016263696
0.28768869 0.085492428 -0.01674426
0.36649138 0.076852431 -0.017224825
0.44529407 0.068212433 -0.017705389
0.52409677 0.059572436 -0.018185954
0.60289946 0.050932439 -0.018666519
0.68170215 0.042292441 -0.019147083
0.76050485 0.033652444 -0.019627648
0.83930754 0.025012447 -0.020108212
0.91811023 0.016372449 -0.020588777
0.99691293 0.007732452 -0.021069341
1.0757156 -0.00090754533 -0.021549906
1.1545183 -0.0095475426 -0.02203047
1.233321 -0.01818754 -0.022511035
1.3121237 -0.026827537 -0.022991599
1.3909264 -0.035467535 -0.023472164
1.4697291 -0.044107532 -0.023952728
1.5485318 -0.052747529 -0.024433293
1.6273345 -0.061387527 -0.024913857
1.7061372 -0.070027524 -0.025394422
1.7849399 -0.078667521 -0.025874986
1.8637426 -0.087307519 -0.026355551
1.9425452 -0.095947516 -0.026836116
2.0213479 -0.10458751 -0.02731668
2.1001506 -0.11322751 -0.027797245
2.1789533 -0.12186751 -0.028277809
2.257756 -0.13050751 -0.028758374
2.3365587 -0.1391475 -0.029238938
2.4153614 -0.1477875 -0.029719503
-0.14176637 0.17158989 -0.019121917
-0.06296368 0.16294989 -0.019602482
0.015839013 0.15430989 -0.020083046
0.094641706 0.14566989 -0.020563611
0.1734444 0.1370299 -0.021044175
0.25224709 0.1283899 -0.02152474
0.33104979 0.1197499 -0.022005304
0.40985248 0.1111099 -0.022485869
0.48865517 0.10246991 -0.022966433
0.56745787 0.09382991 -0.023446998
0.64626056 0.085189913 -0.023927562
0.72506325 0.076549915 -0.024408127
0.80386595 0.067909918 -0.024888691
0.88266864 0.059269921 -0.025369256
0.96147133 0.050629923 -0.02584982
1.040274 0.041989926 -0.026330385
1.1190767 0.033349929 -0.026810949
1.1978794 0.024709932 -0.027291514
1.2766821 0.016069934 -0.027772079
1.3554848 0.0074299369 -0.028252643
1.4342875 -0.0012100604 -0.028733208
1.5130902 -0.0098500578 -0.029213772
1.5918929 -0.018490055 -0.029694337
1.6706956 -0.027130052 -0.030174901
1.7494983 -0.03577005 -0.030655466
1.828301 -0.044410047 -0.03113603
1.9071037 -0.053050044 -0.031616595
1.9859063 -0.061690042 -0.032097159
2.064709 -0.070330039 -0.032577724
2.1435117 -0.078970036 -0.033058288
2.2223144 -0.087610034 -0.033538853
2.3011171 -0.096250031 -0.034019417
2.3799198 -0.10489003 -0.034499982
-0.17720797 0.21448736 -0.023902396
-0.098405274 0.20584736 -0.024382961
-0.01960258 0.19720736 -0.024863525
0.059200113 0.18856737 -0.02534409
0.13800281 0.17992737 -0.025824654
0.2168055 0.17128737 -0.026305219
0.29560819 0.16264737 -0.026785783
0.37441089 0.15400738 -0.027266348
0.45321358 0.14536738 -0.027746912
0.53201627 0.13672738 -0.028227477
0.61081897 0.12808738 -0.028708042
0.68962166 0.11944739 -0.029188606
0.76842435 0.11080739 -0.029669171
0.84722705 0.10216739 -0.030149735
0.92602974 0.093527395 -0.0306303
1.0048324 0.084887398 -0.031110864
1.0836351 0.0762474 -0.031591429
1.1624378 0.067607403 -0.032071993
1.2412405 0.058967406 -0.032552558
1.3200432 0.050327408 -0.033033122
1.3988459 0.041687411 -0.033513687
1.4776486 0.033047414 -0.033994251
1.5564513 0.024407416 -0.034474816
1.635254 0.015767419 -0.03495538
1.7140567 0.0071274218 -0.035435945
1.7928594 -0.0015125755 -0.035916509
1.8716621 -0.010152573 -0.036397074
1.9504648 -0.01879257 -0.036877639
2.0292674 -0.027432568 -0.037358203
2.1080701 -0.036072565 -0.037838768
2.1868728 -0.044712562 -0.038319332
2.2656755 -0.053352559 -0.038799897
2.3444782 -0.061992557 -0.039280461
-0.21264956 0.25738483 -0.028682875
-0.13384687 0.24874483 -0.02916344
-0.055044174 0.24010483 -0.029644005
0.02375852 0.23146484 -0.030124569
0.10256121 0.22282484 -0.030605134
0.18136391 0.21418484 -0.031085698
0.2601666 0.20554485 -0.031566263
0.33896929 0.19690485 -0.032046827
0.41777199 0.18826485 -0.032527392
0.49657468 0.17962485 -0.033007956
0.57537737 0.17098486 -0.033488521
0.65418007 0.16234486 -0.033969085
0.73298276 0.15370486 -0.03444965
0.81178545 0.14506486 -0.034930214
0.89058815 0.13642487 -0.035410779
0.96939084 0.12778487 -0.035891343
1.0481935 0.11914487 -0.036371908
1.1269962 0.11050487 -0.036852472
1.2057989 0.10186488 -0.037333037
1.2846016 0.09322488 -0.037813602
1.3634043 0.084584883 -0.038294166
1.442207 0.075944885 -0.038774731
1.5210097 0.067304888 -0.039255295
1.5998124 0.058664891 -0.03973586
1.6786151 0.050024893 -0.040216424
1.7574178 0.041384896 -0.040696989
1.8362205 0.032744899 -0.041177553
1.9150232 0.024104901 -0.041658118
1.9938259 0.015464904 -0.042138682
2.0726285 0.0068249067 -0.042619247
2.1514312 -0.0018150907 -0.043099811
2.2302339 -0.010455088 -0.043580376
2.3090366 -0.019095085 -0.04406094
-0.24809115 0.3002823 -0.033463355
-0.16928846 0.2916423 -0.033943919
-0.090485767 0.28300231 -0.034424484
-0.011683074 0.27436231 -0.034905048
0.06711962 0.26572231 -0.035385613
0.14592231 0.25708231 -0.035866177
0.22472501 0.24844232 -0.036346742
0.3035277 0.23980232 -0.036827306
0.38233039 0.23116232 -0.037307871
0.46113309 0.22252232 -0.037788435
0.53993578 0.21388233 -0.038269
0.61873847 0.20524233 -0.038749565
0.69754117 0.19660233 -0.039230129
0.77634386 0.18796234 -0.039710694
0.85514655 0.17932234 -0.040191258
0.93394925 0.17068234 -0.040671823
1.0127519 0.16204234 -0.041152387
1.0915546 0.15340235 -0.041632952
1.1703573 0.14476235 -0.042113516
1.24916 0.13612235 -0.042594081
1.3279627 0.12748235 -0.043074645
1.4067654 0.11884236 -0.04355521
1.4855681 0.11020236 -0.044035774
1.5643708 0.10156236 -0.044516339
1.6431735 0.092922365 -0.044996903
1.7219762 0.084282367 -0.045477468
1.8007789 0.07564237 -0.045958033
1.8795816 0.067002373 -0.046438597
1.9583843 0.058362375 -0.046919162
2.037187 0.049722378 -0.047399726
2.1159896 0.041082381 -0.047880291
2.1947923 0.032442384 -0.048360855
2.273595 0.023802386 -0.04884142
-0.28353275 0.34317977 -0.038243834
-0.20473005 0.33453977 -0.038724398
-0.12592736 0.32589978 -0.039204963
-0.047124667 0.31725978 -0.039685528
0.031678026 0.30861978 -0.040166092
0.11048072 0.29997979 -0.040646657
0.18928341 0.29133979 -0.041127221
0.26808611 0.28269979 -0.041607786
0.3468888 0.27405979 -0.04208835
0.42569149 0.2654198 -0.042568915
0.50449419 0.2567798 -0.043049479
0.58329688 0.2481398 -0.043530044
0.66209957 0.2394998 -0.044010608
0.74090227 0.23085981 -0.044491173
0.81970496 0.22221981 -0.044971737
0.89850765 0.21357981 -0.045452302
0.97731035 0.20493981 -0.045932866
1.056113 0.19629982 -0.046413431
1.1349157 0.18765982 -0.046893996
1.2137184 0.17901982 -0.04737456
1.2925211 0.17037983 -0.047855125
1.3713238 0.16173983 -0.048335689
1.4501265 0.15309983 -0.048816254
1.5289292 0.14445983 -0.049296818
1.6077319 0.13581984 -0.049777383
1.6865346 0.12717984 -0.050257947
1.7653373 0.11853984 -0.050738512
1.84414 0.10989984 -0.051219076
1.9229427 0.10125985 -0.051699641
2.0017454 0.09261985 -0.052180205
2.0805481 0.083979852 -0.05266077
2.1593507 0.075339855 -0.053141334
2.2381534 0.066699858 -0.053621899
-0.31897434 0.38607724 -0.043024313
-0.24017165 0.37743725 -0.043504878
-0.16136895 0.36879725 -0.043985442
-0.08256626 0.36015725 -0.044466007
-0.0037635671 0.35151725 -0.044946571
0.075039126 0.34287726 -0.045427136
0.15384182 0.33423726 -0.0459077
0.23264451 0.32559726 -0.046388265
0.31144721 0.31695726 -0.046868829
0.3902499 0.30831727 -0.047349394
0.46905259 0.29967727 -0.047829959
0.54785529 0.29103727 -0.048310523
0.62665798 0.28239728 -0.048791088
0.70546067 0.27375728 -0.049271652
0.78426337 0.26511728 -0.049752217
0.86306606 0.25647728 -0.050232781
0.94186875 0.24783729 -0.050713346
1.0206714 0.23919729 -0.05119391
1.0994741 0.23055729 -0.051674475
1.1782768 0.22191729 -0.052155039
1.2570795 0.2132773 -0.052635604
1.3358822 0.2046373 -0.053116168
1.4146849 0.1959973 -0.053596733
1.4934876 0.18735731 -0.054077297
1.5722903 0.17871731 -0.054557862
1.651093 0.17007731 -0.055038426
1.7298957 0.16143731 -0.055518991
1.8086984 0.15279732 -0.055999556
1.8875011 0.14415732 -0.05648012
1.9663038 0.13551732 -0.056960685
2.0451065 0.12687732 -0.057441249
2.1239092 0.11823733 -0.057921814
2.2027118 0.10959733 -0.058402378
-0.35441593 0.42897471 -0.047804792
-0.27561324 0.42033472 -0.048285357
-0.19681055 0.41169472 -0.048765922
-0.11800785 0.40305472 -0.049246486
-0.03920516 0.39441473 -0.049727051
0.039597533 0.38577473 -0.050207615
0.11840023 0.37713473 -0.05068818
0.19720292 0.36849473 -0.051168744
0.27600561 0.35985474 -0.051649309
0.35480831 0.35121474 -0.052129873
0.433611 0.34257474 -0.052610438
0.51241369 0.33393474 -0.053091002
0.59121639 0.32529475 -0.053571567
0.67001908 0.31665475 -0.054052131
0.74882177 0.30801475 -0.054532696
0.82762447 0.29937476 -0.05501326
0.90642716 0.29073476 -0.055493825
0.98522985 0.28209476 -0.055974389
1.0640325 0.27345476 -0.056454954
1.1428352 0.26481477 -0.056935519
1.2216379 0.25617477 -0.057416083
1.3004406 0.24753477 -0.057896648
1.3792433 0.23889477 -0.058377212
1.458046 0.23025478 -0.058857777
1.5368487 0.22161478 -0.059338341
1.6156514 0.21297478 -0.059818906
1.6944541 0.20433478 -0.06029947
1.7732568 0.19569479 -0.060780035
1.8520595 0.18705479 -0.061260599
1.9308622 0.17841479 -0.061741164
2.0096649 0.1697748 -0.062221728
2.0884676 0.1611348 -0.062702293
2.1672703 0.1524948 -0.063182857
-0.38985753 0.47187219 -0.052585272
-0.31105483 0.46323219 -0.053065836
-0.23225214 0.45459219 -0.053546401
-0.15344945 0.44595219 -0.054026965
-0.074646754 0.4373122 -0.05450753
0.0041559395 0.4286722 -0.054988094
0.082958633 0.4200322 -0.055468659
0.16176133 0.41139221 -0.055949223
0.24056402 0.40275221 -0.056429788
0.31936671 0.39411221 -0.056910352
0.39816941 0.38547221 -0.057390917
0.4769721 0.37683222 -0.057871482
0.55577479 0.36819222 -0.058352046
0.63457749 0.35955222 -0.058832611
0.71338018 0.35091222 -0.059313175
0.79218287 0.34227223 -0.05979374
0.87098557 0.33363223 -0.060274304
0.94978826 0.32499223 -0.060754869
1.028591 0.31635223 -0.061235433
1.1073936 0.30771224 -0.061715998
1.1861963 0.29907224 -0.062196562
1.264999 0.29043224 -0.062677127
1.3438017 0.28179225 -0.063157691
1.4226044 0.27315225 -0.063638256
1.5014071 0.26451225 -0.06411882
1.5802098 0.25587225 -0.064599385
1.6590125 0.24723226 -0.065079949
1.7378152 0.23859226 -0.065560514
1.8166179 0.22995226 -0.066041079
1.8954206 0.22131226 -0.066521643
1.9742233 0.21267227 -0.067002208
2.053026 0.20403227 -0.067482772
2.1318287 0.19539227 -0.067963337
-0.42529912 0.51476966 -0.057365751
-0.34649643 0.50612966 -0.057846315
-0.26769373 0.49748966 -0.05832688
-0.18889104 0.48884967 -0.058807445
-0.11008835 0.48020967 -0.059288009
-0.031285654 0.47156967 -0.059768574
0.047517039 0.46292967 -0.060249138
0.12631973 0.45428968 -0.060729703
0.20512243 0.44564968 -0.061210267
0.28392512 0.43700968 -0.061690832
0.36272781 0.42836968 -0.062171396
0.44153051 0.41972969 -0.062651961
0.5203332 0.41108969 -0.063132525
0.59913589 0.40244969 -0.06361309
0.67793859 0.3938097 -0.064093654
0.75674128 0.3851697 -0.064574219
0.83554397 0.3765297 -0.065054783
0.91434667 0.3678897 -0.065535348
0.99314936 0.35924971 -0.066015912
1.0719521 0.35060971 -0.066496477
1.1507547 0.34196971 -0.066977042
1.2295574 0.33332971 -0.067457606
1.3083601 0.32468972 -0.067938171
1.3871628 0.31604972 -0.068418735
1.4659655 0.30740972 -0.0688993
1.5447682 0.29876972 -0.069379864
1.6235709 0.29012973 -0.069860429
1.7023736 0.28148973 -0.070340993
1.7811763 0.27284973 -0.070821558
1.859979 0.26420974 -0.071302122
1.9387817 0.25556974 -0.071782687
2.0175844 0.24692974 -0.072263251
2.0963871 0.23828974 -0.072743816
-0.46074071 0.55766713 -0.06214623
-0.38193802 0.54902713 -0.062626795
-0.30313533 0.54038713 -0.063107359
-0.22433263 0.53174714 -0.063587924
-0.14552994 0.52310714 -0.064068488
-0.066727247 0.51446714 -0.064549053
0.012075446 0.50582715 -0.065029617
0.090878139 0.49718715 -0.065510182
0.16968083 0.48854715 -0.065990746
0.24848353 0.47990715 -0.066471311
0.32728622 0.47126716 -0.066951875
0.40608891 0.46262716 -0.06743244
0.48489161 0.45398716 -0.067913005
0.5636943 0.44534716 -0.068393569
0.64249699 0.43670717 -0.068874134
0.72129969 0.42806717 -0.069354698
0.80010238 0.41942717 -0.069835263
0.87890507 0.41078717 -0.070315827
0.95770777 0.40214718 -0.070796392
1.0365105 0.39350718 -0.071276956
1.1153132 0.38486718 -0.071757521
1.1941158 0.37622719 -0.072238085
1.2729185 0.36758719 -0.07271865
1.3517212 0.35894719 -0.073199214
1.4305239 0.35030719 -0.073679779
1.5093266 0.3416672 -0.074160343
1.5881293 0.3330272 -0.074640908
1.666932 0.3243872 -0.075121473
1.7457347 0.3157472 -0.075602037
1.8245374 0.30710721 -0.076082602
1.9033401 0.29846721 -0.076563166
1.9821428 0.28982721 -0.077043731
2.0609455 0.28118722 -0.077524295
-0.49618231 0.6005646 -0.066926709
-0.41737961 0.5919246 -0.067407274
-0.33857692 0.58328461 -0.067887839
-0.25977423 0.57464461 -0.068368403
-0.18097153 0.56600461 -0.068848968
-0.10216884 0.55736461 -0.069329532
-0.023366147 0.54872462 -0.069810097
0.055436546 0.54008462 -0.070290661
0.13423924 0.53144462 -0.070771226
0.21304193 0.52280462 -0.07125179
0.29184463 0.51416463 -0.071732355
0.37064732 0.50552463 -0.072212919
0.44945001 0.49688463 -0.072693484
0.52825271 0.48824464 -0.073174048
0.6070554 0.47960464 -0.073654613
0.68585809 0.47096464 -0.074135177
0.76466079 0.46232464 -0.074615742
0.84346348 0.45368465 -0.075096306
0.92226617 0.44504465 -0.075576871
1.0010689 0.43640465 -0.076057436
1.0798716 0.42776465 -0.076538
1.1586743 0.41912466 -0.077018565
1.2374769 0.41048466 -0.077499129
1.3162796 0.40184466 -0.077979694
1.3950823 0.39320467 -0.078460258
1.473885 0.38456467 -0.078940823
1.5526877 0.37592467 -0.079421387
1.6314904 0.36728467 -0.079901952
1.7102931 0.35864468 -0.080382516
1.7890958 0.35000468 -0.080863081
1.8678985 0.34136468 -0.081343645
1.9467012 0.33272468 -0.08182421
2.0255039 0.32408469 -0.082304774
-0.5316239 0.64346207 -0.071707189
-0.45282121 0.63482208 -0.072187753
-0.37401851 0.62618208 -0.072668318
-0.29521582 0.61754208 -0.073148882
-0.21641313 0.60890208 -0.073629447
-0.13761043 0.60026209 -0.074110011
-0.058807741 0.59162209 -0.074590576
0.019994953 0.58298209 -0.07507114
0.098797646 0.57434209 -0.075551705
0.17760034 0.5657021 -0.076032269
0.25640303 0.5570621 -0.076512834
0.33520573 0.5484221 -0.076993399
0.41400842 0.5397821 -0.077473963
0.49281111 0.53114211 -0.077954528
0.57161381 0.52250211 -0.078435092
0.6504165 0.51386211 -0.078915657
0.72921919 0.50522212 -0.079396221
0.80802189 0.49658212 -0.079876786
0.88682458 0.48794212 -0.08035735
0.96562727 0.47930212 -0.080837915
1.04443 0.47066213 -0.081318479
1.1232327 0.46202213 -0.081799044
1.2020354 0.45338213 -0.082279608
1.280838 0.44474213 -0.082760173
1.3596407 0.43610214 -0.083240737
1.4384434 0.42746214 -0.083721302
1.5172461 0.41882214 -0.084201866
1.5960488 0.41018214 -0.084682431
1.6748515 0.40154215 -0.085162996
1.7536542 0.39290215 -0.08564356
1.8324569 0.38426215 -0.086124125
1.9112596 0.37562216 -0.086604689
1.9900623 0.36698216 -0.087085254
-0.56706549 0.68635954 -0.076487668
-0.4882628 0.67771955 -0.076968232
-0.40946011 0.66907955 -0.077448797
-0.33065741 0.66043955 -0.077929362
-0.25185472 0.65179955 -0.078409926
-0.17305203 0.64315956 -0.078890491
-0.094249334 0.63451956 -0.079371055
-0.015446641 0.62587956 -0.07985162
0.063356053 0.61723957 -0.080332184
0.14215875 0.60859957 -0.080812749
0.22096144 0.59995957 -0.081293313
0.29976413 0.59131957 -0.081773878
0.37856683 0.58267958 -0.082254442
0.45736952 0.57403958 -0.082735007
0.53617221 0.56539958 -0.083215571
0.61497491 0.55675958 -0.083696136
0.6937776 0.54811959 -0.0841767
0.77258029 0.53947959 -0.084657265
0.85138299 0.53083959 -0.085137829
0.93018568 0.52219959 -0.085618394
1.0089884 0.5135596 -0.086098959
1.0877911 0.5049196 -0.086579523
1.1665938 0.4962796 -0.087060088
1.2453965 0.48763961 -0.087540652
1.3241991 0.47899961 -0.088021217
1.4030018 0.47035961 -0.088501781
1.4818045 0.46171961 -0.088982346
1.5606072 0.45307962 -0.08946291
1.6394099 0.44443962 -0.089943475
1.7182126 0.43579962 -0.090424039
1.7970153 0.42715962 -0.090904604
1.875818 0.41851963 -0.091385168
1.9546207 0.40987963 -0.091865733
-0.60250709 0.72925702 -0.081268147
-0.52370439 0.72061702 -0.081748712
-0.4449017 0.71197702 -0.082229276
-0.36609901 0.70333702 -0.082709841
-0.28729631 0.69469703 -0.083190405
-0.20849362 0.68605703 -0.08367097
-0.12969093 0.67741703 -0.084151534
-0.050888234 0.66877703 -0.084632099
0.027914459 0.66013704 -0.085112663
0.10671715 0.65149704 -0.085593228
0.18551985 0.64285704 -0.086073792
0.26432254 0.63421704 -0.086554357
0.34312523 0.62557705 -0.087034922
0.42192793 0.61693705 -0.087515486
0.50073062 0.60829705 -0.087996051
0.57953331 0.59965706 -0.088476615
0.65833601 0.59101706 -0.08895718
0.7371387 0.58237706 -0.089437744
0.81594139 0.57373706 -0.089918309
0.89474409 0.56509707 -0.090398873
0.97354678 0.55645707 -0.090879438
1.0523495 0.54781707 -0.091360002
1.1311522 0.53917707 -0.091840567
1.2099549 0.53053708 -0.092321131
1.2887576 0.52189708 -0.092801696
1.3675602 0.51325708 -0.09328226
1.4463629 0.50461709 -0.093762825
1.5251656 0.49597709 -0.094243389
1.6039683 0.48733709 -0.094723954
1.682771 0.47869709 -0.095204519
1.7615737 0.4700571 -0.095685083
1.8403764 0.4614171 -0.096165648
1.9191791 0.4527771 -0.096646212
-0.63794868 0.77215449 -0.086048626
-0.55914599 0.76351449 -0.086529191
-0.48034329 0.75487449 -0.087009755
-0.4015406 0.74623449 -0.08749032
-0.32273791 0.7375945 -0.087970885
-0.24393521 0.7289545 -0.088451449
-0.16513252 0.7203145 -0.088932014
-0.086329828 0.71167451 -0.089412578
-0.0075271342 0.70303451 -0.089893143
0.071275559 0.69439451 -0.090373707
0.15007825 0.68575451 -0.090854272
0.22888095 0.67711452 -0.091334836
0.30768364 0.66847452 -0.091815401
0.38648633 0.65983452 -0.092295965
0.46528903 0.65119452 -0.09277653
0.54409172 0.64255453 -0.093257094
0.62289441 0.63391453 -0.093737659
0.70169711 0.62527453 -0.094218223
0.7804998 0.61663454 -0.094698788
0.85930249 0.60799454 -0.095179352
0.93810519 0.59935454 -0.095659917
1.0169079 0.59071454 -0.096140482
1.0957106 0.58207455 -0.096621046
1.1745133 0.57343455 -0.097101611
1.253316 0.56479455 -0.097582175
1.3321187 0.55615455 -0.09806274
1.4109213 0.54751456 -0.098543304
1.489724 0.53887456 -0.099023869
1.5685267 0.53023456 -0.099504433
1.6473294 0.52159456 -0.099984998
1.7261321 0.51295457 -0.10046556
1.8049348 0.50431457 -0.10094613
1.8837375 0.49567457 -0.10142669
-0.67339027 0.81505196 -0.090829106
-0.59458758 0.80641196 -0.09130967
-0.51578489 0.79777196 -0.091790235
-0.43698219 0.78913197 -0.092270799
-0.3581795 0.78049197 -0.092751364
-0.27937681 0.77185197 -0.093231928
-0.20057411 0.76321197 -0.093712493
-0.12177142 0.75457198 -0.094193057
