site/assets/luts/ocio-aces--sonyinputlinear-sgamut-to-aces2065-1--f5f13d4b6.cube
# LUTr-Project: LUTr — LUTrepository
# LUTr-Schema-Version: 1
# LUTr-ID: ocio-aces--sonyinputlinear-sgamut-to-aces2065-1--f5f13d4b6
# LUTr-Title: Sony.Input.Linear SGamut to ACES2065-1
# LUTr-Collection: OCIO ACES
# LUTr-Collection-ID: aswf-opencolorio-config-aces
# LUTr-Source: https://github.com/AcademySoftwareFoundation/OpenColorIO-Config-ACES
# LUTr-Source-File: submissions/aswf-opencolorio-config-aces/opencolorio_config_aces/clf/transforms/sony/input/Sony.Input.Linear_SGamut_to_ACES2065-1.clf
# LUTr-Source-Format: CLF
# LUTr-Source-SHA256: a67fdcea090b471aabd2bfaa6295ab321f1ab04733154f29c6f5afaa0aac835b
# LUTr-License: BSD-3-Clause
# LUTr-License-URL: https://github.com/AcademySoftwareFoundation/OpenColorIO-Config-ACES/blob/main/LICENSE
# LUTr-Tags: technical, aces, ocio, clf, color-management, cube
# LUTr-Transform-Class: color-space-conversion
# LUTr-Input-Color-Space: Linear S-Gamut
# LUTr-Output-Color-Space: ACES2065-1
# LUTr-Color-Space-Confidence: descriptor-only
# LUTr-Conversion-Method: CLF operations evaluated as float and sampled to 33x33x33 3D CUBE
# LUTr-Conversion-Date: 2026-07-27
# LUTr-Conversion-Tool: LUTr scripts/convert-all-to-cube.mjs
# LUTr-Conversion-Grid: 33x33x33
# LUTr-Conversion-Warning: A sampled 3D CUBE is bounded to DOMAIN_MIN/MAX 0..1 and cannot preserve CLF values outside its input domain.
# LUTr-Upstream-ID: urn:aswf:ocio:transformId:1.0:Sony:Input:Linear_SGamut_to_ACES2065-1:1.0
# LUTr-Upstream-Name: Linear S-Gamut to ACES2065-1
# LUTr-Upstream-Input-Descriptor: Linear S-Gamut
# LUTr-Upstream-Output-Descriptor: ACES2065-1
# LUTr-Upstream-Operations: Matrix
# LUTr-Note: Preserve this metadata and the upstream license notices when redistributing.
TITLE "Sony.Input.Linear SGamut to ACES2065-1"
LUT_3D_SIZE 33
DOMAIN_MIN 0 0 0
DOMAIN_MAX 1 1 1
0 0 0
0.023530706 0.00067836555 -0.00029425165
0.047061412 0.0013567311 -0.0005885033
0.070592118 0.0020350966 -0.00088275495
0.094122824 0.0027134622 -0.0011770066
0.11765353 0.0033918277 -0.0014712582
0.14118424 0.0040701933 -0.0017655099
0.16471494 0.0047485588 -0.0020597615
0.18824565 0.0054269244 -0.0023540132
0.21177635 0.0061052899 -0.0026482648
0.23530706 0.0067836555 -0.0029425165
0.25883777 0.007462021 -0.0032367681
0.28236847 0.0081403865 -0.0035310198
0.30589918 0.0088187521 -0.0038252714
0.32942989 0.0094971176 -0.0041195231
0.35296059 0.010175483 -0.0044137747
0.3764913 0.010853849 -0.0047080264
0.400022 0.011532214 -0.005002278
0.42355271 0.01221058 -0.0052965297
0.44708342 0.012888945 -0.0055907813
0.47061412 0.013567311 -0.005885033
0.49414483 0.014245676 -0.0061792846
0.51767553 0.014924042 -0.0064735363
0.54120624 0.015602408 -0.0067677879
0.56473695 0.016280773 -0.0070620396
0.58826765 0.016959139 -0.0073562912
0.61179836 0.017637504 -0.0076505429
0.63532906 0.01831587 -0.0079447945
0.65885977 0.018994235 -0.0082390462
0.68239048 0.019672601 -0.0085332978
0.70592118 0.020350966 -0.0088275495
0.72945189 0.021029332 -0.0091218011
0.7529826 0.021707697 -0.0094160527
0.0044803193 0.031728714 0.00010532556
0.028011025 0.032407079 -0.00018892609
0.051541731 0.033085445 -0.00048317774
0.075072438 0.03376381 -0.00077742939
0.098603144 0.034442176 -0.001071681
0.12213385 0.035120541 -0.0013659327
0.14566456 0.035798907 -0.0016601843
0.16919526 0.036477272 -0.001954436
0.19272597 0.037155638 -0.0022486876
0.21625667 0.037834004 -0.0025429393
0.23978738 0.038512369 -0.0028371909
0.26331809 0.039190735 -0.0031314426
0.28684879 0.0398691 -0.0034256942
0.3103795 0.040547466 -0.0037199459
0.3339102 0.041225831 -0.0040141975
0.35744091 0.041904197 -0.0043084492
0.38097162 0.042582562 -0.0046027008
0.40450232 0.043260928 -0.0048969525
0.42803303 0.043939293 -0.0051912041
0.45156374 0.044617659 -0.0054854558
0.47509444 0.045296025 -0.0057797074
0.49862515 0.04597439 -0.0060739591
0.52215585 0.046652756 -0.0063682107
0.54568656 0.047331121 -0.0066624624
0.56921727 0.048009487 -0.006956714
0.59274797 0.048687852 -0.0072509657
0.61627868 0.049366218 -0.0075452173
0.63980938 0.050044583 -0.0078394689
0.66334009 0.050722949 -0.0081337206
0.6868708 0.051401314 -0.0084279722
0.7104015 0.05207968 -0.0087222239
0.73393221 0.052758046 -0.0090164755
0.75746291 0.053436411 -0.0093107272
0.0089606385 0.063457427 0.00021065112
0.032491345 0.064135793 -0.000083600532
0.056022051 0.064814158 -0.00037785218
0.079552757 0.065492524 -0.00067210383
0.10308346 0.066170889 -0.00096635548
0.12661417 0.066849255 -0.0012606071
0.15014488 0.06752762 -0.0015548588
0.17367558 0.068205986 -0.0018491104
0.19720629 0.068884352 -0.0021433621
0.22073699 0.069562717 -0.0024376137
0.2442677 0.070241083 -0.0027318654
0.26779841 0.070919448 -0.003026117
0.29132911 0.071597814 -0.0033203687
0.31485982 0.072276179 -0.0036146203
0.33839052 0.072954545 -0.003908872
0.36192123 0.07363291 -0.0042031236
0.38545194 0.074311276 -0.0044973753
0.40898264 0.074989641 -0.0047916269
0.43251335 0.075668007 -0.0050858786
0.45604405 0.076346373 -0.0053801302
0.47957476 0.077024738 -0.0056743819
0.50310547 0.077703104 -0.0059686335
0.52663617 0.078381469 -0.0062628851
0.55016688 0.079059835 -0.0065571368
0.57369759 0.0797382 -0.0068513884
0.59722829 0.080416566 -0.0071456401
0.620759 0.081094931 -0.0074398917
0.6442897 0.081773297 -0.0077341434
0.66782041 0.082451662 -0.008028395
0.69135112 0.083130028 -0.0083226467
0.71488182 0.083808394 -0.0086168983
0.73841253 0.084486759 -0.00891115
0.76194323 0.085165125 -0.0092054016
0.013440958 0.095186141 0.00031597667
0.036971664 0.095864506 0.000021725026
0.06050237 0.096542872 -0.00027252662
0.084033076 0.097221237 -0.00056677827
0.10756378 0.097899603 -0.00086102992
0.13109449 0.098577969 -0.0011552816
0.15462519 0.099256334 -0.0014495332
0.1781559 0.0999347 -0.0017437849
0.20168661 0.10061307 -0.0020380365
0.22521731 0.10129143 -0.0023322882
0.24874802 0.1019698 -0.0026265398
0.27227872 0.10264816 -0.0029207915
0.29580943 0.10332653 -0.0032150431
0.31934014 0.10400489 -0.0035092948
0.34287084 0.10468326 -0.0038035464
0.36640155 0.10536162 -0.0040977981
0.38993226 0.10603999 -0.0043920497
0.41346296 0.10671836 -0.0046863013
0.43699367 0.10739672 -0.004980553
0.46052437 0.10807509 -0.0052748046
0.48405508 0.10875345 -0.0055690563
0.50758579 0.10943182 -0.0058633079
0.53111649 0.11011018 -0.0061575596
0.5546472 0.11078855 -0.0064518112
0.5781779 0.11146691 -0.0067460629
0.60170861 0.11214528 -0.0070403145
0.62523932 0.11282364 -0.0073345662
0.64877002 0.11350201 -0.0076288178
0.67230073 0.11418038 -0.0079230695
0.69583143 0.11485874 -0.0082173211
0.71936214 0.11553711 -0.0085115728
0.74289285 0.11621547 -0.0088058244
0.76642355 0.11689384 -0.0091000761
0.017921277 0.12691485 0.00042130223
0.041451983 0.12759322 0.00012705058
0.064982689 0.12827159 -0.00016720106
0.088513395 0.12894995 -0.00046145271
0.1120441 0.12962832 -0.00075570436
0.13557481 0.13030668 -0.001049956
0.15910551 0.13098505 -0.0013442077
0.18263622 0.13166341 -0.0016384593
0.20616693 0.13234178 -0.001932711
0.22969763 0.13302014 -0.0022269626
0.25322834 0.13369851 -0.0025212143
0.27675904 0.13437688 -0.0028154659
0.30028975 0.13505524 -0.0031097175
0.32382046 0.13573361 -0.0034039692
0.34735116 0.13641197 -0.0036982208
0.37088187 0.13709034 -0.0039924725
0.39441257 0.1377687 -0.0042867241
0.41794328 0.13844707 -0.0045809758
0.44147399 0.13912543 -0.0048752274
0.46500469 0.1398038 -0.0051694791
0.4885354 0.14048217 -0.0054637307
0.51206611 0.14116053 -0.0057579824
0.53559681 0.1418389 -0.006052234
0.55912752 0.14251726 -0.0063464857
0.58265822 0.14319563 -0.0066407373
0.60618893 0.14387399 -0.006934989
0.62971964 0.14455236 -0.0072292406
0.65325034 0.14523072 -0.0075234923
0.67678105 0.14590909 -0.0078177439
0.70031175 0.14658746 -0.0081119956
0.72384246 0.14726582 -0.0084062472
0.74737317 0.14794419 -0.0087004989
0.77090387 0.14862255 -0.0089947505
0.022401596 0.15864357 0.00052662779
0.045932302 0.15932193 0.00023237614
0.069463008 0.1600003 -0.000061875506
0.092993715 0.16067866 -0.00035612715
0.11652442 0.16135703 -0.0006503788
0.14005513 0.1620354 -0.00094463045
0.16358583 0.16271376 -0.0012388821
0.18711654 0.16339213 -0.0015331337
0.21064725 0.16407049 -0.0018273854
0.23417795 0.16474886 -0.002121637
0.25770866 0.16542722 -0.0024158887
0.28123936 0.16610559 -0.0027101403
0.30477007 0.16678395 -0.003004392
0.32830078 0.16746232 -0.0032986436
0.35183148 0.16814069 -0.0035928953
0.37536219 0.16881905 -0.0038871469
0.39889289 0.16949742 -0.0041813986
0.4224236 0.17017578 -0.0044756502
0.44595431 0.17085415 -0.0047699019
0.46948501 0.17153251 -0.0050641535
0.49301572 0.17221088 -0.0053584052
0.51654642 0.17288924 -0.0056526568
0.54007713 0.17356761 -0.0059469085
0.56360784 0.17424598 -0.0062411601
0.58713854 0.17492434 -0.0065354118
0.61066925 0.17560271 -0.0068296634
0.63419996 0.17628107 -0.0071239151
0.65773066 0.17695944 -0.0074181667
0.68126137 0.1776378 -0.0077124184
0.70479207 0.17831617 -0.00800667
0.72832278 0.17899453 -0.0083009217
0.75185349 0.1796729 -0.0085951733
0.77538419 0.18035127 -0.008889425
0.026881916 0.19037228 0.00063195335
0.050412622 0.19105065 0.0003377017
0.073943328 0.19172901 0.000043450052
0.097474034 0.19240738 -0.0002508016
0.12100474 0.19308574 -0.00054505325
0.14453545 0.19376411 -0.00083930489
0.16806615 0.19444247 -0.0011335565
0.19159686 0.19512084 -0.0014278082
0.21512756 0.19579921 -0.0017220598
0.23865827 0.19647757 -0.0020163115
0.26218898 0.19715594 -0.0023105631
0.28571968 0.1978343 -0.0026048148
0.30925039 0.19851267 -0.0028990664
0.33278109 0.19919103 -0.0031933181
0.3563118 0.1998694 -0.0034875697
0.37984251 0.20054776 -0.0037818214
0.40337321 0.20122613 -0.004076073
0.42690392 0.2019045 -0.0043703247
0.45043463 0.20258286 -0.0046645763
0.47396533 0.20326123 -0.004958828
0.49749604 0.20393959 -0.0052530796
0.52102674 0.20461796 -0.0055473313
0.54455745 0.20529632 -0.0058415829
0.56808816 0.20597469 -0.0061358346
0.59161886 0.20665305 -0.0064300862
0.61514957 0.20733142 -0.0067243379
0.63868027 0.20800979 -0.0070185895
0.66221098 0.20868815 -0.0073128412
0.68574169 0.20936652 -0.0076070928
0.70927239 0.21004488 -0.0079013445
0.7328031 0.21072325 -0.0081955961
0.7563338 0.21140161 -0.0084898478
0.77986451 0.21207998 -0.0087840994
0.031362235 0.222101 0.00073727891
0.054892941 0.22277936 0.00044302726
0.078423647 0.22345773 0.00014877561
0.10195435 0.22413609 -0.00014547604
0.12548506 0.22481446 -0.00043972769
0.14901577 0.22549282 -0.00073397934
0.17254647 0.22617119 -0.001028231
0.19607718 0.22684955 -0.0013224826
0.21960788 0.22752792 -0.0016167343
0.24313859 0.22820629 -0.0019109859
0.2666693 0.22888465 -0.0022052376
0.2902 0.22956302 -0.0024994892
0.31373071 0.23024138 -0.0027937409
0.33726141 0.23091975 -0.0030879925
0.36079212 0.23159811 -0.0033822442
0.38432283 0.23227648 -0.0036764958
0.40785353 0.23295484 -0.0039707475
0.43138424 0.23363321 -0.0042649991
0.45491494 0.23431158 -0.0045592508
0.47844565 0.23498994 -0.0048535024
0.50197636 0.23566831 -0.0051477541
0.52550706 0.23634667 -0.0054420057
0.54903777 0.23702504 -0.0057362574
0.57256848 0.2377034 -0.006030509
0.59609918 0.23838177 -0.0063247607
0.61962989 0.23906013 -0.0066190123
0.64316059 0.2397385 -0.006913264
0.6666913 0.24041686 -0.0072075156
0.69022201 0.24109523 -0.0075017672
0.71375271 0.2417736 -0.0077960189
0.73728342 0.24245196 -0.0080902705
0.76081412 0.24313033 -0.0083845222
0.78434483 0.24380869 -0.0086787738
0.035842554 0.25382971 0.00084260446
0.05937326 0.25450807 0.00054835282
0.082903966 0.25518644 0.00025410117
0.10643467 0.25586481 -0.000040150481
0.12996538 0.25654317 -0.00033440213
0.15349608 0.25722154 -0.00062865378
0.17702679 0.2578999 -0.00092290543
0.2005575 0.25857827 -0.0012171571
0.2240882 0.25925663 -0.0015114087
0.24761891 0.259935 -0.0018056604
0.27114962 0.26061336 -0.002099912
0.29468032 0.26129173 -0.0023941637
0.31821103 0.2619701 -0.0026884153
0.34174173 0.26264846 -0.002982667
0.36527244 0.26332683 -0.0032769186
0.38880315 0.26400519 -0.0035711703
0.41233385 0.26468356 -0.0038654219
0.43586456 0.26536192 -0.0041596736
0.45939526 0.26604029 -0.0044539252
0.48292597 0.26671865 -0.0047481769
0.50645668 0.26739702 -0.0050424285
0.52998738 0.26807539 -0.0053366802
0.55351809 0.26875375 -0.0056309318
0.57704879 0.26943212 -0.0059251834
0.6005795 0.27011048 -0.0062194351
0.62411021 0.27078885 -0.0065136867
0.64764091 0.27146721 -0.0068079384
0.67117162 0.27214558 -0.00710219
0.69470233 0.27282394 -0.0073964417
0.71823303 0.27350231 -0.0076906933
0.74176374 0.27418068 -0.007984945
0.76529444 0.27485904 -0.0082791966
0.78882515 0.27553741 -0.0085734483
0.040322873 0.28555842 0.00094793002
0.063853579 0.28623679 0.00065367837
0.087384286 0.28691515 0.00035942673
0.11091499 0.28759352 0.000065175078
0.1344457 0.28827188 -0.00022907657
0.1579764 0.28895025 -0.00052332822
0.18150711 0.28962862 -0.00081757987
0.20503782 0.29030698 -0.0011118315
0.22856852 0.29098535 -0.0014060832
0.25209923 0.29166371 -0.0017003348
0.27562993 0.29234208 -0.0019945865
0.29916064 0.29302044 -0.0022888381
0.32269135 0.29369881 -0.0025830898
0.34622205 0.29437717 -0.0028773414
0.36975276 0.29505554 -0.0031715931
0.39328346 0.29573391 -0.0034658447
0.41681417 0.29641227 -0.0037600964
0.44034488 0.29709064 -0.004054348
0.46387558 0.297769 -0.0043485996
0.48740629 0.29844737 -0.0046428513
0.510937 0.29912573 -0.0049371029
0.5344677 0.2998041 -0.0052313546
0.55799841 0.30048246 -0.0055256062
0.58152911 0.30116083 -0.0058198579
0.60505982 0.3018392 -0.0061141095
0.62859053 0.30251756 -0.0064083612
0.65212123 0.30319593 -0.0067026128
0.67565194 0.30387429 -0.0069968645
0.69918264 0.30455266 -0.0072911161
0.72271335 0.30523102 -0.0075853678
0.74624406 0.30590939 -0.0078796194
0.76977476 0.30658775 -0.0081738711
0.79330547 0.30726612 -0.0084681227
0.044803193 0.31728714 0.0010532556
0.068333899 0.3179655 0.00075900393
0.091864605 0.31864387 0.00046475228
0.11539531 0.31932223 0.00017050064
0.13892602 0.3200006 -0.00012375101
0.16245672 0.32067896 -0.00041800266
0.18598743 0.32135733 -0.00071225431
0.20951814 0.32203569 -0.001006506
0.23304884 0.32271406 -0.0013007576
0.25657955 0.32339243 -0.0015950093
0.28011025 0.32407079 -0.0018892609
0.30364096 0.32474916 -0.0021835126
0.32717167 0.32542752 -0.0024777642
0.35070237 0.32610589 -0.0027720158
0.37423308 0.32678425 -0.0030662675
0.39776378 0.32746262 -0.0033605191
0.42129449 0.32814098 -0.0036547708
0.4448252 0.32881935 -0.0039490224
0.4683559 0.32949772 -0.0042432741
0.49188661 0.33017608 -0.0045375257
0.51541731 0.33085445 -0.0048317774
0.53894802 0.33153281 -0.005126029
0.56247873 0.33221118 -0.0054202807
0.58600943 0.33288954 -0.0057145323
0.60954014 0.33356791 -0.006008784
0.63307085 0.33424627 -0.0063030356
0.65660155 0.33492464 -0.0065972873
0.68013226 0.33560301 -0.0068915389
0.70366296 0.33628137 -0.0071857906
0.72719367 0.33695974 -0.0074800422
0.75072438 0.3376381 -0.0077742939
0.77425508 0.33831647 -0.0080685455
0.79778579 0.33899483 -0.0083627972
0.049283512 0.34901585 0.0011585811
0.072814218 0.34969422 0.00086432949
0.096344924 0.35037258 0.00057007784
0.11987563 0.35105095 0.00027582619
0.14340634 0.35172931 -0.000018425455
0.16693704 0.35240768 -0.0003126771
0.19046775 0.35308604 -0.00060692875
0.21399845 0.35376441 -0.0009011804
0.23752916 0.35444277 -0.001195432
0.26105987 0.35512114 -0.0014896837
0.28459057 0.35579951 -0.0017839353
0.30812128 0.35647787 -0.002078187
0.33165199 0.35715624 -0.0023724386
0.35518269 0.3578346 -0.0026666903
0.3787134 0.35851297 -0.0029609419
0.4022441 0.35919133 -0.0032551936
0.42577481 0.3598697 -0.0035494452
0.44930552 0.36054806 -0.0038436969
0.47283622 0.36122643 -0.0041379485
0.49636693 0.3619048 -0.0044322002
0.51989763 0.36258316 -0.0047264518
0.54342834 0.36326153 -0.0050207035
0.56695905 0.36393989 -0.0053149551
0.59048975 0.36461826 -0.0056092068
0.61402046 0.36529662 -0.0059034584
0.63755116 0.36597499 -0.0061977101
0.66108187 0.36665335 -0.0064919617
0.68461258 0.36733172 -0.0067862134
0.70814328 0.36801008 -0.007080465
0.73167399 0.36868845 -0.0073747167
0.7552047 0.36936682 -0.0076689683
0.7787354 0.37004518 -0.00796322
0.80226611 0.37072355 -0.0082574716
0.053763831 0.38074456 0.0012639067
0.077294537 0.38142293 0.00096965505
0.10082524 0.38210129 0.0006754034
0.12435595 0.38277966 0.00038115175
0.14788666 0.38345803 0.000086900103
0.17141736 0.38413639 -0.00020735155
0.19494807 0.38481476 -0.00050160319
0.21847877 0.38549312 -0.00079585484
0.24200948 0.38617149 -0.0010901065
0.26554019 0.38684985 -0.0013843581
0.28907089 0.38752822 -0.0016786098
0.3126016 0.38820658 -0.0019728614
0.3361323 0.38888495 -0.0022671131
0.35966301 0.38956332 -0.0025613647
0.38319372 0.39024168 -0.0028556164
0.40672442 0.39092005 -0.003149868
0.43025513 0.39159841 -0.0034441197
0.45378583 0.39227678 -0.0037383713
0.47731654 0.39295514 -0.004032623
0.50084725 0.39363351 -0.0043268746
0.52437795 0.39431187 -0.0046211263
0.54790866 0.39499024 -0.0049153779
0.57143937 0.39566861 -0.0052096296
0.59497007 0.39634697 -0.0055038812
0.61850078 0.39702534 -0.0057981329
0.64203148 0.3977037 -0.0060923845
0.66556219 0.39838207 -0.0063866362
0.6890929 0.39906043 -0.0066808878
0.7126236 0.3997388 -0.0069751395
0.73615431 0.40041716 -0.0072693911
0.75968501 0.40109553 -0.0075636428
0.78321572 0.4017739 -0.0078578944
0.80674643 0.40245226 -0.0081521461
0.05824415 0.41247328 0.0013692323
0.081774856 0.41315164 0.0010749806
0.10530556 0.41383001 0.00078072896
0.12883627 0.41450837 0.00048647731
0.15236697 0.41518674 0.00019222566
0.17589768 0.4158651 -0.00010202599
0.19942839 0.41654347 -0.00039627764
0.22295909 0.41722184 -0.00069052928
0.2464898 0.4179002 -0.00098478093
0.27002051 0.41857857 -0.0012790326
0.29355121 0.41925693 -0.0015732842
0.31708192 0.4199353 -0.0018675359
0.34061262 0.42061366 -0.0021617875
0.36414333 0.42129203 -0.0024560392
0.38767404 0.42197039 -0.0027502908
0.41120474 0.42264876 -0.0030445425
0.43473545 0.42332713 -0.0033387941
0.45826615 0.42400549 -0.0036330458
0.48179686 0.42468386 -0.0039272974
0.50532757 0.42536222 -0.0042215491
0.52885827 0.42604059 -0.0045158007
0.55238898 0.42671895 -0.0048100524
0.57591968 0.42739732 -0.005104304
0.59945039 0.42807568 -0.0053985557
0.6229811 0.42875405 -0.0056928073
0.6465118 0.42943242 -0.005987059
0.67004251 0.43011078 -0.0062813106
0.69357322 0.43078915 -0.0065755623
0.71710392 0.43146751 -0.0068698139
0.74063463 0.43214588 -0.0071640655
0.76416533 0.43282424 -0.0074583172
0.78769604 0.43350261 -0.0077525688
0.81122675 0.43418097 -0.0080468205
0.06272447 0.44420199 0.0014745578
0.086255176 0.44488036 0.0011803062
0.10978588 0.44555872 0.00088605452
0.13331659 0.44623709 0.00059180287
0.15684729 0.44691545 0.00029755122
0.180378 0.44759382 0.0000032995711
0.20390871 0.44827218 -0.00029095208
0.22743941 0.44895055 -0.00058520373
0.25097012 0.44962891 -0.00087945537
0.27450082 0.45030728 -0.001173707
0.29803153 0.45098565 -0.0014679587
0.32156224 0.45166401 -0.0017622103
0.34509294 0.45234238 -0.002056462
0.36862365 0.45302074 -0.0023507136
0.39215436 0.45369911 -0.0026449653
0.41568506 0.45437747 -0.0029392169
0.43921577 0.45505584 -0.0032334686
0.46274647 0.4557342 -0.0035277202
0.48627718 0.45641257 -0.0038219719
0.50980789 0.45709094 -0.0041162235
0.53333859 0.4577693 -0.0044104752
0.5568693 0.45844767 -0.0047047268
0.5804 0.45912603 -0.0049989785
0.60393071 0.4598044 -0.0052932301
0.62746142 0.46048276 -0.0055874817
0.65099212 0.46116113 -0.0058817334
0.67452283 0.46183949 -0.006175985
0.69805353 0.46251786 -0.0064702367
0.72158424 0.46319623 -0.0067644883
0.74511495 0.46387459 -0.00705874
0.76864565 0.46455296 -0.0073529916
0.79217636 0.46523132 -0.0076472433
0.81570707 0.46590969 -0.0079414949
0.067204789 0.4759307 0.0015798834
0.090735495 0.47660907 0.0012856317
0.1142662 0.47728744 0.00099138007
0.13779691 0.4779658 0.00069712843
0.16132761 0.47864417 0.00040287678
0.18485832 0.47932253 0.00010862513
0.20838903 0.4800009 -0.00018562652
0.23191973 0.48067926 -0.00047987817
0.25545044 0.48135763 -0.00077412982
0.27898114 0.48203599 -0.0010683815
0.30251185 0.48271436 -0.0013626331
0.32604256 0.48339273 -0.0016568848
0.34957326 0.48407109 -0.0019511364
0.37310397 0.48474946 -0.0022453881
0.39663467 0.48542782 -0.0025396397
0.42016538 0.48610619 -0.0028338914
0.44369609 0.48678455 -0.003128143
0.46722679 0.48746292 -0.0034223947
0.4907575 0.48814128 -0.0037166463
0.5142882 0.48881965 -0.0040108979
0.53781891 0.48949802 -0.0043051496
0.56134962 0.49017638 -0.0045994012
0.58488032 0.49085475 -0.0048936529
0.60841103 0.49153311 -0.0051879045
0.63194174 0.49221148 -0.0054821562
0.65547244 0.49288984 -0.0057764078
0.67900315 0.49356821 -0.0060706595
0.70253385 0.49424657 -0.0063649111
0.72606456 0.49492494 -0.0066591628
0.74959527 0.4956033 -0.0069534144
0.77312597 0.49628167 -0.0072476661
0.79665668 0.49696004 -0.0075419177
0.82018738 0.4976384 -0.0078361694
0.071685108 0.50765942 0.0016852089
0.095215814 0.50833778 0.0013909573
0.11874652 0.50901615 0.0010967056
0.14227723 0.50969451 0.00080245398
0.16580793 0.51037288 0.00050820234
0.18933864 0.51105125 0.00021395069
0.21286934 0.51172961 -0.000080300961
0.23640005 0.51240798 -0.00037455261
0.25993076 0.51308634 -0.00066880426
0.28346146 0.51376471 -0.00096305591
0.30699217 0.51444307 -0.0012573076
0.33052288 0.51512144 -0.0015515592
0.35405358 0.5157998 -0.0018458109
0.37758429 0.51647817 -0.0021400625
0.40111499 0.51715654 -0.0024343141
0.4246457 0.5178349 -0.0027285658
0.44817641 0.51851327 -0.0030228174
0.47170711 0.51919163 -0.0033170691
0.49523782 0.51987 -0.0036113207
0.51876852 0.52054836 -0.0039055724
0.54229923 0.52122673 -0.004199824
0.56582994 0.52190509 -0.0044940757
0.58936064 0.52258346 -0.0047883273
0.61289135 0.52326183 -0.005082579
0.63642205 0.52394019 -0.0053768306
0.65995276 0.52461856 -0.0056710823
0.68348347 0.52529692 -0.0059653339
0.70701417 0.52597529 -0.0062595856
0.73054488 0.52665365 -0.0065538372
0.75407559 0.52733202 -0.0068480889
0.77760629 0.52801038 -0.0071423405
0.801137 0.52868875 -0.0074365922
0.8246677 0.52936712 -0.0077308438
0.076165427 0.53938813 0.0017905345
0.099696133 0.5400665 0.0014962828
0.12322684 0.54074486 0.0012020312
0.14675755 0.54142323 0.00090777954
0.17028825 0.54210159 0.00061352789
0.19381896 0.54277996 0.00031927625
0.21734966 0.54345832 0.000025024597
0.24088037 0.54413669 -0.00026922705
0.26441108 0.54481506 -0.0005634787
0.28794178 0.54549342 -0.00085773035
0.31147249 0.54617179 -0.001151982
0.33500319 0.54685015 -0.0014462336
0.3585339 0.54752852 -0.0017404853
0.38206461 0.54820688 -0.0020347369
0.40559531 0.54888525 -0.0023289886
0.42912602 0.54956361 -0.0026232402
0.45265673 0.55024198 -0.0029174919
0.47618743 0.55092035 -0.0032117435
0.49971814 0.55159871 -0.0035059952
0.52324884 0.55227708 -0.0038002468
0.54677955 0.55295544 -0.0040944985
0.57031026 0.55363381 -0.0043887501
0.59384096 0.55431217 -0.0046830018
0.61737167 0.55499054 -0.0049772534
0.64090237 0.5556689 -0.0052715051
0.66443308 0.55634727 -0.0055657567
0.68796379 0.55702564 -0.0058600084
0.71149449 0.557704 -0.00615426
0.7350252 0.55838237 -0.0064485117
0.7585559 0.55906073 -0.0067427633
0.78208661 0.5597391 -0.007037015
0.80561732 0.56041746 -0.0073312666
0.82914802 0.56109583 -0.0076255183
0.080645747 0.57111684 0.00189586
0.10417645 0.57179521 0.0016016084
0.12770716 0.57247358 0.0013073567
0.15123786 0.57315194 0.0010131051
0.17476857 0.57383031 0.00071885345
0.19829928 0.57450867 0.0004246018
0.22182998 0.57518704 0.00013035016
0.24536069 0.5758654 -0.00016390149
0.2688914 0.57654377 -0.00045815314
0.2924221 0.57722213 -0.00075240479
0.31595281 0.5779005 -0.0010466564
0.33948351 0.57857887 -0.0013409081
0.36301422 0.57925723 -0.0016351597
0.38654493 0.5799356 -0.0019294114
0.41007563 0.58061396 -0.002223663
0.43360634 0.58129233 -0.0025179147
0.45713704 0.58197069 -0.0028121663
0.48066775 0.58264906 -0.003106418
0.50419846 0.58332742 -0.0034006696
0.52772916 0.58400579 -0.0036949213
0.55125987 0.58468416 -0.0039891729
0.57479057 0.58536252 -0.0042834246
