site/assets/luts/ocio-aces--appleinputapple-log-to-aces2065-1--c8358ecd0.cube
# LUTr-Project: LUTr — LUTrepository
# LUTr-Schema-Version: 1
# LUTr-ID: ocio-aces--appleinputapple-log-to-aces2065-1--c8358ecd0
# LUTr-Title: Apple.Input.Apple Log to ACES2065-1
# LUTr-Collection: OCIO ACES
# LUTr-Collection-ID: aswf-opencolorio-config-aces
# LUTr-Source: https://github.com/AcademySoftwareFoundation/OpenColorIO-Config-ACES
# LUTr-Source-File: submissions/aswf-opencolorio-config-aces/opencolorio_config_aces/clf/transforms/apple/input/Apple.Input.Apple_Log_to_ACES2065-1.clf
# LUTr-Source-Format: CLF
# LUTr-Source-SHA256: 060f87488cd58a35b23f4f2b3355425109eeaa5f78cabc86819d2b7bcf107182
# LUTr-License: BSD-3-Clause
# LUTr-License-URL: https://github.com/AcademySoftwareFoundation/OpenColorIO-Config-ACES/blob/main/LICENSE
# LUTr-Tags: technical, aces, ocio, clf, color-management, cube
# LUTr-Transform-Class: color-space-conversion
# LUTr-Input-Color-Space: Apple Log
# LUTr-Output-Color-Space: ACES2065-1
# LUTr-Color-Space-Confidence: descriptor-only
# LUTr-Conversion-Method: CLF operations evaluated as float and sampled to 33x33x33 3D CUBE
# LUTr-Conversion-Date: 2026-07-27
# LUTr-Conversion-Tool: LUTr scripts/convert-all-to-cube.mjs
# LUTr-Conversion-Grid: 33x33x33
# LUTr-Conversion-Warning: A sampled 3D CUBE is bounded to DOMAIN_MIN/MAX 0..1 and cannot preserve CLF values outside its input domain.
# LUTr-Upstream-ID: urn:aswf:ocio:transformId:1.0:Apple:Input:Apple_Log_to_ACES2065-1:1.0
# LUTr-Upstream-Name: Apple Log to ACES2065-1
# LUTr-Upstream-Input-Descriptor: Apple Log
# LUTr-Upstream-Output-Descriptor: ACES2065-1
# LUTr-Upstream-Builtin-Transform: APPLE_LOG_to_ACES2065-1
# LUTr-Upstream-Operations: LUT1D → Matrix
# LUTr-Note: Preserve this metadata and the upstream license notices when redistributing.
TITLE "Apple.Input.Apple Log to ACES2065-1"
LUT_3D_SIZE 33
DOMAIN_MIN 0 0 0
DOMAIN_MAX 1 1 1
-0.056410879 -0.056410879 -0.056410879
-0.038953537 -0.0552283 -0.056425633
-0.031722467 -0.054738459 -0.056431745
-0.026173874 -0.054362591 -0.056436434
-0.021496193 -0.05404572 -0.056440388
-0.017375073 -0.053766551 -0.056443871
-0.013649296 -0.053514163 -0.05644702
-0.010163111 -0.053278005 -0.056449966
-0.005986495 -0.052995076 -0.056453496
-0.00060573078 -0.052630577 -0.056458044
0.0063263475 -0.052160991 -0.056463903
0.015256993 -0.051556019 -0.056471451
0.026762405 -0.05077663 -0.056481175
0.041584912 -0.049772537 -0.056493702
0.060680855 -0.048478957 -0.056509841
0.085282294 -0.046812429 -0.056530634
0.1169765 -0.044665428 -0.056557421
0.15780837 -0.041899433 -0.056591931
0.21041239 -0.038335979 -0.05663639
0.27818249 -0.033745159 -0.056693667
0.36549119 -0.027830772 -0.056767458
0.47797166 -0.020211222 -0.056862523
0.62288101 -0.010394904 -0.056984997
0.80956875 0.0022515276 -0.057142779
1.0500799 0.018544016 -0.057346052
1.3599322 0.03953375 -0.05760793
1.7591172 0.066574978 -0.05794531
2.2733899 0.10141237 -0.058379958
2.9359313 0.14629365 -0.058939919
3.7894879 0.20411451 -0.059661319
4.8891312 0.27860555 -0.060590706
6.3058094 0.37457288 -0.06178804
8.1309259 0.49820826 -0.063330575
-0.052356841 -0.03432705 -0.055679054
-0.034899499 -0.03314447 -0.055693809
-0.02766843 -0.03265463 -0.05569992
-0.022119836 -0.032278762 -0.05570461
-0.017442155 -0.031961891 -0.055708563
-0.013321035 -0.031682722 -0.055712046
-0.0095952581 -0.031430333 -0.055715195
-0.0061090729 -0.031194175 -0.055718142
-0.0019324573 -0.030911247 -0.055721672
0.003448307 -0.030546748 -0.055726219
0.010380385 -0.030077161 -0.055732078
0.019311031 -0.02947219 -0.055739626
0.030816443 -0.028692801 -0.05574935
0.045638949 -0.027688708 -0.055761878
0.064734893 -0.026395128 -0.055778017
0.089336332 -0.024728599 -0.055798809
0.12103054 -0.022581599 -0.055825596
0.16186241 -0.019815603 -0.055860106
0.21446642 -0.01625215 -0.055904566
0.28223653 -0.011661329 -0.055961843
0.36954523 -0.0057469423 -0.056035634
0.48202569 0.0018726073 -0.056130699
0.62693504 0.011688925 -0.056253172
0.81362279 0.024335357 -0.056410955
1.0541339 0.040627845 -0.056614228
1.3639862 0.061617579 -0.056876106
1.7631713 0.088658808 -0.057213485
2.2774439 0.1234962 -0.057648133
2.9399854 0.16837748 -0.058208094
3.793542 0.22619834 -0.058929495
4.8931853 0.30068938 -0.059858881
6.3098634 0.3966567 -0.061056216
8.13498 0.52029209 -0.06259875
-0.050677603 -0.025179626 -0.055375923
-0.033220261 -0.023997047 -0.055390677
-0.025989192 -0.023507206 -0.055396789
-0.020440598 -0.023131338 -0.055401478
-0.015762917 -0.022814467 -0.055405432
-0.011641797 -0.022535298 -0.055408915
-0.0079160202 -0.02228291 -0.055412063
-0.0044298351 -0.022046752 -0.05541501
-0.00025321943 -0.021763823 -0.05541854
0.0051275448 -0.021399324 -0.055423088
0.012059623 -0.020929738 -0.055428946
0.020990269 -0.020324766 -0.055436494
0.032495681 -0.019545377 -0.055446218
0.047318187 -0.018541284 -0.055458746
0.06641413 -0.017247704 -0.055474885
0.091015569 -0.015581176 -0.055495678
0.12270978 -0.013434175 -0.055522465
0.16354165 -0.01066818 -0.055556974
0.21614566 -0.0071047264 -0.055601434
0.28391577 -0.0025139054 -0.055658711
0.37122447 0.0034004815 -0.055732502
0.48370493 0.011020031 -0.055827567
0.62861428 0.020836349 -0.05595004
0.81530203 0.033482781 -0.056107823
1.0558132 0.049775269 -0.056311096
1.3656655 0.070765003 -0.056572974
1.7648505 0.097806232 -0.056910354
2.2791231 0.13264362 -0.057345002
2.9416646 0.17752491 -0.057904962
3.7952212 0.23534576 -0.058626363
4.8948645 0.3098368 -0.059555749
6.3115427 0.40580413 -0.060753084
8.1366592 0.52943952 -0.062295619
-0.049389079 -0.018160563 -0.055143322
-0.031931737 -0.016977983 -0.055158076
-0.024700668 -0.016488143 -0.055164187
-0.019152074 -0.016112275 -0.055168877
-0.014474393 -0.015795404 -0.05517283
-0.010353273 -0.015516234 -0.055176313
-0.0066274961 -0.015263846 -0.055179462
-0.0031413109 -0.015027688 -0.055182409
0.0010353047 -0.01474476 -0.055185939
0.006416069 -0.014380261 -0.055190486
0.013348147 -0.013910674 -0.055196345
0.022278793 -0.013305703 -0.055203893
0.033784205 -0.012526313 -0.055213617
0.048606711 -0.011522221 -0.055226145
0.067702655 -0.010228641 -0.055242284
0.092304094 -0.0085621121 -0.055263076
0.1239983 -0.0064151117 -0.055289863
0.16483017 -0.0036491162 -0.055324373
0.21743418 -0.000085662988 -0.055368833
0.28520429 0.004505158 -0.05542611
0.37251299 0.010419545 -0.055499901
0.48499346 0.018039094 -0.055594966
0.62990281 0.027855412 -0.055717439
0.81659055 0.040501844 -0.055875222
1.0571017 0.056794332 -0.056078495
1.366954 0.077784066 -0.056340373
1.766139 0.10482529 -0.056677752
2.2804117 0.13966269 -0.057112401
2.9429531 0.18454397 -0.057672361
3.7965097 0.24236483 -0.058393762
4.896153 0.31685586 -0.059323148
6.3128312 0.41282319 -0.060520483
8.1379477 0.53645858 -0.062063018
-0.048302803 -0.012243218 -0.05494723
-0.030845461 -0.011060638 -0.054961984
-0.023614391 -0.010570798 -0.054968096
-0.018065798 -0.01019493 -0.054972785
-0.013388117 -0.0098780587 -0.054976739
-0.0092669969 -0.0095988895 -0.054980222
-0.0055412198 -0.0093465013 -0.054983371
-0.0020550347 -0.0091103433 -0.054986317
0.002121581 -0.0088274148 -0.054989847
0.0075023452 -0.0084629159 -0.054994395
0.014434424 -0.0079933294 -0.055000253
0.023365069 -0.0073883577 -0.055007801
0.034870481 -0.0066089685 -0.055017525
0.049692988 -0.0056048757 -0.055030053
0.068788931 -0.0043112956 -0.055046192
0.09339037 -0.0026447673 -0.055066985
0.12508458 -0.00049776685 -0.055093772
0.16591645 0.0022682287 -0.055128282
0.21852046 0.0058316819 -0.055172741
0.28629057 0.010422503 -0.055230018
0.37359927 0.01633689 -0.055303809
0.48607973 0.023956439 -0.055398874
0.63098908 0.033772757 -0.055521347
0.81767683 0.046419189 -0.05567913
1.058188 0.062711677 -0.055882403
1.3680403 0.083701411 -0.056144281
1.7672253 0.11074264 -0.056481661
2.2814979 0.14558003 -0.056916309
2.9440394 0.19046131 -0.057476269
3.797596 0.24828217 -0.05819767
4.8972393 0.32277321 -0.059127056
6.3139175 0.41874054 -0.060324391
8.139034 0.54237592 -0.061866926
-0.047345774 -0.0070299322 -0.054774469
-0.029888432 -0.0058473528 -0.054789224
-0.022657363 -0.0053575122 -0.054795335
-0.017108769 -0.0049816444 -0.054800025
-0.012431088 -0.0046647732 -0.054803978
-0.0083099683 -0.004385604 -0.054807461
-0.0045841912 -0.0041332158 -0.05481061
-0.0010980061 -0.0038970578 -0.054813557
0.0030786096 -0.0036141293 -0.054817087
0.0084593738 -0.0032496305 -0.054821634
0.015391452 -0.0027800439 -0.054827493
0.024322098 -0.0021750722 -0.054835041
0.03582751 -0.001395683 -0.054844765
0.050650016 -0.00039159022 -0.054857293
0.069745959 0.00090198983 -0.054873432
0.094347398 0.0025685182 -0.054894224
0.12604161 0.0047155186 -0.054921011
0.16687348 0.0074815142 -0.054955521
0.21947749 0.011044967 -0.054999981
0.28724759 0.015635788 -0.055057258
0.3745563 0.021550175 -0.055131049
0.48703676 0.029169725 -0.055226114
0.63194611 0.038986043 -0.055348587
0.81863386 0.051632474 -0.05550637
1.059145 0.067924962 -0.055709643
1.3689973 0.088914697 -0.055971521
1.7681823 0.11595593 -0.0563089
2.282455 0.15079332 -0.056743548
2.9449964 0.1956746 -0.057303509
3.798553 0.25349546 -0.05802491
4.8981963 0.32798649 -0.058954296
6.3148745 0.42395382 -0.060151631
8.139991 0.54758921 -0.061694165
-0.046480554 -0.0023167619 -0.054618282
-0.029023212 -0.0011341825 -0.054633036
-0.021792143 -0.0006443419 -0.054639148
-0.016243549 -0.00026847411 -0.054643837
-0.011565868 0.000048397125 -0.054647791
-0.0074447483 0.00032756629 -0.054651274
-0.0037189712 0.0005799545 -0.054654423
-0.0002327861 0.00081611249 -0.054657369
0.0039438296 0.001099041 -0.054660899
0.0093245938 0.0014635399 -0.054665447
0.016256672 0.0019331264 -0.054671306
0.025187318 0.0025380981 -0.054678854
0.03669273 0.0033174873 -0.054688578
0.051515236 0.0043215801 -0.054701105
0.070611179 0.0056151601 -0.054717245
0.095212618 0.0072816885 -0.054738037
0.12690683 0.0094286889 -0.054764824
0.1677387 0.012194684 -0.054799334
0.22034271 0.015758138 -0.054843793
0.28811281 0.020348959 -0.054901071
0.37542152 0.026263346 -0.054974861
0.48790198 0.033882895 -0.055069926
0.63281133 0.043699213 -0.0551924
0.81949908 0.056345645 -0.055350183
1.0600102 0.072638133 -0.055553455
1.3698625 0.093627867 -0.055815334
1.7690475 0.1206691 -0.056152713
2.2833202 0.15550649 -0.056587361
2.9458617 0.20038777 -0.057147322
3.7994182 0.25820863 -0.057868722
4.8990615 0.33269967 -0.058798109
6.3157397 0.42866699 -0.059995443
8.1408562 0.55230238 -0.061537978
-0.045670974 0.0020933205 -0.054472139
-0.028213632 0.0032759 -0.054486893
-0.020982562 0.0037657405 -0.054493005
-0.015433969 0.0041416083 -0.054497694
-0.010756288 0.0044584795 -0.054501647
-0.0066351677 0.0047376487 -0.054505131
-0.0029093906 0.0049900369 -0.054508279
0.00057679453 0.0052261949 -0.054511226
0.0047534102 0.0055091234 -0.054514756
0.010134174 0.0058736223 -0.054519303
0.017066253 0.0063432088 -0.054525162
0.025996898 0.0069481805 -0.05453271
0.03750231 0.0077275697 -0.054542434
0.052324817 0.0087316625 -0.054554962
0.07142076 0.010025243 -0.054571101
0.096022199 0.011691771 -0.054591893
0.12771641 0.013838771 -0.054618681
0.16854828 0.016604767 -0.05465319
0.22115229 0.02016822 -0.05469765
0.2889224 0.024759041 -0.054754927
0.3762311 0.030673428 -0.054828718
0.48871156 0.038292978 -0.054923783
0.63362091 0.048109295 -0.055046256
0.82030866 0.060755727 -0.055204039
1.0608198 0.077048215 -0.055407312
1.3706721 0.098037949 -0.05566919
1.7698571 0.12507918 -0.056006569
2.2841298 0.15991657 -0.056441218
2.9466712 0.20479785 -0.057001178
3.8002278 0.26261871 -0.057722579
4.8998711 0.33710975 -0.058651965
6.3165493 0.43307707 -0.0598493
8.1416658 0.55671246 -0.061391835
-0.044701058 0.0073768092 -0.054297052
-0.027243716 0.0085593886 -0.054311806
-0.020012646 0.0090492291 -0.054317918
-0.014464053 0.0094250969 -0.054322607
-0.0097863714 0.0097419682 -0.054326561
-0.0056652516 0.010021137 -0.054330044
-0.0019394744 0.010273526 -0.054333193
0.0015467107 0.010509684 -0.054336139
0.0057233264 0.010792612 -0.054339669
0.011104091 0.011157111 -0.054344217
0.018036169 0.011626697 -0.054350075
0.026966815 0.012231669 -0.054357623
0.038472226 0.013011058 -0.054367347
0.053294733 0.014015151 -0.054379875
0.072390676 0.015308731 -0.054396014
0.096992115 0.01697526 -0.054416807
0.12868633 0.01912226 -0.054443594
0.1695182 0.021888256 -0.054478104
0.22212221 0.025451709 -0.054522563
0.28989231 0.03004253 -0.05457984
0.37720101 0.035956917 -0.054653631
0.48968148 0.043576466 -0.054748696
0.63459083 0.053392784 -0.054871169
0.82127857 0.066039216 -0.055028952
1.0617897 0.082331704 -0.055232225
1.371642 0.10332144 -0.055494103
1.770827 0.13036267 -0.055831483
2.2850997 0.16520006 -0.056266131
2.9476412 0.21008134 -0.056826091
3.8011977 0.2679022 -0.057547492
4.900841 0.34239324 -0.058476878
6.3175192 0.43836056 -0.059674213
8.1426357 0.56199595 -0.061216748
-0.043451508 0.014183566 -0.054071486
-0.025994166 0.015366145 -0.054086241
-0.018763096 0.015855986 -0.054092352
-0.013214503 0.016231854 -0.054097042
-0.0085368215 0.016548725 -0.054100995
-0.0044157016 0.016827894 -0.054104478
-0.00068992447 0.017080282 -0.054107627
0.0027962606 0.01731644 -0.054110573
0.0069728763 0.017599369 -0.054114103
0.012353641 0.017963868 -0.054118651
0.019285719 0.018433454 -0.05412451
0.028216365 0.019038426 -0.054132058
0.039721776 0.019817815 -0.054141782
0.054544283 0.020821908 -0.054154309
0.073640226 0.022115488 -0.054170449
0.098241665 0.023782016 -0.054191241
0.12993588 0.025929017 -0.054218028
0.17076775 0.028695012 -0.054252538
0.22337176 0.032258465 -0.054296997
0.29114186 0.036849286 -0.054354275
0.37845056 0.042763673 -0.054428065
0.49093103 0.050383223 -0.054523131
0.63584038 0.060199541 -0.054645604
0.82252812 0.072845972 -0.054803387
1.0630393 0.08913846 -0.05500666
1.3728916 0.11012819 -0.055268538
1.7720766 0.13716942 -0.055605917
2.2863492 0.17200681 -0.056040565
2.9488907 0.2168881 -0.056600526
3.8024473 0.27470895 -0.057321927
4.9020906 0.34919999 -0.058251313
6.3187688 0.44516732 -0.059448647
8.1438853 0.56880271 -0.060991182
-0.041841703 0.022952761 -0.053780888
-0.024384361 0.02413534 -0.053795643
-0.017153292 0.024625181 -0.053801754
-0.011604698 0.025001048 -0.053806444
-0.006927017 0.02531792 -0.053810397
-0.0028058971 0.025597089 -0.05381388
0.00091988 0.025849477 -0.053817029
0.0044060651 0.026085635 -0.053819976
0.0085826808 0.026368564 -0.053823506
0.013963445 0.026733062 -0.053828053
0.020895523 0.027202649 -0.053833912
0.029826169 0.027807621 -0.05384146
0.041331581 0.02858701 -0.053851184
0.056154088 0.029591103 -0.053863712
0.075250031 0.030884683 -0.053879851
0.09985147 0.032551211 -0.053900643
0.13154568 0.034698211 -0.05392743
0.17237755 0.037464207 -0.05396194
0.22498156 0.04102766 -0.0540064
0.29275167 0.045618481 -0.054063677
0.38006037 0.051532868 -0.054137468
0.49254083 0.059152418 -0.054232533
0.63745018 0.068968735 -0.054355006
0.82413793 0.081615167 -0.054512789
1.0646491 0.097907655 -0.054716062
1.3745014 0.11889739 -0.05497794
1.7736864 0.14593862 -0.055315319
2.287959 0.18077601 -0.055749967
2.9505005 0.22565729 -0.056309928
3.8040571 0.28347815 -0.057031329
4.9037004 0.35796919 -0.057960715
6.3203786 0.45393651 -0.05915805
8.1454951 0.5775719 -0.060700584
-0.039767781 0.034250177 -0.053406509
-0.022310439 0.035432756 -0.053421264
-0.015079369 0.035922597 -0.053427375
-0.0095307757 0.036298464 -0.053432065
-0.0048530945 0.036615336 -0.053436018
-0.0007319746 0.036894505 -0.053439501
0.0029938025 0.037146893 -0.05344265
0.0064799876 0.037383051 -0.053445596
0.010656603 0.03766598 -0.053449126
0.016037368 0.038030478 -0.053453674
0.022969446 0.038500065 -0.053459533
0.031900092 0.039105037 -0.053467081
0.043405503 0.039884426 -0.053476805
0.05822801 0.040888519 -0.053489332
0.077323953 0.042182099 -0.053505472
0.10192539 0.043848627 -0.053526264
0.1336196 0.045995627 -0.053553051
0.17445147 0.048761623 -0.053587561
0.22705548 0.052325076 -0.05363202
0.29482559 0.056915897 -0.053689298
0.38213429 0.062830284 -0.053763088
0.49461476 0.070449834 -0.053858154
0.63952411 0.080266151 -0.053980627
0.82621185 0.092912583 -0.05413841
1.066723 0.10920507 -0.054341683
1.3765753 0.13019481 -0.054603561
1.7757603 0.15723603 -0.05494094
2.290033 0.19207342 -0.055375588
2.9525744 0.23695471 -0.055935549
3.806131 0.29477556 -0.05665695
4.9057743 0.3692666 -0.057586336
6.3224525 0.46523393 -0.05878367
8.147569 0.58886932 -0.060326205
-0.037095932 0.048804715 -0.052924194
-0.01963859 0.049987294 -0.052938948
-0.012407521 0.050477135 -0.05294506
-0.0068589271 0.050853003 -0.052949749
-0.0021812459 0.051169874 -0.052953703
0.0019398739 0.051449043 -0.052957186
0.0056656511 0.051701431 -0.052960335
0.0091518362 0.051937589 -0.052963281
0.013328452 0.052220518 -0.052966811
0.018709216 0.052585016 -0.052971359
0.025641294 0.053054603 -0.052977218
0.03457194 0.053659575 -0.052984765
0.046077352 0.054438964 -0.052994489
0.060899859 0.055443057 -0.053007017
0.079995802 0.056736637 -0.053023156
0.10459724 0.058403165 -0.053043949
0.13629145 0.060550166 -0.053070736
0.17712332 0.063316161 -0.053105246
0.22972733 0.066879614 -0.053149705
0.29749744 0.071470435 -0.053206982
0.38480614 0.077384822 -0.053280773
0.4972866 0.085004372 -0.053375838
0.64219595 0.09482069 -0.053498311
0.8288837 0.10746712 -0.053656094
1.0693948 0.12375961 -0.053859367
1.3792472 0.14474934 -0.054121245
1.7784322 0.17179057 -0.054458625
2.2927048 0.20662796 -0.054893273
2.9552463 0.25150925 -0.055453233
3.8088029 0.3093301 -0.056174634
4.9084462 0.38382114 -0.05710402
6.3251243 0.47978847 -0.058301355
8.1502409 0.60342386 -0.05984389
-0.03365377 0.067555433 -0.052302824
-0.016196428 0.068738013 -0.052317578
-0.0089653584 0.069227853 -0.052323689
-0.003416765 0.069603721 -0.052328379
0.0012609162 0.069920592 -0.052332332
0.0053820361 0.070199762 -0.052335815
0.0091078132 0.07045215 -0.052338964
0.012593998 0.070688308 -0.052341911
0.016770614 0.070971236 -0.052345441
0.022151378 0.071335735 -0.052349988
0.029083457 0.071805322 -0.052355847
0.038014102 0.072410293 -0.052363395
0.049519514 0.073189683 -0.052373119
0.064342021 0.074193775 -0.052385647
0.083437964 0.075487355 -0.052401786
0.1080394 0.077153884 -0.052422578
0.13973361 0.079300884 -0.052449365
0.18056548 0.08206688 -0.052483875
0.23316949 0.085630333 -0.052528335
0.3009396 0.090221154 -0.052585612
0.3882483 0.096135541 -0.052659403
0.50072877 0.10375509 -0.052754468
0.64563812 0.11357141 -0.052876941
0.83232586 0.12621784 -0.053034724
1.072837 0.14251033 -0.053237997
1.3826893 0.16350006 -0.053499875
1.7818743 0.19054129 -0.053837254
2.296147 0.22537868 -0.054271902
2.9586884 0.27025997 -0.054831863
3.812245 0.32808082 -0.055553264
4.9118883 0.40257186 -0.05648265
6.3285665 0.49853919 -0.057679985
8.153683 0.62217458 -0.05922252
-0.029219207 0.09171212 -0.051502308
-0.011761865 0.0928947 -0.051517062
-0.0045307959 0.09338454 -0.051523173
0.0010177975 0.093760408 -0.051527863
0.0056954787 0.094077279 -0.051531816
0.0098165986 0.094356449 -0.051535299
0.013542376 0.094608837 -0.051538448
0.017028561 0.094844995 -0.051541395
0.021205177 0.095127923 -0.051544925
0.026585941 0.095492422 -0.051549472
0.033518019 0.095962009 -0.051555331
0.042448665 0.09656698 -0.051562879
0.053954076 0.09734637 -0.051572603
0.068776583 0.098350462 -0.051585131
0.087872526 0.099644042 -0.05160127
0.11247397 0.10131057 -0.051622062
0.14416818 0.10345757 -0.051648849
0.18500005 0.10622357 -0.051683359
0.23760406 0.10978702 -0.051727819
0.30537416 0.11437784 -0.051785096
0.39268286 0.12029223 -0.051858887
0.50516333 0.12791178 -0.051953952
0.65007268 0.1377281 -0.052076425
0.83676042 0.15037453 -0.052234208
1.0772716 0.16666702 -0.052437481
1.3871239 0.18765675 -0.052699359
1.7863089 0.21469798 -0.053036738
2.3005815 0.24953537 -0.053471387
2.963123 0.29441665 -0.054031347
3.8166796 0.35223751 -0.054752748
4.9163229 0.42672855 -0.055682134
6.3330011 0.52269587 -0.056879469
8.1581176 0.64633126 -0.058422004
-0.023506129 0.12283335 -0.050470997
-0.0060487871 0.12401593 -0.050485752
0.0011822824 0.12450577 -0.050491863
0.0067308759 0.12488164 -0.050496553
0.011408557 0.12519851 -0.050500506
0.015529677 0.12547768 -0.050503989
0.019255454 0.12573007 -0.050507138
0.022741639 0.12596623 -0.050510084
0.026918255 0.12624915 -0.050513614
0.032299019 0.12661365 -0.050518162
0.039231097 0.12708324 -0.050524021
0.048161743 0.12768821 -0.050531569
0.059667155 0.1284676 -0.050541293
0.074489662 0.12947169 -0.05055382
0.093585605 0.13076527 -0.05056996
0.11818704 0.1324318 -0.050590752
0.14988125 0.1345788 -0.050617539
0.19071312 0.1373448 -0.050652049
0.24331714 0.14090825 -0.050696508
0.31108724 0.14549907 -0.050753786
0.39839594 0.15141346 -0.050827576
0.51087641 0.15903301 -0.050922642
0.65578576 0.16884933 -0.051045115
0.8424735 0.18149576 -0.051202898
1.0829846 0.19778825 -0.051406171
1.392837 0.21877798 -0.051668049
1.792022 0.24581921 -0.052005428
2.3062946 0.2806566 -0.052440076
2.9688361 0.32553788 -0.053000037
3.8223927 0.38335874 -0.053721438
4.922036 0.45784978 -0.054650824
6.3387141 0.55381711 -0.055848158
8.1638307 0.67745249 -0.057390693
-0.016145929 0.16292706 -0.049142353
0.0013114126 0.16410964 -0.049157107
0.0085424822 0.16459948 -0.049163219
0.014091076 0.16497534 -0.049167908
0.018768757 0.16529222 -0.049171861
0.022889877 0.16557139 -0.049175345
0.026615654 0.16582377 -0.049178493
0.030101839 0.16605993 -0.04918144
0.034278455 0.16634286 -0.04918497
0.039659219 0.16670736 -0.049189517
0.046591297 0.16717695 -0.049195376
0.055521943 0.16778192 -0.049202924
0.067027355 0.16856131 -0.049212648
0.081849861 0.1695654 -0.049225176
0.1009458 0.17085898 -0.049241315
0.12554724 0.17252551 -0.049262108
0.15724145 0.17467251 -0.049288895
0.19807332 0.1774385 -0.049323404
0.25067733 0.18100196 -0.049367864
0.31844744 0.18559278 -0.049425141
0.40575614 0.19150716 -0.049498932
0.51823661 0.19912671 -0.049593997
0.66314596 0.20894303 -0.04971647
0.8498337 0.22158946 -0.049874253
1.0903448 0.23788195 -0.050077526
1.4001972 0.25887169 -0.050339404
1.7993822 0.28591291 -0.050676784
2.3136548 0.3207503 -0.051111432
2.9761963 0.36563159 -0.051671392
3.8297529 0.42345244 -0.052392793
4.9293962 0.49794348 -0.053322179
6.3460743 0.59391081 -0.054519514
8.1711909 0.7175462 -0.056062049
-0.006663733 0.21458006 -0.047430651
0.010793609 0.21576264 -0.047445405
0.018024679 0.21625248 -0.047451517
0.023573272 0.21662834 -0.047456206
0.028250953 0.21694521 -0.047460159
0.032372073 0.21722438 -0.047463643
0.03609785 0.21747677 -0.047466791
0.039584035 0.21771293 -0.047469738
0.043760651 0.21799586 -0.047473268
0.049141415 0.21836036 -0.047477815
0.056073494 0.21882994 -0.047483674
0.065004139 0.21943492 -0.047491222
0.076509551 0.2202143 -0.047500946
0.091332058 0.2212184 -0.047513474
0.110428 0.22251198 -0.047529613
0.13502944 0.22417851 -0.047550405
0.16672365 0.22632551 -0.047577193
0.20755552 0.2290915 -0.047611702
0.26015953 0.23265496 -0.047656162
0.32792964 0.23724578 -0.047713439
0.41523834 0.24316016 -0.04778723
0.5277188 0.25077971 -0.047882295
0.67262815 0.26059603 -0.048004768
0.8593159 0.27324246 -0.048162551
1.099827 0.28953495 -0.048365824
1.4096794 0.31052468 -0.048627702
1.8088644 0.33756591 -0.048965082
2.323137 0.3724033 -0.04939973
2.9856785 0.41728459 -0.04995969
3.8392351 0.47510544 -0.050681091
4.9388784 0.54959648 -0.051610477
6.3555565 0.64556381 -0.052807812
8.1806731 0.7691992 -0.054350347
0.005552253 0.28112501 -0.045225452
0.023009595 0.28230759 -0.045240206
0.030240665 0.28279743 -0.045246318
0.035789258 0.2831733 -0.045251007
0.040466939 0.28349017 -0.045254961
0.044588059 0.28376934 -0.045258444
0.048313836 0.28402172 -0.045261593
0.051800021 0.28425788 -0.045264539
0.055976637 0.28454081 -0.045268069
0.061357401 0.28490531 -0.045272617
0.06828948 0.2853749 -0.045278476
0.077220125 0.28597987 -0.045286023
0.088725537 0.28675926 -0.045295747
0.10354804 0.28776335 -0.045308275
0.12264399 0.28905693 -0.045324414
0.14724543 0.29072346 -0.045345207
0.17893964 0.29287046 -0.045371994
0.21977151 0.29563645 -0.045406504
0.27237552 0.29919991 -0.045450963
