site/assets/luts/ocio-aces--canoninputclog2-curve--693e13a88.cube
# LUTr-Project: LUTr — LUTrepository
# LUTr-Schema-Version: 1
# LUTr-ID: ocio-aces--canoninputclog2-curve--693e13a88
# LUTr-Title: Canon.Input.CLog2-Curve
# LUTr-Collection: OCIO ACES
# LUTr-Collection-ID: aswf-opencolorio-config-aces
# LUTr-Source: https://github.com/AcademySoftwareFoundation/OpenColorIO-Config-ACES
# LUTr-Source-File: submissions/aswf-opencolorio-config-aces/opencolorio_config_aces/clf/transforms/canon/input/Canon.Input.CLog2-Curve.clf
# LUTr-Source-Format: CLF
# LUTr-Source-SHA256: 3ff8c4ec335d9a18c2e37b3e18488d5273bd5720262c5afd510485f239746424
# LUTr-License: BSD-3-Clause
# LUTr-License-URL: https://github.com/AcademySoftwareFoundation/OpenColorIO-Config-ACES/blob/main/LICENSE
# LUTr-Tags: technical, aces, ocio, clf, color-management, cube
# LUTr-Transform-Class: color-space-conversion
# LUTr-Input-Color-Space: CLog2 Log (arbitrary primaries)
# LUTr-Output-Color-Space: CLog2 Linear (arbitrary primaries)
# LUTr-Color-Space-Confidence: descriptor-only
# LUTr-Conversion-Method: CLF operations evaluated as float and sampled to 33x33x33 3D CUBE
# LUTr-Conversion-Date: 2026-07-27
# LUTr-Conversion-Tool: LUTr scripts/convert-all-to-cube.mjs
# LUTr-Conversion-Grid: 33x33x33
# LUTr-Conversion-Warning: A sampled 3D CUBE is bounded to DOMAIN_MIN/MAX 0..1 and cannot preserve CLF values outside its input domain.
# LUTr-Upstream-ID: urn:aswf:ocio:transformId:1.0:Canon:Input:CLog2-Curve_to_Linear:1.0
# LUTr-Upstream-Name: CLog2 Log to Linear Curve
# LUTr-Upstream-Input-Descriptor: CLog2 Log (arbitrary primaries)
# LUTr-Upstream-Output-Descriptor: CLog2 Linear (arbitrary primaries)
# LUTr-Upstream-Builtin-Transform: CURVE - CANON_CLOG2_to_LINEAR
# LUTr-Upstream-Operations: LUT1D
# LUTr-Note: Preserve this metadata and the upstream license notices when redistributing.
TITLE "Canon.Input.CLog2-Curve"
LUT_3D_SIZE 5
DOMAIN_MIN 0 0 0
DOMAIN_MAX 1 1 1
-0.014726903 -0.014726903 -0.014726903
0.035933744 -0.014726903 -0.014726903
0.49208257 -0.014726903 -0.014726903
5.4454473 -0.014726903 -0.014726903
59.234501 -0.014726903 -0.014726903
-0.014726903 0.035933744 -0.014726903
0.035933744 0.035933744 -0.014726903
0.49208257 0.035933744 -0.014726903
5.4454473 0.035933744 -0.014726903
59.234501 0.035933744 -0.014726903
-0.014726903 0.49208257 -0.014726903
0.035933744 0.49208257 -0.014726903
0.49208257 0.49208257 -0.014726903
5.4454473 0.49208257 -0.014726903
59.234501 0.49208257 -0.014726903
-0.014726903 5.4454473 -0.014726903
0.035933744 5.4454473 -0.014726903
0.49208257 5.4454473 -0.014726903
5.4454473 5.4454473 -0.014726903
59.234501 5.4454473 -0.014726903
-0.014726903 59.234501 -0.014726903
0.035933744 59.234501 -0.014726903
0.49208257 59.234501 -0.014726903
5.4454473 59.234501 -0.014726903
59.234501 59.234501 -0.014726903
-0.014726903 -0.014726903 0.035933744
0.035933744 -0.014726903 0.035933744
0.49208257 -0.014726903 0.035933744
5.4454473 -0.014726903 0.035933744
59.234501 -0.014726903 0.035933744
-0.014726903 0.035933744 0.035933744
0.035933744 0.035933744 0.035933744
0.49208257 0.035933744 0.035933744
5.4454473 0.035933744 0.035933744
59.234501 0.035933744 0.035933744
-0.014726903 0.49208257 0.035933744
0.035933744 0.49208257 0.035933744
0.49208257 0.49208257 0.035933744
5.4454473 0.49208257 0.035933744
59.234501 0.49208257 0.035933744
-0.014726903 5.4454473 0.035933744
0.035933744 5.4454473 0.035933744
0.49208257 5.4454473 0.035933744
5.4454473 5.4454473 0.035933744
59.234501 5.4454473 0.035933744
-0.014726903 59.234501 0.035933744
0.035933744 59.234501 0.035933744
0.49208257 59.234501 0.035933744
5.4454473 59.234501 0.035933744
59.234501 59.234501 0.035933744
-0.014726903 -0.014726903 0.49208257
0.035933744 -0.014726903 0.49208257
0.49208257 -0.014726903 0.49208257
5.4454473 -0.014726903 0.49208257
59.234501 -0.014726903 0.49208257
-0.014726903 0.035933744 0.49208257
0.035933744 0.035933744 0.49208257
0.49208257 0.035933744 0.49208257
5.4454473 0.035933744 0.49208257
59.234501 0.035933744 0.49208257
-0.014726903 0.49208257 0.49208257
0.035933744 0.49208257 0.49208257
0.49208257 0.49208257 0.49208257
5.4454473 0.49208257 0.49208257
59.234501 0.49208257 0.49208257
-0.014726903 5.4454473 0.49208257
0.035933744 5.4454473 0.49208257
0.49208257 5.4454473 0.49208257
5.4454473 5.4454473 0.49208257
59.234501 5.4454473 0.49208257
-0.014726903 59.234501 0.49208257
0.035933744 59.234501 0.49208257
0.49208257 59.234501 0.49208257
5.4454473 59.234501 0.49208257
59.234501 59.234501 0.49208257
-0.014726903 -0.014726903 5.4454473
0.035933744 -0.014726903 5.4454473
0.49208257 -0.014726903 5.4454473
5.4454473 -0.014726903 5.4454473
59.234501 -0.014726903 5.4454473
-0.014726903 0.035933744 5.4454473
0.035933744 0.035933744 5.4454473
0.49208257 0.035933744 5.4454473
5.4454473 0.035933744 5.4454473
59.234501 0.035933744 5.4454473
-0.014726903 0.49208257 5.4454473
0.035933744 0.49208257 5.4454473
0.49208257 0.49208257 5.4454473
5.4454473 0.49208257 5.4454473
59.234501 0.49208257 5.4454473
-0.014726903 5.4454473 5.4454473
0.035933744 5.4454473 5.4454473
0.49208257 5.4454473 5.4454473
5.4454473 5.4454473 5.4454473
59.234501 5.4454473 5.4454473
-0.014726903 59.234501 5.4454473
0.035933744 59.234501 5.4454473
0.49208257 59.234501 5.4454473
5.4454473 59.234501 5.4454473
59.234501 59.234501 5.4454473
-0.014726903 -0.014726903 59.234501
0.035933744 -0.014726903 59.234501
0.49208257 -0.014726903 59.234501
5.4454473 -0.014726903 59.234501
59.234501 -0.014726903 59.234501
-0.014726903 0.035933744 59.234501
0.035933744 0.035933744 59.234501
0.49208257 0.035933744 59.234501
5.4454473 0.035933744 59.234501
59.234501 0.035933744 59.234501
-0.014726903 0.49208257 59.234501
0.035933744 0.49208257 59.234501
0.49208257 0.49208257 59.234501
5.4454473 0.49208257 59.234501
59.234501 0.49208257 59.234501
-0.014726903 5.4454473 59.234501
0.035933744 5.4454473 59.234501
0.49208257 5.4454473 59.234501
5.4454473 5.4454473 59.234501
59.234501 5.4454473 59.234501
-0.014726903 59.234501 59.234501
0.035933744 59.234501 59.234501
0.49208257 59.234501 59.234501
5.4454473 59.234501 59.234501
59.234501 59.234501 59.234501
