site/assets/luts/ocio-aces--arriinputarri-logc3-ei800-to-aces2065-1--23f4446ea.cube
# LUTr-Project: LUTr — LUTrepository
# LUTr-Schema-Version: 1
# LUTr-ID: ocio-aces--arriinputarri-logc3-ei800-to-aces2065-1--23f4446ea
# LUTr-Title: ARRI.Input.ARRI LogC3 EI800 to ACES2065-1
# LUTr-Collection: OCIO ACES
# LUTr-Collection-ID: aswf-opencolorio-config-aces
# LUTr-Source: https://github.com/AcademySoftwareFoundation/OpenColorIO-Config-ACES
# LUTr-Source-File: submissions/aswf-opencolorio-config-aces/opencolorio_config_aces/clf/transforms/arri/input/ARRI.Input.ARRI_LogC3_EI800_to_ACES2065-1.clf
# LUTr-Source-Format: CLF
# LUTr-Source-SHA256: 464c151133fe306d28b8166eee9278e6b77e1275438e1100534b08394e1eef70
# LUTr-License: BSD-3-Clause
# LUTr-License-URL: https://github.com/AcademySoftwareFoundation/OpenColorIO-Config-ACES/blob/main/LICENSE
# LUTr-Tags: technical, aces, ocio, clf, color-management, cube
# LUTr-Transform-Class: color-space-conversion
# LUTr-Input-Color-Space: ARRI LogC3 (EI800)
# LUTr-Output-Color-Space: ACES2065-1
# LUTr-Color-Space-Confidence: descriptor-only
# LUTr-Conversion-Method: CLF operations evaluated as float and sampled to 33x33x33 3D CUBE
# LUTr-Conversion-Date: 2026-07-27
# LUTr-Conversion-Tool: LUTr scripts/convert-all-to-cube.mjs
# LUTr-Conversion-Grid: 33x33x33
# LUTr-Conversion-Warning: A sampled 3D CUBE is bounded to DOMAIN_MIN/MAX 0..1 and cannot preserve CLF values outside its input domain.
# LUTr-Upstream-ID: urn:aswf:ocio:transformId:1.0:ARRI:Input:ARRI_LogC3_EI800_to_ACES2065-1:1.0
# LUTr-Upstream-Name: ARRI LogC3 (EI800) to ACES2065-1
# LUTr-Upstream-Input-Descriptor: ARRI LogC3 (EI800)
# LUTr-Upstream-Output-Descriptor: ACES2065-1
# LUTr-Upstream-Operations: Log → Matrix
# LUTr-Note: Preserve this metadata and the upstream license notices when redistributing.
TITLE "ARRI.Input.ARRI LogC3 EI800 to ACES2065-1"
LUT_3D_SIZE 33
DOMAIN_MIN 0 0 0
DOMAIN_MAX 1 1 1
-0.017290485 -0.017290485 -0.017290485
-0.013330391 -0.016793207 -0.017278513
-0.0093702958 -0.016295929 -0.01726654
-0.0054102009 -0.015798651 -0.017254567
-0.0014501061 -0.015301372 -0.017242594
0.0025361683 -0.014800807 -0.017230542
0.0074239935 -0.014187031 -0.017215764
0.013963377 -0.013365866 -0.017195993
0.022712369 -0.012267234 -0.017169541
0.034417577 -0.010797384 -0.017134152
0.050077885 -0.0088308833 -0.017086805
0.07102969 -0.0061999166 -0.01702346
0.099060949 -0.0026799664 -0.01693871
0.13656376 0.0020293478 -0.016825325
0.18673847 0.008329903 -0.016673628
0.25386684 0.016759367 -0.016470673
0.34367736 0.028037083 -0.016199141
0.46383417 0.043125452 -0.015835861
0.62459105 0.063312064 -0.015349832
0.83966643 0.090319578 -0.014699577
1.1274141 0.12645272 -0.013829605
1.5123896 0.17479498 -0.012665677
2.0274452 0.23947171 -0.011108466
2.7165343 0.32600222 -0.0090250865
3.6384612 0.44177071 -0.0062377485
4.8719001 0.59665649 -0.0025085904
6.5221085 0.80387699 0.0024806215
8.7299097 1.0811157 0.0091556498
11.68371 1.4520312 0.018086119
15.635576 1.9482763 0.030034124
20.922748 2.6121987 0.046019269
27.996415 3.5004554 0.067405672
37.460219 4.6888471 0.096018375
-0.01591572 -0.011366862 -0.017654719
-0.011955625 -0.010869584 -0.017642746
-0.0079955298 -0.010372306 -0.017630773
-0.004035435 -0.0098750273 -0.0176188
-0.000075340176 -0.009377749 -0.017606827
0.0039109342 -0.0088771833 -0.017594775
0.0087987594 -0.0082634078 -0.017579997
0.015338143 -0.0074422422 -0.017560226
0.024087134 -0.0063436112 -0.017533775
0.035792343 -0.0048737611 -0.017498385
0.05145265 -0.00290726 -0.017451038
0.072404456 -0.00027629327 -0.017387693
0.10043572 0.0032436569 -0.017302944
0.13793852 0.007952971 -0.017189558
0.18811324 0.014253526 -0.017037861
0.2552416 0.022682991 -0.016834906
0.34505213 0.033960706 -0.016563375
0.46520894 0.049049075 -0.016200095
0.62596581 0.069235688 -0.015714065
0.8410412 0.096243201 -0.01506381
1.1287889 0.13237635 -0.014193838
1.5137643 0.1807186 -0.01302991
2.02882 0.24539534 -0.0114727
2.717909 0.33192584 -0.0093893197
3.6398359 0.44769434 -0.0066019817
4.8732749 0.60258012 -0.0028728236
6.5234833 0.80980061 0.0021163883
8.7312845 1.0870393 0.0087914165
11.685085 1.4579548 0.017721885
15.636951 1.9541999 0.029669891
20.924123 2.6181223 0.045655036
27.99779 3.506379 0.067041439
37.461594 4.6947708 0.095654142
-0.014540954 -0.0054432388 -0.018018952
-0.010580859 -0.0049459606 -0.018006979
-0.0066207639 -0.0044486823 -0.017995006
-0.0026606691 -0.003951404 -0.017983033
0.0012994257 -0.0034541257 -0.01797106
0.0052857001 -0.00295356 -0.017959008
0.010173525 -0.0023397845 -0.017944231
0.016712909 -0.001518619 -0.017924459
0.0254619 -0.00041998787 -0.017898008
0.037167108 0.0010498622 -0.017862619
0.052827416 0.0030163633 -0.017815271
0.073779222 0.00564733 -0.017751926
0.10181048 0.0091672801 -0.017667177
0.13931329 0.013876594 -0.017553792
0.189488 0.02017715 -0.017402094
0.25661637 0.028606614 -0.017199139
0.3464269 0.039884329 -0.016927608
0.46658371 0.054972698 -0.016564328
0.62734058 0.075159311 -0.016078298
0.84241596 0.10216682 -0.015428043
1.1301637 0.13829997 -0.014558072
1.5151391 0.18664223 -0.013394143
2.0301948 0.25131896 -0.011836933
2.7192838 0.33784946 -0.0097535529
3.6412107 0.45361796 -0.0069662149
4.8746496 0.60850374 -0.0032370568
6.5248581 0.81572423 0.0017521551
8.7326592 1.0929629 0.0084271833
11.686459 1.4638785 0.017357652
15.638326 1.9601235 0.029305658
20.925498 2.6240459 0.045290803
27.999165 3.5123026 0.066677205
37.462969 4.7006944 0.095289909
-0.013166188 0.00048038445 -0.018383185
-0.0092060929 0.00097766272 -0.018371212
-0.005245998 0.001474941 -0.018359239
-0.0012859032 0.0019722193 -0.018347266
0.0026741916 0.0024694975 -0.018335294
0.006660466 0.0029700632 -0.018323241
0.011548291 0.0035838388 -0.018308464
0.018087675 0.0044050043 -0.018288693
0.026836666 0.0055036354 -0.018262241
0.038541874 0.0069734855 -0.018226852
0.054202182 0.0089399866 -0.018179505
0.075153988 0.011570953 -0.018116159
0.10318525 0.015090903 -0.01803141
0.14068805 0.019800218 -0.017918025
0.19086277 0.026100773 -0.017766327
0.25799114 0.034530237 -0.017563373
0.34780166 0.045807953 -0.017291841
0.46795847 0.060896322 -0.016928561
0.62871535 0.081082934 -0.016442531
0.84379073 0.10809045 -0.015792276
1.1315384 0.14422359 -0.014922305
1.5165139 0.19256585 -0.013758377
2.0315695 0.25724258 -0.012201166
2.7206586 0.34377309 -0.010117786
3.6425855 0.45954158 -0.0073304481
4.8760244 0.61442736 -0.00360129
6.5262328 0.82164786 0.0013879219
8.734034 1.0988866 0.0080629501
11.687834 1.4698021 0.016993419
15.639701 1.9660471 0.028941425
20.926873 2.6299695 0.04492657
28.000539 3.5182262 0.066312972
37.464343 4.706618 0.094925675
-0.011791422 0.0064040077 -0.018747418
-0.007831327 0.006901286 -0.018735445
-0.0038712321 0.0073985643 -0.018723472
0.000088862702 0.0078958426 -0.0187115
0.0040489575 0.0083931208 -0.018699527
0.0080352319 0.0088936865 -0.018687475
0.012923057 0.0095074621 -0.018672697
0.019462441 0.010328628 -0.018652926
0.028211432 0.011427259 -0.018626474
0.03991664 0.012897109 -0.018591085
0.055576948 0.01486361 -0.018543738
0.076528754 0.017494577 -0.018480393
0.10456001 0.021014527 -0.018395643
0.14206282 0.025723841 -0.018282258
0.19223754 0.032024396 -0.018130561
0.2593659 0.040453861 -0.017927606
0.34917643 0.051731576 -0.017656074
0.46933324 0.066819945 -0.017292794
0.63009011 0.087006558 -0.016806765
0.84516549 0.11401407 -0.016156509
1.1329132 0.15014722 -0.015286538
1.5178886 0.19848947 -0.01412261
2.0329443 0.26316621 -0.012565399
2.7220333 0.34969671 -0.010482019
3.6439602 0.46546521 -0.0076946813
4.8773992 0.62035099 -0.0039655232
6.5276076 0.82757148 0.0010236887
8.7354088 1.1048102 0.0076987169
11.689209 1.4757257 0.016629186
15.641076 1.9719707 0.028577192
20.928247 2.6358932 0.044562336
28.001914 3.5241498 0.065948739
37.465718 4.7125416 0.094561442
-0.010407568 0.012366791 -0.019114059
-0.0064474727 0.012864069 -0.019102086
-0.0024873779 0.013361348 -0.019090114
0.001472717 0.013858626 -0.019078141
0.0054328118 0.014355904 -0.019066168
0.0094190862 0.01485647 -0.019054116
0.014306911 0.015470245 -0.019039338
0.020846295 0.016291411 -0.019019567
0.029595286 0.017390042 -0.018993115
0.041300495 0.018859892 -0.018957726
0.056960802 0.020826393 -0.018910379
0.077912608 0.02345736 -0.018847034
0.10594387 0.02697731 -0.018762284
0.14344667 0.031686624 -0.018648899
0.19362139 0.03798718 -0.018497202
0.26074976 0.046416644 -0.018294247
0.35056028 0.057694359 -0.018022715
0.47071709 0.072782728 -0.017659435
0.63147397 0.092969341 -0.017173406
0.84654935 0.11997685 -0.016523151
1.1342971 0.15611 -0.015653179
1.5192725 0.20445226 -0.014489251
2.0343282 0.26912899 -0.01293204
2.7234172 0.35565949 -0.01084866
3.6453441 0.47142799 -0.0080613224
4.878783 0.62631377 -0.0043321643
6.5289914 0.83353426 0.00065704758
8.7367926 1.110773 0.0073320758
11.690593 1.4816885 0.016262545
15.642459 1.9779335 0.02821055
20.929631 2.6418559 0.044195695
28.003298 3.5301126 0.065582098
37.467102 4.7185044 0.094194801
-0.0087107356 0.01967814 -0.019563621
-0.0047506408 0.020175418 -0.019551649
-0.00079054592 0.020672697 -0.019539676
0.0031695489 0.021169975 -0.019527703
0.0071296438 0.021667253 -0.01951573
0.011115918 0.022167819 -0.019503678
0.016003743 0.022781594 -0.0194889
0.022543127 0.02360276 -0.019469129
0.031292118 0.024701391 -0.019442677
0.042997327 0.026171241 -0.019407288
0.058657634 0.028137742 -0.019359941
0.07960944 0.030768709 -0.019296596
0.1076407 0.034288659 -0.019211846
0.14514351 0.038997973 -0.019098461
0.19531822 0.045298529 -0.018946764
0.26244659 0.053727993 -0.018743809
0.35225711 0.065005708 -0.018472277
0.47241392 0.080094077 -0.018108997
0.6331708 0.10028069 -0.017622968
0.84824618 0.1272882 -0.016972713
1.1359939 0.16342135 -0.016102741
1.5209693 0.21176361 -0.014938813
2.036025 0.27644034 -0.013381602
2.725114 0.36297084 -0.011298222
3.6470409 0.47873934 -0.0085108845
4.8804798 0.63362512 -0.0047817264
6.5306883 0.84084561 0.00020748554
8.7384895 1.1180843 0.0068825138
11.69229 1.4889998 0.015812983
15.644156 1.9852449 0.027760988
20.931328 2.6491673 0.043746133
28.004995 3.537424 0.065132536
37.468799 4.7258158 0.093745239
-0.0064405572 0.029459938 -0.020165087
-0.0024804623 0.029957216 -0.020153114
0.0014796325 0.030454494 -0.020141141
0.0054397273 0.030951773 -0.020129168
0.0093998222 0.031449051 -0.020117195
0.013386097 0.031949617 -0.020105143
0.018273922 0.032563392 -0.020090366
0.024813306 0.033384558 -0.020070595
0.033562297 0.034483189 -0.020044143
0.045267505 0.035953039 -0.020008754
0.060927813 0.03791954 -0.019961407
0.081879618 0.040550507 -0.019898061
0.10991088 0.044070457 -0.019813312
0.14741368 0.048779771 -0.019699927
0.1975884 0.055080326 -0.019548229
0.26471677 0.06350979 -0.019345275
0.35452729 0.074787506 -0.019073743
0.4746841 0.089875875 -0.018710463
0.63544098 0.11006249 -0.018224433
0.85051636 0.13707 -0.017574178
1.1382641 0.17320315 -0.016704207
1.5232395 0.2215454 -0.015540279
2.0382952 0.28622214 -0.013983068
2.7273842 0.37275264 -0.011899688
3.6493111 0.48852114 -0.00911235
4.88275 0.64340692 -0.005383192
6.5329585 0.85062741 -0.00039398004
8.7407596 1.1278661 0.0062810482
11.69456 1.4987816 0.015211517
15.646426 1.9950267 0.027159523
20.933598 2.6589491 0.043144668
28.007265 3.5472058 0.06453107
37.471069 4.7355976 0.093143773
-0.0034033029 0.042546929 -0.020969783
0.00055679193 0.043044208 -0.02095781
0.0045168868 0.043541486 -0.020945837
0.0084769816 0.044038764 -0.020933865
0.012437076 0.044536043 -0.020921892
0.016423351 0.045036608 -0.02090984
0.021311176 0.045650384 -0.020895062
0.02785056 0.046471549 -0.020875291
0.036599551 0.04757018 -0.020848839
0.048304759 0.04904003 -0.02081345
0.063965067 0.051006532 -0.020766103
0.084916873 0.053637498 -0.020702757
0.11294813 0.057157448 -0.020618008
0.15045094 0.061866763 -0.020504623
0.20062565 0.068167318 -0.020352925
0.26775402 0.076596782 -0.020149971
0.35756455 0.087874498 -0.019878439
0.47772136 0.10296287 -0.019515159
0.63847823 0.12314948 -0.01902913
0.85355361 0.15015699 -0.018378874
1.1413013 0.18629014 -0.017508903
1.5262768 0.23463239 -0.016344975
2.0413324 0.29930913 -0.014787764
2.7304215 0.38583963 -0.012704384
3.6523484 0.50160813 -0.0099170462
4.8857873 0.65649391 -0.0061878881
6.5359957 0.8637144 -0.0011986762
8.7437969 1.1409531 0.005476352
11.697597 1.5118686 0.014406821
15.649464 2.0081137 0.026354827
20.936636 2.6720361 0.042339972
28.010302 3.5602928 0.063726374
37.474106 4.7486846 0.092339077
0.0006602162 0.060055915 -0.02204638
0.004620311 0.060553193 -0.022034407
0.0085804059 0.061050472 -0.022022434
0.012540501 0.06154775 -0.022010461
0.016500596 0.062045028 -0.021998488
0.02048687 0.062545594 -0.021986436
0.025374695 0.063159369 -0.021971659
0.031914079 0.063980535 -0.021951888
0.04066307 0.065079166 -0.021925436
0.052368278 0.066549016 -0.021890047
0.068028586 0.068515517 -0.0218427
0.088980392 0.071146484 -0.021779354
0.11701165 0.074666434 -0.021694605
0.15451446 0.079375748 -0.02158122
0.20468917 0.085676303 -0.021429522
0.27181754 0.094105768 -0.021226568
0.36162807 0.10538348 -0.020955036
0.48178488 0.12047185 -0.020591756
0.64254175 0.14065846 -0.020105726
0.85761713 0.16766598 -0.019455471
1.1453648 0.20379912 -0.0185855
1.5303403 0.25214138 -0.017421572
2.0453959 0.31681811 -0.015864361
2.734485 0.40334862 -0.013780981
3.6564119 0.51911711 -0.010993643
4.8898508 0.67400289 -0.007264485
6.5400592 0.88122339 -0.002275273
8.7478604 1.1584621 0.0043997552
11.701661 1.5293776 0.013330224
15.653527 2.0256227 0.02527823
20.940699 2.6895451 0.041263375
28.014366 3.5778018 0.062649777
37.47817 4.7661935 0.09126248
0.0060967671 0.083481052 -0.023486751
0.010056862 0.08397833 -0.023474778
0.014016957 0.084475609 -0.023462805
0.017977052 0.084972887 -0.023450832
0.021937146 0.085470165 -0.023438859
0.025923421 0.085970731 -0.023426807
0.030811246 0.086584506 -0.023412029
0.03735063 0.087405672 -0.023392258
0.046099621 0.088504303 -0.023365807
0.057804829 0.089974153 -0.023330417
0.073465137 0.091940654 -0.02328307
0.094416943 0.094571621 -0.023219725
0.1224482 0.098091571 -0.023134976
0.15995101 0.10280089 -0.02302159
0.21012572 0.10910144 -0.022869893
0.27725409 0.1175309 -0.022666938
0.36706462 0.12880862 -0.022395407
0.48722143 0.14389699 -0.022032127
0.6479783 0.1640836 -0.021546097
0.86305368 0.19109112 -0.020895842
1.1508014 0.22722426 -0.02002587
1.5357768 0.27556652 -0.018861942
2.0508325 0.34024325 -0.017304732
2.7399215 0.42677375 -0.015221352
3.6618484 0.54254225 -0.012434014
4.8952873 0.69742803 -0.0087048556
6.5454958 0.90464852 -0.0037156436
8.753297 1.1818872 0.0029593846
11.707097 1.5528028 0.011889854
15.658964 2.0490478 0.023837859
20.946136 2.7129702 0.039823004
28.019802 3.6012269 0.061209407
37.483606 4.7896187 0.08982211
0.013370287 0.11482136 -0.025413811
0.017330382 0.11531864 -0.025401838
0.021290477 0.11581592 -0.025389866
0.025250571 0.1163132 -0.025377893
0.029210666 0.11681048 -0.02536592
0.033196941 0.11731104 -0.025353868
0.038084766 0.11792482 -0.02533909
0.04462415 0.11874598 -0.025319319
0.053373141 0.11984461 -0.025292867
0.065078349 0.12131446 -0.025257478
0.080738657 0.12328097 -0.025210131
0.10169046 0.12591193 -0.025146786
0.12972172 0.12943188 -0.025062036
0.16722453 0.1341412 -0.024948651
0.21739924 0.14044175 -0.024796954
0.28452761 0.14887122 -0.024593999
0.37433814 0.16014893 -0.024322467
0.49449495 0.1752373 -0.023959187
0.65525182 0.19542391 -0.023473158
0.8703272 0.22243143 -0.022822902
1.1580749 0.25856457 -0.021952931
1.5430503 0.30690683 -0.020789003
2.058106 0.37158356 -0.019231792
2.747195 0.45811407 -0.017148412
3.6691219 0.57388256 -0.014361074
4.9025609 0.72876834 -0.010631916
6.5527693 0.93598883 -0.0056427044
8.7605705 1.2132275 0.0010323238
11.714371 1.5841431 0.0099627928
15.666237 2.0803881 0.021910798
20.953409 2.7443105 0.037895943
28.027076 3.6325672 0.059282346
37.49088 4.820959 0.087895049
0.023101473 0.15675132 -0.027992011
0.027061568 0.1572486 -0.027980038
0.031021663 0.15774588 -0.027968065
0.034981757 0.15824316 -0.027956092
0.038941852 0.15874044 -0.02794412
0.042928127 0.159241 -0.027932068
0.047815952 0.15985478 -0.02791729
0.054355336 0.16067594 -0.027897519
0.063104327 0.16177457 -0.027871067
0.074809535 0.16324442 -0.027835678
0.090469843 0.16521093 -0.027788331
0.11142165 0.16784189 -0.027724985
0.13945291 0.17136184 -0.027640236
0.17695571 0.17607116 -0.027526851
0.22713043 0.18237171 -0.027375153
0.2942588 0.19080118 -0.027172199
0.38406932 0.20207889 -0.026900667
0.50422613 0.21716726 -0.026537387
0.66498301 0.23735387 -0.026051357
0.88005839 0.26436139 -0.025401102
1.1678061 0.30049453 -0.024531131
1.5527815 0.34883679 -0.023367203
2.0678372 0.41351352 -0.021809992
2.7569262 0.50004403 -0.019726612
3.6788531 0.61581252 -0.016939274
4.9122921 0.7706983 -0.013210116
6.5625005 0.97791879 -0.0082209042
8.7703017 1.2551575 -0.0015458759
11.724102 1.626073 0.007384593
15.675968 2.1223181 0.019332599
20.96314 2.7862405 0.035317744
28.036807 3.6744972 0.056704146
37.500611 4.862889 0.085316849
0.036120752 0.2128491 -0.031441365
0.040080847 0.21334637 -0.031429392
0.044040942 0.21384365 -0.031417419
0.048001036 0.21434093 -0.031405446
0.051961131 0.21483821 -0.031393473
0.055947406 0.21533877 -0.031381421
0.060835231 0.21595255 -0.031366643
0.067374615 0.21677372 -0.031346872
0.076123606 0.21787235 -0.031320421
0.087828814 0.2193422 -0.031285031
0.10348912 0.2213087 -0.031237684
0.12444093 0.22393966 -0.031174339
0.15247219 0.22745961 -0.03108959
0.18997499 0.23216893 -0.030976204
0.24014971 0.23846948 -0.030824507
0.30727808 0.24689895 -0.030621552
0.3970886 0.25817666 -0.030350021
0.51724541 0.27326503 -0.029986741
0.67800228 0.29345165 -0.029500711
0.89307767 0.32045916 -0.028850456
1.1808254 0.3565923 -0.027980484
1.5658008 0.40493456 -0.026816556
2.0808565 0.46961129 -0.025259346
2.7699455 0.5561418 -0.023175966
3.6918724 0.67191029 -0.020388628
4.9253113 0.82679607 -0.01665947
6.5755198 1.0340166 -0.011670258
8.7833209 1.3112553 -0.0049952296
11.737121 1.6821708 0.0039352394
15.688988 2.1784158 0.015883245
20.97616 2.8423382 0.03186839
28.049826 3.7305949 0.053254792
37.51363 4.9189867 0.081867496
0.053539145 0.28790187 -0.036056228
0.05749924 0.28839915 -0.036044256
0.061459335 0.28889643 -0.036032283
0.06541943 0.28939371 -0.03602031
0.069379524 0.28989099 -0.036008337
0.073365799 0.29039155 -0.035996285
0.078253624 0.29100533 -0.035981507
0.084793008 0.29182649 -0.035961736
0.093541999 0.29292512 -0.035935284
0.10524721 0.29439497 -0.035899895
0.12090752 0.29636148 -0.035852548
0.14185932 0.29899244 -0.035789203
0.16989058 0.30251239 -0.035704454
0.20739339 0.30722171 -0.035591068
0.2575681 0.31352226 -0.035439371
0.32469647 0.32195173 -0.035236416
0.41450699 0.33322944 -0.034964884
0.5346638 0.34831781 -0.034601604
0.69542068 0.36850442 -0.034115575
0.91049606 0.39551194 -0.03346532
1.1982438 0.43164508 -0.032595348
1.5832192 0.47998734 -0.03143142
2.0982749 0.54466407 -0.029874209
2.7873639 0.63119458 -0.02779083
3.7092908 0.74696307 -0.025003492
4.9427297 0.90184885 -0.021274333
6.5929382 1.1090693 -0.016285122
8.8007393 1.386308 -0.0096100933
11.75454 1.7572236 -0.00067962432
15.706406 2.2534686 0.011268381
20.993578 2.917391 0.027253526
28.067245 3.8056477 0.048639929
37.531049 4.9940395 0.077252632
0.076843079 0.38831441 -0.042230419
0.080803174 0.38881168 -0.042218446
0.084763269 0.38930896 -0.042206473
0.088723364 0.38980624 -0.0421945
0.092683459 0.39030352 -0.042182528
0.096669733 0.39080409 -0.042170476
0.10155756 0.39141786 -0.042155698
0.10809694 0.39223903 -0.042135927
0.11684593 0.39333766 -0.042109475
0.12855114 0.39480751 -0.042074086
0.14421145 0.39677401 -0.042026739
0.16516325 0.39940498 -0.041963393
0.19319451 0.40292493 -0.041878644
0.23069732 0.40763424 -0.041765259
0.28087204 0.41393479 -0.041613561
0.3480004 0.42236426 -0.041410607
0.43781093 0.43364197 -0.041139075
0.55796774 0.44873034 -0.040775795
0.71872461 0.46891696 -0.040289765
0.9338 0.49592447 -0.03963951
1.2215477 0.53205761 -0.038769539
1.6065231 0.58039987 -0.037605611
2.1215788 0.6450766 -0.0360484
2.8106678 0.73160711 -0.03396502
3.7325947 0.8473756 -0.031177682
4.9660337 1.0022614 -0.027448524
6.6162421 1.2094819 -0.022459312
8.8240433 1.4867206 -0.015784284
11.777843 1.8576361 -0.006853815
15.72971 2.3538811 0.0050941907
21.016882 3.0178036 0.021079336
28.090549 3.9060602 0.042465738
37.554353 5.094452 0.071078441
0.10802123 0.52265556 -0.050490821
0.11198133 0.52315284 -0.050478848
0.11594142 0.52365012 -0.050466875
0.11990152 0.5241474 -0.050454903
0.12386161 0.52464468 -0.05044293
0.12784789 0.52514524 -0.050430878
0.13273571 0.52575902 -0.0504161
0.1392751 0.52658018 -0.050396329
0.14802409 0.52767881 -0.050369877
0.1597293 0.52914866 -0.050334488
0.1753896 0.53111516 -0.050287141
0.19634141 0.53374613 -0.050223796
0.22437267 0.53726608 -0.050139046
0.26187547 0.5419754 -0.050025661
0.31205019 0.54827595 -0.049873964
0.37917856 0.55670542 -0.049671009
0.46898908 0.56798313 -0.049399477
0.58914589 0.5830715 -0.049036197
0.74990277 0.60325811 -0.048550168
0.96497815 0.63026563 -0.047899912
1.2527259 0.66639877 -0.047029941
1.6377013 0.71474103 -0.045866013
2.152757 0.77941776 -0.044308802
2.841846 0.86594827 -0.042225422
3.7637729 0.98171676 -0.039438084
4.9972118 1.1366025 -0.035708926
6.6474202 1.343823 -0.030719714
8.8552214 1.6210617 -0.024044686
11.809022 1.9919773 -0.015114217
15.760888 2.4882223 -0.0031662114
21.04806 3.1521447 0.012818933
28.121727 4.0404014 0.034205336
37.585531 5.2287932 0.062818039
0.14973425 0.70238956 -0.06154235
0.15369434 0.70288684 -0.061530377
0.15765444 0.70338412 -0.061518404
0.16161453 0.7038814 -0.061506431
0.16557463 0.70437868 -0.061494458
0.1695609 0.70487924 -0.061482406
0.17444873 0.70549302 -0.061467628
0.18098811 0.70631418 -0.061447857
0.1897371 0.70741281 -0.061421406
0.20144231 0.70888266 -0.061386016
0.21710262 0.71084916 -0.061338669
0.23805442 0.71348013 -0.061275324
0.26608568 0.71700008 -0.061190575
0.30358849 0.7217094 -0.061077189
0.3537632 0.72800995 -0.060925492
0.42089157 0.73643942 -0.060722537
0.5107021 0.74771713 -0.060451006
0.63085891 0.7628055 -0.060087726
0.79161578 0.78299211 -0.059601696
1.0066912 0.80999963 -0.058951441
1.2944389 0.84613277 -0.058081469
1.6794143 0.89447503 -0.056917541
2.19447 0.95915176 -0.055360331
2.883559 1.0456823 -0.053276951
3.8054859 1.1614508 -0.050489613
5.0389248 1.3163365 -0.046760455
6.6891333 1.523557 -0.041771243
8.8969344 1.8007957 -0.035096215
11.850735 2.1717113 -0.026165746
15.802601 2.6679563 -0.01421774
21.089773 3.3318787 0.001767405
28.16344 4.2201354 0.023153807
37.627244 5.4085272 0.051766511
0.20554177 0.9428543 -0.076328105
0.20950186 0.94335158 -0.076316132
0.21346196 0.94384885 -0.076304159
0.21742205 0.94434613 -0.076292186
0.22138214 0.94484341 -0.076280213
0.22536842 0.94534398 -0.076268161
0.23025624 0.94595775 -0.076253383
0.23679563 0.94677892 -0.076233612
0.24554462 0.94787755 -0.076207161
0.25724983 0.9493474 -0.076171771
0.27291014 0.9513139 -0.076124424
0.29386194 0.95394487 -0.076061079
0.3218932 0.95746482 -0.07597633
0.35939601 0.96217413 -0.075862944
0.40957072 0.96847469 -0.075711247
0.47669909 0.97690415 -0.075508292
0.56650961 0.98818187 -0.075236761
0.68666643 1.0032702 -0.074873481
0.8474233 1.0234568 -0.074387451
1.0624987 1.0504644 -0.073737196
1.3502464 1.0865975 -0.072867224
1.7352218 1.1349398 -0.071703296
2.2502775 1.1996165 -0.070146086
2.9393665 1.286147 -0.068062706
3.8612934 1.4019155 -0.065275368
5.0947323 1.5568013 -0.06154621
6.7449408 1.7640218 -0.056556998
8.952742 2.0412605 -0.04988197
11.906542 2.412176 -0.040951501
15.858409 2.908421 -0.029003495
21.145581 3.5723434 -0.01301835
28.219247 4.4606001 0.0083680524
37.683051 5.6489919 0.036980756
0.28020622 1.2645702 -0.096109853
0.28416631 1.2650675 -0.09609788
0.28812641 1.2655648 -0.096085907
0.2920865 1.2660621 -0.096073934
0.2960466 1.2665593 -0.096061961
0.30003287 1.2670599 -0.096049909
0.30492069 1.2676737 -0.096035131
0.31146008 1.2684948 -0.09601536
0.32020907 1.2695935 -0.095988909
