site/assets/luts/ocio-aces--ocioutilityap0-to-srgb-encoded-ap1--762247e96.cube
# LUTr-Project: LUTr — LUTrepository
# LUTr-Schema-Version: 1
# LUTr-ID: ocio-aces--ocioutilityap0-to-srgb-encoded-ap1--762247e96
# LUTr-Title: OCIO.Utility.AP0 to sRGB Encoded AP1
# LUTr-Collection: OCIO ACES
# LUTr-Collection-ID: aswf-opencolorio-config-aces
# LUTr-Source: https://github.com/AcademySoftwareFoundation/OpenColorIO-Config-ACES
# LUTr-Source-File: submissions/aswf-opencolorio-config-aces/opencolorio_config_aces/clf/transforms/ocio/utility/OCIO.Utility.AP0_to_sRGB_Encoded_AP1.clf
# LUTr-Source-Format: CLF
# LUTr-Source-SHA256: 009cb10e31270458132fa1c34cab78bfde5f3c74e06cd338f958e27bdf60023d
# LUTr-License: BSD-3-Clause
# LUTr-License-URL: https://github.com/AcademySoftwareFoundation/OpenColorIO-Config-ACES/blob/main/LICENSE
# LUTr-Tags: technical, aces, ocio, clf, color-management, cube
# LUTr-Transform-Class: color-space-conversion
# LUTr-Input-Color-Space: ACES2065-1
# LUTr-Output-Color-Space: sRGB Encoded AP1 primaries, ACES ~=D60 white point
# LUTr-Color-Space-Confidence: descriptor-only
# LUTr-Conversion-Method: CLF operations evaluated as float and sampled to 33x33x33 3D CUBE
# LUTr-Conversion-Date: 2026-07-27
# LUTr-Conversion-Tool: LUTr scripts/convert-all-to-cube.mjs
# LUTr-Conversion-Grid: 33x33x33
# LUTr-Conversion-Warning: A sampled 3D CUBE is bounded to DOMAIN_MIN/MAX 0..1 and cannot preserve CLF values outside its input domain.
# LUTr-Upstream-ID: urn:aswf:ocio:transformId:1.0:OCIO:Utility:AP0_to_sRGB_Encoded_AP1:1.0
# LUTr-Upstream-Name: AP0 to sRGB Encoded AP1
# LUTr-Upstream-Input-Descriptor: ACES2065-1
# LUTr-Upstream-Output-Descriptor: sRGB Encoded AP1 primaries, ACES ~=D60 white point
# LUTr-Upstream-Operations: Matrix → Exponent
# LUTr-Note: Preserve this metadata and the upstream license notices when redistributing.
TITLE "OCIO.Utility.AP0 to sRGB Encoded AP1"
LUT_3D_SIZE 5
DOMAIN_MIN 0 0 0
DOMAIN_MAX 1 1 1
0 0 0
0.00054320822 -0.000028650622 0.000003112359
0.0010864164 -0.000057301243 0.0000062247179
0.0016296246 -0.000085951865 0.0000093370769
0.0021728329 -0.00011460249 0.000012449436
-0.000088515296 0.00044020968 -0.0000022576736
0.00045469292 0.00041155906 8.5468531e-7
0.00099790114 0.00038290844 0.0000039670443
0.0015411094 0.00035425782 0.0000070794032
0.0020843176 0.00032560719 0.000010191762
-0.00017703059 0.00088041936 -0.0000045153473
0.00036617762 0.00085176874 -0.0000014029883
0.00090938584 0.00082311812 0.0000017093706
0.0014525941 0.00079446749 0.0000048217296
0.0019958023 0.00076581687 0.0000079340885
-0.00026554589 0.001320629 -0.0000067730209
0.00027766233 0.0012919784 -0.000003660662
0.00082087054 0.0012633278 -5.4830302e-7
0.0013640788 0.0012346772 0.0000025640559
0.001907287 0.0012060266 0.0000056764149
-0.00035406118 0.0017608387 -0.0000090306946
0.00018914703 0.0017321881 -0.0000059183356
0.00073235525 0.0017035375 -0.0000028059767
0.0012755635 0.0016748869 3.0638229e-7
0.0018187717 0.0016462362 0.0000034187412
-0.000080438061 -0.0000373042 0.00037340017
0.00046277015 -0.000065954821 0.00037651253
0.0010059784 -0.000094605443 0.00037962489
0.0015491866 -0.00012325606 0.00038273725
0.0020923948 -0.00015190669 0.00038584961
-0.00016895336 0.00040290548 0.0003711425
0.00037425486 0.00037425486 0.00037425486
0.00091746307 0.00034560424 0.00037736722
0.0014606713 0.00031695362 0.00038047958
0.0020038795 0.00028830299 0.00038359194
-0.00025746865 0.00084311516 0.00036888483
0.00028573956 0.00081446454 0.00037199718
0.00082894778 0.00078581392 0.00037510954
0.001372156 0.0007571633 0.0003782219
0.0019153642 0.00072851267 0.00038133426
-0.00034598395 0.0012833248 0.00036662715
0.00019722427 0.0012546742 0.00036973951
0.00074043248 0.0012260236 0.00037285187
0.0012836407 0.001197373 0.00037596423
0.0018268489 0.0011687224 0.00037907659
-0.00043449925 0.0017235345 0.00036436948
0.00010870897 0.0016948839 0.00036748184
0.00065191719 0.0016662333 0.0003705942
0.0011951254 0.0016375827 0.00037370656
0.0017383336 0.001608932 0.00037681891
-0.00016087612 -0.000074608399 0.00074680035
0.00038233209 -0.00010325902 0.00074991271
0.00092554031 -0.00013190964 0.00075302506
0.0014687485 -0.00016056026 0.00075613742
0.0020119567 -0.00018921089 0.00075924978
-0.00024939142 0.00036560128 0.00074454267
0.0002938168 0.00033695066 0.00074765503
0.00083702501 0.00030830004 0.00075076739
0.0013802332 0.00027964942 0.00075387975
0.0019234414 0.00025099879 0.00075699211
-0.00033790671 0.00080581096 0.000742285
0.0002053015 0.00077716034 0.00074539736
0.00074850972 0.00074850972 0.00074850972
0.0012917179 0.0007198591 0.00075162208
0.0018349261 0.00069120847 0.00075473443
-0.00042642201 0.0012460206 0.00074002733
0.00011678621 0.00121737 0.00074313968
0.00065999442 0.0011887194 0.00074625204
0.0012032026 0.0011600688 0.0007493644
0.0017464109 0.0011314182 0.00075247676
-0.00051493731 0.0016862303 0.00073776965
0.000028270909 0.0016575797 0.00074088201
0.00057147912 0.0016289291 0.00074399437
0.0011146873 0.0016002785 0.00074710673
0.0016578956 0.0015716278 0.00075021909
-0.00024131418 -0.0001119126 0.0011202005
0.00030189403 -0.00014056322 0.0011233129
0.00084510225 -0.00016921384 0.0011264252
0.0013883105 -0.00019786446 0.0011295376
0.0019315187 -0.00022651509 0.00113265
-0.00032982948 0.00032829708 0.0011179428
0.00021337874 0.00029964646 0.0011210552
0.00075658695 0.00027099584 0.0011241676
0.0012997952 0.00024234522 0.0011272799
0.0018430034 0.00021369459 0.0011303923
-0.00041834478 0.00076850676 0.0011156852
0.00012486344 0.00073985614 0.0011187975
0.00066807166 0.00071120552 0.0011219099
0.0012112799 0.0006825549 0.0011250222
0.0017544881 0.00065390427 0.0011281346
-0.00050686007 0.0012087164 0.0011134275
0.000036348144 0.0011800658 0.0011165399
0.00057955636 0.0011514152 0.0011196522
0.0011227646 0.0011227646 0.0011227646
0.0016659728 0.001094114 0.0011258769
-0.00059537537 0.0016489261 0.0011111698
-0.000052167152 0.0016202755 0.0011142822
0.00049104106 0.0015916249 0.0011173945
0.0010342493 0.0015629743 0.0011205069
0.0015774575 0.0015343236 0.0011236193
-0.00032175225 -0.0001492168 0.0014936007
0.00022145597 -0.00017786742 0.0014967131
0.00076466419 -0.00020651804 0.0014998254
0.0013078724 -0.00023516866 0.0015029378
0.0018510806 -0.00026381929 0.0015060501
-0.00041026754 0.00029099288 0.001491343
0.00013294067 0.00026234226 0.0014944554
0.00067614889 0.00023369164 0.0014975677
0.0012193571 0.00020504102 0.0015006801
0.0017625653 0.00017639039 0.0015037925
-0.00049878284 0.00073120256 0.0014890853
0.000044425379 0.00070255194 0.0014921977
0.00058763359 0.00067390132 0.0014953101
0.0011308418 0.0006452507 0.0014984224
0.00167405 0.00061660007 0.0015015348
-0.00058729813 0.0011714122 0.0014868277
-0.000044089918 0.0011427616 0.00148994
0.0004991183 0.001114111 0.0014930524
0.0010423265 0.0010854604 0.0014961647
0.0015855347 0.0010568098 0.0014992771
-0.00067581343 0.0016116219 0.00148457
-0.00013260521 0.0015829713 0.0014876824
0.000410603 0.0015543207 0.0014907947
0.00095381122 0.0015256701 0.0014939071
0.0014970194 0.0014970194 0.0014970194
