site/assets/luts/ocio-aces--ocioutilityap0-to-gamma22-encoded-adobergb--da00784a5.cube
# LUTr-Project: LUTr — LUTrepository
# LUTr-Schema-Version: 1
# LUTr-ID: ocio-aces--ocioutilityap0-to-gamma22-encoded-adobergb--da00784a5
# LUTr-Title: OCIO.Utility.AP0 to Gamma2.2 Encoded AdobeRGB
# LUTr-Collection: OCIO ACES
# LUTr-Collection-ID: aswf-opencolorio-config-aces
# LUTr-Source: https://github.com/AcademySoftwareFoundation/OpenColorIO-Config-ACES
# LUTr-Source-File: submissions/aswf-opencolorio-config-aces/opencolorio_config_aces/clf/transforms/ocio/utility/OCIO.Utility.AP0_to_Gamma2.2_Encoded_AdobeRGB.clf
# LUTr-Source-Format: CLF
# LUTr-Source-SHA256: 7da68d311310cb79e83ae915cde59880325d5309740e2af70f24d28a5e901b01
# LUTr-License: BSD-3-Clause
# LUTr-License-URL: https://github.com/AcademySoftwareFoundation/OpenColorIO-Config-ACES/blob/main/LICENSE
# LUTr-Tags: technical, aces, ocio, clf, color-management, cube
# LUTr-Transform-Class: color-space-conversion
# LUTr-Input-Color-Space: ACES2065-1
# LUTr-Output-Color-Space: 2.2 gamma-corrected AdobeRGB primaries, D65 white point
# LUTr-Color-Space-Confidence: descriptor-only
# LUTr-Conversion-Method: CLF operations evaluated as float and sampled to 33x33x33 3D CUBE
# LUTr-Conversion-Date: 2026-07-27
# LUTr-Conversion-Tool: LUTr scripts/convert-all-to-cube.mjs
# LUTr-Conversion-Grid: 33x33x33
# LUTr-Conversion-Warning: A sampled 3D CUBE is bounded to DOMAIN_MIN/MAX 0..1 and cannot preserve CLF values outside its input domain.
# LUTr-Upstream-ID: urn:aswf:ocio:transformId:1.0:OCIO:Utility:AP0_to_Gamma2.2_Encoded_AdobeRGB:1.0
# LUTr-Upstream-Name: AP0 to Gamma 2.2 Encoded AdobeRGB
# LUTr-Upstream-Input-Descriptor: ACES2065-1
# LUTr-Upstream-Output-Descriptor: 2.2 gamma-corrected AdobeRGB primaries, D65 white point
# LUTr-Upstream-Operations: Matrix → Exponent
# LUTr-Note: Preserve this metadata and the upstream license notices when redistributing.
TITLE "OCIO.Utility.AP0 to Gamma2.2 Encoded AdobeRGB"
LUT_3D_SIZE 9
DOMAIN_MIN 0 0 0
DOMAIN_MAX 1 1 1
0 0 0
0.49771191 -0.034559989 -0.0032656907
0.68211634 -0.069119979 -0.0065313815
0.82021625 -0.10367997 -0.0097970722
0.93484343 -0.13823996 -0.013062763
1.0346764 -0.17279995 -0.016328454
1.12411 -0.20735994 -0.019594144
1.2057297 -0.24191992 -0.022859835
1.281207 -0.27647991 -0.026125526
-0.052499199 0.44866074 -0.011271848
0.43839143 0.40504563 -0.014537538
0.64300911 0.35490433 -0.017803229
0.78924027 0.29435535 -0.02106892
0.90851917 0.21303013 -0.02433461
1.0114486 -0.0012100604 -0.027600301
1.1031285 -0.03577005 -0.030865992
1.1864712 -0.070330039 -0.034131683
1.2633227 -0.10489003 -0.037397373
-0.1049984 0.6148915 -0.022543695
0.36739919 0.58591882 -0.025809386
0.60081736 0.55511681 -0.029075077
0.75673282 0.5221145 -0.032340767
0.88124679 0.48639794 -0.035606458
0.98756285 0.44721928 -0.038872149
1.0816572 0.4034153 -0.04213784
1.1668303 0.35299247 -0.04540353
1.2451295 0.29195872 -0.048669221
-0.1574976 0.7393812 -0.033815543
0.27413762 0.7163816 -0.037081233
0.55473229 0.69246042 -0.040346924
0.72245765 0.66750464 -0.043612615
0.8529226 0.6413764 -0.046878306
0.96296332 0.61390469 -0.050143996
1.0596622 0.58487309 -0.053409687
1.1467847 0.55400097 -0.056675378
1.2266118 0.52091335 -0.059941069
-0.2099968 0.84271149 -0.04508739
0.094436453 0.82314506 -0.048353081
0.50352219 0.8030043 -0.051618772
0.68611171 0.78223871 -0.054884463
0.82342282 0.76079001 -0.058150153
0.93758605 0.73859039 -0.061415844
1.0371056 0.71556021 -0.064681535
1.1263098 0.69160484 -0.067947225
1.2077526 0.6666105 -0.071212916
-0.262496 0.93270557 -0.056359238
-0.046925957 0.91543 -0.059624929
0.44514183 0.89775433 -0.062890619
0.64729554 0.87965112 -0.06615631
0.79259766 0.86108971 -0.069422001
0.91135704 0.8420356 -0.072687692
1.0139448 0.82244984 -0.075953382
1.1053786 0.8022881 -0.079219073
1.1885334 0.78149962 -0.082484764
-0.3149952 1.0133252 -0.067631085
-0.099425156 0.99771393 -0.070896776
0.3757068 0.98180411 -0.074162467
0.60546429 0.96557894 -0.077428158
0.76026303 0.94902004 -0.080693848
0.88418993 0.93210717 -0.083959539
0.99013136 0.91481803 -0.08722523
1.0839608 0.89712787 -0.090490921
1.1689342 0.87900916 -0.093756611
-0.36749439 1.086901 -0.078902933
-0.15192436 1.0725676 -0.082168624
0.28580213 1.0580007 -0.085434315
0.55984141 1.0431892 -0.088700005
0.72618852 1.0281211 -0.091965696
0.85598288 1.0127834 -0.095231387
0.96561048 0.99716201 -0.098497077
1.0620232 0.98124145 -0.10176277
1.1489326 0.96500491 -0.10502846
-0.41999359 1.1549398 -0.090174781
-0.20442355 1.1416263 -0.093440471
0.12942557 1.1281239 -0.096706162
0.50925316 1.1144249 -0.099971853
0.69007936 1.1005209 -0.10323754
0.82661449 1.086403 -0.10650323
0.94031909 1.0720616 -0.10976893
1.0395281 1.0574863 -0.11303462
1.1285046 1.042666 -0.11630031
-0.03807084 -0.012029897 0.4083994
0.4556217 -0.046589886 0.40402522
0.65403693 -0.081149875 0.3995935
0.79789729 -0.11570986 0.39510203
0.91584437 -0.15026985 0.39054849
1.0178957 -0.18482984 0.38593037
1.1089423 -0.21938983 0.381245
1.1918012 -0.25394982 0.37648955
1.268268 -0.28850981 0.37166094
-0.09057004 0.43407425 0.3930535
0.38847111 0.38847111 0.38847111
0.61276088 0.33531265 0.38382296
0.76583196 0.26938219 0.37910631
0.88884215 0.1738154 0.37431821
0.99419601 -0.013239957 0.36945552
1.0876089 -0.047799946 0.36451483
1.1722676 -0.082359936 0.35949249
1.2501612 -0.11691992 0.35438457
-0.14306924 0.6049951 0.37695305
0.30324244 0.57542116 0.37213167
0.56784602 0.5439013 0.36723419
0.73206955 0.51002195 0.3622571
0.86081843 0.47320112 0.35719662
0.96979864 0.43257429 0.35204867
1.0657614 0.38675661 0.34680883
1.1523355 0.33326517 0.34147227
1.2317343 0.26671388 0.33603378
-0.19556844 0.73147367 0.35998236
0.16884274 0.70816482 0.35488291
0.51820307 0.68389746 0.34969403
0.69632775 0.65855068 0.34441113
0.83165543 0.6319762 0.33902922
0.94464203 0.60398887 0.33354285
1.0433632 0.57435247 0.32794606
1.1319812 0.54275775 0.32223232
1.2129707 0.50878647 0.31639441
-0.24806764 0.83596295 0.34199326
-0.032497598 0.81620191 0.33656488
0.4620719 0.79584975 0.33102941
0.65823745 0.77485343 0.32538065
0.80121124 0.75315159 0.31961177
0.91865514 0.73067259 0.31371523
1.0203729 0.70733197 0.30768268
1.1111783 0.68302899 0.30150485
1.1938524 0.65764192 0.29517135
-0.30056684 0.92673596 0.32279075
-0.084996797 0.90932406 0.3169652
0.39625319 0.89150283 0.31100832
0.61730027 0.87324379 0.30491138
0.76931218 0.854515 0.2986646
0.89175526 0.8352805 0.29225707
0.99674404 0.81549958 0.28567646
1.0898974 0.79512581 0.27890885
1.1743597 0.77410588 0.27193833
-0.35306604 1.007924 0.30210953
-0.137496 0.99221063 0.29579159
0.3136282 0.97619302 0.28930751
0.57281534 0.95985385 0.28264429
0.73574209 0.94317413 0.27578715
0.8638452 0.92613294 0.26871918
0.9724235 0.90870715 0.2614209
1.0681062 0.8908711 0.2538697
1.1544711 0.87259617 0.24603903
-0.40556524 1.0819376 0.2795726
-0.1899952 1.0675241 0.27262248
0.1888085 1.0528733 0.26545309
0.52374218 1.037974 0.25804361
0.70022613 1.0228136 0.25036976
0.83480941 1.0073788 0.2424029
0.94735068 0.99165503 0.23410894
1.0457683 0.97562647 0.22544667
1.1341628 0.95927571 0.21636558
-0.45806443 1.1503265 0.25461247
-0.24249439 1.1369481 0.24681013
-0.026924355 1.1233782 0.23870016
0.46841589 1.1096088 0.23024547
0.66240606 1.0956314 0.22140098
0.80450883 1.0814368 0.212111
0.92145563 1.0670152 0.2023054
1.022843 1.0523559 0.19189372
1.1134088 1.0374476 0.180756
-0.076141681 -0.024059793 0.55971317
0.40825407 -0.058619783 0.55672543
0.62443153 -0.093179772 0.55371833
0.77480327 -0.12773976 0.55069153
0.89636047 -0.16229975 0.54764464
1.0007765 -0.19685974 0.54457728
1.0935217 -0.23141973 0.54148906
1.1776747 -0.26597972 0.53837958
1.2551687 -0.30053971 0.53524841
-0.12864088 0.41887482 0.54931807
0.32932993 0.37100175 0.54626198
0.58060625 0.31424135 0.54318526
0.74153244 0.24126523 0.54008749
0.86862834 0.1191367 0.53696826
0.97657666 -0.025269854 0.53382716
1.071819 -0.059829843 0.53066373
1.1578545 -0.094389832 0.52747752
1.2368314 -0.12894982 0.52426806
-0.18114008 0.59490065 0.53868154
0.21613988 0.56468865 0.53555249
0.53240135 0.53240135 0.53240135
0.70636714 0.49757537 0.5292277
0.83979146 0.45954745 0.52603105
0.95163535 0.4173091 0.52281093
1.0495761 0.36918947 0.51956686
1.1376187 0.31202689 0.5162983
1.2181621 0.23821477 0.51300475
-0.23363928 0.72346227 0.52778697
-0.018069239 0.69983208 0.52457979
0.47828888 0.67520394 0.52134892
0.66896546 0.64944829 0.51809385
0.80971517 0.62240526 0.51481407
0.92588435 0.59387387 0.51150905
1.0267529 0.56359551 0.50817821
1.1169419 0.53122805 0.50482098
1.1991431 0.49630264 0.50143676
-0.28613848 0.82914843 0.51661581
-0.070568438 0.80918719 0.51332469
0.41559508 0.78861722 0.51000808
0.62887017 0.76738275 0.5066654
0.77823545 0.74541911 0.50329606
0.89924441 0.72265053 0.49989945
1.0033045 0.69898731 0.49647493
1.0957954 0.67432203 0.49302186
1.1797554 0.64852421 0.48953953
-0.33863768 0.92071989 0.50514715
-0.12306764 0.90316854 0.50176557
0.33876818 0.88519832 0.49835644
0.58544609 0.86677957 0.49491911
0.74514915 0.84787906 0.49145291
0.87162263 0.82845925 0.48795714
0.97917976 0.80847756 0.48443108
1.0741479 0.7878853 0.48087397
1.1599779 0.76662646 0.47728502
-0.39113688 1.0024879 0.4933574
-0.17556684 0.98667047 0.48987794
0.23139971 0.97054298 0.48636858
0.53776575 0.95408752 0.48282859
0.71019957 0.93728445 0.4792572
0.84290897 0.92011213 0.4756536
0.95432023 0.90254658 0.47201696
1.0519641 0.88456117 0.46834641
1.1397874 0.86612615 0.46464103
-0.44363608 1.0769467 0.4812197
-0.22806604 1.0624518 0.47763386
-0.012495996 1.0477159 0.47401545
0.4843794 1.0327271 0.47036361
0.67305458 1.0174727 0.46667744
0.81297146 1.0019391 0.46295603
0.92865873 0.98611113 0.45919839
1.0292046 0.96997247 0.4554035
1.1191586 0.95350518 0.45157031
-0.49613527 1.1456909 0.46870325
-0.28056524 1.1322467 0.46500129
-0.064995196 1.1186083 0.46126363
0.42278379 1.1047675 0.4574893
0.63327156 1.0907156 0.45367726
0.78164958 1.0764431 0.4498264
0.9021173 1.06194 0.44593561
1.0058249 1.0471954 0.44200367
1.0980635 1.0321975 0.43802933
-0.11421252 -0.03608969 0.67303157
0.35314725 -0.070649679 0.67063905
0.59303873 -0.10520967 0.66823625
0.75085269 -0.13976966 0.66582304
0.87635494 -0.17432965 0.66339929
0.98329874 -0.20888964 0.66096488
1.0778358 -0.24344963 0.65851967
1.1633421 -0.27800961 0.65606352
1.2419034 -0.3125696 0.6535963
-0.16671172 0.40298332 0.66472979
0.25342606 0.35248536 0.66230125
0.54615946 0.29132169 0.65986198
0.71623827 0.20853013 0.65741185
0.84783403 -0.0027397612 0.65495071
0.95856759 -0.03729975 0.65247844
1.0557451 -0.07185974 0.64999488
1.143223 -0.10641973 0.64749989
1.223327 -0.14097972 0.64499332
-0.21921092 0.58459649 0.65630178
-0.0036408799 0.55370577 0.65383563
0.49387183 0.52059551 0.65135828
0.67949103 0.48474373 0.64886958
0.81811332 0.44538904 0.64636937
0.9330465 0.40134293 0.64385752
1.0330857 0.35055765 0.64133386
1.12267 0.28889482 0.63879823
1.204406 0.20488617 0.63625047
-0.27171012 0.71534305 0.64774193
-0.056140079 0.69137863 0.64523648
0.43391336 0.66637407 0.64271931
0.64019027 0.64019027 0.64019027
0.78703768 0.61265448 0.63764918
0.90665949 0.58354792 0.6350959
1.009814 0.55258651 0.63253024
1.1016556 0.51939014 0.62995204
1.1851217 0.48343037 0.62736113
-0.32420932 0.82226608 0.63904422
-0.10863928 0.80209879 0.63649765
0.36184806 0.78130425 0.6339388
0.59775821 0.75982383 0.6313675
0.75441591 0.73758923 0.62878358
0.87931772 0.71452022 0.62618687
0.98588057 0.69052144 0.62357717
1.0801492 0.66547811 0.62095432
1.1654535 0.63925011 0.61831811
-0.37670852 0.91465629 0.63020218
-0.16113848 0.8969623 0.62761251
0.2661844 0.87883949 0.62500996
0.55136391 0.86025702 0.62239434
0.72000781 0.84118024 0.61976548
0.85091626 0.82156997 0.61712317
0.96122927 0.80138161 0.61446723
1.0581165 0.78056411 0.61179745
1.1453789 0.75905849 0.60911363
-0.42920772 0.99701616 0.62120881
-0.21363768 0.98109275 0.6185739
0.058339902 0.96485321 0.61592546
0.49973563 0.94827908 0.61326329
0.68350479 0.93135005 0.6105872
0.82132974 0.9140437 0.60789696
0.93579545 0.89633518 0.60519237
1.0355194 0.87819681 0.60247321
1.1248733 0.85959764 0.59973924
-0.48170692 1.0719279 0.61205652
-0.26613688 1.0573504 0.60937406
-0.050566837 1.0425278 0.60667737
0.44074598 1.027448 0.60396622
0.64449918 1.0120981 0.6012404
0.79040629 0.99646378 0.59849968
0.90950432 0.9805296 0.59574383
1.0123149 0.96427866 0.5929726
1.1039093 0.94769246 0.59018576
-0.53420612 1.1410327 0.60273708
-0.31863608 1.1275218 0.60000456
-0.10306604 1.1138139 0.59725704
0.37030494 1.0999006 0.59449427
0.60243342 1.085773 0.59171602
0.75795905 1.0714215 0.58892204
0.88226857 1.0568356 0.58611207
0.98845432 1.0420042 0.58328585
1.0824566 1.0269152 0.58044312
-0.15228336 -0.048119587 0.76708934
0.28506795 -0.082679576 0.76504527
0.55951399 -0.11723957 0.76299463
0.72594889 -0.15179955 0.76093736
0.85578614 -0.18635954 0.75887339
0.96544022 -0.22091953 0.75680268
1.0618713 -0.25547952 0.75472514
1.1487944 -0.29003951 0.75264073
1.2284659 -0.3245995 0.75054937
-0.20478256 0.3863022 0.76000611
0.12751318 0.33272179 0.7579391
0.50888633 0.26600368 0.75586532
0.68982461 0.16802945 0.75378468
0.82640934 -0.014769658 0.75169714
0.94014333 -0.049329647 0.74960262
1.0393723 -0.083889636 0.74750106
1.1283634 -0.11844963 0.74539239
1.2096415 -0.15300961 0.74327654
-0.25728176 0.57406978 0.75284281
-0.04171172 0.5424552 0.75075213
0.4513481 0.50845952 0.74865444
0.65127526 0.47149122 0.74654967
0.79572341 0.43066914 0.74443777
0.91400255 0.38457609 0.74231866
1.0162735 0.33065505 0.74019226
1.1074787 0.26329421 0.73805852
1.1904589 0.16327736 0.73591735
-0.30978096 0.70711177 0.74559683
-0.09421092 0.68279937 0.74348168
0.38328461 0.65740162 0.74135929
0.60977347 0.63076884 0.73922959
0.76354813 0.60271395 0.7370925
0.88693288 0.57299806 0.73494795
0.9925272 0.54130798 0.73279588
1.0861107 0.50721947 0.7306362
1.1708984 0.47013333 0.72846884
-0.36228016 0.81531394 0.7382654
-0.14671012 0.79493445 0.73612496
0.29622065 0.77390827 0.73397702
0.56457131 0.75217363 0.73182152
0.72965838 0.72965838 0.72965838
0.85883419 0.70627743 0.72748752
0.96807926 0.68192922 0.72530887
1.0642263 0.65649095 0.72312234
1.1509379 0.62981179 0.72092785
-0.41477936 0.90854411 0.73084561
-0.19920932 0.89070413 0.72867899
0.15410034 0.872425 0.72650462
0.51454581 0.85367462 0.72432242
0.69376683 0.83441684 0.7221323
0.82958724 0.8146107 0.71993419
0.94286748 0.79420951 0.71772801
1.0417884 0.77315962 0.71551366
1.1305533 0.75139893 0.71329106
-0.46727856 0.99150821 0.72333435
-0.25170852 0.97547675 0.72114064
-0.036138478 0.95912292 0.71893889
0.45787047 0.94242766 0.71672903
0.655497 0.92536995 0.71451097
0.79904817 0.90792656 0.71228461
0.91682009 0.89007171 0.71004989
1.0187554 0.87177664 0.70780669
1.1097182 0.85300913 0.70555494
-0.51977776 1.0668807 0.71572838
-0.30420772 1.0522192 0.71350658
-0.088637677 1.0373085 0.71127646
0.39119036 1.0221363 0.70903792
0.61433934 1.006689 0.70679087
0.76704077 0.99095214 0.70453522
0.88985349 0.9749097 0.70227088
0.99508035 0.95854425 0.69999775
1.088403 0.94183666 0.69771573
-0.57227696 1.1363515 0.70802422
-0.35670692 1.122773 0.7057733
-0.14113688 1.1089946 0.70351373
0.30689118 1.0950078 0.70124543
0.56957488 1.0808033 0.6989683
0.7333454 1.0663714 0.69668224
0.86186932 1.0517014 0.69438714
0.9707097 1.0367818 0.69208291
1.0665751 1.0216002 0.68976945
-0.1903542 -0.060149483 0.84900765
0.1875987 -0.094709473 0.84719834
0.52338749 -0.12926946 0.84538439
0.6999758 -0.16382945 0.84356575
0.83460667 -0.19838944 0.84174241
0.94717648 -0.23294943 0.83991431
1.0456136 -0.26750942 0.83808143
1.1340224 -0.30206941 0.83624373
1.2148499 -0.3366294 0.83440117
-0.2428534 0.36870897 0.84274292
-0.027283361 0.31143878 0.84091743
0.46801034 0.23740113 0.83908718
0.66213848 0.10977832 0.83725213
0.8042969 -0.026799555 0.83541224
0.92127554 -0.061359544 0.83356748
1.0226841 -0.095919533 0.83171781
1.1132653 -0.13047952 0.8298632
1.1957677 -0.16503951 0.8280036
-0.2953526 0.56330633 0.83642184
-0.079782561 0.53091759 0.83457976
0.40337159 0.49596579 0.83273279
0.62151131 0.45777619 0.83088089
0.77255121 0.41531964 0.82902403
0.89447043 0.3668831 0.82716216
0.99912088 0.30920021 0.82529526
1.0920333 0.23429017 0.82342328
1.1763131 0.10163448 0.82154618
-0.3478518 0.69876396 0.83004295
-0.13228176 0.67408884 0.82818384
0.32298475 0.64827984 0.8263197
0.57741819 0.62117555 0.82445051
0.73915826 0.5925728 0.82257623
0.86666553 0.56220996 0.82069681
0.97487161 0.52974034 0.81881221
1.0702943 0.49468809 0.81692239
1.1564648 0.4563692 0.81502732
-0.400351 0.80828998 0.82360473
-0.18478096 0.78769183 0.82172812
0.20542983 0.76642653 0.81984637
0.52886162 0.74442896 0.81795942
0.70384998 0.72162278 0.81606724
0.83774733 0.69791763 0.81416978
0.94987647 0.67320518 0.812267
1.0480125 0.64735376 0.81035887
1.1361993 0.62020072 0.80844533
-0.4528502 0.90238221 0.81710557
-0.23728016 0.88439278 0.81521101
-0.021710119 0.86595345 0.81331115
0.47425932 0.84703077 0.81140596
0.66627787 0.82758704 0.80949539
0.8075794 0.8075794 0.8075794
0.92406651 0.78695888 0.80565793
1.0251475 0.76566911 0.80373096
1.1154908 0.74364458 0.80179843
-0.5053494 0.98596332 0.81054382
-0.28977936 0.9698217 0.80863081
-0.074209318 0.95335128 0.80671235
0.41081718 0.93653234 0.8047884
0.62597478 0.91934314 0.80285893
0.77599534 0.9017596 0.80092387
0.89736165 0.88375494 0.7989832
1.0016539 0.86529927 0.79703685
1.0943107 0.84635902 0.79508479
-0.5578486 1.0618048 0.80391775
-0.34227856 1.0470579 0.80198576
-0.12670852 1.0320576 0.80004817
0.33263876 1.0167912 0.79810494
0.58228979 1.0012449 0.79615602
0.74278882 0.98540349 0.79420136
0.86966793 0.96925068 0.79224091
0.97748015 0.9527684 0.79027463
1.0726272 0.93593688 0.78830246
-0.6103478 1.1316472 0.79722552
-0.39477776 1.118 0.79527401
-0.17920772 1.10415 0.79331675
0.22157376 1.0900886 0.79135367
0.53426862 1.0758061 0.78938474
0.70769875 1.0612926 0.7874099
0.84087394 1.046537 0.7854291
0.95256729 1.0315277 0.7834423
1.0504048 1.0162517 0.78144943
-0.22842504 -0.07217938 0.92239271
-0.012855002 -0.10673937 0.92075498
0.48398984 -0.14129936 0.91911375
0.67279207 -0.17585935 0.91746899
0.81276217 -0.21041934 0.91582069
0.92848031 -0.24497933 0.91416883
1.0290469 -0.27953932 0.91251338
1.119016 -0.31409931 0.91085432
1.2010483 -0.34865929 0.90919163
-0.28092424 0.35004632 0.91672507
-0.065354202 0.28824966 0.91507516
0.42232514 0.20391055 0.91342168
0.63298914 -0.004269462 0.9117646
0.7814302 -0.038829451 0.91010391
0.90193257 -0.073389441 0.90843957
1.0056628 -0.10794943 0.90677156
1.0979176 -0.14250942 0.90509987
1.1816981 -0.17706941 0.90342447
-0.33342344 0.5522904 0.91101509
-0.1178534 0.51907118 0.90935275
0.34732152 0.48308273 0.90768676
0.58993112 0.44354974 0.90601709
0.74851392 0.39925765 0.90434372
0.87441292 0.34810239 0.90266664
0.98160768 0.28579145 0.90098581
1.0763213 0.20016535 0.89930121
1.1619602 -0.0054795224 0.89761281
-0.38592264 0.69029479 0.90526186
-0.1703526 0.6652412 0.90358682
0.24465737 0.63900149 0.90190805
0.54272713 0.61140121 0.90022552
0.71376281 0.58221913 0.89853921
0.8458132 0.55116769 0.89684909
0.95682398 0.51786155 0.89515515
1.0541925 0.48176394 0.89345735
1.1418119 0.44208827 0.89175568
-0.43842184 0.80119204 0.89946445
-0.2228518 0.78036846 0.89777643
-0.0072817599 0.75885617 0.89608459
0.4899956 0.73658644 0.89438891
0.67685349 0.71347842 0.89268937
0.81600389 0.68943599 0.89098593
0.93124542 0.66434341 0.88927859
1.0314921 0.63805924 0.8875673
1.1212279 0.61040763 0.88585205
-0.49092104 0.89616943 0.89362188
-0.275351 0.87802695 0.89192059
-0.059780959 0.85942337 0.89021539
0.42937918 0.84032384 0.88850627
0.63735646 0.82068897 0.88679319
0.78482767 0.8004739 0.88507614
0.90479523 0.77962724 0.88335508
1.0081761 0.75808966 0.88163
1.1001804 0.73579202 0.87990085
-0.54342024 0.98038077 0.88773314
-0.3278502 0.96412682 0.88601827
-0.11228016 0.94753743 0.88429941
0.35619289 0.93059219 0.88257654
0.59468016 0.91326858 0.88084962
0.75209043 0.89554164 0.87911864
0.87738356 0.87738356 0.87738356
0.98419483 0.85876322 0.87564435
1.0786386 0.83964565 0.87390099
-0.59591944 1.0566996 0.88179717
-0.3803494 1.0418658 0.88006842
-0.16477936 1.0267744 0.87833559
0.25793545 1.0114122 0.87659865
0.54797067 0.99576496 0.87485757
0.71754794 0.97981712 0.87311233
0.84890423 0.96355175 0.87136289
0.95949145 0.94695025 0.86960923
1.0565681 0.92999216 0.86785132
-0.64841864 1.1269193 0.8758129
-0.4328486 1.1132024 0.87406994
-0.21727856 1.0992799 0.87232281
-0.0017085173 1.0851426 0.87057147
0.49591435 1.0707809 0.86881589
0.6808859 1.0561844 0.86705605
0.81923024 1.0413419 0.86529191
0.93400072 1.0262412 0.86352346
1.0339303 1.0108693 0.86175064
-0.26649588 -0.084209277 0.98936611
-0.050925843 -0.11876927 0.98786065
0.44030968 -0.15332926 0.98635243
0.64422265 -0.18788924 0.98484143
0.79018981 -0.22244923 0.98332765
0.90932139 -0.25700922 0.98181108
1.012154 -0.29156921 0.98029168
1.1037643 -0.3261292 0.97876946
1.1870538 -0.36068919 0.9772444
-0.31899508 0.33010652 0.98415816
-0.10342504 0.2625729 0.98264312
0.36976716 0.16199409 0.98112527
0.60213357 -0.016299359 0.9796046
0.75773142 -0.050859348 0.9780811
0.88207885 -0.085419337 0.97655474
0.98828877 -0.11997933 0.97502552
1.0823082 -0.15453932 0.97349342
1.1674247 -0.18909931 0.97195842
-0.37149428 0.54100445 0.97891695
-0.15592424 0.5068913 0.97739216
0.27749022 0.46977385 0.97586451
0.55618033 0.42875383 0.97433399
0.72351323 0.38238064 0.97280058
0.85378787 0.32801998 0.97126426
0.96371151 0.25982044 0.96972503
1.0603294 0.15702161 0.96818286
1.1473916 -0.017509419 0.96663774
-0.42399348 0.68169915 0.97364186
-0.20842344 0.65625014 0.97210714
0.10574118 0.62955869 0.97056951
0.50514798 0.60143579 0.96902895
0.68723458 0.5716398 0.96748545
0.82432535 0.53985354 0.96593899
0.93835857 0.50564665 0.96438956
1.0377902 0.46840998 0.96283713
1.1269299 0.42723144 0.9612817
-0.47649268 0.79401788 0.96833228
-0.26092264 0.77296172 0.96678744
-0.0453526 0.75119414 0.96523964
0.44702542 0.72864248 0.96368886
0.64849947 0.70522101 0.96213508
0.79354239 0.68082733 0.96057828
0.91215628 0.65533755 0.95901846
1.0146481 0.62859944 0.95745558
1.1060128 0.6004224 0.95588964
-0.52899188 0.88990457 0.96298755
-0.31342184 0.87160528 0.96143241
-0.097851799 0.85283324 0.95987425
0.37801255 0.83355209 0.95831304
0.60676842 0.81372065 0.95674879
0.76125608 0.79329194 0.95518145
0.88501867 0.77221197 0.95361103
0.99085502 0.75041823 0.9520375
1.0846101 0.72783766 0.95046085
-0.58149108 0.97475984 0.95760701
-0.36592104 0.95839132 0.95604136
-0.150351 0.94168048 0.95447264
0.28899334 0.92460621 0.95290082
0.56127366 0.90714517 0.95132588
0.72723762 0.88927147 0.94974781
0.85684444 0.8709562 0.94816658
0.96635621 0.85216697 0.94658219
1.0626885 0.83286728 0.94499462
-0.63399028 1.0515646 0.95218997
-0.41842024 1.0366426 0.95061362
-0.2028502 1.0214585 0.94903412
0.13743416 1.0059987 0.94745147
0.51085711 0.99024865 0.94586565
0.69119451 0.97419229 0.94427662
0.82751285 0.95781212 0.94268439
0.94108892 0.94108892 0.94108892
1.0402107 0.92400151 0.9394902
-0.68648948 1.1221674 0.94673571
-0.47091944 1.10838 0.94514844
-0.2553494 1.0943837 0.94355797
-0.039779358 1.0801694 0.94196428
0.45362229 1.0657272 0.94036735
0.65274274 1.0510464 0.93876716
0.79687806 1.0361155 0.93716369
0.91498063 1.0209219 0.93555692
1.0171348 1.0054522 0.93394684
-0.30456672 -0.096239173 1.0512993
-0.088996683 -0.13079916 1.0498997
0.39068688 -0.16535915 1.0484979
0.61404645 -0.19991914 1.0470938
0.76681637 -0.23447913 1.0456875
0.8896657 -0.26903912 1.0442789
0.99491612 -0.30359911 1.042868
1.0882555 -0.3381591 1.0414548
1.1728586 -0.37271909 1.0400393
-0.35706592 0.30860563 1.046459
-0.14149588 0.23346009 1.0450516
0.30621723 0.099348588 1.043642
0.56925416 -0.028329255 1.0422301
0.73310856 -0.062889245 1.0408158
0.86167419 -0.097449234 1.0393993
0.97054051 -0.13200922 1.0379805
1.066424 -0.16656921 1.0365593
1.1529389 -0.2011292 1.0351358
-0.40956512 0.52942885 1.0415917
-0.19399508 0.49434992 1.0401764
0.17475737 0.45599667 1.0387589
0.51977396 0.41331868 1.037339
0.69743094 0.3645592 1.0359167
0.83254727 0.30634219 1.0344921
0.94540764 0.2302851 1.0330652
1.0440428 0.090057637 1.0316359
1.1325976 -0.029539316 1.0302042
-0.46206432 0.67297153 1.036697
-0.24649428 0.64710887 1.0352737
-0.030924241 0.61994291 1.033848
0.46387339 0.5912683 1.03242
0.65941747 0.5608203 1.0309896
0.80214381 0.52824761 1.0295569
0.91944677 0.49306719 1.0281217
1.021071 0.45458308 1.0266842
1.1118085 0.41172757 1.0252442
-0.51456352 0.78676514 1.0317744
-0.29899348 0.76546888 1.0303429
-0.083423441 0.74343722 1.0289091
0.39841719 0.72059328 1.0274728
0.61857455 0.69684599 1.0260342
0.77029126 0.6720861 1.0245931
0.89257559 0.64618078 1.0231496
0.99746195 0.61896575 1.0217036
1.0905424 0.59023394 1.0202552
-0.56706272 0.88358636 1.0268234
-0.35149268 0.86512637 1.0253837
-0.13592264 0.84618147 1.0239415
0.31648645 0.82671372 1.0224969
0.57420888 0.80668004 1.0210498
0.73677489 0.78603115 1.0196003
0.86469738 0.76471031 1.0181483
0.97316298 0.74265159 1.0166938
1.068767 0.71977765 1.0152368
-0.61956192 0.96909977 1.0218437
-0.40399188 0.95261436 1.0203955
-0.18842184 0.93577951 1.0189449
0.19400423 0.91857338 1.0174918
0.52529324 0.90097179 1.0160361
0.70132197 0.88294783 1.014578
0.83569721 0.86447145 1.0131174
0.94811367 0.84550891 1.0116542
1.046446 0.8260221 1.0101885
-0.67206112 1.0463994 1.0168347
-0.45649108 1.0313876 1.015378
-0.24092104 1.0161091 1.0139187
-0.025350999 1.00055 1.0124569
0.47018828 0.98469525 1.0109926
0.6635772 0.96852824 1.0095257
0.80543683 0.95203094 1.0080563
0.92224438 0.93518348 1.0065843
1.023539 0.91796392 1.0051097
-0.72456032 1.1173913 1.011796
-0.50899028 1.1035322 1.0103305
-0.29342024 1.0894611 1.0088625
-0.077850198 1.0751687 1.0073919
0.40597169 1.0606447 1.0059187
0.62306324 1.0458781 1.004443
0.77374745 1.0308572 1.0029646
0.89547415 1.0155692 1.0014836
1 1 1
