site/assets/luts/ocio-aces--djiinputlinear-dgamut-to-aces2065-1--ad0c5dad6.cube
# LUTr-Project: LUTr — LUTrepository
# LUTr-Schema-Version: 1
# LUTr-ID: ocio-aces--djiinputlinear-dgamut-to-aces2065-1--ad0c5dad6
# LUTr-Title: DJI.Input.Linear DGamut to ACES2065-1
# LUTr-Collection: OCIO ACES
# LUTr-Collection-ID: aswf-opencolorio-config-aces
# LUTr-Source: https://github.com/AcademySoftwareFoundation/OpenColorIO-Config-ACES
# LUTr-Source-File: submissions/aswf-opencolorio-config-aces/opencolorio_config_aces/clf/transforms/dji/input/DJI.Input.Linear_DGamut_to_ACES2065-1.clf
# LUTr-Source-Format: CLF
# LUTr-Source-SHA256: 85faa18959c7ef92acab84a2e00043781a0eb082c1e53c2b946cb9dc29bded8a
# LUTr-License: BSD-3-Clause
# LUTr-License-URL: https://github.com/AcademySoftwareFoundation/OpenColorIO-Config-ACES/blob/main/LICENSE
# LUTr-Tags: technical, aces, ocio, clf, color-management, cube
# LUTr-Transform-Class: color-space-conversion
# LUTr-Input-Color-Space: Linear DJI D-Gamut
# LUTr-Output-Color-Space: ACES2065-1
# LUTr-Color-Space-Confidence: descriptor-only
# LUTr-Conversion-Method: CLF operations evaluated as float and sampled to 33x33x33 3D CUBE
# LUTr-Conversion-Date: 2026-07-27
# LUTr-Conversion-Tool: LUTr scripts/convert-all-to-cube.mjs
# LUTr-Conversion-Grid: 33x33x33
# LUTr-Conversion-Warning: A sampled 3D CUBE is bounded to DOMAIN_MIN/MAX 0..1 and cannot preserve CLF values outside its input domain.
# LUTr-Upstream-ID: urn:aswf:ocio:transformId:1.0:DJI:Input:Linear_DGamut_to_ACES2065-1:1.0
# LUTr-Upstream-Name: Linear DJI D-Gamut to ACES2065-1
# LUTr-Upstream-Input-Descriptor: Linear DJI D-Gamut
# LUTr-Upstream-Output-Descriptor: ACES2065-1
# LUTr-Upstream-Operations: Matrix
# LUTr-Note: Preserve this metadata and the upstream license notices when redistributing.
TITLE "DJI.Input.Linear DGamut to ACES2065-1"
LUT_3D_SIZE 5
DOMAIN_MIN 0 0 0
DOMAIN_MAX 1 1 1
0 0 0
0.17281981 0.016555601 -0.0043246353
0.34563962 0.033111202 -0.0086492705
0.51845943 0.049666803 -0.012973906
0.69127925 0.066222404 -0.017298541
0.053595632 0.25290402 -0.019344713
0.22641544 0.26945962 -0.023669348
0.39923525 0.28601522 -0.027993983
0.57205507 0.30257082 -0.032318618
0.74487488 0.31912642 -0.036643254
0.10719126 0.50580804 -0.038689425
0.28001108 0.52236364 -0.04301406
0.45283089 0.53891924 -0.047338696
0.6256507 0.55547484 -0.051663331
0.79847051 0.57203044 -0.055987966
0.1607869 0.75871206 -0.058034138
0.33360671 0.77526766 -0.062358773
0.50642652 0.79182326 -0.066683408
0.67924633 0.80837886 -0.071008043
0.85206614 0.82493446 -0.075332679
0.21438253 1.0116161 -0.07737885
0.38720234 1.0281717 -0.081703485
0.56002215 1.0447273 -0.086028121
0.73284196 1.0612829 -0.090352756
0.90566177 1.0778385 -0.094677391
0.023584557 -0.019459621 0.27366935
0.19640437 -0.00290402 0.26934471
0.36922418 0.013651581 0.26502008
0.54204399 0.030207182 0.26069544
0.7148638 0.046762783 0.25637081
0.077180189 0.2334444 0.25432464
0.25 0.25 0.25
0.42281981 0.2665556 0.24567536
0.59563962 0.2831112 0.24135073
0.76845943 0.2996668 0.23702609
0.13077582 0.48634842 0.23497992
0.30359563 0.50290402 0.23065529
0.47641544 0.51945962 0.22633065
0.64923525 0.53601522 0.22200602
0.82205507 0.55257082 0.21768138
0.18437145 0.73925244 0.21563521
0.35719126 0.75580804 0.21131057
0.53001108 0.77236364 0.20698594
0.70283089 0.78891924 0.2026613
0.8756507 0.80547484 0.19833667
0.23796708 0.99215646 0.1962905
0.4107869 1.0087121 0.19196586
0.58360671 1.0252677 0.18764123
0.75642652 1.0418233 0.18331659
0.92924633 1.0583789 0.17899196
0.047169113 -0.038919242 0.5473387
0.21998892 -0.022363641 0.54301406
0.39280874 -0.0058080401 0.53868943
0.56562855 0.010747561 0.53436479
0.73844836 0.027303162 0.53004015
0.10076475 0.21398478 0.52799398
0.27358456 0.23054038 0.52366935
0.44640437 0.24709598 0.51934471
0.61922418 0.26365158 0.51502008
0.79204399 0.28020718 0.51069544
0.15436038 0.4668888 0.50864927
0.32718019 0.4834444 0.50432464
0.5 0.5 0.5
0.67281981 0.5165556 0.49567536
0.84563962 0.5331112 0.49135073
0.20795601 0.71979282 0.48930456
0.38077582 0.73634842 0.48497992
0.55359563 0.75290402 0.48065529
0.72641544 0.76945962 0.47633065
0.89923525 0.78601522 0.47200602
0.26155164 0.97269684 0.46995985
0.43437145 0.98925244 0.46563521
0.60719126 1.005808 0.46131057
0.78001108 1.0223636 0.45698594
0.95283089 1.0389192 0.4526613
0.07075367 -0.058378863 0.82100804
0.24357348 -0.041823262 0.81668341
0.41639329 -0.025267661 0.81235877
0.5892131 -0.0087120601 0.80803414
0.76203292 0.0078435408 0.8037095
0.1243493 0.19452516 0.80166333
0.29716911 0.21108076 0.7973387
0.46998892 0.22763636 0.79301406
0.64280874 0.24419196 0.78868943
0.81562855 0.26074756 0.78436479
0.17794493 0.44742918 0.78231862
0.35076475 0.46398478 0.77799398
0.52358456 0.48054038 0.77366935
0.69640437 0.49709598 0.76934471
0.86922418 0.51365158 0.76502008
0.23154057 0.7003332 0.76297391
0.40436038 0.7168888 0.75864927
0.57718019 0.7334444 0.75432464
0.75 0.75 0.75
0.92281981 0.7665556 0.74567536
0.2851362 0.95323722 0.74362919
0.45795601 0.96979282 0.73930456
0.63077582 0.98634842 0.73497992
0.80359563 1.002904 0.73065529
0.97641544 1.0194596 0.72633065
0.094338227 -0.077838484 1.0946774
0.26715804 -0.061282883 1.0903528
0.43997785 -0.044727282 1.0860281
0.61279766 -0.028171681 1.0817035
0.78561747 -0.01161608 1.0773789
0.14793386 0.17506554 1.0753327
0.32075367 0.19162114 1.071008
0.49357348 0.20817674 1.0666834
0.66639329 0.22473234 1.0623588
0.8392131 0.24128794 1.0580341
0.20152949 0.42796956 1.055988
0.3743493 0.44452516 1.0516633
0.54716911 0.46108076 1.0473387
0.71998892 0.47763636 1.0430141
0.89280874 0.49419196 1.0386894
0.25512512 0.68087358 1.0366433
0.42794493 0.69742918 1.0323186
0.60076475 0.71398478 1.027994
0.77358456 0.73054038 1.0236693
0.94640437 0.74709598 1.0193447
0.30872075 0.9337776 1.0172985
0.48154057 0.9503332 1.0129739
0.65436038 0.9668888 1.0086493
0.82718019 0.9834444 1.0043246
1 1 1
