site/assets/luts/ocio-aces--arriinputlinear-arri-wide-gamut-4-to-aces2065-1--e3d9c08b8.cube
# LUTr-Project: LUTr — LUTrepository
# LUTr-Schema-Version: 1
# LUTr-ID: ocio-aces--arriinputlinear-arri-wide-gamut-4-to-aces2065-1--e3d9c08b8
# LUTr-Title: ARRI.Input.Linear ARRI Wide Gamut 4 to ACES2065-1
# LUTr-Collection: OCIO ACES
# LUTr-Collection-ID: aswf-opencolorio-config-aces
# LUTr-Source: https://github.com/AcademySoftwareFoundation/OpenColorIO-Config-ACES
# LUTr-Source-File: submissions/aswf-opencolorio-config-aces/opencolorio_config_aces/clf/transforms/arri/input/ARRI.Input.Linear_ARRI_Wide_Gamut_4_to_ACES2065-1.clf
# LUTr-Source-Format: CLF
# LUTr-Source-SHA256: 745ca828360c79a6da066f2075ee3870f77c610107c4711b7666bcfb00298f28
# LUTr-License: BSD-3-Clause
# LUTr-License-URL: https://github.com/AcademySoftwareFoundation/OpenColorIO-Config-ACES/blob/main/LICENSE
# LUTr-Tags: technical, aces, ocio, clf, color-management, cube
# LUTr-Transform-Class: color-space-conversion
# LUTr-Input-Color-Space: Linear ARRI Wide Gamut 4
# LUTr-Output-Color-Space: ACES2065-1
# LUTr-Color-Space-Confidence: descriptor-only
# LUTr-Conversion-Method: CLF operations evaluated as float and sampled to 33x33x33 3D CUBE
# LUTr-Conversion-Date: 2026-07-27
# LUTr-Conversion-Tool: LUTr scripts/convert-all-to-cube.mjs
# LUTr-Conversion-Grid: 33x33x33
# LUTr-Conversion-Warning: A sampled 3D CUBE is bounded to DOMAIN_MIN/MAX 0..1 and cannot preserve CLF values outside its input domain.
# LUTr-Upstream-ID: urn:aswf:ocio:transformId:1.0:ARRI:Input:Linear_ARRI_Wide_Gamut_4_to_ACES2065-1:1.0
# LUTr-Upstream-Name: Linear ARRI Wide Gamut 4 to ACES2065-1
# LUTr-Upstream-Input-Descriptor: Linear ARRI Wide Gamut 4
# LUTr-Upstream-Output-Descriptor: ACES2065-1
# LUTr-Upstream-Operations: Matrix
# LUTr-Note: Preserve this metadata and the upstream license notices when redistributing.
TITLE "ARRI.Input.Linear ARRI Wide Gamut 4 to ACES2065-1"
LUT_3D_SIZE 9
DOMAIN_MIN 0 0 0
DOMAIN_MAX 1 1 1
0 0 0
0.09386967 0.00010272963 -0.000062494018
0.18773934 0.00020545927 -0.00012498804
0.28160901 0.0003081889 -0.00018748205
0.37547868 0.00041091854 -0.00024997607
0.46934835 0.00051364817 -0.00031247009
0.56321802 0.00061637781 -0.00037496411
0.65708769 0.00071910744 -0.00043745813
0.75095736 0.00082183708 -0.00049995214
0.018052848 0.1259247 -0.00010677215
0.11192252 0.12602743 -0.00016926617
0.20579219 0.12613016 -0.00023176019
0.29966186 0.12623289 -0.00029425421
0.39353153 0.12633562 -0.00035674823
0.4874012 0.12643835 -0.00041924224
0.58127087 0.12654108 -0.00048173626
0.67514054 0.12664381 -0.00054423028
0.76901021 0.12674654 -0.0006067243
0.036105697 0.2518494 -0.00021354431
0.12997537 0.25195213 -0.00027603833
0.22384504 0.25205486 -0.00033853234
0.31771471 0.25215759 -0.00040102636
0.41158438 0.25226031 -0.00046352038
0.50545405 0.25236304 -0.0005260144
0.59932372 0.25246577 -0.00058850842
0.69319339 0.2525685 -0.00065100243
0.78706306 0.25267123 -0.00071349645
0.054158545 0.37777409 -0.00032031646
0.14802822 0.37787682 -0.00038281048
0.24189789 0.37797955 -0.0004453045
0.33576756 0.37808228 -0.00050779852
0.42963723 0.37818501 -0.00057029253
0.5235069 0.37828774 -0.00063278655
0.61737657 0.37839047 -0.00069528057
0.71124624 0.3784932 -0.00075777459
0.80511591 0.37859593 -0.00082026861
0.072211393 0.50369879 -0.00042708862
0.16608106 0.50380152 -0.00048958263
0.25995073 0.50390425 -0.00055207665
0.3538204 0.50400698 -0.00061457067
0.44769007 0.50410971 -0.00067706469
0.54155975 0.50421244 -0.00073955871
0.63542942 0.50431517 -0.00080205272
0.72929909 0.5044179 -0.00086454674
0.82316876 0.50452063 -0.00092704076
0.090264242 0.62962349 -0.00053386077
0.18413391 0.62972622 -0.00059635479
0.27800358 0.62982895 -0.00065884881
0.37187325 0.62993168 -0.00072134282
0.46574292 0.63003441 -0.00078383684
0.55961259 0.63013714 -0.00084633086
0.65348226 0.63023987 -0.00090882488
0.74735193 0.6303426 -0.0009713189
0.8412216 0.63044533 -0.0010338129
0.10831709 0.75554819 -0.00064063292
0.20218676 0.75565092 -0.00070312694
0.29605643 0.75575365 -0.00076562096
0.3899261 0.75585638 -0.00082811498
0.48379577 0.75595911 -0.000890609
0.57766544 0.75606184 -0.00095310301
0.67153511 0.75616457 -0.001015597
0.76540478 0.7562673 -0.001078091
0.85927445 0.75637003 -0.0011405851
0.12636994 0.88147289 -0.00074740508
0.22023961 0.88157562 -0.0008098991
0.31410928 0.88167835 -0.00087239311
0.40797895 0.88178108 -0.00093488713
0.50184862 0.88188381 -0.00099738115
0.59571829 0.88198653 -0.0010598752
0.68958796 0.88208926 -0.0011223692
0.78345763 0.88219199 -0.0011848632
0.8773273 0.88229472 -0.0012473572
0.14442279 1.0073976 -0.00085417723
0.23829246 1.0075003 -0.00091667125
0.33216213 1.007603 -0.00097916527
0.4260318 1.0077058 -0.0010416593
0.51990147 1.0078085 -0.0011041533
0.61377114 1.0079112 -0.0011666473
0.70764081 1.008014 -0.0012291413
0.80151048 1.0081167 -0.0012916354
0.89538015 1.0082194 -0.0013541294
0.013077481 -0.0010274277 0.12516927
0.10694715 -0.00092469811 0.12510677
0.20081682 -0.00082196848 0.12504428
0.29468649 -0.00071923884 0.12498178
0.38855616 -0.00061650921 0.12491929
0.48242583 -0.00051377957 0.1248568
0.5762955 -0.00041104994 0.1247943
0.67016517 -0.0003083203 0.12473181
0.76403484 -0.00020559067 0.12466931
0.03113033 0.12489727 0.12506249
0.125 0.125 0.125
0.21886967 0.12510273 0.12493751
0.31273934 0.12520546 0.12487501
0.40660901 0.12530819 0.12481252
0.50047868 0.12541092 0.12475002
0.59434835 0.12551365 0.12468753
0.68821802 0.12561638 0.12462504
0.78208769 0.12571911 0.12456254
0.049183178 0.25082197 0.12495572
0.14305285 0.2509247 0.12489323
0.23692252 0.25102743 0.12483073
0.33079219 0.25113016 0.12476824
0.42466186 0.25123289 0.12470575
0.51853153 0.25133562 0.12464325
0.6124012 0.25143835 0.12458076
0.70627087 0.25154108 0.12451826
0.80014054 0.25164381 0.12445577
0.067236026 0.37674667 0.12484895
0.1611057 0.3768494 0.12478646
0.25497537 0.37695213 0.12472396
0.34884504 0.37705486 0.12466147
0.44271471 0.37715759 0.12459897
0.53658438 0.37726031 0.12453648
0.63045405 0.37736304 0.12447399
0.72432372 0.37746577 0.12441149
0.81819339 0.3775685 0.124349
0.085288875 0.50267136 0.12474218
0.17915855 0.50277409 0.12467968
0.27302822 0.50287682 0.12461719
0.36689789 0.50297955 0.1245547
0.46076756 0.50308228 0.1244922
0.55463723 0.50318501 0.12442971
0.6485069 0.50328774 0.12436721
0.74237657 0.50339047 0.12430472
0.83624624 0.5034932 0.12424223
0.10334172 0.62859606 0.12463541
0.19721139 0.62869879 0.12457291
0.29108106 0.62880152 0.12451042
0.38495073 0.62890425 0.12444792
0.4788204 0.62900698 0.12438543
0.57269007 0.62910971 0.12432294
0.66655975 0.62921244 0.12426044
0.76042942 0.62931517 0.12419795
0.85429909 0.6294179 0.12413545
0.12139457 0.75452076 0.12452863
0.21526424 0.75462349 0.12446614
0.30913391 0.75472622 0.12440365
0.40300358 0.75482895 0.12434115
0.49687325 0.75493168 0.12427866
0.59074292 0.75503441 0.12421616
0.68461259 0.75513714 0.12415367
0.77848226 0.75523987 0.12409118
0.87235193 0.7553426 0.12402868
0.13944742 0.88044546 0.12442186
0.23331709 0.88054819 0.12435937
0.32718676 0.88065092 0.12429687
0.42105643 0.88075365 0.12423438
0.5149261 0.88085638 0.12417189
0.60879577 0.88095911 0.12410939
0.70266544 0.88106184 0.1240469
0.79653511 0.88116457 0.1239844
0.89040478 0.8812673 0.12392191
0.15750027 1.0063702 0.12431509
0.25136994 1.0064729 0.12425259
0.34523961 1.0065756 0.1241901
0.43910928 1.0066783 0.12412761
0.53297895 1.0067811 0.12406511
0.62684862 1.0068838 0.12400262
0.72071829 1.0069865 0.12394012
0.81458796 1.0070893 0.12387763
0.90845763 1.007192 0.12381514
0.026154963 -0.0020548555 0.25033853
0.12002463 -0.0019521259 0.25027604
0.2138943 -0.0018493962 0.25021354
0.30776397 -0.0017466666 0.25015105
0.40163364 -0.001643937 0.25008856
0.49550331 -0.0015412073 0.25002606
0.58937298 -0.0014384777 0.24996357
0.68324266 -0.001335748 0.24990107
0.77711233 -0.0012330184 0.24983858
0.044207811 0.12386984 0.25023176
0.13807748 0.12397257 0.25016927
0.23194715 0.1240753 0.25010677
0.32581682 0.12417803 0.25004428
0.41968649 0.12428076 0.24998178
0.51355616 0.12438349 0.24991929
0.60742583 0.12448622 0.2498568
0.7012955 0.12458895 0.2497943
0.79516517 0.12469168 0.24973181
0.062260659 0.24979454 0.25012499
0.15613033 0.24989727 0.25006249
0.25 0.25 0.25
0.34386967 0.25010273 0.24993751
0.43773934 0.25020546 0.24987501
0.53160901 0.25030819 0.24981252
0.62547868 0.25041092 0.24975002
0.71934835 0.25051365 0.24968753
0.81321802 0.25061638 0.24962504
0.080313508 0.37571924 0.25001822
0.17418318 0.37582197 0.24995572
0.26805285 0.3759247 0.24989323
0.36192252 0.37602743 0.24983073
0.45579219 0.37613016 0.24976824
0.54966186 0.37623289 0.24970575
0.64353153 0.37633562 0.24964325
0.7374012 0.37643835 0.24958076
0.83127087 0.37654108 0.24951826
0.098366356 0.50164394 0.24991144
0.19223603 0.50174667 0.24984895
0.2861057 0.5018494 0.24978646
0.37997537 0.50195213 0.24972396
0.47384504 0.50205486 0.24966147
0.56771471 0.50215759 0.24959897
0.66158438 0.50226031 0.24953648
0.75545405 0.50236304 0.24947399
0.84932372 0.50246577 0.24941149
0.1164192 0.62756864 0.24980467
0.21028887 0.62767136 0.24974218
0.30415855 0.62777409 0.24967968
0.39802822 0.62787682 0.24961719
0.49189789 0.62797955 0.2495547
0.58576756 0.62808228 0.2494922
0.67963723 0.62818501 0.24942971
0.7735069 0.62828774 0.24936721
0.86737657 0.62839047 0.24930472
0.13447205 0.75349333 0.2496979
0.22834172 0.75359606 0.24963541
0.32221139 0.75369879 0.24957291
0.41608106 0.75380152 0.24951042
0.50995073 0.75390425 0.24944792
0.6038204 0.75400698 0.24938543
0.69769007 0.75410971 0.24932294
0.79155975 0.75421244 0.24926044
0.88542942 0.75431517 0.24919795
0.1525249 0.87941803 0.24959113
0.24639457 0.87952076 0.24952863
0.34026424 0.87962349 0.24946614
0.43413391 0.87972622 0.24940365
0.52800358 0.87982895 0.24934115
0.62187325 0.87993168 0.24927866
0.71574292 0.88003441 0.24921616
0.80961259 0.88013714 0.24915367
0.90348226 0.88023987 0.24909118
0.17057775 1.0053427 0.24948436
0.26444742 1.0054455 0.24942186
0.35831709 1.0055482 0.24935937
0.45218676 1.0056509 0.24929687
0.54605643 1.0057536 0.24923438
0.6399261 1.0058564 0.24917189
0.73379577 1.0059591 0.24910939
0.82766544 1.0060618 0.2490469
0.92153511 1.0061646 0.2489844
0.039232444 -0.0030822832 0.3755078
0.13310211 -0.0029795536 0.3754453
0.22697178 -0.002876824 0.37538281
0.32084145 -0.0027740943 0.37532032
0.41471113 -0.0026713647 0.37525782
0.5085808 -0.0025686351 0.37519533
0.60245047 -0.0024659054 0.37513283
0.69632014 -0.0023631758 0.37507034
0.79018981 -0.0022604462 0.37500785
0.057285292 0.12284241 0.37540103
0.15115496 0.12294514 0.37533853
0.24502463 0.12304787 0.37527604
0.3388943 0.1231506 0.37521354
0.43276397 0.12325333 0.37515105
0.52663364 0.12335606 0.37508856
0.62050331 0.12345879 0.37502606
0.71437298 0.12356152 0.37496357
0.80824266 0.12366425 0.37490107
0.075338141 0.24876711 0.37529425
0.16920781 0.24886984 0.37523176
0.26307748 0.24897257 0.37516927
0.35694715 0.2490753 0.37510677
0.45081682 0.24917803 0.37504428
0.54468649 0.24928076 0.37498178
0.63855616 0.24938349 0.37491929
0.73242583 0.24948622 0.3748568
0.8262955 0.24958895 0.3747943
0.093390989 0.37469181 0.37518748
0.18726066 0.37479454 0.37512499
0.28113033 0.37489727 0.37506249
0.375 0.375 0.375
0.46886967 0.37510273 0.37493751
0.56273934 0.37520546 0.37487501
0.65660901 0.37530819 0.37481252
0.75047868 0.37541092 0.37475002
0.84434835 0.37551365 0.37468753
0.11144384 0.50061651 0.37508071
0.20531351 0.50071924 0.37501822
0.29918318 0.50082197 0.37495572
0.39305285 0.5009247 0.37489323
0.48692252 0.50102743 0.37483073
0.58079219 0.50113016 0.37476824
0.67466186 0.50123289 0.37470575
0.76853153 0.50133562 0.37464325
0.8624012 0.50143835 0.37458076
0.12949669 0.62654121 0.37497394
0.22336636 0.62664394 0.37491144
0.31723603 0.62674667 0.37484895
0.4111057 0.6268494 0.37478646
0.50497537 0.62695213 0.37472396
0.59884504 0.62705486 0.37466147
0.69271471 0.62715759 0.37459897
0.78658438 0.62726031 0.37453648
0.88045405 0.62736304 0.37447399
0.14754953 0.75246591 0.37486717
0.2414192 0.75256864 0.37480467
0.33528887 0.75267136 0.37474218
0.42915855 0.75277409 0.37467968
0.52302822 0.75287682 0.37461719
0.61689789 0.75297955 0.3745547
0.71076756 0.75308228 0.3744922
0.80463723 0.75318501 0.37442971
0.8985069 0.75328774 0.37436721
0.16560238 0.8783906 0.37476039
0.25947205 0.87849333 0.3746979
0.35334172 0.87859606 0.37463541
0.44721139 0.87869879 0.37457291
0.54108106 0.87880152 0.37451042
0.63495073 0.87890425 0.37444792
0.7288204 0.87900698 0.37438543
0.82269007 0.87910971 0.37432294
0.91655975 0.87921244 0.37426044
0.18365523 1.0043153 0.37465362
0.2775249 1.004418 0.37459113
0.37139457 1.0045208 0.37452863
0.46526424 1.0046235 0.37446614
0.55913391 1.0047262 0.37440365
0.65300358 1.0048289 0.37434115
0.74687325 1.0049317 0.37427866
0.84074292 1.0050344 0.37421616
0.93461259 1.0051371 0.37415367
0.052309925 -0.004109711 0.50067706
0.1461796 -0.0040069813 0.50061457
0.24004927 -0.0039042517 0.50055208
0.33391894 -0.0038015221 0.50048958
0.42778861 -0.0036987924 0.50042709
0.52165828 -0.0035960628 0.50036459
0.61552795 -0.0034933332 0.5003021
0.70939762 -0.0033906035 0.50023961
0.80326729 -0.0032878739 0.50017711
0.070362774 0.12181499 0.50057029
0.16423244 0.12191772 0.5005078
0.25810211 0.12202045 0.5004453
0.35197178 0.12212318 0.50038281
0.44584145 0.12222591 0.50032032
0.53971113 0.12232864 0.50025782
0.6335808 0.12243136 0.50019533
0.72745047 0.12253409 0.50013283
0.82132014 0.12263682 0.50007034
0.088415622 0.24773969 0.50046352
0.18228529 0.24784241 0.50040103
0.27615496 0.24794514 0.50033853
0.37002463 0.24804787 0.50027604
0.4638943 0.2481506 0.50021354
0.55776397 0.24825333 0.50015105
0.65163364 0.24835606 0.50008856
0.74550331 0.24845879 0.50002606
0.83937298 0.24856152 0.49996357
0.10646847 0.37366438 0.50035675
0.20033814 0.37376711 0.50029425
0.29420781 0.37386984 0.50023176
0.38807748 0.37397257 0.50016927
0.48194715 0.3740753 0.50010677
0.57581682 0.37417803 0.50004428
0.66968649 0.37428076 0.49998178
0.76355616 0.37438349 0.49991929
0.85742583 0.37448622 0.4998568
0.12452132 0.49958908 0.50024998
0.21839099 0.49969181 0.50018748
0.31226066 0.49979454 0.50012499
0.40613033 0.49989727 0.50006249
0.5 0.5 0.5
0.59386967 0.50010273 0.49993751
0.68773934 0.50020546 0.49987501
0.78160901 0.50030819 0.49981252
0.87547868 0.50041092 0.49975002
0.14257417 0.62551378 0.5001432
0.23644384 0.62561651 0.50008071
0.33031351 0.62571924 0.50001822
0.42418318 0.62582197 0.49995572
0.51805285 0.6259247 0.49989323
0.61192252 0.62602743 0.49983073
0.70579219 0.62613016 0.49976824
0.79966186 0.62623289 0.49970575
0.89353153 0.62633562 0.49964325
0.16062702 0.75143848 0.50003643
0.25449669 0.75154121 0.49997394
0.34836636 0.75164394 0.49991144
0.44223603 0.75174667 0.49984895
0.5361057 0.7518494 0.49978646
0.62997537 0.75195213 0.49972396
0.72384504 0.75205486 0.49966147
0.81771471 0.75215759 0.49959897
0.91158438 0.75226031 0.49953648
0.17867986 0.87736318 0.49992966
0.27254953 0.87746591 0.49986717
0.3664192 0.87756864 0.49980467
0.46028887 0.87767136 0.49974218
0.55415855 0.87777409 0.49967968
0.64802822 0.87787682 0.49961719
0.74189789 0.87797955 0.4995547
0.83576756 0.87808228 0.4994922
0.92963723 0.87818501 0.49942971
0.19673271 1.0032879 0.49982289
0.29060238 1.0033906 0.49976039
0.38447205 1.0034933 0.4996979
0.47834172 1.0035961 0.49963541
0.57221139 1.0036988 0.49957291
0.66608106 1.0038015 0.49951042
0.75995073 1.0039043 0.49944792
0.8538204 1.004007 0.49938543
0.94769007 1.0041097 0.49932294
0.065387407 -0.0051371387 0.62584633
0.15925708 -0.0050344091 0.62578384
0.25312675 -0.0049316795 0.62572134
0.34699642 -0.0048289498 0.62565885
0.44086609 -0.0047262202 0.62559635
0.53473576 -0.0046234906 0.62553386
0.62860543 -0.0045207609 0.62547137
0.7224751 -0.0044180313 0.62540887
0.81634477 -0.0043153016 0.62534638
0.083440255 0.12078756 0.62573956
0.17730993 0.12089029 0.62567706
0.2711796 0.12099302 0.62561457
0.36504927 0.12109575 0.62555208
0.45891894 0.12119848 0.62548958
0.55278861 0.12130121 0.62542709
0.64665828 0.12140394 0.62536459
0.74052795 0.12150667 0.6253021
0.83439762 0.1216094 0.62523961
0.1014931 0.24671226 0.62563279
0.19536277 0.24681499 0.62557029
0.28923244 0.24691772 0.6255078
0.38310211 0.24702045 0.6254453
0.47697178 0.24712318 0.62538281
0.57084145 0.24722591 0.62532032
0.66471113 0.24732864 0.62525782
0.7585808 0.24743136 0.62519533
0.85245047 0.24753409 0.62513283
0.11954595 0.37263696 0.62552601
0.21341562 0.37273969 0.62546352
0.30728529 0.37284241 0.62540103
0.40115496 0.37294514 0.62533853
0.49502463 0.37304787 0.62527604
0.5888943 0.3731506 0.62521354
0.68276397 0.37325333 0.62515105
0.77663364 0.37335606 0.62508856
0.87050331 0.37345879 0.62502606
0.1375988 0.49856165 0.62541924
0.23146847 0.49866438 0.62535675
0.32533814 0.49876711 0.62529425
0.41920781 0.49886984 0.62523176
0.51307748 0.49897257 0.62516927
0.60694715 0.4990753 0.62510677
0.70081682 0.49917803 0.62504428
0.79468649 0.49928076 0.62498178
0.88855616 0.49938349 0.62491929
0.15565165 0.62448635 0.62531247
0.24952132 0.62458908 0.62524998
0.34339099 0.62469181 0.62518748
0.43726066 0.62479454 0.62512499
0.53113033 0.62489727 0.62506249
0.625 0.625 0.625
0.71886967 0.62510273 0.62493751
0.81273934 0.62520546 0.62487501
0.90660901 0.62530819 0.62481252
0.1737045 0.75041105 0.6252057
0.26757417 0.75051378 0.6251432
0.36144384 0.75061651 0.62508071
0.45531351 0.75071924 0.62501822
0.54918318 0.75082197 0.62495572
0.64305285 0.7509247 0.62489323
0.73692252 0.75102743 0.62483073
0.83079219 0.75113016 0.62476824
0.92466186 0.75123289 0.62470575
0.19175734 0.87633575 0.62509893
0.28562702 0.87643848 0.62503643
0.37949669 0.87654121 0.62497394
0.47336636 0.87664394 0.62491144
0.56723603 0.87674667 0.62484895
0.6611057 0.8768494 0.62478646
0.75497537 0.87695213 0.62472396
0.84884504 0.87705486 0.62466147
0.94271471 0.87715759 0.62459897
0.20981019 1.0022604 0.62499215
0.30367986 1.0023632 0.62492966
0.39754953 1.0024659 0.62486717
0.4914192 1.0025686 0.62480467
0.58528887 1.0026714 0.62474218
0.67915855 1.0027741 0.62467968
0.77302822 1.0028768 0.62461719
0.86689789 1.0029796 0.6245547
0.96076756 1.0030823 0.6244922
0.078464888 -0.0061645665 0.7510156
0.17233456 -0.0060618368 0.7509531
0.26620423 -0.0059591072 0.75089061
0.3600739 -0.0058563776 0.75082811
0.45394357 -0.0057536479 0.75076562
0.54781324 -0.0056509183 0.75070313
0.64168291 -0.0055481887 0.75064063
0.73555258 -0.005445459 0.75057814
0.82942225 -0.0053427294 0.75051564
0.096517736 0.11976013 0.75090882
0.19038741 0.11986286 0.75084633
0.28425708 0.11996559 0.75078384
0.37812675 0.12006832 0.75072134
0.47199642 0.12017105 0.75065885
0.56586609 0.12027378 0.75059635
0.65973576 0.12037651 0.75053386
0.75360543 0.12047924 0.75047137
0.8474751 0.12058197 0.75040887
0.11457058 0.24568483 0.75080205
0.20844025 0.24578756 0.75073956
0.30230993 0.24589029 0.75067706
0.3961796 0.24599302 0.75061457
0.49004927 0.24609575 0.75055208
0.58391894 0.24619848 0.75048958
0.67778861 0.24630121 0.75042709
0.77165828 0.24640394 0.75036459
0.86552795 0.24650667 0.7503021
0.13262343 0.37160953 0.75069528
0.2264931 0.37171226 0.75063279
0.32036277 0.37181499 0.75057029
0.41423244 0.37191772 0.7505078
0.50810211 0.37202045 0.7504453
0.60197178 0.37212318 0.75038281
0.69584145 0.37222591 0.75032032
0.78971113 0.37232864 0.75025782
0.8835808 0.37243136 0.75019533
0.15067628 0.49753423 0.75058851
0.24454595 0.49763696 0.75052601
0.33841562 0.49773969 0.75046352
0.43228529 0.49784241 0.75040103
0.52615496 0.49794514 0.75033853
0.62002463 0.49804787 0.75027604
0.7138943 0.4981506 0.75021354
0.80776397 0.49825333 0.75015105
0.90163364 0.49835606 0.75008856
0.16872913 0.62345892 0.75048174
0.2625988 0.62356165 0.75041924
0.35646847 0.62366438 0.75035675
0.45033814 0.62376711 0.75029425
0.54420781 0.62386984 0.75023176
0.63807748 0.62397257 0.75016927
0.73194715 0.6240753 0.75010677
0.82581682 0.62417803 0.75004428
0.91968649 0.62428076 0.74998178
0.18678198 0.74938362 0.75037496
0.28065165 0.74948635 0.75031247
0.37452132 0.74958908 0.75024998
0.46839099 0.74969181 0.75018748
0.56226066 0.74979454 0.75012499
0.65613033 0.74989727 0.75006249
0.75 0.75 0.75
0.84386967 0.75010273 0.74993751
0.93773934 0.75020546 0.74987501
0.20483483 0.87530832 0.75026819
0.2987045 0.87541105 0.7502057
0.39257417 0.87551378 0.7501432
0.48644384 0.87561651 0.75008071
0.58031351 0.87571924 0.75001822
0.67418318 0.87582197 0.74995572
0.76805285 0.8759247 0.74989323
0.86192252 0.87602743 0.74983073
0.95579219 0.87613016 0.74976824
0.22288767 1.001233 0.75016142
0.31675734 1.0013357 0.75009893
0.41062702 1.0014385 0.75003643
0.50449669 1.0015412 0.74997394
0.59836636 1.0016439 0.74991144
0.69223603 1.0017467 0.74984895
0.7861057 1.0018494 0.74978646
0.87997537 1.0019521 0.74972396
0.97384504 1.0020549 0.74966147
0.091542369 -0.0071919942 0.87618486
0.18541204 -0.0070892646 0.87612237
0.27928171 -0.0069865349 0.87605988
0.37315138 -0.0068838053 0.87599738
0.46702105 -0.0067810757 0.87593489
0.56089072 -0.006678346 0.87587239
0.65476039 -0.0065756164 0.8758099
0.74863006 -0.0064728868 0.87574741
0.84249973 -0.0063701571 0.87568491
0.10959522 0.1187327 0.87607809
0.20346489 0.11883543 0.8760156
0.29733456 0.11893816 0.8759531
0.39120423 0.11904089 0.87589061
0.4850739 0.11914362 0.87582811
0.57894357 0.11924635 0.87576562
0.67281324 0.11934908 0.87570313
0.76668291 0.11945181 0.87564063
0.86055258 0.11955454 0.87557814
0.12764807 0.2446574 0.87597132
0.22151774 0.24476013 0.87590882
0.31538741 0.24486286 0.87584633
0.40925708 0.24496559 0.87578384
0.50312675 0.24506832 0.87572134
0.59699642 0.24517105 0.87565885
0.69086609 0.24527378 0.87559635
0.78473576 0.24537651 0.87553386
0.87860543 0.24547924 0.87547137
0.14570091 0.3705821 0.87586455
0.23957058 0.37068483 0.87580205
0.33344025 0.37078756 0.87573956
0.42730993 0.37089029 0.87567706
0.5211796 0.37099302 0.87561457
0.61504927 0.37109575 0.87555208
0.70891894 0.37119848 0.87548958
0.80278861 0.37130121 0.87542709
0.89665828 0.37140394 0.87536459
0.16375376 0.4965068 0.87575777
0.25762343 0.49660953 0.87569528
0.3514931 0.49671226 0.87563279
0.44536277 0.49681499 0.87557029
0.53923244 0.49691772 0.8755078
0.63310211 0.49702045 0.8754453
0.72697178 0.49712318 0.87538281
0.82084145 0.49722591 0.87532032
0.91471113 0.49732864 0.87525782
0.18180661 0.6224315 0.875651
0.27567628 0.62253423 0.87558851
0.36954595 0.62263696 0.87552601
0.46341562 0.62273969 0.87546352
0.55728529 0.62284241 0.87540103
0.65115496 0.62294514 0.87533853
0.74502463 0.62304787 0.87527604
0.8388943 0.6231506 0.87521354
0.93276397 0.62325333 0.87515105
0.19985946 0.74835619 0.87554423
0.29372913 0.74845892 0.87548174
0.3875988 0.74856165 0.87541924
0.48146847 0.74866438 0.87535675
0.57533814 0.74876711 0.87529425
0.66920781 0.74886984 0.87523176
0.76307748 0.74897257 0.87516927
0.85694715 0.7490753 0.87510677
0.95081682 0.74917803 0.87504428
0.21791231 0.87428089 0.87543746
0.31178198 0.87438362 0.87537496
0.40565165 0.87448635 0.87531247
0.49952132 0.87458908 0.87524998
0.59339099 0.87469181 0.87518748
0.68726066 0.87479454 0.87512499
0.78113033 0.87489727 0.87506249
0.875 0.875 0.875
0.96886967 0.87510273 0.87493751
0.23596516 1.0002056 0.87533069
0.32983483 1.0003083 0.87526819
0.4237045 1.000411 0.8752057
0.51757417 1.0005138 0.8751432
0.61144384 1.0006165 0.87508071
0.70531351 1.0007192 0.87501822
0.79918318 1.000822 0.87495572
0.89305285 1.0009247 0.87489323
0.98692252 1.0010274 0.87483073
0.10461985 -0.008219422 1.0013541
0.19848952 -0.0081166923 1.0012916
0.29235919 -0.0080139627 1.0012291
0.38622886 -0.0079112331 1.0011666
0.48009853 -0.0078085034 1.0011042
0.5739682 -0.0077057738 1.0010417
0.66783787 -0.0076030442 1.0009792
0.76170754 -0.0075003145 1.0009167
0.85557721 -0.0073975849 1.0008542
0.1226727 0.11770528 1.0012474
0.21654237 0.11780801 1.0011849
0.31041204 0.11791074 1.0011224
0.40428171 0.11801347 1.0010599
0.49815138 0.11811619 1.0009974
0.59202105 0.11821892 1.0009349
0.68589072 0.11832165 1.0008724
0.77976039 0.11842438 1.0008099
0.87363006 0.11852711 1.0007474
0.14072555 0.24362997 1.0011406
0.23459522 0.2437327 1.0010781
0.32846489 0.24383543 1.0010156
0.42233456 0.24393816 1.0009531
0.51620423 0.24404089 1.0008906
0.6100739 0.24414362 1.0008281
0.70394357 0.24424635 1.0007656
0.79781324 0.24434908 1.0007031
0.89168291 0.24445181 1.0006406
0.1587784 0.36955467 1.0010338
0.25264807 0.3696574 1.0009713
0.34651774 0.36976013 1.0009088
0.44038741 0.36986286 1.0008463
0.53425708 0.36996559 1.0007838
0.62812675 0.37006832 1.0007213
0.72199642 0.37017105 1.0006588
0.81586609 0.37027378 1.0005964
0.90973576 0.37037651 1.0005339
0.17683124 0.49547937 1.000927
0.27070091 0.4955821 1.0008645
0.36457058 0.49568483 1.0008021
0.45844025 0.49578756 1.0007396
0.55230993 0.49589029 1.0006771
0.6461796 0.49599302 1.0006146
0.74004927 0.49609575 1.0005521
0.83391894 0.49619848 1.0004896
0.92778861 0.49630121 1.0004271
0.19488409 0.62140407 1.0008203
0.28875376 0.6215068 1.0007578
0.38262343 0.62160953 1.0006953
0.4764931 0.62171226 1.0006328
0.57036277 0.62181499 1.0005703
0.66423244 0.62191772 1.0005078
0.75810211 0.62202045 1.0004453
0.85197178 0.62212318 1.0003828
0.94584145 0.62222591 1.0003203
0.21293694 0.74732877 1.0007135
0.30680661 0.7474315 1.000651
0.40067628 0.74753423 1.0005885
0.49454595 0.74763696 1.000526
0.58841562 0.74773969 1.0004635
0.68228529 0.74784241 1.000401
0.77615496 0.74794514 1.0003385
0.87002463 0.74804787 1.000276
0.9638943 0.7481506 1.0002135
0.23098979 0.87325346 1.0006067
0.32485946 0.87335619 1.0005442
0.41872913 0.87345892 1.0004817
0.5125988 0.87356165 1.0004192
0.60646847 0.87366438 1.0003567
0.70033814 0.87376711 1.0002943
0.79420781 0.87386984 1.0002318
0.88807748 0.87397257 1.0001693
0.98194715 0.8740753 1.0001068
0.24904264 0.99917816 1.0005
0.34291231 0.99928089 1.0004375
0.43678198 0.99938362 1.000375
0.53065165 0.99948635 1.0003125
0.62452132 0.99958908 1.00025
0.71839099 0.99969181 1.0001875
0.81226066 0.99979454 1.000125
0.90613033 0.99989727 1.0000625
1 1 1
