site/assets/luts/ocio-aces--ocioutilityap0-to-srgb-encoded-rec709--26daf0819.cube
# LUTr-Project: LUTr — LUTrepository
# LUTr-Schema-Version: 1
# LUTr-ID: ocio-aces--ocioutilityap0-to-srgb-encoded-rec709--26daf0819
# LUTr-Title: OCIO.Utility.AP0 to sRGB-Encoded-Rec709
# LUTr-Collection: OCIO ACES
# LUTr-Collection-ID: aswf-opencolorio-config-aces
# LUTr-Source: https://github.com/AcademySoftwareFoundation/OpenColorIO-Config-ACES
# LUTr-Source-File: submissions/aswf-opencolorio-config-aces/opencolorio_config_aces/clf/transforms/ocio/utility/OCIO.Utility.AP0_to_sRGB-Encoded-Rec709.clf
# LUTr-Source-Format: CLF
# LUTr-Source-SHA256: 164cd9331549225ee0f1916e1543585ab4f17ca27aad88f7952da345ff6b7f83
# LUTr-License: BSD-3-Clause
# LUTr-License-URL: https://github.com/AcademySoftwareFoundation/OpenColorIO-Config-ACES/blob/main/LICENSE
# LUTr-Tags: technical, aces, ocio, clf, color-management, cube
# LUTr-Transform-Class: color-space-conversion
# LUTr-Input-Color-Space: ACES2065-1
# LUTr-Output-Color-Space: sRGB
# LUTr-Color-Space-Confidence: descriptor-only
# LUTr-Conversion-Method: CLF operations evaluated as float and sampled to 33x33x33 3D CUBE
# LUTr-Conversion-Date: 2026-07-27
# LUTr-Conversion-Tool: LUTr scripts/convert-all-to-cube.mjs
# LUTr-Conversion-Grid: 33x33x33
# LUTr-Conversion-Warning: A sampled 3D CUBE is bounded to DOMAIN_MIN/MAX 0..1 and cannot preserve CLF values outside its input domain.
# LUTr-Upstream-ID: urn:aswf:ocio:transformId:1.0:OCIO:Utility:AP0_to_sRGB-Encoded-Rec709:1.0
# LUTr-Upstream-Name: AP0 to sRGB Encoded Rec.709 (sRGB)
# LUTr-Upstream-Input-Descriptor: ACES2065-1
# LUTr-Upstream-Output-Descriptor: sRGB
# LUTr-Upstream-Operations: Matrix → Exponent
# LUTr-Note: Preserve this metadata and the upstream license notices when redistributing.
TITLE "OCIO.Utility.AP0 to sRGB-Encoded-Rec709"
LUT_3D_SIZE 5
DOMAIN_MIN 0 0 0
DOMAIN_MAX 1 1 1
0 0 0
0.00094375331 -0.00010347395 -0.0000057553155
0.0018875066 -0.0002069479 -0.000011510631
0.0028312599 -0.00031042185 -0.000017265947
0.0037750132 -0.0004138958 -0.000023021262
-0.00042445403 0.00051374679 -0.000057251763
0.00051929927 0.00041027284 -0.000063007078
0.0014630526 0.00030679889 -0.000068762394
0.0024068059 0.00020332493 -0.000074517709
0.0033505592 0.000099850983 -0.000080273025
-0.00084890807 0.0010274936 -0.00011450353
0.000094845242 0.00092401962 -0.00012025884
0.0010385985 0.00082054567 -0.00012601416
0.0019823519 0.00071707172 -0.00013176947
0.0029261052 0.00061359777 -0.00013752479
-0.0012733621 0.0015412404 -0.00017175529
-0.00032960879 0.0014377664 -0.0001775106
0.00061414452 0.0013342925 -0.00018326592
0.0015578978 0.0012308185 -0.00018902123
0.0025016511 0.0011273446 -0.00019477655
-0.0016978161 0.0020549872 -0.00022900705
-0.00075406282 0.0019515132 -0.00023476237
0.00018969048 0.0018480392 -0.00024051768
0.0011334438 0.0017445653 -0.000246273
0.0020771971 0.0016410913 -0.00025202831
-0.00014504442 -0.000036017978 0.00043726194
0.00079870889 -0.00013949193 0.00043150662
0.0017424622 -0.00024296588 0.00042575131
0.0026862155 -0.00034643983 0.00041999599
0.0036299688 -0.00044991378 0.00041424067
-0.00056949845 0.00047772881 0.00038001017
0.00037425486 0.00037425486 0.00037425486
0.0013180082 0.00027078091 0.00036849954
0.0022617615 0.00016730696 0.00036274423
0.0032055148 0.000063833005 0.00035698891
-0.00099395248 0.0009914756 0.00032275841
-0.000050199174 0.00088800165 0.0003170031
0.00089355413 0.0007845277 0.00031124778
0.0018373074 0.00068105374 0.00030549246
0.0027810607 0.00057757979 0.00029973715
-0.0014184065 0.0015052224 0.00026550665
-0.00047465321 0.0014017484 0.00025975133
0.0004691001 0.0012982745 0.00025399602
0.0014128534 0.0011948005 0.0002482407
0.0023566067 0.0010913266 0.00024248539
-0.0018428605 0.0020189692 0.00020825489
-0.00089910724 0.0019154952 0.00020249957
0.000044646068 0.0018120213 0.00019674425
0.00098839938 0.0017085473 0.00019098894
0.0019321527 0.0016050734 0.00018523362
-0.00029008883 -0.000072035956 0.00087452387
0.00065366448 -0.00017550991 0.00086876856
0.0015974178 -0.00027898386 0.00086301324
0.0025411711 -0.00038245781 0.00085725793
0.0034849244 -0.00048593176 0.00085150261
-0.00071454286 0.00044171083 0.00081727211
0.00022921044 0.00033823688 0.0008115168
0.0011729637 0.00023476293 0.00080576148
0.0021167171 0.00013128898 0.00080000616
0.0030604704 0.000027815027 0.00079425085
-0.0011389969 0.00095545762 0.00076002035
-0.00019524359 0.00085198367 0.00075426503
0.00074850972 0.00074850972 0.00074850972
0.001692263 0.00064503577 0.0007427544
0.0026360163 0.00054156181 0.00073699909
-0.0015634509 0.0014692044 0.00070276859
-0.00061969762 0.0013657305 0.00069701327
0.00032405568 0.0012622565 0.00069125795
0.001267809 0.0011587826 0.00068550264
0.0022115623 0.0010553086 0.00067974732
-0.001987905 0.0019829512 0.00064551682
-0.0010441517 0.0018794772 0.00063976151
-0.00010039835 0.0017760033 0.00063400619
0.00084335496 0.0016725293 0.00062825088
0.0017871083 0.0015690554 0.00062249556
-0.00043513325 -0.00010805393 0.0013117858
0.00050862006 -0.00021152789 0.0013060305
0.0014523734 -0.00031500184 0.0013002752
0.0023961267 -0.00041847579 0.0012945199
0.00333988 -0.00052194974 0.0012887645
-0.00085958728 0.00040569285 0.001254534
0.000084166027 0.0003022189 0.0012487787
0.0010279193 0.00019874495 0.0012430234
0.0019716726 0.000095271 0.0012372681
0.0029154259 -0.0000082029515 0.0012315128
-0.0012840413 0.00091943964 0.0011972823
-0.00034028801 0.00081596569 0.001191527
0.0006034653 0.00071249174 0.0011857717
0.0015472186 0.00060901779 0.0011800163
0.0024909719 0.00050554384 0.001174261
-0.0017084953 0.0014331864 0.0011400305
-0.00076474204 0.0013297125 0.0011342752
0.00017901127 0.0012262385 0.0011285199
0.0011227646 0.0011227646 0.0011227646
0.0020665179 0.0010192906 0.0011170093
-0.0021329494 0.0019469332 0.0010827788
-0.0011891961 0.0018434593 0.0010770234
-0.00024544276 0.0017399853 0.0010712681
0.00069831054 0.0016365114 0.0010655128
0.0016420639 0.0015330374 0.0010597575
-0.00058017766 -0.00014407191 0.0017490477
0.00036357564 -0.00024754586 0.0017432924
0.001307329 -0.00035101982 0.0017375371
0.0022510823 -0.00045449377 0.0017317818
0.0031948356 -0.00055796772 0.0017260265
-0.0010046317 0.00036967488 0.001691796
-0.000060878389 0.00026620092 0.0016860407
0.00088287492 0.00016272697 0.0016802854
0.0018266282 0.000059253021 0.00167453
0.0027703815 -0.00004422093 0.0016687747
-0.0014290857 0.00088342166 0.0016345442
-0.00048533242 0.00077994771 0.0016287889
0.00045842089 0.00067647376 0.0016230336
0.0014021742 0.00057299981 0.0016172783
0.0023459275 0.00046952586 0.001611523
-0.0018535398 0.0013971685 0.0015772925
-0.00090978645 0.0012936945 0.0015715371
0.000033966853 0.0011902205 0.0015657818
0.00097772016 0.0010867466 0.0015600265
0.0019214735 0.00098327265 0.0015542712
-0.0022779938 0.0019109152 0.0015200407
-0.0013342405 0.0018074413 0.0015142854
-0.00039048718 0.0017039673 0.0015085301
0.00055326613 0.0016004934 0.0015027747
0.0014970194 0.0014970194 0.0014970194
