site/assets/luts/ocio-aces--sonyinputslog3-sgamut3cine-to-aces2065-1--a40c421c7.cube
# LUTr-Project: LUTr — LUTrepository
# LUTr-Schema-Version: 1
# LUTr-ID: ocio-aces--sonyinputslog3-sgamut3cine-to-aces2065-1--a40c421c7
# LUTr-Title: Sony.Input.SLog3 SGamut3Cine to ACES2065-1
# LUTr-Collection: OCIO ACES
# LUTr-Collection-ID: aswf-opencolorio-config-aces
# LUTr-Source: https://github.com/AcademySoftwareFoundation/OpenColorIO-Config-ACES
# LUTr-Source-File: submissions/aswf-opencolorio-config-aces/opencolorio_config_aces/clf/transforms/sony/input/Sony.Input.SLog3_SGamut3Cine_to_ACES2065-1.clf
# LUTr-Source-Format: CLF
# LUTr-Source-SHA256: a201ab523888e7eb71bb627e2ca230f28545f93f2caa727bce2caf649ff94f0a
# LUTr-License: BSD-3-Clause
# LUTr-License-URL: https://github.com/AcademySoftwareFoundation/OpenColorIO-Config-ACES/blob/main/LICENSE
# LUTr-Tags: technical, aces, ocio, clf, color-management, cube
# LUTr-Transform-Class: color-space-conversion
# LUTr-Input-Color-Space: Sony S-Log3 S-Gamut3.Cine
# LUTr-Output-Color-Space: ACES2065-1
# LUTr-Color-Space-Confidence: descriptor-only
# LUTr-Conversion-Method: CLF operations evaluated as float and sampled to 33x33x33 3D CUBE
# LUTr-Conversion-Date: 2026-07-27
# LUTr-Conversion-Tool: LUTr scripts/convert-all-to-cube.mjs
# LUTr-Conversion-Grid: 33x33x33
# LUTr-Conversion-Warning: A sampled 3D CUBE is bounded to DOMAIN_MIN/MAX 0..1 and cannot preserve CLF values outside its input domain.
# LUTr-Upstream-ID: urn:aswf:ocio:transformId:1.0:Sony:Input:SLog3_SGamut3Cine_to_ACES2065-1:1.0
# LUTr-Upstream-Name: Sony S-Log3 S-Gamut3.Cine to ACES2065-1
# LUTr-Upstream-Input-Descriptor: Sony S-Log3 S-Gamut3.Cine
# LUTr-Upstream-Output-Descriptor: ACES2065-1
# LUTr-Upstream-Operations: Log → Matrix
# LUTr-Note: Preserve this metadata and the upstream license notices when redistributing.
TITLE "Sony.Input.SLog3 SGamut3Cine to ACES2065-1"
LUT_3D_SIZE 33
DOMAIN_MIN 0 0 0
DOMAIN_MAX 1 1 1
-0.014023696 -0.014023696 -0.014023696
-0.011009151 -0.014042176 -0.014164833
-0.0079946064 -0.014060655 -0.01430597
-0.0049800616 -0.014079135 -0.014447106
-0.0019655168 -0.014097615 -0.014588243
0.001049028 -0.014116095 -0.01472938
0.0048208408 -0.014139217 -0.014905971
0.010111736 -0.014171651 -0.015153683
0.017122746 -0.01421463 -0.015481929
0.026413095 -0.014271582 -0.015916891
0.038723816 -0.014347049 -0.016493261
0.055036855 -0.014447051 -0.017257015
0.076653403 -0.014579565 -0.018269072
0.10529767 -0.01475516 -0.019610157
0.14325444 -0.014987843 -0.021387241
0.19355127 -0.015296173 -0.023742069
0.26020003 -0.015704744 -0.026862472
0.34851687 -0.016246144 -0.030997344
0.46554626 -0.016963558 -0.036476498
0.62062289 -0.01791421 -0.043736972
0.82611626 -0.019173927 -0.053357887
1.0984173 -0.020843188 -0.066106643
1.4592456 -0.02305514 -0.083000128
1.9373824 -0.025986217 -0.10538583
2.5709654 -0.029870211 -0.13504931
3.4105316 -0.035016925 -0.17435664
4.523048 -0.041836879 -0.22644312
5.9972529 -0.050874059 -0.29546335
7.9507343 -0.062849302 -0.38692265
10.539309 -0.078717798 -0.50811614
13.969451 -0.099745277 -0.66871066
18.514762 -0.12760897 -0.88151583
24.537792 -0.16453138 -1.1635058
-0.012738426 -0.0088889062 -0.014148435
-0.0097238817 -0.008907386 -0.014289572
-0.0067093369 -0.0089258658 -0.014430709
-0.0036947921 -0.0089443456 -0.014571846
-0.00068024731 -0.0089628253 -0.014712983
0.0023342975 -0.0089813051 -0.01485412
0.0061061104 -0.0090044271 -0.015030711
0.011397006 -0.0090368614 -0.015278423
0.018408016 -0.0090798403 -0.015606669
0.027698365 -0.0091367921 -0.01604163
0.040009085 -0.0092122593 -0.016618001
0.056322125 -0.0093122616 -0.017381755
0.077938672 -0.0094447755 -0.018393812
0.10658294 -0.0096203708 -0.019734897
0.14453971 -0.0098530536 -0.02151198
0.19483654 -0.010161384 -0.023866808
0.2614853 -0.010569954 -0.026987211
0.34980214 -0.011111354 -0.031122083
0.46683152 -0.011828769 -0.036601237
0.62190816 -0.01277942 -0.043861711
0.82740153 -0.014039137 -0.053482626
1.0997025 -0.015708398 -0.066231383
1.4605309 -0.01792035 -0.083124868
1.9386676 -0.020851427 -0.10551057
2.5722507 -0.024735421 -0.13517405
3.4118169 -0.029882135 -0.17448138
4.5243333 -0.03670209 -0.22656786
5.9985382 -0.045739269 -0.29558809
7.9520195 -0.057714512 -0.38704739
10.540594 -0.073583008 -0.50824088
13.970737 -0.094610487 -0.6688354
18.516047 -0.12247418 -0.88164057
24.539077 -0.15939659 -1.1636305
-0.011453157 -0.0037541165 -0.014273175
-0.0084386122 -0.0037725963 -0.014414312
-0.0054240674 -0.0037910761 -0.014555449
-0.0024095226 -0.0038095558 -0.014696585
0.00060502219 -0.0038280356 -0.014837722
0.003619567 -0.0038465154 -0.014978859
0.0073913799 -0.0038696374 -0.01515545
0.012682275 -0.0039020717 -0.015403163
0.019693285 -0.0039450506 -0.015731408
0.028983634 -0.0040020024 -0.01616637
0.041294355 -0.0040774696 -0.016742741
0.057607394 -0.0041774719 -0.017506495
0.079223942 -0.0043099858 -0.018518551
0.10786821 -0.0044855811 -0.019859637
0.14582498 -0.0047182639 -0.02163672
0.19612181 -0.0050265938 -0.023991548
0.26277057 -0.0054351644 -0.027111951
0.35108741 -0.0059765648 -0.031246823
0.46811679 -0.006693979 -0.036725977
0.62319343 -0.0076446307 -0.043986451
0.8286868 -0.0089043474 -0.053607366
1.1009878 -0.010573609 -0.066356122
1.4618162 -0.012785561 -0.083249607
1.9399529 -0.015716637 -0.10563531
2.5735359 -0.019600632 -0.13529879
3.4131022 -0.024747346 -0.17460612
4.5256185 -0.0315673 -0.2266926
5.9998234 -0.040604479 -0.29571283
7.9533048 -0.052579722 -0.38717213
10.54188 -0.068448218 -0.50836562
13.972022 -0.089475697 -0.66896014
18.517333 -0.11733939 -0.88176531
24.540362 -0.1542618 -1.1637552
-0.010167887 0.0013806732 -0.014397915
-0.0071533426 0.0013621934 -0.014539051
-0.0041387979 0.0013437136 -0.014680188
-0.0011242531 0.0013252339 -0.014821325
0.0018902917 0.0013067541 -0.014962462
0.0049048365 0.0012882743 -0.015103599
0.0086766494 0.0012651523 -0.01528019
0.013967545 0.001232718 -0.015527902
0.020978555 0.0011897391 -0.015856148
0.030268904 0.0011327874 -0.016291109
0.042579624 0.0010573201 -0.01686748
0.058892664 0.00095731781 -0.017631234
0.080509211 0.00082480393 -0.018643291
0.10915348 0.00064920865 -0.019984376
0.14711025 0.00041652586 -0.021761459
0.19740708 0.00010819593 -0.024116287
0.26405584 -0.00030037468 -0.02723669
0.35237268 -0.00084177507 -0.031371562
0.46940206 -0.0015591893 -0.036850717
0.6244787 -0.002509841 -0.04411119
0.82997206 -0.0037695576 -0.053732105
1.1022731 -0.0054388188 -0.066480862
1.4631014 -0.007650771 -0.083374347
1.9412382 -0.010581848 -0.10576005
2.5748212 -0.014465842 -0.13542353
3.4143875 -0.019612556 -0.17473086
4.5269038 -0.02643251 -0.22681734
6.0011087 -0.03546969 -0.29583757
7.9545901 -0.047444933 -0.38729687
10.543165 -0.063313429 -0.50849036
13.973307 -0.084340907 -0.66908488
18.518618 -0.1122046 -0.88189005
24.541648 -0.14912701 -1.16388
-0.0088826179 0.0065154629 -0.014522654
-0.0058680731 0.0064969831 -0.014663791
-0.0028535284 0.0064785034 -0.014804928
0.00016101642 0.0064600236 -0.014946064
0.0031755612 0.0064415438 -0.015087201
0.006190106 0.006423064 -0.015228338
0.0099619189 0.006399942 -0.015404929
0.015252814 0.0063675078 -0.015652642
0.022263824 0.0063245288 -0.015980887
0.031554173 0.0062675771 -0.016415849
0.043864894 0.0061921098 -0.01699222
0.060177933 0.0060921075 -0.017755974
0.081794481 0.0059595936 -0.01876803
0.11043875 0.0057839984 -0.020109116
0.14839552 0.0055513156 -0.021886199
0.19869235 0.0052429856 -0.024241027
0.26534111 0.004834415 -0.02736143
0.35365794 0.0042930146 -0.031496302
0.47068733 0.0035756004 -0.036975456
0.62576397 0.0026249487 -0.04423593
0.83125733 0.0013652321 -0.053856845
1.1035583 -0.00030402912 -0.066605601
1.4643867 -0.0025159813 -0.083499086
1.9425234 -0.0054470579 -0.10588479
2.5761065 -0.0093310523 -0.13554827
3.4156727 -0.014477766 -0.1748556
4.5281891 -0.021297721 -0.22694208
6.002394 -0.0303349 -0.29596231
7.9558753 -0.042310143 -0.38742161
10.54445 -0.058178639 -0.5086151
13.974592 -0.079206118 -0.66920962
18.519903 -0.10706981 -0.88201479
24.542933 -0.14399222 -1.1640047
-0.0075973484 0.011650253 -0.014647394
-0.0045828036 0.011631773 -0.01478853
-0.0015682589 0.011613293 -0.014929667
0.0014462859 0.011594813 -0.015070804
0.0044608307 0.011576334 -0.015211941
0.0074753755 0.011557854 -0.015353078
0.011247188 0.011534732 -0.015529669
0.016538084 0.011502297 -0.015777381
0.023549094 0.011459319 -0.016105627
0.032839443 0.011402367 -0.016540588
0.045150163 0.0113269 -0.017116959
0.061463203 0.011226897 -0.017880713
0.08307975 0.011094383 -0.01889277
0.11172402 0.010918788 -0.020233855
0.14968079 0.010686105 -0.022010938
0.19997762 0.010377775 -0.024365767
0.26662638 0.0099692047 -0.027486169
0.35494321 0.0094278044 -0.031621041
0.4719726 0.0087103901 -0.037100196
0.62704924 0.0077597384 -0.044360669
0.8325426 0.0065000218 -0.053981584
1.1048436 0.0048307606 -0.066730341
1.465672 0.0026188084 -0.083623826
1.9438087 -0.00031226814 -0.10600953
2.5773917 -0.0041962626 -0.13567301
3.416958 -0.0093429765 -0.17498034
4.5294744 -0.016162931 -0.22706682
6.0036792 -0.02520011 -0.29608705
7.9571606 -0.037175353 -0.38754635
10.545735 -0.053043849 -0.50873984
13.975878 -0.074071328 -0.66933436
18.521188 -0.10193502 -0.88213952
24.544218 -0.13885743 -1.1641295
-0.0059892131 0.018074926 -0.014803468
-0.0029746683 0.018056446 -0.014944605
0.000039876504 0.018037967 -0.015085742
0.0030544213 0.018019487 -0.015226879
0.0060689661 0.018001007 -0.015368016
0.0090835108 0.017982527 -0.015509152
0.012855324 0.017959405 -0.015685743
0.018146219 0.017926971 -0.015933456
0.025157229 0.017883992 -0.016261702
0.034447578 0.01782704 -0.016696663
0.046758298 0.017751573 -0.017273034
0.063071338 0.017651571 -0.018036788
0.084687886 0.017519057 -0.019048845
0.11333216 0.017343462 -0.02038993
0.15128892 0.017110779 -0.022167013
0.20158575 0.016802449 -0.024521841
0.26823451 0.016393878 -0.027642244
0.35655135 0.015852478 -0.031777116
0.47358074 0.015135064 -0.03725627
0.62865737 0.014184412 -0.044516744
0.83415074 0.012924695 -0.054137659
1.1064517 0.011255434 -0.066886415
1.4672801 0.0090434819 -0.083779901
1.9454168 0.0061124054 -0.1061656
2.5789999 0.0022284109 -0.13582908
3.4185661 -0.002918303 -0.17513641
4.5310825 -0.0097382574 -0.22722289
6.0052874 -0.018775437 -0.29624313
7.9587687 -0.03075068 -0.38770242
10.547343 -0.046619176 -0.50889591
13.977486 -0.067646655 -0.66949044
18.522797 -0.095510345 -0.8822956
24.545826 -0.13243276 -1.1642855
-0.0037334077 0.027087111 -0.015022401
-0.00071886291 0.027068631 -0.015163538
0.0022956819 0.027050151 -0.015304675
0.0053102266 0.027031672 -0.015445812
0.0083247714 0.027013192 -0.015586949
0.011339316 0.026994712 -0.015728085
0.015111129 0.02697159 -0.015904677
0.020402024 0.026939156 -0.016152389
0.027413034 0.026896177 -0.016480635
0.036703383 0.026839225 -0.016915596
0.049014104 0.026763758 -0.017491967
0.065327144 0.026663755 -0.018255721
0.086943691 0.026531242 -0.019267778
0.11558796 0.026355646 -0.020608863
0.15354473 0.026122964 -0.022385946
0.20384156 0.025814634 -0.024740774
0.27049032 0.025406063 -0.027861177
0.35880715 0.024864663 -0.031996049
0.47583654 0.024147248 -0.037475203
0.63091318 0.023196597 -0.044735677
0.83640654 0.02193688 -0.054356592
1.1087075 0.020267619 -0.067105349
1.4695359 0.018055667 -0.083998834
1.9476726 0.01512459 -0.10638453
2.5812557 0.011240596 -0.13604802
3.4208219 0.0060938817 -0.17535535
4.5333383 -0.00072607264 -0.22744183
6.0075432 -0.009763252 -0.29646206
7.9610246 -0.021738495 -0.38792136
10.549599 -0.037606991 -0.50911485
13.979742 -0.05863447 -0.66970937
18.525052 -0.08649816 -0.88251453
24.548082 -0.12342057 -1.1645045
-0.00074422087 0.039029233 -0.015312512
0.0022703239 0.039010754 -0.015453648
0.0052848687 0.038992274 -0.015594785
0.0082994135 0.038973794 -0.015735922
0.011313958 0.038955314 -0.015877059
0.014328503 0.038936834 -0.016018196
0.018100316 0.038913712 -0.016194787
0.023391211 0.038881278 -0.016442499
0.030402221 0.038838299 -0.016770745
0.03969257 0.038781347 -0.017205706
0.052003291 0.03870588 -0.017782077
0.06831633 0.038605878 -0.018545831
0.089932878 0.038473364 -0.019557888
0.11857715 0.038297769 -0.020898973
0.15653391 0.038065086 -0.022676056
0.20683075 0.037756756 -0.025030885
0.27347951 0.037348185 -0.028151287
0.36179634 0.036806785 -0.032286159
0.47882573 0.036089371 -0.037765314
0.63390237 0.035138719 -0.045025787
0.83939573 0.033879002 -0.054646702
1.1116967 0.032209741 -0.067395459
1.4725251 0.029997789 -0.084288944
1.9506618 0.027066713 -0.10667464
2.5842449 0.023182718 -0.13633813
3.4238111 0.018036004 -0.17564546
4.5363275 0.01121605 -0.22773194
6.0105324 0.0021788704 -0.29675217
7.9640137 -0.0097963726 -0.38821147
10.552588 -0.025664869 -0.50940496
13.982731 -0.046692347 -0.66999948
18.528042 -0.074556038 -0.88280464
24.551071 -0.11147845 -1.1647946
0.0032167759 0.054853841 -0.015696939
0.0062313207 0.054835361 -0.015838076
0.0092458655 0.054816881 -0.015979213
0.01226041 0.054798402 -0.016120349
0.015274955 0.054779922 -0.016261486
0.0182895 0.054761442 -0.016402623
0.022061313 0.05473832 -0.016579214
0.027352208 0.054705886 -0.016826927
0.034363218 0.054662907 -0.017155172
0.043653567 0.054605955 -0.017590134
0.055964287 0.054530488 -0.018166505
0.072277327 0.054430486 -0.018930259
0.093893875 0.054297972 -0.019942315
0.12253815 0.054122376 -0.021283401
0.16049491 0.053889694 -0.023060484
0.21079174 0.053581364 -0.025415312
0.2774405 0.053172793 -0.028535715
0.36575734 0.052631393 -0.032670587
0.48278673 0.051913978 -0.038149741
0.63786336 0.050963327 -0.045410215
0.84335673 0.04970361 -0.05503113
1.1156577 0.048034349 -0.067779886
1.4764861 0.045822397 -0.084673371
1.9546228 0.04289132 -0.10705907
2.5882059 0.039007326 -0.13672255
3.4277721 0.033860612 -0.17602988
4.5402885 0.027040658 -0.22811636
6.0144934 0.018003478 -0.2971366
7.9679747 0.0060282352 -0.38859589
10.556549 -0.0098402609 -0.50978938
13.986692 -0.03086774 -0.67038391
18.532003 -0.05873143 -0.88318907
24.555032 -0.095653843 -1.165179
0.0084655264 0.075823163 -0.016206347
0.011480071 0.075804683 -0.016347484
0.014494616 0.075786203 -0.016488621
0.017509161 0.075767724 -0.016629758
0.020523706 0.075749244 -0.016770894
0.02353825 0.075730764 -0.016912031
0.027310063 0.075707642 -0.017088622
0.032600958 0.075675208 -0.017336335
0.039611969 0.075632229 -0.01766458
0.048902318 0.075575277 -0.018099542
0.061213038 0.07549981 -0.018675913
0.077526078 0.075399808 -0.019439667
0.099142625 0.075267294 -0.020451723
0.1277869 0.075091698 -0.021792809
0.16574366 0.074859016 -0.023569892
0.21604049 0.074550686 -0.02592472
0.28268925 0.074142115 -0.029045123
0.37100609 0.073600715 -0.033179995
0.48803548 0.0728833 -0.038659149
0.64311211 0.071932649 -0.045919623
0.84860548 0.070672932 -0.055540538
1.1209065 0.069003671 -0.068289294
1.4817348 0.066791719 -0.085182779
1.9598716 0.063860642 -0.10756848
2.5934546 0.059976648 -0.13723196
3.4330209 0.054829934 -0.17653929
4.5455372 0.048009979 -0.22862577
6.0197421 0.0389728 -0.297646
7.9732235 0.026997557 -0.3891053
10.561798 0.011129061 -0.51029879
13.991941 -0.0098984178 -0.67089331
18.537251 -0.037762108 -0.88369848
24.560281 -0.074684521 -1.1656884
0.01542069 0.10360979 -0.016881368
0.018435235 0.10359131 -0.017022505
0.02144978 0.10357283 -0.017163642
0.024464325 0.10355435 -0.017304778
0.027478869 0.10353587 -0.017445915
0.030493414 0.10351739 -0.017587052
0.034265227 0.10349427 -0.017763643
0.039556122 0.10346183 -0.018011356
0.046567132 0.10341886 -0.018339601
0.055857481 0.1033619 -0.018774563
0.068168202 0.10328644 -0.019350934
0.084481242 0.10318643 -0.020114688
0.10609779 0.10305392 -0.021126744
0.13474206 0.10287832 -0.02246783
0.17269883 0.10264564 -0.024244913
0.22299566 0.10233731 -0.026599741
0.28964442 0.10192874 -0.029720144
0.37796125 0.10138734 -0.033855016
0.49499064 0.10066993 -0.03933417
0.65006728 0.099719275 -0.046594644
0.85556064 0.098459558 -0.056215559
1.1278616 0.096790297 -0.068964315
1.48869 0.094578345 -0.0858578
1.9668267 0.091647269 -0.1082435
2.6004098 0.087763274 -0.13790698
3.439976 0.08261656 -0.17721431
4.5524924 0.075796606 -0.22930079
6.0266973 0.066759426 -0.29832103
7.9801787 0.054784183 -0.38978032
10.568753 0.038915687 -0.51097381
13.998896 0.017888209 -0.67156834
18.544206 -0.0099754819 -0.8843735
24.567236 -0.046897894 -1.1663634
0.024637037 0.14043008 -0.017775844
0.027651581 0.1404116 -0.017916981
0.030666126 0.14039312 -0.018058118
0.033680671 0.14037464 -0.018199254
0.036695216 0.14035616 -0.018340391
0.039709761 0.14033768 -0.018481528
0.043481574 0.14031456 -0.018658119
0.048772469 0.14028213 -0.018905832
0.055783479 0.14023915 -0.019234077
0.065073828 0.1401822 -0.019669039
0.077384548 0.14010673 -0.02024541
0.093697588 0.14000673 -0.021009164
0.11531414 0.13987421 -0.02202122
0.14395841 0.13969862 -0.023362306
0.18191517 0.13946594 -0.025139389
0.232212 0.13915761 -0.027494217
0.29886076 0.13874904 -0.03061462
0.3871776 0.13820764 -0.034749492
0.50420699 0.13749022 -0.040228646
0.65928362 0.13653957 -0.04748912
0.86477699 0.13527985 -0.057110035
1.137078 0.13361059 -0.069858791
1.4979064 0.13139864 -0.086752276
1.9760431 0.12846756 -0.10913798
2.6096261 0.12458357 -0.13880146
3.4491924 0.11943685 -0.17810879
4.5617087 0.1126169 -0.23019527
6.0359136 0.10357972 -0.2992155
7.989395 0.091604478 -0.3906748
10.57797 0.075735982 -0.51186829
14.008112 0.054708503 -0.67246281
18.553423 0.026844812 -0.88526798
24.576453 -0.0100776 -1.1672579
0.036849696 0.18922097 -0.018961122
0.03986424 0.18920249 -0.019102259
0.042878785 0.18918401 -0.019243395
0.04589333 0.18916553 -0.019384532
0.048907875 0.18914705 -0.019525669
0.05192242 0.18912857 -0.019666806
0.055694232 0.18910545 -0.019843397
0.060985128 0.18907301 -0.020091109
0.067996138 0.18903003 -0.020419355
0.077286487 0.18897308 -0.020854316
0.089597207 0.18889761 -0.021430687
0.10591025 0.18879761 -0.022194441
0.12752679 0.1886651 -0.023206498
0.15617107 0.1884895 -0.024547583
0.19412783 0.18825682 -0.026324667
0.24442466 0.18794849 -0.028679495
0.31107342 0.18753992 -0.031799897
0.39939026 0.18699852 -0.03593477
0.51641965 0.18628111 -0.041413924
0.67149628 0.18533045 -0.048674397
0.87698965 0.18407074 -0.058295313
1.1492906 0.18240148 -0.071044069
1.510119 0.18018952 -0.087937554
1.9882557 0.17725845 -0.11032325
2.6218388 0.17337445 -0.13998674
3.461405 0.16822774 -0.17929407
4.5739214 0.16140778 -0.23138055
6.0481263 0.1523706 -0.30040078
8.0016077 0.14039536 -0.39186008
10.590182 0.12452687 -0.51305357
14.020325 0.10349939 -0.67364809
18.565636 0.075635697 -0.88645325
24.588665 0.038713284 -1.1684432
0.053032794 0.25387418 -0.020531743
0.056047338 0.2538557 -0.02067288
0.059061883 0.25383722 -0.020814017
0.062076428 0.25381874 -0.020955154
0.065090973 0.25380026 -0.021096291
0.068105518 0.25378178 -0.021237427
0.07187733 0.25375866 -0.021414018
0.077168226 0.25372623 -0.021661731
0.084179236 0.25368325 -0.021989977
0.093469585 0.2536263 -0.022424938
0.10578031 0.25355083 -0.023001309
0.12209334 0.25345083 -0.023765063
0.14370989 0.25331831 -0.02477712
0.17235416 0.25314272 -0.026118205
0.21031093 0.25291004 -0.027895288
0.26060776 0.25260171 -0.030250116
0.32725652 0.25219313 -0.033370519
0.41557336 0.25165173 -0.037505391
0.53260274 0.25093432 -0.042984545
0.68767938 0.24998367 -0.050245019
0.89317275 0.24872395 -0.059865934
1.1654737 0.24705469 -0.07261469
1.5263021 0.24484274 -0.089508176
2.0044388 0.24191166 -0.11189388
2.6380219 0.23802767 -0.14155736
3.4775881 0.23288095 -0.18086469
4.5901045 0.226061 -0.23295117
6.0643094 0.21702382 -0.3019714
8.0177908 0.20504858 -0.3934307
10.606366 0.18918008 -0.51462419
14.036508 0.1681526 -0.67521871
18.581819 0.14028891 -0.88802387
24.604848 0.1033665 -1.1700138
0.074477154 0.33954671 -0.022612987
0.077491699 0.33952823 -0.022754124
0.080506244 0.33950975 -0.022895261
0.083520788 0.33949127 -0.023036398
0.086535333 0.33947279 -0.023177534
0.089549878 0.33945431 -0.023318671
0.093321691 0.33943118 -0.023495262
0.098612586 0.33939875 -0.023742975
0.1056236 0.33935577 -0.024071221
0.11491395 0.33929882 -0.024506182
0.12722467 0.33922335 -0.025082553
0.14353771 0.33912335 -0.025846307
0.16515425 0.33899084 -0.026858364
0.19379852 0.33881524 -0.028199449
0.23175529 0.33858256 -0.029976532
0.28205212 0.33827423 -0.03233136
0.34870088 0.33786566 -0.035451763
0.43701772 0.33732426 -0.039586635
0.55404711 0.33660684 -0.045065789
0.70912374 0.33565619 -0.052326263
0.91461711 0.33439647 -0.061947178
1.1869181 0.33272721 -0.074695934
1.5477465 0.33051526 -0.09158942
2.0258832 0.32758418 -0.11397512
2.6594662 0.32370019 -0.1436386
3.4990325 0.31855348 -0.18294593
4.6115489 0.31173352 -0.23503241
6.0857537 0.30269634 -0.30405264
8.0392351 0.2907211 -0.39551194
10.62781 0.2748526 -0.51670543
14.057952 0.25382512 -0.67729995
18.603263 0.22596143 -0.89010512
24.626293 0.18903902 -1.172095
0.10289326 0.45307209 -0.025370861
0.1059078 0.45305361 -0.025511998
0.10892235 0.45303513 -0.025653135
0.11193689 0.45301665 -0.025794272
0.11495144 0.45299817 -0.025935408
0.11796598 0.45297969 -0.026076545
0.12173779 0.45295657 -0.026253136
0.12702869 0.45292414 -0.026500849
0.1340397 0.45288116 -0.026829095
0.14333005 0.45282421 -0.027264056
0.15564077 0.45274874 -0.027840427
0.17195381 0.45264874 -0.028604181
0.19357036 0.45251622 -0.029616238
0.22221463 0.45234063 -0.030957323
0.26017139 0.45210795 -0.032734406
0.31046823 0.45179962 -0.035089234
0.37711698 0.45139104 -0.038209637
0.46543382 0.45084964 -0.042344509
0.58246321 0.45013223 -0.047823663
0.73753984 0.44918158 -0.055084137
0.94303321 0.44792186 -0.064705052
1.2153342 0.4462526 -0.077453808
1.5761626 0.44404065 -0.094347294
2.0542993 0.44110957 -0.11673299
2.6878823 0.43722558 -0.14639648
3.5274486 0.43207886 -0.18570381
4.639965 0.42525891 -0.23779028
6.1141698 0.41622173 -0.30681052
8.0676512 0.40424649 -0.39826982
10.656226 0.38837799 -0.51946331
14.086368 0.36735051 -0.68005783
18.631679 0.33948682 -0.89286299
24.654709 0.30256441 -1.1748529
0.14054768 0.60350555 -0.029025343
0.14356222 0.60348707 -0.02916648
0.14657677 0.60346859 -0.029307617
0.14959131 0.60345011 -0.029448754
0.15260586 0.60343163 -0.029589891
0.1556204 0.60341315 -0.029731027
0.15939221 0.60339003 -0.029907619
0.16468311 0.60335759 -0.030155331
0.17169412 0.60331461 -0.030483577
0.18098447 0.60325766 -0.030918538
0.19329519 0.60318219 -0.031494909
0.20960823 0.60308219 -0.032258663
0.23122478 0.60294968 -0.03327072
0.25986905 0.60277408 -0.034611805
0.29782581 0.6025414 -0.036388888
0.34812265 0.60223307 -0.038743716
0.4147714 0.6018245 -0.041864119
0.50308824 0.6012831 -0.045998991
0.62011763 0.60056568 -0.051478145
0.77519426 0.59961503 -0.058738619
0.98068763 0.59835532 -0.068359534
1.2529886 0.59668605 -0.081108291
1.613817 0.5944741 -0.098001776
2.0919537 0.59154303 -0.12038748
2.7255368 0.58765903 -0.15005096
3.565103 0.58251232 -0.18935829
4.6776194 0.57569236 -0.24144477
6.1518243 0.56665518 -0.310465
8.1053056 0.55467994 -0.4019243
10.69388 0.53881144 -0.52311779
14.124023 0.51778397 -0.68371231
18.669333 0.48992027 -0.89651747
24.692363 0.45299786 -1.1785074
0.19044387 0.80284619 -0.033867929
0.19345841 0.80282771 -0.034009066
0.19647296 0.80280923 -0.034150202
0.1994875 0.80279075 -0.034291339
0.20250205 0.80277227 -0.034432476
0.20551659 0.80275379 -0.034573613
0.20928841 0.80273067 -0.034750204
0.2145793 0.80269824 -0.034997916
0.22159031 0.80265526 -0.035326162
0.23088066 0.80259831 -0.035761123
0.24319138 0.80252284 -0.036337494
0.25950442 0.80242284 -0.037101248
0.28112097 0.80229032 -0.038113305
0.30976524 0.80211473 -0.03945439
0.347722 0.80188204 -0.041231474
0.39801884 0.80157371 -0.043586302
0.4646676 0.80116514 -0.046706704
0.55298443 0.80062374 -0.050841577
0.67001382 0.79990633 -0.056320731
0.82509046 0.79895568 -0.063581204
1.0305838 0.79769596 -0.07320212
1.3028848 0.7960267 -0.085950876
1.6637132 0.79381475 -0.10284436
2.1418499 0.79088367 -0.12523006
2.775433 0.78699968 -0.15489354
3.6149992 0.78185296 -0.19420087
4.7275156 0.77503301 -0.24628735
6.2017204 0.76599583 -0.31530759
8.1552018 0.75402059 -0.40676688
