site/assets/luts/ocio-aces--arriinputlinear-arri-wide-gamut-4-to-aces2065-1--e3d9c08b8.cube
# LUTr-Project: LUTr — LUTrepository
# LUTr-Schema-Version: 1
# LUTr-ID: ocio-aces--arriinputlinear-arri-wide-gamut-4-to-aces2065-1--e3d9c08b8
# LUTr-Title: ARRI.Input.Linear ARRI Wide Gamut 4 to ACES2065-1
# LUTr-Collection: OCIO ACES
# LUTr-Collection-ID: aswf-opencolorio-config-aces
# LUTr-Source: https://github.com/AcademySoftwareFoundation/OpenColorIO-Config-ACES
# LUTr-Source-File: submissions/aswf-opencolorio-config-aces/opencolorio_config_aces/clf/transforms/arri/input/ARRI.Input.Linear_ARRI_Wide_Gamut_4_to_ACES2065-1.clf
# LUTr-Source-Format: CLF
# LUTr-Source-SHA256: 745ca828360c79a6da066f2075ee3870f77c610107c4711b7666bcfb00298f28
# LUTr-License: BSD-3-Clause
# LUTr-License-URL: https://github.com/AcademySoftwareFoundation/OpenColorIO-Config-ACES/blob/main/LICENSE
# LUTr-Tags: technical, aces, ocio, clf, color-management, cube
# LUTr-Transform-Class: color-space-conversion
# LUTr-Input-Color-Space: Linear ARRI Wide Gamut 4
# LUTr-Output-Color-Space: ACES2065-1
# LUTr-Color-Space-Confidence: descriptor-only
# LUTr-Conversion-Method: CLF operations evaluated as float and sampled to 33x33x33 3D CUBE
# LUTr-Conversion-Date: 2026-07-27
# LUTr-Conversion-Tool: LUTr scripts/convert-all-to-cube.mjs
# LUTr-Conversion-Grid: 33x33x33
# LUTr-Conversion-Warning: A sampled 3D CUBE is bounded to DOMAIN_MIN/MAX 0..1 and cannot preserve CLF values outside its input domain.
# LUTr-Upstream-ID: urn:aswf:ocio:transformId:1.0:ARRI:Input:Linear_ARRI_Wide_Gamut_4_to_ACES2065-1:1.0
# LUTr-Upstream-Name: Linear ARRI Wide Gamut 4 to ACES2065-1
# LUTr-Upstream-Input-Descriptor: Linear ARRI Wide Gamut 4
# LUTr-Upstream-Output-Descriptor: ACES2065-1
# LUTr-Upstream-Operations: Matrix
# LUTr-Note: Preserve this metadata and the upstream license notices when redistributing.
TITLE "ARRI.Input.Linear ARRI Wide Gamut 4 to ACES2065-1"
LUT_3D_SIZE 5
DOMAIN_MIN 0 0 0
DOMAIN_MAX 1 1 1
0 0 0
0.18773934 0.00020545927 -0.00012498804
0.37547868 0.00041091854 -0.00024997607
0.56321802 0.00061637781 -0.00037496411
0.75095736 0.00082183708 -0.00049995214
0.036105697 0.2518494 -0.00021354431
0.22384504 0.25205486 -0.00033853234
0.41158438 0.25226031 -0.00046352038
0.59932372 0.25246577 -0.00058850842
0.78706306 0.25267123 -0.00071349645
0.072211393 0.50369879 -0.00042708862
0.25995073 0.50390425 -0.00055207665
0.44769007 0.50410971 -0.00067706469
0.63542942 0.50431517 -0.00080205272
0.82316876 0.50452063 -0.00092704076
0.10831709 0.75554819 -0.00064063292
0.29605643 0.75575365 -0.00076562096
0.48379577 0.75595911 -0.000890609
0.67153511 0.75616457 -0.001015597
0.85927445 0.75637003 -0.0011405851
0.14442279 1.0073976 -0.00085417723
0.33216213 1.007603 -0.00097916527
0.51990147 1.0078085 -0.0011041533
0.70764081 1.008014 -0.0012291413
0.89538015 1.0082194 -0.0013541294
0.026154963 -0.0020548555 0.25033853
0.2138943 -0.0018493962 0.25021354
0.40163364 -0.001643937 0.25008856
0.58937298 -0.0014384777 0.24996357
0.77711233 -0.0012330184 0.24983858
0.062260659 0.24979454 0.25012499
0.25 0.25 0.25
0.43773934 0.25020546 0.24987501
0.62547868 0.25041092 0.24975002
0.81321802 0.25061638 0.24962504
0.098366356 0.50164394 0.24991144
0.2861057 0.5018494 0.24978646
0.47384504 0.50205486 0.24966147
0.66158438 0.50226031 0.24953648
0.84932372 0.50246577 0.24941149
0.13447205 0.75349333 0.2496979
0.32221139 0.75369879 0.24957291
0.50995073 0.75390425 0.24944792
0.69769007 0.75410971 0.24932294
0.88542942 0.75431517 0.24919795
0.17057775 1.0053427 0.24948436
0.35831709 1.0055482 0.24935937
0.54605643 1.0057536 0.24923438
0.73379577 1.0059591 0.24910939
0.92153511 1.0061646 0.2489844
0.052309925 -0.004109711 0.50067706
0.24004927 -0.0039042517 0.50055208
0.42778861 -0.0036987924 0.50042709
0.61552795 -0.0034933332 0.5003021
0.80326729 -0.0032878739 0.50017711
0.088415622 0.24773969 0.50046352
0.27615496 0.24794514 0.50033853
0.4638943 0.2481506 0.50021354
0.65163364 0.24835606 0.50008856
0.83937298 0.24856152 0.49996357
0.12452132 0.49958908 0.50024998
0.31226066 0.49979454 0.50012499
0.5 0.5 0.5
0.68773934 0.50020546 0.49987501
0.87547868 0.50041092 0.49975002
0.16062702 0.75143848 0.50003643
0.34836636 0.75164394 0.49991144
0.5361057 0.7518494 0.49978646
0.72384504 0.75205486 0.49966147
0.91158438 0.75226031 0.49953648
0.19673271 1.0032879 0.49982289
0.38447205 1.0034933 0.4996979
0.57221139 1.0036988 0.49957291
0.75995073 1.0039043 0.49944792
0.94769007 1.0041097 0.49932294
0.078464888 -0.0061645665 0.7510156
0.26620423 -0.0059591072 0.75089061
0.45394357 -0.0057536479 0.75076562
0.64168291 -0.0055481887 0.75064063
0.82942225 -0.0053427294 0.75051564
0.11457058 0.24568483 0.75080205
0.30230993 0.24589029 0.75067706
0.49004927 0.24609575 0.75055208
0.67778861 0.24630121 0.75042709
0.86552795 0.24650667 0.7503021
0.15067628 0.49753423 0.75058851
0.33841562 0.49773969 0.75046352
0.52615496 0.49794514 0.75033853
0.7138943 0.4981506 0.75021354
0.90163364 0.49835606 0.75008856
0.18678198 0.74938362 0.75037496
0.37452132 0.74958908 0.75024998
0.56226066 0.74979454 0.75012499
0.75 0.75 0.75
0.93773934 0.75020546 0.74987501
0.22288767 1.001233 0.75016142
0.41062702 1.0014385 0.75003643
0.59836636 1.0016439 0.74991144
0.7861057 1.0018494 0.74978646
0.97384504 1.0020549 0.74966147
0.10461985 -0.008219422 1.0013541
0.29235919 -0.0080139627 1.0012291
0.48009853 -0.0078085034 1.0011042
0.66783787 -0.0076030442 1.0009792
0.85557721 -0.0073975849 1.0008542
0.14072555 0.24362997 1.0011406
0.32846489 0.24383543 1.0010156
0.51620423 0.24404089 1.0008906
0.70394357 0.24424635 1.0007656
0.89168291 0.24445181 1.0006406
0.17683124 0.49547937 1.000927
0.36457058 0.49568483 1.0008021
0.55230993 0.49589029 1.0006771
0.74004927 0.49609575 1.0005521
0.92778861 0.49630121 1.0004271
0.21293694 0.74732877 1.0007135
0.40067628 0.74753423 1.0005885
0.58841562 0.74773969 1.0004635
0.77615496 0.74794514 1.0003385
0.9638943 0.7481506 1.0002135
0.24904264 0.99917816 1.0005
0.43678198 0.99938362 1.000375
0.62452132 0.99958908 1.00025
0.81226066 0.99979454 1.000125
1 1 1
