site/assets/luts/ocio-aces--ocioutilityap0-to-linear-adobergb--446f00b0d.cube
# LUTr-Project: LUTr — LUTrepository
# LUTr-Schema-Version: 1
# LUTr-ID: ocio-aces--ocioutilityap0-to-linear-adobergb--446f00b0d
# LUTr-Title: OCIO.Utility.AP0 to Linear AdobeRGB
# LUTr-Collection: OCIO ACES
# LUTr-Collection-ID: aswf-opencolorio-config-aces
# LUTr-Source: https://github.com/AcademySoftwareFoundation/OpenColorIO-Config-ACES
# LUTr-Source-File: submissions/aswf-opencolorio-config-aces/opencolorio_config_aces/clf/transforms/ocio/utility/OCIO.Utility.AP0_to_Linear_AdobeRGB.clf
# LUTr-Source-Format: CLF
# LUTr-Source-SHA256: f08785a4205221666ba841e0e2bb27af38a06cdc8901a760761505dddc40ce0e
# LUTr-License: BSD-3-Clause
# LUTr-License-URL: https://github.com/AcademySoftwareFoundation/OpenColorIO-Config-ACES/blob/main/LICENSE
# LUTr-Tags: technical, aces, ocio, clf, color-management, cube
# LUTr-Transform-Class: color-space-conversion
# LUTr-Input-Color-Space: ACES2065-1
# LUTr-Output-Color-Space: linear Adobe RGB (1998) primaries, D65 white point
# LUTr-Color-Space-Confidence: descriptor-only
# LUTr-Conversion-Method: CLF operations evaluated as float and sampled to 33x33x33 3D CUBE
# LUTr-Conversion-Date: 2026-07-27
# LUTr-Conversion-Tool: LUTr scripts/convert-all-to-cube.mjs
# LUTr-Conversion-Grid: 33x33x33
# LUTr-Conversion-Warning: A sampled 3D CUBE is bounded to DOMAIN_MIN/MAX 0..1 and cannot preserve CLF values outside its input domain.
# LUTr-Upstream-ID: urn:aswf:ocio:transformId:1.0:OCIO:Utility:AP0_to_Linear_AdobeRGB:1.0
# LUTr-Upstream-Name: AP0 to Linear Adobe RGB (1998)
# LUTr-Upstream-Input-Descriptor: ACES2065-1
# LUTr-Upstream-Output-Descriptor: linear Adobe RGB (1998) primaries, D65 white point
# LUTr-Upstream-Operations: Matrix
# LUTr-Note: Preserve this metadata and the upstream license notices when redistributing.
TITLE "OCIO.Utility.AP0 to Linear AdobeRGB"
LUT_3D_SIZE 5
DOMAIN_MIN 0 0 0
DOMAIN_MAX 1 1 1
0 0 0
0.43114008 -0.069119979 -0.0065313815
0.86228016 -0.13823996 -0.013062763
1.2934202 -0.20735994 -0.019594144
1.7245603 -0.27647991 -0.026125526
-0.1049984 0.34317977 -0.022543695
0.32614168 0.27405979 -0.029075077
0.75728176 0.20493981 -0.035606458
1.1884218 0.13581984 -0.04213784
1.6195619 0.066699858 -0.048669221
-0.2099968 0.68635954 -0.04508739
0.22114328 0.61723957 -0.051618772
0.65228336 0.54811959 -0.058150153
1.0834234 0.47899961 -0.064681535
1.5145635 0.40987963 -0.071212916
-0.3149952 1.0295393 -0.067631085
0.11614488 0.96041934 -0.074162467
0.54728496 0.89129936 -0.080693848
0.97842504 0.82217938 -0.08722523
1.4095651 0.7530594 -0.093756611
-0.41999359 1.3727191 -0.090174781
0.011146485 1.3035991 -0.096706162
0.44228656 1.2344791 -0.10323754
0.87342664 1.1653592 -0.10976893
1.3045667 1.0962392 -0.11630031
-0.076141681 -0.024059793 0.27907508
0.3549984 -0.093179772 0.2725437
0.78613848 -0.16229975 0.26601231
1.2172786 -0.23141973 0.25948093
1.6484186 -0.30053971 0.25294955
-0.18114008 0.31911998 0.25653138
0.25 0.25 0.25
0.68114008 0.18088002 0.24346862
1.1122802 0.11176004 0.23693724
1.5434202 0.042640064 0.23040586
-0.28613848 0.66229975 0.23398769
0.1450016 0.59317977 0.2274563
0.57614168 0.52405979 0.22092492
1.0072818 0.45493981 0.21439354
1.4384218 0.38581984 0.20786216
-0.39113688 1.0054795 0.21144399
0.040003203 0.93635954 0.20491261
0.47114328 0.86723957 0.19838123
0.90228336 0.79811959 0.19184985
1.3334234 0.72899961 0.18531847
-0.49613527 1.3486593 0.1889003
-0.064995196 1.2795393 0.18236891
0.36614488 1.2104193 0.17583753
0.79728496 1.1412994 0.16930615
1.228425 1.0721794 0.16277477
-0.15228336 -0.048119587 0.55815015
0.27885672 -0.11723957 0.55161877
0.7099968 -0.18635954 0.54508739
1.1411369 -0.25547952 0.53855601
1.572277 -0.3245995 0.53202463
-0.25728176 0.29506019 0.53560646
0.17385832 0.22594021 0.52907508
0.6049984 0.15682023 0.5225437
1.0361385 0.08770025 0.51601231
1.4672786 0.018580271 0.50948093
-0.36228016 0.63823996 0.51306276
0.068859921 0.56911998 0.50653138
0.5 0.5 0.5
0.93114008 0.43088002 0.49346862
1.3622802 0.36176004 0.48693724
-0.46727856 0.98141973 0.49051907
-0.036138478 0.91229975 0.48398769
0.3950016 0.84317977 0.4774563
0.82614168 0.77405979 0.47092492
1.2572818 0.70493981 0.46439354
-0.57227696 1.3245995 0.46797537
-0.14113688 1.2554795 0.46144399
0.2900032 1.1863595 0.45491261
0.72114328 1.1172396 0.44838123
1.1522834 1.0481196 0.44184985
-0.22842504 -0.07217938 0.83722523
0.20271504 -0.14129936 0.83069385
0.63385512 -0.21041934 0.82416247
1.0649952 -0.27953932 0.81763109
1.4961353 -0.34865929 0.8110997
-0.33342344 0.27100039 0.81468153
0.097716639 0.20188041 0.80815015
0.52885672 0.13276043 0.80161877
0.9599968 0.063640456 0.79508739
1.3911369 -0.0054795224 0.78855601
-0.43842184 0.61418016 0.79213784
-0.0072817599 0.54506019 0.78560646
0.42385832 0.47594021 0.77907508
0.8549984 0.40682023 0.7725437
1.2861385 0.33770025 0.76601231
-0.54342024 0.95735994 0.76959414
-0.11228016 0.88823996 0.76306276
0.31885992 0.81911998 0.75653138
0.75 0.75 0.75
1.1811401 0.68088002 0.74346862
-0.64841864 1.3005397 0.74705045
-0.21727856 1.2314197 0.74051907
0.21386152 1.1622998 0.73398769
0.6450016 1.0931798 0.7274563
1.0761417 1.0240598 0.72092492
-0.30456672 -0.096239173 1.1163003
0.12657336 -0.16535915 1.1097689
0.55771344 -0.23447913 1.1032375
0.98885351 -0.30359911 1.0967062
1.4199936 -0.37271909 1.0901748
-0.40956512 0.2469406 1.0937566
0.021574958 0.17782062 1.0872252
0.45271504 0.10870064 1.0806938
0.88385512 0.039580663 1.0741625
1.3149952 -0.029539316 1.0676311
-0.51456352 0.59012037 1.0712129
-0.083423441 0.52100039 1.0646815
0.34771664 0.45188041 1.0581502
0.77885672 0.38276043 1.0516188
1.2099968 0.31364046 1.0450874
-0.61956192 0.93330014 1.0486692
-0.18842184 0.86418016 1.0421378
0.24271824 0.79506019 1.0356065
0.67385832 0.72594021 1.0290751
1.1049984 0.65682023 1.0225437
-0.72456032 1.2764799 1.0261255
-0.29342024 1.2073599 1.0195941
0.13771984 1.13824 1.0130628
0.56885992 1.06912 1.0065314
1 1 1
