site/assets/luts/ocio-aces--blackmagicdesigninputlinear-davinci-widegamut-to-aces2065-1--1e7e4ea6b.cube
# LUTr-Project: LUTr — LUTrepository
# LUTr-Schema-Version: 1
# LUTr-ID: ocio-aces--blackmagicdesigninputlinear-davinci-widegamut-to-aces2065-1--1e7e4ea6b
# LUTr-Title: BlackmagicDesign.Input.Linear DaVinci WideGamut to ACES2065-1
# LUTr-Collection: OCIO ACES
# LUTr-Collection-ID: aswf-opencolorio-config-aces
# LUTr-Source: https://github.com/AcademySoftwareFoundation/OpenColorIO-Config-ACES
# LUTr-Source-File: submissions/aswf-opencolorio-config-aces/opencolorio_config_aces/clf/transforms/blackmagic/input/BlackmagicDesign.Input.Linear_DaVinci_WideGamut_to_ACES2065-1.clf
# LUTr-Source-Format: CLF
# LUTr-Source-SHA256: 82c11888f20c7ec148c648291db9277bb1f286c5fac261b8208284f6f5582bd6
# LUTr-License: BSD-3-Clause
# LUTr-License-URL: https://github.com/AcademySoftwareFoundation/OpenColorIO-Config-ACES/blob/main/LICENSE
# LUTr-Tags: technical, aces, ocio, clf, color-management, cube
# LUTr-Transform-Class: color-space-conversion
# LUTr-Input-Color-Space: Linear DaVinci Wide Gamut
# LUTr-Output-Color-Space: ACES2065-1
# LUTr-Color-Space-Confidence: descriptor-only
# LUTr-Conversion-Method: CLF operations evaluated as float and sampled to 33x33x33 3D CUBE
# LUTr-Conversion-Date: 2026-07-27
# LUTr-Conversion-Tool: LUTr scripts/convert-all-to-cube.mjs
# LUTr-Conversion-Grid: 33x33x33
# LUTr-Conversion-Warning: A sampled 3D CUBE is bounded to DOMAIN_MIN/MAX 0..1 and cannot preserve CLF values outside its input domain.
# LUTr-Upstream-ID: urn:aswf:ocio:transformId:1.0:BlackmagicDesign:Input:Linear_DaVinci_WideGamut_to_ACES2065-1:1.0
# LUTr-Upstream-Name: Linear DaVinci Wide Gamut to ACES2065-1
# LUTr-Upstream-Input-Descriptor: Linear DaVinci Wide Gamut
# LUTr-Upstream-Output-Descriptor: ACES2065-1
# LUTr-Upstream-Operations: Matrix
# LUTr-Note: Preserve this metadata and the upstream license notices when redistributing.
TITLE "BlackmagicDesign.Input.Linear DaVinci WideGamut to ACES2065-1"
LUT_3D_SIZE 33
DOMAIN_MIN 0 0 0
DOMAIN_MAX 1 1 1
0 0 0
0.023383447 0.00065131636 -0.002859758
0.046766893 0.0013026327 -0.0057195161
0.07015034 0.0019539491 -0.0085792741
0.093533786 0.0026052654 -0.011439032
0.11691723 0.0032565818 -0.01429879
0.14030068 0.0039078982 -0.017158548
0.16368413 0.0045592145 -0.020018306
0.18706757 0.0052105309 -0.022878064
0.21045102 0.0058618472 -0.025737822
0.23383447 0.0065131636 -0.02859758
0.25721791 0.0071644799 -0.031457338
0.28060136 0.0078157963 -0.034317097
0.30398481 0.0084671127 -0.037176855
0.32736825 0.009118429 -0.040036613
0.3507517 0.0097697454 -0.042896371
0.37413515 0.010421062 -0.045756129
0.39751859 0.011072378 -0.048615887
0.42090204 0.011723694 -0.051475645
0.44428548 0.012375011 -0.054335403
0.46766893 0.013026327 -0.057195161
0.49105238 0.013677644 -0.060054919
0.51443582 0.01432896 -0.062914677
0.53781927 0.014980276 -0.065774435
0.56120272 0.015631593 -0.068634193
0.58458616 0.016282909 -0.071493951
0.60796961 0.016934225 -0.074353709
0.63135306 0.017585542 -0.077213467
0.6547365 0.018236858 -0.080073225
0.67811995 0.018888174 -0.082932983
0.7015034 0.019539491 -0.085792741
0.72488684 0.020190807 -0.088652499
0.74827029 0.020842123 -0.091512257
0.0052404581 0.034747023 -0.0039920848
0.028623905 0.03539834 -0.0068518428
0.052007351 0.036049656 -0.0097116009
0.075390798 0.036700972 -0.012571359
0.098774244 0.037352289 -0.015431117
0.12215769 0.038003605 -0.018290875
0.14554114 0.038654921 -0.021150633
0.16892458 0.039306238 -0.024010391
0.19230803 0.039957554 -0.026870149
0.21569148 0.04060887 -0.029729907
0.23907492 0.041260187 -0.032589665
0.26245837 0.041911503 -0.035449423
0.28584182 0.04256282 -0.038309181
0.30922526 0.043214136 -0.041168939
0.33260871 0.043865452 -0.044028697
0.35599216 0.044516769 -0.046888455
0.3793756 0.045168085 -0.049748213
0.40275905 0.045819401 -0.052607972
0.4261425 0.046470718 -0.05546773
0.44952594 0.047122034 -0.058327488
0.47290939 0.04777335 -0.061187246
0.49629284 0.048424667 -0.064047004
0.51967628 0.049075983 -0.066906762
0.54305973 0.049727299 -0.06976652
0.56644318 0.050378616 -0.072626278
0.58982662 0.051029932 -0.075486036
0.61321007 0.051681249 -0.078345794
0.63659352 0.052332565 -0.081205552
0.65997696 0.052983881 -0.08406531
0.68336041 0.053635198 -0.086925068
0.70674386 0.054286514 -0.089784826
0.7301273 0.05493783 -0.092644584
0.75351075 0.055589147 -0.095504342
0.010480916 0.069494046 -0.0079841696
0.033864363 0.070145363 -0.010843928
0.057247809 0.070796679 -0.013703686
0.080631256 0.071447995 -0.016563444
0.1040147 0.072099312 -0.019423202
0.12739815 0.072750628 -0.02228296
0.1507816 0.073401945 -0.025142718
0.17416504 0.074053261 -0.028002476
0.19754849 0.074704577 -0.030862234
0.22093194 0.075355894 -0.033721992
0.24431538 0.07600721 -0.03658175
0.26769883 0.076658526 -0.039441508
0.29108228 0.077309843 -0.042301266
0.31446572 0.077961159 -0.045161024
0.33784917 0.078612475 -0.048020782
0.36123261 0.079263792 -0.05088054
0.38461606 0.079915108 -0.053740298
0.40799951 0.080566425 -0.056600056
0.43138295 0.081217741 -0.059459814
0.4547664 0.081869057 -0.062319572
0.47814985 0.082520374 -0.06517933
0.50153329 0.08317169 -0.068039088
0.52491674 0.083823006 -0.070898847
0.54830019 0.084474323 -0.073758605
0.57168363 0.085125639 -0.076618363
0.59506708 0.085776955 -0.079478121
0.61845053 0.086428272 -0.082337879
0.64183397 0.087079588 -0.085197637
0.66521742 0.087730904 -0.088057395
0.68860087 0.088382221 -0.090917153
0.71198431 0.089033537 -0.093776911
0.73536776 0.089684854 -0.096636669
0.75875121 0.09033617 -0.099496427
0.015721374 0.10424107 -0.011976254
0.039104821 0.10489239 -0.014836012
0.062488267 0.1055437 -0.01769577
0.085871714 0.10619502 -0.020555528
0.10925516 0.10684634 -0.023415287
0.13263861 0.10749765 -0.026275045
0.15602205 0.10814897 -0.029134803
0.1794055 0.10880028 -0.031994561
0.20278895 0.1094516 -0.034854319
0.22617239 0.11010292 -0.037714077
0.24955584 0.11075423 -0.040573835
0.27293929 0.11140555 -0.043433593
0.29632273 0.11205687 -0.046293351
0.31970618 0.11270818 -0.049153109
0.34308963 0.1133595 -0.052012867
0.36647307 0.11401082 -0.054872625
0.38985652 0.11466213 -0.057732383
0.41323997 0.11531345 -0.060592141
0.43662341 0.11596476 -0.063451899
0.46000686 0.11661608 -0.066311657
0.48339031 0.1172674 -0.069171415
0.50677375 0.11791871 -0.072031173
0.5301572 0.11857003 -0.074890931
0.55354065 0.11922135 -0.077750689
0.57692409 0.11987266 -0.080610447
0.60030754 0.12052398 -0.083470205
0.62369099 0.12117529 -0.086329963
0.64707443 0.12182661 -0.089189722
0.67045788 0.12247793 -0.09204948
0.69384132 0.12312924 -0.094909238
0.71722477 0.12378056 -0.097768996
0.74060822 0.12443188 -0.10062875
0.76399166 0.12508319 -0.10348851
0.020961832 0.13898809 -0.015968339
0.044345279 0.13963941 -0.018828097
0.067728726 0.14029073 -0.021687855
0.091112172 0.14094204 -0.024547613
0.11449562 0.14159336 -0.027407371
0.13787907 0.14224467 -0.030267129
0.16126251 0.14289599 -0.033126887
0.18464596 0.14354731 -0.035986645
0.20802941 0.14419862 -0.038846403
0.23141285 0.14484994 -0.041706162
0.2547963 0.14550126 -0.04456592
0.27817974 0.14615257 -0.047425678
0.30156319 0.14680389 -0.050285436
0.32494664 0.14745521 -0.053145194
0.34833008 0.14810652 -0.056004952
0.37171353 0.14875784 -0.05886471
0.39509698 0.14940915 -0.061724468
0.41848042 0.15006047 -0.064584226
0.44186387 0.15071179 -0.067443984
0.46524732 0.1513631 -0.070303742
0.48863076 0.15201442 -0.0731635
0.51201421 0.15266574 -0.076023258
0.53539766 0.15331705 -0.078883016
0.5587811 0.15396837 -0.081742774
0.58216455 0.15461969 -0.084602532
0.605548 0.155271 -0.08746229
0.62893144 0.15592232 -0.090322048
0.65231489 0.15657363 -0.093181806
0.67569834 0.15722495 -0.096041564
0.69908178 0.15787627 -0.098901322
0.72246523 0.15852758 -0.10176108
0.74584868 0.1591789 -0.10462084
0.76923212 0.15983022 -0.1074806
0.026202291 0.17373512 -0.019960424
0.049585737 0.17438643 -0.022820182
0.072969184 0.17503775 -0.02567994
0.09635263 0.17568907 -0.028539698
0.11973608 0.17634038 -0.031399456
0.14311952 0.1769917 -0.034259214
0.16650297 0.17764301 -0.037118972
0.18988642 0.17829433 -0.03997873
0.21326986 0.17894565 -0.042838488
0.23665331 0.17959696 -0.045698246
0.26003676 0.18024828 -0.048558004
0.2834202 0.1808996 -0.051417762
0.30680365 0.18155091 -0.05427752
0.3301871 0.18220223 -0.057137278
0.35357054 0.18285355 -0.059997036
0.37695399 0.18350486 -0.062856795
0.40033744 0.18415618 -0.065716553
0.42372088 0.18480749 -0.068576311
0.44710433 0.18545881 -0.071436069
0.47048778 0.18611013 -0.074295827
0.49387122 0.18676144 -0.077155585
0.51725467 0.18741276 -0.080015343
0.54063812 0.18806408 -0.082875101
0.56402156 0.18871539 -0.085734859
0.58740501 0.18936671 -0.088594617
0.61078845 0.19001803 -0.091454375
0.6341719 0.19066934 -0.094314133
0.65755535 0.19132066 -0.097173891
0.68093879 0.19197197 -0.10003365
0.70432224 0.19262329 -0.10289341
0.72770569 0.19327461 -0.10575317
0.75108913 0.19392592 -0.10861292
0.77447258 0.19457724 -0.11147268
0.031442749 0.20848214 -0.023952509
0.054826195 0.20913346 -0.026812267
0.078209642 0.20978477 -0.029672025
0.10159309 0.21043609 -0.032531783
0.12497653 0.2110874 -0.035391541
0.14835998 0.21173872 -0.038251299
0.17174343 0.21239004 -0.041111057
0.19512687 0.21304135 -0.043970815
0.21851032 0.21369267 -0.046830573
0.24189377 0.21434399 -0.049690331
0.26527721 0.2149953 -0.052550089
0.28866066 0.21564662 -0.055409847
0.31204411 0.21629794 -0.058269605
0.33542755 0.21694925 -0.061129363
0.358811 0.21760057 -0.063989121
0.38219445 0.21825188 -0.066848879
0.40557789 0.2189032 -0.069708637
0.42896134 0.21955452 -0.072568395
0.45234479 0.22020583 -0.075428153
0.47572823 0.22085715 -0.078287911
0.49911168 0.22150847 -0.08114767
0.52249513 0.22215978 -0.084007428
0.54587857 0.2228111 -0.086867186
0.56926202 0.22346242 -0.089726944
0.59264547 0.22411373 -0.092586702
0.61602891 0.22476505 -0.09544646
0.63941236 0.22541636 -0.098306218
0.66279581 0.22606768 -0.10116598
0.68617925 0.226719 -0.10402573
0.7095627 0.22737031 -0.10688549
0.73294615 0.22802163 -0.10974525
0.75632959 0.22867295 -0.11260501
0.77971304 0.22932426 -0.11546477
0.036683207 0.24322916 -0.027944593
0.060066653 0.24388048 -0.030804351
0.0834501 0.2445318 -0.03366411
0.10683355 0.24518311 -0.036523868
0.13021699 0.24583443 -0.039383626
0.15360044 0.24648574 -0.042243384
0.17698389 0.24713706 -0.045103142
0.20036733 0.24778838 -0.0479629
0.22375078 0.24843969 -0.050822658
0.24713423 0.24909101 -0.053682416
0.27051767 0.24974233 -0.056542174
0.29390112 0.25039364 -0.059401932
0.31728457 0.25104496 -0.06226169
0.34066801 0.25169628 -0.065121448
0.36405146 0.25234759 -0.067981206
0.38743491 0.25299891 -0.070840964
0.41081835 0.25365022 -0.073700722
0.4342018 0.25430154 -0.07656048
0.45758525 0.25495286 -0.079420238
0.48096869 0.25560417 -0.082279996
0.50435214 0.25625549 -0.085139754
0.52773558 0.25690681 -0.087999512
0.55111903 0.25755812 -0.09085927
0.57450248 0.25820944 -0.093719028
0.59788592 0.25886076 -0.096578786
0.62126937 0.25951207 -0.099438545
0.64465282 0.26016339 -0.1022983
0.66803626 0.2608147 -0.10515806
0.69141971 0.26146602 -0.10801782
0.71480316 0.26211734 -0.11087758
0.7381866 0.26276865 -0.11373733
0.76157005 0.26341997 -0.11659709
0.7849535 0.26407129 -0.11945685
0.041923665 0.27797619 -0.031936678
0.065307111 0.2786275 -0.034796436
0.088690558 0.27927882 -0.037656194
0.112074 0.27993013 -0.040515952
0.13545745 0.28058145 -0.04337571
0.1588409 0.28123277 -0.046235468
0.18222434 0.28188408 -0.049095226
0.20560779 0.2825354 -0.051954985
0.22899124 0.28318672 -0.054814743
0.25237468 0.28383803 -0.057674501
0.27575813 0.28448935 -0.060534259
0.29914158 0.28514067 -0.063394017
0.32252502 0.28579198 -0.066253775
0.34590847 0.2864433 -0.069113533
0.36929192 0.28709461 -0.071973291
0.39267536 0.28774593 -0.074833049
0.41605881 0.28839725 -0.077692807
0.43944226 0.28904856 -0.080552565
0.4628257 0.28969988 -0.083412323
0.48620915 0.2903512 -0.086272081
0.5095926 0.29100251 -0.089131839
0.53297604 0.29165383 -0.091991597
0.55635949 0.29230515 -0.094851355
0.57974294 0.29295646 -0.097711113
0.60312638 0.29360778 -0.10057087
0.62650983 0.29425909 -0.10343063
0.64989328 0.29491041 -0.10629039
0.67327672 0.29556173 -0.10915015
0.69666017 0.29621304 -0.1120099
0.72004362 0.29686436 -0.11486966
0.74342706 0.29751568 -0.11772942
0.76681051 0.29816699 -0.12058918
0.79019396 0.29881831 -0.12344894
0.047164123 0.31272321 -0.035928763
0.07054757 0.31337453 -0.038788521
0.093931016 0.31402584 -0.041648279
0.11731446 0.31467716 -0.044508037
0.14069791 0.31532847 -0.047367795
0.16408136 0.31597979 -0.050227553
0.1874648 0.31663111 -0.053087311
0.21084825 0.31728242 -0.055947069
0.2342317 0.31793374 -0.058806827
0.25761514 0.31858506 -0.061666585
0.28099859 0.31923637 -0.064526343
0.30438204 0.31988769 -0.067386101
0.32776548 0.32053901 -0.07024586
0.35114893 0.32119032 -0.073105618
0.37453237 0.32184164 -0.075965376
0.39791582 0.32249295 -0.078825134
0.42129927 0.32314427 -0.081684892
0.44468271 0.32379559 -0.08454465
0.46806616 0.3244469 -0.087404408
0.49144961 0.32509822 -0.090264166
0.51483305 0.32574954 -0.093123924
0.5382165 0.32640085 -0.095983682
0.56159995 0.32705217 -0.09884344
0.58498339 0.32770349 -0.1017032
0.60836684 0.3283548 -0.10456296
0.63175029 0.32900612 -0.10742271
0.65513373 0.32965743 -0.11028247
0.67851718 0.33030875 -0.11314223
0.70190063 0.33096007 -0.11600199
0.72528407 0.33161138 -0.11886175
0.74866752 0.3322627 -0.1217215
0.77205097 0.33291402 -0.12458126
0.79543441 0.33356533 -0.12744102
0.052404581 0.34747023 -0.039920848
0.075788028 0.34812155 -0.042780606
0.099171474 0.34877286 -0.045640364
0.12255492 0.34942418 -0.048500122
0.14593837 0.3500755 -0.05135988
0.16932181 0.35072681 -0.054219638
0.19270526 0.35137813 -0.057079396
0.21608871 0.35202945 -0.059939154
0.23947215 0.35268076 -0.062798912
0.2628556 0.35333208 -0.06565867
0.28623905 0.3539834 -0.068518428
0.30962249 0.35463471 -0.071378186
0.33300594 0.35528603 -0.074237944
0.35638939 0.35593734 -0.077097702
0.37977283 0.35658866 -0.07995746
0.40315628 0.35723998 -0.082817218
0.42653973 0.35789129 -0.085676976
0.44992317 0.35854261 -0.088536735
0.47330662 0.35919393 -0.091396493
0.49669007 0.35984524 -0.094256251
0.52007351 0.36049656 -0.097116009
0.54345696 0.36114788 -0.099975767
0.56684041 0.36179919 -0.10283552
0.59022385 0.36245051 -0.10569528
0.6136073 0.36310182 -0.10855504
0.63699075 0.36375314 -0.1114148
0.66037419 0.36440446 -0.11427456
0.68375764 0.36505577 -0.11713431
0.70714109 0.36570709 -0.11999407
0.73052453 0.36635841 -0.12285383
0.75390798 0.36700972 -0.12571359
0.77729142 0.36766104 -0.12857335
0.80067487 0.36831236 -0.13143311
0.057645039 0.38221726 -0.043912933
0.081028486 0.38286857 -0.046772691
0.10441193 0.38351989 -0.049632449
0.12779538 0.3841712 -0.052492207
0.15117883 0.38482252 -0.055351965
0.17456227 0.38547384 -0.058211723
0.19794572 0.38612515 -0.061071481
0.22132917 0.38677647 -0.063931239
0.24471261 0.38742779 -0.066790997
0.26809606 0.3880791 -0.069650755
0.2914795 0.38873042 -0.072510513
0.31486295 0.38938174 -0.075370271
0.3382464 0.39003305 -0.078230029
0.36162984 0.39068437 -0.081089787
0.38501329 0.39133568 -0.083949545
0.40839674 0.391987 -0.086809303
0.43178018 0.39263832 -0.089669061
0.45516363 0.39328963 -0.092528819
0.47854708 0.39394095 -0.095388577
0.50193052 0.39459227 -0.098248335
0.52531397 0.39524358 -0.10110809
0.54869742 0.3958949 -0.10396785
0.57208086 0.39654622 -0.10682761
0.59546431 0.39719753 -0.10968737
0.61884776 0.39784885 -0.11254713
0.6422312 0.39850016 -0.11540688
0.66561465 0.39915148 -0.11826664
0.6889981 0.3998028 -0.1211264
0.71238154 0.40045411 -0.12398616
0.73576499 0.40110543 -0.12684592
0.75914844 0.40175675 -0.12970567
0.78253188 0.40240806 -0.13256543
0.80591533 0.40305938 -0.13542519
0.062885497 0.41696428 -0.047905017
0.086268944 0.41761559 -0.050764775
0.10965239 0.41826691 -0.053624533
0.13303584 0.41891823 -0.056484291
0.15641928 0.41956954 -0.059344049
0.17980273 0.42022086 -0.062203808
0.20318618 0.42087218 -0.065063566
0.22656962 0.42152349 -0.067923324
0.24995307 0.42217481 -0.070783082
0.27333652 0.42282613 -0.07364284
0.29671996 0.42347744 -0.076502598
0.32010341 0.42412876 -0.079362356
0.34348686 0.42478007 -0.082222114
0.3668703 0.42543139 -0.085081872
0.39025375 0.42608271 -0.08794163
0.4136372 0.42673402 -0.090801388
0.43702064 0.42738534 -0.093661146
0.46040409 0.42803666 -0.096520904
0.48378754 0.42868797 -0.099380662
0.50717098 0.42933929 -0.10224042
0.53055443 0.42999061 -0.10510018
0.55393788 0.43064192 -0.10795994
0.57732132 0.43129324 -0.11081969
0.60070477 0.43194455 -0.11367945
0.62408822 0.43259587 -0.11653921
0.64747166 0.43324719 -0.11939897
0.67085511 0.4338985 -0.12225873
0.69423855 0.43454982 -0.12511848
0.717622 0.43520114 -0.12797824
0.74100545 0.43585245 -0.130838
0.76438889 0.43650377 -0.13369776
0.78777234 0.43715509 -0.13655752
0.81115579 0.4378064 -0.13941727
0.068125955 0.4517113 -0.051897102
0.091509402 0.45236262 -0.05475686
0.11489285 0.45301393 -0.057616618
0.1382763 0.45366525 -0.060476376
0.16165974 0.45431657 -0.063336134
0.18504319 0.45496788 -0.066195892
0.20842663 0.4556192 -0.06905565
0.23181008 0.45627052 -0.071915408
0.25519353 0.45692183 -0.074775166
0.27857697 0.45757315 -0.077634924
0.30196042 0.45822447 -0.080494683
0.32534387 0.45887578 -0.083354441
0.34872731 0.4595271 -0.086214199
0.37211076 0.46017841 -0.089073957
0.39549421 0.46082973 -0.091933715
0.41887765 0.46148105 -0.094793473
0.4422611 0.46213236 -0.097653231
0.46564455 0.46278368 -0.10051299
0.48902799 0.463435 -0.10337275
0.51241144 0.46408631 -0.1062325
0.53579489 0.46473763 -0.10909226
0.55917833 0.46538895 -0.11195202
0.58256178 0.46604026 -0.11481178
0.60594523 0.46669158 -0.11767154
0.62932867 0.46734289 -0.1205313
0.65271212 0.46799421 -0.12339105
0.67609557 0.46864553 -0.12625081
0.69947901 0.46929684 -0.12911057
0.72286246 0.46994816 -0.13197033
0.74624591 0.47059948 -0.13483009
0.76962935 0.47125079 -0.13768984
0.7930128 0.47190211 -0.1405496
0.81639625 0.47255343 -0.14340936
0.073366414 0.48645832 -0.055889187
0.09674986 0.48710964 -0.058748945
0.12013331 0.48776096 -0.061608703
0.14351675 0.48841227 -0.064468461
0.1669002 0.48906359 -0.067328219
0.19028365 0.48971491 -0.070187977
0.21366709 0.49036622 -0.073047735
0.23705054 0.49101754 -0.075907493
0.26043399 0.49166886 -0.078767251
0.28381743 0.49232017 -0.081627009
0.30720088 0.49297149 -0.084486767
0.33058433 0.4936228 -0.087346525
0.35396777 0.49427412 -0.090206283
0.37735122 0.49492544 -0.093066041
0.40073467 0.49557675 -0.095925799
0.42411811 0.49622807 -0.098785558
0.44750156 0.49687939 -0.10164532
0.47088501 0.4975307 -0.10450507
0.49426845 0.49818202 -0.10736483
0.5176519 0.49883334 -0.11022459
0.54103534 0.49948465 -0.11308435
0.56441879 0.50013597 -0.11594411
0.58780224 0.50078728 -0.11880386
0.61118568 0.5014386 -0.12166362
0.63456913 0.50208992 -0.12452338
0.65795258 0.50274123 -0.12738314
0.68133602 0.50339255 -0.1302429
0.70471947 0.50404387 -0.13310265
0.72810292 0.50469518 -0.13596241
0.75148636 0.5053465 -0.13882217
0.77486981 0.50599782 -0.14168193
0.79825326 0.50664913 -0.14454169
0.8216367 0.50730045 -0.14740144
0.078606872 0.52120535 -0.059881272
0.10199032 0.52185666 -0.06274103
0.12537376 0.52250798 -0.065600788
0.14875721 0.5231593 -0.068460546
0.17214066 0.52381061 -0.071320304
0.1955241 0.52446193 -0.074180062
0.21890755 0.52511325 -0.07703982
0.242291 0.52576456 -0.079899578
0.26567444 0.52641588 -0.082759336
0.28905789 0.5270672 -0.085619094
0.31244134 0.52771851 -0.088478852
0.33582478 0.52836983 -0.09133861
0.35920823 0.52902114 -0.094198368
0.38259168 0.52967246 -0.097058126
0.40597512 0.53032378 -0.099917884
0.42935857 0.53097509 -0.10277764
0.45274202 0.53162641 -0.1056374
0.47612546 0.53227773 -0.10849716
0.49950891 0.53292904 -0.11135692
0.52289236 0.53358036 -0.11421667
0.5462758 0.53423168 -0.11707643
0.56965925 0.53488299 -0.11993619
0.5930427 0.53553431 -0.12279595
0.61642614 0.53618562 -0.12565571
0.63980959 0.53683694 -0.12851546
0.66319304 0.53748826 -0.13137522
0.68657648 0.53813957 -0.13423498
0.70995993 0.53879089 -0.13709474
0.73334338 0.53944221 -0.1399545
0.75672682 0.54009352 -0.14281425
0.78011027 0.54074484 -0.14567401
0.80349372 0.54139616 -0.14853377
0.82687716 0.54204747 -0.15139353
0.08384733 0.55595237 -0.063873356
0.10723078 0.55660369 -0.066733114
0.13061422 0.557255 -0.069592872
0.15399767 0.55790632 -0.072452631
0.17738112 0.55855764 -0.075312389
0.20076456 0.55920895 -0.078172147
0.22414801 0.55986027 -0.081031905
0.24753146 0.56051159 -0.083891663
0.2709149 0.5611629 -0.086751421
0.29429835 0.56181422 -0.089611179
0.3176818 0.56246553 -0.092470937
0.34106524 0.56311685 -0.095330695
0.36444869 0.56376817 -0.098190453
0.38783214 0.56441948 -0.10105021
0.41121558 0.5650708 -0.10390997
0.43459903 0.56572212 -0.10676973
0.45798247 0.56637343 -0.10962949
0.48136592 0.56702475 -0.11248924
0.50474937 0.56767607 -0.115349
0.52813281 0.56832738 -0.11820876
0.55151626 0.5689787 -0.12106852
0.57489971 0.56963001 -0.12392828
0.59828315 0.57028133 -0.12678803
0.6216666 0.57093265 -0.12964779
0.64505005 0.57158396 -0.13250755
0.66843349 0.57223528 -0.13536731
0.69181694 0.5728866 -0.13822707
0.71520039 0.57353791 -0.14108682
0.73858383 0.57418923 -0.14394658
0.76196728 0.57484055 -0.14680634
0.78535073 0.57549186 -0.1496661
0.80873417 0.57614318 -0.15252586
0.83211762 0.57679449 -0.15538561
0.089087788 0.59069939 -0.067865441
0.11247123 0.59135071 -0.070725199
0.13585468 0.59200203 -0.073584957
0.15923813 0.59265334 -0.076444715
0.18262157 0.59330466 -0.079304473
0.20600502 0.59395598 -0.082164231
0.22938847 0.59460729 -0.085023989
0.25277191 0.59525861 -0.087883747
0.27615536 0.59590993 -0.090743506
0.29953881 0.59656124 -0.093603264
0.32292225 0.59721256 -0.096463022
0.3463057 0.59786387 -0.09932278
0.36968915 0.59851519 -0.10218254
0.39307259 0.59916651 -0.1050423
0.41645604 0.59981782 -0.10790205
0.43983949 0.60046914 -0.11076181
0.46322293 0.60112046 -0.11362157
0.48660638 0.60177177 -0.11648133
0.50998983 0.60242309 -0.11934109
0.53337327 0.60307441 -0.12220084
0.55675672 0.60372572 -0.1250606
0.58014017 0.60437704 -0.12792036
0.60352361 0.60502835 -0.13078012
0.62690706 0.60567967 -0.13363988
0.65029051 0.60633099 -0.13649963
0.67367395 0.6069823 -0.13935939
0.6970574 0.60763362 -0.14221915
0.72044085 0.60828494 -0.14507891
0.74382429 0.60893625 -0.14793867
0.76720774 0.60958757 -0.15079842
0.79059119 0.61023889 -0.15365818
0.81397463 0.6108902 -0.15651794
0.83735808 0.61154152 -0.1593777
0.094328246 0.62544642 -0.071857526
0.11771169 0.62609773 -0.074717284
0.14109514 0.62674905 -0.077577042
0.16447859 0.62740037 -0.0804368
0.18786203 0.62805168 -0.083296558
0.21124548 0.628703 -0.086156316
0.23462893 0.62935432 -0.089016074
0.25801237 0.63000563 -0.091875832
0.28139582 0.63065695 -0.09473559
0.30477927 0.63130826 -0.097595348
0.32816271 0.63195958 -0.10045511
0.35154616 0.6326109 -0.10331486
0.3749296 0.63326221 -0.10617462
0.39831305 0.63391353 -0.10903438
0.4216965 0.63456485 -0.11189414
0.44507994 0.63521616 -0.1147539
0.46846339 0.63586748 -0.11761365
0.49184684 0.6365188 -0.12047341
0.51523028 0.63717011 -0.12333317
0.53861373 0.63782143 -0.12619293
0.56199718 0.63847274 -0.12905269
0.58538062 0.63912406 -0.13191244
0.60876407 0.63977538 -0.1347722
0.63214752 0.64042669 -0.13763196
0.65553096 0.64107801 -0.14049172
0.67891441 0.64172933 -0.14335148
0.70229786 0.64238064 -0.14621124
0.7256813 0.64303196 -0.14907099
0.74906475 0.64368328 -0.15193075
0.7724482 0.64433459 -0.15479051
0.79583164 0.64498591 -0.15765027
0.81921509 0.64563722 -0.16051003
0.84259854 0.64628854 -0.16336978
0.099568704 0.66019344 -0.075849611
0.12295215 0.66084476 -0.078709369
0.1463356 0.66149607 -0.081569127
0.16971904 0.66214739 -0.084428885
0.19310249 0.66279871 -0.087288643
0.21648594 0.66345002 -0.090148401
0.23986938 0.66410134 -0.093008159
0.26325283 0.66475266 -0.095867917
0.28663628 0.66540397 -0.098727675
0.31001972 0.66605529 -0.10158743
