site/assets/luts/ocio-aces--canoninputcanonlog3-cinemagamut-d55-to-aces2065-1--8b48de9f1.cube
# LUTr-Project: LUTr — LUTrepository
# LUTr-Schema-Version: 1
# LUTr-ID: ocio-aces--canoninputcanonlog3-cinemagamut-d55-to-aces2065-1--8b48de9f1
# LUTr-Title: Canon.Input.CanonLog3 CinemaGamut-D55 to ACES2065-1
# LUTr-Collection: OCIO ACES
# LUTr-Collection-ID: aswf-opencolorio-config-aces
# LUTr-Source: https://github.com/AcademySoftwareFoundation/OpenColorIO-Config-ACES
# LUTr-Source-File: submissions/aswf-opencolorio-config-aces/opencolorio_config_aces/clf/transforms/canon/input/Canon.Input.CanonLog3_CinemaGamut-D55_to_ACES2065-1.clf
# LUTr-Source-Format: CLF
# LUTr-Source-SHA256: a054fe5c7cc83361477bb05b631e20f4ebfb685f77899fd9017cf0e66edabbe7
# LUTr-License: BSD-3-Clause
# LUTr-License-URL: https://github.com/AcademySoftwareFoundation/OpenColorIO-Config-ACES/blob/main/LICENSE
# LUTr-Tags: technical, aces, ocio, clf, color-management, cube
# LUTr-Transform-Class: color-space-conversion
# LUTr-Input-Color-Space: Canon Log 3 Cinema Gamut (Daylight)
# LUTr-Output-Color-Space: ACES2065-1
# LUTr-Color-Space-Confidence: descriptor-only
# LUTr-Conversion-Method: CLF operations evaluated as float and sampled to 33x33x33 3D CUBE
# LUTr-Conversion-Date: 2026-07-27
# LUTr-Conversion-Tool: LUTr scripts/convert-all-to-cube.mjs
# LUTr-Conversion-Grid: 33x33x33
# LUTr-Conversion-Warning: A sampled 3D CUBE is bounded to DOMAIN_MIN/MAX 0..1 and cannot preserve CLF values outside its input domain.
# LUTr-Upstream-ID: urn:aswf:ocio:transformId:1.0:Canon:Input:CanonLog3_CinemaGamut-D55_to_ACES2065-1:1.0
# LUTr-Upstream-Name: Canon Log 3 Cinema Gamut (Daylight) to ACES2065-1
# LUTr-Upstream-Input-Descriptor: Canon Log 3 Cinema Gamut (Daylight)
# LUTr-Upstream-Output-Descriptor: ACES2065-1
# LUTr-Upstream-Builtin-Transform: CANON_CLOG3-CGAMUT_to_ACES2065-1
# LUTr-Upstream-Operations: LUT1D → Matrix
# LUTr-Note: Preserve this metadata and the upstream license notices when redistributing.
TITLE "Canon.Input.CanonLog3 CinemaGamut-D55 to ACES2065-1"
LUT_3D_SIZE 9
DOMAIN_MIN 0 0 0
DOMAIN_MAX 1 1 1
-0.073813342 -0.073813342 -0.073813342
-0.017531483 -0.073543577 -0.074507239
0.038678951 -0.073274153 -0.075200255
0.16001439 -0.072692578 -0.076696196
0.42568175 -0.071419204 -0.079971599
1.0073678 -0.068631115 -0.087143185
2.2809855 -0.062526517 -0.10284557
5.069607 -0.04916033 -0.13722638
11.175371 -0.019894693 -0.21250413
-0.062821888 0.0078334809 -0.089920787
-0.0065400285 0.0081032464 -0.090614684
0.049670405 0.0083726695 -0.0913077
0.17100585 0.0089542444 -0.09280364
0.4366732 0.010227619 -0.096079044
1.0183592 0.013015708 -0.10325063
2.2919769 0.019120306 -0.11895302
5.0805984 0.032486493 -0.15333383
11.186362 0.061752129 -0.22861157
-0.051844382 0.089376688 -0.10600779
0.0044374768 0.089646454 -0.10670169
0.060647911 0.089915877 -0.1073947
0.18198335 0.090497452 -0.10889064
0.44765071 0.091770826 -0.11216605
1.0293367 0.094558915 -0.11933763
2.3029544 0.10066351 -0.13504002
5.0915759 0.1140297 -0.16942083
11.19734 0.14329534 -0.24469857
-0.028148417 0.26539528 -0.14073308
0.028133442 0.26566504 -0.14142698
0.084343876 0.26593447 -0.14211999
0.20567932 0.26651604 -0.14361593
0.47134667 0.26778942 -0.14689134
1.0530327 0.2705775 -0.15406292
2.3266504 0.2766821 -0.16976531
5.1152719 0.29004829 -0.20414612
11.221036 0.31931393 -0.27942387
0.023734562 0.65079291 -0.21676508
0.080016422 0.65106268 -0.21745898
0.13622686 0.6513321 -0.21815199
0.2575623 0.65191368 -0.21964793
0.52322965 0.65318705 -0.22292334
1.1049157 0.65597514 -0.23009492
2.3785334 0.66207974 -0.24579731
5.1671549 0.67544592 -0.28017812
11.272919 0.70471156 -0.35545586
0.13733378 1.4946317 -0.38323924
0.19361564 1.4949014 -0.38393313
0.24982607 1.4951709 -0.38462615
0.37116152 1.4957524 -0.38612209
0.63682887 1.4970258 -0.38939749
1.2185149 1.4998139 -0.39656908
2.4921326 1.5059185 -0.41227147
5.2807541 1.5192847 -0.44665228
11.386518 1.5485503 -0.52193002
0.38606243 3.3422401 -0.74773904
0.44234429 3.3425099 -0.74843294
0.49855472 3.3427793 -0.74912596
0.61989016 3.3433609 -0.7506219
0.88555752 3.3446343 -0.7538973
1.4672435 3.3474224 -0.76106889
2.7408612 3.353527 -0.77677127
5.5294827 3.3668932 -0.81115209
11.635247 3.3961588 -0.88642983
0.93066074 7.3876304 -1.5458215
0.9869426 7.3879002 -1.5465154
1.043153 7.3881696 -1.5472084
1.1644885 7.3887512 -1.5487044
1.4301558 7.3900245 -1.5519798
2.0118418 7.3928126 -1.5591514
3.2854596 7.3989172 -1.5748538
6.074081 7.4122834 -1.6092346
12.179845 7.441549 -1.6845123
2.1230738 16.245124 -3.2932452
2.1793557 16.245394 -3.2939391
2.2355661 16.245663 -3.2946321
2.3569015 16.246245 -3.2961281
2.6225689 16.247518 -3.2994035
3.2042549 16.250306 -3.3065751
4.4778726 16.256411 -3.3222774
7.2664941 16.269777 -3.3566583
13.372258 16.299043 -3.431936
-0.067328982 -0.081972256 0.016745674
-0.011047122 -0.081702491 0.016051777
0.045163312 -0.081433068 0.01535876
0.16649876 -0.080851493 0.01386282
0.43216611 -0.079578118 0.010587417
1.0138521 -0.07679003 0.003415831
2.2874698 -0.070685432 -0.012286556
5.0760913 -0.057319244 -0.046667369
11.181855 -0.028053608 -0.12194511
-0.056337527 -0.00032543349 0.00063822901
-0.000055667993 -0.000055667993 -0.000055667993
0.056154766 0.00021375516 -0.0007486844
0.17749021 0.00079533005 -0.0022446247
0.44315756 0.0020687046 -0.0055200279
1.0248436 0.0048567933 -0.012691614
2.2984613 0.010961391 -0.028394
5.0870828 0.024327578 -0.062774814
11.192847 0.053593215 -0.13805256
-0.045360022 0.081217774 -0.015448774
0.010921837 0.081487539 -0.016142671
0.067132271 0.081756963 -0.016835688
0.18846771 0.082338538 -0.018331628
0.45413507 0.083611912 -0.021607031
1.0358211 0.086400001 -0.028778617
2.3094388 0.092504599 -0.044481004
5.0980603 0.10587079 -0.078861817
11.203824 0.13513642 -0.15413956
-0.021664057 0.25723636 -0.050174065
0.034617802 0.25750613 -0.050867962
0.090828236 0.25777555 -0.051560979
0.21216368 0.25835713 -0.053056919
0.47783103 0.2596305 -0.056332322
1.059517 0.26241859 -0.063503908
2.3331348 0.26852319 -0.079206294
5.1217563 0.28188938 -0.11358711
11.22752 0.31115501 -0.18886485
0.030218923 0.642634 -0.12620606
0.086500782 0.64290376 -0.12689996
0.14271122 0.64317319 -0.12759298
0.26404666 0.64375476 -0.12908892
0.52971401 0.64502814 -0.13236432
1.1114 0.64781623 -0.13953591
2.3850177 0.65392082 -0.15523829
5.1736392 0.66728701 -0.18961911
11.279403 0.69655265 -0.26489685
0.14381814 1.4864728 -0.29268022
0.2001 1.4867425 -0.29337412
0.25631043 1.4870119 -0.29406713
0.37764588 1.4875935 -0.29556307
0.64331323 1.4888669 -0.29883848
1.2249992 1.491655 -0.30601006
2.498617 1.4977596 -0.32171245
5.2872384 1.5111258 -0.35609326
11.393002 1.5403914 -0.43137101
0.39254679 3.3340812 -0.65718003
0.44882865 3.334351 -0.65787393
0.50503908 3.3346204 -0.65856694
0.62637453 3.335202 -0.66006288
0.89204188 3.3364754 -0.66333829
1.4737279 3.3392635 -0.67050987
2.7473456 3.3453681 -0.68621226
5.5359671 3.3587342 -0.72059307
11.641731 3.3879999 -0.79587081
0.9371451 7.3794715 -1.4552625
0.99342696 7.3797413 -1.4559564
1.0496374 7.3800107 -1.4566494
1.1709728 7.3805922 -1.4581454
1.4366402 7.3818656 -1.4614208
2.0183262 7.3846537 -1.4685924
3.2919439 7.3907583 -1.4842947
6.0805654 7.4041245 -1.5186756
12.186329 7.4333901 -1.5939533
2.1295582 16.236965 -3.2026862
2.18584 16.237235 -3.2033801
2.2420505 16.237505 -3.2040731
2.3633859 16.238086 -3.2055691
2.6290533 16.239359 -3.2088445
3.2107393 16.242148 -3.216016
4.484357 16.248252 -3.2317184
7.2729785 16.261618 -3.2660992
13.378742 16.290884 -3.341377
-0.06085285 -0.090120817 0.10718976
-0.0045709908 -0.089851051 0.10649587
0.051639443 -0.089581628 0.10580285
0.17297489 -0.089000053 0.10430691
0.43864224 -0.087726678 0.10103151
1.0203282 -0.08493859 0.093859921
2.293946 -0.078833992 0.078157534
5.0825675 -0.065467805 0.043776721
11.188331 -0.036202168 -0.031501021
-0.049861396 -0.0084739936 0.091082319
0.0064204634 -0.0082042281 0.090388422
0.062630897 -0.007934805 0.089695406
0.18396634 -0.0073532301 0.088199465
0.4496337 -0.0060798556 0.084924062
1.0313197 -0.0032917669 0.077752476
2.3049374 0.002812831 0.06205009
5.0935589 0.016179018 0.027669276
11.199323 0.045444655 -0.047608466
-0.038883891 0.073069214 0.074995316
0.017397969 0.073338979 0.074301419
0.073608402 0.073608403 0.073608403
0.19494385 0.074189977 0.072112462
0.4606112 0.075463352 0.068837059
1.0422972 0.078251441 0.061665473
2.3159149 0.084356039 0.045963087
5.1045364 0.097722226 0.011582273
11.2103 0.12698786 -0.063695469
-0.015187925 0.2490878 0.040270025
0.041093934 0.24935757 0.039576128
0.097304368 0.24962699 0.038883112
0.21863981 0.25020857 0.037387171
0.48430717 0.25148194 0.034111768
1.0659932 0.25427003 0.026940182
2.3396109 0.26037463 0.011237796
5.1282324 0.27374082 -0.023143018
11.233996 0.30300645 -0.09842076
0.036695054 0.63448544 -0.035761973
0.092976914 0.6347552 -0.03645587
0.14918735 0.63502463 -0.037148886
0.27052279 0.6356062 -0.038644827
0.53619015 0.63687958 -0.04192023
1.1178762 0.63966767 -0.049091816
2.3914939 0.64577226 -0.064794202
5.1801154 0.65913845 -0.099175016
11.285879 0.68840409 -0.17445276
0.15029427 1.4783242 -0.20223613
0.20657613 1.478594 -0.20293003
0.26278656 1.4788634 -0.20362304
0.38412201 1.479445 -0.20511898
0.64978936 1.4807183 -0.20839439
1.2314754 1.4835064 -0.21556597
2.5050931 1.489611 -0.23126836
5.2937146 1.5029772 -0.26564917
11.399478 1.5322428 -0.34092692
0.39902292 3.3259327 -0.56673594
0.45530478 3.3262024 -0.56742984
0.51151521 3.3264719 -0.56812285
0.63285066 3.3270534 -0.56961879
0.89851801 3.3283268 -0.57289419
1.480204 3.3311149 -0.58006578
2.7538217 3.3372195 -0.59576817
5.5424432 3.3505857 -0.63014898
11.648207 3.3798513 -0.70542672
0.94362123 7.3713229 -1.3648184
0.99990309 7.3715927 -1.3655123
1.0561135 7.3718621 -1.3662053
1.177449 7.3724437 -1.3677013
1.4431163 7.3737171 -1.3709767
2.0248023 7.3765052 -1.3781483
3.29842 7.3826098 -1.3938507
6.0870415 7.3959759 -1.4282315
12.192805 7.4252416 -1.5035092
2.1360343 16.228817 -3.1122421
2.1923162 16.229087 -3.112936
2.2485266 16.229356 -3.113629
2.369862 16.229938 -3.115125
2.6355294 16.231211 -3.1184004
3.2172154 16.233999 -3.1255719
4.4908331 16.240104 -3.1412743
7.2794546 16.25347 -3.1756552
13.385219 16.282735 -3.2509329
-0.046873519 -0.10771024 0.30242173
0.0094083404 -0.10744048 0.30172784
0.065618774 -0.10717105 0.30103482
0.18695422 -0.10658948 0.29953888
0.45262157 -0.1053161 0.29626348
1.0343076 -0.10252801 0.28909189
2.3079253 -0.096423416 0.27338951
5.0965468 -0.083057229 0.23900869
11.202311 -0.053791592 0.16373095
-0.035882065 -0.026063418 0.28631429
0.020399795 -0.025793652 0.28562039
0.076610228 -0.025524229 0.28492738
0.19794567 -0.024942654 0.28343144
0.46361303 -0.02366928 0.28015603
1.045299 -0.020881191 0.27298445
2.3189168 -0.014776593 0.25728206
5.1075382 -0.0014104059 0.22290125
11.213302 0.027855231 0.14762351
-0.024904559 0.05547979 0.27022729
0.0313773 0.055749555 0.26953339
0.087587734 0.056018978 0.26884037
0.20892318 0.056600553 0.26734443
0.47459053 0.057873928 0.26406903
1.0562765 0.060662017 0.25689744
2.3298943 0.066766614 0.24119506
5.1185157 0.080132802 0.20681424
11.22428 0.10939844 0.1315365
-0.0012085942 0.23149838 0.235502
0.055073265 0.23176814 0.2348081
0.1112837 0.23203757 0.23411508
0.23261914 0.23261914 0.23261914
0.4982865 0.23389252 0.22934374
1.0799725 0.23668061 0.22217215
2.3535902 0.2427852 0.20646977
5.1422117 0.25615139 0.17208895
11.247976 0.28541703 0.096811211
0.050674386 0.61689601 0.15947
0.10695624 0.61716578 0.1587761
0.16316668 0.6174352 0.15808308
0.28450212 0.61801678 0.15658714
0.55016948 0.61929015 0.15331174
1.1318555 0.62207824 0.14614016
2.4054732 0.62818284 0.13043777
5.1940947 0.64154903 0.096056955
11.299859 0.67081466 0.020779213
0.1642736 1.4607348 -0.0070041596
0.22055546 1.4610045 -0.0076980566
0.2767659 1.461274 -0.008391073
0.39810134 1.4618555 -0.0098870133
0.66376869 1.4631289 -0.013162417
1.2454547 1.465917 -0.020334002
2.5190724 1.4720216 -0.036036389
5.3076939 1.4853878 -0.070417202
11.413458 1.5146534 -0.14569494
0.41300225 3.3083432 -0.37150397
0.46928411 3.308613 -0.37219786
0.52549454 3.3088824 -0.37289088
0.64682999 3.309464 -0.37438682
0.91249734 3.3107374 -0.37766222
1.4941833 3.3135255 -0.38483381
2.7678011 3.3196301 -0.4005362
5.5564226 3.3329963 -0.43491701
11.662186 3.3622619 -0.51019475
0.95760056 7.3537335 -1.1695865
1.0138824 7.3540033 -1.1702804
1.0700929 7.3542727 -1.1709734
1.1914283 7.3548543 -1.1724693
1.4570957 7.3561276 -1.1757447
2.0387817 7.3589157 -1.1829163
3.3123994 7.3650203 -1.1986187
6.1010209 7.3783865 -1.2329995
12.206785 7.4076522 -1.3082772
2.1500136 16.211227 -2.9170101
2.2062955 16.211497 -2.917704
2.2625059 16.211767 -2.918397
2.3838414 16.212348 -2.919893
2.6495087 16.213622 -2.9231684
3.2311947 16.21641 -2.93034
4.5048124 16.222514 -2.9460424
7.2934339 16.23588 -2.9804232
13.399198 16.265146 -3.0557009
-0.016265381 -0.14622278 0.72988761
0.040016478 -0.14595301 0.72919371
0.096226912 -0.14568359 0.7285007
0.21756236 -0.14510201 0.72700475
0.48322971 -0.14382864 0.72372935
1.0649157 -0.14104055 0.71655777
2.3385334 -0.13493595 0.70085538
5.1271549 -0.12156977 0.66647457
11.232919 -0.092304129 0.59119682
-0.005273927 -0.064575955 0.71378016
0.051007932 -0.064306189 0.71308627
0.10721837 -0.064036766 0.71239325
0.22855381 -0.063455191 0.71089731
0.49422116 -0.062181817 0.70762191
1.0759072 -0.059393728 0.70045032
2.3495249 -0.05328913 0.68474793
5.1381464 -0.039922943 0.65036712
11.24391 -0.010657306 0.57508938
0.0057035784 0.016967253 0.69769316
0.061985438 0.017237018 0.69699926
0.11819587 0.017506441 0.69630625
0.23953132 0.018088016 0.69481031
0.50519867 0.019361391 0.6915349
1.0868847 0.022149479 0.68436332
2.3605024 0.028254077 0.66866093
5.1491239 0.041620264 0.63428012
11.254888 0.070885901 0.55900238
0.029399543 0.19298584 0.66296787
0.085681403 0.19325561 0.66227397
0.14189184 0.19352503 0.66158096
0.26322728 0.19410661 0.66008502
0.52889464 0.19537998 0.65680961
1.1105806 0.19816807 0.64963803
2.3841984 0.20427267 0.63393564
5.1728199 0.21763885 0.59955483
11.278584 0.24690449 0.52427708
0.081282523 0.57838348 0.58693587
0.13756438 0.57865324 0.58624197
0.19377482 0.57892267 0.58554896
0.31511026 0.57950424 0.58405302
0.58077761 0.58077762 0.58077762
1.1624636 0.5835657 0.57360603
2.4360813 0.5896703 0.55790364
5.2247028 0.60303649 0.52352283
11.330467 0.63230213 0.44824509
0.19488174 1.4222222 0.42046171
0.2511636 1.422492 0.41976782
0.30737403 1.4227614 0.4190748
0.42870948 1.423343 0.41757886
0.69437683 1.4246164 0.41430346
1.2760628 1.4274045 0.40713187
2.5496806 1.4335091 0.39142948
5.338302 1.4468752 0.35704867
11.444066 1.4761409 0.28177093
0.44361039 3.2698307 0.055961907
0.49989225 3.2701005 0.05526801
0.55610268 3.2703699 0.054574993
0.67743813 3.2709515 0.053079053
0.94310548 3.2722249 0.04980365
1.5247915 3.2750129 0.042632064
2.7984092 3.2811175 0.026929677
5.5870307 3.2944837 -0.0074511361
11.692795 3.3237494 -0.082728878
0.9882087 7.315221 -0.74212058
1.0444906 7.3154907 -0.74281448
1.100701 7.3157602 -0.74350749
1.2220364 7.3163417 -0.74500343
1.4877038 7.3176151 -0.74827884
2.0693898 7.3204032 -0.75545042
3.3430075 7.3265078 -0.77115281
6.131629 7.339874 -0.80553362
12.237393 7.3691396 -0.88081137
2.1806218 16.172715 -2.4895443
2.2369036 16.172985 -2.4902382
2.2931141 16.173254 -2.4909312
2.4144495 16.173836 -2.4924271
2.6801169 16.175109 -2.4957025
3.2618029 16.177897 -2.5028741
4.5354206 16.184002 -2.5185765
7.3240421 16.197368 -2.5529573
13.429806 16.226633 -2.628235
0.050751981 -0.23054704 1.6658359
0.10703384 -0.23027728 1.665142
0.16324427 -0.23000785 1.664449
0.28457972 -0.22942628 1.6629531
0.55024707 -0.2281529 1.6596777
1.1319331 -0.22536481 1.6525061
2.4055508 -0.21926022 1.6368037
5.1941723 -0.20589403 1.6024229
11.299936 -0.17662839 1.5271452
0.061743435 -0.14890022 1.6497285
0.11802529 -0.14863045 1.6490346
0.17423573 -0.14836103 1.6483416
0.29557117 -0.14777945 1.6468456
0.56123853 -0.14650608 1.6435702
1.1429245 -0.14371799 1.6363986
2.4165423 -0.13761339 1.6206963
5.2051637 -0.12424721 1.5863154
11.310928 -0.09498157 1.5110377
0.072720941 -0.067357011 1.6336415
0.1290028 -0.067087245 1.6329476
0.18521323 -0.066817822 1.6322546
0.30654868 -0.066236247 1.6307586
0.57221603 -0.064962873 1.6274832
1.153902 -0.062174784 1.6203116
2.4275198 -0.056070186 1.6046093
5.2161412 -0.042703999 1.5702284
11.321905 -0.013438362 1.4949507
0.096416906 0.10866158 1.5989162
0.15269877 0.10893134 1.5982223
0.2089092 0.10920077 1.5975293
0.33024464 0.10978234 1.5960333
0.595912 0.11105572 1.5927579
1.177598 0.11384381 1.5855864
2.4512157 0.1199484 1.569884
5.2398372 0.13331459 1.5355032
11.345601 0.16258023 1.4602254
0.14829989 0.49405921 1.5228842
0.20458174 0.49432898 1.5221903
0.26079218 0.4945984 1.5214973
0.38212762 0.49517998 1.5200013
0.64779498 0.49645335 1.5167259
1.229481 0.49924144 1.5095544
2.5030987 0.50534604 1.493852
5.2917202 0.51871223 1.4594712
11.397484 0.54797786 1.3841934
0.2618991 1.337898 1.35641
0.31818096 1.3381677 1.3557161
0.37439139 1.3384372 1.3550231
0.49572684 1.3390187 1.3535272
0.76139419 1.3402921 1.3502518
1.3430802 1.3430802 1.3430802
2.6166979 1.3491848 1.3273778
5.4053194 1.362551 1.292997
11.511083 1.3918166 1.2177193
0.51062775 3.1855064 0.99191024
0.56690961 3.1857762 0.99121634
0.62312004 3.1860456 0.99052332
0.74445549 3.1866272 0.98902738
1.0101228 3.1879006 0.98575198
1.5918088 3.1906887 0.97858039
2.8654266 3.1967933 0.96287801
5.6540481 3.2101595 0.92849719
11.759812 3.2394251 0.85321945
1.0552261 7.2308967 0.19382775
1.1115079 7.2311665 0.19313385
1.1677184 7.2314359 0.19244084
1.2890538 7.2320175 0.19094489
1.5547212 7.2332908 0.18766949
2.1364072 7.2360789 0.18049791
3.4100249 7.2421835 0.16479552
6.1986464 7.2555497 0.13041471
12.30441 7.2848153 0.055136964
2.2476391 16.088391 -1.5535959
2.303921 16.08866 -1.5542898
2.3601314 16.08893 -1.5549828
2.4814669 16.089511 -1.5564788
2.7471342 16.090785 -1.5597542
3.3288202 16.093573 -1.5669258
4.6024379 16.099677 -1.5826282
7.3910594 16.113044 -1.617009
13.496823 16.142309 -1.6922867
0.19748836 -0.41517736 3.7151209
0.25377022 -0.4149076 3.714427
0.30998066 -0.41463818 3.713734
0.4313161 -0.4140566 3.712238
0.69698345 -0.41278323 3.7089626
1.2786695 -0.40999514 3.701791
2.5522872 -0.40389054 3.6860887
5.3409087 -0.39052435 3.6517078
11.446673 -0.36125872 3.5764301
0.20847982 -0.33353054 3.6990134
0.26476168 -0.33326078 3.6983195
0.32097211 -0.33299135 3.6976265
0.44230755 -0.33240978 3.6961306
0.70797491 -0.3311364 3.6928552
1.2896609 -0.32834832 3.6856836
2.5632786 -0.32224372 3.6699812
5.3519001 -0.30887753 3.6356004
11.457664 -0.27961189 3.5603227
0.21945732 -0.25198733 3.6829264
0.27573918 -0.25171757 3.6822325
0.33194962 -0.25144815 3.6815395
0.45328506 -0.25086657 3.6800436
0.71895241 -0.2495932 3.6767682
1.3006384 -0.24680511 3.6695966
2.5742561 -0.24070051 3.6538942
5.3628776 -0.22733432 3.6195134
11.468642 -0.19806869 3.5442356
0.24315329 -0.075968745 3.6482011
0.29943515 -0.07569898 3.6475072
0.35564558 -0.075429556 3.6468142
0.47698102 -0.074847982 3.6453183
0.74264838 -0.073574607 3.6420429
1.3243344 -0.070786518 3.6348713
2.5979521 -0.06468192 3.6191689
5.3865736 -0.051315733 3.5847881
11.492337 -0.022050096 3.5095104
0.29503627 0.30942889 3.5721691
0.35131813 0.30969866 3.5714752
0.40752856 0.30996808 3.5707822
0.528864 0.31054965 3.5692863
0.79453136 0.31182303 3.5660109
1.3762174 0.31461112 3.5588393
2.6498351 0.32071571 3.5431369
5.4384566 0.3340819 3.5087561
11.54422 0.36334754 3.4334784
0.40863548 1.1532676 3.405695
0.46491734 1.1535374 3.4050011
0.52112778 1.1538068 3.4043081
0.64246322 1.1543884 3.4028121
0.90813058 1.1556618 3.3995367
1.4898166 1.1584499 3.3923651
2.7634343 1.1645545 3.3766628
5.5520558 1.1779207 3.3422819
11.65782 1.2071863 3.2670042
0.65736413 3.0008761 3.0411952
0.71364599 3.0011459 3.0405013
0.76985643 3.0014153 3.0398083
0.89119187 3.0019969 3.0383123
1.1568592 3.0032703 3.0350369
1.7385452 3.0060584 3.0278653
3.0121629 3.012163 3.012163
5.8007844 3.0255291 2.9777821
11.906548 3.0547948 2.9025044
1.2019624 7.0462664 2.2431127
1.2582443 7.0465361 2.2424188
1.3144547 7.0468056 2.2417258
1.4357902 7.0473871 2.2402298
1.7014575 7.0486605 2.2369544
2.2831435 7.0514486 2.2297828
3.5567613 7.0575532 2.2140805
6.3453828 7.0709194 2.1796996
12.451147 7.100185 2.1044219
2.3943755 15.90376 0.49568901
2.4506574 15.90403 0.49499511
2.5068678 15.904299 0.4943021
2.6282032 15.904881 0.49280616
2.8938706 15.906154 0.48953075
3.4755566 15.908942 0.48235917
4.7491743 15.915047 0.46665678
7.5377958 15.928413 0.43227597
13.64356 15.957679 0.35699823
0.51877176 -0.8194306 8.2020874
0.57505362 -0.81916084 8.2013935
0.63126405 -0.81889142 8.2007005
0.7525995 -0.81830984 8.1992045
1.0182669 -0.81703647 8.1959291
1.5999529 -0.81424838 8.1887575
2.8735706 -0.80814378 8.1730552
5.6621921 -0.79477759 8.1386743
11.767956 -0.76551196 8.0633966
0.52976322 -0.73778378 8.1859799
0.58604507 -0.73751402 8.185286
0.64225551 -0.73724459 8.184593
0.76359095 -0.73666302 8.1830971
1.0292583 -0.73538964 8.1798217
1.6109443 -0.73260155 8.1726501
2.884562 -0.72649696 8.1569477
5.6731835 -0.71313077 8.1225669
11.778947 -0.68386513 8.0472892
0.54074072 -0.65624057 8.1698929
0.59702258 -0.65597081 8.169199
0.65323301 -0.65570139 8.168506
0.77456846 -0.65511981 8.1670101
1.0402358 -0.65384644 8.1637347
1.6219218 -0.65105835 8.1565631
2.8955395 -0.64495375 8.1408607
5.684161 -0.63158756 8.1064799
11.789925 -0.60232193 8.0312021
0.56443669 -0.48022198 8.1351676
0.62071854 -0.47995222 8.1344737
0.67692898 -0.4796828 8.1337807
0.79826442 -0.47910122 8.1322848
1.0639318 -0.47782785 8.1290094
1.6456178 -0.47503976 8.1218378
2.9192355 -0.46893516 8.1061354
5.707857 -0.45556897 8.0717546
11.813621 -0.42630334 7.9964769
0.61631967 -0.09482435 8.0591356
0.67260152 -0.094554584 8.0584417
0.72881196 -0.094285161 8.0577487
0.8501474 -0.093703586 8.0562528
1.1158148 -0.092430211 8.0529774
1.6975008 -0.089642123 8.0458058
2.9711185 -0.083537525 8.0301034
5.75974 -0.070171338 7.9957226
11.865504 -0.040905701 7.9204449
0.72991888 0.74901441 7.8926615
0.78620074 0.74928418 7.8919676
0.84241117 0.7495536 7.8912746
0.96374662 0.75013517 7.8897786
1.229414 0.75140855 7.8865032
1.8111 0.75419664 7.8793316
3.0847177 0.76030123 7.8636293
5.8733392 0.77366742 7.8292484
11.979103 0.80293306 7.7539707
0.97864753 2.5966229 7.5281617
1.0349294 2.5968927 7.5274678
1.0911398 2.5971621 7.5267748
1.2124753 2.5977436 7.5252788
1.4781426 2.599017 7.5220034
2.0598286 2.6018051 7.5148318
3.3334463 2.6079097 7.4991295
6.1220678 2.6212759 7.4647486
12.227832 2.6505415 7.3894709
1.5232458 6.6420131 6.7300792
1.5795277 6.6422829 6.7293853
1.6357381 6.6425523 6.7286923
1.7570736 6.6431339 6.7271963
2.0227409 6.6444073 6.7239209
2.6044269 6.6471954 6.7167494
3.8780447 6.6533 6.701047
6.6666661 6.6666662 6.6666662
12.77243 6.6959318 6.5913884
2.7156589 15.499507 4.9826555
2.7719408 15.499777 4.9819616
2.8281512 15.500046 4.9812686
2.9494866 15.500628 4.9797727
3.215154 15.501901 4.9764973
3.79684 15.504689 4.9693257
5.0704577 15.510794 4.9536233
7.8590792 15.52416 4.9192425
13.964843 15.553426 4.8439647
1.2222306 -1.7045543 18.026425
1.2785125 -1.7042845 18.025731
1.3347229 -1.7040151 18.025038
1.4560584 -1.7034335 18.023542
1.7217257 -1.7021601 18.020266
2.3034117 -1.699372 18.013095
3.5770295 -1.6932674 17.997392
6.365651 -1.6799012 17.963012
12.471415 -1.6506356 17.887734
1.2332221 -1.6229074 18.010317
1.289504 -1.6226377 18.009623
1.3457144 -1.6223682 18.00893
1.4670498 -1.6217867 18.007434
1.7327172 -1.6205133 18.004159
2.3144032 -1.6177252 17.996987
3.5880209 -1.6116206 17.981285
6.3766424 -1.5982544 17.946904
12.482406 -1.5689888 17.871626
1.2441996 -1.5413642 17.99423
1.3004815 -1.5410945 17.993536
1.3566919 -1.540825 17.992843
1.4780273 -1.5402435 17.991347
1.7436947 -1.5389701 17.988072
2.3253807 -1.536182 17.9809
3.5989984 -1.5300774 17.965198
6.3876199 -1.5167112 17.930817
12.493384 -1.4874456 17.855539
1.2678956 -1.3653456 17.959505
1.3241774 -1.3650759 17.958811
1.3803879 -1.3648064 17.958118
1.5017233 -1.3642249 17.956622
1.7673907 -1.3629515 17.953347
2.3490767 -1.3601634 17.946175
3.6226944 -1.3540588 17.930473
6.4113159 -1.3406926 17.896092
12.51708 -1.311427 17.820814
1.3197786 -0.979948 17.883473
1.3760604 -0.97967823 17.882779
1.4322708 -0.97940881 17.882086
1.5536063 -0.97882724 17.88059
1.8192736 -0.97755386 17.877315
2.4009597 -0.97476577 17.870143
3.6745774 -0.96866118 17.854441
6.4631989 -0.95529499 17.82006
12.568963 -0.92602935 17.744782
1.4333778 -0.13610924 17.716999
1.4896596 -0.13583948 17.716305
1.5458701 -0.13557005 17.715612
1.6672055 -0.13498848 17.714116
1.9328729 -0.1337151 17.710841
2.5145589 -0.13092701 17.703669
3.7881766 -0.12482242 17.687967
6.5767981 -0.11145623 17.653586
12.682562 -0.082190592 17.578308
1.6821064 1.7114992 17.352499
1.7383883 1.711769 17.351805
1.7945987 1.7120384 17.351112
1.9159342 1.71262 17.349616
2.1816015 1.7138934 17.346341
2.7632875 1.7166815 17.339169
4.0369052 1.7227861 17.323467
6.8255267 1.7361522 17.289086
12.931291 1.7654179 17.213808
2.2267047 5.7568895 16.554416
2.2829866 5.7571593 16.553723
2.339197 5.7574287 16.55303
2.4605325 5.7580103 16.551534
2.7261998 5.7592836 16.548258
3.3078858 5.7620717 16.541087
4.5815035 5.7681763 16.525384
7.370125 5.7815425 16.491003
13.475889 5.8108081 16.415726
3.4191178 14.614383 14.806993
3.4753997 14.614653 14.806299
3.5316101 14.614923 14.805606
3.6529455 14.615504 14.80411
3.9186129 14.616777 14.800835
4.5002989 14.619566 14.793663
5.7739166 14.62567 14.777961
8.5625381 14.639036 14.74358
14.668302 14.668302 14.668302
