site/assets/luts/ocio-aces--ocioutilityst2084-curve--fcffeddee.cube
# LUTr-Project: LUTr — LUTrepository
# LUTr-Schema-Version: 1
# LUTr-ID: ocio-aces--ocioutilityst2084-curve--fcffeddee
# LUTr-Title: OCIO.Utility.ST2084-Curve
# LUTr-Collection: OCIO ACES
# LUTr-Collection-ID: aswf-opencolorio-config-aces
# LUTr-Source: https://github.com/AcademySoftwareFoundation/OpenColorIO-Config-ACES
# LUTr-Source-File: submissions/aswf-opencolorio-config-aces/opencolorio_config_aces/clf/transforms/ocio/utility/OCIO.Utility.ST2084-Curve.clf
# LUTr-Source-Format: CLF
# LUTr-Source-SHA256: c1dfd2bfede99f15c5b80adf7cdd810273a0a5112ca541d15236cfa8c81fa282
# LUTr-License: BSD-3-Clause
# LUTr-License-URL: https://github.com/AcademySoftwareFoundation/OpenColorIO-Config-ACES/blob/main/LICENSE
# LUTr-Tags: technical, aces, ocio, clf, color-management, cube
# LUTr-Transform-Class: color-space-conversion
# LUTr-Input-Color-Space: generic linear RGB
# LUTr-Output-Color-Space: generic ST.2084 (PQ) encoded RGB mapping 1.0 to 100nits
# LUTr-Color-Space-Confidence: descriptor-only
# LUTr-Conversion-Method: CLF operations evaluated as float and sampled to 33x33x33 3D CUBE
# LUTr-Conversion-Date: 2026-07-27
# LUTr-Conversion-Tool: LUTr scripts/convert-all-to-cube.mjs
# LUTr-Conversion-Grid: 33x33x33
# LUTr-Conversion-Warning: A sampled 3D CUBE is bounded to DOMAIN_MIN/MAX 0..1 and cannot preserve CLF values outside its input domain.
# LUTr-Upstream-ID: urn:aswf:ocio:transformId:1.0:OCIO:Utility:Linear_to_ST2084-Curve:1.0
# LUTr-Upstream-Name: Linear to ST.2084
# LUTr-Upstream-Input-Descriptor: generic linear RGB
# LUTr-Upstream-Output-Descriptor: generic ST.2084 (PQ) encoded RGB mapping 1.0 to 100nits
# LUTr-Upstream-Builtin-Transform: CURVE - LINEAR_to_ST-2084
# LUTr-Upstream-Operations: LUT1D
# LUTr-Note: Preserve this metadata and the upstream license notices when redistributing.
TITLE "OCIO.Utility.ST2084-Curve"
LUT_3D_SIZE 5
DOMAIN_MIN 0 0 0
DOMAIN_MAX 1 1 1
7.3095589e-7 7.3095589e-7 7.3095589e-7
0.37654707 7.3095589e-7 7.3095589e-7
0.44028157 7.3095589e-7 7.3095589e-7
0.47949675 7.3095589e-7 7.3095589e-7
0.5080784 7.3095589e-7 7.3095589e-7
7.3095589e-7 0.37654707 7.3095589e-7
0.37654707 0.37654707 7.3095589e-7
0.44028157 0.37654707 7.3095589e-7
0.47949675 0.37654707 7.3095589e-7
0.5080784 0.37654707 7.3095589e-7
7.3095589e-7 0.44028157 7.3095589e-7
0.37654707 0.44028157 7.3095589e-7
0.44028157 0.44028157 7.3095589e-7
0.47949675 0.44028157 7.3095589e-7
0.5080784 0.44028157 7.3095589e-7
7.3095589e-7 0.47949675 7.3095589e-7
0.37654707 0.47949675 7.3095589e-7
0.44028157 0.47949675 7.3095589e-7
0.47949675 0.47949675 7.3095589e-7
0.5080784 0.47949675 7.3095589e-7
7.3095589e-7 0.5080784 7.3095589e-7
0.37654707 0.5080784 7.3095589e-7
0.44028157 0.5080784 7.3095589e-7
0.47949675 0.5080784 7.3095589e-7
0.5080784 0.5080784 7.3095589e-7
7.3095589e-7 7.3095589e-7 0.37654707
0.37654707 7.3095589e-7 0.37654707
0.44028157 7.3095589e-7 0.37654707
0.47949675 7.3095589e-7 0.37654707
0.5080784 7.3095589e-7 0.37654707
7.3095589e-7 0.37654707 0.37654707
0.37654707 0.37654707 0.37654707
0.44028157 0.37654707 0.37654707
0.47949675 0.37654707 0.37654707
0.5080784 0.37654707 0.37654707
7.3095589e-7 0.44028157 0.37654707
0.37654707 0.44028157 0.37654707
0.44028157 0.44028157 0.37654707
0.47949675 0.44028157 0.37654707
0.5080784 0.44028157 0.37654707
7.3095589e-7 0.47949675 0.37654707
0.37654707 0.47949675 0.37654707
0.44028157 0.47949675 0.37654707
0.47949675 0.47949675 0.37654707
0.5080784 0.47949675 0.37654707
7.3095589e-7 0.5080784 0.37654707
0.37654707 0.5080784 0.37654707
0.44028157 0.5080784 0.37654707
0.47949675 0.5080784 0.37654707
0.5080784 0.5080784 0.37654707
7.3095589e-7 7.3095589e-7 0.44028157
0.37654707 7.3095589e-7 0.44028157
0.44028157 7.3095589e-7 0.44028157
0.47949675 7.3095589e-7 0.44028157
0.5080784 7.3095589e-7 0.44028157
7.3095589e-7 0.37654707 0.44028157
0.37654707 0.37654707 0.44028157
0.44028157 0.37654707 0.44028157
0.47949675 0.37654707 0.44028157
0.5080784 0.37654707 0.44028157
7.3095589e-7 0.44028157 0.44028157
0.37654707 0.44028157 0.44028157
0.44028157 0.44028157 0.44028157
0.47949675 0.44028157 0.44028157
0.5080784 0.44028157 0.44028157
7.3095589e-7 0.47949675 0.44028157
0.37654707 0.47949675 0.44028157
0.44028157 0.47949675 0.44028157
0.47949675 0.47949675 0.44028157
0.5080784 0.47949675 0.44028157
7.3095589e-7 0.5080784 0.44028157
0.37654707 0.5080784 0.44028157
0.44028157 0.5080784 0.44028157
0.47949675 0.5080784 0.44028157
0.5080784 0.5080784 0.44028157
7.3095589e-7 7.3095589e-7 0.47949675
0.37654707 7.3095589e-7 0.47949675
0.44028157 7.3095589e-7 0.47949675
0.47949675 7.3095589e-7 0.47949675
0.5080784 7.3095589e-7 0.47949675
7.3095589e-7 0.37654707 0.47949675
0.37654707 0.37654707 0.47949675
0.44028157 0.37654707 0.47949675
0.47949675 0.37654707 0.47949675
0.5080784 0.37654707 0.47949675
7.3095589e-7 0.44028157 0.47949675
0.37654707 0.44028157 0.47949675
0.44028157 0.44028157 0.47949675
0.47949675 0.44028157 0.47949675
0.5080784 0.44028157 0.47949675
7.3095589e-7 0.47949675 0.47949675
0.37654707 0.47949675 0.47949675
0.44028157 0.47949675 0.47949675
0.47949675 0.47949675 0.47949675
0.5080784 0.47949675 0.47949675
7.3095589e-7 0.5080784 0.47949675
0.37654707 0.5080784 0.47949675
0.44028157 0.5080784 0.47949675
0.47949675 0.5080784 0.47949675
0.5080784 0.5080784 0.47949675
7.3095589e-7 7.3095589e-7 0.5080784
0.37654707 7.3095589e-7 0.5080784
0.44028157 7.3095589e-7 0.5080784
0.47949675 7.3095589e-7 0.5080784
0.5080784 7.3095589e-7 0.5080784
7.3095589e-7 0.37654707 0.5080784
0.37654707 0.37654707 0.5080784
0.44028157 0.37654707 0.5080784
0.47949675 0.37654707 0.5080784
0.5080784 0.37654707 0.5080784
7.3095589e-7 0.44028157 0.5080784
0.37654707 0.44028157 0.5080784
0.44028157 0.44028157 0.5080784
0.47949675 0.44028157 0.5080784
0.5080784 0.44028157 0.5080784
7.3095589e-7 0.47949675 0.5080784
0.37654707 0.47949675 0.5080784
0.44028157 0.47949675 0.5080784
0.47949675 0.47949675 0.5080784
0.5080784 0.47949675 0.5080784
7.3095589e-7 0.5080784 0.5080784
0.37654707 0.5080784 0.5080784
0.44028157 0.5080784 0.5080784
0.47949675 0.5080784 0.5080784
0.5080784 0.5080784 0.5080784
