site/assets/luts/ocio-aces--arriinputarri-logc3-ei800-to-aces2065-1--23f4446ea.cube
# LUTr-Project: LUTr — LUTrepository
# LUTr-Schema-Version: 1
# LUTr-ID: ocio-aces--arriinputarri-logc3-ei800-to-aces2065-1--23f4446ea
# LUTr-Title: ARRI.Input.ARRI LogC3 EI800 to ACES2065-1
# LUTr-Collection: OCIO ACES
# LUTr-Collection-ID: aswf-opencolorio-config-aces
# LUTr-Source: https://github.com/AcademySoftwareFoundation/OpenColorIO-Config-ACES
# LUTr-Source-File: submissions/aswf-opencolorio-config-aces/opencolorio_config_aces/clf/transforms/arri/input/ARRI.Input.ARRI_LogC3_EI800_to_ACES2065-1.clf
# LUTr-Source-Format: CLF
# LUTr-Source-SHA256: 464c151133fe306d28b8166eee9278e6b77e1275438e1100534b08394e1eef70
# LUTr-License: BSD-3-Clause
# LUTr-License-URL: https://github.com/AcademySoftwareFoundation/OpenColorIO-Config-ACES/blob/main/LICENSE
# LUTr-Tags: technical, aces, ocio, clf, color-management, cube
# LUTr-Transform-Class: color-space-conversion
# LUTr-Input-Color-Space: ARRI LogC3 (EI800)
# LUTr-Output-Color-Space: ACES2065-1
# LUTr-Color-Space-Confidence: descriptor-only
# LUTr-Conversion-Method: CLF operations evaluated as float and sampled to 33x33x33 3D CUBE
# LUTr-Conversion-Date: 2026-07-27
# LUTr-Conversion-Tool: LUTr scripts/convert-all-to-cube.mjs
# LUTr-Conversion-Grid: 33x33x33
# LUTr-Conversion-Warning: A sampled 3D CUBE is bounded to DOMAIN_MIN/MAX 0..1 and cannot preserve CLF values outside its input domain.
# LUTr-Upstream-ID: urn:aswf:ocio:transformId:1.0:ARRI:Input:ARRI_LogC3_EI800_to_ACES2065-1:1.0
# LUTr-Upstream-Name: ARRI LogC3 (EI800) to ACES2065-1
# LUTr-Upstream-Input-Descriptor: ARRI LogC3 (EI800)
# LUTr-Upstream-Output-Descriptor: ACES2065-1
# LUTr-Upstream-Operations: Log → Matrix
# LUTr-Note: Preserve this metadata and the upstream license notices when redistributing.
TITLE "ARRI.Input.ARRI LogC3 EI800 to ACES2065-1"
LUT_3D_SIZE 5
DOMAIN_MIN 0 0 0
DOMAIN_MAX 1 1 1
-0.017290485 -0.017290485 -0.017290485
0.022712369 -0.012267234 -0.017169541
0.34367736 0.028037083 -0.016199141
3.6384612 0.44177071 -0.0062377485
37.460219 4.6888471 0.096018375
-0.0034033029 0.042546929 -0.020969783
0.036599551 0.04757018 -0.020848839
0.35756455 0.087874498 -0.019878439
3.6523484 0.50160813 -0.0099170462
37.474106 4.7486846 0.092339077
0.10802123 0.52265556 -0.050490821
0.14802409 0.52767881 -0.050369877
0.46898908 0.56798313 -0.049399477
3.7637729 0.98171676 -0.039438084
37.585531 5.2287932 0.062818039
1.2518212 5.4510876 -0.35353146
1.2918241 5.4561108 -0.35341052
1.6127891 5.4964151 -0.35244012
4.9075729 5.9101488 -0.34247873
38.729331 10.157225 -0.2402226
12.993207 56.042642 -3.4643174
13.033209 56.047665 -3.4641965
13.354174 56.087969 -3.4632261
16.648958 56.501703 -3.4532647
50.470716 60.74878 -3.3510086
-0.012370569 -0.023341198 0.045077822
0.027632285 -0.018317947 0.045198766
0.34859728 0.02198637 0.046169166
3.6433811 0.43572 0.056130559
37.465139 4.6827964 0.15838668
0.0015166139 0.036496217 0.041398524
0.041519468 0.041519468 0.041519468
0.36248446 0.081823785 0.042489868
3.6572683 0.49555741 0.052451261
37.479026 4.7426338 0.15470738
0.11294115 0.51660485 0.011877486
0.152944 0.5216281 0.01199843
0.473909 0.56193242 0.01296883
3.7686928 0.97566605 0.022930223
37.590451 5.2227425 0.12518635
1.2567411 5.4450369 -0.29116316
1.296744 5.4500601 -0.29104221
1.617709 5.4903644 -0.29007181
4.9124928 5.9040981 -0.28011042
38.734251 10.151174 -0.1778543
12.998127 56.036591 -3.4019491
13.038129 56.041614 -3.4018282
13.359094 56.081919 -3.4008578
16.653878 56.495652 -3.3908964
50.475636 60.742729 -3.2886403
0.027104642 -0.071889407 0.5454932
0.067107496 -0.066866156 0.54561415
0.38807249 -0.026561839 0.54658455
3.6828563 0.38717179 0.55654594
37.504614 4.6342482 0.65880206
0.040991824 -0.012051992 0.5418139
0.080994678 -0.0070287411 0.54193485
0.40195967 0.033275576 0.54290525
3.6967435 0.44700921 0.55286664
37.518501 4.6940856 0.65512276
0.15241636 0.46805664 0.51229287
0.19241921 0.47307989 0.51241381
0.51338421 0.51338421 0.51338421
3.808168 0.92711784 0.5233456
37.629926 5.1741943 0.62560173
1.2962164 5.3964886 0.20925222
1.3362192 5.4015119 0.20937317
1.6571842 5.4418162 0.21034357
4.951968 5.8555498 0.22030496
38.773726 10.102626 0.32256108
13.037602 55.988043 -2.9015338
13.077605 55.993066 -2.9014128
13.39857 56.033371 -2.9004424
16.693353 56.447104 -2.890481
50.515111 60.694181 -2.7882249
0.43232728 -0.57024859 5.6823789
0.47233014 -0.56522534 5.6824998
0.79329513 -0.52492102 5.6834702
4.0880789 -0.11118739 5.6934316
37.909837 4.135889 5.7956878
0.44621447 -0.51041118 5.6786996
0.48621732 -0.50538793 5.6788205
0.80718232 -0.46508361 5.6797909
4.1019661 -0.051349978 5.6897523
37.923724 4.1957265 5.7920085
0.557639 -0.030302543 5.6491786
0.59764186 -0.025279292 5.6492995
0.91860685 0.015025025 5.6502699
4.2133907 0.42875866 5.6602313
38.035149 4.6758351 5.7624874
1.701439 4.8981295 5.3461379
1.7414419 4.9031527 5.3462589
2.0624068 4.943457 5.3472293
5.3571907 5.3571907 5.3571907
39.178949 9.6042671 5.4594468
13.442824 55.489684 2.2353519
13.482827 55.494707 2.2354729
13.803792 55.535011 2.2364433
17.098576 55.948745 2.2464047
50.920334 60.195821 2.3486608
4.5920364 -5.6860269 58.413761
4.6320392 -5.6810037 58.413882
4.9530042 -5.6406994 58.414853
8.247788 -5.2269657 58.424814
42.069546 -0.97988931 58.52707
4.6059235 -5.6261895 58.410082
4.6459264 -5.6211663 58.410203
4.9668914 -5.580862 58.411173
8.2616752 -5.1671283 58.421135
42.083433 -0.9200519 58.523391
4.7173481 -5.1460809 58.380561
4.7573509 -5.1410576 58.380682
5.0783159 -5.1007533 58.381652
8.3730997 -4.6870197 58.391614
42.194858 -0.43994326 58.49387
5.8611481 -0.21764889 58.07752
5.9011509 -0.21262564 58.077641
6.2221159 -0.17232132 58.078612
9.5168997 0.24141231 58.088573
43.338658 4.4884887 58.190829
17.602533 50.373905 54.966734
17.642536 50.378929 54.966855
17.963501 50.419233 54.967826
21.258285 50.832967 54.977787
55.080043 55.080043 55.080043
