site/assets/luts/ocio-aces--sonyinputlinear-venice-sgamut3-to-aces2065-1--bc32b4575.cube
# LUTr-Project: LUTr — LUTrepository
# LUTr-Schema-Version: 1
# LUTr-ID: ocio-aces--sonyinputlinear-venice-sgamut3-to-aces2065-1--bc32b4575
# LUTr-Title: Sony.Input.Linear Venice SGamut3 to ACES2065-1
# LUTr-Collection: OCIO ACES
# LUTr-Collection-ID: aswf-opencolorio-config-aces
# LUTr-Source: https://github.com/AcademySoftwareFoundation/OpenColorIO-Config-ACES
# LUTr-Source-File: submissions/aswf-opencolorio-config-aces/opencolorio_config_aces/clf/transforms/sony/input/Sony.Input.Linear_Venice_SGamut3_to_ACES2065-1.clf
# LUTr-Source-Format: CLF
# LUTr-Source-SHA256: 6a34694cf6483e8047e51ac733095a1a0320f813fab567669baec1df4a2f4e58
# LUTr-License: BSD-3-Clause
# LUTr-License-URL: https://github.com/AcademySoftwareFoundation/OpenColorIO-Config-ACES/blob/main/LICENSE
# LUTr-Tags: technical, aces, ocio, clf, color-management, cube
# LUTr-Transform-Class: color-space-conversion
# LUTr-Input-Color-Space: Linear Venice S-Gamut3
# LUTr-Output-Color-Space: ACES2065-1
# LUTr-Color-Space-Confidence: descriptor-only
# LUTr-Conversion-Method: CLF operations evaluated as float and sampled to 33x33x33 3D CUBE
# LUTr-Conversion-Date: 2026-07-27
# LUTr-Conversion-Tool: LUTr scripts/convert-all-to-cube.mjs
# LUTr-Conversion-Grid: 33x33x33
# LUTr-Conversion-Warning: A sampled 3D CUBE is bounded to DOMAIN_MIN/MAX 0..1 and cannot preserve CLF values outside its input domain.
# LUTr-Upstream-ID: urn:aswf:ocio:transformId:1.0:Sony:Input:Linear_Venice_SGamut3_to_ACES2065-1:1.0
# LUTr-Upstream-Name: Linear Venice S-Gamut3 to ACES2065-1
# LUTr-Upstream-Input-Descriptor: Linear Venice S-Gamut3
# LUTr-Upstream-Output-Descriptor: ACES2065-1
# LUTr-Upstream-Operations: Matrix
# LUTr-Note: Preserve this metadata and the upstream license notices when redistributing.
TITLE "Sony.Input.Linear Venice SGamut3 to ACES2065-1"
LUT_3D_SIZE 9
DOMAIN_MIN 0 0 0
DOMAIN_MAX 1 1 1
0 0 0
0.099166218 0.0019476323 -0.0023580935
0.19833244 0.0038952646 -0.0047161869
0.29749865 0.0058428969 -0.0070742804
0.39666487 0.0077905293 -0.0094323739
0.49583109 0.0097381616 -0.011790467
0.59499731 0.011685794 -0.014148561
0.69416352 0.013633426 -0.016506654
0.79332974 0.015581059 -0.018864748
0.011134828 0.12908904 0.0015961765
0.11030105 0.13103667 -0.00076191696
0.20946726 0.1329843 -0.0031200104
0.30863348 0.13493194 -0.0054781039
0.4077997 0.13687957 -0.0078361974
0.50696592 0.1388272 -0.010194291
0.60613213 0.14077483 -0.012552384
0.70529835 0.14272246 -0.014910478
0.80446457 0.1446701 -0.017268571
0.022269656 0.25817808 0.003192353
0.12143587 0.26012571 0.00083425955
0.22060209 0.26207334 -0.0015238339
0.31976831 0.26402097 -0.0038819274
0.41893453 0.26596861 -0.0062400209
0.51810074 0.26791624 -0.0085981144
0.61726696 0.26986387 -0.010956208
0.71643318 0.2718115 -0.013314301
0.8155994 0.27375914 -0.015672395
0.033404485 0.38726712 0.0047885295
0.1325707 0.38921475 0.0024304361
0.23173692 0.39116238 0.000072342587
0.33090314 0.39311001 -0.0022857509
0.43006936 0.39505764 -0.0046438444
0.52923557 0.39700528 -0.0070019378
0.62840179 0.39895291 -0.0093600313
0.72756801 0.40090054 -0.011718125
0.82673423 0.40284817 -0.014076218
0.044539313 0.51635615 0.006384706
0.14370553 0.51830379 0.0040266126
0.24287175 0.52025142 0.0016685191
0.34203797 0.52219905 -0.00068957438
0.44120418 0.52414668 -0.0030476679
0.5403704 0.52609432 -0.0054057613
0.63953662 0.52804195 -0.0077638548
0.73870284 0.52998958 -0.010121948
0.83786905 0.53193721 -0.012480042
0.055674141 0.64544519 0.0079808826
0.15484036 0.64739282 0.0056227891
0.25400658 0.64934046 0.0032646956
0.35317279 0.65128809 0.00090660214
0.45233901 0.65323572 -0.0014514913
0.55150523 0.65518335 -0.0038095848
0.65067145 0.65713099 -0.0061676783
0.74983766 0.65907862 -0.0085257718
0.84900388 0.66102625 -0.010883865
0.066808969 0.77453423 0.0095770591
0.16597519 0.77648186 0.0072189656
0.2651414 0.77842949 0.0048608721
0.36430762 0.78037713 0.0025027786
0.46347384 0.78232476 0.00014468517
0.56264006 0.78427239 -0.0022134083
0.66180628 0.78622002 -0.0045715018
0.76097249 0.78816766 -0.0069295953
0.86013871 0.79011529 -0.0092876887
0.077943797 0.90362327 0.011173236
0.17711002 0.9055709 0.0088151421
0.27627623 0.90751853 0.0064570486
0.37544245 0.90946617 0.0040989552
0.47460867 0.9114138 0.0017408617
0.57377489 0.91336143 -0.00061723179
0.6729411 0.91530906 -0.0029753253
0.77210732 0.91725669 -0.0053334187
0.87127354 0.91920433 -0.0076915122
0.089078626 1.0327123 0.012769412
0.18824484 1.0346599 0.010411319
0.28741106 1.0366076 0.0080532251
0.38657728 1.0385552 0.0056951317
0.4857435 1.0405028 0.0033370382
0.58490971 1.0424505 0.00097894472
0.68407593 1.0443981 -0.0013791488
0.78324215 1.0463457 -0.0037372422
0.88240837 1.0482934 -0.0060953357
0.014698954 -0.0060366707 0.12576192
0.11386517 -0.0040890384 0.12340382
0.21303139 -0.0021414061 0.12104573
0.31219761 -0.00019377373 0.11868764
0.41136382 0.0017538586 0.11632954
0.51053004 0.0037014909 0.11397145
0.60969626 0.0056491232 0.11161336
0.70886248 0.0075967555 0.10925526
0.8080287 0.0095443878 0.10689717
0.025833782 0.12305237 0.12735809
0.125 0.125 0.125
0.22416622 0.12694763 0.12264191
0.32333244 0.12889526 0.12028381
0.42249865 0.1308429 0.11792572
0.52166487 0.13279053 0.11556763
0.62083109 0.13473816 0.11320953
0.71999731 0.13668579 0.11085144
0.81916352 0.13863343 0.10849335
0.036968611 0.25214141 0.12895427
0.13613483 0.25408904 0.12659618
0.23530105 0.25603667 0.12423808
0.33446726 0.2579843 0.12187999
0.43363348 0.25993194 0.1195219
0.5327997 0.26187957 0.1171638
0.63196592 0.2638272 0.11480571
0.73113213 0.26577483 0.11244762
0.83029835 0.26772246 0.11008952
0.048103439 0.38123044 0.13055045
0.14726966 0.38317808 0.12819235
0.24643587 0.38512571 0.12583426
0.34560209 0.38707334 0.12347617
0.44476831 0.38902097 0.12111807
0.54393453 0.39096861 0.11875998
0.64310074 0.39291624 0.11640189
0.74226696 0.39486387 0.11404379
0.84143318 0.3968115 0.1116857
0.059238267 0.51031948 0.13214662
0.15840448 0.51226712 0.12978853
0.2575707 0.51421475 0.12743044
0.35673692 0.51616238 0.12507234
0.45590314 0.51811001 0.12271425
0.55506936 0.52005764 0.12035616
0.65423557 0.52200528 0.11799806
0.75340179 0.52395291 0.11563997
0.85256801 0.52590054 0.11328188
0.070373095 0.63940852 0.1337428
0.16953931 0.64135615 0.13138471
0.26870553 0.64330379 0.12902661
0.36787175 0.64525142 0.12666852
0.46703797 0.64719905 0.12431043
0.56620418 0.64914668 0.12195233
0.6653704 0.65109432 0.11959424
0.76453662 0.65304195 0.11723615
0.86370284 0.65498958 0.11487805
0.081507923 0.76849756 0.13533898
0.18067414 0.77044519 0.13298088
0.27984036 0.77239282 0.13062279
0.37900658 0.77434046 0.1282647
0.47817279 0.77628809 0.1259066
0.57733901 0.77823572 0.12354851
0.67650523 0.78018335 0.12119042
0.77567145 0.78213099 0.11883232
0.87483766 0.78407862 0.11647423
0.092642752 0.8975866 0.13693515
0.19180897 0.89953423 0.13457706
0.29097519 0.90148186 0.13221897
0.3901414 0.90342949 0.12986087
0.48930762 0.90537713 0.12750278
0.58847384 0.90732476 0.12514469
0.68764006 0.90927239 0.12278659
0.78680628 0.91122002 0.1204285
0.88597249 0.91316766 0.1180704
0.10377758 1.0266756 0.13853133
0.2029438 1.0286233 0.13617324
0.30211002 1.0305709 0.13381514
0.40127623 1.0325185 0.13145705
0.50044245 1.0344662 0.12909896
0.59960867 1.0364138 0.12674086
0.69877489 1.0383614 0.12438277
0.7979411 1.0403091 0.12202467
0.89710732 1.0422567 0.11966658
0.029397908 -0.012073341 0.25152383
0.12856413 -0.010125709 0.24916574
0.22773034 -0.0081780767 0.24680765
0.32689656 -0.0062304444 0.24444955
0.42606278 -0.0042828121 0.24209146
0.525229 -0.0023351798 0.23973337
0.62439521 -0.00038754747 0.23737527
0.72356143 0.0015600848 0.23501718
0.82272765 0.0035077172 0.23265909
0.040532737 0.1170157 0.25312001
0.13969895 0.11896333 0.25076192
0.23886517 0.12091096 0.24840382
0.33803139 0.12285859 0.24604573
0.43719761 0.12480623 0.24368764
0.53636382 0.12675386 0.24132954
0.63553004 0.12870149 0.23897145
0.73469626 0.13064912 0.23661336
0.83386248 0.13259676 0.23425526
0.051667565 0.24610474 0.25471619
0.15083378 0.24805237 0.25235809
0.25 0.25 0.25
0.34916622 0.25194763 0.24764191
0.44833244 0.25389526 0.24528381
0.54749865 0.2558429 0.24292572
0.64666487 0.25779053 0.24056763
0.74583109 0.25973816 0.23820953
0.84499731 0.26168579 0.23585144
0.062802393 0.37519377 0.25631236
0.16196861 0.37714141 0.25395427
0.26113483 0.37908904 0.25159618
0.36030105 0.38103667 0.24923808
0.45946726 0.3829843 0.24687999
0.55863348 0.38493194 0.2445219
0.6577997 0.38687957 0.2421638
0.75696592 0.3888272 0.23980571
0.85613213 0.39077483 0.23744762
0.073937221 0.50428281 0.25790854
0.17310344 0.50623044 0.25555045
0.27226966 0.50817808 0.25319235
0.37143587 0.51012571 0.25083426
0.47060209 0.51207334 0.24847617
0.56976831 0.51402097 0.24611807
0.66893453 0.51596861 0.24375998
0.76810074 0.51791624 0.24140189
0.86726696 0.51986387 0.23904379
0.085072049 0.63337185 0.25950472
0.18423827 0.63531948 0.25714662
0.28340448 0.63726712 0.25478853
0.3825707 0.63921475 0.25243044
0.48173692 0.64116238 0.25007234
0.58090314 0.64311001 0.24771425
0.68006936 0.64505764 0.24535616
0.77923557 0.64700528 0.24299806
0.87840179 0.64895291 0.24063997
0.096206878 0.76246089 0.26110089
0.1953731 0.76440852 0.2587428
0.29453931 0.76635615 0.25638471
0.39370553 0.76830379 0.25402661
0.49287175 0.77025142 0.25166852
0.59203797 0.77219905 0.24931043
0.69120418 0.77414668 0.24695233
0.7903704 0.77609432 0.24459424
0.88953662 0.77804195 0.24223615
0.10734171 0.89154993 0.26269707
0.20650792 0.89349756 0.26033898
0.30567414 0.89544519 0.25798088
0.40484036 0.89739282 0.25562279
0.50400658 0.89934046 0.2532647
0.60317279 0.90128809 0.2509066
0.70233901 0.90323572 0.24854851
0.80150523 0.90518335 0.24619042
0.90067145 0.90713099 0.24383232
0.11847653 1.020639 0.26429325
0.21764275 1.0225866 0.26193515
0.31680897 1.0245342 0.25957706
0.41597519 1.0264819 0.25721897
0.5151414 1.0284295 0.25486087
0.61430762 1.0303771 0.25250278
0.71347384 1.0323248 0.25014469
0.81264006 1.0342724 0.24778659
0.91180628 1.03622 0.2454285
0.044096862 -0.018110012 0.37728575
0.14326308 -0.01616238 0.37492766
0.2424293 -0.014214747 0.37256956
0.34159552 -0.012267115 0.37021147
0.44076173 -0.010319483 0.36785338
0.53992795 -0.0083718505 0.36549528
0.63909417 -0.0064242182 0.36313719
0.73826039 -0.0044765858 0.3607791
0.8374266 -0.0025289535 0.358421
0.055231691 0.11097903 0.37888193
0.15439791 0.11292666 0.37652383
0.25356413 0.11487429 0.37416574
0.35273034 0.11682192 0.37180765
0.45189656 0.11876956 0.36944955
0.55106278 0.12071719 0.36709146
0.650229 0.12266482 0.36473337
0.74939521 0.12461245 0.36237527
0.84856143 0.12656008 0.36001718
0.066366519 0.24006806 0.3804781
0.16553274 0.2420157 0.37812001
0.26469895 0.24396333 0.37576192
0.36386517 0.24591096 0.37340382
0.46303139 0.24785859 0.37104573
0.56219761 0.24980623 0.36868764
0.66136382 0.25175386 0.36632954
0.76053004 0.25370149 0.36397145
0.85969626 0.25564912 0.36161336
0.077501347 0.3691571 0.38207428
0.17666756 0.37110474 0.37971619
0.27583378 0.37305237 0.37735809
0.375 0.375 0.375
0.47416622 0.37694763 0.37264191
0.57333244 0.37889526 0.37028381
0.67249865 0.3808429 0.36792572
0.77166487 0.38279053 0.36556763
0.87083109 0.38473816 0.36320953
0.088636175 0.49824614 0.38367046
0.18780239 0.50019377 0.38131236
0.28696861 0.50214141 0.37895427
0.38613483 0.50408904 0.37659618
0.48530105 0.50603667 0.37423808
0.58446726 0.5079843 0.37187999
0.68363348 0.50993194 0.3695219
0.7827997 0.51187957 0.3671638
0.88196592 0.5138272 0.36480571
0.099771003 0.62733518 0.38526663
0.19893722 0.62928281 0.38290854
0.29810344 0.63123044 0.38055045
0.39726966 0.63317808 0.37819235
0.49643587 0.63512571 0.37583426
0.59560209 0.63707334 0.37347617
0.69476831 0.63902097 0.37111807
0.79393453 0.64096861 0.36875998
0.89310074 0.64291624 0.36640189
0.11090583 0.75642422 0.38686281
0.21007205 0.75837185 0.38450472
0.30923827 0.76031948 0.38214662
0.40840448 0.76226712 0.37978853
0.5075707 0.76421475 0.37743044
0.60673692 0.76616238 0.37507234
0.70590314 0.76811001 0.37271425
0.80506936 0.77005764 0.37035616
0.90423557 0.77200528 0.36799806
0.12204066 0.88551326 0.38845899
0.22120688 0.88746089 0.38610089
0.3203731 0.88940852 0.3837428
0.41953931 0.89135615 0.38138471
0.51870553 0.89330379 0.37902661
0.61787175 0.89525142 0.37666852
0.71703797 0.89719905 0.37431043
0.81620418 0.89914668 0.37195233
0.9153704 0.90109432 0.36959424
0.13317549 1.0146023 0.39005516
0.23234171 1.0165499 0.38769707
0.33150792 1.0184976 0.38533898
0.43067414 1.0204452 0.38298088
0.52984036 1.0223928 0.38062279
0.62900658 1.0243405 0.3782647
0.72817279 1.0262881 0.3759066
0.82733901 1.0282357 0.37354851
0.92650523 1.0301834 0.37119042
0.058795817 -0.024146683 0.50304767
0.15796203 -0.02219905 0.50068957
0.25712825 -0.020251418 0.49833148
0.35629447 -0.018303786 0.49597339
0.45546069 -0.016356153 0.49361529
0.5546269 -0.014408521 0.4912572
0.65379312 -0.012460889 0.48889911
0.75295934 -0.010513257 0.48654101
0.85212556 -0.0085656242 0.48418292
0.069930645 0.10494236 0.50464384
0.16909686 0.10688999 0.50228575
0.26826308 0.10883762 0.49992766
0.3674293 0.11078525 0.49756956
0.46659552 0.11273288 0.49521147
0.56576173 0.11468052 0.49285338
0.66492795 0.11662815 0.49049528
0.76409417 0.11857578 0.48813719
0.86326039 0.12052341 0.4857791
0.081065473 0.23403139 0.50624002
0.18023169 0.23597903 0.50388193
0.27939791 0.23792666 0.50152383
0.37856413 0.23987429 0.49916574
0.47773034 0.24182192 0.49680765
0.57689656 0.24376956 0.49444955
0.67606278 0.24571719 0.49209146
0.775229 0.24766482 0.48973337
0.87439521 0.24961245 0.48737527
0.092200301 0.36312043 0.5078362
0.19136652 0.36506806 0.5054781
0.29053274 0.3670157 0.50312001
0.38969895 0.36896333 0.50076192
0.48886517 0.37091096 0.49840382
0.58803139 0.37285859 0.49604573
0.68719761 0.37480623 0.49368764
0.78636382 0.37675386 0.49132954
0.88553004 0.37870149 0.48897145
0.10333513 0.49220947 0.50943237
0.20250135 0.4941571 0.50707428
0.30166756 0.49610474 0.50471619
0.40083378 0.49805237 0.50235809
0.5 0.5 0.5
0.59916622 0.50194763 0.49764191
0.69833244 0.50389526 0.49528381
0.79749865 0.5058429 0.49292572
0.89666487 0.50779053 0.49056763
0.11446996 0.62129851 0.51102855
0.21363618 0.62324614 0.50867046
0.31280239 0.62519377 0.50631236
0.41196861 0.62714141 0.50395427
0.51113483 0.62908904 0.50159618
0.61030105 0.63103667 0.49923808
0.70946726 0.6329843 0.49687999
0.80863348 0.63493194 0.4945219
0.9077997 0.63687957 0.4921638
0.12560479 0.75038755 0.51262473
0.224771 0.75233518 0.51026663
0.32393722 0.75428281 0.50790854
0.42310344 0.75623044 0.50555045
0.52226966 0.75817808 0.50319235
0.62143587 0.76012571 0.50083426
0.72060209 0.76207334 0.49847617
0.81976831 0.76402097 0.49611807
0.91893453 0.76596861 0.49375998
0.13673961 0.87947659 0.5142209
0.23590583 0.88142422 0.51186281
0.33507205 0.88337185 0.50950472
0.43423827 0.88531948 0.50714662
0.53340448 0.88726712 0.50478853
0.6325707 0.88921475 0.50243044
0.73173692 0.89116238 0.50007234
0.83090314 0.89311001 0.49771425
0.93006936 0.89505764 0.49535616
0.14787444 1.0085656 0.51581708
0.24704066 1.0105133 0.51345899
0.34620688 1.0124609 0.51110089
0.4453731 1.0144085 0.5087428
0.54453931 1.0163562 0.50638471
0.64370553 1.0183038 0.50402661
0.74287175 1.0202514 0.50166852
0.84203797 1.0221991 0.49931043
0.94120418 1.0241467 0.49695233
0.073494771 -0.030183353 0.62880958
0.17266099 -0.028235721 0.62645149
0.27182721 -0.026288089 0.6240934
0.37099342 -0.024340456 0.6217353
0.47015964 -0.022392824 0.61937721
0.56932586 -0.020445192 0.61701912
0.66849208 -0.01849756 0.61466102
0.76765829 -0.016549927 0.61230293
0.86682451 -0.014602295 0.60994484
0.084629599 0.098905685 0.63040576
0.18379582 0.10085332 0.62804767
0.28296203 0.10280095 0.62568957
0.38212825 0.10474858 0.62333148
0.48129447 0.10669621 0.62097339
0.58046069 0.10864385 0.61861529
0.6796269 0.11059148 0.6162572
0.77879312 0.11253911 0.61389911
0.87795934 0.11448674 0.61154101
0.095764427 0.22799472 0.63200194
0.19493064 0.22994236 0.62964384
0.29409686 0.23188999 0.62728575
0.39326308 0.23383762 0.62492766
0.4924293 0.23578525 0.62256956
0.59159552 0.23773288 0.62021147
0.69076173 0.23968052 0.61785338
0.78992795 0.24162815 0.61549528
0.88909417 0.24357578 0.61313719
0.10689926 0.35708376 0.63359811
0.20606547 0.35903139 0.63124002
0.30523169 0.36097903 0.62888193
0.40439791 0.36292666 0.62652383
0.50356413 0.36487429 0.62416574
0.60273034 0.36682192 0.62180765
0.70189656 0.36876956 0.61944955
0.80106278 0.37071719 0.61709146
0.900229 0.37266482 0.61473337
0.11803408 0.4861728 0.63519429
0.2172003 0.48812043 0.6328362
0.31636652 0.49006806 0.6304781
0.41553274 0.4920157 0.62812001
0.51469895 0.49396333 0.62576192
0.61386517 0.49591096 0.62340382
0.71303139 0.49785859 0.62104573
0.81219761 0.49980623 0.61868764
0.91136382 0.50175386 0.61632954
0.12916891 0.61526184 0.63679047
0.22833513 0.61720947 0.63443237
0.32750135 0.6191571 0.63207428
0.42666756 0.62110474 0.62971619
0.52583378 0.62305237 0.62735809
0.625 0.625 0.625
0.72416622 0.62694763 0.62264191
0.82333244 0.62889526 0.62028381
0.92249865 0.6308429 0.61792572
0.14030374 0.74435088 0.63838664
0.23946996 0.74629851 0.63602855
0.33863618 0.74824614 0.63367046
0.43780239 0.75019377 0.63131236
0.53696861 0.75214141 0.62895427
0.63613483 0.75408904 0.62659618
0.73530105 0.75603667 0.62423808
0.83446726 0.7579843 0.62187999
0.93363348 0.75993194 0.6195219
0.15143857 0.87343992 0.63998282
0.25060479 0.87538755 0.63762473
0.349771 0.87733518 0.63526663
0.44893722 0.87928281 0.63290854
0.54810344 0.88123044 0.63055045
0.64726966 0.88317808 0.62819235
0.74643587 0.88512571 0.62583426
0.84560209 0.88707334 0.62347617
0.94476831 0.88902097 0.62111807
0.1625734 1.002529 0.641579
0.26173961 1.0044766 0.6392209
0.36090583 1.0064242 0.63686281
0.46007205 1.0083719 0.63450472
0.55923827 1.0103195 0.63214662
0.65840448 1.0122671 0.62978853
0.7575707 1.0142147 0.62743044
0.85673692 1.0161624 0.62507234
0.95590314 1.01811 0.62271425
0.088193725 -0.036220024 0.7545715
0.18735994 -0.034272392 0.75221341
0.28652616 -0.032324759 0.74985531
0.38569238 -0.030377127 0.74749722
0.4848586 -0.028429495 0.74513913
0.58402481 -0.026481863 0.74278103
0.68319103 -0.02453423 0.74042294
0.78235725 -0.022586598 0.73806485
0.88152347 -0.020638966 0.73570675
0.099328553 0.092869014 0.75616768
0.19849477 0.094816647 0.75380958
0.29766099 0.096764279 0.75145149
0.39682721 0.098711911 0.7490934
0.49599342 0.10065954 0.7467353
0.59515964 0.10260718 0.74437721
0.69432586 0.10455481 0.74201912
0.79349208 0.10650244 0.73966102
0.89265829 0.10845007 0.73730293
0.11046338 0.22195805 0.75776385
0.2096296 0.22390568 0.75540576
0.30879582 0.22585332 0.75304767
0.40796203 0.22780095 0.75068957
0.50712825 0.22974858 0.74833148
0.60629447 0.23169621 0.74597339
0.70546069 0.23364385 0.74361529
0.8046269 0.23559148 0.7412572
0.90379312 0.23753911 0.73889911
0.12159821 0.35104709 0.75936003
0.22076443 0.35299472 0.75700194
0.31993064 0.35494236 0.75464384
0.41909686 0.35688999 0.75228575
0.51826308 0.35883762 0.74992766
0.6174293 0.36078525 0.74756956
0.71659552 0.36273288 0.74521147
0.81576173 0.36468052 0.74285338
0.91492795 0.36662815 0.74049528
0.13273304 0.48013613 0.76095621
0.23189926 0.48208376 0.75859811
0.33106547 0.48403139 0.75624002
0.43023169 0.48597903 0.75388193
0.52939791 0.48792666 0.75152383
0.62856413 0.48987429 0.74916574
0.72773034 0.49182192 0.74680765
0.82689656 0.49376956 0.74444955
0.92606278 0.49571719 0.74209146
0.14386787 0.60922517 0.76255238
0.24303408 0.6111728 0.76019429
0.3422003 0.61312043 0.7578362
0.44136652 0.61506806 0.7554781
0.54053274 0.6170157 0.75312001
0.63969895 0.61896333 0.75076192
0.73886517 0.62091096 0.74840382
0.83803139 0.62285859 0.74604573
0.93719761 0.62480623 0.74368764
0.15500269 0.73831421 0.76414856
0.25416891 0.74026184 0.76179047
0.35333513 0.74220947 0.75943237
0.45250135 0.7441571 0.75707428
0.55166756 0.74610474 0.75471619
0.65083378 0.74805237 0.75235809
0.75 0.75 0.75
0.84916622 0.75194763 0.74764191
0.94833244 0.75389526 0.74528381
0.16613752 0.86740324 0.76574474
0.26530374 0.86935088 0.76338664
0.36446996 0.87129851 0.76102855
0.46363618 0.87324614 0.75867046
0.56280239 0.87519377 0.75631236
0.66196861 0.87714141 0.75395427
0.76113483 0.87908904 0.75159618
0.86030105 0.88103667 0.74923808
0.95946726 0.8829843 0.74687999
0.17727235 0.99649228 0.76734091
0.27643857 0.99843992 0.76498282
0.37560479 1.0003875 0.76262473
0.474771 1.0023352 0.76026663
0.57393722 1.0042828 0.75790854
0.67310344 1.0062304 0.75555045
0.77226966 1.0081781 0.75319235
0.87143587 1.0101257 0.75083426
0.97060209 1.0120733 0.74847617
0.10289268 -0.042256695 0.88033342
0.2020589 -0.040309062 0.87797533
0.30122511 -0.03836143 0.87561723
0.40039133 -0.036413798 0.87325914
0.49955755 -0.034466166 0.87090104
0.59872377 -0.032518533 0.86854295
0.69788998 -0.030570901 0.86618486
0.7970562 -0.028623269 0.86382676
0.89622242 -0.026675636 0.86146867
0.11402751 0.086832344 0.8819296
0.21319372 0.088779976 0.8795715
0.31235994 0.090727608 0.87721341
0.41152616 0.092675241 0.87485531
0.51069238 0.094622873 0.87249722
0.6098586 0.096570505 0.87013913
0.70902481 0.098518137 0.86778103
0.80819103 0.10046577 0.86542294
0.90735725 0.1024134 0.86306485
0.12516234 0.21592138 0.88352577
0.22432855 0.21786901 0.88116768
0.32349477 0.21981665 0.87880958
0.42266099 0.22176428 0.87645149
0.52182721 0.22371191 0.8740934
0.62099342 0.22565954 0.8717353
0.72015964 0.22760718 0.86937721
0.81932586 0.22955481 0.86701912
0.91849208 0.23150244 0.86466102
0.13629716 0.34501042 0.88512195
0.23546338 0.34695805 0.88276385
0.3346296 0.34890568 0.88040576
0.43379582 0.35085332 0.87804767
0.53296203 0.35280095 0.87568957
0.63212825 0.35474858 0.87333148
0.73129447 0.35669621 0.87097339
0.83046069 0.35864385 0.86861529
0.9296269 0.36059148 0.8662572
0.14743199 0.47409946 0.88671812
0.24659821 0.47604709 0.88436003
0.34576443 0.47799472 0.88200194
0.44493064 0.47994236 0.87964384
0.54409686 0.48188999 0.87728575
0.64326308 0.48383762 0.87492766
0.7424293 0.48578525 0.87256956
0.84159552 0.48773288 0.87021147
0.94076173 0.48968052 0.86785338
0.15856682 0.6031885 0.8883143
0.25773304 0.60513613 0.88595621
0.35689926 0.60708376 0.88359811
0.45606547 0.60903139 0.88124002
0.55523169 0.61097903 0.87888193
0.65439791 0.61292666 0.87652383
0.75356413 0.61487429 0.87416574
0.85273034 0.61682192 0.87180765
0.95189656 0.61876956 0.86944955
0.16970165 0.73227754 0.88991048
0.26886787 0.73422517 0.88755238
0.36803408 0.7361728 0.88519429
0.4672003 0.73812043 0.8828362
0.56636652 0.74006806 0.8804781
0.66553274 0.7420157 0.87812001
0.76469895 0.74396333 0.87576192
0.86386517 0.74591096 0.87340382
0.96303139 0.74785859 0.87104573
0.18083648 0.86136657 0.89150665
0.28000269 0.86331421 0.88914856
0.37916891 0.86526184 0.88679047
0.47833513 0.86720947 0.88443237
0.57750135 0.8691571 0.88207428
0.67666756 0.87110474 0.87971619
0.77583378 0.87305237 0.87735809
0.875 0.875 0.875
0.97416622 0.87694763 0.87264191
0.1919713 0.99045561 0.89310283
0.29113752 0.99240324 0.89074474
0.39030374 0.99435088 0.88838664
0.48946996 0.99629851 0.88602855
0.58863618 0.99824614 0.88367046
0.68780239 1.0001938 0.88131236
0.78696861 1.0021414 0.87895427
0.88613483 1.004089 0.87659618
0.98530105 1.0060367 0.87423808
0.11759163 -0.048293365 1.0060953
0.21675785 -0.046345733 1.0037372
0.31592407 -0.044398101 1.0013791
0.41509029 -0.042450469 0.99902106
0.5142565 -0.040502836 0.99666296
0.61342272 -0.038555204 0.99430487
0.71258894 -0.036607572 0.99194677
0.81175516 -0.034659939 0.98958868
0.91092137 -0.032712307 0.98723059
0.12872646 0.080795673 1.0076915
0.22789268 0.082743305 1.0053334
0.3270589 0.084690938 1.0029753
0.42622511 0.08663857 1.0006172
0.52539133 0.088586202 0.99825914
0.62455755 0.090533834 0.99590104
0.72372377 0.092481467 0.99354295
0.82288998 0.094429099 0.99118486
0.9220562 0.096376731 0.98882676
0.13986129 0.20988471 1.0092877
0.23902751 0.21183234 1.0069296
0.33819372 0.21377998 1.0045715
0.43735994 0.21572761 1.0022134
0.53652616 0.21767524 0.99985531
0.63569238 0.21962287 0.99749722
0.7348586 0.22157051 0.99513913
0.83402481 0.22351814 0.99278103
0.93319103 0.22546577 0.99042294
0.15099612 0.33897375 1.0108839
0.25016234 0.34092138 1.0085258
0.34932855 0.34286901 1.0061677
0.44849477 0.34481665 1.0038096
0.54766099 0.34676428 1.0014515
0.64682721 0.34871191 0.9990934
0.74599342 0.35065954 0.9967353
0.84515964 0.35260718 0.99437721
0.94432586 0.35455481 0.99201912
0.16213095 0.46806279 1.01248
0.26129716 0.47001042 1.0101219
0.36046338 0.47195805 1.0077639
0.4596296 0.47390568 1.0054058
0.55879582 0.47585332 1.0030477
0.65796203 0.47780095 1.0006896
0.75712825 0.47974858 0.99833148
0.85629447 0.48169621 0.99597339
0.95546069 0.48364385 0.99361529
0.17326577 0.59715183 1.0140762
0.27243199 0.59909946 1.0117181
0.37159821 0.60104709 1.00936
0.47076443 0.60299472 1.0070019
0.56993064 0.60494236 1.0046438
0.66909686 0.60688999 1.0022858
0.76826308 0.60883762 0.99992766
0.8674293 0.61078525 0.99756956
0.96659552 0.61273288 0.99521147
0.1844006 0.72624086 1.0156724
0.28356682 0.7281885 1.0133143
0.38273304 0.73013613 1.0109562
0.48189926 0.73208376 1.0085981
0.58106547 0.73403139 1.00624
0.68023169 0.73597903 1.0038819
0.77939791 0.73792666 1.0015238
0.87856413 0.73987429 0.99916574
0.97773034 0.74182192 0.99680765
0.19553543 0.8553299 1.0172686
0.29470165 0.85727754 1.0149105
0.39386787 0.85922517 1.0125524
0.49303408 0.8611728 1.0101943
0.5922003 0.86312043 1.0078362
0.69136652 0.86506806 1.0054781
0.79053274 0.8670157 1.00312
0.88969895 0.86896333 1.0007619
0.98886517 0.87091096 0.99840382
0.20667026 0.98441894 1.0188647
0.30583648 0.98636657 1.0165067
0.40500269 0.98831421 1.0141486
0.50416891 0.99026184 1.0117905
0.60333513 0.99220947 1.0094324
0.70250135 0.9941571 1.0070743
0.80166756 0.99610474 1.0047162
0.90083378 0.99805237 1.0023581
1 1 1
