site/assets/luts/ocio-aces--sonyinputlinear-venice-sgamut3-to-aces2065-1--bc32b4575.cube
# LUTr-Project: LUTr — LUTrepository
# LUTr-Schema-Version: 1
# LUTr-ID: ocio-aces--sonyinputlinear-venice-sgamut3-to-aces2065-1--bc32b4575
# LUTr-Title: Sony.Input.Linear Venice SGamut3 to ACES2065-1
# LUTr-Collection: OCIO ACES
# LUTr-Collection-ID: aswf-opencolorio-config-aces
# LUTr-Source: https://github.com/AcademySoftwareFoundation/OpenColorIO-Config-ACES
# LUTr-Source-File: submissions/aswf-opencolorio-config-aces/opencolorio_config_aces/clf/transforms/sony/input/Sony.Input.Linear_Venice_SGamut3_to_ACES2065-1.clf
# LUTr-Source-Format: CLF
# LUTr-Source-SHA256: 6a34694cf6483e8047e51ac733095a1a0320f813fab567669baec1df4a2f4e58
# LUTr-License: BSD-3-Clause
# LUTr-License-URL: https://github.com/AcademySoftwareFoundation/OpenColorIO-Config-ACES/blob/main/LICENSE
# LUTr-Tags: technical, aces, ocio, clf, color-management, cube
# LUTr-Transform-Class: color-space-conversion
# LUTr-Input-Color-Space: Linear Venice S-Gamut3
# LUTr-Output-Color-Space: ACES2065-1
# LUTr-Color-Space-Confidence: descriptor-only
# LUTr-Conversion-Method: CLF operations evaluated as float and sampled to 33x33x33 3D CUBE
# LUTr-Conversion-Date: 2026-07-27
# LUTr-Conversion-Tool: LUTr scripts/convert-all-to-cube.mjs
# LUTr-Conversion-Grid: 33x33x33
# LUTr-Conversion-Warning: A sampled 3D CUBE is bounded to DOMAIN_MIN/MAX 0..1 and cannot preserve CLF values outside its input domain.
# LUTr-Upstream-ID: urn:aswf:ocio:transformId:1.0:Sony:Input:Linear_Venice_SGamut3_to_ACES2065-1:1.0
# LUTr-Upstream-Name: Linear Venice S-Gamut3 to ACES2065-1
# LUTr-Upstream-Input-Descriptor: Linear Venice S-Gamut3
# LUTr-Upstream-Output-Descriptor: ACES2065-1
# LUTr-Upstream-Operations: Matrix
# LUTr-Note: Preserve this metadata and the upstream license notices when redistributing.
TITLE "Sony.Input.Linear Venice SGamut3 to ACES2065-1"
LUT_3D_SIZE 33
DOMAIN_MIN 0 0 0
DOMAIN_MAX 1 1 1
0 0 0
0.024791554 0.00048690808 -0.00058952337
0.049583109 0.00097381616 -0.0011790467
0.074374663 0.0014607242 -0.0017685701
0.099166218 0.0019476323 -0.0023580935
0.12395777 0.0024345404 -0.0029476168
0.14874933 0.0029214485 -0.0035371402
0.17354088 0.0034083566 -0.0041266636
0.19833244 0.0038952646 -0.0047161869
0.22312399 0.0043821727 -0.0053057103
0.24791554 0.0048690808 -0.0058952337
0.2727071 0.0053559889 -0.0064847571
0.29749865 0.0058428969 -0.0070742804
0.32229021 0.006329805 -0.0076638038
0.34708176 0.0068167131 -0.0082533272
0.37187332 0.0073036212 -0.0088428505
0.39666487 0.0077905293 -0.0094323739
0.42145642 0.0082774373 -0.010021897
0.44624798 0.0087643454 -0.010611421
0.47103953 0.0092512535 -0.011200944
0.49583109 0.0097381616 -0.011790467
0.52062264 0.01022507 -0.012379991
0.5454142 0.010711978 -0.012969514
0.57020575 0.011198886 -0.013559037
0.59499731 0.011685794 -0.014148561
0.61978886 0.012172702 -0.014738084
0.64458041 0.01265961 -0.015327608
0.66937197 0.013146518 -0.015917131
0.69416352 0.013633426 -0.016506654
0.71895508 0.014120334 -0.017096178
0.74374663 0.014607242 -0.017685701
0.76853819 0.01509415 -0.018275224
0.79332974 0.015581059 -0.018864748
0.0027837071 0.03227226 0.00039904413
0.027575261 0.032759168 -0.00019047924
0.052366816 0.033246076 -0.00078000261
0.07715837 0.033732984 -0.001369526
0.10194992 0.034219892 -0.0019590493
0.12674148 0.0347068 -0.0025485727
0.15153303 0.035193708 -0.0031380961
0.17632459 0.035680616 -0.0037276195
0.20111614 0.036167524 -0.0043171428
0.2259077 0.036654432 -0.0049066662
0.25069925 0.03714134 -0.0054961896
0.27549081 0.037628248 -0.0060857129
0.30028236 0.038115157 -0.0066752363
0.32507391 0.038602065 -0.0072647597
0.34986547 0.039088973 -0.007854283
0.37465702 0.039575881 -0.0084438064
0.39944858 0.040062789 -0.0090333298
0.42424013 0.040549697 -0.0096228531
0.44903169 0.041036605 -0.010212377
0.47382324 0.041523513 -0.0108019
0.4986148 0.042010421 -0.011391423
0.52340635 0.042497329 -0.011980947
0.5481979 0.042984237 -0.01257047
0.57298946 0.043471145 -0.013159993
0.59778101 0.043958053 -0.013749517
0.62257257 0.044444962 -0.01433904
0.64736412 0.04493187 -0.014928563
0.67215568 0.045418778 -0.015518087
0.69694723 0.045905686 -0.01610761
0.72173878 0.046392594 -0.016697134
0.74653034 0.046879502 -0.017286657
0.77132189 0.04736641 -0.01787618
0.79611345 0.047853318 -0.018465704
0.0055674141 0.064544519 0.00079808826
0.030358969 0.065031427 0.00020856489
0.055150523 0.065518335 -0.00038095848
0.079942077 0.066005243 -0.00097048185
0.10473363 0.066492151 -0.0015600052
0.12952519 0.06697906 -0.0021495286
0.15431674 0.067465968 -0.002739052
0.17910829 0.067952876 -0.0033285753
0.20389985 0.068439784 -0.0039180987
0.2286914 0.068926692 -0.0045076221
0.25348296 0.0694136 -0.0050971454
0.27827451 0.069900508 -0.0056866688
0.30306607 0.070387416 -0.0062761922
0.32785762 0.070874324 -0.0068657155
0.35264918 0.071361232 -0.0074552389
0.37744073 0.07184814 -0.0080447623
0.40223228 0.072335048 -0.0086342856
0.42702384 0.072821957 -0.009223809
0.45181539 0.073308865 -0.0098133324
0.47660695 0.073795773 -0.010402856
0.5013985 0.074282681 -0.010992379
0.52619006 0.074769589 -0.011581902
0.55098161 0.075256497 -0.012171426
0.57577317 0.075743405 -0.012760949
0.60056472 0.076230313 -0.013350473
0.62535627 0.076717221 -0.013939996
0.65014783 0.077204129 -0.014529519
0.67493938 0.077691037 -0.015119043
0.69973094 0.078177945 -0.015708566
0.72452249 0.078664853 -0.016298089
0.74931405 0.079151762 -0.016887613
0.7741056 0.07963867 -0.017477136
0.79889716 0.080125578 -0.01806666
0.0083511212 0.096816779 0.0011971324
0.033142676 0.097303687 0.00060760902
0.05793423 0.097790595 0.000018085647
0.082725784 0.098277503 -0.00057143772
0.10751734 0.098764411 -0.0011609611
0.13230889 0.099251319 -0.0017504845
0.15710045 0.099738227 -0.0023400078
0.181892 0.10022514 -0.0029295312
0.20668356 0.10071204 -0.0035190546
0.23147511 0.10119895 -0.0041085779
0.25626667 0.10168586 -0.0046981013
0.28105822 0.10217277 -0.0052876247
0.30584977 0.10265968 -0.005877148
0.33064133 0.10314658 -0.0064666714
0.35543288 0.10363349 -0.0070561948
0.38022444 0.1041204 -0.0076457181
0.40501599 0.10460731 -0.0082352415
0.42980755 0.10509422 -0.0088247649
0.4545991 0.10558112 -0.0094142883
0.47939065 0.10606803 -0.010003812
0.50418221 0.10655494 -0.010593335
0.52897376 0.10704185 -0.011182858
0.55376532 0.10752876 -0.011772382
0.57855687 0.10801566 -0.012361905
0.60334843 0.10850257 -0.012951428
0.62813998 0.10898948 -0.013540952
0.65293154 0.10947639 -0.014130475
0.67772309 0.1099633 -0.014719999
0.70251464 0.1104502 -0.015309522
0.7273062 0.11093711 -0.015899045
0.75209775 0.11142402 -0.016488569
0.77688931 0.11191093 -0.017078092
0.80168086 0.11239784 -0.017667615
0.011134828 0.12908904 0.0015961765
0.035926383 0.12957595 0.0010066531
0.060717937 0.13006285 0.00041712977
0.085509491 0.13054976 -0.00017239359
0.11030105 0.13103667 -0.00076191696
0.1350926 0.13152358 -0.0013514403
0.15988415 0.13201049 -0.0019409637
0.18467571 0.13249739 -0.0025304871
0.20946726 0.1329843 -0.0031200104
0.23425882 0.13347121 -0.0037095338
0.25905037 0.13395812 -0.0042990572
0.28384193 0.13444503 -0.0048885805
0.30863348 0.13493194 -0.0054781039
0.33342504 0.13541884 -0.0060676273
0.35821659 0.13590575 -0.0066571506
0.38300814 0.13639266 -0.007246674
0.4077997 0.13687957 -0.0078361974
0.43259125 0.13736648 -0.0084257208
0.45738281 0.13785338 -0.0090152441
0.48217436 0.13834029 -0.0096047675
0.50696592 0.1388272 -0.010194291
0.53175747 0.13931411 -0.010783814
0.55654903 0.13980102 -0.011373338
0.58134058 0.14028792 -0.011962861
0.60613213 0.14077483 -0.012552384
0.63092369 0.14126174 -0.013141908
0.65571524 0.14174865 -0.013731431
0.6805068 0.14223556 -0.014320954
0.70529835 0.14272246 -0.014910478
0.73008991 0.14320937 -0.015500001
0.75488146 0.14369628 -0.016089525
0.77967301 0.14418319 -0.016679048
0.80446457 0.1446701 -0.017268571
0.013918535 0.1613613 0.0019952206
0.03871009 0.16184821 0.0014056973
0.063501644 0.16233511 0.0008161739
0.088293198 0.16282202 0.00022665053
0.11308475 0.16330893 -0.00036287283
0.13787631 0.16379584 -0.0009523962
0.16266786 0.16428275 -0.0015419196
0.18745942 0.16476965 -0.0021314429
0.21225097 0.16525656 -0.0027209663
0.23704252 0.16574347 -0.0033104897
0.26183408 0.16623038 -0.003900013
0.28662563 0.16671729 -0.0044895364
0.31141719 0.16720419 -0.0050790598
0.33620874 0.1676911 -0.0056685832
0.3610003 0.16817801 -0.0062581065
0.38579185 0.16866492 -0.0068476299
0.41058341 0.16915183 -0.0074371533
0.43537496 0.16963874 -0.0080266766
0.46016651 0.17012564 -0.0086162
0.48495807 0.17061255 -0.0092057234
0.50974962 0.17109946 -0.0097952467
0.53454118 0.17158637 -0.01038477
0.55933273 0.17207328 -0.010974293
0.58412429 0.17256018 -0.011563817
0.60891584 0.17304709 -0.01215334
0.6337074 0.173534 -0.012742864
0.65849895 0.17402091 -0.013332387
0.6832905 0.17450782 -0.01392191
0.70808206 0.17499472 -0.014511434
0.73287361 0.17548163 -0.015100957
0.75766517 0.17596854 -0.01569048
0.78245672 0.17645545 -0.016280004
0.80724828 0.17694236 -0.016869527
0.016702242 0.19363356 0.0023942648
0.041493797 0.19412047 0.0018047414
0.066285351 0.19460737 0.001215218
0.091076906 0.19509428 0.00062569466
0.11586846 0.19558119 0.000036171293
0.14066001 0.1960681 -0.00055335208
0.16545157 0.19655501 -0.0011428754
0.19024312 0.19704191 -0.0017323988
0.21503468 0.19752882 -0.0023219222
0.23982623 0.19801573 -0.0029114456
0.26461779 0.19850264 -0.0035009689
0.28940934 0.19898955 -0.0040904923
0.3142009 0.19947645 -0.0046800157
0.33899245 0.19996336 -0.005269539
0.363784 0.20045027 -0.0058590624
0.38857556 0.20093718 -0.0064485858
0.41336711 0.20142409 -0.0070381091
0.43815867 0.20191099 -0.0076276325
0.46295022 0.2023979 -0.0082171559
0.48774178 0.20288481 -0.0088066792
0.51253333 0.20337172 -0.0093962026
0.53732488 0.20385863 -0.009985726
0.56211644 0.20434554 -0.010575249
0.58690799 0.20483244 -0.011164773
0.61169955 0.20531935 -0.011754296
0.6364911 0.20580626 -0.012343819
0.66128266 0.20629317 -0.012933343
0.68607421 0.20678008 -0.013522866
0.71086577 0.20726698 -0.01411239
0.73565732 0.20775389 -0.014701913
0.76044887 0.2082408 -0.015291436
0.78524043 0.20872771 -0.01588096
0.81003198 0.20921462 -0.016470483
0.019485949 0.22590582 0.0027933089
0.044277504 0.22639273 0.0022037855
0.069069058 0.22687963 0.0016142622
0.093860613 0.22736654 0.0010247388
0.11865217 0.22785345 0.00043521542
0.14344372 0.22834036 -0.00015430795
0.16823528 0.22882727 -0.00074383132
0.19302683 0.22931417 -0.0013333547
0.21781838 0.22980108 -0.0019228781
0.24260994 0.23028799 -0.0025124014
0.26740149 0.2307749 -0.0031019248
0.29219305 0.23126181 -0.0036914482
0.3169846 0.23174871 -0.0042809715
0.34177616 0.23223562 -0.0048704949
0.36656771 0.23272253 -0.0054600183
0.39135927 0.23320944 -0.0060495416
0.41615082 0.23369635 -0.006639065
0.44094237 0.23418325 -0.0072285884
0.46573393 0.23467016 -0.0078181117
0.49052548 0.23515707 -0.0084076351
0.51531704 0.23564398 -0.0089971585
0.54010859 0.23613089 -0.0095866818
0.56490015 0.23661779 -0.010176205
0.5896917 0.2371047 -0.010765729
0.61448326 0.23759161 -0.011355252
0.63927481 0.23807852 -0.011944775
0.66406636 0.23856543 -0.012534299
0.68885792 0.23905234 -0.013123822
0.71364947 0.23953924 -0.013713345
0.73844103 0.24002615 -0.014302869
0.76323258 0.24051306 -0.014892392
0.78802414 0.24099997 -0.015481916
0.81281569 0.24148688 -0.016071439
0.022269656 0.25817808 0.003192353
0.047061211 0.25866498 0.0026028297
0.071852765 0.25915189 0.0020133063
0.09664432 0.2596388 0.0014237829
0.12143587 0.26012571 0.00083425955
0.14622743 0.26061262 0.00024473618
0.17101898 0.26109953 -0.00034478719
0.19581054 0.26158643 -0.00093431056
0.22060209 0.26207334 -0.0015238339
0.24539365 0.26256025 -0.0021133573
0.2701852 0.26304716 -0.0027028807
0.29497675 0.26353407 -0.003292404
0.31976831 0.26402097 -0.0038819274
0.34455986 0.26450788 -0.0044714508
0.36935142 0.26499479 -0.0050609741
0.39414297 0.2654817 -0.0056504975
0.41893453 0.26596861 -0.0062400209
0.44372608 0.26645551 -0.0068295442
0.46851764 0.26694242 -0.0074190676
0.49330919 0.26742933 -0.008008591
0.51810074 0.26791624 -0.0085981144
0.5428923 0.26840315 -0.0091876377
0.56768385 0.26889005 -0.0097771611
0.59247541 0.26937696 -0.010366684
0.61726696 0.26986387 -0.010956208
0.64205852 0.27035078 -0.011545731
0.66685007 0.27083769 -0.012135255
0.69164163 0.27132459 -0.012724778
0.71643318 0.2718115 -0.013314301
0.74122473 0.27229841 -0.013903825
0.76601629 0.27278532 -0.014493348
0.79080784 0.27327223 -0.015082871
0.8155994 0.27375914 -0.015672395
0.025053363 0.29045034 0.0035913972
0.049844918 0.29093724 0.0030018738
0.074636472 0.29142415 0.0024123504
0.099428027 0.29191106 0.001822827
0.12421958 0.29239797 0.0012333037
0.14901114 0.29288488 0.00064378031
0.17380269 0.29337178 0.00005425694
0.19859424 0.29385869 -0.00053526643
0.2233858 0.2943456 -0.0011247898
0.24817735 0.29483251 -0.0017143132
0.27296891 0.29531942 -0.0023038365
0.29776046 0.29580633 -0.0028933599
0.32255202 0.29629323 -0.0034828833
0.34734357 0.29678014 -0.0040724066
0.37213513 0.29726705 -0.00466193
0.39692668 0.29775396 -0.0052514534
0.42171823 0.29824087 -0.0058409767
0.44650979 0.29872777 -0.0064305001
0.47130134 0.29921468 -0.0070200235
0.4960929 0.29970159 -0.0076095469
0.52088445 0.3001885 -0.0081990702
0.54567601 0.30067541 -0.0087885936
0.57046756 0.30116231 -0.009378117
0.59525911 0.30164922 -0.0099676403
0.62005067 0.30213613 -0.010557164
0.64484222 0.30262304 -0.011146687
0.66963378 0.30310995 -0.01173621
0.69442533 0.30359685 -0.012325734
0.71921689 0.30408376 -0.012915257
0.74400844 0.30457067 -0.013504781
0.7688 0.30505758 -0.014094304
0.79359155 0.30554449 -0.014683827
0.8183831 0.30603139 -0.015273351
0.027837071 0.3227226 0.0039904413
0.052628625 0.3232095 0.0034009179
0.077420179 0.32369641 0.0028113945
0.10221173 0.32418332 0.0022218712
0.12700329 0.32467023 0.0016323478
0.15179484 0.32515714 0.0010428244
0.1765864 0.32564404 0.00045330107
0.20137795 0.32613095 -0.0001362223
0.22616951 0.32661786 -0.00072574567
0.25096106 0.32710477 -0.001315269
0.27575261 0.32759168 -0.0019047924
0.30054417 0.32807858 -0.0024943158
0.32533572 0.32856549 -0.0030838391
0.35012728 0.3290524 -0.0036733625
0.37491883 0.32953931 -0.0042628859
0.39971039 0.33002622 -0.0048524093
0.42450194 0.33051313 -0.0054419326
0.4492935 0.33100003 -0.006031456
0.47408505 0.33148694 -0.0066209794
0.4988766 0.33197385 -0.0072105027
0.52366816 0.33246076 -0.0078000261
0.54845971 0.33294767 -0.0083895495
0.57325127 0.33343457 -0.0089790728
0.59804282 0.33392148 -0.0095685962
0.62283438 0.33440839 -0.01015812
0.64762593 0.3348953 -0.010747643
0.67241749 0.33538221 -0.011337166
0.69720904 0.33586911 -0.01192669
0.72200059 0.33635602 -0.012516213
0.74679215 0.33684293 -0.013105736
0.7715837 0.33732984 -0.01369526
0.79637526 0.33781675 -0.014284783
0.82116681 0.33830365 -0.014874307
0.030620778 0.35499486 0.0043894854
0.055412332 0.35548176 0.003799962
0.080203886 0.35596867 0.0032104387
0.10499544 0.35645558 0.0026209153
0.129787 0.35694249 0.0020313919
0.15457855 0.3574294 0.0014418686
0.1793701 0.3579163 0.0008523452
0.20416166 0.35840321 0.00026282183
0.22895321 0.35889012 -0.00032670154
0.25374477 0.35937703 -0.00091622491
0.27853632 0.35986394 -0.0015057483
0.30332788 0.36035084 -0.0020952716
0.32811943 0.36083775 -0.002684795
0.35291098 0.36132466 -0.0032743184
0.37770254 0.36181157 -0.0038638418
0.40249409 0.36229848 -0.0044533651
0.42728565 0.36278538 -0.0050428885
0.4520772 0.36327229 -0.0056324119
0.47686876 0.3637592 -0.0062219352
0.50166031 0.36424611 -0.0068114586
0.52645187 0.36473302 -0.007400982
0.55124342 0.36521993 -0.0079905053
0.57603497 0.36570683 -0.0085800287
0.60082653 0.36619374 -0.0091695521
0.62561808 0.36668065 -0.0097590754
0.65040964 0.36716756 -0.010348599
0.67520119 0.36765447 -0.010938122
0.69999275 0.36814137 -0.011527646
0.7247843 0.36862828 -0.012117169
0.74957586 0.36911519 -0.012706692
0.77436741 0.3696021 -0.013296216
0.79915896 0.37008901 -0.013885739
0.82395052 0.37057591 -0.014475262
0.033404485 0.38726712 0.0047885295
0.058196039 0.38775402 0.0041990062
0.082987593 0.38824093 0.0036094828
0.10777915 0.38872784 0.0030199594
0.1325707 0.38921475 0.0024304361
0.15736226 0.38970166 0.0018409127
0.18215381 0.39018856 0.0012513893
0.20694537 0.39067547 0.00066186596
0.23173692 0.39116238 0.000072342587
0.25652847 0.39164929 -0.00051718078
0.28132003 0.3921362 -0.0011067042
0.30611158 0.3926231 -0.0016962275
0.33090314 0.39311001 -0.0022857509
0.35569469 0.39359692 -0.0028752743
0.38048625 0.39408383 -0.0034647976
0.4052778 0.39457074 -0.004054321
0.43006936 0.39505764 -0.0046438444
0.45486091 0.39554455 -0.0052333677
0.47965246 0.39603146 -0.0058228911
0.50444402 0.39651837 -0.0064124145
0.52923557 0.39700528 -0.0070019378
0.55402713 0.39749218 -0.0075914612
0.57881868 0.39797909 -0.0081809846
0.60361024 0.398466 -0.0087705079
0.62840179 0.39895291 -0.0093600313
0.65319334 0.39943982 -0.0099495547
0.6779849 0.39992673 -0.010539078
0.70277645 0.40041363 -0.011128601
0.72756801 0.40090054 -0.011718125
0.75235956 0.40138745 -0.012307648
0.77715112 0.40187436 -0.012897172
0.80194267 0.40236127 -0.013486695
0.82673423 0.40284817 -0.014076218
0.036188192 0.41953937 0.0051875737
0.060979746 0.42002628 0.0045980503
0.0857713 0.42051319 0.0040085269
0.11056285 0.4210001 0.0034190036
0.13535441 0.42148701 0.0028294802
0.16014596 0.42197392 0.0022399568
0.18493752 0.42246082 0.0016504335
0.20972907 0.42294773 0.0010609101
0.23452063 0.42343464 0.00047138671
0.25931218 0.42392155 -0.00011813665
0.28410374 0.42440846 -0.00070766002
0.30889529 0.42489536 -0.0012971834
0.33368684 0.42538227 -0.0018867068
0.3584784 0.42586918 -0.0024762301
0.38326995 0.42635609 -0.0030657535
0.40806151 0.426843 -0.0036552769
0.43285306 0.4273299 -0.0042448002
0.45764462 0.42781681 -0.0048343236
0.48243617 0.42830372 -0.005423847
0.50722773 0.42879063 -0.0060133703
0.53201928 0.42927754 -0.0066028937
0.55681083 0.42976444 -0.0071924171
0.58160239 0.43025135 -0.0077819404
0.60639394 0.43073826 -0.0083714638
0.6311855 0.43122517 -0.0089609872
0.65597705 0.43171208 -0.0095505106
0.68076861 0.43219898 -0.010140034
0.70556016 0.43268589 -0.010729557
0.73035172 0.4331728 -0.011319081
0.75514327 0.43365971 -0.011908604
0.77993482 0.43414662 -0.012498127
0.80472638 0.43463353 -0.013087651
0.82951793 0.43512043 -0.013677174
0.038971899 0.45181163 0.0055866178
0.063763453 0.45229854 0.0049970944
0.088555008 0.45278545 0.0044075711
0.11334656 0.45327236 0.0038180477
0.13813812 0.45375927 0.0032285243
0.16292967 0.45424617 0.0026390009
0.18772123 0.45473308 0.0020494776
0.21251278 0.45521999 0.0014599542
0.23730433 0.4557069 0.00087043084
0.26209589 0.45619381 0.00028090747
0.28688744 0.45668072 -0.00030861589
0.311679 0.45716762 -0.00089813926
0.33647055 0.45765453 -0.0014876626
0.36126211 0.45814144 -0.002077186
0.38605366 0.45862835 -0.0026667094
0.41084521 0.45911526 -0.0032562327
0.43563677 0.45960216 -0.0038457561
0.46042832 0.46008907 -0.0044352795
0.48521988 0.46057598 -0.0050248028
0.51001143 0.46106289 -0.0056143262
0.53480299 0.4615498 -0.0062038496
0.55959454 0.4620367 -0.006793373
0.5843861 0.46252361 -0.0073828963
0.60917765 0.46301052 -0.0079724197
0.6339692 0.46349743 -0.0085619431
0.65876076 0.46398434 -0.0091514664
0.68355231 0.46447124 -0.0097409898
0.70834387 0.46495815 -0.010330513
0.73313542 0.46544506 -0.010920037
0.75792698 0.46593197 -0.01150956
0.78271853 0.46641888 -0.012099083
0.80751009 0.46690578 -0.012688607
0.83230164 0.46739269 -0.01327813
0.041755606 0.48408389 0.0059856619
0.06654716 0.4845708 0.0053961386
0.091338715 0.48505771 0.0048066152
0.11613027 0.48554462 0.0042170918
0.14092182 0.48603153 0.0036275684
0.16571338 0.48651843 0.0030380451
0.19050493 0.48700534 0.0024485217
0.21529649 0.48749225 0.0018589983
0.24008804 0.48797916 0.001269475
0.2648796 0.48846607 0.0006799516
0.28967115 0.48895297 0.000090428233
0.3144627 0.48943988 -0.00049909514
0.33925426 0.48992679 -0.0010886185
0.36404581 0.4904137 -0.0016781419
0.38883737 0.49090061 -0.0022676652
0.41362892 0.49138752 -0.0028571886
0.43842048 0.49187442 -0.003446712
0.46321203 0.49236133 -0.0040362353
0.48800359 0.49284824 -0.0046257587
0.51279514 0.49333515 -0.0052152821
0.53758669 0.49382206 -0.0058048055
0.56237825 0.49430896 -0.0063943288
0.5871698 0.49479587 -0.0069838522
0.61196136 0.49528278 -0.0075733756
0.63675291 0.49576969 -0.0081628989
0.66154447 0.4962566 -0.0087524223
0.68633602 0.4967435 -0.0093419457
0.71112757 0.49723041 -0.009931469
0.73591913 0.49771732 -0.010520992
0.76071068 0.49820423 -0.011110516
0.78550224 0.49869114 -0.011700039
0.81029379 0.49917804 -0.012289563
0.83508535 0.49966495 -0.012879086
0.044539313 0.51635615 0.006384706
0.069330867 0.51684306 0.0057951827
0.094122422 0.51732997 0.0052056593
0.11891398 0.51781688 0.0046161359
0.14370553 0.51830379 0.0040266126
0.16849708 0.51879069 0.0034370892
0.19328864 0.5192776 0.0028475658
0.21808019 0.51976451 0.0022580425
0.24287175 0.52025142 0.0016685191
0.2676633 0.52073833 0.0010789957
0.29245486 0.52122523 0.00048947236
0.31724641 0.52171214 -0.00010005101
0.34203797 0.52219905 -0.00068957438
0.36682952 0.52268596 -0.0012790977
0.39162107 0.52317287 -0.0018686211
0.41641263 0.52365977 -0.0024581445
0.44120418 0.52414668 -0.0030476679
0.46599574 0.52463359 -0.0036371912
0.49078729 0.5251205 -0.0042267146
0.51557885 0.52560741 -0.004816238
0.5403704 0.52609432 -0.0054057613
0.56516196 0.52658122 -0.0059952847
0.58995351 0.52706813 -0.0065848081
0.61474506 0.52755504 -0.0071743314
0.63953662 0.52804195 -0.0077638548
0.66432817 0.52852886 -0.0083533782
0.68911973 0.52901576 -0.0089429015
0.71391128 0.52950267 -0.0095324249
0.73870284 0.52998958 -0.010121948
0.76349439 0.53047649 -0.010711472
0.78828595 0.5309634 -0.011300995
0.8130775 0.5314503 -0.011890518
0.83786905 0.53193721 -0.012480042
0.04732302 0.54862841 0.0067837502
0.072114574 0.54911532 0.0061942268
0.096906129 0.54960223 0.0056047034
0.12169768 0.55008914 0.0050151801
0.14648924 0.55057605 0.0044256567
0.17128079 0.55106295 0.0038361333
0.19607235 0.55154986 0.00324661
0.2208639 0.55203677 0.0026570866
0.24565546 0.55252368 0.0020675632
0.27044701 0.55301059 0.0014780399
0.29523856 0.55349749 0.00088851649
0.32003012 0.5539844 0.00029899312
0.34482167 0.55447131 -0.00029053025
0.36961323 0.55495822 -0.00088005362
0.39440478 0.55544513 -0.001469577
0.41919634 0.55593203 -0.0020591004
0.44398789 0.55641894 -0.0026486237
0.46877944 0.55690585 -0.0032381471
0.493571 0.55739276 -0.0038276705
0.51836255 0.55787967 -0.0044171938
0.54315411 0.55836657 -0.0050067172
0.56794566 0.55885348 -0.0055962406
0.59273722 0.55934039 -0.0061857639
0.61752877 0.5598273 -0.0067752873
0.64232033 0.56031421 -0.0073648107
0.66711188 0.56080112 -0.007954334
0.69190343 0.56128802 -0.0085438574
0.71669499 0.56177493 -0.0091333808
0.74148654 0.56226184 -0.0097229041
0.7662781 0.56274875 -0.010312428
0.79106965 0.56323566 -0.010901951
0.81586121 0.56372256 -0.011491474
0.84065276 0.56420947 -0.012080998
0.050106727 0.58090067 0.0071827943
0.074898281 0.58138758 0.0065932709
0.099689836 0.58187449 0.0060037476
0.12448139 0.5823614 0.0054142242
0.14927294 0.5828483 0.0048247008
0.1740645 0.58333521 0.0042351775
0.19885605 0.58382212 0.0036456541
0.22364761 0.58430903 0.0030561307
0.24843916 0.58479594 0.0024666074
0.27323072 0.58528285 0.001877084
0.29802227 0.58576975 0.0012875606
0.32281383 0.58625666 0.00069803725
0.34760538 0.58674357 0.00010851388
0.37239693 0.58723048 -0.00048100949
0.39718849 0.58771739 -0.0010705329
0.42198004 0.58820429 -0.0016600562
0.4467716 0.5886912 -0.0022495796
0.47156315 0.58917811 -0.002839103
0.49635471 0.58966502 -0.0034286263
0.52114626 0.59015193 -0.0040181497
0.54593782 0.59063883 -0.0046076731
0.57072937 0.59112574 -0.0051971964
0.59552092 0.59161265 -0.0057867198
0.62031248 0.59209956 -0.0063762432
0.64510403 0.59258647 -0.0069657665
0.66989559 0.59307337 -0.0075552899
0.69468714 0.59356028 -0.0081448133
0.7194787 0.59404719 -0.0087343367
