site/assets/luts/ocio-aces--panasonicinputlinear-vgamut-to-aces2065-1--3250fc7ee.cube
# LUTr-Project: LUTr — LUTrepository
# LUTr-Schema-Version: 1
# LUTr-ID: ocio-aces--panasonicinputlinear-vgamut-to-aces2065-1--3250fc7ee
# LUTr-Title: Panasonic.Input.Linear VGamut to ACES2065-1
# LUTr-Collection: OCIO ACES
# LUTr-Collection-ID: aswf-opencolorio-config-aces
# LUTr-Source: https://github.com/AcademySoftwareFoundation/OpenColorIO-Config-ACES
# LUTr-Source-File: submissions/aswf-opencolorio-config-aces/opencolorio_config_aces/clf/transforms/panasonic/input/Panasonic.Input.Linear_VGamut_to_ACES2065-1.clf
# LUTr-Source-Format: CLF
# LUTr-Source-SHA256: e10859c4e82faa7577936bd8f0a7c2ec4bba66dd4341079bbd1fd913a551f145
# LUTr-License: BSD-3-Clause
# LUTr-License-URL: https://github.com/AcademySoftwareFoundation/OpenColorIO-Config-ACES/blob/main/LICENSE
# LUTr-Tags: technical, aces, ocio, clf, color-management, cube
# LUTr-Transform-Class: color-space-conversion
# LUTr-Input-Color-Space: Linear Panasonic V-Gamut
# LUTr-Output-Color-Space: ACES2065-1
# LUTr-Color-Space-Confidence: descriptor-only
# LUTr-Conversion-Method: CLF operations evaluated as float and sampled to 33x33x33 3D CUBE
# LUTr-Conversion-Date: 2026-07-27
# LUTr-Conversion-Tool: LUTr scripts/convert-all-to-cube.mjs
# LUTr-Conversion-Grid: 33x33x33
# LUTr-Conversion-Warning: A sampled 3D CUBE is bounded to DOMAIN_MIN/MAX 0..1 and cannot preserve CLF values outside its input domain.
# LUTr-Upstream-ID: urn:aswf:ocio:transformId:1.0:Panasonic:Input:Linear_VGamut_to_ACES2065-1:1.0
# LUTr-Upstream-Name: Linear Panasonic V-Gamut to ACES2065-1
# LUTr-Upstream-Input-Descriptor: Linear Panasonic V-Gamut
# LUTr-Upstream-Output-Descriptor: ACES2065-1
# LUTr-Upstream-Operations: Matrix
# LUTr-Note: Preserve this metadata and the upstream license notices when redistributing.
TITLE "Panasonic.Input.Linear VGamut to ACES2065-1"
LUT_3D_SIZE 5
DOMAIN_MIN 0 0 0
DOMAIN_MAX 1 1 1
0 0 0
0.18115418 0.0053475614 -0.0023088907
0.36230835 0.010695123 -0.0046177814
0.54346253 0.016042684 -0.0069266722
0.7246167 0.021390245 -0.0092355629
0.041728822 0.24622704 -0.00026422641
0.222883 0.2515746 -0.0025731171
0.40403717 0.25692216 -0.0048820078
0.58519135 0.26226972 -0.0071908986
0.76634553 0.26761728 -0.0094997893
0.083457644 0.49245408 -0.00052845282
0.26461182 0.49780164 -0.0028373435
0.445766 0.5031492 -0.0051462343
0.62692017 0.50849676 -0.007455125
0.80807435 0.51384432 -0.0097640157
0.12518647 0.73868112 -0.00079267923
0.30634064 0.74402868 -0.0031015699
0.48749482 0.74937624 -0.0054104607
0.66864899 0.7547238 -0.0077193514
0.84980317 0.76007136 -0.010028242
0.16691529 0.98490816 -0.0010569056
0.34806946 0.99025572 -0.0033657964
0.52922364 0.99560328 -0.0056746871
0.71037782 1.0009508 -0.0079835778
0.89153199 1.0062984 -0.010292469
0.027117002 -0.0015746003 0.25257312
0.20827118 0.0037729611 0.25026423
0.38942535 0.0091205224 0.24795534
0.57057953 0.014468084 0.24564644
0.75173371 0.019815645 0.24333755
0.068845824 0.24465244 0.25230889
0.25 0.25 0.25
0.43115418 0.25534756 0.24769111
0.61230835 0.26069512 0.24538222
0.79346253 0.26604268 0.24307333
0.11057465 0.49087948 0.25204466
0.29172882 0.49622704 0.24973577
0.472883 0.5015746 0.24742688
0.65403717 0.50692216 0.24511799
0.83519135 0.51226972 0.2428091
0.15230347 0.73710652 0.25178044
0.33345764 0.74245408 0.24947155
0.51461182 0.74780164 0.24716266
0.695766 0.7531492 0.24485377
0.87692017 0.75849676 0.24254488
0.19403229 0.98333356 0.25151621
0.37518647 0.98868112 0.24920732
0.55634064 0.99402868 0.24689843
0.73749482 0.99937624 0.24458954
0.91864899 1.0047238 0.24228065
0.054234004 -0.0031492006 0.50514623
0.23538818 0.0021983608 0.50283734
0.41654236 0.0075459221 0.50052845
0.59769653 0.012893484 0.49821956
0.77885071 0.018241045 0.49591067
0.095962826 0.24307784 0.50488201
0.277117 0.2484254 0.50257312
0.45827118 0.25377296 0.50026423
0.63942535 0.25912052 0.49795534
0.82057953 0.26446808 0.49564644
0.13769165 0.48930488 0.50461778
0.31884582 0.49465244 0.50230889
0.5 0.5 0.5
0.68115418 0.50534756 0.49769111
0.86230835 0.51069512 0.49538222
0.17942047 0.73553192 0.50435356
0.36057465 0.74087948 0.50204466
0.54172882 0.74622704 0.49973577
0.722883 0.7515746 0.49742688
0.90403717 0.75692216 0.49511799
0.22114929 0.98175896 0.50408933
0.40230347 0.98710652 0.50178044
0.58345764 0.99245408 0.49947155
0.76461182 0.99780164 0.49716266
0.945766 1.0031492 0.49485377
0.081351006 -0.0047238008 0.75771935
0.26250518 0.00062376052 0.75541046
0.44365936 0.0059713219 0.75310157
0.62481353 0.011318883 0.75079268
0.80596771 0.016666445 0.74848379
0.12307983 0.24150324 0.75745512
0.304234 0.2468508 0.75514623
0.48538818 0.25219836 0.75283734
0.66654236 0.25754592 0.75052845
0.84769653 0.26289348 0.74821956
0.16480865 0.48773028 0.7571909
0.34596283 0.49307784 0.75488201
0.527117 0.4984254 0.75257312
0.70827118 0.50377296 0.75026423
0.88942535 0.50912052 0.74795534
0.20653747 0.73395732 0.75692667
0.38769165 0.73930488 0.75461778
0.56884582 0.74465244 0.75230889
0.75 0.75 0.75
0.93115418 0.75534756 0.74769111
0.24826629 0.98018435 0.75666245
0.42942047 0.98553192 0.75435356
0.61057465 0.99087948 0.75204466
0.79172882 0.99622704 0.74973577
0.972883 1.0015746 0.74742688
0.10846801 -0.0062984011 1.0102925
0.28962218 -0.00095083976 1.0079836
0.47077636 0.0043967216 1.0056747
0.65193054 0.0097442829 1.0033658
0.83308471 0.015091844 1.0010569
0.15019683 0.23992864 1.0100282
0.33135101 0.2452762 1.0077194
0.51250518 0.25062376 1.0054105
0.69365936 0.25597132 1.0031016
0.87481353 0.26131888 1.0007927
0.19192565 0.48615568 1.009764
0.37307983 0.49150324 1.0074551
0.554234 0.4968508 1.0051462
0.73538818 0.50219836 1.0028373
0.91654236 0.50754592 1.0005285
0.23365447 0.73238272 1.0094998
0.41480865 0.73773028 1.0071909
0.59596283 0.74307784 1.004882
0.777117 0.7484254 1.0025731
0.95827118 0.75377296 1.0002642
0.2753833 0.97860975 1.0092356
0.45653747 0.98395732 1.0069267
0.63769165 0.98930488 1.0046178
0.81884582 0.99465244 1.0023089
1 1 1
