site/assets/luts/ocio-aces--canoninputclog2-curve--693e13a88.cube
# LUTr-Project: LUTr — LUTrepository
# LUTr-Schema-Version: 1
# LUTr-ID: ocio-aces--canoninputclog2-curve--693e13a88
# LUTr-Title: Canon.Input.CLog2-Curve
# LUTr-Collection: OCIO ACES
# LUTr-Collection-ID: aswf-opencolorio-config-aces
# LUTr-Source: https://github.com/AcademySoftwareFoundation/OpenColorIO-Config-ACES
# LUTr-Source-File: submissions/aswf-opencolorio-config-aces/opencolorio_config_aces/clf/transforms/canon/input/Canon.Input.CLog2-Curve.clf
# LUTr-Source-Format: CLF
# LUTr-Source-SHA256: 3ff8c4ec335d9a18c2e37b3e18488d5273bd5720262c5afd510485f239746424
# LUTr-License: BSD-3-Clause
# LUTr-License-URL: https://github.com/AcademySoftwareFoundation/OpenColorIO-Config-ACES/blob/main/LICENSE
# LUTr-Tags: technical, aces, ocio, clf, color-management, cube
# LUTr-Transform-Class: color-space-conversion
# LUTr-Input-Color-Space: CLog2 Log (arbitrary primaries)
# LUTr-Output-Color-Space: CLog2 Linear (arbitrary primaries)
# LUTr-Color-Space-Confidence: descriptor-only
# LUTr-Conversion-Method: CLF operations evaluated as float and sampled to 33x33x33 3D CUBE
# LUTr-Conversion-Date: 2026-07-27
# LUTr-Conversion-Tool: LUTr scripts/convert-all-to-cube.mjs
# LUTr-Conversion-Grid: 33x33x33
# LUTr-Conversion-Warning: A sampled 3D CUBE is bounded to DOMAIN_MIN/MAX 0..1 and cannot preserve CLF values outside its input domain.
# LUTr-Upstream-ID: urn:aswf:ocio:transformId:1.0:Canon:Input:CLog2-Curve_to_Linear:1.0
# LUTr-Upstream-Name: CLog2 Log to Linear Curve
# LUTr-Upstream-Input-Descriptor: CLog2 Log (arbitrary primaries)
# LUTr-Upstream-Output-Descriptor: CLog2 Linear (arbitrary primaries)
# LUTr-Upstream-Builtin-Transform: CURVE - CANON_CLOG2_to_LINEAR
# LUTr-Upstream-Operations: LUT1D
# LUTr-Note: Preserve this metadata and the upstream license notices when redistributing.
TITLE "Canon.Input.CLog2-Curve"
LUT_3D_SIZE 33
DOMAIN_MIN 0 0 0
DOMAIN_MAX 1 1 1
-0.014726903 -0.014726903 -0.014726903
-0.0082666618 -0.014726903 -0.014726903
-0.0034718171 -0.014726903 -0.014726903
0.00008769953 -0.014726903 -0.014726903
0.0037071387 -0.014726903 -0.014726903
0.008583721 -0.014726903 -0.014726903
0.01515409 -0.014726903 -0.014726903
0.024006552 -0.014726903 -0.014726903
0.035933744 -0.014726903 -0.014726903
0.052003621 -0.014726903 -0.014726903
0.073655061 -0.014726903 -0.014726903
0.10282671 -0.014726903 -0.014726903
0.14213058 -0.014726903 -0.014726903
0.19508587 -0.014726903 -0.014726903
0.26643419 -0.014726903 -0.014726903
0.36256397 -0.014726903 -0.014726903
0.49208257 -0.014726903 -0.014726903
0.66658694 -0.014726903 -0.014726903
0.90170209 -0.014726903 -0.014726903
1.2184799 -0.014726903 -0.014726903
1.6452845 -0.014726903 -0.014726903
2.2203313 -0.014726903 -0.014726903
2.9951096 -0.014726903 -0.014726903
4.0389923 -0.014726903 -0.014726903
5.4454473 -0.014726903 -0.014726903
7.3404075 -0.014726903 -0.014726903
9.8935449 -0.014726903 -0.014726903
13.333466 -0.014726903 -0.014726903
17.968176 -0.014726903 -0.014726903
24.212666 -0.014726903 -0.014726903
32.626057 -0.014726903 -0.014726903
43.961674 -0.014726903 -0.014726903
59.234501 -0.014726903 -0.014726903
-0.014726903 -0.0082666618 -0.014726903
-0.0082666618 -0.0082666618 -0.014726903
-0.0034718171 -0.0082666618 -0.014726903
0.00008769953 -0.0082666618 -0.014726903
0.0037071387 -0.0082666618 -0.014726903
0.008583721 -0.0082666618 -0.014726903
0.01515409 -0.0082666618 -0.014726903
0.024006552 -0.0082666618 -0.014726903
0.035933744 -0.0082666618 -0.014726903
0.052003621 -0.0082666618 -0.014726903
0.073655061 -0.0082666618 -0.014726903
0.10282671 -0.0082666618 -0.014726903
0.14213058 -0.0082666618 -0.014726903
0.19508587 -0.0082666618 -0.014726903
0.26643419 -0.0082666618 -0.014726903
0.36256397 -0.0082666618 -0.014726903
0.49208257 -0.0082666618 -0.014726903
0.66658694 -0.0082666618 -0.014726903
0.90170209 -0.0082666618 -0.014726903
1.2184799 -0.0082666618 -0.014726903
1.6452845 -0.0082666618 -0.014726903
2.2203313 -0.0082666618 -0.014726903
2.9951096 -0.0082666618 -0.014726903
4.0389923 -0.0082666618 -0.014726903
5.4454473 -0.0082666618 -0.014726903
7.3404075 -0.0082666618 -0.014726903
9.8935449 -0.0082666618 -0.014726903
13.333466 -0.0082666618 -0.014726903
17.968176 -0.0082666618 -0.014726903
24.212666 -0.0082666618 -0.014726903
32.626057 -0.0082666618 -0.014726903
43.961674 -0.0082666618 -0.014726903
59.234501 -0.0082666618 -0.014726903
-0.014726903 -0.0034718171 -0.014726903
-0.0082666618 -0.0034718171 -0.014726903
-0.0034718171 -0.0034718171 -0.014726903
0.00008769953 -0.0034718171 -0.014726903
0.0037071387 -0.0034718171 -0.014726903
0.008583721 -0.0034718171 -0.014726903
0.01515409 -0.0034718171 -0.014726903
0.024006552 -0.0034718171 -0.014726903
0.035933744 -0.0034718171 -0.014726903
0.052003621 -0.0034718171 -0.014726903
0.073655061 -0.0034718171 -0.014726903
0.10282671 -0.0034718171 -0.014726903
0.14213058 -0.0034718171 -0.014726903
0.19508587 -0.0034718171 -0.014726903
0.26643419 -0.0034718171 -0.014726903
0.36256397 -0.0034718171 -0.014726903
0.49208257 -0.0034718171 -0.014726903
0.66658694 -0.0034718171 -0.014726903
0.90170209 -0.0034718171 -0.014726903
1.2184799 -0.0034718171 -0.014726903
1.6452845 -0.0034718171 -0.014726903
2.2203313 -0.0034718171 -0.014726903
2.9951096 -0.0034718171 -0.014726903
4.0389923 -0.0034718171 -0.014726903
5.4454473 -0.0034718171 -0.014726903
7.3404075 -0.0034718171 -0.014726903
9.8935449 -0.0034718171 -0.014726903
13.333466 -0.0034718171 -0.014726903
17.968176 -0.0034718171 -0.014726903
24.212666 -0.0034718171 -0.014726903
32.626057 -0.0034718171 -0.014726903
43.961674 -0.0034718171 -0.014726903
59.234501 -0.0034718171 -0.014726903
-0.014726903 0.00008769953 -0.014726903
-0.0082666618 0.00008769953 -0.014726903
-0.0034718171 0.00008769953 -0.014726903
0.00008769953 0.00008769953 -0.014726903
0.0037071387 0.00008769953 -0.014726903
0.008583721 0.00008769953 -0.014726903
0.01515409 0.00008769953 -0.014726903
0.024006552 0.00008769953 -0.014726903
0.035933744 0.00008769953 -0.014726903
0.052003621 0.00008769953 -0.014726903
0.073655061 0.00008769953 -0.014726903
0.10282671 0.00008769953 -0.014726903
0.14213058 0.00008769953 -0.014726903
0.19508587 0.00008769953 -0.014726903
0.26643419 0.00008769953 -0.014726903
0.36256397 0.00008769953 -0.014726903
0.49208257 0.00008769953 -0.014726903
0.66658694 0.00008769953 -0.014726903
0.90170209 0.00008769953 -0.014726903
1.2184799 0.00008769953 -0.014726903
1.6452845 0.00008769953 -0.014726903
2.2203313 0.00008769953 -0.014726903
2.9951096 0.00008769953 -0.014726903
4.0389923 0.00008769953 -0.014726903
5.4454473 0.00008769953 -0.014726903
7.3404075 0.00008769953 -0.014726903
9.8935449 0.00008769953 -0.014726903
13.333466 0.00008769953 -0.014726903
17.968176 0.00008769953 -0.014726903
24.212666 0.00008769953 -0.014726903
32.626057 0.00008769953 -0.014726903
43.961674 0.00008769953 -0.014726903
59.234501 0.00008769953 -0.014726903
-0.014726903 0.0037071387 -0.014726903
-0.0082666618 0.0037071387 -0.014726903
-0.0034718171 0.0037071387 -0.014726903
0.00008769953 0.0037071387 -0.014726903
0.0037071387 0.0037071387 -0.014726903
0.008583721 0.0037071387 -0.014726903
0.01515409 0.0037071387 -0.014726903
0.024006552 0.0037071387 -0.014726903
0.035933744 0.0037071387 -0.014726903
0.052003621 0.0037071387 -0.014726903
0.073655061 0.0037071387 -0.014726903
0.10282671 0.0037071387 -0.014726903
0.14213058 0.0037071387 -0.014726903
0.19508587 0.0037071387 -0.014726903
0.26643419 0.0037071387 -0.014726903
0.36256397 0.0037071387 -0.014726903
0.49208257 0.0037071387 -0.014726903
0.66658694 0.0037071387 -0.014726903
0.90170209 0.0037071387 -0.014726903
1.2184799 0.0037071387 -0.014726903
1.6452845 0.0037071387 -0.014726903
2.2203313 0.0037071387 -0.014726903
2.9951096 0.0037071387 -0.014726903
4.0389923 0.0037071387 -0.014726903
5.4454473 0.0037071387 -0.014726903
7.3404075 0.0037071387 -0.014726903
9.8935449 0.0037071387 -0.014726903
13.333466 0.0037071387 -0.014726903
17.968176 0.0037071387 -0.014726903
24.212666 0.0037071387 -0.014726903
32.626057 0.0037071387 -0.014726903
43.961674 0.0037071387 -0.014726903
59.234501 0.0037071387 -0.014726903
-0.014726903 0.008583721 -0.014726903
-0.0082666618 0.008583721 -0.014726903
-0.0034718171 0.008583721 -0.014726903
0.00008769953 0.008583721 -0.014726903
0.0037071387 0.008583721 -0.014726903
0.008583721 0.008583721 -0.014726903
0.01515409 0.008583721 -0.014726903
0.024006552 0.008583721 -0.014726903
0.035933744 0.008583721 -0.014726903
0.052003621 0.008583721 -0.014726903
0.073655061 0.008583721 -0.014726903
0.10282671 0.008583721 -0.014726903
0.14213058 0.008583721 -0.014726903
0.19508587 0.008583721 -0.014726903
0.26643419 0.008583721 -0.014726903
0.36256397 0.008583721 -0.014726903
0.49208257 0.008583721 -0.014726903
0.66658694 0.008583721 -0.014726903
0.90170209 0.008583721 -0.014726903
1.2184799 0.008583721 -0.014726903
1.6452845 0.008583721 -0.014726903
2.2203313 0.008583721 -0.014726903
2.9951096 0.008583721 -0.014726903
4.0389923 0.008583721 -0.014726903
5.4454473 0.008583721 -0.014726903
7.3404075 0.008583721 -0.014726903
9.8935449 0.008583721 -0.014726903
13.333466 0.008583721 -0.014726903
17.968176 0.008583721 -0.014726903
24.212666 0.008583721 -0.014726903
32.626057 0.008583721 -0.014726903
43.961674 0.008583721 -0.014726903
59.234501 0.008583721 -0.014726903
-0.014726903 0.01515409 -0.014726903
-0.0082666618 0.01515409 -0.014726903
-0.0034718171 0.01515409 -0.014726903
0.00008769953 0.01515409 -0.014726903
0.0037071387 0.01515409 -0.014726903
0.008583721 0.01515409 -0.014726903
0.01515409 0.01515409 -0.014726903
0.024006552 0.01515409 -0.014726903
0.035933744 0.01515409 -0.014726903
0.052003621 0.01515409 -0.014726903
0.073655061 0.01515409 -0.014726903
0.10282671 0.01515409 -0.014726903
0.14213058 0.01515409 -0.014726903
0.19508587 0.01515409 -0.014726903
0.26643419 0.01515409 -0.014726903
0.36256397 0.01515409 -0.014726903
0.49208257 0.01515409 -0.014726903
0.66658694 0.01515409 -0.014726903
0.90170209 0.01515409 -0.014726903
1.2184799 0.01515409 -0.014726903
1.6452845 0.01515409 -0.014726903
2.2203313 0.01515409 -0.014726903
2.9951096 0.01515409 -0.014726903
4.0389923 0.01515409 -0.014726903
5.4454473 0.01515409 -0.014726903
7.3404075 0.01515409 -0.014726903
9.8935449 0.01515409 -0.014726903
13.333466 0.01515409 -0.014726903
17.968176 0.01515409 -0.014726903
24.212666 0.01515409 -0.014726903
32.626057 0.01515409 -0.014726903
43.961674 0.01515409 -0.014726903
59.234501 0.01515409 -0.014726903
-0.014726903 0.024006552 -0.014726903
-0.0082666618 0.024006552 -0.014726903
-0.0034718171 0.024006552 -0.014726903
0.00008769953 0.024006552 -0.014726903
0.0037071387 0.024006552 -0.014726903
0.008583721 0.024006552 -0.014726903
0.01515409 0.024006552 -0.014726903
0.024006552 0.024006552 -0.014726903
0.035933744 0.024006552 -0.014726903
0.052003621 0.024006552 -0.014726903
0.073655061 0.024006552 -0.014726903
0.10282671 0.024006552 -0.014726903
0.14213058 0.024006552 -0.014726903
0.19508587 0.024006552 -0.014726903
0.26643419 0.024006552 -0.014726903
0.36256397 0.024006552 -0.014726903
0.49208257 0.024006552 -0.014726903
0.66658694 0.024006552 -0.014726903
0.90170209 0.024006552 -0.014726903
1.2184799 0.024006552 -0.014726903
1.6452845 0.024006552 -0.014726903
2.2203313 0.024006552 -0.014726903
2.9951096 0.024006552 -0.014726903
4.0389923 0.024006552 -0.014726903
5.4454473 0.024006552 -0.014726903
7.3404075 0.024006552 -0.014726903
9.8935449 0.024006552 -0.014726903
13.333466 0.024006552 -0.014726903
17.968176 0.024006552 -0.014726903
24.212666 0.024006552 -0.014726903
32.626057 0.024006552 -0.014726903
43.961674 0.024006552 -0.014726903
59.234501 0.024006552 -0.014726903
-0.014726903 0.035933744 -0.014726903
-0.0082666618 0.035933744 -0.014726903
-0.0034718171 0.035933744 -0.014726903
0.00008769953 0.035933744 -0.014726903
0.0037071387 0.035933744 -0.014726903
0.008583721 0.035933744 -0.014726903
0.01515409 0.035933744 -0.014726903
0.024006552 0.035933744 -0.014726903
0.035933744 0.035933744 -0.014726903
0.052003621 0.035933744 -0.014726903
0.073655061 0.035933744 -0.014726903
0.10282671 0.035933744 -0.014726903
0.14213058 0.035933744 -0.014726903
0.19508587 0.035933744 -0.014726903
0.26643419 0.035933744 -0.014726903
0.36256397 0.035933744 -0.014726903
0.49208257 0.035933744 -0.014726903
0.66658694 0.035933744 -0.014726903
0.90170209 0.035933744 -0.014726903
1.2184799 0.035933744 -0.014726903
1.6452845 0.035933744 -0.014726903
2.2203313 0.035933744 -0.014726903
2.9951096 0.035933744 -0.014726903
4.0389923 0.035933744 -0.014726903
5.4454473 0.035933744 -0.014726903
7.3404075 0.035933744 -0.014726903
9.8935449 0.035933744 -0.014726903
13.333466 0.035933744 -0.014726903
17.968176 0.035933744 -0.014726903
24.212666 0.035933744 -0.014726903
32.626057 0.035933744 -0.014726903
43.961674 0.035933744 -0.014726903
59.234501 0.035933744 -0.014726903
-0.014726903 0.052003621 -0.014726903
-0.0082666618 0.052003621 -0.014726903
-0.0034718171 0.052003621 -0.014726903
0.00008769953 0.052003621 -0.014726903
0.0037071387 0.052003621 -0.014726903
0.008583721 0.052003621 -0.014726903
0.01515409 0.052003621 -0.014726903
0.024006552 0.052003621 -0.014726903
0.035933744 0.052003621 -0.014726903
0.052003621 0.052003621 -0.014726903
0.073655061 0.052003621 -0.014726903
0.10282671 0.052003621 -0.014726903
0.14213058 0.052003621 -0.014726903
0.19508587 0.052003621 -0.014726903
0.26643419 0.052003621 -0.014726903
0.36256397 0.052003621 -0.014726903
0.49208257 0.052003621 -0.014726903
0.66658694 0.052003621 -0.014726903
0.90170209 0.052003621 -0.014726903
1.2184799 0.052003621 -0.014726903
1.6452845 0.052003621 -0.014726903
2.2203313 0.052003621 -0.014726903
2.9951096 0.052003621 -0.014726903
4.0389923 0.052003621 -0.014726903
5.4454473 0.052003621 -0.014726903
7.3404075 0.052003621 -0.014726903
9.8935449 0.052003621 -0.014726903
13.333466 0.052003621 -0.014726903
17.968176 0.052003621 -0.014726903
24.212666 0.052003621 -0.014726903
32.626057 0.052003621 -0.014726903
43.961674 0.052003621 -0.014726903
59.234501 0.052003621 -0.014726903
-0.014726903 0.073655061 -0.014726903
-0.0082666618 0.073655061 -0.014726903
-0.0034718171 0.073655061 -0.014726903
0.00008769953 0.073655061 -0.014726903
0.0037071387 0.073655061 -0.014726903
0.008583721 0.073655061 -0.014726903
0.01515409 0.073655061 -0.014726903
0.024006552 0.073655061 -0.014726903
0.035933744 0.073655061 -0.014726903
0.052003621 0.073655061 -0.014726903
0.073655061 0.073655061 -0.014726903
0.10282671 0.073655061 -0.014726903
0.14213058 0.073655061 -0.014726903
0.19508587 0.073655061 -0.014726903
0.26643419 0.073655061 -0.014726903
0.36256397 0.073655061 -0.014726903
0.49208257 0.073655061 -0.014726903
0.66658694 0.073655061 -0.014726903
0.90170209 0.073655061 -0.014726903
1.2184799 0.073655061 -0.014726903
1.6452845 0.073655061 -0.014726903
2.2203313 0.073655061 -0.014726903
2.9951096 0.073655061 -0.014726903
4.0389923 0.073655061 -0.014726903
5.4454473 0.073655061 -0.014726903
7.3404075 0.073655061 -0.014726903
9.8935449 0.073655061 -0.014726903
13.333466 0.073655061 -0.014726903
17.968176 0.073655061 -0.014726903
24.212666 0.073655061 -0.014726903
32.626057 0.073655061 -0.014726903
43.961674 0.073655061 -0.014726903
59.234501 0.073655061 -0.014726903
-0.014726903 0.10282671 -0.014726903
-0.0082666618 0.10282671 -0.014726903
-0.0034718171 0.10282671 -0.014726903
0.00008769953 0.10282671 -0.014726903
0.0037071387 0.10282671 -0.014726903
0.008583721 0.10282671 -0.014726903
0.01515409 0.10282671 -0.014726903
0.024006552 0.10282671 -0.014726903
0.035933744 0.10282671 -0.014726903
0.052003621 0.10282671 -0.014726903
0.073655061 0.10282671 -0.014726903
0.10282671 0.10282671 -0.014726903
0.14213058 0.10282671 -0.014726903
0.19508587 0.10282671 -0.014726903
0.26643419 0.10282671 -0.014726903
0.36256397 0.10282671 -0.014726903
0.49208257 0.10282671 -0.014726903
0.66658694 0.10282671 -0.014726903
0.90170209 0.10282671 -0.014726903
1.2184799 0.10282671 -0.014726903
1.6452845 0.10282671 -0.014726903
2.2203313 0.10282671 -0.014726903
2.9951096 0.10282671 -0.014726903
4.0389923 0.10282671 -0.014726903
5.4454473 0.10282671 -0.014726903
7.3404075 0.10282671 -0.014726903
9.8935449 0.10282671 -0.014726903
13.333466 0.10282671 -0.014726903
17.968176 0.10282671 -0.014726903
24.212666 0.10282671 -0.014726903
32.626057 0.10282671 -0.014726903
43.961674 0.10282671 -0.014726903
59.234501 0.10282671 -0.014726903
-0.014726903 0.14213058 -0.014726903
-0.0082666618 0.14213058 -0.014726903
-0.0034718171 0.14213058 -0.014726903
0.00008769953 0.14213058 -0.014726903
0.0037071387 0.14213058 -0.014726903
0.008583721 0.14213058 -0.014726903
0.01515409 0.14213058 -0.014726903
0.024006552 0.14213058 -0.014726903
0.035933744 0.14213058 -0.014726903
0.052003621 0.14213058 -0.014726903
0.073655061 0.14213058 -0.014726903
0.10282671 0.14213058 -0.014726903
0.14213058 0.14213058 -0.014726903
0.19508587 0.14213058 -0.014726903
0.26643419 0.14213058 -0.014726903
0.36256397 0.14213058 -0.014726903
0.49208257 0.14213058 -0.014726903
0.66658694 0.14213058 -0.014726903
0.90170209 0.14213058 -0.014726903
1.2184799 0.14213058 -0.014726903
1.6452845 0.14213058 -0.014726903
2.2203313 0.14213058 -0.014726903
2.9951096 0.14213058 -0.014726903
4.0389923 0.14213058 -0.014726903
5.4454473 0.14213058 -0.014726903
7.3404075 0.14213058 -0.014726903
9.8935449 0.14213058 -0.014726903
13.333466 0.14213058 -0.014726903
17.968176 0.14213058 -0.014726903
24.212666 0.14213058 -0.014726903
32.626057 0.14213058 -0.014726903
43.961674 0.14213058 -0.014726903
59.234501 0.14213058 -0.014726903
-0.014726903 0.19508587 -0.014726903
-0.0082666618 0.19508587 -0.014726903
-0.0034718171 0.19508587 -0.014726903
0.00008769953 0.19508587 -0.014726903
0.0037071387 0.19508587 -0.014726903
0.008583721 0.19508587 -0.014726903
0.01515409 0.19508587 -0.014726903
0.024006552 0.19508587 -0.014726903
0.035933744 0.19508587 -0.014726903
0.052003621 0.19508587 -0.014726903
0.073655061 0.19508587 -0.014726903
0.10282671 0.19508587 -0.014726903
0.14213058 0.19508587 -0.014726903
0.19508587 0.19508587 -0.014726903
0.26643419 0.19508587 -0.014726903
0.36256397 0.19508587 -0.014726903
0.49208257 0.19508587 -0.014726903
0.66658694 0.19508587 -0.014726903
0.90170209 0.19508587 -0.014726903
1.2184799 0.19508587 -0.014726903
1.6452845 0.19508587 -0.014726903
2.2203313 0.19508587 -0.014726903
2.9951096 0.19508587 -0.014726903
4.0389923 0.19508587 -0.014726903
5.4454473 0.19508587 -0.014726903
7.3404075 0.19508587 -0.014726903
9.8935449 0.19508587 -0.014726903
13.333466 0.19508587 -0.014726903
17.968176 0.19508587 -0.014726903
24.212666 0.19508587 -0.014726903
32.626057 0.19508587 -0.014726903
43.961674 0.19508587 -0.014726903
59.234501 0.19508587 -0.014726903
-0.014726903 0.26643419 -0.014726903
-0.0082666618 0.26643419 -0.014726903
-0.0034718171 0.26643419 -0.014726903
0.00008769953 0.26643419 -0.014726903
0.0037071387 0.26643419 -0.014726903
0.008583721 0.26643419 -0.014726903
0.01515409 0.26643419 -0.014726903
0.024006552 0.26643419 -0.014726903
0.035933744 0.26643419 -0.014726903
0.052003621 0.26643419 -0.014726903
0.073655061 0.26643419 -0.014726903
0.10282671 0.26643419 -0.014726903
0.14213058 0.26643419 -0.014726903
0.19508587 0.26643419 -0.014726903
0.26643419 0.26643419 -0.014726903
0.36256397 0.26643419 -0.014726903
0.49208257 0.26643419 -0.014726903
0.66658694 0.26643419 -0.014726903
0.90170209 0.26643419 -0.014726903
1.2184799 0.26643419 -0.014726903
1.6452845 0.26643419 -0.014726903
2.2203313 0.26643419 -0.014726903
2.9951096 0.26643419 -0.014726903
4.0389923 0.26643419 -0.014726903
5.4454473 0.26643419 -0.014726903
7.3404075 0.26643419 -0.014726903
9.8935449 0.26643419 -0.014726903
13.333466 0.26643419 -0.014726903
17.968176 0.26643419 -0.014726903
24.212666 0.26643419 -0.014726903
32.626057 0.26643419 -0.014726903
43.961674 0.26643419 -0.014726903
59.234501 0.26643419 -0.014726903
-0.014726903 0.36256397 -0.014726903
-0.0082666618 0.36256397 -0.014726903
-0.0034718171 0.36256397 -0.014726903
0.00008769953 0.36256397 -0.014726903
0.0037071387 0.36256397 -0.014726903
0.008583721 0.36256397 -0.014726903
0.01515409 0.36256397 -0.014726903
0.024006552 0.36256397 -0.014726903
0.035933744 0.36256397 -0.014726903
0.052003621 0.36256397 -0.014726903
0.073655061 0.36256397 -0.014726903
0.10282671 0.36256397 -0.014726903
0.14213058 0.36256397 -0.014726903
0.19508587 0.36256397 -0.014726903
0.26643419 0.36256397 -0.014726903
0.36256397 0.36256397 -0.014726903
0.49208257 0.36256397 -0.014726903
0.66658694 0.36256397 -0.014726903
0.90170209 0.36256397 -0.014726903
1.2184799 0.36256397 -0.014726903
1.6452845 0.36256397 -0.014726903
2.2203313 0.36256397 -0.014726903
2.9951096 0.36256397 -0.014726903
4.0389923 0.36256397 -0.014726903
5.4454473 0.36256397 -0.014726903
7.3404075 0.36256397 -0.014726903
9.8935449 0.36256397 -0.014726903
13.333466 0.36256397 -0.014726903
17.968176 0.36256397 -0.014726903
24.212666 0.36256397 -0.014726903
32.626057 0.36256397 -0.014726903
43.961674 0.36256397 -0.014726903
59.234501 0.36256397 -0.014726903
-0.014726903 0.49208257 -0.014726903
-0.0082666618 0.49208257 -0.014726903
-0.0034718171 0.49208257 -0.014726903
0.00008769953 0.49208257 -0.014726903
0.0037071387 0.49208257 -0.014726903
0.008583721 0.49208257 -0.014726903
0.01515409 0.49208257 -0.014726903
0.024006552 0.49208257 -0.014726903
0.035933744 0.49208257 -0.014726903
0.052003621 0.49208257 -0.014726903
0.073655061 0.49208257 -0.014726903
0.10282671 0.49208257 -0.014726903
0.14213058 0.49208257 -0.014726903
0.19508587 0.49208257 -0.014726903
0.26643419 0.49208257 -0.014726903
0.36256397 0.49208257 -0.014726903
0.49208257 0.49208257 -0.014726903
0.66658694 0.49208257 -0.014726903
0.90170209 0.49208257 -0.014726903
1.2184799 0.49208257 -0.014726903
1.6452845 0.49208257 -0.014726903
2.2203313 0.49208257 -0.014726903
2.9951096 0.49208257 -0.014726903
4.0389923 0.49208257 -0.014726903
5.4454473 0.49208257 -0.014726903
7.3404075 0.49208257 -0.014726903
9.8935449 0.49208257 -0.014726903
13.333466 0.49208257 -0.014726903
17.968176 0.49208257 -0.014726903
24.212666 0.49208257 -0.014726903
32.626057 0.49208257 -0.014726903
43.961674 0.49208257 -0.014726903
59.234501 0.49208257 -0.014726903
-0.014726903 0.66658694 -0.014726903
-0.0082666618 0.66658694 -0.014726903
-0.0034718171 0.66658694 -0.014726903
0.00008769953 0.66658694 -0.014726903
0.0037071387 0.66658694 -0.014726903
0.008583721 0.66658694 -0.014726903
0.01515409 0.66658694 -0.014726903
0.024006552 0.66658694 -0.014726903
0.035933744 0.66658694 -0.014726903
0.052003621 0.66658694 -0.014726903
0.073655061 0.66658694 -0.014726903
0.10282671 0.66658694 -0.014726903
0.14213058 0.66658694 -0.014726903
0.19508587 0.66658694 -0.014726903
0.26643419 0.66658694 -0.014726903
0.36256397 0.66658694 -0.014726903
0.49208257 0.66658694 -0.014726903
0.66658694 0.66658694 -0.014726903
0.90170209 0.66658694 -0.014726903
1.2184799 0.66658694 -0.014726903
1.6452845 0.66658694 -0.014726903
2.2203313 0.66658694 -0.014726903
2.9951096 0.66658694 -0.014726903
4.0389923 0.66658694 -0.014726903
5.4454473 0.66658694 -0.014726903
7.3404075 0.66658694 -0.014726903
9.8935449 0.66658694 -0.014726903
13.333466 0.66658694 -0.014726903
17.968176 0.66658694 -0.014726903
24.212666 0.66658694 -0.014726903
32.626057 0.66658694 -0.014726903
43.961674 0.66658694 -0.014726903
59.234501 0.66658694 -0.014726903
-0.014726903 0.90170209 -0.014726903
-0.0082666618 0.90170209 -0.014726903
-0.0034718171 0.90170209 -0.014726903
0.00008769953 0.90170209 -0.014726903
0.0037071387 0.90170209 -0.014726903
0.008583721 0.90170209 -0.014726903
0.01515409 0.90170209 -0.014726903
0.024006552 0.90170209 -0.014726903
0.035933744 0.90170209 -0.014726903
0.052003621 0.90170209 -0.014726903
0.073655061 0.90170209 -0.014726903
0.10282671 0.90170209 -0.014726903
0.14213058 0.90170209 -0.014726903
0.19508587 0.90170209 -0.014726903
0.26643419 0.90170209 -0.014726903
0.36256397 0.90170209 -0.014726903
0.49208257 0.90170209 -0.014726903
0.66658694 0.90170209 -0.014726903
