site/assets/luts/ocio-aces--redinputlog3g10-curve--3fbc1e159.cube
# LUTr-Project: LUTr — LUTrepository
# LUTr-Schema-Version: 1
# LUTr-ID: ocio-aces--redinputlog3g10-curve--3fbc1e159
# LUTr-Title: RED.Input.Log3G10-Curve
# LUTr-Collection: OCIO ACES
# LUTr-Collection-ID: aswf-opencolorio-config-aces
# LUTr-Source: https://github.com/AcademySoftwareFoundation/OpenColorIO-Config-ACES
# LUTr-Source-File: submissions/aswf-opencolorio-config-aces/opencolorio_config_aces/clf/transforms/red/input/RED.Input.Log3G10-Curve.clf
# LUTr-Source-Format: CLF
# LUTr-Source-SHA256: d477efad2f230619d83f1aa2679d45adff6f83a35231ac0c01a33dd822e88777
# LUTr-License: BSD-3-Clause
# LUTr-License-URL: https://github.com/AcademySoftwareFoundation/OpenColorIO-Config-ACES/blob/main/LICENSE
# LUTr-Tags: technical, aces, ocio, clf, color-management, cube
# LUTr-Transform-Class: color-space-conversion
# LUTr-Input-Color-Space: RED Log3G10 Log (arbitrary primaries)
# LUTr-Output-Color-Space: RED Log3G10 Linear (arbitrary primaries)
# LUTr-Color-Space-Confidence: descriptor-only
# LUTr-Conversion-Method: CLF operations evaluated as float and sampled to 33x33x33 3D CUBE
# LUTr-Conversion-Date: 2026-07-27
# LUTr-Conversion-Tool: LUTr scripts/convert-all-to-cube.mjs
# LUTr-Conversion-Grid: 33x33x33
# LUTr-Conversion-Warning: A sampled 3D CUBE is bounded to DOMAIN_MIN/MAX 0..1 and cannot preserve CLF values outside its input domain.
# LUTr-Upstream-ID: urn:aswf:ocio:transformId:1.0:RED:Input:Log3G10-Curve_to_Linear:1.0
# LUTr-Upstream-Name: RED Log3G10 Log to Linear Curve
# LUTr-Upstream-Input-Descriptor: RED Log3G10 Log (arbitrary primaries)
# LUTr-Upstream-Output-Descriptor: RED Log3G10 Linear (arbitrary primaries)
# LUTr-Upstream-Operations: Log
# LUTr-Note: Preserve this metadata and the upstream license notices when redistributing.
TITLE "RED.Input.Log3G10-Curve"
LUT_3D_SIZE 33
DOMAIN_MIN 0 0 0
DOMAIN_MAX 1 1 1
-0.01 -0.01 -0.01
-0.0075748247 -0.01 -0.01
-0.0042322844 -0.01 -0.01
0.00037463022 -0.01 -0.01
0.006724191 -0.01 -0.01
0.015475584 -0.01 -0.01
0.027537345 -0.01 -0.01
0.044161679 -0.01 -0.01
0.067074457 -0.01 -0.01
0.098654395 -0.01 -0.01
0.14218 -0.01 -0.01
0.20216992 -0.01 -0.01
0.28485208 -0.01 -0.01
0.39881022 -0.01 -0.01
0.55587502 -0.01 -0.01
0.77235233 -0.01 -0.01
1.070716 -0.01 -0.01
1.4819409 -0.01 -0.01
2.0487188 -0.01 -0.01
2.8298904 -0.01 -0.01
3.9065539 -0.01 -0.01
5.3904841 -0.01 -0.01
7.4357369 -0.01 -0.01
10.254642 -0.01 -0.01
14.139848 -0.01 -0.01
19.494701 -0.01 -0.01
26.875121 -0.01 -0.01
37.047314 -0.01 -0.01
51.067317 -0.01 -0.01
70.390632 -0.01 -0.01
97.023329 -0.01 -0.01
133.73031 -0.01 -0.01
184.32235 -0.01 -0.01
-0.01 -0.0075748247 -0.01
-0.0075748247 -0.0075748247 -0.01
-0.0042322844 -0.0075748247 -0.01
0.00037463022 -0.0075748247 -0.01
0.006724191 -0.0075748247 -0.01
0.015475584 -0.0075748247 -0.01
0.027537345 -0.0075748247 -0.01
0.044161679 -0.0075748247 -0.01
0.067074457 -0.0075748247 -0.01
0.098654395 -0.0075748247 -0.01
0.14218 -0.0075748247 -0.01
0.20216992 -0.0075748247 -0.01
0.28485208 -0.0075748247 -0.01
0.39881022 -0.0075748247 -0.01
0.55587502 -0.0075748247 -0.01
0.77235233 -0.0075748247 -0.01
1.070716 -0.0075748247 -0.01
1.4819409 -0.0075748247 -0.01
2.0487188 -0.0075748247 -0.01
2.8298904 -0.0075748247 -0.01
3.9065539 -0.0075748247 -0.01
5.3904841 -0.0075748247 -0.01
7.4357369 -0.0075748247 -0.01
10.254642 -0.0075748247 -0.01
14.139848 -0.0075748247 -0.01
19.494701 -0.0075748247 -0.01
26.875121 -0.0075748247 -0.01
37.047314 -0.0075748247 -0.01
51.067317 -0.0075748247 -0.01
70.390632 -0.0075748247 -0.01
97.023329 -0.0075748247 -0.01
133.73031 -0.0075748247 -0.01
184.32235 -0.0075748247 -0.01
-0.01 -0.0042322844 -0.01
-0.0075748247 -0.0042322844 -0.01
-0.0042322844 -0.0042322844 -0.01
0.00037463022 -0.0042322844 -0.01
0.006724191 -0.0042322844 -0.01
0.015475584 -0.0042322844 -0.01
0.027537345 -0.0042322844 -0.01
0.044161679 -0.0042322844 -0.01
0.067074457 -0.0042322844 -0.01
0.098654395 -0.0042322844 -0.01
0.14218 -0.0042322844 -0.01
0.20216992 -0.0042322844 -0.01
0.28485208 -0.0042322844 -0.01
0.39881022 -0.0042322844 -0.01
0.55587502 -0.0042322844 -0.01
0.77235233 -0.0042322844 -0.01
1.070716 -0.0042322844 -0.01
1.4819409 -0.0042322844 -0.01
2.0487188 -0.0042322844 -0.01
2.8298904 -0.0042322844 -0.01
3.9065539 -0.0042322844 -0.01
5.3904841 -0.0042322844 -0.01
7.4357369 -0.0042322844 -0.01
10.254642 -0.0042322844 -0.01
14.139848 -0.0042322844 -0.01
19.494701 -0.0042322844 -0.01
26.875121 -0.0042322844 -0.01
37.047314 -0.0042322844 -0.01
51.067317 -0.0042322844 -0.01
70.390632 -0.0042322844 -0.01
97.023329 -0.0042322844 -0.01
133.73031 -0.0042322844 -0.01
184.32235 -0.0042322844 -0.01
-0.01 0.00037463022 -0.01
-0.0075748247 0.00037463022 -0.01
-0.0042322844 0.00037463022 -0.01
0.00037463022 0.00037463022 -0.01
0.006724191 0.00037463022 -0.01
0.015475584 0.00037463022 -0.01
0.027537345 0.00037463022 -0.01
0.044161679 0.00037463022 -0.01
0.067074457 0.00037463022 -0.01
0.098654395 0.00037463022 -0.01
0.14218 0.00037463022 -0.01
0.20216992 0.00037463022 -0.01
0.28485208 0.00037463022 -0.01
0.39881022 0.00037463022 -0.01
0.55587502 0.00037463022 -0.01
0.77235233 0.00037463022 -0.01
1.070716 0.00037463022 -0.01
1.4819409 0.00037463022 -0.01
2.0487188 0.00037463022 -0.01
2.8298904 0.00037463022 -0.01
3.9065539 0.00037463022 -0.01
5.3904841 0.00037463022 -0.01
7.4357369 0.00037463022 -0.01
10.254642 0.00037463022 -0.01
14.139848 0.00037463022 -0.01
19.494701 0.00037463022 -0.01
26.875121 0.00037463022 -0.01
37.047314 0.00037463022 -0.01
51.067317 0.00037463022 -0.01
70.390632 0.00037463022 -0.01
97.023329 0.00037463022 -0.01
133.73031 0.00037463022 -0.01
184.32235 0.00037463022 -0.01
-0.01 0.006724191 -0.01
-0.0075748247 0.006724191 -0.01
-0.0042322844 0.006724191 -0.01
0.00037463022 0.006724191 -0.01
0.006724191 0.006724191 -0.01
0.015475584 0.006724191 -0.01
0.027537345 0.006724191 -0.01
0.044161679 0.006724191 -0.01
0.067074457 0.006724191 -0.01
0.098654395 0.006724191 -0.01
0.14218 0.006724191 -0.01
0.20216992 0.006724191 -0.01
0.28485208 0.006724191 -0.01
0.39881022 0.006724191 -0.01
0.55587502 0.006724191 -0.01
0.77235233 0.006724191 -0.01
1.070716 0.006724191 -0.01
1.4819409 0.006724191 -0.01
2.0487188 0.006724191 -0.01
2.8298904 0.006724191 -0.01
3.9065539 0.006724191 -0.01
5.3904841 0.006724191 -0.01
7.4357369 0.006724191 -0.01
10.254642 0.006724191 -0.01
14.139848 0.006724191 -0.01
19.494701 0.006724191 -0.01
26.875121 0.006724191 -0.01
37.047314 0.006724191 -0.01
51.067317 0.006724191 -0.01
70.390632 0.006724191 -0.01
97.023329 0.006724191 -0.01
133.73031 0.006724191 -0.01
184.32235 0.006724191 -0.01
-0.01 0.015475584 -0.01
-0.0075748247 0.015475584 -0.01
-0.0042322844 0.015475584 -0.01
0.00037463022 0.015475584 -0.01
0.006724191 0.015475584 -0.01
0.015475584 0.015475584 -0.01
0.027537345 0.015475584 -0.01
0.044161679 0.015475584 -0.01
0.067074457 0.015475584 -0.01
0.098654395 0.015475584 -0.01
0.14218 0.015475584 -0.01
0.20216992 0.015475584 -0.01
0.28485208 0.015475584 -0.01
0.39881022 0.015475584 -0.01
0.55587502 0.015475584 -0.01
0.77235233 0.015475584 -0.01
1.070716 0.015475584 -0.01
1.4819409 0.015475584 -0.01
2.0487188 0.015475584 -0.01
2.8298904 0.015475584 -0.01
3.9065539 0.015475584 -0.01
5.3904841 0.015475584 -0.01
7.4357369 0.015475584 -0.01
10.254642 0.015475584 -0.01
14.139848 0.015475584 -0.01
19.494701 0.015475584 -0.01
26.875121 0.015475584 -0.01
37.047314 0.015475584 -0.01
51.067317 0.015475584 -0.01
70.390632 0.015475584 -0.01
97.023329 0.015475584 -0.01
133.73031 0.015475584 -0.01
184.32235 0.015475584 -0.01
-0.01 0.027537345 -0.01
-0.0075748247 0.027537345 -0.01
-0.0042322844 0.027537345 -0.01
0.00037463022 0.027537345 -0.01
0.006724191 0.027537345 -0.01
0.015475584 0.027537345 -0.01
0.027537345 0.027537345 -0.01
0.044161679 0.027537345 -0.01
0.067074457 0.027537345 -0.01
0.098654395 0.027537345 -0.01
0.14218 0.027537345 -0.01
0.20216992 0.027537345 -0.01
0.28485208 0.027537345 -0.01
0.39881022 0.027537345 -0.01
0.55587502 0.027537345 -0.01
0.77235233 0.027537345 -0.01
1.070716 0.027537345 -0.01
1.4819409 0.027537345 -0.01
2.0487188 0.027537345 -0.01
2.8298904 0.027537345 -0.01
3.9065539 0.027537345 -0.01
5.3904841 0.027537345 -0.01
7.4357369 0.027537345 -0.01
10.254642 0.027537345 -0.01
14.139848 0.027537345 -0.01
19.494701 0.027537345 -0.01
26.875121 0.027537345 -0.01
37.047314 0.027537345 -0.01
51.067317 0.027537345 -0.01
70.390632 0.027537345 -0.01
97.023329 0.027537345 -0.01
133.73031 0.027537345 -0.01
184.32235 0.027537345 -0.01
-0.01 0.044161679 -0.01
-0.0075748247 0.044161679 -0.01
-0.0042322844 0.044161679 -0.01
0.00037463022 0.044161679 -0.01
0.006724191 0.044161679 -0.01
0.015475584 0.044161679 -0.01
0.027537345 0.044161679 -0.01
0.044161679 0.044161679 -0.01
0.067074457 0.044161679 -0.01
0.098654395 0.044161679 -0.01
0.14218 0.044161679 -0.01
0.20216992 0.044161679 -0.01
0.28485208 0.044161679 -0.01
0.39881022 0.044161679 -0.01
0.55587502 0.044161679 -0.01
0.77235233 0.044161679 -0.01
1.070716 0.044161679 -0.01
1.4819409 0.044161679 -0.01
2.0487188 0.044161679 -0.01
2.8298904 0.044161679 -0.01
3.9065539 0.044161679 -0.01
5.3904841 0.044161679 -0.01
7.4357369 0.044161679 -0.01
10.254642 0.044161679 -0.01
14.139848 0.044161679 -0.01
19.494701 0.044161679 -0.01
26.875121 0.044161679 -0.01
37.047314 0.044161679 -0.01
51.067317 0.044161679 -0.01
70.390632 0.044161679 -0.01
97.023329 0.044161679 -0.01
133.73031 0.044161679 -0.01
184.32235 0.044161679 -0.01
-0.01 0.067074457 -0.01
-0.0075748247 0.067074457 -0.01
-0.0042322844 0.067074457 -0.01
0.00037463022 0.067074457 -0.01
0.006724191 0.067074457 -0.01
0.015475584 0.067074457 -0.01
0.027537345 0.067074457 -0.01
0.044161679 0.067074457 -0.01
0.067074457 0.067074457 -0.01
0.098654395 0.067074457 -0.01
0.14218 0.067074457 -0.01
0.20216992 0.067074457 -0.01
0.28485208 0.067074457 -0.01
0.39881022 0.067074457 -0.01
0.55587502 0.067074457 -0.01
0.77235233 0.067074457 -0.01
1.070716 0.067074457 -0.01
1.4819409 0.067074457 -0.01
2.0487188 0.067074457 -0.01
2.8298904 0.067074457 -0.01
3.9065539 0.067074457 -0.01
5.3904841 0.067074457 -0.01
7.4357369 0.067074457 -0.01
10.254642 0.067074457 -0.01
14.139848 0.067074457 -0.01
19.494701 0.067074457 -0.01
26.875121 0.067074457 -0.01
37.047314 0.067074457 -0.01
51.067317 0.067074457 -0.01
70.390632 0.067074457 -0.01
97.023329 0.067074457 -0.01
133.73031 0.067074457 -0.01
184.32235 0.067074457 -0.01
-0.01 0.098654395 -0.01
-0.0075748247 0.098654395 -0.01
-0.0042322844 0.098654395 -0.01
0.00037463022 0.098654395 -0.01
0.006724191 0.098654395 -0.01
0.015475584 0.098654395 -0.01
0.027537345 0.098654395 -0.01
0.044161679 0.098654395 -0.01
0.067074457 0.098654395 -0.01
0.098654395 0.098654395 -0.01
0.14218 0.098654395 -0.01
0.20216992 0.098654395 -0.01
0.28485208 0.098654395 -0.01
0.39881022 0.098654395 -0.01
0.55587502 0.098654395 -0.01
0.77235233 0.098654395 -0.01
1.070716 0.098654395 -0.01
1.4819409 0.098654395 -0.01
2.0487188 0.098654395 -0.01
2.8298904 0.098654395 -0.01
3.9065539 0.098654395 -0.01
5.3904841 0.098654395 -0.01
7.4357369 0.098654395 -0.01
10.254642 0.098654395 -0.01
14.139848 0.098654395 -0.01
19.494701 0.098654395 -0.01
26.875121 0.098654395 -0.01
37.047314 0.098654395 -0.01
51.067317 0.098654395 -0.01
70.390632 0.098654395 -0.01
97.023329 0.098654395 -0.01
133.73031 0.098654395 -0.01
184.32235 0.098654395 -0.01
-0.01 0.14218 -0.01
-0.0075748247 0.14218 -0.01
-0.0042322844 0.14218 -0.01
0.00037463022 0.14218 -0.01
0.006724191 0.14218 -0.01
0.015475584 0.14218 -0.01
0.027537345 0.14218 -0.01
0.044161679 0.14218 -0.01
0.067074457 0.14218 -0.01
0.098654395 0.14218 -0.01
0.14218 0.14218 -0.01
0.20216992 0.14218 -0.01
0.28485208 0.14218 -0.01
0.39881022 0.14218 -0.01
0.55587502 0.14218 -0.01
0.77235233 0.14218 -0.01
1.070716 0.14218 -0.01
1.4819409 0.14218 -0.01
2.0487188 0.14218 -0.01
2.8298904 0.14218 -0.01
3.9065539 0.14218 -0.01
5.3904841 0.14218 -0.01
7.4357369 0.14218 -0.01
10.254642 0.14218 -0.01
14.139848 0.14218 -0.01
19.494701 0.14218 -0.01
26.875121 0.14218 -0.01
37.047314 0.14218 -0.01
51.067317 0.14218 -0.01
70.390632 0.14218 -0.01
97.023329 0.14218 -0.01
133.73031 0.14218 -0.01
184.32235 0.14218 -0.01
-0.01 0.20216992 -0.01
-0.0075748247 0.20216992 -0.01
-0.0042322844 0.20216992 -0.01
0.00037463022 0.20216992 -0.01
0.006724191 0.20216992 -0.01
0.015475584 0.20216992 -0.01
0.027537345 0.20216992 -0.01
0.044161679 0.20216992 -0.01
0.067074457 0.20216992 -0.01
0.098654395 0.20216992 -0.01
0.14218 0.20216992 -0.01
0.20216992 0.20216992 -0.01
0.28485208 0.20216992 -0.01
0.39881022 0.20216992 -0.01
0.55587502 0.20216992 -0.01
0.77235233 0.20216992 -0.01
1.070716 0.20216992 -0.01
1.4819409 0.20216992 -0.01
2.0487188 0.20216992 -0.01
2.8298904 0.20216992 -0.01
3.9065539 0.20216992 -0.01
5.3904841 0.20216992 -0.01
7.4357369 0.20216992 -0.01
10.254642 0.20216992 -0.01
14.139848 0.20216992 -0.01
19.494701 0.20216992 -0.01
26.875121 0.20216992 -0.01
37.047314 0.20216992 -0.01
51.067317 0.20216992 -0.01
70.390632 0.20216992 -0.01
97.023329 0.20216992 -0.01
133.73031 0.20216992 -0.01
184.32235 0.20216992 -0.01
-0.01 0.28485208 -0.01
-0.0075748247 0.28485208 -0.01
-0.0042322844 0.28485208 -0.01
0.00037463022 0.28485208 -0.01
0.006724191 0.28485208 -0.01
0.015475584 0.28485208 -0.01
0.027537345 0.28485208 -0.01
0.044161679 0.28485208 -0.01
0.067074457 0.28485208 -0.01
0.098654395 0.28485208 -0.01
0.14218 0.28485208 -0.01
0.20216992 0.28485208 -0.01
0.28485208 0.28485208 -0.01
0.39881022 0.28485208 -0.01
0.55587502 0.28485208 -0.01
0.77235233 0.28485208 -0.01
1.070716 0.28485208 -0.01
1.4819409 0.28485208 -0.01
2.0487188 0.28485208 -0.01
2.8298904 0.28485208 -0.01
3.9065539 0.28485208 -0.01
5.3904841 0.28485208 -0.01
7.4357369 0.28485208 -0.01
10.254642 0.28485208 -0.01
14.139848 0.28485208 -0.01
19.494701 0.28485208 -0.01
26.875121 0.28485208 -0.01
37.047314 0.28485208 -0.01
51.067317 0.28485208 -0.01
70.390632 0.28485208 -0.01
97.023329 0.28485208 -0.01
133.73031 0.28485208 -0.01
184.32235 0.28485208 -0.01
-0.01 0.39881022 -0.01
-0.0075748247 0.39881022 -0.01
-0.0042322844 0.39881022 -0.01
0.00037463022 0.39881022 -0.01
0.006724191 0.39881022 -0.01
0.015475584 0.39881022 -0.01
0.027537345 0.39881022 -0.01
0.044161679 0.39881022 -0.01
0.067074457 0.39881022 -0.01
0.098654395 0.39881022 -0.01
0.14218 0.39881022 -0.01
0.20216992 0.39881022 -0.01
0.28485208 0.39881022 -0.01
0.39881022 0.39881022 -0.01
0.55587502 0.39881022 -0.01
0.77235233 0.39881022 -0.01
1.070716 0.39881022 -0.01
1.4819409 0.39881022 -0.01
2.0487188 0.39881022 -0.01
2.8298904 0.39881022 -0.01
3.9065539 0.39881022 -0.01
5.3904841 0.39881022 -0.01
7.4357369 0.39881022 -0.01
10.254642 0.39881022 -0.01
14.139848 0.39881022 -0.01
19.494701 0.39881022 -0.01
26.875121 0.39881022 -0.01
37.047314 0.39881022 -0.01
51.067317 0.39881022 -0.01
70.390632 0.39881022 -0.01
97.023329 0.39881022 -0.01
133.73031 0.39881022 -0.01
184.32235 0.39881022 -0.01
-0.01 0.55587502 -0.01
-0.0075748247 0.55587502 -0.01
-0.0042322844 0.55587502 -0.01
0.00037463022 0.55587502 -0.01
0.006724191 0.55587502 -0.01
0.015475584 0.55587502 -0.01
0.027537345 0.55587502 -0.01
0.044161679 0.55587502 -0.01
0.067074457 0.55587502 -0.01
0.098654395 0.55587502 -0.01
0.14218 0.55587502 -0.01
0.20216992 0.55587502 -0.01
0.28485208 0.55587502 -0.01
0.39881022 0.55587502 -0.01
0.55587502 0.55587502 -0.01
0.77235233 0.55587502 -0.01
1.070716 0.55587502 -0.01
1.4819409 0.55587502 -0.01
2.0487188 0.55587502 -0.01
2.8298904 0.55587502 -0.01
3.9065539 0.55587502 -0.01
5.3904841 0.55587502 -0.01
7.4357369 0.55587502 -0.01
10.254642 0.55587502 -0.01
14.139848 0.55587502 -0.01
19.494701 0.55587502 -0.01
26.875121 0.55587502 -0.01
37.047314 0.55587502 -0.01
51.067317 0.55587502 -0.01
70.390632 0.55587502 -0.01
97.023329 0.55587502 -0.01
133.73031 0.55587502 -0.01
184.32235 0.55587502 -0.01
-0.01 0.77235233 -0.01
-0.0075748247 0.77235233 -0.01
-0.0042322844 0.77235233 -0.01
0.00037463022 0.77235233 -0.01
0.006724191 0.77235233 -0.01
0.015475584 0.77235233 -0.01
0.027537345 0.77235233 -0.01
0.044161679 0.77235233 -0.01
0.067074457 0.77235233 -0.01
0.098654395 0.77235233 -0.01
0.14218 0.77235233 -0.01
0.20216992 0.77235233 -0.01
0.28485208 0.77235233 -0.01
0.39881022 0.77235233 -0.01
0.55587502 0.77235233 -0.01
0.77235233 0.77235233 -0.01
1.070716 0.77235233 -0.01
1.4819409 0.77235233 -0.01
2.0487188 0.77235233 -0.01
2.8298904 0.77235233 -0.01
3.9065539 0.77235233 -0.01
5.3904841 0.77235233 -0.01
7.4357369 0.77235233 -0.01
10.254642 0.77235233 -0.01
14.139848 0.77235233 -0.01
19.494701 0.77235233 -0.01
26.875121 0.77235233 -0.01
37.047314 0.77235233 -0.01
51.067317 0.77235233 -0.01
70.390632 0.77235233 -0.01
97.023329 0.77235233 -0.01
133.73031 0.77235233 -0.01
184.32235 0.77235233 -0.01
-0.01 1.070716 -0.01
-0.0075748247 1.070716 -0.01
-0.0042322844 1.070716 -0.01
0.00037463022 1.070716 -0.01
0.006724191 1.070716 -0.01
0.015475584 1.070716 -0.01
0.027537345 1.070716 -0.01
0.044161679 1.070716 -0.01
0.067074457 1.070716 -0.01
0.098654395 1.070716 -0.01
0.14218 1.070716 -0.01
0.20216992 1.070716 -0.01
0.28485208 1.070716 -0.01
0.39881022 1.070716 -0.01
0.55587502 1.070716 -0.01
0.77235233 1.070716 -0.01
1.070716 1.070716 -0.01
1.4819409 1.070716 -0.01
2.0487188 1.070716 -0.01
2.8298904 1.070716 -0.01
3.9065539 1.070716 -0.01
5.3904841 1.070716 -0.01
7.4357369 1.070716 -0.01
10.254642 1.070716 -0.01
14.139848 1.070716 -0.01
19.494701 1.070716 -0.01
26.875121 1.070716 -0.01
37.047314 1.070716 -0.01
51.067317 1.070716 -0.01
70.390632 1.070716 -0.01
97.023329 1.070716 -0.01
133.73031 1.070716 -0.01
184.32235 1.070716 -0.01
-0.01 1.4819409 -0.01
-0.0075748247 1.4819409 -0.01
-0.0042322844 1.4819409 -0.01
0.00037463022 1.4819409 -0.01
0.006724191 1.4819409 -0.01
0.015475584 1.4819409 -0.01
0.027537345 1.4819409 -0.01
0.044161679 1.4819409 -0.01
0.067074457 1.4819409 -0.01
0.098654395 1.4819409 -0.01
0.14218 1.4819409 -0.01
0.20216992 1.4819409 -0.01
0.28485208 1.4819409 -0.01
0.39881022 1.4819409 -0.01
0.55587502 1.4819409 -0.01
0.77235233 1.4819409 -0.01
1.070716 1.4819409 -0.01
1.4819409 1.4819409 -0.01
2.0487188 1.4819409 -0.01
2.8298904 1.4819409 -0.01
3.9065539 1.4819409 -0.01
5.3904841 1.4819409 -0.01
7.4357369 1.4819409 -0.01
10.254642 1.4819409 -0.01
14.139848 1.4819409 -0.01
19.494701 1.4819409 -0.01
26.875121 1.4819409 -0.01
37.047314 1.4819409 -0.01
51.067317 1.4819409 -0.01
70.390632 1.4819409 -0.01
97.023329 1.4819409 -0.01
133.73031 1.4819409 -0.01
184.32235 1.4819409 -0.01
-0.01 2.0487188 -0.01
-0.0075748247 2.0487188 -0.01
-0.0042322844 2.0487188 -0.01
0.00037463022 2.0487188 -0.01
0.006724191 2.0487188 -0.01
0.015475584 2.0487188 -0.01
0.027537345 2.0487188 -0.01
0.044161679 2.0487188 -0.01
0.067074457 2.0487188 -0.01
0.098654395 2.0487188 -0.01
0.14218 2.0487188 -0.01
0.20216992 2.0487188 -0.01
0.28485208 2.0487188 -0.01
0.39881022 2.0487188 -0.01
0.55587502 2.0487188 -0.01
0.77235233 2.0487188 -0.01
1.070716 2.0487188 -0.01
1.4819409 2.0487188 -0.01
2.0487188 2.0487188 -0.01
2.8298904 2.0487188 -0.01
3.9065539 2.0487188 -0.01
5.3904841 2.0487188 -0.01
7.4357369 2.0487188 -0.01
10.254642 2.0487188 -0.01
14.139848 2.0487188 -0.01
19.494701 2.0487188 -0.01
26.875121 2.0487188 -0.01
37.047314 2.0487188 -0.01
51.067317 2.0487188 -0.01
70.390632 2.0487188 -0.01
97.023329 2.0487188 -0.01
133.73031 2.0487188 -0.01
184.32235 2.0487188 -0.01
-0.01 2.8298904 -0.01
-0.0075748247 2.8298904 -0.01
-0.0042322844 2.8298904 -0.01
0.00037463022 2.8298904 -0.01
0.006724191 2.8298904 -0.01
0.015475584 2.8298904 -0.01
0.027537345 2.8298904 -0.01
0.044161679 2.8298904 -0.01
0.067074457 2.8298904 -0.01
0.098654395 2.8298904 -0.01
0.14218 2.8298904 -0.01
0.20216992 2.8298904 -0.01
0.28485208 2.8298904 -0.01
0.39881022 2.8298904 -0.01
0.55587502 2.8298904 -0.01
0.77235233 2.8298904 -0.01
1.070716 2.8298904 -0.01
1.4819409 2.8298904 -0.01
2.0487188 2.8298904 -0.01
2.8298904 2.8298904 -0.01
3.9065539 2.8298904 -0.01
5.3904841 2.8298904 -0.01
7.4357369 2.8298904 -0.01
10.254642 2.8298904 -0.01
14.139848 2.8298904 -0.01
19.494701 2.8298904 -0.01
26.875121 2.8298904 -0.01
37.047314 2.8298904 -0.01
51.067317 2.8298904 -0.01
70.390632 2.8298904 -0.01
97.023329 2.8298904 -0.01
133.73031 2.8298904 -0.01
184.32235 2.8298904 -0.01
-0.01 3.9065539 -0.01
-0.0075748247 3.9065539 -0.01
-0.0042322844 3.9065539 -0.01
0.00037463022 3.9065539 -0.01
0.006724191 3.9065539 -0.01
0.015475584 3.9065539 -0.01
0.027537345 3.9065539 -0.01
0.044161679 3.9065539 -0.01
0.067074457 3.9065539 -0.01
0.098654395 3.9065539 -0.01
0.14218 3.9065539 -0.01
0.20216992 3.9065539 -0.01
0.28485208 3.9065539 -0.01
0.39881022 3.9065539 -0.01
0.55587502 3.9065539 -0.01
0.77235233 3.9065539 -0.01
1.070716 3.9065539 -0.01
1.4819409 3.9065539 -0.01
2.0487188 3.9065539 -0.01
2.8298904 3.9065539 -0.01
3.9065539 3.9065539 -0.01
5.3904841 3.9065539 -0.01
7.4357369 3.9065539 -0.01
10.254642 3.9065539 -0.01
14.139848 3.9065539 -0.01
19.494701 3.9065539 -0.01
26.875121 3.9065539 -0.01
37.047314 3.9065539 -0.01
51.067317 3.9065539 -0.01
70.390632 3.9065539 -0.01
97.023329 3.9065539 -0.01
133.73031 3.9065539 -0.01
184.32235 3.9065539 -0.01
-0.01 5.3904841 -0.01
-0.0075748247 5.3904841 -0.01
-0.0042322844 5.3904841 -0.01
0.00037463022 5.3904841 -0.01
0.006724191 5.3904841 -0.01
0.015475584 5.3904841 -0.01
0.027537345 5.3904841 -0.01
0.044161679 5.3904841 -0.01
0.067074457 5.3904841 -0.01
0.098654395 5.3904841 -0.01
0.14218 5.3904841 -0.01
0.20216992 5.3904841 -0.01
0.28485208 5.3904841 -0.01
0.39881022 5.3904841 -0.01
0.55587502 5.3904841 -0.01
0.77235233 5.3904841 -0.01
1.070716 5.3904841 -0.01
1.4819409 5.3904841 -0.01
2.0487188 5.3904841 -0.01
2.8298904 5.3904841 -0.01
3.9065539 5.3904841 -0.01
5.3904841 5.3904841 -0.01
7.4357369 5.3904841 -0.01
10.254642 5.3904841 -0.01
14.139848 5.3904841 -0.01
19.494701 5.3904841 -0.01
26.875121 5.3904841 -0.01
37.047314 5.3904841 -0.01
51.067317 5.3904841 -0.01
70.390632 5.3904841 -0.01
97.023329 5.3904841 -0.01
133.73031 5.3904841 -0.01
184.32235 5.3904841 -0.01
-0.01 7.4357369 -0.01
-0.0075748247 7.4357369 -0.01
-0.0042322844 7.4357369 -0.01
0.00037463022 7.4357369 -0.01
0.006724191 7.4357369 -0.01
0.015475584 7.4357369 -0.01
0.027537345 7.4357369 -0.01
0.044161679 7.4357369 -0.01
0.067074457 7.4357369 -0.01
0.098654395 7.4357369 -0.01
0.14218 7.4357369 -0.01
0.20216992 7.4357369 -0.01
0.28485208 7.4357369 -0.01
0.39881022 7.4357369 -0.01
0.55587502 7.4357369 -0.01
0.77235233 7.4357369 -0.01
1.070716 7.4357369 -0.01
1.4819409 7.4357369 -0.01
2.0487188 7.4357369 -0.01
2.8298904 7.4357369 -0.01
3.9065539 7.4357369 -0.01
5.3904841 7.4357369 -0.01
7.4357369 7.4357369 -0.01
10.254642 7.4357369 -0.01
14.139848 7.4357369 -0.01
19.494701 7.4357369 -0.01
26.875121 7.4357369 -0.01
37.047314 7.4357369 -0.01
51.067317 7.4357369 -0.01
70.390632 7.4357369 -0.01
97.023329 7.4357369 -0.01
133.73031 7.4357369 -0.01
184.32235 7.4357369 -0.01
-0.01 10.254642 -0.01
-0.0075748247 10.254642 -0.01
-0.0042322844 10.254642 -0.01
0.00037463022 10.254642 -0.01
0.006724191 10.254642 -0.01
0.015475584 10.254642 -0.01
0.027537345 10.254642 -0.01
0.044161679 10.254642 -0.01
0.067074457 10.254642 -0.01
0.098654395 10.254642 -0.01
0.14218 10.254642 -0.01
0.20216992 10.254642 -0.01
0.28485208 10.254642 -0.01
0.39881022 10.254642 -0.01
0.55587502 10.254642 -0.01
0.77235233 10.254642 -0.01
1.070716 10.254642 -0.01
1.4819409 10.254642 -0.01
2.0487188 10.254642 -0.01
2.8298904 10.254642 -0.01
3.9065539 10.254642 -0.01
5.3904841 10.254642 -0.01
7.4357369 10.254642 -0.01
10.254642 10.254642 -0.01
14.139848 10.254642 -0.01
19.494701 10.254642 -0.01
26.875121 10.254642 -0.01
37.047314 10.254642 -0.01
51.067317 10.254642 -0.01
70.390632 10.254642 -0.01
97.023329 10.254642 -0.01
133.73031 10.254642 -0.01
184.32235 10.254642 -0.01
-0.01 14.139848 -0.01
-0.0075748247 14.139848 -0.01
-0.0042322844 14.139848 -0.01
0.00037463022 14.139848 -0.01
0.006724191 14.139848 -0.01
0.015475584 14.139848 -0.01
0.027537345 14.139848 -0.01
0.044161679 14.139848 -0.01
0.067074457 14.139848 -0.01
0.098654395 14.139848 -0.01
0.14218 14.139848 -0.01
