site/assets/luts/red-conversion--redlogfilm-to-redgamma--907de45e6.cube
# LUTr-Project: LUTr — LUTrepository
# LUTr-Schema-Version: 1
# LUTr-ID: red-conversion--redlogfilm-to-redgamma--907de45e6
# LUTr-Title: REDlogFilm to REDgamma
# LUTr-Collection: RED Conversion
# LUTr-Collection-ID: videovillage-red-conversion-luts
# LUTr-Source: https://github.com/videovillage/RED-Conversion-LUTs
# LUTr-Source-File: submissions/videovillage-red-conversion-luts/Masters/REDlogFilm_to_REDgamma.cube
# LUTr-Source-Format: CUBE
# LUTr-Source-SHA256: 32c48518530bfca63f0dc2dd38fc61241977de38b232181bd3ee58a058d7b5ec
# LUTr-License: MIT
# LUTr-License-URL: https://github.com/videovillage/RED-Conversion-LUTs/blob/master/LICENSE.md
# LUTr-Tags: technical, camera, red, redlogfilm, redgamma, cube
# LUTr-Transform-Class: camera-transform
# LUTr-Input-Color-Space: Unknown
# LUTr-Output-Color-Space: Unknown
# LUTr-Color-Space-Confidence: unverified
# LUTr-Conversion-Method: Metadata normalization; numeric LUT samples preserved
# LUTr-Conversion-Date: 2026-07-27
# LUTr-Conversion-Tool: LUTr scripts/convert-all-to-cube.mjs
# LUTr-Conversion-Grid: 1024-sample 1D
# LUTr-Note: Preserve this metadata and the upstream license notices when redistributing.
# LUTr-Upstream-Comment: Created by Tashi Trieu and Greg Cotten
TITLE "REDlogFilm to REDgamma"
LUT_1D_SIZE 1024
DOMAIN_MIN 0 0 0
DOMAIN_MAX 1 1 1
0.071366445 0.071366445 0.071366445
0.071374695 0.071374695 0.071374695
0.071382945 0.071382945 0.071382945
0.071391195 0.071391195 0.071391195
0.071399445 0.071399445 0.071399445
0.071407695 0.071407695 0.071407695
0.071415945 0.071415945 0.071415945
0.071424194 0.071424194 0.071424194
0.071432444 0.071432444 0.071432444
0.071440694 0.071440694 0.071440694
0.071448944 0.071448944 0.071448944
0.071457194 0.071457194 0.071457194
0.071465444 0.071465444 0.071465444
0.071473694 0.071473694 0.071473694
0.071481944 0.071481944 0.071481944
0.071490193 0.071490193 0.071490193
0.071498443 0.071498443 0.071498443
0.071506693 0.071506693 0.071506693
0.071514943 0.071514943 0.071514943
0.071523193 0.071523193 0.071523193
0.071531443 0.071531443 0.071531443
0.071539693 0.071539693 0.071539693
0.071547943 0.071547943 0.071547943
0.071556193 0.071556193 0.071556193
0.071564442 0.071564442 0.071564442
0.071572692 0.071572692 0.071572692
0.071580942 0.071580942 0.071580942
0.071589192 0.071589192 0.071589192
0.071597442 0.071597442 0.071597442
0.071605692 0.071605692 0.071605692
0.071613942 0.071613942 0.071613942
0.071622192 0.071622192 0.071622192
0.071630441 0.071630441 0.071630441
0.071638691 0.071638691 0.071638691
0.071646941 0.071646941 0.071646941
0.071655191 0.071655191 0.071655191
0.071663441 0.071663441 0.071663441
0.071671691 0.071671691 0.071671691
0.071679941 0.071679941 0.071679941
0.07168819 0.07168819 0.07168819
0.07169644 0.07169644 0.07169644
0.07170469 0.07170469 0.07170469
0.07171294 0.07171294 0.07171294
0.07172119 0.07172119 0.07172119
0.07172944 0.07172944 0.07172944
0.07173769 0.07173769 0.07173769
0.07174594 0.07174594 0.07174594
0.071754189 0.071754189 0.071754189
0.071762439 0.071762439 0.071762439
0.071770689 0.071770689 0.071770689
0.071778939 0.071778939 0.071778939
0.071787189 0.071787189 0.071787189
0.071795439 0.071795439 0.071795439
0.071803689 0.071803689 0.071803689
0.071811939 0.071811939 0.071811939
0.071820189 0.071820189 0.071820189
0.071828438 0.071828438 0.071828438
0.071836688 0.071836688 0.071836688
0.071844938 0.071844938 0.071844938
0.071853188 0.071853188 0.071853188
0.071861438 0.071861438 0.071861438
0.071869688 0.071869688 0.071869688
0.071877938 0.071877938 0.071877938
0.071886188 0.071886188 0.071886188
0.071894437 0.071894437 0.071894437
0.071902687 0.071902687 0.071902687
0.071910937 0.071910937 0.071910937
0.071919187 0.071919187 0.071919187
0.071927437 0.071927437 0.071927437
0.071935687 0.071935687 0.071935687
0.071943937 0.071943937 0.071943937
0.071952187 0.071952187 0.071952187
0.071960436 0.071960436 0.071960436
0.071968686 0.071968686 0.071968686
0.071976936 0.071976936 0.071976936
0.071985186 0.071985186 0.071985186
0.071993436 0.071993436 0.071993436
0.072001686 0.072001686 0.072001686
0.072009936 0.072009936 0.072009936
0.072018185 0.072018185 0.072018185
0.072026435 0.072026435 0.072026435
0.072034685 0.072034685 0.072034685
0.072042935 0.072042935 0.072042935
0.072051185 0.072051185 0.072051185
0.072059435 0.072059435 0.072059435
0.072067685 0.072067685 0.072067685
0.072075935 0.072075935 0.072075935
0.072084184 0.072084184 0.072084184
0.072092434 0.072092434 0.072092434
0.072100684 0.072100684 0.072100684
0.072108934 0.072108934 0.072108934
0.072117184 0.072117184 0.072117184
0.072125434 0.072125434 0.072125434
0.072133684 0.072133684 0.072133684
0.072141934 0.072141934 0.072141934
0.072150184 0.072150184 0.072150184
0.072158433 0.072158433 0.072158433
0.072166683 0.072166683 0.072166683
0.072174933 0.072174933 0.072174933
0.072183183 0.072183183 0.072183183
0.072191433 0.072191433 0.072191433
0.072199683 0.072199683 0.072199683
0.072207933 0.072207933 0.072207933
0.072216183 0.072216183 0.072216183
0.072224432 0.072224432 0.072224432
0.072232682 0.072232682 0.072232682
0.072240932 0.072240932 0.072240932
0.072249182 0.072249182 0.072249182
0.072257432 0.072257432 0.072257432
0.072323996 0.072323996 0.072323996
0.072435995 0.072435995 0.072435995
0.072547994 0.072547994 0.072547994
0.072659992 0.072659992 0.072659992
0.072771991 0.072771991 0.072771991
0.07288399 0.07288399 0.07288399
0.072995988 0.072995988 0.072995988
0.073107987 0.073107987 0.073107987
0.073249404 0.073249404 0.073249404
0.073412611 0.073412611 0.073412611
0.073575818 0.073575818 0.073575818
0.073739025 0.073739025 0.073739025
0.073902232 0.073902232 0.073902232
0.074069493 0.074069493 0.074069493
0.074276235 0.074276235 0.074276235
0.074482977 0.074482977 0.074482977
0.074689719 0.074689719 0.074689719
0.074896461 0.074896461 0.074896461
0.075129284 0.075129284 0.075129284
0.075370074 0.075370074 0.075370074
0.075610864 0.075610864 0.075610864
0.075853488 0.075853488 0.075853488
0.076130452 0.076130452 0.076130452
0.076407416 0.076407416 0.076407416
0.07668438 0.07668438 0.07668438
0.077001249 0.077001249 0.077001249
0.077326837 0.077326837 0.077326837
0.077654879 0.077654879 0.077654879
0.078014074 0.078014074 0.078014074
0.078373268 0.078373268 0.078373268
0.078749827 0.078749827 0.078749827
0.079138832 0.079138832 0.079138832
0.079533778 0.079533778 0.079533778
0.079943794 0.079943794 0.079943794
0.080356192 0.080356192 0.080356192
0.080789815 0.080789815 0.080789815
0.081223774 0.081223774 0.081223774
0.081666285 0.081666285 0.081666285
0.082109042 0.082109042 0.082109042
0.082566686 0.082566686 0.082566686
0.083024338 0.083024338 0.083024338
0.083482109 0.083482109 0.083482109
0.083941422 0.083941422 0.083941422
0.084413589 0.084413589 0.084413589
0.084884253 0.084884253 0.084884253
0.08534935 0.08534935 0.08534935
0.085814447 0.085814447 0.085814447
0.086279543 0.086279543 0.086279543
0.086743012 0.086743012 0.086743012
0.087203654 0.087203654 0.087203654
0.087657982 0.087657982 0.087657982
0.088103714 0.088103714 0.088103714
0.088546155 0.088546155 0.088546155
0.088983985 0.088983985 0.088983985
0.089417868 0.089417868 0.089417868
0.089845121 0.089845121 0.089845121
0.090266714 0.090266714 0.090266714
0.090673705 0.090673705 0.090673705
0.091079907 0.091079907 0.091079907
0.091477192 0.091477192 0.091477192
0.091874477 0.091874477 0.091874477
0.092265787 0.092265787 0.092265787
0.092655868 0.092655868 0.092655868
0.093043222 0.093043222 0.093043222
0.093428218 0.093428218 0.093428218
0.093813873 0.093813873 0.093813873
0.094201968 0.094201968 0.094201968
0.094590063 0.094590063 0.094590063
0.094972152 0.094972152 0.094972152
0.095353628 0.095353628 0.095353628
0.095735103 0.095735103 0.095735103
0.096116579 0.096116579 0.096116579
0.096498229 0.096498229 0.096498229
0.096880507 0.096880507 0.096880507
0.097262785 0.097262785 0.097262785
0.097651905 0.097651905 0.097651905
0.098041986 0.098041986 0.098041986
0.09843595 0.09843595 0.09843595
0.098832685 0.098832685 0.098832685
0.09923368 0.09923368 0.09923368
0.099643377 0.099643377 0.099643377
0.10005343 0.10005343 0.10005343
0.1004656 0.1004656 0.1004656
0.10087778 0.10087778 0.10087778
0.10130547 0.10130547 0.10130547
0.10173356 0.10173356 0.10173356
0.10217441 0.10217441 0.10217441
0.10261692 0.10261692 0.10261692
0.10307353 0.10307353 0.10307353
0.10353237 0.10353237 0.10353237
0.10399052 0.10399052 0.10399052
0.10444859 0.10444859 0.10444859
0.10492103 0.10492103 0.10492103
0.10539463 0.10539463 0.10539463
0.10587587 0.10587587 0.10587587
0.10635823 0.10635823 0.10635823
0.10684477 0.10684477 0.10684477
0.10733196 0.10733196 0.10733196
0.10782025 0.10782025 0.10782025
0.10831429 0.10831429 0.10831429
0.10881325 0.10881325 0.10881325
0.10931563 0.10931563 0.10931563
0.10981918 0.10981918 0.10981918
0.11032934 0.11032934 0.11032934
0.11084154 0.11084154 0.11084154
0.11136034 0.11136034 0.11136034
0.11188013 0.11188013 0.11188013
0.11240094 0.11240094 0.11240094
0.11293202 0.11293202 0.11293202
0.1134666 0.1134666 0.1134666
0.11400581 0.11400581 0.11400581
0.11454541 0.11454541 0.11454541
0.11508553 0.11508553 0.11508553
0.11563287 0.11563287 0.11563287
0.11618368 0.11618368 0.11618368
0.11674254 0.11674254 0.11674254
0.11730186 0.11730186 0.11730186
0.11786155 0.11786155 0.11786155
0.11843489 0.11843489 0.11843489
0.11900963 0.11900963 0.11900963
0.11958556 0.11958556 0.11958556
0.12017055 0.12017055 0.12017055
0.1207567 0.1207567 0.1207567
0.12134183 0.12134183 0.12134183
0.12193484 0.12193484 0.12193484
0.12253348 0.12253348 0.12253348
0.12314086 0.12314086 0.12314086
0.12375067 0.12375067 0.12375067
0.12436144 0.12436144 0.12436144
0.12497299 0.12497299 0.12497299
0.12559179 0.12559179 0.12559179
0.12621205 0.12621205 0.12621205
0.12683301 0.12683301 0.12683301
0.12746949 0.12746949 0.12746949
0.12810474 0.12810474 0.12810474
0.12874244 0.12874244 0.12874244
0.12939444 0.12939444 0.12939444
0.13004249 0.13004249 0.13004249
0.13068899 0.13068899 0.13068899
0.13133562 0.13133562 0.13133562
0.1320026 0.1320026 0.1320026
0.13266707 0.13266707 0.13266707
0.13333333 0.13333333 0.13333333
0.13400473 0.13400473 0.13400473
0.13467613 0.13467613 0.13467613
0.13535254 0.13535254 0.13535254
0.13603418 0.13603418 0.13603418
0.13672084 0.13672084 0.13672084
0.13740749 0.13740749 0.13740749
0.13809415 0.13809415 0.13809415
0.13878533 0.13878533 0.13878533
0.13948272 0.13948272 0.13948272
0.14018463 0.14018463 0.14018463
0.14089049 0.14089049 0.14089049
0.14160372 0.14160372 0.14160372
0.14231677 0.14231677 0.14231677
0.14302454 0.14302454 0.14302454
0.14374018 0.14374018 0.14374018
0.14445716 0.14445716 0.14445716
0.14517904 0.14517904 0.14517904
0.14590267 0.14590267 0.14590267
0.14662601 0.14662601 0.14662601
0.14735651 0.14735651 0.14735651
0.14808881 0.14808881 0.14808881
0.14882124 0.14882124 0.14882124
0.14955367 0.14955367 0.14955367
0.15028927 0.15028927 0.15028927
0.1510338 0.1510338 0.1510338
0.15178149 0.15178149 0.15178149
0.15253277 0.15253277 0.15253277
0.15328772 0.15328772 0.15328772
0.15404854 0.15404854 0.15404854
0.15481445 0.15481445 0.15481445
0.15558309 0.15558309 0.15558309
0.1563592 0.1563592 0.1563592
0.15713741 0.15713741 0.15713741
0.15791889 0.15791889 0.15791889
0.15870909 0.15870909 0.15870909
0.15950681 0.15950681 0.15950681
0.16031128 0.16031128 0.16031128
0.16112001 0.16112001 0.16112001
0.16193174 0.16193174 0.16193174
0.16275487 0.16275487 0.16275487
0.16359062 0.16359062 0.16359062
0.16441636 0.16441636 0.16441636
0.16526997 0.16526997 0.16526997
0.1661124 0.1661124 0.1661124
0.16697948 0.16697948 0.16697948
0.16784924 0.16784924 0.16784924
0.16871901 0.16871901 0.16871901
0.16959129 0.16959129 0.16959129
0.17047379 0.17047379 0.17047379
0.17136148 0.17136148 0.17136148
0.1722591 0.1722591 0.1722591
0.17315938 0.17315938 0.17315938
0.17405966 0.17405966 0.17405966
0.17496235 0.17496235 0.17496235
0.17587549 0.17587549 0.17587549
0.17679295 0.17679295 0.17679295
0.17772183 0.17772183 0.17772183
0.17865361 0.17865361 0.17865361
0.17959846 0.17959846 0.17959846
0.18053019 0.18053019 0.18053019
0.18148954 0.18148954 0.18148954
0.18243877 0.18243877 0.18243877
0.1834007 0.1834007 0.1834007
0.18437476 0.18437476 0.18437476
0.18535134 0.18535134 0.18535134
0.18633138 0.18633138 0.18633138
0.18731975 0.18731975 0.18731975
0.18831431 0.18831431 0.18831431
0.1893204 0.1893204 0.1893204
0.19034093 0.19034093 0.19034093
0.19135094 0.19135094 0.19135094
0.1923831 0.1923831 0.1923831
0.19341453 0.19341453 0.19341453
0.19446098 0.19446098 0.19446098
0.19551385 0.19551385 0.19551385
0.19656731 0.19656731 0.19656731
0.19763485 0.19763485 0.19763485
0.19870866 0.19870866 0.19870866
0.19979856 0.19979856 0.19979856
0.20088717 0.20088717 0.20088717
0.20198375 0.20198375 0.20198375
0.20309758 0.20309758 0.20309758
0.20421453 0.20421453 0.20421453
0.20534285 0.20534285 0.20534285
0.20648465 0.20648465 0.20648465
0.20761929 0.20761929 0.20761929
0.20877394 0.20877394 0.20877394
0.20993362 0.20993362 0.20993362
0.21109511 0.21109511 0.21109511
0.21226825 0.21226825 0.21226825
0.21344492 0.21344492 0.21344492
0.21463483 0.21463483 0.21463483
0.21583602 0.21583602 0.21583602
0.21703232 0.21703232 0.21703232
0.21824807 0.21824807 0.21824807
0.21945805 0.21945805 0.21945805
0.22067696 0.22067696 0.22067696
0.22191196 0.22191196 0.22191196
0.22314794 0.22314794 0.22314794
0.22438392 0.22438392 0.22438392
0.22562259 0.22562259 0.22562259
0.22687269 0.22687269 0.22687269
0.22813565 0.22813565 0.22813565
0.22939137 0.22939137 0.22939137
0.23065595 0.23065595 0.23065595
0.23193713 0.23193713 0.23193713
0.23321889 0.23321889 0.23321889
0.23450065 0.23450065 0.23450065
0.23578241 0.23578241 0.23578241
0.23706599 0.23706599 0.23706599
0.23836349 0.23836349 0.23836349
0.23967223 0.23967223 0.23967223
0.24097047 0.24097047 0.24097047
0.24226786 0.24226786 0.24226786
0.24357977 0.24357977 0.24357977
0.24489204 0.24489204 0.24489204
0.24620432 0.24620432 0.24620432
0.24751659 0.24751659 0.24751659
0.24883129 0.24883129 0.24883129
0.25015641 0.25015641 0.25015641
0.25148394 0.25148394 0.25148394
0.25281147 0.25281147 0.25281147
0.25414119 0.25414119 0.25414119
0.25548337 0.25548337 0.25548337
0.25683764 0.25683764 0.25683764
0.25818551 0.25818551 0.25818551
0.25955366 0.25955366 0.25955366
0.26091507 0.26091507 0.26091507
0.26228973 0.26228973 0.26228973
0.26367621 0.26367621 0.26367621
0.2650773 0.2650773 0.2650773
0.26646988 0.26646988 0.26646988
0.26788739 0.26788739 0.26788739
0.26930833 0.26930833 0.26930833
0.27074083 0.27074083 0.27074083
0.27217987 0.27217987 0.27217987
0.27364004 0.27364004 0.27364004
0.27510491 0.27510491 0.27510491
0.27657413 0.27657413 0.27657413
0.27806516 0.27806516 0.27806516
0.27956235 0.27956235 0.27956235
0.28107553 0.28107553 0.28107553
0.28261234 0.28261234 0.28261234
0.28415458 0.28415458 0.28415458
0.28570993 0.28570993 0.28570993
0.28727024 0.28727024 0.28727024
0.28885328 0.28885328 0.28885328
0.29044109 0.29044109 0.29044109
0.29204427 0.29204427 0.29204427
0.29365988 0.29365988 0.29365988
0.2952808 0.2952808 0.2952808
0.29692531 0.29692531 0.29692531
0.29857328 0.29857328 0.29857328
0.30022248 0.30022248 0.30022248
0.30188627 0.30188627 0.30188627
0.30356498 0.30356498 0.30356498
0.30525673 0.30525673 0.30525673
0.30695229 0.30695229 0.30695229
0.30866099 0.30866099 0.30866099
0.31038376 0.31038376 0.31038376
0.31210878 0.31210878 0.31210878
0.31384756 0.31384756 0.31384756
0.31558713 0.31558713 0.31558713
0.3173422 0.3173422 0.3173422
0.31911192 0.31911192 0.31911192
0.32088258 0.32088258 0.32088258
0.32266728 0.32266728 0.32266728
0.32445324 0.32445324 0.32445324
0.32625372 0.32625372 0.32625372
0.32806897 0.32806897 0.32806897
0.32988496 0.32988496 0.32988496
0.33171588 0.33171588 0.33171588
0.33354745 0.33354745 0.33354745
0.3353933 0.3353933 0.3353933
0.33723964 0.33723964 0.33723964
0.33908883 0.33908883 0.33908883
0.34096284 0.34096284 0.34096284
0.3428397 0.3428397 0.3428397
0.34471835 0.34471835 0.34471835
0.34661027 0.34661027 0.34661027
0.34851606 0.34851606 0.34851606
0.35042387 0.35042387 0.35042387
0.35234662 0.35234662 0.35234662
0.35428529 0.35428529 0.35428529
0.35623713 0.35623713 0.35623713
0.35819192 0.35819192 0.35819192
0.36015869 0.36015869 0.36015869
0.36212723 0.36212723 0.36212723
0.36411202 0.36411202 0.36411202
0.36610971 0.36610971 0.36610971
0.36811006 0.36811006 0.36811006
0.37012284 0.37012284 0.37012284
0.37213814 0.37213814 0.37213814
0.37416648 0.37416648 0.37416648
0.37619593 0.37619593 0.37619593
0.37822554 0.37822554 0.37822554
0.38028391 0.38028391 0.38028391
0.38233165 0.38233165 0.38233165
0.38439059 0.38439059 0.38439059
0.38646525 0.38646525 0.38646525
0.38854047 0.38854047 0.38854047
0.39061648 0.39061648 0.39061648
0.39270619 0.39270619 0.39270619
0.39479667 0.39479667 0.39479667
0.39688788 0.39688788 0.39688788
0.3989929 0.3989929 0.3989929
0.40110022 0.40110022 0.40110022
0.40321936 0.40321936 0.40321936
0.40532677 0.40532677 0.40532677
0.4074478 0.4074478 0.4074478
0.40958228 0.40958228 0.40958228
0.41170525 0.41170525 0.41170525
0.41384086 0.41384086 0.41384086
0.41599145 0.41599145 0.41599145
0.41814444 0.41814444 0.41814444
0.42030976 0.42030976 0.42030976
0.42247811 0.42247811 0.42247811
0.42465858 0.42465858 0.42465858
0.42684062 0.42684062 0.42684062
0.42902367 0.42902367 0.42902367
0.43122112 0.43122112 0.43122112
0.43343128 0.43343128 0.43343128
0.43563165 0.43563165 0.43563165
0.43785627 0.43785627 0.43785627
0.44007095 0.44007095 0.44007095
0.44229801 0.44229801 0.44229801
0.44452649 0.44452649 0.44452649
0.4467689 0.4467689 0.4467689
0.44901198 0.44901198 0.44901198
0.45125644 0.45125644 0.45125644
0.45351339 0.45351339 0.45351339
0.45577173 0.45577173 0.45577173
0.4580311 0.4580311 0.4580311
0.46030365 0.46030365 0.46030365
0.46257725 0.46257725 0.46257725
0.46485084 0.46485084 0.46485084
0.46712586 0.46712586 0.46712586
0.46941329 0.46941329 0.46941329
0.47170214 0.47170214 0.47170214
0.473991 0.473991 0.473991
0.47627985 0.47627985 0.47627985
0.47856958 0.47856958 0.47856958
0.48087282 0.48087282 0.48087282
0.48317693 0.48317693 0.48317693
0.48548104 0.48548104 0.48548104
0.48778809 0.48778809 0.48778809
0.4901193 0.4901193 0.4901193
0.49244168 0.49244168 0.49244168
0.4947878 0.4947878 0.4947878
0.4971241 0.4971241 0.4971241
0.499475 0.499475 0.499475
0.50183871 0.50183871 0.50183871
0.50420386 0.50420386 0.50420386
0.50657044 0.50657044 0.50657044
0.50894873 0.50894873 0.50894873
0.51131651 0.51131651 0.51131651
0.51370881 0.51370881 0.51370881
0.51609064 0.51609064 0.51609064
0.51847202 0.51847202 0.51847202
0.52086671 0.52086671 0.52086671
0.52326238 0.52326238 0.52326238
0.52565805 0.52565805 0.52565805
0.52805371 0.52805371 0.52805371
0.53044938 0.53044938 0.53044938
0.53284504 0.53284504 0.53284504
0.53524071 0.53524071 0.53524071
0.53763638 0.53763638 0.53763638
0.54003204 0.54003204 0.54003204
0.54242771 0.54242771 0.54242771
0.54482234 0.54482234 0.54482234
0.54720378 0.54720378 0.54720378
0.5495856 0.5495856 0.5495856
0.55197882 0.55197882 0.55197882
0.55435974 0.55435974 0.55435974
0.55672684 0.55672684 0.55672684
0.55910489 0.55910489 0.55910489
0.56147022 0.56147022 0.56147022
0.5638223 0.5638223 0.5638223
0.56618601 0.56618601 0.56618601
0.56855116 0.56855116 0.56855116
0.5709163 0.5709163 0.5709163
0.57328145 0.57328145 0.57328145
0.5756466 0.5756466 0.5756466
0.57801175 0.57801175 0.57801175
0.5803769 0.5803769 0.5803769
0.58274205 0.58274205 0.58274205
0.58510719 0.58510719 0.58510719
0.58747234 0.58747234 0.58747234
0.58983749 0.58983749 0.58983749
0.59220264 0.59220264 0.59220264
0.59456779 0.59456779 0.59456779
0.59693149 0.59693149 0.59693149
0.59928342 0.59928342 0.59928342
0.60164797 0.60164797 0.60164797
0.60401173 0.60401173 0.60401173
0.60636301 0.60636301 0.60636301
0.6087129 0.6087129 0.6087129
0.61106279 0.61106279 0.61106279
0.61341268 0.61341268 0.61341268
0.61576257 0.61576257 0.61576257
0.61811167 0.61811167 0.61811167
0.62044811 0.62044811 0.62044811
0.62279558 0.62279558 0.62279558
0.62513161 0.62513161 0.62513161
0.62746624 0.62746624 0.62746624
0.62979984 0.62979984 0.62979984
0.6321211 0.6321211 0.6321211
0.63445343 0.63445343 0.63445343
0.63677411 0.63677411 0.63677411
0.63907977 0.63907977 0.63907977
0.64139773 0.64139773 0.64139773
0.6437171 0.6437171 0.6437171
0.64603647 0.64603647 0.64603647
0.64835601 0.64835601 0.64835601
0.65068904 0.65068904 0.65068904
0.65300984 0.65300984 0.65300984
0.65532921 0.65532921 0.65532921
0.65764858 0.65764858 0.65764858
0.65996796 0.65996796 0.65996796
0.66228733 0.66228733 0.66228733
0.6646067 0.6646067 0.6646067
0.6669249 0.6669249 0.6669249
0.66923018 0.66923018 0.66923018
0.67153429 0.67153429 0.67153429
0.67383841 0.67383841 0.67383841
0.67614252 0.67614252 0.67614252
0.67844521 0.67844521 0.67844521
0.68073548 0.68073548 0.68073548
0.68302434 0.68302434 0.68302434
0.68531198 0.68531198 0.68531198
0.68758591 0.68758591 0.68758591
0.68984649 0.68984649 0.68984649
0.69211751 0.69211751 0.69211751
0.69436324 0.69436324 0.69436324
0.69661923 0.69661923 0.69661923
0.69884942 0.69884942 0.69884942
0.70109009 0.70109009 0.70109009
0.70330358 0.70330358 0.70330358
0.70551614 0.70551614 0.70551614
0.70772592 0.70772592 0.70772592
0.70991073 0.70991073 0.70991073
0.71209277 0.71209277 0.71209277
0.71427196 0.71427196 0.71427196
0.7164267 0.7164267 0.7164267
0.71858995 0.71858995 0.71858995
0.7207301 0.7207301 0.7207301
0.72287964 0.72287964 0.72287964
0.72501717 0.72501717 0.72501717
0.72715312 0.72715312 0.72715312
0.72927443 0.72927443 0.72927443
0.73139544 0.73139544 0.73139544
0.73351556 0.73351556 0.73351556
0.73562056 0.73562056 0.73562056
0.73771348 0.73771348 0.73771348
0.73981627 0.73981627 0.73981627
0.74189364 0.74189364 0.74189364
0.74396887 0.74396887 0.74396887
0.7460441 0.7460441 0.7460441
0.74811602 0.74811602 0.74811602
0.7501652 0.7501652 0.7501652
0.75222308 0.75222308 0.75222308
0.75425497 0.75425497 0.75425497
0.7562966 0.7562966 0.7562966
0.75832699 0.75832699 0.75832699
0.76034094 0.76034094 0.76034094
0.76234234 0.76234234 0.76234234
0.76435175 0.76435175 0.76435175
0.7663386 0.7663386 0.7663386
0.76832227 0.76832227 0.76832227
0.77030453 0.77030453 0.77030453
0.77227262 0.77227262 0.77227262
0.77422751 0.77422751 0.77422751
0.77617979 0.77617979 0.77617979
0.77811856 0.77811856 0.77811856
0.78005431 0.78005431 0.78005431
0.78196539 0.78196539 0.78196539
0.7838847 0.7838847 0.7838847
0.78579213 0.78579213 0.78579213
0.78768597 0.78768597 0.78768597
0.78957707 0.78957707 0.78957707
0.79145495 0.79145495 0.79145495
0.79333162 0.79333162 0.79333162
0.79519341 0.79519341 0.79519341
0.79705389 0.79705389 0.79705389
0.79890135 0.79890135 0.79890135
0.80074609 0.80074609 0.80074609
0.80257877 0.80257877 0.80257877
0.80440805 0.80440805 0.80440805
0.80622382 0.80622382 0.80622382
0.80802625 0.80802625 0.80802625
0.80982681 0.80982681 0.80982681
0.81162548 0.81162548 0.81162548
0.81341077 0.81341077 0.81341077
0.81518273 0.81518273 0.81518273
0.81695088 0.81695088 0.81695088
0.81870756 0.81870756 0.81870756
0.82046056 0.82046056 0.82046056
0.82220023 0.82220023 0.82220023
0.82392615 0.82392615 0.82392615
0.82565042 0.82565042 0.82565042
0.8273741 0.8273741 0.8273741
0.82908362 0.82908362 0.82908362
0.83077745 0.83077745 0.83077745
0.83246979 0.83246979 0.83246979
0.83414969 0.83414969 0.83414969
0.83582615 0.83582615 0.83582615
0.83749142 0.83749142 0.83749142
0.83915312 0.83915312 0.83915312
0.84080194 0.84080194 0.84080194
0.84243598 0.84243598 0.84243598
0.84408178 0.84408178 0.84408178
0.84571805 0.84571805 0.84571805
0.84736197 0.84736197 0.84736197
0.84899672 0.84899672 0.84899672
0.85062943 0.85062943 0.85062943
0.85226139 0.85226139 0.85226139
0.85387961 0.85387961 0.85387961
0.85549494 0.85549494 0.85549494
0.85709926 0.85709926 0.85709926
0.85870146 0.85870146 0.85870146
0.86030194 0.86030194 0.86030194
0.86187533 0.86187533 0.86187533
0.86344701 0.86344701 0.86344701
