site/assets/luts/red-conversion--redlogfilm-to-redgamma2--9c7051c46.cube
# LUTr-Project: LUTr — LUTrepository
# LUTr-Schema-Version: 1
# LUTr-ID: red-conversion--redlogfilm-to-redgamma2--9c7051c46
# LUTr-Title: REDlogFilm to REDgamma2
# LUTr-Collection: RED Conversion
# LUTr-Collection-ID: videovillage-red-conversion-luts
# LUTr-Source: https://github.com/videovillage/RED-Conversion-LUTs
# LUTr-Source-File: submissions/videovillage-red-conversion-luts/Masters/REDlogFilm_to_REDgamma2.cube
# LUTr-Source-Format: CUBE
# LUTr-Source-SHA256: f213fc9f60c087427658d79298a2a01a20e06a50eab89cacb3b015ac617196a8
# LUTr-License: MIT
# LUTr-License-URL: https://github.com/videovillage/RED-Conversion-LUTs/blob/master/LICENSE.md
# LUTr-Tags: technical, camera, red, redlogfilm, redgamma, cube
# LUTr-Transform-Class: camera-transform
# LUTr-Input-Color-Space: Unknown
# LUTr-Output-Color-Space: Unknown
# LUTr-Color-Space-Confidence: unverified
# LUTr-Conversion-Method: Metadata normalization; numeric LUT samples preserved
# LUTr-Conversion-Date: 2026-07-27
# LUTr-Conversion-Tool: LUTr scripts/convert-all-to-cube.mjs
# LUTr-Conversion-Grid: 1024-sample 1D
# LUTr-Note: Preserve this metadata and the upstream license notices when redistributing.
# LUTr-Upstream-Comment: Created by Tashi Trieu and Greg Cotten
TITLE "REDlogFilm to REDgamma2"
LUT_1D_SIZE 1024
DOMAIN_MIN 0 0 0
DOMAIN_MAX 1 1 1
0.056122682 0.056122682 0.056122682
0.056135415 0.056135415 0.056135415
0.056148147 0.056148147 0.056148147
0.056160879 0.056160879 0.056160879
0.056173611 0.056173611 0.056173611
0.056186343 0.056186343 0.056186343
0.056199075 0.056199075 0.056199075
0.056211807 0.056211807 0.056211807
0.056224539 0.056224539 0.056224539
0.056237271 0.056237271 0.056237271
0.056250003 0.056250003 0.056250003
0.056262735 0.056262735 0.056262735
0.056275467 0.056275467 0.056275467
0.056288199 0.056288199 0.056288199
0.056300931 0.056300931 0.056300931
0.056313663 0.056313663 0.056313663
0.056326395 0.056326395 0.056326395
0.056339127 0.056339127 0.056339127
0.056351859 0.056351859 0.056351859
0.056364591 0.056364591 0.056364591
0.056377323 0.056377323 0.056377323
0.056390055 0.056390055 0.056390055
0.056402787 0.056402787 0.056402787
0.056415519 0.056415519 0.056415519
0.056428251 0.056428251 0.056428251
0.056440983 0.056440983 0.056440983
0.056453715 0.056453715 0.056453715
0.056466447 0.056466447 0.056466447
0.056479179 0.056479179 0.056479179
0.056491911 0.056491911 0.056491911
0.056504643 0.056504643 0.056504643
0.056517375 0.056517375 0.056517375
0.056530107 0.056530107 0.056530107
0.056542839 0.056542839 0.056542839
0.056555571 0.056555571 0.056555571
0.056568303 0.056568303 0.056568303
0.056581035 0.056581035 0.056581035
0.056593768 0.056593768 0.056593768
0.056606499 0.056606499 0.056606499
0.056619231 0.056619231 0.056619231
0.056631964 0.056631964 0.056631964
0.056644696 0.056644696 0.056644696
0.056657428 0.056657428 0.056657428
0.05667016 0.05667016 0.05667016
0.056682892 0.056682892 0.056682892
0.056695624 0.056695624 0.056695624
0.056708356 0.056708356 0.056708356
0.056721088 0.056721088 0.056721088
0.05673382 0.05673382 0.05673382
0.056746552 0.056746552 0.056746552
0.056759284 0.056759284 0.056759284
0.056772016 0.056772016 0.056772016
0.056784748 0.056784748 0.056784748
0.05679748 0.05679748 0.05679748
0.056810212 0.056810212 0.056810212
0.056822944 0.056822944 0.056822944
0.056835676 0.056835676 0.056835676
0.056848408 0.056848408 0.056848408
0.05686114 0.05686114 0.05686114
0.056873872 0.056873872 0.056873872
0.056886604 0.056886604 0.056886604
0.056899336 0.056899336 0.056899336
0.056912068 0.056912068 0.056912068
0.0569248 0.0569248 0.0569248
0.056937532 0.056937532 0.056937532
0.056950264 0.056950264 0.056950264
0.056962996 0.056962996 0.056962996
0.056975728 0.056975728 0.056975728
0.05698846 0.05698846 0.05698846
0.057001192 0.057001192 0.057001192
0.057013924 0.057013924 0.057013924
0.057026656 0.057026656 0.057026656
0.05705901 0.05705901 0.05705901
0.057117747 0.057117747 0.057117747
0.057176483 0.057176483 0.057176483
0.057235219 0.057235219 0.057235219
0.057293955 0.057293955 0.057293955
0.057352692 0.057352692 0.057352692
0.057411428 0.057411428 0.057411428
0.057470164 0.057470164 0.057470164
0.0575289 0.0575289 0.0575289
0.057587637 0.057587637 0.057587637
0.057646373 0.057646373 0.057646373
0.057705109 0.057705109 0.057705109
0.057763846 0.057763846 0.057763846
0.057822582 0.057822582 0.057822582
0.057881318 0.057881318 0.057881318
0.057940054 0.057940054 0.057940054
0.058039582 0.058039582 0.058039582
0.058143054 0.058143054 0.058143054
0.058246525 0.058246525 0.058246525
0.058349997 0.058349997 0.058349997
0.058453469 0.058453469 0.058453469
0.058556941 0.058556941 0.058556941
0.058660413 0.058660413 0.058660413
0.058763885 0.058763885 0.058763885
0.058871378 0.058871378 0.058871378
0.05901321 0.05901321 0.05901321
0.059155042 0.059155042 0.059155042
0.059296874 0.059296874 0.059296874
0.059438706 0.059438706 0.059438706
0.059580539 0.059580539 0.059580539
0.05972237 0.05972237 0.05972237
0.059863978 0.059863978 0.059863978
0.06000548 0.06000548 0.06000548
0.060146982 0.060146982 0.060146982
0.060288484 0.060288484 0.060288484
0.060429986 0.060429986 0.060429986
0.060571487 0.060571487 0.060571487
0.060717507 0.060717507 0.060717507
0.060877848 0.060877848 0.060877848
0.06103819 0.06103819 0.06103819
0.061198532 0.061198532 0.061198532
0.061358874 0.061358874 0.061358874
0.061519215 0.061519215 0.061519215
0.061701553 0.061701553 0.061701553
0.061901424 0.061901424 0.061901424
0.062101295 0.062101295 0.062101295
0.062301166 0.062301166 0.062301166
0.062501037 0.062501037 0.062501037
0.062746783 0.062746783 0.062746783
0.062992661 0.062992661 0.062992661
0.063238538 0.063238538 0.063238538
0.063497761 0.063497761 0.063497761
0.063789511 0.063789511 0.063789511
0.06408126 0.06408126 0.06408126
0.064380712 0.064380712 0.064380712
0.064718465 0.064718465 0.064718465
0.065056217 0.065056217 0.065056217
0.065414437 0.065414437 0.065414437
0.065795794 0.065795794 0.065795794
0.066180814 0.066180814 0.066180814
0.066608063 0.066608063 0.066608063
0.067035313 0.067035313 0.067035313
0.067505913 0.067505913 0.067505913
0.067979823 0.067979823 0.067979823
0.068495899 0.068495899 0.068495899
0.06901853 0.06901853 0.06901853
0.069560348 0.069560348 0.069560348
0.070120791 0.070120791 0.070120791
0.070695125 0.070695125 0.070695125
0.071285744 0.071285744 0.071285744
0.071889976 0.071889976 0.071889976
0.072510981 0.072510981 0.072510981
0.073141325 0.073141325 0.073141325
0.073782404 0.073782404 0.073782404
0.074433872 0.074433872 0.074433872
0.0750928 0.0750928 0.0750928
0.075766105 0.075766105 0.075766105
0.0764477 0.0764477 0.0764477
0.077134572 0.077134572 0.077134572
0.077824061 0.077824061 0.077824061
0.078522927 0.078522927 0.078522927
0.079224842 0.079224842 0.079224842
0.079926757 0.079926757 0.079926757
0.080628672 0.080628672 0.080628672
0.081330587 0.081330587 0.081330587
0.082037319 0.082037319 0.082037319
0.082746294 0.082746294 0.082746294
0.08345134 0.08345134 0.08345134
0.084142048 0.084142048 0.084142048
0.084835157 0.084835157 0.084835157
0.085526818 0.085526818 0.085526818
0.086213066 0.086213066 0.086213066
0.08688477 0.08688477 0.08688477
0.087551032 0.087551032 0.087551032
0.088212698 0.088212698 0.088212698
0.08886982 0.08886982 0.08886982
0.08953994 0.08953994 0.08953994
0.09020629 0.09020629 0.09020629
0.090869828 0.090869828 0.090869828
0.091539238 0.091539238 0.091539238
0.092210269 0.092210269 0.092210269
0.092881666 0.092881666 0.092881666
0.093553063 0.093553063 0.093553063
0.09422446 0.09422446 0.09422446
0.094900923 0.094900923 0.094900923
0.095578218 0.095578218 0.095578218
0.096254508 0.096254508 0.096254508
0.096937339 0.096937339 0.096937339
0.097617062 0.097617062 0.097617062
0.098298619 0.098298619 0.098298619
0.098985425 0.098985425 0.098985425
0.09967524 0.09967524 0.09967524
0.1003689 0.1003689 0.1003689
0.10106483 0.10106483 0.10106483
0.10176117 0.10176117 0.10176117
0.10245152 0.10245152 0.10245152
0.10315099 0.10315099 0.10315099
0.1038529 0.1038529 0.1038529
0.1045573 0.1045573 0.1045573
0.10527218 0.10527218 0.10527218
0.10598521 0.10598521 0.10598521
0.10669598 0.10669598 0.10669598
0.10741213 0.10741213 0.10741213
0.10813945 0.10813945 0.10813945
0.10885982 0.10885982 0.10885982
0.1095903 0.1095903 0.1095903
0.11032273 0.11032273 0.11032273
0.11105516 0.11105516 0.11105516
0.11178777 0.11178777 0.11178777
0.11252188 0.11252188 0.11252188
0.11326383 0.11326383 0.11326383
0.11400485 0.11400485 0.11400485
0.11474784 0.11474784 0.11474784
0.11549561 0.11549561 0.11549561
0.11624369 0.11624369 0.11624369
0.11700334 0.11700334 0.11700334
0.11775814 0.11775814 0.11775814
0.11851224 0.11851224 0.11851224
0.11926832 0.11926832 0.11926832
0.12002943 0.12002943 0.12002943
0.12080538 0.12080538 0.12080538
0.12156863 0.12156863 0.12156863
0.12233564 0.12233564 0.12233564
0.12310979 0.12310979 0.12310979
0.123888 0.123888 0.123888
0.12466621 0.12466621 0.12466621
0.12544451 0.12544451 0.12544451
0.12622385 0.12622385 0.12622385
0.1270161 0.1270161 0.1270161
0.12780957 0.12780957 0.12780957
0.12860304 0.12860304 0.12860304
0.12939651 0.12939651 0.12939651
0.13019348 0.13019348 0.13019348
0.13099631 0.13099631 0.13099631
0.13179279 0.13179279 0.13179279
0.13260095 0.13260095 0.13260095
0.13340963 0.13340963 0.13340963
0.13422192 0.13422192 0.13422192
0.13504234 0.13504234 0.13504234
0.13586207 0.13586207 0.13586207
0.13667914 0.13667914 0.13667914
0.13749905 0.13749905 0.13749905
0.13832576 0.13832576 0.13832576
0.13916047 0.13916047 0.13916047
0.1399863 0.1399863 0.1399863
0.14081129 0.14081129 0.14081129
0.1416495 0.1416495 0.1416495
0.14248875 0.14248875 0.14248875
0.14332799 0.14332799 0.14332799
0.14416724 0.14416724 0.14416724
0.14501056 0.14501056 0.14501056
0.14586099 0.14586099 0.14586099
0.1467155 0.1467155 0.1467155
0.14757 0.14757 0.14757
0.14842451 0.14842451 0.14842451
0.14928185 0.14928185 0.14928185
0.1501464 0.1501464 0.1501464
0.15100498 0.15100498 0.15100498
0.15187304 0.15187304 0.15187304
0.15274323 0.15274323 0.15274323
0.15362783 0.15362783 0.15362783
0.15451239 0.15451239 0.15451239
0.15538479 0.15538479 0.15538479
0.15628164 0.15628164 0.15628164
0.15716952 0.15716952 0.15716952
0.15806645 0.15806645 0.15806645
0.15895728 0.15895728 0.15895728
0.15986678 0.15986678 0.15986678
0.16077115 0.16077115 0.16077115
0.1616846 0.1616846 0.1616846
0.16260014 0.16260014 0.16260014
0.1635176 0.1635176 0.1635176
0.16444477 0.16444477 0.16444477
0.16536365 0.16536365 0.16536365
0.16629418 0.16629418 0.16629418
0.16723797 0.16723797 0.16723797
0.1681703 0.1681703 0.1681703
0.16911574 0.16911574 0.16911574
0.17006226 0.17006226 0.17006226
0.17102312 0.17102312 0.17102312
0.17198267 0.17198267 0.17198267
0.17293482 0.17293482 0.17293482
0.17390438 0.17390438 0.17390438
0.17487145 0.17487145 0.17487145
0.17584497 0.17584497 0.17584497
0.17682155 0.17682155 0.17682155
0.17779812 0.17779812 0.17779812
0.1787781 0.1787781 0.1787781
0.17976347 0.17976347 0.17976347
0.18074573 0.18074573 0.18074573
0.18173679 0.18173679 0.18173679
0.18274135 0.18274135 0.18274135
0.18373437 0.18373437 0.18373437
0.1847393 0.1847393 0.1847393
0.18573528 0.18573528 0.18573528
0.18674297 0.18674297 0.18674297
0.18775887 0.18775887 0.18775887
0.18877273 0.18877273 0.18877273
0.18979171 0.18979171 0.18979171
0.19081407 0.19081407 0.19081407
0.19183642 0.19183642 0.19183642
0.19285878 0.19285878 0.19285878
0.19388306 0.19388306 0.19388306
0.19491875 0.19491875 0.19491875
0.19595636 0.19595636 0.19595636
0.19699397 0.19699397 0.19699397
0.19803159 0.19803159 0.19803159
0.19907075 0.19907075 0.19907075
0.20012182 0.20012182 0.20012182
0.20116147 0.20116147 0.20116147
0.20221539 0.20221539 0.20221539
0.20327742 0.20327742 0.20327742
0.20433657 0.20433657 0.20433657
0.20540169 0.20540169 0.20540169
0.20646983 0.20646983 0.20646983
0.20753796 0.20753796 0.20753796
0.20860895 0.20860895 0.20860895
0.20968625 0.20968625 0.20968625
0.21076036 0.21076036 0.21076036
0.211841 0.211841 0.211841
0.21292521 0.21292521 0.21292521
0.21402051 0.21402051 0.21402051
0.2151096 0.2151096 0.2151096
0.21620508 0.21620508 0.21620508
0.21730373 0.21730373 0.21730373
0.21840238 0.21840238 0.21840238
0.21950103 0.21950103 0.21950103
0.22060282 0.22060282 0.22060282
0.22171359 0.22171359 0.22171359
0.22282674 0.22282674 0.22282674
0.22392921 0.22392921 0.22392921
0.2250524 0.2250524 0.2250524
0.22616922 0.22616922 0.22616922
0.22728491 0.22728491 0.22728491
0.22841156 0.22841156 0.22841156
0.22952875 0.22952875 0.22952875
0.23065537 0.23065537 0.23065537
0.23178673 0.23178673 0.23178673
0.23292872 0.23292872 0.23292872
0.23405814 0.23405814 0.23405814
0.23519036 0.23519036 0.23519036
0.23632946 0.23632946 0.23632946
0.23746097 0.23746097 0.23746097
0.23860533 0.23860533 0.23860533
0.23974975 0.23974975 0.23974975
0.24089418 0.24089418 0.24089418
0.24203881 0.24203881 0.24203881
0.24319581 0.24319581 0.24319581
0.24434571 0.24434571 0.24434571
0.2455024 0.2455024 0.2455024
0.24666209 0.24666209 0.24666209
0.24782177 0.24782177 0.24782177
0.24898146 0.24898146 0.24898146
0.25014213 0.25014213 0.25014213
0.25131609 0.25131609 0.25131609
0.25249104 0.25249104 0.25249104
0.25366598 0.25366598 0.25366598
0.25484092 0.25484092 0.25484092
0.25601857 0.25601857 0.25601857
0.25720607 0.25720607 0.25720607
0.25839628 0.25839628 0.25839628
0.25958879 0.25958879 0.25958879
0.26078915 0.26078915 0.26078915
0.26198316 0.26198316 0.26198316
0.26318962 0.26318962 0.26318962
0.26440551 0.26440551 0.26440551
0.26561493 0.26561493 0.26561493
0.26683452 0.26683452 0.26683452
0.26805801 0.26805801 0.26805801
0.26929041 0.26929041 0.26929041
0.27051633 0.27051633 0.27051633
0.27176059 0.27176059 0.27176059
0.27299925 0.27299925 0.27299925
0.2742504 0.2742504 0.2742504
0.27550164 0.27550164 0.27550164
0.27675398 0.27675398 0.27675398
0.27801938 0.27801938 0.27801938
0.27928588 0.27928588 0.27928588
0.28055459 0.28055459 0.28055459
0.28183413 0.28183413 0.28183413
0.28311589 0.28311589 0.28311589
0.28439765 0.28439765 0.28439765
0.28568031 0.28568031 0.28568031
0.28697642 0.28697642 0.28697642
0.28827344 0.28827344 0.28827344
0.28957046 0.28957046 0.28957046
0.29086748 0.29086748 0.29086748
0.29216474 0.29216474 0.29216474
0.29347677 0.29347677 0.29347677
0.29478904 0.29478904 0.29478904
0.2961037 0.2961037 0.2961037
0.29742717 0.29742717 0.29742717
0.29874306 0.29874306 0.29874306
0.30006644 0.30006644 0.30006644
0.3013822 0.3013822 0.3013822
0.30270848 0.30270848 0.30270848
0.30403652 0.30403652 0.30403652
0.30537621 0.30537621 0.30537621
0.30670634 0.30670634 0.30670634
0.30803644 0.30803644 0.30803644
0.30937583 0.30937583 0.30937583
0.31070663 0.31070663 0.31070663
0.312047 0.312047 0.312047
0.31338979 0.31338979 0.31338979
0.31473085 0.31473085 0.31473085
0.31606206 0.31606206 0.31606206
0.31740499 0.31740499 0.31740499
0.31875927 0.31875927 0.31875927
0.32010376 0.32010376 0.32010376
0.32144792 0.32144792 0.32144792
0.32280461 0.32280461 0.32280461
0.32416145 0.32416145 0.32416145
0.3255079 0.3255079 0.3255079
0.32686444 0.32686444 0.32686444
0.32823439 0.32823439 0.32823439
0.32959487 0.32959487 0.32959487
0.33095539 0.33095539 0.33095539
0.33232624 0.33232624 0.33232624
0.33369955 0.33369955 0.33369955
0.33507286 0.33507286 0.33507286
0.33644617 0.33644617 0.33644617
0.33781949 0.33781949 0.33781949
0.33919514 0.33919514 0.33919514
0.34058137 0.34058137 0.34058137
0.34196774 0.34196774 0.34196774
0.34334478 0.34334478 0.34334478
0.34473387 0.34473387 0.34473387
0.34613379 0.34613379 0.34613379
0.34752596 0.34752596 0.34752596
0.34892591 0.34892591 0.34892591
0.35031797 0.35031797 0.35031797
0.35172045 0.35172045 0.35172045
0.35312502 0.35312502 0.35312502
0.35454092 0.35454092 0.35454092
0.35594736 0.35594736 0.35594736
0.35736629 0.35736629 0.35736629
0.35878538 0.35878538 0.35878538
0.36020447 0.36020447 0.36020447
0.36162356 0.36162356 0.36162356
0.36304419 0.36304419 0.36304419
0.36447471 0.36447471 0.36447471
0.36589668 0.36589668 0.36589668
0.36733043 0.36733043 0.36733043
0.36876478 0.36876478 0.36876478
0.3702013 0.3702013 0.3702013
0.37164695 0.37164695 0.37164695
0.3730845 0.3730845 0.3730845
0.37453269 0.37453269 0.37453269
0.3759823 0.3759823 0.3759823
0.37743191 0.37743191 0.37743191
0.37888295 0.37888295 0.37888295
0.3803448 0.3803448 0.3803448
0.38179824 0.38179824 0.38179824
0.38326085 0.38326085 0.38326085
0.38472572 0.38472572 0.38472572
0.38619059 0.38619059 0.38619059
0.38765545 0.38765545 0.38765545
0.38912262 0.38912262 0.38912262
0.39060044 0.39060044 0.39060044
0.39208057 0.39208057 0.39208057
0.39356069 0.39356069 0.39356069
0.39504082 0.39504082 0.39504082
0.39652094 0.39652094 0.39652094
0.39800236 0.39800236 0.39800236
0.39949498 0.39949498 0.39949498
0.40097887 0.40097887 0.40097887
0.40247196 0.40247196 0.40247196
0.40396924 0.40396924 0.40396924
0.40547584 0.40547584 0.40547584
0.40697347 0.40697347 0.40697347
0.40848196 0.40848196 0.40848196
0.40998138 0.40998138 0.40998138
0.41149004 0.41149004 0.41149004
0.41300069 0.41300069 0.41300069
0.41451133 0.41451133 0.41451133
0.41602249 0.41602249 0.41602249
0.4175457 0.4175457 0.4175457
0.41906034 0.41906034 0.41906034
0.42058442 0.42058442 0.42058442
0.42211032 0.42211032 0.42211032
0.42363622 0.42363622 0.42363622
0.42516213 0.42516213 0.42516213
0.4266901 0.4266901 0.4266901
0.42822717 0.42822717 0.42822717
0.42975519 0.42975519 0.42975519
0.43129625 0.43129625 0.43129625
0.43283742 0.43283742 0.43283742
0.43437927 0.43437927 0.43437927
0.43593351 0.43593351 0.43593351
0.4374784 0.4374784 0.4374784
0.43903258 0.43903258 0.43903258
0.440589 0.440589 0.440589
0.44214542 0.44214542 0.44214542
0.44370376 0.44370376 0.44370376
0.44527352 0.44527352 0.44527352
0.4468452 0.4468452 0.4468452
0.44841688 0.44841688 0.44841688
0.44998856 0.44998856 0.44998856
0.45156074 0.45156074 0.45156074
0.45314717 0.45314717 0.45314717
0.45473411 0.45473411 0.45473411
0.45632105 0.45632105 0.45632105
0.45790874 0.45790874 0.45790874
0.45950823 0.45950823 0.45950823
0.46109923 0.46109923 0.46109923
0.4627005 0.4627005 0.4627005
0.46431627 0.46431627 0.46431627
0.4659208 0.4659208 0.4659208
0.46753643 0.46753643 0.46753643
0.46915389 0.46915389 0.46915389
0.47077151 0.47077151 0.47077151
0.47240406 0.47240406 0.47240406
0.47403677 0.47403677 0.47403677
0.47566949 0.47566949 0.47566949
0.4773022 0.4773022 0.4773022
0.4789351 0.4789351 0.4789351
0.48058289 0.48058289 0.48058289
0.48223087 0.48223087 0.48223087
0.48387884 0.48387884 0.48387884
0.48552682 0.48552682 0.48552682
0.48717496 0.48717496 0.48717496
0.48883693 0.48883693 0.48883693
0.4904879 0.4904879 0.4904879
0.49214923 0.49214923 0.49214923
0.49381247 0.49381247 0.49381247
0.4954757 0.4954757 0.4954757
0.49713893 0.49713893 0.49713893
0.49880359 0.49880359 0.49880359
0.5004787 0.5004787 0.5004787
0.50214595 0.50214595 0.50214595
0.50382068 0.50382068 0.50382068
0.50548646 0.50548646 0.50548646
0.50716411 0.50716411 0.50716411
0.5088426 0.5088426 0.5088426
0.5105211 0.5105211 0.5105211
0.51219959 0.51219959 0.51219959
0.51387808 0.51387808 0.51387808
0.51555657 0.51555657 0.51555657
0.51723513 0.51723513 0.51723513
0.51892786 0.51892786 0.51892786
0.52060901 0.52060901 0.52060901
0.52230106 0.52230106 0.52230106
0.52399681 0.52399681 0.52399681
0.52570211 0.52570211 0.52570211
0.52739867 0.52739867 0.52739867
0.52910658 0.52910658 0.52910658
0.53081559 0.53081559 0.53081559
0.53252461 0.53252461 0.53252461
0.53423362 0.53423362 0.53423362
0.53594263 0.53594263 0.53594263
0.5376536 0.5376536 0.5376536
0.53937419 0.53937419 0.53937419
0.54108492 0.54108492 0.54108492
0.54279435 0.54279435 0.54279435
0.5445182 0.5445182 0.5445182
0.54624137 0.54624137 0.54624137
0.54795312 0.54795312 0.54795312
0.54967575 0.54967575 0.54967575
0.55139799 0.55139799 0.55139799
0.55311093 0.55311093 0.55311093
0.5548333 0.5548333 0.5548333
0.55655649 0.55655649 0.55655649
0.55826684 0.55826684 0.55826684
0.55999084 0.55999084 0.55999084
0.56171391 0.56171391 0.56171391
0.56342584 0.56342584 0.56342584
0.56514643 0.56514643 0.56514643
0.5668574 0.5668574 0.5668574
0.56856641 0.56856641 0.56856641
0.57027678 0.57027678 0.57027678
0.57199894 0.57199894 0.57199894
0.57370871 0.57370871 0.57370871
0.57541872 0.57541872 0.57541872
0.57714045 0.57714045 0.57714045
0.578851 0.578851 0.578851
0.58056203 0.58056203 0.58056203
0.58228235 0.58228235 0.58228235
0.58399487 0.58399487 0.58399487
0.58571648 0.58571648 0.58571648
0.58742683 0.58742683 0.58742683
0.58915027 0.58915027 0.58915027
0.59086113 0.59086113 0.59086113
0.59258412 0.59258412 0.59258412
0.59430642 0.59430642 0.59430642
0.59601941 0.59601941 0.59601941
0.59773982 0.59773982 0.59773982
0.59945211 0.59945211 0.59945211
0.60117409 0.60117409 0.60117409
0.60288396 0.60288396 0.60288396
0.60459387 0.60459387 0.60459387
0.60631577 0.60631577 0.60631577
0.60802625 0.60802625 0.60802625
0.60973728 0.60973728 0.60973728
0.61145757 0.61145757 0.61145757
0.61316854 0.61316854 0.61316854
0.61487755 0.61487755 0.61487755
0.61658656 0.61658656 0.61658656
0.61829488 0.61829488 0.61829488
0.61999078 0.61999078 0.61999078
0.62169833 0.62169833 0.62169833
0.6234053 0.6234053 0.6234053
0.62510301 0.62510301 0.62510301
0.62680857 0.62680857 0.62680857
0.62850385 0.62850385 0.62850385
0.6301976 0.6301976 0.6301976
0.63189252 0.63189252 0.63189252
0.63359866 0.63359866 0.63359866
0.63529412 0.63529412 0.63529412
0.63698787 0.63698787 0.63698787
0.63868162 0.63868162 0.63868162
0.64037537 0.64037537 0.64037537
0.64206912 0.64206912 0.64206912
0.64376287 0.64376287 0.64376287
0.64545663 0.64545663 0.64545663
0.64715038 0.64715038 0.64715038
0.64884413 0.64884413 0.64884413
0.65053619 0.65053619 0.65053619
0.65221732 0.65221732 0.65221732
0.65391004 0.65391004 0.65391004
0.65558977 0.65558977 0.65558977
0.6572806 0.6572806 0.6572806
0.65896291 0.65896291 0.65896291
0.66065265 0.66065265 0.66065265
0.6623331 0.6623331 0.6623331
0.6640116 0.6640116 0.6640116
0.66569009 0.66569009 0.66569009
0.66736858 0.66736858 0.66736858
0.66904508 0.66904508 0.66904508
0.67071234 0.67071234 0.67071234
0.6723888 0.6723888 0.6723888
0.67406648 0.67406648 0.67406648
0.67573053 0.67573053 0.67573053
0.67739527 0.67739527 0.67739527
0.67907026 0.67907026 0.67907026
0.68073343 0.68073343 0.68073343
0.68238498 0.68238498 0.68238498
0.68404669 0.68404669 0.68404669
0.68570993 0.68570993 0.68570993
0.68737316 0.68737316 0.68737316
0.68903639 0.68903639 0.68903639
0.69069769 0.69069769 0.69069769
0.69234879 0.69234879 0.69234879
0.69401083 0.69401083 0.69401083
0.69567282 0.69567282 0.69567282
0.697324 0.697324 0.697324
0.69898319 0.69898319 0.69898319
0.70063488 0.70063488 0.70063488
0.70229582 0.70229582 0.70229582
0.70394446 0.70394446 0.70394446
0.70559243 0.70559243 0.70559243
0.70724041 0.70724041 0.70724041
0.70888654 0.70888654 0.70888654
0.71052195 0.71052195 0.71052195
0.71216845 0.71216845 0.71216845
0.71380352 0.71380352 0.71380352
0.71544764 0.71544764 0.71544764
0.71708247 0.71708247 0.71708247
0.71871439 0.71871439 0.71871439
0.72033355 0.72033355 0.72033355
0.72196347 0.72196347 0.72196347
0.72358282 0.72358282 0.72358282
0.72520027 0.72520027 0.72520027
0.72681773 0.72681773 0.72681773
0.72843366 0.72843366 0.72843366
0.73003954 0.73003954 0.73003954
0.73165118 0.73165118 0.73165118
0.73324216 0.73324216 0.73324216
0.73484398 0.73484398 0.73484398
0.73644403 0.73644403 0.73644403
0.73803311 0.73803311 0.73803311
0.73962005 0.73962005 0.73962005
0.74120699 0.74120699 0.74120699
0.74279173 0.74279173 0.74279173
0.74436727 0.74436727 0.74436727
0.74595254 0.74595254 0.74595254
0.74753777 0.74753777 0.74753777
0.74911116 0.74911116 0.74911116
0.75068284 0.75068284 0.75068284
0.75225452 0.75225452 0.75225452
0.7538262 0.7538262 0.7538262
0.75539584 0.75539584 0.75539584
0.7569543 0.7569543 0.7569543
0.75851072 0.75851072 0.75851072
0.76006714 0.76006714 0.76006714
0.76162356 0.76162356 0.76162356
0.76317916 0.76317916 0.76317916
0.76472114 0.76472114 0.76472114
