site/assets/luts/red-conversion--redlogfilm-to-redgamma4--bc315930c.cube
# LUTr-Project: LUTr — LUTrepository
# LUTr-Schema-Version: 1
# LUTr-ID: red-conversion--redlogfilm-to-redgamma4--bc315930c
# LUTr-Title: REDlogFilm to REDgamma4
# LUTr-Collection: RED Conversion
# LUTr-Collection-ID: videovillage-red-conversion-luts
# LUTr-Source: https://github.com/videovillage/RED-Conversion-LUTs
# LUTr-Source-File: submissions/videovillage-red-conversion-luts/Masters/REDlogFilm_to_REDgamma4.cube
# LUTr-Source-Format: CUBE
# LUTr-Source-SHA256: 4363f4b82b2c210ac655e3ed9b52a129ac808455c75eaa4df590a61ceec6d8cd
# LUTr-License: MIT
# LUTr-License-URL: https://github.com/videovillage/RED-Conversion-LUTs/blob/master/LICENSE.md
# LUTr-Tags: technical, camera, red, redlogfilm, redgamma, cube
# LUTr-Transform-Class: camera-transform
# LUTr-Input-Color-Space: Unknown
# LUTr-Output-Color-Space: Unknown
# LUTr-Color-Space-Confidence: unverified
# LUTr-Conversion-Method: Metadata normalization; numeric LUT samples preserved
# LUTr-Conversion-Date: 2026-07-27
# LUTr-Conversion-Tool: LUTr scripts/convert-all-to-cube.mjs
# LUTr-Conversion-Grid: 1024-sample 1D
# LUTr-Note: Preserve this metadata and the upstream license notices when redistributing.
# LUTr-Upstream-Comment: Created by Tashi Trieu and Greg Cotten
TITLE "REDlogFilm to REDgamma4"
LUT_1D_SIZE 1024
DOMAIN_MIN 0 0 0
DOMAIN_MAX 1 1 1
0.0024261845 0.0024261845 0.0024261845
0.0024386429 0.0024386429 0.0024386429
0.0024511012 0.0024511012 0.0024511012
0.0024635596 0.0024635596 0.0024635596
0.002476018 0.002476018 0.002476018
0.0024884763 0.0024884763 0.0024884763
0.0025009347 0.0025009347 0.0025009347
0.0025133931 0.0025133931 0.0025133931
0.0025258515 0.0025258515 0.0025258515
0.0025383098 0.0025383098 0.0025383098
0.0025507682 0.0025507682 0.0025507682
0.0025632266 0.0025632266 0.0025632266
0.0025756849 0.0025756849 0.0025756849
0.0025881433 0.0025881433 0.0025881433
0.0026006017 0.0026006017 0.0026006017
0.0026130601 0.0026130601 0.0026130601
0.0026255184 0.0026255184 0.0026255184
0.0026379768 0.0026379768 0.0026379768
0.0026504352 0.0026504352 0.0026504352
0.0026628935 0.0026628935 0.0026628935
0.0026753519 0.0026753519 0.0026753519
0.0026878103 0.0026878103 0.0026878103
0.0027002687 0.0027002687 0.0027002687
0.002712727 0.002712727 0.002712727
0.0027251854 0.0027251854 0.0027251854
0.0027376438 0.0027376438 0.0027376438
0.0027501021 0.0027501021 0.0027501021
0.0027625605 0.0027625605 0.0027625605
0.0027750189 0.0027750189 0.0027750189
0.0027874773 0.0027874773 0.0027874773
0.0027999356 0.0027999356 0.0027999356
0.002812394 0.002812394 0.002812394
0.0028248524 0.0028248524 0.0028248524
0.0028373107 0.0028373107 0.0028373107
0.0028497691 0.0028497691 0.0028497691
0.0028622275 0.0028622275 0.0028622275
0.0028746859 0.0028746859 0.0028746859
0.0028871442 0.0028871442 0.0028871442
0.0028996026 0.0028996026 0.0028996026
0.002912061 0.002912061 0.002912061
0.0029245193 0.0029245193 0.0029245193
0.0029369777 0.0029369777 0.0029369777
0.0029494361 0.0029494361 0.0029494361
0.0029618945 0.0029618945 0.0029618945
0.0029743528 0.0029743528 0.0029743528
0.0029868112 0.0029868112 0.0029868112
0.0029992696 0.0029992696 0.0029992696
0.0030117279 0.0030117279 0.0030117279
0.0030241863 0.0030241863 0.0030241863
0.0030366447 0.0030366447 0.0030366447
0.0030491031 0.0030491031 0.0030491031
0.0030615614 0.0030615614 0.0030615614
0.0030740198 0.0030740198 0.0030740198
0.0030864782 0.0030864782 0.0030864782
0.0030989365 0.0030989365 0.0030989365
0.0031113949 0.0031113949 0.0031113949
0.0031238533 0.0031238533 0.0031238533
0.0031363117 0.0031363117 0.0031363117
0.00314877 0.00314877 0.00314877
0.0031612284 0.0031612284 0.0031612284
0.0031736868 0.0031736868 0.0031736868
0.0031861451 0.0031861451 0.0031861451
0.0031986035 0.0031986035 0.0031986035
0.0032110619 0.0032110619 0.0032110619
0.0032235203 0.0032235203 0.0032235203
0.0032359786 0.0032359786 0.0032359786
0.003248437 0.003248437 0.003248437
0.0032608954 0.0032608954 0.0032608954
0.0032733537 0.0032733537 0.0032733537
0.0032858121 0.0032858121 0.0032858121
0.0032982705 0.0032982705 0.0032982705
0.0033107289 0.0033107289 0.0033107289
0.0033231872 0.0033231872 0.0033231872
0.0033356456 0.0033356456 0.0033356456
0.003348104 0.003348104 0.003348104
0.0033605623 0.0033605623 0.0033605623
0.0033730207 0.0033730207 0.0033730207
0.0033854791 0.0033854791 0.0033854791
0.0033979375 0.0033979375 0.0033979375
0.0034933798 0.0034933798 0.0034933798
0.0036198755 0.0036198755 0.0036198755
0.0037463712 0.0037463712 0.0037463712
0.0038728668 0.0038728668 0.0038728668
0.0039993625 0.0039993625 0.0039993625
0.0041258582 0.0041258582 0.0041258582
0.0042523539 0.0042523539 0.0042523539
0.0043798476 0.0043798476 0.0043798476
0.0045595241 0.0045595241 0.0045595241
0.0047392005 0.0047392005 0.0047392005
0.004918877 0.004918877 0.004918877
0.0050985534 0.0050985534 0.0050985534
0.0052782298 0.0052782298 0.0052782298
0.005485207 0.005485207 0.005485207
0.0057110356 0.0057110356 0.0057110356
0.0059368643 0.0059368643 0.0059368643
0.0061626929 0.0061626929 0.0061626929
0.006398997 0.006398997 0.006398997
0.0066631325 0.0066631325 0.0066631325
0.006927268 0.006927268 0.006927268
0.0071914035 0.0071914035 0.0071914035
0.0074795738 0.0074795738 0.0074795738
0.0077850328 0.0077850328 0.0077850328
0.0080904919 0.0080904919 0.0080904919
0.008410754 0.008410754 0.008410754
0.0087542445 0.0087542445 0.0087542445
0.009097735 0.009097735 0.009097735
0.0094557147 0.0094557147 0.0094557147
0.0098255348 0.0098255348 0.0098255348
0.010195355 0.010195355 0.010195355
0.010592759 0.010592759 0.010592759
0.010992775 0.010992775 0.010992775
0.011401161 0.011401161 0.011401161
0.01181877 0.01181877 0.01181877
0.01223879 0.01223879 0.01223879
0.012673542 0.012673542 0.012673542
0.013108294 0.013108294 0.013108294
0.013556326 0.013556326 0.013556326
0.014005872 0.014005872 0.014005872
0.014459768 0.014459768 0.014459768
0.014915284 0.014915284 0.014915284
0.015376811 0.015376811 0.015376811
0.015842552 0.015842552 0.015842552
0.016311894 0.016311894 0.016311894
0.016784924 0.016784924 0.016784924
0.017257954 0.017257954 0.017257954
0.017730983 0.017730983 0.017730983
0.018205869 0.018205869 0.018205869
0.018683903 0.018683903 0.018683903
0.019161095 0.019161095 0.019161095
0.019636588 0.019636588 0.019636588
0.020111391 0.020111391 0.020111391
0.020584421 0.020584421 0.020584421
0.021055856 0.021055856 0.021055856
0.021521597 0.021521597 0.021521597
0.021988251 0.021988251 0.021988251
0.02246128 0.02246128 0.02246128
0.02293431 0.02293431 0.02293431
0.02340734 0.02340734 0.02340734
0.023880385 0.023880385 0.023880385
0.024360934 0.024360934 0.024360934
0.024841484 0.024841484 0.024841484
0.025322439 0.025322439 0.025322439
0.025803406 0.025803406 0.025803406
0.026291295 0.026291295 0.026291295
0.026779583 0.026779583 0.026779583
0.02727536 0.02727536 0.02727536
0.027771545 0.027771545 0.027771545
0.028274968 0.028274968 0.028274968
0.028778836 0.028778836 0.028778836
0.029289284 0.029289284 0.029289284
0.029800595 0.029800595 0.029800595
0.030317387 0.030317387 0.030317387
0.030836433 0.030836433 0.030836433
0.03136227 0.03136227 0.03136227
0.031891356 0.031891356 0.031891356
0.032425422 0.032425422 0.032425422
0.03296541 0.03296541 0.03296541
0.033509889 0.033509889 0.033509889
0.034064725 0.034064725 0.034064725
0.034622721 0.034622721 0.034622721
0.035187305 0.035187305 0.035187305
0.035756709 0.035756709 0.035756709
0.036337232 0.036337232 0.036337232
0.036921352 0.036921352 0.036921352
0.037507651 0.037507651 0.037507651
0.038111099 0.038111099 0.038111099
0.038716276 0.038716276 0.038716276
0.039323355 0.039323355 0.039323355
0.039938852 0.039938852 0.039938852
0.04055848 0.04055848 0.04055848
0.0411841 0.0411841 0.0411841
0.04180972 0.04180972 0.04180972
0.042436007 0.042436007 0.042436007
0.043076435 0.043076435 0.043076435
0.04372229 0.04372229 0.04372229
0.044373236 0.044373236 0.044373236
0.045029374 0.045029374 0.045029374
0.045685512 0.045685512 0.045685512
0.04634241 0.04634241 0.04634241
0.047013265 0.047013265 0.047013265
0.047689762 0.047689762 0.047689762
0.048371099 0.048371099 0.048371099
0.049057755 0.049057755 0.049057755
0.049744411 0.049744411 0.049744411
0.050435116 0.050435116 0.050435116
0.051134252 0.051134252 0.051134252
0.051845603 0.051845603 0.051845603
0.0525621 0.0525621 0.0525621
0.053282182 0.053282182 0.053282182
0.05400333 0.05400333 0.05400333
0.054734112 0.054734112 0.054734112
0.055471348 0.055471348 0.055471348
0.056214237 0.056214237 0.056214237
0.056961929 0.056961929 0.056961929
0.0577138 0.0577138 0.0577138
0.058472572 0.058472572 0.058472572
0.059239231 0.059239231 0.059239231
0.060013733 0.060013733 0.060013733
0.060791943 0.060791943 0.060791943
0.061570153 0.061570153 0.061570153
0.062353053 0.062353053 0.062353053
0.063145451 0.063145451 0.063145451
0.063949171 0.063949171 0.063949171
0.064745439 0.064745439 0.064745439
0.065556288 0.065556288 0.065556288
0.0663723 0.0663723 0.0663723
0.06718989 0.06718989 0.06718989
0.068012874 0.068012874 0.068012874
0.068846972 0.068846972 0.068846972
0.069673288 0.069673288 0.069673288
0.070514506 0.070514506 0.070514506
0.071366445 0.071366445 0.071366445
0.072220951 0.072220951 0.072220951
0.073079731 0.073079731 0.073079731
0.07394522 0.07394522 0.07394522
0.074814984 0.074814984 0.074814984
0.075686626 0.075686626 0.075686626
0.076569805 0.076569805 0.076569805
0.077455715 0.077455715 0.077455715
0.078355077 0.078355077 0.078355077
0.07925809 0.07925809 0.07925809
0.080170901 0.080170901 0.080170901
0.081090022 0.081090022 0.081090022
0.082017243 0.082017243 0.082017243
0.082948043 0.082948043 0.082948043
0.083882792 0.083882792 0.083882792
0.084824903 0.084824903 0.084824903
0.08577485 0.08577485 0.08577485
0.08673228 0.08673228 0.08673228
0.087697388 0.087697388 0.087697388
0.088673909 0.088673909 0.088673909
0.089658261 0.089658261 0.089658261
0.090646054 0.090646054 0.090646054
0.091645686 0.091645686 0.091645686
0.092652781 0.092652781 0.092652781
0.093663488 0.093663488 0.093663488
0.094682231 0.094682231 0.094682231
0.095707838 0.095707838 0.095707838
0.09674506 0.09674506 0.09674506
0.097792781 0.097792781 0.097792781
0.098835977 0.098835977 0.098835977
0.099900816 0.099900816 0.099900816
0.10096895 0.10096895 0.10096895
0.10203708 0.10203708 0.10203708
0.10310778 0.10310778 0.10310778
0.10419174 0.10419174 0.10419174
0.10528725 0.10528725 0.10528725
0.1063859 0.1063859 0.1063859
0.10748715 0.10748715 0.10748715
0.10859846 0.10859846 0.10859846
0.10971237 0.10971237 0.10971237
0.11082809 0.11082809 0.11082809
0.11195544 0.11195544 0.11195544
0.11308461 0.11308461 0.11308461
0.1142168 0.1142168 0.1142168
0.11535821 0.11535821 0.11535821
0.11650263 0.11650263 0.11650263
0.11764878 0.11764878 0.11764878
0.11880674 0.11880674 0.11880674
0.11996643 0.11996643 0.11996643
0.12112865 0.12112865 0.12112865
0.12230023 0.12230023 0.12230023
0.12346209 0.12346209 0.12346209
0.12463845 0.12463845 0.12463845
0.12582277 0.12582277 0.12582277
0.12700319 0.12700319 0.12700319
0.12819104 0.12819104 0.12819104
0.12938317 0.12938317 0.12938317
0.13058671 0.13058671 0.13058671
0.13179217 0.13179217 0.13179217
0.13299874 0.13299874 0.13299874
0.13421836 0.13421836 0.13421836
0.135442 0.135442 0.135442
0.13667506 0.13667506 0.13667506
0.13791104 0.13791104 0.13791104
0.13914702 0.13914702 0.13914702
0.14038598 0.14038598 0.14038598
0.14163424 0.14163424 0.14163424
0.14288593 0.14288593 0.14288593
0.14414934 0.14414934 0.14414934
0.14540873 0.14540873 0.14540873
0.14668427 0.14668427 0.14668427
0.14795358 0.14795358 0.14795358
0.14923323 0.14923323 0.14923323
0.15051499 0.15051499 0.15051499
0.15179844 0.15179844 0.15179844
0.15309377 0.15309377 0.15309377
0.15439078 0.15439078 0.15439078
0.1556878 0.1556878 0.1556878
0.15698767 0.15698767 0.15698767
0.15829709 0.15829709 0.15829709
0.15960937 0.15960937 0.15960937
0.16092445 0.16092445 0.16092445
0.16224918 0.16224918 0.16224918
0.16357671 0.16357671 0.16357671
0.16490425 0.16490425 0.16490425
0.16623199 0.16623199 0.16623199
0.16757202 0.16757202 0.16757202
0.16890657 0.16890657 0.16890657
0.17025908 0.17025908 0.17025908
0.17160571 0.17160571 0.17160571
0.17296101 0.17296101 0.17296101
0.17431907 0.17431907 0.17431907
0.17567954 0.17567954 0.17567954
0.17705043 0.17705043 0.17705043
0.17842643 0.17842643 0.17842643
0.1798114 0.1798114 0.1798114
0.18118796 0.18118796 0.18118796
0.18257624 0.18257624 0.18257624
0.18397646 0.18397646 0.18397646
0.18536915 0.18536915 0.18536915
0.18677043 0.18677043 0.18677043
0.18817426 0.18817426 0.18817426
0.18957884 0.18957884 0.18957884
0.19099718 0.19099718 0.19099718
0.19241627 0.19241627 0.19241627
0.19383536 0.19383536 0.19383536
0.19525643 0.19525643 0.19525643
0.19668879 0.19668879 0.19668879
0.19812314 0.19812314 0.19812314
0.19955749 0.19955749 0.19955749
0.20099425 0.20099425 0.20099425
0.20244144 0.20244144 0.20244144
0.20389105 0.20389105 0.20389105
0.20534066 0.20534066 0.20534066
0.20679276 0.20679276 0.20679276
0.20825442 0.20825442 0.20825442
0.20970725 0.20970725 0.20970725
0.2111696 0.2111696 0.2111696
0.21263695 0.21263695 0.21263695
0.21411382 0.21411382 0.21411382
0.21558191 0.21558191 0.21558191
0.21705959 0.21705959 0.21705959
0.21853971 0.21853971 0.21853971
0.22001984 0.22001984 0.22001984
0.22150221 0.22150221 0.22150221
0.22299535 0.22299535 0.22299535
0.22449073 0.22449073 0.22449073
0.22598611 0.22598611 0.22598611
0.22748313 0.22748313 0.22748313
0.22898992 0.22898992 0.22898992
0.23048968 0.23048968 0.23048968
0.23201102 0.23201102 0.23201102
0.23352407 0.23352407 0.23352407
0.23503715 0.23503715 0.23503715
0.23656062 0.23656062 0.23656062
0.23808652 0.23808652 0.23808652
0.23961415 0.23961415 0.23961415
0.24115358 0.24115358 0.24115358
0.24269474 0.24269474 0.24269474
0.2442359 0.2442359 0.2442359
0.24577707 0.24577707 0.24577707
0.24731934 0.24731934 0.24731934
0.24887465 0.24887465 0.24887465
0.25043107 0.25043107 0.25043107
0.25198817 0.25198817 0.25198817
0.25355917 0.25355917 0.25355917
0.25513085 0.25513085 0.25513085
0.25670253 0.25670253 0.25670253
0.2582742 0.2582742 0.2582742
0.25984606 0.25984606 0.25984606
0.26143282 0.26143282 0.26143282
0.26302145 0.26302145 0.26302145
0.26462096 0.26462096 0.26462096
0.26621123 0.26621123 0.26621123
0.26781109 0.26781109 0.26781109
0.26941481 0.26941481 0.26941481
0.27102846 0.27102846 0.27102846
0.27263373 0.27263373 0.27263373
0.2742521 0.2742521 0.2742521
0.27588088 0.27588088 0.27588088
0.27750129 0.27750129 0.27750129
0.27913329 0.27913329 0.27913329
0.280766 0.280766 0.280766
0.2823996 0.2823996 0.2823996
0.28404669 0.28404669 0.28404669
0.28569467 0.28569467 0.28569467
0.28734264 0.28734264 0.28734264
0.28899164 0.28899164 0.28899164
0.29065385 0.29065385 0.29065385
0.29231708 0.29231708 0.29231708
0.29398032 0.29398032 0.29398032
0.29564355 0.29564355 0.29564355
0.29730892 0.29730892 0.29730892
0.29898527 0.29898527 0.29898527
0.30066377 0.30066377 0.30066377
0.30234226 0.30234226 0.30234226
0.30402075 0.30402075 0.30402075
0.30569927 0.30569927 0.30569927
0.307393 0.307393 0.307393
0.30908675 0.30908675 0.30908675
0.3107805 0.3107805 0.3107805
0.31247425 0.31247425 0.31247425
0.31416988 0.31416988 0.31416988
0.31587701 0.31587701 0.31587701
0.31758602 0.31758602 0.31758602
0.31929503 0.31929503 0.31929503
0.32100404 0.32100404 0.32100404
0.32271305 0.32271305 0.32271305
0.32442347 0.32442347 0.32442347
0.32614633 0.32614633 0.32614633
0.3278706 0.3278706 0.3278706
0.32959487 0.32959487 0.32959487
0.33132086 0.33132086 0.33132086
0.33305867 0.33305867 0.33305867
0.3347982 0.3347982 0.3347982
0.33653773 0.33653773 0.33653773
0.33827726 0.33827726 0.33827726
0.34001813 0.34001813 0.34001813
0.34177157 0.34177157 0.34177157
0.34352636 0.34352636 0.34352636
0.34528115 0.34528115 0.34528115
0.34703594 0.34703594 0.34703594
0.34879204 0.34879204 0.34879204
0.35056077 0.35056077 0.35056077
0.35233082 0.35233082 0.35233082
0.35410086 0.35410086 0.35410086
0.35587091 0.35587091 0.35587091
0.3576426 0.3576426 0.3576426
0.35942551 0.35942551 0.35942551
0.36119696 0.36119696 0.36119696
0.36298161 0.36298161 0.36298161
0.36476692 0.36476692 0.36476692
0.36655423 0.36655423 0.36655423
0.36835122 0.36835122 0.36835122
0.37013874 0.37013874 0.37013874
0.37193812 0.37193812 0.37193812
0.37372547 0.37372547 0.37372547
0.37552649 0.37552649 0.37552649
0.3773383 0.3773383 0.3773383
0.37914092 0.37914092 0.37914092
0.38094261 0.38094261 0.38094261
0.38275731 0.38275731 0.38275731
0.38457394 0.38457394 0.38457394
0.38640274 0.38640274 0.38640274
0.38822194 0.38822194 0.38822194
0.39005112 0.39005112 0.39005112
0.3918822 0.3918822 0.3918822
0.39371328 0.39371328 0.39371328
0.39554533 0.39554533 0.39554533
0.39739071 0.39739071 0.39739071
0.39923705 0.39923705 0.39923705
0.40108339 0.40108339 0.40108339
0.40292973 0.40292973 0.40292973
0.40477607 0.40477607 0.40477607
0.40662442 0.40662442 0.40662442
0.40848208 0.40848208 0.40848208
0.41033205 0.41033205 0.41033205
0.41219196 0.41219196 0.41219196
0.41405356 0.41405356 0.41405356
0.41591516 0.41591516 0.41591516
0.41777676 0.41777676 0.41777676
0.41963836 0.41963836 0.41963836
0.42149996 0.42149996 0.42149996
0.42336156 0.42336156 0.42336156
0.42522511 0.42522511 0.42522511
0.42709803 0.42709803 0.42709803
0.42896162 0.42896162 0.42896162
0.43082495 0.43082495 0.43082495
0.43269863 0.43269863 0.43269863
0.43456168 0.43456168 0.43456168
0.43642373 0.43642373 0.43642373
0.43830002 0.43830002 0.43830002
0.44016175 0.44016175 0.44016175
0.44202461 0.44202461 0.44202461
0.44390021 0.44390021 0.44390021
0.44577525 0.44577525 0.44577525
0.44764063 0.44764063 0.44764063
0.44951553 0.44951553 0.44951553
0.45139239 0.45139239 0.45139239
0.453271 0.453271 0.453271
0.45515979 0.45515979 0.45515979
0.45703822 0.45703822 0.45703822
0.45891594 0.45891594 0.45891594
0.46080673 0.46080673 0.46080673
0.46268415 0.46268415 0.46268415
0.46457566 0.46457566 0.46457566
0.46645402 0.46645402 0.46645402
0.46834516 0.46834516 0.46834516
0.47023574 0.47023574 0.47023574
0.47211591 0.47211591 0.47211591
0.47400626 0.47400626 0.47400626
0.47589837 0.47589837 0.47589837
0.47779049 0.47779049 0.47779049
0.47968261 0.47968261 0.47968261
0.48157473 0.48157473 0.48157473
0.48346685 0.48346685 0.48346685
0.48535897 0.48535897 0.48535897
0.48725109 0.48725109 0.48725109
0.48914321 0.48914321 0.48914321
0.49103532 0.49103532 0.49103532
0.49292744 0.49292744 0.49292744
0.49481956 0.49481956 0.49481956
0.49671168 0.49671168 0.49671168
0.4986038 0.4986038 0.4986038
0.50049449 0.50049449 0.50049449
0.50237614 0.50237614 0.50237614
0.50427836 0.50427836 0.50427836
0.50617227 0.50617227 0.50617227
0.50806439 0.50806439 0.50806439
0.50995651 0.50995651 0.50995651
0.51185052 0.51185052 0.51185052
0.5137542 0.5137542 0.5137542
0.51564978 0.51564978 0.51564978
0.517554 0.517554 0.517554
0.51944888 0.51944888 0.51944888
0.52135398 0.52135398 0.52135398
0.5232478 0.5232478 0.5232478
0.52515412 0.52515412 0.52515412
0.52704668 0.52704668 0.52704668
0.52895399 0.52895399 0.52895399
0.53086069 0.53086069 0.53086069
0.53275452 0.53275452 0.53275452
0.53465961 0.53465961 0.53465961
0.53655449 0.53655449 0.53655449
0.53845871 0.53845871 0.53845871
0.54035429 0.54035429 0.54035429
0.54225797 0.54225797 0.54225797
0.54415393 0.54415393 0.54415393
0.5460574 0.5460574 0.5460574
0.5479534 0.5479534 0.5479534
0.549857 0.549857 0.549857
0.55175097 0.55175097 0.55175097
0.55364309 0.55364309 0.55364309
0.5555365 0.5555365 0.5555365
0.55744152 0.55744152 0.55744152
0.55933471 0.55933471 0.55933471
0.56122683 0.56122683 0.56122683
0.56311882 0.56311882 0.56311882
0.56499646 0.56499646 0.56499646
0.56688792 0.56688792 0.56688792
0.56878004 0.56878004 0.56878004
0.57067216 0.57067216 0.57067216
0.57256428 0.57256428 0.57256428
0.5744564 0.5744564 0.5744564
0.57634852 0.57634852 0.57634852
0.57823866 0.57823866 0.57823866
0.58011941 0.58011941 0.58011941
0.58200961 0.58200961 0.58200961
0.58390173 0.58390173 0.58390173
0.58579243 0.58579243 0.58579243
0.58767178 0.58767178 0.58767178
0.58956283 0.58956283 0.58956283
0.59145463 0.59145463 0.59145463
0.59333206 0.59333206 0.59333206
0.59522326 0.59522326 0.59522326
0.59710189 0.59710189 0.59710189
0.59899151 0.59899151 0.59899151
0.60087143 0.60087143 0.60087143
0.60276006 0.60276006 0.60276006
0.60463874 0.60463874 0.60463874
0.6065156 0.6065156 0.6065156
0.60839246 0.60839246 0.60839246
0.61026932 0.61026932 0.61026932
0.61214618 0.61214618 0.61214618
0.61402184 0.61402184 0.61402184
0.61588532 0.61588532 0.61588532
0.6177615 0.6177615 0.6177615
0.61963794 0.61963794 0.61963794
0.62149996 0.62149996 0.62149996
0.62336156 0.62336156 0.62336156
0.62522492 0.62522492 0.62522492
0.6270981 0.6270981 0.6270981
0.62896162 0.62896162 0.62896162
0.63082322 0.63082322 0.63082322
0.63268482 0.63268482 0.63268482
0.63454643 0.63454643 0.63454643
0.63640899 0.63640899 0.63640899
0.6382844 0.6382844 0.6382844
0.64014649 0.64014649 0.64014649
0.64200809 0.64200809 0.64200809
0.64386969 0.64386969 0.64386969
0.64572961 0.64572961 0.64572961
0.64757956 0.64757956 0.64757956
0.64943923 0.64943923 0.64943923
0.65129889 0.65129889 0.65129889
0.65314888 0.65314888 0.65314888
0.65500742 0.65500742 0.65500742
0.65685512 0.65685512 0.65685512
0.65870148 0.65870148 0.65870148
0.66056175 0.66056175 0.66056175
0.66239548 0.66239548 0.66239548
0.66424048 0.66424048 0.66424048
0.66608485 0.66608485 0.66608485
0.66791791 0.66791791 0.66791791
0.66974899 0.66974899 0.66974899
0.67158007 0.67158007 0.67158007
0.67341115 0.67341115 0.67341115
0.67524196 0.67524196 0.67524196
0.67705806 0.67705806 0.67705806
0.67887388 0.67887388 0.67887388
0.68068767 0.68068767 0.68068767
0.68249225 0.68249225 0.68249225
0.68430452 0.68430452 0.68430452
0.68610588 0.68610588 0.68610588
0.68789245 0.68789245 0.68789245
0.68969253 0.68969253 0.68969253
0.69149116 0.69149116 0.69149116
0.6932784 0.6932784 0.6932784
0.69506542 0.69506542 0.69506542
0.69686329 0.69686329 0.69686329
0.69864958 0.69864958 0.69864958
0.70043354 0.70043354 0.70043354
0.70220691 0.70220691 0.70220691
0.70398817 0.70398817 0.70398817
0.7057619 0.7057619 0.7057619
0.70754489 0.70754489 0.70754489
0.70931492 0.70931492 0.70931492
0.71107217 0.71107217 0.71107217
0.71283836 0.71283836 0.71283836
0.7145971 0.7145971 0.7145971
0.71636431 0.71636431 0.71636431
0.71811957 0.71811957 0.71811957
0.71986133 0.71986133 0.71986133
0.72161228 0.72161228 0.72161228
0.72335393 0.72335393 0.72335393
0.72509346 0.72509346 0.72509346
0.72683202 0.72683202 0.72683202
0.72855726 0.72855726 0.72855726
0.73028153 0.73028153 0.73028153
0.73200455 0.73200455 0.73200455
0.73371539 0.73371539 0.73371539
0.73543538 0.73543538 0.73543538
0.73713498 0.73713498 0.73713498
0.73884052 0.73884052 0.73884052
0.74053559 0.74053559 0.74053559
0.74222736 0.74222736 0.74222736
0.74390992 0.74390992 0.74390992
0.74560068 0.74560068 0.74560068
0.74728008 0.74728008 0.74728008
0.74895638 0.74895638 0.74895638
0.75062181 0.75062181 0.75062181
0.75228529 0.75228529 0.75228529
0.75395971 0.75395971 0.75395971
0.75561363 0.75561363 0.75561363
0.75727474 0.75727474 0.75727474
0.7589365 0.7589365 0.7589365
0.76058595 0.76058595 0.76058595
0.76223262 0.76223262 0.76223262
0.76386664 0.76386664 0.76386664
0.76549935 0.76549935 0.76549935
0.76713207 0.76713207 0.76713207
0.76876478 0.76876478 0.76876478
0.77039523 0.77039523 0.77039523
0.77201495 0.77201495 0.77201495
0.77363131 0.77363131 0.77363131
0.77523461 0.77523461 0.77523461
0.7768368 0.7768368 0.7768368
0.778439 0.778439 0.778439
0.78003891 0.78003891 0.78003891
0.78162814 0.78162814 0.78162814
0.78321306 0.78321306 0.78321306
0.78478676 0.78478676 0.78478676
0.78635843 0.78635843 0.78635843
0.78792774 0.78792774 0.78792774
0.78948653 0.78948653 0.78948653
0.791041 0.791041 0.791041
0.79258613 0.79258613 0.79258613
0.79413868 0.79413868 0.79413868
0.79566885 0.79566885 0.79566885
0.79720688 0.79720688 0.79720688
0.79872061 0.79872061 0.79872061
0.80024288 0.80024288 0.80024288
