site/assets/luts/red-conversion--redlogfilm-to-redgamma3--9ef68c388.cube
# LUTr-Project: LUTr — LUTrepository
# LUTr-Schema-Version: 1
# LUTr-ID: red-conversion--redlogfilm-to-redgamma3--9ef68c388
# LUTr-Title: REDlogFilm to REDgamma3
# LUTr-Collection: RED Conversion
# LUTr-Collection-ID: videovillage-red-conversion-luts
# LUTr-Source: https://github.com/videovillage/RED-Conversion-LUTs
# LUTr-Source-File: submissions/videovillage-red-conversion-luts/Masters/REDlogFilm_to_REDgamma3.cube
# LUTr-Source-Format: CUBE
# LUTr-Source-SHA256: 8673b454163b31282b0d818c64a115da97893fa9f8d8c4c350e03bc1583f691c
# LUTr-License: MIT
# LUTr-License-URL: https://github.com/videovillage/RED-Conversion-LUTs/blob/master/LICENSE.md
# LUTr-Tags: technical, camera, red, redlogfilm, redgamma, cube
# LUTr-Transform-Class: camera-transform
# LUTr-Input-Color-Space: Unknown
# LUTr-Output-Color-Space: Unknown
# LUTr-Color-Space-Confidence: unverified
# LUTr-Conversion-Method: Metadata normalization; numeric LUT samples preserved
# LUTr-Conversion-Date: 2026-07-27
# LUTr-Conversion-Tool: LUTr scripts/convert-all-to-cube.mjs
# LUTr-Conversion-Grid: 1024-sample 1D
# LUTr-Note: Preserve this metadata and the upstream license notices when redistributing.
# LUTr-Upstream-Comment: Created by Tashi Trieu and Greg Cotten
TITLE "REDlogFilm to REDgamma3"
LUT_1D_SIZE 1024
DOMAIN_MIN 0 0 0
DOMAIN_MAX 1 1 1
0.028198673 0.028198673 0.028198673
0.028210899 0.028210899 0.028210899
0.028223126 0.028223126 0.028223126
0.028235353 0.028235353 0.028235353
0.028247579 0.028247579 0.028247579
0.028259806 0.028259806 0.028259806
0.028272032 0.028272032 0.028272032
0.028284259 0.028284259 0.028284259
0.028296486 0.028296486 0.028296486
0.028308712 0.028308712 0.028308712
0.028320939 0.028320939 0.028320939
0.028333166 0.028333166 0.028333166
0.028345392 0.028345392 0.028345392
0.028357619 0.028357619 0.028357619
0.028369846 0.028369846 0.028369846
0.028382072 0.028382072 0.028382072
0.028394299 0.028394299 0.028394299
0.028406526 0.028406526 0.028406526
0.028418752 0.028418752 0.028418752
0.028430979 0.028430979 0.028430979
0.028443205 0.028443205 0.028443205
0.028455432 0.028455432 0.028455432
0.028467659 0.028467659 0.028467659
0.028479885 0.028479885 0.028479885
0.028492112 0.028492112 0.028492112
0.028504339 0.028504339 0.028504339
0.028516565 0.028516565 0.028516565
0.028528792 0.028528792 0.028528792
0.028541019 0.028541019 0.028541019
0.028553245 0.028553245 0.028553245
0.028565472 0.028565472 0.028565472
0.028577699 0.028577699 0.028577699
0.028589925 0.028589925 0.028589925
0.028602152 0.028602152 0.028602152
0.028614379 0.028614379 0.028614379
0.028626605 0.028626605 0.028626605
0.028638832 0.028638832 0.028638832
0.028651059 0.028651059 0.028651059
0.028663285 0.028663285 0.028663285
0.028675512 0.028675512 0.028675512
0.028687739 0.028687739 0.028687739
0.028699965 0.028699965 0.028699965
0.028712192 0.028712192 0.028712192
0.028724419 0.028724419 0.028724419
0.028736645 0.028736645 0.028736645
0.028748872 0.028748872 0.028748872
0.028761098 0.028761098 0.028761098
0.028773325 0.028773325 0.028773325
0.028785552 0.028785552 0.028785552
0.028797778 0.028797778 0.028797778
0.028810005 0.028810005 0.028810005
0.028822232 0.028822232 0.028822232
0.028834458 0.028834458 0.028834458
0.028846685 0.028846685 0.028846685
0.028858912 0.028858912 0.028858912
0.028871138 0.028871138 0.028871138
0.028883365 0.028883365 0.028883365
0.028895592 0.028895592 0.028895592
0.028907818 0.028907818 0.028907818
0.028920045 0.028920045 0.028920045
0.028932271 0.028932271 0.028932271
0.028944498 0.028944498 0.028944498
0.028956725 0.028956725 0.028956725
0.028968951 0.028968951 0.028968951
0.028981178 0.028981178 0.028981178
0.028993405 0.028993405 0.028993405
0.029005631 0.029005631 0.029005631
0.029017858 0.029017858 0.029017858
0.029030085 0.029030085 0.029030085
0.029042311 0.029042311 0.029042311
0.029054538 0.029054538 0.029054538
0.029066765 0.029066765 0.029066765
0.029078991 0.029078991 0.029078991
0.029091218 0.029091218 0.029091218
0.029103445 0.029103445 0.029103445
0.029115671 0.029115671 0.029115671
0.029187347 0.029187347 0.029187347
0.029394952 0.029394952 0.029394952
0.029602557 0.029602557 0.029602557
0.029810162 0.029810162 0.029810162
0.030017768 0.030017768 0.030017768
0.030262671 0.030262671 0.030262671
0.03051435 0.03051435 0.03051435
0.030766029 0.030766029 0.030766029
0.031022478 0.031022478 0.031022478
0.03130239 0.03130239 0.03130239
0.031582302 0.031582302 0.031582302
0.031862214 0.031862214 0.031862214
0.03216023 0.03216023 0.03216023
0.032461131 0.032461131 0.032461131
0.032762033 0.032762033 0.032762033
0.033070325 0.033070325 0.033070325
0.033380622 0.033380622 0.033380622
0.033690918 0.033690918 0.033690918
0.034001215 0.034001215 0.034001215
0.034311511 0.034311511 0.034311511
0.034621807 0.034621807 0.034621807
0.034932104 0.034932104 0.034932104
0.0352424 0.0352424 0.0352424
0.035552696 0.035552696 0.035552696
0.035864139 0.035864139 0.035864139
0.036175802 0.036175802 0.036175802
0.036487464 0.036487464 0.036487464
0.036815287 0.036815287 0.036815287
0.03714554 0.03714554 0.03714554
0.037477152 0.037477152 0.037477152
0.037827723 0.037827723 0.037827723
0.038178294 0.038178294 0.038178294
0.038534451 0.038534451 0.038534451
0.038898108 0.038898108 0.038898108
0.039261766 0.039261766 0.039261766
0.039633094 0.039633094 0.039633094
0.040005449 0.040005449 0.040005449
0.040382953 0.040382953 0.040382953
0.040768299 0.040768299 0.040768299
0.041153644 0.041153644 0.041153644
0.041550317 0.041550317 0.041550317
0.041947051 0.041947051 0.041947051
0.042348187 0.042348187 0.042348187
0.042751572 0.042751572 0.042751572
0.043157209 0.043157209 0.043157209
0.043566722 0.043566722 0.043566722
0.043977317 0.043977317 0.043977317
0.044396909 0.044396909 0.044396909
0.044816501 0.044816501 0.044816501
0.045243 0.045243 0.045243
0.045670253 0.045670253 0.045670253
0.046097505 0.046097505 0.046097505
0.046524758 0.046524758 0.046524758
0.046954344 0.046954344 0.046954344
0.047385695 0.047385695 0.047385695
0.047819661 0.047819661 0.047819661
0.048257183 0.048257183 0.048257183
0.048693748 0.048693748 0.048693748
0.049128162 0.049128162 0.049128162
0.049562577 0.049562577 0.049562577
0.049996992 0.049996992 0.049996992
0.050431775 0.050431775 0.050431775
0.050873941 0.050873941 0.050873941
0.051316106 0.051316106 0.051316106
0.051758602 0.051758602 0.051758602
0.052201114 0.052201114 0.052201114
0.052645022 0.052645022 0.052645022
0.053089152 0.053089152 0.053089152
0.053538124 0.053538124 0.053538124
0.05398847 0.05398847 0.05398847
0.054449745 0.054449745 0.054449745
0.05491519 0.05491519 0.05491519
0.055382045 0.055382045 0.055382045
0.055849408 0.055849408 0.055849408
0.056328038 0.056328038 0.056328038
0.056810322 0.056810322 0.056810322
0.057304661 0.057304661 0.057304661
0.057801361 0.057801361 0.057801361
0.058304723 0.058304723 0.058304723
0.058810174 0.058810174 0.058810174
0.059327829 0.059327829 0.059327829
0.059853196 0.059853196 0.059853196
0.060393074 0.060393074 0.060393074
0.060935722 0.060935722 0.060935722
0.061479977 0.061479977 0.061479977
0.062049226 0.062049226 0.062049226
0.062623856 0.062623856 0.062623856
0.063206361 0.063206361 0.063206361
0.063803804 0.063803804 0.063803804
0.064408941 0.064408941 0.064408941
0.065022539 0.065022539 0.065022539
0.065649857 0.065649857 0.065649857
0.066285702 0.066285702 0.066285702
0.066928905 0.066928905 0.066928905
0.067582208 0.067582208 0.067582208
0.068246579 0.068246579 0.068246579
0.068924959 0.068924959 0.068924959
0.069604403 0.069604403 0.069604403
0.070293233 0.070293233 0.070293233
0.070992185 0.070992185 0.070992185
0.071702067 0.071702067 0.071702067
0.072407609 0.072407609 0.072407609
0.073126071 0.073126071 0.073126071
0.073853666 0.073853666 0.073853666
0.074588147 0.074588147 0.074588147
0.075333956 0.075333956 0.075333956
0.076081483 0.076081483 0.076081483
0.076829175 0.076829175 0.076829175
0.077581149 0.077581149 0.077581149
0.078339818 0.078339818 0.078339818
0.079102796 0.079102796 0.079102796
0.079880984 0.079880984 0.079880984
0.08065919 0.08065919 0.08065919
0.0814374 0.0814374 0.0814374
0.08221561 0.08221561 0.08221561
0.082996773 0.082996773 0.082996773
0.083787289 0.083787289 0.083787289
0.084580758 0.084580758 0.084580758
0.085374227 0.085374227 0.085374227
0.086167697 0.086167697 0.086167697
0.086961166 0.086961166 0.086961166
0.087758655 0.087758655 0.087758655
0.08856032 0.08856032 0.08856032
0.089358153 0.089358153 0.089358153
0.090165625 0.090165625 0.090165625
0.090974289 0.090974289 0.090974289
0.09178662 0.09178662 0.09178662
0.092607004 0.092607004 0.092607004
0.093430991 0.093430991 0.093430991
0.094254978 0.094254978 0.094254978
0.095082276 0.095082276 0.095082276
0.095918212 0.095918212 0.095918212
0.096757478 0.096757478 0.096757478
0.097596965 0.097596965 0.097596965
0.098451209 0.098451209 0.098451209
0.099305715 0.099305715 0.099305715
0.10016022 0.10016022 0.10016022
0.1010183 0.1010183 0.1010183
0.10188061 0.10188061 0.10188061
0.10274306 0.10274306 0.10274306
0.10361278 0.10361278 0.10361278
0.10448983 0.10448983 0.10448983
0.10536733 0.10536733 0.10536733
0.10624857 0.10624857 0.10624857
0.10713685 0.10713685 0.10713685
0.10803083 0.10803083 0.10803083
0.1089216 0.1089216 0.1089216
0.10981918 0.10981918 0.10981918
0.1107216 0.1107216 0.1107216
0.11163301 0.11163301 0.11163301
0.112537 0.112537 0.112537
0.11345083 0.11345083 0.11345083
0.11436637 0.11436637 0.11436637
0.11528321 0.11528321 0.11528321
0.11621271 0.11621271 0.11621271
0.11714209 0.11714209 0.11714209
0.11806165 0.11806165 0.11806165
0.11900358 0.11900358 0.11900358
0.11993753 0.11993753 0.11993753
0.12088013 0.12088013 0.12088013
0.12181469 0.12181469 0.12181469
0.12276095 0.12276095 0.12276095
0.1237177 0.1237177 0.1237177
0.12466886 0.12466886 0.12466886
0.12562753 0.12562753 0.12562753
0.12658885 0.12658885 0.12658885
0.12755016 0.12755016 0.12755016
0.12851495 0.12851495 0.12851495
0.12948806 0.12948806 0.12948806
0.13046464 0.13046464 0.13046464
0.13144476 0.13144476 0.13144476
0.13242968 0.13242968 0.13242968
0.13341274 0.13341274 0.13341274
0.1344041 0.1344041 0.1344041
0.13540664 0.13540664 0.13540664
0.13640154 0.13640154 0.13640154
0.13740749 0.13740749 0.13740749
0.1384157 0.1384157 0.1384157
0.13943694 0.13943694 0.13943694
0.1404593 0.1404593 0.1404593
0.14148165 0.14148165 0.14148165
0.14250743 0.14250743 0.14250743
0.14354162 0.14354162 0.14354162
0.14457923 0.14457923 0.14457923
0.14561837 0.14561837 0.14561837
0.14666972 0.14666972 0.14666972
0.14772425 0.14772425 0.14772425
0.14879072 0.14879072 0.14879072
0.14985885 0.14985885 0.14985885
0.15092699 0.15092699 0.15092699
0.1519975 0.1519975 0.1519975
0.15307767 0.15307767 0.15307767
0.1541487 0.1541487 0.1541487
0.15524273 0.15524273 0.15524273
0.15633188 0.15633188 0.15633188
0.15742733 0.15742733 0.15742733
0.15852598 0.15852598 0.15852598
0.15962469 0.15962469 0.15962469
0.16073644 0.16073644 0.16073644
0.16184326 0.16184326 0.16184326
0.16296337 0.16296337 0.16296337
0.16408212 0.16408212 0.16408212
0.16520943 0.16520943 0.16520943
0.1663386 0.1663386 0.1663386
0.16747087 0.16747087 0.16747087
0.16861219 0.16861219 0.16861219
0.16975717 0.16975717 0.16975717
0.17091431 0.17091431 0.17091431
0.17206376 0.17206376 0.17206376
0.17322298 0.17322298 0.17322298
0.17439536 0.17439536 0.17439536
0.17557031 0.17557031 0.17557031
0.17674525 0.17674525 0.17674525
0.17792229 0.17792229 0.17792229
0.1791104 0.1791104 0.1791104
0.18030327 0.18030327 0.18030327
0.18150607 0.18150607 0.18150607
0.18271153 0.18271153 0.18271153
0.18391919 0.18391919 0.18391919
0.18513771 0.18513771 0.18513771
0.18635955 0.18635955 0.18635955
0.18759241 0.18759241 0.18759241
0.1888208 0.1888208 0.1888208
0.19006638 0.19006638 0.19006638
0.19131762 0.19131762 0.19131762
0.19257154 0.19257154 0.19257154
0.19383536 0.19383536 0.19383536
0.19510185 0.19510185 0.19510185
0.19637065 0.19637065 0.19637065
0.19765011 0.19765011 0.19765011
0.1989346 0.1989346 0.1989346
0.20022889 0.20022889 0.20022889
0.2015259 0.2015259 0.2015259
0.20282527 0.20282527 0.20282527
0.20413519 0.20413519 0.20413519
0.20545014 0.20545014 0.20545014
0.2067745 0.2067745 0.2067745
0.20808977 0.20808977 0.20808977
0.20941482 0.20941482 0.20941482
0.21074427 0.21074427 0.21074427
0.21208515 0.21208515 0.21208515
0.21342794 0.21342794 0.21342794
0.21477073 0.21477073 0.21477073
0.21611353 0.21611353 0.21611353
0.21745893 0.21745893 0.21745893
0.21881437 0.21881437 0.21881437
0.22017243 0.22017243 0.22017243
0.22153048 0.22153048 0.22153048
0.22288853 0.22288853 0.22288853
0.22424805 0.22424805 0.22424805
0.2256199 0.2256199 0.2256199
0.22699321 0.22699321 0.22699321
0.22836444 0.22836444 0.22836444
0.22972844 0.22972844 0.22972844
0.23111125 0.23111125 0.23111125
0.23248646 0.23248646 0.23248646
0.2338615 0.2338615 0.2338615
0.23524834 0.23524834 0.23524834
0.23663691 0.23663691 0.23663691
0.23802753 0.23802753 0.23802753
0.23942751 0.23942751 0.23942751
0.24081986 0.24081986 0.24081986
0.24222171 0.24222171 0.24222171
0.24362733 0.24362733 0.24362733
0.24504254 0.24504254 0.24504254
0.24644995 0.24644995 0.24644995
0.24786755 0.24786755 0.24786755
0.24928765 0.24928765 0.24928765
0.25071856 0.25071856 0.25071856
0.2521404 0.2521404 0.2521404
0.25357443 0.25357443 0.25357443
0.25500877 0.25500877 0.25500877
0.25644312 0.25644312 0.25644312
0.25787883 0.25787883 0.25787883
0.25932515 0.25932515 0.25932515
0.26076341 0.26076341 0.26076341
0.26221103 0.26221103 0.26221103
0.26366299 0.26366299 0.26366299
0.26512548 0.26512548 0.26512548
0.26657749 0.26657749 0.26657749
0.26803998 0.26803998 0.26803998
0.26950484 0.26950484 0.26950484
0.27096971 0.27096971 0.27096971
0.27243458 0.27243458 0.27243458
0.27390184 0.27390184 0.27390184
0.27537957 0.27537957 0.27537957
0.27685969 0.27685969 0.27685969
0.27833982 0.27833982 0.27833982
0.27981994 0.27981994 0.27981994
0.28130007 0.28130007 0.28130007
0.28278084 0.28278084 0.28278084
0.28427558 0.28427558 0.28427558
0.28577096 0.28577096 0.28577096
0.28726635 0.28726635 0.28726635
0.28876407 0.28876407 0.28876407
0.29027237 0.29027237 0.29027237
0.29178302 0.29178302 0.29178302
0.29329366 0.29329366 0.29329366
0.2948043 0.2948043 0.2948043
0.29631495 0.29631495 0.29631495
0.29782765 0.29782765 0.29782765
0.29935149 0.29935149 0.29935149
0.30087739 0.30087739 0.30087739
0.3024033 0.3024033 0.3024033
0.30392984 0.30392984 0.30392984
0.30546813 0.30546813 0.30546813
0.30699794 0.30699794 0.30699794
0.30853742 0.30853742 0.30853742
0.31007858 0.31007858 0.31007858
0.31162138 0.31162138 0.31162138
0.31317546 0.31317546 0.31317546
0.31471954 0.31471954 0.31471954
0.31627375 0.31627375 0.31627375
0.31783017 0.31783017 0.31783017
0.31938659 0.31938659 0.31938659
0.32094301 0.32094301 0.32094301
0.32249952 0.32249952 0.32249952
0.32407111 0.32407111 0.32407111
0.32564065 0.32564065 0.32564065
0.32720035 0.32720035 0.32720035
0.32878462 0.32878462 0.32878462
0.33035782 0.33035782 0.33035782
0.33193082 0.33193082 0.33193082
0.33351644 0.33351644 0.33351644
0.33510549 0.33510549 0.33510549
0.3367036 0.3367036 0.3367036
0.33829297 0.33829297 0.33829297
0.33989471 0.33989471 0.33989471
0.34149691 0.34149691 0.34149691
0.34310074 0.34310074 0.34310074
0.34471652 0.34471652 0.34471652
0.3463205 0.3463205 0.3463205
0.34793622 0.34793622 0.34793622
0.34955367 0.34955367 0.34955367
0.35117113 0.35117113 0.35117113
0.35279035 0.35279035 0.35279035
0.35441913 0.35441913 0.35441913
0.35604029 0.35604029 0.35604029
0.35767147 0.35767147 0.35767147
0.35930419 0.35930419 0.35930419
0.3609369 0.3609369 0.3609369
0.36256962 0.36256962 0.36256962
0.36420233 0.36420233 0.36420233
0.36583505 0.36583505 0.36583505
0.36746777 0.36746777 0.36746777
0.36910242 0.36910242 0.36910242
0.37074754 0.37074754 0.37074754
0.37238204 0.37238204 0.37238204
0.37402723 0.37402723 0.37402723
0.37566186 0.37566186 0.37566186
0.37729593 0.37729593 0.37729593
0.37894234 0.37894234 0.37894234
0.38057692 0.38057692 0.38057692
0.38222109 0.38222109 0.38222109
0.38385595 0.38385595 0.38385595
0.38548907 0.38548907 0.38548907
0.38713664 0.38713664 0.38713664
0.38878462 0.38878462 0.38878462
0.39043259 0.39043259 0.39043259
0.39208057 0.39208057 0.39208057
0.39372854 0.39372854 0.39372854
0.39537652 0.39537652 0.39537652
0.39702449 0.39702449 0.39702449
0.39867424 0.39867424 0.39867424
0.400335 0.400335 0.400335
0.40198367 0.40198367 0.40198367
0.40363358 0.40363358 0.40363358
0.40529488 0.40529488 0.40529488
0.40695653 0.40695653 0.40695653
0.40860631 0.40860631 0.40860631
0.41026932 0.41026932 0.41026932
0.41193256 0.41193256 0.41193256
0.41359579 0.41359579 0.41359579
0.41525902 0.41525902 0.41525902
0.41692226 0.41692226 0.41692226
0.41858549 0.41858549 0.41858549
0.42024872 0.42024872 0.42024872
0.42191196 0.42191196 0.42191196
0.42357519 0.42357519 0.42357519
0.42523842 0.42523842 0.42523842
0.42690166 0.42690166 0.42690166
0.42856693 0.42856693 0.42856693
0.43024135 0.43024135 0.43024135
0.43190661 0.43190661 0.43190661
0.43356985 0.43356985 0.43356985
0.43523445 0.43523445 0.43523445
0.43690956 0.43690956 0.43690956
0.43857481 0.43857481 0.43857481
0.44023804 0.44023804 0.44023804
0.44190129 0.44190129 0.44190129
0.44357849 0.44357849 0.44357849
0.445245 0.445245 0.445245
0.44691943 0.44691943 0.44691943
0.44858473 0.44858473 0.44858473
0.45024813 0.45024813 0.45024813
0.45192645 0.45192645 0.45192645
0.45360301 0.45360301 0.45360301
0.45527027 0.45527027 0.45527027
0.45694505 0.45694505 0.45694505
0.45861035 0.45861035 0.45861035
0.4602884 0.4602884 0.4602884
0.46196689 0.46196689 0.46196689
0.46364538 0.46364538 0.46364538
0.46532387 0.46532387 0.46532387
0.46700145 0.46700145 0.46700145
0.46866621 0.46866621 0.46866621
0.47034572 0.47034572 0.47034572
0.47203578 0.47203578 0.47203578
0.47371633 0.47371633 0.47371633
0.47539483 0.47539483 0.47539483
0.47707332 0.47707332 0.47707332
0.47875305 0.47875305 0.47875305
0.48044365 0.48044365 0.48044365
0.48212406 0.48212406 0.48212406
0.48380422 0.48380422 0.48380422
0.48549551 0.48549551 0.48549551
0.48717541 0.48717541 0.48717541
0.48886854 0.48886854 0.48886854
0.49056229 0.49056229 0.49056229
0.49225402 0.49225402 0.49225402
0.493936 0.493936 0.493936
0.49562871 0.49562871 0.49562871
0.49733655 0.49733655 0.49733655
0.49903268 0.49903268 0.49903268
0.50073803 0.50073803 0.50073803
0.50243582 0.50243582 0.50243582
0.50414282 0.50414282 0.50414282
0.50585183 0.50585183 0.50585183
0.50756085 0.50756085 0.50756085
0.50926986 0.50926986 0.50926986
0.51098076 0.51098076 0.51098076
0.51270108 0.51270108 0.51270108
0.51441215 0.51441215 0.51441215
0.51612116 0.51612116 0.51612116
0.5178305 0.5178305 0.5178305
0.51955373 0.51955373 0.51955373
0.52126345 0.52126345 0.52126345
0.52297443 0.52297443 0.52297443
0.52469468 0.52469468 0.52469468
0.52640574 0.52640574 0.52640574
0.52811475 0.52811475 0.52811475
0.52982376 0.52982376 0.52982376
0.53153277 0.53153277 0.53153277
0.53324002 0.53324002 0.53324002
0.5349376 0.5349376 0.5349376
0.53664261 0.53664261 0.53664261
0.53833829 0.53833829 0.53833829
0.54003204 0.54003204 0.54003204
0.5417258 0.5417258 0.5417258
0.54341955 0.54341955 0.54341955
0.54511121 0.54511121 0.54511121
0.54679366 0.54679366 0.54679366
0.54848439 0.54848439 0.54848439
0.55016403 0.55016403 0.55016403
0.55184113 0.55184113 0.55184113
0.5535078 0.5535078 0.5535078
0.55518425 0.55518425 0.55518425
0.55686275 0.55686275 0.55686275
0.55854099 0.55854099 0.55854099
0.56020567 0.56020567 0.56020567
0.56188102 0.56188102 0.56188102
0.56354828 0.56354828 0.56354828
0.5652231 0.5652231 0.5652231
0.56688792 0.56688792 0.56688792
0.56855116 0.56855116 0.56855116
0.57021439 0.57021439 0.57021439
0.57187762 0.57187762 0.57187762
0.57354086 0.57354086 0.57354086
0.57520409 0.57520409 0.57520409
0.57686612 0.57686612 0.57686612
0.57851732 0.57851732 0.57851732
0.58017647 0.58017647 0.58017647
0.5818265 0.5818265 0.5818265
0.58347448 0.58347448 0.58347448
0.58512245 0.58512245 0.58512245
0.58677043 0.58677043 0.58677043
0.58841656 0.58841656 0.58841656
0.59005173 0.59005173 0.59005173
0.59169803 0.59169803 0.59169803
0.59333181 0.59333181 0.59333181
0.59496452 0.59496452 0.59496452
0.59659724 0.59659724 0.59659724
0.59822995 0.59822995 0.59822995
0.59986077 0.59986077 0.59986077
0.60148013 0.60148013 0.60148013
0.60309883 0.60309883 0.60309883
0.60472978 0.60472978 0.60472978
0.60634775 0.60634775 0.60634775
0.60796306 0.60796306 0.60796306
0.60956861 0.60956861 0.60956861
0.61118486 0.61118486 0.61118486
0.61280035 0.61280035 0.61280035
0.61440452 0.61440452 0.61440452
0.61600671 0.61600671 0.61600671
0.61760891 0.61760891 0.61760891
0.61921111 0.61921111 0.61921111
0.62081331 0.62081331 0.62081331
0.62241512 0.62241512 0.62241512
0.62400405 0.62400405 0.62400405
0.62560243 0.62560243 0.62560243
0.62719158 0.62719158 0.62719158
0.62877852 0.62877852 0.62877852
0.63036545 0.63036545 0.63036545
0.63195239 0.63195239 0.63195239
0.63353879 0.63353879 0.63353879
0.63511262 0.63511262 0.63511262
0.63669572 0.63669572 0.63669572
0.63826963 0.63826963 0.63826963
0.63984131 0.63984131 0.63984131
0.64141299 0.64141299 0.64141299
0.64298466 0.64298466 0.64298466
0.64455607 0.64455607 0.64455607
0.64611481 0.64611481 0.64611481
0.6476824 0.6476824 0.6476824
0.64924086 0.64924086 0.64924086
0.65079728 0.65079728 0.65079728
0.6523537 0.6523537 0.6523537
0.65391012 0.65391012 0.65391012
0.65546486 0.65546486 0.65546486
0.65700771 0.65700771 0.65700771
0.6585496 0.6585496 0.6585496
0.66010367 0.66010367 0.66010367
0.66164645 0.66164645 0.66164645
0.66318843 0.66318843 0.66318843
0.66474247 0.66474247 0.66474247
0.66628519 0.66628519 0.66628519
0.66782544 0.66782544 0.66782544
0.66935393 0.66935393 0.66935393
0.67089342 0.67089342 0.67089342
0.67243382 0.67243382 0.67243382
0.67396048 0.67396048 0.67396048
0.67548638 0.67548638 0.67548638
0.67701228 0.67701228 0.67701228
0.67853819 0.67853819 0.67853819
0.68006409 0.68006409 0.68006409
0.68158984 0.68158984 0.68158984
0.68310063 0.68310063 0.68310063
0.68461128 0.68461128 0.68461128
0.68612192 0.68612192 0.68612192
0.68763021 0.68763021 0.68763021
0.68912795 0.68912795 0.68912795
0.69062333 0.69062333 0.69062333
0.69211872 0.69211872 0.69211872
0.69361387 0.69361387 0.69361387
0.69509422 0.69509422 0.69509422
0.69657435 0.69657435 0.69657435
0.69805447 0.69805447 0.69805447
0.69953236 0.69953236 0.69953236
0.70099947 0.70099947 0.70099947
0.70246192 0.70246192 0.70246192
0.70391485 0.70391485 0.70391485
0.7053746 0.7053746 0.7053746
0.70681493 0.70681493 0.70681493
0.70826121 0.70826121 0.70826121
0.70969935 0.70969935 0.70969935
0.71114598 0.71114598 0.71114598
0.7125786 0.7125786 0.7125786
0.71400018 0.71400018 0.71400018
0.71543205 0.71543205 0.71543205
0.71685359 0.71685359 0.71685359
0.71827032 0.71827032 0.71827032
0.71967769 0.71967769 0.71967769
0.72109338 0.72109338 0.72109338
0.72249943 0.72249943 0.72249943
0.72390114 0.72390114 0.72390114
0.72529347 0.72529347 0.72529347
0.72669361 0.72669361 0.72669361
0.72808423 0.72808423 0.72808423
0.7294728 0.7294728 0.7294728
0.73085962 0.73085962 0.73085962
0.73223468 0.73223468 0.73223468
0.733608 0.733608 0.733608
0.73498131 0.73498131 0.73498131
0.73635326 0.73635326 0.73635326
0.7377151 0.7377151 0.7377151
0.739085 0.739085 0.739085
0.74044404 0.74044404 0.74044404
0.74180167 0.74180167 0.74180167
0.74314488 0.74314488 0.74314488
0.74448768 0.74448768 0.74448768
0.74583047 0.74583047 0.74583047
0.74717327 0.74717327 0.74717327
0.74851386 0.74851386 0.74851386
0.74984567 0.74984567 0.74984567
0.75118325 0.75118325 0.75118325
0.75250123 0.75250123 0.75250123
0.7538262 0.7538262 0.7538262
0.75515107 0.75515107 0.75515107
0.75646601 0.75646601 0.75646601
0.75777829 0.75777829 0.75777829
0.75909056 0.75909056 0.75909056
0.76040154 0.76040154 0.76040154
0.76169986 0.76169986 0.76169986
0.76299687 0.76299687 0.76299687
0.76429389 0.76429389 0.76429389
0.76558882 0.76558882 0.76558882
0.76687391 0.76687391 0.76687391
0.76816695 0.76816695 0.76816695
