site/assets/luts/sha256-df0768f92318032b6cc7e1233dbd529c287d1775ab9bf8bc81f42bca27cf1950.cube
# LUTr-Schema-Version: 2
# LUTr-ID: sha256-df0768f92318032b6cc7e1233dbd529c287d1775ab9bf8bc81f42bca27cf1950
# LUTr-Title: ilford pan f plus 50
# LUTr-Collection: Natron HaldCLUT
# LUTr-Collection-ID: natron-haldclut-presets
# LUTr-Source: https://github.com/NatronGitHub/clut
# LUTr-Retrieved: 2026-07-27
# LUTr-Source-File: submissions/natron-haldclut-presets/bw/ilford_pan_f_plus_50.png
# LUTr-Source-Format: HALD-PNG
# LUTr-Source-SHA256: df0768f92318032b6cc7e1233dbd529c287d1775ab9bf8bc81f42bca27cf1950
# LUTr-License: CC-BY-SA-4.0
# LUTr-License-URL: https://github.com/NatronGitHub/clut#license
# LUTr-License-Basis: repo-license-file
# LUTr-Transform-Class: film-emulation
# LUTr-Tags: creative, film, film-emulation, hald-clut, natron, png, cube
# LUTr-Input-Color-Space: srgb
# LUTr-Input-Gamut: rec709
# LUTr-Input-Transfer: srgb
# LUTr-Output-Color-Space: srgb
# LUTr-Output-Gamut: rec709
# LUTr-Output-Transfer: srgb
# LUTr-Color-Space-Confidence: assumed-display-referred
# LUTr-Domain-Normalized: true
# LUTr-Shaper: none
# LUTr-Original-Grid: 64x64x64
# LUTr-Conversion-Grid: 25x25x25
# LUTr-Conversion-Interpolation: trilinear
# LUTr-Conversion-Method: HALD-PNG LUT image decoded at 16-bit and sampled to 25x25x25 3D CUBE
# LUTr-Conversion-Tool: LUTr scripts/convert-all-to-cube.mjs 2.0.0
# LUTr-Conversion-Date: 2026-07-27
# LUTr-Note: Preserve this metadata and the upstream license notices when redistributing.
TITLE "ilford pan f plus 50"
LUT_3D_SIZE 25
DOMAIN_MIN 0 0 0
DOMAIN_MAX 1 1 1
0.019607843 0.019607843 0.019607843
0.023529412 0.023529412 0.023529412
0.02745098 0.02745098 0.02745098
0.02745098 0.02745098 0.02745098
0.02745098 0.02745098 0.02745098
0.031862745 0.031862745 0.031862745
0.042156863 0.042156863 0.042156863
0.047058824 0.047058824 0.047058824
0.047058824 0.047058824 0.047058824
0.043137255 0.043137255 0.043137255
0.034313725 0.034313725 0.034313725
0.024019608 0.024019608 0.024019608
0.050980392 0.050980392 0.050980392
0.075490196 0.075490196 0.075490196
0.092156863 0.092156863 0.092156863
0.10735294 0.10735294 0.10735294
0.12156863 0.12156863 0.12156863
0.14215686 0.14215686 0.14215686
0.16764706 0.16764706 0.16764706
0.19460784 0.19460784 0.19460784
0.21176471 0.21176471 0.21176471
0.22843137 0.22843137 0.22843137
0.24215686 0.24215686 0.24215686
0.25490196 0.25490196 0.25490196
0.25882353 0.25882353 0.25882353
0.03627451 0.03627451 0.03627451
0.041727941 0.041727941 0.041727941
0.044117647 0.044117647 0.044117647
0.044117647 0.044117647 0.044117647
0.045343137 0.045343137 0.045343137
0.05067402 0.05067402 0.05067402
0.058823529 0.058823529 0.058823529
0.06372549 0.06372549 0.06372549
0.06372549 0.06372549 0.06372549
0.059803922 0.059803922 0.059803922
0.057965686 0.057965686 0.057965686
0.060477941 0.060477941 0.060477941
0.077205882 0.077205882 0.077205882
0.098529412 0.098529412 0.098529412
0.11556373 0.11556373 0.11556373
0.13039216 0.13039216 0.13039216
0.14460784 0.14460784 0.14460784
0.16219363 0.16219363 0.16219363
0.18786765 0.18786765 0.18786765
0.21176471 0.21176471 0.21176471
0.23235294 0.23235294 0.23235294
0.24852941 0.24852941 0.24852941
0.26237745 0.26237745 0.26237745
0.27941176 0.27941176 0.27941176
0.28186275 0.28186275 0.28186275
0.060784314 0.060784314 0.060784314
0.063602941 0.063602941 0.063602941
0.064705882 0.064705882 0.064705882
0.065563725 0.065563725 0.065563725
0.071078431 0.071078431 0.071078431
0.076593137 0.076593137 0.076593137
0.083578431 0.083578431 0.083578431
0.088602941 0.088602941 0.088602941
0.089215686 0.089215686 0.089215686
0.089215686 0.089215686 0.089215686
0.089460784 0.089460784 0.089460784
0.096568627 0.096568627 0.096568627
0.10882353 0.10882353 0.10882353
0.1254902 0.1254902 0.1254902
0.14534314 0.14534314 0.14534314
0.15845588 0.15845588 0.15845588
0.17156863 0.17156863 0.17156863
0.19154412 0.19154412 0.19154412
0.2127451 0.2127451 0.2127451
0.23627451 0.23627451 0.23627451
0.25539216 0.25539216 0.25539216
0.27316176 0.27316176 0.27316176
0.29044118 0.29044118 0.29044118
0.30637255 0.30637255 0.30637255
0.3127451 0.3127451 0.3127451
0.081372549 0.081372549 0.081372549
0.084007353 0.084007353 0.084007353
0.086151961 0.086151961 0.086151961
0.092218137 0.092218137 0.092218137
0.096813725 0.096813725 0.096813725
0.10140931 0.10140931 0.10140931
0.10870098 0.10870098 0.10870098
0.11617647 0.11617647 0.11617647
0.11666667 0.11666667 0.11666667
0.12009804 0.12009804 0.12009804
0.12365196 0.12365196 0.12365196
0.13094363 0.13094363 0.13094363
0.14166667 0.14166667 0.14166667
0.15594363 0.15594363 0.15594363
0.17303922 0.17303922 0.17303922
0.18609069 0.18609069 0.18609069
0.20245098 0.20245098 0.20245098
0.21911765 0.21911765 0.21911765
0.23970588 0.23970588 0.23970588
0.26078431 0.26078431 0.26078431
0.28112745 0.28112745 0.28112745
0.29797794 0.29797794 0.29797794
0.31813725 0.31813725 0.31813725
0.33351716 0.33351716 0.33351716
0.34362745 0.34362745 0.34362745
0.10196078 0.10196078 0.10196078
0.10441176 0.10441176 0.10441176
0.1127451 0.1127451 0.1127451
0.11936275 0.11936275 0.11936275
0.1254902 0.1254902 0.1254902
0.12965686 0.12965686 0.12965686
0.13627451 0.13627451 0.13627451
0.14191176 0.14191176 0.14191176
0.14705882 0.14705882 0.14705882
0.1502451 0.1502451 0.1502451
0.15588235 0.15588235 0.15588235
0.16446078 0.16446078 0.16446078
0.17254902 0.17254902 0.17254902
0.18308824 0.18308824 0.18308824
0.19852941 0.19852941 0.19852941
0.2120098 0.2120098 0.2120098
0.22941176 0.22941176 0.22941176
0.24803922 0.24803922 0.24803922
0.26666667 0.26666667 0.26666667
0.2872549 0.2872549 0.2872549
0.30686275 0.30686275 0.30686275
0.32622549 0.32622549 0.32622549
0.34509804 0.34509804 0.34509804
0.36102941 0.36102941 0.36102941
0.37058824 0.37058824 0.37058824
0.12009804 0.12009804 0.12009804
0.13382353 0.13382353 0.13382353
0.1442402 0.1442402 0.1442402
0.15441176 0.15441176 0.15441176
0.15490196 0.15490196 0.15490196
0.15784314 0.15784314 0.15784314
0.16090686 0.16090686 0.16090686
0.16715686 0.16715686 0.16715686
0.17401961 0.17401961 0.17401961
0.18039216 0.18039216 0.18039216
0.18970588 0.18970588 0.18970588
0.19705882 0.19705882 0.19705882
0.20343137 0.20343137 0.20343137
0.21372549 0.21372549 0.21372549
0.22401961 0.22401961 0.22401961
0.23792892 0.23792892 0.23792892
0.25588235 0.25588235 0.25588235
0.27303922 0.27303922 0.27303922
0.29362745 0.29362745 0.29362745
0.31378676 0.31378676 0.31378676
0.33431373 0.33431373 0.33431373
0.35147059 0.35147059 0.35147059
0.37205882 0.37205882 0.37205882
0.38872549 0.38872549 0.38872549
0.40098039 0.40098039 0.40098039
0.17156863 0.17156863 0.17156863
0.17610294 0.17610294 0.17610294
0.18455882 0.18455882 0.18455882
0.19448529 0.19448529 0.19448529
0.19117647 0.19117647 0.19117647
0.18786765 0.18786765 0.18786765
0.18602941 0.18602941 0.18602941
0.19276961 0.19276961 0.19276961
0.20490196 0.20490196 0.20490196
0.21127451 0.21127451 0.21127451
0.22156863 0.22156863 0.22156863
0.22830882 0.22830882 0.22830882
0.23431373 0.23431373 0.23431373
0.24460784 0.24460784 0.24460784
0.25098039 0.25098039 0.25098039
0.26556373 0.26556373 0.26556373
0.28333333 0.28333333 0.28333333
0.30036765 0.30036765 0.30036765
0.32058824 0.32058824 0.32058824
0.34117647 0.34117647 0.34117647
0.35882353 0.35882353 0.35882353
0.37941176 0.37941176 0.37941176
0.39901961 0.39901961 0.39901961
0.41629902 0.41629902 0.41629902
0.42843137 0.42843137 0.42843137
0.22303922 0.22303922 0.22303922
0.22457108 0.22457108 0.22457108
0.22757353 0.22757353 0.22757353
0.22941176 0.22941176 0.22941176
0.22941176 0.22941176 0.22941176
0.22518382 0.22518382 0.22518382
0.22156863 0.22156863 0.22156863
0.22935049 0.22935049 0.22935049
0.24117647 0.24117647 0.24117647
0.24754902 0.24754902 0.24754902
0.25784314 0.25784314 0.25784314
0.26421569 0.26421569 0.26421569
0.27181373 0.27181373 0.27181373
0.28069853 0.28069853 0.28069853
0.28786765 0.28786765 0.28786765
0.29754902 0.29754902 0.29754902
0.31029412 0.31029412 0.31029412
0.32843137 0.32843137 0.32843137
0.34754902 0.34754902 0.34754902
0.36813725 0.36813725 0.36813725
0.3872549 0.3872549 0.3872549
0.40539216 0.40539216 0.40539216
0.42598039 0.42598039 0.42598039
0.44601716 0.44601716 0.44601716
0.45931373 0.45931373 0.45931373
0.27058824 0.27058824 0.27058824
0.27058824 0.27058824 0.27058824
0.27156863 0.27156863 0.27156863
0.2745098 0.2745098 0.2745098
0.27254902 0.27254902 0.27254902
0.27058824 0.27058824 0.27058824
0.26666667 0.26666667 0.26666667
0.27205882 0.27205882 0.27205882
0.28235294 0.28235294 0.28235294
0.28872549 0.28872549 0.28872549
0.29803922 0.29803922 0.29803922
0.30539216 0.30539216 0.30539216
0.31176471 0.31176471 0.31176471
0.31813725 0.31813725 0.31813725
0.3254902 0.3254902 0.3254902
0.33480392 0.33480392 0.33480392
0.34509804 0.34509804 0.34509804
0.35931373 0.35931373 0.35931373
0.37843137 0.37843137 0.37843137
0.39509804 0.39509804 0.39509804
0.41568627 0.41568627 0.41568627
0.43235294 0.43235294 0.43235294
0.45294118 0.45294118 0.45294118
0.47352941 0.47352941 0.47352941
0.48627451 0.48627451 0.48627451
0.31568627 0.31568627 0.31568627
0.31568627 0.31568627 0.31568627
0.31629902 0.31629902 0.31629902
0.31813725 0.31813725 0.31813725
0.31568627 0.31568627 0.31568627
0.31390931 0.31390931 0.31390931
0.31176471 0.31176471 0.31176471
0.31715686 0.31715686 0.31715686
0.32352941 0.32352941 0.32352941
0.32990196 0.32990196 0.32990196
0.33921569 0.33921569 0.33921569
0.34656863 0.34656863 0.34656863
0.35294118 0.35294118 0.35294118
0.35931373 0.35931373 0.35931373
0.36568627 0.36568627 0.36568627
0.37205882 0.37205882 0.37205882
0.38235294 0.38235294 0.38235294
0.39564951 0.39564951 0.39564951
0.41115196 0.41115196 0.41115196
0.4286152 0.4286152 0.4286152
0.44656863 0.44656863 0.44656863
0.46323529 0.46323529 0.46323529
0.48382353 0.48382353 0.48382353
0.50441176 0.50441176 0.50441176
0.51715686 0.51715686 0.51715686
0.36176471 0.36176471 0.36176471
0.36115196 0.36115196 0.36115196
0.36176471 0.36176471 0.36176471
0.36078431 0.36078431 0.36078431
0.35882353 0.35882353 0.35882353
0.35686275 0.35686275 0.35686275
0.35686275 0.35686275 0.35686275
0.36078431 0.36078431 0.36078431
0.36470588 0.36470588 0.36470588
0.37254902 0.37254902 0.37254902
0.38039216 0.38039216 0.38039216
0.3877451 0.3877451 0.3877451
0.39411765 0.39411765 0.39411765
0.4 0.4 0.4
0.40392157 0.40392157 0.40392157
0.40931373 0.40931373 0.40931373
0.41862745 0.41862745 0.41862745
0.42990196 0.42990196 0.42990196
0.44485294 0.44485294 0.44485294
0.46213235 0.46213235 0.46213235
0.47941176 0.47941176 0.47941176
0.49767157 0.49767157 0.49767157
0.51495098 0.51495098 0.51495098
0.53382353 0.53382353 0.53382353
0.54803922 0.54803922 0.54803922
0.40931373 0.40931373 0.40931373
0.40588235 0.40588235 0.40588235
0.40588235 0.40588235 0.40588235
0.40545343 0.40545343 0.40545343
0.40196078 0.40196078 0.40196078
0.39803922 0.39803922 0.39803922
0.39803922 0.39803922 0.39803922
0.40324755 0.40324755 0.40324755
0.40980392 0.40980392 0.40980392
0.4158701 0.4158701 0.4158701
0.42254902 0.42254902 0.42254902
0.42892157 0.42892157 0.42892157
0.43529412 0.43529412 0.43529412
0.44117647 0.44117647 0.44117647
0.4442402 0.4442402 0.4442402
0.44920343 0.44920343 0.44920343
0.45686275 0.45686275 0.45686275
0.46746324 0.46746324 0.46746324
0.4814951 0.4814951 0.4814951
0.49601716 0.49601716 0.49601716
0.5122549 0.5122549 0.5122549
0.53192402 0.53192402 0.53192402
0.5495098 0.5495098 0.5495098
0.56470588 0.56470588 0.56470588
0.57892157 0.57892157 0.57892157
0.45294118 0.45294118 0.45294118
0.45098039 0.45098039 0.45098039
0.4504902 0.4504902 0.4504902
0.44705882 0.44705882 0.44705882
0.44313725 0.44313725 0.44313725
0.44313725 0.44313725 0.44313725
0.44313725 0.44313725 0.44313725
0.44779412 0.44779412 0.44779412
0.45294118 0.45294118 0.45294118
0.45808824 0.45808824 0.45808824
0.46519608 0.46519608 0.46519608
0.47230392 0.47230392 0.47230392
0.47745098 0.47745098 0.47745098
0.48063725 0.48063725 0.48063725
0.48382353 0.48382353 0.48382353
0.4877451 0.4877451 0.4877451
0.49411765 0.49411765 0.49411765
0.50441176 0.50441176 0.50441176
0.51715686 0.51715686 0.51715686
0.53088235 0.53088235 0.53088235
0.54803922 0.54803922 0.54803922
0.56372549 0.56372549 0.56372549
0.58088235 0.58088235 0.58088235
0.59558824 0.59558824 0.59558824
0.60392157 0.60392157 0.60392157
0.49607843 0.49607843 0.49607843
0.49607843 0.49607843 0.49607843
0.49215686 0.49215686 0.49215686
0.48829657 0.48829657 0.48829657
0.48823529 0.48823529 0.48823529
0.48823529 0.48823529 0.48823529
0.48823529 0.48823529 0.48823529
0.49234069 0.49234069 0.49234069
0.49656863 0.49656863 0.49656863
0.50422794 0.50422794 0.50422794
0.50919118 0.50919118 0.50919118
0.51568627 0.51568627 0.51568627
0.51960784 0.51960784 0.51960784
0.52003676 0.52003676 0.52003676
0.52352941 0.52352941 0.52352941
0.52745098 0.52745098 0.52745098
0.53480392 0.53480392 0.53480392
0.54166667 0.54166667 0.54166667
0.55196078 0.55196078 0.55196078
0.5661152 0.5661152 0.5661152
0.58186275 0.58186275 0.58186275
0.59803922 0.59803922 0.59803922
0.6122549 0.6122549 0.6122549
0.6223652 0.6223652 0.6223652
0.62843137 0.62843137 0.62843137
0.54117647 0.54117647 0.54117647
0.5372549 0.5372549 0.5372549
0.53333333 0.53333333 0.53333333
0.53247549 0.53247549 0.53247549
0.52941176 0.52941176 0.52941176
0.53235294 0.53235294 0.53235294
0.53333333 0.53333333 0.53333333
0.53835784 0.53835784 0.53835784
0.54411765 0.54411765 0.54411765
0.5504902 0.5504902 0.5504902
0.55392157 0.55392157 0.55392157
0.55686275 0.55686275 0.55686275
0.56078431 0.56078431 0.56078431
0.56078431 0.56078431 0.56078431
0.56470588 0.56470588 0.56470588
0.56678922 0.56678922 0.56678922
0.57254902 0.57254902 0.57254902
0.57892157 0.57892157 0.57892157
0.58921569 0.58921569 0.58921569
0.6004902 0.6004902 0.6004902
0.61617647 0.61617647 0.61617647
0.62941176 0.62941176 0.62941176
0.64313725 0.64313725 0.64313725
0.64840686 0.64840686 0.64840686
0.64901961 0.64901961 0.64901961
0.58235294 0.58235294 0.58235294
0.57898284 0.57898284 0.57898284
0.57745098 0.57745098 0.57745098
0.5745098 0.5745098 0.5745098
0.5745098 0.5745098 0.5745098
0.57628676 0.57628676 0.57628676
0.57953431 0.57953431 0.57953431
0.58382353 0.58382353 0.58382353
0.5877451 0.5877451 0.5877451
0.59264706 0.59264706 0.59264706
0.59803922 0.59803922 0.59803922
0.59803922 0.59803922 0.59803922
0.60122549 0.60122549 0.60122549
0.60196078 0.60196078 0.60196078
0.60196078 0.60196078 0.60196078
0.60588235 0.60588235 0.60588235
0.60980392 0.60980392 0.60980392
0.61525735 0.61525735 0.61525735
0.62316176 0.62316176 0.62316176
0.63529412 0.63529412 0.63529412
0.6495098 0.6495098 0.6495098
0.66372549 0.66372549 0.66372549
0.67071078 0.67071078 0.67071078
0.67352941 0.67352941 0.67352941
0.675 0.675 0.675
0.62352941 0.62352941 0.62352941
0.62107843 0.62107843 0.62107843
0.61960784 0.61960784 0.61960784
0.61617647 0.61617647 0.61617647
0.61568627 0.61568627 0.61568627
0.61960784 0.61960784 0.61960784
0.61960784 0.61960784 0.61960784
0.62352941 0.62352941 0.62352941
0.62745098 0.62745098 0.62745098
0.63137255 0.63137255 0.63137255
0.63529412 0.63529412 0.63529412
0.63529412 0.63529412 0.63529412
0.63921569 0.63921569 0.63921569
0.63921569 0.63921569 0.63921569
0.64313725 0.64313725 0.64313725
0.64460784 0.64460784 0.64460784
0.64705882 0.64705882 0.64705882
0.65343137 0.65343137 0.65343137
0.65980392 0.65980392 0.65980392
0.67009804 0.67009804 0.67009804
0.68235294 0.68235294 0.68235294
0.69411765 0.69411765 0.69411765
0.69803922 0.69803922 0.69803922
0.69803922 0.69803922 0.69803922
0.69803922 0.69803922 0.69803922
0.66470588 0.66470588 0.66470588
0.66133578 0.66133578 0.66133578
0.66017157 0.66017157 0.66017157
0.65686275 0.65686275 0.65686275
0.65441176 0.65441176 0.65441176
0.65294118 0.65294118 0.65294118
0.6504902 0.6504902 0.6504902
0.65441176 0.65441176 0.65441176
0.65833333 0.65833333 0.65833333
0.6622549 0.6622549 0.6622549
0.66617647 0.66617647 0.66617647
0.67009804 0.67009804 0.67009804
0.67328431 0.67328431 0.67328431
0.67432598 0.67432598 0.67432598
0.67977941 0.67977941 0.67977941
0.68278186 0.68278186 0.68278186
0.68578431 0.68578431 0.68578431
0.68915441 0.68915441 0.68915441
0.69460784 0.69460784 0.69460784
0.70343137 0.70343137 0.70343137
0.71519608 0.71519608 0.71519608
0.72126225 0.72126225 0.72126225
0.725 0.725 0.725
0.725 0.725 0.725
0.725 0.725 0.725
0.70098039 0.70098039 0.70098039
0.69914216 0.69914216 0.69914216
0.69632353 0.69632353 0.69632353
0.69313725 0.69313725 0.69313725
0.68970588 0.68970588 0.68970588
0.68615196 0.68615196 0.68615196
0.68529412 0.68529412 0.68529412
0.68566176 0.68566176 0.68566176
0.68921569 0.68921569 0.68921569
0.69313725 0.69313725 0.69313725
0.69705882 0.69705882 0.69705882
0.70098039 0.70098039 0.70098039
0.70490196 0.70490196 0.70490196
0.70882353 0.70882353 0.70882353
0.7127451 0.7127451 0.7127451
0.71703431 0.71703431 0.71703431
0.72156863 0.72156863 0.72156863
0.72732843 0.72732843 0.72732843
0.73014706 0.73014706 0.73014706
0.73590686 0.73590686 0.73590686
0.74607843 0.74607843 0.74607843
0.74840686 0.74840686 0.74840686
0.75098039 0.75098039 0.75098039
0.75098039 0.75098039 0.75098039
0.75098039 0.75098039 0.75098039
0.72794118 0.72794118 0.72794118
0.72794118 0.72794118 0.72794118
0.72794118 0.72794118 0.72794118
0.72751225 0.72751225 0.72751225
0.72401961 0.72401961 0.72401961
0.72009804 0.72009804 0.72009804
0.71960784 0.71960784 0.71960784
0.71979167 0.71979167 0.71979167
0.72352941 0.72352941 0.72352941
0.72616422 0.72616422 0.72616422
0.72879902 0.72879902 0.72879902
0.73186275 0.73186275 0.73186275
0.73578431 0.73578431 0.73578431
0.74019608 0.74019608 0.74019608
0.74620098 0.74620098 0.74620098
0.75116422 0.75116422 0.75116422
0.75539216 0.75539216 0.75539216
0.76145833 0.76145833 0.76145833
0.76421569 0.76421569 0.76421569
0.77015931 0.77015931 0.77015931
0.775 0.775 0.775
0.7754902 0.7754902 0.7754902
0.7754902 0.7754902 0.7754902
0.7754902 0.7754902 0.7754902
0.7754902 0.7754902 0.7754902
0.74901961 0.74901961 0.74901961
0.75294118 0.75294118 0.75294118
0.75735294 0.75735294 0.75735294
0.75882353 0.75882353 0.75882353
0.75882353 0.75882353 0.75882353
0.75661765 0.75661765 0.75661765
0.75343137 0.75343137 0.75343137
0.75294118 0.75294118 0.75294118
0.75490196 0.75490196 0.75490196
0.75882353 0.75882353 0.75882353
0.7627451 0.7627451 0.7627451
0.76642157 0.76642157 0.76642157
0.76960784 0.76960784 0.76960784
0.7745098 0.7745098 0.7745098
0.77745098 0.77745098 0.77745098
0.78235294 0.78235294 0.78235294
0.78627451 0.78627451 0.78627451
0.79142157 0.79142157 0.79142157
0.79509804 0.79509804 0.79509804
0.79803922 0.79803922 0.79803922
0.80098039 0.80098039 0.80098039
0.80196078 0.80196078 0.80196078
0.80196078 0.80196078 0.80196078
0.80196078 0.80196078 0.80196078
0.80196078 0.80196078 0.80196078
0.77352941 0.77352941 0.77352941
0.77616422 0.77616422 0.77616422
0.78235294 0.78235294 0.78235294
0.78878676 0.78878676 0.78878676
0.78970588 0.78970588 0.78970588
0.7901348 0.7901348 0.7901348
0.78970588 0.78970588 0.78970588
0.78756127 0.78756127 0.78756127
0.78970588 0.78970588 0.78970588
0.79362745 0.79362745 0.79362745
0.79754902 0.79754902 0.79754902
0.79797794 0.79797794 0.79797794
0.80147059 0.80147059 0.80147059
0.80496324 0.80496324 0.80496324
0.80796569 0.80796569 0.80796569
0.81292892 0.81292892 0.81292892
0.81666667 0.81666667 0.81666667
0.81930147 0.81930147 0.81930147
0.8245098 0.8245098 0.8245098
0.82800245 0.82800245 0.82800245
0.82843137 0.82843137 0.82843137
0.82843137 0.82843137 0.82843137
0.82843137 0.82843137 0.82843137
0.82843137 0.82843137 0.82843137
0.82843137 0.82843137 0.82843137
0.79705882 0.79705882 0.79705882
0.8004902 0.8004902 0.8004902
0.80661765 0.80661765 0.80661765
0.81323529 0.81323529 0.81323529
0.81911765 0.81911765 0.81911765
0.8245098 0.8245098 0.8245098
0.82377451 0.82377451 0.82377451
0.82352941 0.82352941 0.82352941
0.8245098 0.8245098 0.8245098
0.82806373 0.82806373 0.82806373
0.82843137 0.82843137 0.82843137
0.82928922 0.82928922 0.82928922
0.82941176 0.82941176 0.82941176
0.82941176 0.82941176 0.82941176
0.83308824 0.83308824 0.83308824
0.83835784 0.83835784 0.83835784
0.84117647 0.84117647 0.84117647
0.84693627 0.84693627 0.84693627
0.8497549 0.8497549 0.8497549
0.85281863 0.85281863 0.85281863
0.85588235 0.85588235 0.85588235
0.85588235 0.85588235 0.85588235
0.85367647 0.85367647 0.85367647
0.85294118 0.85294118 0.85294118
0.85294118 0.85294118 0.85294118
0.82009804 0.82009804 0.82009804
0.82254902 0.82254902 0.82254902
0.82745098 0.82745098 0.82745098
0.83382353 0.83382353 0.83382353
0.84019608 0.84019608 0.84019608
0.85018382 0.85018382 0.85018382
0.85502451 0.85502451 0.85502451
0.85686275 0.85686275 0.85686275
0.85931373 0.85931373 0.85931373
0.85931373 0.85931373 0.85931373
0.85784314 0.85784314 0.85784314
0.85441176 0.85441176 0.85441176
0.85122549 0.85122549 0.85122549
0.84871324 0.84871324 0.84871324
0.85355392 0.85355392 0.85355392
0.86084559 0.86084559 0.86084559
0.86568627 0.86568627 0.86568627
0.87052696 0.87052696 0.87052696
0.87561275 0.87561275 0.87561275
0.87892157 0.87892157 0.87892157
0.88137255 0.88137255 0.88137255
0.88106618 0.88106618 0.88106618
0.87745098 0.87745098 0.87745098
0.87745098 0.87745098 0.87745098
0.87745098 0.87745098 0.87745098
0.83529412 0.83529412 0.83529412
0.83921569 0.83921569 0.83921569
0.84313725 0.84313725 0.84313725
0.8504902 0.8504902 0.8504902
0.85686275 0.85686275 0.85686275
0.86715686 0.86715686 0.86715686
0.87745098 0.87745098 0.87745098
0.88382353 0.88382353 0.88382353
0.88235294 0.88235294 0.88235294
0.87990196 0.87990196 0.87990196
0.8745098 0.8745098 0.8745098
0.87058824 0.87058824 0.87058824
0.86470588 0.86470588 0.86470588
0.8627451 0.8627451 0.8627451
0.86960784 0.86960784 0.86960784
0.87598039 0.87598039 0.87598039
0.88235294 0.88235294 0.88235294
0.88872549 0.88872549 0.88872549
0.89509804 0.89509804 0.89509804
0.90539216 0.90539216 0.90539216
0.9 0.9 0.9
0.89754902 0.89754902 0.89754902
0.89411765 0.89411765 0.89411765
0.89264706 0.89264706 0.89264706
0.89019608 0.89019608 0.89019608
0.019607843 0.019607843 0.019607843
0.022058824 0.022058824 0.022058824
0.02745098 0.02745098 0.02745098
0.02745098 0.02745098 0.02745098
0.02745098 0.02745098 0.02745098
0.031862745 0.031862745 0.031862745
0.042156863 0.042156863 0.042156863
0.054901961 0.054901961 0.054901961
0.06127451 0.06127451 0.06127451
0.058272059 0.058272059 0.058272059
0.048529412 0.048529412 0.048529412
0.044117647 0.044117647 0.044117647
0.06127451 0.06127451 0.06127451
0.083946078 0.083946078 0.083946078
0.10686275 0.10686275 0.10686275
0.10735294 0.10735294 0.10735294
0.11764706 0.11764706 0.11764706
0.13915441 0.13915441 0.13915441
0.16703431 0.16703431 0.16703431
0.19117647 0.19117647 0.19117647
0.21176471 0.21176471 0.21176471
0.22824755 0.22824755 0.22824755
0.2439951 0.2439951 0.2439951
0.25735294 0.25735294 0.25735294
0.2622549 0.2622549 0.2622549
0.03627451 0.03627451 0.03627451
0.040196078 0.040196078 0.040196078
0.044117647 0.044117647 0.044117647
0.044117647 0.044117647 0.044117647
0.044117647 0.044117647 0.044117647
0.048529412 0.048529412 0.048529412
0.058823529 0.058823529 0.058823529
0.070036765 0.070036765 0.070036765
0.076470588 0.076470588 0.076470588
0.072832414 0.072832414 0.072832414
0.065808824 0.065808824 0.065808824
0.068443627 0.068443627 0.068443627
0.085539216 0.085539216 0.085539216
0.10501685 0.10501685 0.10501685
0.12377451 0.12377451 0.12377451
0.13039216 0.13039216 0.13039216
0.14068627 0.14068627 0.14068627
0.16070006 0.16070006 0.16070006
0.18615196 0.18615196 0.18615196
0.21158088 0.21158088 0.21158088
0.23161765 0.23161765 0.23161765
0.24823836 0.24823836 0.24823836
0.26444547 0.26444547 0.26444547
0.28186275 0.28186275 0.28186275
0.28676471 0.28676471 0.28676471
0.060784314 0.060784314 0.060784314
0.063235294 0.063235294 0.063235294
0.065318627 0.065318627 0.065318627
0.06729473 0.06729473 0.06729473
0.070526961 0.070526961 0.070526961
0.076593137 0.076593137 0.076593137
0.083578431 0.083578431 0.083578431
0.09252451 0.09252451 0.09252451
