site/assets/luts/sha256-49a6064e834cb7151e0472e2a185c339a1f67378faf5094b60ab6781b1523f54.cube
# LUTr-Schema-Version: 2
# LUTr-ID: sha256-49a6064e834cb7151e0472e2a185c339a1f67378faf5094b60ab6781b1523f54
# LUTr-Title: Tension 1 warm
# LUTr-Collection: ChristophWurst Hald
# LUTr-Collection-ID: christophwurst-haldclut
# LUTr-Source: https://github.com/ChristophWurst/haldclut
# LUTr-Retrieved: 2026-07-27
# LUTr-Source-File: submissions/christophwurst-haldclut/Tension 1 warm.tif
# LUTr-Source-Format: HALD-TIF
# LUTr-Source-SHA256: 49a6064e834cb7151e0472e2a185c339a1f67378faf5094b60ab6781b1523f54
# LUTr-License: CC-BY-SA-4.0
# LUTr-License-URL: https://github.com/ChristophWurst/haldclut/blob/master/LICENSE
# LUTr-License-Basis: repo-license-file
# LUTr-Transform-Class: creative-look
# LUTr-Tags: creative, hald-clut, rawtherapee, tif, warm, cube
# LUTr-Input-Color-Space: srgb
# LUTr-Input-Gamut: rec709
# LUTr-Input-Transfer: srgb
# LUTr-Output-Color-Space: srgb
# LUTr-Output-Gamut: rec709
# LUTr-Output-Transfer: srgb
# LUTr-Color-Space-Confidence: assumed-display-referred
# LUTr-Domain-Normalized: true
# LUTr-Shaper: none
# LUTr-Original-Grid: 144x144x144
# LUTr-Conversion-Grid: 25x25x25
# LUTr-Conversion-Interpolation: trilinear
# LUTr-Conversion-Method: HALD-TIF LUT image decoded at 16-bit and sampled to 25x25x25 3D CUBE
# LUTr-Conversion-Tool: LUTr scripts/convert-all-to-cube.mjs 2.0.0
# LUTr-Conversion-Date: 2026-07-27
# LUTr-Note: Preserve this metadata and the upstream license notices when redistributing.
TITLE "Tension 1 warm"
LUT_3D_SIZE 5
DOMAIN_MIN 0 0 0
DOMAIN_MAX 1 1 1
0 0 0
0.16211948 0 0
0.58398566 0.000015259022 0
0.96293584 0.000095368887 0
0.99615473 0.00010681315 0
0 0.16995117 0.000072480354
0.1854715 0.17679866 0.000011444266
0.61517891 0.12852674 0
0.96288529 0.11435111 0
0.99601358 0.25790799 0
0 0.58407721 0.00028992142
0.0085717556 0.58408293 0.00022125582
0.6286183 0.58411917 0
0.93529793 0.59244678 0
0.99577325 0.61738766 0
0.016487373 0.85659571 0.00042725261
0.36607538 0.85269512 0.00018120089
0.67640002 0.84491684 0.000053406577
0.9185874 0.84105535 0
0.99570459 0.84201572 0
0.55428397 0.99632258 0.011978332
0.62361334 0.99632258 0.030437934
0.77109941 0.98846418 0.078202487
0.93028916 0.98459983 0.13381781
0.99577325 0.98066682 0.17964446
0.000068665599 0 0.13575189
0.17292668 0.0000057221332 0.13857004
0.59920081 0.000024795911 0.13838216
0.96684119 0.000056267643 0.13041505
0.99613565 0.000034332799 0.10982681
0.0000028610666 0.17286755 0.14267567
0.20112416 0.1770366 0.14259985
0.62696078 0.12601663 0.1341001
0.96681282 0.11823072 0.10677548
0.99606603 0.26183242 0.069739452
0 0.58408103 0.027639811
0.0974341 0.58409819 0.01967174
0.63646906 0.58412299 0
0.93527504 0.59391737 0
0.99577325 0.61738766 0
0.069913024 0.85657664 0.050406271
0.37073415 0.85270681 0.05549444
0.67641337 0.84491207 0.07593986
0.91471661 0.84102317 0.11346466
0.99580663 0.84201286 0.1524815
0.55047684 0.99622721 0.30675593
0.6158999 0.99624437 0.31070706
0.76723697 0.98844892 0.3184081
0.92645628 0.98454452 0.33786908
0.9958381 0.98064775 0.35445945
0.00022888533 0 0.48436713
0.055394064 0 0.48625353
0.61351568 0 0.4899443
0.96310559 0 0.49756809
0.99629206 0 0.50143435
0.00014305333 0.17375257 0.49422446
0.15528058 0.17340209 0.496108
0.63882086 0.11179808 0.49779507
0.95915398 0.12976225 0.4999423
0.99617189 0.27203593 0.50157359
0.0000038147555 0.58399329 0.50028229
0.12006847 0.58398947 0.50020409
0.63519493 0.58403716 0.49994659
0.92381075 0.59407568 0.50275139
0.99600977 0.62119097 0.50762188
0.079869535 0.85259022 0.52039559
0.36702144 0.84970006 0.52059157
0.66487659 0.84483101 0.52347314
0.89924754 0.840939 0.52974222
0.99596017 0.84189364 0.53602655
0.53495079 0.99619287 0.57831693
0.60278859 0.99325933 0.5797303
0.75174334 0.98839933 0.58211261
0.90896849 0.98449874 0.5883917
0.99588006 0.98057527 0.59567407
0.00031280995 0 0.78221561
0.00031567102 0 0.78295663
0.63122377 0 0.78291562
0.95445945 0 0.78270008
0.99645228 0 0.78272679
0.00025940337 0.1727369 0.78325227
0.15772965 0.15764787 0.78320888
0.6507167 0.092214084 0.78291609
0.94675507 0.151946 0.78182507
0.99629015 0.29097906 0.77892729
0.000080109865 0.58393416 0.77862974
0.21695897 0.58394369 0.7784514
0.64069581 0.5839704 0.77535763
0.90937047 0.59770018 0.77423228
0.99615282 0.62503624 0.7742504
0.1940013 0.84961566 0.77172599
0.3937345 0.8486305 0.77170143
0.66071899 0.8418555 0.77225814
0.88081822 0.84088178 0.77438773
0.99602789 0.84478904 0.77427806
0.53891432 0.99223697 0.78630503
0.60045396 0.99224651 0.78628691
0.74008164 0.98835927 0.78619059
0.89151694 0.98444438 0.79004063
0.9959678 0.98055238 0.78995575
0.00044251164 0 0.95317006
0.32170977 0 0.95299077
0.69570459 0 0.95278859
0.9623331 0 0.95260166
0.99649042 0 0.9487602
0.059933623 0.14827573 0.95317769
0.38023289 0.12488365 0.95294594
0.70350195 0.08486305 0.95280575
0.95077726 0.19133383 0.94881933
0.99633021 0.32127108 0.94499123
0.175906 0.58391699 0.94162661
0.39657816 0.58393416 0.94145113
0.68373388 0.58591592 0.94132143
0.91128977 0.60543984 0.93728542
0.99626154 0.63281453 0.93340963
0.36423285 0.84565499 0.92987716
0.47657645 0.84473278 0.9298352
0.68752193 0.84085412 0.92973983
0.87986763 0.8408608 0.92570382
0.99607462 0.84475853 0.92563134
0.57415122 0.99226368 0.92593271
0.62395285 0.98834592 0.92589456
0.74798199 0.98444343 0.92583352
0.88769741 0.9805333 0.92581827
0.98818952 0.98057527 0.9257496
