site/assets/luts/sha256-bf6187f15c6d420c58514794827036308eee56842fdad838671a14abe54b41c1.cube
# LUTr-Schema-Version: 2
# LUTr-ID: sha256-bf6187f15c6d420c58514794827036308eee56842fdad838671a14abe54b41c1
# LUTr-Title: polaroid 690 ++
# LUTr-Collection: Natron HaldCLUT
# LUTr-Collection-ID: natron-haldclut-presets
# LUTr-Source: https://github.com/NatronGitHub/clut
# LUTr-Retrieved: 2026-07-27
# LUTr-Source-File: submissions/natron-haldclut-presets/instant_pro/polaroid_690_++.png
# LUTr-Source-Format: HALD-PNG
# LUTr-Source-SHA256: bf6187f15c6d420c58514794827036308eee56842fdad838671a14abe54b41c1
# LUTr-License: CC-BY-SA-4.0
# LUTr-License-URL: https://github.com/NatronGitHub/clut#license
# LUTr-License-Basis: repo-license-file
# LUTr-Transform-Class: film-emulation
# LUTr-Tags: creative, film, film-emulation, hald-clut, natron, png, cube
# LUTr-Input-Color-Space: srgb
# LUTr-Input-Gamut: rec709
# LUTr-Input-Transfer: srgb
# LUTr-Output-Color-Space: srgb
# LUTr-Output-Gamut: rec709
# LUTr-Output-Transfer: srgb
# LUTr-Color-Space-Confidence: assumed-display-referred
# LUTr-Domain-Normalized: true
# LUTr-Shaper: none
# LUTr-Original-Grid: 64x64x64
# LUTr-Conversion-Grid: 25x25x25
# LUTr-Conversion-Interpolation: trilinear
# LUTr-Conversion-Method: HALD-PNG LUT image decoded at 16-bit and sampled to 25x25x25 3D CUBE
# LUTr-Conversion-Tool: LUTr scripts/convert-all-to-cube.mjs 2.0.0
# LUTr-Conversion-Date: 2026-07-27
# LUTr-Note: Preserve this metadata and the upstream license notices when redistributing.
TITLE "polaroid 690 ++"
LUT_3D_SIZE 5
DOMAIN_MIN 0 0 0
DOMAIN_MAX 1 1 1
0.32156863 0.26666667 0.22352941
0.36764706 0.26666667 0.23137255
0.52745098 0.25098039 0.2254902
0.77647059 0.20196078 0.22352941
1 0.14117647 0.20784314
0.33333333 0.32254902 0.22745098
0.38627451 0.32745098 0.22745098
0.59117647 0.34215686 0.22352941
0.84044118 0.32916667 0.21176471
0.97647059 0.31764706 0.20098039
0.34509804 0.50196078 0.21176471
0.41323529 0.49901961 0.20980392
0.61960784 0.5372549 0.19019608
0.89019608 0.59068627 0.16666667
0.99607843 0.60392157 0.22745098
0.40098039 0.72156863 0.18431373
0.46691176 0.71372549 0.18112745
0.63676471 0.72647059 0.15490196
0.87034314 0.76053922 0.14019608
0.99509804 0.77843137 0.16764706
0.62745098 0.92941176 0.32941176
0.65392157 0.91470588 0.31470588
0.76470588 0.91764706 0.29607843
0.90098039 0.93431373 0.31960784
0.98823529 0.94901961 0.35686275
0.32941176 0.27058824 0.28921569
0.38333333 0.27230392 0.29901961
0.53333333 0.25196078 0.29068627
0.74828431 0.17769608 0.28431373
0.98529412 0.0039215686 0.26078431
0.33161765 0.33455882 0.30196078
0.4033701 0.33529412 0.31470588
0.59301471 0.32144608 0.30294118
0.81807598 0.26740196 0.28259804
0.99607843 0.2129902 0.25686275
0.34117647 0.53823529 0.31470588
0.41556373 0.52303922 0.30698529
0.62622549 0.55294118 0.30098039
0.88982843 0.57647059 0.30502451
1 0.57647059 0.32843137
0.39191176 0.74019608 0.29803922
0.46372549 0.7286152 0.28431373
0.63737745 0.73382353 0.27144608
0.87745098 0.76666667 0.28406863
0.99583333 0.7745098 0.31862745
0.61078431 0.92843137 0.42058824
0.64828431 0.9245098 0.40563725
0.75686275 0.91911765 0.38186275
0.88921569 0.91838235 0.39019608
0.99607843 0.95980392 0.46666667
0.31764706 0.27254902 0.52745098
0.40735294 0.26519608 0.54607843
0.62941176 0.24215686 0.60588235
0.80196078 0.21715686 0.51960784
0.98431373 0.019607843 0.50196078
0.30980392 0.33235294 0.52745098
0.40772059 0.34313725 0.55563725
0.64117647 0.34411765 0.61372549
0.81973039 0.30208333 0.52916667
0.99117647 0.12254902 0.48039216
0.34509804 0.54705882 0.57352941
0.43063725 0.55661765 0.58186275
0.64558824 0.58137255 0.60245098
0.8629902 0.51936275 0.55416667
0.99607843 0.43039216 0.4754902
0.40882353 0.77107843 0.59362745
0.47536765 0.76727941 0.57990196
0.6377451 0.75637255 0.54436275
0.86862745 0.77340686 0.56507353
0.99607843 0.79068627 0.64411765
0.60196078 0.93529412 0.64705882
0.625 0.92156863 0.62598039
0.71960784 0.90490196 0.58333333
0.8745098 0.93333333 0.60490196
0.98039216 0.93333333 0.63921569
0.34215686 0.27058824 0.83137255
0.43823529 0.26838235 0.83406863
0.6754902 0.26421569 0.86372549
0.90490196 0.2745098 0.86470588
0.99313725 0.25294118 0.82156863
0.32745098 0.34803922 0.82254902
0.42647059 0.35196078 0.82965686
0.6745098 0.37009804 0.86752451
0.90588235 0.40857843 0.86642157
0.98357843 0.37426471 0.81053922
0.26519608 0.51519608 0.78578431
0.38480392 0.52928922 0.79411765
0.63946078 0.56911765 0.84191176
0.89227941 0.63370098 0.86678922
0.99607843 0.53921569 0.79313725
0.4745098 0.76691176 0.82745098
0.53449755 0.76746324 0.83431373
0.68541667 0.76666667 0.83578431
0.87665441 0.79491422 0.853125
0.99117647 0.72328431 0.79289216
0.7 0.93333333 0.85686275
0.71568627 0.92941176 0.84901961
0.77941176 0.93088235 0.84509804
0.85759804 0.9379902 0.83357843
0.95196078 0.96372549 0.84803922
0.56078431 0.35686275 0.96862745
0.61078431 0.35686275 0.96176471
0.75490196 0.36470588 0.95686275
0.92352941 0.46862745 0.96078431
0.99607843 0.54117647 0.95294118
0.55686275 0.44901961 0.96078431
0.62132353 0.44583333 0.96151961
0.76078431 0.4745098 0.96078431
0.92352941 0.55514706 0.95367647
0.98921569 0.58235294 0.94509804
0.53333333 0.60392157 0.94901961
0.58970588 0.61078431 0.94901961
0.75490196 0.63921569 0.94901961
0.91568627 0.69019608 0.94264706
0.99411765 0.72352941 0.94117647
0.57352941 0.77843137 0.94019608
0.57279412 0.76470588 0.93259804
0.7127451 0.76372549 0.93676471
0.9 0.80392157 0.93406863
0.98039216 0.85686275 0.93333333
0.74901961 0.91372549 0.9254902
0.7872549 0.93627451 0.9254902
0.84509804 0.95098039 0.9254902
0.89901961 0.95294118 0.91764706
0.9372549 0.96862745 0.92156863
