site/assets/luts/sha256-da515d4d54478001c23c9a8e989838a75c4f6c50f1eb468832902736d1d3ccdc.cube
# LUTr-Schema-Version: 2
# LUTr-ID: sha256-da515d4d54478001c23c9a8e989838a75c4f6c50f1eb468832902736d1d3ccdc
# LUTr-Title: polaroid px-100uv+ warm
# LUTr-Collection: Natron HaldCLUT
# LUTr-Collection-ID: natron-haldclut-presets
# LUTr-Source: https://github.com/NatronGitHub/clut
# LUTr-Retrieved: 2026-07-27
# LUTr-Source-File: submissions/natron-haldclut-presets/instant_consumer/polaroid_px-100uv+_warm.png
# LUTr-Source-Format: HALD-PNG
# LUTr-Source-SHA256: da515d4d54478001c23c9a8e989838a75c4f6c50f1eb468832902736d1d3ccdc
# LUTr-License: CC-BY-SA-4.0
# LUTr-License-URL: https://github.com/NatronGitHub/clut#license
# LUTr-License-Basis: repo-license-file
# LUTr-Transform-Class: film-emulation
# LUTr-Tags: creative, film, film-emulation, hald-clut, natron, png, warm, cube
# LUTr-Input-Color-Space: srgb
# LUTr-Input-Gamut: rec709
# LUTr-Input-Transfer: srgb
# LUTr-Output-Color-Space: srgb
# LUTr-Output-Gamut: rec709
# LUTr-Output-Transfer: srgb
# LUTr-Color-Space-Confidence: assumed-display-referred
# LUTr-Domain-Normalized: true
# LUTr-Shaper: none
# LUTr-Original-Grid: 64x64x64
# LUTr-Conversion-Grid: 25x25x25
# LUTr-Conversion-Interpolation: trilinear
# LUTr-Conversion-Method: HALD-PNG LUT image decoded at 16-bit and sampled to 25x25x25 3D CUBE
# LUTr-Conversion-Tool: LUTr scripts/convert-all-to-cube.mjs 2.0.0
# LUTr-Conversion-Date: 2026-07-27
# LUTr-Note: Preserve this metadata and the upstream license notices when redistributing.
TITLE "polaroid px-100uv+ warm"
LUT_3D_SIZE 9
DOMAIN_MIN 0 0 0
DOMAIN_MAX 1 1 1
0.29019608 0.27058824 0.2745098
0.29411765 0.27794118 0.27794118
0.30980392 0.29411765 0.29705882
0.33186275 0.31862745 0.32254902
0.39607843 0.38431373 0.38823529
0.45637255 0.44607843 0.45
0.51568627 0.50392157 0.50686275
0.57745098 0.56568627 0.56176471
0.63529412 0.61960784 0.61176471
0.28627451 0.26666667 0.26666667
0.28976716 0.27015931 0.27101716
0.31237745 0.2939951 0.29705882
0.33382353 0.31844363 0.32205882
0.39607843 0.38431373 0.38823529
0.45637255 0.44607843 0.45
0.51482843 0.50392157 0.50428922
0.57745098 0.56525735 0.56176471
0.63578431 0.62009804 0.6122549
0.31666667 0.3 0.3
0.31960784 0.3 0.30392157
0.32745098 0.30882353 0.3125
0.37009804 0.35686275 0.36017157
0.40882353 0.39705882 0.40098039
0.45637255 0.44607843 0.45
0.51176471 0.5 0.50318627
0.57009804 0.55784314 0.55784314
0.63823529 0.62254902 0.61176471
0.36960784 0.35784314 0.35784314
0.36960784 0.35392157 0.35784314
0.37855392 0.36176471 0.36568627
0.40490196 0.38921569 0.39313725
0.43333333 0.42401961 0.42794118
0.46905637 0.46121324 0.46329657
0.51752451 0.50747549 0.50931373
0.57401961 0.56047794 0.55833333
0.65245098 0.63529412 0.62352941
0.42352941 0.41372549 0.41568627
0.42745098 0.41568627 0.41960784
0.43529412 0.42352941 0.425
0.44828431 0.43651961 0.43848039
0.4627451 0.45294118 0.45588235
0.49117647 0.48333333 0.48578431
0.54117647 0.53088235 0.52941176
0.59509804 0.58112745 0.5752451
0.65098039 0.63137255 0.61960784
0.48823529 0.47892157 0.48137255
0.48676471 0.47745098 0.47745098
0.48921569 0.47745098 0.47745098
0.50343137 0.49166667 0.49313725
0.51593137 0.50490196 0.50490196
0.5377451 0.52598039 0.52542892
0.57928922 0.56531863 0.56139706
0.62352941 0.60784314 0.5995098
0.67598039 0.65392157 0.64068627
0.58235294 0.56666667 0.55980392
0.57156863 0.55588235 0.55196078
0.55759804 0.54509804 0.54117647
0.56764706 0.55379902 0.55098039
0.57058824 0.55882353 0.55490196
0.6004902 0.58480392 0.57990196
0.63602941 0.61887255 0.61078431
0.68529412 0.6682598 0.65257353
0.73137255 0.70784314 0.68823529
0.68039216 0.66029412 0.64460784
0.67996324 0.66029412 0.64460784
0.67254902 0.65294118 0.63811275
0.66832108 0.65245098 0.63676471
0.67622549 0.65857843 0.64460784
0.69705882 0.67745098 0.66176471
0.71911765 0.69914216 0.6807598
0.75839461 0.73878676 0.71525735
0.78529412 0.76176471 0.73823529
0.77647059 0.75294118 0.72941176
0.78039216 0.75686275 0.72941176
0.76960784 0.74607843 0.72254902
0.75931373 0.7372549 0.71372549
0.77843137 0.75686275 0.73137255
0.78823529 0.76470588 0.74117647
0.8 0.77745098 0.75
0.83578431 0.8122549 0.78088235
0.84313725 0.81960784 0.78823529
0.29754902 0.27794118 0.27843137
0.29803922 0.28229167 0.28235294
0.3127451 0.29705882 0.29963235
0.36127451 0.34558824 0.3495098
0.41127451 0.3995098 0.40343137
0.45765931 0.44981618 0.45343137
0.51568627 0.50735294 0.50784314
0.58180147 0.56960784 0.565625
0.63921569 0.62352941 0.61519608
0.29019608 0.27058824 0.2745098
0.30887714 0.29270833 0.29356618
0.33137255 0.31568627 0.3162837
0.36488971 0.35095741 0.35471814
0.41127451 0.3995098 0.40343137
0.45998775 0.44981618 0.45373775
0.51568627 0.50735294 0.50784314
0.58529412 0.57303922 0.56606158
0.63964461 0.62395833 0.6122549
0.33872549 0.32303922 0.32696078
0.34275429 0.32781863 0.33051471
0.35441176 0.34034926 0.34264706
0.38578431 0.37562806 0.37745098
0.42009804 0.40906863 0.41231618
0.45998775 0.45214461 0.45606618
0.51568627 0.50735294 0.50772059
0.57864583 0.5657935 0.56176471
0.64313725 0.62647059 0.61568627
0.39264706 0.37843137 0.38088235
0.39264706 0.37827053 0.38088235
0.39995404 0.38783701 0.38872549
0.42021293 0.4108992 0.4122549
0.44990809 0.43939951 0.44313725
0.47801011 0.47009804 0.47267923
0.52334559 0.51332721 0.51510417
0.58180147 0.56933977 0.56584712
0.65490196 0.63658088 0.625
0.44289216 0.43308824 0.43504902
0.44656863 0.43480392 0.43851103
0.4504902 0.43872549 0.43897059
0.46176471 0.45171569 0.45196078
0.47818627 0.46838235 0.47034314
0.50539216 0.49705882 0.49739583
0.54889706 0.53719363 0.53670343
0.60637255 0.59117647 0.58333333
0.65784314 0.63823529 0.62622549
0.50833333 0.49675245 0.49675245
0.50618873 0.49656863 0.49656863
0.50441176 0.49295343 0.49299939
0.50435049 0.49547335 0.49627757
0.52166054 0.51176471 0.51176471
0.54547335 0.532644 0.53204657
0.59077819 0.57585784 0.57140012
0.64136029 0.62334559 0.61345741
0.69136029 0.66942402 0.65214461
0.58198529 0.56629902 0.5622549
0.57928922 0.56360294 0.55882353
0.57604167 0.56323529 0.55845588
0.5779565 0.5658701 0.56141238
0.59172794 0.57714461 0.5721201
0.61568627 0.59967831 0.59206495
0.64730392 0.6299326 0.61862745
0.69701287 0.67738971 0.66116728
0.73909314 0.7182598 0.69595588
0.67647059 0.65637255 0.64117647
0.67647059 0.65686275 0.64460784
0.68033088 0.66073836 0.64578738
0.67624847 0.6587163 0.64458487
0.68624387 0.66813725 0.65245098
0.70751379 0.68747702 0.6714614
0.72745098 0.70516238 0.68780637
0.76972273 0.74662224 0.72309283
0.78921569 0.76868873 0.74215686
0.7877451 0.76470588 0.7372549
0.77647059 0.75294118 0.72941176
0.77254902 0.74901961 0.7254902
0.76176471 0.73841912 0.71488971
0.78406863 0.76078431 0.73504902
0.79001225 0.76862745 0.74117647
0.80490196 0.78137255 0.75392157
0.83627451 0.8127451 0.78480392
0.84313725 0.81960784 0.78823529
0.32058824 0.30490196 0.30490196
0.33088235 0.31519608 0.31519608
0.35171569 0.33823529 0.33823529
0.39215686 0.37794118 0.38039216
0.44019608 0.42843137 0.43235294
0.48676471 0.47647059 0.47928922
0.53823529 0.52720588 0.52647059
0.6 0.58431373 0.57732843
0.65490196 0.63823529 0.62647059
0.34656863 0.33088235 0.33088235
0.34776348 0.33491115 0.33566176
0.36326593 0.35150123 0.35343137
0.40121017 0.38921569 0.39131434
0.44344363 0.43167892 0.43431373
0.48823529 0.47892157 0.48039216
0.54215686 0.53039216 0.52965686
0.60784314 0.59215686 0.58431373
0.65796569 0.64215686 0.63039216
0.37745098 0.36568627 0.36862745
0.37745098 0.36568627 0.36666667
0.37843137 0.37052696 0.37058824
0.41286765 0.40413603 0.40502451
0.45183824 0.44276961 0.4439951
0.49068627 0.48039216 0.48284314
0.54607843 0.53431373 0.53039216
0.60811887 0.59252451 0.58697917
0.66862745 0.64901961 0.6372549
0.41715686 0.40539216 0.40784314
0.41960784 0.40784314 0.41145833
0.42463235 0.41568627 0.41568627
0.44065564 0.43160233 0.43267463
0.47083333 0.4622549 0.46433824
0.50706189 0.49705882 0.49852941
0.54745711 0.53615196 0.53615196
0.61207108 0.59656863 0.59119179
0.67745098 0.65784314 0.6439951
0.46960784 0.45980392 0.46176471
0.47199755 0.46176471 0.46354167
0.47696078 0.46715686 0.46715686
0.48455882 0.47671569 0.47579657
0.50220588 0.49313725 0.49313725
0.53186275 0.52009804 0.52009804
0.56666667 0.55490196 0.55343137
0.6254902 0.60980392 0.60196078
0.69509804 0.6754902 0.65833333
0.5317402 0.52352941 0.52058824
0.52953431 0.51997549 0.51960784
0.52745098 0.51960784 0.51878064
0.53123468 0.52274816 0.52205882
0.54901961 0.5372549 0.53529412
0.57182904 0.55637255 0.55428922
0.61194853 0.59617034 0.58979779
0.65824142 0.64031863 0.62855392
0.70294118 0.68235294 0.66372549
0.60588235 0.59240196 0.58529412
0.60588235 0.59313725 0.58529412
0.60122549 0.58645833 0.58137255
0.59678309 0.58137255 0.57745098
0.61568627 0.59987745 0.59313725
0.63835784 0.61930147 0.61029412
0.67279412 0.65294118 0.64117647
0.71553309 0.69558824 0.67889093
0.74387255 0.72254902 0.7
0.69080882 0.67107843 0.65539216
0.69068627 0.67107843 0.65539216
0.68848039 0.6708027 0.65511642
0.68373162 0.66619179 0.65147059
0.70447304 0.68333333 0.66746324
0.72008272 0.69862132 0.67982537
0.74227941 0.71875 0.69935662
0.77401961 0.75359988 0.72996324
0.79264706 0.76960784 0.74215686
0.78823529 0.76862745 0.74117647
0.78333333 0.75992647 0.73370098
0.77083333 0.74803922 0.7245098
0.78333333 0.75980392 0.73517157
0.78872549 0.76519608 0.73921569
0.78529412 0.76176471 0.73762255
0.81495098 0.79142157 0.76397059
0.82794118 0.80441176 0.77659314
0.83921569 0.81568627 0.78823529
0.39705882 0.3877451 0.39166667
0.39705882 0.38511029 0.38529412
0.41568627 0.40098039 0.40281863
0.44264706 0.42996324 0.43088235
0.475 0.4625 0.46642157
0.51911765 0.50643382 0.50735294
0.56911765 0.55453431 0.55061275
0.63088235 0.61519608 0.60343137
0.68480392 0.66519608 0.6495098
0.40196078 0.39264706 0.39656863
0.41070006 0.40075827 0.40285692
0.42339154 0.41262255 0.41262255
0.44656863 0.43609069 0.43841912
0.47490809 0.46314338 0.46706495
0.52303922 0.51127451 0.51115962
0.57696078 0.56384804 0.55735294
0.63872549 0.62303922 0.61094516
0.69607843 0.67647059 0.65735294
0.42745098 0.41715686 0.42107843
0.42357537 0.41384804 0.41605392
0.43455882 0.42426471 0.42671569
0.45943627 0.4495098 0.44987745
0.49252451 0.4807598 0.48247549
0.52696078 0.51482843 0.51703431
0.58088235 0.56519608 0.56127451
0.64656863 0.62954963 0.61519608
0.70833333 0.68835784 0.66911765
0.45588235 0.44411765 0.4471201
0.45533088 0.44404871 0.44748775
0.46271446 0.45297181 0.45418199
0.48039216 0.47159161 0.47159161
0.50974265 0.50006127 0.50098039
0.54397212 0.53241422 0.53220741
0.58595282 0.57225797 0.56875
0.6504902 0.63333333 0.62237286
0.6995098 0.67990196 0.66029412
0.50171569 0.49264706 0.49264706
0.50441176 0.49451593 0.49632353
0.51176471 0.50140931 0.50196078
0.5198223 0.51001838 0.51001838
0.52953431 0.52132353 0.52132353
0.56911765 0.55762868 0.55490196
0.60931373 0.5942402 0.58970588
0.66749387 0.6486826 0.63676471
0.72401961 0.70441176 0.68480392
0.55833333 0.5471201 0.54319853
0.55840227 0.54723499 0.54331342
0.55833333 0.54748775 0.54564951
0.56989124 0.55778186 0.55386029
0.58504902 0.57159926 0.56663603
0.60539216 0.58970588 0.58333333
0.64803922 0.62918199 0.62058824
0.68547794 0.6658701 0.65177696
0.70931373 0.68817402 0.67156863
0.63970588 0.62401961 0.6122549
0.63713235 0.62144608 0.6122549
0.63210784 0.61617647 0.60520833
0.63270527 0.61617647 0.60833333
0.64466912 0.62794118 0.61617647
0.66401654 0.64417892 0.63126532
0.69978554 0.67916667 0.66375613
0.72950368 0.70678615 0.6899663
0.74411765 0.72389706 0.70245098
0.7254902 0.70588235 0.68596814
0.72199755 0.70212163 0.68390778
0.71764706 0.69803922 0.67875306
0.71372549 0.69374234 0.67579657
0.72132353 0.6986826 0.68195466
0.7346201 0.71009498 0.69209559
0.75651042 0.72990196 0.71021752
0.780553 0.75833333 0.73478094
0.7995098 0.77598039 0.75214461
0.80637255 0.78284314 0.75686275
0.80422794 0.78069853 0.75557598
0.80245098 0.77610294 0.75147059
0.79460784 0.77107843 0.74454657
0.78823529 0.76470588 0.74044118
0.809375 0.78676471 0.75686275
0.82598039 0.80245098 0.77254902
0.83560049 0.81421569 0.78431373
0.8495098 0.82745098 0.79607843
0.46862745 0.45882353 0.4627451
0.47254902 0.4627451 0.4627451
0.48186275 0.47009804 0.47009804
0.50833333 0.49534314 0.49656863
0.53039216 0.51764706 0.51666667
0.54656863 0.53357843 0.53284314
0.59607843 0.58039216 0.5754902
0.66176471 0.64215686 0.63014706
0.71960784 0.69607843 0.67647059
0.47426471 0.46446078 0.46642157
0.47797181 0.46666667 0.46816789
0.48921569 0.4778799 0.47830882
0.5122549 0.5004902 0.5004902
0.5372549 0.52352941 0.52254902
0.55245098 0.54068627 0.54068627
0.60784314 0.59215686 0.58688725
0.67003676 0.65343137 0.63795956
0.72916667 0.70563725 0.68431373
0.48235294 0.47205882 0.4745098
0.48578431 0.47444853 0.47726716
0.49742647 0.48602941 0.48848039
0.52064951 0.50833333 0.50833333
0.53578431 0.52401961 0.52401961
0.5557598 0.5439951 0.54430147
0.6192402 0.60330882 0.59583333
0.6848652 0.66476716 0.64797794
0.74509804 0.72303922 0.69803922
0.49656863 0.48480392 0.48872549
0.50033701 0.4885723 0.49249387
0.51335784 0.50159314 0.50410539
0.53823529 0.52647059 0.52401961
0.56127451 0.5495098 0.54595588
0.59123775 0.57693015 0.57254902
0.63498775 0.61783088 0.60857843
0.69313725 0.67352941 0.65765931
0.74705882 0.72622549 0.70147059
0.53921569 0.52647059 0.5254902
0.5372549 0.5254902 0.5254902
0.54411765 0.53235294 0.53235294
0.56519608 0.55220588 0.54828431
0.58823529 0.57647059 0.57058824
0.61752451 0.60245098 0.5942402
0.65539216 0.6377451 0.62647059
0.70490196 0.68419118 0.66568627
0.75294118 0.73137255 0.70686275
0.58651961 0.57352941 0.56691176
0.5859375 0.57352941 0.56936275
0.58921569 0.57714461 0.57052696
0.60490196 0.59120711 0.58290441
0.62144608 0.6057598 0.59656863
0.64607843 0.62843137 0.61666667
0.68284314 0.66305147 0.64754902
0.71421569 0.69298407 0.67417279
0.76862745 0.74509804 0.71960784
0.66323529 0.64558824 0.63186275
0.66648284 0.64754902 0.63529412
0.66727941 0.64705882 0.63529412
0.6713848 0.65159314 0.63921569
0.67867647 0.65906863 0.64509804
0.68805147 0.66813725 0.65245098
0.72610294 0.70330882 0.68370098
0.75637255 0.73284314 0.70974265
0.79509804 0.77156863 0.74411765
0.74436275 0.7247549 0.70318627
0.74782475 0.7247549 0.70490196
0.74828431 0.7247549 0.70490196
0.74427083 0.72303922 0.70098039
0.75588235 0.73259804 0.71102941
0.76390931 0.74028799 0.71829044
0.78039216 0.75686275 0.73333333
0.80119485 0.77766544 0.75196078
0.82990196 0.80637255 0.77892157
0.81764706 0.79411765 0.76666667
0.81568627 0.79044118 0.7629902
0.8122549 0.78529412 0.75980392
0.80245098 0.77892157 0.75343137
0.82058824 0.79705882 0.76666667
0.83137255 0.80857843 0.77720588
0.84411765 0.82058824 0.78921569
0.85098039 0.82769608 0.79632353
0.87647059 0.85294118 0.82156863
0.54166667 0.52990196 0.53235294
0.5495098 0.5377451 0.53627451
0.55735294 0.54558824 0.54166667
0.57849265 0.56464461 0.55980392
0.59583333 0.58088235 0.5754902
0.60441176 0.59172794 0.58480392
0.63627451 0.62058824 0.61176471
0.69264706 0.67303922 0.65735294
0.74264706 0.71911765 0.6995098
0.55165441 0.5377451 0.53756127
0.55729167 0.54520527 0.54164369
0.56776961 0.55343137 0.54946385
0.58694853 0.57156863 0.56598499
0.60352328 0.58863358 0.58210784
0.6158701 0.60117953 0.59356618
0.64234069 0.62575061 0.61453738
0.69656863 0.67696078 0.66105239
0.7504902 0.72696078 0.70557598
0.56127451 0.54803922 0.54522059
0.56776961 0.55338542 0.55111826
0.57916667 0.56495098 0.56047794
0.598269 0.58310355 0.57443321
0.61176471 0.59748775 0.58946078
0.62340686 0.60810355 0.60094975
0.65297181 0.63382353 0.62362132
0.70856311 0.6877451 0.66907169
0.76911765 0.74448529 0.71911765
0.57064951 0.55680147 0.55196078
0.57696078 0.56261489 0.55968903
0.59204963 0.57797181 0.57202819
0.61266085 0.59731924 0.5884421
0.63039216 0.61470588 0.60416667
0.6533701 0.63642004 0.625
0.68333333 0.66372549 0.64803922
0.73039216 0.70912224 0.68805913
0.78186275 0.75833333 0.73088235
0.59509804 0.57867647 0.57352941
0.59191176 0.57809436 0.57328431
0.60710784 0.59307598 0.58553922
0.63088235 0.61519608 0.60416667
0.64705882 0.6307598 0.6192402
0.67034314 0.65269608 0.63851103
0.70367647 0.68302696 0.6653799
0.74427083 0.72352941 0.70009191
0.78578431 0.7622549 0.73480392
0.62009804 0.60594363 0.59601716
0.62248775 0.60833333 0.60037531
0.62755821 0.61187194 0.60343137
0.65279565 0.63488817 0.6227788
0.67303922 0.65511642 0.64047181
0.69573376 0.67591912 0.65988817
0.72156863 0.6995098 0.68143382
0.75363051 0.73203891 0.7085095
0.79754902 0.77493873 0.74656863
0.68676471 0.66715686 0.65330882
0.68970588 0.6689951 0.65441176
0.6942402 0.67291667 0.6580576
0.69954044 0.6799326 0.66378676
0.71593137 0.69632353 0.67794118
0.73287377 0.71165748 0.69204963
0.75802696 0.73676471 0.71323529
0.78377757 0.76211703 0.73627451
0.81421569 0.79362745 0.76286765
0.77107843 0.74803922 0.7245098
0.76748621 0.74438572 0.72289369
0.77107843 0.74754902 0.72593444
0.77676164 0.75410539 0.73050705
0.78676471 0.76338848 0.73961397
0.79068627 0.76862745 0.74351256
0.80245098 0.779856 0.75147059
0.82205882 0.79852941 0.76930147
0.83756127 0.81636029 0.78480392
0.84705882 0.82352941 0.79215686
0.83284314 0.80931373 0.78186275
0.83639706 0.81286765 0.78541667
0.84313725 0.81960784 0.78823529
0.84313725 0.82107843 0.78970588
0.84460784 0.82352941 0.79215686
0.85306373 0.8317402 0.79816176
0.86421569 0.84442402 0.80931373
0.86666667 0.84705882 0.81176471
0.63921569 0.62647059 0.61470588
0.64571078 0.63002451 0.61862745
0.65392157 0.63823529 0.62622549
0.66421569 0.64791667 0.63394608
0.68137255 0.66519608 0.65
0.69852941 0.67892157 0.66507353
0.7254902 0.70196078 0.68529412
0.75232843 0.72794118 0.70821078
0.77843137 0.75392157 0.73039216
0.64607843 0.63039216 0.61862745
0.65321691 0.63731618 0.62619485
0.66176471 0.64595588 0.63296569
0.67334559 0.65629596 0.64171262
0.69093137 0.67285539 0.65729167
0.70618873 0.68529412 0.66953125
0.72135417 0.69803922 0.68210784
0.74754902 0.72401961 0.70441176
0.78492647 0.75784314 0.73517157
0.65392157 0.6375 0.62647059
0.66167279 0.64568015 0.6338848
0.67408088 0.65759804 0.64215686
0.68884804 0.66951593 0.653125
0.70208333 0.68247549 0.66470588
0.7127451 0.69197304 0.67420343
0.72297794 0.69944853 0.68063725
0.74497549 0.72123162 0.70355392
0.80098039 0.77352941 0.75
0.65882353 0.64215686 0.63039216
0.66815257 0.65 0.63765319
0.68137255 0.66443015 0.6497549
0.69705882 0.67859988 0.66116728
0.70863971 0.68817402 0.66893382
0.72820159 0.70536152 0.68523284
0.74264706 0.71813725 0.69852941
0.75922181 0.7356924 0.71409314
0.80490196 0.78137255 0.7557598
0.66911765 0.64803922 0.63578431
0.67653186 0.65710784 0.64338235
0.68639706 0.66678922 0.65294118
0.70189951 0.67990196 0.66360294
0.72083333 0.6995098 0.68137255
0.7401348 0.71746324 0.69681373
0.75955882 0.73615196 0.71262255
0.78082108 0.75882353 0.73333333
0.81617647 0.79313725 0.76372549
0.68676471 0.67009804 0.65441176
0.69840686 0.67833946 0.66211703
0.70585172 0.68284314 0.66853554
0.71268382 0.69123775 0.67346814
0.73480392 0.7125 0.69289216
0.75545343 0.73376225 0.71138174
0.76832108 0.74696691 0.72334559
0.7939951 0.77218137 0.74656863
0.82291667 0.79938725 0.77046569
0.7254902 0.70882353 0.68921569
0.72460172 0.70196078 0.68272059
0.72506127 0.70435049 0.68529412
0.73673407 0.71547181 0.69669118
0.75735294 0.73468137 0.71335784
0.77659314 0.75526961 0.73137255
0.79846814 0.7754902 0.74803922
0.82156863 0.79852941 0.77037377
0.84117647 0.82058824 0.78921569
0.80245098 0.78235294 0.75490196
0.79024203 0.76747855 0.74313725
0.79065564 0.76908701 0.74620098
0.80009191 0.77810968 0.7529565
0.80980392 0.78756127 0.76139706
0.81757047 0.79508272 0.76654412
0.82892157 0.80634191 0.77693015
0.84503676 0.82457108 0.79018076
0.85980392 0.84019608 0.80526961
0.85098039 0.82745098 0.79607843
0.84705882 0.82352941 0.79607843
0.85098039 0.82745098 0.8
0.85098039 0.82990196 0.8
0.85980392 0.83970588 0.80490196
0.86372549 0.84313725 0.80882353
0.86666667 0.84485294 0.81176471
0.86666667 0.84705882 0.81176471
0.86666667 0.84705882 0.81176471
0.74656863 0.72696078 0.70735294
0.7504902 0.73088235 0.71127451
0.7504902 0.73088235 0.71127451
0.75686275 0.7372549 0.71519608
0.77205882 0.75220588 0.72867647
0.79099265 0.76746324 0.74234069
0.80980392 0.78529412 0.75882353
0.81666667 0.78970588 0.76568627
0.82009804 0.79313725 0.76911765
0.7504902 0.73088235 0.71127451
0.75435049 0.73474265 0.71427696
0.75790441 0.73823529 0.71519608
0.76207108 0.74226409 0.71909467
0.77769608 0.75634191 0.73431373
0.7932981 0.76979167 0.74607843
0.80125613 0.77804841 0.75392157
0.81666667 0.79319087 0.76617647
0.83143382 0.80790441 0.78088235
0.75747549 0.73517157 0.71519608
0.76106005 0.73904718 0.71910233
0.77009804 0.75045956 0.72674632
0.77389706 0.75415135 0.73007047
0.78210784 0.76115196 0.7372549
0.79296875 0.77094056 0.74546569
0.80098039 0.77784926 0.75327819
0.81715686 0.7939951 0.76911765
0.83578431 0.8122549 0.78480392
0.75833333 0.73872549 0.71648284
0.76223192 0.73872549 0.71909467
0.77267157 0.7504902 0.72856924
0.78571538 0.76539522 0.73865656
0.79142157 0.77009804 0.74264706
0.80098039 0.77745098 0.75
0.81164216 0.78811275 0.76066176
0.82761183 0.80539216 0.77794118
0.84001225 0.81666667 0.78872549
0.76446078 0.74485294 0.72303922
0.76792279 0.74828431 0.72650123
0.7713848 0.75042892 0.72696078
0.78553922 0.7622549 0.73838848
0.79338235 0.77181373 0.74607843
0.80891544 0.78612132 0.75793505
0.82058824 0.79779412 0.76960784
0.83192402 0.80925245 0.78094363
0.84779412 0.82622549 0.79656863
0.76795343 0.74834559 0.72696078
0.78298866 0.76221661 0.73866422
0.78547794 0.76354167 0.74001225
0.78718597 0.76506587 0.74146752
0.80196078 0.78014706 0.75456495
0.81721814 0.79571844 0.76796109
0.82843137 0.8069087 0.77745098
0.83616728 0.8146829 0.78518689
0.85931373 0.83756127 0.80588235
0.78676471 0.76715686 0.74313725
0.79401042 0.77331495 0.74963235
0.79705882 0.77454044 0.75064338
0.80393689 0.78226103 0.75784314
0.81709559 0.79534314 0.76660539
0.82820159 0.80522365 0.77700674
0.83777574 0.81660539 0.78523284
0.85551471 0.83333333 0.80183824
0.87107843 0.85147059 0.81617647
0.8411152 0.82064951 0.79313725
0.83370864 0.81367188 0.78583793
0.82542892 0.8027114 0.77761949
0.825 0.80173866 0.77632506
0.83578431 0.8127451 0.7833027
0.84164369 0.82054994 0.78917739
0.85551471 0.83333333 0.80183824
0.87113205 0.85109528 0.81623009
0.87408088 0.85147059 0.81960784
0.85882353 0.83578431 0.80784314
0.85539216 0.83529412 0.80441176
0.85147059 0.83137255 0.80134804
0.85098039 0.82794118 0.8
0.86666667 0.84509804 0.8120098
0.8745098 0.85245098 0.81960784
0.87843137 0.85882353 0.82352941
0.87843137 0.85882353 0.82352941
0.8745098 0.85490196 0.81960784
0.84313725 0.82352941 0.79215686
0.83921569 0.81568627 0.78823529
0.83137255 0.80784314 0.78039216
0.83382353 0.81176471 0.78284314
0.84705882 0.82352941 0.79411765
0.85098039 0.82892157 0.8
0.86764706 0.84705882 0.8127451
0.86666667 0.84705882 0.81568627
0.8627451 0.84313725 0.81176471
0.84754902 0.82401961 0.79264706
0.84656863 0.82303922 0.79466912
0.83529412 0.81176471 0.78431373
0.83743873 0.81421569 0.78645833
0.85465686 0.83112745 0.80171569
0.85882353 0.83872549 0.80735294
0.87071078 0.85110294 0.81666667
0.87800245 0.85839461 0.82702206
0.8745098 0.85490196 0.82352941
0.84313725 0.81960784 0.78823529
0.85183824 0.82830882 0.79705882
0.84313725 0.82034314 0.79215686
0.84215686 0.81960784 0.78823529
0.85490196 0.83529412 0.80098039
0.86176471 0.84178922 0.80686275
0.86593137 0.84411765 0.8127451
0.87058824 0.85012255 0.81960784
0.8745098 0.85196078 0.82352941
0.83921569 0.81960784 0.78823529
0.83921569 0.81960784 0.78823529
0.85392157 0.83137255 0.80183824
0.85582108 0.83529412 0.80392157
0.85882353 0.8379902 0.80392157
0.85882353 0.83829657 0.80484069
0.86875 0.84914216 0.81666667
0.87843137 0.85882353 0.82745098
0.8745098 0.85490196 0.82352941
0.85098039 0.83137255 0.8
0.85661765 0.8370098 0.80588235
0.84901961 0.82745098 0.79754902
0.85490196 0.83137255 0.80073529
0.85490196 0.83529412 0.80392157
0.86740196 0.84583333 0.81323529
0.87352941 0.85098039 0.81960784
0.8745098 0.85490196 0.82009804
0.88235294 0.8627451 0.82941176
0.84705882 0.82745098 0.8
0.85079657 0.83118873 0.8
0.85245098 0.83284314 0.80208333
0.85490196 0.83529412 0.80392157
0.8497549 0.82892157 0.79754902
0.86813725 0.84705882 0.81568627
0.86911765 0.84705882 0.81568627
0.87843137 0.85882353 0.82352941
0.89264706 0.87303922 0.8377451
0.85490196 0.83529412 0.80490196
0.85588235 0.83627451 0.80747549
0.84485294 0.8252451 0.79485294
0.8627451 0.84215686 0.81115196
0.86715686 0.84754902 0.81421569
0.87058824 0.85098039 0.81629902
0.86838235 0.84779412 0.81568627
0.87892157 0.85894608 0.82401961
0.88529412 0.86568627 0.83039216
0.87058824 0.85098039 0.81960784
0.8745098 0.85447304 0.82310049
0.86715686 0.84754902 0.81617647
0.87107843 0.85128676 0.81617647
0.86519608 0.84534314 0.81372549
0.8745098 0.85490196 0.82089461
0.87843137 0.85882353 0.82352941
0.88235294 0.8627451 0.82745098
0.87843137 0.85882353 0.82352941
0.87058824 0.85098039 0.81960784
0.87058824 0.85098039 0.81960784
0.8745098 0.85490196 0.82254902
0.88235294 0.8627451 0.82745098
0.87843137 0.85686275 0.82352941
0.8745098 0.85490196 0.81960784
0.88333333 0.86372549 0.82843137
0.88235294 0.8627451 0.82745098
0.88235294 0.8627451 0.82745098
