site/assets/luts/sha256-7f9a659516fd1cf0fdbae2d17d76ceee1db1e2ef7c101b6eded814abe1113b98.cube
# LUTr-Schema-Version: 2
# LUTr-ID: sha256-7f9a659516fd1cf0fdbae2d17d76ceee1db1e2ef7c101b6eded814abe1113b98
# LUTr-Title: fuji fp-100c negative ++
# LUTr-Collection: Natron HaldCLUT
# LUTr-Collection-ID: natron-haldclut-presets
# LUTr-Source: https://github.com/NatronGitHub/clut
# LUTr-Retrieved: 2026-07-27
# LUTr-Source-File: submissions/natron-haldclut-presets/instant_pro/fuji_fp-100c_negative_++.png
# LUTr-Source-Format: HALD-PNG
# LUTr-Source-SHA256: 7f9a659516fd1cf0fdbae2d17d76ceee1db1e2ef7c101b6eded814abe1113b98
# LUTr-License: CC-BY-SA-4.0
# LUTr-License-URL: https://github.com/NatronGitHub/clut#license
# LUTr-License-Basis: repo-license-file
# LUTr-Transform-Class: film-emulation
# LUTr-Tags: creative, film, film-emulation, hald-clut, natron, png, cube
# LUTr-Input-Color-Space: srgb
# LUTr-Input-Gamut: rec709
# LUTr-Input-Transfer: srgb
# LUTr-Output-Color-Space: srgb
# LUTr-Output-Gamut: rec709
# LUTr-Output-Transfer: srgb
# LUTr-Color-Space-Confidence: assumed-display-referred
# LUTr-Domain-Normalized: true
# LUTr-Shaper: none
# LUTr-Original-Grid: 64x64x64
# LUTr-Conversion-Grid: 25x25x25
# LUTr-Conversion-Interpolation: trilinear
# LUTr-Conversion-Method: HALD-PNG LUT image decoded at 16-bit and sampled to 25x25x25 3D CUBE
# LUTr-Conversion-Tool: LUTr scripts/convert-all-to-cube.mjs 2.0.0
# LUTr-Conversion-Date: 2026-07-27
# LUTr-Note: Preserve this metadata and the upstream license notices when redistributing.
TITLE "fuji fp-100c negative ++"
LUT_3D_SIZE 9
DOMAIN_MIN 0 0 0
DOMAIN_MAX 1 1 1
0.26666667 0.14509804 0.16470588
0.28186275 0.14901961 0.16862745
0.30098039 0.14117647 0.16078431
0.36666667 0.14117647 0.16078431
0.46078431 0.1372549 0.15490196
0.6245098 0.15833333 0.16617647
0.78627451 0.21078431 0.16372549
0.91960784 0.31519608 0.16911765
1 0.38823529 0.17254902
0.26666667 0.14852941 0.16078431
0.27408088 0.15686275 0.16470588
0.30098039 0.14987745 0.16078431
0.36942402 0.16029412 0.17224265
0.47990196 0.16617647 0.16470588
0.63480392 0.1841299 0.15704657
0.79215686 0.26078431 0.16813725
0.92996324 0.35343137 0.18780637
0.9995098 0.45 0.19215686
0.27058824 0.19019608 0.18039216
0.27438725 0.19019608 0.17291667
0.31176471 0.20122549 0.17181373
0.39068627 0.22843137 0.1622549
0.50490196 0.24313725 0.15686275
0.65441176 0.28590686 0.15723039
0.79607843 0.33946078 0.16568627
0.92732843 0.42610294 0.16960784
0.9872549 0.49215686 0.19901961
0.26666667 0.25686275 0.19705882
0.27794118 0.2627451 0.20245098
0.31176471 0.28835784 0.20245098
0.39803922 0.33627451 0.17647059
0.5377451 0.38921569 0.15294118
0.67892157 0.42794118 0.14656863
0.81029412 0.4685049 0.15330882
0.92665441 0.52205882 0.16813725
0.99215686 0.57745098 0.22990196
0.24901961 0.38431373 0.23921569
0.26642157 0.39387255 0.24509804
0.30784314 0.41323529 0.25294118
0.3745098 0.45196078 0.22769608
0.54803922 0.53137255 0.17941176
0.70980392 0.59411765 0.11960784
0.82696078 0.61127451 0.15784314
0.93088235 0.62745098 0.19730392
0.99607843 0.66078431 0.26470588
0.24068627 0.54607843 0.30098039
0.26176471 0.55667892 0.30490196
0.32610294 0.5627451 0.31666667
0.40637255 0.58088235 0.31421569
0.52818627 0.6372549 0.29142157
0.67794118 0.68970588 0.24454657
0.83321078 0.72598039 0.20784314
0.94803922 0.73382353 0.25490196
0.99607843 0.74166667 0.32598039
0.31960784 0.69019608 0.3872549
0.35208333 0.69411765 0.39215686
0.40196078 0.69803922 0.40294118
0.48872549 0.71433824 0.42316176
0.57058824 0.73823529 0.4127451
0.67745098 0.77205882 0.38982843
0.82058824 0.79411765 0.36960784
0.9627451 0.81507353 0.36568627
0.99215686 0.81372549 0.40588235
0.52205882 0.80882353 0.50784314
0.54460784 0.80882353 0.50735294
0.58627451 0.81323529 0.53088235
0.63547794 0.81354167 0.54558824
0.7004902 0.82843137 0.54264706
0.75520833 0.8377451 0.54313725
0.85098039 0.85196078 0.53529412
0.92696078 0.86372549 0.53094363
0.98823529 0.87156863 0.52401961
0.78431373 0.88235294 0.61568627
0.80343137 0.89019608 0.61960784
0.82156863 0.89019608 0.62647059
0.8377451 0.88627451 0.62745098
0.87647059 0.89215686 0.63137255
0.90735294 0.89803922 0.63137255
0.94313725 0.90294118 0.63235294
0.98431373 0.91323529 0.62696078
0.99215686 0.90196078 0.59607843
0.27058824 0.14166667 0.17205882
0.27843137 0.14509804 0.17647059
0.30098039 0.14117647 0.17205882
0.36029412 0.14117647 0.17598039
0.48014706 0.13382353 0.18382353
0.63186275 0.1495098 0.19509804
0.79571078 0.21078431 0.20784314
0.92738971 0.32401961 0.22303922
0.99607843 0.41519608 0.24607843
0.26666667 0.14509804 0.16813725
0.2745098 0.1525046 0.17598039
0.30098039 0.15245098 0.17431066
0.36942402 0.16029412 0.18033088
0.48382353 0.1674326 0.18704044
0.64373468 0.19830729 0.1968367
0.80085784 0.2533701 0.19993873
0.93088235 0.35305607 0.21078431
1 0.45091912 0.24558824
0.27365196 0.1872549 0.19068627
0.28233762 0.19405637 0.19154412
0.31663603 0.20882353 0.18308824
0.38720895 0.22089461 0.18716299
0.51446078 0.24773284 0.1942402
0.66519608 0.28088235 0.19166667
0.80456495 0.34727328 0.19901961
0.92970282 0.429856 0.2151348
0.99080882 0.47953431 0.23333333
0.271875 0.27745098 0.21893382
0.28535539 0.27551317 0.21979167
0.31631434 0.29696691 0.22143076
0.38988971 0.33487286 0.2098652
0.54558824 0.39920343 0.18014706
0.68265165 0.4171492 0.18884038
0.81421569 0.46363358 0.19607843
0.93137255 0.52420343 0.21731771
0.99607843 0.57775735 0.27352941
0.25269608 0.40147059 0.25833333
0.27401961 0.40171569 0.2622549
0.30998775 0.42083333 0.27009804
0.3885723 0.45955882 0.25867034
0.5317402 0.53137255 0.21985294
0.70857843 0.58814338 0.18293505
0.82849265 0.60851716 0.19969363
0.93284314 0.62573529 0.24068627
0.98651961 0.64901961 0.2875
0.22677696 0.55667892 0.3127451
0.26724112 0.56403186 0.32009804
0.32958027 0.57179841 0.33457414
0.41390931 0.59253217 0.33645067
0.52426471 0.64108456 0.31715686
0.67909773 0.69104626 0.27732077
0.84269301 0.72945772 0.26318934
0.9504902 0.73328738 0.29267004
0.99215686 0.73253676 0.32205882
0.32928922 0.70281863 0.40147059
0.35245098 0.70196078 0.40240502
0.41844363 0.70579044 0.41749387
0.50121017 0.7100337 0.43632047
0.584375 0.74215686 0.43431373
0.68561581 0.77299326 0.41580882
0.82515319 0.79901961 0.39485294
0.9627451 0.81813725 0.39252451
0.99987745 0.82156863 0.42598039
0.52941176 0.8088848 0.51568627
0.54450061 0.80544577 0.51482077
0.58558517 0.81372549 0.53426777
0.6470818 0.81323529 0.54050245
0.70392157 0.8245098 0.54856005
0.76546415 0.8403799 0.55490196
0.85502451 0.85292586 0.54264706
0.93560815 0.86415441 0.53904718
0.99607843 0.8754902 0.53480392
0.78872549 0.88627451 0.61960784
0.80257353 0.88976716 0.62310049
0.82291667 0.89019608 0.62659314
0.85110294 0.89178922 0.63137255
0.88627451 0.89411765 0.6372549
0.91047794 0.89754902 0.63480392
0.95698529 0.90894608 0.63823529
0.98866422 0.91372549 0.63431373
0.9995098 0.89803922 0.58823529
0.27352941 0.1372549 0.20196078
0.28480392 0.13811275 0.20196078
0.30759804 0.14338235 0.20563725
0.36997549 0.14620098 0.21654412
0.50980392 0.12254902 0.23823529
0.67303922 0.094607843 0.25441176
0.82181373 0.1622549 0.27181373
0.93921569 0.30637255 0.29546569
0.99215686 0.41666667 0.33039216
0.2745098 0.15343137 0.21764706
0.28224571 0.15202206 0.21727941
0.3182598 0.16421569 0.22107843
0.38324142 0.17107843 0.23252145
0.52150735 0.15618873 0.24607843
0.67011336 0.171875 0.26335784
0.82254902 0.22346814 0.27647059
0.9419424 0.34705882 0.29949449
0.9995098 0.45686275 0.34166667
0.26740196 0.19313725 0.22941176
0.28112745 0.20098039 0.23615196
0.31942402 0.21366422 0.24019608
0.40428922 0.23419118 0.25242034
0.54019608 0.24656863 0.25931373
0.68370098 0.28529412 0.27797181
0.82254902 0.33884804 0.28590686
0.93520221 0.42981005 0.30726103
0.98921569 0.50318627 0.34828431
0.27414216 0.2872549 0.26715686
0.2942402 0.30121017 0.27887561
0.32634804 0.31004902 0.27892157
0.42506127 0.34499081 0.27892157
0.55545343 0.38609069 0.26593137
0.6944087 0.41943934 0.27774203
0.81960784 0.46666667 0.29044118
0.93088235 0.528125 0.31867341
0.99705882 0.56568627 0.34117647
0.28186275 0.43235294 0.31911765
0.29197304 0.44387255 0.32285539
0.33737745 0.44914216 0.32696078
0.41096814 0.47469363 0.32346814
0.55661765 0.53921569 0.29583333
0.71476716 0.58480392 0.27628676
0.82585784 0.59056373 0.29558824
0.9370098 0.62794118 0.325
0.99264706 0.65882353 0.37647059
0.28762255 0.57953431 0.36862745
0.30298713 0.58137255 0.36697304
0.3596201 0.58912377 0.37855392
0.44921875 0.60356924 0.3875
0.54803922 0.64920343 0.38180147
0.69856005 0.69699755 0.34656863
0.84185049 0.72723652 0.33933824
0.94505208 0.73125 0.36902574
0.99509804 0.7377451 0.41678922
0.36078431 0.70588235 0.43627451
0.3817402 0.71372549 0.43943015
0.43921569 0.71703431 0.45116422
0.51654412 0.72423407 0.46853554
0.60036765 0.74215686 0.47218137
0.70324755 0.76994485 0.46124387
0.82824755 0.79901961 0.45257353
0.95162377 0.81372549 0.44923407
0.99607843 0.81666667 0.48946078
0.54362745 0.80931373 0.53909314
0.55513174 0.81613051 0.54178922
0.6015625 0.81387868 0.54264706
0.65134804 0.81657475 0.56017157
0.71519608 0.82408088 0.56911765
0.77841605 0.83627451 0.5712163
0.85729167 0.85358456 0.56988358
0.94857537 0.86721814 0.56127451
0.99215686 0.87156863 0.55735294
0.80490196 0.89705882 0.63039216
0.775 0.88333333 0.61666667
0.81960784 0.89093137 0.62745098
0.85588235 0.89473039 0.63590686
0.89117647 0.89411765 0.64215686
0.91838235 0.89852941 0.64362745
0.95490196 0.90686275 0.64240196
0.97303922 0.90196078 0.62512255
1 0.92156863 0.64215686
0.28627451 0.12941176 0.28578431
0.30784314 0.13333333 0.28792892
0.35196078 0.13835784 0.29718137
0.39957108 0.15202206 0.2966299
0.5377451 0.14877451 0.32892157
0.73682598 0.095465686 0.37542892
0.86911765 0.13137255 0.38088235
0.96421569 0.25410539 0.39724265
0.99607843 0.42205882 0.4372549
0.28020833 0.15245098 0.29705882
0.30392157 0.15245098 0.30343137
0.35310968 0.16139706 0.30749081
0.41960784 0.18193168 0.3161152
0.53921569 0.18431373 0.33848039
0.74019608 0.18009344 0.38480392
0.86550245 0.21034007 0.38449755
0.96911765 0.32485447 0.40234375
0.99822304 0.46145833 0.45
0.26666667 0.19803922 0.31617647
0.27490809 0.20151654 0.32291667
0.34898897 0.21577819 0.33762255
0.43394608 0.25418199 0.34607843
0.565625 0.28137255 0.36734069
0.73028493 0.29339767 0.38941483
0.84647672 0.34754902 0.40242034
0.94362745 0.43742341 0.42745098
0.99276961 0.52806373 0.4622549
0.25637255 0.29607843 0.34313725
0.26887255 0.29988511 0.35478707
0.33293505 0.32254902 0.36530331
0.45533088 0.36799173 0.38592984
0.58403799 0.4127451 0.39488358
0.71813725 0.43878676 0.39838388
0.84166667 0.48088235 0.41410846
0.94227175 0.54626225 0.43235294
0.99215686 0.59558824 0.47254902
0.27083333 0.4372549 0.38137255
0.30661765 0.4526348 0.39289216
0.36813725 0.4754902 0.40490196
0.46246936 0.50958946 0.41715686
0.57303922 0.55539216 0.40955882
0.72083333 0.58946078 0.40465686
0.83321078 0.60128676 0.41617647
0.93872549 0.6370098 0.44436275
0.98308824 0.66151961 0.47279412
0.33719363 0.59166667 0.4401348
0.35392157 0.59540441 0.44166667
0.43125 0.61594669 0.4578125
0.49475337 0.62738971 0.46427696
0.57647059 0.65735294 0.4666973
0.71029412 0.70245098 0.451731
0.84520527 0.72391238 0.44810049
0.9457644 0.73246783 0.4745098
0.98915441 0.73627451 0.49209559
0.44019608 0.71727941 0.50098039
0.44759498 0.72156863 0.50001532
0.48979779 0.72904412 0.50490196
0.54993873 0.73221507 0.5127451
0.62984069 0.74607843 0.53333333
0.71649816 0.77205882 0.52447917
0.8385723 0.79865196 0.51583946
0.94754902 0.81507353 0.525
0.99215686 0.81764706 0.53590686
0.5745098 0.81323529 0.56813725
0.59401042 0.81666667 0.56862745
0.61476716 0.81973039 0.5722886
0.66470588 0.81715686 0.57745098
0.73008578 0.82215074 0.59231005
0.80178462 0.83627451 0.5983992
0.86678922 0.85196078 0.59558824
0.95860141 0.86748621 0.59139859
0.99607843 0.87156863 0.5877451
0.78970588 0.89019608 0.63137255
0.80851716 0.89430147 0.63400735
0.81752451 0.89056373 0.63529412
0.84840686 0.89264706 0.6377451
0.89460784 0.89411765 0.64705882
0.93878676 0.9004902 0.65643382
0.96764706 0.91041667 0.65551471
0.99497549 0.91783088 0.65508578
0.99607843 0.91372549 0.65098039
0.32352941 0.11960784 0.4
0.35637255 0.11397059 0.40784314
0.43039216 0.11568627 0.41862745
0.52892157 0.12965686 0.44240196
0.62843137 0.20294118 0.46078431
0.73995098 0.20588235 0.47990196
0.89019608 0.29705882 0.51862745
0.98676471 0.37230392 0.53333333
1 0.48823529 0.54705882
0.31029412 0.14264706 0.40784314
0.34852941 0.14264706 0.41565564
0.4189951 0.14264706 0.4286152
0.52239583 0.16822917 0.45
0.62708333 0.23639706 0.4682598
0.73318015 0.26666667 0.48170956
0.89773284 0.3377451 0.5254902
0.98943015 0.42009804 0.54117647
1 0.50539216 0.55294118
0.26960784 0.19313725 0.41764706
0.30520833 0.19411765 0.43394608
0.39411765 0.21568627 0.44963235
0.53897059 0.275 0.47990196
0.63161765 0.33872549 0.4872549
0.74656863 0.38363971 0.50490196
0.8877451 0.44313725 0.5372549
0.98118873 0.49166667 0.54387255
1 0.56421569 0.56421569
0.21029412 0.29338235 0.43063725
0.23480392 0.29574142 0.43823529
0.2935049 0.309375 0.45588235
0.47352941 0.36764706 0.49068627
0.64105392 0.47843137 0.5129902
0.73676471 0.49436275 0.51764706
0.87230392 0.55484069 0.54754902
0.95759804 0.58578431 0.55490196
0.99142157 0.61446078 0.56004902
0.22254902 0.42745098 0.45294118
0.26605392 0.44093137 0.45845588
0.32745098 0.46568627 0.47034314
0.46066176 0.50625 0.50208333
0.59411765 0.56519608 0.51911765
0.73333333 0.60980392 0.53137255
0.84705882 0.62867647 0.54215686
0.94264706 0.65735294 0.55526961
0.99215686 0.67647059 0.56470588
0.29338235 0.58308824 0.49632353
0.32582721 0.59148284 0.50088848
0.40827206 0.61127451 0.5120098
0.52282475 0.64215686 0.53406863
0.62169118 0.67561275 0.55110294
0.72699142 0.70860907 0.55098039
0.85208333 0.72634804 0.54852941
0.95033701 0.7377451 0.5604473
0.99362745 0.74289216 0.57401961
0.4245098 0.71176471 0.5504902
0.45441176 0.71666667 0.55196078
0.50159314 0.72843137 0.55784314
0.5935049 0.74203431 0.56764706
0.65392157 0.75784314 0.575
0.7473652 0.77990196 0.58382353
0.84509804 0.79889706 0.58333333
0.96795343 0.81372549 0.58621324
0.99901961 0.81372549 0.59460784
0.61495098 0.81666667 0.60245098
0.62254902 0.81691176 0.60245098
0.65098039 0.82058824 0.6028799
0.69344363 0.82215074 0.60294118
0.75318627 0.82757353 0.61348039
0.81363358 0.83710172 0.62034314
0.88382353 0.85196078 0.61856618
0.97034314 0.86764706 0.61813725
0.99607843 0.87916667 0.61862745
0.79803922 0.88627451 0.63921569
0.82181373 0.89436275 0.64509804
0.82401961 0.89019608 0.64264706
0.85220588 0.89411765 0.64509804
0.89313725 0.89411765 0.65392157
0.93946078 0.89803922 0.66348039
0.97107843 0.90196078 0.66470588
0.98848039 0.90196078 0.64705882
0.99607843 0.91372549 0.66470588
0.41617647 0.087254902 0.53529412
0.44852941 0.059129902 0.53890931
0.52696078 0.042279412 0.55036765
0.63921569 0.056862745 0.57150735
0.75098039 0.22941176 0.59215686
0.81372549 0.35545343 0.59117647
0.87659314 0.39803922 0.59607843
0.98890931 0.50147059 0.62647059
1 0.59264706 0.63284314
0.40226716 0.11127451 0.53890931
0.44023438 0.10572151 0.53921569
0.523606 0.10442708 0.55373775
0.63921569 0.15458793 0.57765012
0.74926471 0.28872549 0.59828431
0.8127451 0.40520833 0.59411765
0.87696078 0.43863358 0.6
0.98094363 0.52804841 0.62600337
1 0.60128676 0.62824755
0.35637255 0.17634804 0.53921569
0.39888174 0.1877451 0.54963235
0.48811275 0.20382966 0.56614583
0.62604167 0.25669424 0.59117647
0.74926471 0.38946078 0.60778186
0.81386336 0.49558824 0.60686275
0.88039216 0.52674632 0.61516544
0.97411152 0.59526654 0.62910539
0.99607843 0.62953431 0.63223039
0.21133578 0.28039216 0.53921569
0.25146293 0.28657322 0.54460784
0.37303922 0.29901961 0.56660539
0.55743719 0.36280637 0.58929994
0.7125 0.4877451 0.61029412
0.81366422 0.57583487 0.618053
0.875 0.61727941 0.62254902
0.9736443 0.65949755 0.63069087
0.99607843 0.6877451 0.63676471
0.098529412 0.41495098 0.53970588
0.15349265 0.41979167 0.54485294
0.24295343 0.43511029 0.55416667
0.39748775 0.47009804 0.57625613
0.64068627 0.57058824 0.60367647
0.78186275 0.65343137 0.61789216
0.87077206 0.68235294 0.62254902
0.96446078 0.71127451 0.63039216
1 0.72892157 0.63676471
0.23964461 0.56813725 0.55196078
0.27647059 0.57531403 0.55331648
0.35234375 0.59065564 0.56505821
0.47248775 0.61560202 0.58186275
0.60683211 0.66642157 0.60143995
0.7557981 0.71836703 0.61954657
0.87605699 0.74411765 0.62369792
0.96973805 0.75772825 0.62892157
0.99607843 0.76372549 0.62984069
0.36286765 0.69264706 0.58284314
0.36911765 0.70530025 0.59031863
0.45707721 0.71547181 0.59445466
0.56090686 0.7372549 0.60245098
0.67285539 0.75857843 0.61403186
0.7872549 0.78566176 0.62708333
0.88146446 0.80278799 0.6291973
0.97931985 0.81372549 0.62892157
0.99607843 0.81764706 0.63284314
0.5276348 0.80147059 0.621875
0.5596201 0.80520833 0.62012102
0.61384804 0.81272978 0.62348346
0.67389706 0.81849724 0.62568168
0.74932598 0.82858456 0.63259804
0.83865656 0.84019608 0.64106158
0.90883885 0.85281863 0.64505208
0.98094363 0.86807598 0.64724265
0.99607843 0.8754902 0.64509804
0.79166667 0.88627451 0.65245098
0.80735294 0.89411765 0.65490196
0.82254902 0.89166667 0.65637255
0.84558824 0.89019608 0.66029412
0.89215686 0.89656863 0.6627451
0.9372549 0.90196078 0.67297794
0.9807598 0.90232843 0.68566176
1 0.91372549 0.68578431
1 0.91764706 0.68627451
0.56176471 0.00098039216 0.64509804
0.59742647 0.011642157 0.64607843
0.66789216 0.01495098 0.65294118
0.75245098 0.012745098 0.66862745
0.84705882 0.25882353 0.66862745
0.91421569 0.48039216 0.66764706
0.95196078 0.57279412 0.66372549
0.98529412 0.60392157 0.65980392
1 0.6627451 0.66666667
0.56311275 0.020098039 0.64693627
0.58823529 0.016084559 0.6504902
0.6504902 0.021691176 0.65983456
0.7457261 0.1091299 0.66862745
0.84313725 0.29319853 0.67401961
0.90821078 0.49943321 0.66818321
0.94730392 0.58566176 0.66078431
0.97438725 0.62438725 0.66029412
1 0.68762255 0.66764706
0.50490196 0.14485294 0.64534314
0.52503064 0.14466912 0.65
0.61446078 0.17426471 0.65704657
0.72389706 0.2614277 0.66470588
0.82745098 0.38933824 0.67254902
0.90548407 0.54947917 0.67156863
0.94117647 0.64136029 0.66372549
0.97797181 0.66292892 0.66115196
1 0.71764706 0.67156863
0.34914216 0.26470588 0.6432598
0.39589461 0.26801471 0.64878983
0.5060049 0.29264706 0.65588235
0.66095282 0.38002451 0.66211703
0.78897059 0.48449755 0.67156863
0.88627451 0.62291667 0.66973039
0.94197304 0.6877451 0.66764706
0.98872549 0.72009804 0.66764706
1 0.75526961 0.67438725
0.010784314 0.39362745 0.62647059
0.037254902 0.396875 0.62781863
0.17034314 0.41335784 0.6372549
0.48106618 0.45569853 0.64846814
0.70857843 0.55686275 0.6622549
0.85863971 0.67843137 0.66525735
0.94644608 0.74215686 0.66470588
0.98480392 0.75992647 0.67156863
1 0.77156863 0.67156863
0.006004902 0.54509804 0.62438725
0.010324755 0.55243566 0.6254902
0.12245711 0.5625 0.62941176
0.32408088 0.5727788 0.6372549
0.53069853 0.6125 0.64852941
0.7944087 0.71078431 0.66086091
0.93489583 0.77598039 0.66764706
0.99425551 0.79460784 0.6754902
1 0.7995098 0.67647059
0.24607843 0.68210784 0.62156863
0.28915441 0.68884804 0.62622549
0.36911765 0.69761029 0.62843137
0.47573529 0.70882353 0.63235294
0.60453431 0.72953431 0.64411765
0.75309436 0.76504289 0.65333946
0.89932598 0.80588235 0.66372549
0.99227941 0.82941176 0.67233456
1 0.83333333 0.67647059
0.41654412 0.79754902 0.64056373
0.47054228 0.79791667 0.64105392
0.50958946 0.80376838 0.64261642
0.61055453 0.80899203 0.64771752
0.71329657 0.81844363 0.65128676
0.83247549 0.83737745 0.65945159
0.93026961 0.85551471 0.67169118
0.99275429 0.87156863 0.67717525
1 0.8754902 0.68431373
0.72352941 0.89019608 0.67156863
0.74154412 0.89313725 0.67536765
0.7625 0.89387255 0.6754902
0.80735294 0.89019608 0.67904412
0.85931373 0.89411765 0.68088235
0.94387255 0.90232843 0.69264706
0.97254902 0.89632353 0.69730392
1 0.90686275 0.70747549
1 0.91372549 0.70784314
0.71617647 0.0078431373 0.71078431
0.74699755 0.012316176 0.71770833
0.79215686 0.0077205882 0.71727941
0.8495098 0.12322304 0.72205882
0.92598039 0.31838235 0.71862745
0.978125 0.52628676 0.71813725
1 0.68186275 0.7067402
1 0.70392157 0.69901961
1 0.70735294 0.69901961
0.72401961 0.0039828431 0.71470588
0.73529412 0.014659926 0.71470588
0.78007047 0.056862745 0.71862745
0.84515931 0.19852941 0.72077206
0.90729167 0.36072304 0.72205882
0.98039216 0.54034161 0.71292892
0.99774816 0.68546262 0.70294118
1 0.73082108 0.70288756
1 0.74558824 0.71072304
0.65551471 0.16470588 0.71470588
0.69401042 0.16792279 0.71464461
0.74944853 0.21078431 0.71470588
0.82464767 0.30061275 0.71862745
0.8971201 0.43958333 0.71427696
0.96968444 0.59129902 0.71078431
0.99586397 0.70591299 0.70686275
0.99607843 0.74522059 0.7064185
1 0.76176471 0.71029412
0.56060049 0.27714461 0.7122549
0.6021829 0.27843137 0.71078431
0.66413909 0.31747855 0.71470588
0.76862745 0.39382659 0.71470588
0.85949755 0.51568627 0.71078431
0.95 0.64135263 0.71047794
0.98662684 0.73818934 0.70814951
0.99607843 0.77598039 0.71033241
1 0.78743873 0.71470588
0.14607843 0.35220588 0.70098039
0.24540441 0.36393995 0.70272672
0.42371324 0.39191176 0.70294118
0.63112745 0.45989583 0.70750613
0.77598039 0.57107843 0.70857843
0.90719975 0.67996324 0.70686275
0.98314951 0.76151961 0.70729167
0.99607843 0.79681373 0.71470588
1 0.80637255 0.71642157
0.012071078 0.51029412 0.68988971
0.023161765 0.51040135 0.69117647
0.019546569 0.52173713 0.68975184
0.14973958 0.52532935 0.69234069
0.59375 0.59240196 0.69754902
0.84705882 0.70766697 0.70336244
0.97519914 0.78988971 0.71041667
0.99656863 0.82598039 0.72254902
1 0.84246324 0.72616422
0.006372549 0.67414216 0.67585784
0.020235907 0.67380515 0.6754902
0.038357843 0.68262868 0.6754902
0.22938113 0.68681066 0.6782935
0.42892157 0.69785539 0.68216912
0.65522365 0.72562806 0.68627451
0.92107843 0.79911152 0.70389093
0.99640012 0.84771752 0.72303922
1 0.86813725 0.73786765
0.32052696 0.79362745 0.67156863
0.33347886 0.79374234 0.67860754
0.41017157 0.7939951 0.67598039
0.49264706 0.80147059 0.68102788
0.63560049 0.8051777 0.67555147
0.7495098 0.81452206 0.68694853
0.91383272 0.84808517 0.70124081
0.99215686 0.87554381 0.73007047
1 0.89895833 0.75042892
0.60490196 0.88529412 0.70588235
0.63676471 0.88186275 0.70637255
0.67647059 0.88615196 0.70637255
0.721875 0.89571078 0.71047794
0.79313725 0.89240196 0.71053922
0.83155637 0.86783088 0.69969363
0.94485294 0.89154412 0.72254902
0.99607843 0.90637255 0.73823529
1 0.91764706 0.75392157
0.85882353 0.18823529 0.78431373
0.86862745 0.21519608 0.78333333
0.88627451 0.25 0.77647059
0.92941176 0.38529412 0.77794118
0.96470588 0.48039216 0.76470588
1 0.63480392 0.77254902
1 0.71176471 0.75686275
1 0.78921569 0.75686275
1 0.79607843 0.75294118
0.84019608 0.22303922 0.77696078
0.85545343 0.23939951 0.77745098
0.86997549 0.28651961 0.77254902
0.9127451 0.39509804 0.77254902
0.95882353 0.50343137 0.76470588
0.99393382 0.62352941 0.76060049
1 0.72745098 0.75588235
1 0.78878676 0.7495098
1 0.8 0.75294118
0.81568627 0.30882353 0.77843137
0.82561275 0.31985294 0.78051471
0.84705882 0.3629902 0.77156863
0.9057598 0.46397059 0.77830882
0.95441176 0.56372549 0.77254902
0.98431373 0.65833333 0.76078431
1 0.73995098 0.7497549
1 0.78786765 0.74901961
1 0.81862745 0.75686275
0.7377451 0.37745098 0.77401961
0.75753676 0.38529412 0.77303922
0.79497549 0.42794118 0.77254902
0.84552696 0.49754902 0.76617647
0.91985294 0.59460784 0.76348039
0.97640931 0.68284314 0.75925245
0.99607843 0.76029412 0.75441176
1 0.80735294 0.75931373
1 0.82352941 0.76078431
0.58039216 0.41176471 0.77647059
0.59730392 0.41617647 0.77205882
0.66323529 0.46470588 0.7745098
0.77352941 0.53823529 0.77328431
0.87843137 0.63235294 0.76960784
0.97205882 0.72058824 0.76985294
0.99607843 0.77647059 0.75637255
1 0.82794118 0.76495098
1 0.8372549 0.76470588
0.0078431373 0.50539216 0.77107843
0.026348039 0.50637255 0.75208333
0.18247549 0.49779412 0.77818627
0.50704657 0.52181373 0.78002451
0.72916667 0.62401961 0.76936275
0.90349265 0.72751225 0.75931373
0.99313725 0.79803922 0.77107843
1 0.84117647 0.75716912
1 0.8745098 0.77254902
0.0078431373 0.67156863 0.74509804
0.025490196 0.67254902 0.74901961
0.024509804 0.67254902 0.74436275
0.0039215686 0.68431373 0.75294118
0.22058824 0.67794118 0.76372549
0.71127451 0.7120098 0.77254902
0.95980392 0.80220588 0.77352941
0.99901961 0.86372549 0.77696078
1 0.88627451 0.78039216
0.23627451 0.82107843 0.76176471
0.29338235 0.82408088 0.77506127
0.33909314 0.82193627 0.77046569
0.41568627 0.81715686 0.77254902
0.49313725 0.7995098 0.76470588
0.64589461 0.80606618 0.77273284
0.78872549 0.81580882 0.77144608
0.98823529 0.86329657 0.78039216
1 0.90245098 0.77303922
0.69803922 0.89803922 0.78823529
0.68480392 0.89068627 0.77745098
0.69607843 0.89117647 0.77352941
0.69656863 0.88235294 0.74215686
0.8 0.9 0.78627451
0.85637255 0.89803922 0.77352941
0.90882353 0.89509804 0.76568627
0.98823529 0.91372549 0.79215686
1 0.92941176 0.80392157
