site/assets/luts/sha256-2b7ae58501aa6bf48a019ac58f69f228d2b33ecafefcc2548ef07a085e769064.cube
# LUTr-Schema-Version: 2
# LUTr-ID: sha256-2b7ae58501aa6bf48a019ac58f69f228d2b33ecafefcc2548ef07a085e769064
# LUTr-Title: cividis lut
# LUTr-Collection: Colour-Blind LUTs
# LUTr-Collection-ID: andrewwillmott-colour-blind-luts
# LUTr-Source: https://github.com/andrewwillmott/colour-blind-luts
# LUTr-Retrieved: 2026-07-27
# LUTr-Source-File: submissions/andrewwillmott-colour-blind-luts/luts/cividis_lut.png
# LUTr-Source-Format: HALD-PNG
# LUTr-Source-SHA256: 2b7ae58501aa6bf48a019ac58f69f228d2b33ecafefcc2548ef07a085e769064
# LUTr-License: Unlicense
# LUTr-License-URL: https://github.com/andrewwillmott/colour-blind-luts/blob/master/LICENSE
# LUTr-License-Basis: repo-license-file
# LUTr-Transform-Class: accessibility
# LUTr-Tags: technical, accessibility, color-vision, simulation, correction, png, cube
# LUTr-Input-Color-Space: srgb
# LUTr-Input-Gamut: rec709
# LUTr-Input-Transfer: srgb
# LUTr-Output-Color-Space: srgb
# LUTr-Output-Gamut: rec709
# LUTr-Output-Transfer: srgb
# LUTr-Color-Space-Confidence: assumed-display-referred
# LUTr-Domain-Normalized: true
# LUTr-Shaper: none
# LUTr-Original-Grid: 256
# LUTr-Conversion-Grid: 32x32x32
# LUTr-Conversion-Interpolation: linear
# LUTr-Conversion-Method: HALD-PNG LUT image decoded at 16-bit and sampled to 32x32x32 3D CUBE
# LUTr-Conversion-Tool: LUTr scripts/convert-all-to-cube.mjs 2.0.0
# LUTr-Conversion-Date: 2026-07-27
# LUTr-Conversion-Warning: Source is a 256-sample false-colour ramp; converted as Rec.709 luminance to RGB.
# LUTr-Note: Preserve this metadata and the upstream license notices when redistributing.
TITLE "cividis lut"
LUT_3D_SIZE 5
DOMAIN_MIN 0.000000 0.000000 0.000000
DOMAIN_MAX 0.903226 0.903226 0.903226
0.000091554131 0.12498665 0.29698634
0.000068920572 0.1571274 0.38082992
0.000077315003 0.18931445 0.43364716
0.087746121 0.22262493 0.4258793
0.17950493 0.2576864 0.41796191
0.12645318 0.23504803 0.42189113
0.2025883 0.27118665 0.41797981
0.26046985 0.30467705 0.41802594
0.30823366 0.33951323 0.42150138
0.35606405 0.37164183 0.42570072
0.32563336 0.35156369 0.42184395
0.37110864 0.38520653 0.42970932
0.41345451 0.42127649 0.44132611
0.45706874 0.45706874 0.45706874
0.49733918 0.49223041 0.46876234
0.47085433 0.46879042 0.46307085
0.5147603 0.50394771 0.46870039
0.56258784 0.54311949 0.46871224
0.6103696 0.579209 0.46482613
0.65816769 0.61924121 0.45307123
0.62778583 0.59380626 0.46084748
0.67554636 0.63274673 0.44915028
0.72723888 0.67275135 0.43351522
0.77897565 0.71670654 0.41398711
0.83062754 0.75674925 0.38788409
0.0000072017661 0.13667986 0.32551624
0.000091475375 0.16948711 0.40944331
0.00011348971 0.20168822 0.42976177
0.12410807 0.23433819 0.42187336
0.2002719 0.27000789 0.41799808
0.15504085 0.24738088 0.42057737
0.22333695 0.28352493 0.41801598
0.27668973 0.31573927 0.41803074
0.32445917 0.35155456 0.42181197
0.37110408 0.38400949 0.42970932
0.34186823 0.36330331 0.42580237
0.3857453 0.39753765 0.43353132
0.42967916 0.43358535 0.44533443
0.46969384 0.46877214 0.4619195
0.51359981 0.50395228 0.4687278
0.48321679 0.48049879 0.46871755
0.53098003 0.51936364 0.46875459
0.57880473 0.55542965 0.46865601
0.62659793 0.59382453 0.4608749
0.6743813 0.63159995 0.44915941
0.64398657 0.60901754 0.45701766
0.6918276 0.64851985 0.44523158
0.74349481 0.68901606 0.42815237
0.79521304 0.72902801 0.40617658
0.84690866 0.77295958 0.37883118
0.000072349422 0.14839399 0.35289418
0.000089937167 0.17964618 0.43193834
0.036003511 0.21403011 0.42661376
0.15267419 0.24622039 0.42175613
0.22102055 0.28234617 0.41803426
0.18165231 0.25974008 0.41794472
0.24124065 0.29293944 0.41798239
0.29289452 0.32803418 0.41797451
0.34068947 0.36328504 0.42581151
0.38460766 0.39637716 0.43354046
0.35811722 0.3737435 0.42571688
0.40204635 0.40983336 0.43753352
0.44204304 0.44536803 0.44980988
0.48202889 0.48052163 0.46870841
0.52981954 0.51818031 0.46874088
0.49942469 0.49226274 0.46874618
0.54719068 0.53126429 0.46869302
0.59502162 0.56781043 0.46476408
0.64283066 0.60783421 0.45700395
0.69065121 0.64784235 0.44524365
0.66026557 0.62131244 0.4530874
0.71189462 0.66133054 0.44023322
0.75974266 0.70137916 0.42179064
0.81530839 0.74528375 0.39837541
0.86701835 0.78916694 0.36708629
0.000061891577 0.15803414 0.3826434
0.000063257014 0.19021416 0.43363311
0.089542029 0.22262845 0.4258793
0.18051467 0.25857959 0.41795386
0.24008473 0.29295314 0.41797325
0.20437015 0.27209339 0.41796575
0.26138362 0.30465596 0.41803297
0.30914173 0.34041228 0.42187036
0.35695673 0.3725556 0.42570775
0.40085845 0.40866373 0.43751981
0.37111216 0.38612733 0.42970932
0.4143507 0.42217036 0.44132378
0.45706874 0.45706874 0.45706874
0.49824592 0.49224447 0.46875531
0.54602099 0.53049939 0.46870216
0.51565454 0.50401086 0.46868138
0.56348052 0.54402974 0.46871927
0.61126228 0.58012628 0.46480504
0.65908146 0.62014092 0.45307826
0.71071811 0.66014846 0.44132193
0.67645771 0.63364403 0.44915537
0.72815265 0.67365107 0.43352225
0.77987185 0.71758868 0.41397656
0.83153076 0.75765951 0.38700196
0.88716168 0.80159426 0.35540809
0.00010904786 0.17037979 0.41125679
0.000099431724 0.20259145 0.42974771
0.12590702 0.23477601 0.42188164
0.20205375 0.27091463 0.41798403
0.26019572 0.30468337 0.41802383
0.2251188 0.28443167 0.41800192
0.27758322 0.3166431 0.41803456
0.32536239 0.35156159 0.42183657
0.37110759 0.38493029 0.42970932
0.41318459 0.42101079 0.44132822
0.38662041 0.39843033 0.4335243
0.4305859 0.43359941 0.4453274
0.47058652 0.4687862 0.46280515
0.51449249 0.50394877 0.46870671
0.5623163 0.5428489 0.46870951
0.53187005 0.51958229 0.46874119
0.5796939 0.5563399 0.46866303
0.6275117 0.59381048 0.46085381
0.6752775 0.63248209 0.44915238
0.72696475 0.67248144 0.43351311
0.69272029 0.64851283 0.44523861
0.74438398 0.68991225 0.42725266
0.79610924 0.72991015 0.40616955
0.84813242 0.77385949 0.37851711
0.90338923 0.81783681 0.34240359
