site/assets/luts/sha256-6b54b9859d6f497fb9c89e84109a82281fb6dd60f5c8ae909f0a9c7bbc851fc0.cube
# LUTr-Schema-Version: 2
# LUTr-ID: sha256-6b54b9859d6f497fb9c89e84109a82281fb6dd60f5c8ae909f0a9c7bbc851fc0
# LUTr-Title: fuji3510 cuspclip
# LUTr-Collection: Natron HaldCLUT
# LUTr-Collection-ID: natron-haldclut-presets
# LUTr-Source: https://github.com/NatronGitHub/clut
# LUTr-Retrieved: 2026-07-27
# LUTr-Source-File: submissions/natron-haldclut-presets/print/fuji3510_cuspclip.png
# LUTr-Source-Format: HALD-PNG
# LUTr-Source-SHA256: 6b54b9859d6f497fb9c89e84109a82281fb6dd60f5c8ae909f0a9c7bbc851fc0
# LUTr-License: CC-BY-SA-4.0
# LUTr-License-URL: https://github.com/NatronGitHub/clut#license
# LUTr-License-Basis: repo-license-file
# LUTr-Transform-Class: film-emulation
# LUTr-Tags: creative, film, film-emulation, hald-clut, natron, png, cube
# LUTr-Input-Color-Space: srgb
# LUTr-Input-Gamut: rec709
# LUTr-Input-Transfer: srgb
# LUTr-Output-Color-Space: srgb
# LUTr-Output-Gamut: rec709
# LUTr-Output-Transfer: srgb
# LUTr-Color-Space-Confidence: assumed-display-referred
# LUTr-Domain-Normalized: true
# LUTr-Shaper: none
# LUTr-Original-Grid: 64x64x64
# LUTr-Conversion-Grid: 25x25x25
# LUTr-Conversion-Interpolation: trilinear
# LUTr-Conversion-Method: HALD-PNG LUT image decoded at 16-bit and sampled to 25x25x25 3D CUBE
# LUTr-Conversion-Tool: LUTr scripts/convert-all-to-cube.mjs 2.0.0
# LUTr-Conversion-Date: 2026-07-27
# LUTr-Note: Preserve this metadata and the upstream license notices when redistributing.
TITLE "fuji3510 cuspclip"
LUT_3D_SIZE 5
DOMAIN_MIN 0 0 0
DOMAIN_MAX 1 1 1
0.0039215686 0 0.0039215686
0.057843137 0.026470588 0.015686275
0.31176471 0.023529412 0.0019607843
0.52745098 0 0
0.58823529 0 0
0.00098039216 0.092156863 0.043137255
0.083578431 0.12156863 0.043872549
0.40784314 0.16176471 0
0.65098039 0.19313725 0
0.70784314 0.21960784 0
0.0039215686 0.36666667 0.16078431
0.031372549 0.35196078 0.055882353
0.50882353 0.44901961 0
0.77990196 0.49607843 0.023529412
0.83137255 0.5254902 0.035294118
0.033333333 0.55784314 0.24313725
0 0.5754902 0.16421569
0.59509804 0.71176471 0.0078431373
0.87254902 0.75955882 0.059068627
0.92647059 0.77058824 0.071568627
0.023529412 0.61568627 0.29019608
0.0029411765 0.65294118 0.010784314
0.67058824 0.78627451 0.0058823529
0.92647059 0.8245098 0.082352941
0.98431373 0.83529412 0.098039216
0.015686275 0.020588235 0.07745098
0.081372549 0.039460784 0.080392157
0.36470588 0 0.078431373
0.59705882 0 0.078186275
0.65882353 0 0.084313725
0.0049019608 0.14117647 0.14313725
0.080821078 0.13180147 0.12395833
0.46446078 0.16580882 0.1060049
0.71642157 0.11207108 0.052941176
0.77843137 0.14730392 0.068627451
0.0049019608 0.42941176 0.28529412
0.017156863 0.41752451 0.21593137
0.57647059 0.49289216 0.071078431
0.8745098 0.51764706 0
0.92941176 0.53039216 0
0.030392157 0.61176471 0.38137255
0.02432598 0.64289216 0.32800245
0.62573529 0.76519608 0.0068627451
0.97254902 0.82003676 0.0010416667
0.99754902 0.82745098 0.042401961
0.024509804 0.68921569 0.51862745
0.040686275 0.72058824 0.42769608
0.64411765 0.83088235 0.34264706
0.97916667 0.8870098 0.30808824
1 0.89313725 0.39901961
0.0039215686 0.047058824 0.32352941
0.089215686 0.0098039216 0.3372549
0.41176471 0.0078431373 0.37647059
0.63529412 0.0034313725 0.38627451
0.69215686 0 0.39019608
0 0.25490196 0.44019608
0.037009804 0.18578431 0.43651961
0.49289216 0.17916667 0.46544118
0.74656863 0.12303922 0.46470588
0.80490196 0.15147059 0.48431373
0.014705882 0.53333333 0.59509804
0.0083333333 0.5379902 0.59583333
0.5622549 0.5627451 0.575
0.88921569 0.58970588 0.57573529
0.9372549 0.60294118 0.58235294
0.0034313725 0.70539216 0.6872549
0.0055147059 0.74558824 0.69558824
0.56323529 0.85073529 0.66078431
0.95931373 0.90588235 0.65196078
1 0.90588235 0.65490196
0.011764706 0.74901961 0.76078431
0.0019607843 0.80882353 0.77156863
0.58627451 0.89803922 0.7627451
0.94803922 0.95343137 0.76813725
1 0.96078431 0.7745098
0 0.24803922 0.51568627
0.085294118 0.029166667 0.52941176
0.43039216 0 0.5872549
0.66176471 0 0.60294118
0.71862745 0 0.61470588
0 0.35588235 0.62745098
0.0044117647 0.30661765 0.63976716
0.48970588 0.16029412 0.71960784
0.76623775 0.1247549 0.73351716
0.81764706 0.13848039 0.74901961
0.021078431 0.57254902 0.74607843
0.01372549 0.58284314 0.77218137
0.51789216 0.60441176 0.84926471
0.87843137 0.61936275 0.86176471
0.93284314 0.64117647 0.87696078
0.0039215686 0.73431373 0.82132353
0.011948529 0.77647059 0.85435049
0.50061275 0.89485294 0.92426471
0.93621324 0.94448529 0.93609069
1 0.96176471 0.94387255
0.02254902 0.76862745 0.84803922
0.031372549 0.82058824 0.8872549
0.53186275 0.92745098 0.94460784
0.93823529 0.98431373 0.9625
0.99607843 0.99215686 0.96176471
0 0.29411765 0.58039216
0.078431373 0.045098039 0.61372549
0.47254902 0.0019607843 0.70784314
0.7 0 0.70490196
0.75686275 0.0039215686 0.71372549
0 0.39411765 0.67254902
0.00098039216 0.36593137 0.70490196
0.49607843 0.24117647 0.79313725
0.78921569 0.22622549 0.8252451
0.84509804 0.26568627 0.84019608
0.0098039216 0.58627451 0.7745098
0.016176471 0.6 0.80490196
0.50098039 0.61960784 0.90588235
0.87156863 0.64509804 0.92941176
0.9372549 0.66862745 0.9372549
0.016666667 0.73431373 0.83235294
0.0088235294 0.77647059 0.87352941
0.47009804 0.8995098 0.96519608
0.93235294 0.95098039 0.98848039
0.99215686 0.95490196 0.98823529
0.035294118 0.76862745 0.85882353
0.00098039216 0.83039216 0.90882353
0.49411765 0.92941176 0.97058824
0.93137255 0.99215686 0.99215686
0.99607843 1 1
