site/assets/luts/sha256-d2094bc21b7028b4481e75813ee1d614ae98a8ffa01f975edd2c893c5350bf97.cube
# LUTr-Schema-Version: 2
# LUTr-ID: sha256-d2094bc21b7028b4481e75813ee1d614ae98a8ffa01f975edd2c893c5350bf97
# LUTr-Title: golden bright
# LUTr-Collection: Natron HaldCLUT
# LUTr-Collection-ID: natron-haldclut-presets
# LUTr-Source: https://github.com/NatronGitHub/clut
# LUTr-Retrieved: 2026-07-27
# LUTr-Source-File: submissions/natron-haldclut-presets/various/golden_bright.png
# LUTr-Source-Format: HALD-PNG
# LUTr-Source-SHA256: d2094bc21b7028b4481e75813ee1d614ae98a8ffa01f975edd2c893c5350bf97
# LUTr-License: CC-BY-SA-4.0
# LUTr-License-URL: https://github.com/NatronGitHub/clut#license
# LUTr-License-Basis: repo-license-file
# LUTr-Transform-Class: film-emulation
# LUTr-Tags: creative, film, film-emulation, hald-clut, natron, png, cube
# LUTr-Input-Color-Space: srgb
# LUTr-Input-Gamut: rec709
# LUTr-Input-Transfer: srgb
# LUTr-Output-Color-Space: srgb
# LUTr-Output-Gamut: rec709
# LUTr-Output-Transfer: srgb
# LUTr-Color-Space-Confidence: assumed-display-referred
# LUTr-Domain-Normalized: true
# LUTr-Shaper: none
# LUTr-Original-Grid: 64x64x64
# LUTr-Conversion-Grid: 25x25x25
# LUTr-Conversion-Interpolation: trilinear
# LUTr-Conversion-Method: HALD-PNG LUT image decoded at 16-bit and sampled to 25x25x25 3D CUBE
# LUTr-Conversion-Tool: LUTr scripts/convert-all-to-cube.mjs 2.0.0
# LUTr-Conversion-Date: 2026-07-27
# LUTr-Note: Preserve this metadata and the upstream license notices when redistributing.
TITLE "golden bright"
LUT_3D_SIZE 5
DOMAIN_MIN 0 0 0
DOMAIN_MAX 1 1 1
0.1254902 0.11372549 0.062745098
0.43431373 0.11078431 0.068627451
0.79215686 0.11960784 0.066666667
0.96078431 0.13529412 0.062745098
0.98431373 0.10980392 0.058823529
0.12647059 0.40686275 0.075490196
0.40392157 0.38112745 0.056862745
0.75637255 0.37156863 0.057352941
0.94607843 0.35784314 0.057843137
0.97647059 0.36078431 0.06372549
0.1372549 0.7254902 0.082352941
0.39019608 0.71421569 0.091666667
0.74411765 0.70686275 0.062745098
0.98235294 0.68823529 0.062745098
0.95882353 0.6745098 0.066666667
0.13431373 0.96666667 0.058823529
0.3627451 0.95490196 0.06372549
0.73088235 0.95588235 0.062745098
0.96666667 0.95612745 0.061764706
0.94607843 0.91176471 0.054901961
0.12156863 0.96470588 0.054901961
0.34019608 0.96862745 0.054901961
0.69803922 0.98235294 0.058823529
0.93333333 0.96960784 0.058823529
0.94901961 0.94901961 0.058823529
0.18823529 0.12156863 0.3245098
0.44607843 0.1254902 0.3129902
0.80196078 0.11666667 0.30882353
0.99607843 0.1372549 0.29803922
1 0.10980392 0.29019608
0.14534314 0.41372549 0.30980392
0.42254902 0.39191176 0.30122549
0.78235294 0.3872549 0.29056373
0.99178922 0.37058824 0.28216912
0.99607843 0.35980392 0.27377451
0.13333333 0.73137255 0.29166667
0.39117647 0.71568627 0.2807598
0.76397059 0.71421569 0.27058824
0.98921569 0.69607843 0.26029412
0.99607843 0.68823529 0.25098039
0.12622549 0.97426471 0.27352941
0.36348039 0.97132353 0.2625
0.73517157 0.95980392 0.24963235
0.99240196 0.95588235 0.23805147
1 0.95612745 0.22745098
0.1254902 0.98431373 0.25490196
0.33946078 0.98504902 0.24313725
0.70980392 0.99607843 0.23137255
0.9872549 1 0.22647059
1 1 0.21078431
0.18039216 0.1254902 0.59803922
0.44901961 0.12990196 0.58431373
0.80588235 0.11372549 0.58039216
1 0.11519608 0.56862745
1 0.11372549 0.57058824
0.13676471 0.40441176 0.58284314
0.42156863 0.3872549 0.56568627
0.78284314 0.38995098 0.55833333
0.99215686 0.36985294 0.54865196
0.99215686 0.34803922 0.5377451
0.12941176 0.73235294 0.56176471
0.38872549 0.71985294 0.55588235
0.75686275 0.70392157 0.54362745
0.99215686 0.69779412 0.53406863
0.98823529 0.69215686 0.5245098
0.13480392 0.98382353 0.53676471
0.36985294 0.97156863 0.53284314
0.73039216 0.95980392 0.52156863
0.99607843 0.96862745 0.51127451
1 0.95294118 0.4995098
0.12941176 0.99215686 0.52156863
0.33137255 0.99607843 0.50637255
0.70392157 0.99705882 0.49901961
0.97843137 1 0.49019608
1 1 0.48823529
0.13823529 0.1254902 0.86176471
0.4372549 0.12083333 0.84387255
0.79411765 0.12058824 0.84264706
1 0.10980392 0.83921569
1 0.11764706 0.83137255
0.14583333 0.40220588 0.83946078
0.41691176 0.39436275 0.83921569
0.77058824 0.3754902 0.82794118
0.9846201 0.36642157 0.81078431
1 0.35196078 0.80955882
0.14313725 0.71519608 0.81568627
0.38921569 0.71372549 0.81421569
0.75490196 0.70710784 0.80784314
0.99497549 0.69044118 0.8
1 0.67941176 0.78872549
0.12941176 0.97818627 0.80710784
0.35919118 0.96758578 0.80355392
0.72291667 0.96838235 0.78615196
0.98621324 0.95606618 0.77720588
0.99607843 0.94803922 0.76862745
0.1254902 0.97745098 0.78529412
0.33529412 0.99607843 0.78823529
0.68431373 0.98823529 0.76715686
0.97352941 0.99632353 0.75612745
0.99607843 0.99607843 0.75686275
0.1254902 0.11372549 0.89019608
0.41862745 0.11666667 0.89411765
0.76666667 0.11372549 0.90196078
0.98823529 0.12156863 0.93039216
0.98823529 0.12941176 0.92941176
0.13431373 0.39411765 0.92058824
0.40686275 0.38259804 0.9245098
0.75686275 0.3754902 0.92352941
0.97867647 0.35588235 0.9254902
0.94215686 0.32745098 0.8872549
0.14313725 0.70980392 0.93333333
0.37303922 0.69852941 0.92352941
0.7372549 0.69313725 0.9245098
0.97598039 0.67647059 0.92941176
0.97647059 0.66470588 0.91568627
0.13333333 0.94019608 0.9254902
0.35416667 0.94705882 0.9254902
0.71813725 0.94803922 0.93333333
0.93259804 0.93431373 0.90367647
0.9372549 0.89019608 0.88235294
0.13333333 0.99607843 0.9372549
0.31666667 0.96176471 0.90588235
0.68823529 0.97843137 0.92352941
0.92352941 0.94607843 0.88823529
0.98823529 0.99215686 0.93333333
