site/assets/luts/sha256-556ae2a8001dd915fc7c2b9d91c0920c66addffd0ef503e12cadb4a330f7a111.cube
# LUTr-Schema-Version: 2
# LUTr-ID: sha256-556ae2a8001dd915fc7c2b9d91c0920c66addffd0ef503e12cadb4a330f7a111
# LUTr-Title: fuji 160c +
# LUTr-Collection: Natron HaldCLUT
# LUTr-Collection-ID: natron-haldclut-presets
# LUTr-Source: https://github.com/NatronGitHub/clut
# LUTr-Retrieved: 2026-07-27
# LUTr-Source-File: submissions/natron-haldclut-presets/negative_new/fuji_160c_+.png
# LUTr-Source-Format: HALD-PNG
# LUTr-Source-SHA256: 556ae2a8001dd915fc7c2b9d91c0920c66addffd0ef503e12cadb4a330f7a111
# LUTr-License: CC-BY-SA-4.0
# LUTr-License-URL: https://github.com/NatronGitHub/clut#license
# LUTr-License-Basis: repo-license-file
# LUTr-Transform-Class: film-emulation
# LUTr-Tags: creative, film, film-emulation, hald-clut, natron, png, cube
# LUTr-Input-Color-Space: srgb
# LUTr-Input-Gamut: rec709
# LUTr-Input-Transfer: srgb
# LUTr-Output-Color-Space: srgb
# LUTr-Output-Gamut: rec709
# LUTr-Output-Transfer: srgb
# LUTr-Color-Space-Confidence: assumed-display-referred
# LUTr-Domain-Normalized: true
# LUTr-Shaper: none
# LUTr-Original-Grid: 64x64x64
# LUTr-Conversion-Grid: 25x25x25
# LUTr-Conversion-Interpolation: trilinear
# LUTr-Conversion-Method: HALD-PNG LUT image decoded at 16-bit and sampled to 25x25x25 3D CUBE
# LUTr-Conversion-Tool: LUTr scripts/convert-all-to-cube.mjs 2.0.0
# LUTr-Conversion-Date: 2026-07-27
# LUTr-Note: Preserve this metadata and the upstream license notices when redistributing.
TITLE "fuji 160c +"
LUT_3D_SIZE 9
DOMAIN_MIN 0 0 0
DOMAIN_MAX 1 1 1
0.011764706 0.015686275 0.0078431373
0.097058824 0.032352941 0.020098039
0.24607843 0.011764706 0.015686275
0.43284314 0.0078431373 0.025980392
0.60980392 0.0058823529 0.011764706
0.75098039 0.0039215686 0.0039215686
0.8745098 0.0068627451 0.0039215686
0.97303922 0.17058824 0.00049019608
0.99607843 0.28627451 0.019607843
0.015686275 0.11617647 0.024019608
0.060845588 0.11623775 0.015747549
0.24166667 0.10404412 0.0079656863
0.4346201 0.073529412 0.016666667
0.60980392 0.026470588 0.0017156863
0.75900735 0.028370098 0.0024509804
0.86703431 0.13872549 0.0039215686
0.95 0.24705882 0.0078431373
1 0.30882353 0.0039215686
0.0078431373 0.25 0.011764706
0.012132353 0.24607843 0.02254902
0.20882353 0.25784314 0.012745098
0.41960784 0.26078431 0.0039215686
0.60098039 0.24411765 0.0039215686
0.74705882 0.25012255 0.0006127451
0.85490196 0.28921569 0.0039215686
0.94362745 0.35085784 0.0078431373
1 0.38431373 0
0.0014705882 0.41862745 0.0039215686
0.015196078 0.41096814 0.015686275
0.10833333 0.40551471 0.0033088235
0.39509804 0.41317402 0.0078431373
0.58308824 0.42401961 0.0039215686
0.72892157 0.42886029 0
0.83860294 0.43970588 0
0.92696078 0.46145833 0.0039215686
0.99607843 0.48970588 0.0024509804
0 0.55882353 0.011764706
0.0019607843 0.55122549 0.0078431373
0.076470588 0.54117647 0.0039215686
0.36887255 0.53848039 0.0039215686
0.55098039 0.54901961 0.0039215686
0.70122549 0.56544118 0
0.8127451 0.575 0
0.90931373 0.57647059 0.0041666667
0.98823529 0.58039216 0.0058823529
0 0.66078431 0.006372549
0.0039215686 0.65716912 0.022058824
0.10379902 0.65539216 0.010784314
0.33682598 0.64901961 0.019546569
0.51348039 0.65294118 0.0053921569
0.65238971 0.65931373 0.0069240196
0.77107843 0.67205882 0.01997549
0.88676471 0.68676471 0.015502451
0.99166667 0.68676471 0.0073529412
0 0.76372549 0.11470588
0.072181373 0.76372549 0.12218137
0.23455882 0.75612745 0.13431373
0.38296569 0.75588235 0.14473039
0.51078431 0.75196078 0.14215686
0.6372549 0.75796569 0.14007353
0.74803922 0.76470588 0.15563725
0.86335784 0.77855392 0.1692402
0.95 0.79117647 0.18235294
0.22647059 0.86029412 0.26960784
0.27205882 0.86029412 0.28872549
0.35539216 0.86029412 0.29705882
0.43578431 0.85637255 0.30098039
0.53186275 0.85245098 0.28357843
0.63363971 0.85637255 0.30637255
0.73627451 0.86164216 0.30882353
0.84417892 0.87205882 0.33284314
0.93627451 0.88333333 0.35980392
0.39215686 0.95686275 0.44705882
0.41127451 0.95637255 0.44656863
0.45 0.95392157 0.45490196
0.50294118 0.95294118 0.46666667
0.57058824 0.94509804 0.4745098
0.64754902 0.95441176 0.49019608
0.73627451 0.95294118 0.49411765
0.82892157 0.96421569 0.5254902
0.87843137 0.95686275 0.5254902
0.030882353 0.054901961 0.076960784
0.11911765 0.058884804 0.081311275
0.25294118 0.0066176471 0.068627451
0.44166667 0.011764706 0.091666667
0.61740196 0.014215686 0.096568627
0.7627451 0.018137255 0.093443627
0.87401961 0.072058824 0.10392157
0.96133578 0.22009804 0.12745098
0.99607843 0.30147059 0.15490196
0.019607843 0.12303922 0.088664216
0.099563419 0.12744332 0.087431066
0.2689951 0.12438725 0.088235294
0.44215686 0.1004902 0.083739277
0.61544118 0.090502451 0.085018382
0.75909161 0.09442402 0.080392157
0.870481 0.18039216 0.081571691
0.95827206 0.27058058 0.1127451
0.98823529 0.31323529 0.13578431
0.0078431373 0.25735294 0.081862745
0.036565564 0.26095282 0.079901961
0.23370098 0.26519608 0.07622549
0.43265931 0.26337316 0.060906863
0.60465686 0.26121324 0.055943627
0.74960172 0.27740502 0.038327206
0.85808824 0.31191789 0.04721201
0.94738051 0.36214767 0.090395221
0.99264706 0.38921569 0.11090686
0.0036151961 0.42352941 0.044301471
0.0036534926 0.41993719 0.058601409
0.17420343 0.41354167 0.059834559
0.40325521 0.41606158 0.047970282
0.5875 0.4263174 0.018382353
0.72892157 0.42676164 0.020228248
0.83970588 0.44002757 0.021032475
0.93404565 0.46648284 0.033310355
0.99607843 0.49577206 0.10667892
0.0034313725 0.55857843 0.037745098
0.0019301471 0.5533701 0.051256127
0.12696078 0.54473039 0.069852941
0.36504289 0.54509804 0.050980392
0.54718137 0.55171569 0.042769608
0.69803922 0.56470588 0.023866422
0.81519608 0.57254902 0.0061887255
0.91323529 0.57257966 0.037254902
0.97671569 0.58235294 0.06127451
0.01127451 0.66715686 0.11813725
0.0043734681 0.66452206 0.11486673
0.17100184 0.65908395 0.12401961
0.36567862 0.65667892 0.12745098
0.51691176 0.65603554 0.12117034
0.6591299 0.66323529 0.11606158
0.77879902 0.67205882 0.096553309
0.89019608 0.68257506 0.086657475
0.96470588 0.68431373 0.096568627
0.013112745 0.76372549 0.18419118
0.10551471 0.76732537 0.20125613
0.26822917 0.75980392 0.21323529
0.38688725 0.75980392 0.21723346
0.51764706 0.75588235 0.22199755
0.63809743 0.75602022 0.21407782
0.75260417 0.76372549 0.21632966
0.86334252 0.7754902 0.22561275
0.9622549 0.79105392 0.25
0.25729167 0.86029412 0.32604167
0.2986443 0.85991881 0.31600797
0.35502451 0.86029412 0.3073989
0.43202359 0.8598652 0.31431526
0.53406863 0.85094975 0.3198223
0.6372932 0.85247396 0.34025735
0.7372549 0.85804228 0.35477941
0.84073989 0.86776195 0.36366422
0.94019608 0.88333333 0.390625
0.39215686 0.9495098 0.45833333
0.41127451 0.94859069 0.45484069
0.45294118 0.95686275 0.46911765
0.50686275 0.95704657 0.48186275
0.57254902 0.95490196 0.49583333
0.65 0.94901961 0.50147059
0.73627451 0.94987745 0.51029412
0.83284314 0.9495098 0.51813725
0.87843137 0.95735294 0.5377451
0.060784314 0.053921569 0.19803922
0.15441176 0.052328431 0.2064951
0.28504902 0.038970588 0.20318627
0.45196078 0.025367647 0.21176471
0.6254902 0.011764706 0.22303922
0.77205882 0.0045343137 0.23039216
0.87254902 0.15784314 0.2620098
0.95833333 0.26813725 0.27757353
0.99607843 0.33921569 0.30490196
0.041666667 0.13186275 0.21078431
0.15392157 0.14002757 0.21089154
0.29215686 0.13394608 0.2171875
0.45814951 0.10159314 0.21439951
0.63216912 0.10435049 0.22996324
0.77005208 0.16029412 0.24336703
0.86960784 0.23504902 0.25882353
0.95957414 0.30136336 0.27777267
0.9872549 0.34129902 0.3
0.015441176 0.27647059 0.22254902
0.098651961 0.28262868 0.22521446
0.28915441 0.28137255 0.23033088
0.46078431 0.28363971 0.23431373
0.62365196 0.29460784 0.23259804
0.75171569 0.30931373 0.22941176
0.85790441 0.3497549 0.24528186
0.95070466 0.38872549 0.27009804
0.99607843 0.41176471 0.28137255
0.006372549 0.44509804 0.23333333
0.1359375 0.43970588 0.23811275
0.27671569 0.42748162 0.23504902
0.43590686 0.42650123 0.2372549
0.60134804 0.43995098 0.22058824
0.72961091 0.44411765 0.2240962
0.84252451 0.46161152 0.22990196
0.93235294 0.48319547 0.23823529
0.98823529 0.50539216 0.27745098
0.029901961 0.57598039 0.2504902
0.080759804 0.5716299 0.24313725
0.25036765 0.56262255 0.24313725
0.4122549 0.55833333 0.2473652
0.56666667 0.56421569 0.24632353
0.70098039 0.56470588 0.24276961
0.81985294 0.57144608 0.22340686
0.91102941 0.57996324 0.23284314
0.98382353 0.59362745 0.25490196
0.050367647 0.67830882 0.2682598
0.13284314 0.6777114 0.27196691
0.26338848 0.66715686 0.26752451
0.39908088 0.66262255 0.26752451
0.54234069 0.66323529 0.27316176
0.66548713 0.66323529 0.27107843
0.78532475 0.67107843 0.26568627
0.8935049 0.67892157 0.26862745
0.97254902 0.68676471 0.26372549
0.16176471 0.76764706 0.30784314
0.23238358 0.76764706 0.31571691
0.30318627 0.76109069 0.31452206
0.4127451 0.75735294 0.31176471
0.53161765 0.75980392 0.32169118
0.64485294 0.75980392 0.32352941
0.75588235 0.75980392 0.32352941
0.86323529 0.76813725 0.32423407
0.95514706 0.78333333 0.34338235
0.28982843 0.85502451 0.3745098
0.32107843 0.86029412 0.38296569
0.38284314 0.86029412 0.3919424
0.45473346 0.84871324 0.39068627
0.53970588 0.84852941 0.40257353
0.64148284 0.85191483 0.40110294
0.73826593 0.85379902 0.40824142
0.83950674 0.86438419 0.42303922
0.94105392 0.88382353 0.44963235
0.39117647 0.9372549 0.48823529
0.42291667 0.94889706 0.5
0.46176471 0.95367647 0.50882353
0.51470588 0.94546569 0.51237745
0.57254902 0.94117647 0.51813725
0.65147059 0.94264706 0.52598039
0.74019608 0.95294118 0.54632353
0.83284314 0.96029412 0.56764706
0.87058824 0.95588235 0.5627451
0.079901961 0.068137255 0.3495098
0.18743873 0.065379902 0.35735294
0.31629902 0.051960784 0.36875
0.48529412 0.021997549 0.38241422
0.64117647 0.011764706 0.38014706
0.7745098 0.0078431373 0.36911765
0.8810049 0.094607843 0.38970588
0.95753676 0.2622549 0.41421569
0.99215686 0.37794118 0.45833333
0.099509804 0.14215686 0.35735294
0.19542739 0.14969363 0.36835937
0.32303922 0.15343137 0.37630208
0.48529412 0.1372549 0.38069853
0.64322917 0.08995098 0.37677696
0.77481618 0.11176471 0.37912071
0.87928922 0.21580882 0.3967065
0.96564798 0.30953585 0.42205882
0.99754902 0.41011029 0.46960784
0.055759804 0.26960784 0.37242647
0.18039216 0.27219669 0.37843137
0.32941176 0.28756127 0.38765319
0.48768382 0.29882047 0.3933364
0.62990196 0.30582108 0.39895833
0.75882353 0.32205882 0.40159314
0.8627451 0.35738358 0.41617647
0.9435049 0.41888787 0.44345895
0.99852941 0.46176471 0.46213235
0.011213235 0.44123775 0.39509804
0.12794118 0.44619332 0.4004902
0.32303922 0.44810049 0.41055453
0.47591912 0.44734222 0.4098652
0.62233456 0.4625 0.41498162
0.74313725 0.4634421 0.41917892
0.84607843 0.49166667 0.43144914
0.92824755 0.51194853 0.44362745
0.99215686 0.53284314 0.45392157
0.093872549 0.58946078 0.42132353
0.2122549 0.5875 0.41617647
0.35147059 0.58192402 0.42328431
0.47398897 0.57573529 0.41348039
0.60906863 0.57904412 0.41544118
0.72447917 0.5745098 0.41124387
0.8245098 0.57996324 0.40808824
0.9129902 0.59157475 0.41102941
0.98946078 0.60833333 0.43235294
0.29503676 0.69068627 0.44509804
0.33265931 0.69068627 0.44908854
0.37794118 0.68229167 0.42892157
0.46568627 0.67408088 0.42401961
0.57745098 0.6708027 0.42110907
0.69109222 0.67107843 0.42401961
0.78970588 0.67352941 0.41741728
0.89019608 0.67922794 0.41776195
0.9716299 0.69160539 0.42064951
0.30526961 0.78296569 0.45281863
0.33655025 0.77794118 0.45551471
0.38152574 0.77046569 0.43823529
0.45931373 0.7657935 0.43615196
0.55196078 0.75980392 0.43841912
0.65585172 0.76372549 0.44031863
0.75882353 0.76372549 0.44215686
0.86358762 0.77205882 0.45133272
0.95551471 0.7872549 0.44705882
0.32567402 0.87058824 0.4754902
0.36372549 0.87058824 0.48333333
0.41600797 0.86421569 0.48561581
0.4797258 0.85748315 0.48547794
0.55441176 0.85499387 0.49093137
0.63756127 0.85766697 0.49037224
0.73713235 0.86029412 0.49560355
0.83719363 0.86427696 0.50328585
0.93676471 0.88351716 0.52009804
0.43137255 0.9504902 0.56323529
0.44901961 0.96127451 0.56599265
0.47745098 0.95404412 0.56568627
0.52892157 0.95931373 0.57506127
0.58431373 0.94509804 0.57156863
0.65392157 0.94754902 0.58474265
0.74019608 0.95245098 0.59693627
0.82892157 0.94583333 0.59650735
0.9004902 0.96078431 0.62598039
0.16666667 0.10588235 0.5
0.21936275 0.072303922 0.51151961
0.35245098 0.085784314 0.51715686
0.50833333 0.079901961 0.52867647
0.64607843 0.066666667 0.54607843
0.76862745 0.069607843 0.5377451
0.87401961 0.12401961 0.52598039
0.95955882 0.22720588 0.5375
1 0.33529412 0.55098039
0.19411765 0.17303922 0.50392157
0.24972426 0.16911765 0.51151961
0.36446078 0.17683824 0.51715686
0.5122549 0.18023897 0.52867647
0.64411765 0.18235294 0.54509804
0.76896446 0.18504902 0.546875
0.87469363 0.21991422 0.53848039
0.95 0.30003064 0.54509804
0.98259804 0.3622549 0.55269608
0.17352941 0.28529412 0.50931373
0.23829657 0.27824755 0.51501225
0.37254902 0.29754902 0.525
0.50906863 0.31960784 0.53848039
0.64436275 0.33039216 0.54828431
0.7653799 0.33235294 0.54901961
0.8622549 0.36727941 0.55294118
0.94742647 0.40465686 0.55784314
0.98921569 0.4504902 0.56813725
0.13627451 0.41372549 0.52401961
0.22965686 0.42313113 0.52858456
0.36691176 0.43694853 0.53890931
0.50833333 0.45585172 0.55238971
0.63529412 0.47512255 0.56139706
0.75098039 0.47107843 0.55808824
0.84754902 0.49705882 0.57034314
0.92824755 0.52052696 0.5745098
0.98823529 0.54068627 0.57843137
0.16568627 0.5745098 0.54509804
0.25232843 0.58419118 0.55294118
0.37843137 0.58970588 0.56617647
0.50747549 0.58039216 0.55919118
0.63039216 0.59264706 0.57205882
0.73186275 0.59411765 0.57058824
0.82647059 0.60318627 0.57156863
0.91409314 0.61102941 0.5629902
0.98333333 0.62647059 0.57843137
0.31936275 0.69852941 0.57132353
0.34420956 0.71136642 0.58103554
0.42156863 0.7004902 0.58039216
0.52257966 0.69656863 0.57598039
0.61421569 0.69718137 0.57414216
0.70854779 0.69264706 0.5703125
0.7995098 0.69417892 0.5622549
0.89411765 0.69647672 0.55873162
0.96789216 0.69852941 0.55294118
0.38970588 0.79509804 0.58921569
0.41838235 0.79313725 0.59068627
0.47365196 0.79080882 0.58884804
0.5151348 0.78529412 0.57647059
0.59044118 0.78137255 0.56715686
0.67598039 0.77408088 0.5627451
0.77058824 0.775 0.56078431
0.87107843 0.78333333 0.56525735
0.96127451 0.79117647 0.56764706
0.45073529 0.87377451 0.61397059
0.43189338 0.87769608 0.59684436
0.46789216 0.87444853 0.59656863
0.51421569 0.87009804 0.5870098
0.57193627 0.86593137 0.58333333
0.64877451 0.86421569 0.58318015
0.74589461 0.86421569 0.59509804
0.84264706 0.87227328 0.60122549
0.9377451 0.88382353 0.60686275
0.47647059 0.93529412 0.63921569
0.48848039 0.95269608 0.64338235
0.49901961 0.95833333 0.63578431
0.54877451 0.95686275 0.64117647
0.59803922 0.95686275 0.64509804
0.66372549 0.94387255 0.64191176
0.74558824 0.95343137 0.65539216
0.83676471 0.95906863 0.67083333
0.90784314 0.96078431 0.68431373
0.26078431 0.12058824 0.63333333
0.3286152 0.12107843 0.64099265
0.42303922 0.12352941 0.65257353
0.54699755 0.13964461 0.65839461
0.66029412 0.18161765 0.66789216
0.77003676 0.20196078 0.66862745
0.85882353 0.22107843 0.66372549
0.9526348 0.25980392 0.65637255
1 0.29656863 0.64901961
0.29001225 0.2 0.63333333
0.33645833 0.18866422 0.64113817
0.43431373 0.20294118 0.64773284
0.55281097 0.21998315 0.65686275
0.67441789 0.24650735 0.67058824
0.77273284 0.275 0.67647059
0.85784314 0.2877451 0.66727941
0.94133732 0.32224265 0.65535386
0.99362745 0.34932598 0.65147059
0.29313725 0.3004902 0.64117647
0.34313725 0.3024663 0.6372549
0.4307598 0.31173407 0.64509804
0.55245098 0.33601409 0.66231618
0.65863971 0.36421569 0.67273284
0.76727941 0.38541667 0.68039216
0.85811887 0.38949142 0.67254902
0.93439032 0.41470588 0.66465993
0.99362745 0.4435049 0.66041667
0.25294118 0.41372549 0.64117647
0.31666667 0.41764706 0.64117647
0.407644 0.42464767 0.64888174
0.53431373 0.45147059 0.66323529
0.64898897 0.48235294 0.67650123
0.75432751 0.49754902 0.68039216
0.84649203 0.50245098 0.68238358
0.93088235 0.51452972 0.67248009
0.98823529 0.54068627 0.675
0.2629902 0.54044118 0.64754902
0.31773897 0.55539216 0.65343137
0.41256127 0.55931373 0.66470588
0.52352941 0.57107843 0.675
0.64080882 0.59767157 0.68443627
0.73970588 0.60980392 0.69068627
0.82898284 0.61495098 0.69142157
0.91715686 0.63137255 0.69371936
0.98676471 0.64240196 0.69583333
0.33082108 0.68731618 0.67555147
0.36685049 0.68957567 0.68032322
0.4328125 0.69571078 0.68039216
0.525 0.69852941 0.68506434
0.63287377 0.70490196 0.69022672
0.72820159 0.70487898 0.69250153
0.81262255 0.71444547 0.69875919
0.89803922 0.71421569 0.68950674
0.97647059 0.71421569 0.68039216
0.39019608 0.79178922 0.6877451
0.42107843 0.80686275 0.69829963
0.47601103 0.80867034 0.69852941
0.5462163 0.80441176 0.69607843
0.6245098 0.79730392 0.69068627
0.70686275 0.79227941 0.68823529
0.78676471 0.79056373 0.68823529
0.87654718 0.78835784 0.68382353
0.96948529 0.78872549 0.6810049
0.45637255 0.87990196 0.70655637
0.47107843 0.88682598 0.70637255
0.50454963 0.88903186 0.70422794
0.56439185 0.88430607 0.70655637
0.60557598 0.88054534 0.69191176
0.67323836 0.87194393 0.6846201
0.75980392 0.86845895 0.69517463
0.85792739 0.87640931 0.70324755
0.96194853 0.8872549 0.70079657
0.51862745 0.93970588 0.72843137
0.53186275 0.95177696 0.73627451
0.55 0.95735294 0.72892157
0.5966299 0.95925245 0.73382353
0.62696078 0.96004902 0.72328431
0.68284314 0.95202206 0.72058824
0.75735294 0.9372549 0.72242647
0.84852941 0.95165441 0.74068627
0.91666667 0.96078431 0.7495098
0.40784314 0.19901961 0.74901961
0.43823529 0.1932598 0.75294118
0.51470588 0.1879902 0.76470588
0.60539216 0.20526961 0.77156863
0.70098039 0.25490196 0.7754902
0.78762255 0.30147059 0.78333333
0.87352941 0.31789216 0.79117647
0.94607843 0.3372549 0.775
0.99509804 0.35980392 0.75196078
0.42708333 0.23443627 0.75637255
0.44509804 0.22625613 0.76078431
0.51467525 0.24411765 0.76363358
0.60539216 0.26703431 0.76654412
0.69362745 0.30735294 0.77156863
0.78970588 0.35301777 0.78541667
0.86865809 0.37806373 0.7823223
0.94635417 0.38180147 0.77958027
0.97696078 0.3932598 0.76066176
0.41887255 0.34240196 0.75686275
0.44512868 0.3385723 0.75686275
0.50667892 0.33995098 0.75741422
0.59681373 0.36292892 0.76654412
0.6870098 0.39411765 0.7754902
0.78204657 0.42696078 0.7872549
0.86476716 0.45122549 0.79117647
0.93431373 0.46216299 0.78026961
0.98259804 0.47254902 0.76372549
0.38615196 0.43676471 0.75232843
0.40651042 0.43583027 0.75196078
0.48492647 0.44702819 0.75906863
0.58056066 0.46868873 0.76470588
0.67107843 0.49368873 0.77156863
0.76556373 0.51568627 0.78480392
0.85119485 0.52999387 0.79154412
0.92953431 0.54607843 0.78288909
0.96973039 0.55490196 0.77156863
0.31078431 0.52990196 0.74264706
0.34993873 0.53363971 0.74460784
0.44215686 0.55061275 0.75784314
0.54068627 0.56727941 0.76372549
0.64485294 0.58651961 0.77156863
0.75091912 0.6088848 0.78088235
0.83664216 0.62254902 0.78823529
0.91813725 0.63596814 0.78964461
0.97401961 0.6495098 0.7872549
0.35085784 0.65980392 0.76090686
0.3745098 0.65686275 0.76090686
0.43918505 0.66764706 0.76372549
0.51156556 0.66058517 0.76127451
0.6247549 0.68235294 0.77303922
0.7245098 0.68924632 0.77941176
0.81908701 0.71580882 0.79071691
0.90165441 0.72990196 0.79117647
0.97254902 0.73051471 0.79227941
0.39485294 0.78504902 0.78039216
0.42107843 0.77941176 0.77941176
0.47610294 0.78498775 0.78259804
0.54705882 0.7872549 0.78333333
0.62892157 0.78627451 0.78333333
0.71029412 0.78051471 0.78541667
0.80214461 0.79981618 0.79509804
0.88648897 0.80612745 0.79509804
0.97279412 0.81176471 0.80490196
0.46029412 0.88382353 0.79546569
0.47893689 0.87977941 0.79546569
0.51617647 0.88688725 0.79880515
0.57794118 0.89558824 0.80208333
0.640625 0.8877451 0.79558824
0.71865809 0.88394608 0.80306373
0.7872549 0.88268995 0.79901961
0.86776961 0.87942708 0.79908088
0.94987745 0.88737745 0.80686275
0.53333333 0.96470588 0.81078431
0.5372549 0.96115196 0.81115196
0.56764706 0.96176471 0.81078431
0.61029412 0.95110294 0.81372549
0.66764706 0.96519608 0.81862745
0.71470588 0.93026961 0.80686275
0.77965686 0.94754902 0.80490196
0.86127451 0.94901961 0.81507353
0.94509804 0.95588235 0.8254902
0.53137255 0.27205882 0.86862745
0.55392157 0.26997549 0.86427696
0.59252451 0.29166667 0.86433824
0.66685049 0.31862745 0.86813725
0.7377451 0.34166667 0.87205882
0.80686275 0.39283088 0.87959559
0.88039216 0.46041667 0.87990196
0.95042892 0.44901961 0.88382353
0.99215686 0.45294118 0.86421569
0.53921569 0.3377451 0.87205882
0.5504902 0.33431373 0.86465227
0.59914216 0.32608762 0.86813725
0.65686275 0.35226716 0.8651348
0.73382353 0.39460784 0.8705576
0.80296415 0.43118873 0.8754902
0.87647059 0.47685355 0.87598039
0.95 0.4754902 0.88033088
0.97996324 0.4754902 0.8754902
0.53223039 0.40343137 0.86813725
0.54335172 0.40225184 0.86470588
0.58946078 0.4060049 0.8685049
0.65257353 0.42855392 0.86813725
0.71911765 0.45269608 0.87003676
0.79568015 0.48333333 0.87567402
0.87034314 0.52588848 0.87990196
0.93518689 0.53370098 0.87593444
0.97647059 0.53419118 0.87205882
0.50147059 0.49050245 0.85686275
0.51748621 0.48020833 0.86191023
0.56531863 0.49598652 0.86462929
0.62929687 0.51078431 0.86813725
0.70147059 0.53186275 0.87009804
0.78206189 0.56040901 0.87414982
0.86136642 0.589231 0.87959559
0.93039216 0.59834559 0.87598039
0.98088235 0.59411765 0.87469363
0.44901961 0.57156863 0.85465686
0.46375613 0.56323529 0.85836397
0.52052696 0.57677696 0.86360294
0.59935662 0.59411765 0.86421569
0.67916667 0.61335784 0.86519608
0.76878064 0.63979779 0.86813725
0.84908088 0.6567402 0.87579657
0.92061887 0.67156863 0.87990196
0.98088235 0.67132353 0.87794118
0.39834559 0.65196078 0.85116422
0.40971967 0.6495098 0.85245098
0.4490962 0.64675245 0.85245098
0.54246324 0.66813725 0.85637255
0.62873775 0.66574755 0.85603554
0.73676471 0.69901961 0.86501991
0.82941176 0.72982537 0.87598039
0.90949755 0.74852941 0.88290441
0.98020833 0.74852941 0.87726716
0.42928922 0.7685049 0.86127451
0.43713235 0.76732537 0.86507353
0.4861826 0.76691176 0.86421569
0.54215686 0.76367953 0.86519608
0.62175245 0.7658701 0.86507353
0.71421569 0.77438725 0.8739277
0.81384804 0.80438113 0.88403799
0.895481 0.82173713 0.8872549
0.96862745 0.82598039 0.88860294
0.46029412 0.8754902 0.88039216
0.49112286 0.87205882 0.87640931
0.52473958 0.87640931 0.87870711
0.57058824 0.8754902 0.88033088
0.640625 0.86464461 0.87640931
0.72254902 0.87379749 0.88382353
0.80686275 0.88382353 0.8877451
0.89198836 0.89117647 0.89166667
0.9651348 0.89901961 0.89558824
0.53333333 0.96862745 0.89166667
0.54460784 0.96476716 0.89123775
0.57941176 0.975 0.89117647
0.61911765 0.96715686 0.89381127
0.68235294 0.96078431 0.89166667
0.74460784 0.95998775 0.89166667
0.80245098 0.95686275 0.89117647
0.88823529 0.96078431 0.89558824
0.96078431 0.9495098 0.89558824
0.63921569 0.43529412 0.96862745
0.63186275 0.40882353 0.94215686
0.67352941 0.44215686 0.96078431
0.71470588 0.4495098 0.95294118
0.76470588 0.4745098 0.95294118
0.82254902 0.51372549 0.95539216
0.88431373 0.54705882 0.95392157
0.94656863 0.57696078 0.95686275
0.99215686 0.59215686 0.95686275
0.63480392 0.45441176 0.96078431
0.64613971 0.45833333 0.95729167
0.66960784 0.46482843 0.95588235
0.70833333 0.47775735 0.95294118
0.75686275 0.49166667 0.94681373
0.81439951 0.51568627 0.94460784
0.88039216 0.56911765 0.94901961
0.94607843 0.60778186 0.96035539
0.96470588 0.60294118 0.95294118
0.6245098 0.50392157 0.95294118
0.63615196 0.50784314 0.95686275
0.66789216 0.51862745 0.96053922
0.70294118 0.52806373 0.95686275
0.75294118 0.54460784 0.95441176
0.81078431 0.57205882 0.95355392
0.87254902 0.60392157 0.94901961
0.93823529 0.62696078 0.95294118
0.98333333 0.63431373 0.95686275
0.60931373 0.56960784 0.95686275
0.62077206 0.56979167 0.95471814
0.65110294 0.57928922 0.95980392
0.68627451 0.58676471 0.95441176
0.74117647 0.59779412 0.95294118
0.80441176 0.62297794 0.95294118
0.87009804 0.64840686 0.95294118
0.93609069 0.66764706 0.95294118
0.99215686 0.64852941 0.93480392
0.56078431 0.62352941 0.95294118
0.58970588 0.63308824 0.95514706
0.62107843 0.63529412 0.94901961
0.66176471 0.64240196 0.94901961
0.72745098 0.65686275 0.95196078
0.79387255 0.67401961 0.94901961
0.86078431 0.69901961 0.94901961
0.93039216 0.72352941 0.95294118
0.99215686 0.71764706 0.94901961
0.52009804 0.68529412 0.95147059
0.50465686 0.67463235 0.92849265
0.55294118 0.68529412 0.93970588
0.6098652 0.6971201 0.93731618
0.68651961 0.70735294 0.92990196
0.77009804 0.7245098 0.9372549
0.85147059 0.75294118 0.95257353
0.92107843 0.7754902 0.95508578
0.98039216 0.7872549 0.95539216
0.50588235 0.77156863 0.95392157
0.51727941 0.77156863 0.95306373
0.54117647 0.76862745 0.94779412
0.56519608 0.75796569 0.93137255
0.64313725 0.76568627 0.9254902
0.72892157 0.7877451 0.95355392
0.8254902 0.81470588 0.95465686
0.90992647 0.83382353 0.96041667
0.97647059 0.85 0.96176471
0.47647059 0.87254902 0.91470588
0.5372549 0.87205882 0.95735294
0.56029412 0.86813725 0.94901961
0.60147059 0.86813725 0.95931373
0.65931373 0.86446078 0.94705882
0.72254902 0.86813725 0.95392157
0.81078431 0.8807598 0.9564951
0.89901961 0.89166667 0.96464461
0.95637255 0.90294118 0.95196078
0.54117647 0.94509804 0.9372549
0.55637255 0.93627451 0.96470588
0.58823529 0.9627451 0.96666667
0.62598039 0.96078431 0.95441176
0.68823529 0.9627451 0.95686275
0.75196078 0.96323529 0.93088235
0.8254902 0.96372549 0.96666667
0.89509804 0.96421569 0.93382353
0.97254902 0.97254902 0.97647059
