site/assets/luts/sha256-f298e34b955ee14c69b6fe1bf7215647b490856fd7e68756988d5ddb99cf3f3d.cube
# LUTr-Schema-Version: 2
# LUTr-ID: sha256-f298e34b955ee14c69b6fe1bf7215647b490856fd7e68756988d5ddb99cf3f3d
# LUTr-Title: fuji ilford delta 3200 -
# LUTr-Collection: Natron HaldCLUT
# LUTr-Collection-ID: natron-haldclut-presets
# LUTr-Source: https://github.com/NatronGitHub/clut
# LUTr-Retrieved: 2026-07-27
# LUTr-Source-File: submissions/natron-haldclut-presets/negative_old/fuji_ilford_delta_3200_-.png
# LUTr-Source-Format: HALD-PNG
# LUTr-Source-SHA256: f298e34b955ee14c69b6fe1bf7215647b490856fd7e68756988d5ddb99cf3f3d
# LUTr-License: CC-BY-SA-4.0
# LUTr-License-URL: https://github.com/NatronGitHub/clut#license
# LUTr-License-Basis: repo-license-file
# LUTr-Transform-Class: film-emulation
# LUTr-Tags: creative, film, film-emulation, hald-clut, natron, png, cube
# LUTr-Input-Color-Space: srgb
# LUTr-Input-Gamut: rec709
# LUTr-Input-Transfer: srgb
# LUTr-Output-Color-Space: srgb
# LUTr-Output-Gamut: rec709
# LUTr-Output-Transfer: srgb
# LUTr-Color-Space-Confidence: assumed-display-referred
# LUTr-Domain-Normalized: true
# LUTr-Shaper: none
# LUTr-Original-Grid: 64x64x64
# LUTr-Conversion-Grid: 25x25x25
# LUTr-Conversion-Interpolation: trilinear
# LUTr-Conversion-Method: HALD-PNG LUT image decoded at 16-bit and sampled to 25x25x25 3D CUBE
# LUTr-Conversion-Tool: LUTr scripts/convert-all-to-cube.mjs 2.0.0
# LUTr-Conversion-Date: 2026-07-27
# LUTr-Note: Preserve this metadata and the upstream license notices when redistributing.
TITLE "fuji ilford delta 3200 -"
LUT_3D_SIZE 9
DOMAIN_MIN 0 0 0
DOMAIN_MAX 1 1 1
0.062745098 0.062745098 0.062745098
0.066666667 0.066666667 0.066666667
0.07745098 0.07745098 0.07745098
0.10539216 0.10539216 0.10539216
0.20196078 0.20196078 0.20196078
0.29705882 0.29705882 0.29705882
0.38235294 0.38235294 0.38235294
0.46862745 0.46862745 0.46862745
0.59215686 0.59215686 0.59215686
0.062745098 0.062745098 0.062745098
0.077941176 0.077941176 0.077941176
0.091176471 0.091176471 0.091176471
0.1495098 0.1495098 0.1495098
0.22279412 0.22279412 0.22279412
0.30588235 0.30588235 0.30588235
0.38676471 0.38676471 0.38676471
0.47598039 0.47598039 0.47598039
0.5877451 0.5877451 0.5877451
0.10882353 0.10882353 0.10882353
0.10490196 0.10490196 0.10490196
0.13039216 0.13039216 0.13039216
0.19791667 0.19791667 0.19791667
0.27107843 0.27107843 0.27107843
0.34252451 0.34252451 0.34252451
0.41764706 0.41764706 0.41764706
0.51078431 0.51078431 0.51078431
0.63627451 0.63627451 0.63627451
0.20343137 0.20343137 0.20343137
0.20735294 0.20735294 0.20735294
0.23272059 0.23272059 0.23272059
0.26078431 0.26078431 0.26078431
0.3252451 0.3252451 0.3252451
0.39607843 0.39607843 0.39607843
0.46605392 0.46605392 0.46605392
0.54773284 0.54773284 0.54773284
0.6495098 0.6495098 0.6495098
0.31176471 0.31176471 0.31176471
0.31568627 0.31568627 0.31568627
0.33039216 0.33039216 0.33039216
0.35343137 0.35343137 0.35343137
0.39117647 0.39117647 0.39117647
0.44607843 0.44607843 0.44607843
0.51421569 0.51421569 0.51421569
0.60147059 0.60147059 0.60147059
0.69215686 0.69215686 0.69215686
0.42401961 0.42401961 0.42401961
0.42156863 0.42156863 0.42156863
0.42401961 0.42401961 0.42401961
0.44068627 0.44068627 0.44068627
0.47696078 0.47696078 0.47696078
0.50245098 0.50245098 0.50245098
0.57058824 0.57058824 0.57058824
0.65980392 0.65980392 0.65980392
0.75980392 0.75980392 0.75980392
0.54607843 0.54607843 0.54607843
0.53823529 0.53823529 0.53823529
0.54583333 0.54583333 0.54583333
0.55931373 0.55931373 0.55931373
0.58235294 0.58235294 0.58235294
0.60968137 0.60968137 0.60968137
0.65588235 0.65588235 0.65588235
0.72107843 0.72107843 0.72107843
0.81470588 0.81470588 0.81470588
0.7122549 0.7122549 0.7122549
0.70839461 0.70839461 0.70839461
0.70833333 0.70833333 0.70833333
0.70882353 0.70882353 0.70882353
0.73382353 0.73382353 0.73382353
0.76096814 0.76096814 0.76096814
0.79558824 0.79558824 0.79558824
0.82297794 0.82297794 0.82297794
0.8872549 0.8872549 0.8872549
0.8627451 0.8627451 0.8627451
0.86715686 0.86715686 0.86715686
0.87058824 0.87058824 0.87058824
0.87843137 0.87843137 0.87843137
0.87843137 0.87843137 0.87843137
0.88235294 0.88235294 0.88235294
0.91862745 0.91862745 0.91862745
0.9377451 0.9377451 0.9377451
0.95294118 0.95294118 0.95294118
0.062745098 0.062745098 0.062745098
0.066666667 0.066666667 0.066666667
0.085171569 0.085171569 0.085171569
0.13952206 0.13952206 0.13952206
0.2252451 0.2252451 0.2252451
0.30833333 0.30833333 0.30833333
0.38676471 0.38676471 0.38676471
0.4754902 0.4754902 0.4754902
0.55686275 0.55686275 0.55686275
0.058823529 0.058823529 0.058823529
0.088350184 0.088350184 0.088350184
0.11106005 0.11106005 0.11106005
0.17604167 0.17604167 0.17604167
0.24779412 0.24779412 0.24779412
0.32107843 0.32107843 0.32107843
0.40110294 0.40110294 0.40110294
0.4872549 0.4872549 0.4872549
0.590625 0.590625 0.590625
0.13688725 0.13688725 0.13688725
0.14215686 0.14215686 0.14215686
0.1765625 0.1765625 0.1765625
0.22205882 0.22205882 0.22205882
0.29607843 0.29607843 0.29607843
0.3622549 0.3622549 0.3622549
0.43186275 0.43186275 0.43186275
0.51770833 0.51770833 0.51770833
0.62156863 0.62156863 0.62156863
0.2341299 0.2341299 0.2341299
0.24011183 0.24011183 0.24011183
0.25502451 0.25502451 0.25502451
0.28763021 0.28763021 0.28763021
0.34528186 0.34528186 0.34528186
0.40373009 0.40373009 0.40373009
0.46755515 0.46755515 0.46755515
0.5567019 0.5567019 0.5567019
0.66470588 0.66470588 0.66470588
0.32696078 0.32696078 0.32696078
0.33480392 0.33480392 0.33480392
0.3495098 0.3495098 0.3495098
0.37034314 0.37034314 0.37034314
0.39963235 0.39963235 0.39963235
0.4518076 0.4518076 0.4518076
0.51985294 0.51985294 0.51985294
0.6073223 0.6073223 0.6073223
0.70147059 0.70147059 0.70147059
0.43155637 0.43155637 0.43155637
0.43502604 0.43502604 0.43502604
0.44313725 0.44313725 0.44313725
0.45993413 0.45993413 0.45993413
0.48609069 0.48609069 0.48609069
0.51256893 0.51256893 0.51256893
0.58132659 0.58132659 0.58132659
0.67107843 0.67107843 0.67107843
0.76372549 0.76372549 0.76372549
0.55 0.55 0.55
0.54901961 0.54901961 0.54901961
0.56102941 0.56102941 0.56102941
0.57023591 0.57023591 0.57023591
0.59515931 0.59515931 0.59515931
0.62585784 0.62585784 0.62585784
0.65943627 0.65943627 0.65943627
0.725 0.725 0.725
0.81764706 0.81764706 0.81764706
0.71660539 0.71660539 0.71660539
0.71573989 0.71573989 0.71573989
0.71660539 0.71660539 0.71660539
0.71636029 0.71636029 0.71636029
0.7377451 0.7377451 0.7377451
0.76862745 0.76862745 0.76862745
0.79558824 0.79558824 0.79558824
0.82598039 0.82598039 0.82598039
0.8872549 0.8872549 0.8872549
0.8627451 0.8627451 0.8627451
0.87279412 0.87279412 0.87279412
0.87352941 0.87352941 0.87352941
0.86727941 0.86727941 0.86727941
0.89387255 0.89387255 0.89387255
0.87696078 0.87696078 0.87696078
0.92732843 0.92732843 0.92732843
0.92990196 0.92990196 0.92990196
0.9377451 0.9377451 0.9377451
0.089215686 0.089215686 0.089215686
0.086151961 0.086151961 0.086151961
0.13259804 0.13259804 0.13259804
0.16678922 0.16678922 0.16678922
0.25098039 0.25098039 0.25098039
0.33284314 0.33284314 0.33284314
0.41372549 0.41372549 0.41372549
0.51041667 0.51041667 0.51041667
0.61078431 0.61078431 0.61078431
0.096078431 0.096078431 0.096078431
0.12254902 0.12254902 0.12254902
0.15229779 0.15229779 0.15229779
0.20727635 0.20727635 0.20727635
0.275 0.275 0.275
0.35257353 0.35257353 0.35257353
0.43189338 0.43189338 0.43189338
0.51856618 0.51856618 0.51856618
0.60490196 0.60490196 0.60490196
0.16078431 0.16078431 0.16078431
0.16911765 0.16911765 0.16911765
0.21862745 0.21862745 0.21862745
0.26161152 0.26161152 0.26161152
0.32647059 0.32647059 0.32647059
0.38949142 0.38949142 0.38949142
0.4627451 0.4627451 0.4627451
0.54460784 0.54460784 0.54460784
0.6379902 0.6379902 0.6379902
0.26127451 0.26127451 0.26127451
0.26764706 0.26764706 0.26764706
0.29442402 0.29442402 0.29442402
0.33301164 0.33301164 0.33301164
0.37794118 0.37794118 0.37794118
0.43431373 0.43431373 0.43431373
0.49816176 0.49816176 0.49816176
0.58578431 0.58578431 0.58578431
0.66727941 0.66727941 0.66727941
0.35784314 0.35784314 0.35784314
0.36568627 0.36568627 0.36568627
0.37892157 0.37892157 0.37892157
0.40147059 0.40147059 0.40147059
0.43627451 0.43627451 0.43627451
0.47843137 0.47843137 0.47843137
0.54571078 0.54571078 0.54571078
0.63186275 0.63186275 0.63186275
0.72843137 0.72843137 0.72843137
0.45833333 0.45833333 0.45833333
0.4658701 0.4658701 0.4658701
0.47401961 0.47401961 0.47401961
0.47941176 0.47941176 0.47941176
0.50416667 0.50416667 0.50416667
0.53468137 0.53468137 0.53468137
0.59632353 0.59632353 0.59632353
0.68578431 0.68578431 0.68578431
0.76973039 0.76973039 0.76973039
0.56078431 0.56078431 0.56078431
0.57904412 0.57904412 0.57904412
0.5879902 0.5879902 0.5879902
0.58808211 0.58808211 0.58808211
0.6127451 0.6127451 0.6127451
0.64754902 0.64754902 0.64754902
0.68235294 0.68235294 0.68235294
0.74460784 0.74460784 0.74460784
0.82941176 0.82941176 0.82941176
0.72438725 0.72438725 0.72438725
0.73448223 0.73448223 0.73448223
0.73186275 0.73186275 0.73186275
0.73578431 0.73578431 0.73578431
0.75226716 0.75226716 0.75226716
0.77512255 0.77512255 0.77512255
0.80343137 0.80343137 0.80343137
0.83823529 0.83823529 0.83823529
0.88823529 0.88823529 0.88823529
0.86568627 0.86568627 0.86568627
0.87254902 0.87254902 0.87254902
0.88137255 0.88137255 0.88137255
0.88235294 0.88235294 0.88235294
0.89019608 0.89019608 0.89019608
0.89852941 0.89852941 0.89852941
0.91862745 0.91862745 0.91862745
0.92928922 0.92928922 0.92928922
0.92843137 0.92843137 0.92843137
0.13186275 0.13186275 0.13186275
0.14509804 0.14509804 0.14509804
0.19509804 0.19509804 0.19509804
0.22941176 0.22941176 0.22941176
0.29191176 0.29191176 0.29191176
0.36072304 0.36072304 0.36072304
0.44460784 0.44460784 0.44460784
0.53333333 0.53333333 0.53333333
0.63529412 0.63529412 0.63529412
0.16372549 0.16372549 0.16372549
0.1903799 0.1903799 0.1903799
0.21885723 0.21885723 0.21885723
0.25637255 0.25637255 0.25637255
0.30254289 0.30254289 0.30254289
0.37793352 0.37793352 0.37793352
0.45588235 0.45588235 0.45588235
0.5406633 0.5406633 0.5406633
0.61403186 0.61403186 0.61403186
0.18933824 0.18933824 0.18933824
0.23218444 0.23218444 0.23218444
0.27156863 0.27156863 0.27156863
0.31875 0.31875 0.31875
0.35931373 0.35931373 0.35931373
0.41617647 0.41617647 0.41617647
0.48759191 0.48759191 0.48759191
0.57585784 0.57585784 0.57585784
0.68026961 0.68026961 0.68026961
0.28823529 0.28823529 0.28823529
0.2995098 0.2995098 0.2995098
0.33408395 0.33408395 0.33408395
0.37866115 0.37866115 0.37866115
0.41761642 0.41761642 0.41761642
0.46911765 0.46911765 0.46911765
0.53088235 0.53088235 0.53088235
0.61029412 0.61029412 0.61029412
0.69901961 0.69901961 0.69901961
0.38235294 0.38235294 0.38235294
0.4 0.4 0.4
0.41550245 0.41550245 0.41550245
0.43627451 0.43627451 0.43627451
0.475 0.475 0.475
0.51715686 0.51715686 0.51715686
0.58033088 0.58033088 0.58033088
0.65882353 0.65882353 0.65882353
0.73382353 0.73382353 0.73382353
0.48823529 0.48823529 0.48823529
0.50055913 0.50055913 0.50055913
0.51320466 0.51320466 0.51320466
0.52116268 0.52116268 0.52116268
0.54188113 0.54188113 0.54188113
0.57303922 0.57303922 0.57303922
0.63046875 0.63046875 0.63046875
0.70882353 0.70882353 0.70882353
0.78970588 0.78970588 0.78970588
0.60919118 0.60919118 0.60919118
0.61384804 0.61384804 0.61384804
0.62809436 0.62809436 0.62809436
0.63382353 0.63382353 0.63382353
0.64313725 0.64313725 0.64313725
0.67058824 0.67058824 0.67058824
0.71004902 0.71004902 0.71004902
0.7627451 0.7627451 0.7627451
0.84473039 0.84473039 0.84473039
0.75735294 0.75735294 0.75735294
0.75784314 0.75784314 0.75784314
0.7573989 0.7573989 0.7573989
0.76158088 0.76158088 0.76158088
0.76911765 0.76911765 0.76911765
0.7877451 0.7877451 0.7877451
0.81708027 0.81708027 0.81708027
0.84117647 0.84117647 0.84117647
0.89754902 0.89754902 0.89754902
0.88627451 0.88627451 0.88627451
0.88658088 0.88658088 0.88658088
0.88627451 0.88627451 0.88627451
0.87604167 0.87604167 0.87604167
0.89607843 0.89607843 0.89607843
0.88088235 0.88088235 0.88088235
0.91862745 0.91862745 0.91862745
0.93756127 0.93756127 0.93756127
0.96862745 0.96862745 0.96862745
0.22745098 0.22745098 0.22745098
0.225 0.225 0.225
0.26519608 0.26519608 0.26519608
0.30563725 0.30563725 0.30563725
0.35098039 0.35098039 0.35098039
0.38529412 0.38529412 0.38529412
0.46568627 0.46568627 0.46568627
0.56446078 0.56446078 0.56446078
0.66470588 0.66470588 0.66470588
0.24460784 0.24460784 0.24460784
0.26151961 0.26151961 0.26151961
0.28995098 0.28995098 0.28995098
0.33480392 0.33480392 0.33480392
0.36237745 0.36237745 0.36237745
0.39828431 0.39828431 0.39828431
0.47910539 0.47910539 0.47910539
0.56813725 0.56813725 0.56813725
0.67254902 0.67254902 0.67254902
0.29117647 0.29117647 0.29117647
0.31617647 0.31617647 0.31617647
0.33823529 0.33823529 0.33823529
0.37941176 0.37941176 0.37941176
0.41176471 0.41176471 0.41176471
0.44479167 0.44479167 0.44479167
0.51237745 0.51237745 0.51237745
0.60416667 0.60416667 0.60416667
0.69901961 0.69901961 0.69901961
0.32377451 0.32377451 0.32377451
0.34705882 0.34705882 0.34705882
0.37898284 0.37898284 0.37898284
0.42349877 0.42349877 0.42349877
0.46838235 0.46838235 0.46838235
0.50318627 0.50318627 0.50318627
0.55882353 0.55882353 0.55882353
0.64754902 0.64754902 0.64754902
0.73382353 0.73382353 0.73382353
0.39705882 0.39705882 0.39705882
0.41323529 0.41323529 0.41323529
0.4502451 0.4502451 0.4502451
0.48088235 0.48088235 0.48088235
0.51911765 0.51911765 0.51911765
0.56691176 0.56691176 0.56691176
0.62205882 0.62205882 0.62205882
0.6872549 0.6872549 0.6872549
0.75686275 0.75686275 0.75686275
0.49803922 0.49803922 0.49803922
0.5145527 0.5145527 0.5145527
0.54160539 0.54160539 0.54160539
0.56838235 0.56838235 0.56838235
0.59068627 0.59068627 0.59068627
0.62401961 0.62401961 0.62401961
0.67745098 0.67745098 0.67745098
0.73921569 0.73921569 0.73921569
0.80294118 0.80294118 0.80294118
0.63970588 0.63970588 0.63970588
0.64405637 0.64405637 0.64405637
0.66029412 0.66029412 0.66029412
0.67218137 0.67218137 0.67218137
0.6870098 0.6870098 0.6870098
0.70147059 0.70147059 0.70147059
0.74387255 0.74387255 0.74387255
0.79754902 0.79754902 0.79754902
0.85686275 0.85686275 0.85686275
0.77843137 0.77843137 0.77843137
0.77870711 0.77870711 0.77870711
0.78039216 0.78039216 0.78039216
0.7893076 0.7893076 0.7893076
0.79607843 0.79607843 0.79607843
0.8091299 0.8091299 0.8091299
0.83584559 0.83584559 0.83584559
0.8703125 0.8703125 0.8703125
0.90857843 0.90857843 0.90857843
0.89215686 0.89215686 0.89215686
0.90367647 0.90367647 0.90367647
0.89607843 0.89607843 0.89607843
0.90784314 0.90784314 0.90784314
0.90784314 0.90784314 0.90784314
0.91838235 0.91838235 0.91838235
0.93431373 0.93431373 0.93431373
0.94558824 0.94558824 0.94558824
0.95882353 0.95882353 0.95882353
0.31813725 0.31813725 0.31813725
0.31813725 0.31813725 0.31813725
0.34852941 0.34852941 0.34852941
0.38817402 0.38817402 0.38817402
0.42990196 0.42990196 0.42990196
0.44810049 0.44810049 0.44810049
0.48247549 0.48247549 0.48247549
0.5841299 0.5841299 0.5841299
0.69558824 0.69558824 0.69558824
0.3372549 0.3372549 0.3372549
0.34810049 0.34810049 0.34810049
0.37414216 0.37414216 0.37414216
0.40717678 0.40717678 0.40717678
0.44117647 0.44117647 0.44117647
0.46587776 0.46587776 0.46587776
0.50703125 0.50703125 0.50703125
0.59117647 0.59117647 0.59117647
0.71145833 0.71145833 0.71145833
0.3692402 0.3692402 0.3692402
0.39085478 0.39085478 0.39085478
0.41734069 0.41734069 0.41734069
0.44754902 0.44754902 0.44754902
0.47389706 0.47389706 0.47389706
0.5027114 0.5027114 0.5027114
0.53578431 0.53578431 0.53578431
0.62028186 0.62028186 0.62028186
0.72095588 0.72095588 0.72095588
0.40140931 0.40140931 0.40140931
0.4212546 0.4212546 0.4212546
0.44796262 0.44796262 0.44796262
0.48292739 0.48292739 0.48292739
0.52668505 0.52668505 0.52668505
0.56133578 0.56133578 0.56133578
0.59656863 0.59656863 0.59656863
0.6745098 0.6745098 0.6745098
0.75631127 0.75631127 0.75631127
0.43676471 0.43676471 0.43676471
0.45073529 0.45073529 0.45073529
0.49093137 0.49093137 0.49093137
0.52742034 0.52742034 0.52742034
0.57254902 0.57254902 0.57254902
0.62279412 0.62279412 0.62279412
0.65735294 0.65735294 0.65735294
0.71813725 0.71813725 0.71813725
0.7877451 0.7877451 0.7877451
0.50539216 0.50539216 0.50539216
0.52333793 0.52333793 0.52333793
0.55644914 0.55644914 0.55644914
0.58838082 0.58838082 0.58838082
0.63164828 0.63164828 0.63164828
0.67794118 0.67794118 0.67794118
0.71727941 0.71727941 0.71727941
0.76617647 0.76617647 0.76617647
0.82647059 0.82647059 0.82647059
0.64313725 0.64313725 0.64313725
0.6435049 0.6435049 0.6435049
0.65637255 0.65637255 0.65637255
0.6933364 0.6933364 0.6933364
0.72714461 0.72714461 0.72714461
0.74215686 0.74215686 0.74215686
0.77696078 0.77696078 0.77696078
0.82401961 0.82401961 0.82401961
0.87401961 0.87401961 0.87401961
0.77843137 0.77843137 0.77843137
0.78004749 0.78004749 0.78004749
0.79217218 0.79217218 0.79217218
0.81060815 0.81060815 0.81060815
0.82598039 0.82598039 0.82598039
0.83941483 0.83941483 0.83941483
0.85343137 0.85343137 0.85343137
0.88808977 0.88808977 0.88808977
0.93167892 0.93167892 0.93167892
0.90196078 0.90196078 0.90196078
0.90343137 0.90343137 0.90343137
0.90980392 0.90980392 0.90980392
0.9122549 0.9122549 0.9122549
0.93088235 0.93088235 0.93088235
0.92941176 0.92941176 0.92941176
0.93823529 0.93823529 0.93823529
0.95992647 0.95992647 0.95992647
0.96617647 0.96617647 0.96617647
0.41862745 0.41862745 0.41862745
0.43480392 0.43480392 0.43480392
0.44534314 0.44534314 0.44534314
0.48664216 0.48664216 0.48664216
0.53823529 0.53823529 0.53823529
0.57009804 0.57009804 0.57009804
0.59411765 0.59411765 0.59411765
0.60122549 0.60122549 0.60122549
0.70196078 0.70196078 0.70196078
0.43823529 0.43823529 0.43823529
0.4504902 0.4504902 0.4504902
0.47561275 0.47561275 0.47561275
0.50686275 0.50686275 0.50686275
0.54822304 0.54822304 0.54822304
0.58529412 0.58529412 0.58529412
0.61228554 0.61228554 0.61228554
0.62334559 0.62334559 0.62334559
0.68480392 0.68480392 0.68480392
0.4752451 0.4752451 0.4752451
0.48909314 0.48909314 0.48909314
0.51341912 0.51341912 0.51341912
0.54347426 0.54347426 0.54347426
0.57352941 0.57352941 0.57352941
0.61335784 0.61335784 0.61335784
0.63455882 0.63455882 0.63455882
0.66213235 0.66213235 0.66213235
0.72867647 0.72867647 0.72867647
0.5064951 0.5064951 0.5064951
0.5165288 0.5165288 0.5165288
0.53765319 0.53765319 0.53765319
0.5689951 0.5689951 0.5689951
0.60680147 0.60680147 0.60680147
0.65147059 0.65147059 0.65147059
0.67622549 0.67622549 0.67622549
0.69946385 0.69946385 0.69946385
0.76715686 0.76715686 0.76715686
0.51911765 0.51911765 0.51911765
0.52818627 0.52818627 0.52818627
0.55 0.55 0.55
0.59797794 0.59797794 0.59797794
0.64681373 0.64681373 0.64681373
0.68848039 0.68848039 0.68848039
0.71078431 0.71078431 0.71078431
0.74485294 0.74485294 0.74485294
0.81176471 0.81176471 0.81176471
0.56960784 0.56960784 0.56960784
0.58561581 0.58561581 0.58561581
0.60392157 0.60392157 0.60392157
0.6372549 0.6372549 0.6372549
0.68682598 0.68682598 0.68682598
0.72886029 0.72886029 0.72886029
0.75882353 0.75882353 0.75882353
0.79900429 0.79900429 0.79900429
0.8567402 0.8567402 0.8567402
0.64803922 0.64803922 0.64803922
0.65854779 0.65854779 0.65854779
0.66237745 0.66237745 0.66237745
0.69610907 0.69610907 0.69610907
0.72242647 0.72242647 0.72242647
0.77696078 0.77696078 0.77696078
0.81740196 0.81740196 0.81740196
0.8622549 0.8622549 0.8622549
0.90073529 0.90073529 0.90073529
0.77892157 0.77892157 0.77892157
0.77810968 0.77810968 0.77810968
0.78673407 0.78673407 0.78673407
0.80801164 0.80801164 0.80801164
0.83504902 0.83504902 0.83504902
0.84911152 0.84911152 0.84911152
0.88180147 0.88180147 0.88180147
0.9198223 0.9198223 0.9198223
0.94166667 0.94166667 0.94166667
0.89803922 0.89803922 0.89803922
0.90281863 0.90281863 0.90281863
0.90980392 0.90980392 0.90980392
0.92218137 0.92218137 0.92218137
0.93529412 0.93529412 0.93529412
0.94509804 0.94509804 0.94509804
0.9497549 0.9497549 0.9497549
0.96213235 0.96213235 0.96213235
0.98137255 0.98137255 0.98137255
0.5754902 0.5754902 0.5754902
0.58284314 0.58284314 0.58284314
0.58713235 0.58713235 0.58713235
0.61666667 0.61666667 0.61666667
0.65931373 0.65931373 0.65931373
0.69099265 0.69099265 0.69099265
0.73541667 0.73541667 0.73541667
0.73970588 0.73970588 0.73970588
0.75147059 0.75147059 0.75147059
0.57156863 0.57156863 0.57156863
0.58707874 0.58707874 0.58707874
0.60625 0.60625 0.60625
0.63188572 0.63188572 0.63188572
0.66323529 0.66323529 0.66323529
0.70508578 0.70508578 0.70508578
0.74008885 0.74008885 0.74008885
0.75017616 0.75017616 0.75017616
0.76666667 0.76666667 0.76666667
0.60882353 0.60882353 0.60882353
0.61704963 0.61704963 0.61704963
0.6317402 0.6317402 0.6317402
0.66631434 0.66631434 0.66631434
0.69705882 0.69705882 0.69705882
0.72830882 0.72830882 0.72830882
0.75808824 0.75808824 0.75808824
0.77369792 0.77369792 0.77369792
0.77365196 0.77365196 0.77365196
0.64411765 0.64411765 0.64411765
0.65189951 0.65189951 0.65189951
0.66888787 0.66888787 0.66888787
0.69160539 0.69160539 0.69160539
0.71602328 0.71602328 0.71602328
0.75078891 0.75078891 0.75078891
0.7817402 0.7817402 0.7817402
0.79046415 0.79046415 0.79046415
0.79626225 0.79626225 0.79626225
0.64166667 0.64166667 0.64166667
0.66099877 0.66099877 0.66099877
0.67297794 0.67297794 0.67297794
0.6997549 0.6997549 0.6997549
0.7439951 0.7439951 0.7439951
0.77745098 0.77745098 0.77745098
0.80214461 0.80214461 0.80214461
0.81519608 0.81519608 0.81519608
0.82696078 0.82696078 0.82696078
0.64754902 0.64754902 0.64754902
0.66930147 0.66930147 0.66930147
0.68783701 0.68783701 0.68783701
0.70618873 0.70618873 0.70618873
0.75245098 0.75245098 0.75245098
0.79785539 0.79785539 0.79785539
0.83529412 0.83529412 0.83529412
0.85931373 0.85931373 0.85931373
0.88609069 0.88609069 0.88609069
0.72205882 0.72205882 0.72205882
0.725 0.725 0.725
0.72879902 0.72879902 0.72879902
0.75445772 0.75445772 0.75445772
0.78572304 0.78572304 0.78572304
0.83480392 0.83480392 0.83480392
0.86654412 0.86654412 0.86654412
0.90349265 0.90349265 0.90349265
0.92303922 0.92303922 0.92303922
0.81078431 0.81078431 0.81078431
0.80202206 0.80202206 0.80202206
0.80931373 0.80931373 0.80931373
0.8286152 0.8286152 0.8286152
0.85686275 0.85686275 0.85686275
0.87371324 0.87371324 0.87371324
0.92020527 0.92020527 0.92020527
0.94613971 0.94613971 0.94613971
0.95735294 0.95735294 0.95735294
0.91029412 0.91029412 0.91029412
0.90980392 0.90980392 0.90980392
0.90894608 0.90894608 0.90894608
0.92794118 0.92794118 0.92794118
0.9372549 0.9372549 0.9372549
0.94656863 0.94656863 0.94656863
0.96556373 0.96556373 0.96556373
0.97254902 0.97254902 0.97254902
0.98823529 0.98823529 0.98823529
0.74901961 0.74901961 0.74901961
0.7372549 0.7372549 0.7372549
0.74509804 0.74509804 0.74509804
0.77647059 0.77647059 0.77647059
0.8 0.8 0.8
0.80539216 0.80539216 0.80539216
0.84509804 0.84509804 0.84509804
0.8745098 0.8745098 0.8745098
0.8745098 0.8745098 0.8745098
0.7377451 0.7377451 0.7377451
0.74852941 0.74852941 0.74852941
0.73247549 0.73247549 0.73247549
0.76341912 0.76341912 0.76341912
0.80245098 0.80245098 0.80245098
0.81666667 0.81666667 0.81666667
0.85539216 0.85539216 0.85539216
0.88633578 0.88633578 0.88633578
0.89411765 0.89411765 0.89411765
0.78039216 0.78039216 0.78039216
0.77610294 0.77610294 0.77610294
0.77058824 0.77058824 0.77058824
0.78933824 0.78933824 0.78933824
0.81519608 0.81519608 0.81519608
0.84705882 0.84705882 0.84705882
0.8745098 0.8745098 0.8745098
0.89669118 0.89669118 0.89669118
0.89313725 0.89313725 0.89313725
0.78284314 0.78284314 0.78284314
0.7841299 0.7841299 0.7841299
0.78921569 0.78921569 0.78921569
0.80006127 0.80006127 0.80006127
0.80171569 0.80171569 0.80171569
0.85006127 0.85006127 0.85006127
0.88333333 0.88333333 0.88333333
0.9026348 0.9026348 0.9026348
0.9122549 0.9122549 0.9122549
0.79215686 0.79215686 0.79215686
0.79754902 0.79754902 0.79754902
0.80833333 0.80833333 0.80833333
0.82009804 0.82009804 0.82009804
0.84705882 0.84705882 0.84705882
0.86862745 0.86862745 0.86862745
0.89656863 0.89656863 0.89656863
0.91004902 0.91004902 0.91004902
0.9254902 0.9254902 0.9254902
0.78186275 0.78186275 0.78186275
0.78431373 0.78431373 0.78431373
0.80147059 0.80147059 0.80147059
0.83082108 0.83082108 0.83082108
0.85588235 0.85588235 0.85588235
0.88137255 0.88137255 0.88137255
0.90294118 0.90294118 0.90294118
0.93480392 0.93480392 0.93480392
0.94656863 0.94656863 0.94656863
0.81666667 0.81666667 0.81666667
0.80882353 0.80882353 0.80882353
0.80196078 0.80196078 0.80196078
0.83566176 0.83566176 0.83566176
0.81960784 0.81960784 0.81960784
0.89803922 0.89803922 0.89803922
0.91862745 0.91862745 0.91862745
0.94914216 0.94914216 0.94914216
0.96078431 0.96078431 0.96078431
0.85588235 0.85588235 0.85588235
0.85631127 0.85631127 0.85631127
0.88235294 0.88235294 0.88235294
0.88069853 0.88069853 0.88069853
0.87916667 0.87916667 0.87916667
0.91960784 0.91960784 0.91960784
0.94644608 0.94644608 0.94644608
0.97303922 0.97303922 0.97303922
0.97647059 0.97647059 0.97647059
0.90588235 0.90588235 0.90588235
0.92107843 0.92107843 0.92107843
0.93039216 0.93039216 0.93039216
0.9254902 0.9254902 0.9254902
0.9372549 0.9372549 0.9372549
0.96470588 0.96470588 0.96470588
0.95686275 0.95686275 0.95686275
0.97254902 0.97254902 0.97254902
0.99607843 0.99607843 0.99607843
