site/assets/luts/sha256-c7acb2554f830c75812f951781583b60011ba74f293a1ace57ea72724826af4e.cube
# LUTr-Schema-Version: 2
# LUTr-ID: sha256-c7acb2554f830c75812f951781583b60011ba74f293a1ace57ea72724826af4e
# LUTr-Title: polaroid px-70 warm ++
# LUTr-Collection: Natron HaldCLUT
# LUTr-Collection-ID: natron-haldclut-presets
# LUTr-Source: https://github.com/NatronGitHub/clut
# LUTr-Retrieved: 2026-07-27
# LUTr-Source-File: submissions/natron-haldclut-presets/instant_consumer/polaroid_px-70_warm_++.png
# LUTr-Source-Format: HALD-PNG
# LUTr-Source-SHA256: c7acb2554f830c75812f951781583b60011ba74f293a1ace57ea72724826af4e
# LUTr-License: CC-BY-SA-4.0
# LUTr-License-URL: https://github.com/NatronGitHub/clut#license
# LUTr-License-Basis: repo-license-file
# LUTr-Transform-Class: film-emulation
# LUTr-Tags: creative, film, film-emulation, hald-clut, natron, png, warm, cube
# LUTr-Input-Color-Space: srgb
# LUTr-Input-Gamut: rec709
# LUTr-Input-Transfer: srgb
# LUTr-Output-Color-Space: srgb
# LUTr-Output-Gamut: rec709
# LUTr-Output-Transfer: srgb
# LUTr-Color-Space-Confidence: assumed-display-referred
# LUTr-Domain-Normalized: true
# LUTr-Shaper: none
# LUTr-Original-Grid: 64x64x64
# LUTr-Conversion-Grid: 25x25x25
# LUTr-Conversion-Interpolation: trilinear
# LUTr-Conversion-Method: HALD-PNG LUT image decoded at 16-bit and sampled to 25x25x25 3D CUBE
# LUTr-Conversion-Tool: LUTr scripts/convert-all-to-cube.mjs 2.0.0
# LUTr-Conversion-Date: 2026-07-27
# LUTr-Note: Preserve this metadata and the upstream license notices when redistributing.
TITLE "polaroid px-70 warm ++"
LUT_3D_SIZE 9
DOMAIN_MIN 0 0 0
DOMAIN_MAX 1 1 1
0.42745098 0.2627451 0.16470588
0.43529412 0.26666667 0.16862745
0.44313725 0.26666667 0.16470588
0.45098039 0.2627451 0.16470588
0.51176471 0.26666667 0.16078431
0.61666667 0.27745098 0.15294118
0.80980392 0.34313725 0.12843137
0.9745098 0.4372549 0.093627451
1 0.52156863 0.11372549
0.42352941 0.2627451 0.16470588
0.43529412 0.27009804 0.16470588
0.44693627 0.2745098 0.16470588
0.46881127 0.2745098 0.16470588
0.51960784 0.2745098 0.16078431
0.64822304 0.29901961 0.14901961
0.80637255 0.35110294 0.12757353
0.97058824 0.45931373 0.082781863
0.99607843 0.5245098 0.10980392
0.42745098 0.29215686 0.16470588
0.43137255 0.29705882 0.16470588
0.44387255 0.29705882 0.16078431
0.47303922 0.29705882 0.16078431
0.54019608 0.30735294 0.15343137
0.66164216 0.33137255 0.13970588
0.82083333 0.39877451 0.10857843
0.96580882 0.49754902 0.066789216
0.99607843 0.58039216 0.11176471
0.42352941 0.33970588 0.16078431
0.43088235 0.34001225 0.16078431
0.44607843 0.34215686 0.15686275
0.490625 0.35490196 0.15294118
0.56911765 0.37671569 0.14387255
0.68860294 0.41213235 0.11856618
0.83982843 0.4877451 0.067647059
0.96176471 0.55637255 0.02567402
1 0.59852941 0.05
0.41568627 0.46078431 0.15294118
0.42720588 0.45318627 0.15269608
0.45392157 0.45833333 0.15294118
0.51078431 0.47377451 0.14583333
0.6 0.48921569 0.12843137
0.725 0.5370098 0.093137255
0.86960784 0.59754902 0.012254902
0.95588235 0.62990196 0.021323529
0.99607843 0.67254902 0.094117647
0.41715686 0.62303922 0.14901961
0.43627451 0.60490196 0.15441176
0.46372549 0.60281863 0.14987745
0.52738971 0.62156863 0.14209559
0.62573529 0.64068627 0.12352941
0.74852941 0.66862745 0.11176471
0.86776961 0.69889706 0.072794118
0.9504902 0.71832108 0.10784314
0.99068627 0.72598039 0.12647059
0.4872549 0.76470588 0.21764706
0.47916667 0.76078431 0.20208333
0.53627451 0.76470588 0.22843137
0.59007353 0.75686275 0.23884804
0.67843137 0.77205882 0.23676471
0.77794118 0.78051471 0.23333333
0.87352941 0.79583333 0.2627451
0.95392157 0.80294118 0.28860294
0.99607843 0.8254902 0.36176471
0.66176471 0.85980392 0.37843137
0.6622549 0.8528799 0.37156863
0.67659314 0.85196078 0.37107843
0.71734069 0.84803922 0.375
0.7745098 0.85220588 0.39656863
0.83921569 0.86158088 0.41029412
0.88921569 0.86372549 0.41384804
0.95435049 0.86807598 0.4377451
0.98039216 0.8754902 0.46421569
0.85882353 0.91372549 0.50980392
0.8504902 0.90980392 0.50196078
0.85588235 0.91078431 0.50588235
0.87696078 0.91372549 0.51617647
0.89411765 0.91176471 0.51960784
0.90735294 0.91127451 0.51911765
0.94215686 0.91764706 0.5372549
0.96078431 0.91764706 0.54117647
0.96470588 0.91764706 0.5372549
0.43137255 0.27009804 0.17254902
0.43529412 0.27058824 0.17254902
0.44607843 0.27058824 0.17254902
0.46648284 0.26666667 0.16862745
0.50784314 0.26470588 0.16642157
0.63186275 0.27990196 0.16421569
0.82107843 0.33370098 0.15245098
0.98480392 0.44803922 0.14503676
1 0.53333333 0.17156863
0.42745098 0.27058824 0.17254902
0.43529412 0.27450214 0.17254902
0.44607843 0.27446385 0.16862745
0.46519608 0.27058824 0.16862745
0.52328431 0.27772672 0.16642157
0.64344363 0.2963848 0.15713082
0.83247549 0.36321998 0.14362745
0.96171109 0.45942862 0.14460784
1 0.54460784 0.16813725
0.42745098 0.28921569 0.16862745
0.43212316 0.29780944 0.16862745
0.44607843 0.29316789 0.16835172
0.47659314 0.29497549 0.16470588
0.54993873 0.30833333 0.1629902
0.68039216 0.34166667 0.15134804
0.84754902 0.40882353 0.1291973
0.97310049 0.50159314 0.12101716
0.99607843 0.57058824 0.16372549
0.42352941 0.34313725 0.16813725
0.43133425 0.33874847 0.16813725
0.45 0.34571078 0.16813725
0.49351256 0.35006127 0.16078431
0.58048407 0.37616422 0.15465686
0.70392157 0.42194393 0.13144148
0.8495098 0.49166667 0.10770527
0.96911765 0.5627451 0.094669118
0.99607843 0.621875 0.15539216
0.41936275 0.47254902 0.1625
0.43088235 0.47012868 0.16620711
0.46127451 0.46856618 0.16819853
0.51773897 0.48128064 0.16176471
0.60857843 0.50085784 0.14656863
0.73480392 0.54549632 0.11289828
0.86960784 0.60140931 0.077573529
0.9622549 0.62791054 0.051348039
0.9995098 0.67818627 0.15955882
0.425 0.63609069 0.17352941
0.43611366 0.62322304 0.16786918
0.47156863 0.61815257 0.1713848
0.54104626 0.63694853 0.17745098
0.63740809 0.6515625 0.17205882
0.7622549 0.67928156 0.16047794
0.87316176 0.70735294 0.13123468
0.95392157 0.72251072 0.15592065
0.99197304 0.73382353 0.18988971
0.4935049 0.7685049 0.24117647
0.50081189 0.77254902 0.24091605
0.54019608 0.76917892 0.2504902
0.60595895 0.76458333 0.2665288
0.69393382 0.77328431 0.27487745
0.78676471 0.78443627 0.28235294
0.87907475 0.80220588 0.28541667
0.95 0.80948223 0.30686275
0.99607843 0.82205882 0.36862745
0.66960784 0.85980392 0.39362745
0.67702206 0.85588235 0.39014246
0.69607843 0.85577512 0.39669118
0.73415288 0.86135876 0.41323529
0.7825674 0.85983456 0.42306985
0.84291513 0.86372549 0.42532935
0.89957108 0.86372549 0.425
0.95343903 0.87151501 0.44112286
0.9877451 0.87892157 0.47205882
0.8622549 0.91372549 0.51372549
0.85974265 0.91372549 0.51372549
0.86617647 0.91372549 0.51323529
0.8745098 0.91158088 0.51617647
0.89215686 0.9120098 0.51789216
0.91764706 0.91746324 0.52922794
0.9372549 0.91470588 0.53333333
0.96127451 0.92248775 0.5495098
0.97254902 0.925 0.55294118
0.43431373 0.27058824 0.18333333
0.43529412 0.27058824 0.18039216
0.44705882 0.27058824 0.18039216
0.46911765 0.27058824 0.17941176
0.52058824 0.26666667 0.18333333
0.65098039 0.26017157 0.18835784
0.84313725 0.29411765 0.2
0.99607843 0.45294118 0.22843137
1 0.55196078 0.27843137
0.43137255 0.28186275 0.18431373
0.43754596 0.27794118 0.18334865
0.44705882 0.27708333 0.18039216
0.4622549 0.27058824 0.17647059
0.53976716 0.27794118 0.18382353
0.67009804 0.28573836 0.1872549
0.86066176 0.37058824 0.21271446
0.98405331 0.47071078 0.23143382
1 0.55637255 0.27107843
0.43137255 0.29632353 0.18431373
0.4359375 0.29705882 0.18624387
0.44705882 0.29313725 0.18039216
0.48391544 0.29451593 0.18333333
0.56397059 0.31372549 0.19117647
0.70076593 0.3484375 0.19019608
0.87352941 0.42653186 0.20906863
0.98048407 0.50612745 0.21780025
0.99607843 0.60612745 0.28431373
0.43137255 0.34705882 0.1872549
0.43921569 0.35490196 0.19171262
0.45539216 0.35015319 0.19117647
0.50746017 0.3627451 0.19117647
0.59344363 0.38909314 0.18719363
0.72254902 0.42167586 0.17653186
0.86685049 0.49375 0.18036152
0.97303922 0.57095588 0.20526961
0.99607843 0.63737745 0.26384804
0.43627451 0.47598039 0.20392157
0.44436275 0.46323529 0.19877451
0.47095588 0.47622549 0.2
0.52689951 0.48645833 0.20392157
0.61985294 0.50906863 0.19558824
0.75073529 0.54987745 0.17892157
0.87561275 0.59754902 0.16617647
0.97205882 0.64142157 0.18284314
0.99019608 0.66470588 0.20833333
0.44117647 0.64473039 0.22598039
0.45379902 0.63235294 0.22303922
0.49301471 0.63382353 0.22833946
0.55399816 0.64356618 0.23088235
0.64773284 0.65784314 0.22965686
0.76813725 0.68255208 0.22703738
0.87518382 0.70689338 0.22264093
0.95819547 0.72616422 0.24126838
0.98529412 0.7377451 0.26323529
0.5254902 0.7754902 0.30465686
0.52539828 0.77512255 0.29914216
0.56151961 0.77101716 0.30220588
0.62674632 0.77156863 0.3185049
0.70845588 0.78296569 0.33137255
0.79362745 0.78808211 0.32916667
0.88039216 0.80214461 0.33627451
0.95 0.81308211 0.35998775
0.99828431 0.8254902 0.40808824
0.68872549 0.86372549 0.42009804
0.69226409 0.8560049 0.41360294
0.71041667 0.85980392 0.42046569
0.75257353 0.85588235 0.43578431
0.79295343 0.859375 0.43609069
0.84336703 0.86372549 0.44963235
0.90076593 0.87156863 0.45931373
0.94569547 0.87806373 0.47109375
0.98431373 0.87941176 0.48382353
0.84705882 0.90980392 0.50686275
0.8557598 0.91017157 0.51323529
0.86960784 0.91372549 0.51764706
0.88198529 0.91372549 0.52512255
0.89754902 0.91372549 0.52843137
0.91911765 0.91764706 0.5372549
0.93823529 0.91666667 0.54093137
0.96127451 0.91813725 0.54828431
0.98039216 0.92941176 0.57254902
0.43529412 0.27058824 0.19852941
0.43529412 0.26844363 0.1908701
0.44607843 0.27058824 0.19068627
0.46819853 0.27359069 0.19852941
0.52156863 0.27058824 0.20759804
0.64558824 0.25882353 0.23682598
0.86078431 0.25441176 0.26568627
0.97892157 0.37922794 0.31176471
1 0.55490196 0.38676471
0.43529412 0.27971814 0.20765931
0.43529412 0.2745098 0.20373775
0.4537837 0.27843137 0.20405944
0.47058058 0.27696078 0.20478707
0.54289216 0.28609069 0.21911765
0.6776348 0.28523284 0.24932598
0.86968444 0.29992341 0.27218137
0.98057598 0.44191176 0.33106618
1 0.61029412 0.41421569
0.43137255 0.30098039 0.21421569
0.43872549 0.30098039 0.21367953
0.45637255 0.30033701 0.21522672
0.50496324 0.31219363 0.22875306
0.57034314 0.32334559 0.2372549
0.71727941 0.32990196 0.25551471
0.88890931 0.39586397 0.29362745
0.97896752 0.52899816 0.34866728
1 0.64558824 0.40931373
0.43529412 0.34761029 0.22303922
0.44295343 0.36317402 0.23088235
0.47297794 0.36914828 0.23872549
0.51937806 0.37150735 0.24544271
0.61467525 0.40223652 0.26029412
0.74460784 0.43304228 0.26464461
0.89405637 0.52734375 0.30882353
0.97303922 0.61078431 0.35147059
0.9966299 0.67401961 0.39803922
0.44705882 0.4745098 0.26372549
0.45793505 0.48431373 0.26583946
0.49332108 0.49215686 0.26905637
0.54065564 0.49292279 0.26813725
0.64828431 0.52316176 0.27830882
0.76715686 0.55367647 0.27598039
0.88848039 0.59356618 0.27046569
0.96911765 0.65833333 0.31323529
0.99730392 0.71151961 0.39117647
0.4877451 0.66372549 0.32101716
0.49325214 0.65686275 0.31470588
0.51458333 0.65179228 0.30294118
0.57990196 0.65328585 0.31078431
0.68189338 0.66862745 0.32310049
0.78780637 0.69158241 0.31470588
0.88137255 0.70415135 0.32107843
0.96158088 0.72921262 0.33382353
0.98192402 0.74803922 0.36268382
0.57107843 0.78186275 0.37401961
0.57090993 0.78039216 0.37041973
0.60557598 0.77913603 0.37000613
0.6622549 0.78291973 0.38823529
0.7252451 0.78817402 0.39901961
0.8055913 0.79970895 0.40307904
0.88063725 0.80897672 0.40392157
0.95379902 0.81493566 0.40788909
0.98431373 0.82156863 0.43247549
0.72910539 0.86403186 0.45949755
0.725 0.85833333 0.45079657
0.74509804 0.86141238 0.45824142
0.77156863 0.86354167 0.46267616
0.81731005 0.86372549 0.47058824
0.85846354 0.86372549 0.4745098
0.90441176 0.87156863 0.48321078
0.95435049 0.87984069 0.49365043
0.98039216 0.88676471 0.49932598
0.87990196 0.91764706 0.53333333
0.87598039 0.91519608 0.53069853
0.88125 0.91372549 0.53186275
0.89503676 0.91617647 0.53817402
0.90661765 0.91446078 0.54117647
0.92604167 0.91519608 0.54901961
0.94178922 0.91617647 0.55171569
0.96341912 0.91715686 0.55324755
0.98039216 0.92696078 0.57794118
0.43921569 0.27058824 0.2627451
0.45073529 0.27058824 0.25490196
0.46911765 0.2745098 0.25392157
0.50906863 0.28627451 0.26862745
0.55882353 0.29607843 0.27843137
0.66372549 0.29926471 0.3120098
0.84754902 0.29362745 0.37647059
0.97696078 0.36740196 0.41642157
1 0.51176471 0.44901961
0.43921569 0.28210784 0.26078431
0.44852941 0.28014706 0.26271446
0.4754902 0.28406863 0.26966912
0.52224265 0.30196078 0.27460172
0.57843137 0.3252451 0.29093137
0.68308824 0.32261029 0.32490809
0.85655637 0.32604167 0.38406863
0.97941176 0.41424632 0.41813725
1 0.56372549 0.4622549
0.4372549 0.30490196 0.27990196
0.44442402 0.30655637 0.28284314
0.48235294 0.31813725 0.29117647
0.54344363 0.34362745 0.30386029
0.60490196 0.36764706 0.31666667
0.72144608 0.38474265 0.35490196
0.87487745 0.38897059 0.39901961
0.98382353 0.50416667 0.4370098
1 0.6245098 0.4754902
0.43137255 0.3754902 0.29852941
0.44264706 0.38177083 0.30637255
0.48284314 0.38792892 0.31795343
0.55245098 0.40223652 0.3323223
0.64362745 0.44656863 0.3495098
0.75490196 0.46467525 0.37990196
0.89454657 0.52732843 0.41991422
0.97873775 0.63072917 0.45857843
1 0.72034314 0.49730392
0.44509804 0.49607843 0.33823529
0.46421569 0.50955882 0.34681373
0.50245098 0.51176471 0.35490196
0.56752451 0.51568627 0.3620098
0.66176471 0.54215686 0.37990196
0.78198529 0.58811275 0.39313725
0.89632353 0.64901961 0.42426471
0.96911765 0.70637255 0.45710784
0.99607843 0.74901961 0.4754902
0.49558824 0.65710784 0.39313725
0.50998775 0.66470588 0.39656863
0.55588235 0.6622549 0.39613971
0.6171875 0.66954657 0.3995098
0.71495098 0.69129902 0.42120098
0.80364583 0.70392157 0.42230392
0.8963848 0.7192402 0.41488971
0.96568627 0.74249387 0.43743873
0.99534314 0.75 0.44460784
0.62941176 0.79656863 0.45196078
0.63137255 0.78946078 0.4442402
0.65686275 0.78762255 0.44620098
0.71115196 0.79319853 0.45533088
0.76666667 0.79117647 0.45980392
0.8278799 0.79957108 0.45980392
0.89497549 0.81004902 0.4629902
0.95692402 0.81819853 0.4716299
0.98823529 0.82009804 0.47990196
0.76102941 0.86372549 0.49313725
0.76666667 0.86764706 0.49313725
0.76819853 0.86544118 0.49093137
0.80416667 0.86764706 0.49705882
0.83627451 0.87156863 0.50098039
0.875 0.87107843 0.50618873
0.91348039 0.87371324 0.50882353
0.95343137 0.87892157 0.51467525
0.98431373 0.8872549 0.52009804
0.89411765 0.92156863 0.54705882
0.88284314 0.91764706 0.54313725
0.88921569 0.91372549 0.54313725
0.89730392 0.9129902 0.54509804
0.91372549 0.91372549 0.55294118
0.92818627 0.91372549 0.55882353
0.94607843 0.92009804 0.56372549
0.96519608 0.9252451 0.57279412
0.97647059 0.91960784 0.56470588
0.45784314 0.27598039 0.35392157
0.48480392 0.2786152 0.37205882
0.51360294 0.28137255 0.37536765
0.58970588 0.31072304 0.38627451
0.67254902 0.36151961 0.41666667
0.76378676 0.42843137 0.44466912
0.87892157 0.43627451 0.48284314
0.97941176 0.44362745 0.49969363
1 0.54803922 0.51519608
0.46029412 0.30471814 0.38547794
0.48932292 0.29789369 0.39279259
0.52267157 0.29852941 0.3942402
0.59588695 0.32756587 0.40804228
0.68995098 0.39966299 0.4229473
0.77107843 0.44498315 0.44803922
0.85618873 0.44241728 0.47009804
0.97898284 0.48232996 0.50334712
1 0.5776348 0.52058824
0.45490196 0.32990196 0.41458333
0.47682292 0.33046875 0.4064951
0.52254902 0.33602941 0.4158701
0.60784314 0.38088235 0.42982537
0.70465686 0.45465686 0.44068627
0.79252451 0.52066483 0.46580882
0.8950674 0.51957721 0.49522059
0.96946998 0.54215686 0.50490196
1 0.60477941 0.52022059
0.43915441 0.42935049 0.42696078
0.46372549 0.42843137 0.42929688
0.49836091 0.43284314 0.43835784
0.60660233 0.449303 0.45839461
0.71470588 0.52941176 0.46519608
0.81441483 0.60389859 0.48619026
0.88676471 0.59192708 0.49375
0.97205882 0.64302237 0.51256893
0.99754902 0.69123775 0.5254902
0.43651961 0.55857843 0.45098039
0.45867034 0.54656863 0.44166667
0.50091912 0.54926471 0.45343137
0.58820466 0.56075368 0.46568627
0.72034314 0.60232843 0.48517157
0.82472426 0.67058824 0.49751838
0.89442402 0.68026961 0.50465686
0.96960784 0.72588848 0.52074142
0.99607843 0.77892157 0.5372549
0.49669118 0.67941176 0.47254902
0.51127451 0.67794118 0.47254902
0.55833333 0.68523284 0.47591912
0.63024663 0.68578431 0.48114277
0.71890319 0.69803922 0.4926777
0.81914062 0.72018229 0.49705882
0.90392157 0.75035233 0.50490196
0.96568627 0.7792356 0.51531097
0.98970588 0.8004902 0.52150735
0.62781863 0.79215686 0.49375
0.64669118 0.7932598 0.4975337
0.66568627 0.79117647 0.49411765
0.72254902 0.79094669 0.5004902
0.79319853 0.79901961 0.50465686
0.85231311 0.80647978 0.51012561
0.90992647 0.81544118 0.51253064
0.96358762 0.8254902 0.51358762
0.98823529 0.82941176 0.51617647
0.77107843 0.86372549 0.52352941
0.78208487 0.86764706 0.52352941
0.78907782 0.86314338 0.52352941
0.82666973 0.86757812 0.52745098
0.86715686 0.87107843 0.53529412
0.8933364 0.87365962 0.53560049
0.93097426 0.87731311 0.53921569
0.96258425 0.88284314 0.54362745
0.98792892 0.88676471 0.5495098
0.89803922 0.91764706 0.5622549
0.89411765 0.91421569 0.56096814
0.89803922 0.9122549 0.56433824
0.90441176 0.9122549 0.56378676
0.92426471 0.91568627 0.57009804
0.93333333 0.91372549 0.57254902
0.94901961 0.91372549 0.57254902
0.96519608 0.92028186 0.58431373
0.97647059 0.92009804 0.58823529
0.53529412 0.29019608 0.53529412
0.56421569 0.30294118 0.53627451
0.62083333 0.32647059 0.51764706
0.71176471 0.35735294 0.53970588
0.8 0.43627451 0.55
0.87193627 0.5877451 0.54705882
0.91985294 0.62941176 0.54607843
0.96213235 0.59191176 0.55
0.99607843 0.64705882 0.55784314
0.54546569 0.33860294 0.53284314
0.55696998 0.33051471 0.54411765
0.62132353 0.33716299 0.54509804
0.70931373 0.39229473 0.54211091
0.80220588 0.47941176 0.55098039
0.87749694 0.62469363 0.54705882
0.92745098 0.65220588 0.54705882
0.96214767 0.62928922 0.55359988
0.99571078 0.67365196 0.55784314
0.51372549 0.37745098 0.5502451
0.54558824 0.38431373 0.55251225
0.61053922 0.40784314 0.54411765
0.70931373 0.44117647 0.55490196
0.80833333 0.53578431 0.54754902
0.88688725 0.66896446 0.55098039
0.9252451 0.68848039 0.54705882
0.97046569 0.68584559 0.55526961
0.98529412 0.69387255 0.55784314
0.48529412 0.49803922 0.54705882
0.51951593 0.49250919 0.54364277
0.57928922 0.48520221 0.55079657
0.68964461 0.53284314 0.54453125
0.8122549 0.60925245 0.55098039
0.88333333 0.70355392 0.55061275
0.9317402 0.73823529 0.55061275
0.96519608 0.72781863 0.55396752
0.9872549 0.73627451 0.55784314
0.43970588 0.61127451 0.53921569
0.4411152 0.60030637 0.53578431
0.52279412 0.60257353 0.53921569
0.6372549 0.62083333 0.54313725
0.77892157 0.66151961 0.5504902
0.8754902 0.734375 0.54705882
0.92953431 0.76789216 0.55171569
0.96145833 0.76648284 0.55784314
0.99166667 0.77598039 0.56176471
0.50428922 0.70943627 0.53921569
0.52009804 0.71127451 0.53823529
0.57233456 0.71127451 0.53795956
0.63958333 0.70735294 0.53921569
0.73455882 0.7192402 0.54405637
0.84806985 0.75833333 0.54705882
0.92745098 0.7986826 0.55392157
0.96358762 0.80326287 0.5589614
0.9939951 0.83039216 0.57071078
0.64338235 0.80220588 0.53823529
0.64411765 0.80199142 0.53995098
0.67818627 0.79803922 0.53529412
0.72647059 0.79509804 0.53921569
0.79803922 0.80477941 0.54607843
0.86666667 0.81764706 0.54659926
0.92377451 0.83357843 0.55508578
0.96976103 0.84644608 0.55891544
0.98823529 0.86862745 0.57426471
0.78370098 0.86764706 0.55833333
0.78279718 0.86764706 0.55317096
0.79338235 0.86151961 0.55242034
0.82224265 0.86372549 0.55441176
0.86568627 0.87156863 0.55833333
0.91199449 0.87941176 0.56194853
0.94227941 0.88354779 0.57095588
0.96507353 0.88779105 0.57412684
0.98419118 0.89816176 0.58186275
0.89803922 0.91764706 0.58529412
0.89803922 0.91764706 0.58137255
0.90294118 0.91470588 0.57818627
0.90833333 0.91372549 0.58321078
0.92745098 0.91764706 0.59264706
0.9372549 0.91372549 0.58921569
0.95294118 0.91789216 0.59411765
0.96862745 0.92107843 0.60098039
0.98039216 0.92647059 0.60980392
0.67696078 0.39068627 0.6245098
0.69558824 0.40251225 0.62058824
0.74852941 0.43860294 0.62009804
0.81421569 0.50637255 0.60882353
0.87377451 0.60318627 0.60098039
0.93511029 0.70245098 0.59528186
0.96176471 0.78431373 0.58909314
0.97696078 0.79362745 0.58921569
1 0.7745098 0.58872549
0.67352941 0.4495098 0.62009804
0.69215686 0.44166667 0.61709559
0.74509804 0.47645527 0.61660539
0.81701134 0.52518382 0.61227788
0.87984069 0.62156863 0.60490196
0.93137255 0.7189568 0.59920343
0.95865502 0.78730086 0.58920037
0.98045343 0.79673713 0.59227175
0.99264706 0.78621324 0.59307598
0.66519608 0.51078431 0.61617647
0.67745098 0.50821078 0.6127451
0.73737745 0.53964461 0.61246936
0.8127451 0.58970588 0.60837929
0.88314951 0.66348039 0.603125
0.93137255 0.73676471 0.59705882
0.96026348 0.80585172 0.59264706
0.97648591 0.81311275 0.59313725
0.98823529 0.80147059 0.59656863
0.64754902 0.58204657 0.60851716
0.65388327 0.575 0.61356464
0.71337316 0.60124081 0.6057598
0.79098499 0.65196844 0.60098039
0.87613358 0.70588235 0.6004902
0.92745098 0.76667433 0.5957644
0.95825674 0.81862745 0.59367341
0.97647059 0.82827053 0.59656863
0.98039216 0.81930147 0.59656863
0.57794118 0.67401961 0.59705882
0.61026348 0.67573529 0.59856005
0.68339461 0.67990196 0.60073529
0.75637255 0.69785539 0.59705882
0.84448529 0.72867647 0.59681373
0.92362132 0.78538603 0.59313725
0.95569853 0.83112745 0.59656863
0.97496936 0.83826593 0.59705882
0.98431373 0.83823529 0.59877451
0.56666667 0.74479167 0.58921569
0.57342218 0.74607843 0.58743873
0.62144608 0.74215686 0.58743873
0.67977175 0.74099265 0.58743873
0.80245098 0.75863971 0.59151348
0.90055147 0.79833793 0.59313725
0.95088848 0.84166667 0.59669118
0.97712163 0.84932598 0.6004902
0.98823529 0.85557598 0.60441176
0.66813725 0.81764706 0.57745098
0.68203125 0.81764706 0.58088235
0.71531863 0.81804534 0.58480392
0.75490196 0.81398591 0.58529412
0.80079657 0.81403186 0.5848652
0.88333333 0.83105086 0.59018076
0.94620098 0.86127451 0.60061275
0.97179841 0.87645527 0.60458027
0.98431373 0.8877451 0.60968137
0.79901961 0.87506127 0.59362745
0.80163909 0.87543658 0.586106
0.81634498 0.87506127 0.58803615
0.83970588 0.87506127 0.58878676
0.86939338 0.87591912 0.59114583
0.90422794 0.87892157 0.59679075
0.94217218 0.89080882 0.60609681
0.96868873 0.90331648 0.61629136
0.98039216 0.91770833 0.6245098
0.90196078 0.92156863 0.6122549
0.90196078 0.92156863 0.60833333
0.90588235 0.91764706 0.60833333
0.91372549 0.91764706 0.60833333
0.92573529 0.91813725 0.6122549
0.94117647 0.91813725 0.62009804
0.95686275 0.9254902 0.62794118
0.96862745 0.92506127 0.62794118
0.97647059 0.9254902 0.63137255
0.81960784 0.63921569 0.65882353
0.82745098 0.65098039 0.65882353
0.85784314 0.67647059 0.65490196
0.89656863 0.71862745 0.65098039
0.92941176 0.75882353 0.63921569
0.95686275 0.80147059 0.63137255
0.97745098 0.84509804 0.63235294
0.98431373 0.87598039 0.62794118
0.98823529 0.87058824 0.63137255
0.83088235 0.67745098 0.65882353
0.83523284 0.67052696 0.65882353
0.85784314 0.68909314 0.65490196
0.89509804 0.72401961 0.64883578
0.93137255 0.76642157 0.64313725
0.95833333 0.8091299 0.63529412
0.97647059 0.84497549 0.63137255
0.98431373 0.87015931 0.63045343
0.99215686 0.87892157 0.63186275
0.82941176 0.70294118 0.65882353
0.83958333 0.70821078 0.6557598
0.86568627 0.7245098 0.65490196
0.89264706 0.73933824 0.64705882
0.93137255 0.78235294 0.64313725
0.96115196 0.82046569 0.63921569
0.97647059 0.85490196 0.63137255
0.9817402 0.88419118 0.63186275
0.98431373 0.88627451 0.63137255
0.81176471 0.72401961 0.65098039
0.81519608 0.72647059 0.64852941
0.84178922 0.73480392 0.64705882
0.88866422 0.76262255 0.64460784
0.92622549 0.8 0.64117647
0.95833333 0.83192402 0.63529412
0.97352941 0.86372549 0.63468137
0.98039216 0.88284314 0.62922794
0.98431373 0.89411765 0.63137255
0.81568627 0.76862745 0.65294118
0.80784314 0.76348039 0.65098039
0.83872549 0.76813725 0.65
0.87156863 0.78284314 0.64313725
0.91568627 0.80686275 0.63921569
0.94852941 0.82818627 0.62745098
0.97352941 0.87205882 0.63578431
0.98039216 0.88284314 0.62941176
0.98431373 0.90196078 0.63921569
0.73578431 0.79362745 0.64313725
0.75441176 0.79099265 0.64295343
0.78039216 0.79362745 0.64019608
0.84264706 0.80392157 0.64313725
0.8872549 0.82156863 0.63529412
0.93872549 0.84215686 0.63284314
0.96568627 0.86875 0.63039216
0.98039216 0.88805147 0.63137255
0.98431373 0.90196078 0.63529412
0.77941176 0.84117647 0.63921569
0.7627451 0.83333333 0.63137255
0.79019608 0.83627451 0.63529412
0.80085784 0.82941176 0.63137255
0.85147059 0.84215686 0.63039216
0.92022059 0.86482843 0.63039216
0.96102941 0.88406863 0.63921569
0.98039216 0.90208333 0.64019608
0.98431373 0.91862745 0.64705882
0.84803922 0.88676471 0.63529412
0.85153186 0.88676471 0.63529412
0.87058824 0.89068627 0.63958333
0.8745098 0.8872549 0.63529412
0.90073529 0.89117647 0.6372549
0.9158701 0.88854167 0.62726716
0.95 0.8995098 0.64227941
0.97604167 0.91770833 0.64797794
0.98039216 0.9254902 0.64705882
0.9254902 0.93333333 0.65098039
0.90147059 0.92107843 0.63872549
0.91862745 0.92647059 0.64705882
0.90588235 0.90980392 0.63676471
0.93137255 0.92156863 0.6254902
0.94656863 0.92941176 0.64852941
0.95686275 0.9254902 0.65098039
0.96862745 0.92990196 0.65490196
0.98039216 0.94509804 0.66666667
