site/assets/luts/sha256-f1b21d6087b214d70c0cd2bbb2855886bb18221eb1a983f61e7787547847f47c.cube
# LUTr-Schema-Version: 2
# LUTr-ID: sha256-f1b21d6087b214d70c0cd2bbb2855886bb18221eb1a983f61e7787547847f47c
# LUTr-Title: kodak tmax 3200 -
# LUTr-Collection: Natron HaldCLUT
# LUTr-Collection-ID: natron-haldclut-presets
# LUTr-Source: https://github.com/NatronGitHub/clut
# LUTr-Retrieved: 2026-07-27
# LUTr-Source-File: submissions/natron-haldclut-presets/negative_new/kodak_tmax_3200_-.png
# LUTr-Source-Format: HALD-PNG
# LUTr-Source-SHA256: f1b21d6087b214d70c0cd2bbb2855886bb18221eb1a983f61e7787547847f47c
# LUTr-License: CC-BY-SA-4.0
# LUTr-License-URL: https://github.com/NatronGitHub/clut#license
# LUTr-License-Basis: repo-license-file
# LUTr-Transform-Class: film-emulation
# LUTr-Tags: creative, film, film-emulation, hald-clut, natron, png, cube
# LUTr-Input-Color-Space: srgb
# LUTr-Input-Gamut: rec709
# LUTr-Input-Transfer: srgb
# LUTr-Output-Color-Space: srgb
# LUTr-Output-Gamut: rec709
# LUTr-Output-Transfer: srgb
# LUTr-Color-Space-Confidence: assumed-display-referred
# LUTr-Domain-Normalized: true
# LUTr-Shaper: none
# LUTr-Original-Grid: 64x64x64
# LUTr-Conversion-Grid: 25x25x25
# LUTr-Conversion-Interpolation: trilinear
# LUTr-Conversion-Method: HALD-PNG LUT image decoded at 16-bit and sampled to 25x25x25 3D CUBE
# LUTr-Conversion-Tool: LUTr scripts/convert-all-to-cube.mjs 2.0.0
# LUTr-Conversion-Date: 2026-07-27
# LUTr-Note: Preserve this metadata and the upstream license notices when redistributing.
TITLE "kodak tmax 3200 -"
LUT_3D_SIZE 5
DOMAIN_MIN 0 0 0
DOMAIN_MAX 1 1 1
0.0078431373 0.0078431373 0.0078431373
0.023529412 0.023529412 0.023529412
0.096078431 0.096078431 0.096078431
0.24411765 0.24411765 0.24411765
0.34117647 0.34117647 0.34117647
0.15294118 0.15294118 0.15294118
0.19681373 0.19681373 0.19681373
0.27745098 0.27745098 0.27745098
0.33921569 0.33921569 0.33921569
0.43333333 0.43333333 0.43333333
0.37058824 0.37058824 0.37058824
0.37352941 0.37352941 0.37352941
0.43431373 0.43431373 0.43431373
0.5372549 0.5372549 0.5372549
0.6627451 0.6627451 0.6627451
0.60784314 0.60784314 0.60784314
0.61102941 0.61102941 0.61102941
0.64117647 0.64117647 0.64117647
0.70612745 0.70612745 0.70612745
0.81372549 0.81372549 0.81372549
0.89019608 0.89019608 0.89019608
0.88627451 0.88627451 0.88627451
0.88627451 0.88627451 0.88627451
0.92941176 0.92941176 0.92941176
0.95294118 0.95294118 0.95294118
0.02745098 0.02745098 0.02745098
0.06495098 0.06495098 0.06495098
0.14901961 0.14901961 0.14901961
0.25098039 0.25098039 0.25098039
0.3254902 0.3254902 0.3254902
0.19215686 0.19215686 0.19215686
0.23192402 0.23192402 0.23192402
0.28823529 0.28823529 0.28823529
0.3502451 0.3502451 0.3502451
0.42622549 0.42622549 0.42622549
0.40735294 0.40735294 0.40735294
0.41176471 0.41176471 0.41176471
0.4622549 0.4622549 0.4622549
0.5432598 0.5432598 0.5432598
0.64558824 0.64558824 0.64558824
0.63357843 0.63357843 0.63357843
0.63376225 0.63376225 0.63376225
0.64509804 0.64509804 0.64509804
0.70906863 0.70906863 0.70906863
0.83406863 0.83406863 0.83406863
0.89019608 0.89019608 0.89019608
0.89387255 0.89387255 0.89387255
0.89852941 0.89852941 0.89852941
0.92573529 0.92573529 0.92573529
0.95294118 0.95294118 0.95294118
0.074509804 0.074509804 0.074509804
0.13578431 0.13578431 0.13578431
0.24215686 0.24215686 0.24215686
0.28529412 0.28529412 0.28529412
0.35294118 0.35294118 0.35294118
0.20784314 0.20784314 0.20784314
0.26776961 0.26776961 0.26776961
0.34240196 0.34240196 0.34240196
0.375 0.375 0.375
0.41813725 0.41813725 0.41813725
0.40980392 0.40980392 0.40980392
0.45196078 0.45196078 0.45196078
0.50196078 0.50196078 0.50196078
0.55784314 0.55784314 0.55784314
0.61764706 0.61764706 0.61764706
0.6745098 0.6745098 0.6745098
0.67610294 0.67610294 0.67610294
0.70245098 0.70245098 0.70245098
0.74607843 0.74607843 0.74607843
0.85245098 0.85245098 0.85245098
0.90784314 0.90784314 0.90784314
0.90588235 0.90588235 0.90588235
0.91960784 0.91960784 0.91960784
0.92990196 0.92990196 0.92990196
0.94705882 0.94705882 0.94705882
0.16372549 0.16372549 0.16372549
0.21470588 0.21470588 0.21470588
0.32401961 0.32401961 0.32401961
0.40612745 0.40612745 0.40612745
0.41764706 0.41764706 0.41764706
0.28602941 0.28602941 0.28602941
0.31960784 0.31960784 0.31960784
0.40147059 0.40147059 0.40147059
0.47867647 0.47867647 0.47867647
0.47843137 0.47843137 0.47843137
0.41617647 0.41617647 0.41617647
0.44252451 0.44252451 0.44252451
0.54019608 0.54019608 0.54019608
0.61078431 0.61078431 0.61078431
0.61960784 0.61960784 0.61960784
0.64019608 0.64019608 0.64019608
0.66348039 0.66348039 0.66348039
0.71960784 0.71960784 0.71960784
0.79454657 0.79454657 0.79454657
0.84705882 0.84705882 0.84705882
0.92058824 0.92058824 0.92058824
0.91446078 0.91446078 0.91446078
0.93186275 0.93186275 0.93186275
0.94926471 0.94926471 0.94926471
0.94509804 0.94509804 0.94509804
0.29411765 0.29411765 0.29411765
0.31176471 0.31176471 0.31176471
0.39215686 0.39215686 0.39215686
0.57156863 0.57156863 0.57156863
0.65490196 0.65490196 0.65490196
0.36666667 0.36666667 0.36666667
0.38161765 0.38161765 0.38161765
0.47745098 0.47745098 0.47745098
0.58823529 0.58823529 0.58823529
0.70392157 0.70392157 0.70392157
0.48235294 0.48235294 0.48235294
0.50882353 0.50882353 0.50882353
0.57156863 0.57156863 0.57156863
0.71568627 0.71568627 0.71568627
0.79215686 0.79215686 0.79215686
0.60392157 0.60392157 0.60392157
0.59411765 0.59411765 0.59411765
0.65441176 0.65441176 0.65441176
0.80955882 0.80955882 0.80955882
0.90294118 0.90294118 0.90294118
0.8745098 0.8745098 0.8745098
0.9 0.9 0.9
0.9254902 0.9254902 0.9254902
0.95686275 0.95686275 0.95686275
0.95686275 0.95686275 0.95686275
