site/assets/luts/sha256-9b66b7b71455058fb207c632e1ebbd00d69802742a817a76aa5b9e4e1256ad0d.cube
# LUTr-Schema-Version: 2
# LUTr-ID: sha256-9b66b7b71455058fb207c632e1ebbd00d69802742a817a76aa5b9e4e1256ad0d
# LUTr-Title: orange tone
# LUTr-Collection: Natron HaldCLUT
# LUTr-Collection-ID: natron-haldclut-presets
# LUTr-Source: https://github.com/NatronGitHub/clut
# LUTr-Retrieved: 2026-07-27
# LUTr-Source-File: submissions/natron-haldclut-presets/various/orange_tone.png
# LUTr-Source-Format: HALD-PNG
# LUTr-Source-SHA256: 9b66b7b71455058fb207c632e1ebbd00d69802742a817a76aa5b9e4e1256ad0d
# LUTr-License: CC-BY-SA-4.0
# LUTr-License-URL: https://github.com/NatronGitHub/clut#license
# LUTr-License-Basis: repo-license-file
# LUTr-Transform-Class: film-emulation
# LUTr-Tags: creative, film, film-emulation, hald-clut, natron, png, warm, cube
# LUTr-Input-Color-Space: srgb
# LUTr-Input-Gamut: rec709
# LUTr-Input-Transfer: srgb
# LUTr-Output-Color-Space: srgb
# LUTr-Output-Gamut: rec709
# LUTr-Output-Transfer: srgb
# LUTr-Color-Space-Confidence: assumed-display-referred
# LUTr-Domain-Normalized: true
# LUTr-Shaper: none
# LUTr-Original-Grid: 64x64x64
# LUTr-Conversion-Grid: 25x25x25
# LUTr-Conversion-Interpolation: trilinear
# LUTr-Conversion-Method: HALD-PNG LUT image decoded at 16-bit and sampled to 25x25x25 3D CUBE
# LUTr-Conversion-Tool: LUTr scripts/convert-all-to-cube.mjs 2.0.0
# LUTr-Conversion-Date: 2026-07-27
# LUTr-Note: Preserve this metadata and the upstream license notices when redistributing.
TITLE "orange tone"
LUT_3D_SIZE 5
DOMAIN_MIN 0 0 0
DOMAIN_MAX 1 1 1
0.078431373 0 0
0.36176471 0.074509804 0.0078431373
0.79215686 0.3254902 0.0039215686
0.99607843 0.6 0.0029411765
1 0.78039216 0
0.097058824 0.0039215686 0
0.3745098 0.067647059 0.0088235294
0.81617647 0.33627451 0.0078431373
0.99607843 0.60392157 0
0.99705882 0.78431373 0
0.13333333 0.0078431373 0
0.43970588 0.099019608 0
0.89803922 0.39803922 0.0058823529
0.99607843 0.64411765 0.0014705882
0.99607843 0.81372549 0
0.18235294 0.015686275 0
0.50196078 0.13431373 0.0039215686
0.94754902 0.43970588 0.0039215686
0.99215686 0.67745098 0.0039215686
0.99215686 0.83529412 0.0039215686
0.22352941 0.031372549 0
0.5627451 0.14607843 0
0.98235294 0.4745098 0.0039215686
1 0.67352941 0
0.99607843 0.85098039 0
0.087254902 0 0.0039215686
0.39877451 0.084313725 0.0039215686
0.8245098 0.33235294 0.0039215686
1 0.60686275 0
1 0.79901961 0
0.1254902 0.0078431373 0
0.42898284 0.097487745 0.0049019608
0.86164216 0.37156863 0.0039215686
0.99313725 0.62683824 0.0039215686
1 0.81568627 0.0039215686
0.15931373 0.011764706 0
0.46960784 0.1122549 0.0039215686
0.93039216 0.42769608 0.0039215686
0.99607843 0.65747549 0.0039215686
1 0.81323529 0
0.19142157 0.012745098 0
0.5317402 0.14252451 0.0039215686
0.96813725 0.46568627 0.0040441176
0.99313725 0.68210784 0.0039215686
0.99901961 0.83137255 0
0.22254902 0.02745098 0
0.56887255 0.16764706 0
0.99803922 0.49558824 0.0039215686
0.99681373 0.69142157 0
0.99607843 0.81568627 0
0.12156863 0.0039215686 0
0.44313725 0.093627451 0.0068627451
0.89019608 0.40098039 0.0039215686
1 0.63235294 0.0039215686
1 0.81372549 0.0039215686
0.16960784 0.01372549 0
0.49313725 0.12254902 0.0039215686
0.9497549 0.4372549 0
1 0.65428922 0.0078431373
1 0.80784314 0.0039215686
0.18823529 0.01372549 0
0.51960784 0.14558824 0.0039215686
0.97843137 0.46666667 0
1 0.6872549 0.0078431373
1 0.84313725 0.0039215686
0.23627451 0.025980392 0.0039215686
0.58186275 0.17745098 0.0039215686
0.9754902 0.48848039 0
1 0.6995098 0.0039215686
0.99803922 0.83921569 0.0039215686
0.26078431 0.029411765 0.0039215686
0.61519608 0.18333333 0.0039215686
1 0.51568627 0.0078431373
0.99607843 0.71911765 0.0014705882
0.99607843 0.83137255 0
0.16372549 0.011764706 0
0.5 0.13039216 0
0.93186275 0.42794118 0.0039215686
1 0.65784314 0.0078431373
0.99607843 0.84313725 0
0.18406863 0.015686275 0.0039215686
0.54589461 0.16060049 0.0039215686
0.96433824 0.46151961 0.0039215686
0.99742647 0.6776348 0.0039215686
0.99607843 0.82083333 0.006127451
0.22401961 0.023529412 0
0.58455882 0.17230392 0.0039215686
0.99607843 0.50416667 0.0039215686
1 0.7064951 0.0039215686
0.99607843 0.8377451 0.0039215686
0.25563725 0.029166667 0.0039215686
0.63529412 0.19859069 0.0039215686
0.99362745 0.52794118 0
1 0.7278799 0
0.99607843 0.84313725 0
0.32843137 0.050980392 0.0029411765
0.69338235 0.25392157 0.0039215686
0.99607843 0.54362745 0.0039215686
1 0.73946078 0
1 0.85 0.0029411765
0.17647059 0.011764706 0
0.55490196 0.16470588 0
0.99411765 0.49215686 0.0078431373
0.99607843 0.68921569 0.0039215686
1 0.85490196 0
0.22647059 0.023529412 0.0029411765
0.58897059 0.18333333 0
1 0.49754902 0.0039215686
0.99607843 0.7 0
1 0.85882353 0
0.25098039 0.031372549 0.0039215686
0.64117647 0.20882353 0.0039215686
1 0.52156863 0
0.99754902 0.72009804 0
0.99607843 0.8745098 0
0.28627451 0.031372549 0
0.67941176 0.24534314 0.0036764706
1 0.5495098 0.0039215686
1 0.74803922 0
1 0.89411765 0
0.34117647 0.054901961 0
0.72254902 0.28627451 0.0039215686
1 0.55686275 0.0039215686
1 0.75980392 0
0.99607843 0.90588235 0
