site/assets/luts/sha256-0bbebb028bfa40f5a32b2767b118504a3f32b734040a360947916dbe2cf938aa.cube
# LUTr-Schema-Version: 2
# LUTr-ID: sha256-0bbebb028bfa40f5a32b2767b118504a3f32b734040a360947916dbe2cf938aa
# LUTr-Title: kodak2393 cuspclip
# LUTr-Collection: Natron HaldCLUT
# LUTr-Collection-ID: natron-haldclut-presets
# LUTr-Source: https://github.com/NatronGitHub/clut
# LUTr-Retrieved: 2026-07-27
# LUTr-Source-File: submissions/natron-haldclut-presets/print/kodak2393_cuspclip.png
# LUTr-Source-Format: HALD-PNG
# LUTr-Source-SHA256: 0bbebb028bfa40f5a32b2767b118504a3f32b734040a360947916dbe2cf938aa
# LUTr-License: CC-BY-SA-4.0
# LUTr-License-URL: https://github.com/NatronGitHub/clut#license
# LUTr-License-Basis: repo-license-file
# LUTr-Transform-Class: film-emulation
# LUTr-Tags: creative, film, film-emulation, hald-clut, natron, png, cube
# LUTr-Input-Color-Space: srgb
# LUTr-Input-Gamut: rec709
# LUTr-Input-Transfer: srgb
# LUTr-Output-Color-Space: srgb
# LUTr-Output-Gamut: rec709
# LUTr-Output-Transfer: srgb
# LUTr-Color-Space-Confidence: assumed-display-referred
# LUTr-Domain-Normalized: true
# LUTr-Shaper: none
# LUTr-Original-Grid: 64x64x64
# LUTr-Conversion-Grid: 25x25x25
# LUTr-Conversion-Interpolation: trilinear
# LUTr-Conversion-Method: HALD-PNG LUT image decoded at 16-bit and sampled to 25x25x25 3D CUBE
# LUTr-Conversion-Tool: LUTr scripts/convert-all-to-cube.mjs 2.0.0
# LUTr-Conversion-Date: 2026-07-27
# LUTr-Note: Preserve this metadata and the upstream license notices when redistributing.
TITLE "kodak2393 cuspclip"
LUT_3D_SIZE 25
DOMAIN_MIN 0 0 0
DOMAIN_MAX 1 1 1
0.0078431373 0.0078431373 0.0078431373
0.010294118 0.010294118 0.0078431373
0.020588235 0.016666667 0.011764706
0.030882353 0.023529412 0.015686275
0.041176471 0.029411765 0.015686275
0.059803922 0.031372549 0.015686275
0.084313725 0.035294118 0.011764706
0.11029412 0.035294118 0.0078431373
0.1372549 0.035294118 0.0039215686
0.17009804 0.037745098 0
0.23333333 0.044117647 0
0.29166667 0.050490196 0
0.34117647 0.050980392 0
0.39068627 0.059313725 0
0.43921569 0.07254902 0
0.47892157 0.079901961 0
0.50980392 0.08627451 0
0.53431373 0.092647059 0
0.55882353 0.098039216 0.0039215686
0.57205882 0.10539216 0.0039215686
0.58235294 0.11568627 0.0078431373
0.59215686 0.12205882 0.0083333333
0.59901961 0.1254902 0.014705882
0.60539216 0.12941176 0.021078431
0.60784314 0.12941176 0.02745098
0.0078431373 0.018137255 0.014215686
0.010294118 0.018137255 0.014215686
0.020588235 0.020220588 0.014583333
0.030882353 0.023529412 0.015686275
0.041176471 0.029411765 0.015686275
0.059803922 0.031372549 0.015196078
0.087254902 0.035294118 0.011764706
0.11366422 0.037745098 0.0078431373
0.14362745 0.041666667 0.0039215686
0.18578431 0.045588235 0
0.24754902 0.053431373 0
0.30569853 0.057352941 0
0.35588235 0.0625 0
0.41078431 0.071752451 0
0.45588235 0.082352941 0
0.49705882 0.093198529 0
0.52647059 0.10294118 0
0.55098039 0.10594363 0.0039215686
0.57156863 0.10894608 0.0039215686
0.58480392 0.11813725 0.006372549
0.59509804 0.12598039 0.010294118
0.60508578 0.13578431 0.011580882
0.60992647 0.13578431 0.0089460784
0.61721814 0.13578431 0.014705882
0.61813725 0.1372549 0.017156863
0.0078431373 0.028431373 0.019607843
0.0078431373 0.028431373 0.018504902
0.016666667 0.028431373 0.019607843
0.029534314 0.028431373 0.016666667
0.041176471 0.029901961 0.015686275
0.060294118 0.032720588 0.015196078
0.091176471 0.039215686 0.011764706
0.12414216 0.044117647 0.0078431373
0.16078431 0.048039216 0.0039215686
0.20294118 0.054411765 0
0.26078431 0.060784314 0
0.31703431 0.068504902 0
0.37647059 0.078431373 0
0.43186275 0.087377451 0
0.47647059 0.097303922 0
0.51556373 0.10870098 0
0.54705882 0.11862745 0
0.56764706 0.12352941 0.0045343137
0.5879902 0.12818627 0.0088235294
0.60134804 0.13394608 0.012622549
0.61127451 0.14068627 0.015686275
0.62071078 0.14620098 0.012745098
0.6252451 0.14705882 0.0088235294
0.63051471 0.14607843 0.0068627451
0.63333333 0.14705882 0.010784314
0.0078431373 0.035294118 0.023039216
0.0078431373 0.035294118 0.023039216
0.013235294 0.03872549 0.02254902
0.023529412 0.03872549 0.019607843
0.037254902 0.03872549 0.017401961
0.056862745 0.039215686 0.011764706
0.091176471 0.046568627 0.0091911765
0.12598039 0.052267157 0.0065563725
0.16078431 0.058333333 0.0039215686
0.20294118 0.060968137 0
0.26813725 0.071078431 0
0.33333333 0.084375 0
0.39509804 0.095098039 0
0.45245098 0.10496324 0
0.49705882 0.1122549 0
0.53431373 0.12598039 0
0.56421569 0.13627451 0.0034313725
0.58823529 0.14626225 0.0099877451
0.60392157 0.14803922 0.015196078
0.61770833 0.15196078 0.018688725
0.62843137 0.15612745 0.019362745
0.63829657 0.16378676 0.019546569
0.64215686 0.16372549 0.016176471
0.64626225 0.16243873 0.0076593137
0.65 0.16029412 0.00049019608
0.0039215686 0.045098039 0.023529412
0.0039215686 0.045098039 0.023529412
0.0068627451 0.045098039 0.023529412
0.017156863 0.045098039 0.019852941
0.032352941 0.049019608 0.018627451
0.055882353 0.052941176 0.01127451
0.084803922 0.056862745 0.006372549
0.12352941 0.062254902 0.0039215686
0.16078431 0.066666667 0.0019607843
0.20931373 0.075 0
0.28137255 0.087254902 0
0.35171569 0.10122549 0
0.41176471 0.11078431 0
0.46936275 0.12009804 0
0.51421569 0.13186275 0
0.55343137 0.14730392 0.0019607843
0.58235294 0.15882353 0.0078431373
0.60490196 0.16789216 0.014215686
0.62058824 0.17107843 0.018137255
0.63455882 0.17426471 0.021323529
0.64509804 0.17745098 0.026470588
0.65539216 0.18431373 0.029411765
0.6622549 0.18431373 0.025490196
0.66813725 0.18112745 0.016176471
0.67058824 0.18431373 0.0098039216
0 0.055392157 0.02745098
0 0.051960784 0.024019608
0.00085784314 0.051470588 0.023529412
0.011213235 0.054963235 0.020526961
0.027205882 0.061519608 0.019607843
0.051531863 0.06372549 0.01127451
0.078921569 0.06629902 0.00098039216
0.1213848 0.076960784 0
0.16519608 0.087254902 0.00049019608
0.228125 0.10177696 0.00049019608
0.30196078 0.1122549 0
0.37058824 0.12254902 0
0.43039216 0.13284314 0
0.48970588 0.14313725 0
0.53468137 0.1564951 0
0.57058824 0.17156863 0.0039215686
0.60147059 0.18529412 0.0078431373
0.6254902 0.19166667 0.014215686
0.64117647 0.19718137 0.019607843
0.65147059 0.20055147 0.023529412
0.66568627 0.20318627 0.029411765
0.67591912 0.20539216 0.030821078
0.68235294 0.20796569 0.026960784
0.68872549 0.20931373 0.02745098
0.69117647 0.20931373 0.020098039
0 0.075490196 0.034313725
0 0.075490196 0.03370098
0 0.075490196 0.030392157
0.0044117647 0.075490196 0.023897059
0.018627451 0.079901961 0.019607843
0.041666667 0.083455882 0.0083333333
0.070833333 0.090196078 0.00098039216
0.1192402 0.09754902 0
0.17254902 0.10882353 0.00098039216
0.24215686 0.12745098 0.0039215686
0.31960784 0.14313725 0.0029411765
0.38811275 0.15343137 0
0.45098039 0.16372549 0
0.50637255 0.17438725 0
0.55784314 0.18823529 0
0.59791667 0.20245098 0.0020833333
0.6254902 0.20980392 0.0078431373
0.65 0.21556373 0.014215686
0.66176471 0.22156863 0.020343137
0.67205882 0.22806373 0.026960784
0.68627451 0.22892157 0.02745098
0.69264706 0.22941176 0.020098039
0.70294118 0.23235294 0.016666667
0.70784314 0.2377451 0.021078431
0.71176471 0.24019608 0.02745098
0 0.10637255 0.044607843
0 0.10637255 0.044607843
0 0.10637255 0.040686275
0 0.10637255 0.032046569
0.0056372549 0.10367647 0.01495098
0.02745098 0.10900735 0.0037377451
0.065196078 0.11605392 0.0006127451
0.11268382 0.11905637 0
0.17009804 0.12843137 0
0.25245098 0.15202206 0.0024509804
0.32990196 0.16862745 0.0018382353
0.40196078 0.17892157 0
0.46421569 0.19264706 0
0.52352941 0.21047794 0
0.57953431 0.225 0
0.6245098 0.23480392 0.0014705882
0.64754902 0.23872549 0.0078431373
0.67205882 0.24509804 0.014215686
0.68627451 0.25355392 0.022058824
0.69656863 0.25539216 0.032352941
0.70686275 0.25735294 0.029411765
0.71685049 0.26096814 0.014889706
0.72389706 0.26519608 0.0072303922
0.72843137 0.2716299 0.021078431
0.72843137 0.275 0.031372549
0 0.13333333 0.054901961
0 0.13578431 0.054901961
0 0.1372549 0.05
0 0.1372549 0.032352941
0 0.13333333 0.01372549
0.017156863 0.13431373 0
0.054901961 0.14803922 0.0029411765
0.10539216 0.14901961 0
0.18039216 0.16470588 0
0.26666667 0.19313725 0
0.34509804 0.20882353 0
0.42352941 0.22254902 0
0.49215686 0.24313725 0
0.55588235 0.26372549 0
0.61078431 0.28137255 0
0.65147059 0.29019608 0
0.67843137 0.29411765 0.0039215686
0.70294118 0.29803922 0.018137255
0.71764706 0.29803922 0.028431373
0.725 0.29803922 0.034803922
0.73333333 0.30392157 0.035294118
0.74558824 0.31372549 0.026470588
0.75196078 0.31764706 0.011764706
0.75294118 0.32009804 0.018627451
0.75294118 0.32156863 0.031372549
0 0.16029412 0.065196078
0 0.16666667 0.065196078
0 0.17696078 0.06495098
0 0.18088235 0.052634804
0.0012254902 0.18088235 0.033578431
0.00625 0.1786152 0.0096813725
0.038235294 0.18468137 0.0022058824
0.099877451 0.20042892 0
0.20098039 0.22647059 0
0.29270833 0.25189951 0
0.37598039 0.27156863 0
0.46078431 0.29068627 0
0.53014706 0.30931373 0
0.59068627 0.3254902 0
0.64264706 0.34068627 0
0.67843137 0.34558824 0
0.70931373 0.34558824 0
0.73535539 0.35410539 0.011764706
0.7495098 0.35294118 0.028921569
0.75980392 0.35716912 0.025306373
0.76617647 0.36176471 0.026960784
0.77598039 0.36813725 0.028247549
0.77745098 0.37267157 0.0098039216
0.78045343 0.37395833 0.0098651961
0.78382353 0.37941176 0.014705882
0 0.20196078 0.089215686
0.0006127451 0.21188725 0.085294118
0.0039215686 0.22156863 0.085294118
0.0039215686 0.22843137 0.078431373
0.0039215686 0.22843137 0.053431373
0.0013480392 0.22585784 0.025367647
0.0066176471 0.2252451 0.0014705882
0.10343137 0.25245098 0
0.21764706 0.28333333 0
0.31421569 0.31127451 0
0.40612745 0.3375 0
0.49313725 0.35882353 0
0.56568627 0.37745098 0
0.62107843 0.38406863 0
0.66862745 0.39681373 0.0029411765
0.71348039 0.41102941 0.0087009804
0.74019608 0.40686275 0.00098039216
0.76078431 0.40931373 0.006372549
0.77647059 0.41495098 0.018627451
0.78933824 0.41764706 0.01997549
0.79460784 0.42107843 0.018627451
0.80245098 0.42634804 0.018995098
0.80710784 0.43357843 0.013235294
0.81078431 0.43823529 0.0069852941
0.81176471 0.44215686 0.0088235294
0.0039215686 0.26372549 0.12009804
0.0026348039 0.26666667 0.11795343
0.0039215686 0.27598039 0.11617647
0.0069240196 0.28333333 0.10925245
0.0039215686 0.28897059 0.082843137
0.0039215686 0.29460784 0.04810049
0.0037990196 0.3004902 0.011151961
0.11372549 0.31685049 0.0034313725
0.23088235 0.33480392 0
0.33694853 0.37285539 0
0.43137255 0.40379902 0
0.52052696 0.42745098 0
0.59460784 0.44779412 0
0.65496324 0.45582108 0.0034926471
0.7004902 0.46605392 0.0073529412
0.7377451 0.47518382 0.0073529412
0.77107843 0.47892157 0.0039215686
0.78921569 0.48106618 0.0076593137
0.80343137 0.47561275 0.015686275
0.81372549 0.47591912 0.019607843
0.81862745 0.47941176 0.01372549
0.82303922 0.48082108 0.0088235294
0.83627451 0.49754902 0.018627451
0.84203431 0.50833333 0.019301471
0.84215686 0.51078431 0.019117647
0.0019607843 0.31372549 0.14901961
0 0.31421569 0.14583333
0.006372549 0.3245098 0.14068627
0.0098039216 0.33480392 0.13578431
0.0039215686 0.34313725 0.1127451
0.0017156863 0.33897059 0.063970588
0 0.33529412 0.0073529412
0.11176471 0.36519608 0
0.2372549 0.39607843 0.0019607843
0.35122549 0.43333333 0.00073529412
0.4504902 0.46715686 0
0.54117647 0.49313725 0
0.62058824 0.51372549 0
0.68308824 0.52598039 0.0044117647
0.73431373 0.53627451 0.014705882
0.77107843 0.54191176 0.010294118
0.8 0.54509804 0.0039215686
0.81421569 0.54264706 0.010294118
0.82647059 0.53627451 0.016176471
0.83676471 0.53480392 0.017892157
0.85 0.54607843 0.014705882
0.85906863 0.55539216 0.014215686
0.86421569 0.5622549 0.02254902
0.86936275 0.57132353 0.025490196
0.87058824 0.5745098 0.025490196
0.0088235294 0.35882353 0.17401961
0.0088235294 0.36176471 0.17352941
0.016911765 0.37536765 0.17083333
0.016176471 0.38186275 0.1622549
0.006127451 0.39215686 0.14632353
0 0.39460784 0.099019608
0 0.3942402 0.011151961
0.11176471 0.42254902 0.0039215686
0.23921569 0.45735294 0.0039215686
0.35686275 0.48854167 0.0039215686
0.46176471 0.52303922 0.0030637255
0.56170343 0.55392157 0.00049019608
0.64436275 0.5752451 0.00049019608
0.709375 0.5877451 0.0049019608
0.76090686 0.59803922 0.018259804
0.79901961 0.60655637 0.010294118
0.825 0.60686275 0.0044117647
0.84136029 0.60655637 0.01439951
0.85343137 0.59901961 0.020098039
0.86758578 0.60594363 0.016176471
0.87745098 0.61078431 0.0098039216
0.88382353 0.61470588 0.0039828431
0.89019608 0.62120098 0.021936275
0.89117647 0.62775735 0.035784314
0.89509804 0.62990196 0.035784314
0.029411765 0.4 0.19803922
0.025857843 0.40821078 0.19803922
0.023529412 0.41666667 0.19411765
0.022671569 0.42316176 0.18676471
0.014215686 0.43333333 0.15882353
0.0068627451 0.43921569 0.11360294
0.0029411765 0.44142157 0.035294118
0.11678922 0.47218137 0.019117647
0.24607843 0.50588235 0.010784314
0.3689951 0.54031863 0.0068627451
0.48235294 0.5745098 0.0039215686
0.58615196 0.60625 0.0039215686
0.66813725 0.63186275 0.0039215686
0.73382353 0.64656863 0.0083333333
0.78235294 0.65612745 0.012745098
0.81960784 0.65821078 0.0125
0.84901961 0.65882353 0.017647059
0.86507353 0.66176471 0.022181373
0.87818627 0.66102941 0.026470588
0.89166667 0.66556373 0.021691176
0.90147059 0.66862745 0.019607843
0.90392157 0.66580882 0.017279412
0.90857843 0.67352941 0.030882353
0.91176471 0.67953431 0.043627451
0.91176471 0.68137255 0.046078431
0.040196078 0.43186275 0.21715686
0.024448529 0.44215686 0.215625
0.016053922 0.44889706 0.20906863
0.022855392 0.45882353 0.20196078
0.029656863 0.46519608 0.17818627
0.011458333 0.4754902 0.13333333
0.0029411765 0.47830882 0.032107843
0.11715686 0.51133578 0.01182598
0.25245098 0.54705882 0.010294118
0.37990196 0.58578431 0.0087622549
0.49791667 0.62205882 0.0078431373
0.6004902 0.65539216 0.0078431373
0.68578431 0.68039216 0.0071078431
0.75343137 0.696875 0.011948529
0.80257353 0.70355392 0.017156863
0.83872549 0.70392157 0.02254902
0.86421569 0.70392157 0.032843137
0.88327206 0.70392157 0.039767157
0.89803922 0.70490196 0.042156863
0.91078431 0.71127451 0.038541667
0.92107843 0.71813725 0.031617647
0.92303922 0.71568627 0.03872549
0.92414216 0.71360294 0.047916667
0.92696078 0.71660539 0.053921569
0.92843137 0.71960784 0.056372549
0.019607843 0.45882353 0.22352941
0.0093137255 0.46666667 0.225
0.0049019608 0.47156863 0.21862745
0.018627451 0.48186275 0.20833333
0.035294118 0.49215686 0.19215686
0.015686275 0.50637255 0.14509804
0.032352941 0.51960784 0.076470588
0.13921569 0.5495098 0.034803922
0.26666667 0.58039216 0.0078431373
0.39803922 0.62156863 0.0039215686
0.51176471 0.65784314 0.0078431373
0.61127451 0.69264706 0.0044117647
0.69607843 0.71960784 0.0019607843
0.76323529 0.72598039 0.016176471
0.81470588 0.73333333 0.026470588
0.85539216 0.73872549 0.032843137
0.87843137 0.74117647 0.043137255
0.89901961 0.74509804 0.053431373
0.91470588 0.74607843 0.058823529
0.925 0.74901961 0.055392157
0.93137255 0.74509804 0.050980392
0.93382353 0.74901961 0.054901961
0.9372549 0.74509804 0.061764706
0.93872549 0.74901961 0.066666667
0.94117647 0.75294118 0.066666667
0.0039215686 0.48088235 0.22990196
0.0014705882 0.48088235 0.22745098
0.00098039216 0.48970588 0.22254902
0.0027573529 0.50245098 0.21470588
0.017401961 0.51029412 0.19607843
0.020465686 0.52291667 0.14319853
0.01004902 0.53345588 0.051470588
0.13278186 0.56856618 0.022916667
0.2745098 0.60735294 0.0078431373
0.4122549 0.64607843 0.00091911765
0.52352941 0.67941176 0.0049019608
0.62156863 0.71452206 0.0044117647
0.70637255 0.74215686 0.010784314
0.77009804 0.7526348 0.023039216
0.825 0.75784314 0.036764706
0.86176471 0.76084559 0.046507353
0.88627451 0.76568627 0.057352941
0.90931373 0.76960784 0.065196078
0.92610294 0.77169118 0.07120098
0.93314951 0.77352941 0.071752451
0.93848039 0.77279412 0.071568627
0.94411765 0.77598039 0.071568627
0.94754902 0.77598039 0.073039216
0.94754902 0.77745098 0.073039216
0.94901961 0.77745098 0.073039216
0.0029411765 0.49019608 0.23137255
0 0.49080882 0.2307598
0.0039215686 0.50416667 0.22352941
0.0039215686 0.51813725 0.21617647
0.0014705882 0.5254902 0.19460784
0.00049019608 0.53578431 0.14595588
0.0039215686 0.54828431 0.054901961
0.13039216 0.58394608 0.027573529
0.2745098 0.6245098 0.012745098
0.41335784 0.66176471 0.006004902
0.53137255 0.69803922 0.0080882353
0.62794118 0.72892157 0.012254902
0.7122549 0.75392157 0.023039216
0.78394608 0.775 0.036764706
0.83235294 0.77843137 0.047058824
0.86715686 0.77953431 0.056985294
0.89411765 0.78235294 0.066666667
0.91568627 0.78811275 0.074019608
0.93137255 0.79019608 0.078676471
0.94068627 0.79019608 0.079411765
0.94754902 0.79166667 0.079411765
0.95392157 0.79411765 0.082352941
0.95392157 0.79313725 0.079411765
0.95686275 0.79313725 0.079411765
0.95686275 0.79313725 0.079411765
0 0.49754902 0.23480392
0.0021446078 0.50214461 0.23265931
0.0039215686 0.51776961 0.22732843
0.0069240196 0.53186275 0.21623775
0.02622549 0.54215686 0.19044118
0.021446078 0.54901961 0.14644608
0.0034313725 0.55968137 0.039705882
0.12696078 0.59626225 0.016973039
0.26715686 0.63480392 0.015686275
0.40490196 0.67205882 0.015196078
0.53235294 0.70833333 0.012622549
0.6278799 0.73921569 0.022120098
0.71372549 0.76421569 0.033088235
0.78731618 0.78529412 0.043627451
0.83884804 0.79436275 0.053921569
0.8745098 0.79528186 0.06372549
0.90147059 0.7995098 0.074019608
0.92254902 0.80557598 0.082169118
0.9377451 0.80686275 0.085784314
0.94460784 0.80686275 0.08627451
0.95441176 0.80735294 0.089705882
0.96035539 0.81035539 0.089705882
0.96335784 0.80698529 0.087132353
0.96292892 0.80343137 0.085784314
0.96078431 0.80343137 0.085784314
0 0.50392157 0.24313725
0.0083333333 0.51348039 0.2379902
0.015686275 0.52843137 0.23088235
0.022794118 0.54240196 0.21838235
0.045098039 0.55294118 0.19803922
0.038480392 0.5629902 0.1375
0.0019607843 0.56960784 0.018627451
0.12647059 0.60392157 0.0085784314
0.27058824 0.64509804 0.011764706
0.40955882 0.68235294 0.01495098
0.54117647 0.71862745 0.018137255
0.63357843 0.74607843 0.021323529
0.7127451 0.76862745 0.032352941
0.78112745 0.7870098 0.044117647
0.83627451 0.8004902 0.057843137
0.88014706 0.80980392 0.070098039
0.90588235 0.81372549 0.078431373
0.92647059 0.81495098 0.084803922
0.94215686 0.81764706 0.087254902
0.9504902 0.81764706 0.090196078
0.96078431 0.81960784 0.092156863
0.96862745 0.81960784 0.094117647
0.96862745 0.81764706 0.092647059
0.96862745 0.81617647 0.090196078
0.96666667 0.81372549 0.090196078
0.00049019608 0.50735294 0.24705882
0.012928922 0.52322304 0.24068627
0.024387255 0.53884804 0.23419118
0.026960784 0.55251225 0.20398284
0.028921569 0.56323529 0.16691176
0.039215686 0.57401961 0.12414216
0.012990196 0.5817402 0.01752451
0.14509804 0.61685049 0.0078431373
0.3 0.65490196 0.0078431373
0.43823529 0.69264706 0.013909314
0.55980392 0.72977941 0.01997549
0.64797794 0.75631127 0.019546569
0.72377451 0.77696078 0.025
0.78382353 0.79313725 0.040134804
0.83872549 0.80723039 0.056495098
0.88284314 0.81568627 0.068137255
0.90588235 0.81617647 0.077941176
0.92647059 0.81960784 0.084803922
0.94313725 0.82095588 0.087254902
0.95637255 0.82395833 0.090196078
0.96666667 0.82573529 0.094117647
0.97303922 0.82745098 0.094117647
0.97303922 0.82745098 0.094117647
0.97303922 0.82401961 0.094117647
0.97303922 0.82401961 0.094607843
0.010784314 0.53431373 0.24705882
0.012377451 0.54166667 0.2377451
0.016666667 0.55588235 0.22647059
0.016666667 0.56617647 0.17732843
0.019117647 0.575 0.1127451
0.028431373 0.5877451 0.071813725
0.0875 0.60196078 0.025735294
0.18615196 0.62941176 0.0067401961
0.33823529 0.66176471 0.0039215686
0.46213235 0.70294118 0.0088235294
0.5620098 0.73529412 0.0058823529
0.65098039 0.76237745 0.011397059
0.72892157 0.78431373 0.02254902
0.79105392 0.79963235 0.042401961
0.84313725 0.81078431 0.053431373
0.88284314 0.8189951 0.068137255
0.90588235 0.81960784 0.074509804
0.93039216 0.81960784 0.084803922
0.94534314 0.82352941 0.087254902
0.95894608 0.82745098 0.090196078
0.97058824 0.83137255 0.094117647
0.97683824 0.83137255 0.093995098
0.97941176 0.83137255 0.094117647
0.97941176 0.8310049 0.095220588
0.97941176 0.83039216 0.10490196
0.006372549 0.55196078 0.2377451
0.003370098 0.55686275 0.23045343
0.0078431373 0.57107843 0.20551471
0.006372549 0.58137255 0.15324755
0.0024509804 0.59166667 0.082352941
0.052267157 0.60214461 0.012622549
0.11213235 0.61911765 0.0125
0.234375 0.64417892 0.0039215686
0.36372549 0.67598039 0.0039215686
0.49129902 0.71378676 0.0024509804
0.57365196 0.73958333 0.0039215686
0.65490196 0.76372549 0.014705882
0.73137255 0.78823529 0.032107843
0.79460784 0.80441176 0.04754902
0.84252451 0.81470588 0.057843137
0.88584559 0.82352941 0.069056373
0.90980392 0.82352941 0.075980392
0.93039216 0.82352941 0.084803922
0.94644608 0.82745098 0.090196078
0.96158088 0.83106618 0.093811275
0.9745098 0.83529412 0.094117647
0.98039216 0.83529412 0.094117647
0.98186275 0.83529412 0.097426471
0.9848652 0.83676471 0.10245098
0.98578431 0.83676471 0.11519608
0.0039215686 0.55686275 0.23921569
0.0039215686 0.56323529 0.22794118
0.0029411765 0.58235294 0.18235294
0 0.59166667 0.13529412
0 0.59411765 0.068627451
0.043137255 0.60882353 0.0044117647
0.19117647 0.63627451 0.00098039216
0.25931373 0.65539216 0.0039215686
0.38039216 0.68627451 0.0039215686
0.49656863 0.71715686 0.0024509804
0.57941176 0.74019608 0.0078431373
0.65539216 0.76372549 0.018627451
0.73137255 0.78823529 0.033333333
0.79460784 0.80441176 0.04754902
0.84607843 0.81862745 0.061764706
0.88921569 0.82745098 0.074509804
0.90980392 0.82352941 0.078431373
0.93039216 0.82352941 0.082352941
0.95 0.82843137 0.090196078
0.96421569 0.83480392 0.094117647
0.97647059 0.83529412 0.096078431
0.98088235 0.83921569 0.094607843
0.98431373 0.83921569 0.10098039
0.98823529 0.83921569 0.11127451
0.99215686 0.84313725 0.12156863
0.010294118 0.014215686 0.018137255
0.011213235 0.015134804 0.018137255
0.020588235 0.020220588 0.018137255
0.030882353 0.02567402 0.018137255
0.041176471 0.030637255 0.018872549
0.056066176 0.031372549 0.017830882
0.079779412 0.035294118 0.014583333
0.10729167 0.035294118 0.010294118
0.13578431 0.035294118 0.0039215686
0.18431373 0.035294118 0
0.2372549 0.037745098 0
0.29166667 0.044117647 0
0.34166667 0.048529412 0
0.38921569 0.052634804 0
0.44068627 0.060784314 0
0.48768382 0.074448529 0
0.52647059 0.08627451 0
0.54160539 0.089276961 0
0.56458333 0.099019608 0.00036764706
0.57469363 0.10539216 0.0039215686
0.58235294 0.1125 0.0058823529
0.59117647 0.11482843 0.0080269608
0.60330882 0.12487745 0.012867647
0.60845588 0.12941176 0.021078431
0.60784314 0.12941176 0.029901961
0.010845588 0.019056373 0.018137255
0.011764706 0.019056373 0.018137255
0.020588235 0.022426471 0.018137255
0.030882353 0.02666973 0.018137255
0.041176471 0.030637255 0.018137255
0.056066176 0.031372549 0.015686275
0.082873775 0.035294118 0.013066789
0.1127451 0.038296569 0.009375
0.14607843 0.041666667 0.0039215686
0.19028033 0.044117647 0
0.24754902 0.047058824 0
0.30196078 0.05178462 0
0.35588235 0.059773284 0
0.41223958 0.067041973 0
0.45772059 0.07611826 0
0.50098039 0.087193627 0
0.53431373 0.096568627 0
0.55377604 0.10328585 0.00057444853
0.57405025 0.11046262 0.0028186275
0.58579197 0.11825214 0.0060661765
0.5955576 0.12429534 0.0095281863
0.60527727 0.12872243 0.010776654
0.61199449 0.1301011 0.0086397059
0.61779259 0.13425245 0.014705882
0.61966912 0.13578431 0.018627451
0.0096813725 0.028431373 0.022426471
0.011626838 0.028431373 0.022426471
0.016666667 0.028431373 0.022426471
0.029672181 0.030269608 0.020450368
0.041176471 0.031372549 0.018321078
0.057843137 0.032720588 0.015502451
0.089338235 0.039215686 0.011764706
0.12306985 0.044117647 0.0078431373
0.15894608 0.048039216 0.0039215686
0.20202206 0.053262868 0.0006127451
0.2591299 0.060079657 0
0.31703431 0.067248775 0
0.37598039 0.078431373 0
0.42895221 0.087377451 0
0.4763174 0.095098039 0
0.51625306 0.10294118 0
0.54889706 0.11323529 0
0.57058824 0.12029718 0.0032322304
0.5879902 0.12699142 0.0080882353
0.60134804 0.13394608 0.012622549
0.61176471 0.13946078 0.015686275
0.62094056 0.14362745 0.012745098
0.62769608 0.14371936 0.011856618
