site/assets/luts/sha256-3d01b9cb1d3ba324206d9597c82f960551e1a409902bece5adb65212c18f963c.cube
# LUTr-Schema-Version: 2
# LUTr-ID: sha256-3d01b9cb1d3ba324206d9597c82f960551e1a409902bece5adb65212c18f963c
# LUTr-Title: polaroid px-680 warm -
# LUTr-Collection: Natron HaldCLUT
# LUTr-Collection-ID: natron-haldclut-presets
# LUTr-Source: https://github.com/NatronGitHub/clut
# LUTr-Retrieved: 2026-07-27
# LUTr-Source-File: submissions/natron-haldclut-presets/instant_consumer/polaroid_px-680_warm_-.png
# LUTr-Source-Format: HALD-PNG
# LUTr-Source-SHA256: 3d01b9cb1d3ba324206d9597c82f960551e1a409902bece5adb65212c18f963c
# LUTr-License: CC-BY-SA-4.0
# LUTr-License-URL: https://github.com/NatronGitHub/clut#license
# LUTr-License-Basis: repo-license-file
# LUTr-Transform-Class: film-emulation
# LUTr-Tags: creative, film, film-emulation, hald-clut, natron, png, warm, cube
# LUTr-Input-Color-Space: srgb
# LUTr-Input-Gamut: rec709
# LUTr-Input-Transfer: srgb
# LUTr-Output-Color-Space: srgb
# LUTr-Output-Gamut: rec709
# LUTr-Output-Transfer: srgb
# LUTr-Color-Space-Confidence: assumed-display-referred
# LUTr-Domain-Normalized: true
# LUTr-Shaper: none
# LUTr-Original-Grid: 64x64x64
# LUTr-Conversion-Grid: 25x25x25
# LUTr-Conversion-Interpolation: trilinear
# LUTr-Conversion-Method: HALD-PNG LUT image decoded at 16-bit and sampled to 25x25x25 3D CUBE
# LUTr-Conversion-Tool: LUTr scripts/convert-all-to-cube.mjs 2.0.0
# LUTr-Conversion-Date: 2026-07-27
# LUTr-Note: Preserve this metadata and the upstream license notices when redistributing.
TITLE "polaroid px-680 warm -"
LUT_3D_SIZE 25
DOMAIN_MIN 0 0 0
DOMAIN_MAX 1 1 1
0.16470588 0.14509804 0.0078431373
0.1622549 0.14117647 0.0039215686
0.16960784 0.14117647 0.0049019608
0.18382353 0.14509804 0.0078431373
0.19411765 0.14509804 0.0078431373
0.2127451 0.14509804 0.0078431373
0.23627451 0.14509804 0.0049019608
0.25931373 0.14117647 0.0024509804
0.29803922 0.14509804 0
0.35980392 0.15147059 0.0039215686
0.42156863 0.15686275 0.0039215686
0.48333333 0.15686275 0.0039215686
0.54901961 0.15294118 0.0039215686
0.61078431 0.14509804 0.0039215686
0.67254902 0.13823529 0
0.72892157 0.1745098 0.0014705882
0.78039216 0.21568627 0.0039215686
0.83186275 0.25294118 0.0039215686
0.87058824 0.27745098 0.0029411765
0.90784314 0.30441176 0
0.93333333 0.33137255 0.0098039216
0.95392157 0.3622549 0.024019608
0.9745098 0.39313725 0.030392157
0.99509804 0.42009804 0.039215686
1 0.43137255 0.047058824
0.16862745 0.15147059 0.010294118
0.16862745 0.15147059 0.0078431373
0.17352941 0.14754902 0.0078431373
0.18382353 0.14540441 0.0078431373
0.19411765 0.14509804 0.0078431373
0.20931373 0.14509804 0.0041053922
0.23872549 0.14509804 0.0042892157
0.26568627 0.14901961 0.0039215686
0.30441176 0.15147059 0.0039215686
0.3622549 0.15447304 0.0054534314
0.41948529 0.15747549 0.0039215686
0.48069853 0.16078431 0.0039215686
0.54509804 0.15808824 0.0039215686
0.60863971 0.15177696 0.0034313725
0.6754902 0.16262255 0
0.73376225 0.18970588 0
0.78676471 0.2245098 0.0014705882
0.83578431 0.25686275 0.0039215686
0.87352941 0.28676471 0.0035539216
0.90569853 0.31470588 0.0024509804
0.93333333 0.33970588 0.0058823529
0.95392157 0.36862745 0.017647059
0.9745098 0.3995098 0.027941176
0.99209559 0.42892157 0.052205882
0.99607843 0.44166667 0.067647059
0.17254902 0.16176471 0.011764706
0.17316176 0.15784314 0.011764706
0.17843137 0.15784314 0.011764706
0.18786765 0.15392157 0.0091911765
0.19607843 0.14852941 0.006372549
0.21421569 0.15 0.0039215686
0.24803922 0.15392157 0.0039215686
0.27990196 0.15931373 0.0049019608
0.31862745 0.16176471 0.0039215686
0.37009804 0.16176471 0.0039215686
0.42377451 0.16151961 0.006127451
0.47941176 0.16164216 0.0039215686
0.54117647 0.16127451 0.0034313725
0.60735294 0.17107843 0
0.6754902 0.18529412 0
0.73823529 0.21029412 0
0.79215686 0.24019608 0
0.83480392 0.26813725 0.0024509804
0.87034314 0.29803922 0.0039215686
0.90343137 0.32634804 0.0039215686
0.93088235 0.35245098 0.0039215686
0.95698529 0.37585784 0.0068627451
0.97843137 0.40490196 0.012745098
0.99068627 0.43468137 0.051470588
0.99607843 0.45980392 0.092156863
0.17254902 0.17205882 0.011764706
0.17647059 0.16813725 0.015686275
0.18137255 0.16813725 0.014705882
0.18823529 0.16421569 0.011764706
0.19803922 0.16764706 0.0078431373
0.21758578 0.16764706 0.0039215686
0.25490196 0.16801471 0.0068627451
0.29019608 0.17175245 0.0078431373
0.32892157 0.17205882 0.0078431373
0.38039216 0.17205882 0.0053921569
0.42794118 0.17071078 0.0039215686
0.47941176 0.1651348 0.00049019608
0.53921569 0.17352941 0
0.60686275 0.19166667 0
0.6754902 0.20625 0
0.73823529 0.22959559 0
0.79215686 0.25784314 0
0.83333333 0.28480392 0.00030637255
0.86960784 0.3122549 0.0039215686
0.9004902 0.33964461 0.0039215686
0.92745098 0.36421569 0.0039215686
0.95398284 0.38872549 0.0039215686
0.97879902 0.41311275 0.0013480392
0.99362745 0.44283088 0.041176471
1 0.47745098 0.11666667
0.16862745 0.18431373 0.011764706
0.17377451 0.18235294 0.015686275
0.17892157 0.18235294 0.013235294
0.1877451 0.18431373 0.011764706
0.20294118 0.18823529 0.011764706
0.22279412 0.18823529 0.0073529412
0.25490196 0.18823529 0.0039215686
0.29338235 0.18823529 0.0066176471
0.3372549 0.18823529 0.0078431373
0.3875 0.19215686 0.0039215686
0.43627451 0.19166667 0.0034313725
0.48946078 0.19019608 0
0.54901961 0.19803922 0
0.61102941 0.20857843 0
0.67941176 0.22401961 0
0.74068627 0.24681373 0
0.78627451 0.2745098 0
0.82941176 0.30147059 0
0.87058824 0.32990196 0.0039215686
0.90269608 0.35563725 0.0039215686
0.92745098 0.37941176 0.0039215686
0.95392157 0.40294118 0.0039215686
0.97647059 0.425 0.0053921569
0.99215686 0.45269608 0.027696078
0.99607843 0.48235294 0.088235294
0.16078431 0.2004902 0.0078431373
0.16666667 0.19705882 0.01127451
0.17745098 0.20098039 0.011764706
0.19117647 0.20490196 0.015686275
0.20784314 0.20882353 0.011764706
0.2245098 0.20882353 0.0073529412
0.25147059 0.20882353 0.0039215686
0.29362745 0.20882353 0.0039215686
0.34117647 0.2127451 0.0039215686
0.38890931 0.2153799 0.0036151961
0.44031863 0.21678922 0
0.50294118 0.22107843 0
0.56348039 0.23063725 0
0.62303922 0.23333333 0
0.68480392 0.24191176 0
0.74313725 0.26029412 0
0.78431373 0.29117647 0
0.8254902 0.31813725 0
0.87058824 0.34497549 0
0.90490196 0.36862745 0.0038602941
0.9254902 0.39289216 0.0039215686
0.95 0.41715686 0.0074142157
0.97058824 0.44080882 0.011642157
0.98970588 0.46617647 0.023529412
0.99607843 0.48284314 0.053431373
0.15392157 0.21764706 0.0049019608
0.16213235 0.21764706 0.0067401961
0.17377451 0.2247549 0.011764706
0.18480392 0.23186275 0.012622549
0.20294118 0.23235294 0.010294118
0.22156863 0.23198529 0.0073529412
0.24436275 0.22941176 0.00098039216
0.28970588 0.23051471 0
0.34117647 0.23333333 0
0.39019608 0.23909314 0
0.44803922 0.24509804 0
0.51335784 0.25453431 0
0.5754902 0.26176471 0
0.63431373 0.26715686 0
0.69509804 0.27058824 0
0.74313725 0.28382353 0
0.78431373 0.31176471 0
0.8254902 0.34166667 0
0.86764706 0.36789216 0
0.90061275 0.38921569 0.0034313725
0.92401961 0.40980392 0.0039215686
0.94705882 0.43137255 0.0044117647
0.96985294 0.45490196 0.0078431373
0.99080882 0.47977941 0.010661765
0.99607843 0.48921569 0.02254902
0.14509804 0.2372549 0
0.15539216 0.24362745 0.0039215686
0.16813725 0.25245098 0.0067401961
0.17843137 0.25882353 0.0078431373
0.19068627 0.26323529 0.0071078431
0.2153799 0.25931373 0.0037377451
0.24816176 0.26433824 0
0.29362745 0.26862745 0
0.34509804 0.27254902 0
0.39748775 0.27892157 0
0.45539216 0.28860294 0
0.52009804 0.29705882 0
0.58186275 0.30588235 0
0.64185049 0.31194853 0
0.69705882 0.31568627 0
0.73921569 0.32107843 0
0.78039216 0.34019608 0
0.82156863 0.36470588 0
0.86029412 0.38921569 0
0.89117647 0.41341912 0.0039215686
0.91691176 0.43431373 0.0039215686
0.94215686 0.45490196 0.0039215686
0.96519608 0.4754902 0.0039215686
0.98878676 0.49552696 0.0044730392
0.99460784 0.50098039 0.011764706
0.1372549 0.27843137 0.0039215686
0.14754902 0.28088235 0.0039215686
0.15784314 0.28333333 0.0039215686
0.16813725 0.28627451 0.0039215686
0.18039216 0.29019608 0.0039215686
0.20980392 0.29068627 0
0.25392157 0.30098039 0
0.3 0.31127451 0
0.34901961 0.31764706 0
0.40294118 0.32401961 0
0.46470588 0.33431373 0
0.52647059 0.34068627 0
0.58627451 0.35098039 0
0.64558824 0.35686275 0
0.69411765 0.36078431 0
0.73676471 0.36078431 0
0.78039216 0.36078431 0
0.81764706 0.38529412 0
0.85 0.41078431 0.00098039216
0.88088235 0.43431373 0.0039215686
0.91176471 0.45490196 0.0039215686
0.93823529 0.4754902 0.0039215686
0.9627451 0.49607843 0.0039215686
0.98186275 0.5127451 0.0053921569
0.98823529 0.52156863 0.011764706
0.13088235 0.31960784 0.0039215686
0.1372549 0.31960784 0.0039215686
0.14754902 0.32352941 0.0039215686
0.15784314 0.32352941 0.0039215686
0.16936275 0.31960784 0
0.21029412 0.33186275 0
0.25784314 0.34215686 0.0024509804
0.30392157 0.35245098 0.0039215686
0.34901961 0.36127451 0.0039215686
0.40931373 0.36911765 0.0024509804
0.47046569 0.37904412 0
0.52910539 0.38578431 0
0.58823529 0.39215686 0
0.64166667 0.39852941 0
0.68958333 0.40196078 0
0.73284314 0.40140931 0
0.77647059 0.39803922 0
0.81219363 0.41078431 0
0.84607843 0.43676471 0.0039215686
0.87696078 0.46096814 0.0039215686
0.90784314 0.48063725 0.0039215686
0.93449755 0.49822304 0.0012867647
0.95882353 0.51335784 0.0011029412
0.97794118 0.53333333 0.0039215686
0.98578431 0.54215686 0.0078431373
0.12058824 0.36078431 0.0039215686
0.12242647 0.36078431 0.0039215686
0.13406863 0.36176471 0.0039215686
0.14840686 0.36470588 0.0039215686
0.17058824 0.36470588 0.0039215686
0.20625 0.36911765 0.0039215686
0.25318627 0.37941176 0.0039215686
0.29938725 0.38970588 0.0039215686
0.34803922 0.4 0.0039215686
0.40980392 0.41029412 0.0039215686
0.47083333 0.42058824 0
0.52696078 0.42732843 0
0.58382353 0.43333333 0
0.63676471 0.44362745 0
0.68627451 0.45098039 0
0.7310049 0.45196078 0
0.76862745 0.45196078 0
0.80698529 0.45441176 0.0028186275
0.84117647 0.46862745 0.0039215686
0.87303922 0.48835784 0.0039215686
0.90294118 0.50882353 0.0039215686
0.92941176 0.525 0.0035539216
0.95 0.53897059 0.00098039216
0.9745098 0.55281863 0
0.98431373 0.5627451 0
0.10637255 0.40196078 0.0039215686
0.10686275 0.40196078 0.0039215686
0.11666667 0.40196078 0.0039215686
0.14497549 0.40631127 0.0043504902
0.17058824 0.40588235 0.0039215686
0.20245098 0.4098652 0.0039215686
0.24362745 0.41715686 0.0039215686
0.28890931 0.42696078 0.0039215686
0.34166667 0.43382353 0.0039215686
0.4 0.44411765 0.0039215686
0.46041667 0.45441176 0
0.5161152 0.46121324 0
0.57352941 0.47279412 0
0.63425245 0.48872549 0
0.68627451 0.49865196 0
0.72616422 0.50343137 0
0.76127451 0.50343137 0.0034313725
0.80196078 0.50373775 0.0039215686
0.83566176 0.50882353 0.0039215686
0.86911765 0.52261029 0.0039215686
0.89632353 0.5379902 0.0039215686
0.91954657 0.55202206 0.0039215686
0.9435049 0.56617647 0.0039215686
0.96764706 0.57696078 0.0037377451
0.98039216 0.58333333 0.0039215686
0.092156863 0.43921569 0.0039215686
0.092156863 0.43921569 0.0026960784
0.097058824 0.43921569 0.00049019608
0.12941176 0.44289216 0.0039215686
0.16568627 0.44411765 0.0039215686
0.1995098 0.44705882 0.0039215686
0.23333333 0.45196078 0.0039215686
0.2752451 0.45955882 0.0039215686
0.32745098 0.46862745 0.0019607843
0.38406863 0.47769608 0
0.44313725 0.48529412 0
0.50122549 0.49558824 0
0.55980392 0.50980392 0
0.6247549 0.52794118 0
0.68088235 0.54215686 0
0.71764706 0.54779412 0.0026960784
0.75490196 0.55098039 0.0039215686
0.79411765 0.55294118 0.0039215686
0.83235294 0.55343137 0.0039215686
0.86323529 0.55857843 0.0039215686
0.89117647 0.56862745 0.0039215686
0.91495098 0.58284314 0.0039215686
0.93921569 0.59166667 0.0073529412
0.95980392 0.6 0.0078431373
0.97058824 0.60392157 0.011764706
0.073529412 0.47990196 0
0.073529412 0.47647059 0
0.089215686 0.47647059 0
0.12401961 0.48033088 0
0.15882353 0.48210784 0.0039215686
0.19313725 0.48431373 0.0039215686
0.22058824 0.48688725 0.0039215686
0.26176471 0.49313725 0.0021446078
0.31323529 0.4995098 0
0.37107843 0.50980392 0
0.42757353 0.52009804 0
0.48633578 0.53039216 0
0.54411765 0.54436275 0
0.60582108 0.55533088 0.00049019608
0.66078431 0.57169118 0.0029411765
0.70704657 0.58333333 0.0078431373
0.74852941 0.58970588 0.0078431373
0.78970588 0.59411765 0.0056985294
0.82610294 0.59411765 0.0039215686
0.85735294 0.59754902 0.0039215686
0.88602941 0.60392157 0.0039215686
0.91078431 0.61415441 0.0039215686
0.93480392 0.62022059 0.0078431373
0.95539216 0.6223652 0.0078431373
0.96813725 0.62843137 0.01127451
0.046078431 0.51764706 0
0.055759804 0.51764706 0
0.092401961 0.51764706 0
0.12696078 0.5185049 0
0.15882353 0.52156863 0.0024509804
0.18970588 0.52156863 0.00085784314
0.21666667 0.52156863 0
0.24865196 0.52401961 0
0.30588235 0.53431373 0.0029411765
0.36409314 0.54362745 0.0039215686
0.41764706 0.55318627 0.0029411765
0.47205882 0.56127451 0.0029411765
0.52696078 0.57156863 0.0034313725
0.58517157 0.58578431 0.0039215686
0.64019608 0.59926471 0.0029411765
0.69019608 0.61029412 0.0078431373
0.73529412 0.62058824 0.011764706
0.78125 0.63088235 0.0089460784
0.82058824 0.63529412 0.0039215686
0.85355392 0.63529412 0.0073529412
0.88088235 0.64166667 0.0039215686
0.90686275 0.65110294 0.0039215686
0.92843137 0.65196078 0.0068627451
0.94901961 0.65196078 0.014828431
0.96470588 0.65588235 0.016666667
0.016666667 0.55882353 0
0.052022059 0.55582108 0
0.093504902 0.55551471 0.0039215686
0.12794118 0.55882353 0.00030637255
0.16151961 0.55882353 0.00073529412
0.19528186 0.56127451 0.0014705882
0.22745098 0.55943627 0.0014705882
0.26072304 0.56182598 0.0014705882
0.31127451 0.57058824 0.0093137255
0.36666667 0.57941176 0.012683824
0.42058824 0.58909314 0.013235294
0.47205882 0.59607843 0.011764706
0.52156863 0.60514706 0.0093137255
0.5713848 0.61452206 0.0052083333
0.625 0.62696078 0
0.67647059 0.63970588 0.0048406863
0.72401961 0.65147059 0.010294118
0.77156863 0.66421569 0.0093137255
0.81531863 0.67352941 0.0039215686
0.8495098 0.67647059 0.0073529412
0.87573529 0.68235294 0.0046568627
0.90147059 0.68823529 0.00085784314
0.92205882 0.68676471 0.023161765
0.9411152 0.68431373 0.050980392
0.95686275 0.68676471 0.071568627
0.035294118 0.59607843 0
0.054411765 0.59607843 0
0.097058824 0.59607843 0.0029411765
0.12794118 0.59607843 0
0.17058824 0.6 0.0039215686
0.21323529 0.6 0.0039215686
0.24411765 0.6 0.0039215686
0.275 0.6 0.0039215686
0.32156863 0.60784314 0.011764706
0.37303922 0.61568627 0.015686275
0.42058824 0.62352941 0.015686275
0.46862745 0.63088235 0.012254902
0.51960784 0.6372549 0.011764706
0.56715686 0.64754902 0.01127451
0.61568627 0.65784314 0.0039215686
0.66470588 0.66813725 0.0053921569
0.71372549 0.67843137 0.011764706
0.75882353 0.69264706 0.011764706
0.80490196 0.70686275 0.0078431373
0.84558824 0.71764706 0.014215686
0.87058824 0.71372549 0.035294118
0.89509804 0.71372549 0.051960784
0.91568627 0.71764706 0.082352941
0.93627451 0.71764706 0.11029412
0.95294118 0.71764706 0.1372549
0.07745098 0.63333333 0.006372549
0.075612745 0.63633578 0.003370098
0.10294118 0.63443627 0.0029411765
0.13970588 0.6346201 0.0024509804
0.18602941 0.63480392 0.0095588235
0.22745098 0.63480392 0.010110294
0.25502451 0.6372549 0.0034313725
0.28192402 0.63780637 0.00055147059
0.32941176 0.64509804 0.010294118
0.37941176 0.64901961 0.03002451
0.42242647 0.65539216 0.021446078
0.46599265 0.66176471 0.0099264706
0.51568627 0.67009804 0.021078431
0.56715686 0.67843137 0.034129902
0.61568627 0.68517157 0.045465686
0.66078431 0.69264706 0.057781863
0.70588235 0.70294118 0.069607843
0.75189951 0.71715686 0.072058824
0.79754902 0.7307598 0.074264706
0.83529412 0.73560049 0.076960784
0.86348039 0.73431373 0.097058824
0.88872549 0.7346201 0.11636029
0.90931373 0.74117647 0.14509804
0.93235294 0.75 0.1817402
0.94901961 0.75245098 0.20931373
0.13921569 0.67058824 0.019607843
0.13823529 0.67242647 0.013235294
0.17058824 0.67352941 0.028921569
0.17610294 0.67058824 0.037254902
0.21372549 0.67352941 0.045588235
0.24754902 0.67352941 0.043627451
0.27843137 0.67352941 0.03627451
0.30539216 0.6745098 0.029411765
0.33921569 0.67745098 0.044117647
0.38688725 0.68137255 0.070465686
0.43161765 0.68627451 0.069362745
0.47352941 0.69264706 0.065563725
0.52009804 0.69901961 0.074509804
0.56801471 0.70539216 0.089093137
0.61568627 0.7125 0.10294118
0.65980392 0.71813725 0.11654412
0.70098039 0.72745098 0.13137255
0.74607843 0.74056373 0.14056373
0.7872549 0.74803922 0.14240196
0.825 0.75355392 0.14754902
0.85588235 0.75490196 0.16372549
0.88235294 0.75539216 0.18345588
0.90367647 0.7620098 0.21544118
0.9245098 0.77205882 0.2495098
0.94313725 0.77843137 0.27156863
0.20441176 0.70833333 0.048039216
0.2004902 0.70833333 0.041666667
0.20698529 0.70833333 0.042769608
0.23480392 0.70833333 0.06807598
0.26102941 0.70808824 0.090196078
0.28186275 0.70833333 0.092095588
0.30931373 0.70833333 0.08872549
0.33970588 0.70833333 0.092463235
0.36715686 0.7122549 0.10294118
0.39620098 0.71599265 0.11403186
0.43970588 0.71715686 0.12352941
0.4872549 0.72009804 0.13339461
0.5254902 0.72990196 0.13995098
0.57107843 0.73627451 0.1504902
0.6182598 0.74007353 0.16372549
0.65686275 0.74540441 0.175
0.69460784 0.75196078 0.18921569
0.73578431 0.7622549 0.19754902
0.77696078 0.76764706 0.20588235
0.81470588 0.77156863 0.21917892
0.84926471 0.7754902 0.23014706
0.87555147 0.77598039 0.2495098
0.89656863 0.78627451 0.28039216
0.91715686 0.79136029 0.30851716
0.92990196 0.79509804 0.31911765
0.28235294 0.73921569 0.12352941
0.28235294 0.73921569 0.12156863
0.27892157 0.73529412 0.11715686
0.28946078 0.7372549 0.1247549
0.30882353 0.74019608 0.13431373
0.32426471 0.74313725 0.13921569
0.34117647 0.74509804 0.13921569
0.37303922 0.74436275 0.1504902
0.40588235 0.74313725 0.16470588
0.43553922 0.74558824 0.175
0.4622549 0.74705882 0.18137255
0.50196078 0.75098039 0.18995098
0.54117647 0.75784314 0.20098039
0.58014706 0.76470588 0.2122549
0.62156863 0.76813725 0.22254902
0.66004902 0.77254902 0.23480392
0.69607843 0.77843137 0.24705882
0.73210784 0.78284314 0.25980392
0.76862745 0.78529412 0.27401961
0.80441176 0.79166667 0.28578431
0.83921569 0.79411765 0.29803922
0.86593137 0.79656863 0.31127451
0.8872549 0.80392157 0.34117647
0.90220588 0.80784314 0.35710784
0.91372549 0.80980392 0.36666667
0.36470588 0.76617647 0.2
0.36470588 0.76832108 0.2
0.35980392 0.76605392 0.19509804
0.35545343 0.7622549 0.19080882
0.37254902 0.76789216 0.1997549
0.39221814 0.77359069 0.20741422
0.40943627 0.77659314 0.21433824
0.42598039 0.77401961 0.22058824
0.45392157 0.77401961 0.23088235
0.47745098 0.77665441 0.23854167
0.49987745 0.77928922 0.24754902
0.5411152 0.78186275 0.25784314
0.57818627 0.78529412 0.26764706
0.61127451 0.78621324 0.27751225
0.64166667 0.79215686 0.28480392
0.67745098 0.79491422 0.2963848
0.71470588 0.80098039 0.30882353
0.74558824 0.80098039 0.32156863
0.77647059 0.8057598 0.3372549
0.80686275 0.80882353 0.35104167
0.83382353 0.8127451 0.36176471
0.86023284 0.81666667 0.37248775
0.87659314 0.82046569 0.39007353
0.8877451 0.82401961 0.40392157
0.89803922 0.8245098 0.41421569
0.44705882 0.79705882 0.27941176
0.44705882 0.79705882 0.27843137
0.44191176 0.79681373 0.27647059
0.42536765 0.78970588 0.25808824
0.45 0.79705882 0.27696078
0.47107843 0.80110294 0.28639706
0.48529412 0.80490196 0.29313725
0.50159314 0.80490196 0.29840686
0.51862745 0.80196078 0.30294118
0.53345588 0.80551471 0.30931373
0.55 0.80882353 0.31789216
0.57879902 0.80882353 0.32598039
0.61421569 0.80931373 0.33480392
0.64852941 0.80980392 0.3435049
0.67647059 0.81348039 0.35294118
0.70232843 0.81764706 0.36323529
0.73823529 0.82156863 0.3745098
0.76727941 0.82156863 0.38480392
0.79240196 0.8254902 0.39926471
0.81764706 0.82904412 0.41323529
0.84411765 0.83186275 0.42352941
0.86629902 0.83345588 0.43382353
0.88333333 0.8372549 0.44803922
0.89571078 0.83933824 0.4622549
0.90490196 0.84117647 0.47254902
0.5254902 0.82794118 0.35686275
0.5254902 0.82794118 0.35539216
0.52879902 0.82794118 0.35686275
0.50882353 0.82058824 0.33872549
0.5252451 0.8252451 0.34877451
0.54773284 0.83039216 0.36323529
0.56127451 0.83186275 0.37046569
0.57254902 0.83039216 0.375
0.59068627 0.83039216 0.37892157
0.60098039 0.83094363 0.38284314
0.61678922 0.83186275 0.39166667
0.63921569 0.83186275 0.39822304
0.65980392 0.83186275 0.40441176
0.68756127 0.83431373 0.41470588
0.71666667 0.83541667 0.425
0.73823529 0.83823529 0.43137255
0.76519608 0.84215686 0.44166667
0.79215686 0.84215686 0.45196078
0.81066176 0.84276961 0.45747549
0.83155637 0.84607843 0.4745098
0.85514706 0.85 0.48529412
0.87285539 0.85245098 0.4995098
0.88970588 0.85392157 0.50980392
0.90582108 0.85637255 0.52101716
0.91911765 0.85784314 0.53284314
0.59215686 0.85098039 0.42352941
0.59215686 0.85098039 0.41960784
0.60098039 0.85490196 0.4245098
0.60147059 0.85539216 0.42843137
0.58627451 0.84705882 0.40980392
0.61960784 0.85490196 0.43529412
0.63431373 0.85882353 0.44607843
0.63529412 0.85343137 0.43921569
0.65490196 0.85490196 0.44705882
0.65735294 0.85098039 0.44705882
0.67647059 0.85392157 0.45588235
0.68970588 0.85098039 0.45882353
0.70588235 0.85098039 0.46470588
0.73039216 0.85490196 0.4754902
0.75784314 0.85784314 0.49509804
0.77156863 0.85882353 0.49558824
0.79607843 0.8627451 0.51372549
0.80637255 0.85882353 0.4995098
0.8254902 0.85882353 0.50392157
0.84215686 0.8622549 0.52058824
0.86470588 0.86666667 0.54509804
0.87892157 0.86666667 0.54558824
0.89313725 0.86666667 0.55196078
0.91127451 0.86813725 0.56617647
0.9254902 0.87058824 0.57647059
0.17107843 0.14509804 0.014215686
0.17107843 0.14509804 0.014215686
0.17598039 0.14509804 0.014215686
0.18756127 0.14509804 0.014215686
0.2004902 0.14509804 0.014215686
0.2153799 0.14509804 0.011764706
0.23909314 0.14509804 0.010661765
0.26568627 0.14209559 0.010294118
0.30833333 0.14754902 0.010294118
0.36617647 0.15447304 0.010294118
0.42794118 0.15968137 0.014215686
0.48970588 0.16078431 0.014215686
0.55416667 0.15490196 0.014215686
0.61470588 0.14883578 0.014215686
0.67647059 0.15588235 0.010906863
0.73376225 0.18633578 0.003370098
0.78676471 0.22205882 0.0039215686
0.83333333 0.25441176 0.0039215686
0.87058824 0.27683824 0.0029411765
0.90784314 0.30098039 0
0.93333333 0.33137255 0.0085784314
0.95392157 0.36256127 0.027267157
0.97205882 0.39889706 0.050367647
0.99025735 0.43039216 0.073039216
0.99607843 0.44411765 0.084313725
0.18137255 0.14901961 0.014215686
0.1807981 0.14846814 0.014215686
0.18196998 0.14846814 0.014215686
0.1911152 0.14846814 0.014215686
0.2004902 0.14586397 0.014215686
0.2153799 0.14509804 0.011764706
0.24057904 0.14509804 0.011764706
0.27052696 0.14901961 0.010294118
0.3122549 0.15238971 0.010294118
0.36652114 0.15665594 0.010868566
0.4254902 0.16116728 0.011351103
0.48805913 0.16463695 0.012568934
0.55174632 0.15958946 0.014215686
0.61390165 0.15814951 0.010294118
0.67647059 0.17094056 0.0067401961
0.73431373 0.19270833 0.0018765319
0.78823529 0.22352941 0.00055147059
0.83425245 0.25686275 0.0033471201
0.87284007 0.28607537 0.0039215686
0.90569853 0.31341912 0.0024509804
0.93333333 0.33897059 0.0071078431
0.95392157 0.36973805 0.025605086
0.97244179 0.40320159 0.050367647
0.98702512 0.43488817 0.079411765
0.99607843 0.45196078 0.094607843
0.18284314 0.15539216 0.01629902
0.18284314 0.15654105 0.01629902
0.18529412 0.15502451 0.015686275
0.19430147 0.15338542 0.014261642
0.20171569 0.15 0.013602941
0.21974571 0.15088848 0.010294118
0.24901961 0.15392157 0.010294118
0.2805913 0.15931373 0.0078431373
0.32046569 0.16176471 0.0078431373
0.37300858 0.16467525 0.010064338
0.42567402 0.16531863 0.0125
0.48524816 0.16531863 0.010294118
0.54754902 0.16672794 0.010294118
0.61269914 0.17794118 0.0089460784
0.67637868 0.19460784 0.0041053922
0.73690257 0.2127451 0
0.79215686 0.2372549 0
0.83480392 0.26531863 0.00091911765
0.86960784 0.29803922 0.0039215686
0.90436581 0.32634804 0.0045343137
0.93118873 0.35245098 0.009375
0.95514706 0.37873775 0.020052083
0.97515319 0.40916054 0.042156863
0.98615196 0.44252451 0.083226103
0.99607843 0.46507353 0.10637255
0.17696078 0.16568627 0.018137255
0.17910539 0.16488205 0.01942402
0.18443627 0.16421569 0.019025735
