site/assets/luts/sha256-4363f4b82b2c210ac655e3ed9b52a129ac808455c75eaa4df590a61ceec6d8cd.cube
# LUTr-Schema-Version: 2
# LUTr-ID: sha256-4363f4b82b2c210ac655e3ed9b52a129ac808455c75eaa4df590a61ceec6d8cd
# LUTr-Title: REDlogFilm to REDgamma4
# LUTr-Collection: RED Conversion
# LUTr-Collection-ID: videovillage-red-conversion-luts
# LUTr-Source: https://github.com/videovillage/RED-Conversion-LUTs
# LUTr-Retrieved: 2026-07-27
# LUTr-Source-File: submissions/videovillage-red-conversion-luts/Masters/REDlogFilm_to_REDgamma4.cube
# LUTr-Source-Format: CUBE
# LUTr-Source-SHA256: 4363f4b82b2c210ac655e3ed9b52a129ac808455c75eaa4df590a61ceec6d8cd
# LUTr-License: MIT
# LUTr-License-URL: https://github.com/videovillage/RED-Conversion-LUTs/blob/master/LICENSE.md
# LUTr-License-Basis: repo-license-file
# LUTr-Transform-Class: camera-transform
# LUTr-Tags: technical, camera, red, redlogfilm, redgamma, redgamma4, curve-only, reverse-engineered, cube
# LUTr-Input-Color-Space:
# LUTr-Input-Gamut: unspecified
# LUTr-Input-Transfer: red-logfilm
# LUTr-Output-Color-Space:
# LUTr-Output-Gamut: unchanged-unspecified
# LUTr-Output-Transfer: redgamma4
# LUTr-Color-Space-Confidence: declared-by-source
# LUTr-Domain-Normalized: true
# LUTr-Shaper: none
# LUTr-Original-Grid: 1024
# LUTr-Conversion-Grid: 33x33x33
# LUTr-Conversion-Interpolation: linear
# LUTr-Conversion-Method: Source 1D CUBE sampled to browser-compatible 33x33x33 3D CUBE
# LUTr-Conversion-Tool: LUTr scripts/convert-all-to-cube.mjs 2.0.0
# LUTr-Conversion-Date: 2026-07-27
# LUTr-Source-Labels: input=REDlogFilm post-debayered footage; output=REDgamma4 viewing curve; normalized mean absolute error=0.0244737
# LUTr-Conversion-Warning: This reverse-engineered 1D curve does not declare RGB primaries; gamut is unchanged but unspecified. A 1024-sample 1D CUBE was sampled to 33x33x33 for browser-compatible 3D CUBE hosting.
# LUTr-Note: Preserve this metadata and the upstream license notices when redistributing.
# LUTr-Upstream-Comment: Created by Tashi Trieu and Greg Cotten
TITLE "REDlogFilm to REDgamma4"
LUT_3D_SIZE 33
DOMAIN_MIN 0 0 0
DOMAIN_MAX 1 1 1
0.0024261845 0.0024261845 0.0024261845
0.0028244631 0.0024261845 0.0024261845
0.0032227416 0.0024261845 0.0024261845
0.0063768435 0.0024261845 0.0024261845
0.019101446 0.0024261845 0.0024261845
0.035099088 0.0024261845 0.0024261845
0.056074945 0.0024261845 0.0024261845
0.08274443 0.0024261845 0.0024261845
0.11621653 0.0024261845 0.0024261845
0.15532301 0.0024261845 0.0024261845
0.19910925 0.0024261845 0.0024261845
0.24678919 0.0024261845 0.0024261845
0.29835664 0.0024261845 0.0024261845
0.35338178 0.0024261845 0.0024261845
0.41137825 0.0024261845 0.0024261845
0.47123458 0.0024261845 0.0024261845
0.5318076 0.0024261845 0.0024261845
0.59233468 0.0024261845 0.0024261845
0.65210826 0.0024261845 0.0024261845
0.7100288 0.0024261845 0.0024261845
0.7644789 0.0024261845 0.0024261845
0.81422121 0.0024261845 0.0024261845
0.85815596 0.0024261845 0.0024261845
0.89568829 0.0024261845 0.0024261845
0.9266804 0.0024261845 0.0024261845
0.95088303 0.0024261845 0.0024261845
0.96933173 0.0024261845 0.0024261845
0.98291095 0.0024261845 0.0024261845
0.99195515 0.0024261845 0.0024261845
0.9962394 0.0024261845 0.0024261845
0.99861368 0.0024261845 0.0024261845
0.99944956 0.0024261845 0.0024261845
1 0.0024261845 0.0024261845
0.0024261845 0.0028244631 0.0024261845
0.0028244631 0.0028244631 0.0024261845
0.0032227416 0.0028244631 0.0024261845
0.0063768435 0.0028244631 0.0024261845
0.019101446 0.0028244631 0.0024261845
0.035099088 0.0028244631 0.0024261845
0.056074945 0.0028244631 0.0024261845
0.08274443 0.0028244631 0.0024261845
0.11621653 0.0028244631 0.0024261845
0.15532301 0.0028244631 0.0024261845
0.19910925 0.0028244631 0.0024261845
0.24678919 0.0028244631 0.0024261845
0.29835664 0.0028244631 0.0024261845
0.35338178 0.0028244631 0.0024261845
0.41137825 0.0028244631 0.0024261845
0.47123458 0.0028244631 0.0024261845
0.5318076 0.0028244631 0.0024261845
0.59233468 0.0028244631 0.0024261845
0.65210826 0.0028244631 0.0024261845
0.7100288 0.0028244631 0.0024261845
0.7644789 0.0028244631 0.0024261845
0.81422121 0.0028244631 0.0024261845
0.85815596 0.0028244631 0.0024261845
0.89568829 0.0028244631 0.0024261845
0.9266804 0.0028244631 0.0024261845
0.95088303 0.0028244631 0.0024261845
0.96933173 0.0028244631 0.0024261845
0.98291095 0.0028244631 0.0024261845
0.99195515 0.0028244631 0.0024261845
0.9962394 0.0028244631 0.0024261845
0.99861368 0.0028244631 0.0024261845
0.99944956 0.0028244631 0.0024261845
1 0.0028244631 0.0024261845
0.0024261845 0.0032227416 0.0024261845
0.0028244631 0.0032227416 0.0024261845
0.0032227416 0.0032227416 0.0024261845
0.0063768435 0.0032227416 0.0024261845
0.019101446 0.0032227416 0.0024261845
0.035099088 0.0032227416 0.0024261845
0.056074945 0.0032227416 0.0024261845
0.08274443 0.0032227416 0.0024261845
0.11621653 0.0032227416 0.0024261845
0.15532301 0.0032227416 0.0024261845
0.19910925 0.0032227416 0.0024261845
0.24678919 0.0032227416 0.0024261845
0.29835664 0.0032227416 0.0024261845
0.35338178 0.0032227416 0.0024261845
0.41137825 0.0032227416 0.0024261845
0.47123458 0.0032227416 0.0024261845
0.5318076 0.0032227416 0.0024261845
0.59233468 0.0032227416 0.0024261845
0.65210826 0.0032227416 0.0024261845
0.7100288 0.0032227416 0.0024261845
0.7644789 0.0032227416 0.0024261845
0.81422121 0.0032227416 0.0024261845
0.85815596 0.0032227416 0.0024261845
0.89568829 0.0032227416 0.0024261845
0.9266804 0.0032227416 0.0024261845
0.95088303 0.0032227416 0.0024261845
0.96933173 0.0032227416 0.0024261845
0.98291095 0.0032227416 0.0024261845
0.99195515 0.0032227416 0.0024261845
0.9962394 0.0032227416 0.0024261845
0.99861368 0.0032227416 0.0024261845
0.99944956 0.0032227416 0.0024261845
1 0.0032227416 0.0024261845
0.0024261845 0.0063768435 0.0024261845
0.0028244631 0.0063768435 0.0024261845
0.0032227416 0.0063768435 0.0024261845
0.0063768435 0.0063768435 0.0024261845
0.019101446 0.0063768435 0.0024261845
0.035099088 0.0063768435 0.0024261845
0.056074945 0.0063768435 0.0024261845
0.08274443 0.0063768435 0.0024261845
0.11621653 0.0063768435 0.0024261845
0.15532301 0.0063768435 0.0024261845
0.19910925 0.0063768435 0.0024261845
0.24678919 0.0063768435 0.0024261845
0.29835664 0.0063768435 0.0024261845
0.35338178 0.0063768435 0.0024261845
0.41137825 0.0063768435 0.0024261845
0.47123458 0.0063768435 0.0024261845
0.5318076 0.0063768435 0.0024261845
0.59233468 0.0063768435 0.0024261845
0.65210826 0.0063768435 0.0024261845
0.7100288 0.0063768435 0.0024261845
0.7644789 0.0063768435 0.0024261845
0.81422121 0.0063768435 0.0024261845
0.85815596 0.0063768435 0.0024261845
0.89568829 0.0063768435 0.0024261845
0.9266804 0.0063768435 0.0024261845
0.95088303 0.0063768435 0.0024261845
0.96933173 0.0063768435 0.0024261845
0.98291095 0.0063768435 0.0024261845
0.99195515 0.0063768435 0.0024261845
0.9962394 0.0063768435 0.0024261845
0.99861368 0.0063768435 0.0024261845
0.99944956 0.0063768435 0.0024261845
1 0.0063768435 0.0024261845
0.0024261845 0.019101446 0.0024261845
0.0028244631 0.019101446 0.0024261845
0.0032227416 0.019101446 0.0024261845
0.0063768435 0.019101446 0.0024261845
0.019101446 0.019101446 0.0024261845
0.035099088 0.019101446 0.0024261845
0.056074945 0.019101446 0.0024261845
0.08274443 0.019101446 0.0024261845
0.11621653 0.019101446 0.0024261845
0.15532301 0.019101446 0.0024261845
0.19910925 0.019101446 0.0024261845
0.24678919 0.019101446 0.0024261845
0.29835664 0.019101446 0.0024261845
0.35338178 0.019101446 0.0024261845
0.41137825 0.019101446 0.0024261845
0.47123458 0.019101446 0.0024261845
0.5318076 0.019101446 0.0024261845
0.59233468 0.019101446 0.0024261845
0.65210826 0.019101446 0.0024261845
0.7100288 0.019101446 0.0024261845
0.7644789 0.019101446 0.0024261845
0.81422121 0.019101446 0.0024261845
0.85815596 0.019101446 0.0024261845
0.89568829 0.019101446 0.0024261845
0.9266804 0.019101446 0.0024261845
0.95088303 0.019101446 0.0024261845
0.96933173 0.019101446 0.0024261845
0.98291095 0.019101446 0.0024261845
0.99195515 0.019101446 0.0024261845
0.9962394 0.019101446 0.0024261845
0.99861368 0.019101446 0.0024261845
0.99944956 0.019101446 0.0024261845
1 0.019101446 0.0024261845
0.0024261845 0.035099088 0.0024261845
0.0028244631 0.035099088 0.0024261845
0.0032227416 0.035099088 0.0024261845
0.0063768435 0.035099088 0.0024261845
0.019101446 0.035099088 0.0024261845
0.035099088 0.035099088 0.0024261845
0.056074945 0.035099088 0.0024261845
0.08274443 0.035099088 0.0024261845
0.11621653 0.035099088 0.0024261845
0.15532301 0.035099088 0.0024261845
0.19910925 0.035099088 0.0024261845
0.24678919 0.035099088 0.0024261845
0.29835664 0.035099088 0.0024261845
0.35338178 0.035099088 0.0024261845
0.41137825 0.035099088 0.0024261845
0.47123458 0.035099088 0.0024261845
0.5318076 0.035099088 0.0024261845
0.59233468 0.035099088 0.0024261845
0.65210826 0.035099088 0.0024261845
0.7100288 0.035099088 0.0024261845
0.7644789 0.035099088 0.0024261845
0.81422121 0.035099088 0.0024261845
0.85815596 0.035099088 0.0024261845
0.89568829 0.035099088 0.0024261845
0.9266804 0.035099088 0.0024261845
0.95088303 0.035099088 0.0024261845
0.96933173 0.035099088 0.0024261845
0.98291095 0.035099088 0.0024261845
0.99195515 0.035099088 0.0024261845
0.9962394 0.035099088 0.0024261845
0.99861368 0.035099088 0.0024261845
0.99944956 0.035099088 0.0024261845
1 0.035099088 0.0024261845
0.0024261845 0.056074945 0.0024261845
0.0028244631 0.056074945 0.0024261845
0.0032227416 0.056074945 0.0024261845
0.0063768435 0.056074945 0.0024261845
0.019101446 0.056074945 0.0024261845
0.035099088 0.056074945 0.0024261845
0.056074945 0.056074945 0.0024261845
0.08274443 0.056074945 0.0024261845
0.11621653 0.056074945 0.0024261845
0.15532301 0.056074945 0.0024261845
0.19910925 0.056074945 0.0024261845
0.24678919 0.056074945 0.0024261845
0.29835664 0.056074945 0.0024261845
0.35338178 0.056074945 0.0024261845
0.41137825 0.056074945 0.0024261845
0.47123458 0.056074945 0.0024261845
0.5318076 0.056074945 0.0024261845
0.59233468 0.056074945 0.0024261845
0.65210826 0.056074945 0.0024261845
0.7100288 0.056074945 0.0024261845
0.7644789 0.056074945 0.0024261845
0.81422121 0.056074945 0.0024261845
0.85815596 0.056074945 0.0024261845
0.89568829 0.056074945 0.0024261845
0.9266804 0.056074945 0.0024261845
0.95088303 0.056074945 0.0024261845
0.96933173 0.056074945 0.0024261845
0.98291095 0.056074945 0.0024261845
0.99195515 0.056074945 0.0024261845
0.9962394 0.056074945 0.0024261845
0.99861368 0.056074945 0.0024261845
0.99944956 0.056074945 0.0024261845
1 0.056074945 0.0024261845
0.0024261845 0.08274443 0.0024261845
0.0028244631 0.08274443 0.0024261845
0.0032227416 0.08274443 0.0024261845
0.0063768435 0.08274443 0.0024261845
0.019101446 0.08274443 0.0024261845
0.035099088 0.08274443 0.0024261845
0.056074945 0.08274443 0.0024261845
0.08274443 0.08274443 0.0024261845
0.11621653 0.08274443 0.0024261845
0.15532301 0.08274443 0.0024261845
0.19910925 0.08274443 0.0024261845
0.24678919 0.08274443 0.0024261845
0.29835664 0.08274443 0.0024261845
0.35338178 0.08274443 0.0024261845
0.41137825 0.08274443 0.0024261845
0.47123458 0.08274443 0.0024261845
0.5318076 0.08274443 0.0024261845
0.59233468 0.08274443 0.0024261845
0.65210826 0.08274443 0.0024261845
0.7100288 0.08274443 0.0024261845
0.7644789 0.08274443 0.0024261845
0.81422121 0.08274443 0.0024261845
0.85815596 0.08274443 0.0024261845
0.89568829 0.08274443 0.0024261845
0.9266804 0.08274443 0.0024261845
0.95088303 0.08274443 0.0024261845
0.96933173 0.08274443 0.0024261845
0.98291095 0.08274443 0.0024261845
0.99195515 0.08274443 0.0024261845
0.9962394 0.08274443 0.0024261845
0.99861368 0.08274443 0.0024261845
0.99944956 0.08274443 0.0024261845
1 0.08274443 0.0024261845
0.0024261845 0.11621653 0.0024261845
0.0028244631 0.11621653 0.0024261845
0.0032227416 0.11621653 0.0024261845
0.0063768435 0.11621653 0.0024261845
0.019101446 0.11621653 0.0024261845
0.035099088 0.11621653 0.0024261845
0.056074945 0.11621653 0.0024261845
0.08274443 0.11621653 0.0024261845
0.11621653 0.11621653 0.0024261845
0.15532301 0.11621653 0.0024261845
0.19910925 0.11621653 0.0024261845
0.24678919 0.11621653 0.0024261845
0.29835664 0.11621653 0.0024261845
0.35338178 0.11621653 0.0024261845
0.41137825 0.11621653 0.0024261845
0.47123458 0.11621653 0.0024261845
0.5318076 0.11621653 0.0024261845
0.59233468 0.11621653 0.0024261845
0.65210826 0.11621653 0.0024261845
0.7100288 0.11621653 0.0024261845
0.7644789 0.11621653 0.0024261845
0.81422121 0.11621653 0.0024261845
0.85815596 0.11621653 0.0024261845
0.89568829 0.11621653 0.0024261845
0.9266804 0.11621653 0.0024261845
0.95088303 0.11621653 0.0024261845
0.96933173 0.11621653 0.0024261845
0.98291095 0.11621653 0.0024261845
0.99195515 0.11621653 0.0024261845
0.9962394 0.11621653 0.0024261845
0.99861368 0.11621653 0.0024261845
0.99944956 0.11621653 0.0024261845
1 0.11621653 0.0024261845
0.0024261845 0.15532301 0.0024261845
0.0028244631 0.15532301 0.0024261845
0.0032227416 0.15532301 0.0024261845
0.0063768435 0.15532301 0.0024261845
0.019101446 0.15532301 0.0024261845
0.035099088 0.15532301 0.0024261845
0.056074945 0.15532301 0.0024261845
0.08274443 0.15532301 0.0024261845
0.11621653 0.15532301 0.0024261845
0.15532301 0.15532301 0.0024261845
0.19910925 0.15532301 0.0024261845
0.24678919 0.15532301 0.0024261845
0.29835664 0.15532301 0.0024261845
0.35338178 0.15532301 0.0024261845
0.41137825 0.15532301 0.0024261845
0.47123458 0.15532301 0.0024261845
0.5318076 0.15532301 0.0024261845
0.59233468 0.15532301 0.0024261845
0.65210826 0.15532301 0.0024261845
0.7100288 0.15532301 0.0024261845
0.7644789 0.15532301 0.0024261845
0.81422121 0.15532301 0.0024261845
0.85815596 0.15532301 0.0024261845
0.89568829 0.15532301 0.0024261845
0.9266804 0.15532301 0.0024261845
0.95088303 0.15532301 0.0024261845
0.96933173 0.15532301 0.0024261845
0.98291095 0.15532301 0.0024261845
0.99195515 0.15532301 0.0024261845
0.9962394 0.15532301 0.0024261845
0.99861368 0.15532301 0.0024261845
0.99944956 0.15532301 0.0024261845
1 0.15532301 0.0024261845
0.0024261845 0.19910925 0.0024261845
0.0028244631 0.19910925 0.0024261845
0.0032227416 0.19910925 0.0024261845
0.0063768435 0.19910925 0.0024261845
0.019101446 0.19910925 0.0024261845
0.035099088 0.19910925 0.0024261845
0.056074945 0.19910925 0.0024261845
0.08274443 0.19910925 0.0024261845
0.11621653 0.19910925 0.0024261845
0.15532301 0.19910925 0.0024261845
0.19910925 0.19910925 0.0024261845
0.24678919 0.19910925 0.0024261845
0.29835664 0.19910925 0.0024261845
0.35338178 0.19910925 0.0024261845
0.41137825 0.19910925 0.0024261845
0.47123458 0.19910925 0.0024261845
0.5318076 0.19910925 0.0024261845
0.59233468 0.19910925 0.0024261845
0.65210826 0.19910925 0.0024261845
0.7100288 0.19910925 0.0024261845
0.7644789 0.19910925 0.0024261845
0.81422121 0.19910925 0.0024261845
0.85815596 0.19910925 0.0024261845
0.89568829 0.19910925 0.0024261845
0.9266804 0.19910925 0.0024261845
0.95088303 0.19910925 0.0024261845
0.96933173 0.19910925 0.0024261845
0.98291095 0.19910925 0.0024261845
0.99195515 0.19910925 0.0024261845
0.9962394 0.19910925 0.0024261845
0.99861368 0.19910925 0.0024261845
0.99944956 0.19910925 0.0024261845
1 0.19910925 0.0024261845
0.0024261845 0.24678919 0.0024261845
0.0028244631 0.24678919 0.0024261845
0.0032227416 0.24678919 0.0024261845
0.0063768435 0.24678919 0.0024261845
0.019101446 0.24678919 0.0024261845
0.035099088 0.24678919 0.0024261845
0.056074945 0.24678919 0.0024261845
0.08274443 0.24678919 0.0024261845
0.11621653 0.24678919 0.0024261845
0.15532301 0.24678919 0.0024261845
0.19910925 0.24678919 0.0024261845
0.24678919 0.24678919 0.0024261845
0.29835664 0.24678919 0.0024261845
0.35338178 0.24678919 0.0024261845
0.41137825 0.24678919 0.0024261845
0.47123458 0.24678919 0.0024261845
0.5318076 0.24678919 0.0024261845
0.59233468 0.24678919 0.0024261845
0.65210826 0.24678919 0.0024261845
0.7100288 0.24678919 0.0024261845
0.7644789 0.24678919 0.0024261845
0.81422121 0.24678919 0.0024261845
0.85815596 0.24678919 0.0024261845
0.89568829 0.24678919 0.0024261845
0.9266804 0.24678919 0.0024261845
0.95088303 0.24678919 0.0024261845
0.96933173 0.24678919 0.0024261845
0.98291095 0.24678919 0.0024261845
0.99195515 0.24678919 0.0024261845
0.9962394 0.24678919 0.0024261845
0.99861368 0.24678919 0.0024261845
0.99944956 0.24678919 0.0024261845
1 0.24678919 0.0024261845
0.0024261845 0.29835664 0.0024261845
0.0028244631 0.29835664 0.0024261845
0.0032227416 0.29835664 0.0024261845
0.0063768435 0.29835664 0.0024261845
0.019101446 0.29835664 0.0024261845
0.035099088 0.29835664 0.0024261845
0.056074945 0.29835664 0.0024261845
0.08274443 0.29835664 0.0024261845
0.11621653 0.29835664 0.0024261845
0.15532301 0.29835664 0.0024261845
0.19910925 0.29835664 0.0024261845
0.24678919 0.29835664 0.0024261845
0.29835664 0.29835664 0.0024261845
0.35338178 0.29835664 0.0024261845
0.41137825 0.29835664 0.0024261845
0.47123458 0.29835664 0.0024261845
0.5318076 0.29835664 0.0024261845
0.59233468 0.29835664 0.0024261845
0.65210826 0.29835664 0.0024261845
0.7100288 0.29835664 0.0024261845
0.7644789 0.29835664 0.0024261845
0.81422121 0.29835664 0.0024261845
0.85815596 0.29835664 0.0024261845
0.89568829 0.29835664 0.0024261845
0.9266804 0.29835664 0.0024261845
0.95088303 0.29835664 0.0024261845
0.96933173 0.29835664 0.0024261845
0.98291095 0.29835664 0.0024261845
0.99195515 0.29835664 0.0024261845
0.9962394 0.29835664 0.0024261845
0.99861368 0.29835664 0.0024261845
0.99944956 0.29835664 0.0024261845
1 0.29835664 0.0024261845
0.0024261845 0.35338178 0.0024261845
0.0028244631 0.35338178 0.0024261845
0.0032227416 0.35338178 0.0024261845
0.0063768435 0.35338178 0.0024261845
0.019101446 0.35338178 0.0024261845
0.035099088 0.35338178 0.0024261845
0.056074945 0.35338178 0.0024261845
0.08274443 0.35338178 0.0024261845
0.11621653 0.35338178 0.0024261845
0.15532301 0.35338178 0.0024261845
0.19910925 0.35338178 0.0024261845
0.24678919 0.35338178 0.0024261845
0.29835664 0.35338178 0.0024261845
0.35338178 0.35338178 0.0024261845
0.41137825 0.35338178 0.0024261845
0.47123458 0.35338178 0.0024261845
0.5318076 0.35338178 0.0024261845
0.59233468 0.35338178 0.0024261845
0.65210826 0.35338178 0.0024261845
0.7100288 0.35338178 0.0024261845
0.7644789 0.35338178 0.0024261845
0.81422121 0.35338178 0.0024261845
0.85815596 0.35338178 0.0024261845
0.89568829 0.35338178 0.0024261845
0.9266804 0.35338178 0.0024261845
0.95088303 0.35338178 0.0024261845
0.96933173 0.35338178 0.0024261845
0.98291095 0.35338178 0.0024261845
0.99195515 0.35338178 0.0024261845
0.9962394 0.35338178 0.0024261845
0.99861368 0.35338178 0.0024261845
0.99944956 0.35338178 0.0024261845
1 0.35338178 0.0024261845
0.0024261845 0.41137825 0.0024261845
0.0028244631 0.41137825 0.0024261845
0.0032227416 0.41137825 0.0024261845
0.0063768435 0.41137825 0.0024261845
0.019101446 0.41137825 0.0024261845
0.035099088 0.41137825 0.0024261845
0.056074945 0.41137825 0.0024261845
0.08274443 0.41137825 0.0024261845
0.11621653 0.41137825 0.0024261845
0.15532301 0.41137825 0.0024261845
0.19910925 0.41137825 0.0024261845
0.24678919 0.41137825 0.0024261845
0.29835664 0.41137825 0.0024261845
0.35338178 0.41137825 0.0024261845
0.41137825 0.41137825 0.0024261845
0.47123458 0.41137825 0.0024261845
0.5318076 0.41137825 0.0024261845
0.59233468 0.41137825 0.0024261845
0.65210826 0.41137825 0.0024261845
0.7100288 0.41137825 0.0024261845
0.7644789 0.41137825 0.0024261845
0.81422121 0.41137825 0.0024261845
0.85815596 0.41137825 0.0024261845
0.89568829 0.41137825 0.0024261845
0.9266804 0.41137825 0.0024261845
0.95088303 0.41137825 0.0024261845
0.96933173 0.41137825 0.0024261845
0.98291095 0.41137825 0.0024261845
0.99195515 0.41137825 0.0024261845
0.9962394 0.41137825 0.0024261845
0.99861368 0.41137825 0.0024261845
0.99944956 0.41137825 0.0024261845
1 0.41137825 0.0024261845
0.0024261845 0.47123458 0.0024261845
0.0028244631 0.47123458 0.0024261845
0.0032227416 0.47123458 0.0024261845
0.0063768435 0.47123458 0.0024261845
0.019101446 0.47123458 0.0024261845
0.035099088 0.47123458 0.0024261845
0.056074945 0.47123458 0.0024261845
0.08274443 0.47123458 0.0024261845
0.11621653 0.47123458 0.0024261845
0.15532301 0.47123458 0.0024261845
0.19910925 0.47123458 0.0024261845
0.24678919 0.47123458 0.0024261845
0.29835664 0.47123458 0.0024261845
0.35338178 0.47123458 0.0024261845
0.41137825 0.47123458 0.0024261845
0.47123458 0.47123458 0.0024261845
0.5318076 0.47123458 0.0024261845
0.59233468 0.47123458 0.0024261845
0.65210826 0.47123458 0.0024261845
0.7100288 0.47123458 0.0024261845
0.7644789 0.47123458 0.0024261845
0.81422121 0.47123458 0.0024261845
0.85815596 0.47123458 0.0024261845
0.89568829 0.47123458 0.0024261845
0.9266804 0.47123458 0.0024261845
0.95088303 0.47123458 0.0024261845
0.96933173 0.47123458 0.0024261845
0.98291095 0.47123458 0.0024261845
0.99195515 0.47123458 0.0024261845
0.9962394 0.47123458 0.0024261845
0.99861368 0.47123458 0.0024261845
0.99944956 0.47123458 0.0024261845
1 0.47123458 0.0024261845
0.0024261845 0.5318076 0.0024261845
0.0028244631 0.5318076 0.0024261845
0.0032227416 0.5318076 0.0024261845
0.0063768435 0.5318076 0.0024261845
0.019101446 0.5318076 0.0024261845
0.035099088 0.5318076 0.0024261845
0.056074945 0.5318076 0.0024261845
0.08274443 0.5318076 0.0024261845
0.11621653 0.5318076 0.0024261845
0.15532301 0.5318076 0.0024261845
0.19910925 0.5318076 0.0024261845
0.24678919 0.5318076 0.0024261845
0.29835664 0.5318076 0.0024261845
0.35338178 0.5318076 0.0024261845
0.41137825 0.5318076 0.0024261845
0.47123458 0.5318076 0.0024261845
0.5318076 0.5318076 0.0024261845
0.59233468 0.5318076 0.0024261845
0.65210826 0.5318076 0.0024261845
0.7100288 0.5318076 0.0024261845
0.7644789 0.5318076 0.0024261845
0.81422121 0.5318076 0.0024261845
0.85815596 0.5318076 0.0024261845
0.89568829 0.5318076 0.0024261845
0.9266804 0.5318076 0.0024261845
0.95088303 0.5318076 0.0024261845
0.96933173 0.5318076 0.0024261845
0.98291095 0.5318076 0.0024261845
0.99195515 0.5318076 0.0024261845
0.9962394 0.5318076 0.0024261845
0.99861368 0.5318076 0.0024261845
0.99944956 0.5318076 0.0024261845
1 0.5318076 0.0024261845
0.0024261845 0.59233468 0.0024261845
0.0028244631 0.59233468 0.0024261845
0.0032227416 0.59233468 0.0024261845
0.0063768435 0.59233468 0.0024261845
0.019101446 0.59233468 0.0024261845
0.035099088 0.59233468 0.0024261845
0.056074945 0.59233468 0.0024261845
0.08274443 0.59233468 0.0024261845
0.11621653 0.59233468 0.0024261845
0.15532301 0.59233468 0.0024261845
0.19910925 0.59233468 0.0024261845
0.24678919 0.59233468 0.0024261845
0.29835664 0.59233468 0.0024261845
0.35338178 0.59233468 0.0024261845
0.41137825 0.59233468 0.0024261845
0.47123458 0.59233468 0.0024261845
0.5318076 0.59233468 0.0024261845
0.59233468 0.59233468 0.0024261845
0.65210826 0.59233468 0.0024261845
0.7100288 0.59233468 0.0024261845
0.7644789 0.59233468 0.0024261845
0.81422121 0.59233468 0.0024261845
0.85815596 0.59233468 0.0024261845
0.89568829 0.59233468 0.0024261845
0.9266804 0.59233468 0.0024261845
0.95088303 0.59233468 0.0024261845
0.96933173 0.59233468 0.0024261845
0.98291095 0.59233468 0.0024261845
0.99195515 0.59233468 0.0024261845
0.9962394 0.59233468 0.0024261845
0.99861368 0.59233468 0.0024261845
0.99944956 0.59233468 0.0024261845
1 0.59233468 0.0024261845
0.0024261845 0.65210826 0.0024261845
0.0028244631 0.65210826 0.0024261845
0.0032227416 0.65210826 0.0024261845
0.0063768435 0.65210826 0.0024261845
0.019101446 0.65210826 0.0024261845
0.035099088 0.65210826 0.0024261845
0.056074945 0.65210826 0.0024261845
0.08274443 0.65210826 0.0024261845
0.11621653 0.65210826 0.0024261845
0.15532301 0.65210826 0.0024261845
0.19910925 0.65210826 0.0024261845
0.24678919 0.65210826 0.0024261845
0.29835664 0.65210826 0.0024261845
0.35338178 0.65210826 0.0024261845
0.41137825 0.65210826 0.0024261845
0.47123458 0.65210826 0.0024261845
0.5318076 0.65210826 0.0024261845
0.59233468 0.65210826 0.0024261845
0.65210826 0.65210826 0.0024261845
0.7100288 0.65210826 0.0024261845
0.7644789 0.65210826 0.0024261845
0.81422121 0.65210826 0.0024261845
0.85815596 0.65210826 0.0024261845
0.89568829 0.65210826 0.0024261845
0.9266804 0.65210826 0.0024261845
