site/assets/luts/sha256-ecba29a42fefc598707fa123038bf991ec5255442575c1d422b0776104927979.cube
# LUTr-Schema-Version: 2
# LUTr-ID: sha256-ecba29a42fefc598707fa123038bf991ec5255442575c1d422b0776104927979
# LUTr-Title: fuji 800z ++
# LUTr-Collection: Natron HaldCLUT
# LUTr-Collection-ID: natron-haldclut-presets
# LUTr-Source: https://github.com/NatronGitHub/clut
# LUTr-Retrieved: 2026-07-27
# LUTr-Source-File: submissions/natron-haldclut-presets/negative_new/fuji_800z_++.png
# LUTr-Source-Format: HALD-PNG
# LUTr-Source-SHA256: ecba29a42fefc598707fa123038bf991ec5255442575c1d422b0776104927979
# LUTr-License: CC-BY-SA-4.0
# LUTr-License-URL: https://github.com/NatronGitHub/clut#license
# LUTr-License-Basis: repo-license-file
# LUTr-Transform-Class: film-emulation
# LUTr-Tags: creative, film, film-emulation, hald-clut, natron, png, cube
# LUTr-Input-Color-Space: srgb
# LUTr-Input-Gamut: rec709
# LUTr-Input-Transfer: srgb
# LUTr-Output-Color-Space: srgb
# LUTr-Output-Gamut: rec709
# LUTr-Output-Transfer: srgb
# LUTr-Color-Space-Confidence: assumed-display-referred
# LUTr-Domain-Normalized: true
# LUTr-Shaper: none
# LUTr-Original-Grid: 64x64x64
# LUTr-Conversion-Grid: 25x25x25
# LUTr-Conversion-Interpolation: trilinear
# LUTr-Conversion-Method: HALD-PNG LUT image decoded at 16-bit and sampled to 25x25x25 3D CUBE
# LUTr-Conversion-Tool: LUTr scripts/convert-all-to-cube.mjs 2.0.0
# LUTr-Conversion-Date: 2026-07-27
# LUTr-Note: Preserve this metadata and the upstream license notices when redistributing.
TITLE "fuji 800z ++"
LUT_3D_SIZE 25
DOMAIN_MIN 0 0 0
DOMAIN_MAX 1 1 1
0.12156863 0.13333333 0.094117647
0.1254902 0.12941176 0.090196078
0.12941176 0.12156863 0.085294118
0.14362745 0.12107843 0.081862745
0.17843137 0.13137255 0.08627451
0.20931373 0.14166667 0.08627451
0.24313725 0.15196078 0.08627451
0.28578431 0.14754902 0.08627451
0.3372549 0.13333333 0.08627451
0.39019608 0.11519608 0.08627451
0.44019608 0.1 0.082352941
0.4877451 0.083333333 0.078921569
0.55294118 0.066666667 0.082352941
0.61470588 0.041666667 0.082352941
0.67352941 0.01372549 0.082352941
0.73039216 0.0078431373 0.073039216
0.78431373 0.0078431373 0.062745098
0.83578431 0.0014705882 0.05245098
0.86960784 0.0049019608 0.051960784
0.9004902 0.015196078 0.058333333
0.92745098 0.019607843 0.058823529
0.95833333 0.023529412 0.058823529
0.98627451 0.033333333 0.054901961
0.99362745 0.076470588 0.030882353
1 0.11372549 0.0039215686
0.11127451 0.13970588 0.094117647
0.11519608 0.1372549 0.093198529
0.12463235 0.13431373 0.08872549
0.14626225 0.13431373 0.086580882
0.17843137 0.1377451 0.08627451
0.20931373 0.14558824 0.08627451
0.24019608 0.15294118 0.08627451
0.28578431 0.14754902 0.08627451
0.3372549 0.13578431 0.08627451
0.38872549 0.12156863 0.08627451
0.44019608 0.11433824 0.082965686
0.49166667 0.10735294 0.086090686
0.55294118 0.092401961 0.08627451
0.61470588 0.068933824 0.08627451
0.67647059 0.05 0.08627451
0.73192402 0.038235294 0.076960784
0.78431373 0.019117647 0.062745098
0.83578431 0.0018382353 0.050919118
0.86960784 0.014338235 0.051960784
0.89920343 0.032536765 0.056188725
0.92867647 0.045588235 0.056372549
0.96047794 0.053431373 0.05245098
0.98627451 0.069117647 0.045588235
0.99270833 0.11127451 0.025428922
0.99607843 0.13823529 0.010294118
0.10196078 0.15 0.094117647
0.10490196 0.14718137 0.094117647
0.12279412 0.14632353 0.094117647
0.14803922 0.15085784 0.094117647
0.17401961 0.15392157 0.090686275
0.20539216 0.15392157 0.08627451
0.23553922 0.15612745 0.082352941
0.27904412 0.15245098 0.082352941
0.33627451 0.14705882 0.082352941
0.38872549 0.14411765 0.088112745
0.44019608 0.13921569 0.089215686
0.49460784 0.13284314 0.095588235
0.55588235 0.11862745 0.090686275
0.61482843 0.10539216 0.090196078
0.67745098 0.092892157 0.090441176
0.73284314 0.079779412 0.079779412
0.78431373 0.064705882 0.066666667
0.83125 0.057843137 0.05245098
0.86960784 0.068627451 0.046078431
0.90147059 0.082843137 0.046078431
0.93235294 0.090686275 0.045588235
0.96311275 0.098651961 0.042034314
0.98333333 0.11495098 0.035294118
0.99215686 0.14669118 0.021078431
0.99607843 0.16764706 0.015686275
0.098039216 0.16372549 0.09754902
0.098039216 0.15980392 0.09754902
0.11617647 0.16372549 0.09754902
0.14068627 0.16764706 0.097610294
0.16715686 0.16985294 0.094117647
0.19803922 0.17113971 0.089705882
0.23235294 0.16764706 0.083333333
0.27420343 0.17107843 0.083639706
0.32990196 0.17156863 0.085784314
0.38265931 0.17107843 0.083639706
0.43284314 0.16752451 0.078921569
0.48431373 0.16372549 0.07935049
0.54730392 0.15294118 0.080882353
0.61470588 0.14656863 0.087193627
0.67659314 0.13627451 0.094117647
0.72922794 0.12941176 0.080882353
0.78039216 0.12647059 0.063235294
0.82794118 0.12254902 0.046568627
0.87352941 0.12316176 0.032230392
0.90741422 0.13039216 0.035784314
0.93897059 0.1370098 0.031862745
0.96917892 0.14705882 0.027512255
0.98676471 0.16421569 0.021446078
0.99001225 0.18529412 0.015992647
0.99607843 0.19852941 0.015686275
0.094117647 0.18431373 0.10588235
0.1004902 0.18431373 0.10392157
0.11078431 0.18431373 0.10147059
0.1247549 0.18431373 0.098039216
0.15490196 0.1872549 0.096078431
0.19191176 0.19240196 0.096078431
0.22794118 0.19754902 0.093137255
0.27009804 0.20196078 0.096078431
0.32352941 0.20588235 0.096078431
0.37696078 0.20196078 0.089705882
0.42647059 0.19803922 0.081372549
0.47598039 0.19607843 0.071078431
0.54117647 0.19313725 0.073529412
0.60539216 0.18823529 0.076715686
0.66764706 0.18284314 0.078431373
0.72303922 0.17769608 0.067647059
0.77058824 0.17254902 0.050980392
0.82205882 0.17132353 0.035539216
0.86862745 0.1745098 0.028921569
0.90808824 0.17794118 0.025735294
0.94509804 0.18431373 0.016666667
0.9754902 0.19289216 0.0095588235
0.9872549 0.20980392 0.0073529412
0.99093137 0.225 0.0098039216
0.99607843 0.2372549 0.0098039216
0.090196078 0.20490196 0.10980392
0.1004902 0.20882353 0.10980392
0.11078431 0.20931373 0.10637255
0.12150735 0.20931373 0.10294118
0.14485294 0.21127451 0.10245098
0.18529412 0.21764706 0.10245098
0.22009804 0.22487745 0.10245098
0.26617647 0.23039216 0.10637255
0.31715686 0.23676471 0.11029412
0.37156863 0.23756127 0.099203431
0.42463235 0.24129902 0.080882353
0.47990196 0.24166667 0.071017157
0.53529412 0.23946078 0.064705882
0.59852941 0.23376225 0.058272059
0.66029412 0.22953431 0.057843137
0.7127451 0.22420343 0.048529412
0.76421569 0.22156863 0.034803922
0.81568627 0.22205882 0.028737745
0.86237745 0.22598039 0.023039216
0.90392157 0.22947304 0.019178922
0.94289216 0.23578431 0.0075980392
0.97738971 0.24123775 0
0.9872549 0.25196078 0.0029411765
0.99234069 0.26372549 0.0039215686
0.99656863 0.27647059 0.0039215686
0.089215686 0.23137255 0.1127451
0.1004902 0.23480392 0.11556373
0.11372549 0.2379902 0.11666667
0.12757353 0.24019608 0.11666667
0.14509804 0.24068627 0.1127451
0.17242647 0.24546569 0.10980392
0.20882353 0.25196078 0.10980392
0.25931373 0.26090686 0.10980392
0.31372549 0.2745098 0.10392157
0.36973039 0.28419118 0.090196078
0.4247549 0.2870098 0.074509804
0.47990196 0.28921569 0.070588235
0.53333333 0.28578431 0.068137255
0.59117647 0.2810049 0.050122549
0.65 0.2752451 0.03504902
0.70637255 0.27022059 0.027941176
0.75686275 0.26960784 0.024509804
0.80539216 0.27352941 0.020588235
0.85661765 0.27745098 0.015686275
0.9 0.28137255 0.0093137255
0.9377451 0.28529412 0.0039215686
0.97058824 0.28664216 0.0039215686
0.9872549 0.29313725 0.0039215686
0.99362745 0.3067402 0.0024509804
1 0.31372549 0
0.094117647 0.26715686 0.12303922
0.1004902 0.26807598 0.1254902
0.11470588 0.2682598 0.12696078
0.12843137 0.26960784 0.1254902
0.14754902 0.27034314 0.12303922
0.16550245 0.27107843 0.11893382
0.19534314 0.27757353 0.11409314
0.25588235 0.29509804 0.10441176
0.31372549 0.31421569 0.092647059
0.36856618 0.32598039 0.077512255
0.42340686 0.33137255 0.065196078
0.478125 0.33284314 0.065196078
0.53137255 0.33210784 0.059068627
0.5872549 0.32843137 0.03939951
0.64571078 0.32205882 0.020098039
0.69908088 0.31960784 0.012683824
0.74754902 0.32107843 0.015686275
0.79748775 0.32444853 0.011764706
0.84656863 0.32781863 0.0068627451
0.89246324 0.33106618 0.00030637255
0.92867647 0.33284314 0.0039215686
0.96078431 0.33547794 0.0039215686
0.98296569 0.33970588 0.0039215686
0.99362745 0.34852941 0.0024509804
1 0.35637255 0
0.094117647 0.30196078 0.12941176
0.10441176 0.30196078 0.13333333
0.11078431 0.30098039 0.13333333
0.12107843 0.29411765 0.12990196
0.14117647 0.29411765 0.12941176
0.16176471 0.29803922 0.125
0.19215686 0.30490196 0.11862745
0.24656863 0.3245098 0.10686275
0.30588235 0.34509804 0.090196078
0.36372549 0.36323529 0.069607843
0.41764706 0.37647059 0.057843137
0.4754902 0.37990196 0.050980392
0.53137255 0.38039216 0.041176471
0.58676471 0.37990196 0.026470588
0.64215686 0.37352941 0.012745098
0.69215686 0.36715686 0.0093137255
0.74117647 0.36470588 0.011764706
0.79019608 0.36862745 0.011764706
0.84019608 0.37254902 0.0068627451
0.88431373 0.37598039 0.0039215686
0.92156863 0.38039216 0.0039215686
0.95441176 0.38431373 0.0039215686
0.98235294 0.38431373 0.0039215686
0.99362745 0.39362745 0.0024509804
1 0.39607843 0
0.090196078 0.33284314 0.1372549
0.098039216 0.33284314 0.13970588
0.10833333 0.32830882 0.13909314
0.11862745 0.32156863 0.13596814
0.13210784 0.31593137 0.13259804
0.1622549 0.3254902 0.12922794
0.18921569 0.33578431 0.12438725
0.22806373 0.34901961 0.115625
0.28529412 0.36960784 0.1004902
0.34460784 0.38719363 0.08627451
0.40588235 0.40747549 0.074019608
0.47518382 0.425 0.041789216
0.53455882 0.43186275 0.025735294
0.58676471 0.42794118 0.012928922
0.63823529 0.42107843 0.006372549
0.68970588 0.41617647 0.0053921569
0.7372549 0.41372549 0.0078431373
0.78535539 0.41372549 0.011764706
0.83345588 0.41617647 0.0096813725
0.87665441 0.41501225 0.0065563725
0.91446078 0.42034314 0.0039215686
0.94411765 0.42598039 0.0039215686
0.975 0.42941176 0.0020833333
0.99754902 0.43480392 0
1 0.4372549 0
0.07745098 0.36372549 0.14117647
0.087745098 0.36311275 0.14178922
0.099019608 0.35588235 0.14117647
0.11323529 0.35196078 0.14117647
0.13186275 0.34803922 0.13823529
0.15833333 0.35245098 0.13431373
0.18627451 0.3627451 0.13112745
0.21446078 0.37303922 0.125
0.26568627 0.39019608 0.11470588
0.32401961 0.41078431 0.10477941
0.38259804 0.42965686 0.094607843
0.4567402 0.45539216 0.054901961
0.5372549 0.47794118 0.01127451
0.59019608 0.47806373 0.0040441176
0.63823529 0.47156863 0.0078431373
0.68762255 0.46617647 0.0078431373
0.73333333 0.45980392 0.0078431373
0.78026961 0.45919118 0.011764706
0.82720588 0.45882353 0.011764706
0.86764706 0.45490196 0.0083333333
0.90294118 0.46078431 0.0078431373
0.93517157 0.46678922 0.0039215686
0.96862745 0.47352941 0.0031862745
0.99546569 0.4745098 0
0.99901961 0.47745098 0
0.063235294 0.39460784 0.14460784
0.075980392 0.39068627 0.14509804
0.096078431 0.38933824 0.14509804
0.11323529 0.38633578 0.14509804
0.13161765 0.38284314 0.14485294
0.15790441 0.38676471 0.1411152
0.18529412 0.39362745 0.1377451
0.21617647 0.4 0.13314951
0.2627451 0.41470588 0.12892157
0.31078431 0.43265931 0.11862745
0.35759804 0.44803922 0.10428922
0.43192402 0.47598039 0.078492647
0.51862745 0.50294118 0.037254902
0.58768382 0.52052696 0.010416667
0.64178922 0.52303922 0.0078431373
0.68952206 0.51893382 0.0078431373
0.73333333 0.51127451 0.011764706
0.78088235 0.50753676 0.011764706
0.82352941 0.50379902 0.011764706
0.86078431 0.4995098 0.0083333333
0.89656863 0.50196078 0.0058823529
0.93094363 0.51133578 0.0039215686
0.9622549 0.51556373 0.00098039216
0.98627451 0.5122549 0
0.99264706 0.51568627 0
0.058823529 0.4254902 0.14901961
0.075490196 0.42426471 0.1502451
0.096078431 0.42156863 0.15098039
0.1127451 0.41985294 0.15098039
0.12941176 0.41568627 0.14901961
0.15269608 0.41764706 0.14705882
0.18529412 0.42156863 0.14705882
0.21691176 0.42696078 0.14313725
0.25686275 0.43921569 0.13921569
0.30514706 0.45661765 0.12892157
0.35392157 0.4745098 0.11911765
0.41421569 0.49681373 0.10514706
0.49411765 0.52156863 0.073529412
0.56862745 0.54607843 0.043627451
0.64117647 0.56372549 0.017647059
0.69093137 0.56397059 0.0098039216
0.73333333 0.55686275 0.011764706
0.78088235 0.55367647 0.011764706
0.82303922 0.5504902 0.0093137255
0.85906863 0.54730392 0.0078431373
0.89509804 0.54901961 0.0039215686
0.92892157 0.55294118 0.0039215686
0.95784314 0.55294118 0.0039215686
0.98186275 0.55098039 0
0.98823529 0.55098039 0
0.062745098 0.46029412 0.15686275
0.079411765 0.45686275 0.15716912
0.096446078 0.45686275 0.15735294
0.11366422 0.4533701 0.15735294
0.12990196 0.45073529 0.15343137
0.15490196 0.44859069 0.15435049
0.18578431 0.45245098 0.15735294
0.21470588 0.45637255 0.15343137
0.24656863 0.46372549 0.1495098
0.29834559 0.48039216 0.14185049
0.35 0.50098039 0.13419118
0.40447304 0.51856618 0.13290441
0.47352941 0.54215686 0.10098039
0.54754902 0.5627451 0.070159314
0.6192402 0.58333333 0.046568627
0.68106618 0.59509804 0.021875
0.73333333 0.60196078 0.0078431373
0.78088235 0.59803922 0.0078431373
0.81948529 0.59448529 0.006495098
0.85686275 0.59460784 0.0077818627
0.89387255 0.59632353 0.0041666667
0.92647059 0.5971201 0.0039215686
0.95392157 0.59105392 0.0039215686
0.9776348 0.59001225 0
0.9877451 0.58627451 0
0.062745098 0.49509804 0.16078431
0.079411765 0.49411765 0.16372549
0.1 0.49411765 0.16764706
0.11703431 0.49154412 0.16764706
0.14019608 0.48872549 0.16764706
0.16776961 0.48627451 0.16764706
0.19387255 0.48627451 0.16764706
0.21801471 0.4872549 0.16372549
0.24215686 0.4872549 0.15980392
0.29460784 0.50490196 0.15637255
0.34313725 0.52377451 0.14705882
0.39117647 0.54215686 0.14019608
0.45098039 0.55980392 0.12009804
0.52389706 0.58039216 0.098039216
0.59509804 0.6 0.080392157
0.66176471 0.61911765 0.050490196
0.72745098 0.63627451 0.017647059
0.78235294 0.64252451 0.0020833333
0.81642157 0.63921569 0.0046568627
0.85306373 0.63921569 0.0077205882
0.89068627 0.63921569 0.0093137255
0.92303922 0.63529412 0.0039215686
0.95392157 0.63137255 0.0039215686
0.97401961 0.62745098 0
0.98039216 0.62745098 0
0.080392157 0.53529412 0.17401961
0.096139706 0.53529412 0.1754902
0.11617647 0.53431373 0.17794118
0.13155637 0.53137255 0.17794118
0.15318627 0.5254902 0.17794118
0.17941176 0.52205882 0.18186275
0.20637255 0.52022059 0.18002451
0.23186275 0.51960784 0.17702206
0.25784314 0.52205882 0.17401961
0.3 0.53480392 0.1754902
0.34656863 0.55110294 0.16666667
0.3877451 0.56470588 0.15637255
0.43406863 0.58014706 0.14289216
0.50392157 0.6 0.13498775
0.5745098 0.62058824 0.12598039
0.64172794 0.63878676 0.094117647
0.71078431 0.65784314 0.051470588
0.77009804 0.67058824 0.030821078
0.80931373 0.67352941 0.027573529
0.84411765 0.67352941 0.030698529
0.88161765 0.675 0.022058824
0.92175245 0.67518382 0.0086397059
0.95428922 0.67254902 0.0006127451
0.96954657 0.66862745 0
0.97107843 0.66470588 0
0.12156863 0.57254902 0.18823529
0.13578431 0.57647059 0.19215686
0.14901961 0.5754902 0.19215686
0.15637255 0.56911765 0.18872549
0.17647059 0.56470588 0.19019608
0.19705882 0.56029412 0.19215686
0.21764706 0.55686275 0.19215686
0.24607843 0.55294118 0.18823529
0.27058824 0.55294118 0.18823529
0.30784314 0.56323529 0.18823529
0.35686275 0.58137255 0.19117647
0.40196078 0.59558824 0.17745098
0.44509804 0.60784314 0.16862745
0.5004902 0.62401961 0.16470588
0.55882353 0.64117647 0.15784314
0.6245098 0.65637255 0.12745098
0.69019608 0.67058824 0.098039216
0.74558824 0.68480392 0.096568627
0.79313725 0.69509804 0.088235294
0.8372549 0.70147059 0.078431373
0.8745098 0.70392157 0.064705882
0.91568627 0.70637255 0.033823529
0.95686275 0.7127451 0.0029411765
0.96078431 0.70980392 0.0039215686
0.96470588 0.70588235 0.0039215686
0.14215686 0.60980392 0.19460784
0.15790441 0.61127451 0.20098039
0.17414216 0.61127451 0.2060049
0.17959559 0.60637255 0.19901961
0.19705882 0.60196078 0.2004902
0.22028186 0.59803922 0.20294118
0.24460784 0.59509804 0.20821078
0.26035539 0.58927696 0.20189951
0.27696078 0.58382353 0.19852941
0.31176471 0.5911152 0.19852941
0.36176471 0.6064951 0.2
0.41194853 0.62224265 0.19742647
0.45735294 0.63431373 0.19240196
0.50655637 0.64724265 0.18480392
0.55196078 0.65882353 0.17745098
0.6060049 0.67359069 0.16072304
0.66568627 0.6872549 0.15343137
0.72015931 0.69901961 0.16072304
0.77254902 0.71176471 0.15784314
0.82401961 0.72420343 0.1372549
0.86813725 0.73161765 0.1245098
0.90753676 0.73676471 0.098345588
0.94362745 0.74068627 0.083333333
0.96470588 0.74460784 0.074509804
0.96715686 0.74313725 0.072058824
0.17843137 0.64313725 0.21470588
0.19901961 0.64705882 0.22205882
0.20980392 0.64705882 0.22328431
0.20980392 0.6435049 0.21519608
0.2254902 0.64313725 0.21421569
0.25110294 0.63921569 0.22156863
0.2754902 0.63627451 0.2252451
0.2877451 0.63026961 0.22009804
0.29803922 0.62352941 0.21372549
0.31727941 0.62034314 0.20870098
0.37156863 0.63529412 0.2129902
0.42120098 0.64938725 0.21360294
0.46372549 0.65980392 0.21372549
0.50919118 0.67009804 0.20931373
0.55367647 0.68333333 0.2
0.6004902 0.69571078 0.2
0.65490196 0.70784314 0.20098039
0.70821078 0.72095588 0.20355392
0.76078431 0.73259804 0.20196078
0.8122549 0.74656863 0.19264706
0.85980392 0.75784314 0.18186275
0.89852941 0.76421569 0.17120098
0.93235294 0.77058824 0.16568627
0.96311275 0.77585784 0.15931373
0.97352941 0.77941176 0.15294118
0.24019608 0.68039216 0.2495098
0.25686275 0.68431373 0.25588235
0.26813725 0.68431373 0.25992647
0.27113971 0.68131127 0.25300245
0.27769608 0.68039216 0.24901961
0.29264706 0.68039216 0.24865196
0.30992647 0.67659314 0.24607843
0.32285539 0.67469363 0.24215686
0.33921569 0.66813725 0.23823529
0.35588235 0.66207108 0.23186275
0.38382353 0.6627451 0.23039216
0.42892157 0.67604167 0.23382353
0.47230392 0.68676471 0.2377451
0.51568627 0.69705882 0.23425245
0.56323529 0.70784314 0.23247549
0.61421569 0.72175245 0.24117647
0.6622549 0.73578431 0.24509804
0.70980392 0.74607843 0.24509804
0.75784314 0.75686275 0.24105392
0.80931373 0.77015931 0.23682598
0.85490196 0.78137255 0.23651961
0.89166667 0.79160539 0.23670343
0.92303922 0.79803922 0.23627451
0.9591299 0.80784314 0.23952206
0.98382353 0.81421569 0.23529412
0.30196078 0.71764706 0.28627451
0.31617647 0.72156863 0.29142157
0.32598039 0.72156863 0.29215686
0.32941176 0.72156863 0.28848039
0.33431373 0.72058824 0.28333333
0.34754902 0.71764706 0.28039216
0.35784314 0.71617647 0.27745098
0.37083333 0.7129902 0.27696078
0.38431373 0.70980392 0.27254902
0.3997549 0.70343137 0.26740196
0.42156863 0.7004902 0.26862745
0.45686275 0.70735294 0.27034314
0.49411765 0.71666667 0.27156863
0.52745098 0.72401961 0.26495098
0.57352941 0.73578431 0.27352941
0.625 0.74926471 0.28382353
0.67254902 0.7627451 0.29019608
0.71568627 0.77303922 0.29142157
0.75784314 0.78137255 0.29166667
0.80588235 0.79362745 0.29191176
0.84803922 0.80588235 0.29215686
0.88406863 0.81397059 0.29240196
0.91813725 0.82254902 0.29558824
0.95416667 0.83553922 0.30416667
0.98431373 0.84705882 0.31372549
0.36372549 0.75833333 0.32303922
0.3745098 0.75882353 0.32775735
0.38382353 0.75882353 0.33137255
0.38682598 0.75882353 0.3245098
0.39093137 0.75882353 0.31764706
0.39908088 0.75833333 0.31182598
0.41237745 0.75453431 0.31519608
0.42420343 0.7495098 0.3127451
0.43480392 0.74705882 0.30931373
0.44987745 0.74362745 0.31035539
0.48039216 0.74705882 0.32254902
0.49957108 0.74705882 0.32058824
0.52941176 0.75073529 0.31764706
0.56372549 0.75098039 0.3127451
0.59754902 0.75992647 0.31911765
0.64019608 0.77647059 0.32941176
0.68382353 0.78970588 0.33627451
0.72420343 0.79969363 0.33627451
0.76127451 0.80637255 0.33970588
0.80196078 0.82009804 0.3401348
0.84289216 0.82696078 0.34828431
0.87689951 0.8372549 0.35294118
0.91078431 0.84754902 0.35588235
0.94099265 0.85784314 0.36960784
0.96813725 0.87156863 0.38382353
0.43921569 0.79607843 0.38137255
0.45490196 0.8 0.39460784
0.4627451 0.8 0.4
0.4627451 0.8 0.38884804
0.46421569 0.8 0.38039216
0.47107843 0.79987745 0.38039216
0.48431373 0.79607843 0.38406863
0.4995098 0.79215686 0.38823529
0.51372549 0.79117647 0.39117647
0.52794118 0.79117647 0.3932598
0.54313725 0.79117647 0.39117647
0.55735294 0.79117647 0.38088235
0.57401961 0.78823529 0.37401961
0.60147059 0.78529412 0.36973039
0.63529412 0.79117647 0.37745098
0.67647059 0.80894608 0.39901961
0.71764706 0.8245098 0.41176471
0.7495098 0.83088235 0.4060049
0.78137255 0.8372549 0.40563725
0.8122549 0.84754902 0.41519608
0.84754902 0.85931373 0.43088235
0.88382353 0.87071078 0.43872549
0.91151961 0.87843137 0.44142157
0.93382353 0.88480392 0.44852941
0.95686275 0.89215686 0.45588235
0.53480392 0.84117647 0.46666667
0.54362745 0.84509804 0.47457108
0.54840686 0.84448529 0.47352941
0.54656863 0.84117647 0.47058824
0.55245098 0.84264706 0.46813725
0.55882353 0.84264706 0.46862745
0.56911765 0.84117647 0.47169118
0.57947304 0.83817402 0.47395833
0.59215686 0.83872549 0.47843137
0.60490196 0.83780637 0.47898284
0.61617647 0.8372549 0.47781863
0.62941176 0.8372549 0.47254902
0.64362745 0.83480392 0.47156863
0.66470588 0.83069853 0.46286765
0.68382353 0.83051471 0.45931373
0.71819853 0.8495098 0.48431373
0.75490196 0.86323529 0.49411765
0.77647059 0.86323529 0.48143382
0.80196078 0.87205882 0.48970588
0.82941176 0.88235294 0.50294118
0.86102941 0.89264706 0.51764706
0.89117647 0.90245098 0.5254902
0.91176471 0.90931373 0.5254902
0.93627451 0.91568627 0.53180147
0.95294118 0.92058824 0.53333333
0.61176471 0.87843137 0.53333333
0.63088235 0.88872549 0.55245098
0.62254902 0.88137255 0.54411765
0.61960784 0.87843137 0.54068627
0.63137255 0.88431373 0.54901961
0.64264706 0.88578431 0.55245098
0.64215686 0.88235294 0.54901961
0.64460784 0.87696078 0.54117647
0.65882353 0.87843137 0.54901961
0.67598039 0.88382353 0.55980392
0.67941176 0.87843137 0.55588235
0.68627451 0.8745098 0.5495098
0.70196078 0.8745098 0.55686275
0.71813725 0.8745098 0.55588235
0.73137255 0.87745098 0.54803922
0.7627451 0.89313725 0.57058824
0.78039216 0.89411765 0.56078431
0.79460784 0.89019608 0.54901961
0.82254902 0.90294118 0.56764706
0.84607843 0.91323529 0.58039216
0.87254902 0.92352941 0.59215686
0.89509804 0.92598039 0.59215686
0.91568627 0.93235294 0.59117647
0.9377451 0.94264706 0.60294118
0.95294118 0.94509804 0.60784314
0.11764706 0.1372549 0.10686275
0.12156863 0.13241422 0.10294118
0.12647059 0.12794118 0.098406863
0.14754902 0.12579657 0.098713235
0.17843137 0.12745098 0.10098039
0.20980392 0.13743873 0.10294118
0.24595588 0.14558824 0.10294118
0.28823529 0.14209559 0.10294118
0.3372549 0.13088235 0.10294118
0.38872549 0.11574755 0.10140931
0.44019608 0.10343137 0.099019608
0.49148284 0.096568627 0.099019608
0.55294118 0.073039216 0.095098039
0.61470588 0.041666667 0.091176471
0.67316176 0.0087009804 0.087622549
0.73039216 0.0078431373 0.083333333
0.78823529 0.0078431373 0.079411765
0.8372549 0.006372549 0.073039216
0.86960784 0.010661765 0.067647059
0.9004902 0.015502451 0.067647059
0.93137255 0.019607843 0.065196078
0.9622549 0.017156863 0.060968137
0.99264706 0.02120098 0.057720588
0.99607843 0.070098039 0.042095588
0.99607843 0.11617647 0.034803922
0.11127451 0.14362745 0.10686275
0.11672794 0.14005055 0.10441176
0.12761949 0.13670343 0.10104167
0.14846814 0.13651961 0.099938725
0.17935049 0.13943015 0.10067402
0.20931373 0.14369638 0.10294118
0.24336703 0.14643076 0.10294118
0.28635876 0.14567249 0.10294118
0.3372549 0.13578431 0.10140931
0.38872549 0.12514553 0.099226409
0.44019608 0.11695772 0.098636642
0.49166667 0.10961244 0.096086091
0.55294118 0.091176471 0.096568627
0.61470588 0.065081189 0.094791667
0.67647059 0.048897059 0.089568015
0.73249847 0.034635417 0.083907782
0.78823529 0.019117647 0.079411765
0.8372549 0.0091681985 0.072694547
0.87113971 0.016574755 0.067647059
0.9004902 0.028745404 0.067647059
0.93137255 0.039154412 0.06596201
0.9622549 0.047058824 0.058333333
0.98950674 0.060677083 0.050520833
0.99607843 0.10224418 0.03872549
0.99607843 0.13976716 0.030882353
0.10196078 0.15 0.10686275
0.10643382 0.14963235 0.10464154
0.1208027 0.14779412 0.10358456
0.14500613 0.15085784 0.10441176
0.1745098 0.15300245 0.10220588
0.20723039 0.15399816 0.099341299
0.23982843 0.15407475 0.099019608
0.28301164 0.15281863 0.099019608
0.33333333 0.1495098 0.099019608
