site/assets/luts/sha256-9ecd8ca358c9ef042e44dc9afe8a1d173fc4aa8109e295cfc7f02b127aa8f09a.cube
# LUTr-Schema-Version: 2
# LUTr-ID: sha256-9ecd8ca358c9ef042e44dc9afe8a1d173fc4aa8109e295cfc7f02b127aa8f09a
# LUTr-Title: ilford delta 100
# LUTr-Collection: Natron HaldCLUT
# LUTr-Collection-ID: natron-haldclut-presets
# LUTr-Source: https://github.com/NatronGitHub/clut
# LUTr-Retrieved: 2026-07-27
# LUTr-Source-File: submissions/natron-haldclut-presets/bw/ilford_delta_100.png
# LUTr-Source-Format: HALD-PNG
# LUTr-Source-SHA256: 9ecd8ca358c9ef042e44dc9afe8a1d173fc4aa8109e295cfc7f02b127aa8f09a
# LUTr-License: CC-BY-SA-4.0
# LUTr-License-URL: https://github.com/NatronGitHub/clut#license
# LUTr-License-Basis: repo-license-file
# LUTr-Transform-Class: film-emulation
# LUTr-Tags: creative, film, film-emulation, hald-clut, natron, png, cube
# LUTr-Input-Color-Space: srgb
# LUTr-Input-Gamut: rec709
# LUTr-Input-Transfer: srgb
# LUTr-Output-Color-Space: srgb
# LUTr-Output-Gamut: rec709
# LUTr-Output-Transfer: srgb
# LUTr-Color-Space-Confidence: assumed-display-referred
# LUTr-Domain-Normalized: true
# LUTr-Shaper: none
# LUTr-Original-Grid: 64x64x64
# LUTr-Conversion-Grid: 25x25x25
# LUTr-Conversion-Interpolation: trilinear
# LUTr-Conversion-Method: HALD-PNG LUT image decoded at 16-bit and sampled to 25x25x25 3D CUBE
# LUTr-Conversion-Tool: LUTr scripts/convert-all-to-cube.mjs 2.0.0
# LUTr-Conversion-Date: 2026-07-27
# LUTr-Note: Preserve this metadata and the upstream license notices when redistributing.
TITLE "ilford delta 100"
LUT_3D_SIZE 5
DOMAIN_MIN 0 0 0
DOMAIN_MAX 1 1 1
0.019607843 0.019607843 0.019607843
0.019607843 0.019607843 0.019607843
0.043137255 0.043137255 0.043137255
0.078431373 0.078431373 0.078431373
0.14901961 0.14901961 0.14901961
0.14607843 0.14607843 0.14607843
0.18823529 0.18823529 0.18823529
0.23431373 0.23431373 0.23431373
0.28823529 0.28823529 0.28823529
0.40196078 0.40196078 0.40196078
0.41568627 0.41568627 0.41568627
0.43529412 0.43529412 0.43529412
0.45 0.45 0.45
0.49901961 0.49901961 0.49901961
0.54901961 0.54901961 0.54901961
0.65490196 0.65490196 0.65490196
0.65784314 0.65784314 0.65784314
0.66813725 0.66813725 0.66813725
0.68921569 0.68921569 0.68921569
0.71960784 0.71960784 0.71960784
0.8745098 0.8745098 0.8745098
0.85098039 0.85098039 0.85098039
0.87647059 0.87647059 0.87647059
0.88431373 0.88431373 0.88431373
0.8745098 0.8745098 0.8745098
0.065686275 0.065686275 0.065686275
0.081372549 0.081372549 0.081372549
0.10490196 0.10490196 0.10490196
0.17426471 0.17426471 0.17426471
0.32352941 0.32352941 0.32352941
0.24607843 0.24607843 0.24607843
0.25392157 0.25392157 0.25392157
0.29044118 0.29044118 0.29044118
0.36470588 0.36470588 0.36470588
0.41446078 0.41446078 0.41446078
0.48137255 0.48137255 0.48137255
0.47352941 0.47352941 0.47352941
0.4877451 0.4877451 0.4877451
0.53333333 0.53333333 0.53333333
0.57205882 0.57205882 0.57205882
0.68039216 0.68039216 0.68039216
0.67647059 0.67647059 0.67647059
0.68566176 0.68566176 0.68566176
0.70563725 0.70563725 0.70563725
0.73137255 0.73137255 0.73137255
0.85882353 0.85882353 0.85882353
0.85490196 0.85490196 0.85490196
0.86862745 0.86862745 0.86862745
0.87303922 0.87303922 0.87303922
0.88137255 0.88137255 0.88137255
0.16470588 0.16470588 0.16470588
0.18627451 0.18627451 0.18627451
0.2254902 0.2254902 0.2254902
0.30588235 0.30588235 0.30588235
0.44509804 0.44509804 0.44509804
0.38284314 0.38284314 0.38284314
0.38970588 0.38970588 0.38970588
0.41078431 0.41078431 0.41078431
0.45588235 0.45588235 0.45588235
0.51568627 0.51568627 0.51568627
0.54117647 0.54117647 0.54117647
0.54779412 0.54779412 0.54779412
0.56666667 0.56666667 0.56666667
0.6004902 0.6004902 0.6004902
0.61862745 0.61862745 0.61862745
0.72647059 0.72647059 0.72647059
0.72647059 0.72647059 0.72647059
0.7370098 0.7370098 0.7370098
0.75784314 0.75784314 0.75784314
0.78039216 0.78039216 0.78039216
0.89803922 0.89803922 0.89803922
0.9004902 0.9004902 0.9004902
0.9127451 0.9127451 0.9127451
0.90980392 0.90980392 0.90980392
0.9254902 0.9254902 0.9254902
0.38039216 0.38039216 0.38039216
0.39607843 0.39607843 0.39607843
0.46176471 0.46176471 0.46176471
0.47058824 0.47058824 0.47058824
0.5127451 0.5127451 0.5127451
0.51372549 0.51372549 0.51372549
0.52058824 0.52058824 0.52058824
0.54558824 0.54558824 0.54558824
0.57745098 0.57745098 0.57745098
0.61568627 0.61568627 0.61568627
0.625 0.625 0.625
0.64117647 0.64117647 0.64117647
0.6627451 0.6627451 0.6627451
0.68431373 0.68431373 0.68431373
0.71519608 0.71519608 0.71519608
0.77230392 0.77230392 0.77230392
0.77959559 0.77959559 0.77959559
0.79901961 0.79901961 0.79901961
0.80686275 0.80686275 0.80686275
0.83431373 0.83431373 0.83431373
0.91862745 0.91862745 0.91862745
0.92647059 0.92647059 0.92647059
0.92647059 0.92647059 0.92647059
0.91568627 0.91568627 0.91568627
0.93333333 0.93333333 0.93333333
0.54901961 0.54901961 0.54901961
0.54901961 0.54901961 0.54901961
0.54901961 0.54901961 0.54901961
0.60196078 0.60196078 0.60196078
0.63921569 0.63921569 0.63921569
0.61862745 0.61862745 0.61862745
0.64117647 0.64117647 0.64117647
0.6627451 0.6627451 0.6627451
0.6745098 0.6745098 0.6745098
0.69313725 0.69313725 0.69313725
0.71568627 0.71568627 0.71568627
0.74264706 0.74264706 0.74264706
0.75686275 0.75686275 0.75686275
0.76470588 0.76470588 0.76470588
0.79215686 0.79215686 0.79215686
0.84117647 0.84117647 0.84117647
0.84901961 0.84901961 0.84901961
0.86078431 0.86078431 0.86078431
0.87328431 0.87328431 0.87328431
0.88431373 0.88431373 0.88431373
0.9372549 0.9372549 0.9372549
0.94901961 0.94901961 0.94901961
0.9627451 0.9627451 0.9627451
0.98039216 0.98039216 0.98039216
0.96470588 0.96470588 0.96470588
