site/assets/luts/sha256-855a9fe920d8a1a67b5a1b0e4a31c79fa87620d60c675075f9bdab90cd267c1c.cube
# LUTr-Schema-Version: 2
# LUTr-ID: sha256-855a9fe920d8a1a67b5a1b0e4a31c79fa87620d60c675075f9bdab90cd267c1c
# LUTr-Title: fuji ilford delta 3200 ++
# LUTr-Collection: Natron HaldCLUT
# LUTr-Collection-ID: natron-haldclut-presets
# LUTr-Source: https://github.com/NatronGitHub/clut
# LUTr-Retrieved: 2026-07-27
# LUTr-Source-File: submissions/natron-haldclut-presets/negative_old/fuji_ilford_delta_3200_++.png
# LUTr-Source-Format: HALD-PNG
# LUTr-Source-SHA256: 855a9fe920d8a1a67b5a1b0e4a31c79fa87620d60c675075f9bdab90cd267c1c
# LUTr-License: CC-BY-SA-4.0
# LUTr-License-URL: https://github.com/NatronGitHub/clut#license
# LUTr-License-Basis: repo-license-file
# LUTr-Transform-Class: film-emulation
# LUTr-Tags: creative, film, film-emulation, hald-clut, natron, png, cube
# LUTr-Input-Color-Space: srgb
# LUTr-Input-Gamut: rec709
# LUTr-Input-Transfer: srgb
# LUTr-Output-Color-Space: srgb
# LUTr-Output-Gamut: rec709
# LUTr-Output-Transfer: srgb
# LUTr-Color-Space-Confidence: assumed-display-referred
# LUTr-Domain-Normalized: true
# LUTr-Shaper: none
# LUTr-Original-Grid: 64x64x64
# LUTr-Conversion-Grid: 25x25x25
# LUTr-Conversion-Interpolation: trilinear
# LUTr-Conversion-Method: HALD-PNG LUT image decoded at 16-bit and sampled to 25x25x25 3D CUBE
# LUTr-Conversion-Tool: LUTr scripts/convert-all-to-cube.mjs 2.0.0
# LUTr-Conversion-Date: 2026-07-27
# LUTr-Note: Preserve this metadata and the upstream license notices when redistributing.
TITLE "fuji ilford delta 3200 ++"
LUT_3D_SIZE 25
DOMAIN_MIN 0 0 0
DOMAIN_MAX 1 1 1
0.15686275 0.15686275 0.15686275
0.15686275 0.15686275 0.15686275
0.15686275 0.15686275 0.15686275
0.15686275 0.15686275 0.15686275
0.16078431 0.16078431 0.16078431
0.15686275 0.15686275 0.15686275
0.15686275 0.15686275 0.15686275
0.15294118 0.15294118 0.15294118
0.15294118 0.15294118 0.15294118
0.16323529 0.16323529 0.16323529
0.16960784 0.16960784 0.16960784
0.17990196 0.17990196 0.17990196
0.18823529 0.18823529 0.18823529
0.19656863 0.19656863 0.19656863
0.20294118 0.20294118 0.20294118
0.22254902 0.22254902 0.22254902
0.24313725 0.24313725 0.24313725
0.26127451 0.26127451 0.26127451
0.28039216 0.28039216 0.28039216
0.30098039 0.30098039 0.30098039
0.31764706 0.31764706 0.31764706
0.34264706 0.34264706 0.34264706
0.38039216 0.38039216 0.38039216
0.41764706 0.41764706 0.41764706
0.44705882 0.44705882 0.44705882
0.15686275 0.15686275 0.15686275
0.15686275 0.15686275 0.15686275
0.15686275 0.15686275 0.15686275
0.15686275 0.15686275 0.15686275
0.16078431 0.16078431 0.16078431
0.15686275 0.15686275 0.15686275
0.15686275 0.15686275 0.15686275
0.15294118 0.15294118 0.15294118
0.15294118 0.15294118 0.15294118
0.16323529 0.16323529 0.16323529
0.17316176 0.17316176 0.17316176
0.18020833 0.18020833 0.18020833
0.18946078 0.18946078 0.18946078
0.19656863 0.19656863 0.19656863
0.20294118 0.20294118 0.20294118
0.22254902 0.22254902 0.22254902
0.24313725 0.24313725 0.24313725
0.26372549 0.26372549 0.26372549
0.28431373 0.28431373 0.28431373
0.30128676 0.30128676 0.30128676
0.32083333 0.32083333 0.32083333
0.34313725 0.34313725 0.34313725
0.38039216 0.38039216 0.38039216
0.41764706 0.41764706 0.41764706
0.45098039 0.45098039 0.45098039
0.15686275 0.15686275 0.15686275
0.15686275 0.15686275 0.15686275
0.15686275 0.15686275 0.15686275
0.15686275 0.15686275 0.15686275
0.15686275 0.15686275 0.15686275
0.16041667 0.16041667 0.16041667
0.15784314 0.15784314 0.15784314
0.15784314 0.15784314 0.15784314
0.16176471 0.16176471 0.16176471
0.16813725 0.16813725 0.16813725
0.17843137 0.17843137 0.17843137
0.18872549 0.18872549 0.18872549
0.19901961 0.19901961 0.19901961
0.20539216 0.20539216 0.20539216
0.21568627 0.21568627 0.21568627
0.23137255 0.23137255 0.23137255
0.24803922 0.24803922 0.24803922
0.26862745 0.26862745 0.26862745
0.28921569 0.28921569 0.28921569
0.30980392 0.30980392 0.30980392
0.32892157 0.32892157 0.32892157
0.35294118 0.35294118 0.35294118
0.38946078 0.38946078 0.38946078
0.42536765 0.42536765 0.42536765
0.45588235 0.45588235 0.45588235
0.15686275 0.15686275 0.15686275
0.15686275 0.15686275 0.15686275
0.15686275 0.15686275 0.15686275
0.15686275 0.15686275 0.15686275
0.15686275 0.15686275 0.15686275
0.16078431 0.16078431 0.16078431
0.16078431 0.16078431 0.16078431
0.16421569 0.16421569 0.16421569
0.17205882 0.17205882 0.17205882
0.18186275 0.18186275 0.18186275
0.18872549 0.18872549 0.18872549
0.19901961 0.19901961 0.19901961
0.20931373 0.20931373 0.20931373
0.21960784 0.21960784 0.21960784
0.22990196 0.22990196 0.22990196
0.24411765 0.24411765 0.24411765
0.2622549 0.2622549 0.2622549
0.28235294 0.28235294 0.28235294
0.30428922 0.30428922 0.30428922
0.32401961 0.32401961 0.32401961
0.34803922 0.34803922 0.34803922
0.37303922 0.37303922 0.37303922
0.40784314 0.40784314 0.40784314
0.44264706 0.44264706 0.44264706
0.46617647 0.46617647 0.46617647
0.15294118 0.15294118 0.15294118
0.15612745 0.15612745 0.15612745
0.15686275 0.15686275 0.15686275
0.15686275 0.15686275 0.15686275
0.16078431 0.16078431 0.16078431
0.16470588 0.16470588 0.16470588
0.16617647 0.16617647 0.16617647
0.17132353 0.17132353 0.17132353
0.18235294 0.18235294 0.18235294
0.19264706 0.19264706 0.19264706
0.20294118 0.20294118 0.20294118
0.21323529 0.21323529 0.21323529
0.22254902 0.22254902 0.22254902
0.23382353 0.23382353 0.23382353
0.24411765 0.24411765 0.24411765
0.25710784 0.25710784 0.25710784
0.2745098 0.2745098 0.2745098
0.29828431 0.29828431 0.29828431
0.32009804 0.32009804 0.32009804
0.34387255 0.34387255 0.34387255
0.36666667 0.36666667 0.36666667
0.39362745 0.39362745 0.39362745
0.42696078 0.42696078 0.42696078
0.45588235 0.45588235 0.45588235
0.47647059 0.47647059 0.47647059
0.15294118 0.15294118 0.15294118
0.15557598 0.15557598 0.15557598
0.15821078 0.15821078 0.15821078
0.16121324 0.16121324 0.16121324
0.16470588 0.16470588 0.16470588
0.165625 0.165625 0.165625
0.1689951 0.1689951 0.1689951
0.17843137 0.17843137 0.17843137
0.19264706 0.19264706 0.19264706
0.20557598 0.20557598 0.20557598
0.21629902 0.21629902 0.21629902
0.22401961 0.22401961 0.22401961
0.23431373 0.23431373 0.23431373
0.24803922 0.24803922 0.24803922
0.25882353 0.25882353 0.25882353
0.27322304 0.27322304 0.27322304
0.29166667 0.29166667 0.29166667
0.31568627 0.31568627 0.31568627
0.34019608 0.34019608 0.34019608
0.36078431 0.36078431 0.36078431
0.3870098 0.3870098 0.3870098
0.41421569 0.41421569 0.41421569
0.44509804 0.44509804 0.44509804
0.47205882 0.47205882 0.47205882
0.49509804 0.49509804 0.49509804
0.15882353 0.15882353 0.15882353
0.16335784 0.16335784 0.16335784
0.16764706 0.16764706 0.16764706
0.17058824 0.17058824 0.17058824
0.17156863 0.17156863 0.17156863
0.17156863 0.17156863 0.17156863
0.17696078 0.17696078 0.17696078
0.19019608 0.19019608 0.19019608
0.20588235 0.20588235 0.20588235
0.21715686 0.21715686 0.21715686
0.22745098 0.22745098 0.22745098
0.2377451 0.2377451 0.2377451
0.25098039 0.25098039 0.25098039
0.26519608 0.26519608 0.26519608
0.27916667 0.27916667 0.27916667
0.29803922 0.29803922 0.29803922
0.31862745 0.31862745 0.31862745
0.34019608 0.34019608 0.34019608
0.36372549 0.36372549 0.36372549
0.38517157 0.38517157 0.38517157
0.40784314 0.40784314 0.40784314
0.43480392 0.43480392 0.43480392
0.46568627 0.46568627 0.46568627
0.49448529 0.49448529 0.49448529
0.51568627 0.51568627 0.51568627
0.17941176 0.17941176 0.17941176
0.18186275 0.18186275 0.18186275
0.18615196 0.18615196 0.18615196
0.1872549 0.1872549 0.1872549
0.1872549 0.1872549 0.1872549
0.19117647 0.19117647 0.19117647
0.19448529 0.19448529 0.19448529
0.20833333 0.20833333 0.20833333
0.22107843 0.22107843 0.22107843
0.23229167 0.23229167 0.23229167
0.24313725 0.24313725 0.24313725
0.25686275 0.25686275 0.25686275
0.27034314 0.27034314 0.27034314
0.28627451 0.28627451 0.28627451
0.30330882 0.30330882 0.30330882
0.32352941 0.32352941 0.32352941
0.34411765 0.34411765 0.34411765
0.36617647 0.36617647 0.36617647
0.38921569 0.38921569 0.38921569
0.40980392 0.40980392 0.40980392
0.43186275 0.43186275 0.43186275
0.45931373 0.45931373 0.45931373
0.4877451 0.4877451 0.4877451
0.51715686 0.51715686 0.51715686
0.54166667 0.54166667 0.54166667
0.19607843 0.19607843 0.19607843
0.2 0.2 0.2
0.20392157 0.20392157 0.20392157
0.20784314 0.20784314 0.20784314
0.20784314 0.20784314 0.20784314
0.21176471 0.21176471 0.21176471
0.21862745 0.21862745 0.21862745
0.22892157 0.22892157 0.22892157
0.23921569 0.23921569 0.23921569
0.2495098 0.2495098 0.2495098
0.26372549 0.26372549 0.26372549
0.27794118 0.27794118 0.27794118
0.29411765 0.29411765 0.29411765
0.31078431 0.31078431 0.31078431
0.32843137 0.32843137 0.32843137
0.3495098 0.3495098 0.3495098
0.37254902 0.37254902 0.37254902
0.39313725 0.39313725 0.39313725
0.41470588 0.41470588 0.41470588
0.43823529 0.43823529 0.43823529
0.46078431 0.46078431 0.46078431
0.4872549 0.4872549 0.4872549
0.51470588 0.51470588 0.51470588
0.54166667 0.54166667 0.54166667
0.56862745 0.56862745 0.56862745
0.21666667 0.21666667 0.21666667
0.21911765 0.21911765 0.21911765
0.22267157 0.22267157 0.22267157
0.2245098 0.2245098 0.2245098
0.22843137 0.22843137 0.22843137
0.23284314 0.23284314 0.23284314
0.23921569 0.23921569 0.23921569
0.2495098 0.2495098 0.2495098
0.25980392 0.25980392 0.25980392
0.27009804 0.27009804 0.27009804
0.28529412 0.28529412 0.28529412
0.30226716 0.30226716 0.30226716
0.31985294 0.31985294 0.31985294
0.33743873 0.33743873 0.33743873
0.35588235 0.35588235 0.35588235
0.37738971 0.37738971 0.37738971
0.3995098 0.3995098 0.3995098
0.42156863 0.42156863 0.42156863
0.44276961 0.44276961 0.44276961
0.46519608 0.46519608 0.46519608
0.48848039 0.48848039 0.48848039
0.51421569 0.51421569 0.51421569
0.53811275 0.53811275 0.53811275
0.56470588 0.56470588 0.56470588
0.58529412 0.58529412 0.58529412
0.23333333 0.23333333 0.23333333
0.2372549 0.2372549 0.2372549
0.24191176 0.24191176 0.24191176
0.24509804 0.24509804 0.24509804
0.25098039 0.25098039 0.25098039
0.25343137 0.25343137 0.25343137
0.25980392 0.25980392 0.25980392
0.26911765 0.26911765 0.26911765
0.28039216 0.28039216 0.28039216
0.29068627 0.29068627 0.29068627
0.30588235 0.30588235 0.30588235
0.32647059 0.32647059 0.32647059
0.34558824 0.34558824 0.34558824
0.36335784 0.36335784 0.36335784
0.38137255 0.38137255 0.38137255
0.40490196 0.40490196 0.40490196
0.42647059 0.42647059 0.42647059
0.44889706 0.44889706 0.44889706
0.47156863 0.47156863 0.47156863
0.49215686 0.49215686 0.49215686
0.51617647 0.51617647 0.51617647
0.53762255 0.53762255 0.53762255
0.56176471 0.56176471 0.56176471
0.58737745 0.58737745 0.58737745
0.60980392 0.60980392 0.60980392
0.25735294 0.25735294 0.25735294
0.25998775 0.25998775 0.25998775
0.26531863 0.26531863 0.26531863
0.26911765 0.26911765 0.26911765
0.27156863 0.27156863 0.27156863
0.27401961 0.27401961 0.27401961
0.27781863 0.27781863 0.27781863
0.28676471 0.28676471 0.28676471
0.30098039 0.30098039 0.30098039
0.31127451 0.31127451 0.31127451
0.32647059 0.32647059 0.32647059
0.34705882 0.34705882 0.34705882
0.36764706 0.36764706 0.36764706
0.38823529 0.38823529 0.38823529
0.40882353 0.40882353 0.40882353
0.42941176 0.42941176 0.42941176
0.45343137 0.45343137 0.45343137
0.4745098 0.4745098 0.4745098
0.49852941 0.49852941 0.49852941
0.51960784 0.51960784 0.51960784
0.54362745 0.54362745 0.54362745
0.56813725 0.56813725 0.56813725
0.59178922 0.59178922 0.59178922
0.61501225 0.61501225 0.61501225
0.6377451 0.6377451 0.6377451
0.28431373 0.28431373 0.28431373
0.28946078 0.28946078 0.28946078
0.29313725 0.29313725 0.29313725
0.29607843 0.29607843 0.29607843
0.3 0.3 0.3
0.3002451 0.3002451 0.3002451
0.30392157 0.30392157 0.30392157
0.31323529 0.31323529 0.31323529
0.32352941 0.32352941 0.32352941
0.33578431 0.33578431 0.33578431
0.34705882 0.34705882 0.34705882
0.36764706 0.36764706 0.36764706
0.38823529 0.38823529 0.38823529
0.4127451 0.4127451 0.4127451
0.43186275 0.43186275 0.43186275
0.45392157 0.45392157 0.45392157
0.4745098 0.4745098 0.4745098
0.49509804 0.49509804 0.49509804
0.51960784 0.51960784 0.51960784
0.54411765 0.54411765 0.54411765
0.56960784 0.56960784 0.56960784
0.59338235 0.59338235 0.59338235
0.61911765 0.61911765 0.61911765
0.64289216 0.64289216 0.64289216
0.6627451 0.6627451 0.6627451
0.31519608 0.31519608 0.31519608
0.31911765 0.31911765 0.31911765
0.32303922 0.32303922 0.32303922
0.32689951 0.32689951 0.32689951
0.32696078 0.32696078 0.32696078
0.33045343 0.33045343 0.33045343
0.33345588 0.33345588 0.33345588
0.34019608 0.34019608 0.34019608
0.3504902 0.3504902 0.3504902
0.35814951 0.35814951 0.35814951
0.37058824 0.37058824 0.37058824
0.38823529 0.38823529 0.38823529
0.4127451 0.4127451 0.4127451
0.43382353 0.43382353 0.43382353
0.45404412 0.45404412 0.45404412
0.4745098 0.4745098 0.4745098
0.49509804 0.49509804 0.49509804
0.51550245 0.51550245 0.51550245
0.5372549 0.5372549 0.5372549
0.56464461 0.56464461 0.56464461
0.59117647 0.59117647 0.59117647
0.61770833 0.61770833 0.61770833
0.64509804 0.64509804 0.64509804
0.67254902 0.67254902 0.67254902
0.69607843 0.69607843 0.69607843
0.34607843 0.34607843 0.34607843
0.35 0.35 0.35
0.35392157 0.35392157 0.35392157
0.35392157 0.35392157 0.35392157
0.35784314 0.35784314 0.35784314
0.35784314 0.35784314 0.35784314
0.36102941 0.36102941 0.36102941
0.37218137 0.37218137 0.37218137
0.38431373 0.38431373 0.38431373
0.39068627 0.39068627 0.39068627
0.39705882 0.39705882 0.39705882
0.41519608 0.41519608 0.41519608
0.4372549 0.4372549 0.4372549
0.45784314 0.45784314 0.45784314
0.47843137 0.47843137 0.47843137
0.49509804 0.49509804 0.49509804
0.51176471 0.51176471 0.51176471
0.53235294 0.53235294 0.53235294
0.55710784 0.55710784 0.55710784
0.58480392 0.58480392 0.58480392
0.61176471 0.61176471 0.61176471
0.63872549 0.63872549 0.63872549
0.66887255 0.66887255 0.66887255
0.69656863 0.69656863 0.69656863
0.71372549 0.71372549 0.71372549
0.38382353 0.38382353 0.38382353
0.38627451 0.38627451 0.38627451
0.39019608 0.39019608 0.39019608
0.39019608 0.39019608 0.39019608
0.39289216 0.39289216 0.39289216
0.39411765 0.39411765 0.39411765
0.39742647 0.39742647 0.39742647
0.40980392 0.40980392 0.40980392
0.42009804 0.42009804 0.42009804
0.42702206 0.42702206 0.42702206
0.43431373 0.43431373 0.43431373
0.44852941 0.44852941 0.44852941
0.46323529 0.46323529 0.46323529
0.48235294 0.48235294 0.48235294
0.49938725 0.49938725 0.49938725
0.51813725 0.51813725 0.51813725
0.53627451 0.53627451 0.53627451
0.55294118 0.55294118 0.55294118
0.57634804 0.57634804 0.57634804
0.60196078 0.60196078 0.60196078
0.63039216 0.63039216 0.63039216
0.65931373 0.65931373 0.65931373
0.68688725 0.68688725 0.68688725
0.71029412 0.71029412 0.71029412
0.72303922 0.72303922 0.72303922
0.42745098 0.42745098 0.42745098
0.43137255 0.43137255 0.43137255
0.43529412 0.43529412 0.43529412
0.43872549 0.43872549 0.43872549
0.43921569 0.43921569 0.43921569
0.43921569 0.43921569 0.43921569
0.44313725 0.44313725 0.44313725
0.44852941 0.44852941 0.44852941
0.45882353 0.45882353 0.45882353
0.46519608 0.46519608 0.46519608
0.4754902 0.4754902 0.4754902
0.48578431 0.48578431 0.48578431
0.49607843 0.49607843 0.49607843
0.51029412 0.51029412 0.51029412
0.52745098 0.52745098 0.52745098
0.54264706 0.54264706 0.54264706
0.55686275 0.55686275 0.55686275
0.57352941 0.57352941 0.57352941
0.59509804 0.59509804 0.59509804
0.62205882 0.62205882 0.62205882
0.64901961 0.64901961 0.64901961
0.67598039 0.67598039 0.67598039
0.70294118 0.70294118 0.70294118
0.72058824 0.72058824 0.72058824
0.72941176 0.72941176 0.72941176
0.475 0.475 0.475
0.47800245 0.47800245 0.47800245
0.4810049 0.4810049 0.4810049
0.48431373 0.48431373 0.48431373
0.48553922 0.48553922 0.48553922
0.48676471 0.48676471 0.48676471
0.48786765 0.48786765 0.48786765
0.48823529 0.48823529 0.48823529
0.49607843 0.49607843 0.49607843
0.50245098 0.50245098 0.50245098
0.5127451 0.5127451 0.5127451
0.52303922 0.52303922 0.52303922
0.53333333 0.53333333 0.53333333
0.54754902 0.54754902 0.54754902
0.56115196 0.56115196 0.56115196
0.57745098 0.57745098 0.57745098
0.59166667 0.59166667 0.59166667
0.60686275 0.60686275 0.60686275
0.62107843 0.62107843 0.62107843
0.64295343 0.64295343 0.64295343
0.66642157 0.66642157 0.66642157
0.69234069 0.69234069 0.69234069
0.71421569 0.71421569 0.71421569
0.72941176 0.72941176 0.72941176
0.73970588 0.73970588 0.73970588
0.52254902 0.52254902 0.52254902
0.52438725 0.52438725 0.52438725
0.52720588 0.52720588 0.52720588
0.53296569 0.53296569 0.53296569
0.53431373 0.53431373 0.53431373
0.53333333 0.53333333 0.53333333
0.53333333 0.53333333 0.53333333
0.53333333 0.53333333 0.53333333
0.5372549 0.5372549 0.5372549
0.54301471 0.54301471 0.54301471
0.55 0.55 0.55
0.56029412 0.56029412 0.56029412
0.57401961 0.57401961 0.57401961
0.58480392 0.58480392 0.58480392
0.59901961 0.59901961 0.59901961
0.61433824 0.61433824 0.61433824
0.63039216 0.63039216 0.63039216
0.64522059 0.64522059 0.64522059
0.65882353 0.65882353 0.65882353
0.67009804 0.67009804 0.67009804
0.68529412 0.68529412 0.68529412
0.70784314 0.70784314 0.70784314
0.72843137 0.72843137 0.72843137
0.74105392 0.74105392 0.74105392
0.75980392 0.75980392 0.75980392
0.57058824 0.57058824 0.57058824
0.57273284 0.57273284 0.57273284
0.5745098 0.5745098 0.5745098
0.5783701 0.5783701 0.5783701
0.57843137 0.57843137 0.57843137
0.57843137 0.57843137 0.57843137
0.57843137 0.57843137 0.57843137
0.57843137 0.57843137 0.57843137
0.57843137 0.57843137 0.57843137
0.58235294 0.58235294 0.58235294
0.59031863 0.59031863 0.59031863
0.60104167 0.60104167 0.60104167
0.61176471 0.61176471 0.61176471
0.62297794 0.62297794 0.62297794
0.63921569 0.63921569 0.63921569
0.65226716 0.65226716 0.65226716
0.66862745 0.66862745 0.66862745
0.68155637 0.68155637 0.68155637
0.69362745 0.69362745 0.69362745
0.70735294 0.70735294 0.70735294
0.71593137 0.71593137 0.71593137
0.72849265 0.72849265 0.72849265
0.74227941 0.74227941 0.74227941
0.76617647 0.76617647 0.76617647
0.79068627 0.79068627 0.79068627
0.62156863 0.62156863 0.62156863
0.62034314 0.62034314 0.62034314
0.62009804 0.62009804 0.62009804
0.62156863 0.62156863 0.62156863
0.62352941 0.62352941 0.62352941
0.6254902 0.6254902 0.6254902
0.6254902 0.6254902 0.6254902
0.62352941 0.62352941 0.62352941
0.6254902 0.6254902 0.6254902
0.62867647 0.62867647 0.62867647
0.63431373 0.63431373 0.63431373
0.64264706 0.64264706 0.64264706
0.65294118 0.65294118 0.65294118
0.66348039 0.66348039 0.66348039
0.67745098 0.67745098 0.67745098
0.69240196 0.69240196 0.69240196
0.70588235 0.70588235 0.70588235
0.71666667 0.71666667 0.71666667
0.73039216 0.73039216 0.73039216
0.74068627 0.74068627 0.74068627
0.74901961 0.74901961 0.74901961
0.75539216 0.75539216 0.75539216
0.76715686 0.76715686 0.76715686
0.79583333 0.79583333 0.79583333
0.82156863 0.82156863 0.82156863
0.66911765 0.66911765 0.66911765
0.66911765 0.66911765 0.66911765
0.66911765 0.66911765 0.66911765
0.66911765 0.66911765 0.66911765
0.67303922 0.67303922 0.67303922
0.67303922 0.67303922 0.67303922
0.67303922 0.67303922 0.67303922
0.67254902 0.67254902 0.67254902
0.67303922 0.67303922 0.67303922
0.67696078 0.67696078 0.67696078
0.68480392 0.68480392 0.68480392
0.69215686 0.69215686 0.69215686
0.69852941 0.69852941 0.69852941
0.70833333 0.70833333 0.70833333
0.7189951 0.7189951 0.7189951
0.73284314 0.73284314 0.73284314
0.73872549 0.73872549 0.73872549
0.75147059 0.75147059 0.75147059
0.76764706 0.76764706 0.76764706
0.77751225 0.77751225 0.77751225
0.78406863 0.78406863 0.78406863
0.78627451 0.78627451 0.78627451
0.79264706 0.79264706 0.79264706
0.81960784 0.81960784 0.81960784
0.83578431 0.83578431 0.83578431
0.72058824 0.72058824 0.72058824
0.72058824 0.72058824 0.72058824
0.72352941 0.72352941 0.72352941
0.72058824 0.72058824 0.72058824
0.7245098 0.7245098 0.7245098
0.7245098 0.7245098 0.7245098
0.72083333 0.72083333 0.72083333
0.72058824 0.72058824 0.72058824
0.7245098 0.7245098 0.7245098
0.72843137 0.72843137 0.72843137
0.73406863 0.73406863 0.73406863
0.74019608 0.74019608 0.74019608
0.74656863 0.74656863 0.74656863
0.75245098 0.75245098 0.75245098
0.76348039 0.76348039 0.76348039
0.77401961 0.77401961 0.77401961
0.76666667 0.76666667 0.76666667
0.78370098 0.78370098 0.78370098
0.80588235 0.80588235 0.80588235
0.81519608 0.81519608 0.81519608
0.81666667 0.81666667 0.81666667
0.82058824 0.82058824 0.82058824
0.82352941 0.82352941 0.82352941
0.83909314 0.83909314 0.83909314
0.84607843 0.84607843 0.84607843
0.77058824 0.77058824 0.77058824
0.77205882 0.77205882 0.77205882
0.77267157 0.77267157 0.77267157
0.77205882 0.77205882 0.77205882
0.77205882 0.77205882 0.77205882
0.77058824 0.77058824 0.77058824
0.77058824 0.77058824 0.77058824
0.77058824 0.77058824 0.77058824
0.77205882 0.77205882 0.77205882
0.77751225 0.77751225 0.77751225
0.78272059 0.78272059 0.78272059
0.78970588 0.78970588 0.78970588
0.79019608 0.79019608 0.79019608
0.79460784 0.79460784 0.79460784
0.80490196 0.80490196 0.80490196
0.81078431 0.81078431 0.81078431
0.79509804 0.79509804 0.79509804
0.81121324 0.81121324 0.81121324
0.84215686 0.84215686 0.84215686
0.84754902 0.84754902 0.84754902
0.85073529 0.85073529 0.85073529
0.85147059 0.85147059 0.85147059
0.85147059 0.85147059 0.85147059
0.85245098 0.85245098 0.85245098
0.85098039 0.85098039 0.85098039
0.80784314 0.80784314 0.80784314
0.81176471 0.81176471 0.81176471
0.8127451 0.8127451 0.8127451
0.8122549 0.8122549 0.8122549
0.80980392 0.80980392 0.80980392
0.80735294 0.80735294 0.80735294
0.80392157 0.80392157 0.80392157
0.80539216 0.80539216 0.80539216
0.80784314 0.80784314 0.80784314
0.81421569 0.81421569 0.81421569
0.82058824 0.82058824 0.82058824
0.82696078 0.82696078 0.82696078
0.82745098 0.82745098 0.82745098
0.83137255 0.83137255 0.83137255
0.84215686 0.84215686 0.84215686
0.83627451 0.83627451 0.83627451
0.81568627 0.81568627 0.81568627
0.83333333 0.83333333 0.83333333
0.87058824 0.87058824 0.87058824
0.8745098 0.8745098 0.8745098
0.8745098 0.8745098 0.8745098
0.8745098 0.8745098 0.8745098
0.87058824 0.87058824 0.87058824
0.86127451 0.86127451 0.86127451
0.85490196 0.85490196 0.85490196
0.15686275 0.15686275 0.15686275
0.15686275 0.15686275 0.15686275
0.15686275 0.15686275 0.15686275
0.16029412 0.16029412 0.16029412
0.16078431 0.16078431 0.16078431
0.15686275 0.15686275 0.15686275
0.15686275 0.15686275 0.15686275
0.15294118 0.15294118 0.15294118
0.15294118 0.15294118 0.15294118
0.16323529 0.16323529 0.16323529
0.17316176 0.17316176 0.17316176
0.17990196 0.17990196 0.17990196
0.19019608 0.19019608 0.19019608
0.19871324 0.19871324 0.19871324
0.20870098 0.20870098 0.20870098
0.22408088 0.22408088 0.22408088
0.24313725 0.24313725 0.24313725
0.26127451 0.26127451 0.26127451
0.28039216 0.28039216 0.28039216
0.30098039 0.30098039 0.30098039
0.31887255 0.31887255 0.31887255
0.34313725 0.34313725 0.34313725
0.38284314 0.38284314 0.38284314
0.42101716 0.42101716 0.42101716
0.45098039 0.45098039 0.45098039
0.15686275 0.15686275 0.15686275
0.15686275 0.15686275 0.15686275
0.15686275 0.15686275 0.15686275
0.15686275 0.15686275 0.15686275
0.16078431 0.16078431 0.16078431
0.15686275 0.15686275 0.15686275
0.15686275 0.15686275 0.15686275
0.15294118 0.15294118 0.15294118
0.15294118 0.15294118 0.15294118
0.16323529 0.16323529 0.16323529
0.17352941 0.17352941 0.17352941
0.18334099 0.18334099 0.18334099
0.19172794 0.19172794 0.19172794
0.19982384 0.19982384 0.19982384
0.20931373 0.20931373 0.20931373
0.22591912 0.22591912 0.22591912
0.24466912 0.24466912 0.24466912
0.26372549 0.26372549 0.26372549
0.28431373 0.28431373 0.28431373
0.30354626 0.30354626 0.30354626
0.32129289 0.32129289 0.32129289
0.34608609 0.34608609 0.34608609
0.38321078 0.38321078 0.38321078
0.42101716 0.42101716 0.42101716
0.45251225 0.45251225 0.45251225
0.15686275 0.15686275 0.15686275
0.15686275 0.15686275 0.15686275
0.15686275 0.15686275 0.15686275
0.15686275 0.15686275 0.15686275
0.15686275 0.15686275 0.15686275
0.1569087 0.1569087 0.1569087
0.15710784 0.15710784 0.15710784
0.15723039 0.15723039 0.15723039
0.16176471 0.16176471 0.16176471
0.16813725 0.16813725 0.16813725
0.17843137 0.17843137 0.17843137
0.18926164 0.18926164 0.18926164
