site/assets/luts/sha256-68cafdb21e43389372e10c261994a936f8abd0ef445c6b11af11f59b6e6384c2.cube
# LUTr-Schema-Version: 2
# LUTr-ID: sha256-68cafdb21e43389372e10c261994a936f8abd0ef445c6b11af11f59b6e6384c2
# LUTr-Title: fuji superia 800
# LUTr-Collection: Natron HaldCLUT
# LUTr-Collection-ID: natron-haldclut-presets
# LUTr-Source: https://github.com/NatronGitHub/clut
# LUTr-Retrieved: 2026-07-27
# LUTr-Source-File: submissions/natron-haldclut-presets/negative_old/fuji_superia_800.png
# LUTr-Source-Format: HALD-PNG
# LUTr-Source-SHA256: 68cafdb21e43389372e10c261994a936f8abd0ef445c6b11af11f59b6e6384c2
# LUTr-License: CC-BY-SA-4.0
# LUTr-License-URL: https://github.com/NatronGitHub/clut#license
# LUTr-License-Basis: repo-license-file
# LUTr-Transform-Class: film-emulation
# LUTr-Tags: creative, film, film-emulation, hald-clut, natron, png, cube
# LUTr-Input-Color-Space: srgb
# LUTr-Input-Gamut: rec709
# LUTr-Input-Transfer: srgb
# LUTr-Output-Color-Space: srgb
# LUTr-Output-Gamut: rec709
# LUTr-Output-Transfer: srgb
# LUTr-Color-Space-Confidence: assumed-display-referred
# LUTr-Domain-Normalized: true
# LUTr-Shaper: none
# LUTr-Original-Grid: 64x64x64
# LUTr-Conversion-Grid: 25x25x25
# LUTr-Conversion-Interpolation: trilinear
# LUTr-Conversion-Method: HALD-PNG LUT image decoded at 16-bit and sampled to 25x25x25 3D CUBE
# LUTr-Conversion-Tool: LUTr scripts/convert-all-to-cube.mjs 2.0.0
# LUTr-Conversion-Date: 2026-07-27
# LUTr-Note: Preserve this metadata and the upstream license notices when redistributing.
TITLE "fuji superia 800"
LUT_3D_SIZE 9
DOMAIN_MIN 0 0 0
DOMAIN_MAX 1 1 1
0.0039215686 0.070588235 0.074509804
0.046078431 0.078431373 0.074509804
0.12647059 0.078431373 0.066666667
0.28676471 0.082352941 0.062745098
0.4627451 0.07254902 0.050980392
0.64019608 0.041666667 0.024509804
0.79215686 0.053921569 0
0.91519608 0.14607843 0
1 0.21568627 0.0039215686
0 0.11960784 0.081862745
0.023039216 0.12751225 0.081433824
0.15196078 0.12144608 0.082352941
0.2963848 0.12953431 0.054901961
0.4877451 0.13627451 0.043627451
0.64607843 0.1276348 0.046078431
0.79607843 0.13823529 0.0049019608
0.92254902 0.19558824 0.0039215686
0.99607843 0.26176471 0.0078431373
0 0.22843137 0.078431373
0.0037990196 0.24215686 0.090196078
0.14803922 0.25392157 0.044852941
0.35686275 0.26654412 0.043995098
0.52941176 0.25343137 0.026470588
0.68272059 0.24019608 0.01127451
0.81568627 0.26004902 0.0039215686
0.92696078 0.29203431 0.0039215686
0.98921569 0.32352941 0
0 0.42254902 0.1122549
0.0039215686 0.43645833 0.1127451
0.07254902 0.44178922 0.089583333
0.38333333 0.45784314 0.0023897059
0.59509804 0.45367647 0.0053921569
0.7245098 0.42107843 0.0078431373
0.83823529 0.40343137 0
0.93088235 0.40637255 0.010784314
0.98676471 0.43186275 0
0.0019607843 0.61960784 0.15882353
0.0075980392 0.62941176 0.17254902
0.034803922 0.62794118 0.16421569
0.35171569 0.6372549 0.081617647
0.58627451 0.64313725 0.0019607843
0.77254902 0.63970588 0.0019607843
0.85392157 0.58284314 0.0053921569
0.94460784 0.55661765 0.028431373
0.99215686 0.56078431 0.041176471
0 0.77058824 0.28039216
0.029718137 0.77420343 0.28823529
0.14497549 0.77058824 0.28186275
0.40098039 0.76911765 0.25980392
0.5877451 0.76666667 0.15759804
0.7283701 0.76519608 0.058333333
0.86102941 0.75637255 0.023406863
0.95410539 0.7286152 0.0075367647
1 0.71715686 0.068627451
0.34215686 0.86960784 0.4372549
0.33639706 0.86433824 0.43333333
0.41004902 0.86176471 0.4370098
0.50735294 0.86568627 0.43051471
0.61176471 0.86862745 0.40196078
0.72414216 0.86421569 0.35245098
0.84607843 0.86078431 0.25392157
0.95294118 0.86041667 0.15404412
0.99705882 0.84313725 0.20098039
0.56813725 0.93039216 0.60294118
0.56721814 0.92598039 0.60245098
0.60147059 0.93026961 0.60208333
0.65520833 0.93382353 0.61813725
0.6995098 0.93382353 0.6120098
0.75686275 0.92647059 0.57009804
0.83823529 0.92340686 0.5122549
0.91862745 0.92640931 0.46084559
0.98333333 0.92990196 0.39264706
0.72156863 0.97254902 0.73333333
0.73333333 0.97303922 0.74117647
0.74411765 0.97254902 0.74117647
0.74264706 0.96617647 0.71666667
0.78627451 0.96862745 0.7372549
0.81323529 0.96862745 0.72156863
0.85588235 0.97352941 0.71372549
0.90294118 0.97254902 0.68529412
0.94117647 0.97254902 0.65882353
0.0039215686 0.075 0.1127451
0.034313725 0.074509804 0.10882353
0.13235294 0.066666667 0.10490196
0.29442402 0.061090686 0.10490196
0.47034314 0.050245098 0.097058824
0.64246324 0.050857843 0.1004902
0.7817402 0.066789216 0.089093137
0.90784314 0.15 0.073039216
0.99215686 0.23480392 0.061764706
0.0039215686 0.12009804 0.12401961
0.022870711 0.12053462 0.1127451
0.15127145 0.11510417 0.11107537
0.30980392 0.13061428 0.11601562
0.47472426 0.13189338 0.10857843
0.64479167 0.12876072 0.10441176
0.79183517 0.14606311 0.09129902
0.91482077 0.19607843 0.072602635
0.99221814 0.26660539 0.064767157
0.0029411765 0.22781863 0.13970588
0.0039215686 0.23431373 0.13529412
0.15260417 0.23988971 0.11617647
0.34492953 0.23762255 0.1160386
0.52352941 0.2346201 0.11237745
0.67696078 0.2462163 0.1026348
0.81078431 0.27107843 0.091176471
0.92303922 0.29810049 0.072058824
0.99313725 0.34215686 0.064093137
0 0.41844363 0.16991422
0.0039215686 0.41846661 0.17224265
0.077619485 0.43823529 0.16314338
0.38903952 0.44951746 0.1025046
0.58792892 0.44166667 0.054871324
0.71452206 0.41323529 0.064705882
0.82745098 0.3975337 0.085294118
0.93137255 0.41372549 0.074509804
0.99411765 0.44068627 0.072058824
0.0058823529 0.61004902 0.24558824
0.008057598 0.62352941 0.24800858
0.11053922 0.61832108 0.22647059
0.37956495 0.62769608 0.18529412
0.58982843 0.63370098 0.087867647
0.74901961 0.62009804 0.02622549
0.86109069 0.58529412 0.021507353
0.94264706 0.55683211 0.07745098
0.99019608 0.56470588 0.098039216
0.018443627 0.76421569 0.32714461
0.076853554 0.77116268 0.32895987
0.264231 0.76556373 0.3339614
0.41006434 0.76293658 0.30802696
0.57515319 0.76495098 0.26127451
0.73656556 0.76666667 0.16029412
0.88080576 0.77100184 0.026884191
0.95204504 0.73192402 0.10056679
0.97677696 0.725 0.14050245
0.35637255 0.86164216 0.47843137
0.37725184 0.86078431 0.48224571
0.45039828 0.86568627 0.47892157
0.53480392 0.86435355 0.47117034
0.62346814 0.86568627 0.44607843
0.72665441 0.86470588 0.40390625
0.84473039 0.85759804 0.31988358
0.95119485 0.86176471 0.24716605
0.98443627 0.85796569 0.2495098
0.59417892 0.93039216 0.62941176
0.59411765 0.92647059 0.62941176
0.6245098 0.92679228 0.6254902
0.66231618 0.93039216 0.63069853
0.70710784 0.93039216 0.62328431
0.76233915 0.93039216 0.59640778
0.83431373 0.92598039 0.55
0.9221201 0.92604167 0.4877451
0.99558824 0.93474265 0.4338848
0.725 0.96862745 0.74068627
0.7372549 0.97254902 0.74901961
0.74497549 0.97254902 0.74460784
0.76666667 0.97383578 0.75245098
0.78455882 0.96911765 0.74166667
0.81176471 0.96715686 0.71960784
0.85588235 0.96911765 0.71629902
0.90686275 0.97254902 0.69313725
0.94166667 0.97254902 0.67843137
0.0078431373 0.070588235 0.2
0.045098039 0.063235294 0.1935049
0.14411765 0.081372549 0.19313725
0.29460784 0.068259804 0.2
0.48137255 0.021568627 0.19166667
0.64558824 0.0053921569 0.19215686
0.78406863 0.075490196 0.19411765
0.90784314 0.14926471 0.18823529
0.99215686 0.24215686 0.18823529
0.0078431373 0.11703431 0.20477941
0.030882353 0.11392463 0.20736826
0.14852941 0.12248775 0.20735294
0.30943627 0.13186275 0.21158088
0.49264706 0.080698529 0.20147059
0.65196078 0.10399816 0.20085784
0.7877451 0.15477941 0.20055147
0.91127451 0.20404412 0.19247855
0.99215686 0.27095588 0.19607843
0 0.22941176 0.2372549
0.026960784 0.22977941 0.23532475
0.17254902 0.23823529 0.23823529
0.35193015 0.24249387 0.22735907
0.52193627 0.23823529 0.22585784
0.67696078 0.2551777 0.21443015
0.80686275 0.26691176 0.20784314
0.91519608 0.30349265 0.20367647
0.98848039 0.34215686 0.20220588
0.0049019608 0.42830882 0.29509804
0.032245711 0.42107843 0.29509804
0.1919424 0.4192402 0.28324142
0.39878983 0.42389706 0.26199449
0.57420343 0.43578431 0.23431373
0.7044424 0.40332414 0.22254902
0.82325368 0.4004902 0.2192402
0.92703738 0.42205882 0.21360294
0.99754902 0.44901961 0.20637255
0.040686275 0.61421569 0.3504902
0.026593137 0.6252451 0.34381127
0.23651961 0.61629902 0.34044118
0.39957108 0.62009804 0.32242647
0.58455882 0.61813725 0.27647059
0.74436275 0.61029412 0.23167892
0.84509804 0.57328431 0.22401961
0.92922794 0.5629902 0.23284314
0.98823529 0.57647059 0.23284314
0.17781863 0.75772059 0.4254902
0.25459559 0.75935968 0.42830882
0.34313725 0.7627451 0.42536765
0.46997549 0.75545343 0.41689645
0.59264706 0.75343137 0.38400735
0.73929228 0.75905331 0.32435662
0.86632966 0.75318627 0.27022059
0.94451593 0.72694547 0.26862745
0.97610294 0.725 0.27254902
0.44534314 0.8625 0.53823529
0.45784314 0.85689338 0.54607843
0.51023284 0.86041667 0.55
0.56801471 0.86130515 0.54617034
0.64571078 0.85784314 0.53333333
0.7377451 0.85811887 0.48590686
0.84901961 0.85784314 0.4192402
0.94586397 0.85772059 0.36927083
0.98529412 0.84215686 0.36764706
0.62892157 0.92610294 0.67144608
0.63105086 0.92647059 0.66752451
0.64705882 0.92601103 0.66629902
0.68186275 0.92605699 0.67009804
0.72751225 0.92732843 0.66476716
0.77218137 0.92732843 0.64563419
0.84166667 0.92647059 0.60735294
0.91868873 0.92630208 0.55562194
0.98370098 0.92904412 0.50723039
0.74117647 0.96568627 0.76078431
0.74607843 0.96960784 0.76470588
0.75955882 0.97254902 0.76813725
0.77107843 0.96862745 0.76262255
0.80147059 0.96911765 0.77156863
0.825 0.96973039 0.75980392
0.8629902 0.96862745 0.74313725
0.90686275 0.97254902 0.72414216
0.94411765 0.97254902 0.70490196
0 0.062745098 0.30637255
0.01752451 0.066176471 0.30784314
0.15870098 0.07745098 0.31960784
0.3127451 0.070588235 0.33235294
0.4875 0.054166667 0.34166667
0.66170343 0.012745098 0.33927696
0.80784314 0.029779412 0.3189951
0.92726716 0.0070465686 0.29019608
0.99215686 0.15245098 0.29362745
0 0.12058824 0.32303922
0.018014706 0.12024357 0.32653186
0.16354167 0.13601409 0.3350337
0.32805607 0.1266008 0.34627757
0.50539216 0.11724877 0.34607843
0.67224265 0.099379596 0.34172794
0.81171875 0.023606005 0.3114277
0.9254902 0.079105392 0.29774816
0.99589461 0.26035539 0.30931373
0 0.22659314 0.34938725
0.0039215686 0.21605392 0.34963235
0.19117647 0.23342525 0.36032475
0.36168811 0.24143689 0.36568627
0.53039216 0.24871324 0.36329657
0.68500306 0.26323529 0.35657169
0.81112132 0.25098039 0.33615196
0.92156863 0.27634804 0.32683824
0.98970588 0.35502451 0.32352941
0.0039215686 0.41764706 0.40533088
0.034543505 0.40294118 0.39901961
0.24313725 0.4004902 0.40441176
0.40181526 0.4098652 0.4027114
0.55735294 0.40928309 0.38137255
0.69908088 0.39622396 0.36014859
0.81637561 0.40257353 0.35251225
0.92297028 0.4223652 0.34247089
0.99607843 0.46470588 0.3377451
0.18455882 0.60392157 0.4752451
0.25407475 0.60873162 0.47533701
0.34191176 0.59926471 0.46862745
0.45101103 0.59831495 0.45563725
0.59031863 0.60637255 0.42401961
0.7254902 0.58627451 0.39313725
0.83020833 0.5588848 0.37720588
0.92696078 0.56495098 0.36593137
0.99215686 0.58431373 0.37181373
0.39503676 0.74613971 0.55147059
0.42077206 0.75098039 0.55447304
0.45424326 0.75098039 0.54238664
0.52344516 0.74665288 0.53782935
0.61173407 0.74806985 0.51344975
0.73410692 0.74910386 0.47344516
0.85502451 0.73878676 0.43529412
0.9381204 0.71452206 0.41567862
0.99160539 0.71568627 0.41666667
0.53382353 0.85147059 0.63382353
0.55733762 0.8462163 0.63884804
0.57202819 0.85275735 0.6325674
0.61813725 0.85761336 0.62745098
0.67598039 0.85055147 0.62205882
0.74810049 0.85317096 0.59411765
0.85027574 0.85474877 0.53823529
0.94215686 0.85588235 0.49840686
0.99215686 0.83823529 0.4939951
0.6745098 0.91862745 0.72745098
0.67085631 0.91862745 0.71960784
0.68537071 0.92598039 0.72280944
0.7122549 0.9238894 0.72390472
0.74926471 0.92622549 0.72018995
0.7914905 0.92617187 0.70305607
0.84995404 0.92254902 0.66867341
0.92628676 0.92647059 0.64170496
0.98921569 0.93560049 0.60196078
0.75931373 0.96470588 0.78676471
0.77322304 0.97107843 0.79675245
0.76176471 0.96078431 0.78321078
0.784375 0.96378676 0.78921569
0.80784314 0.96544118 0.79093137
0.83921569 0.96862745 0.79313725
0.8682598 0.96862745 0.7807598
0.91439951 0.97254902 0.76599265
0.96078431 0.97254902 0.73431373
0 0.076470588 0.44509804
0.0017156863 0.070588235 0.44509804
0.17107843 0.074509804 0.44705882
0.33382353 0.069362745 0.4627451
0.49803922 0.034313725 0.47647059
0.64803922 0.047303922 0.47720588
0.81176471 0.10882353 0.48578431
0.93504902 0.1127451 0.46813725
0.99607843 0.12745098 0.4372549
0.0041666667 0.13210784 0.46029412
0.017922794 0.12818627 0.46029412
0.18780637 0.13235294 0.4625
0.35122549 0.12794118 0.47417279
0.50367647 0.13553922 0.48321078
0.66372549 0.15245098 0.48587623
0.81697304 0.1942402 0.49577206
0.93480392 0.17745098 0.47205882
0.99632353 0.19044118 0.44558824
0.0024509804 0.21862745 0.48039216
0.02064951 0.22542892 0.48529412
0.2060049 0.23480392 0.48737745
0.38278186 0.246875 0.49705882
0.53823529 0.26151961 0.50098039
0.68762255 0.27959559 0.50588235
0.81960784 0.30637255 0.50772059
0.93137255 0.29368873 0.47408088
0.99313725 0.28823529 0.44607843
0.0039215686 0.36029412 0.50490196
0.0057291667 0.36436887 0.51029412
0.21629902 0.36427696 0.50955882
0.40098039 0.3872549 0.52101716
0.55416667 0.40453431 0.52156863
0.69684436 0.41544118 0.51121324
0.81795343 0.41905637 0.49460784
0.92313113 0.41519608 0.47628676
0.99607843 0.42843137 0.46127451
0.083333333 0.5627451 0.55686275
0.21727941 0.5745098 0.56862745
0.35343137 0.57230392 0.56862745
0.47144608 0.57058824 0.56666667
0.58088235 0.56911765 0.55735294
0.70943627 0.56666667 0.53480392
0.82034314 0.5625 0.51372549
0.91911765 0.5627451 0.49607843
0.98921569 0.58823529 0.49607843
0.42156863 0.73995098 0.6370098
0.45759804 0.74313725 0.63823529
0.5158701 0.74258578 0.63897059
0.56421569 0.73192402 0.62898284
0.63529412 0.72622549 0.61997549
0.7333027 0.72426471 0.59574142
0.84289216 0.72328431 0.56789216
0.91951593 0.70137868 0.53756127
0.98823529 0.70710784 0.53627451
0.59313725 0.84607843 0.71176471
0.60563725 0.84601716 0.70882353
0.6377451 0.85036765 0.71642157
0.66078431 0.85122549 0.70300245
0.70612745 0.84901961 0.6995098
0.7620098 0.84607843 0.68210784
0.84791667 0.84607843 0.65490196
0.9247549 0.84025735 0.62420343
0.98578431 0.82696078 0.60245098
0.72671569 0.92205882 0.78112745
0.72454044 0.92230392 0.77745098
0.72444853 0.92058824 0.77352941
0.74656863 0.92205882 0.77352941
0.77352941 0.92230392 0.77058824
0.80793505 0.92190564 0.75750613
0.85318627 0.91862745 0.74258578
0.92230392 0.92254902 0.71302083
0.98431373 0.92696078 0.68995098
0.79019608 0.96470588 0.8254902
0.78529412 0.96029412 0.82107843
0.77156863 0.95 0.80686275
0.79901961 0.96004902 0.81617647
0.82941176 0.96960784 0.83039216
0.84852941 0.96470588 0.82352941
0.8754902 0.96617647 0.81666667
0.91642157 0.96911765 0.80196078
0.94313725 0.97254902 0.79019608
0.0039215686 0.08627451 0.59019608
0.030269608 0.083517157 0.58756127
0.2254902 0.087254902 0.59166667
0.37506127 0.093688725 0.60343137
0.51911765 0.063235294 0.60588235
0.66862745 0.032414216 0.61764706
0.80245098 0.1254902 0.61727941
0.92205882 0.25686275 0.63167892
0.99754902 0.35931373 0.64558824
0.014031863 0.14509804 0.59411765
0.083272059 0.14362745 0.59932598
0.2368413 0.14178922 0.60503983
0.38363971 0.13852635 0.61109069
0.53259804 0.14754902 0.61332721
0.67519148 0.15134038 0.62518382
0.81164216 0.18837316 0.62892157
0.91911765 0.28668045 0.63333333
0.99460784 0.37561275 0.64246324
0.015686275 0.23443627 0.60980392
0.11683517 0.24276961 0.61666667
0.25989583 0.23299632 0.61556373
0.40919118 0.24313725 0.62271752
0.54969363 0.25735294 0.62481618
0.68785233 0.27431066 0.63558517
0.80940564 0.32227328 0.6372549
0.91622243 0.39166667 0.64808517
0.99607843 0.43713235 0.64840686
0.0078431373 0.35735294 0.62493873
0.011167279 0.33871783 0.62579657
0.27124694 0.3627451 0.62663909
0.42156863 0.37661612 0.63578431
0.56424632 0.39534314 0.63802083
0.69607843 0.41799173 0.64731924
0.81470588 0.45919118 0.64901961
0.91501225 0.51555607 0.66194853
0.98633578 0.52303922 0.64319853
0.02377451 0.51544118 0.6495098
0.11871936 0.50980392 0.65318627
0.27769608 0.51078431 0.64981618
0.41957721 0.515625 0.64681373
0.56237745 0.53713235 0.6495098
0.7 0.56029412 0.66155025
0.81470588 0.58523284 0.65710784
0.91053922 0.59779412 0.64626225
0.98357843 0.61004902 0.63088235
0.35147059 0.70245098 0.70392157
0.39345129 0.70300245 0.70784314
0.48235294 0.71043199 0.70392157
0.54959406 0.7 0.70392157
0.62990196 0.70465686 0.69754902
0.7283701 0.71268382 0.69754902
0.82110907 0.71222426 0.68333333
0.90605852 0.70158548 0.66128217
0.95238971 0.70392157 0.65833333
0.59644608 0.8439951 0.76421569
0.61769301 0.84376532 0.76724877
0.64856005 0.84592525 0.76960784
0.68088235 0.84105392 0.76568627
0.72058824 0.8377451 0.76176471
0.77559743 0.83823529 0.75545343
0.83869485 0.83477328 0.73762255
0.91078431 0.81564032 0.71960784
0.97218137 0.81176471 0.69264706
0.73841912 0.92254902 0.82156863
0.73453585 0.91470588 0.82175245
0.74771752 0.91862745 0.81946998
0.7736443 0.91862745 0.81783088
0.79494485 0.91470588 0.81550245
0.82334559 0.91519608 0.81098346
0.86223958 0.91564032 0.8
0.91813725 0.92254902 0.78823529
0.97107843 0.91862745 0.76488971
0.81960784 0.96470588 0.86421569
0.81783088 0.96292892 0.86636029
0.82169118 0.96470588 0.86066176
0.82598039 0.96231618 0.85490196
0.84019608 0.96029412 0.85465686
0.86366422 0.96623775 0.85790441
0.88480392 0.96470588 0.8557598
0.92205882 0.96452206 0.84019608
0.96323529 0.975 0.83284314
0.10196078 0.10686275 0.7254902
0.19509804 0.11727941 0.71764706
0.31078431 0.099264706 0.72941176
0.43627451 0.095465686 0.72941176
0.5627451 0.090686275 0.73088235
0.69522059 0.11176471 0.7372549
0.80784314 0.15857843 0.7372549
0.90821078 0.22389706 0.74117647
0.98823529 0.36372549 0.74901961
0.14828431 0.15208333 0.72941176
0.21541054 0.16078431 0.72591912
0.31372549 0.15952819 0.73198529
0.44313725 0.15663297 0.73198529
0.56985294 0.1557598 0.73590686
0.70490196 0.18641238 0.73835784
0.81632966 0.22503064 0.74105392
0.91999081 0.28950674 0.75251225
0.98480392 0.40330882 0.75931373
0.17745098 0.25294118 0.7372549
0.23357843 0.24803922 0.74114583
0.33204657 0.25349265 0.7372549
0.45462623 0.25294118 0.73710172
0.57818627 0.2682598 0.74068627
0.7018076 0.29656863 0.74803922
0.81666667 0.33137255 0.75196078
0.91222426 0.38762255 0.75597426
0.9875 0.49191176 0.76764706
0.1372549 0.35098039 0.73835784
0.18079044 0.35704657 0.74117647
0.33272059 0.37248775 0.74329044
0.45882353 0.38163297 0.74425551
0.58529412 0.39748775 0.74852941
0.70868566 0.42009804 0.75340074
0.82264093 0.45009191 0.75980392
0.90744485 0.50932904 0.76372549
0.98186275 0.58026961 0.77401961
0.01127451 0.46960784 0.74411765
0.063909314 0.46905637 0.73872549
0.26678922 0.47990196 0.74056373
0.43547794 0.50171569 0.74693627
0.57352941 0.5247549 0.75220588
0.71207108 0.55422794 0.76053922
0.81752451 0.58137255 0.76372549
0.90557598 0.6245098 0.77696078
0.9754902 0.6622549 0.77401961
0.27659314 0.65208333 0.77205882
0.31706495 0.65784314 0.77205882
0.39313725 0.65254289 0.76813725
0.48310355 0.64598652 0.76629902
0.56758578 0.64889706 0.76090686
0.7 0.67696078 0.76806066
0.81862745 0.70784314 0.77922794
0.89901961 0.73118873 0.78333333
0.96323529 0.74607843 0.77745098
0.54142157 0.81004902 0.81397059
0.55707721 0.81461397 0.81151961
0.59093137 0.81544118 0.81372549
0.62882966 0.81041667 0.81176471
0.69460784 0.81213235 0.80723039
0.753125 0.8109375 0.80266544
0.83002451 0.82199755 0.80612745
0.90015319 0.8182598 0.79659926
0.96764706 0.80784314 0.77745098
0.73223039 0.91470588 0.85637255
0.73405331 0.91470588 0.85670956
0.74414828 0.91384804 0.86007966
0.7751685 0.91115196 0.86029412
0.80643382 0.91427696 0.85686275
0.82994792 0.91119792 0.85347733
0.86813725 0.91078431 0.85245098
0.91830576 0.91115196 0.84428615
0.95294118 0.90294118 0.82904412
0.82745098 0.96470588 0.89117647
0.82843137 0.96176471 0.89129902
0.8375 0.96470588 0.89509804
0.83664216 0.95355392 0.88786765
0.86176471 0.95833333 0.89411765
0.87696078 0.95931373 0.89154412
0.90294118 0.96470588 0.89509804
0.92696078 0.96519608 0.8872549
0.95294118 0.97254902 0.88039216
0.33284314 0.1622549 0.84901961
0.35974265 0.15098039 0.84852941
0.43223039 0.15992647 0.84068627
0.52175245 0.15802696 0.84589461
0.63921569 0.18676471 0.84681373
0.74264706 0.20882353 0.84852941
0.84264706 0.26323529 0.84852941
0.92745098 0.31764706 0.84503676
0.99215686 0.3627451 0.85196078
0.34448529 0.19705882 0.84852941
0.37794884 0.2004902 0.84460784
0.43555453 0.20075061 0.84198836
0.53069853 0.20882353 0.84095435
0.6370098 0.22671569 0.84310662
0.74019608 0.25157782 0.84852941
0.84656863 0.3004902 0.84977022
0.93785999 0.36355699 0.85245098
0.99215686 0.42352941 0.85245098
0.3627451 0.29264706 0.84852941
0.38944547 0.30098039 0.85159314
0.4497549 0.29898897 0.84852941
0.5346201 0.29528186 0.84822304
0.63872549 0.3185049 0.84754902
0.74264706 0.33492647 0.84848346
0.84313725 0.38192402 0.85245098
0.93019301 0.42826287 0.85637255
0.98051471 0.48468137 0.85637255
0.3403799 0.40079657 0.84460784
0.36236213 0.40487898 0.84460784
0.43198529 0.40467218 0.84073223
0.53088235 0.41519608 0.84460784
0.63504902 0.4252451 0.84852941
0.7411152 0.4495098 0.84852941
0.84129902 0.48279718 0.85245098
0.92320006 0.52628676 0.85418964
0.95637255 0.55980392 0.85245098
0.21911765 0.49313725 0.84068627
0.28679534 0.49534314 0.84068627
0.39068627 0.49810049 0.84460784
0.51145833 0.51976103 0.84460784
0.62291667 0.54019608 0.8504902
0.72941176 0.55327819 0.84981618
0.83480392 0.59583333 0.85245098
0.91323529 0.62696078 0.85588235
0.95245098 0.65686275 0.85612745
0.25765931 0.61666667 0.84981618
0.29463082 0.61666667 0.85
0.35214461 0.61666667 0.84607843
0.45098039 0.61978401 0.84460784
0.58538603 0.64656863 0.8484375
0.71470588 0.66501225 0.85202972
0.81764706 0.69848346 0.85637255
0.90181526 0.731947 0.86045496
0.95655637 0.75294118 0.86390931
0.48137255 0.78884804 0.86470588
0.50119485 0.78432904 0.86475184
0.5254902 0.78688725 0.86384804
0.58137255 0.78088235 0.86438419
0.64362745 0.77696078 0.86078431
0.70436581 0.77219669 0.85294118
0.80456495 0.79865196 0.86004902
0.90321691 0.81764706 0.86884191
0.95686275 0.81776961 0.86421569
0.67696078 0.89901961 0.8872549
0.68823529 0.90257353 0.8872549
0.70413603 0.90261949 0.89031863
0.72971814 0.89536612 0.89509804
0.77990196 0.89905025 0.89534314
0.82205882 0.90136336 0.89773284
0.85779718 0.89511336 0.89166667
0.91384038 0.89859069 0.89166667
0.96470588 0.89901961 0.88339461
0.81176471 0.96078431 0.92205882
0.81905637 0.95729167 0.91807598
0.83823529 0.96078431 0.92156863
0.85931373 0.96439951 0.92598039
0.86323529 0.95906863 0.92034314
0.89019608 0.96109069 0.92598039
0.90159314 0.95637255 0.92205882
0.92990196 0.96078431 0.91905637
0.96519608 0.97254902 0.92598039
0.54901961 0.30196078 0.94509804
0.55637255 0.30196078 0.94117647
0.59215686 0.31078431 0.93823529
0.66127451 0.32156863 0.94264706
0.73529412 0.34313725 0.9372549
0.80686275 0.36862745 0.92794118
0.88529412 0.42647059 0.93039216
0.9504902 0.47941176 0.92598039
0.98823529 0.49803922 0.9254902
0.54852941 0.33235294 0.94460784
0.55294118 0.33235294 0.9372549
0.58835784 0.33186275 0.93284314
0.65784314 0.3504902 0.93939951
0.73333333 0.37205882 0.93333333
0.81421569 0.40557598 0.93792892
0.88835784 0.44852941 0.93333333
0.95392157 0.50202206 0.93633578
0.98823529 0.52156863 0.92990196
0.54509804 0.40098039 0.93823529
0.56176471 0.40845588 0.94117647
0.58504902 0.3997549 0.93137255
0.63002451 0.39178922 0.91715686
0.73137255 0.43529412 0.93529412
0.80196078 0.44852941 0.92303922
0.88431373 0.50269608 0.93333333
0.94963235 0.54889706 0.93333333
0.99607843 0.58039216 0.93235294
0.54411765 0.49117647 0.94264706
0.55508578 0.49362745 0.9372549
0.58578431 0.48823529 0.93186275
0.66231618 0.509375 0.94215686
0.72867647 0.51838235 0.93578431
0.80202206 0.53823529 0.93241422
0.87316176 0.56433824 0.92757353
0.94215686 0.61372549 0.93480392
0.97745098 0.62401961 0.92401961
0.51372549 0.57647059 0.94117647
0.51642157 0.57426471 0.93504902
0.5754902 0.58333333 0.94019608
0.63627451 0.59264706 0.9372549
0.70392157 0.59803922 0.92941176
0.78946078 0.6245098 0.93333333
0.8627451 0.64754902 0.93284314
0.92647059 0.67132353 0.92377451
0.9745098 0.69803922 0.92156863
0.39852941 0.64460784 0.92892157
0.46047794 0.65539216 0.94332108
0.48137255 0.6504902 0.92732843
0.5745098 0.66568627 0.93143382
0.67156863 0.6872549 0.93333333
0.77064951 0.709375 0.9372549
0.85183824 0.72990196 0.93443627
0.9223652 0.75588235 0.93498775
0.97745098 0.77794118 0.93578431
0.51078431 0.78529412 0.91372549
0.53039216 0.79264706 0.94154412
0.54583333 0.77647059 0.92941176
0.58382353 0.77892157 0.93578431
0.65490196 0.77647059 0.92205882
0.73835784 0.78051471 0.94264706
0.83333333 0.80612745 0.9372549
0.91458333 0.8254902 0.93664216
0.97352941 0.84607843 0.94607843
0.68039216 0.90294118 0.94901961
0.68039216 0.89552696 0.94068627
0.69901961 0.89889706 0.94497549
0.71783088 0.89509804 0.94509804
0.74681373 0.89166667 0.94166667
0.78333333 0.88627451 0.94019608
0.83088235 0.88088235 0.94509804
0.89509804 0.8877451 0.94509804
0.96127451 0.90343137 0.93823529
0.8 0.96078431 0.9372549
0.79607843 0.94901961 0.92598039
0.80392157 0.94901961 0.93235294
0.81960784 0.96078431 0.95147059
0.84901961 0.96666667 0.9627451
0.89019608 0.96078431 0.93970588
0.89509804 0.94901961 0.93333333
0.9377451 0.96813725 0.96078431
0.96862745 0.9372549 0.95686275
