site/assets/luts/sha256-6024be35f655b6e1076065513863afff18aded1b545afb14c3c4b7c86ac0aa44.cube
# LUTr-Schema-Version: 2
# LUTr-ID: sha256-6024be35f655b6e1076065513863afff18aded1b545afb14c3c4b7c86ac0aa44
# LUTr-Title: 60's faded
# LUTr-Collection: Natron HaldCLUT
# LUTr-Collection-ID: natron-haldclut-presets
# LUTr-Source: https://github.com/NatronGitHub/clut
# LUTr-Retrieved: 2026-07-27
# LUTr-Source-File: submissions/natron-haldclut-presets/various/60's_faded.png
# LUTr-Source-Format: HALD-PNG
# LUTr-Source-SHA256: 6024be35f655b6e1076065513863afff18aded1b545afb14c3c4b7c86ac0aa44
# LUTr-License: CC-BY-SA-4.0
# LUTr-License-URL: https://github.com/NatronGitHub/clut#license
# LUTr-License-Basis: repo-license-file
# LUTr-Transform-Class: film-emulation
# LUTr-Tags: creative, film, film-emulation, hald-clut, natron, png, vintage, cube
# LUTr-Input-Color-Space: srgb
# LUTr-Input-Gamut: rec709
# LUTr-Input-Transfer: srgb
# LUTr-Output-Color-Space: srgb
# LUTr-Output-Gamut: rec709
# LUTr-Output-Transfer: srgb
# LUTr-Color-Space-Confidence: assumed-display-referred
# LUTr-Domain-Normalized: true
# LUTr-Shaper: none
# LUTr-Original-Grid: 64x64x64
# LUTr-Conversion-Grid: 25x25x25
# LUTr-Conversion-Interpolation: trilinear
# LUTr-Conversion-Method: HALD-PNG LUT image decoded at 16-bit and sampled to 25x25x25 3D CUBE
# LUTr-Conversion-Tool: LUTr scripts/convert-all-to-cube.mjs 2.0.0
# LUTr-Conversion-Date: 2026-07-27
# LUTr-Note: Preserve this metadata and the upstream license notices when redistributing.
TITLE "60's faded"
LUT_3D_SIZE 9
DOMAIN_MIN 0 0 0
DOMAIN_MAX 1 1 1
0.46666667 0.11372549 0.098039216
0.50931373 0.14901961 0.15588235
0.53529412 0.14313725 0.13431373
0.60245098 0.15735294 0.13382353
0.66470588 0.17254902 0.15294118
0.71813725 0.15588235 0.13921569
0.76862745 0.17058824 0.14607843
0.76029412 0.1877451 0.16372549
0.74901961 0.17647059 0.15294118
0.47794118 0.23235294 0.13921569
0.49846814 0.23431373 0.13866422
0.54313725 0.24068627 0.14718137
0.60275735 0.24589461 0.146875
0.66666667 0.25073529 0.14730392
0.72579657 0.25900735 0.15833333
0.76176471 0.26127451 0.15294118
0.77248775 0.278125 0.18106618
0.76078431 0.26127451 0.15686275
0.4627451 0.31568627 0.12352941
0.49019608 0.32095588 0.14019608
0.53921569 0.31960784 0.13039216
0.60098039 0.33394608 0.14914216
0.66911765 0.33039216 0.14411765
0.7245098 0.34215686 0.15147059
0.76397059 0.34705882 0.16053922
0.77107843 0.35428922 0.16458333
0.77254902 0.37058824 0.19215686
0.45882353 0.39460784 0.12205882
0.50526961 0.42297794 0.1713848
0.54203431 0.41311275 0.16372549
0.60435049 0.40490196 0.14264706
0.67058824 0.40490196 0.13357843
0.72359069 0.41770833 0.15655637
0.76568627 0.42058824 0.16323529
0.77647059 0.4245098 0.15833333
0.78039216 0.43235294 0.17401961
0.45098039 0.47254902 0.1254902
0.49705882 0.4745098 0.14705882
0.54313725 0.47892157 0.15147059
0.60882353 0.48308824 0.15514706
0.67058824 0.48235294 0.15490196
0.72181373 0.48112745 0.14779412
0.76960784 0.48627451 0.16078431
0.78088235 0.49068627 0.16127451
0.79803922 0.50588235 0.19215686
0.46029412 0.5377451 0.15196078
0.49754902 0.53578431 0.14491422
0.55098039 0.53835784 0.1504902
0.60882353 0.54411765 0.14957108
0.67573529 0.54019608 0.15661765
0.72696078 0.54264706 0.15447304
0.76960784 0.54411765 0.15686275
0.7870098 0.56090686 0.17493873
0.79607843 0.55196078 0.16323529
0.46666667 0.60196078 0.15686275
0.50147059 0.60220588 0.15502451
0.55269608 0.60514706 0.16029412
0.61482843 0.60477941 0.15808824
0.6745098 0.60490196 0.1622549
0.72696078 0.60159314 0.15441176
0.76960784 0.60098039 0.15220588
0.79215686 0.61372549 0.17990196
0.80784314 0.62156863 0.18823529
0.48088235 0.66960784 0.1995098
0.50140931 0.6588848 0.16378676
0.55882353 0.65919118 0.16556373
0.62077206 0.66084559 0.16715686
0.67843137 0.65416667 0.17328431
0.73216912 0.65588235 0.16911765
0.77745098 0.65588235 0.1620098
0.79656863 0.659375 0.17689951
0.81568627 0.6627451 0.18333333
0.45490196 0.64705882 0.16078431
0.52401961 0.62352941 0.2004902
0.56568627 0.6754902 0.19019608
0.64656863 0.64117647 0.20784314
0.70392157 0.70196078 0.21568627
0.75686275 0.65 0.20882353
0.80784314 0.65294118 0.21078431
0.80098039 0.67892157 0.17696078
0.83529412 0.68235294 0.23137255
0.44558824 0.25392157 0.21568627
0.45588235 0.28474265 0.20386029
0.52634804 0.25723039 0.21875
0.60147059 0.27481618 0.2473652
0.64166667 0.23431373 0.22426471
0.70637255 0.26372549 0.2307598
0.75441176 0.24852941 0.24080882
0.79859069 0.25386029 0.27561275
0.79901961 0.26911765 0.26470588
0.459375 0.29607843 0.24117647
0.49154412 0.30734528 0.25379902
0.55134804 0.31115196 0.26303615
0.61775429 0.31519608 0.26813725
0.67815564 0.32083333 0.27034314
0.73232996 0.33061428 0.27643229
0.78405331 0.34215686 0.28742341
0.79656097 0.34215686 0.28436734
0.81427696 0.35006127 0.29908088
0.43161765 0.37561275 0.24068627
0.48126532 0.39215686 0.2600337
0.54378064 0.39558824 0.25294118
0.6127451 0.39986213 0.26813725
0.67843137 0.40373775 0.27205882
0.73235294 0.40874694 0.27247243
0.78158701 0.41721814 0.28039216
0.80643382 0.42719056 0.28442096
0.8372549 0.4314951 0.28872549
0.45655637 0.46881127 0.26158088
0.51092984 0.47322304 0.26474418
0.54313725 0.47999387 0.26715686
0.6122549 0.4733992 0.26470588
0.68079044 0.48079044 0.27230392
0.73235294 0.47843137 0.27212776
0.77539828 0.49019608 0.27781863
0.80392157 0.49234069 0.28253676
0.83039216 0.49803922 0.28823529
0.4629902 0.52745098 0.26544118
0.50150123 0.53826593 0.26868873
0.55465686 0.53627451 0.26862745
0.61666667 0.54019608 0.27254902
0.68186275 0.54019608 0.2685049
0.73602941 0.54540441 0.27401961
0.78088235 0.55196078 0.28431373
0.81764706 0.55196078 0.28431373
0.84779412 0.5752451 0.30759804
0.44215686 0.57941176 0.25588235
0.50261183 0.60196078 0.27277114
0.55877757 0.59803922 0.27415748
0.621875 0.59803922 0.27616422
0.68030025 0.59724265 0.26862745
0.73235294 0.60055913 0.27254902
0.77999387 0.60966605 0.282981
0.81568627 0.61617647 0.28850337
0.84466912 0.62781863 0.30232843
0.43002451 0.64509804 0.26531863
0.5028799 0.65894608 0.27421875
0.55882353 0.65894608 0.27254902
0.6245098 0.65721507 0.27647059
0.68210784 0.65980392 0.28039216
0.73235294 0.65611213 0.27647059
0.7810049 0.65588235 0.28039216
0.82090993 0.65894608 0.28098958
0.85441176 0.67610294 0.29754902
0.46078431 0.69895833 0.27395833
0.51580882 0.71017923 0.28039216
0.56361826 0.70900735 0.28049939
0.63333333 0.70980392 0.28925398
0.68455882 0.70588235 0.28458946
0.73584559 0.70991115 0.28431373
0.78137255 0.70238971 0.28333333
0.81214001 0.70556066 0.28431373
0.84558824 0.72794118 0.30343137
0.46960784 0.67598039 0.31470588
0.54240196 0.74705882 0.33357843
0.5870098 0.73357843 0.31384804
0.66268382 0.75692402 0.32457108
0.71323529 0.72769608 0.31936275
0.77095588 0.73737745 0.32732843
0.78823529 0.73676471 0.29166667
0.83829657 0.70747549 0.32647059
0.87647059 0.76127451 0.34558824
0.40784314 0.33137255 0.3127451
0.46041667 0.32781863 0.31348039
0.52426471 0.325 0.32794118
0.58284314 0.32316176 0.32009804
0.65343137 0.33235294 0.33382353
0.70392157 0.32536765 0.33443627
0.75490196 0.33063725 0.34583333
0.79620098 0.36580882 0.35
0.79607843 0.35 0.36568627
0.41605392 0.36127451 0.3495098
0.50029105 0.37009804 0.36556373
0.55147059 0.37349877 0.36130515
0.62058824 0.36911765 0.37550551
0.68406863 0.37640931 0.37720588
0.73267463 0.38921569 0.37769608
0.78872549 0.39705882 0.38137255
0.81594669 0.40142463 0.39269301
0.86213235 0.42794118 0.4122549
0.40857843 0.43504902 0.35367647
0.48538603 0.44993873 0.36176471
0.55098039 0.45753676 0.36176471
0.6245098 0.45784314 0.37708333
0.68431373 0.46580882 0.38137255
0.73811275 0.47377451 0.38691789
0.79313725 0.47585784 0.38921569
0.8231924 0.48311887 0.39313725
0.86372549 0.49019608 0.39705882
0.42401961 0.50098039 0.34938725
0.47928922 0.52130821 0.36960784
0.5583027 0.52539828 0.37573529
0.62843137 0.53235294 0.38039216
0.68523284 0.53235294 0.37647059
0.74019608 0.5372549 0.38137255
0.78995098 0.54145221 0.38875613
0.81796875 0.55196078 0.39620098
0.86176471 0.57843137 0.41568627
0.40490196 0.55882353 0.34558824
0.49454657 0.57886029 0.37261029
0.56862745 0.5870098 0.38137255
0.62843137 0.59019608 0.3807598
0.68627451 0.59117647 0.37745098
0.74411765 0.5971201 0.38468137
0.79240196 0.60085784 0.38921569
0.83615196 0.60588235 0.39258578
0.87156863 0.60980392 0.39460784
0.42892157 0.62218137 0.35882353
0.49987745 0.64460784 0.37806373
0.57049632 0.64803922 0.38137255
0.62884498 0.64865196 0.38137255
0.68609069 0.65196078 0.38137255
0.73959865 0.65294118 0.38206189
0.78995098 0.65658701 0.38848039
0.83506434 0.66358762 0.39313725
0.85588235 0.66997549 0.40686275
0.41004902 0.6747549 0.35171569
0.50588235 0.70159314 0.37898284
0.56666667 0.70643382 0.38474265
0.63161765 0.70615809 0.38529412
0.68676471 0.70514706 0.38137255
0.74019608 0.70588235 0.38293505
0.78921569 0.70606618 0.38529412
0.83581495 0.70916054 0.39151348
0.84044118 0.72720588 0.41348039
0.42843137 0.73835784 0.37953431
0.50038297 0.74901961 0.38517157
0.56666667 0.75487132 0.38137255
0.63235294 0.75551471 0.38529412
0.69019608 0.75588235 0.38529412
0.74425551 0.75686275 0.38639706
0.78921569 0.75551471 0.38529412
0.83066789 0.75686275 0.39673713
0.86911765 0.7564951 0.39754902
0.46470588 0.76078431 0.39411765
0.53051471 0.79105392 0.42009804
0.58995098 0.76862745 0.41764706
0.67512255 0.80294118 0.43590686
0.72745098 0.77352941 0.43578431
0.77414216 0.80980392 0.41715686
0.82034314 0.80490196 0.41960784
0.84889706 0.77120098 0.42328431
0.89509804 0.7754902 0.44215686
0.425 0.37892157 0.41470588
0.46421569 0.38878676 0.41746324
0.52303922 0.36421569 0.41519608
0.59215686 0.37457108 0.41960784
0.65171569 0.36862745 0.42598039
0.69705882 0.36017157 0.42696078
0.75453431 0.37598039 0.43186275
0.79234069 0.36875 0.43235294
0.81323529 0.37892157 0.44558824
0.41188725 0.40814951 0.45079657
0.49366575 0.4196921 0.45945925
0.55968137 0.41911765 0.46594669
0.62003676 0.42065717 0.46170343
0.67852328 0.42833946 0.46096814
0.73872549 0.43756127 0.47401961
0.79299939 0.44019608 0.47794118
0.83562347 0.44052543 0.48551624
0.86452206 0.45998775 0.49901961
0.40379902 0.47389706 0.43578431
0.49964767 0.49852941 0.45441176
0.55882353 0.50585172 0.45833333
0.62311581 0.50637255 0.46202512
0.68235294 0.51213235 0.46617647
0.74019608 0.51790748 0.47401961
0.79411765 0.52169118 0.48112745
0.83040748 0.52389706 0.48178615
0.85870098 0.5379902 0.49105392
0.42052696 0.55882353 0.45140931
0.48271293 0.56421569 0.45833333
0.55992647 0.57035846 0.46294424
0.63235294 0.57301624 0.47009804
0.68900123 0.57916667 0.47009804
0.74115349 0.59201134 0.47794118
0.79705882 0.59166667 0.48394608
0.84227175 0.59166667 0.48578431
0.87941176 0.60735294 0.49901961
0.42303922 0.61617647 0.45
0.49304534 0.62598039 0.4622549
0.5627451 0.63259804 0.46617647
0.62843137 0.63382353 0.47009804
0.69215686 0.6377451 0.47401961
0.74803922 0.64120711 0.47794118
0.79705882 0.64485294 0.48186275
0.84249387 0.6495098 0.48578431
0.87401961 0.65539216 0.48848039
0.42990196 0.67058824 0.44509804
0.49822304 0.6877451 0.4622549
0.57169118 0.69027267 0.47009804
0.63439798 0.69377298 0.47401961
0.68795956 0.69558824 0.47625613
0.74411765 0.6970818 0.47794118
0.79705882 0.69989277 0.48186275
0.82676164 0.70606618 0.48314951
0.85582108 0.71219363 0.48670343
0.41801471 0.71213235 0.44264706
0.50935968 0.73730086 0.46617647
0.57414216 0.74166667 0.47401961
0.63627451 0.74460784 0.48094363
0.69068627 0.74883578 0.478125
0.74301471 0.7544424 0.47794118
0.79705882 0.75306373 0.48186275
0.83291973 0.75245098 0.48186275
0.86911765 0.76715686 0.49987745
0.42794118 0.76372549 0.45588235
0.516322 0.78333333 0.4740579
0.57179841 0.79154412 0.47401961
0.63646599 0.79166667 0.48186275
0.69803922 0.79509804 0.48186275
0.7504902 0.79901961 0.48186275
0.7957261 0.79901961 0.48137255
0.84393382 0.79166667 0.48562347
0.8504902 0.80998775 0.50618873
0.47009804 0.7627451 0.5
0.51715686 0.83382353 0.49852941
0.58553922 0.82561275 0.4879902
0.67702206 0.84466912 0.52408088
0.73480392 0.84240196 0.52181373
0.79607843 0.85343137 0.53529412
0.84080882 0.85196078 0.5317402
0.85459559 0.82077206 0.50637255
0.89362745 0.825 0.54019608
0.39019608 0.3627451 0.49215686
0.46568627 0.40882353 0.51004902
0.54019608 0.39411765 0.51911765
0.5995098 0.39485294 0.51495098
0.64901961 0.36568627 0.50196078
0.69632353 0.37254902 0.5
0.74754902 0.36960784 0.50245098
0.79264706 0.41642157 0.51568627
0.8372549 0.40588235 0.54117647
0.41985294 0.44215686 0.52818627
0.5004902 0.45955882 0.5426777
0.56648284 0.46323529 0.5471201
0.62974877 0.46602328 0.54730392
0.68615196 0.4622549 0.54779412
0.74739583 0.46985294 0.55906863
0.79448529 0.47726716 0.55882353
0.81764706 0.48504902 0.56102941
0.87622549 0.48676471 0.56911765
0.40882353 0.51666667 0.52156863
0.49362745 0.53719363 0.54491422
0.56666667 0.54117647 0.54791667
0.63235294 0.54491422 0.54901961
0.69019608 0.54509804 0.55098039
0.74803922 0.54957108 0.55539216
0.79705882 0.55294118 0.55882353
0.83406863 0.5625 0.56709559
0.85490196 0.5877451 0.59362745
0.42377451 0.5879902 0.52696078
0.50245098 0.60278799 0.54485294
0.57150735 0.60833333 0.55098039
0.63581495 0.61323529 0.55612745
0.69411765 0.61862745 0.55490196
0.74803922 0.62208946 0.55490196
0.79705882 0.62254902 0.56109069
0.84592525 0.62671569 0.56691176
0.84803922 0.65171569 0.59387255
0.43039216 0.65588235 0.54117647
0.50453431 0.66078431 0.55171569
0.57058824 0.66568627 0.55098039
0.63235294 0.66960784 0.55490196
0.69411765 0.67303922 0.55833333
0.75122549 0.67879902 0.56078431
0.80098039 0.68431373 0.56691176
0.84571078 0.68553922 0.56973039
0.8745098 0.69117647 0.57254902
0.43357843 0.70759804 0.54215686
0.49362745 0.71853554 0.54617034
0.57058824 0.7216299 0.55294118
0.63235294 0.72545956 0.5544424
0.69411765 0.72830882 0.56017157
0.74849877 0.73207721 0.56470588
0.80128676 0.73823529 0.57003676
0.83008578 0.73823529 0.57058824
0.86985294 0.75661765 0.58455882
0.45784314 0.75294118 0.53970588
0.51666667 0.76470588 0.55294118
0.5745098 0.77254902 0.55526961
0.63909314 0.77598039 0.56023284
0.6995098 0.77941176 0.56078431
0.75226716 0.78400735 0.56666667
0.80098039 0.78431373 0.56666667
0.84289216 0.78333333 0.56691176
0.88627451 0.79313725 0.58137255
0.43284314 0.78333333 0.52769608
0.51050858 0.8122549 0.54877451
0.57971814 0.82205882 0.55882353
0.64142157 0.81691176 0.5627451
0.70196078 0.81948529 0.56482843
0.75514706 0.82598039 0.56666667
0.80490196 0.82653186 0.56862745
0.84142157 0.82990196 0.56862745
0.87745098 0.84019608 0.58235294
0.42156863 0.82156863 0.52745098
0.53382353 0.83039216 0.59338235
0.59411765 0.85882353 0.58088235
0.66789216 0.86176471 0.59240196
0.70686275 0.84901961 0.57254902
0.79019608 0.86887255 0.60612745
0.82696078 0.86813725 0.59803922
0.84411765 0.86617647 0.5872549
0.84509804 0.87843137 0.59803922
0.40637255 0.43284314 0.56568627
0.4721201 0.41439951 0.5971201
0.54669118 0.44436275 0.58639706
0.59497549 0.40686275 0.57879902
0.65245098 0.40098039 0.57377451
0.69650735 0.40784314 0.57493873
0.74644608 0.40294118 0.56911765
0.80116422 0.41783088 0.58400735
0.85588235 0.46127451 0.62107843
0.42285539 0.48039216 0.59834559
0.50704657 0.4995098 0.61991422
0.57758885 0.50343137 0.62254902
0.63694087 0.50042892 0.62321538
0.69549632 0.50088848 0.62254902
0.74815411 0.51011029 0.62616422
0.79375 0.50980392 0.62647059
0.83390778 0.51417739 0.63057598
0.84785539 0.53106618 0.64754902
0.41911765 0.55968137 0.60441176
0.49938725 0.57598039 0.61920956
0.57306985 0.57990196 0.62254902
0.63682598 0.58321078 0.62365196
0.69411765 0.5810049 0.62254902
0.75159314 0.57990196 0.62647059
0.79595588 0.5870098 0.62882966
0.83916973 0.59468444 0.63431373
0.87058824 0.60588235 0.64497549
0.4341299 0.62052696 0.60140931
0.5127451 0.64136029 0.61862745
0.5745098 0.64558824 0.62254902
0.63719363 0.65251225 0.62647059
0.69803922 0.65196078 0.62647059
0.75253523 0.65100337 0.62738971
0.79705882 0.65735294 0.63039216
0.84345129 0.66261489 0.6346201
0.87996324 0.68088235 0.65392157
0.41372549 0.67205882 0.58995098
0.51657475 0.69623162 0.61862745
0.57843137 0.70147059 0.62254902
0.63627451 0.70977328 0.62647059
0.69742647 0.71127451 0.63039216
0.75857843 0.71351103 0.63039216
0.80147059 0.71568627 0.63431373
0.8486826 0.71911765 0.63823529
0.87794118 0.72696078 0.64681373
0.43676471 0.73529412 0.60741422
0.51488971 0.74792433 0.61862745
0.57598039 0.74937194 0.62254902
0.63627451 0.76127451 0.62647059
0.69727328 0.76400123 0.63039216
0.75196078 0.7661152 0.63431373
0.80448836 0.76911765 0.63823529
0.83480392 0.77303922 0.63823529
0.86819853 0.77996324 0.64754902
0.4372549 0.78578431 0.60588235
0.51752451 0.79829963 0.62210478
0.57843137 0.80343137 0.62254902
0.64186581 0.80637255 0.63039216
0.70765931 0.80594363 0.63339461
0.75588235 0.81519608 0.63823529
0.80490196 0.81421569 0.63823529
0.83481924 0.81925551 0.63855699
0.88235294 0.8317402 0.64963235
0.42107843 0.82254902 0.6
0.52432598 0.84466912 0.6221201
0.58284314 0.84924939 0.63088235
0.6471201 0.85343137 0.63039216
0.70588235 0.86063113 0.64200368
0.75618873 0.85979626 0.64215686
0.80490196 0.85735294 0.63970588
0.82775735 0.86094516 0.64215686
0.88057598 0.88314951 0.66078431
0.45196078 0.8254902 0.6245098
0.52702206 0.8872549 0.64889706
0.61323529 0.88210784 0.66053922
0.68823529 0.90349265 0.67205882
0.7122549 0.87916667 0.64264706
0.7754902 0.88627451 0.65637255
0.83627451 0.90159314 0.67401961
0.87175245 0.89332108 0.67156863
0.88676471 0.88921569 0.65931373
0.39411765 0.43333333 0.63039216
0.48590686 0.46605392 0.66421569
0.53651961 0.45857843 0.64142157
0.60833333 0.4504902 0.65465686
0.66470588 0.45294118 0.65147059
0.72647059 0.4745098 0.66482843
0.74681373 0.44411765 0.63333333
0.79301471 0.45637255 0.64852941
0.83529412 0.47745098 0.66666667
0.44852941 0.51470588 0.66127451
0.50658701 0.54100797 0.6917739
0.58235294 0.54068627 0.68823529
0.64411765 0.5376685 0.69117647
0.6995098 0.54123775 0.69117647
0.74689032 0.54496017 0.6845435
0.78884804 0.54068627 0.68581495
0.8317402 0.54509804 0.68920037
0.84080882 0.56127451 0.7057598
0.45171569 0.60196078 0.67941176
0.51666667 0.61078431 0.68011642
0.58235294 0.61470588 0.68823529
0.64463848 0.62181373 0.68823529
0.7 0.61862745 0.68823529
0.75168505 0.61470588 0.68823529
0.79240196 0.61862745 0.68841912
0.83584559 0.62254902 0.69215686
0.86862745 0.63602941 0.70490196
0.45882353 0.66213235 0.67561275
0.50200674 0.67904412 0.68468137
0.57870711 0.68223039 0.68529412
0.64473039 0.68431373 0.68823529
0.70386029 0.68431373 0.68884804
0.75588235 0.68376225 0.68823529
0.79705882 0.68658088 0.69215686
0.83578431 0.69215686 0.69607843
0.86458333 0.71078431 0.71470588
0.45490196 0.71519608 0.66519608
0.52218137 0.72824755 0.68039216
0.58235294 0.73431373 0.68431373
0.64509804 0.74019608 0.68823529
0.70686275 0.74411765 0.69387255
0.75851716 0.74215686 0.69607843
0.80098039 0.74607843 0.69607843
0.8439951 0.74957108 0.7
0.87058824 0.76862745 0.72058824
0.45833333 0.76176471 0.66960784
0.52850797 0.77647059 0.68431373
0.58324142 0.78284314 0.68431373
0.64509804 0.78976716 0.68884804
0.70496324 0.79607843 0.69607843
0.75980392 0.79894301 0.7
0.80196078 0.79852941 0.70082721
0.83609069 0.8 0.70392157
0.86911765 0.80392157 0.70392157
0.45294118 0.82156863 0.67647059
0.51629902 0.83005515 0.68431373
0.58216912 0.8338848 0.68504902
0.64803922 0.8372549 0.69215686
0.70588235 0.84117647 0.7
0.75980392 0.84509804 0.7
0.80716912 0.84607843 0.70453431
0.84362745 0.84978554 0.70392157
0.83651961 0.85710784 0.7120098
0.44816176 0.85441176 0.6627451
0.52634804 0.87254902 0.68431373
0.58284314 0.87193627 0.69065564
0.65196078 0.87598039 0.69607843
0.7098652 0.88382353 0.70128676
0.75988051 0.89185049 0.69995404
0.80882353 0.89077819 0.70784314
0.83723958 0.89154412 0.70784314
0.86213235 0.89901961 0.71531863
0.48039216 0.83235294 0.69117647
0.53860294 0.84068627 0.70919118
0.59803922 0.8620098 0.70882353
0.66519608 0.86311275 0.71813725
0.71617647 0.87843137 0.71029412
0.78137255 0.90245098 0.72205882
0.8129902 0.9127451 0.7120098
0.86066176 0.90196078 0.73272059
0.84215686 0.90294118 0.73529412
0.46862745 0.54117647 0.71813725
0.48707108 0.52383578 0.70821078
0.58443627 0.52843137 0.75526961
0.62205882 0.54393382 0.7213848
0.67573529 0.49803922 0.71813725
0.72794118 0.50618873 0.72579657
0.77242647 0.54105392 0.72144608
0.79754902 0.55079657 0.72493873
0.85588235 0.54019608 0.75245098
0.4754902 0.57604167 0.7495098
0.52892157 0.5754902 0.75386795
0.59019608 0.57598039 0.75117953
0.64803922 0.57555147 0.75
0.70196078 0.57619485 0.75
0.75226716 0.57974112 0.75059743
0.79324449 0.57598039 0.75
0.82831648 0.58333333 0.74656863
0.82542892 0.59172794 0.75735294
0.47647059 0.64031863 0.74607843
0.52859988 0.64166667 0.75
0.59019608 0.64558824 0.75355392
0.65196078 0.6495098 0.75
0.70759804 0.6495098 0.75
0.75611213 0.64918811 0.75392157
0.79705882 0.64558824 0.75392157
0.8317402 0.6495098 0.75392157
0.84215686 0.65441176 0.75796569
0.475 0.68970588 0.73020833
0.536803 0.70296415 0.75343137
0.59229473 0.70735294 0.75392157
0.65618873 0.71127451 0.75392157
0.71504289 0.71127451 0.75392157
0.76145067 0.71127451 0.75392157
0.80098039 0.71519608 0.75784314
0.83513327 0.71911765 0.75426624
0.84338235 0.72058824 0.75747549
0.48284314 0.76102941 0.74436275
0.54341299 0.75931373 0.74828431
0.59460784 0.76452206 0.75306373
0.65612745 0.76822917 0.75422794
0.71764706 0.77279412 0.75784314
0.76387868 0.77303922 0.75784314
0.80490196 0.77303922 0.75980392
0.82910539 0.7747549 0.75808824
0.83014706 0.77867647 0.76568627
0.50294118 0.80735294 0.74607843
0.54117647 0.80922947 0.74607843
0.59050245 0.81341912 0.75
0.65196078 0.81653646 0.75411305
0.70980392 0.82156863 0.75989583
0.76372549 0.82384344 0.76176471
0.8009038 0.82518382 0.76305147
0.82902114 0.8254902 0.76568627
0.83884804 0.83431373 0.77089461
0.50343137 0.85294118 0.74264706
0.54204963 0.85712316 0.74607843
0.59019608 0.86020221 0.75
0.65196078 0.86421569 0.75392157
0.70980392 0.86776961 0.76176471
0.76456801 0.87008272 0.76568627
0.81372549 0.87598039 0.76960784
0.80266544 0.87561275 0.76568627
0.81151961 0.87647059 0.76654412
0.50490196 0.88431373 0.73143382
0.55294118 0.89901961 0.74607843
0.59411765 0.89901961 0.75004596
0.65196078 0.90686275 0.75392157
0.71050858 0.90689338 0.76176471
0.76764706 0.91109069 0.76568627
0.81666667 0.91078431 0.77320772
0.83229167 0.92254902 0.76960784
0.84307598 0.92598039 0.77395833
0.54656863 0.92254902 0.75392157
0.56917892 0.91868873 0.75441176
0.59031863 0.92683824 0.75686275
0.66145833 0.90140931 0.76862745
0.72279412 0.89926471 0.7747549
0.77628676 0.88927696 0.78529412
0.82218137 0.90931373 0.78357843
0.81317402 0.92401961 0.7838848
0.80686275 0.91666667 0.78088235
0.49019608 0.56078431 0.78039216
0.55147059 0.57254902 0.80343137
0.5745098 0.57254902 0.75588235
0.65196078 0.55784314 0.8
0.69019608 0.56666667 0.77647059
0.73284314 0.59411765 0.77941176
0.8 0.55 0.77941176
0.80833333 0.59313725 0.78088235
0.83529412 0.55294118 0.78039216
0.54852941 0.60735294 0.80392157
0.56017157 0.60680147 0.8033701
0.59411765 0.60588235 0.79509804
0.64822304 0.60453431 0.79522059
0.70588235 0.59901961 0.78627451
0.75980392 0.61029412 0.8036152
0.80098039 0.60379902 0.80784314
0.82009804 0.6028799 0.80680147
0.82745098 0.60245098 0.81176471
0.5372549 0.65392157 0.78137255
0.56029412 0.66384804 0.79914216
0.59509804 0.67867647 0.80857843
0.65196078 0.67254902 0.80784314
0.70980392 0.67205882 0.80343137
0.75980392 0.67708333 0.81458333
0.80098039 0.66862745 0.79926471
0.82267157 0.67254902 0.80404412
0.81666667 0.67254902 0.80490196
0.51764706 0.72892157 0.79460784
0.55833333 0.72794118 0.8036152
0.60294118 0.72794118 0.80539216
0.65980392 0.72984069 0.79889706
0.71764706 0.73431373 0.80784314
0.76617647 0.73970588 0.81715686
0.80490196 0.73039216 0.8
0.82352941 0.73480392 0.8026348
0.80490196 0.73823529 0.80490196
0.56470588 0.77647059 0.79607843
0.57401961 0.79166667 0.80931373
0.60196078 0.78039216 0.79313725
0.65980392 0.78823529 0.8129902
0.72156863 0.79509804 0.81862745
0.7629902 0.79534314 0.81887255
0.80098039 0.79264706 0.80931373
0.82352941 0.7995098 0.82107843
0.80588235 0.79215686 0.80980392
0.58970588 0.825 0.8
0.57647059 0.8341299 0.80392157
0.60870098 0.83431373 0.80857843
0.65588235 0.83823529 0.81568627
0.71372549 0.84215686 0.81764706
0.76617647 0.84552696 0.81813725
0.80245098 0.84313725 0.80637255
0.81942402 0.8495098 0.82071078
0.82352941 0.84607843 0.82352941
0.58235294 0.87254902 0.79313725
0.58382353 0.88296569 0.81029412
0.60294118 0.87941176 0.80465686
0.65588235 0.8872549 0.82107843
0.71470588 0.8877451 0.81813725
0.77156863 0.89509804 0.82352941
0.80882353 0.89509804 0.82352941
0.81617647 0.89215686 0.81875
0.79509804 0.89509804 0.81960784
0.5877451 0.91372549 0.79166667
0.58523284 0.92254902 0.80833333
0.59901961 0.92205882 0.81127451
0.65618873 0.92205882 0.80030637
0.72156863 0.92990196 0.82107843
0.77530637 0.93382353 0.82481618
0.8127451 0.9377451 0.83002451
0.82359069 0.94215686 0.82751225
0.77696078 0.9377451 0.82352941
0.62352941 0.95686275 0.81568627
0.58823529 0.94558824 0.7995098
0.59803922 0.95588235 0.79215686
0.65980392 0.96470588 0.81470588
0.71764706 0.96666667 0.80784314
0.76764706 0.95931373 0.79705882
0.81176471 0.96176471 0.79803922
0.80686275 0.97156863 0.81470588
0.81568627 0.97647059 0.82745098
