site/assets/luts/sha256-33c0ec3aa0b5a9c2e486e30c80bce72eba92d240003f09d36f488a1d26158fbd.cube
# LUTr-Schema-Version: 2
# LUTr-ID: sha256-33c0ec3aa0b5a9c2e486e30c80bce72eba92d240003f09d36f488a1d26158fbd
# LUTr-Title: polaroid px-70
# LUTr-Collection: Natron HaldCLUT
# LUTr-Collection-ID: natron-haldclut-presets
# LUTr-Source: https://github.com/NatronGitHub/clut
# LUTr-Retrieved: 2026-07-27
# LUTr-Source-File: submissions/natron-haldclut-presets/instant_consumer/polaroid_px-70.png
# LUTr-Source-Format: HALD-PNG
# LUTr-Source-SHA256: 33c0ec3aa0b5a9c2e486e30c80bce72eba92d240003f09d36f488a1d26158fbd
# LUTr-License: CC-BY-SA-4.0
# LUTr-License-URL: https://github.com/NatronGitHub/clut#license
# LUTr-License-Basis: repo-license-file
# LUTr-Transform-Class: film-emulation
# LUTr-Tags: creative, film, film-emulation, hald-clut, natron, png, cube
# LUTr-Input-Color-Space: srgb
# LUTr-Input-Gamut: rec709
# LUTr-Input-Transfer: srgb
# LUTr-Output-Color-Space: srgb
# LUTr-Output-Gamut: rec709
# LUTr-Output-Transfer: srgb
# LUTr-Color-Space-Confidence: assumed-display-referred
# LUTr-Domain-Normalized: true
# LUTr-Shaper: none
# LUTr-Original-Grid: 64x64x64
# LUTr-Conversion-Grid: 25x25x25
# LUTr-Conversion-Interpolation: trilinear
# LUTr-Conversion-Method: HALD-PNG LUT image decoded at 16-bit and sampled to 25x25x25 3D CUBE
# LUTr-Conversion-Tool: LUTr scripts/convert-all-to-cube.mjs 2.0.0
# LUTr-Conversion-Date: 2026-07-27
# LUTr-Note: Preserve this metadata and the upstream license notices when redistributing.
TITLE "polaroid px-70"
LUT_3D_SIZE 5
DOMAIN_MIN 0 0 0
DOMAIN_MAX 1 1 1
0 0.17254902 0.20784314
0.0039215686 0.16078431 0.20392157
0.31176471 0.17254902 0.20784314
0.83333333 0.3127451 0.18823529
0.99215686 0.55294118 0.23529412
0 0.23627451 0.20784314
0.006127451 0.21862745 0.20392157
0.42598039 0.27303922 0.19705882
0.83995098 0.41666667 0.17254902
0.98431373 0.5872549 0.20392157
0.01372549 0.52156863 0.2
0.01127451 0.51568627 0.19411765
0.53431373 0.56078431 0.16862745
0.84117647 0.62745098 0.14019608
0.94117647 0.67058824 0.19803922
0.48431373 0.80196078 0.27843137
0.51348039 0.78333333 0.28504902
0.66960784 0.79215686 0.30392157
0.82941176 0.80294118 0.30416667
0.9254902 0.82254902 0.36372549
0.78823529 0.90980392 0.50588235
0.80392157 0.90980392 0.51372549
0.81960784 0.90588235 0.50784314
0.87941176 0.92156863 0.53039216
0.9372549 0.9372549 0.55686275
0 0.17254902 0.22254902
0.0031862745 0.16862745 0.21568627
0.35882353 0.17401961 0.23431373
0.86004902 0.34681373 0.26102941
0.99215686 0.59803922 0.32254902
0 0.21764706 0.22647059
0.057046569 0.246875 0.23259804
0.47022059 0.29656863 0.24215686
0.86887255 0.45588235 0.24981618
0.97254902 0.6129902 0.30392157
0.06127451 0.55441176 0.24852941
0.1995098 0.53480392 0.2432598
0.5875 0.57573529 0.24607843
0.85698529 0.6377451 0.24007353
0.96078431 0.70294118 0.30735294
0.5372549 0.79803922 0.34313725
0.57297794 0.78627451 0.34534314
0.69803922 0.79656863 0.35490196
0.8372549 0.80980392 0.36329657
0.93235294 0.8254902 0.40098039
0.79901961 0.91372549 0.51666667
0.80367647 0.90980392 0.51593137
0.82745098 0.90980392 0.52156863
0.88235294 0.92156863 0.5372549
0.93823529 0.9372549 0.56078431
0.0058823529 0.18431373 0.3
0.17598039 0.20196078 0.30784314
0.49215686 0.29411765 0.33921569
0.86176471 0.32009804 0.39852941
0.97647059 0.58039216 0.43921569
0.0053921569 0.28823529 0.34460784
0.2314951 0.31715686 0.34693627
0.56789216 0.41053922 0.35808824
0.8622549 0.48884804 0.41029412
0.95686275 0.68431373 0.47647059
0.18431373 0.57745098 0.3745098
0.36323529 0.56862745 0.37156863
0.68088235 0.63137255 0.39901961
0.86151961 0.69313725 0.43431373
0.94509804 0.75098039 0.45882353
0.6245098 0.79509804 0.44705882
0.68051471 0.80196078 0.44901961
0.74117647 0.80245098 0.45343137
0.84509804 0.81470588 0.46421569
0.9254902 0.83333333 0.47990196
0.82352941 0.92156863 0.54705882
0.82156863 0.91372549 0.54313725
0.84607843 0.91764706 0.54705882
0.89068627 0.92303922 0.55882353
0.94313725 0.94117647 0.5745098
0.39019608 0.29509804 0.5372549
0.5502451 0.32328431 0.54338235
0.77892157 0.54264706 0.53627451
0.87647059 0.69093137 0.53921569
0.94313725 0.70392157 0.55
0.43137255 0.42818627 0.55294118
0.57371324 0.47352941 0.54313725
0.78235294 0.60784314 0.54313725
0.87254902 0.72058824 0.54142157
0.9372549 0.72352941 0.54705882
0.35833333 0.64656863 0.53137255
0.49742647 0.64852941 0.53137255
0.7620098 0.70514706 0.53921569
0.8754902 0.78051471 0.55061275
0.925 0.8004902 0.56176471
0.66666667 0.80980392 0.53431373
0.69117647 0.80588235 0.53449755
0.76960784 0.81372549 0.54215686
0.86599265 0.83094363 0.55392157
0.92941176 0.85612745 0.56593137
0.82254902 0.91764706 0.57254902
0.82720588 0.91372549 0.57352941
0.86617647 0.9254902 0.58039216
0.90294118 0.93333333 0.58995098
0.94901961 0.93921569 0.59705882
0.79607843 0.69803922 0.63921569
0.82352941 0.71764706 0.63627451
0.87647059 0.77058824 0.62352941
0.92254902 0.84411765 0.61568627
0.94901961 0.8745098 0.61176471
0.80196078 0.73823529 0.63921569
0.82426471 0.75245098 0.63431373
0.87254902 0.78627451 0.62352941
0.91862745 0.84411765 0.61176471
0.95294118 0.88529412 0.61960784
0.77647059 0.78431373 0.62745098
0.79754902 0.78431373 0.62745098
0.85980392 0.81372549 0.62352941
0.91470588 0.85980392 0.61568627
0.94509804 0.9 0.61960784
0.74215686 0.84411765 0.61176471
0.7502451 0.84191176 0.61568627
0.80098039 0.84607843 0.60735294
0.90196078 0.88333333 0.62352941
0.94117647 0.90980392 0.61568627
0.85098039 0.94509804 0.63529412
0.85 0.93627451 0.63039216
0.8745098 0.94117647 0.6372549
0.90588235 0.93333333 0.62745098
0.95294118 0.95294118 0.65098039
