site/assets/luts/sha256-babe8e4e438734da32e891cb31653dac8963fec41c518c868edef2b725021063.cube
# LUTr-Schema-Version: 2
# LUTr-ID: sha256-babe8e4e438734da32e891cb31653dac8963fec41c518c868edef2b725021063
# LUTr-Title: kodak hie (hs infra)
# LUTr-Collection: Natron HaldCLUT
# LUTr-Collection-ID: natron-haldclut-presets
# LUTr-Source: https://github.com/NatronGitHub/clut
# LUTr-Retrieved: 2026-07-27
# LUTr-Source-File: submissions/natron-haldclut-presets/bw/kodak_hie_(hs_infra).png
# LUTr-Source-Format: HALD-PNG
# LUTr-Source-SHA256: babe8e4e438734da32e891cb31653dac8963fec41c518c868edef2b725021063
# LUTr-License: CC-BY-SA-4.0
# LUTr-License-URL: https://github.com/NatronGitHub/clut#license
# LUTr-License-Basis: repo-license-file
# LUTr-Transform-Class: film-emulation
# LUTr-Tags: creative, film, film-emulation, hald-clut, natron, png, cube
# LUTr-Input-Color-Space: srgb
# LUTr-Input-Gamut: rec709
# LUTr-Input-Transfer: srgb
# LUTr-Output-Color-Space: srgb
# LUTr-Output-Gamut: rec709
# LUTr-Output-Transfer: srgb
# LUTr-Color-Space-Confidence: assumed-display-referred
# LUTr-Domain-Normalized: true
# LUTr-Shaper: none
# LUTr-Original-Grid: 64x64x64
# LUTr-Conversion-Grid: 25x25x25
# LUTr-Conversion-Interpolation: trilinear
# LUTr-Conversion-Method: HALD-PNG LUT image decoded at 16-bit and sampled to 25x25x25 3D CUBE
# LUTr-Conversion-Tool: LUTr scripts/convert-all-to-cube.mjs 2.0.0
# LUTr-Conversion-Date: 2026-07-27
# LUTr-Note: Preserve this metadata and the upstream license notices when redistributing.
TITLE "kodak hie (hs infra)"
LUT_3D_SIZE 25
DOMAIN_MIN 0 0 0
DOMAIN_MAX 1 1 1
0.011764706 0.011764706 0.011764706
0.03872549 0.03872549 0.03872549
0.069607843 0.069607843 0.069607843
0.1004902 0.1004902 0.1004902
0.1254902 0.1254902 0.1254902
0.15882353 0.15882353 0.15882353
0.2 0.2 0.2
0.24509804 0.24509804 0.24509804
0.29019608 0.29019608 0.29019608
0.33529412 0.33529412 0.33529412
0.39019608 0.39019608 0.39019608
0.44852941 0.44852941 0.44852941
0.50784314 0.50784314 0.50784314
0.56323529 0.56323529 0.56323529
0.61176471 0.61176471 0.61176471
0.6622549 0.6622549 0.6622549
0.70980392 0.70980392 0.70980392
0.75490196 0.75490196 0.75490196
0.79215686 0.79215686 0.79215686
0.82941176 0.82941176 0.82941176
0.86470588 0.86470588 0.86470588
0.89558824 0.89558824 0.89558824
0.92647059 0.92647059 0.92647059
0.95343137 0.95343137 0.95343137
0.97254902 0.97254902 0.97254902
0.042647059 0.042647059 0.042647059
0.059313725 0.059313725 0.059313725
0.08627451 0.08627451 0.08627451
0.11715686 0.11715686 0.11715686
0.14411765 0.14411765 0.14411765
0.17156863 0.17156863 0.17156863
0.21029412 0.21029412 0.21029412
0.25202206 0.25202206 0.25202206
0.29656863 0.29656863 0.29656863
0.33921569 0.33921569 0.33921569
0.39411765 0.39411765 0.39411765
0.45226716 0.45226716 0.45226716
0.50906863 0.50906863 0.50906863
0.56323529 0.56323529 0.56323529
0.61176471 0.61176471 0.61176471
0.6622549 0.6622549 0.6622549
0.70980392 0.70980392 0.70980392
0.75490196 0.75490196 0.75490196
0.79215686 0.79215686 0.79215686
0.82726716 0.82726716 0.82726716
0.86348039 0.86348039 0.86348039
0.89558824 0.89558824 0.89558824
0.92536765 0.92536765 0.92536765
0.95196078 0.95196078 0.95196078
0.97009804 0.97009804 0.97009804
0.081372549 0.081372549 0.081372549
0.090563725 0.090563725 0.090563725
0.11151961 0.11151961 0.11151961
0.13909314 0.13909314 0.13909314
0.16519608 0.16519608 0.16519608
0.19558824 0.19558824 0.19558824
0.22941176 0.22941176 0.22941176
0.26629902 0.26629902 0.26629902
0.30294118 0.30294118 0.30294118
0.34411765 0.34411765 0.34411765
0.39730392 0.39730392 0.39730392
0.4560049 0.4560049 0.4560049
0.51176471 0.51176471 0.51176471
0.56323529 0.56323529 0.56323529
0.61176471 0.61176471 0.61176471
0.66078431 0.66078431 0.66078431
0.70980392 0.70980392 0.70980392
0.75428922 0.75428922 0.75428922
0.79044118 0.79044118 0.79044118
0.82585784 0.82585784 0.82585784
0.8622549 0.8622549 0.8622549
0.89607843 0.89607843 0.89607843
0.92818627 0.92818627 0.92818627
0.95196078 0.95196078 0.95196078
0.96862745 0.96862745 0.96862745
0.11617647 0.11617647 0.11617647
0.12628676 0.12628676 0.12628676
0.14166667 0.14166667 0.14166667
0.1627451 0.1627451 0.1627451
0.18921569 0.18921569 0.18921569
0.21617647 0.21617647 0.21617647
0.24742647 0.24742647 0.24742647
0.28363971 0.28363971 0.28363971
0.32058824 0.32058824 0.32058824
0.35410539 0.35410539 0.35410539
0.40061275 0.40061275 0.40061275
0.459375 0.459375 0.459375
0.51176471 0.51176471 0.51176471
0.56323529 0.56323529 0.56323529
0.61470588 0.61470588 0.61470588
0.6622549 0.6622549 0.6622549
0.70980392 0.70980392 0.70980392
0.75459559 0.75459559 0.75459559
0.78823529 0.78823529 0.78823529
0.8254902 0.8254902 0.8254902
0.86078431 0.86078431 0.86078431
0.89564951 0.89564951 0.89564951
0.92781863 0.92781863 0.92781863
0.95196078 0.95196078 0.95196078
0.96862745 0.96862745 0.96862745
0.15294118 0.15294118 0.15294118
0.16127451 0.16127451 0.16127451
0.17254902 0.17254902 0.17254902
0.18921569 0.18921569 0.18921569
0.21470588 0.21470588 0.21470588
0.24044118 0.24044118 0.24044118
0.26764706 0.26764706 0.26764706
0.30245098 0.30245098 0.30245098
0.3372549 0.3372549 0.3372549
0.37205882 0.37205882 0.37205882
0.41078431 0.41078431 0.41078431
0.4622549 0.4622549 0.4622549
0.51666667 0.51666667 0.51666667
0.56911765 0.56911765 0.56911765
0.61862745 0.61862745 0.61862745
0.66740196 0.66740196 0.66740196
0.71372549 0.71372549 0.71372549
0.75563725 0.75563725 0.75563725
0.79117647 0.79117647 0.79117647
0.8254902 0.8254902 0.8254902
0.86078431 0.86078431 0.86078431
0.89362745 0.89362745 0.89362745
0.92303922 0.92303922 0.92303922
0.95196078 0.95196078 0.95196078
0.96862745 0.96862745 0.96862745
0.18627451 0.18627451 0.18627451
0.19234069 0.19234069 0.19234069
0.20637255 0.20637255 0.20637255
0.22401961 0.22401961 0.22401961
0.24411765 0.24411765 0.24411765
0.26470588 0.26470588 0.26470588
0.28823529 0.28823529 0.28823529
0.31911765 0.31911765 0.31911765
0.35392157 0.35392157 0.35392157
0.38872549 0.38872549 0.38872549
0.4245098 0.4245098 0.4245098
0.46868873 0.46868873 0.46868873
0.52009804 0.52009804 0.52009804
0.575 0.575 0.575
0.62303922 0.62303922 0.62303922
0.67273284 0.67273284 0.67273284
0.71764706 0.71764706 0.71764706
0.75882353 0.75882353 0.75882353
0.79509804 0.79509804 0.79509804
0.82647059 0.82647059 0.82647059
0.86078431 0.86078431 0.86078431
0.8877451 0.8877451 0.8877451
0.91862745 0.91862745 0.91862745
0.94773284 0.94773284 0.94773284
0.97254902 0.97254902 0.97254902
0.2245098 0.2245098 0.2245098
0.22806373 0.22806373 0.22806373
0.23504902 0.23504902 0.23504902
0.25232843 0.25232843 0.25232843
0.27156863 0.27156863 0.27156863
0.28921569 0.28921569 0.28921569
0.30980392 0.30980392 0.30980392
0.33615196 0.33615196 0.33615196
0.37058824 0.37058824 0.37058824
0.4060049 0.4060049 0.4060049
0.44191176 0.44191176 0.44191176
0.47941176 0.47941176 0.47941176
0.52647059 0.52647059 0.52647059
0.57794118 0.57794118 0.57794118
0.62965686 0.62965686 0.62965686
0.67757353 0.67757353 0.67757353
0.72156863 0.72156863 0.72156863
0.7627451 0.7627451 0.7627451
0.79901961 0.79901961 0.79901961
0.82990196 0.82990196 0.82990196
0.86078431 0.86078431 0.86078431
0.89031863 0.89031863 0.89031863
0.91862745 0.91862745 0.91862745
0.94742647 0.94742647 0.94742647
0.96960784 0.96960784 0.96960784
0.26078431 0.26078431 0.26078431
0.26231618 0.26231618 0.26231618
0.26629902 0.26629902 0.26629902
0.28363971 0.28363971 0.28363971
0.30245098 0.30245098 0.30245098
0.31911765 0.31911765 0.31911765
0.33676471 0.33676471 0.33676471
0.35281863 0.35281863 0.35281863
0.38578431 0.38578431 0.38578431
0.42205882 0.42205882 0.42205882
0.45747549 0.45747549 0.45747549
0.49381127 0.49381127 0.49381127
0.53602941 0.53602941 0.53602941
0.58431373 0.58431373 0.58431373
0.63578431 0.63578431 0.63578431
0.68039216 0.68039216 0.68039216
0.7254902 0.7254902 0.7254902
0.76666667 0.76666667 0.76666667
0.80294118 0.80294118 0.80294118
0.83511029 0.83511029 0.83511029
0.86470588 0.86470588 0.86470588
0.89166667 0.89166667 0.89166667
0.92071078 0.92071078 0.92071078
0.94803922 0.94803922 0.94803922
0.96715686 0.96715686 0.96715686
0.29803922 0.29803922 0.29803922
0.3004902 0.3004902 0.3004902
0.30686275 0.30686275 0.30686275
0.31715686 0.31715686 0.31715686
0.33529412 0.33529412 0.33529412
0.35343137 0.35343137 0.35343137
0.36764706 0.36764706 0.36764706
0.38333333 0.38333333 0.38333333
0.40392157 0.40392157 0.40392157
0.43872549 0.43872549 0.43872549
0.47058824 0.47058824 0.47058824
0.50441176 0.50441176 0.50441176
0.54509804 0.54509804 0.54509804
0.59411765 0.59411765 0.59411765
0.63921569 0.63921569 0.63921569
0.68431373 0.68431373 0.68431373
0.7254902 0.7254902 0.7254902
0.76813725 0.76813725 0.76813725
0.80392157 0.80392157 0.80392157
0.8377451 0.8377451 0.8377451
0.86862745 0.86862745 0.86862745
0.89558824 0.89558824 0.89558824
0.92254902 0.92254902 0.92254902
0.94803922 0.94803922 0.94803922
0.96470588 0.96470588 0.96470588
0.33529412 0.33529412 0.33529412
0.34166667 0.34166667 0.34166667
0.35196078 0.35196078 0.35196078
0.3622549 0.3622549 0.3622549
0.36936275 0.36936275 0.36936275
0.38480392 0.38480392 0.38480392
0.40147059 0.40147059 0.40147059
0.41813725 0.41813725 0.41813725
0.43872549 0.43872549 0.43872549
0.46023284 0.46023284 0.46023284
0.48664216 0.48664216 0.48664216
0.51862745 0.51862745 0.51862745
0.55539216 0.55539216 0.55539216
0.60067402 0.60067402 0.60067402
0.64558824 0.64558824 0.64558824
0.68676471 0.68676471 0.68676471
0.72941176 0.72941176 0.72941176
0.77058824 0.77058824 0.77058824
0.80686275 0.80686275 0.80686275
0.84148284 0.84148284 0.84148284
0.86985294 0.86985294 0.86985294
0.89901961 0.89901961 0.89901961
0.92352941 0.92352941 0.92352941
0.94803922 0.94803922 0.94803922
0.96470588 0.96470588 0.96470588
0.37352941 0.37352941 0.37352941
0.38382353 0.38382353 0.38382353
0.39705882 0.39705882 0.39705882
0.40735294 0.40735294 0.40735294
0.41176471 0.41176471 0.41176471
0.41654412 0.41654412 0.41654412
0.43259804 0.43259804 0.43259804
0.44963235 0.44963235 0.44963235
0.46960784 0.46960784 0.46960784
0.49019608 0.49019608 0.49019608
0.51078431 0.51078431 0.51078431
0.53431373 0.53431373 0.53431373
0.56813725 0.56813725 0.56813725
0.61066176 0.61066176 0.61066176
0.64877451 0.64877451 0.64877451
0.68921569 0.68921569 0.68921569
0.73039216 0.73039216 0.73039216
0.7745098 0.7745098 0.7745098
0.80857843 0.80857843 0.80857843
0.84166667 0.84166667 0.84166667
0.87254902 0.87254902 0.87254902
0.8995098 0.8995098 0.8995098
0.92647059 0.92647059 0.92647059
0.94901961 0.94901961 0.94901961
0.96862745 0.96862745 0.96862745
0.42892157 0.42892157 0.42892157
0.43265931 0.43265931 0.43265931
0.44558824 0.44558824 0.44558824
0.4528799 0.4528799 0.4528799
0.45465686 0.45465686 0.45465686
0.45735294 0.45735294 0.45735294
0.46678922 0.46678922 0.46678922
0.48235294 0.48235294 0.48235294
0.5004902 0.5004902 0.5004902
0.51893382 0.51893382 0.51893382
0.54166667 0.54166667 0.54166667
0.5622549 0.5622549 0.5622549
0.58357843 0.58357843 0.58357843
0.61715686 0.61715686 0.61715686
0.65453431 0.65453431 0.65453431
0.69430147 0.69430147 0.69430147
0.73676471 0.73676471 0.73676471
0.77794118 0.77794118 0.77794118
0.81078431 0.81078431 0.81078431
0.84166667 0.84166667 0.84166667
0.87254902 0.87254902 0.87254902
0.8995098 0.8995098 0.8995098
0.92647059 0.92647059 0.92647059
0.95196078 0.95196078 0.95196078
0.97205882 0.97205882 0.97205882
0.49411765 0.49411765 0.49411765
0.49411765 0.49411765 0.49411765
0.49509804 0.49509804 0.49509804
0.5 0.5 0.5
0.50196078 0.50196078 0.50196078
0.50612745 0.50612745 0.50612745
0.5127451 0.5127451 0.5127451
0.51593137 0.51593137 0.51593137
0.53137255 0.53137255 0.53137255
0.55073529 0.55073529 0.55073529
0.56862745 0.56862745 0.56862745
0.58921569 0.58921569 0.58921569
0.60784314 0.60784314 0.60784314
0.63284314 0.63284314 0.63284314
0.66519608 0.66519608 0.66519608
0.70122549 0.70122549 0.70122549
0.74117647 0.74117647 0.74117647
0.78112745 0.78112745 0.78112745
0.81470588 0.81470588 0.81470588
0.84558824 0.84558824 0.84558824
0.8745098 0.8745098 0.8745098
0.8995098 0.8995098 0.8995098
0.92745098 0.92745098 0.92745098
0.95343137 0.95343137 0.95343137
0.9745098 0.9745098 0.9745098
0.55588235 0.55588235 0.55588235
0.55588235 0.55588235 0.55588235
0.55980392 0.55980392 0.55980392
0.55980392 0.55980392 0.55980392
0.55980392 0.55980392 0.55980392
0.56421569 0.56421569 0.56421569
0.57156863 0.57156863 0.57156863
0.56354167 0.56354167 0.56354167
0.56666667 0.56666667 0.56666667
0.58302696 0.58302696 0.58302696
0.59803922 0.59803922 0.59803922
0.6122549 0.6122549 0.6122549
0.62867647 0.62867647 0.62867647
0.65386029 0.65386029 0.65386029
0.68431373 0.68431373 0.68431373
0.71519608 0.71519608 0.71519608
0.7495098 0.7495098 0.7495098
0.7877451 0.7877451 0.7877451
0.81862745 0.81862745 0.81862745
0.8495098 0.8495098 0.8495098
0.87671569 0.87671569 0.87671569
0.90343137 0.90343137 0.90343137
0.93051471 0.93051471 0.93051471
0.95588235 0.95588235 0.95588235
0.97598039 0.97598039 0.97598039
0.61764706 0.61764706 0.61764706
0.62120098 0.62120098 0.62120098
0.6247549 0.6247549 0.6247549
0.62463235 0.62463235 0.62463235
0.6245098 0.6245098 0.6245098
0.62941176 0.62941176 0.62941176
0.63333333 0.63333333 0.63333333
0.62009804 0.62009804 0.62009804
0.61078431 0.61078431 0.61078431
0.61813725 0.61813725 0.61813725
0.6247549 0.6247549 0.6247549
0.63284314 0.63284314 0.63284314
0.65294118 0.65294118 0.65294118
0.67794118 0.67794118 0.67794118
0.70563725 0.70563725 0.70563725
0.73578431 0.73578431 0.73578431
0.76372549 0.76372549 0.76372549
0.79276961 0.79276961 0.79276961
0.82254902 0.82254902 0.82254902
0.85343137 0.85343137 0.85343137
0.88186275 0.88186275 0.88186275
0.90723039 0.90723039 0.90723039
0.93357843 0.93357843 0.93357843
0.95588235 0.95588235 0.95588235
0.97254902 0.97254902 0.97254902
0.70735294 0.70735294 0.70735294
0.70343137 0.70343137 0.70343137
0.69767157 0.69767157 0.69767157
0.69656863 0.69656863 0.69656863
0.69534314 0.69534314 0.69534314
0.69528186 0.69528186 0.69528186
0.69656863 0.69656863 0.69656863
0.68431373 0.68431373 0.68431373
0.66372549 0.66372549 0.66372549
0.65686275 0.65686275 0.65686275
0.66078431 0.66078431 0.66078431
0.66292892 0.66292892 0.66292892
0.67352941 0.67352941 0.67352941
0.69852941 0.69852941 0.69852941
0.72610294 0.72610294 0.72610294
0.75189951 0.75189951 0.75189951
0.77794118 0.77794118 0.77794118
0.80098039 0.80098039 0.80098039
0.82794118 0.82794118 0.82794118
0.85882353 0.85882353 0.85882353
0.8870098 0.8870098 0.8870098
0.91256127 0.91256127 0.91256127
0.93529412 0.93529412 0.93529412
0.95588235 0.95588235 0.95588235
0.97254902 0.97254902 0.97254902
0.79607843 0.79607843 0.79607843
0.79607843 0.79607843 0.79607843
0.7872549 0.7872549 0.7872549
0.78431373 0.78431373 0.78431373
0.78039216 0.78039216 0.78039216
0.77254902 0.77254902 0.77254902
0.77254902 0.77254902 0.77254902
0.75784314 0.75784314 0.75784314
0.72941176 0.72941176 0.72941176
0.70735294 0.70735294 0.70735294
0.70196078 0.70196078 0.70196078
0.70539216 0.70539216 0.70539216
0.70588235 0.70588235 0.70588235
0.71862745 0.71862745 0.71862745
0.74215686 0.74215686 0.74215686
0.76519608 0.76519608 0.76519608
0.78823529 0.78823529 0.78823529
0.8127451 0.8127451 0.8127451
0.8372549 0.8372549 0.8372549
0.86519608 0.86519608 0.86519608
0.89215686 0.89215686 0.89215686
0.91470588 0.91470588 0.91470588
0.93921569 0.93921569 0.93921569
0.95980392 0.95980392 0.95980392
0.97647059 0.97647059 0.97647059
0.88627451 0.88627451 0.88627451
0.88872549 0.88872549 0.88872549
0.88627451 0.88627451 0.88627451
0.87745098 0.87745098 0.87745098
0.86470588 0.86470588 0.86470588
0.85490196 0.85490196 0.85490196
0.85134804 0.85134804 0.85134804
0.84019608 0.84019608 0.84019608
0.81176471 0.81176471 0.81176471
0.77935049 0.77935049 0.77935049
0.75526961 0.75526961 0.75526961
0.75716912 0.75716912 0.75716912
0.75416667 0.75416667 0.75416667
0.74901961 0.74901961 0.74901961
0.76041667 0.76041667 0.76041667
0.77947304 0.77947304 0.77947304
0.79852941 0.79852941 0.79852941
0.82303922 0.82303922 0.82303922
0.84754902 0.84754902 0.84754902
0.87175245 0.87175245 0.87175245
0.89730392 0.89730392 0.89730392
0.91862745 0.91862745 0.91862745
0.94166667 0.94166667 0.94166667
0.96372549 0.96372549 0.96372549
0.98284314 0.98284314 0.98284314
0.95392157 0.95392157 0.95392157
0.95931373 0.95931373 0.95931373
0.96495098 0.96495098 0.96495098
0.95281863 0.95281863 0.95281863
0.93970588 0.93970588 0.93970588
0.93235294 0.93235294 0.93235294
0.93235294 0.93235294 0.93235294
0.92647059 0.92647059 0.92647059
0.89803922 0.89803922 0.89803922
0.85870098 0.85870098 0.85870098
0.8252451 0.8252451 0.8252451
0.80992647 0.80992647 0.80992647
0.80294118 0.80294118 0.80294118
0.78909314 0.78909314 0.78909314
0.7872549 0.7872549 0.7872549
0.79558824 0.79558824 0.79558824
0.80882353 0.80882353 0.80882353
0.83296569 0.83296569 0.83296569
0.85465686 0.85465686 0.85465686
0.87843137 0.87843137 0.87843137
0.9004902 0.9004902 0.9004902
0.92254902 0.92254902 0.92254902
0.94313725 0.94313725 0.94313725
0.96764706 0.96764706 0.96764706
0.98333333 0.98333333 0.98333333
0.94215686 0.94215686 0.94215686
0.94822304 0.94822304 0.94822304
0.95919118 0.95919118 0.95919118
0.96776961 0.96776961 0.96776961
0.96813725 0.96813725 0.96813725
0.97248775 0.97248775 0.97248775
0.97941176 0.97941176 0.97941176
0.98223039 0.98223039 0.98223039
0.96617647 0.96617647 0.96617647
0.93088235 0.93088235 0.93088235
0.8995098 0.8995098 0.8995098
0.87205882 0.87205882 0.87205882
0.85612745 0.85612745 0.85612745
0.83584559 0.83584559 0.83584559
0.81911765 0.81911765 0.81911765
0.81832108 0.81832108 0.81832108
0.82303922 0.82303922 0.82303922
0.83970588 0.83970588 0.83970588
0.86164216 0.86164216 0.86164216
0.88480392 0.88480392 0.88480392
0.90539216 0.90539216 0.90539216
0.92254902 0.92254902 0.92254902
0.94313725 0.94313725 0.94313725
0.96372549 0.96372549 0.96372549
0.97303922 0.97303922 0.97303922
0.92745098 0.92745098 0.92745098
0.93308824 0.93308824 0.93308824
0.9504902 0.9504902 0.9504902
0.96617647 0.96617647 0.96617647
0.9754902 0.9754902 0.9754902
0.98063725 0.98063725 0.98063725
0.98578431 0.98578431 0.98578431
0.98553922 0.98553922 0.98553922
0.98431373 0.98431373 0.98431373
0.97279412 0.97279412 0.97279412
0.95441176 0.95441176 0.95441176
0.93235294 0.93235294 0.93235294
0.9127451 0.9127451 0.9127451
0.88897059 0.88897059 0.88897059
0.86323529 0.86323529 0.86323529
0.84436275 0.84436275 0.84436275
0.84509804 0.84509804 0.84509804
0.85073529 0.85073529 0.85073529
0.87009804 0.87009804 0.87009804
0.89117647 0.89117647 0.89117647
0.91078431 0.91078431 0.91078431
0.92622549 0.92622549 0.92622549
0.94313725 0.94313725 0.94313725
0.95637255 0.95637255 0.95637255
0.9627451 0.9627451 0.9627451
0.92990196 0.92990196 0.92990196
0.93204657 0.93204657 0.93204657
0.94607843 0.94607843 0.94607843
0.96329657 0.96329657 0.96329657
0.97843137 0.97843137 0.97843137
0.98523284 0.98523284 0.98523284
0.98872549 0.98872549 0.98872549
0.98823529 0.98823529 0.98823529
0.98823529 0.98823529 0.98823529
0.98480392 0.98480392 0.98480392
0.98002451 0.98002451 0.98002451
0.97444853 0.97444853 0.97444853
0.96470588 0.96470588 0.96470588
0.95006127 0.95006127 0.95006127
0.92352941 0.92352941 0.92352941
0.88872549 0.88872549 0.88872549
0.86862745 0.86862745 0.86862745
0.87420343 0.87420343 0.87420343
0.88125 0.88125 0.88125
0.90104167 0.90104167 0.90104167
0.91593137 0.91593137 0.91593137
0.92598039 0.92598039 0.92598039
0.93884804 0.93884804 0.93884804
0.95030637 0.95030637 0.95030637
0.95294118 0.95294118 0.95294118
0.92352941 0.92352941 0.92352941
0.92708333 0.92708333 0.92708333
0.93627451 0.93627451 0.93627451
0.9564951 0.9564951 0.9564951
0.97745098 0.97745098 0.97745098
0.99129902 0.99129902 0.99129902
0.99215686 0.99215686 0.99215686
0.99215686 0.99215686 0.99215686
0.99215686 0.99215686 0.99215686
0.99117647 0.99117647 0.99117647
0.99117647 0.99117647 0.99117647
0.99117647 0.99117647 0.99117647
0.99117647 0.99117647 0.99117647
0.99007353 0.99007353 0.99007353
0.98284314 0.98284314 0.98284314
0.95441176 0.95441176 0.95441176
0.92058824 0.92058824 0.92058824
0.90735294 0.90735294 0.90735294
0.90220588 0.90220588 0.90220588
0.90833333 0.90833333 0.90833333
0.92254902 0.92254902 0.92254902
0.92855392 0.92855392 0.92855392
0.93333333 0.93333333 0.93333333
0.94362745 0.94362745 0.94362745
0.94607843 0.94607843 0.94607843
0.88970588 0.88970588 0.88970588
0.88970588 0.88970588 0.88970588
0.89840686 0.89840686 0.89840686
0.93088235 0.93088235 0.93088235
0.96372549 0.96372549 0.96372549
0.98792892 0.98792892 0.98792892
0.99068627 0.99068627 0.99068627
0.99607843 0.99607843 0.99607843
0.99607843 0.99607843 0.99607843
0.99607843 0.99607843 0.99607843
0.99607843 0.99607843 0.99607843
0.99754902 0.99754902 0.99754902
0.99754902 0.99754902 0.99754902
1 1 1
1 1 1
0.99368873 0.99368873 0.99368873
0.97303922 0.97303922 0.97303922
0.94761029 0.94761029 0.94761029
0.93504902 0.93504902 0.93504902
0.93480392 0.93480392 0.93480392
0.94166667 0.94166667 0.94166667
0.93970588 0.93970588 0.93970588
0.93517157 0.93517157 0.93517157
0.93633578 0.93633578 0.93633578
0.93970588 0.93970588 0.93970588
0.85882353 0.85882353 0.85882353
0.85882353 0.85882353 0.85882353
0.86960784 0.86960784 0.86960784
0.91127451 0.91127451 0.91127451
0.93333333 0.93333333 0.93333333
0.94656863 0.94656863 0.94656863
0.98039216 0.98039216 0.98039216
0.99754902 0.99754902 0.99754902
1 1 1
1 1 1
1 1 1
1 1 1
1 1 1
1 1 1
1 1 1
0.99460784 0.99460784 0.99460784
0.98431373 0.98431373 0.98431373
0.96764706 0.96764706 0.96764706
0.96470588 0.96470588 0.96470588
0.97598039 0.97598039 0.97598039
0.96862745 0.96862745 0.96862745
0.95588235 0.95588235 0.95588235
0.93921569 0.93921569 0.93921569
0.9372549 0.9372549 0.9372549
0.9372549 0.9372549 0.9372549
0.0014705882 0.0014705882 0.0014705882
0.03817402 0.03817402 0.03817402
0.072426471 0.072426471 0.072426471
0.10098039 0.10098039 0.10098039
0.1254902 0.1254902 0.1254902
0.15667892 0.15667892 0.15667892
0.2 0.2 0.2
0.24656863 0.24656863 0.24656863
0.29264706 0.29264706 0.29264706
0.33529412 0.33529412 0.33529412
0.39019608 0.39019608 0.39019608
0.44852941 0.44852941 0.44852941
0.50588235 0.50588235 0.50588235
0.55931373 0.55931373 0.55931373
0.61078431 0.61078431 0.61078431
0.6622549 0.6622549 0.6622549
0.70980392 0.70980392 0.70980392
0.75490196 0.75490196 0.75490196
0.79215686 0.79215686 0.79215686
0.82941176 0.82941176 0.82941176
0.86470588 0.86470588 0.86470588
0.89558824 0.89558824 0.89558824
0.92647059 0.92647059 0.92647059
0.95343137 0.95343137 0.95343137
0.97647059 0.97647059 0.97647059
0.041176471 0.041176471 0.041176471
0.057843137 0.057843137 0.057843137
0.089093137 0.089093137 0.089093137
0.11764706 0.11764706 0.11764706
0.14338235 0.14338235 0.14338235
0.17156863 0.17156863 0.17156863
0.21029412 0.21029412 0.21029412
0.25259651 0.25259651 0.25259651
0.29656863 0.29656863 0.29656863
0.33921569 0.33921569 0.33921569
0.39272365 0.39272365 0.39272365
0.44852941 0.44852941 0.44852941
0.50511642 0.50511642 0.50511642
0.55931373 0.55931373 0.55931373
0.61078431 0.61078431 0.61078431
0.6622549 0.6622549 0.6622549
0.70980392 0.70980392 0.70980392
0.75490196 0.75490196 0.75490196
0.79215686 0.79215686 0.79215686
0.82726716 0.82726716 0.82726716
0.8627451 0.8627451 0.8627451
0.89558824 0.89558824 0.89558824
0.92605699 0.92605699 0.92605699
0.95230545 0.95230545 0.95230545
0.97254902 0.97254902 0.97254902
0.080269608 0.080269608 0.080269608
0.090563725 0.090563725 0.090563725
0.11151961 0.11151961 0.11151961
0.13909314 0.13909314 0.13909314
0.1661152 0.1661152 0.1661152
0.19558824 0.19558824 0.19558824
0.22895221 0.22895221 0.22895221
0.26629902 0.26629902 0.26629902
0.3057598 0.3057598 0.3057598
0.34411765 0.34411765 0.34411765
0.39485294 0.39485294 0.39485294
0.45240502 0.45240502 0.45240502
0.50833333 0.50833333 0.50833333
0.56139706 0.56139706 0.56139706
0.61087623 0.61087623 0.61087623
0.65977328 0.65977328 0.65977328
0.70980392 0.70980392 0.70980392
0.75582108 0.75582108 0.75582108
0.79117647 0.79117647 0.79117647
0.82585784 0.82585784 0.82585784
