site/assets/luts/sha256-ca5d66af39ebfbad4ed4a936de7022a96f39fce6a47ef15b968c980ba8f87b8a.cube
# LUTr-Schema-Version: 2
# LUTr-ID: sha256-ca5d66af39ebfbad4ed4a936de7022a96f39fce6a47ef15b968c980ba8f87b8a
# LUTr-Title: fuji 800z
# LUTr-Collection: Natron HaldCLUT
# LUTr-Collection-ID: natron-haldclut-presets
# LUTr-Source: https://github.com/NatronGitHub/clut
# LUTr-Retrieved: 2026-07-27
# LUTr-Source-File: submissions/natron-haldclut-presets/negative_new/fuji_800z.png
# LUTr-Source-Format: HALD-PNG
# LUTr-Source-SHA256: ca5d66af39ebfbad4ed4a936de7022a96f39fce6a47ef15b968c980ba8f87b8a
# LUTr-License: CC-BY-SA-4.0
# LUTr-License-URL: https://github.com/NatronGitHub/clut#license
# LUTr-License-Basis: repo-license-file
# LUTr-Transform-Class: film-emulation
# LUTr-Tags: creative, film, film-emulation, hald-clut, natron, png, cube
# LUTr-Input-Color-Space: srgb
# LUTr-Input-Gamut: rec709
# LUTr-Input-Transfer: srgb
# LUTr-Output-Color-Space: srgb
# LUTr-Output-Gamut: rec709
# LUTr-Output-Transfer: srgb
# LUTr-Color-Space-Confidence: assumed-display-referred
# LUTr-Domain-Normalized: true
# LUTr-Shaper: none
# LUTr-Original-Grid: 64x64x64
# LUTr-Conversion-Grid: 25x25x25
# LUTr-Conversion-Interpolation: trilinear
# LUTr-Conversion-Method: HALD-PNG LUT image decoded at 16-bit and sampled to 25x25x25 3D CUBE
# LUTr-Conversion-Tool: LUTr scripts/convert-all-to-cube.mjs 2.0.0
# LUTr-Conversion-Date: 2026-07-27
# LUTr-Note: Preserve this metadata and the upstream license notices when redistributing.
TITLE "fuji 800z"
LUT_3D_SIZE 25
DOMAIN_MIN 0 0 0
DOMAIN_MAX 1 1 1
0.039215686 0.043137255 0.031372549
0.066176471 0.047058824 0.039215686
0.093137255 0.047058824 0.047058824
0.12401961 0.043627451 0.050980392
0.15490196 0.039215686 0.052941176
0.19460784 0.035294118 0.054411765
0.24313725 0.035294118 0.048039216
0.29362745 0.025980392 0.039215686
0.34117647 0.015686275 0.031372549
0.39509804 0.011764706 0.02745098
0.45196078 0.011764706 0.023529412
0.51078431 0.011764706 0.019607843
0.56862745 0.0039215686 0.011764706
0.62647059 0.0039215686 0.0078431373
0.68431373 0.0039215686 0.011764706
0.74607843 0.0024509804 0.006372549
0.8 0 0.0078431373
0.8372549 0 0.015686275
0.87352941 0 0.02254902
0.90833333 0 0.016176471
0.94705882 0 0.0098039216
0.98088235 0.0014705882 0.0039215686
0.98823529 0.032352941 0.0039215686
0.99362745 0.063235294 0.0039215686
1 0.094117647 0
0.057352941 0.066176471 0.045588235
0.064644608 0.067095588 0.041666667
0.088602941 0.067647059 0.044117647
0.11764706 0.064031863 0.048345588
0.15294118 0.059803922 0.050980392
0.19460784 0.059803922 0.054901961
0.24215686 0.057230392 0.051593137
0.29117647 0.043627451 0.041666667
0.34117647 0.026960784 0.029901961
0.39509804 0.017585784 0.023529412
0.45294118 0.016053922 0.025367647
0.51323529 0.010477941 0.016176471
0.57254902 0.0039215686 0.0098039216
0.63020833 0.0014705882 0.0078431373
0.68823529 0.0039215686 0.0078431373
0.74607843 0 0.0039215686
0.8 0 0.0039215686
0.8372549 0 0.014215686
0.87414216 0 0.020710784
0.91047794 0 0.016176471
0.94705882 0 0.0098039216
0.98088235 0.0014705882 0
0.99117647 0.036642157 0.0039215686
0.99607843 0.079901961 0.003002451
1 0.11078431 0
0.054901961 0.085294118 0.054901961
0.067034314 0.087132353 0.050367647
0.080147059 0.088235294 0.043137255
0.10735294 0.084803922 0.045710784
0.14901961 0.085294118 0.050490196
0.19460784 0.088235294 0.054901961
0.24142157 0.089215686 0.054901961
0.28970588 0.080882353 0.049509804
0.34117647 0.074509804 0.031372549
0.39509804 0.062745098 0.020710784
0.45294118 0.046078431 0.022303922
0.51470588 0.023651961 0.015196078
0.57745098 0.0029411765 0.0049019608
0.63517157 0.00098039216 0.0039215686
0.69240196 0.0046568627 0.0075980392
0.75 0.0006127451 0.0024509804
0.8 0.00098039216 0.0039215686
0.83762255 0.0019607843 0.014828431
0.8752451 0.0068627451 0.024754902
0.91188725 0.0125 0.022058824
0.94705882 0.022058824 0.014215686
0.97647059 0.034436275 0
0.99117647 0.071568627 0
0.99754902 0.11139706 0
1 0.13529412 0
0.062254902 0.1127451 0.054901961
0.07254902 0.1122549 0.048529412
0.078063725 0.10882353 0.043137255
0.099571078 0.10882353 0.042708333
0.14730392 0.1125 0.049019608
0.19417892 0.11617647 0.054901961
0.23921569 0.11617647 0.054901961
0.28578431 0.11960784 0.048529412
0.3372549 0.11960784 0.02745098
0.39295343 0.11060049 0.016176471
0.45294118 0.093627451 0.014828431
0.51470588 0.069178922 0.0083333333
0.57867647 0.053431373 0.0039215686
0.6338848 0.051470588 0.0039215686
0.68835784 0.055269608 0.0068627451
0.74509804 0.051470588 0.0037377451
0.79656863 0.051470588 0.0039215686
0.8372549 0.061458333 0.018137255
0.8745098 0.06752451 0.03627451
0.90876225 0.081372549 0.032291667
0.94313725 0.090931373 0.013970588
0.97003676 0.10343137 0.0034313725
0.98639706 0.13125 0
0.99626225 0.16078431 0
1 0.17009804 0
0.070588235 0.14313725 0.054901961
0.07377451 0.14313725 0.052941176
0.079901961 0.14313725 0.052941176
0.099019608 0.14313725 0.049509804
0.13921569 0.14607843 0.051960784
0.18431373 0.14754902 0.054901961
0.22892157 0.15245098 0.05
0.28259804 0.15955882 0.037009804
0.3372549 0.16470588 0.017647059
0.39264706 0.15637255 0.0098039216
0.45294118 0.14411765 0.0078431373
0.51470588 0.13406863 0.0078431373
0.57647059 0.1254902 0.0078431373
0.62965686 0.12745098 0.0075980392
0.68284314 0.12745098 0.0068627451
0.73872549 0.12745098 0.0039215686
0.78627451 0.1254902 0.0078431373
0.82745098 0.13112745 0.018137255
0.87058824 0.14803922 0.027941176
0.90833333 0.15661765 0.025980392
0.93627451 0.15980392 0.01372549
0.96176471 0.17156863 0.0039215686
0.97892157 0.19362745 0.0039215686
0.99093137 0.21397059 0.0012254902
0.99803922 0.23137255 0
0.062254902 0.1745098 0.059313725
0.068627451 0.17794118 0.061764706
0.084436275 0.17843137 0.067156863
0.10496324 0.17843137 0.062806373
0.12892157 0.17794118 0.054901961
0.16966912 0.18192402 0.053921569
0.22205882 0.18884804 0.043627451
0.27892157 0.19558824 0.028125
0.33676471 0.20245098 0.0083333333
0.39509804 0.20667892 0.0039215686
0.45686275 0.20686275 0.0074754902
0.51862745 0.20294118 0.0078431373
0.5745098 0.19558824 0.0078431373
0.62598039 0.19901961 0.0078431373
0.67745098 0.1995098 0.0039215686
0.73088235 0.1995098 0.0039215686
0.77598039 0.1995098 0.01127451
0.81960784 0.20165441 0.017830882
0.8622549 0.20723039 0.023039216
0.9 0.21372549 0.019178922
0.93088235 0.22426471 0.0095588235
0.95692402 0.23872549 0.0039215686
0.97144608 0.25245098 0.0039215686
0.98578431 0.26617647 0.0039215686
0.99607843 0.27647059 0.0039215686
0.051960784 0.20882353 0.065686275
0.06372549 0.20882353 0.068504902
0.088235294 0.2127451 0.073529412
0.10882353 0.21568627 0.070098039
0.1254902 0.2127451 0.059803922
0.15943627 0.21617647 0.050490196
0.21544118 0.22647059 0.042401961
0.27218137 0.23676471 0.032843137
0.32941176 0.24705882 0.018627451
0.38823529 0.26029412 0.0068627451
0.45392157 0.26348039 0.0039215686
0.51862745 0.26470588 0.0040441176
0.5745098 0.26078431 0.0039215686
0.62598039 0.26078431 0.0047794118
0.67745098 0.26176471 0.0039215686
0.72389706 0.26176471 0.00036764706
0.76862745 0.25784314 0.0049019608
0.81078431 0.25784314 0.012377451
0.85588235 0.25784314 0.015686275
0.88970588 0.26519608 0.011887255
0.92352941 0.27941176 0.0044117647
0.95085784 0.2932598 0
0.97058824 0.3002451 0.0039215686
0.98578431 0.30919118 0.0039215686
0.99607843 0.31372549 0.0068627451
0.037745098 0.23578431 0.066666667
0.062254902 0.24215686 0.073590686
0.087132353 0.24754902 0.078431373
0.10882353 0.24754902 0.076286765
0.12622549 0.24632353 0.068872549
0.15667892 0.25196078 0.063419118
0.20870098 0.26556373 0.052818627
0.27009804 0.27941176 0.047977941
0.32401961 0.29215686 0.02745098
0.38094363 0.30637255 0.0078431373
0.44460784 0.31176471 0.0039215686
0.50931373 0.31323529 0.0039215686
0.57107843 0.31642157 0.0014705882
0.62205882 0.31323529 0.0039215686
0.67242647 0.31323529 0.0039215686
0.71868873 0.31176471 0.0014705882
0.76323529 0.30931373 0.0039215686
0.80588235 0.30931373 0.006372549
0.84705882 0.30931373 0.0078431373
0.8846201 0.31666667 0.0065563725
0.91691176 0.32892157 0.0019607843
0.9463848 0.34117647 0
0.97058824 0.34754902 0.0029411765
0.98970588 0.3533701 0.0053921569
0.99607843 0.35637255 0.0078431373
0.050980392 0.28235294 0.08627451
0.06372549 0.28235294 0.082352941
0.088235294 0.28235294 0.087254902
0.10882353 0.28235294 0.090196078
0.13333333 0.27843137 0.08627451
0.1627451 0.28333333 0.081862745
0.20392157 0.29705882 0.068627451
0.25196078 0.31519608 0.048039216
0.30980392 0.33333333 0.02745098
0.36911765 0.35147059 0.0053921569
0.43333333 0.35686275 0.00098039216
0.49901961 0.36029412 0.0039215686
0.56470588 0.36470588 0.0039215686
0.61813725 0.36470588 0.0039215686
0.66568627 0.36078431 0.0039215686
0.71323529 0.36078431 0.0039215686
0.76078431 0.36078431 0.0039215686
0.80196078 0.36078431 0.0039215686
0.84313725 0.36176471 0.0039215686
0.87696078 0.36813725 0.0039215686
0.90784314 0.37843137 0.0019607843
0.93872549 0.39215686 0
0.96568627 0.39607843 0.0039215686
0.9872549 0.39754902 0.0053921569
0.99607843 0.4 0.0078431373
0.039705882 0.32107843 0.090196078
0.056433824 0.32107843 0.090196078
0.085294118 0.31960784 0.094730392
0.1127451 0.31746324 0.1004902
0.1372549 0.31568627 0.1004902
0.16243873 0.31764706 0.1
0.19816176 0.33088235 0.084681373
0.24019608 0.34362745 0.066176471
0.29705882 0.36421569 0.044117647
0.35735294 0.38327206 0.022058824
0.42303922 0.39620098 0.0082107843
0.48823529 0.40539216 0.006372549
0.55637255 0.4129902 0.006372549
0.61764706 0.41617647 0.0039215686
0.66458333 0.41507353 0.0039215686
0.70839461 0.4122549 0.0039215686
0.75441176 0.41470588 0.0039215686
0.79803922 0.41470588 0.0039215686
0.83578431 0.41678922 0.0039215686
0.87040441 0.42383578 0.0017769608
0.90147059 0.43186275 0
0.93216912 0.43756127 0.00030637255
0.95931373 0.43970588 0.0039215686
0.98333333 0.44117647 0.0039215686
0.99607843 0.44117647 0.0078431373
0.039215686 0.36078431 0.097058824
0.057843137 0.35686275 0.1
0.085294118 0.35686275 0.10392157
0.1127451 0.35330882 0.11029412
0.13921569 0.35294118 0.11078431
0.16617647 0.35735294 0.10637255
0.19338235 0.36372549 0.095098039
0.22745098 0.3745098 0.080759804
0.28529412 0.39411765 0.065686275
0.34705882 0.41115196 0.050857843
0.40955882 0.42745098 0.032352941
0.47708333 0.44166667 0.018137255
0.54362745 0.45588235 0.010294118
0.60539216 0.4627451 0.0039215686
0.65612745 0.4627451 0.0039215686
0.70294118 0.46666667 0.0039215686
0.74803922 0.46764706 0
0.79019608 0.47156863 0
0.82647059 0.47328431 0
0.86029412 0.4754902 0.00085784314
0.89117647 0.47843137 0.0039215686
0.92205882 0.47977941 0.0039215686
0.95294118 0.48235294 0.0039215686
0.98051471 0.48235294 0.0039215686
0.99607843 0.48333333 0.0039215686
0.056372549 0.40245098 0.11421569
0.066176471 0.39822304 0.11372549
0.089093137 0.39705882 0.11715686
0.1127451 0.39411765 0.12015931
0.13921569 0.39411765 0.11911765
0.17003676 0.39810049 0.1127451
0.19669118 0.40196078 0.10588235
0.22677696 0.40539216 0.10079657
0.27843137 0.42205882 0.092647059
0.33676471 0.43872549 0.078615196
0.39852941 0.45539216 0.060661765
0.46421569 0.4721201 0.040073529
0.52647059 0.49240196 0.015441176
0.5877451 0.50392157 0.0039215686
0.63921569 0.50392157 0.0039215686
0.69019608 0.50931373 0.0039215686
0.7377451 0.51568627 0
0.78498775 0.52334559 0
0.81875 0.51960784 0
0.85 0.51960784 0.0034313725
0.88088235 0.51960784 0.0039215686
0.91176471 0.52352941 0.0039215686
0.94264706 0.52352941 0.0039215686
0.97696078 0.52352941 0.00049019608
0.99607843 0.52352941 0.0039215686
0.039215686 0.43529412 0.11372549
0.068137255 0.43529412 0.12083333
0.098529412 0.43333333 0.12794118
0.12230392 0.43137255 0.13137255
0.14509804 0.42941176 0.12941176
0.17401961 0.43333333 0.1252451
0.20147059 0.43333333 0.12156863
0.23259804 0.4379902 0.11960784
0.27843137 0.44901961 0.11372549
0.32990196 0.46642157 0.10220588
0.38382353 0.48382353 0.08872549
0.44754902 0.50098039 0.069607843
0.50882353 0.52352941 0.03627451
0.56715686 0.53970588 0.0034313725
0.62156863 0.54803922 0
0.67867647 0.55441176 0.0039215686
0.73333333 0.56078431 0.0039215686
0.78235294 0.56593137 0.0014705882
0.81862745 0.5622549 0.00049019608
0.8495098 0.56078431 0.0017156863
0.88039216 0.56078431 0.0039215686
0.90906863 0.56078431 0.0039215686
0.93823529 0.56421569 0.0039215686
0.96911765 0.56470588 0.0031862745
0.99803922 0.56470588 0
0.075980392 0.47647059 0.13823529
0.092340686 0.47401961 0.13823529
0.11629902 0.47242647 0.14301471
0.13676471 0.46819853 0.14215686
0.15343137 0.46421569 0.14166667
0.1783701 0.46421569 0.1377451
0.20625 0.46421569 0.1377451
0.23627451 0.46813725 0.1377451
0.27794118 0.47598039 0.13382353
0.32941176 0.49264706 0.12009804
0.37610294 0.50919118 0.10980392
0.42751225 0.52555147 0.099509804
0.49632353 0.54607843 0.083578431
0.55441176 0.56666667 0.046629902
0.60931373 0.58431373 0.014828431
0.67107843 0.59509804 0.011458333
0.73284314 0.60588235 0.0083333333
0.78088235 0.6127451 0.0014705882
0.81470588 0.60882353 0.0013480392
0.84558824 0.60202206 0.0039215686
0.87647059 0.60196078 0.0039215686
0.90643382 0.60196078 0.0078431373
0.93431373 0.60588235 0.0078431373
0.96470588 0.60588235 0.0044117647
0.9877451 0.60588235 0.0039215686
0.10686275 0.51764706 0.1627451
0.11997549 0.51519608 0.15992647
0.13627451 0.50980392 0.15882353
0.14742647 0.50588235 0.15502451
0.16176471 0.49852941 0.15
0.18186275 0.49816176 0.14803922
0.2120098 0.49509804 0.1502451
0.23970588 0.49546569 0.15196078
0.27156863 0.5 0.15098039
0.32303922 0.51960784 0.14068627
0.37034314 0.53553922 0.13039216
0.41458333 0.55036765 0.12009804
0.46421569 0.56666667 0.10980392
0.53946078 0.5872549 0.095955882
0.59681373 0.60490196 0.064460784
0.65784314 0.62058824 0.047426471
0.71960784 0.6372549 0.031372549
0.775 0.65441176 0.017156863
0.81176471 0.6502451 0.012990196
0.84264706 0.6432598 0.01372549
0.87352941 0.64313725 0.0073529412
0.90343137 0.64313725 0.0078431373
0.93063725 0.64705882 0.0078431373
0.95796569 0.64705882 0.0096813725
0.98137255 0.64705882 0.0078431373
0.13382353 0.55735294 0.17941176
0.14264706 0.55343137 0.17849265
0.15686275 0.54852941 0.17512255
0.16715686 0.54185049 0.17028186
0.17745098 0.53455882 0.16495098
0.19626225 0.53137255 0.16764706
0.22352941 0.53137255 0.16875
0.25294118 0.53137255 0.17156863
0.27745098 0.53137255 0.16764706
0.32598039 0.54656863 0.16219363
0.37463235 0.56323529 0.15526961
0.41911765 0.57990196 0.14607843
0.46078431 0.59191176 0.14166667
0.51697304 0.60784314 0.13088235
0.58272059 0.6245098 0.11764706
0.64117647 0.64117647 0.095526961
0.70147059 0.65784314 0.077941176
0.75441176 0.67359069 0.067647059
0.79607843 0.67745098 0.057352941
0.83057598 0.67892157 0.043627451
0.86642157 0.68357843 0.024019608
0.8995098 0.68609069 0.0078431373
0.93039216 0.68823529 0.0089460784
0.95735294 0.68431373 0.015686275
0.98431373 0.68431373 0.0093137255
0.16862745 0.58823529 0.19607843
0.16862745 0.58578431 0.19362745
0.17745098 0.58333333 0.19117647
0.1877451 0.57696078 0.18480392
0.20392157 0.57058824 0.18431373
0.22107843 0.56862745 0.18872549
0.24803922 0.56862745 0.19215686
0.27352941 0.56862745 0.19215686
0.29411765 0.56470588 0.18823529
0.33382353 0.575 0.18186275
0.38137255 0.59313725 0.18137255
0.42156863 0.60686275 0.17303922
0.4627451 0.61764706 0.17058824
0.51617647 0.63186275 0.16470588
0.56764706 0.64607843 0.15784314
0.62303922 0.66176471 0.14754902
0.67843137 0.67843137 0.13333333
0.72990196 0.69264706 0.12303922
0.7754902 0.69901961 0.11568627
0.81372549 0.70539216 0.099019608
0.85098039 0.71176471 0.07254902
0.89215686 0.72156863 0.046078431
0.92647059 0.72156863 0.039215686
0.95735294 0.72156863 0.032352941
0.99215686 0.7254902 0.011764706
0.20343137 0.62156863 0.21666667
0.20196078 0.61911765 0.21121324
0.20379902 0.61875 0.2060049
0.2122549 0.61390931 0.20275735
0.23088235 0.60857843 0.20612745
0.24901961 0.60588235 0.20931373
0.27316176 0.60588235 0.21605392
0.2911152 0.6028799 0.21182598
0.30441176 0.59803922 0.20490196
0.33866422 0.6028799 0.19944853
0.38321078 0.6182598 0.19767157
0.42420343 0.63167892 0.19969363
0.4627451 0.64215686 0.19828431
0.5122549 0.65637255 0.19264706
0.56188725 0.66960784 0.1877451
0.61127451 0.68235294 0.18866422
0.65784314 0.69901961 0.18627451
0.70931373 0.71176471 0.18088235
0.75588235 0.72254902 0.17169118
0.79558824 0.7286152 0.15655637
0.83676471 0.73627451 0.13995098
0.87794118 0.74479167 0.125
0.91335784 0.74852941 0.11580882
0.94705882 0.74908088 0.10441176
0.9754902 0.75245098 0.090196078
0.23921569 0.65784314 0.24215686
0.23921569 0.65490196 0.23578431
0.23946078 0.65392157 0.23137255
0.24754902 0.65134804 0.23137255
0.2627451 0.64705882 0.23137255
0.27794118 0.64313725 0.23431373
0.29509804 0.64387255 0.2372549
0.31360294 0.63884804 0.23284314
0.3245098 0.63137255 0.22647059
0.34252451 0.62990196 0.22242647
0.38529412 0.64313725 0.22647059
0.42647059 0.65723039 0.22647059
0.46323529 0.66764706 0.2254902
0.50821078 0.68088235 0.22352941
0.55588235 0.69191176 0.22426471
0.60306373 0.7057598 0.22745098
0.64705882 0.71960784 0.22745098
0.69178922 0.73272059 0.22745098
0.73627451 0.74509804 0.22794118
0.78137255 0.75441176 0.22291667
0.82254902 0.76176471 0.21519608
0.86372549 0.77071078 0.20343137
0.90196078 0.7752451 0.19313725
0.93676471 0.7754902 0.17794118
0.9627451 0.77941176 0.16862745
0.27647059 0.69607843 0.26568627
0.27892157 0.69215686 0.26734069
0.28872549 0.69215686 0.27254902
0.29515931 0.69215686 0.27254902
0.30563725 0.68627451 0.27083333
0.31660539 0.68431373 0.26862745
0.33039216 0.68088235 0.27156863
0.34852941 0.67677696 0.27254902
0.3627451 0.67254902 0.26862745
0.37941176 0.66862745 0.26813725
0.4067402 0.67487745 0.26862745
0.44411765 0.68823529 0.26519608
0.47916667 0.69852941 0.26470588
0.51476716 0.70839461 0.26862745
0.55723039 0.71568627 0.27120098
0.59822304 0.72959559 0.26519608
0.64313725 0.74362745 0.26862745
0.68694853 0.75655637 0.2745098
0.72990196 0.76948529 0.28382353
0.77107843 0.77892157 0.2872549
0.8122549 0.78872549 0.2870098
0.85343137 0.79552696 0.27886029
0.89068627 0.80245098 0.27156863
0.92303922 0.80637255 0.25735294
0.9495098 0.81029412 0.25098039
0.3254902 0.73333333 0.30784314
0.33063725 0.73333333 0.31176471
0.33921569 0.73284314 0.31372549
0.34289216 0.72941176 0.3120098
0.35 0.72647059 0.30980392
0.36127451 0.72328431 0.30980392
0.3745098 0.72009804 0.31372549
0.38970588 0.71764706 0.31764706
0.40392157 0.71372549 0.31568627
0.41813725 0.70980392 0.3125
0.43578431 0.71029412 0.30980392
0.46691176 0.71911765 0.30980392
0.50196078 0.72941176 0.31078431
0.53872549 0.73970588 0.31568627
0.57107843 0.74656863 0.3127451
0.60441176 0.75637255 0.31176471
0.64117647 0.76666667 0.31568627
0.68284314 0.78210784 0.32598039
0.7254902 0.79509804 0.33627451
0.76495098 0.80539216 0.34313725
0.80490196 0.81568627 0.34901961
0.84264706 0.82205882 0.35073529
0.88039216 0.83088235 0.34558824
0.91421569 0.8372549 0.3377451
0.93921569 0.84117647 0.32941176
0.38284314 0.77058824 0.35882353
0.38707108 0.77058824 0.35931373
0.39117647 0.77058824 0.36188725
0.39503676 0.77058824 0.35631127
0.39534314 0.76691176 0.35073529
0.40686275 0.7627451 0.35238971
0.41715686 0.75882353 0.35796569
0.43088235 0.75490196 0.36060049
0.44509804 0.75490196 0.35931373
0.45539216 0.75098039 0.35539216
0.46960784 0.74705882 0.35012255
0.49019608 0.75091912 0.34748775
0.52720588 0.76078431 0.35784314
0.56470588 0.775 0.36862745
0.60294118 0.78529412 0.37634804
0.63186275 0.79381127 0.38167892
0.65980392 0.80147059 0.38431373
0.69068627 0.81176471 0.3877451
0.72242647 0.82205882 0.39264706
0.76323529 0.83235294 0.40294118
0.80245098 0.84264706 0.41323529
0.84117647 0.85294118 0.41911765
0.87463235 0.85931373 0.41617647
0.90637255 0.86783088 0.41372549
0.93284314 0.87205882 0.40735294
0.44019608 0.81176471 0.41568627
0.44693627 0.81360294 0.42205882
0.45588235 0.81470588 0.42745098
0.45980392 0.81470588 0.42830882
0.46421569 0.81176471 0.42843137
0.46813725 0.80772059 0.42696078
0.47230392 0.80098039 0.42132353
0.4807598 0.79791667 0.42058824
0.49607843 0.79901961 0.42745098
0.50637255 0.79509804 0.42352941
0.52058824 0.79436275 0.41862745
0.53517157 0.79203431 0.41568627
0.56862745 0.80343137 0.42941176
0.60845588 0.81617647 0.44754902
0.6379902 0.82647059 0.45416667
0.6627451 0.8317402 0.45919118
0.6872549 0.83921569 0.4627451
0.71629902 0.84767157 0.46372549
0.74215686 0.85294118 0.46470588
0.77647059 0.86323529 0.475
0.8127451 0.87352941 0.48529412
0.84767157 0.88382353 0.49117647
0.87843137 0.89019608 0.48823529
0.90526961 0.89656863 0.48333333
0.92352941 0.9 0.47941176
0.51617647 0.85833333 0.50196078
0.51917892 0.85741422 0.50196078
0.52463235 0.85833333 0.50588235
0.53008578 0.85833333 0.50833333
0.53431373 0.85686275 0.50833333
0.53970588 0.85637255 0.5096201
0.54215686 0.84938725 0.50294118
0.54362745 0.84417892 0.49748775
0.55392157 0.84656863 0.50441176
0.57205882 0.84803922 0.51035539
0.57843137 0.84264706 0.50245098
0.59215686 0.84215686 0.50147059
0.61715686 0.84852941 0.51323529
0.6504902 0.86127451 0.52971814
0.67340686 0.86654412 0.53186275
0.69362745 0.87009804 0.53633578
0.71813725 0.87892157 0.53970588
0.74117647 0.88192402 0.5372549
0.76568627 0.8877451 0.53786765
0.79234069 0.89656863 0.54705882
0.82303922 0.90441176 0.55735294
0.85392157 0.91452206 0.56176471
0.88039216 0.91813725 0.55931373
0.89895833 0.92058824 0.55245098
0.90686275 0.92058824 0.54607843
0.58039216 0.89803922 0.57647059
0.57647059 0.89411765 0.57009804
0.58529412 0.89803922 0.57352941
0.59215686 0.89852941 0.57696078
0.58823529 0.89411765 0.57254902
0.59607843 0.89362745 0.57303922
0.59313725 0.8872549 0.56666667
0.59362745 0.88235294 0.56078431
0.60784314 0.88235294 0.56862745
0.6245098 0.89264706 0.58284314
0.63235294 0.88921569 0.57941176
0.64607843 0.88627451 0.57598039
0.66666667 0.89215686 0.59215686
0.68676471 0.89803922 0.6
0.70098039 0.89803922 0.59607843
0.72058824 0.90343137 0.60147059
0.74117647 0.90588235 0.6
0.76176471 0.90833333 0.59607843
0.78333333 0.91078431 0.59607843
0.81029412 0.92107843 0.60343137
0.83529412 0.93137255 0.61372549
0.85980392 0.9377451 0.61960784
0.87745098 0.94117647 0.6127451
0.8877451 0.9372549 0.60637255
0.89411765 0.9372549 0.60392157
0.057352941 0.057352941 0.051960784
0.070098039 0.05189951 0.054411765
0.093137255 0.050612745 0.057965686
0.12401961 0.045772059 0.056066176
0.15490196 0.037254902 0.054166667
0.19460784 0.035294118 0.054411765
0.24497549 0.037745098 0.049877451
0.29362745 0.03627451 0.050490196
0.34754902 0.019607843 0.050490196
0.40294118 0.0078431373 0.051041667
0.45833333 0.0078431373 0.045588235
0.51341912 0.0093137255 0.039215686
0.57181373 0.0066176471 0.033578431
0.62892157 0.0053921569 0.03057598
0.68823529 0.0042892157 0.025122549
0.74607843 0.003370098 0.015196078
0.8 0.0024509804 0.012745098
0.83572304 0.0024509804 0.020588235
0.8745098 0 0.029901961
0.91207108 0 0.026470588
0.94583333 0 0.020098039
0.97352941 0.0041053922 0.010294118
0.99117647 0.020220588 0.0078431373
0.99754902 0.052022059 0.010294118
1 0.073529412 0.014215686
0.066605392 0.069117647 0.055453431
0.075428922 0.066666667 0.054764093
0.093121936 0.067647059 0.056663603
0.11917892 0.064146752 0.055997243
0.15340074 0.059068627 0.054166667
0.19460784 0.059252451 0.054901961
0.24215686 0.059252451 0.052971814
0.29328278 0.055047488 0.048958333
0.34754902 0.030882353 0.050490196
0.40294118 0.016666667 0.048383885
0.45856311 0.014215686 0.04375
0.51501225 0.011075368 0.038909314
0.575 0.0061580882 0.032843137
0.6316636 0.006004902 0.029051777
0.68861826 0.0043045343 0.021568627
0.74761029 0.002221201 0.011481311
0.8 0.0024509804 0.010294118
0.8372549 0.0024509804 0.020588235
0.8745098 0 0.029901961
0.91207108 0 0.026470588
0.94705882 0.00076593137 0.020098039
0.97451746 0.0061734069 0.012438725
0.99186581 0.031801471 0.0085324755
0.99908088 0.074486826 0.0067172181
1 0.093198529 0.0078431373
0.048039216 0.085294118 0.055514706
0.063036152 0.085294118 0.053814338
0.084405637 0.08838848 0.055882353
0.11174939 0.09073223 0.056862745
0.15220588 0.087745098 0.057965686
0.19707414 0.088771446 0.057352941
0.24231005 0.088235294 0.055055147
