site/assets/luts/sha256-bf39a80166e06d587845717a56866a573da0ec4cf25959e9145572f27cf283ff.cube
# LUTr-Schema-Version: 2
# LUTr-ID: sha256-bf39a80166e06d587845717a56866a573da0ec4cf25959e9145572f27cf283ff
# LUTr-Title: polaroid 690 cold
# LUTr-Collection: Natron HaldCLUT
# LUTr-Collection-ID: natron-haldclut-presets
# LUTr-Source: https://github.com/NatronGitHub/clut
# LUTr-Retrieved: 2026-07-27
# LUTr-Source-File: submissions/natron-haldclut-presets/instant_pro/polaroid_690_cold.png
# LUTr-Source-Format: HALD-PNG
# LUTr-Source-SHA256: bf39a80166e06d587845717a56866a573da0ec4cf25959e9145572f27cf283ff
# LUTr-License: CC-BY-SA-4.0
# LUTr-License-URL: https://github.com/NatronGitHub/clut#license
# LUTr-License-Basis: repo-license-file
# LUTr-Transform-Class: film-emulation
# LUTr-Tags: creative, film, film-emulation, hald-clut, natron, png, cool, cube
# LUTr-Input-Color-Space: srgb
# LUTr-Input-Gamut: rec709
# LUTr-Input-Transfer: srgb
# LUTr-Output-Color-Space: srgb
# LUTr-Output-Gamut: rec709
# LUTr-Output-Transfer: srgb
# LUTr-Color-Space-Confidence: assumed-display-referred
# LUTr-Domain-Normalized: true
# LUTr-Shaper: none
# LUTr-Original-Grid: 64x64x64
# LUTr-Conversion-Grid: 25x25x25
# LUTr-Conversion-Interpolation: trilinear
# LUTr-Conversion-Method: HALD-PNG LUT image decoded at 16-bit and sampled to 25x25x25 3D CUBE
# LUTr-Conversion-Tool: LUTr scripts/convert-all-to-cube.mjs 2.0.0
# LUTr-Conversion-Date: 2026-07-27
# LUTr-Note: Preserve this metadata and the upstream license notices when redistributing.
TITLE "polaroid 690 cold"
LUT_3D_SIZE 9
DOMAIN_MIN 0 0 0
DOMAIN_MAX 1 1 1
0 0.13333333 0.12156863
0.033823529 0.13333333 0.1254902
0.13039216 0.13333333 0.13333333
0.24215686 0.11911765 0.12794118
0.40784314 0.070588235 0.14117647
0.58382353 0 0.12941176
0.74607843 0.0039215686 0.13333333
0.89215686 0 0.12107843
1 0 0.10196078
0.0039215686 0.16813725 0.14068627
0.019056373 0.16813725 0.1372549
0.13419118 0.17205882 0.1372549
0.27579657 0.15998775 0.13333333
0.45392157 0.12034314 0.14117647
0.62205882 0.054901961 0.12922794
0.78382353 0.00098039216 0.1254902
0.90735294 0 0.11372549
0.98088235 0.0039215686 0.12107843
0.0039215686 0.23627451 0.1372549
0.006372549 0.2310049 0.13333333
0.14632353 0.23210784 0.12941176
0.32463235 0.24705882 0.12585784
0.52941176 0.23872549 0.12401961
0.69558824 0.21176471 0.11654412
0.82941176 0.14191176 0.10906863
0.93247549 0.10085784 0.095098039
0.99607843 0.056862745 0.095098039
0 0.32598039 0.12941176
0.009129902 0.33529412 0.12941176
0.13897059 0.33860294 0.1254902
0.33480392 0.36911765 0.10882353
0.54901961 0.39068627 0.07622549
0.73229167 0.40238971 0.071997549
0.86813725 0.39607843 0.057352941
0.97009804 0.37628676 0.055698529
0.99460784 0.36470588 0.061764706
0 0.48039216 0.098039216
0.0039215686 0.47083333 0.095833333
0.088235294 0.47009804 0.090196078
0.32107843 0.49509804 0.057843137
0.53627451 0.53137255 0.011764706
0.72303922 0.55245098 0.0019607843
0.86078431 0.57941176 0.0088235294
0.96617647 0.59436275 0.017647059
1 0.58823529 0.039215686
0 0.63235294 0.020588235
0.0039215686 0.61911765 0.037561275
0.037867647 0.61580882 0.03627451
0.30735294 0.62310049 0.018137255
0.5122549 0.64362745 0.0078431373
0.68523284 0.66770833 0.0039215686
0.83051471 0.69166667 0.0039215686
0.9463848 0.69883578 0.0078431373
0.99754902 0.70490196 0.035784314
0 0.74411765 0.0039215686
0.00625 0.74019608 0.0039215686
0.15416667 0.7372549 0.0039215686
0.36421569 0.73235294 0.0042892157
0.51764706 0.74558824 0.0024509804
0.67438725 0.75698529 0.0033088235
0.81960784 0.77156863 0.0017156863
0.9307598 0.78235294 0.0052696078
0.99215686 0.78333333 0.0049019608
0.2495098 0.83627451 0.016176471
0.29754902 0.83676471 0.024509804
0.36960784 0.83284314 0.010784314
0.48204657 0.82892157 0.011764706
0.59705882 0.83284314 0.0039215686
0.71256127 0.84068627 0.0017769608
0.83039216 0.85245098 0.014093137
0.92696078 0.86464461 0.0078431373
0.99607843 0.86813725 0.0078431373
0.45490196 0.9254902 0.23529412
0.49313725 0.93676471 0.25
0.53627451 0.93333333 0.23529412
0.60098039 0.9372549 0.22892157
0.67647059 0.93137255 0.19411765
0.76372549 0.94362745 0.21519608
0.84509804 0.94509804 0.20784314
0.92254902 0.9495098 0.19607843
0.96470588 0.96862745 0.23137255
0.00049019608 0.1372549 0.16813725
0.02689951 0.1372549 0.17156863
0.11911765 0.1372549 0.16507353
0.23970588 0.1254902 0.16372549
0.40416667 0.082352941 0.16764706
0.57598039 0.016360294 0.16403186
0.74754902 0 0.15551471
0.89172794 0 0.14846814
0.98823529 0 0.13676471
0 0.16078431 0.16421569
0.026531863 0.16813725 0.17984069
0.13606005 0.16384804 0.17291667
0.27401961 0.14826134 0.16217065
0.43872549 0.11473652 0.16029412
0.61035539 0.03024663 0.16405484
0.76954657 0.0031709559 0.1511489
0.89957108 0 0.14417126
0.98382353 0.0034313725 0.13327206
0 0.23627451 0.1754902
0 0.22553615 0.17205882
0.15652574 0.23848039 0.17941176
0.32714461 0.24928002 0.17120098
0.51715686 0.22892157 0.16464461
0.67941176 0.17994792 0.15980392
0.82156863 0.11424632 0.14803922
0.92892157 0.058563113 0.13713235
0.99987745 0.013480392 0.12071078
0 0.34313725 0.17285539
0.0081112132 0.34656863 0.17126225
0.15098039 0.35194547 0.16951593
0.3486443 0.37285539 0.15091146
0.55686275 0.39411765 0.13520221
0.74277727 0.41158854 0.14980852
0.87026654 0.39724265 0.13965993
0.96786918 0.3654182 0.12810202
1 0.35196078 0.11666667
0 0.48431373 0.1495098
0.0056372549 0.48382353 0.14957108
0.097487745 0.48210784 0.14191176
0.3286152 0.50824142 0.11593137
0.53443627 0.53713235 0.074632353
0.71666667 0.56789216 0.028523284
0.865625 0.59068627 0.055330882
0.97077206 0.60027574 0.12521446
0.99607843 0.57254902 0.15882353
0 0.63480392 0.08872549
0.0036151961 0.62930453 0.097058824
0.044117647 0.62189032 0.091666667
0.30343137 0.63314951 0.056058517
0.50523897 0.65514706 0.012009804
0.68431373 0.67254902 0.0078354779
0.83414522 0.69522059 0.0067401961
0.95290288 0.70637255 0.058340993
0.99607843 0.70851716 0.17910539
0.0039215686 0.74509804 0.076470588
0.012622549 0.74803922 0.056004902
0.13771446 0.74433211 0.023682598
0.35919118 0.74381127 0.0046721814
0.51734069 0.74730392 0.0060661765
0.67794118 0.75919118 0.0018382353
0.81740196 0.77156863 0.0039215686
0.93468137 0.77941176 0.031372549
0.99215686 0.78627451 0.10330882
0.25680147 0.840625 0.12800245
0.28088235 0.84031097 0.11727941
0.36421569 0.83676471 0.085585172
0.46844363 0.83284314 0.053538603
0.58820466 0.83327206 0.036703431
0.71488971 0.84068627 0.0061504289
0.82659314 0.84852941 0.019745711
0.92303922 0.86078431 0.065686275
0.99172794 0.86813725 0.13976716
0.47892157 0.9372549 0.30490196
0.48535539 0.93290441 0.28970588
0.52696078 0.93333333 0.28088235
0.59754902 0.93596814 0.27371324
0.67279412 0.93333333 0.25367647
0.76145833 0.94154412 0.25545343
0.83823529 0.9435049 0.24901961
0.91911765 0.96035539 0.2721201
0.96862745 0.96470588 0.26960784
0 0.14411765 0.24019608
0.0073529412 0.13982843 0.24963235
0.093627451 0.14117647 0.25882353
0.24473039 0.13664216 0.24019608
0.40882353 0.091666667 0.24166667
0.575 0.0073529412 0.23982843
0.73063725 0 0.22745098
0.8682598 0 0.20539216
0.97352941 0 0.20490196
0 0.16801471 0.24754902
0.016176471 0.16801471 0.24684436
0.12604167 0.16764706 0.25098039
0.2810049 0.15968137 0.25151654
0.43995098 0.11421569 0.24705882
0.60212929 0.0046875 0.23400735
0.74301471 0.0027879902 0.23121936
0.88480392 0 0.2046875
0.98186275 0 0.19620098
0 0.24411765 0.26985294
0.028676471 0.24056373 0.26666667
0.14705882 0.24411765 0.27199755
0.32938113 0.24485294 0.26942402
0.50036765 0.20784314 0.26262255
0.66099877 0.13471201 0.24414828
0.80294118 0.022058824 0.22377451
0.92349877 0.006372549 0.21072304
0.99142157 0.011029412 0.19705882
0 0.36029412 0.27843137
0.0039215686 0.36813725 0.27584252
0.13599877 0.36813725 0.26960784
0.36533395 0.38180147 0.26859681
0.57279412 0.39191176 0.27346814
0.73180147 0.38751532 0.27703738
0.85588235 0.34733456 0.25637255
0.95392157 0.30441176 0.23333333
0.99644608 0.29852941 0.21482843
0 0.51470588 0.27254902
0.0039215686 0.51617647 0.2620098
0.081985294 0.51421569 0.25870098
0.33394608 0.51335784 0.24632353
0.54485294 0.53921569 0.23235294
0.72696078 0.57371324 0.23455882
0.86421569 0.58541667 0.25245098
0.96660539 0.58541667 0.28094363
0.99607843 0.55882353 0.28039216
0 0.64803922 0.24791667
0.0039215686 0.651731 0.24474571
0.017800245 0.65098039 0.22735907
0.30176164 0.6372549 0.21323529
0.50496324 0.65845588 0.19558824
0.68670343 0.68223039 0.18368566
0.83872549 0.69852941 0.19803922
0.94710478 0.69949449 0.25516238
0.99607843 0.70992647 0.33051471
0.011764706 0.75882353 0.23823529
0.014460784 0.75597426 0.22625613
0.1528799 0.75661765 0.21004902
0.34852941 0.7518076 0.19185049
0.51752451 0.75306373 0.17610294
0.68158701 0.76439951 0.17717525
0.81960784 0.7745098 0.17426471
0.93382353 0.77977941 0.21216299
0.98823529 0.79019608 0.29215686
0.24742647 0.84460784 0.26727941
0.26913297 0.84068627 0.26421569
0.36369485 0.84068627 0.2435049
0.46378676 0.83668811 0.22941176
0.57879902 0.83284314 0.20177696
0.70543811 0.84068627 0.20471814
0.82061887 0.84938725 0.21608456
0.92303922 0.86078431 0.23627451
0.98541667 0.87205882 0.28627451
0.46372549 0.94117647 0.38921569
0.48566176 0.94117647 0.38909314
0.50882353 0.92867647 0.36176471
0.58345588 0.93333333 0.35539216
0.66323529 0.93333333 0.34558824
0.75404412 0.94571078 0.34240196
0.83357843 0.93651961 0.33039216
0.91470588 0.95686275 0.36507353
0.97352941 0.96862745 0.38137255
0 0.15294118 0.37696078
0 0.14932598 0.38088235
0.098406863 0.13615196 0.40980392
0.3122549 0.11819853 0.42984069
0.45833333 0.080637255 0.3995098
0.59319853 0.015134804 0.36519608
0.73970588 0.0018382353 0.36421569
0.86844363 0 0.3495098
0.96470588 0 0.32303922
0 0.17579657 0.38431373
0.01127451 0.1754902 0.38868719
0.1004902 0.16776961 0.4136489
0.32696078 0.15723805 0.43676471
0.48103554 0.12043505 0.4127451
0.61826746 0.028125 0.37438725
0.74710478 0.0039215686 0.36127451
0.87254902 0 0.33956036
0.9877451 0 0.30520833
0 0.24705882 0.40735294
0.0061121324 0.24345895 0.40525429
0.11038603 0.24678309 0.4254902
0.35637255 0.25398284 0.44768689
0.50839461 0.22040441 0.41905637
0.64872855 0.14558824 0.38540135
0.77913603 0.02276348 0.35845588
0.90030637 0.013909314 0.33031556
0.99362745 0.0011029412 0.27279412
0 0.3778799 0.43823529
0.003370098 0.38033088 0.43823529
0.14431679 0.38394608 0.44313725
0.37738971 0.39697457 0.45637255
0.56709559 0.39390319 0.44898897
0.69944853 0.32941176 0.40743719
0.82598039 0.25621936 0.37643995
0.93903186 0.19829197 0.33780637
0.99754902 0.12585784 0.3127451
0 0.55269608 0.45637255
0 0.5497549 0.45735294
0.11519608 0.55147059 0.45226716
0.35928309 0.55045956 0.43648897
0.54963235 0.56323529 0.43382353
0.72965686 0.58140319 0.44044118
0.86390931 0.58425245 0.45790441
0.9504902 0.53596814 0.42107843
0.99607843 0.50955882 0.39362745
0 0.68192402 0.42800245
0.0039215686 0.68376225 0.43137255
0.054289216 0.67930453 0.42058824
0.32730545 0.66960784 0.40334712
0.51056985 0.67380515 0.39485294
0.68823529 0.69311428 0.40392157
0.83238358 0.70490196 0.42405025
0.94246324 0.71060049 0.47371324
0.99454657 0.71268382 0.50778186
0.011887255 0.77120098 0.42254902
0.027772672 0.77317708 0.41675858
0.16424632 0.76991422 0.40088848
0.3651348 0.76187194 0.37751225
0.51427696 0.75588235 0.36341912
0.67401961 0.76666667 0.36905637
0.81887255 0.77760417 0.39090074
0.93088235 0.78242953 0.42120098
0.99656863 0.7872549 0.46286765
0.23137255 0.85490196 0.43970588
0.26786918 0.8469133 0.42342218
0.34852941 0.84460784 0.41335784
0.46011029 0.84449295 0.39001991
0.57083333 0.83872549 0.37328431
0.69264706 0.83823529 0.36324295
0.81341912 0.8495098 0.38480392
0.91470588 0.86378676 0.40517004
0.98106618 0.87383578 0.45098039
0.45735294 0.94509804 0.51421569
0.46697304 0.94148284 0.50453431
0.50637255 0.9372549 0.49497549
0.57107843 0.93480392 0.47794118
0.6504902 0.93602941 0.46348039
0.73621324 0.93817402 0.45294118
0.82683824 0.94754902 0.46323529
0.90471814 0.96372549 0.4872549
0.97009804 0.97941176 0.51323529
0.0039215686 0.15686275 0.55686275
0.0039215686 0.15122549 0.56029412
0.017156863 0.13382353 0.58921569
0.33970588 0.10416667 0.62647059
0.55294118 0.031372549 0.64607843
0.66666667 0.0085784314 0.59460784
0.76862745 0.0053921569 0.5377451
0.88602941 0 0.50955882
0.97647059 0 0.50588235
0 0.17990196 0.55857843
0.0039215686 0.1794424 0.56764706
0.037745098 0.17156863 0.59289216
0.34990809 0.14666054 0.64083946
0.56446078 0.092647059 0.64767157
0.68216912 0.032689951 0.60147059
0.7870098 0.020588235 0.54963235
0.8879902 0.0056372549 0.50977328
0.98455882 0 0.49411765
0.0039215686 0.25196078 0.5627451
0.0078431373 0.25018382 0.57604167
0.061029412 0.25171569 0.60343137
0.359375 0.2627451 0.63970588
0.57867647 0.24656863 0.65686275
0.69191176 0.21029412 0.5973652
0.79313725 0.14301471 0.54803922
0.90189951 0.017708333 0.51415441
0.97205882 0.0039215686 0.47745098
0 0.36446078 0.56960784
0.0060355392 0.3754902 0.57803309
0.04185049 0.36715686 0.58541667
0.37181373 0.40340074 0.62990196
0.58088235 0.41862745 0.64852941
0.71053922 0.3705576 0.60487132
0.81354167 0.30643382 0.54540441
0.91390931 0.14396446 0.48979779
0.99215686 0.015686275 0.44607843
0.0039215686 0.55098039 0.60686275
0.0030637255 0.55588235 0.61262255
0.12598039 0.55465686 0.61715686
0.38982843 0.56691176 0.63063725
0.57107843 0.59166667 0.64607843
0.71176471 0.56727941 0.6252451
0.82598039 0.49558824 0.56985294
0.93284314 0.45845588 0.52953431
0.99411765 0.38921569 0.47647059
0.0031862745 0.69681373 0.61446078
0.0038296569 0.70441176 0.62567402
0.20355392 0.7004902 0.61813725
0.39460784 0.69656863 0.61102941
0.54448529 0.69546569 0.60882353
0.69803922 0.70122549 0.61813725
0.83584559 0.71329657 0.63425245
0.92784926 0.69883578 0.63584559
0.98627451 0.67671569 0.6125
0.062254902 0.78627451 0.60735294
0.13676471 0.78480392 0.60949755
0.27610294 0.78284314 0.60318627
0.41004902 0.77916667 0.58872549
0.52818627 0.76789216 0.5629902
0.67530637 0.77058824 0.56397059
0.81715686 0.78235294 0.58259804
0.92058824 0.79025735 0.60692402
0.98088235 0.79411765 0.64803922
0.28137255 0.86004902 0.61421569
0.3171875 0.85833333 0.6041973
0.37536765 0.85416667 0.58964461
0.46829044 0.85373775 0.57990196
0.56568627 0.84338235 0.54644608
0.67677696 0.83676471 0.5372549
0.80245098 0.85330882 0.55588235
0.90686275 0.86470588 0.57870711
0.98578431 0.87377451 0.61372549
0.45098039 0.94117647 0.65686275
0.46666667 0.94362745 0.64583333
0.5 0.9372549 0.63578431
0.56102941 0.94044118 0.6254902
0.63823529 0.94509804 0.61372549
0.70759804 0.91421569 0.57892157
0.80882353 0.93921569 0.58333333
0.89166667 0.94583333 0.60441176
0.95882353 0.97843137 0.64509804
0.0039215686 0.15686275 0.73284314
0 0.14166667 0.73529412
0.014705882 0.13370098 0.75539216
0.33186275 0.094056373 0.77935049
0.57647059 0.0031862745 0.81372549
0.73376225 0.015134804 0.79803922
0.83786765 0.0039215686 0.74620098
0.91403186 0.0039215686 0.69607843
0.98431373 0.0053921569 0.68186275
0 0.18382353 0.73676471
0.0039215686 0.18333333 0.73658088
0.037423407 0.17156863 0.75208333
0.34301471 0.1495098 0.78872549
0.58734681 0.1140625 0.80916054
0.7486443 0.053913909 0.80637255
0.84620098 0.031050858 0.75735294
0.91791513 0.013051471 0.69607843
0.98970588 0.0021446078 0.671875
0.0014705882 0.26090686 0.72536765
0.0039215686 0.25994179 0.73730086
0.0075980392 0.24840686 0.75539216
0.35110294 0.26127451 0.78019301
0.58995098 0.26838235 0.81182598
0.74319853 0.25980392 0.8001685
0.84163603 0.23639706 0.75753676
0.92058824 0.15744485 0.7011489
0.99166667 0.065808824 0.67438725
0.00055147059 0.36421569 0.70686275
0 0.37205116 0.72854626
0.050474877 0.36997549 0.73970588
0.35631127 0.39656863 0.76519608
0.58655025 0.43627451 0.79261642
0.72915135 0.44486826 0.79074755
0.82835478 0.41462929 0.75602022
0.90870864 0.34595588 0.69882047
0.984375 0.21660539 0.66127451
0.0039215686 0.51421569 0.72083333
0.0039215686 0.52009804 0.71994485
0.041544118 0.51887255 0.7254902
0.3359375 0.53624387 0.74016544
0.56139706 0.5875 0.77696078
0.71519608 0.61035539 0.78970588
0.81525735 0.56433824 0.75196078
0.90637255 0.47567402 0.68651961
0.98946078 0.35490196 0.62230392
0.0023897059 0.68523284 0.75098039
0.033808211 0.69167433 0.74705882
0.21199449 0.69068627 0.75098039
0.41744026 0.68789062 0.76148131
0.57720588 0.70710784 0.7745098
0.71531863 0.71926317 0.79201134
0.82670037 0.71078431 0.7855239
0.90509344 0.65294118 0.73106618
0.99068627 0.57892157 0.67248775
0.31507353 0.79558824 0.77205882
0.35291054 0.79411765 0.77745098
0.41109069 0.79056373 0.76997549
0.49888174 0.79019608 0.76568627
0.59313725 0.78719363 0.75300245
0.70686275 0.78535539 0.75870098
0.81262255 0.79093137 0.76087623
0.91037071 0.80200674 0.78443627
0.975 0.79313725 0.79166667
0.39803922 0.86764706 0.76930147
0.42107843 0.86421569 0.76748621
0.45588235 0.86006434 0.76421569
0.52689951 0.85899969 0.75556832
0.60392157 0.85701593 0.74598652
0.6872549 0.84822304 0.71856618
0.79571078 0.85654105 0.71706495
0.89540441 0.87205882 0.73698683
0.96341912 0.87959559 0.76243873
0.49460784 0.94901961 0.78235294
0.50098039 0.94166667 0.77714461
0.53676471 0.94019608 0.77843137
0.56868873 0.91917892 0.76421569
0.63284314 0.92181373 0.74852941
0.71121324 0.93480392 0.73621324
0.79754902 0.94963235 0.72352941
0.88204657 0.95784314 0.74362745
0.94509804 0.93382353 0.75882353
0.0049019608 0.16078431 0.87352941
0.0013480392 0.15036765 0.87058824
0.093627451 0.14436275 0.88137255
0.38345588 0.1127451 0.89313725
0.58529412 0.028431373 0.90931373
0.76213235 0.063602941 0.92291667
0.87745098 0.10196078 0.90955882
0.95747549 0.013112745 0.88443627
1 0.051960784 0.84411765
0.0078431373 0.19595588 0.86617647
0.011994485 0.18737745 0.86568627
0.080392157 0.17533701 0.88137255
0.38564645 0.16335784 0.89185049
0.59215686 0.14773284 0.90637255
0.76416973 0.18382353 0.92352941
0.8745098 0.18186275 0.90162377
0.95445772 0.15882353 0.87864583
0.98517157 0.15772059 0.84448529
0.011764706 0.27647059 0.8502451
0.00098039216 0.26764706 0.86531863
0.10177696 0.26470588 0.87745098
0.39469975 0.26810662 0.88520221
0.59620098 0.29105392 0.90208333
0.75946691 0.33161765 0.91384804
0.87132353 0.35214461 0.909375
0.94803922 0.32806373 0.87852328
0.98823529 0.31004902 0.83627451
0.012745098 0.38333333 0.83860294
0.0077205882 0.37901348 0.84460784
0.10940564 0.38189338 0.86341912
0.38673407 0.40294118 0.87284007
0.58265931 0.43768382 0.89534314
0.74215686 0.49944853 0.90885417
0.85539216 0.51470588 0.9060049
0.9269761 0.47852328 0.8707261
0.98578431 0.43933824 0.83676471
0.0039215686 0.51078431 0.82941176
0.00098039216 0.49705882 0.82659314
0.019117647 0.50404412 0.84117647
0.34283088 0.53339461 0.85067402
0.55588235 0.57843137 0.87745098
0.72334559 0.63529412 0.89620098
0.83284314 0.63676471 0.89607843
0.90343137 0.60441176 0.8622549
0.95735294 0.55882353 0.83137255
0.0013480392 0.67009804 0.84607843
0.0073529412 0.66098346 0.83970588
0.044791667 0.6638174 0.83933824
0.334375 0.66127451 0.84154412
0.52432598 0.68382353 0.85465686
0.69215686 0.71107537 0.87463235
0.8310049 0.73416054 0.89215686
0.90396752 0.70079657 0.85980392
0.96764706 0.64215686 0.8122549
0.25906863 0.78627451 0.86176471
0.29494485 0.78311887 0.86078431
0.38161765 0.78235294 0.8625
0.48504902 0.78250613 0.86559436
0.61519608 0.78872549 0.87107843
0.72276348 0.79117647 0.87671569
0.81335784 0.79430147 0.88112745
0.90333946 0.79546569 0.88183211
0.95980392 0.73921569 0.83504902
0.50551471 0.87205882 0.87647059
0.52627145 0.87182904 0.88120404
0.56351103 0.86963848 0.87742034
0.6127451 0.86776961 0.87352941
0.67971814 0.86795343 0.87634804
0.74203431 0.86907169 0.87254902
0.80245098 0.86470588 0.84617034
0.89106924 0.88002451 0.86960784
0.94803922 0.87904412 0.87352941
0.58627451 0.94901961 0.88431373
0.58982843 0.94411765 0.88394608
0.61372549 0.95196078 0.88431373
0.64252451 0.9439951 0.8807598
0.68431373 0.94901961 0.87794118
0.73333333 0.95612745 0.86948529
0.79411765 0.95514706 0.84705882
0.87205882 0.96029412 0.85
0.92941176 0.9754902 0.86568627
0.046078431 0.17401961 0.96568627
0.12855392 0.16954657 0.96568627
0.28615196 0.16323529 0.96519608
0.45704657 0.15765931 0.96305147
0.61666667 0.15098039 0.97352941
0.75686275 0.20606618 0.97696078
0.88186275 0.30294118 0.97830882
0.96219363 0.34595588 0.97346814
0.9995098 0.31421569 0.96127451
0.013970588 0.20876225 0.96525735
0.11928615 0.21574755 0.96171109
0.31156556 0.2162837 0.96176471
0.4651348 0.21129749 0.96568627
0.62230392 0.2296875 0.96936275
0.7627451 0.27375153 0.9745098
0.87702206 0.34923407 0.97760417
0.9613894 0.39314491 0.97303922
0.99515931 0.38284314 0.95042892
0.082352941 0.29901961 0.95539216
0.13509498 0.29869792 0.95903799
0.31234681 0.30039828 0.96167279
0.47158395 0.31470588 0.95784314
0.62230392 0.33045343 0.96746324
0.75882353 0.3957261 0.96911765
0.86847426 0.47395833 0.97303922
0.94978554 0.49620098 0.96956189
0.9872549 0.47401961 0.95514706
0.058823529 0.40704657 0.95018382
0.15216759 0.41078431 0.9504902
0.3010723 0.43236826 0.94266238
0.46648284 0.43988205 0.95098805
0.60955882 0.46911765 0.95735294
0.7473652 0.53125766 0.96519608
0.85784314 0.60098039 0.96911765
0.93216912 0.60486366 0.96289063
0.97218137 0.58762255 0.95232843
0.0024509804 0.53161765 0.93848039
0.020404412 0.52472426 0.93651961
0.20392157 0.53529412 0.93480392
0.4294424 0.55867034 0.94347426
0.58357843 0.59571078 0.94705882
0.73161765 0.63921569 0.95171569
0.84368873 0.67616422 0.95563725
0.92083333 0.6870098 0.95370711
0.97107843 0.65612745 0.94240196
0.011580882 0.66470588 0.92303922
0.01652114 0.65746017 0.92285539
0.030254289 0.64272365 0.92254902
0.33052237 0.65166973 0.92297028
0.53465074 0.67990196 0.92941176
0.70262714 0.71685049 0.93731618
0.83713235 0.74901961 0.95343137
0.90949755 0.75202206 0.95
0.96078431 0.72941176 0.93743873
0.20919118 0.77156863 0.92647059
0.23223039 0.77156863 0.92647059
0.32288603 0.77147672 0.92352941
0.44987745 0.76855086 0.92647059
0.55716912 0.76715686 0.92647059
0.67009804 0.76367953 0.93016238
0.81608456 0.80229779 0.94301471
0.90611213 0.81695772 0.95343137
0.94828431 0.79154412 0.93468137
0.48921569 0.86029412 0.9338848
0.50832567 0.86420803 0.93436734
0.56459865 0.86813725 0.93699449
0.6026348 0.86421569 0.93431373
0.68161765 0.86443015 0.9377451
0.75 0.86813725 0.93839614
0.83236826 0.87990196 0.94203431
0.89085478 0.88823529 0.94521293
0.94901961 0.85477941 0.92696078
0.67401961 0.95637255 0.94558824
0.66029412 0.94607843 0.94172794
0.69264706 0.95588235 0.94473039
0.71176471 0.95557598 0.94558824
0.75612745 0.95931373 0.94607843
0.78363971 0.95637255 0.94197304
0.82892157 0.96409314 0.93823529
0.87248775 0.96476716 0.93039216
0.92598039 0.98039216 0.93431373
0.42352941 0.28627451 0.99607843
0.4372549 0.29362745 0.9995098
0.48627451 0.27647059 0.99313725
0.57843137 0.3004902 0.99215686
0.69019608 0.32745098 0.99607843
0.78480392 0.37156863 0.99607843
0.87745098 0.45784314 0.99607843
0.95343137 0.52009804 0.99607843
0.99607843 0.55686275 0.99607843
0.42058824 0.32843137 1
0.45238971 0.3283701 0.9995098
0.49963235 0.32941176 0.99607843
0.58137255 0.32990196 0.99607843
0.68039216 0.35980392 0.99411765
0.77696078 0.39754902 0.99607843
0.87352941 0.48063725 0.99865196
0.94221814 0.57107843 1
0.98872549 0.57990196 0.99607843
0.43627451 0.40882353 0.99705882
0.46544118 0.4127451 0.99914216
0.51176471 0.41642157 0.99607843
0.59497549 0.42806373 0.99607843
0.68823529 0.45539216 0.99607843
0.78333333 0.49595588 0.99607843
0.86568627 0.55784314 0.99607843
0.93566176 0.60686275 0.9935049
0.98039216 0.61960784 0.99607843
0.44068627 0.52352941 0.99607843
0.46795343 0.52647059 0.99871324
0.51078431 0.52683824 0.99607843
0.58229167 0.53229167 0.99215686
0.68161765 0.55931373 0.99338235
0.77696078 0.59460784 0.99607843
0.86078431 0.64803922 0.99718137
0.93039216 0.66715686 0.99246324
0.97794118 0.68333333 0.99607843
0.41176471 0.6254902 0.99607843
0.41348039 0.61764706 0.99387255
0.46519608 0.61911765 0.99166667
0.55955882 0.63186275 0.98946078
0.66078431 0.64117647 0.98431373
0.76789216 0.67598039 0.98823529
0.85392157 0.70294118 0.98872549
0.92254902 0.71813725 0.98210784
0.97254902 0.71960784 0.98235294
0.3372549 0.70245098 0.99215686
0.38308824 0.70508578 0.9908701
0.43639706 0.70306373 0.98823529
0.53621324 0.70882353 0.98823529
0.65416667 0.71862745 0.98897059
0.75496324 0.73535539 0.98676471
0.84791667 0.75931373 0.98431373
0.92254902 0.78743873 0.98841912
0.97107843 0.79509804 0.99215686
0.43921569 0.7872549 0.98431373
0.44754902 0.7872549 0.98431373
0.47573529 0.78333333 0.98333333
0.52156863 0.77941176 0.97794118
0.57794118 0.76764706 0.96127451
0.72928922 0.78382353 0.98431373
0.83504902 0.81078431 0.98529412
0.91372549 0.84166667 0.98811275
0.96470588 0.85784314 0.98823529
0.57401961 0.87205882 0.97990196
0.58572304 0.87205882 0.98033088
0.60796569 0.87340686 0.98051471
0.61783088 0.86403186 0.96421569
0.68970588 0.87205882 0.97671569
0.75245098 0.86813725 0.97628676
0.81911765 0.87610294 0.97205882
0.89466912 0.8995098 0.9721201
0.9372549 0.91813725 0.97990196
0.69411765 0.96862745 0.98039216
0.6745098 0.95294118 0.96862745
0.69803922 0.95784314 0.97254902
0.71617647 0.95294118 0.96862745
0.75882353 0.95490196 0.98039216
0.7872549 0.9372549 0.97794118
0.83627451 0.95 0.97254902
0.89117647 0.98088235 0.97647059
0.9254902 0.98431373 0.95686275
