site/assets/luts/sha256-5686df75187ba07d9f659df55803ca50098111f80be99f7affed3eb877396d56.cube
# LUTr-Schema-Version: 2
# LUTr-ID: sha256-5686df75187ba07d9f659df55803ca50098111f80be99f7affed3eb877396d56
# LUTr-Title: kodak tri-x 400 ++
# LUTr-Collection: Natron HaldCLUT
# LUTr-Collection-ID: natron-haldclut-presets
# LUTr-Source: https://github.com/NatronGitHub/clut
# LUTr-Retrieved: 2026-07-27
# LUTr-Source-File: submissions/natron-haldclut-presets/negative_new/kodak_tri-x_400_++.png
# LUTr-Source-Format: HALD-PNG
# LUTr-Source-SHA256: 5686df75187ba07d9f659df55803ca50098111f80be99f7affed3eb877396d56
# LUTr-License: CC-BY-SA-4.0
# LUTr-License-URL: https://github.com/NatronGitHub/clut#license
# LUTr-License-Basis: repo-license-file
# LUTr-Transform-Class: film-emulation
# LUTr-Tags: creative, film, film-emulation, hald-clut, natron, png, cube
# LUTr-Input-Color-Space: srgb
# LUTr-Input-Gamut: rec709
# LUTr-Input-Transfer: srgb
# LUTr-Output-Color-Space: srgb
# LUTr-Output-Gamut: rec709
# LUTr-Output-Transfer: srgb
# LUTr-Color-Space-Confidence: assumed-display-referred
# LUTr-Domain-Normalized: true
# LUTr-Shaper: none
# LUTr-Original-Grid: 64x64x64
# LUTr-Conversion-Grid: 25x25x25
# LUTr-Conversion-Interpolation: trilinear
# LUTr-Conversion-Method: HALD-PNG LUT image decoded at 16-bit and sampled to 25x25x25 3D CUBE
# LUTr-Conversion-Tool: LUTr scripts/convert-all-to-cube.mjs 2.0.0
# LUTr-Conversion-Date: 2026-07-27
# LUTr-Note: Preserve this metadata and the upstream license notices when redistributing.
TITLE "kodak tri-x 400 ++"
LUT_3D_SIZE 9
DOMAIN_MIN 0 0 0
DOMAIN_MAX 1 1 1
0.14509804 0.14509804 0.14509804
0.14509804 0.14509804 0.14509804
0.14901961 0.14901961 0.14901961
0.14509804 0.14509804 0.14509804
0.17058824 0.17058824 0.17058824
0.20539216 0.20539216 0.20539216
0.24803922 0.24803922 0.24803922
0.31078431 0.31078431 0.31078431
0.42745098 0.42745098 0.42745098
0.14901961 0.14901961 0.14901961
0.14509804 0.14509804 0.14509804
0.16029412 0.16029412 0.16029412
0.17598039 0.17598039 0.17598039
0.19362745 0.19362745 0.19362745
0.23235294 0.23235294 0.23235294
0.28382353 0.28382353 0.28382353
0.35392157 0.35392157 0.35392157
0.44264706 0.44264706 0.44264706
0.1627451 0.1627451 0.1627451
0.17107843 0.17107843 0.17107843
0.19411765 0.19411765 0.19411765
0.22009804 0.22009804 0.22009804
0.2627451 0.2627451 0.2627451
0.30147059 0.30147059 0.30147059
0.34803922 0.34803922 0.34803922
0.40968137 0.40968137 0.40968137
0.50980392 0.50980392 0.50980392
0.22058824 0.22058824 0.22058824
0.21292892 0.21292892 0.21292892
0.24313725 0.24313725 0.24313725
0.28578431 0.28578431 0.28578431
0.33676471 0.33676471 0.33676471
0.3995098 0.3995098 0.3995098
0.4627451 0.4627451 0.4627451
0.54491422 0.54491422 0.54491422
0.64264706 0.64264706 0.64264706
0.31176471 0.31176471 0.31176471
0.30392157 0.30392157 0.30392157
0.29264706 0.29264706 0.29264706
0.35269608 0.35269608 0.35269608
0.42647059 0.42647059 0.42647059
0.51323529 0.51323529 0.51323529
0.5754902 0.5754902 0.5754902
0.66813725 0.66813725 0.66813725
0.74901961 0.74901961 0.74901961
0.43627451 0.43627451 0.43627451
0.43088235 0.43088235 0.43088235
0.40833333 0.40833333 0.40833333
0.43584559 0.43584559 0.43584559
0.51617647 0.51617647 0.51617647
0.60098039 0.60098039 0.60098039
0.7004902 0.7004902 0.7004902
0.77401961 0.77401961 0.77401961
0.82647059 0.82647059 0.82647059
0.62156863 0.62156863 0.62156863
0.59852941 0.59852941 0.59852941
0.58333333 0.58333333 0.58333333
0.57389706 0.57389706 0.57389706
0.63137255 0.63137255 0.63137255
0.70208333 0.70208333 0.70208333
0.78235294 0.78235294 0.78235294
0.85392157 0.85392157 0.85392157
0.89215686 0.89215686 0.89215686
0.79068627 0.79068627 0.79068627
0.78333333 0.78333333 0.78333333
0.76470588 0.76470588 0.76470588
0.75196078 0.75196078 0.75196078
0.77647059 0.77647059 0.77647059
0.81519608 0.81519608 0.81519608
0.86127451 0.86127451 0.86127451
0.91170343 0.91170343 0.91170343
0.9495098 0.9495098 0.9495098
0.90588235 0.90588235 0.90588235
0.90147059 0.90147059 0.90147059
0.91470588 0.91470588 0.91470588
0.91519608 0.91519608 0.91519608
0.90980392 0.90980392 0.90980392
0.92696078 0.92696078 0.92696078
0.95686275 0.95686275 0.95686275
0.96519608 0.96519608 0.96519608
0.97254902 0.97254902 0.97254902
0.14901961 0.14901961 0.14901961
0.14901961 0.14901961 0.14901961
0.15551471 0.15551471 0.15551471
0.16813725 0.16813725 0.16813725
0.18627451 0.18627451 0.18627451
0.22107843 0.22107843 0.22107843
0.25943627 0.25943627 0.25943627
0.31819853 0.31819853 0.31819853
0.41127451 0.41127451 0.41127451
0.14901961 0.14901961 0.14901961
0.15202206 0.15202206 0.15202206
0.16050858 0.16050858 0.16050858
0.17971814 0.17971814 0.17971814
0.20490196 0.20490196 0.20490196
0.23758425 0.23758425 0.23758425
0.28757659 0.28757659 0.28757659
0.36176471 0.36176471 0.36176471
0.44656863 0.44656863 0.44656863
0.18186275 0.18186275 0.18186275
0.18676471 0.18676471 0.18676471
0.19476103 0.19476103 0.19476103
0.22401961 0.22401961 0.22401961
0.26666667 0.26666667 0.26666667
0.30441176 0.30441176 0.30441176
0.34803922 0.34803922 0.34803922
0.413894 0.413894 0.413894
0.52389706 0.52389706 0.52389706
0.25018382 0.25018382 0.25018382
0.24001225 0.24001225 0.24001225
0.24656863 0.24656863 0.24656863
0.29104626 0.29104626 0.29104626
0.35009191 0.35009191 0.35009191
0.40827206 0.40827206 0.40827206
0.4627451 0.4627451 0.4627451
0.53567708 0.53567708 0.53567708
0.62726716 0.62726716 0.62726716
0.32867647 0.32867647 0.32867647
0.33480392 0.33480392 0.33480392
0.31568627 0.31568627 0.31568627
0.35499387 0.35499387 0.35499387
0.43419118 0.43419118 0.43419118
0.54224877 0.54224877 0.54224877
0.58976716 0.58976716 0.58976716
0.66378676 0.66378676 0.66378676
0.73553922 0.73553922 0.73553922
0.46127451 0.46127451 0.46127451
0.46160386 0.46160386 0.46160386
0.43488051 0.43488051 0.43488051
0.44057138 0.44057138 0.44057138
0.51617647 0.51617647 0.51617647
0.60834099 0.60834099 0.60834099
0.7122549 0.7122549 0.7122549
0.76862745 0.76862745 0.76862745
0.83020833 0.83020833 0.83020833
0.62806373 0.62806373 0.62806373
0.61720282 0.61720282 0.61720282
0.60159314 0.60159314 0.60159314
0.57378983 0.57378983 0.57378983
0.63492647 0.63492647 0.63492647
0.70747549 0.70747549 0.70747549
0.77478554 0.77478554 0.77478554
0.84774816 0.84774816 0.84774816
0.88823529 0.88823529 0.88823529
0.77984069 0.77984069 0.77984069
0.78284314 0.78284314 0.78284314
0.77086397 0.77086397 0.77086397
0.75976563 0.75976563 0.75976563
0.77279412 0.77279412 0.77279412
0.81519608 0.81519608 0.81519608
0.86450674 0.86450674 0.86450674
0.91567862 0.91567862 0.91567862
0.95294118 0.95294118 0.95294118
0.91715686 0.91715686 0.91715686
0.90490196 0.90490196 0.90490196
0.90833333 0.90833333 0.90833333
0.90588235 0.90588235 0.90588235
0.90588235 0.90588235 0.90588235
0.92322304 0.92322304 0.92322304
0.9317402 0.9317402 0.9317402
0.96127451 0.96127451 0.96127451
0.96078431 0.96078431 0.96078431
0.15686275 0.15686275 0.15686275
0.15686275 0.15686275 0.15686275
0.1745098 0.1745098 0.1745098
0.19117647 0.19117647 0.19117647
0.22058824 0.22058824 0.22058824
0.24620098 0.24620098 0.24620098
0.27058824 0.27058824 0.27058824
0.3307598 0.3307598 0.3307598
0.41960784 0.41960784 0.41960784
0.15294118 0.15294118 0.15294118
0.17060355 0.17060355 0.17060355
0.18979779 0.18979779 0.18979779
0.20821078 0.20821078 0.20821078
0.23088235 0.23088235 0.23088235
0.2532935 0.2532935 0.2532935
0.29485294 0.29485294 0.29485294
0.35747549 0.35747549 0.35747549
0.43872549 0.43872549 0.43872549
0.19117647 0.19117647 0.19117647
0.20091912 0.20091912 0.20091912
0.21795343 0.21795343 0.21795343
0.23627451 0.23627451 0.23627451
0.26813725 0.26813725 0.26813725
0.30539216 0.30539216 0.30539216
0.35171569 0.35171569 0.35171569
0.41878064 0.41878064 0.41878064
0.50686275 0.50686275 0.50686275
0.27303922 0.27303922 0.27303922
0.27571998 0.27571998 0.27571998
0.27696078 0.27696078 0.27696078
0.30248162 0.30248162 0.30248162
0.35894608 0.35894608 0.35894608
0.41104473 0.41104473 0.41104473
0.4627451 0.4627451 0.4627451
0.5292739 0.5292739 0.5292739
0.62156863 0.62156863 0.62156863
0.39411765 0.39411765 0.39411765
0.39368873 0.39368873 0.39368873
0.37928922 0.37928922 0.37928922
0.37720588 0.37720588 0.37720588
0.45392157 0.45392157 0.45392157
0.53658088 0.53658088 0.53658088
0.59595588 0.59595588 0.59595588
0.66329657 0.66329657 0.66329657
0.73480392 0.73480392 0.73480392
0.51372549 0.51372549 0.51372549
0.51377145 0.51377145 0.51377145
0.49592525 0.49592525 0.49592525
0.46594669 0.46594669 0.46594669
0.53302696 0.53302696 0.53302696
0.62242647 0.62242647 0.62242647
0.71115196 0.71115196 0.71115196
0.78186275 0.78186275 0.78186275
0.84276961 0.84276961 0.84276961
0.6627451 0.6627451 0.6627451
0.65784314 0.65784314 0.65784314
0.64313725 0.64313725 0.64313725
0.61749387 0.61749387 0.61749387
0.64620098 0.64620098 0.64620098
0.71495098 0.71495098 0.71495098
0.7817402 0.7817402 0.7817402
0.85784314 0.85784314 0.85784314
0.89509804 0.89509804 0.89509804
0.8127451 0.8127451 0.8127451
0.80813419 0.80813419 0.80813419
0.79289216 0.79289216 0.79289216
0.78627451 0.78627451 0.78627451
0.79166667 0.79166667 0.79166667
0.82268689 0.82268689 0.82268689
0.87230392 0.87230392 0.87230392
0.91875 0.91875 0.91875
0.94166667 0.94166667 0.94166667
0.9254902 0.9254902 0.9254902
0.9254902 0.9254902 0.9254902
0.92156863 0.92156863 0.92156863
0.91875 0.91875 0.91875
0.9127451 0.9127451 0.9127451
0.92794118 0.92794118 0.92794118
0.95392157 0.95392157 0.95392157
0.96421569 0.96421569 0.96421569
0.95686275 0.95686275 0.95686275
0.16862745 0.16862745 0.16862745
0.18627451 0.18627451 0.18627451
0.20539216 0.20539216 0.20539216
0.23535539 0.23535539 0.23535539
0.27352941 0.27352941 0.27352941
0.3533701 0.3533701 0.3533701
0.40147059 0.40147059 0.40147059
0.42089461 0.42089461 0.42089461
0.45539216 0.45539216 0.45539216
0.18627451 0.18627451 0.18627451
0.19846814 0.19846814 0.19846814
0.2274663 0.2274663 0.2274663
0.25703891 0.25703891 0.25703891
0.31461397 0.31461397 0.31461397
0.37139246 0.37139246 0.37139246
0.40121017 0.40121017 0.40121017
0.42101716 0.42101716 0.42101716
0.46421569 0.46421569 0.46421569
0.20931373 0.20931373 0.20931373
0.21473652 0.21473652 0.21473652
0.25147059 0.25147059 0.25147059
0.2876685 0.2876685 0.2876685
0.32414216 0.32414216 0.32414216
0.36346507 0.36346507 0.36346507
0.40018382 0.40018382 0.40018382
0.43682598 0.43682598 0.43682598
0.50833333 0.50833333 0.50833333
0.29846814 0.29846814 0.29846814
0.32457874 0.32457874 0.32457874
0.32967218 0.32967218 0.32967218
0.33808977 0.33808977 0.33808977
0.36302083 0.36302083 0.36302083
0.40677849 0.40677849 0.40677849
0.46666667 0.46666667 0.46666667
0.5276348 0.5276348 0.5276348
0.6245098 0.6245098 0.6245098
0.47083333 0.47083333 0.47083333
0.47003676 0.47003676 0.47003676
0.45612745 0.45612745 0.45612745
0.42107843 0.42107843 0.42107843
0.46458333 0.46458333 0.46458333
0.52601103 0.52601103 0.52601103
0.59503676 0.59503676 0.59503676
0.65955882 0.65955882 0.65955882
0.72843137 0.72843137 0.72843137
0.590625 0.590625 0.590625
0.5872549 0.5872549 0.5872549
0.57624081 0.57624081 0.57624081
0.54507506 0.54507506 0.54507506
0.56102941 0.56102941 0.56102941
0.62996324 0.62996324 0.62996324
0.71654412 0.71654412 0.71654412
0.77941176 0.77941176 0.77941176
0.83186275 0.83186275 0.83186275
0.71470588 0.71470588 0.71470588
0.71470588 0.71470588 0.71470588
0.70098039 0.70098039 0.70098039
0.67647059 0.67647059 0.67647059
0.66715686 0.66715686 0.66715686
0.72352941 0.72352941 0.72352941
0.79148284 0.79148284 0.79148284
0.86176471 0.86176471 0.86176471
0.90294118 0.90294118 0.90294118
0.83314951 0.83314951 0.83314951
0.83937653 0.83937653 0.83937653
0.83053002 0.83053002 0.83053002
0.82016697 0.82016697 0.82016697
0.80254289 0.80254289 0.80254289
0.82555147 0.82555147 0.82555147
0.87303922 0.87303922 0.87303922
0.91799173 0.91799173 0.91799173
0.95686275 0.95686275 0.95686275
0.93970588 0.93970588 0.93970588
0.93118873 0.93118873 0.93118873
0.9377451 0.9377451 0.9377451
0.9348652 0.9348652 0.9348652
0.9254902 0.9254902 0.9254902
0.91758578 0.91758578 0.91758578
0.94669118 0.94669118 0.94669118
0.95686275 0.95686275 0.95686275
0.95294118 0.95294118 0.95294118
0.21960784 0.21960784 0.21960784
0.22696078 0.22696078 0.22696078
0.25588235 0.25588235 0.25588235
0.29509804 0.29509804 0.29509804
0.34901961 0.34901961 0.34901961
0.39411765 0.39411765 0.39411765
0.54362745 0.54362745 0.54362745
0.59681373 0.59681373 0.59681373
0.64313725 0.64313725 0.64313725
0.23529412 0.23529412 0.23529412
0.24221814 0.24221814 0.24221814
0.27303922 0.27303922 0.27303922
0.31112132 0.31112132 0.31112132
0.34779412 0.34779412 0.34779412
0.41715686 0.41715686 0.41715686
0.54528186 0.54528186 0.54528186
0.59852941 0.59852941 0.59852941
0.63235294 0.63235294 0.63235294
0.25588235 0.25588235 0.25588235
0.2752451 0.2752451 0.2752451
0.30343137 0.30343137 0.30343137
0.34926471 0.34926471 0.34926471
0.39362745 0.39362745 0.39362745
0.4747549 0.4747549 0.4747549
0.56813725 0.56813725 0.56813725
0.59877451 0.59877451 0.59877451
0.64705882 0.64705882 0.64705882
0.31764706 0.31764706 0.31764706
0.32745098 0.32745098 0.32745098
0.34417892 0.34417892 0.34417892
0.39362745 0.39362745 0.39362745
0.43958333 0.43958333 0.43958333
0.52034314 0.52034314 0.52034314
0.55784314 0.55784314 0.55784314
0.58489583 0.58489583 0.58489583
0.64705882 0.64705882 0.64705882
0.45980392 0.45980392 0.45980392
0.48002451 0.48002451 0.48002451
0.49411765 0.49411765 0.49411765
0.49816176 0.49816176 0.49816176
0.51372549 0.51372549 0.51372549
0.55379902 0.55379902 0.55379902
0.59191176 0.59191176 0.59191176
0.66176471 0.66176471 0.66176471
0.7 0.7 0.7
0.66078431 0.66078431 0.66078431
0.65401348 0.65401348 0.65401348
0.6564951 0.6564951 0.6564951
0.6379902 0.6379902 0.6379902
0.6129902 0.6129902 0.6129902
0.65 0.65 0.65
0.71764706 0.71764706 0.71764706
0.7745098 0.7745098 0.7745098
0.82156863 0.82156863 0.82156863
0.77009804 0.77009804 0.77009804
0.76617647 0.76617647 0.76617647
0.76421569 0.76421569 0.76421569
0.75618873 0.75618873 0.75618873
0.7252451 0.7252451 0.7252451
0.74491422 0.74491422 0.74491422
0.80747549 0.80747549 0.80747549
0.8661152 0.8661152 0.8661152
0.90147059 0.90147059 0.90147059
0.87009804 0.87009804 0.87009804
0.86838235 0.86838235 0.86838235
0.87401961 0.87401961 0.87401961
0.85906863 0.85906863 0.85906863
0.84669118 0.84669118 0.84669118
0.83284314 0.83284314 0.83284314
0.88039216 0.88039216 0.88039216
0.91819853 0.91819853 0.91819853
0.94166667 0.94166667 0.94166667
0.94117647 0.94117647 0.94117647
0.93529412 0.93529412 0.93529412
0.93284314 0.93284314 0.93284314
0.94313725 0.94313725 0.94313725
0.93137255 0.93137255 0.93137255
0.94191176 0.94191176 0.94191176
0.95147059 0.95147059 0.95147059
0.96495098 0.96495098 0.96495098
0.97843137 0.97843137 0.97843137
0.28676471 0.28676471 0.28676471
0.30245098 0.30245098 0.30245098
0.32892157 0.32892157 0.32892157
0.38186275 0.38186275 0.38186275
0.44632353 0.44632353 0.44632353
0.48333333 0.48333333 0.48333333
0.56654412 0.56654412 0.56654412
0.68645833 0.68645833 0.68645833
0.7877451 0.7877451 0.7877451
0.31746324 0.31746324 0.31746324
0.32935049 0.32935049 0.32935049
0.35196078 0.35196078 0.35196078
0.39362745 0.39362745 0.39362745
0.45637255 0.45637255 0.45637255
0.49571844 0.49571844 0.49571844
0.56202512 0.56202512 0.56202512
0.68903186 0.68903186 0.68903186
0.77598039 0.77598039 0.77598039
0.34669118 0.34669118 0.34669118
0.35980392 0.35980392 0.35980392
0.39068627 0.39068627 0.39068627
0.42627145 0.42627145 0.42627145
0.48578431 0.48578431 0.48578431
0.53431373 0.53431373 0.53431373
0.60707721 0.60707721 0.60707721
0.71724877 0.71724877 0.71724877
0.76409314 0.76409314 0.76409314
0.3745098 0.3745098 0.3745098
0.38431373 0.38431373 0.38431373
0.41090686 0.41090686 0.41090686
0.4709329 0.4709329 0.4709329
0.52742034 0.52742034 0.52742034
0.57099418 0.57099418 0.57099418
0.6495098 0.6495098 0.6495098
0.74234069 0.74234069 0.74234069
0.77696078 0.77696078 0.77696078
0.47132353 0.47132353 0.47132353
0.48495711 0.48495711 0.48495711
0.48970588 0.48970588 0.48970588
0.51099877 0.51099877 0.51099877
0.58088235 0.58088235 0.58088235
0.62987132 0.62987132 0.62987132
0.69509804 0.69509804 0.69509804
0.73887868 0.73887868 0.73887868
0.75833333 0.75833333 0.75833333
0.6466299 0.6466299 0.6466299
0.64882047 0.64882047 0.64882047
0.65939032 0.65939032 0.65939032
0.66989124 0.66989124 0.66989124
0.68333333 0.68333333 0.68333333
0.69060202 0.69060202 0.69060202
0.73272059 0.73272059 0.73272059
0.77762714 0.77762714 0.77762714
0.82990196 0.82990196 0.82990196
0.81862745 0.81862745 0.81862745
0.80338542 0.80338542 0.80338542
0.80916054 0.80916054 0.80916054
0.80681679 0.80681679 0.80681679
0.8004902 0.8004902 0.8004902
0.78590686 0.78590686 0.78590686
0.81568627 0.81568627 0.81568627
0.86665135 0.86665135 0.86665135
0.91176471 0.91176471 0.91176471
0.90490196 0.90490196 0.90490196
0.90081955 0.90081955 0.90081955
0.9004902 0.9004902 0.9004902
0.89668352 0.89668352 0.89668352
0.8888174 0.8888174 0.8888174
0.87175245 0.87175245 0.87175245
0.88120404 0.88120404 0.88120404
0.92687653 0.92687653 0.92687653
0.953125 0.953125 0.953125
0.95686275 0.95686275 0.95686275
0.95441176 0.95441176 0.95441176
0.96470588 0.96470588 0.96470588
0.96078431 0.96078431 0.96078431
0.9504902 0.9504902 0.9504902
0.95349265 0.95349265 0.95349265
0.96078431 0.96078431 0.96078431
0.96911765 0.96911765 0.96911765
0.975 0.975 0.975
0.40196078 0.40196078 0.40196078
0.42316176 0.42316176 0.42316176
0.44289216 0.44289216 0.44289216
0.50392157 0.50392157 0.50392157
0.56127451 0.56127451 0.56127451
0.61531863 0.61531863 0.61531863
0.66372549 0.66372549 0.66372549
0.69154412 0.69154412 0.69154412
0.79117647 0.79117647 0.79117647
0.43186275 0.43186275 0.43186275
0.44718137 0.44718137 0.44718137
0.47009804 0.47009804 0.47009804
0.51470588 0.51470588 0.51470588
0.57254902 0.57254902 0.57254902
0.62598039 0.62598039 0.62598039
0.67052696 0.67052696 0.67052696
0.71801471 0.71801471 0.71801471
0.83051471 0.83051471 0.83051471
0.46764706 0.46764706 0.46764706
0.48492647 0.48492647 0.48492647
0.50882353 0.50882353 0.50882353
0.54371936 0.54371936 0.54371936
0.59901961 0.59901961 0.59901961
0.65257353 0.65257353 0.65257353
0.69803922 0.69803922 0.69803922
0.73311887 0.73311887 0.73311887
0.83455882 0.83455882 0.83455882
0.49473039 0.49473039 0.49473039
0.51671262 0.51671262 0.51671262
0.54362745 0.54362745 0.54362745
0.58252145 0.58252145 0.58252145
0.6317402 0.6317402 0.6317402
0.68091299 0.68091299 0.68091299
0.72107843 0.72107843 0.72107843
0.76845895 0.76845895 0.76845895
0.84803922 0.84803922 0.84803922
0.50490196 0.50490196 0.50490196
0.53039216 0.53039216 0.53039216
0.56372549 0.56372549 0.56372549
0.6127451 0.6127451 0.6127451
0.6627451 0.6627451 0.6627451
0.71672794 0.71672794 0.71672794
0.75379902 0.75379902 0.75379902
0.81789216 0.81789216 0.81789216
0.89068627 0.89068627 0.89068627
0.65821078 0.65821078 0.65821078
0.66323529 0.66323529 0.66323529
0.66636029 0.66636029 0.66636029
0.68423713 0.68423713 0.68423713
0.69099265 0.69099265 0.69099265
0.74741115 0.74741115 0.74741115
0.79730392 0.79730392 0.79730392
0.8435049 0.8435049 0.8435049
0.89252451 0.89252451 0.89252451
0.79485294 0.79485294 0.79485294
0.80603554 0.80603554 0.80603554
0.81060049 0.81060049 0.81060049
0.81786152 0.81786152 0.81786152
0.81960784 0.81960784 0.81960784
0.83382353 0.83382353 0.83382353
0.84258578 0.84258578 0.84258578
0.87426471 0.87426471 0.87426471
0.92205882 0.92205882 0.92205882
0.92990196 0.92990196 0.92990196
0.9221201 0.9221201 0.9221201
0.93002451 0.93002451 0.93002451
0.91867341 0.91867341 0.91867341
0.91875 0.91875 0.91875
0.91783088 0.91783088 0.91783088
0.90919118 0.90919118 0.90919118
0.93195466 0.93195466 0.93195466
0.95735294 0.95735294 0.95735294
0.97647059 0.97647059 0.97647059
0.96960784 0.96960784 0.96960784
0.97132353 0.97132353 0.97132353
0.9689951 0.9689951 0.9689951
0.96568627 0.96568627 0.96568627
0.96862745 0.96862745 0.96862745
0.96960784 0.96960784 0.96960784
0.97254902 0.97254902 0.97254902
0.97254902 0.97254902 0.97254902
0.59558824 0.59558824 0.59558824
0.60251225 0.60251225 0.60251225
0.62598039 0.62598039 0.62598039
0.66372549 0.66372549 0.66372549
0.70637255 0.70637255 0.70637255
0.75245098 0.75245098 0.75245098
0.79117647 0.79117647 0.79117647
0.81764706 0.81764706 0.81764706
0.84117647 0.84117647 0.84117647
0.61029412 0.61029412 0.61029412
0.61856618 0.61856618 0.61856618
0.64117647 0.64117647 0.64117647
0.67113971 0.67113971 0.67113971
0.70245098 0.70245098 0.70245098
0.75392157 0.75392157 0.75392157
0.8028799 0.8028799 0.8028799
0.82506127 0.82506127 0.82506127
0.85637255 0.85637255 0.85637255
0.64117647 0.64117647 0.64117647
0.64895833 0.64895833 0.64895833
0.66764706 0.66764706 0.66764706
0.69411765 0.69411765 0.69411765
0.72867647 0.72867647 0.72867647
0.76720282 0.76720282 0.76720282
0.80637255 0.80637255 0.80637255
0.83794424 0.83794424 0.83794424
0.86764706 0.86764706 0.86764706
0.66158088 0.66158088 0.66158088
0.67312347 0.67312347 0.67312347
0.69388787 0.69388787 0.69388787
0.71715686 0.71715686 0.71715686
0.74402574 0.74402574 0.74402574
0.78756127 0.78756127 0.78756127
0.81844363 0.81844363 0.81844363
0.84901961 0.84901961 0.84901961
0.87530637 0.87530637 0.87530637
0.66911765 0.66911765 0.66911765
0.67846201 0.67846201 0.67846201
0.69730392 0.69730392 0.69730392
0.73406863 0.73406863 0.73406863
0.76752451 0.76752451 0.76752451
0.80971201 0.80971201 0.80971201
0.83964461 0.83964461 0.83964461
0.86253064 0.86253064 0.86253064
0.89656863 0.89656863 0.89656863
0.70686275 0.70686275 0.70686275
0.70271906 0.70271906 0.70271906
0.70569853 0.70569853 0.70569853
0.73040748 0.73040748 0.73040748
0.78284314 0.78284314 0.78284314
0.82647059 0.82647059 0.82647059
0.86256127 0.86256127 0.86256127
0.89313725 0.89313725 0.89313725
0.92322304 0.92322304 0.92322304
0.83480392 0.83480392 0.83480392
0.8310049 0.8310049 0.8310049
0.83088235 0.83088235 0.83088235
0.82498468 0.82498468 0.82498468
0.83651961 0.83651961 0.83651961
0.84376532 0.84376532 0.84376532
0.89727328 0.89727328 0.89727328
0.91960784 0.91960784 0.91960784
0.95306373 0.95306373 0.95306373
0.93082108 0.93082108 0.93082108
0.92260263 0.92260263 0.92260263
0.93088235 0.93088235 0.93088235
0.92738971 0.92738971 0.92738971
0.92745098 0.92745098 0.92745098
0.93243719 0.93243719 0.93243719
0.93776042 0.93776042 0.93776042
0.95392157 0.95392157 0.95392157
0.96868873 0.96868873 0.96868873
0.98039216 0.98039216 0.98039216
0.97254902 0.97254902 0.97254902
0.96813725 0.96813725 0.96813725
0.96862745 0.96862745 0.96862745
0.97647059 0.97647059 0.97647059
0.97647059 0.97647059 0.97647059
0.98296569 0.98296569 0.98296569
0.98039216 0.98039216 0.98039216
0.98039216 0.98039216 0.98039216
0.78823529 0.78823529 0.78823529
0.79215686 0.79215686 0.79215686
0.79901961 0.79901961 0.79901961
0.81813725 0.81813725 0.81813725
0.84901961 0.84901961 0.84901961
0.87205882 0.87205882 0.87205882
0.89803922 0.89803922 0.89803922
0.90637255 0.90637255 0.90637255
0.94117647 0.94117647 0.94117647
0.8 0.8 0.8
0.79258578 0.79258578 0.79258578
0.81519608 0.81519608 0.81519608
0.82941176 0.82941176 0.82941176
0.85906863 0.85906863 0.85906863
0.87598039 0.87598039 0.87598039
0.89411765 0.89411765 0.89411765
0.91764706 0.91764706 0.91764706
0.9254902 0.9254902 0.9254902
0.80784314 0.80784314 0.80784314
0.8182598 0.8182598 0.8182598
0.82426471 0.82426471 0.82426471
0.83321078 0.83321078 0.83321078
0.86323529 0.86323529 0.86323529
0.88272059 0.88272059 0.88272059
0.89877451 0.89877451 0.89877451
0.92904412 0.92904412 0.92904412
0.92941176 0.92941176 0.92941176
0.81813725 0.81813725 0.81813725
0.81813725 0.81813725 0.81813725
0.83566176 0.83566176 0.83566176
0.85343137 0.85343137 0.85343137
0.84754902 0.84754902 0.84754902
0.88872549 0.88872549 0.88872549
0.91176471 0.91176471 0.91176471
0.93118873 0.93118873 0.93118873
0.92794118 0.92794118 0.92794118
0.8254902 0.8254902 0.8254902
0.83382353 0.83382353 0.83382353
0.83823529 0.83823529 0.83823529
0.85098039 0.85098039 0.85098039
0.8745098 0.8745098 0.8745098
0.89558824 0.89558824 0.89558824
0.92254902 0.92254902 0.92254902
0.93578431 0.93578431 0.93578431
0.95294118 0.95294118 0.95294118
0.80539216 0.80539216 0.80539216
0.81550245 0.81550245 0.81550245
0.83039216 0.83039216 0.83039216
0.85882353 0.85882353 0.85882353
0.87181373 0.87181373 0.87181373
0.90735294 0.90735294 0.90735294
0.92794118 0.92794118 0.92794118
0.95441176 0.95441176 0.95441176
0.96078431 0.96078431 0.96078431
0.8745098 0.8745098 0.8745098
0.87659314 0.87659314 0.87659314
0.87745098 0.87745098 0.87745098
0.88431373 0.88431373 0.88431373
0.88431373 0.88431373 0.88431373
0.90257353 0.90257353 0.90257353
0.94509804 0.94509804 0.94509804
0.96127451 0.96127451 0.96127451
0.9754902 0.9754902 0.9754902
0.94166667 0.94166667 0.94166667
0.94123775 0.94123775 0.94123775
0.94411765 0.94411765 0.94411765
0.95098039 0.95098039 0.95098039
0.94215686 0.94215686 0.94215686
0.94558824 0.94558824 0.94558824
0.9495098 0.9495098 0.9495098
0.97346814 0.97346814 0.97346814
0.98039216 0.98039216 0.98039216
0.97647059 0.97647059 0.97647059
0.96127451 0.96127451 0.96127451
0.94803922 0.94803922 0.94803922
0.95931373 0.95931373 0.95931373
0.97254902 0.97254902 0.97254902
0.98186275 0.98186275 0.98186275
0.98431373 0.98431373 0.98431373
0.98039216 0.98039216 0.98039216
0.98039216 0.98039216 0.98039216
