site/assets/luts/sha256-186330efff38c4b9415793ff5bd9ffe7b3f9b857af24235359b906f27915b5ea.cube
# LUTr-Schema-Version: 2
# LUTr-ID: sha256-186330efff38c4b9415793ff5bd9ffe7b3f9b857af24235359b906f27915b5ea
# LUTr-Title: fuji neopan 1600 +
# LUTr-Collection: Natron HaldCLUT
# LUTr-Collection-ID: natron-haldclut-presets
# LUTr-Source: https://github.com/NatronGitHub/clut
# LUTr-Retrieved: 2026-07-27
# LUTr-Source-File: submissions/natron-haldclut-presets/negative_old/fuji_neopan_1600_+.png
# LUTr-Source-Format: HALD-PNG
# LUTr-Source-SHA256: 186330efff38c4b9415793ff5bd9ffe7b3f9b857af24235359b906f27915b5ea
# LUTr-License: CC-BY-SA-4.0
# LUTr-License-URL: https://github.com/NatronGitHub/clut#license
# LUTr-License-Basis: repo-license-file
# LUTr-Transform-Class: film-emulation
# LUTr-Tags: creative, film, film-emulation, hald-clut, natron, png, black-and-white, cube
# LUTr-Input-Color-Space: srgb
# LUTr-Input-Gamut: rec709
# LUTr-Input-Transfer: srgb
# LUTr-Output-Color-Space: srgb
# LUTr-Output-Gamut: rec709
# LUTr-Output-Transfer: srgb
# LUTr-Color-Space-Confidence: assumed-display-referred
# LUTr-Domain-Normalized: true
# LUTr-Shaper: none
# LUTr-Original-Grid: 64x64x64
# LUTr-Conversion-Grid: 25x25x25
# LUTr-Conversion-Interpolation: trilinear
# LUTr-Conversion-Method: HALD-PNG LUT image decoded at 16-bit and sampled to 25x25x25 3D CUBE
# LUTr-Conversion-Tool: LUTr scripts/convert-all-to-cube.mjs 2.0.0
# LUTr-Conversion-Date: 2026-07-27
# LUTr-Note: Preserve this metadata and the upstream license notices when redistributing.
TITLE "fuji neopan 1600 +"
LUT_3D_SIZE 9
DOMAIN_MIN 0 0 0
DOMAIN_MAX 1 1 1
0.094117647 0.094117647 0.094117647
0.098039216 0.098039216 0.098039216
0.10588235 0.10588235 0.10588235
0.10588235 0.10588235 0.10588235
0.15098039 0.15098039 0.15098039
0.19509804 0.19509804 0.19509804
0.25294118 0.25294118 0.25294118
0.34264706 0.34264706 0.34264706
0.41960784 0.41960784 0.41960784
0.10147059 0.10147059 0.10147059
0.10490196 0.10490196 0.10490196
0.12107843 0.12107843 0.12107843
0.14313725 0.14313725 0.14313725
0.17794118 0.17794118 0.17794118
0.23186275 0.23186275 0.23186275
0.27990196 0.27990196 0.27990196
0.36568627 0.36568627 0.36568627
0.50147059 0.50147059 0.50147059
0.13235294 0.13235294 0.13235294
0.13321078 0.13321078 0.13321078
0.15416667 0.15416667 0.15416667
0.18872549 0.18872549 0.18872549
0.24411765 0.24411765 0.24411765
0.29656863 0.29656863 0.29656863
0.35588235 0.35588235 0.35588235
0.43823529 0.43823529 0.43823529
0.54509804 0.54509804 0.54509804
0.1877451 0.1877451 0.1877451
0.19166667 0.19166667 0.19166667
0.21960784 0.21960784 0.21960784
0.26470588 0.26470588 0.26470588
0.32647059 0.32647059 0.32647059
0.39852941 0.39852941 0.39852941
0.46482843 0.46482843 0.46482843
0.55275735 0.55275735 0.55275735
0.64754902 0.64754902 0.64754902
0.28431373 0.28431373 0.28431373
0.28823529 0.28823529 0.28823529
0.30686275 0.30686275 0.30686275
0.33578431 0.33578431 0.33578431
0.39117647 0.39117647 0.39117647
0.46911765 0.46911765 0.46911765
0.56666667 0.56666667 0.56666667
0.66617647 0.66617647 0.66617647
0.74705882 0.74705882 0.74705882
0.39264706 0.39264706 0.39264706
0.40716912 0.40716912 0.40716912
0.42267157 0.42267157 0.42267157
0.44362745 0.44362745 0.44362745
0.48823529 0.48823529 0.48823529
0.55545343 0.55545343 0.55545343
0.6432598 0.6432598 0.6432598
0.74166667 0.74166667 0.74166667
0.82254902 0.82254902 0.82254902
0.56666667 0.56666667 0.56666667
0.57438725 0.57438725 0.57438725
0.56446078 0.56446078 0.56446078
0.58982843 0.58982843 0.58982843
0.62352941 0.62352941 0.62352941
0.68026961 0.68026961 0.68026961
0.73921569 0.73921569 0.73921569
0.80294118 0.80294118 0.80294118
0.87647059 0.87647059 0.87647059
0.74803922 0.74803922 0.74803922
0.7588848 0.7588848 0.7588848
0.75980392 0.75980392 0.75980392
0.76372549 0.76372549 0.76372549
0.77696078 0.77696078 0.77696078
0.81697304 0.81697304 0.81697304
0.86176471 0.86176471 0.86176471
0.89650735 0.89650735 0.89650735
0.94166667 0.94166667 0.94166667
0.90980392 0.90980392 0.90980392
0.91029412 0.91029412 0.91029412
0.91078431 0.91078431 0.91078431
0.90588235 0.90588235 0.90588235
0.91764706 0.91764706 0.91764706
0.93235294 0.93235294 0.93235294
0.95294118 0.95294118 0.95294118
0.96519608 0.96519608 0.96519608
0.98431373 0.98431373 0.98431373
0.10196078 0.10196078 0.10196078
0.10539216 0.10539216 0.10539216
0.10882353 0.10882353 0.10882353
0.13382353 0.13382353 0.13382353
0.1627451 0.1627451 0.1627451
0.20667892 0.20667892 0.20667892
0.27205882 0.27205882 0.27205882
0.35091912 0.35091912 0.35091912
0.45882353 0.45882353 0.45882353
0.10974265 0.10974265 0.10974265
0.11323529 0.11323529 0.11323529
0.11752451 0.11752451 0.11752451
0.1432981 0.1432981 0.1432981
0.19074755 0.19074755 0.19074755
0.23733915 0.23733915 0.23733915
0.29854473 0.29854473 0.29854473
0.37690717 0.37690717 0.37690717
0.47015931 0.47015931 0.47015931
0.14019608 0.14019608 0.14019608
0.14776348 0.14776348 0.14776348
0.15759804 0.15759804 0.15759804
0.2026348 0.2026348 0.2026348
0.25631127 0.25631127 0.25631127
0.30450368 0.30450368 0.30450368
0.36421569 0.36421569 0.36421569
0.44166667 0.44166667 0.44166667
0.53737745 0.53737745 0.53737745
0.21470588 0.21470588 0.21470588
0.21832108 0.21832108 0.21832108
0.24117647 0.24117647 0.24117647
0.26851256 0.26851256 0.26851256
0.33645833 0.33645833 0.33645833
0.39460784 0.39460784 0.39460784
0.46643689 0.46643689 0.46643689
0.55655637 0.55655637 0.55655637
0.66158088 0.66158088 0.66158088
0.2995098 0.2995098 0.2995098
0.31078431 0.31078431 0.31078431
0.32279412 0.32279412 0.32279412
0.35808824 0.35808824 0.35808824
0.40428922 0.40428922 0.40428922
0.48431373 0.48431373 0.48431373
0.57334559 0.57334559 0.57334559
0.66617647 0.66617647 0.66617647
0.76813725 0.76813725 0.76813725
0.41862745 0.41862745 0.41862745
0.42077206 0.42077206 0.42077206
0.43676471 0.43676471 0.43676471
0.45893842 0.45893842 0.45893842
0.50343137 0.50343137 0.50343137
0.56882659 0.56882659 0.56882659
0.65865502 0.65865502 0.65865502
0.74166667 0.74166667 0.74166667
0.83284314 0.83284314 0.83284314
0.58480392 0.58480392 0.58480392
0.58578431 0.58578431 0.58578431
0.59200368 0.59200368 0.59200368
0.60736826 0.60736826 0.60736826
0.63406863 0.63406863 0.63406863
0.68583027 0.68583027 0.68583027
0.72723652 0.72723652 0.72723652
0.80310968 0.80310968 0.80310968
0.87622549 0.87622549 0.87622549
0.75196078 0.75196078 0.75196078
0.76366422 0.76366422 0.76366422
0.76752451 0.76752451 0.76752451
0.77542892 0.77542892 0.77542892
0.79044118 0.79044118 0.79044118
0.82277114 0.82277114 0.82277114
0.85392157 0.85392157 0.85392157
0.8838848 0.8838848 0.8838848
0.93039216 0.93039216 0.93039216
0.89803922 0.89803922 0.89803922
0.90104167 0.90104167 0.90104167
0.90931373 0.90931373 0.90931373
0.91194853 0.91194853 0.91194853
0.92941176 0.92941176 0.92941176
0.93854167 0.93854167 0.93854167
0.9564951 0.9564951 0.9564951
0.96862745 0.96862745 0.96862745
0.98039216 0.98039216 0.98039216
0.10980392 0.10980392 0.10980392
0.10980392 0.10980392 0.10980392
0.11862745 0.11862745 0.11862745
0.14938725 0.14938725 0.14938725
0.18578431 0.18578431 0.18578431
0.23333333 0.23333333 0.23333333
0.28995098 0.28995098 0.28995098
0.37659314 0.37659314 0.37659314
0.48137255 0.48137255 0.48137255
0.11629902 0.11629902 0.11629902
0.12487745 0.12487745 0.12487745
0.14583333 0.14583333 0.14583333
0.17352941 0.17352941 0.17352941
0.2122549 0.2122549 0.2122549
0.26029412 0.26029412 0.26029412
0.32205882 0.32205882 0.32205882
0.39963235 0.39963235 0.39963235
0.49718137 0.49718137 0.49718137
0.15392157 0.15392157 0.15392157
0.15784314 0.15784314 0.15784314
0.19099265 0.19099265 0.19099265
0.23416054 0.23416054 0.23416054
0.27696078 0.27696078 0.27696078
0.32156863 0.32156863 0.32156863
0.38406863 0.38406863 0.38406863
0.45631127 0.45631127 0.45631127
0.55710784 0.55710784 0.55710784
0.24558824 0.24558824 0.24558824
0.24924939 0.24924939 0.24924939
0.27144608 0.27144608 0.27144608
0.30755208 0.30755208 0.30755208
0.35612745 0.35612745 0.35612745
0.42176777 0.42176777 0.42176777
0.48391544 0.48391544 0.48391544
0.55747549 0.55747549 0.55747549
0.6504902 0.6504902 0.6504902
0.34215686 0.34215686 0.34215686
0.35863971 0.35863971 0.35863971
0.36813725 0.36813725 0.36813725
0.39460784 0.39460784 0.39460784
0.43602941 0.43602941 0.43602941
0.50692402 0.50692402 0.50692402
0.59522059 0.59522059 0.59522059
0.66813725 0.66813725 0.66813725
0.74705882 0.74705882 0.74705882
0.45588235 0.45588235 0.45588235
0.47999387 0.47999387 0.47999387
0.48958333 0.48958333 0.48958333
0.49693627 0.49693627 0.49693627
0.53069853 0.53069853 0.53069853
0.58823529 0.58823529 0.58823529
0.66657475 0.66657475 0.66657475
0.7569087 0.7569087 0.7569087
0.82928922 0.82928922 0.82928922
0.61176471 0.61176471 0.61176471
0.62408088 0.62408088 0.62408088
0.62426471 0.62426471 0.62426471
0.6377451 0.6377451 0.6377451
0.65686275 0.65686275 0.65686275
0.70701593 0.70701593 0.70701593
0.75073529 0.75073529 0.75073529
0.81709559 0.81709559 0.81709559
0.88259804 0.88259804 0.88259804
0.77107843 0.77107843 0.77107843
0.78497243 0.78497243 0.78497243
0.78590686 0.78590686 0.78590686
0.78987439 0.78987439 0.78987439
0.80367647 0.80367647 0.80367647
0.83779105 0.83779105 0.83779105
0.8682598 0.8682598 0.8682598
0.90784314 0.90784314 0.90784314
0.94558824 0.94558824 0.94558824
0.90882353 0.90882353 0.90882353
0.91715686 0.91715686 0.91715686
0.90098039 0.90098039 0.90098039
0.91580882 0.91580882 0.91580882
0.92598039 0.92598039 0.92598039
0.94448529 0.94448529 0.94448529
0.95465686 0.95465686 0.95465686
0.9622549 0.9622549 0.9622549
0.98039216 0.98039216 0.98039216
0.14215686 0.14215686 0.14215686
0.14344363 0.14344363 0.14344363
0.17757353 0.17757353 0.17757353
0.19166667 0.19166667 0.19166667
0.21813725 0.21813725 0.21813725
0.2745098 0.2745098 0.2745098
0.33272059 0.33272059 0.33272059
0.40980392 0.40980392 0.40980392
0.46617647 0.46617647 0.46617647
0.1536152 0.1536152 0.1536152
0.16862745 0.16862745 0.16862745
0.19166667 0.19166667 0.19166667
0.22205882 0.22205882 0.22205882
0.24454657 0.24454657 0.24454657
0.29509804 0.29509804 0.29509804
0.35908395 0.35908395 0.35908395
0.43023131 0.43023131 0.43023131
0.49019608 0.49019608 0.49019608
0.18039216 0.18039216 0.18039216
0.20343137 0.20343137 0.20343137
0.24117647 0.24117647 0.24117647
0.27990196 0.27990196 0.27990196
0.31709559 0.31709559 0.31709559
0.35398284 0.35398284 0.35398284
0.4125 0.4125 0.4125
0.47205882 0.47205882 0.47205882
0.58284314 0.58284314 0.58284314
0.2598652 0.2598652 0.2598652
0.27372089 0.27372089 0.27372089
0.30686275 0.30686275 0.30686275
0.351731 0.351731 0.351731
0.39488358 0.39488358 0.39488358
0.4504902 0.4504902 0.4504902
0.51072304 0.51072304 0.51072304
0.57028186 0.57028186 0.57028186
0.66378676 0.66378676 0.66378676
0.36593137 0.36593137 0.36593137
0.38431373 0.38431373 0.38431373
0.403125 0.403125 0.403125
0.44852941 0.44852941 0.44852941
0.48566176 0.48566176 0.48566176
0.55294118 0.55294118 0.55294118
0.61813725 0.61813725 0.61813725
0.68504902 0.68504902 0.68504902
0.76397059 0.76397059 0.76397059
0.51997549 0.51997549 0.51997549
0.5283701 0.5283701 0.5283701
0.53782169 0.53782169 0.53782169
0.54957108 0.54957108 0.54957108
0.58259804 0.58259804 0.58259804
0.62667739 0.62667739 0.62667739
0.69502145 0.69502145 0.69502145
0.77285539 0.77285539 0.77285539
0.83976716 0.83976716 0.83976716
0.65894608 0.65894608 0.65894608
0.66991422 0.66991422 0.66991422
0.6754902 0.6754902 0.6754902
0.68085172 0.68085172 0.68085172
0.68872549 0.68872549 0.68872549
0.7316636 0.7316636 0.7316636
0.77509191 0.77509191 0.77509191
0.83039216 0.83039216 0.83039216
0.89215686 0.89215686 0.89215686
0.80441176 0.80441176 0.80441176
0.80849418 0.80849418 0.80849418
0.80891544 0.80891544 0.80891544
0.80833333 0.80833333 0.80833333
0.81813725 0.81813725 0.81813725
0.84398744 0.84398744 0.84398744
0.87267157 0.87267157 0.87267157
0.89871324 0.89871324 0.89871324
0.94166667 0.94166667 0.94166667
0.9254902 0.9254902 0.9254902
0.91764706 0.91764706 0.91764706
0.92156863 0.92156863 0.92156863
0.91072304 0.91072304 0.91072304
0.92671569 0.92671569 0.92671569
0.94564951 0.94564951 0.94564951
0.95747549 0.95747549 0.95747549
0.97126225 0.97126225 0.97126225
0.98823529 0.98823529 0.98823529
0.19607843 0.19607843 0.19607843
0.19240196 0.19240196 0.19240196
0.2254902 0.2254902 0.2254902
0.27156863 0.27156863 0.27156863
0.31568627 0.31568627 0.31568627
0.32058824 0.32058824 0.32058824
0.38235294 0.38235294 0.38235294
0.46813725 0.46813725 0.46813725
0.56862745 0.56862745 0.56862745
0.20735294 0.20735294 0.20735294
0.22647059 0.22647059 0.22647059
0.25661765 0.25661765 0.25661765
0.29852941 0.29852941 0.29852941
0.33284314 0.33284314 0.33284314
0.34313725 0.34313725 0.34313725
0.41017157 0.41017157 0.41017157
0.49289216 0.49289216 0.49289216
0.5872549 0.5872549 0.5872549
0.24509804 0.24509804 0.24509804
0.26715686 0.26715686 0.26715686
0.30220588 0.30220588 0.30220588
0.34877451 0.34877451 0.34877451
0.37916667 0.37916667 0.37916667
0.40098039 0.40098039 0.40098039
0.46237745 0.46237745 0.46237745
0.52892157 0.52892157 0.52892157
0.62598039 0.62598039 0.62598039
0.28063725 0.28063725 0.28063725
0.30441176 0.30441176 0.30441176
0.34803922 0.34803922 0.34803922
0.40689338 0.40689338 0.40689338
0.45245098 0.45245098 0.45245098
0.4879902 0.4879902 0.4879902
0.54534314 0.54534314 0.54534314
0.60196078 0.60196078 0.60196078
0.67083333 0.67083333 0.67083333
0.37058824 0.37058824 0.37058824
0.38811275 0.38811275 0.38811275
0.43137255 0.43137255 0.43137255
0.48639706 0.48639706 0.48639706
0.53431373 0.53431373 0.53431373
0.58578431 0.58578431 0.58578431
0.6372549 0.6372549 0.6372549
0.68921569 0.68921569 0.68921569
0.75490196 0.75490196 0.75490196
0.51421569 0.51421569 0.51421569
0.53210784 0.53210784 0.53210784
0.56305147 0.56305147 0.56305147
0.61256127 0.61256127 0.61256127
0.64558824 0.64558824 0.64558824
0.67720588 0.67720588 0.67720588
0.72469363 0.72469363 0.72469363
0.79166667 0.79166667 0.79166667
0.84607843 0.84607843 0.84607843
0.68480392 0.68480392 0.68480392
0.69246324 0.69246324 0.69246324
0.7127451 0.7127451 0.7127451
0.73014706 0.73014706 0.73014706
0.7370098 0.7370098 0.7370098
0.76323529 0.76323529 0.76323529
0.79607843 0.79607843 0.79607843
0.85189951 0.85189951 0.85189951
0.89558824 0.89558824 0.89558824
0.82573529 0.82573529 0.82573529
0.83115809 0.83115809 0.83115809
0.83131127 0.83131127 0.83131127
0.83627451 0.83627451 0.83627451
0.8439951 0.8439951 0.8439951
0.85980392 0.85980392 0.85980392
0.88805147 0.88805147 0.88805147
0.91715686 0.91715686 0.91715686
0.94191176 0.94191176 0.94191176
0.93529412 0.93529412 0.93529412
0.92205882 0.92205882 0.92205882
0.93676471 0.93676471 0.93676471
0.93382353 0.93382353 0.93382353
0.94509804 0.94509804 0.94509804
0.9504902 0.9504902 0.9504902
0.96568627 0.96568627 0.96568627
0.98284314 0.98284314 0.98284314
0.98431373 0.98431373 0.98431373
0.26176471 0.26176471 0.26176471
0.27089461 0.27089461 0.27089461
0.30110294 0.30110294 0.30110294
0.34656863 0.34656863 0.34656863
0.40759804 0.40759804 0.40759804
0.42751225 0.42751225 0.42751225
0.44914216 0.44914216 0.44914216
0.52990196 0.52990196 0.52990196
0.61470588 0.61470588 0.61470588
0.278125 0.278125 0.278125
0.29344363 0.29344363 0.29344363
0.3310049 0.3310049 0.3310049
0.37954197 0.37954197 0.37954197
0.44304534 0.44304534 0.44304534
0.46813725 0.46813725 0.46813725
0.46162684 0.46162684 0.46162684
0.55637255 0.55637255 0.55637255
0.64540441 0.64540441 0.64540441
0.33578431 0.33578431 0.33578431
0.34705882 0.34705882 0.34705882
0.3807598 0.3807598 0.3807598
0.42234988 0.42234988 0.42234988
0.48333333 0.48333333 0.48333333
0.51764706 0.51764706 0.51764706
0.51620711 0.51620711 0.51620711
0.59852941 0.59852941 0.59852941
0.68002451 0.68002451 0.68002451
0.34558824 0.34558824 0.34558824
0.37715993 0.37715993 0.37715993
0.42058824 0.42058824 0.42058824
0.47269455 0.47269455 0.47269455
0.54656863 0.54656863 0.54656863
0.58033088 0.58033088 0.58033088
0.59526654 0.59526654 0.59526654
0.66372549 0.66372549 0.66372549
0.71856618 0.71856618 0.71856618
0.40882353 0.40882353 0.40882353
0.44215686 0.44215686 0.44215686
0.47058824 0.47058824 0.47058824
0.53186275 0.53186275 0.53186275
0.60110294 0.60110294 0.60110294
0.64463848 0.64463848 0.64463848
0.68039216 0.68039216 0.68039216
0.7254902 0.7254902 0.7254902
0.78112745 0.78112745 0.78112745
0.53186275 0.53186275 0.53186275
0.54688266 0.54688266 0.54688266
0.5678462 0.5678462 0.5678462
0.61170343 0.61170343 0.61170343
0.66715686 0.66715686 0.66715686
0.72555147 0.72555147 0.72555147
0.76801471 0.76801471 0.76801471
0.80582108 0.80582108 0.80582108
0.83431373 0.83431373 0.83431373
0.69019608 0.69019608 0.69019608
0.70062806 0.70062806 0.70062806
0.71446078 0.71446078 0.71446078
0.72941176 0.72941176 0.72941176
0.75955882 0.75955882 0.75955882
0.80019914 0.80019914 0.80019914
0.83333333 0.83333333 0.83333333
0.87481618 0.87481618 0.87481618
0.90392157 0.90392157 0.90392157
0.82971814 0.82971814 0.82971814
0.83578431 0.83578431 0.83578431
0.84214154 0.84214154 0.84214154
0.85755208 0.85755208 0.85755208
0.87352941 0.87352941 0.87352941
0.88658088 0.88658088 0.88658088
0.90968137 0.90968137 0.90968137
0.93888634 0.93888634 0.93888634
0.96305147 0.96305147 0.96305147
0.93578431 0.93578431 0.93578431
0.94460784 0.94460784 0.94460784
0.94448529 0.94448529 0.94448529
0.93180147 0.93180147 0.93180147
0.94166667 0.94166667 0.94166667
0.96617647 0.96617647 0.96617647
0.97254902 0.97254902 0.97254902
0.98039216 0.98039216 0.98039216
0.975 0.975 0.975
0.36862745 0.36862745 0.36862745
0.38039216 0.38039216 0.38039216
0.41568627 0.41568627 0.41568627
0.46580882 0.46580882 0.46580882
0.52401961 0.52401961 0.52401961
0.60539216 0.60539216 0.60539216
0.62843137 0.62843137 0.62843137
0.61752451 0.61752451 0.61752451
0.68235294 0.68235294 0.68235294
0.39166667 0.39166667 0.39166667
0.41056985 0.41056985 0.41056985
0.44093137 0.44093137 0.44093137
0.48788297 0.48788297 0.48788297
0.55226716 0.55226716 0.55226716
0.62210478 0.62210478 0.62210478
0.63982843 0.63982843 0.63982843
0.62755821 0.62755821 0.62755821
0.71960784 0.71960784 0.71960784
0.44191176 0.44191176 0.44191176
0.46519608 0.46519608 0.46519608
0.49283088 0.49283088 0.49283088
0.53235294 0.53235294 0.53235294
0.5872549 0.5872549 0.5872549
0.64757966 0.64757966 0.64757966
0.66709559 0.66709559 0.66709559
0.66835172 0.66835172 0.66835172
0.74901961 0.74901961 0.74901961
0.49460784 0.49460784 0.49460784
0.51711091 0.51711091 0.51711091
0.53688725 0.53688725 0.53688725
0.58252145 0.58252145 0.58252145
0.64240196 0.64240196 0.64240196
0.6957261 0.6957261 0.6957261
0.71862745 0.71862745 0.71862745
0.71761642 0.71761642 0.71761642
0.77071078 0.77071078 0.77071078
0.51911765 0.51911765 0.51911765
0.51372549 0.51372549 0.51372549
0.55539216 0.55539216 0.55539216
0.63057598 0.63057598 0.63057598
0.68406863 0.68406863 0.68406863
0.73296569 0.73296569 0.73296569
0.76323529 0.76323529 0.76323529
0.76648284 0.76648284 0.76648284
0.825 0.825 0.825
0.57745098 0.57745098 0.57745098
0.60142463 0.60142463 0.60142463
0.62205882 0.62205882 0.62205882
0.65379902 0.65379902 0.65379902
0.70931373 0.70931373 0.70931373
0.77463235 0.77463235 0.77463235
0.81418505 0.81418505 0.81418505
0.83380821 0.83380821 0.83380821
0.85551471 0.85551471 0.85551471
0.69093137 0.69093137 0.69093137
0.69764093 0.69764093 0.69764093
0.71648284 0.71648284 0.71648284
0.74378064 0.74378064 0.74378064
0.78627451 0.78627451 0.78627451
0.83167892 0.83167892 0.83167892
0.86887255 0.86887255 0.86887255
0.8981924 0.8981924 0.8981924
0.91691176 0.91691176 0.91691176
0.81678922 0.81678922 0.81678922
0.82022059 0.82022059 0.82022059
0.83360907 0.83360907 0.83360907
0.85635723 0.85635723 0.85635723
0.89362745 0.89362745 0.89362745
0.90863971 0.90863971 0.90863971
0.92352941 0.92352941 0.92352941
0.94776348 0.94776348 0.94776348
0.97647059 0.97647059 0.97647059
0.93333333 0.93333333 0.93333333
0.94117647 0.94117647 0.94117647
0.94509804 0.94509804 0.94509804
0.94117647 0.94117647 0.94117647
0.94754902 0.94754902 0.94754902
0.96801471 0.96801471 0.96801471
0.97647059 0.97647059 0.97647059
0.98517157 0.98517157 0.98517157
0.98137255 0.98137255 0.98137255
0.53676471 0.53676471 0.53676471
0.55196078 0.55196078 0.55196078
0.5814951 0.5814951 0.5814951
0.62107843 0.62107843 0.62107843
0.66862745 0.66862745 0.66862745
0.73431373 0.73431373 0.73431373
0.78321078 0.78321078 0.78321078
0.7872549 0.7872549 0.7872549
0.77892157 0.77892157 0.77892157
0.55496324 0.55496324 0.55496324
0.57762714 0.57762714 0.57762714
0.59810049 0.59810049 0.59810049
0.63714767 0.63714767 0.63714767
0.69166667 0.69166667 0.69166667
0.74934896 0.74934896 0.74934896
0.78720895 0.78720895 0.78720895
0.79417892 0.79417892 0.79417892
0.79368873 0.79368873 0.79368873
0.60894608 0.60894608 0.60894608
0.61758578 0.61758578 0.61758578
0.64276961 0.64276961 0.64276961
0.67395833 0.67395833 0.67395833
0.7247549 0.7247549 0.7247549
0.76897978 0.76897978 0.76897978
0.80159314 0.80159314 0.80159314
0.80196078 0.80196078 0.80196078
0.82009804 0.82009804 0.82009804
0.65196078 0.65196078 0.65196078
0.6596201 0.6596201 0.6596201
0.68216912 0.68216912 0.68216912
0.7080193 0.7080193 0.7080193
0.75735294 0.75735294 0.75735294
0.79754902 0.79754902 0.79754902
0.82740502 0.82740502 0.82740502
0.82941176 0.82941176 0.82941176
0.82941176 0.82941176 0.82941176
0.65539216 0.65539216 0.65539216
0.6627451 0.6627451 0.6627451
0.6995098 0.6995098 0.6995098
0.74068627 0.74068627 0.74068627
0.775 0.775 0.775
0.81338848 0.81338848 0.81338848
0.8473652 0.8473652 0.8473652
0.86421569 0.86421569 0.86421569
0.86985294 0.86985294 0.86985294
0.66029412 0.66029412 0.66029412
0.6646829 0.6646829 0.6646829
0.69010417 0.69010417 0.69010417
0.72468597 0.72468597 0.72468597
0.77530637 0.77530637 0.77530637
0.83314951 0.83314951 0.83314951
0.87757353 0.87757353 0.87757353
0.9004902 0.9004902 0.9004902
0.90704657 0.90704657 0.90704657
0.74901961 0.74901961 0.74901961
0.75251225 0.75251225 0.75251225
0.76663603 0.76663603 0.76663603
0.78765319 0.78765319 0.78765319
0.81709559 0.81709559 0.81709559
0.84666054 0.84666054 0.84666054
0.89371936 0.89371936 0.89371936
0.93578431 0.93578431 0.93578431
0.9495098 0.9495098 0.9495098
0.83382353 0.83382353 0.83382353
0.84296109 0.84296109 0.84296109
0.85363051 0.85363051 0.85363051
0.86308977 0.86308977 0.86308977
0.89583333 0.89583333 0.89583333
0.92303922 0.92303922 0.92303922
0.93964461 0.93964461 0.93964461
0.96917892 0.96917892 0.96917892
0.98137255 0.98137255 0.98137255
0.94117647 0.94117647 0.94117647
0.94509804 0.94509804 0.94509804
0.92867647 0.92867647 0.92867647
0.95686275 0.95686275 0.95686275
0.96078431 0.96078431 0.96078431
0.96617647 0.96617647 0.96617647
0.98039216 0.98039216 0.98039216
0.99215686 0.99215686 0.99215686
0.99215686 0.99215686 0.99215686
0.75686275 0.75686275 0.75686275
0.74901961 0.74901961 0.74901961
0.75980392 0.75980392 0.75980392
0.79460784 0.79460784 0.79460784
0.80196078 0.80196078 0.80196078
0.85539216 0.85539216 0.85539216
0.8872549 0.8872549 0.8872549
0.87892157 0.87892157 0.87892157
0.92156863 0.92156863 0.92156863
0.76078431 0.76078431 0.76078431
0.76427696 0.76427696 0.76427696
0.77843137 0.77843137 0.77843137
0.78596814 0.78596814 0.78596814
0.82745098 0.82745098 0.82745098
0.86047794 0.86047794 0.86047794
0.88884804 0.88884804 0.88884804
0.91666667 0.91666667 0.91666667
0.92990196 0.92990196 0.92990196
0.77647059 0.77647059 0.77647059
0.78088235 0.78088235 0.78088235
0.79681373 0.79681373 0.79681373
0.81323529 0.81323529 0.81323529
0.84068627 0.84068627 0.84068627
0.86421569 0.86421569 0.86421569
0.89117647 0.89117647 0.89117647
0.93026961 0.93026961 0.93026961
0.9254902 0.9254902 0.9254902
0.80245098 0.80245098 0.80245098
0.80030637 0.80030637 0.80030637
0.80061275 0.80061275 0.80061275
0.83137255 0.83137255 0.83137255
0.85490196 0.85490196 0.85490196
0.87598039 0.87598039 0.87598039
0.90257353 0.90257353 0.90257353
0.92745098 0.92745098 0.92745098
0.9372549 0.9372549 0.9372549
0.79607843 0.79607843 0.79607843
0.81127451 0.81127451 0.81127451
0.81764706 0.81764706 0.81764706
0.84509804 0.84509804 0.84509804
0.85588235 0.85588235 0.85588235
0.88504902 0.88504902 0.88504902
0.92107843 0.92107843 0.92107843
0.93970588 0.93970588 0.93970588
0.95490196 0.95490196 0.95490196
0.76176471 0.76176471 0.76176471
0.8 0.8 0.8
0.77696078 0.77696078 0.77696078
0.82843137 0.82843137 0.82843137
0.86470588 0.86470588 0.86470588
0.90882353 0.90882353 0.90882353
0.92977941 0.92977941 0.92977941
0.95490196 0.95490196 0.95490196
0.96862745 0.96862745 0.96862745
0.80686275 0.80686275 0.80686275
0.82855392 0.82855392 0.82855392
0.80588235 0.80588235 0.80588235
0.85821078 0.85821078 0.85821078
0.87009804 0.87009804 0.87009804
0.9122549 0.9122549 0.9122549
0.94215686 0.94215686 0.94215686
0.97401961 0.97401961 0.97401961
0.98039216 0.98039216 0.98039216
0.89117647 0.89117647 0.89117647
0.90245098 0.90245098 0.90245098
0.88762255 0.88762255 0.88762255
0.90422794 0.90422794 0.90422794
0.91838235 0.91838235 0.91838235
0.946875 0.946875 0.946875
0.96617647 0.96617647 0.96617647
0.98431373 0.98431373 0.98431373
0.99607843 0.99607843 0.99607843
0.96078431 0.96078431 0.96078431
0.94166667 0.94166667 0.94166667
0.94509804 0.94509804 0.94509804
0.95441176 0.95441176 0.95441176
0.95294118 0.95294118 0.95294118
0.96470588 0.96470588 0.96470588
0.98039216 0.98039216 0.98039216
0.98823529 0.98823529 0.98823529
0.99607843 0.99607843 0.99607843
