site/assets/luts/sha256-db60a3882733319b9496d11493ced91585dbe462756543d95b478f326eb824cd.cube
# LUTr-Schema-Version: 2
# LUTr-ID: sha256-db60a3882733319b9496d11493ced91585dbe462756543d95b478f326eb824cd
# LUTr-Title: agfa precisa 100
# LUTr-Collection: Natron HaldCLUT
# LUTr-Collection-ID: natron-haldclut-presets
# LUTr-Source: https://github.com/NatronGitHub/clut
# LUTr-Retrieved: 2026-07-27
# LUTr-Source-File: submissions/natron-haldclut-presets/colorslide/agfa_precisa_100.png
# LUTr-Source-Format: HALD-PNG
# LUTr-Source-SHA256: db60a3882733319b9496d11493ced91585dbe462756543d95b478f326eb824cd
# LUTr-License: CC-BY-SA-4.0
# LUTr-License-URL: https://github.com/NatronGitHub/clut#license
# LUTr-License-Basis: repo-license-file
# LUTr-Transform-Class: film-emulation
# LUTr-Tags: creative, film, film-emulation, hald-clut, natron, png, cube
# LUTr-Input-Color-Space: srgb
# LUTr-Input-Gamut: rec709
# LUTr-Input-Transfer: srgb
# LUTr-Output-Color-Space: srgb
# LUTr-Output-Gamut: rec709
# LUTr-Output-Transfer: srgb
# LUTr-Color-Space-Confidence: assumed-display-referred
# LUTr-Domain-Normalized: true
# LUTr-Shaper: none
# LUTr-Original-Grid: 64x64x64
# LUTr-Conversion-Grid: 25x25x25
# LUTr-Conversion-Interpolation: trilinear
# LUTr-Conversion-Method: HALD-PNG LUT image decoded at 16-bit and sampled to 25x25x25 3D CUBE
# LUTr-Conversion-Tool: LUTr scripts/convert-all-to-cube.mjs 2.0.0
# LUTr-Conversion-Date: 2026-07-27
# LUTr-Note: Preserve this metadata and the upstream license notices when redistributing.
TITLE "agfa precisa 100"
LUT_3D_SIZE 25
DOMAIN_MIN 0 0 0
DOMAIN_MAX 1 1 1
0 0 0
0.033333333 0.014215686 0.014215686
0.067647059 0.029411765 0.026470588
0.085294118 0.012254902 0.012254902
0.10784314 0.0019607843 0.0058823529
0.14264706 0.016666667 0.020588235
0.17352941 0.025490196 0.032352941
0.20441176 0.014215686 0.023529412
0.23921569 0.011764706 0.023529412
0.28039216 0.023529412 0.033823529
0.32156863 0.032352941 0.048039216
0.36666667 0.035294118 0.054411765
0.41176471 0.035294118 0.064705882
0.45735294 0.031862745 0.075
0.50588235 0.046078431 0.088235294
0.55637255 0.060294118 0.099509804
0.61176471 0.070588235 0.11372549
0.66323529 0.080882353 0.12794118
0.71372549 0.087254902 0.13921569
0.75882353 0.093627451 0.15245098
0.80392157 0.1 0.16666667
0.84901961 0.10637255 0.17696078
0.89411765 0.11372549 0.19117647
0.93529412 0.11911765 0.20147059
0.96862745 0.12156863 0.21176471
0.026960784 0.034803922 0.014215686
0.043627451 0.034803922 0.020588235
0.071078431 0.040318627 0.032230392
0.091666667 0.034803922 0.018321078
0.11691176 0.034803922 0.014215686
0.14656863 0.039215686 0.022732843
0.17806373 0.041544118 0.030269608
0.21078431 0.03872549 0.031372549
0.24705882 0.042647059 0.03627451
0.29068627 0.052941176 0.038664216
0.33186275 0.059313725 0.043504902
0.37303922 0.062254902 0.05067402
0.41887255 0.062254902 0.058333333
0.46323529 0.062254902 0.071078431
0.50882353 0.062254902 0.084681373
0.55882353 0.066666667 0.099509804
0.61176471 0.073039216 0.11372549
0.66568627 0.080882353 0.12794118
0.71433824 0.087254902 0.14215686
0.75882353 0.093627451 0.15245098
0.80392157 0.1 0.16544118
0.84901961 0.10980392 0.17696078
0.89411765 0.11372549 0.19117647
0.93921569 0.11911765 0.20147059
0.97107843 0.12401961 0.21176471
0.052941176 0.068627451 0.024509804
0.058333333 0.065686275 0.025980392
0.081372549 0.066666667 0.02745098
0.10196078 0.069607843 0.023651961
0.12205882 0.065686275 0.015686275
0.15147059 0.069607843 0.024142157
0.18627451 0.069607843 0.035294118
0.21862745 0.073529412 0.045588235
0.25588235 0.07745098 0.048039216
0.3 0.085294118 0.047426471
0.34117647 0.089215686 0.042156863
0.38235294 0.091789216 0.042156863
0.42598039 0.093137255 0.051960784
0.46960784 0.093137255 0.063602941
0.51470588 0.093137255 0.079656863
0.56421569 0.089215686 0.09497549
0.61568627 0.084313725 0.1127451
0.66997549 0.082720588 0.12794118
0.71862745 0.087254902 0.14215686
0.75882353 0.09497549 0.15245098
0.80392157 0.10392157 0.16470588
0.84901961 0.10992647 0.17696078
0.89411765 0.11666667 0.19019608
0.93921569 0.12156863 0.20147059
0.97254902 0.1254902 0.21176471
0.069607843 0.096568627 0.030882353
0.069914216 0.09442402 0.02745098
0.091666667 0.09754902 0.032720588
0.1122549 0.1004902 0.039460784
0.12892157 0.1 0.02622549
0.15876225 0.1004902 0.034865196
0.19558824 0.10428922 0.045588235
0.22892157 0.10784314 0.054595588
0.26617647 0.1122549 0.058333333
0.30735294 0.11617647 0.052267157
0.34852941 0.11666667 0.042156863
0.38670343 0.11666667 0.035723039
0.43308824 0.12034314 0.045343137
0.47990196 0.12401961 0.059803922
0.52401961 0.12401961 0.073529412
0.57156863 0.12009804 0.089215686
0.62303922 0.1122549 0.10637255
0.67481618 0.10196078 0.12432598
0.72156863 0.098039216 0.13958333
0.7627451 0.10490196 0.15245098
0.80563725 0.11127451 0.1627451
0.8495098 0.11764706 0.17696078
0.89411765 0.12401961 0.1872549
0.93921569 0.12677696 0.20147059
0.96911765 0.12892157 0.20833333
0.080392157 0.13137255 0.043137255
0.082843137 0.12941176 0.039215686
0.10196078 0.13186275 0.044117647
0.12254902 0.13529412 0.04877451
0.14313725 0.13529412 0.047058824
0.16813725 0.13357843 0.055147059
0.20245098 0.13529412 0.060294118
0.23651961 0.13995098 0.064705882
0.2745098 0.14313725 0.064705882
0.31446078 0.14705882 0.059558824
0.35490196 0.14901961 0.051960784
0.39607843 0.15245098 0.043627451
0.44117647 0.15196078 0.046078431
0.48848039 0.15490196 0.055392157
0.53431373 0.15490196 0.067156863
0.58112745 0.1495098 0.082598039
0.62941176 0.14509804 0.1
0.67892157 0.13995098 0.11421569
0.7254902 0.13284314 0.13235294
0.76666667 0.12745098 0.14656863
0.80980392 0.1254902 0.16176471
0.85318627 0.12745098 0.17328431
0.89803922 0.12941176 0.1872549
0.93848039 0.13210784 0.19901961
0.96862745 0.13333333 0.20784314
0.090686275 0.17058824 0.059313725
0.097058824 0.17009804 0.059803922
0.1127451 0.17009804 0.06372549
0.13284314 0.17052696 0.067156863
0.15563725 0.17058824 0.067401961
0.18192402 0.17009804 0.071078431
0.20931373 0.17046569 0.074877451
0.24381127 0.17420343 0.075
0.28235294 0.17794118 0.074509804
0.32009804 0.18216912 0.068933824
0.36127451 0.18627451 0.067156863
0.40245098 0.18970588 0.06372549
0.4495098 0.1879902 0.059803922
0.49705882 0.18578431 0.055392157
0.54558824 0.18578431 0.06127451
0.59068627 0.18216912 0.07567402
0.63578431 0.18186275 0.089705882
0.6846201 0.17579657 0.10637255
0.72683824 0.16911765 0.12303922
0.77101716 0.15925245 0.13976716
0.81568627 0.15245098 0.15661765
0.85735294 0.14166667 0.17261029
0.90196078 0.13480392 0.18713235
0.94313725 0.13382353 0.20147059
0.97303922 0.1372549 0.20833333
0.097058824 0.20490196 0.073529412
0.10980392 0.20490196 0.075367647
0.12647059 0.20784314 0.080637255
0.14705882 0.20784314 0.081372549
0.16764706 0.20784314 0.082843137
0.19264706 0.20784314 0.081372549
0.21960784 0.20784314 0.081372549
0.2504902 0.20992647 0.080269608
0.28921569 0.2127451 0.078431373
0.32745098 0.2185049 0.081372549
0.36764706 0.22377451 0.084313725
0.40968137 0.2245098 0.081740196
0.45637255 0.22401961 0.076960784
0.50428922 0.22352941 0.072058824
0.55269608 0.22352941 0.068627451
0.59914216 0.21960784 0.075
0.65 0.21960784 0.083333333
0.69117647 0.21029412 0.097181373
0.73333333 0.20294118 0.11495098
0.77745098 0.19362745 0.13333333
0.81960784 0.18333333 0.15
0.86372549 0.16862745 0.16666667
0.90588235 0.15269608 0.18406863
0.95 0.14203431 0.20147059
0.98333333 0.1372549 0.21176471
0.10343137 0.23970588 0.079901961
0.11917892 0.24117647 0.088664216
0.13431373 0.24509804 0.09375
0.14852941 0.24871324 0.097058824
0.1745098 0.24901961 0.096323529
0.20275735 0.24509804 0.095281863
0.22990196 0.24656863 0.091666667
0.25686275 0.24901961 0.08682598
0.29411765 0.25294118 0.089215686
0.33529412 0.25539216 0.094669118
0.37401961 0.25968137 0.097671569
0.41519608 0.26078431 0.10098039
0.45955882 0.2627451 0.096323529
0.5096201 0.26648284 0.092647059
0.55735294 0.26862745 0.089215686
0.60643382 0.265625 0.089215686
0.65637255 0.2622549 0.087745098
0.70147059 0.25588235 0.091727941
0.74264706 0.24522059 0.10637255
0.78382353 0.23137255 0.12334559
0.825 0.21642157 0.14362745
0.86881127 0.20116422 0.16029412
0.91127451 0.18431373 0.17794118
0.95490196 0.1661152 0.19699755
0.99460784 0.15 0.2127451
0.11764706 0.28235294 0.10196078
0.12401961 0.28480392 0.10441176
0.13529412 0.28627451 0.10980392
0.15196078 0.29019608 0.10980392
0.17843137 0.29019608 0.10980392
0.20931373 0.29019608 0.10931373
0.23627451 0.29313725 0.10588235
0.26715686 0.29411765 0.10588235
0.30196078 0.29411765 0.10980392
0.33921569 0.29656863 0.11764706
0.37941176 0.29803922 0.12156863
0.42156863 0.30196078 0.12156863
0.46862745 0.30784314 0.11568627
0.51617647 0.31372549 0.10980392
0.56470588 0.31372549 0.10686275
0.61519608 0.3122549 0.10588235
0.6627451 0.30980392 0.098039216
0.71029412 0.30735294 0.090196078
0.75294118 0.29705882 0.096078431
0.79411765 0.28676471 0.1127451
0.83529412 0.27058824 0.12941176
0.87598039 0.25392157 0.14607843
0.91372549 0.2372549 0.16372549
0.95098039 0.22205882 0.17941176
0.98431373 0.20784314 0.19607843
0.13186275 0.33137255 0.12254902
0.13523284 0.33137255 0.12254902
0.13823529 0.32745098 0.12009804
0.15196078 0.32745098 0.12009804
0.18480392 0.33259804 0.12328431
0.21568627 0.3377451 0.12647059
0.24656863 0.34105392 0.12647059
0.27745098 0.34166667 0.12346814
0.30833333 0.34166667 0.12647059
0.34558824 0.34166667 0.13431373
0.38492647 0.34203431 0.13970588
0.43137255 0.346875 0.13841912
0.47696078 0.35220588 0.13431373
0.52647059 0.35753676 0.13008578
0.57401961 0.36066176 0.12647059
0.6254902 0.35882353 0.1216299
0.67303922 0.35882353 0.10833333
0.71813725 0.35735294 0.094117647
0.76323529 0.35306373 0.090563725
0.80441176 0.34460784 0.099019608
0.84362745 0.33039216 0.11397059
0.88235294 0.31194853 0.13155637
0.91715686 0.29264706 0.14889706
0.95643382 0.27261029 0.16764706
0.99068627 0.25539216 0.18186275
0.14215686 0.37745098 0.14313725
0.14607843 0.37745098 0.14252451
0.14632353 0.37352941 0.13848039
0.16164216 0.37708333 0.13884804
0.19313725 0.38333333 0.14264706
0.22585784 0.38578431 0.14313725
0.25588235 0.38921569 0.14313725
0.28676471 0.38921569 0.13884804
0.31862745 0.38921569 0.13823529
0.35343137 0.38921569 0.1439951
0.39705882 0.39313725 0.14607843
0.44178922 0.39656863 0.14987745
0.48921569 0.4004902 0.15
0.53676471 0.40404412 0.14693627
0.58602941 0.40710784 0.14240196
0.63578431 0.40882353 0.13247549
0.68333333 0.40882353 0.11764706
0.72634804 0.40882353 0.099877451
0.77058824 0.40882353 0.085294118
0.81470588 0.40245098 0.084926471
0.85441176 0.39215686 0.098039216
0.89264706 0.37352941 0.11360294
0.92745098 0.35392157 0.13333333
0.96617647 0.33370098 0.15
0.99215686 0.31764706 0.1627451
0.14901961 0.42892157 0.16029412
0.14901961 0.42892157 0.15980392
0.15821078 0.42892157 0.15980392
0.17843137 0.43235294 0.15980392
0.20539216 0.43676471 0.15980392
0.23235294 0.44068627 0.16372549
0.26323529 0.44068627 0.15992647
0.29411765 0.44068627 0.15459559
0.32892157 0.44068627 0.14852941
0.36617647 0.44068627 0.15116422
0.40821078 0.44460784 0.15637255
0.45545343 0.44503676 0.15980392
0.50318627 0.44877451 0.1620098
0.5504902 0.45294118 0.16029412
0.59852941 0.45894608 0.15343137
0.64479167 0.46390931 0.13578431
0.69362745 0.46421569 0.12107843
0.73480392 0.46390931 0.103125
0.78002451 0.46372549 0.085294118
0.825 0.46372549 0.071997549
0.86789216 0.45563725 0.079411765
0.90294118 0.43878676 0.096078431
0.9377451 0.42156863 0.11360294
0.97254902 0.40716912 0.12794118
0.99215686 0.4 0.13480392
0.14901961 0.48039216 0.17647059
0.15539216 0.48039216 0.17647059
0.17254902 0.48088235 0.17892157
0.19313725 0.48431373 0.17867647
0.21372549 0.48823529 0.17647059
0.24068627 0.49215686 0.17843137
0.27352941 0.49215686 0.17647059
0.30588235 0.49215686 0.17254902
0.33921569 0.49215686 0.17058824
0.37843137 0.49215686 0.16666667
0.42205882 0.49607843 0.16813725
0.46838235 0.4997549 0.17034314
0.51470588 0.50392157 0.17058824
0.56127451 0.51004902 0.16421569
0.60882353 0.51666667 0.15392157
0.65490196 0.52156863 0.13823529
0.70196078 0.52352941 0.12156863
0.74509804 0.52034314 0.10735294
0.79068627 0.52009804 0.090196078
0.83872549 0.52328431 0.071323529
0.88137255 0.52058824 0.061764706
0.91348039 0.50318627 0.079166667
0.94803922 0.4877451 0.093137255
0.98676471 0.475 0.10735294
0.99607843 0.47254902 0.10980392
0.15294118 0.53235294 0.19313725
0.16403186 0.53235294 0.19558824
0.18676471 0.53578431 0.19705882
0.20735294 0.53578431 0.19705882
0.22622549 0.53970588 0.19338235
0.24558824 0.53970588 0.19270833
0.28333333 0.54362745 0.19656863
0.32040441 0.54362745 0.20147059
0.35735294 0.54362745 0.20147059
0.39460784 0.54393382 0.19509804
0.43590686 0.54852941 0.19264706
0.48088235 0.55490196 0.18627451
0.52794118 0.56127451 0.17941176
0.575 0.56764706 0.16856618
0.6192402 0.57414216 0.15441176
0.66519608 0.57677696 0.13970588
0.71029412 0.57892157 0.1254902
0.75539216 0.5754902 0.11176471
0.8 0.5754902 0.09754902
0.84466912 0.57892157 0.079901961
0.88455882 0.57892157 0.06127451
0.91917892 0.56715686 0.067585784
0.95428922 0.55306373 0.080882353
0.99264706 0.54460784 0.089031863
1 0.54460784 0.08872549
0.16176471 0.58431373 0.21568627
0.18002451 0.58431373 0.22022059
0.20392157 0.5872549 0.2252451
0.2245098 0.5872549 0.22745098
0.24509804 0.59117647 0.22401961
0.26911765 0.59166667 0.22352941
0.30098039 0.59730392 0.22745098
0.33786765 0.59901961 0.23235294
0.37156863 0.59803922 0.23235294
0.41176471 0.59754902 0.2245098
0.45294118 0.60294118 0.22058824
0.49497549 0.60686275 0.21678922
0.54166667 0.61470588 0.20490196
0.58566176 0.62254902 0.18823529
0.63039216 0.62647059 0.16862745
0.6754902 0.6314951 0.14693627
0.71764706 0.63431373 0.12843137
0.76176471 0.63333333 0.11813725
0.80392157 0.63333333 0.10759804
0.84509804 0.63419118 0.090196078
0.88627451 0.63431373 0.072058824
0.92303922 0.62892157 0.063357843
0.96004902 0.62083333 0.071568627
0.99117647 0.62058824 0.067156863
1 0.62058824 0.064705882
0.19656863 0.62941176 0.25147059
0.20539216 0.63088235 0.25447304
0.2245098 0.63370098 0.26139706
0.24509804 0.63694853 0.26470588
0.27034314 0.63995098 0.26397059
0.29822304 0.64295343 0.26078431
0.32696078 0.64840686 0.25931373
0.35637255 0.6504902 0.26176471
0.39117647 0.6504902 0.25931373
0.42843137 0.64993873 0.25147059
0.46960784 0.65539216 0.24938725
0.51292892 0.65833333 0.24411765
0.55171569 0.66421569 0.23921569
0.59589461 0.67058824 0.22303922
0.64068627 0.67757353 0.20392157
0.68278186 0.68186275 0.18333333
0.7254902 0.68578431 0.1627451
0.76666667 0.68970588 0.13676471
0.80784314 0.69117647 0.11813725
0.84901961 0.68988971 0.10392157
0.89019608 0.69117647 0.079901961
0.92714461 0.69117647 0.062561275
0.96176471 0.69264706 0.055759804
0.99117647 0.69656863 0.042647059
0.99607843 0.69411765 0.040196078
0.23137255 0.6745098 0.29019608
0.2377451 0.67843137 0.29264706
0.24803922 0.67941176 0.29509804
0.26568627 0.68235294 0.30196078
0.29607843 0.68627451 0.3
0.32647059 0.69068627 0.29411765
0.35392157 0.69411765 0.29117647
0.37941176 0.69803922 0.28627451
0.40784314 0.69803922 0.28235294
0.44509804 0.7004902 0.27843137
0.48627451 0.70588235 0.27843137
0.52401961 0.70980392 0.27843137
0.56078431 0.71372549 0.27254902
0.60588235 0.71813725 0.26176471
0.64705882 0.7254902 0.24117647
0.69215686 0.72941176 0.22205882
0.73333333 0.73333333 0.20392157
0.77058824 0.73970588 0.1745098
0.81176471 0.74509804 0.14215686
0.85294118 0.74901961 0.11127451
0.89411765 0.74901961 0.088235294
0.93088235 0.75294118 0.061764706
0.96568627 0.75686275 0.041176471
0.98970588 0.76078431 0.029901961
0.99215686 0.76078431 0.02745098
0.26617647 0.72598039 0.32745098
0.27254902 0.72598039 0.33045343
0.28137255 0.72598039 0.3307598
0.29656863 0.72745098 0.32892157
0.32303922 0.73259804 0.32892157
0.35128676 0.73560049 0.325
0.37732843 0.73921569 0.32144608
0.40300245 0.74313725 0.31568627
0.42843137 0.74558824 0.30539216
0.46415441 0.74859069 0.30447304
0.50012255 0.75379902 0.30539216
0.5377451 0.75735294 0.30539216
0.57426471 0.7620098 0.30539216
0.6122549 0.76697304 0.29656863
0.65490196 0.77242647 0.27953431
0.69852941 0.7745098 0.26176471
0.73970588 0.7745098 0.24117647
0.77843137 0.7838848 0.21813725
0.81813725 0.79080882 0.18517157
0.85686275 0.79754902 0.14901961
0.89803922 0.80563725 0.096568627
0.93743873 0.81078431 0.054901961
0.97022059 0.81409314 0.030882353
0.98186275 0.81378676 0.025919118
0.98431373 0.8122549 0.028921569
0.30098039 0.77352941 0.36470588
0.30833333 0.77254902 0.36372549
0.31862745 0.77254902 0.3627451
0.32892157 0.77340686 0.35980392
0.35 0.77892157 0.35882353
0.37683824 0.78039216 0.35539216
0.40318627 0.78259804 0.35196078
0.42879902 0.78431373 0.34693627
0.45392157 0.78431373 0.34509804
0.48443627 0.79068627 0.34571078
0.51862745 0.79607843 0.34509804
0.5560049 0.8 0.34411765
0.58823529 0.80637255 0.33872549
0.62340686 0.81213235 0.33186275
0.66372549 0.81568627 0.31789216
0.70490196 0.81568627 0.3004902
0.74607843 0.81960784 0.28235294
0.78443627 0.82598039 0.25931373
0.82279412 0.83627451 0.22843137
0.86176471 0.84362745 0.19117647
0.90196078 0.85392157 0.13333333
0.94313725 0.86678922 0.054166667
0.9747549 0.87083333 0.019607843
0.97647059 0.86617647 0.023897059
0.98039216 0.8627451 0.02745098
0.33921569 0.81421569 0.40539216
0.346875 0.81390931 0.3995098
0.35588235 0.81372549 0.39448529
0.36660539 0.81764706 0.39068627
0.38063725 0.82328431 0.38676471
0.40349265 0.82199755 0.38670343
0.42830882 0.82156863 0.38627451
0.45392157 0.82175245 0.38756127
0.48088235 0.8254902 0.38970588
0.50833333 0.83186275 0.38627451
0.54007353 0.83823529 0.38529412
0.57401961 0.84117647 0.37935049
0.60539216 0.84901961 0.3747549
0.63970588 0.84993873 0.36709559
0.67401961 0.8560049 0.35686275
0.71519608 0.86047794 0.34411765
0.75637255 0.86078431 0.32352941
0.79148284 0.86715686 0.29901961
0.82732843 0.87830882 0.27058824
0.8651348 0.89117647 0.24215686
0.90588235 0.90147059 0.18014706
0.94313725 0.90839461 0.095526961
0.97463235 0.91875 0.029411765
0.98137255 0.91390931 0.023713235
0.9877451 0.91127451 0.024019608
0.39019608 0.84901961 0.45294118
0.39534314 0.84779412 0.44901961
0.40294118 0.84901961 0.44117647
0.41151961 0.85245098 0.4372549
0.42156863 0.85294118 0.43333333
0.43627451 0.85514706 0.43112745
0.45833333 0.85686275 0.42941176
0.48014706 0.8627451 0.43137255
0.50784314 0.86666667 0.43137255
0.53480392 0.87058824 0.425
0.56372549 0.87696078 0.41960784
0.59460784 0.88406863 0.41593137
0.6254902 0.88431373 0.41176471
0.65637255 0.88676471 0.40735294
0.69019608 0.89509804 0.39705882
0.72745098 0.90269608 0.38602941
0.76666667 0.90588235 0.36470588
0.8 0.90980392 0.34019608
0.83627451 0.91911765 0.31519608
0.87279412 0.93088235 0.29117647
0.90686275 0.93823529 0.24313725
0.94289216 0.93921569 0.17720588
0.97058824 0.95147059 0.093137255
0.99166667 0.96666667 0.021323529
0.99411765 0.9627451 0.017647059
0.44166667 0.88039216 0.50392157
0.44411765 0.87990196 0.49803922
0.4504902 0.87990196 0.49178922
0.45729167 0.88339461 0.48872549
0.46666667 0.88382353 0.4870098
0.47745098 0.88382353 0.48088235
0.49497549 0.89031863 0.48088235
0.51470588 0.89705882 0.47696078
0.53529412 0.8995098 0.47696078
0.56354167 0.90343137 0.47322304
0.59264706 0.90821078 0.46960784
0.62003676 0.91427696 0.47009804
0.64656863 0.91495098 0.46151961
0.67745098 0.91911765 0.45343137
0.71090686 0.92598039 0.44313725
0.74626225 0.93560049 0.43676471
0.77745098 0.93823529 0.41911765
0.81207108 0.93823529 0.39852941
0.85061275 0.94313725 0.37794118
0.88529412 0.94993873 0.35392157
0.91568627 0.95588235 0.31470588
0.94705882 0.96617647 0.25980392
0.97794118 0.97647059 0.19289216
0.99522059 0.99375 0.082965686
1 0.99607843 0.028921569
0.49313725 0.91470588 0.55196078
0.49375 0.91409314 0.5495098
0.49877451 0.91470588 0.54632353
0.5057598 0.91470588 0.5432598
0.51470588 0.91470588 0.54019608
0.52205882 0.91470588 0.53615196
0.53848039 0.91862745 0.53235294
0.55588235 0.92683824 0.53235294
0.57647059 0.93039216 0.53137255
0.59767157 0.93039216 0.52843137
0.62352941 0.93529412 0.53137255
0.6504902 0.94178922 0.5314951
0.6754902 0.94215686 0.52156863
0.70441176 0.94362745 0.51127451
0.73308824 0.94779412 0.50392157
0.76470588 0.95306373 0.49963235
0.79803922 0.95882353 0.48823529
0.83137255 0.96127451 0.47058824
0.86470588 0.9629902 0.45
0.89558824 0.96666667 0.42205882
0.92254902 0.97254902 0.37990196
0.95441176 0.98419118 0.32830882
0.98529412 0.99558824 0.28161765
0.99963235 0.99963235 0.18958333
1 0.99901961 0.05
0.54313725 0.9495098 0.60343137
0.54313725 0.94558824 0.5995098
0.54742647 0.94656863 0.5995098
0.55226716 0.9495098 0.59589461
0.55955882 0.94558824 0.59558824
0.56715686 0.94607843 0.59117647
0.58247549 0.95245098 0.58921569
0.60245098 0.95882353 0.59166667
0.62156863 0.96127451 0.58921569
0.63339461 0.95980392 0.58529412
0.65551471 0.96409314 0.58982843
0.68186275 0.96911765 0.59185049
0.70637255 0.96838235 0.57990196
0.72941176 0.96636029 0.56813725
0.75686275 0.97058824 0.56813725
0.7877451 0.97395833 0.56660539
0.81862745 0.97941176 0.55784314
0.8495098 0.97941176 0.54264706
0.87892157 0.98333333 0.52169118
0.90588235 0.98333333 0.49264706
0.93137255 0.9870098 0.45563725
0.95802696 0.99215686 0.41862745
0.98529412 0.99607843 0.38884804
0.99944853 1 0.29957108
1 1 0.18676471
0.58431373 0.97647059 0.64705882
0.58039216 0.97254902 0.64068627
0.58431373 0.97254902 0.63921569
0.58823529 0.97254902 0.63578431
0.59411765 0.97254902 0.63529412
0.60441176 0.97254902 0.63137255
0.62156863 0.97941176 0.63431373
0.64705882 0.99068627 0.64803922
0.65098039 0.98431373 0.63529412
0.66127451 0.98186275 0.62892157
0.68431373 0.98921569 0.63627451
0.70882353 0.99215686 0.63970588
0.7254902 0.98627451 0.62156863
0.74656863 0.98088235 0.60784314
0.77745098 0.9872549 0.61078431
0.80833333 0.99362745 0.62107843
0.83921569 0.99607843 0.61960784
0.86372549 0.99607843 0.60294118
0.88823529 0.99607843 0.57843137
0.9122549 0.99607843 0.55392157
0.93529412 0.99607843 0.5254902
0.96176471 0.99607843 0.50490196
0.98627451 0.99901961 0.49117647
1 1 0.42058824
1 1 0.3372549
0.018137255 0.014215686 0.024509804
0.03872549 0.016666667 0.027879902
0.064705882 0.021936275 0.033946078
0.085294118 0.010477941 0.028431373
0.10906863 0.0078431373 0.025735294
0.13872549 0.012254902 0.030392157
0.17107843 0.018137255 0.037745098
0.2028799 0.015134804 0.033823529
0.23921569 0.015686275 0.033823529
0.28039216 0.022058824 0.038664216
0.32156863 0.029534314 0.048039216
0.36617647 0.03872549 0.054411765
0.4129902 0.042401961 0.064705882
0.45735294 0.039705882 0.075
0.50772059 0.05245098 0.088848039
0.55637255 0.063296569 0.099509804
0.61176471 0.074509804 0.11372549
0.66323529 0.082352941 0.12794118
0.71188725 0.087254902 0.13921569
0.75851716 0.093627451 0.15245098
0.80392157 0.10196078 0.16666667
0.8495098 0.10980392 0.17696078
0.89411765 0.11372549 0.19117647
0.93921569 0.11911765 0.20147059
0.97254902 0.12156863 0.21176471
0.032352941 0.041176471 0.033333333
0.046361826 0.039070159 0.034459252
0.069929534 0.039828431 0.040548407
0.091666667 0.034803922 0.032659314
0.11691176 0.034803922 0.031341912
0.14509804 0.037921262 0.035654105
0.17653186 0.039874387 0.041253064
0.20775888 0.03872549 0.044692096
0.24558824 0.042647059 0.044117647
0.28676471 0.049364277 0.044117647
0.32895221 0.055009191 0.046369485
0.37303922 0.06183364 0.051960784
0.41813725 0.064215686 0.061703431
0.46335018 0.062369792 0.074080882
0.5092065 0.065563725 0.085983456
0.56029412 0.070243566 0.099509804
0.61176471 0.077879902 0.11372549
0.66380974 0.083310355 0.12794118
0.71372549 0.087254902 0.14215686
0.75882353 0.093742341 0.15245098
0.80392157 0.10272672 0.16498162
0.8495098 0.10980392 0.17696078
0.89595588 0.11372549 0.19117647
0.93921569 0.11911765 0.20147059
0.97408088 0.12401961 0.21176471
0.052941176 0.069607843 0.041176471
0.060784314 0.069224877 0.041176471
0.081372549 0.069607843 0.041176471
0.10142463 0.069607843 0.039353554
0.12346814 0.065992647 0.036887255
0.15147059 0.069607843 0.038710172
0.18318015 0.069607843 0.049417892
0.21715686 0.071001838 0.057414216
0.25526961 0.074509804 0.058333333
