site/assets/luts/sha256-0de31a701ecae2fe8165c8ad12d7c4f9570223d7b8bd57eb3fdd0ebaa6388d8c.cube
# LUTr-Schema-Version: 2
# LUTr-ID: sha256-0de31a701ecae2fe8165c8ad12d7c4f9570223d7b8bd57eb3fdd0ebaa6388d8c
# LUTr-Title: faded extreme
# LUTr-Collection: Natron HaldCLUT
# LUTr-Collection-ID: natron-haldclut-presets
# LUTr-Source: https://github.com/NatronGitHub/clut
# LUTr-Retrieved: 2026-07-27
# LUTr-Source-File: submissions/natron-haldclut-presets/various/faded_extreme.png
# LUTr-Source-Format: HALD-PNG
# LUTr-Source-SHA256: 0de31a701ecae2fe8165c8ad12d7c4f9570223d7b8bd57eb3fdd0ebaa6388d8c
# LUTr-License: CC-BY-SA-4.0
# LUTr-License-URL: https://github.com/NatronGitHub/clut#license
# LUTr-License-Basis: repo-license-file
# LUTr-Transform-Class: film-emulation
# LUTr-Tags: creative, film, film-emulation, hald-clut, natron, png, vintage, cube
# LUTr-Input-Color-Space: srgb
# LUTr-Input-Gamut: rec709
# LUTr-Input-Transfer: srgb
# LUTr-Output-Color-Space: srgb
# LUTr-Output-Gamut: rec709
# LUTr-Output-Transfer: srgb
# LUTr-Color-Space-Confidence: assumed-display-referred
# LUTr-Domain-Normalized: true
# LUTr-Shaper: none
# LUTr-Original-Grid: 64x64x64
# LUTr-Conversion-Grid: 25x25x25
# LUTr-Conversion-Interpolation: trilinear
# LUTr-Conversion-Method: HALD-PNG LUT image decoded at 16-bit and sampled to 25x25x25 3D CUBE
# LUTr-Conversion-Tool: LUTr scripts/convert-all-to-cube.mjs 2.0.0
# LUTr-Conversion-Date: 2026-07-27
# LUTr-Note: Preserve this metadata and the upstream license notices when redistributing.
TITLE "faded extreme"
LUT_3D_SIZE 9
DOMAIN_MIN 0 0 0
DOMAIN_MAX 1 1 1
0.015686275 0.015686275 0.015686275
0 0 0
0.010784314 0.0078431373 0.0078431373
0.015686275 0.011764706 0.011764706
0.033333333 0.015686275 0.01372549
0.046078431 0.0078431373 0.0078431373
0.096078431 0.033333333 0.041176471
0.11127451 0.039705882 0.048039216
0.11372549 0.031372549 0.047058824
0.026960784 0.026960784 0.02745098
0.0073529412 0.0069240196 0.0039215686
0.029044118 0.018627451 0.014705882
0.055759804 0.034007353 0.03057598
0.071568627 0.032598039 0.029166667
0.14283088 0.087745098 0.085784314
0.1995098 0.13284314 0.13333333
0.26464461 0.18872549 0.18921569
0.33333333 0.24362745 0.24362745
0.094117647 0.10196078 0.078431373
0.15269608 0.15306373 0.13051471
0.18897059 0.17818627 0.15490196
0.25147059 0.22487745 0.19840686
0.31176471 0.26960784 0.25
0.36090686 0.30784314 0.28284314
0.41519608 0.34558824 0.32598039
0.47009804 0.39252451 0.3689951
0.53529412 0.44411765 0.41862745
0.31666667 0.32696078 0.27892157
0.36176471 0.36047794 0.31096814
0.42242647 0.41066176 0.36078431
0.47689951 0.4533701 0.40085784
0.51372549 0.47426471 0.4247549
0.60496324 0.55343137 0.5
0.62892157 0.56519608 0.51237745
0.6903799 0.61568627 0.5622549
0.74264706 0.66029412 0.60539216
0.52352941 0.53529412 0.4627451
0.57009804 0.57426471 0.49779412
0.6377451 0.63039216 0.55343137
0.71397059 0.69044118 0.61397059
0.73333333 0.69803922 0.62156863
0.80563725 0.76176471 0.68529412
0.8754902 0.81176471 0.73137255
0.91470588 0.84583333 0.76740196
0.94705882 0.87254902 0.79215686
0.75147059 0.75931373 0.66372549
0.8064951 0.81482843 0.71139706
0.85110294 0.84607843 0.74803922
0.89852941 0.88431373 0.78535539
0.95220588 0.92696078 0.82965686
0.99332108 0.97034314 0.87757353
0.99571078 0.99313725 0.92107843
0.99607843 0.99607843 0.95
0.99215686 0.99362745 0.97843137
0.9754902 0.98137255 0.88333333
0.98811275 0.98823529 0.9182598
0.9875 0.98210784 0.94117647
0.99889706 0.99497549 0.99632353
0.99215686 0.98823529 0.98431373
0.98223039 0.98431373 0.98039216
0.98112745 0.9872549 0.98333333
0.99264706 0.99264706 0.99264706
0.99215686 0.99509804 0.99509804
0.99607843 0.99607843 0.98088235
0.98382353 0.98382353 0.97996324
0.99203431 0.99117647 0.99117647
0.98400735 0.98400735 0.98400735
0.99191176 0.99191176 0.99019608
0.97647059 0.97892157 0.97518382
0.97696078 0.98051471 0.97659314
0.98817402 0.99117647 0.98817402
0.98431373 0.98431373 0.98088235
0.99215686 0.99215686 0.99607843
0.9995098 0.9995098 1
0.98529412 0.98431373 0.98137255
0.98431373 0.98431373 0.98823529
0.98431373 0.98039216 0.98431373
0.98431373 0.98039216 0.98431373
0.98529412 0.98431373 0.98529412
0.97990196 0.97990196 0.98382353
0.99607843 0.99607843 0.99607843
0.0073529412 0.0073529412 0.0073529412
0.0078431373 0.0078431373 0.0078431373
0.0042892157 0.0039215686 0.0039215686
0.0083333333 0.0039215686 0.0044117647
0.024264706 0.012009804 0.012254902
0.037928922 0.0065563725 0.010477941
0.086764706 0.027083333 0.032230392
0.11856618 0.043995098 0.05189951
0.14460784 0.054411765 0.07745098
0.015257353 0.015747549 0.012316176
0.0078967525 0.0078967525 0.0074678309
0.041605392 0.034620098 0.027374387
0.092279412 0.065280331 0.061420037
0.13327206 0.094270833 0.090839461
0.1903799 0.13759957 0.1341682
0.25637255 0.19264706 0.18932292
0.32130821 0.24362745 0.24019608
0.35202206 0.26574755 0.2627451
0.16580882 0.17352941 0.14718137
0.20245098 0.20251225 0.17604167
0.26890319 0.25707721 0.23088235
0.32322304 0.29724265 0.26715686
0.3588848 0.32334559 0.29313725
0.42331495 0.37068015 0.3441636
0.47144608 0.40747549 0.37757353
0.52352941 0.44923407 0.41884191
0.58529412 0.50208333 0.46911765
0.37322304 0.38872549 0.33529412
0.41241575 0.4127068 0.36301317
0.48939951 0.47708333 0.42054228
0.52391238 0.5004519 0.44077053
0.56920956 0.53685662 0.48048407
0.63272825 0.58431373 0.5276348
0.68310355 0.62369792 0.56844363
0.73560049 0.6646829 0.60588235
0.81390931 0.7276348 0.67401961
0.59632353 0.60808824 0.53161765
0.62784926 0.63112745 0.55143995
0.68823529 0.68265931 0.60091912
0.74690564 0.72533701 0.64715074
0.79289216 0.76066176 0.68198529
0.84451593 0.80315564 0.72401961
0.88939951 0.83829657 0.75833333
0.96936275 0.90511642 0.82521446
0.97083333 0.91715686 0.85612745
0.80098039 0.81507353 0.70606618
0.84941023 0.85837929 0.75513174
0.92035846 0.91256127 0.80716912
0.95257353 0.9397595 0.84055607
0.98596814 0.97166054 0.89607843
0.99313725 0.97658548 0.92751225
0.99607843 0.99385723 0.96692708
0.99056373 0.98970588 0.98494945
0.99607843 0.99607843 0.99234069
0.97830882 0.98921569 0.91470588
0.99166667 0.99166667 0.94068627
0.99313725 0.99313725 0.97833946
0.99607843 0.99497549 0.992019
0.99142157 0.98995098 0.98602941
0.97624081 0.97683824 0.98016238
0.98566176 0.98863358 0.9854473
0.98598346 0.98598346 0.98207721
0.99607843 0.99607843 0.99607843
0.99607843 0.99607843 0.99215686
0.99601716 0.99215686 0.99166667
0.99511336 0.99215686 0.99220282
0.99139859 0.99139859 0.98948376
0.98434436 0.98431373 0.98455882
0.99215686 0.99328278 0.99542739
0.98763787 0.9877451 0.98644301
0.99509804 0.99509804 0.99209559
0.99166667 0.99166667 0.99209559
0.99607843 0.99607843 0.99607843
0.99607843 0.99607843 0.99607843
0.99620098 0.99607843 0.99620098
0.98823529 0.98823529 0.98823529
0.97647059 0.97843137 0.97867647
0.98302696 0.98069853 0.98302696
0.97683824 0.97647059 0.97647059
0.97996324 0.97996324 0.98039216
0.99264706 0.99264706 0.99264706
0.011764706 0.011764706 0.011764706
0.0082107843 0.0069852941 0.0069852941
0.0078431373 0.0039215686 0.0039215686
0.036642157 0.021078431 0.019607843
0.040686275 0.011764706 0.013235294
0.072426471 0.025367647 0.034313725
0.11862745 0.052696078 0.064460784
0.16948529 0.090686275 0.10294118
0.17352941 0.087254902 0.10294118
0.037745098 0.041666667 0.033823529
0.051654412 0.047886029 0.041237745
0.088817402 0.077665441 0.06997549
0.14181985 0.11871936 0.11176471
0.22156863 0.18278186 0.17806373
0.27058824 0.2212163 0.21220895
0.31884191 0.25802696 0.25067402
0.36764706 0.29221814 0.28409926
0.4375 0.34865196 0.34093137
0.19240196 0.20392157 0.17279412
0.2442402 0.2504902 0.21712623
0.32689951 0.31482843 0.28180147
0.3747549 0.34715074 0.31464461
0.4127451 0.37806373 0.34460784
0.46675858 0.41565564 0.38501838
0.53216912 0.46936275 0.4375
0.60073529 0.52843137 0.48992034
0.62892157 0.54264706 0.50833333
0.42352941 0.43921569 0.37855392
0.46770833 0.4716299 0.41245404
0.54231005 0.53373162 0.47699142
0.60778186 0.58624387 0.52428002
0.63578431 0.60104167 0.54160539
0.68973652 0.64341299 0.58252145
0.75082721 0.69117647 0.63272059
0.79607843 0.72544424 0.66456801
0.87205882 0.78970588 0.73088235
0.63333333 0.64607843 0.56176471
0.69436275 0.70006127 0.61439951
0.74669118 0.73995098 0.65759804
0.7973652 0.77745098 0.69289216
0.85686275 0.82720588 0.74485294
0.91170343 0.87457108 0.79056373
0.96642157 0.92071078 0.83762255
0.98566176 0.94515931 0.87101716
0.98921569 0.95980392 0.91960784
0.84705882 0.86605392 0.75723039
0.91714154 0.92904412 0.82169118
0.95735294 0.95971201 0.86706495
0.990625 0.98841912 0.90251225
0.99515931 0.99430147 0.93290441
0.99497549 0.99146752 0.96813725
0.98391544 0.97965686 0.97083333
0.98739277 0.98693321 0.98086703
0.99313725 0.99313725 0.9807598
0.99509804 0.99828431 0.97769608
0.99280025 0.99151348 0.97843137
0.99142157 0.99136029 0.98333333
0.99004289 0.98832721 0.97971814
0.98443627 0.98639706 0.98676471
0.9754902 0.9799326 0.9799326
0.98511029 0.98823529 0.98823529
0.99215686 0.99215686 0.98921569
0.99607843 0.99607843 0.99215686
0.97696078 0.97561275 0.98431373
0.97942708 0.97941176 0.97653186
0.98014706 0.97941176 0.97748162
0.99247855 0.99247855 0.99247855
0.98039216 0.98210784 0.98474265
0.97941176 0.97941176 0.97948836
0.98039216 0.98422181 0.98517157
0.98786765 0.98786765 0.98517157
0.98823529 0.98823529 0.98823529
0.99607843 0.99607843 0.99607843
0.98860294 0.98860294 0.98737745
0.99509804 0.99509804 0.99828431
0.99215686 0.99215686 0.99607843
0.98382353 0.98431373 0.98627451
0.98370098 0.98370098 0.98431373
0.98333333 0.98431373 0.98431373
0.98296569 0.98296569 0.98002451
0.9872549 0.9872549 0.99117647
0.0024509804 0.0024509804 0.006372549
0.022242647 0.020098039 0.020098039
0.0020833333 0.00098039216 0.0006127451
0.029534314 0.018688725 0.018688725
0.071813725 0.030637255 0.041176471
0.11378676 0.06372549 0.074571078
0.17769608 0.11397059 0.12426471
0.20992647 0.13492647 0.14276961
0.28921569 0.20539216 0.21323529
0.051286765 0.055208333 0.044914216
0.093811275 0.093811275 0.082536765
0.15589767 0.1439951 0.13267463
0.21882659 0.19430147 0.1835095
0.28244485 0.24779412 0.23563113
0.32774969 0.28228401 0.2710095
0.38042279 0.3176011 0.30605086
0.43974418 0.36534161 0.35096507
0.4723652 0.38823529 0.37696078
0.25098039 0.2627451 0.22745098
0.31815257 0.32182904 0.28583027
0.37564338 0.36449142 0.32873775
0.42814032 0.40461091 0.36715686
0.49123775 0.45594363 0.41574755
0.52501532 0.4791973 0.44096201
0.57432598 0.51433824 0.47794118
0.65303309 0.582981 0.54420956
0.68897059 0.60845588 0.56629902
0.47046569 0.48223039 0.421875
0.52634804 0.53449755 0.46881893
0.58402267 0.57679228 0.51095282
0.64051777 0.62240349 0.5562883
0.69362745 0.6629902 0.59779412
0.75259651 0.70833333 0.64279259
0.8095435 0.75010723 0.6845435
0.84411765 0.77738205 0.71158854
0.91672794 0.84074755 0.77647059
0.70514706 0.71887255 0.63259804
0.74240196 0.75039828 0.66102941
0.80128676 0.7942402 0.70692402
0.86764706 0.85242034 0.76418505
0.91801471 0.89276961 0.80159314
0.96234681 0.9270527 0.83900123
0.97647059 0.95386029 0.89197304
0.98710172 0.97426471 0.91902574
0.99411765 0.99215686 0.95686275
0.909375 0.92598039 0.82156863
0.97529105 0.97804075 0.88198529
0.9754902 0.97231924 0.90185355
0.99550398 0.99158241 0.94086244
0.99681373 0.99561887 0.98658088
0.99181219 0.99103094 0.98578431
0.9942402 0.9942402 0.99031863
0.98393842 0.98382353 0.98253676
0.98823529 0.98823529 0.98339461
0.99215686 0.99460784 0.97009804
0.99183517 0.9908701 0.98690257
0.99344363 0.99191176 0.99090074
0.9939951 0.9939951 0.99215686
0.97990196 0.98235294 0.98216912
0.98039216 0.98131127 0.97872243
0.9872549 0.98786765 0.98422181
0.97624081 0.97624081 0.97624081
0.99215686 0.99215686 0.99215686
0.9908701 0.99068627 0.98333333
0.99226409 0.99199602 0.99025735
0.98334865 0.98334865 0.98284314
0.98291207 0.98291207 0.98339461
0.97931985 0.98039216 0.97775735
0.99185049 0.99185049 0.99185049
0.98039216 0.98039216 0.98431373
0.97778033 0.97778033 0.980553
0.98480392 0.98480392 0.98480392
0.99607843 0.99607843 0.99215686
0.99393382 0.99393382 0.99215686
0.98039216 0.98039216 0.97708333
0.98431373 0.98431373 0.98131127
0.98039216 0.98039216 0.97965686
0.98431373 0.9848652 0.98278186
0.99068627 0.99068627 0.99313725
0.9903799 0.9903799 0.99166667
0.99607843 0.99607843 0.99607843
0.01372549 0.025490196 0.017647059
0.015196078 0.011764706 0.015441176
0.044117647 0.032352941 0.03627451
0.042156863 0.020588235 0.026470588
0.10490196 0.061764706 0.07254902
0.15563725 0.10784314 0.11372549
0.21519608 0.15588235 0.15980392
0.27279412 0.19656863 0.20416667
0.3254902 0.24117647 0.24705882
0.096568627 0.10661765 0.090931373
0.1450674 0.14534314 0.13336397
0.22469363 0.2125 0.19558824
0.25793505 0.2372549 0.22175245
0.32279412 0.28651961 0.27291667
0.38731618 0.33863358 0.3234375
0.44362745 0.38480392 0.36764706
0.49387255 0.42107843 0.40670956
0.54509804 0.4627451 0.44705882
0.31617647 0.33088235 0.29068627
0.37071078 0.37634804 0.33419118
0.42340686 0.41678922 0.37340686
0.47898284 0.45471814 0.41550245
0.53284314 0.49705882 0.45808824
0.6004902 0.55692402 0.51446078
0.65882353 0.60196078 0.55625
0.71256127 0.64436275 0.60355392
0.75588235 0.67745098 0.63137255
0.56470588 0.58039216 0.51642157
0.59347426 0.60147059 0.53759191
0.63970588 0.63284314 0.56519608
0.7174326 0.69828431 0.62870711
0.77144608 0.74227941 0.67218137
0.7979473 0.76222426 0.69010417
0.85245098 0.8004902 0.72794118
0.91234681 0.84757966 0.78180147
0.96764706 0.89754902 0.82916667
0.74313725 0.7627451 0.66862745
0.81262255 0.82267157 0.72965686
0.85857843 0.85882353 0.76691176
0.90919118 0.89877451 0.80404412
0.95784314 0.94558824 0.85686275
0.98811275 0.96727941 0.90269608
0.99166667 0.98676471 0.93823529
0.98688725 0.98664216 0.96421569
0.99803922 0.99803922 0.99019608
0.9752451 0.99019608 0.89607843
0.98740809 0.98878676 0.93691789
0.99362745 0.99031863 0.9661152
0.99877451 0.99653799 0.9916973
0.99460784 0.99460784 0.99215686
0.99515931 0.99515931 0.99384191
0.99626225 0.99626225 0.99607843
0.98765319 0.98765319 0.9870098
0.99485294 0.99485294 0.99485294
0.99607843 0.99607843 0.99607843
0.99215686 0.99215686 0.99215686
0.98541667 0.98382353 0.98541667
0.99571078 0.99571078 0.99430147
0.9872549 0.9872549 0.9879902
0.98186275 0.98186275 0.98039216
0.99607843 0.99607843 0.99607843
0.99626225 0.99626225 0.99626225
0.99754902 0.99754902 0.99754902
0.99607843 0.99607843 0.99607843
0.99457721 0.99436275 0.99264706
0.98235294 0.98235294 0.98235294
0.98005515 0.98005515 0.98030025
0.98909314 0.98909314 0.98909314
0.99215686 0.99215686 0.99215686
0.98480392 0.98498775 0.98498775
0.9916973 0.9916973 0.99172794
0.98431373 0.98431373 0.98431373
0.99215686 0.99215686 0.99215686
0.99607843 0.99607843 0.99607843
0.99705882 0.99705882 0.98921569
0.97377451 0.97377451 0.97647059
0.98529412 0.98529412 0.98529412
0.99803922 0.99803922 0.99803922
0.98186275 0.98186275 0.98382353
0.99215686 0.99215686 0.99215686
0.99215686 0.99215686 0.99215686
0.0029411765 0.0044117647 0.0083333333
0.014705882 0.017156863 0.018933824
0.05 0.040318627 0.045588235
0.11372549 0.087745098 0.091666667
0.16764706 0.13161765 0.13235294
0.2254902 0.1778799 0.18033088
0.26875 0.20821078 0.20821078
0.3310049 0.25667892 0.26060049
0.41078431 0.32843137 0.3245098
0.17647059 0.18694853 0.16783088
0.21813725 0.22224265 0.20032935
0.26090686 0.24946385 0.2303462
0.31960018 0.29968597 0.27775735
0.38520221 0.34886642 0.33250613
0.42843137 0.38331036 0.3641008
0.48933824 0.42950368 0.40788909
0.53817402 0.46586244 0.44450827
0.60735294 0.52873775 0.50410539
0.38823529 0.40294118 0.35502451
0.45062806 0.45592831 0.4088848
0.4770527 0.47018995 0.4223652
0.54486826 0.52308517 0.47732843
0.60183824 0.57071078 0.52383578
0.65255821 0.60836397 0.56214767
0.6877451 0.63612132 0.59077819
0.75886949 0.68872549 0.64252451
0.80723039 0.72941176 0.68333333
0.59117647 0.60686275 0.5377451
0.65935202 0.66830576 0.59427083
0.69250919 0.68858762 0.61329657
0.76315104 0.74501379 0.67254902
0.8033701 0.77564338 0.7033701
0.84924939 0.80798866 0.7355239
0.92095588 0.87176777 0.79739583
0.96508885 0.9138557 0.83971354
0.98094363 0.93247549 0.87702206
0.80882353 0.82573529 0.73161765
0.87809436 0.89004289 0.79558824
0.93272059 0.93339461 0.83498775
0.97300858 0.97058824 0.87840074
0.9872549 0.98186275 0.91397059
0.99139093 0.98400735 0.95637255
0.99626225 0.99289216 0.96985294
0.99387255 0.99322917 0.99077819
0.99607843 0.99607843 0.98897059
0.98333333 0.99215686 0.94509804
0.99925705 0.9960095 0.98517157
0.99607843 0.99538909 0.99321385
0.98261336 0.98041513 0.97647059
0.99607843 0.99607843 0.9916973
0.98339461 0.98339461 0.98188572
0.99137561 0.99068627 0.98823529
0.98835018 0.98835018 0.98835018
1 1 1
0.98394608 0.98394608 0.98394608
0.98039216 0.97784926 0.98039216
0.98039216 0.98039216 0.98039216
0.98976716 0.98976716 0.98823529
0.98731618 0.98731618 0.98731618
0.98039216 0.98039216 0.98039216
0.99537377 0.99537377 0.9939951
0.97892157 0.97892157 0.97892157
0.97977941 0.97977941 0.97977941
0.98872549 0.98823529 0.9908701
0.99215686 0.99103094 0.98825827
0.98566176 0.98566176 0.98431373
0.99068627 0.99068627 0.99068627
0.99607843 0.99607843 0.99607843
0.984375 0.984375 0.984375
0.97775735 0.97775735 0.97775735
0.98275888 0.98275888 0.98275888
0.99393382 0.99393382 0.99393382
0.98431373 0.98431373 0.98823529
0.9846201 0.98431373 0.98431373
0.98039216 0.98039216 0.97745098
0.97647059 0.97647059 0.97647059
0.98235294 0.98235294 0.98235294
0.98768382 0.98768382 0.98768382
0.97647059 0.97647059 0.97647059
0.98088235 0.98088235 0.98088235
0.99607843 0.99607843 0.99607843
0.011764706 0.016666667 0.016666667
0.059803922 0.060171569 0.062867647
0.11495098 0.11029412 0.10612745
0.16666667 0.14803922 0.14522059
0.2245098 0.18676471 0.18823529
0.28223039 0.23762255 0.23480392
0.33970588 0.27696078 0.27671569
0.36997549 0.30245098 0.29852941
0.43529412 0.35686275 0.35294118
0.22254902 0.23419118 0.21078431
0.27331495 0.28071385 0.25375306
0.32441789 0.31764706 0.29451593
0.38613664 0.36371017 0.33933824
0.44926471 0.41605392 0.39136029
0.48667279 0.44185049 0.41502757
0.55340074 0.49647672 0.46985294
0.60621936 0.538894 0.51178002
0.67205882 0.59019608 0.56752451
0.43848039 0.45098039 0.40416667
0.49856005 0.5057598 0.45382966
0.54093137 0.53455882 0.48719363
0.60588235 0.58863358 0.53535539
0.64007353 0.6122549 0.55906863
0.71479779 0.67414216 0.6229473
0.75588235 0.70098039 0.64705882
0.81265319 0.74620098 0.69255515
0.88651961 0.80882353 0.76176471
0.68272059 0.7004902 0.62205882
0.7019761 0.7129136 0.63491115
0.77334559 0.76979167 0.69191176
0.80404412 0.78803615 0.71139706
0.87953431 0.85269608 0.77683824
0.92333027 0.89085478 0.81444547
0.96651348 0.92735907 0.86360294
0.99148284 0.9665288 0.90471814
0.99142157 0.98088235 0.93627451
0.88970588 0.90833333 0.8122549
0.91660539 0.92518382 0.83272059
0.94938725 0.9497549 0.86090686
0.99828431 0.99197304 0.92579657
0.98872549 0.98578431 0.95318627
0.98731618 0.98339461 0.96801471
0.99080882 0.9872549 0.98419118
0.99258578 0.99172794 0.99240196
0.99607843 0.99803922 0.99607843
0.99705882 0.99705882 0.99522059
0.99068627 0.9939951 0.98386949
0.98676471 0.98676471 0.97830882
0.98284314 0.98284314 0.97777267
0.9877451 0.9877451 0.98290441
0.98921569 0.98921569 0.98898591
0.98777574 0.98777574 0.98762255
0.99264706 0.99264706 0.99264706
0.98333333 0.98333333 0.98333333
0.99117647 0.99142157 0.99117647
0.97965686 0.97941176 0.97941176
0.97665441 0.97665441 0.97665441
0.98348652 0.98348652 0.98321078
0.99681373 0.99681373 0.99681373
0.98529412 0.98529412 0.98529412
0.99197304 0.99197304 0.99197304
0.98431373 0.98431373 0.98431373
0.98431373 0.98431373 0.98431373
0.98039216 0.98039216 0.98039216
0.9926011 0.99215686 0.99226409
0.98823529 0.98823529 0.98823529
0.99166667 0.99166667 0.99166667
0.98823529 0.98823529 0.98823529
0.9962163 0.9962163 0.9962163
0.99215686 0.99215686 0.99215686
0.99178922 0.99178922 0.99178922
0.9807598 0.9807598 0.9807598
0.99215686 0.99215686 0.99215686
0.98566176 0.98566176 0.98566176
0.98112745 0.98112745 0.98039216
0.97463235 0.97463235 0.97463235
0.98039216 0.98039216 0.98039216
0.98431373 0.98431373 0.98431373
0.98602941 0.98602941 0.98602941
0.99215686 0.99215686 0.99215686
0.99215686 0.99215686 0.99215686
0.042647059 0.058333333 0.057843137
0.1286152 0.13296569 0.12818627
0.17193627 0.16102941 0.15796569
0.22990196 0.21372549 0.20588235
0.2877451 0.25245098 0.24632353
0.33045343 0.28339461 0.27947304
0.38602941 0.33112745 0.32328431
0.43259804 0.36501225 0.35759804
0.49803922 0.41568627 0.40784314
0.284375 0.30398284 0.27696078
0.3251685 0.3303845 0.3028799
0.39803922 0.39117647 0.36372549
0.45563725 0.43688725 0.40755974
0.48492647 0.45398284 0.42282475
0.54867494 0.50471814 0.47381281
0.59296875 0.5370864 0.50706189
0.66519608 0.59852941 0.56796109
0.71568627 0.64160539 0.60680147
0.49497549 0.51470588 0.46066176
0.53903186 0.54914216 0.49188113
0.60784314 0.60278799 0.54886642
0.66047794 0.64390319 0.586106
0.72892157 0.70128676 0.64129902
0.76570159 0.7245864 0.67015931
0.82751225 0.77267157 0.7182598
0.88553922 0.81764706 0.76338848
0.94178922 0.86629902 0.80894608
0.70147059 0.72892157 0.64411765
0.76079197 0.77492341 0.69167433
0.82905944 0.82991728 0.74903493
0.89129136 0.88226869 0.79991575
0.9354473 0.91348039 0.83480392
0.97755821 0.95648744 0.88259038
0.99594056 0.98314951 0.91897978
0.99242494 0.98035386 0.94705882
0.98921569 0.9877451 0.96421569
0.93921569 0.95857843 0.85661765
0.97159926 0.98118873 0.90153186
0.99632353 0.99632353 0.93645833
0.99298407 0.99108456 0.9495098
0.99203431 0.98823529 0.97218137
0.99387255 0.99215686 0.98808211
0.99620098 0.99491422 0.99289216
0.97990196 0.97990196 0.97840074
0.98431373 0.98431373 0.98235294
0.99577206 0.99577206 0.99215686
0.98235294 0.98235294 0.97661612
0.98762255 0.98762255 0.98031556
0.98976716 0.98976716 0.98768382
0.98759191 0.98759191 0.98480392
0.98431373 0.98431373 0.98431373
0.98380821 0.98284314 0.98284314
0.99346661 0.99344363 0.99344363
0.98627451 0.98627451 0.98627451
0.99607843 0.99607843 0.99215686
0.98131127 0.98131127 0.98088235
0.98431373 0.98431373 0.98137255
0.98958333 0.98958333 0.98944547
0.98063725 0.98063725 0.98063725
0.98835784 0.98835784 0.98835784
0.98823529 0.98823529 0.98823529
0.99215686 0.99215686 0.99215686
0.9872549 0.9872549 0.9872549
0.98382353 0.98731618 0.97990196
0.98071385 0.98071385 0.98071385
0.99607843 0.99607843 0.99301471
0.9877451 0.9877451 0.9877451
0.98235294 0.98235294 0.98235294
0.98796722 0.98796722 0.98796722
0.99145221 0.99145221 0.99145221
0.99558824 0.99558824 0.99558824
0.97696078 0.97696078 0.97696078
0.97696078 0.98039216 0.97303922
0.98039216 0.98039216 0.98039216
0.98823529 0.98823529 0.98823529
0.98872549 0.98872549 0.98872549
0.98039216 0.98039216 0.98039216
0.98431373 0.98431373 0.98431373
0.98786765 0.98786765 0.98786765
0.99607843 0.99607843 0.99607843
0.99607843 0.99607843 0.99607843
0.11764706 0.13333333 0.12941176
0.16715686 0.16764706 0.16323529
0.22745098 0.22352941 0.20882353
0.27401961 0.25686275 0.24656863
0.33333333 0.30196078 0.29411765
0.40147059 0.36617647 0.35441176
0.44509804 0.39215686 0.38039216
0.49215686 0.425 0.41323529
0.57647059 0.49803922 0.49019608
0.32598039 0.34558824 0.31421569
0.41029412 0.4151348 0.38768382
0.43370098 0.43063725 0.39840686
0.51764706 0.4995098 0.46470588
0.54656863 0.51887255 0.48578431
0.60802696 0.56881127 0.53615196
0.67022059 0.61519608 0.58039216
0.71709559 0.65042892 0.61905637
0.7877451 0.7127451 0.67794118
0.53039216 0.55392157 0.49607843
0.61666667 0.625 0.56715686
0.65490196 0.65122549 0.59313725
0.71544118 0.70306373 0.64129902
0.77156863 0.74411765 0.68382353
0.81372549 0.77806373 0.71727941
0.88455882 0.83259804 0.77083333
0.92438725 0.85686275 0.79901961
0.98333333 0.91176471 0.85
0.78039216 0.80147059 0.71911765
0.83106618 0.84460784 0.75851716
0.8557598 0.85563725 0.77083333
0.94754902 0.93878676 0.85245098
0.96911765 0.94754902 0.86446078
0.99362745 0.98192402 0.93382353
0.99117647 0.99485294 0.95294118
0.99215686 0.99215686 0.96292892
0.97794118 0.97647059 0.96568627
0.97843137 0.99411765 0.9254902
0.98995098 0.99558824 0.95514706
0.99362745 0.99411765 0.98039216
0.99607843 0.99607843 0.99460784
0.99215686 0.99019608 0.98627451
0.98823529 0.98627451 0.98431373
0.99068627 0.99068627 0.98921569
0.99215686 0.99215686 0.99607843
0.99607843 0.99607843 0.99411765
0.99215686 0.99215686 0.98823529
0.98186275 0.98186275 0.98039216
0.99105392 0.99105392 0.9877451
0.99160539 0.99160539 0.99160539
0.98431373 0.98431373 0.98431373
0.98731618 0.98731618 0.98731618
0.98431373 0.98431373 0.98431373
0.99607843 0.99607843 0.99607843
0.99607843 0.99607843 0.99607843
0.99215686 0.99215686 0.99117647
0.99607843 0.99607843 0.99607843
0.98210784 0.98210784 0.98137255
0.99497549 0.99497549 0.99497549
0.99607843 0.99607843 0.99607843
0.99215686 0.99215686 0.99215686
0.98137255 0.98137255 0.98137255
0.99607843 0.99607843 0.99607843
0.98431373 0.98431373 0.98431373
0.98431373 0.98431373 0.98431373
0.98823529 0.98823529 0.98823529
0.98431373 0.98431373 0.98431373
0.9841299 0.9841299 0.98382353
0.98995098 0.98995098 0.98995098
0.99197304 0.99197304 0.99197304
0.98431373 0.98431373 0.98431373
0.98339461 0.98339461 0.98339461
0.97647059 0.97647059 0.97647059
1 1 1
0.98039216 0.98039216 0.98039216
0.98137255 0.98137255 0.98137255
0.98284314 0.98284314 0.98284314
0.98039216 0.98039216 0.98039216
0.98431373 0.98431373 0.98431373
0.98921569 0.98921569 0.98921569
0.98039216 0.98039216 0.98039216
0.99607843 0.99607843 0.99607843
