site/assets/luts/sha256-bf39a80166e06d587845717a56866a573da0ec4cf25959e9145572f27cf283ff.cube
# LUTr-Schema-Version: 2
# LUTr-ID: sha256-bf39a80166e06d587845717a56866a573da0ec4cf25959e9145572f27cf283ff
# LUTr-Title: polaroid 690 cold
# LUTr-Collection: Natron HaldCLUT
# LUTr-Collection-ID: natron-haldclut-presets
# LUTr-Source: https://github.com/NatronGitHub/clut
# LUTr-Retrieved: 2026-07-27
# LUTr-Source-File: submissions/natron-haldclut-presets/instant_pro/polaroid_690_cold.png
# LUTr-Source-Format: HALD-PNG
# LUTr-Source-SHA256: bf39a80166e06d587845717a56866a573da0ec4cf25959e9145572f27cf283ff
# LUTr-License: CC-BY-SA-4.0
# LUTr-License-URL: https://github.com/NatronGitHub/clut#license
# LUTr-License-Basis: repo-license-file
# LUTr-Transform-Class: film-emulation
# LUTr-Tags: creative, film, film-emulation, hald-clut, natron, png, cool, cube
# LUTr-Input-Color-Space: srgb
# LUTr-Input-Gamut: rec709
# LUTr-Input-Transfer: srgb
# LUTr-Output-Color-Space: srgb
# LUTr-Output-Gamut: rec709
# LUTr-Output-Transfer: srgb
# LUTr-Color-Space-Confidence: assumed-display-referred
# LUTr-Domain-Normalized: true
# LUTr-Shaper: none
# LUTr-Original-Grid: 64x64x64
# LUTr-Conversion-Grid: 25x25x25
# LUTr-Conversion-Interpolation: trilinear
# LUTr-Conversion-Method: HALD-PNG LUT image decoded at 16-bit and sampled to 25x25x25 3D CUBE
# LUTr-Conversion-Tool: LUTr scripts/convert-all-to-cube.mjs 2.0.0
# LUTr-Conversion-Date: 2026-07-27
# LUTr-Note: Preserve this metadata and the upstream license notices when redistributing.
TITLE "polaroid 690 cold"
LUT_3D_SIZE 25
DOMAIN_MIN 0 0 0
DOMAIN_MAX 1 1 1
0 0.13333333 0.12156863
0 0.13333333 0.12156863
0.0029411765 0.12941176 0.11862745
0.033823529 0.13333333 0.1254902
0.066666667 0.13529412 0.13137255
0.095588235 0.1372549 0.13333333
0.13039216 0.13333333 0.13333333
0.16127451 0.13186275 0.12941176
0.19607843 0.12941176 0.1254902
0.24215686 0.11911765 0.12794118
0.29607843 0.10784314 0.13431373
0.3504902 0.091176471 0.14068627
0.40784314 0.070588235 0.14117647
0.46960784 0.045588235 0.13676471
0.52745098 0.014705882 0.13039216
0.58382353 0 0.12941176
0.63921569 0 0.12941176
0.69313725 0 0.13333333
0.74607843 0.0039215686 0.13333333
0.79754902 0.00049019608 0.13333333
0.84313725 0 0.12745098
0.89215686 0 0.12107843
0.94019608 0 0.11078431
0.96911765 0 0.10980392
1 0 0.10196078
0 0.14362745 0.12794118
0 0.14270833 0.12794118
0.0058823529 0.14362745 0.12830882
0.031372549 0.14362745 0.13186275
0.064705882 0.14362745 0.13651961
0.095588235 0.14577206 0.1372549
0.12647059 0.14362745 0.1372549
0.16219363 0.14307598 0.13333333
0.20245098 0.13970588 0.12941176
0.25 0.13241422 0.12941176
0.30637255 0.11875 0.13431373
0.36078431 0.1036152 0.14068627
0.41740196 0.078921569 0.13995098
0.47579657 0.048039216 0.1346201
0.53198529 0.015318627 0.12941176
0.58866422 0 0.12696078
0.64558824 0.0024509804 0.12941176
0.70251225 0.0039215686 0.13333333
0.75919118 0.0033088235 0.13333333
0.80784314 0 0.12990196
0.8502451 0 0.1254902
0.8963848 0 0.11734069
0.93933824 0 0.11262255
0.96819853 0.00091911765 0.11372549
0.99215686 0 0.10980392
0.0039215686 0.15490196 0.13431373
0.0039215686 0.15490196 0.13431373
0.0085784314 0.15563725 0.1372549
0.026348039 0.15784314 0.1372549
0.056372549 0.15784314 0.1372549
0.092156863 0.15882353 0.14117647
0.13112745 0.15784314 0.13823529
0.16764706 0.15453431 0.13615196
0.21372549 0.15098039 0.13333333
0.26421569 0.14460784 0.13762255
0.31666667 0.13431373 0.13431373
0.3745098 0.11960784 0.1372549
0.43480392 0.09754902 0.13970588
0.49117647 0.07120098 0.13688725
0.5497549 0.044852941 0.13039216
0.60477941 0.018137255 0.12610294
0.66078431 0.0049019608 0.12843137
0.71801471 0.0039215686 0.12941176
0.77352941 0 0.12941176
0.8182598 0.0039215686 0.12843137
0.85980392 0 0.12107843
0.90098039 0 0.11372549
0.93823529 0.0029411765 0.11446078
0.96764706 0.0039215686 0.11764706
0.9872549 0.0039215686 0.11470588
0.0039215686 0.16813725 0.14068627
0.0039215686 0.16813725 0.13854167
0.0052696078 0.16813725 0.1372549
0.019056373 0.16813725 0.1372549
0.04754902 0.17181373 0.1372549
0.092647059 0.17205882 0.13768382
0.13419118 0.17205882 0.1372549
0.17794118 0.16813725 0.1372549
0.22696078 0.16421569 0.1372549
0.27579657 0.15998775 0.13333333
0.32953431 0.15404412 0.13333333
0.38872549 0.13682598 0.13682598
0.45392157 0.12034314 0.14117647
0.51133578 0.099509804 0.14025735
0.56960784 0.082720588 0.13333333
0.62205882 0.054901961 0.12922794
0.67745098 0.014705882 0.1254902
0.73314951 0.0014705882 0.1254902
0.78382353 0.00098039216 0.1254902
0.82892157 0.0039215686 0.1216299
0.87009804 0 0.11593137
0.90735294 0 0.11372549
0.93823529 0.0039215686 0.11752451
0.96764706 0.0039215686 0.11911765
0.98088235 0.0039215686 0.12107843
0.0039215686 0.18431373 0.14117647
0.0039215686 0.18235294 0.1379902
0.00049019608 0.18235294 0.13676471
0.0090686275 0.18235294 0.13529412
0.045098039 0.18431373 0.13627451
0.092647059 0.18823529 0.13529412
0.1372549 0.18676471 0.13333333
0.18578431 0.18431373 0.13333333
0.2372549 0.18039216 0.13333333
0.28872549 0.17843137 0.13333333
0.34362745 0.17401961 0.12990196
0.40857843 0.16519608 0.13333333
0.4745098 0.15490196 0.13823529
0.53431373 0.13848039 0.1370098
0.59215686 0.12352941 0.13186275
0.64460784 0.094117647 0.12867647
0.69607843 0.049019608 0.1254902
0.74681373 0.0044117647 0.12156863
0.79509804 0.0029411765 0.11911765
0.84093137 0.0039215686 0.11568627
0.88039216 0 0.11078431
0.9129902 0.0022058824 0.11176471
0.94215686 0.0088235294 0.11176471
0.97034314 0.0058823529 0.11176471
0.98627451 0.0058823529 0.11176471
0.0039215686 0.20539216 0.1372549
0.0039215686 0.20147059 0.1372549
0 0.20012255 0.13333333
0 0.19454657 0.12990196
0.045098039 0.19926471 0.13333333
0.092647059 0.20098039 0.12941176
0.14056373 0.20134804 0.12892157
0.19626225 0.20539216 0.13069853
0.25196078 0.20931373 0.13333333
0.30716912 0.20980392 0.12941176
0.36470588 0.20980392 0.12941176
0.43676471 0.20631127 0.12941176
0.50539216 0.19607843 0.12941176
0.56862745 0.18235294 0.12892157
0.62009804 0.17205882 0.1254902
0.67107843 0.15539216 0.1213848
0.71911765 0.11666667 0.12107843
0.76764706 0.077941176 0.11734069
0.80968137 0.055882353 0.11360294
0.85392157 0.021078431 0.109375
0.88872549 0.011519608 0.10539216
0.91568627 0.019056373 0.10539216
0.94656863 0.021691176 0.10539216
0.97352941 0.015196078 0.10196078
0.99264706 0.0088235294 0.10196078
0.0039215686 0.23627451 0.1372549
0.0014705882 0.23235294 0.1372549
0 0.23063725 0.13627451
0.006372549 0.2310049 0.13333333
0.047058824 0.23137255 0.13333333
0.092647059 0.2310049 0.12941176
0.14632353 0.23210784 0.12941176
0.20845588 0.2377451 0.13088235
0.26960784 0.24411765 0.13235294
0.32463235 0.24705882 0.12585784
0.38529412 0.24705882 0.1254902
0.45735294 0.2432598 0.12634804
0.52941176 0.23872549 0.12401961
0.59264706 0.23296569 0.1254902
0.64411765 0.22573529 0.12156863
0.69558824 0.21176471 0.11654412
0.74313725 0.18529412 0.11372549
0.78823529 0.16372549 0.11078431
0.82941176 0.14191176 0.10906863
0.86801471 0.11286765 0.10330882
0.90294118 0.10392157 0.098039216
0.93247549 0.10085784 0.095098039
0.95759804 0.091176471 0.095833333
0.98235294 0.069117647 0.095098039
0.99607843 0.056862745 0.095098039
0.0024509804 0.26323529 0.1372549
0 0.26323529 0.13817402
0.0042892157 0.26323529 0.1372549
0.01127451 0.26470588 0.13333333
0.045098039 0.26470588 0.13333333
0.096568627 0.26470588 0.13333333
0.14803922 0.26654412 0.12941176
0.20790441 0.27107843 0.12886029
0.27303922 0.27647059 0.1254902
0.33627451 0.28192402 0.12064951
0.40441176 0.28676471 0.11617647
0.47254902 0.28970588 0.11470588
0.54068627 0.29117647 0.1122549
0.61243873 0.29332108 0.12469363
0.6689951 0.28529412 0.12647059
0.715625 0.27009804 0.11323529
0.7622549 0.26127451 0.10441176
0.80490196 0.24607843 0.10680147
0.84607843 0.2254902 0.10588235
0.88235294 0.21109069 0.097242647
0.91593137 0.20343137 0.089460784
0.94803922 0.19705882 0.08872549
0.97352941 0.18676471 0.08872549
0.98970588 0.17457108 0.08872549
0.99460784 0.16911765 0.08872549
0 0.29411765 0.13333333
0.0024509804 0.29411765 0.13333333
0.0088235294 0.29803922 0.13333333
0.015196078 0.29803922 0.13333333
0.041176471 0.30196078 0.13333333
0.093137255 0.29803922 0.12941176
0.14803922 0.29803922 0.12941176
0.20490196 0.30343137 0.12401961
0.27058824 0.31372549 0.12156863
0.33480392 0.32401961 0.11519608
0.40686275 0.33431373 0.10588235
0.47892157 0.34068627 0.098529412
0.54705882 0.34117647 0.096078431
0.61911765 0.34509804 0.11421569
0.68431373 0.34607843 0.11470588
0.72352941 0.33578431 0.096568627
0.76862745 0.33333333 0.08627451
0.81764706 0.3245098 0.095098039
0.86176471 0.3127451 0.10098039
0.89607843 0.30588235 0.086764706
0.92745098 0.29607843 0.078431373
0.9627451 0.28970588 0.078431373
0.99019608 0.28235294 0.078431373
0.99215686 0.27843137 0.078431373
0.99215686 0.27843137 0.082352941
0 0.32598039 0.12941176
0.0014705882 0.32990196 0.12941176
0.0053921569 0.33345588 0.13051471
0.009129902 0.33529412 0.12941176
0.02377451 0.33676471 0.12696078
0.078063725 0.33707108 0.12726716
0.13897059 0.33860294 0.1254902
0.20098039 0.34313725 0.11856618
0.26666667 0.35490196 0.11372549
0.33480392 0.36911765 0.10882353
0.40686275 0.37904412 0.098529412
0.47892157 0.38449755 0.088235294
0.54901961 0.39068627 0.07622549
0.61470588 0.39528186 0.076470588
0.67647059 0.39840686 0.076470588
0.73229167 0.40238971 0.071997549
0.77892157 0.40294118 0.063235294
0.82493873 0.40294118 0.056311275
0.86813725 0.39607843 0.057352941
0.9026348 0.39215686 0.055085784
0.93651961 0.38480392 0.050735294
0.97009804 0.37628676 0.055698529
0.99117647 0.36960784 0.063602941
0.99460784 0.36470588 0.061764706
0.99460784 0.36470588 0.061764706
0 0.37745098 0.1254902
0 0.37745098 0.12095588
0.0039215686 0.37720588 0.12058824
0.0039215686 0.37352941 0.12156863
0.0093137255 0.37254902 0.12058824
0.052941176 0.37647059 0.12095588
0.13137255 0.38039216 0.12058824
0.19816176 0.38676471 0.1122549
0.2627451 0.4 0.10588235
0.33026961 0.41029412 0.10134804
0.40196078 0.4245098 0.086029412
0.475 0.43578431 0.065563725
0.54705882 0.44215686 0.048039216
0.61384804 0.44852941 0.035171569
0.67647059 0.45269608 0.031372549
0.73492647 0.4622549 0.031004902
0.78431373 0.46862745 0.02745098
0.83223039 0.47254902 0.01752451
0.87377451 0.47352941 0.01372549
0.90833333 0.47352941 0.020220588
0.94362745 0.46813725 0.020588235
0.9682598 0.4622549 0.030392157
0.98308824 0.45196078 0.044117647
0.99546569 0.44375 0.043627451
0.99607843 0.44313725 0.037254902
0 0.42892157 0.11813725
0 0.42892157 0.11047794
0.0039215686 0.425 0.11029412
0.0039215686 0.42113971 0.11029412
0.0044117647 0.41740196 0.11029412
0.036213235 0.41807598 0.11029412
0.11470588 0.4245098 0.1064951
0.19148284 0.43088235 0.10147059
0.25931373 0.44117647 0.091176471
0.32481618 0.45539216 0.081066176
0.39644608 0.47046569 0.060906863
0.47150735 0.48333333 0.037745098
0.54338235 0.48970588 0.020833333
0.60778186 0.49656863 0.0077818627
0.67291667 0.50306373 0.00049019608
0.73302696 0.51323529 0.00049019608
0.78431373 0.52352941 0.0039215686
0.82971814 0.52567402 0.0036151961
0.87009804 0.53186275 0.0049019608
0.90484069 0.53480392 0.011703431
0.94142157 0.53259804 0.013480392
0.96954657 0.53425245 0.024019608
0.98590686 0.52696078 0.031740196
0.99362745 0.5254902 0.025183824
0.9995098 0.52156863 0.012745098
0 0.48039216 0.098039216
0 0.47720588 0.094117647
0.00098039216 0.47401961 0.094117647
0.0039215686 0.47083333 0.095833333
0.0078431373 0.46666667 0.096078431
0.026960784 0.46666667 0.10098039
0.088235294 0.47009804 0.090196078
0.17254902 0.4745098 0.082843137
0.25294118 0.48039216 0.070588235
0.32107843 0.49509804 0.057843137
0.39313725 0.51176471 0.036764706
0.46715686 0.525 0.016421569
0.53627451 0.53137255 0.011764706
0.60294118 0.5372549 0.0073529412
0.66323529 0.54264706 0.0039215686
0.72303922 0.55245098 0.0019607843
0.7745098 0.56078431 0.0039215686
0.81960784 0.56715686 0.0058823529
0.86078431 0.57941176 0.0088235294
0.89828431 0.58627451 0.013480392
0.93627451 0.59019608 0.014705882
0.96617647 0.59436275 0.017647059
0.99215686 0.59313725 0.019117647
0.99607843 0.59142157 0.028921569
1 0.58823529 0.039215686
0 0.52745098 0.07745098
0 0.52401961 0.073529412
0.00098039216 0.52389706 0.07745098
0.0039215686 0.52009804 0.080943627
0.0039215686 0.51617647 0.07745098
0.0074142157 0.5122549 0.073958333
0.066053922 0.51482843 0.070955882
0.15637255 0.51960784 0.064705882
0.24264706 0.52352941 0.054411765
0.31519608 0.53382353 0.044117647
0.3872549 0.55159314 0.029411765
0.4627451 0.56568627 0.016176471
0.52892157 0.57254902 0.011519608
0.59460784 0.57849265 0.0074142157
0.65343137 0.58235294 0.0039215686
0.71243873 0.59166667 0.0039215686
0.76421569 0.59803922 0.0039215686
0.80931373 0.61047794 0.0078431373
0.85441176 0.62254902 0.011764706
0.89172794 0.63241422 0.011335784
0.93088235 0.63676471 0.0078431373
0.95833333 0.64068627 0.01127451
0.98884804 0.64068627 0.010784314
0.99577206 0.64479167 0.057230392
1 0.64558824 0.1004902
0 0.57941176 0.05
0 0.5754902 0.051838235
0 0.57230392 0.056862745
0.0039215686 0.5689951 0.057720588
0.0039215686 0.56568627 0.056862745
0.0044117647 0.56372549 0.056862745
0.051960784 0.56372549 0.056862745
0.15220588 0.56409314 0.054411765
0.23921569 0.56862745 0.044117647
0.31127451 0.57892157 0.030514706
0.38333333 0.58946078 0.023529412
0.45539216 0.60343137 0.012254902
0.52058824 0.60980392 0.0098039216
0.58431373 0.62009804 0.0073529412
0.64313725 0.62426471 0.0039215686
0.69889706 0.62892157 0.0039215686
0.75392157 0.63627451 0.0039215686
0.79901961 0.6495098 0.0067401961
0.84411765 0.66078431 0.0088235294
0.88443627 0.66752451 0.0078431373
0.92058824 0.66764706 0.0078431373
0.95147059 0.67156863 0.0078431373
0.97941176 0.67156863 0.014705882
0.99031863 0.67696078 0.054656863
0.99705882 0.67941176 0.087254902
0 0.63235294 0.020588235
0 0.62843137 0.026960784
0.0039215686 0.62267157 0.033333333
0.0039215686 0.61911765 0.037561275
0.0039215686 0.61715686 0.03627451
0.0039215686 0.61519608 0.03627451
0.037867647 0.61580882 0.03627451
0.14840686 0.61127451 0.03872549
0.23529412 0.61372549 0.029901961
0.30735294 0.62310049 0.018137255
0.37904412 0.63223039 0.010294118
0.44656863 0.63939951 0.010294118
0.5122549 0.64362745 0.0078431373
0.57530637 0.65196078 0.0039215686
0.63284314 0.65870098 0.0039215686
0.68523284 0.66770833 0.0039215686
0.73970588 0.67647059 0.0024509804
0.7872549 0.68676471 0.0039215686
0.83051471 0.69166667 0.0039215686
0.875 0.69460784 0.0039215686
0.9129902 0.69852941 0.0039215686
0.9463848 0.69883578 0.0078431373
0.97058824 0.70245098 0.010294118
0.99117647 0.7033701 0.016053922
0.99754902 0.70490196 0.035784314
0 0.67843137 0.0039215686
0.0024509804 0.6745098 0.0078431373
0.0039215686 0.66666667 0.016666667
0.0039215686 0.6627451 0.023039216
0.0039215686 0.6627451 0.017647059
0 0.66666667 0.01127451
0.034313725 0.66372549 0.0078431373
0.13872549 0.66127451 0.011764706
0.22745098 0.65882353 0.011764706
0.30343137 0.66127451 0.0039215686
0.3745098 0.66764706 0.0039215686
0.44019608 0.67401961 0.0073529412
0.50392157 0.67843137 0.0058823529
0.56764706 0.68284314 0.0039215686
0.62254902 0.69313725 0.0039215686
0.67401961 0.70343137 0
0.7254902 0.71372549 0
0.7745098 0.71764706 0
0.81960784 0.71862745 0
0.86470588 0.72156863 0.0039215686
0.90588235 0.7254902 0.0039215686
0.94215686 0.72941176 0.0039215686
0.96568627 0.72941176 0.0039215686
0.9872549 0.72941176 0.0024509804
1 0.72941176 0.0039215686
0.0014705882 0.70931373 0.006372549
0.0039215686 0.70931373 0.0078431373
0.0039215686 0.70686275 0.0082107843
0.0039215686 0.7004902 0.012745098
0.0058823529 0.70073529 0.0098039216
0.015931373 0.70410539 0.0012867647
0.075980392 0.70428922 0
0.17303922 0.70147059 0.0024509804
0.25931373 0.7 0.0024509804
0.32401961 0.69754902 0.0024509804
0.38223039 0.70245098 0.0039215686
0.44264706 0.70882353 0.0039215686
0.50073529 0.71446078 0.0039215686
0.56109069 0.71979167 0
0.61801471 0.725 0.0011029412
0.67401961 0.73131127 0.003370098
0.72794118 0.73823529 0
0.7745098 0.74368873 0
0.81568627 0.74607843 0
0.85686275 0.74852941 0
0.90196078 0.75318627 0
0.93449755 0.75392157 0.0026348039
0.95821078 0.75392157 0.0039215686
0.98088235 0.75637255 0.0039215686
0.99607843 0.75637255 0.0039215686
0 0.74411765 0.0039215686
0 0.74411765 0.0039215686
0.0080882353 0.74117647 0.0068627451
0.00625 0.74019608 0.0039215686
0.0029411765 0.7372549 0.0029411765
0.065318627 0.7372549 0.00049019608
0.15416667 0.7372549 0.0039215686
0.23112745 0.73627451 0.0039215686
0.30588235 0.73333333 0.0039215686
0.36421569 0.73235294 0.0042892157
0.4127451 0.73627451 0.0039215686
0.46715686 0.74019608 0.0039215686
0.51764706 0.74558824 0.0024509804
0.56776961 0.75098039 0
0.61789216 0.75196078 0
0.67438725 0.75698529 0.0033088235
0.73039216 0.7627451 0
0.77843137 0.76948529 0
0.81960784 0.77156863 0.0017156863
0.85735294 0.77536765 0.00098039216
0.89754902 0.77892157 0.0039215686
0.9307598 0.78235294 0.0052696078
0.95490196 0.78235294 0.0078431373
0.97941176 0.78272059 0.0049019608
0.99215686 0.78333333 0.0049019608
0 0.77892157 0
0.0064338235 0.77892157 0.0024509804
0.031617647 0.775 0.0083333333
0.060416667 0.77156863 0.0074142157
0.11691176 0.77279412 0.0036764706
0.18541667 0.77408088 0.00049019608
0.23517157 0.77107843 0.0039215686
0.28854167 0.77107843 0.0052083333
0.34705882 0.76715686 0.0078431373
0.40030637 0.76715686 0.0078431373
0.44914216 0.76715686 0.0073529412
0.49503676 0.77107843 0.0039215686
0.54191176 0.775 0.0039215686
0.58535539 0.77591912 0.003002451
0.63039216 0.77892157 0
0.68106618 0.78302696 0.0014705882
0.73676471 0.79068627 0.0039215686
0.78235294 0.79491422 0.0037377451
0.82218137 0.79865196 0.0039215686
0.85735294 0.80202206 0.0039215686
0.89411765 0.80465686 0.0078431373
0.92696078 0.81029412 0.0078431373
0.95490196 0.81029412 0.01127451
0.978125 0.81029412 0.01127451
0.99215686 0.81029412 0.011764706
0.10784314 0.80588235 0.0098039216
0.11911765 0.80661765 0.0098039216
0.15490196 0.80588235 0.013235294
0.19779412 0.80588235 0.011764706
0.23137255 0.80588235 0.0068627451
0.25882353 0.80196078 0.0039215686
0.3 0.80196078 0.0058823529
0.34509804 0.80196078 0.0078431373
0.39215686 0.79803922 0.0078431373
0.44044118 0.79803922 0.0078431373
0.48431373 0.79803922 0.0078431373
0.5254902 0.80196078 0.0039215686
0.56862745 0.80294118 0.0039215686
0.60980392 0.80588235 0.0034313725
0.65098039 0.80735294 0
0.69681373 0.81127451 0.0014705882
0.74313725 0.81764706 0.0039215686
0.78823529 0.82156863 0.0039215686
0.82647059 0.8254902 0.0068627451
0.85735294 0.82916667 0.0098039216
0.89215686 0.83333333 0.0078431373
0.92696078 0.8372549 0.0078431373
0.95490196 0.8372549 0.010784314
0.97941176 0.8372549 0.011764706
0.99215686 0.8372549 0.011764706
0.2495098 0.83627451 0.016176471
0.25851716 0.83676471 0.014583333
0.28468137 0.83676471 0.017647059
0.29754902 0.83676471 0.024509804
0.31397059 0.83480392 0.010539216
0.33480392 0.83284314 0.0078431373
0.36960784 0.83284314 0.010784314
0.39901961 0.83284314 0.010477941
0.44117647 0.83284314 0.01127451
0.48204657 0.82892157 0.011764706
0.51813725 0.82990196 0.0068627451
0.55594363 0.83284314 0.0039215686
0.59705882 0.83284314 0.0039215686
0.63474265 0.83676471 0.0039215686
0.6754902 0.83676471 0
0.71256127 0.84068627 0.0017769608
0.75343137 0.84460784 0.0039215686
0.79460784 0.84852941 0.0039215686
0.83039216 0.85245098 0.014093137
0.86127451 0.85631127 0.012745098
0.89436275 0.8620098 0.0078431373
0.92696078 0.86464461 0.0078431373
0.95392157 0.86801471 0.0078431373
0.97941176 0.86813725 0.010477941
0.99607843 0.86813725 0.0078431373
0.33627451 0.86372549 0.067647059
0.34558824 0.86654412 0.072671569
0.35980392 0.86838235 0.075490196
0.37389706 0.87058824 0.081862745
0.39019608 0.86764706 0.058333333
0.40686275 0.86372549 0.037377451
0.43063725 0.86372549 0.03995098
0.45625 0.86372549 0.024877451
0.48627451 0.86372549 0.01372549
0.51997549 0.86372549 0.023406863
0.55196078 0.86372549 0.015686275
0.58382353 0.86372549 0.00012254902
0.62303922 0.86372549 0.010294118
0.65882353 0.86764706 0.031862745
0.69387255 0.86764706 0.022303922
0.72830882 0.86801471 0.010539216
0.76666667 0.87156863 0.0078431373
0.80306373 0.87610294 0.0068627451
0.83431373 0.87965686 0.016666667
0.86519608 0.88333333 0.016176471
0.89607843 0.88970588 0.0044117647
0.92647059 0.89252451 0.010416667
0.95392157 0.89509804 0.0024509804
0.9747549 0.89718137 0.012990196
0.98235294 0.89901961 0.042156863
0.39852941 0.89460784 0.15441176
0.40827206 0.89944853 0.165625
0.41973039 0.90245098 0.16617647
0.43921569 0.90765931 0.16960784
0.45269608 0.90514706 0.16470588
0.46685049 0.9 0.14148284
0.48713235 0.9 0.14522059
0.51072304 0.9 0.13382353
0.53284314 0.9 0.125
0.5622549 0.9 0.12352941
0.59313725 0.9 0.10208333
0.62009804 0.9 0.079595588
0.65147059 0.89926471 0.097058824
0.68284314 0.90373775 0.11862745
0.71372549 0.90245098 0.11127451
0.74607843 0.90392157 0.098590686
0.77794118 0.90784314 0.083333333
0.81035539 0.91029412 0.085723039
0.83823529 0.91237745 0.092769608
0.86911765 0.91783088 0.093137255
0.89803922 0.92083333 0.080147059
0.92303922 0.92205882 0.074693627
0.94889706 0.925 0.072916667
0.96470588 0.93137255 0.094056373
0.96715686 0.93137255 0.11470588
0.45490196 0.9254902 0.23529412
0.46127451 0.92794118 0.24166667
0.47156863 0.92941176 0.24215686
0.49313725 0.93676471 0.25
0.51176471 0.93921569 0.24705882
0.52205882 0.93333333 0.23529412
0.53627451 0.93333333 0.23529412
0.55588235 0.93333333 0.24313725
0.57647059 0.93333333 0.23529412
0.60098039 0.9372549 0.22892157
0.62941176 0.9372549 0.22254902
0.65392157 0.9372549 0.2122549
0.67647059 0.93137255 0.19411765
0.70686275 0.94068627 0.21078431
0.73137255 0.93627451 0.19901961
0.76372549 0.94362745 0.21519608
0.79215686 0.94509804 0.20392157
0.82058824 0.9504902 0.21862745
0.84509804 0.94509804 0.20784314
0.86911765 0.95245098 0.22254902
0.89607843 0.95294118 0.21568627
0.92254902 0.9495098 0.19607843
0.94607843 0.95980392 0.20980392
0.96470588 0.97107843 0.23529412
0.96470588 0.96862745 0.23137255
0 0.13333333 0.13578431
0 0.13333333 0.13431373
0.0058823529 0.13333333 0.13639706
0.033823529 0.13333333 0.13823529
0.064705882 0.1372549 0.14289216
0.095588235 0.1372549 0.14362745
0.12647059 0.13615196 0.14362745
0.16127451 0.13333333 0.13970588
0.19607843 0.12941176 0.13578431
0.23970588 0.12303922 0.13578431
0.29264706 0.11127451 0.14178922
0.34785539 0.095098039 0.14509804
0.40784314 0.07377451 0.14436275
0.46568627 0.048039216 0.14099265
0.52561275 0.021078431 0.13970588
0.58229167 0.003370098 0.13915441
0.63921569 0 0.13970588
0.69460784 0.0015318627 0.13970588
0.75061275 0.0029411765 0.13970588
0.80177696 0 0.13756127
0.84828431 0 0.13259804
0.89264706 0 0.12530637
0.93480392 0 0.12107843
0.96911765 0 0.11862745
0.99215686 0 0.11470588
0 0.14362745 0.13731618
0.00095741422 0.14328278 0.13578431
0.0092064951 0.14362745 0.14105392
0.030759804 0.14362745 0.14441636
0.063939951 0.14362745 0.14607843
0.095588235 0.14362745 0.14754902
0.12899816 0.14362745 0.14644608
0.16485141 0.13970588 0.14273131
0.20490196 0.13578431 0.13823529
0.25 0.13186275 0.13846507
0.30252757 0.12248775 0.14178922
0.35900735 0.10673254 0.14509804
0.41617647 0.081832108 0.14436275
0.47286305 0.052267157 0.13970588
0.53049939 0.022380515 0.13970588
0.58648131 0.0046721814 0.13731618
0.64166667 0.003370098 0.13578431
0.70006127 0.0039215686 0.13691023
0.75637255 0.0030790441 0.13855699
0.80521599 0 0.13756127
0.8502451 0 0.13137255
0.89607843 0 0.12401961
0.9372549 0 0.12009804
0.97007506 0 0.11975337
0.98878676 0 0.11617647
0.0039215686 0.15392157 0.14362745
0.0039215686 0.15415135 0.14224877
0.0088235294 0.15490196 0.14672181
0.026424632 0.15784314 0.15036765
0.058026961 0.15784314 0.15
0.096078431 0.15761336 0.14969363
0.13449755 0.15428922 0.14754902
0.17271752 0.15105699 0.14385723
0.21666667 0.14754902 0.14068627
0.26421569 0.14316789 0.14246324
0.31384804 0.1379902 0.14151348
0.3745098 0.12219669 0.14362745
0.43480392 0.10122549 0.14417892
0.49109988 0.073897059 0.14099265
0.54607843 0.041452206 0.13970588
0.60108762 0.016789216 0.13693321
