site/assets/luts/sha256-b6aebc38c460f5cca4231196cc7e4b5eab9369f0c3af1d152cbe1e90bad5fc40.cube
# LUTr-Schema-Version: 2
# LUTr-ID: sha256-b6aebc38c460f5cca4231196cc7e4b5eab9369f0c3af1d152cbe1e90bad5fc40
# LUTr-Title: polaroid 669 +
# LUTr-Collection: Natron HaldCLUT
# LUTr-Collection-ID: natron-haldclut-presets
# LUTr-Source: https://github.com/NatronGitHub/clut
# LUTr-Retrieved: 2026-07-27
# LUTr-Source-File: submissions/natron-haldclut-presets/instant_pro/polaroid_669_+.png
# LUTr-Source-Format: HALD-PNG
# LUTr-Source-SHA256: b6aebc38c460f5cca4231196cc7e4b5eab9369f0c3af1d152cbe1e90bad5fc40
# LUTr-License: CC-BY-SA-4.0
# LUTr-License-URL: https://github.com/NatronGitHub/clut#license
# LUTr-License-Basis: repo-license-file
# LUTr-Transform-Class: film-emulation
# LUTr-Tags: creative, film, film-emulation, hald-clut, natron, png, cube
# LUTr-Input-Color-Space: srgb
# LUTr-Input-Gamut: rec709
# LUTr-Input-Transfer: srgb
# LUTr-Output-Color-Space: srgb
# LUTr-Output-Gamut: rec709
# LUTr-Output-Transfer: srgb
# LUTr-Color-Space-Confidence: assumed-display-referred
# LUTr-Domain-Normalized: true
# LUTr-Shaper: none
# LUTr-Original-Grid: 64x64x64
# LUTr-Conversion-Grid: 25x25x25
# LUTr-Conversion-Interpolation: trilinear
# LUTr-Conversion-Method: HALD-PNG LUT image decoded at 16-bit and sampled to 25x25x25 3D CUBE
# LUTr-Conversion-Tool: LUTr scripts/convert-all-to-cube.mjs 2.0.0
# LUTr-Conversion-Date: 2026-07-27
# LUTr-Note: Preserve this metadata and the upstream license notices when redistributing.
TITLE "polaroid 669 +"
LUT_3D_SIZE 5
DOMAIN_MIN 0 0 0
DOMAIN_MAX 1 1 1
0 0.18823529 0.17647059
0.083333333 0.20490196 0.19705882
0.31568627 0.21176471 0.21372549
0.60784314 0.22058824 0.25980392
0.8627451 0.2627451 0.30588235
0.0098039216 0.25392157 0.21470588
0.14019608 0.26470588 0.21936275
0.39901961 0.27647059 0.25
0.65220588 0.29681373 0.28235294
0.87352941 0.35784314 0.34705882
0.14509804 0.39803922 0.28039216
0.22892157 0.39558824 0.27254902
0.43333333 0.42254902 0.28431373
0.68431373 0.47647059 0.33235294
0.88823529 0.56862745 0.44117647
0.26862745 0.61568627 0.33529412
0.3245098 0.60196078 0.33529412
0.46176471 0.61862745 0.33921569
0.65416667 0.67156863 0.34705882
0.86078431 0.75 0.45588235
0.47058824 0.9372549 0.60392157
0.48921569 0.9245098 0.59117647
0.5745098 0.92156863 0.59215686
0.73823529 0.94313725 0.64705882
0.90980392 0.97254902 0.76078431
0 0.20294118 0.24117647
0.06495098 0.21397059 0.25612745
0.34166667 0.22647059 0.29901961
0.62671569 0.2120098 0.32132353
0.86470588 0.26666667 0.3745098
0.015931373 0.27254902 0.29117647
0.15655637 0.2754902 0.30042892
0.41691176 0.29191176 0.3372549
0.6689951 0.30294118 0.35863971
0.87058824 0.35098039 0.40882353
0.16323529 0.44313725 0.35441176
0.27622549 0.43541667 0.35723039
0.45784314 0.44656863 0.35784314
0.70232843 0.50539216 0.42254902
0.85784314 0.57941176 0.51078431
0.28823529 0.66470588 0.41446078
0.34093137 0.64534314 0.41004902
0.4689951 0.64571078 0.40698529
0.66158088 0.69056373 0.42371324
0.85661765 0.76176471 0.53235294
0.4627451 0.92156863 0.62647059
0.48578431 0.91519608 0.62009804
0.56862745 0.91078431 0.61176471
0.73161765 0.93651961 0.66348039
0.87745098 0.96078431 0.74313725
0 0.24901961 0.41960784
0.0073529412 0.24117647 0.44264706
0.41176471 0.26470588 0.51372549
0.68431373 0.32107843 0.58382353
0.88039216 0.36470588 0.61176471
0 0.3254902 0.47696078
0.083823529 0.32536765 0.5125
0.47156863 0.35612745 0.56813725
0.70330882 0.39509804 0.60490196
0.87941176 0.4254902 0.61911765
0.14313725 0.52058824 0.57254902
0.28676471 0.52671569 0.58553922
0.51470588 0.54362745 0.61568627
0.70882353 0.55392157 0.63333333
0.86960784 0.58333333 0.65098039
0.30196078 0.74852941 0.62843137
0.36960784 0.74411765 0.62806373
0.49289216 0.71960784 0.61470588
0.67267157 0.73529412 0.61593137
0.86029412 0.80931373 0.73137255
0.49215686 0.94117647 0.74313725
0.51519608 0.94313725 0.74313725
0.58431373 0.93431373 0.73529412
0.7245098 0.94313725 0.74607843
0.88627451 0.9627451 0.8
0 0.32254902 0.75490196
0.0046568627 0.30710784 0.77254902
0.43676471 0.3622549 0.80784314
0.71936275 0.45686275 0.83039216
0.8745098 0.60588235 0.84901961
0 0.43039216 0.77279412
0.0098651961 0.40465686 0.78743873
0.46960784 0.44509804 0.81470588
0.73253676 0.56666667 0.84197304
0.86666667 0.67058824 0.85661765
0.00049019608 0.6 0.78333333
0.23664216 0.6 0.78872549
0.50196078 0.61911765 0.82377451
0.72512255 0.71875 0.84865196
0.85294118 0.74411765 0.84901961
0.32941176 0.81568627 0.81862745
0.39705882 0.81568627 0.8254902
0.56041667 0.82352941 0.83529412
0.72622549 0.83921569 0.84509804
0.84509804 0.85955882 0.85294118
0.59901961 0.96176471 0.85196078
0.61764706 0.96176471 0.85196078
0.67058824 0.96176471 0.85196078
0.75980392 0.95784314 0.84730392
0.89411765 0.96862745 0.85980392
0.19607843 0.54117647 0.93333333
0.29901961 0.52941176 0.93333333
0.54705882 0.56862745 0.91764706
0.77745098 0.72058824 0.92058824
0.88627451 0.81176471 0.91764706
0.31764706 0.62254902 0.9254902
0.39901961 0.62230392 0.92720588
0.57941176 0.65980392 0.92156863
0.77328431 0.73897059 0.91078431
0.88627451 0.83823529 0.91764706
0.40980392 0.77647059 0.90980392
0.47107843 0.77205882 0.91176471
0.60294118 0.77352941 0.91666667
0.78088235 0.83627451 0.91372549
0.89411765 0.89019608 0.91764706
0.47843137 0.9 0.90588235
0.5 0.89607843 0.90196078
0.59656863 0.88382353 0.90196078
0.78406863 0.90784314 0.90980392
0.87843137 0.91862745 0.90588235
0.74901961 0.99215686 0.91764706
0.7254902 0.98039216 0.90980392
0.78431373 0.98431373 0.91176471
0.84019608 0.97647059 0.90980392
0.89019608 0.96470588 0.90196078
