site/assets/luts/sha256-1699b78d7df57230982121c956510f7b7b49800c08b42060a49da69493eb4eb3.cube
# LUTr-Schema-Version: 2
# LUTr-ID: sha256-1699b78d7df57230982121c956510f7b7b49800c08b42060a49da69493eb4eb3
# LUTr-Title: fuji superia 400 -
# LUTr-Collection: Natron HaldCLUT
# LUTr-Collection-ID: natron-haldclut-presets
# LUTr-Source: https://github.com/NatronGitHub/clut
# LUTr-Retrieved: 2026-07-27
# LUTr-Source-File: submissions/natron-haldclut-presets/negative_old/fuji_superia_400_-.png
# LUTr-Source-Format: HALD-PNG
# LUTr-Source-SHA256: 1699b78d7df57230982121c956510f7b7b49800c08b42060a49da69493eb4eb3
# LUTr-License: CC-BY-SA-4.0
# LUTr-License-URL: https://github.com/NatronGitHub/clut#license
# LUTr-License-Basis: repo-license-file
# LUTr-Transform-Class: film-emulation
# LUTr-Tags: creative, film, film-emulation, hald-clut, natron, png, cube
# LUTr-Input-Color-Space: srgb
# LUTr-Input-Gamut: rec709
# LUTr-Input-Transfer: srgb
# LUTr-Output-Color-Space: srgb
# LUTr-Output-Gamut: rec709
# LUTr-Output-Transfer: srgb
# LUTr-Color-Space-Confidence: assumed-display-referred
# LUTr-Domain-Normalized: true
# LUTr-Shaper: none
# LUTr-Original-Grid: 64x64x64
# LUTr-Conversion-Grid: 25x25x25
# LUTr-Conversion-Interpolation: trilinear
# LUTr-Conversion-Method: HALD-PNG LUT image decoded at 16-bit and sampled to 25x25x25 3D CUBE
# LUTr-Conversion-Tool: LUTr scripts/convert-all-to-cube.mjs 2.0.0
# LUTr-Conversion-Date: 2026-07-27
# LUTr-Note: Preserve this metadata and the upstream license notices when redistributing.
TITLE "fuji superia 400 -"
LUT_3D_SIZE 5
DOMAIN_MIN 0 0 0
DOMAIN_MAX 1 1 1
0 0.019607843 0.019607843
0.18235294 0.039215686 0.015686275
0.5745098 0.015686275 0.011764706
0.86666667 0.0068627451 0.0068627451
1 0.23529412 0
0.0039215686 0.21176471 0.07745098
0.17647059 0.25392157 0.0066176471
0.59264706 0.25294118 0.0078431373
0.86838235 0.25710784 0.0039215686
0.99607843 0.35784314 0
0.0039215686 0.50588235 0.22156863
0.18823529 0.52058824 0.22156863
0.58431373 0.62352941 0.10098039
0.87009804 0.59901961 0.0098039216
0.96666667 0.56470588 0.0058823529
0.35 0.74117647 0.43921569
0.39044118 0.74117647 0.43137255
0.55 0.77352941 0.42647059
0.84313725 0.85 0.37034314
0.99215686 0.85392157 0.24411765
0.71372549 0.94117647 0.74117647
0.73235294 0.9372549 0.74117647
0.78039216 0.94117647 0.75294118
0.85294118 0.95686275 0.73235294
0.95686275 0.98039216 0.73333333
0.0078431373 0.034313725 0.20196078
0.19901961 0.078431373 0.20686275
0.57352941 0.021568627 0.21470588
0.87058824 0.11544118 0.22745098
1 0.30490196 0.2245098
0.0039215686 0.24607843 0.24705882
0.24393382 0.26862745 0.25606618
0.59901961 0.29178922 0.24607843
0.86985294 0.32156863 0.22843137
1 0.39607843 0.22058824
0.22941176 0.55 0.37647059
0.31311275 0.5439951 0.36715686
0.58627451 0.61568627 0.33186275
0.8622549 0.58039216 0.18235294
0.99607843 0.57794118 0.12745098
0.39485294 0.75661765 0.50367647
0.45294118 0.75269608 0.51176471
0.59509804 0.77745098 0.50821078
0.83921569 0.84289216 0.49191176
0.99607843 0.85171569 0.42254902
0.73333333 0.94215686 0.76078431
0.7375 0.93676471 0.75710784
0.78480392 0.93970588 0.76323529
0.86151961 0.96078431 0.77622549
0.95686275 0.98039216 0.76372549
0 0.050980392 0.54313725
0.23284314 0.084313725 0.54313725
0.56372549 0.14705882 0.54509804
0.83137255 0.2254902 0.54362745
0.99215686 0.33529412 0.55294118
0.014705882 0.27009804 0.57647059
0.28823529 0.29742647 0.58039216
0.59313725 0.35514706 0.56789216
0.84117647 0.38492647 0.55490196
0.99803922 0.41568627 0.54705882
0.15882353 0.5745098 0.57843137
0.36053922 0.57965686 0.58872549
0.60392157 0.59558824 0.59215686
0.84705882 0.6002451 0.57058824
0.98333333 0.62352941 0.55784314
0.53284314 0.7872549 0.66127451
0.5685049 0.78529412 0.66470588
0.6504902 0.78210784 0.66323529
0.84215686 0.83823529 0.67365196
0.99215686 0.81617647 0.59705882
0.75490196 0.94117647 0.80980392
0.7627451 0.9377451 0.80441176
0.8 0.93823529 0.80784314
0.86764706 0.95147059 0.81568627
0.94509804 0.97254902 0.82156863
0.24901961 0.13529412 0.8
0.41176471 0.15808824 0.80294118
0.64901961 0.26666667 0.79901961
0.84705882 0.37254902 0.79117647
0.98137255 0.44509804 0.79117647
0.26568627 0.30416667 0.80686275
0.42254902 0.3375 0.81078431
0.65588235 0.40343137 0.80686275
0.84705882 0.47181373 0.79209559
0.99019608 0.5627451 0.80294118
0.032352941 0.54068627 0.79901961
0.29963235 0.54779412 0.80110294
0.62279412 0.60098039 0.80294118
0.84289216 0.65833333 0.80686275
0.98039216 0.68921569 0.80980392
0.46764706 0.80294118 0.80294118
0.54313725 0.79901961 0.81397059
0.68161765 0.80220588 0.8189951
0.85098039 0.83529412 0.83357843
0.98382353 0.83431373 0.81544118
0.78921569 0.95294118 0.88431373
0.80392157 0.95294118 0.88431373
0.83235294 0.94656863 0.88284314
0.88823529 0.95 0.88529412
0.9872549 0.96176471 0.88431373
0.58039216 0.38431373 0.98039216
0.63333333 0.4 0.97647059
0.76078431 0.47843137 0.97254902
0.9 0.59019608 0.96078431
0.98039216 0.67058824 0.95294118
0.57352941 0.46470588 0.98137255
0.62745098 0.47916667 0.9745098
0.76470588 0.54068627 0.97058824
0.90294118 0.64387255 0.96470588
0.98529412 0.70882353 0.95686275
0.50784314 0.60784314 0.98039216
0.58823529 0.62892157 0.97990196
0.7372549 0.66078431 0.96372549
0.89166667 0.73627451 0.96617647
0.9745098 0.78235294 0.95098039
0.46078431 0.79901961 0.97254902
0.49117647 0.79240196 0.94681373
0.62254902 0.78431373 0.95882353
0.85686275 0.84509804 0.96004902
0.97156863 0.86862745 0.93823529
0.78039216 0.97647059 0.97647059
0.7754902 0.96862745 0.96470588
0.82941176 0.95490196 0.94509804
0.90392157 0.96862745 0.95980392
0.98039216 0.94901961 0.97254902
