site/assets/luts/sha256-11d83251c20b4cee66950ab680c6ba62af14e9a5d279865218d045b8fa6fb2ec.cube
# LUTr-Schema-Version: 2
# LUTr-ID: sha256-11d83251c20b4cee66950ab680c6ba62af14e9a5d279865218d045b8fa6fb2ec
# LUTr-Title: ilford hp5 plus 400
# LUTr-Collection: Natron HaldCLUT
# LUTr-Collection-ID: natron-haldclut-presets
# LUTr-Source: https://github.com/NatronGitHub/clut
# LUTr-Retrieved: 2026-07-27
# LUTr-Source-File: submissions/natron-haldclut-presets/bw/ilford_hp5_plus_400.png
# LUTr-Source-Format: HALD-PNG
# LUTr-Source-SHA256: 11d83251c20b4cee66950ab680c6ba62af14e9a5d279865218d045b8fa6fb2ec
# LUTr-License: CC-BY-SA-4.0
# LUTr-License-URL: https://github.com/NatronGitHub/clut#license
# LUTr-License-Basis: repo-license-file
# LUTr-Transform-Class: film-emulation
# LUTr-Tags: creative, film, film-emulation, hald-clut, natron, png, cube
# LUTr-Input-Color-Space: srgb
# LUTr-Input-Gamut: rec709
# LUTr-Input-Transfer: srgb
# LUTr-Output-Color-Space: srgb
# LUTr-Output-Gamut: rec709
# LUTr-Output-Transfer: srgb
# LUTr-Color-Space-Confidence: assumed-display-referred
# LUTr-Domain-Normalized: true
# LUTr-Shaper: none
# LUTr-Original-Grid: 64x64x64
# LUTr-Conversion-Grid: 25x25x25
# LUTr-Conversion-Interpolation: trilinear
# LUTr-Conversion-Method: HALD-PNG LUT image decoded at 16-bit and sampled to 25x25x25 3D CUBE
# LUTr-Conversion-Tool: LUTr scripts/convert-all-to-cube.mjs 2.0.0
# LUTr-Conversion-Date: 2026-07-27
# LUTr-Note: Preserve this metadata and the upstream license notices when redistributing.
TITLE "ilford hp5 plus 400"
LUT_3D_SIZE 25
DOMAIN_MIN 0 0 0
DOMAIN_MAX 1 1 1
0.011764706 0.011764706 0.011764706
0.011764706 0.011764706 0.011764706
0.012745098 0.012745098 0.012745098
0.019117647 0.019117647 0.019117647
0.029411765 0.029411765 0.029411765
0.035784314 0.035784314 0.035784314
0.042156863 0.042156863 0.042156863
0.048529412 0.048529412 0.048529412
0.054901961 0.054901961 0.054901961
0.062745098 0.062745098 0.062745098
0.071568627 0.071568627 0.071568627
0.077941176 0.077941176 0.077941176
0.08627451 0.08627451 0.08627451
0.08627451 0.08627451 0.08627451
0.08627451 0.08627451 0.08627451
0.10784314 0.10784314 0.10784314
0.14509804 0.14509804 0.14509804
0.18627451 0.18627451 0.18627451
0.22745098 0.22745098 0.22745098
0.27205882 0.27205882 0.27205882
0.30980392 0.30980392 0.30980392
0.34705882 0.34705882 0.34705882
0.38431373 0.38431373 0.38431373
0.42009804 0.42009804 0.42009804
0.45098039 0.45098039 0.45098039
0.015686275 0.015686275 0.015686275
0.015686275 0.015686275 0.015686275
0.019117647 0.019117647 0.019117647
0.02567402 0.02567402 0.02567402
0.033333333 0.033333333 0.033333333
0.039705882 0.039705882 0.039705882
0.046691176 0.046691176 0.046691176
0.05245098 0.05245098 0.05245098
0.058823529 0.058823529 0.058823529
0.062745098 0.062745098 0.062745098
0.070588235 0.070588235 0.070588235
0.077941176 0.077941176 0.077941176
0.084313725 0.084313725 0.084313725
0.093137255 0.093137255 0.093137255
0.10551471 0.10551471 0.10551471
0.12457108 0.12457108 0.12457108
0.15539216 0.15539216 0.15539216
0.19264706 0.19264706 0.19264706
0.23382353 0.23382353 0.23382353
0.275 0.275 0.275
0.31372549 0.31372549 0.31372549
0.35079657 0.35079657 0.35079657
0.38713235 0.38713235 0.38713235
0.42401961 0.42401961 0.42401961
0.45343137 0.45343137 0.45343137
0.016666667 0.016666667 0.016666667
0.020220588 0.020220588 0.020220588
0.027696078 0.027696078 0.027696078
0.034926471 0.034926471 0.034926471
0.040196078 0.040196078 0.040196078
0.047181373 0.047181373 0.047181373
0.051715686 0.051715686 0.051715686
0.059191176 0.059191176 0.059191176
0.06372549 0.06372549 0.06372549
0.067647059 0.067647059 0.067647059
0.071568627 0.071568627 0.071568627
0.074142157 0.074142157 0.074142157
0.092156863 0.092156863 0.092156863
0.1127451 0.1127451 0.1127451
0.12965686 0.12965686 0.12965686
0.14816176 0.14816176 0.14816176
0.1745098 0.1745098 0.1745098
0.20539216 0.20539216 0.20539216
0.24313725 0.24313725 0.24313725
0.28137255 0.28137255 0.28137255
0.32058824 0.32058824 0.32058824
0.35845588 0.35845588 0.35845588
0.39387255 0.39387255 0.39387255
0.42892157 0.42892157 0.42892157
0.45588235 0.45588235 0.45588235
0.019607843 0.019607843 0.019607843
0.02567402 0.02567402 0.02567402
0.035784314 0.035784314 0.035784314
0.042218137 0.042218137 0.042218137
0.048529412 0.048529412 0.048529412
0.051409314 0.051409314 0.051409314
0.05747549 0.05747549 0.05747549
0.064031863 0.064031863 0.064031863
0.070098039 0.070098039 0.070098039
0.077757353 0.077757353 0.077757353
0.082720588 0.082720588 0.082720588
0.09564951 0.09564951 0.09564951
0.1127451 0.1127451 0.1127451
0.13676471 0.13676471 0.13676471
0.15392157 0.15392157 0.15392157
0.17401961 0.17401961 0.17401961
0.19509804 0.19509804 0.19509804
0.22383578 0.22383578 0.22383578
0.25698529 0.25698529 0.25698529
0.29166667 0.29166667 0.29166667
0.33088235 0.33088235 0.33088235
0.36617647 0.36617647 0.36617647
0.40085784 0.40085784 0.40085784
0.43547794 0.43547794 0.43547794
0.4627451 0.4627451 0.4627451
0.037254902 0.037254902 0.037254902
0.043627451 0.043627451 0.043627451
0.051470588 0.051470588 0.051470588
0.056617647 0.056617647 0.056617647
0.059803922 0.059803922 0.059803922
0.061029412 0.061029412 0.061029412
0.064705882 0.064705882 0.064705882
0.069362745 0.069362745 0.069362745
0.080392157 0.080392157 0.080392157
0.093872549 0.093872549 0.093872549
0.10686275 0.10686275 0.10686275
0.12083333 0.12083333 0.12083333
0.1372549 0.1372549 0.1372549
0.15784314 0.15784314 0.15784314
0.17843137 0.17843137 0.17843137
0.19828431 0.19828431 0.19828431
0.21960784 0.21960784 0.21960784
0.24656863 0.24656863 0.24656863
0.27352941 0.27352941 0.27352941
0.30637255 0.30637255 0.30637255
0.34019608 0.34019608 0.34019608
0.37598039 0.37598039 0.37598039
0.41078431 0.41078431 0.41078431
0.44558824 0.44558824 0.44558824
0.47254902 0.47254902 0.47254902
0.068137255 0.068137255 0.068137255
0.072058824 0.072058824 0.072058824
0.076838235 0.076838235 0.076838235
0.079901961 0.079901961 0.079901961
0.083333333 0.083333333 0.083333333
0.083333333 0.083333333 0.083333333
0.080759804 0.080759804 0.080759804
0.084803922 0.084803922 0.084803922
0.099019608 0.099019608 0.099019608
0.11568627 0.11568627 0.11568627
0.1314951 0.1314951 0.1314951
0.14601716 0.14601716 0.14601716
0.1620098 0.1620098 0.1620098
0.17886029 0.17886029 0.17886029
0.19901961 0.19901961 0.19901961
0.21960784 0.21960784 0.21960784
0.24019608 0.24019608 0.24019608
0.26470588 0.26470588 0.26470588
0.29411765 0.29411765 0.29411765
0.325 0.325 0.325
0.35588235 0.35588235 0.35588235
0.39019608 0.39019608 0.39019608
0.42414216 0.42414216 0.42414216
0.45980392 0.45980392 0.45980392
0.48676471 0.48676471 0.48676471
0.096078431 0.096078431 0.096078431
0.10183824 0.10183824 0.10183824
0.10465686 0.10465686 0.10465686
0.10772059 0.10772059 0.10772059
0.10784314 0.10784314 0.10784314
0.10772059 0.10772059 0.10772059
0.10686275 0.10686275 0.10686275
0.1122549 0.1122549 0.1122549
0.12352941 0.12352941 0.12352941
0.13958333 0.13958333 0.13958333
0.15514706 0.15514706 0.15514706
0.16997549 0.16997549 0.16997549
0.18578431 0.18578431 0.18578431
0.20281863 0.20281863 0.20281863
0.21960784 0.21960784 0.21960784
0.24019608 0.24019608 0.24019608
0.25784314 0.25784314 0.25784314
0.28382353 0.28382353 0.28382353
0.31397059 0.31397059 0.31397059
0.34178922 0.34178922 0.34178922
0.37352941 0.37352941 0.37352941
0.40735294 0.40735294 0.40735294
0.43897059 0.43897059 0.43897059
0.47340686 0.47340686 0.47340686
0.5 0.5 0.5
0.1245098 0.1245098 0.1245098
0.12751225 0.12751225 0.12751225
0.13235294 0.13235294 0.13235294
0.13382353 0.13382353 0.13382353
0.13308824 0.13308824 0.13308824
0.13235294 0.13235294 0.13235294
0.13345588 0.13345588 0.13345588
0.13921569 0.13921569 0.13921569
0.1495098 0.1495098 0.1495098
0.16372549 0.16372549 0.16372549
0.17855392 0.17855392 0.17855392
0.19430147 0.19430147 0.19430147
0.20955882 0.20955882 0.20955882
0.22352941 0.22352941 0.22352941
0.24056373 0.24056373 0.24056373
0.25931373 0.25931373 0.25931373
0.27745098 0.27745098 0.27745098
0.30441176 0.30441176 0.30441176
0.33137255 0.33137255 0.33137255
0.3622549 0.3622549 0.3622549
0.39313725 0.39313725 0.39313725
0.42401961 0.42401961 0.42401961
0.45490196 0.45490196 0.45490196
0.48823529 0.48823529 0.48823529
0.51666667 0.51666667 0.51666667
0.14901961 0.14901961 0.14901961
0.15294118 0.15294118 0.15294118
0.15686275 0.15686275 0.15686275
0.16078431 0.16078431 0.16078431
0.15686275 0.15686275 0.15686275
0.15686275 0.15686275 0.15686275
0.16078431 0.16078431 0.16078431
0.16617647 0.16617647 0.16617647
0.17647059 0.17647059 0.17647059
0.19068627 0.19068627 0.19068627
0.20490196 0.20490196 0.20490196
0.21911765 0.21911765 0.21911765
0.23333333 0.23333333 0.23333333
0.24754902 0.24754902 0.24754902
0.26176471 0.26176471 0.26176471
0.27990196 0.27990196 0.27990196
0.29803922 0.29803922 0.29803922
0.32254902 0.32254902 0.32254902
0.35196078 0.35196078 0.35196078
0.38284314 0.38284314 0.38284314
0.41372549 0.41372549 0.41372549
0.44460784 0.44460784 0.44460784
0.4754902 0.4754902 0.4754902
0.50637255 0.50637255 0.50637255
0.52941176 0.52941176 0.52941176
0.17598039 0.17598039 0.17598039
0.17745098 0.17745098 0.17745098
0.18137255 0.18137255 0.18137255
0.18382353 0.18382353 0.18382353
0.18137255 0.18137255 0.18137255
0.18400735 0.18400735 0.18400735
0.1877451 0.1877451 0.1877451
0.19460784 0.19460784 0.19460784
0.20735294 0.20735294 0.20735294
0.21856618 0.21856618 0.21856618
0.23186275 0.23186275 0.23186275
0.24362745 0.24362745 0.24362745
0.25710784 0.25710784 0.25710784
0.27077206 0.27077206 0.27077206
0.28590686 0.28590686 0.28590686
0.30196078 0.30196078 0.30196078
0.31862745 0.31862745 0.31862745
0.34313725 0.34313725 0.34313725
0.37193627 0.37193627 0.37193627
0.3995098 0.3995098 0.3995098
0.43039216 0.43039216 0.43039216
0.46127451 0.46127451 0.46127451
0.49215686 0.49215686 0.49215686
0.52303922 0.52303922 0.52303922
0.54362745 0.54362745 0.54362745
0.20196078 0.20196078 0.20196078
0.20196078 0.20196078 0.20196078
0.20367647 0.20367647 0.20367647
0.2067402 0.2067402 0.2067402
0.20686275 0.20686275 0.20686275
0.20992647 0.20992647 0.20992647
0.21691176 0.21691176 0.21691176
0.22303922 0.22303922 0.22303922
0.23431373 0.23431373 0.23431373
0.24460784 0.24460784 0.24460784
0.25882353 0.25882353 0.25882353
0.27169118 0.27169118 0.27169118
0.28480392 0.28480392 0.28480392
0.29791667 0.29791667 0.29791667
0.31397059 0.31397059 0.31397059
0.32990196 0.32990196 0.32990196
0.34411765 0.34411765 0.34411765
0.36470588 0.36470588 0.36470588
0.38921569 0.38921569 0.38921569
0.42009804 0.42009804 0.42009804
0.45 0.45 0.45
0.48088235 0.48088235 0.48088235
0.51176471 0.51176471 0.51176471
0.53933824 0.53933824 0.53933824
0.55784314 0.55784314 0.55784314
0.22598039 0.22598039 0.22598039
0.22647059 0.22647059 0.22647059
0.22732843 0.22732843 0.22732843
0.23039216 0.23039216 0.23039216
0.23382353 0.23382353 0.23382353
0.23780637 0.23780637 0.23780637
0.24460784 0.24460784 0.24460784
0.25098039 0.25098039 0.25098039
0.26127451 0.26127451 0.26127451
0.27205882 0.27205882 0.27205882
0.28590686 0.28590686 0.28590686
0.3 0.3 0.3
0.31421569 0.31421569 0.31421569
0.32886029 0.32886029 0.32886029
0.34558824 0.34558824 0.34558824
0.36078431 0.36078431 0.36078431
0.375 0.375 0.375
0.39166667 0.39166667 0.39166667
0.4127451 0.4127451 0.4127451
0.44068627 0.44068627 0.44068627
0.46764706 0.46764706 0.46764706
0.49852941 0.49852941 0.49852941
0.52941176 0.52941176 0.52941176
0.55667892 0.55667892 0.55667892
0.5754902 0.5754902 0.5754902
0.25098039 0.25098039 0.25098039
0.25220588 0.25220588 0.25220588
0.25343137 0.25343137 0.25343137
0.25661765 0.25661765 0.25661765
0.26078431 0.26078431 0.26078431
0.26519608 0.26519608 0.26519608
0.27205882 0.27205882 0.27205882
0.28186275 0.28186275 0.28186275
0.29215686 0.29215686 0.29215686
0.30367647 0.30367647 0.30367647
0.31715686 0.31715686 0.31715686
0.33259804 0.33259804 0.33259804
0.34803922 0.34803922 0.34803922
0.36348039 0.36348039 0.36348039
0.37892157 0.37892157 0.37892157
0.39166667 0.39166667 0.39166667
0.40588235 0.40588235 0.40588235
0.42254902 0.42254902 0.42254902
0.43921569 0.43921569 0.43921569
0.46176471 0.46176471 0.46176471
0.48823529 0.48823529 0.48823529
0.51911765 0.51911765 0.51911765
0.55 0.55 0.55
0.5754902 0.5754902 0.5754902
0.59215686 0.59215686 0.59215686
0.28431373 0.28431373 0.28431373
0.28645833 0.28645833 0.28645833
0.28823529 0.28823529 0.28823529
0.29215686 0.29215686 0.29215686
0.29607843 0.29607843 0.29607843
0.3004902 0.3004902 0.3004902
0.30784314 0.30784314 0.30784314
0.31697304 0.31697304 0.31697304
0.32696078 0.32696078 0.32696078
0.3377451 0.3377451 0.3377451
0.35281863 0.35281863 0.35281863
0.36917892 0.36917892 0.36917892
0.38210784 0.38210784 0.38210784
0.39810049 0.39810049 0.39810049
0.4122549 0.4122549 0.4122549
0.42647059 0.42647059 0.42647059
0.4372549 0.4372549 0.4372549
0.4536152 0.4536152 0.4536152
0.47009804 0.47009804 0.47009804
0.49068627 0.49068627 0.49068627
0.5129902 0.5129902 0.5129902
0.54019608 0.54019608 0.54019608
0.57058824 0.57058824 0.57058824
0.59607843 0.59607843 0.59607843
0.6127451 0.6127451 0.6127451
0.3254902 0.3254902 0.3254902
0.32904412 0.32904412 0.32904412
0.33014706 0.33014706 0.33014706
0.33333333 0.33333333 0.33333333
0.3372549 0.3372549 0.3372549
0.34166667 0.34166667 0.34166667
0.34803922 0.34803922 0.34803922
0.35441176 0.35441176 0.35441176
0.36470588 0.36470588 0.36470588
0.37561275 0.37561275 0.37561275
0.38946078 0.38946078 0.38946078
0.40343137 0.40343137 0.40343137
0.41813725 0.41813725 0.41813725
0.43284314 0.43284314 0.43284314
0.44681373 0.44681373 0.44681373
0.45735294 0.45735294 0.45735294
0.47156863 0.47156863 0.47156863
0.48762255 0.48762255 0.48762255
0.50465686 0.50465686 0.50465686
0.52156863 0.52156863 0.52156863
0.54215686 0.54215686 0.54215686
0.56678922 0.56678922 0.56678922
0.59436275 0.59436275 0.59436275
0.61666667 0.61666667 0.61666667
0.63333333 0.63333333 0.63333333
0.37058824 0.37058824 0.37058824
0.37150735 0.37150735 0.37150735
0.3745098 0.3745098 0.3745098
0.3745098 0.3745098 0.3745098
0.37843137 0.37843137 0.37843137
0.3841299 0.3841299 0.3841299
0.39019608 0.39019608 0.39019608
0.39650735 0.39650735 0.39650735
0.40196078 0.40196078 0.40196078
0.41378676 0.41378676 0.41378676
0.42647059 0.42647059 0.42647059
0.44050245 0.44050245 0.44050245
0.45343137 0.45343137 0.45343137
0.46764706 0.46764706 0.46764706
0.47904412 0.47904412 0.47904412
0.49215686 0.49215686 0.49215686
0.50392157 0.50392157 0.50392157
0.51966912 0.51966912 0.51966912
0.53688725 0.53688725 0.53688725
0.55637255 0.55637255 0.55637255
0.57573529 0.57573529 0.57573529
0.59754902 0.59754902 0.59754902
0.61997549 0.61997549 0.61997549
0.64117647 0.64117647 0.64117647
0.65539216 0.65539216 0.65539216
0.41568627 0.41568627 0.41568627
0.41568627 0.41568627 0.41568627
0.41960784 0.41960784 0.41960784
0.41960784 0.41960784 0.41960784
0.42352941 0.42352941 0.42352941
0.42794118 0.42794118 0.42794118
0.43431373 0.43431373 0.43431373
0.43921569 0.43921569 0.43921569
0.44313725 0.44313725 0.44313725
0.45343137 0.45343137 0.45343137
0.46372549 0.46372549 0.46372549
0.47794118 0.47794118 0.47794118
0.48823529 0.48823529 0.48823529
0.50245098 0.50245098 0.50245098
0.5127451 0.5127451 0.5127451
0.5245098 0.5245098 0.5245098
0.5372549 0.5372549 0.5372549
0.55392157 0.55392157 0.55392157
0.57058824 0.57058824 0.57058824
0.5872549 0.5872549 0.5872549
0.60784314 0.60784314 0.60784314
0.62843137 0.62843137 0.62843137
0.64509804 0.64509804 0.64509804
0.66568627 0.66568627 0.66568627
0.67843137 0.67843137 0.67843137
0.46078431 0.46078431 0.46078431
0.46323529 0.46323529 0.46323529
0.46323529 0.46323529 0.46323529
0.46452206 0.46452206 0.46452206
0.46789216 0.46789216 0.46789216
0.47285539 0.47285539 0.47285539
0.47830882 0.47830882 0.47830882
0.48339461 0.48339461 0.48339461
0.48823529 0.48823529 0.48823529
0.49460784 0.49460784 0.49460784
0.50490196 0.50490196 0.50490196
0.51519608 0.51519608 0.51519608
0.5254902 0.5254902 0.5254902
0.53596814 0.53596814 0.53596814
0.54754902 0.54754902 0.54754902
0.55784314 0.55784314 0.55784314
0.57205882 0.57205882 0.57205882
0.58627451 0.58627451 0.58627451
0.60330882 0.60330882 0.60330882
0.62077206 0.62077206 0.62077206
0.6375 0.6375 0.6375
0.65508578 0.65508578 0.65508578
0.67205882 0.67205882 0.67205882
0.68964461 0.68964461 0.68964461
0.70294118 0.70294118 0.70294118
0.50980392 0.50980392 0.50980392
0.50980392 0.50980392 0.50980392
0.50980392 0.50980392 0.50980392
0.50980392 0.50980392 0.50980392
0.5122549 0.5122549 0.5122549
0.51776961 0.51776961 0.51776961
0.52230392 0.52230392 0.52230392
0.52696078 0.52696078 0.52696078
0.53333333 0.53333333 0.53333333
0.53615196 0.53615196 0.53615196
0.54509804 0.54509804 0.54509804
0.55245098 0.55245098 0.55245098
0.5627451 0.5627451 0.5627451
0.57205882 0.57205882 0.57205882
0.58235294 0.58235294 0.58235294
0.59264706 0.59264706 0.59264706
0.60392157 0.60392157 0.60392157
0.61997549 0.61997549 0.61997549
0.63529412 0.63529412 0.63529412
0.6495098 0.6495098 0.6495098
0.66568627 0.66568627 0.66568627
0.68223039 0.68223039 0.68223039
0.69901961 0.69901961 0.69901961
0.71531863 0.71531863 0.71531863
0.72843137 0.72843137 0.72843137
0.55833333 0.55833333 0.55833333
0.55618873 0.55618873 0.55618873
0.55490196 0.55490196 0.55490196
0.55490196 0.55490196 0.55490196
0.55857843 0.55857843 0.55857843
0.56231618 0.56231618 0.56231618
0.56654412 0.56654412 0.56654412
0.57058824 0.57058824 0.57058824
0.5745098 0.5745098 0.5745098
0.58057598 0.58057598 0.58057598
0.58627451 0.58627451 0.58627451
0.59362745 0.59362745 0.59362745
0.6 0.6 0.6
0.6098652 0.6098652 0.6098652
0.61715686 0.61715686 0.61715686
0.62745098 0.62745098 0.62745098
0.6377451 0.6377451 0.6377451
0.65196078 0.65196078 0.65196078
0.66617647 0.66617647 0.66617647
0.68039216 0.68039216 0.68039216
0.69460784 0.69460784 0.69460784
0.70974265 0.70974265 0.70974265
0.72610294 0.72610294 0.72610294
0.74136029 0.74136029 0.74136029
0.75539216 0.75539216 0.75539216
0.60588235 0.60588235 0.60588235
0.60465686 0.60465686 0.60465686
0.60196078 0.60196078 0.60196078
0.60196078 0.60196078 0.60196078
0.60490196 0.60490196 0.60490196
0.60808824 0.60808824 0.60808824
0.61176471 0.61176471 0.61176471
0.61642157 0.61642157 0.61642157
0.61960784 0.61960784 0.61960784
0.62352941 0.62352941 0.62352941
0.62745098 0.62745098 0.62745098
0.63088235 0.63088235 0.63088235
0.6372549 0.6372549 0.6372549
0.64754902 0.64754902 0.64754902
0.65588235 0.65588235 0.65588235
0.66421569 0.66421569 0.66421569
0.6745098 0.6745098 0.6745098
0.68602941 0.68602941 0.68602941
0.69754902 0.69754902 0.69754902
0.71127451 0.71127451 0.71127451
0.7254902 0.7254902 0.7254902
0.74019608 0.74019608 0.74019608
0.75686275 0.75686275 0.75686275
0.77205882 0.77205882 0.77205882
0.78235294 0.78235294 0.78235294
0.65294118 0.65294118 0.65294118
0.65079657 0.65079657 0.65079657
0.64901961 0.64901961 0.64901961
0.64901961 0.64901961 0.64901961
0.64926471 0.64926471 0.64926471
0.65300245 0.65300245 0.65300245
0.65723039 0.65723039 0.65723039
0.66096814 0.66096814 0.66096814
0.66470588 0.66470588 0.66470588
0.66734069 0.66734069 0.66734069
0.66862745 0.66862745 0.66862745
0.66862745 0.66862745 0.66862745
0.67843137 0.67843137 0.67843137
0.68480392 0.68480392 0.68480392
0.69509804 0.69509804 0.69509804
0.70539216 0.70539216 0.70539216
0.71519608 0.71519608 0.71519608
0.72205882 0.72205882 0.72205882
0.73235294 0.73235294 0.73235294
0.74564951 0.74564951 0.74564951
0.75857843 0.75857843 0.75857843
0.77150735 0.77150735 0.77150735
0.7877451 0.7877451 0.7877451
0.8004902 0.8004902 0.8004902
0.81323529 0.81323529 0.81323529
0.69803922 0.69803922 0.69803922
0.69411765 0.69411765 0.69411765
0.69019608 0.69019608 0.69019608
0.69019608 0.69019608 0.69019608
0.69411765 0.69411765 0.69411765
0.69803922 0.69803922 0.69803922
0.70196078 0.70196078 0.70196078
0.70588235 0.70588235 0.70588235
0.70980392 0.70980392 0.70980392
0.70980392 0.70980392 0.70980392
0.70882353 0.70882353 0.70882353
0.70931373 0.70931373 0.70931373
0.71568627 0.71568627 0.71568627
0.72598039 0.72598039 0.72598039
0.73627451 0.73627451 0.73627451
0.74656863 0.74656863 0.74656863
0.75294118 0.75294118 0.75294118
0.76323529 0.76323529 0.76323529
0.76960784 0.76960784 0.76960784
0.77990196 0.77990196 0.77990196
0.79117647 0.79117647 0.79117647
0.80539216 0.80539216 0.80539216
0.81936275 0.81936275 0.81936275
0.83382353 0.83382353 0.83382353
0.84411765 0.84411765 0.84411765
0.7377451 0.7377451 0.7377451
0.73382353 0.73382353 0.73382353
0.72990196 0.72990196 0.72990196
0.72990196 0.72990196 0.72990196
0.73186275 0.73186275 0.73186275
0.7377451 0.7377451 0.7377451
0.74276961 0.74276961 0.74276961
0.74852941 0.74852941 0.74852941
0.75245098 0.75245098 0.75245098
0.75245098 0.75245098 0.75245098
0.74705882 0.74705882 0.74705882
0.74705882 0.74705882 0.74705882
0.75686275 0.75686275 0.75686275
0.76715686 0.76715686 0.76715686
0.77745098 0.77745098 0.77745098
0.7877451 0.7877451 0.7877451
0.79411765 0.79411765 0.79411765
0.8004902 0.8004902 0.8004902
0.80833333 0.80833333 0.80833333
0.81568627 0.81568627 0.81568627
0.82598039 0.82598039 0.82598039
0.83676471 0.83676471 0.83676471
0.8504902 0.8504902 0.8504902
0.86470588 0.86470588 0.86470588
0.875 0.875 0.875
0.76470588 0.76470588 0.76470588
0.7622549 0.7622549 0.7622549
0.75686275 0.75686275 0.75686275
0.75686275 0.75686275 0.75686275
0.75882353 0.75882353 0.75882353
0.76470588 0.76470588 0.76470588
0.77156863 0.77156863 0.77156863
0.77794118 0.77794118 0.77794118
0.78823529 0.78823529 0.78823529
0.78431373 0.78431373 0.78431373
0.77941176 0.77941176 0.77941176
0.77990196 0.77990196 0.77990196
0.78627451 0.78627451 0.78627451
0.8004902 0.8004902 0.8004902
0.81764706 0.81764706 0.81764706
0.81960784 0.81960784 0.81960784
0.82352941 0.82352941 0.82352941
0.82745098 0.82745098 0.82745098
0.83235294 0.83235294 0.83235294
0.83872549 0.83872549 0.83872549
0.84901961 0.84901961 0.84901961
0.86323529 0.86323529 0.86323529
0.87647059 0.87647059 0.87647059
0.8877451 0.8877451 0.8877451
0.89803922 0.89803922 0.89803922
0.011764706 0.011764706 0.011764706
0.0078431373 0.0078431373 0.0078431373
0.0099264706 0.0099264706 0.0099264706
0.019117647 0.019117647 0.019117647
0.029411765 0.029411765 0.029411765
0.035477941 0.035477941 0.035477941
0.042156863 0.042156863 0.042156863
0.048529412 0.048529412 0.048529412
0.054901961 0.054901961 0.054901961
0.065196078 0.065196078 0.065196078
0.077941176 0.077941176 0.077941176
0.090379902 0.090379902 0.090379902
0.096568627 0.096568627 0.096568627
0.099203431 0.099203431 0.099203431
0.10477941 0.10477941 0.10477941
0.12303922 0.12303922 0.12303922
0.15539216 0.15539216 0.15539216
0.19411765 0.19411765 0.19411765
0.23529412 0.23529412 0.23529412
0.27647059 0.27647059 0.27647059
0.31495098 0.31495098 0.31495098
0.35079657 0.35079657 0.35079657
0.38713235 0.38713235 0.38713235
0.42101716 0.42101716 0.42101716
0.45343137 0.45343137 0.45343137
0.017218137 0.017218137 0.017218137
0.016873468 0.016873468 0.016873468
0.019117647 0.019117647 0.019117647
0.025681679 0.025681679 0.025681679
0.034099265 0.034099265 0.034099265
0.04185049 0.04185049 0.04185049
0.046001838 0.046001838 0.046001838
0.053982843 0.053982843 0.053982843
0.060355392 0.060355392 0.060355392
0.066727941 0.066727941 0.066727941
0.077941176 0.077941176 0.077941176
0.090379902 0.090379902 0.090379902
0.098253676 0.098253676 0.098253676
0.10699295 0.10699295 0.10699295
0.11862745 0.11862745 0.11862745
0.13520987 0.13520987 0.13520987
0.1651348 0.1651348 0.1651348
0.20198376 0.20198376 0.20198376
0.24143689 0.24143689 0.24143689
0.28192402 0.28192402 0.28192402
0.32009804 0.32009804 0.32009804
0.35617341 0.35617341 0.35617341
0.39212623 0.39212623 0.39212623
0.42624081 0.42624081 0.42624081
0.45490196 0.45490196 0.45490196
0.023039216 0.023039216 0.023039216
0.025490196 0.025490196 0.025490196
0.031403186 0.031403186 0.031403186
0.038235294 0.038235294 0.038235294
0.043382353 0.043382353 0.043382353
0.048268995 0.048268995 0.048268995
0.053339461 0.053339461 0.053339461
