site/assets/luts/sha256-b0244e372b50bec13c2762fcce0d0646dc027046ed75ea9bd39c27ad5ff6412c.cube
# LUTr-Schema-Version: 2
# LUTr-ID: sha256-b0244e372b50bec13c2762fcce0d0646dc027046ed75ea9bd39c27ad5ff6412c
# LUTr-Title: kodak t-max 3200
# LUTr-Collection: Natron HaldCLUT
# LUTr-Collection-ID: natron-haldclut-presets
# LUTr-Source: https://github.com/NatronGitHub/clut
# LUTr-Retrieved: 2026-07-27
# LUTr-Source-File: submissions/natron-haldclut-presets/bw/kodak_t-max_3200.png
# LUTr-Source-Format: HALD-PNG
# LUTr-Source-SHA256: b0244e372b50bec13c2762fcce0d0646dc027046ed75ea9bd39c27ad5ff6412c
# LUTr-License: CC-BY-SA-4.0
# LUTr-License-URL: https://github.com/NatronGitHub/clut#license
# LUTr-License-Basis: repo-license-file
# LUTr-Transform-Class: film-emulation
# LUTr-Tags: creative, film, film-emulation, hald-clut, natron, png, cube
# LUTr-Input-Color-Space: srgb
# LUTr-Input-Gamut: rec709
# LUTr-Input-Transfer: srgb
# LUTr-Output-Color-Space: srgb
# LUTr-Output-Gamut: rec709
# LUTr-Output-Transfer: srgb
# LUTr-Color-Space-Confidence: assumed-display-referred
# LUTr-Domain-Normalized: true
# LUTr-Shaper: none
# LUTr-Original-Grid: 64x64x64
# LUTr-Conversion-Grid: 25x25x25
# LUTr-Conversion-Interpolation: trilinear
# LUTr-Conversion-Method: HALD-PNG LUT image decoded at 16-bit and sampled to 25x25x25 3D CUBE
# LUTr-Conversion-Tool: LUTr scripts/convert-all-to-cube.mjs 2.0.0
# LUTr-Conversion-Date: 2026-07-27
# LUTr-Note: Preserve this metadata and the upstream license notices when redistributing.
TITLE "kodak t-max 3200"
LUT_3D_SIZE 25
DOMAIN_MIN 0 0 0
DOMAIN_MAX 1 1 1
0.011764706 0.011764706 0.011764706
0.011764706 0.011764706 0.011764706
0.0078431373 0.0078431373 0.0078431373
0.0078431373 0.0078431373 0.0078431373
0.0039215686 0.0039215686 0.0039215686
0.00049019608 0.00049019608 0.00049019608
0.014705882 0.014705882 0.014705882
0.021078431 0.021078431 0.021078431
0.031372549 0.031372549 0.031372549
0.035294118 0.035294118 0.035294118
0.043137255 0.043137255 0.043137255
0.050490196 0.050490196 0.050490196
0.054901961 0.054901961 0.054901961
0.058823529 0.058823529 0.058823529
0.062745098 0.062745098 0.062745098
0.066666667 0.066666667 0.066666667
0.062745098 0.062745098 0.062745098
0.062254902 0.062254902 0.062254902
0.096078431 0.096078431 0.096078431
0.12401961 0.12401961 0.12401961
0.14313725 0.14313725 0.14313725
0.15294118 0.15294118 0.15294118
0.15980392 0.15980392 0.15980392
0.16617647 0.16617647 0.16617647
0.16862745 0.16862745 0.16862745
0.024509804 0.024509804 0.024509804
0.024509804 0.024509804 0.024509804
0.024509804 0.024509804 0.024509804
0.024509804 0.024509804 0.024509804
0.024509804 0.024509804 0.024509804
0.027144608 0.027144608 0.027144608
0.033823529 0.033823529 0.033823529
0.041115196 0.041115196 0.041115196
0.048039216 0.048039216 0.048039216
0.054411765 0.054411765 0.054411765
0.060784314 0.060784314 0.060784314
0.067156863 0.067156863 0.067156863
0.072794118 0.072794118 0.072794118
0.078125 0.078125 0.078125
0.082965686 0.082965686 0.082965686
0.089705882 0.089705882 0.089705882
0.089705882 0.089705882 0.089705882
0.095526961 0.095526961 0.095526961
0.11617647 0.11617647 0.11617647
0.14491422 0.14491422 0.14491422
0.16495098 0.16495098 0.16495098
0.17677696 0.17677696 0.17677696
0.19068627 0.19068627 0.19068627
0.19803922 0.19803922 0.19803922
0.20196078 0.20196078 0.20196078
0.045098039 0.045098039 0.045098039
0.046078431 0.046078431 0.046078431
0.049019608 0.049019608 0.049019608
0.049019608 0.049019608 0.049019608
0.049509804 0.049509804 0.049509804
0.053063725 0.053063725 0.053063725
0.059803922 0.059803922 0.059803922
0.066176471 0.066176471 0.066176471
0.07254902 0.07254902 0.07254902
0.077083333 0.077083333 0.077083333
0.085294118 0.085294118 0.085294118
0.091789216 0.091789216 0.091789216
0.098529412 0.098529412 0.098529412
0.10404412 0.10404412 0.10404412
0.11102941 0.11102941 0.11102941
0.11813725 0.11813725 0.11813725
0.12058824 0.12058824 0.12058824
0.12794118 0.12794118 0.12794118
0.14705882 0.14705882 0.14705882
0.17401961 0.17401961 0.17401961
0.19362745 0.19362745 0.19362745
0.21139706 0.21139706 0.21139706
0.22622549 0.22622549 0.22622549
0.23676471 0.23676471 0.23676471
0.24313725 0.24313725 0.24313725
0.069607843 0.069607843 0.069607843
0.069607843 0.069607843 0.069607843
0.073039216 0.073039216 0.073039216
0.073468137 0.073468137 0.073468137
0.073529412 0.073529412 0.073529412
0.077022059 0.077022059 0.077022059
0.083946078 0.083946078 0.083946078
0.090502451 0.090502451 0.090502451
0.097058824 0.097058824 0.097058824
0.10343137 0.10343137 0.10343137
0.11237745 0.11237745 0.11237745
0.11960784 0.11960784 0.11960784
0.12598039 0.12598039 0.12598039
0.13235294 0.13235294 0.13235294
0.13884804 0.13884804 0.13884804
0.14773284 0.14773284 0.14773284
0.15147059 0.15147059 0.15147059
0.16176471 0.16176471 0.16176471
0.18088235 0.18088235 0.18088235
0.20490196 0.20490196 0.20490196
0.22598039 0.22598039 0.22598039
0.24650735 0.24650735 0.24650735
0.26286765 0.26286765 0.26286765
0.2745098 0.2745098 0.2745098
0.28039216 0.28039216 0.28039216
0.098039216 0.098039216 0.098039216
0.098039216 0.098039216 0.098039216
0.1 0.1 0.1
0.1 0.1 0.1
0.10098039 0.10098039 0.10098039
0.10416667 0.10416667 0.10416667
0.11078431 0.11078431 0.11078431
0.11715686 0.11715686 0.11715686
0.12352941 0.12352941 0.12352941
0.13259804 0.13259804 0.13259804
0.13970588 0.13970588 0.13970588
0.14656863 0.14656863 0.14656863
0.15490196 0.15490196 0.15490196
0.1629902 0.1629902 0.1629902
0.16960784 0.16960784 0.16960784
0.17598039 0.17598039 0.17598039
0.18235294 0.18235294 0.18235294
0.19264706 0.19264706 0.19264706
0.21029412 0.21029412 0.21029412
0.23235294 0.23235294 0.23235294
0.25490196 0.25490196 0.25490196
0.2754902 0.2754902 0.2754902
0.29411765 0.29411765 0.29411765
0.31127451 0.31127451 0.31127451
0.32156863 0.32156863 0.32156863
0.12696078 0.12696078 0.12696078
0.12665441 0.12665441 0.12665441
0.12659314 0.12659314 0.12659314
0.12696078 0.12696078 0.12696078
0.12696078 0.12696078 0.12696078
0.13088235 0.13088235 0.13088235
0.13737745 0.13737745 0.13737745
0.14411765 0.14411765 0.14411765
0.15392157 0.15392157 0.15392157
0.16078431 0.16078431 0.16078431
0.16715686 0.16715686 0.16715686
0.17745098 0.17745098 0.17745098
0.18382353 0.18382353 0.18382353
0.19368873 0.19368873 0.19368873
0.19754902 0.19754902 0.19754902
0.20294118 0.20294118 0.20294118
0.20931373 0.20931373 0.20931373
0.21960784 0.21960784 0.21960784
0.23872549 0.23872549 0.23872549
0.26231618 0.26231618 0.26231618
0.28382353 0.28382353 0.28382353
0.30441176 0.30441176 0.30441176
0.32463235 0.32463235 0.32463235
0.34166667 0.34166667 0.34166667
0.35882353 0.35882353 0.35882353
0.15784314 0.15784314 0.15784314
0.15784314 0.15784314 0.15784314
0.15686275 0.15686275 0.15686275
0.15428922 0.15428922 0.15428922
0.15588235 0.15588235 0.15588235
0.15833333 0.15833333 0.15833333
0.16470588 0.16470588 0.16470588
0.175 0.175 0.175
0.18137255 0.18137255 0.18137255
0.18982843 0.18982843 0.18982843
0.19803922 0.19803922 0.19803922
0.20833333 0.20833333 0.20833333
0.21862745 0.21862745 0.21862745
0.22757353 0.22757353 0.22757353
0.23210784 0.23210784 0.23210784
0.23566176 0.23566176 0.23566176
0.24019608 0.24019608 0.24019608
0.24656863 0.24656863 0.24656863
0.26593137 0.26593137 0.26593137
0.28982843 0.28982843 0.28982843
0.3122549 0.3122549 0.3122549
0.33529412 0.33529412 0.33529412
0.35588235 0.35588235 0.35588235
0.37647059 0.37647059 0.37647059
0.39313725 0.39313725 0.39313725
0.19411765 0.19411765 0.19411765
0.19411765 0.19411765 0.19411765
0.19411765 0.19411765 0.19411765
0.19411765 0.19411765 0.19411765
0.19411765 0.19411765 0.19411765
0.19411765 0.19411765 0.19411765
0.1995098 0.1995098 0.1995098
0.20588235 0.20588235 0.20588235
0.21372549 0.21372549 0.21372549
0.22009804 0.22009804 0.22009804
0.22892157 0.22892157 0.22892157
0.23921569 0.23921569 0.23921569
0.2495098 0.2495098 0.2495098
0.25980392 0.25980392 0.25980392
0.26617647 0.26617647 0.26617647
0.26954657 0.26954657 0.26954657
0.27254902 0.27254902 0.27254902
0.27738971 0.27738971 0.27738971
0.29693627 0.29693627 0.29693627
0.32107843 0.32107843 0.32107843
0.34558824 0.34558824 0.34558824
0.36795343 0.36795343 0.36795343
0.39068627 0.39068627 0.39068627
0.41035539 0.41035539 0.41035539
0.42009804 0.42009804 0.42009804
0.23529412 0.23529412 0.23529412
0.23529412 0.23529412 0.23529412
0.23529412 0.23529412 0.23529412
0.23529412 0.23529412 0.23529412
0.23529412 0.23529412 0.23529412
0.23529412 0.23529412 0.23529412
0.23529412 0.23529412 0.23529412
0.24068627 0.24068627 0.24068627
0.24705882 0.24705882 0.24705882
0.25343137 0.25343137 0.25343137
0.26372549 0.26372549 0.26372549
0.27009804 0.27009804 0.27009804
0.28039216 0.28039216 0.28039216
0.29068627 0.29068627 0.29068627
0.29705882 0.29705882 0.29705882
0.30343137 0.30343137 0.30343137
0.31372549 0.31372549 0.31372549
0.32401961 0.32401961 0.32401961
0.33823529 0.33823529 0.33823529
0.35931373 0.35931373 0.35931373
0.38039216 0.38039216 0.38039216
0.40490196 0.40490196 0.40490196
0.4254902 0.4254902 0.4254902
0.44460784 0.44460784 0.44460784
0.45490196 0.45490196 0.45490196
0.28039216 0.28039216 0.28039216
0.27738971 0.27738971 0.27738971
0.27647059 0.27647059 0.27647059
0.27647059 0.27647059 0.27647059
0.27573529 0.27573529 0.27573529
0.27254902 0.27254902 0.27254902
0.27254902 0.27254902 0.27254902
0.27647059 0.27647059 0.27647059
0.28186275 0.28186275 0.28186275
0.29068627 0.29068627 0.29068627
0.29816176 0.29816176 0.29816176
0.30520833 0.30520833 0.30520833
0.3125 0.3125 0.3125
0.31911765 0.31911765 0.31911765
0.32977941 0.32977941 0.32977941
0.34607843 0.34607843 0.34607843
0.36127451 0.36127451 0.36127451
0.3754902 0.3754902 0.3754902
0.38578431 0.38578431 0.38578431
0.39969363 0.39969363 0.39969363
0.41838235 0.41838235 0.41838235
0.44215686 0.44215686 0.44215686
0.4627451 0.4627451 0.4627451
0.47794118 0.47794118 0.47794118
0.48578431 0.48578431 0.48578431
0.32254902 0.32254902 0.32254902
0.32156863 0.32156863 0.32156863
0.32083333 0.32083333 0.32083333
0.31764706 0.31764706 0.31764706
0.31764706 0.31764706 0.31764706
0.31862745 0.31862745 0.31862745
0.31862745 0.31862745 0.31862745
0.32291667 0.32291667 0.32291667
0.33039216 0.33039216 0.33039216
0.33676471 0.33676471 0.33676471
0.34313725 0.34313725 0.34313725
0.35085784 0.35085784 0.35085784
0.35784314 0.35784314 0.35784314
0.3622549 0.3622549 0.3622549
0.3754902 0.3754902 0.3754902
0.39460784 0.39460784 0.39460784
0.40882353 0.40882353 0.40882353
0.42303922 0.42303922 0.42303922
0.43333333 0.43333333 0.43333333
0.44620098 0.44620098 0.44620098
0.45931373 0.45931373 0.45931373
0.47941176 0.47941176 0.47941176
0.49926471 0.49926471 0.49926471
0.51090686 0.51090686 0.51090686
0.51666667 0.51666667 0.51666667
0.37009804 0.37009804 0.37009804
0.36666667 0.36666667 0.36666667
0.3627451 0.3627451 0.3627451
0.3627451 0.3627451 0.3627451
0.36617647 0.36617647 0.36617647
0.36966912 0.36966912 0.36966912
0.37267157 0.37267157 0.37267157
0.3776348 0.3776348 0.3776348
0.38529412 0.38529412 0.38529412
0.39166667 0.39166667 0.39166667
0.39840686 0.39840686 0.39840686
0.40533088 0.40533088 0.40533088
0.4129902 0.4129902 0.4129902
0.41764706 0.41764706 0.41764706
0.43051471 0.43051471 0.43051471
0.44362745 0.44362745 0.44362745
0.46029412 0.46029412 0.46029412
0.47107843 0.47107843 0.47107843
0.48480392 0.48480392 0.48480392
0.49509804 0.49509804 0.49509804
0.50563725 0.50563725 0.50563725
0.52058824 0.52058824 0.52058824
0.53480392 0.53480392 0.53480392
0.54491422 0.54491422 0.54491422
0.54754902 0.54754902 0.54754902
0.41764706 0.41764706 0.41764706
0.41519608 0.41519608 0.41519608
0.41372549 0.41372549 0.41372549
0.41544118 0.41544118 0.41544118
0.41862745 0.41862745 0.41862745
0.42377451 0.42377451 0.42377451
0.42892157 0.42892157 0.42892157
0.43406863 0.43406863 0.43406863
0.44117647 0.44117647 0.44117647
0.44828431 0.44828431 0.44828431
0.45539216 0.45539216 0.45539216
0.46053922 0.46053922 0.46053922
0.46666667 0.46666667 0.46666667
0.47303922 0.47303922 0.47303922
0.48333333 0.48333333 0.48333333
0.49362745 0.49362745 0.49362745
0.50784314 0.50784314 0.50784314
0.51936275 0.51936275 0.51936275
0.53039216 0.53039216 0.53039216
0.54068627 0.54068627 0.54068627
0.55098039 0.55098039 0.55098039
0.56151961 0.56151961 0.56151961
0.57205882 0.57205882 0.57205882
0.57843137 0.57843137 0.57843137
0.58039216 0.58039216 0.58039216
0.47352941 0.47352941 0.47352941
0.47089461 0.47089461 0.47089461
0.46960784 0.46960784 0.46960784
0.47261029 0.47261029 0.47261029
0.4752451 0.4752451 0.4752451
0.48137255 0.48137255 0.48137255
0.48786765 0.48786765 0.48786765
0.49442402 0.49442402 0.49442402
0.50098039 0.50098039 0.50098039
0.50704657 0.50704657 0.50704657
0.5122549 0.5122549 0.5122549
0.51574755 0.51574755 0.51574755
0.51813725 0.51813725 0.51813725
0.5245098 0.5245098 0.5245098
0.53480392 0.53480392 0.53480392
0.54509804 0.54509804 0.54509804
0.55539216 0.55539216 0.55539216
0.56568627 0.56568627 0.56568627
0.57585784 0.57585784 0.57585784
0.58578431 0.58578431 0.58578431
0.59387255 0.59387255 0.59387255
0.60153186 0.60153186 0.60153186
0.6057598 0.6057598 0.6057598
0.61078431 0.61078431 0.61078431
0.61323529 0.61323529 0.61323529
0.53137255 0.53137255 0.53137255
0.53137255 0.53137255 0.53137255
0.53137255 0.53137255 0.53137255
0.53137255 0.53137255 0.53137255
0.53529412 0.53529412 0.53529412
0.53933824 0.53933824 0.53933824
0.54607843 0.54607843 0.54607843
0.55134804 0.55134804 0.55134804
0.55882353 0.55882353 0.55882353
0.56335784 0.56335784 0.56335784
0.56372549 0.56372549 0.56372549
0.56764706 0.56764706 0.56764706
0.56960784 0.56960784 0.56960784
0.57598039 0.57598039 0.57598039
0.58406863 0.58406863 0.58406863
0.59264706 0.59264706 0.59264706
0.60294118 0.60294118 0.60294118
0.61139706 0.61139706 0.61139706
0.61960784 0.61960784 0.61960784
0.62438725 0.62438725 0.62438725
0.62843137 0.62843137 0.62843137
0.63284314 0.63284314 0.63284314
0.63921569 0.63921569 0.63921569
0.64166667 0.64166667 0.64166667
0.64411765 0.64411765 0.64411765
0.58235294 0.58235294 0.58235294
0.58235294 0.58235294 0.58235294
0.58272059 0.58272059 0.58272059
0.58596814 0.58596814 0.58596814
0.58970588 0.58970588 0.58970588
0.59558824 0.59558824 0.59558824
0.59914216 0.59914216 0.59914216
0.60251225 0.60251225 0.60251225
0.60588235 0.60588235 0.60588235
0.60833333 0.60833333 0.60833333
0.61078431 0.61078431 0.61078431
0.61372549 0.61372549 0.61372549
0.61838235 0.61838235 0.61838235
0.62352941 0.62352941 0.62352941
0.63235294 0.63235294 0.63235294
0.63872549 0.63872549 0.63872549
0.64509804 0.64509804 0.64509804
0.65147059 0.65147059 0.65147059
0.65539216 0.65539216 0.65539216
0.65900735 0.65900735 0.65900735
0.66127451 0.66127451 0.66127451
0.66372549 0.66372549 0.66372549
0.66715686 0.66715686 0.66715686
0.67107843 0.67107843 0.67107843
0.675 0.675 0.675
0.62745098 0.62745098 0.62745098
0.62745098 0.62745098 0.62745098
0.62843137 0.62843137 0.62843137
0.63137255 0.63137255 0.63137255
0.6372549 0.6372549 0.6372549
0.63970588 0.63970588 0.63970588
0.64313725 0.64313725 0.64313725
0.64705882 0.64705882 0.64705882
0.64705882 0.64705882 0.64705882
0.64705882 0.64705882 0.64705882
0.65098039 0.65098039 0.65098039
0.65490196 0.65490196 0.65490196
0.66078431 0.66078431 0.66078431
0.66666667 0.66666667 0.66666667
0.67058824 0.67058824 0.67058824
0.67598039 0.67598039 0.67598039
0.67843137 0.67843137 0.67843137
0.68235294 0.68235294 0.68235294
0.68627451 0.68627451 0.68627451
0.69019608 0.69019608 0.69019608
0.69411765 0.69411765 0.69411765
0.69460784 0.69460784 0.69460784
0.69803922 0.69803922 0.69803922
0.70196078 0.70196078 0.70196078
0.70588235 0.70588235 0.70588235
0.66617647 0.66617647 0.66617647
0.66862745 0.66862745 0.66862745
0.67009804 0.67009804 0.67009804
0.67254902 0.67254902 0.67254902
0.67647059 0.67647059 0.67647059
0.67824755 0.67824755 0.67824755
0.6814951 0.6814951 0.6814951
0.68186275 0.68186275 0.68186275
0.68186275 0.68186275 0.68186275
0.68523284 0.68523284 0.68523284
0.68860294 0.68860294 0.68860294
0.69185049 0.69185049 0.69185049
0.69558824 0.69558824 0.69558824
0.70018382 0.70018382 0.70018382
0.70441176 0.70441176 0.70441176
0.70931373 0.70931373 0.70931373
0.71323529 0.71323529 0.71323529
0.71323529 0.71323529 0.71323529
0.71715686 0.71715686 0.71715686
0.72107843 0.72107843 0.72107843
0.725 0.725 0.725
0.7254902 0.7254902 0.7254902
0.72892157 0.72892157 0.72892157
0.73284314 0.73284314 0.73284314
0.73676471 0.73676471 0.73676471
0.70098039 0.70098039 0.70098039
0.70196078 0.70196078 0.70196078
0.70490196 0.70490196 0.70490196
0.70845588 0.70845588 0.70845588
0.70931373 0.70931373 0.70931373
0.7127451 0.7127451 0.7127451
0.7127451 0.7127451 0.7127451
0.7127451 0.7127451 0.7127451
0.71372549 0.71372549 0.71372549
0.71666667 0.71666667 0.71666667
0.72058824 0.72058824 0.72058824
0.72401961 0.72401961 0.72401961
0.72843137 0.72843137 0.72843137
0.73235294 0.73235294 0.73235294
0.73627451 0.73627451 0.73627451
0.74019608 0.74019608 0.74019608
0.74019608 0.74019608 0.74019608
0.74411765 0.74411765 0.74411765
0.74730392 0.74730392 0.74730392
0.75147059 0.75147059 0.75147059
0.75392157 0.75392157 0.75392157
0.75637255 0.75637255 0.75637255
0.75980392 0.75980392 0.75980392
0.76372549 0.76372549 0.76372549
0.76666667 0.76666667 0.76666667
0.73529412 0.73529412 0.73529412
0.73792892 0.73792892 0.73792892
0.73970588 0.73970588 0.73970588
0.74313725 0.74313725 0.74313725
0.74362745 0.74362745 0.74362745
0.74705882 0.74705882 0.74705882
0.74705882 0.74705882 0.74705882
0.74724265 0.74724265 0.74724265
0.74754902 0.74754902 0.74754902
0.74969363 0.74969363 0.74969363
0.75232843 0.75232843 0.75232843
0.75539216 0.75539216 0.75539216
0.75931373 0.75931373 0.75931373
0.76366422 0.76366422 0.76366422
0.76715686 0.76715686 0.76715686
0.77107843 0.77107843 0.77107843
0.77107843 0.77107843 0.77107843
0.77352941 0.77352941 0.77352941
0.77598039 0.77598039 0.77598039
0.77892157 0.77892157 0.77892157
0.78308824 0.78308824 0.78308824
0.7872549 0.7872549 0.7872549
0.79068627 0.79068627 0.79068627
0.79460784 0.79460784 0.79460784
0.79460784 0.79460784 0.79460784
0.77058824 0.77058824 0.77058824
0.77254902 0.77254902 0.77254902
0.77647059 0.77647059 0.77647059
0.77843137 0.77843137 0.77843137
0.77941176 0.77941176 0.77941176
0.78039216 0.78039216 0.78039216
0.78039216 0.78039216 0.78039216
0.78039216 0.78039216 0.78039216
0.78039216 0.78039216 0.78039216
0.78357843 0.78357843 0.78357843
0.78627451 0.78627451 0.78627451
0.78995098 0.78995098 0.78995098
0.79313725 0.79313725 0.79313725
0.79632353 0.79632353 0.79632353
0.79803922 0.79803922 0.79803922
0.80196078 0.80196078 0.80196078
0.80196078 0.80196078 0.80196078
0.80196078 0.80196078 0.80196078
0.80588235 0.80588235 0.80588235
0.80955882 0.80955882 0.80955882
0.81372549 0.81372549 0.81372549
0.81764706 0.81764706 0.81764706
0.82107843 0.82107843 0.82107843
0.82230392 0.82230392 0.82230392
0.8254902 0.8254902 0.8254902
0.80588235 0.80588235 0.80588235
0.80931373 0.80931373 0.80931373
0.81066176 0.81066176 0.81066176
0.81366422 0.81366422 0.81366422
0.81372549 0.81372549 0.81372549
0.81372549 0.81372549 0.81372549
0.81372549 0.81372549 0.81372549
0.81372549 0.81372549 0.81372549
0.81372549 0.81372549 0.81372549
0.81746324 0.81746324 0.81746324
0.82120098 0.82120098 0.82120098
0.82457108 0.82457108 0.82457108
0.82720588 0.82720588 0.82720588
0.82892157 0.82892157 0.82892157
0.82892157 0.82892157 0.82892157
0.82892157 0.82892157 0.82892157
0.82892157 0.82892157 0.82892157
0.83284314 0.83284314 0.83284314
0.83382353 0.83382353 0.83382353
0.83676471 0.83676471 0.83676471
0.84240196 0.84240196 0.84240196
0.84509804 0.84509804 0.84509804
0.84852941 0.84852941 0.84852941
0.85245098 0.85245098 0.85245098
0.85588235 0.85588235 0.85588235
0.84313725 0.84313725 0.84313725
0.84375 0.84375 0.84375
0.84485294 0.84485294 0.84485294
0.84803922 0.84803922 0.84803922
0.85098039 0.85098039 0.85098039
0.85098039 0.85098039 0.85098039
0.84877451 0.84877451 0.84877451
0.84803922 0.84803922 0.84803922
0.84803922 0.84803922 0.84803922
0.85196078 0.85196078 0.85196078
0.85588235 0.85588235 0.85588235
0.85845588 0.85845588 0.85845588
0.85980392 0.85980392 0.85980392
0.85980392 0.85980392 0.85980392
0.85980392 0.85980392 0.85980392
0.85980392 0.85980392 0.85980392
0.85980392 0.85980392 0.85980392
0.86041667 0.86041667 0.86041667
0.86372549 0.86372549 0.86372549
0.86727941 0.86727941 0.86727941
0.87009804 0.87009804 0.87009804
0.8754902 0.8754902 0.8754902
0.87867647 0.87867647 0.87867647
0.8814951 0.8814951 0.8814951
0.88333333 0.88333333 0.88333333
0.875 0.875 0.875
0.875 0.875 0.875
0.87781863 0.87781863 0.87781863
0.88235294 0.88235294 0.88235294
0.88357843 0.88357843 0.88357843
0.88431373 0.88431373 0.88431373
0.88284314 0.88284314 0.88284314
0.88284314 0.88284314 0.88284314
0.88284314 0.88284314 0.88284314
0.88529412 0.88529412 0.88529412
0.88676471 0.88676471 0.88676471
0.88921569 0.88921569 0.88921569
0.8879902 0.8879902 0.8879902
0.88676471 0.88676471 0.88676471
0.88676471 0.88676471 0.88676471
0.88676471 0.88676471 0.88676471
0.88676471 0.88676471 0.88676471
0.88921569 0.88921569 0.88921569
0.88958333 0.88958333 0.88958333
0.89313725 0.89313725 0.89313725
0.89583333 0.89583333 0.89583333
0.90098039 0.90098039 0.90098039
0.90428922 0.90428922 0.90428922
0.90882353 0.90882353 0.90882353
0.91029412 0.91029412 0.91029412
0.89411765 0.89411765 0.89411765
0.89803922 0.89803922 0.89803922
0.89901961 0.89901961 0.89901961
0.90539216 0.90539216 0.90539216
0.90980392 0.90980392 0.90980392
0.91372549 0.91372549 0.91372549
0.90980392 0.90980392 0.90980392
0.90588235 0.90588235 0.90588235
0.90588235 0.90588235 0.90588235
0.90980392 0.90980392 0.90980392
0.90980392 0.90980392 0.90980392
0.90980392 0.90980392 0.90980392
0.90784314 0.90784314 0.90784314
0.90588235 0.90588235 0.90588235
0.90588235 0.90588235 0.90588235
0.90588235 0.90588235 0.90588235
0.90588235 0.90588235 0.90588235
0.90833333 0.90833333 0.90833333
0.90980392 0.90980392 0.90980392
0.91323529 0.91323529 0.91323529
0.91372549 0.91372549 0.91372549
0.91813725 0.91813725 0.91813725
0.92156863 0.92156863 0.92156863
0.92696078 0.92696078 0.92696078
0.92941176 0.92941176 0.92941176
0.014215686 0.014215686 0.014215686
0.014215686 0.014215686 0.014215686
0.014215686 0.014215686 0.014215686
0.014215686 0.014215686 0.014215686
0.015441176 0.015441176 0.015441176
0.017953431 0.017953431 0.017953431
0.018137255 0.018137255 0.018137255
0.022610294 0.022610294 0.022610294
0.028921569 0.028921569 0.028921569
0.035294118 0.035294118 0.035294118
0.043137255 0.043137255 0.043137255
0.047058824 0.047058824 0.047058824
0.052941176 0.052941176 0.052941176
0.058823529 0.058823529 0.058823529
0.058823529 0.058823529 0.058823529
0.063296569 0.063296569 0.063296569
0.066666667 0.066666667 0.066666667
0.087316176 0.087316176 0.087316176
0.10490196 0.10490196 0.10490196
0.1245098 0.1245098 0.1245098
0.14191176 0.14191176 0.14191176
0.1495098 0.1495098 0.1495098
0.15980392 0.15980392 0.15980392
0.16470588 0.16470588 0.16470588
0.16862745 0.16862745 0.16862745
0.028431373 0.028431373 0.028431373
0.028431373 0.028431373 0.028431373
0.028814338 0.028814338 0.028814338
0.030882353 0.030882353 0.030882353
0.030882353 0.030882353 0.030882353
0.034803922 0.034803922 0.034803922
0.035906863 0.035906863 0.035906863
0.041459865 0.041459865 0.041459865
0.048039216 0.048039216 0.048039216
0.053492647 0.053492647 0.053492647
0.060416667 0.060416667 0.060416667
0.066352635 0.066352635 0.066352635
0.072028186 0.072028186 0.072028186
0.075796569 0.075796569 0.075796569
0.08125 0.08125 0.08125
0.086335784 0.086335784 0.086335784
0.1 0.1 0.1
0.109375 0.109375 0.109375
0.123269 0.123269 0.123269
0.14724265 0.14724265 0.14724265
0.16326593 0.16326593 0.16326593
0.17677696 0.17677696 0.17677696
0.19068627 0.19068627 0.19068627
0.19803922 0.19803922 0.19803922
0.20196078 0.20196078 0.20196078
0.049019608 0.049019608 0.049019608
0.049019608 0.049019608 0.049019608
0.049019608 0.049019608 0.049019608
0.049019608 0.049019608 0.049019608
0.049019608 0.049019608 0.049019608
0.052405025 0.052405025 0.052405025
