site/assets/luts/sha256-834f022c4cf353298b4f2ec8e50dba9bdeddab6a352c3b47107fdda120dff603.cube
# LUTr-Schema-Version: 2
# LUTr-ID: sha256-834f022c4cf353298b4f2ec8e50dba9bdeddab6a352c3b47107fdda120dff603
# LUTr-Title: polaroid px-70 warm -
# LUTr-Collection: Natron HaldCLUT
# LUTr-Collection-ID: natron-haldclut-presets
# LUTr-Source: https://github.com/NatronGitHub/clut
# LUTr-Retrieved: 2026-07-27
# LUTr-Source-File: submissions/natron-haldclut-presets/instant_consumer/polaroid_px-70_warm_-.png
# LUTr-Source-Format: HALD-PNG
# LUTr-Source-SHA256: 834f022c4cf353298b4f2ec8e50dba9bdeddab6a352c3b47107fdda120dff603
# LUTr-License: CC-BY-SA-4.0
# LUTr-License-URL: https://github.com/NatronGitHub/clut#license
# LUTr-License-Basis: repo-license-file
# LUTr-Transform-Class: film-emulation
# LUTr-Tags: creative, film, film-emulation, hald-clut, natron, png, warm, cube
# LUTr-Input-Color-Space: srgb
# LUTr-Input-Gamut: rec709
# LUTr-Input-Transfer: srgb
# LUTr-Output-Color-Space: srgb
# LUTr-Output-Gamut: rec709
# LUTr-Output-Transfer: srgb
# LUTr-Color-Space-Confidence: assumed-display-referred
# LUTr-Domain-Normalized: true
# LUTr-Shaper: none
# LUTr-Original-Grid: 64x64x64
# LUTr-Conversion-Grid: 25x25x25
# LUTr-Conversion-Interpolation: trilinear
# LUTr-Conversion-Method: HALD-PNG LUT image decoded at 16-bit and sampled to 25x25x25 3D CUBE
# LUTr-Conversion-Tool: LUTr scripts/convert-all-to-cube.mjs 2.0.0
# LUTr-Conversion-Date: 2026-07-27
# LUTr-Note: Preserve this metadata and the upstream license notices when redistributing.
TITLE "polaroid px-70 warm -"
LUT_3D_SIZE 5
DOMAIN_MIN 0 0 0
DOMAIN_MAX 1 1 1
0.019607843 0.08627451 0.10196078
0.18431373 0.082352941 0.097058824
0.55490196 0.054901961 0.11960784
0.92843137 0.31078431 0.13235294
1 0.56078431 0.17647059
0.03627451 0.19019608 0.1245098
0.20465686 0.19387255 0.11838235
0.57745098 0.20833333 0.1122549
0.9127451 0.4120098 0.082598039
0.99607843 0.60686275 0.16568627
0.0039215686 0.54117647 0.13921569
0.24264706 0.53872549 0.14117647
0.64117647 0.57254902 0.074509804
0.90098039 0.63235294 0.0088235294
1 0.68823529 0.058823529
0.47352941 0.80686275 0.26666667
0.54411765 0.81151961 0.25784314
0.7 0.81372549 0.2627451
0.87181373 0.8254902 0.23921569
0.97941176 0.8372549 0.26568627
0.8 0.94117647 0.50588235
0.81470588 0.94509804 0.5127451
0.84509804 0.94117647 0.52156863
0.89509804 0.94901961 0.53039216
0.94117647 0.95294118 0.54117647
0.081372549 0.10196078 0.17843137
0.19264706 0.10784314 0.18063725
0.57941176 0.061764706 0.21764706
0.92843137 0.35147059 0.26862745
1 0.59313725 0.3254902
0.12647059 0.21862745 0.20980392
0.26734069 0.22996324 0.21666667
0.62585784 0.2814951 0.23039216
0.92469363 0.47769608 0.25514706
1 0.61691176 0.30122549
0.23921569 0.56078431 0.2372549
0.36801471 0.55563725 0.24019608
0.66495098 0.59215686 0.22181373
0.90404412 0.64019608 0.2004902
0.99607843 0.70490196 0.26372549
0.54901961 0.82083333 0.3372549
0.59001225 0.81446078 0.33094363
0.72438725 0.82156863 0.33848039
0.88039216 0.82886029 0.32965686
0.98333333 0.84215686 0.35882353
0.79901961 0.9372549 0.5127451
0.81568627 0.9372549 0.52156863
0.84705882 0.94117647 0.53333333
0.90294118 0.95 0.54901961
0.95196078 0.95294118 0.55588235
0.23137255 0.16666667 0.36666667
0.41176471 0.19166667 0.36862745
0.66372549 0.32745098 0.38431373
0.91764706 0.34852941 0.43431373
1 0.61568627 0.4745098
0.24901961 0.29754902 0.38627451
0.43235294 0.32536765 0.39411765
0.70269608 0.45343137 0.40539216
0.92303922 0.49080882 0.43933824
0.99411765 0.6995098 0.49901961
0.34215686 0.58039216 0.39607843
0.47892157 0.59558824 0.40661765
0.72745098 0.62352941 0.42352941
0.90416667 0.6875 0.42622549
0.99215686 0.76078431 0.47647059
0.6627451 0.82156863 0.4627451
0.71066176 0.82254902 0.46764706
0.77965686 0.82941176 0.46887255
0.88688725 0.8372549 0.47156863
0.96764706 0.8504902 0.4745098
0.8372549 0.94705882 0.56470588
0.83872549 0.94117647 0.5627451
0.86078431 0.94117647 0.56764706
0.90686275 0.94901961 0.58578431
0.95098039 0.94705882 0.58431373
0.57843137 0.32941176 0.58823529
0.69117647 0.40784314 0.58627451
0.8504902 0.57598039 0.57843137
0.92254902 0.70294118 0.5745098
0.99215686 0.7127451 0.58529412
0.57254902 0.45980392 0.5879902
0.67745098 0.50588235 0.58627451
0.83627451 0.63480392 0.5745098
0.92254902 0.75588235 0.57843137
0.98823529 0.75490196 0.59019608
0.45441176 0.66617647 0.56666667
0.57659314 0.66458333 0.56519608
0.8127451 0.72696078 0.57769608
0.91752451 0.78958333 0.58480392
0.9754902 0.81666667 0.59705882
0.66176471 0.82720588 0.5627451
0.70392157 0.82218137 0.5661152
0.80061275 0.83186275 0.5752451
0.90294118 0.85428922 0.59019608
0.96372549 0.88823529 0.61372549
0.83529412 0.94117647 0.6127451
0.84215686 0.94019608 0.61568627
0.87843137 0.94215686 0.6245098
0.91544118 0.94509804 0.64019608
0.96078431 0.96176471 0.66470588
0.83529412 0.72156863 0.70980392
0.85784314 0.74411765 0.70588235
0.90588235 0.78627451 0.69411765
0.94607843 0.85980392 0.69019608
0.96470588 0.89019608 0.68627451
0.8245098 0.74607843 0.70980392
0.85392157 0.76666667 0.70588235
0.90245098 0.80637255 0.69656863
0.94509804 0.86372549 0.68627451
0.96078431 0.89019608 0.69019608
0.80196078 0.79607843 0.70588235
0.82843137 0.80343137 0.70588235
0.88627451 0.83333333 0.70490196
0.93970588 0.88284314 0.69411765
0.96470588 0.91960784 0.71568627
0.74607843 0.85686275 0.69509804
0.78431373 0.8629902 0.70294118
0.84509804 0.87009804 0.70588235
0.91862745 0.90220588 0.70931373
0.95294118 0.92941176 0.71666667
0.84313725 0.95686275 0.73333333
0.85392157 0.95980392 0.74313725
0.86666667 0.94313725 0.72941176
0.91764706 0.96078431 0.74019608
0.94509804 0.96078431 0.75686275
