site/assets/luts/sha256-208b8176ebd73a30804d3737854041ead279c3b7f771deaab676f73afb9650a1.cube
# LUTr-Schema-Version: 2
# LUTr-ID: sha256-208b8176ebd73a30804d3737854041ead279c3b7f771deaab676f73afb9650a1
# LUTr-Title: polaroid 665 -
# LUTr-Collection: Natron HaldCLUT
# LUTr-Collection-ID: natron-haldclut-presets
# LUTr-Source: https://github.com/NatronGitHub/clut
# LUTr-Retrieved: 2026-07-27
# LUTr-Source-File: submissions/natron-haldclut-presets/instant_pro/polaroid_665_-.png
# LUTr-Source-Format: HALD-PNG
# LUTr-Source-SHA256: 208b8176ebd73a30804d3737854041ead279c3b7f771deaab676f73afb9650a1
# LUTr-License: CC-BY-SA-4.0
# LUTr-License-URL: https://github.com/NatronGitHub/clut#license
# LUTr-License-Basis: repo-license-file
# LUTr-Transform-Class: film-emulation
# LUTr-Tags: creative, film, film-emulation, hald-clut, natron, png, cube
# LUTr-Input-Color-Space: srgb
# LUTr-Input-Gamut: rec709
# LUTr-Input-Transfer: srgb
# LUTr-Output-Color-Space: srgb
# LUTr-Output-Gamut: rec709
# LUTr-Output-Transfer: srgb
# LUTr-Color-Space-Confidence: assumed-display-referred
# LUTr-Domain-Normalized: true
# LUTr-Shaper: none
# LUTr-Original-Grid: 64x64x64
# LUTr-Conversion-Grid: 25x25x25
# LUTr-Conversion-Interpolation: trilinear
# LUTr-Conversion-Method: HALD-PNG LUT image decoded at 16-bit and sampled to 25x25x25 3D CUBE
# LUTr-Conversion-Tool: LUTr scripts/convert-all-to-cube.mjs 2.0.0
# LUTr-Conversion-Date: 2026-07-27
# LUTr-Note: Preserve this metadata and the upstream license notices when redistributing.
TITLE "polaroid 665 -"
LUT_3D_SIZE 9
DOMAIN_MIN 0 0 0
DOMAIN_MAX 1 1 1
0.066666667 0.066666667 0.066666667
0.062745098 0.062745098 0.062745098
0.074509804 0.074509804 0.074509804
0.14607843 0.14607843 0.14607843
0.20588235 0.20588235 0.20588235
0.28284314 0.28284314 0.28284314
0.35392157 0.35392157 0.35392157
0.39705882 0.39705882 0.39705882
0.4745098 0.4745098 0.4745098
0.089215686 0.089215686 0.089215686
0.083884804 0.083884804 0.083884804
0.12352941 0.12352941 0.12352941
0.18057598 0.18057598 0.18057598
0.23039216 0.23039216 0.23039216
0.29656863 0.29656863 0.29656863
0.35882353 0.35882353 0.35882353
0.42101716 0.42101716 0.42101716
0.49460784 0.49460784 0.49460784
0.18137255 0.18137255 0.18137255
0.17745098 0.17745098 0.17745098
0.16348039 0.16348039 0.16348039
0.21568627 0.21568627 0.21568627
0.27892157 0.27892157 0.27892157
0.33137255 0.33137255 0.33137255
0.38431373 0.38431373 0.38431373
0.43443627 0.43443627 0.43443627
0.50392157 0.50392157 0.50392157
0.2622549 0.2622549 0.2622549
0.25851716 0.25851716 0.25851716
0.25441176 0.25441176 0.25441176
0.27254902 0.27254902 0.27254902
0.3122549 0.3122549 0.3122549
0.36617647 0.36617647 0.36617647
0.42009804 0.42009804 0.42009804
0.48841912 0.48841912 0.48841912
0.56568627 0.56568627 0.56568627
0.34705882 0.34705882 0.34705882
0.34705882 0.34705882 0.34705882
0.34705882 0.34705882 0.34705882
0.35343137 0.35343137 0.35343137
0.3754902 0.3754902 0.3754902
0.40220588 0.40220588 0.40220588
0.45882353 0.45882353 0.45882353
0.5370098 0.5370098 0.5370098
0.61960784 0.61960784 0.61960784
0.43578431 0.43578431 0.43578431
0.43578431 0.43578431 0.43578431
0.44693627 0.44693627 0.44693627
0.44754902 0.44754902 0.44754902
0.45808824 0.45808824 0.45808824
0.46078431 0.46078431 0.46078431
0.49362745 0.49362745 0.49362745
0.56813725 0.56813725 0.56813725
0.67205882 0.67205882 0.67205882
0.55294118 0.55294118 0.55294118
0.54607843 0.54607843 0.54607843
0.55686275 0.55686275 0.55686275
0.55870098 0.55870098 0.55870098
0.57058824 0.57058824 0.57058824
0.57647059 0.57647059 0.57647059
0.57745098 0.57745098 0.57745098
0.62107843 0.62107843 0.62107843
0.71568627 0.71568627 0.71568627
0.69215686 0.69215686 0.69215686
0.69264706 0.69264706 0.69264706
0.68872549 0.68872549 0.68872549
0.69264706 0.69264706 0.69264706
0.70833333 0.70833333 0.70833333
0.71617647 0.71617647 0.71617647
0.72401961 0.72401961 0.72401961
0.73621324 0.73621324 0.73621324
0.74264706 0.74264706 0.74264706
0.82352941 0.82352941 0.82352941
0.81568627 0.81568627 0.81568627
0.81862745 0.81862745 0.81862745
0.83382353 0.83382353 0.83382353
0.83529412 0.83529412 0.83529412
0.85343137 0.85343137 0.85343137
0.84705882 0.84705882 0.84705882
0.86715686 0.86715686 0.86715686
0.85882353 0.85882353 0.85882353
0.097058824 0.097058824 0.097058824
0.089705882 0.089705882 0.089705882
0.13431373 0.13431373 0.13431373
0.19607843 0.19607843 0.19607843
0.24607843 0.24607843 0.24607843
0.3004902 0.3004902 0.3004902
0.3627451 0.3627451 0.3627451
0.42003676 0.42003676 0.42003676
0.45392157 0.45392157 0.45392157
0.12058824 0.12058824 0.12058824
0.13480392 0.13480392 0.13480392
0.1703125 0.1703125 0.1703125
0.20882353 0.20882353 0.20882353
0.25955882 0.25955882 0.25955882
0.31550245 0.31550245 0.31550245
0.36960784 0.36960784 0.36960784
0.43970588 0.43970588 0.43970588
0.50539216 0.50539216 0.50539216
0.18921569 0.18921569 0.18921569
0.20516238 0.20516238 0.20516238
0.21375613 0.21375613 0.21375613
0.24799326 0.24799326 0.24799326
0.3 0.3 0.3
0.34901961 0.34901961 0.34901961
0.4004902 0.4004902 0.4004902
0.4627451 0.4627451 0.4627451
0.53578431 0.53578431 0.53578431
0.27794118 0.27794118 0.27794118
0.28284314 0.28284314 0.28284314
0.28137255 0.28137255 0.28137255
0.30079657 0.30079657 0.30079657
0.33333333 0.33333333 0.33333333
0.37598039 0.37598039 0.37598039
0.43529412 0.43529412 0.43529412
0.50377604 0.50377604 0.50377604
0.57481618 0.57481618 0.57481618
0.3622549 0.3622549 0.3622549
0.36443015 0.36443015 0.36443015
0.36617647 0.36617647 0.36617647
0.37328431 0.37328431 0.37328431
0.38676471 0.38676471 0.38676471
0.40548407 0.40548407 0.40548407
0.46881127 0.46881127 0.46881127
0.55392157 0.55392157 0.55392157
0.63088235 0.63088235 0.63088235
0.44558824 0.44558824 0.44558824
0.44705882 0.44705882 0.44705882
0.45526961 0.45526961 0.45526961
0.45508578 0.45508578 0.45508578
0.46887255 0.46887255 0.46887255
0.46439185 0.46439185 0.46439185
0.50373775 0.50373775 0.50373775
0.59332108 0.59332108 0.59332108
0.67843137 0.67843137 0.67843137
0.55735294 0.55735294 0.55735294
0.55375306 0.55375306 0.55375306
0.56029412 0.56029412 0.56029412
0.56781556 0.56781556 0.56781556
0.57990196 0.57990196 0.57990196
0.5803462 0.5803462 0.5803462
0.57821691 0.57821691 0.57821691
0.63566176 0.63566176 0.63566176
0.71568627 0.71568627 0.71568627
0.69650735 0.69650735 0.69650735
0.69656097 0.69656097 0.69656097
0.69650735 0.69650735 0.69650735
0.69983915 0.69983915 0.69983915
0.70833333 0.70833333 0.70833333
0.71730239 0.71730239 0.71730239
0.72768076 0.72768076 0.72768076
0.75103401 0.75103401 0.75103401
0.78529412 0.78529412 0.78529412
0.82401961 0.82401961 0.82401961
0.83529412 0.83529412 0.83529412
0.82352941 0.82352941 0.82352941
0.81568627 0.81568627 0.81568627
0.83112745 0.83112745 0.83112745
0.84460784 0.84460784 0.84460784
0.85134804 0.85134804 0.85134804
0.87156863 0.87156863 0.87156863
0.8745098 0.8745098 0.8745098
0.18529412 0.18529412 0.18529412
0.18517157 0.18517157 0.18517157
0.20465686 0.20465686 0.20465686
0.2442402 0.2442402 0.2442402
0.29264706 0.29264706 0.29264706
0.33713235 0.33713235 0.33713235
0.39215686 0.39215686 0.39215686
0.45477941 0.45477941 0.45477941
0.49607843 0.49607843 0.49607843
0.19313725 0.19313725 0.19313725
0.21176471 0.21176471 0.21176471
0.23575368 0.23575368 0.23575368
0.27058824 0.27058824 0.27058824
0.31127451 0.31127451 0.31127451
0.35856311 0.35856311 0.35856311
0.40441176 0.40441176 0.40441176
0.46227022 0.46227022 0.46227022
0.52745098 0.52745098 0.52745098
0.22254902 0.22254902 0.22254902
0.24365809 0.24365809 0.24365809
0.27224265 0.27224265 0.27224265
0.30539216 0.30539216 0.30539216
0.34252451 0.34252451 0.34252451
0.38382353 0.38382353 0.38382353
0.42426471 0.42426471 0.42426471
0.48921569 0.48921569 0.48921569
0.55122549 0.55122549 0.55122549
0.3004902 0.3004902 0.3004902
0.31533395 0.31533395 0.31533395
0.32745098 0.32745098 0.32745098
0.3504902 0.3504902 0.3504902
0.37781863 0.37781863 0.37781863
0.41539522 0.41539522 0.41539522
0.4622549 0.4622549 0.4622549
0.53270527 0.53270527 0.53270527
0.6 0.6 0.6
0.3877451 0.3877451 0.3877451
0.39295343 0.39295343 0.39295343
0.40012255 0.40012255 0.40012255
0.41041667 0.41041667 0.41041667
0.42647059 0.42647059 0.42647059
0.44166667 0.44166667 0.44166667
0.49705882 0.49705882 0.49705882
0.575 0.575 0.575
0.65637255 0.65637255 0.65637255
0.47401961 0.47401961 0.47401961
0.47794118 0.47794118 0.47794118
0.48186275 0.48186275 0.48186275
0.48578431 0.48578431 0.48578431
0.49362745 0.49362745 0.49362745
0.49529718 0.49529718 0.49529718
0.52720588 0.52720588 0.52720588
0.61358762 0.61358762 0.61358762
0.69705882 0.69705882 0.69705882
0.58333333 0.58333333 0.58333333
0.58333333 0.58333333 0.58333333
0.58670343 0.58670343 0.58670343
0.5872549 0.5872549 0.5872549
0.59264706 0.59264706 0.59264706
0.59901961 0.59901961 0.59901961
0.61102941 0.61102941 0.61102941
0.6421875 0.6421875 0.6421875
0.7 0.7 0.7
0.71482843 0.71482843 0.71482843
0.71875 0.71875 0.71875
0.71862745 0.71862745 0.71862745
0.71752451 0.71752451 0.71752451
0.72647059 0.72647059 0.72647059
0.7287837 0.7287837 0.7287837
0.74258578 0.74258578 0.74258578
0.76323529 0.76323529 0.76323529
0.78186275 0.78186275 0.78186275
0.82352941 0.82352941 0.82352941
0.82745098 0.82745098 0.82745098
0.83946078 0.83946078 0.83946078
0.83884804 0.83884804 0.83884804
0.85196078 0.85196078 0.85196078
0.85 0.85 0.85
0.86495098 0.86495098 0.86495098
0.87205882 0.87205882 0.87205882
0.88137255 0.88137255 0.88137255
0.27401961 0.27401961 0.27401961
0.28921569 0.28921569 0.28921569
0.30441176 0.30441176 0.30441176
0.30202206 0.30202206 0.30202206
0.33039216 0.33039216 0.33039216
0.38131127 0.38131127 0.38131127
0.44607843 0.44607843 0.44607843
0.5026348 0.5026348 0.5026348
0.56176471 0.56176471 0.56176471
0.28921569 0.28921569 0.28921569
0.30253523 0.30253523 0.30253523
0.31973039 0.31973039 0.31973039
0.33070619 0.33070619 0.33070619
0.35416667 0.35416667 0.35416667
0.40098039 0.40098039 0.40098039
0.44911152 0.44911152 0.44911152
0.50026808 0.50026808 0.50026808
0.57696078 0.57696078 0.57696078
0.31862745 0.31862745 0.31862745
0.33163297 0.33163297 0.33163297
0.34721201 0.34721201 0.34721201
0.3667739 0.3667739 0.3667739
0.38756127 0.38756127 0.38756127
0.42149203 0.42149203 0.42149203
0.46259191 0.46259191 0.46259191
0.52254902 0.52254902 0.52254902
0.59031863 0.59031863 0.59031863
0.34068627 0.34068627 0.34068627
0.37401961 0.37401961 0.37401961
0.3935049 0.3935049 0.3935049
0.40922947 0.40922947 0.40922947
0.42696078 0.42696078 0.42696078
0.45622702 0.45622702 0.45622702
0.49928002 0.49928002 0.49928002
0.55520833 0.55520833 0.55520833
0.63572304 0.63572304 0.63572304
0.40318627 0.40318627 0.40318627
0.42588848 0.42588848 0.42588848
0.43192402 0.43192402 0.43192402
0.45980392 0.45980392 0.45980392
0.47230392 0.47230392 0.47230392
0.48676471 0.48676471 0.48676471
0.53897059 0.53897059 0.53897059
0.60367647 0.60367647 0.60367647
0.68088235 0.68088235 0.68088235
0.49944853 0.49944853 0.49944853
0.5078508 0.5078508 0.5078508
0.51237745 0.51237745 0.51237745
0.5245098 0.5245098 0.5245098
0.53480392 0.53480392 0.53480392
0.53985141 0.53985141 0.53985141
0.58026961 0.58026961 0.58026961
0.64841452 0.64841452 0.64841452
0.72849265 0.72849265 0.72849265
0.61029412 0.61029412 0.61029412
0.61421569 0.61421569 0.61421569
0.61029412 0.61029412 0.61029412
0.62320772 0.62320772 0.62320772
0.63474265 0.63474265 0.63474265
0.6435049 0.6435049 0.6435049
0.6435049 0.6435049 0.6435049
0.68587623 0.68587623 0.68587623
0.75098039 0.75098039 0.75098039
0.73118873 0.73118873 0.73118873
0.73382353 0.73382353 0.73382353
0.73676471 0.73676471 0.73676471
0.74319853 0.74319853 0.74319853
0.76127451 0.76127451 0.76127451
0.76028646 0.76028646 0.76028646
0.76875 0.76875 0.76875
0.77685355 0.77685355 0.77685355
0.78480392 0.78480392 0.78480392
0.83137255 0.83137255 0.83137255
0.83743873 0.83743873 0.83743873
0.85526961 0.85526961 0.85526961
0.84859069 0.84859069 0.84859069
0.85294118 0.85294118 0.85294118
0.86029412 0.86029412 0.86029412
0.87095588 0.87095588 0.87095588
0.87567402 0.87567402 0.87567402
0.90588235 0.90588235 0.90588235
0.37058824 0.37058824 0.37058824
0.37843137 0.37843137 0.37843137
0.39166667 0.39166667 0.39166667
0.39411765 0.39411765 0.39411765
0.40196078 0.40196078 0.40196078
0.41911765 0.41911765 0.41911765
0.48284314 0.48284314 0.48284314
0.56176471 0.56176471 0.56176471
0.63333333 0.63333333 0.63333333
0.39362745 0.39362745 0.39362745
0.39362745 0.39362745 0.39362745
0.40104167 0.40104167 0.40104167
0.40539216 0.40539216 0.40539216
0.40563725 0.40563725 0.40563725
0.43710172 0.43710172 0.43710172
0.5 0.5 0.5
0.56917892 0.56917892 0.56917892
0.63872549 0.63872549 0.63872549
0.41862745 0.41862745 0.41862745
0.42058824 0.42058824 0.42058824
0.42757353 0.42757353 0.42757353
0.43627451 0.43627451 0.43627451
0.44191176 0.44191176 0.44191176
0.46397059 0.46397059 0.46397059
0.51862745 0.51862745 0.51862745
0.58443627 0.58443627 0.58443627
0.65 0.65 0.65
0.43333333 0.43333333 0.43333333
0.44598652 0.44598652 0.44598652
0.46109069 0.46109069 0.46109069
0.46911765 0.46911765 0.46911765
0.48088235 0.48088235 0.48088235
0.5046875 0.5046875 0.5046875
0.54650735 0.54650735 0.54650735
0.60750613 0.60750613 0.60750613
0.67696078 0.67696078 0.67696078
0.43529412 0.43529412 0.43529412
0.45490196 0.45490196 0.45490196
0.46740196 0.46740196 0.46740196
0.49754902 0.49754902 0.49754902
0.52745098 0.52745098 0.52745098
0.54852941 0.54852941 0.54852941
0.59264706 0.59264706 0.59264706
0.65098039 0.65098039 0.65098039
0.70784314 0.70784314 0.70784314
0.51764706 0.51764706 0.51764706
0.51951593 0.51951593 0.51951593
0.53529412 0.53529412 0.53529412
0.55738358 0.55738358 0.55738358
0.58602941 0.58602941 0.58602941
0.60349265 0.60349265 0.60349265
0.63811275 0.63811275 0.63811275
0.69862132 0.69862132 0.69862132
0.76176471 0.76176471 0.76176471
0.63480392 0.63480392 0.63480392
0.63155637 0.63155637 0.63155637
0.64019608 0.64019608 0.64019608
0.66041667 0.66041667 0.66041667
0.67794118 0.67794118 0.67794118
0.68406863 0.68406863 0.68406863
0.69497549 0.69497549 0.69497549
0.73406863 0.73406863 0.73406863
0.79411765 0.79411765 0.79411765
0.75098039 0.75098039 0.75098039
0.75269608 0.75269608 0.75269608
0.75833333 0.75833333 0.75833333
0.77132353 0.77132353 0.77132353
0.78284314 0.78284314 0.78284314
0.78783701 0.78783701 0.78783701
0.79240196 0.79240196 0.79240196
0.80343137 0.80343137 0.80343137
0.81911765 0.81911765 0.81911765
0.84705882 0.84705882 0.84705882
0.85490196 0.85490196 0.85490196
0.85882353 0.85882353 0.85882353
0.85686275 0.85686275 0.85686275
0.86862745 0.86862745 0.86862745
0.87328431 0.87328431 0.87328431
0.88823529 0.88823529 0.88823529
0.88921569 0.88921569 0.88921569
0.90196078 0.90196078 0.90196078
0.47254902 0.47254902 0.47254902
0.48167892 0.48167892 0.48167892
0.49546569 0.49546569 0.49546569
0.49754902 0.49754902 0.49754902
0.50392157 0.50392157 0.50392157
0.50392157 0.50392157 0.50392157
0.53137255 0.53137255 0.53137255
0.62009804 0.62009804 0.62009804
0.70343137 0.70343137 0.70343137
0.4995098 0.4995098 0.4995098
0.50079657 0.50079657 0.50079657
0.50384498 0.50384498 0.50384498
0.50746783 0.50746783 0.50746783
0.51740196 0.51740196 0.51740196
0.52303922 0.52303922 0.52303922
0.55343137 0.55343137 0.55343137
0.63400735 0.63400735 0.63400735
0.70520833 0.70520833 0.70520833
0.53431373 0.53431373 0.53431373
0.53039216 0.53039216 0.53039216
0.52647059 0.52647059 0.52647059
0.53261336 0.53261336 0.53261336
0.53713235 0.53713235 0.53713235
0.54215686 0.54215686 0.54215686
0.57647059 0.57647059 0.57647059
0.64673713 0.64673713 0.64673713
0.7127451 0.7127451 0.7127451
0.55098039 0.55098039 0.55098039
0.55490196 0.55490196 0.55490196
0.55735294 0.55735294 0.55735294
0.56822151 0.56822151 0.56822151
0.57640931 0.57640931 0.57640931
0.57156863 0.57156863 0.57156863
0.5995098 0.5995098 0.5995098
0.66557138 0.66557138 0.66557138
0.73088235 0.73088235 0.73088235
0.55171569 0.55171569 0.55171569
0.56259191 0.56259191 0.56259191
0.57432598 0.57432598 0.57432598
0.58946078 0.58946078 0.58946078
0.61164216 0.61164216 0.61164216
0.62401961 0.62401961 0.62401961
0.64313725 0.64313725 0.64313725
0.69607843 0.69607843 0.69607843
0.75392157 0.75392157 0.75392157
0.57542892 0.57542892 0.57542892
0.57751225 0.57751225 0.57751225
0.58442096 0.58442096 0.58442096
0.598269 0.598269 0.598269
0.64463848 0.64463848 0.64463848
0.67101716 0.67101716 0.67101716
0.69627757 0.69627757 0.69627757
0.73560815 0.73560815 0.73560815
0.78670343 0.78670343 0.78670343
0.64607843 0.64607843 0.64607843
0.65245098 0.65245098 0.65245098
0.65695466 0.65695466 0.65695466
0.68045343 0.68045343 0.68045343
0.70833333 0.70833333 0.70833333
0.72970282 0.72970282 0.72970282
0.74669118 0.74669118 0.74669118
0.77303922 0.77303922 0.77303922
0.81029412 0.81029412 0.81029412
0.76011029 0.76011029 0.76011029
0.76633732 0.76633732 0.76633732
0.76969975 0.76969975 0.76969975
0.77794118 0.77794118 0.77794118
0.80033701 0.80033701 0.80033701
0.80900735 0.80900735 0.80900735
0.81960784 0.81960784 0.81960784
0.83609069 0.83609069 0.83609069
0.85343137 0.85343137 0.85343137
0.85490196 0.85490196 0.85490196
0.85557598 0.85557598 0.85557598
0.86997549 0.86997549 0.86997549
0.86366422 0.86366422 0.86366422
0.89289216 0.89289216 0.89289216
0.89019608 0.89019608 0.89019608
0.89901961 0.89901961 0.89901961
0.90765931 0.90765931 0.90765931
0.90980392 0.90980392 0.90980392
0.61666667 0.61666667 0.61666667
0.62708333 0.62708333 0.62708333
0.63235294 0.63235294 0.63235294
0.63566176 0.63566176 0.63566176
0.63235294 0.63235294 0.63235294
0.63529412 0.63529412 0.63529412
0.64705882 0.64705882 0.64705882
0.67352941 0.67352941 0.67352941
0.7372549 0.7372549 0.7372549
0.63480392 0.63480392 0.63480392
0.63604473 0.63604473 0.63604473
0.63529412 0.63529412 0.63529412
0.63921569 0.63921569 0.63921569
0.64656863 0.64656863 0.64656863
0.64656863 0.64656863 0.64656863
0.65183824 0.65183824 0.65183824
0.67261029 0.67261029 0.67261029
0.74019608 0.74019608 0.74019608
0.65882353 0.65882353 0.65882353
0.65404412 0.65404412 0.65404412
0.64632353 0.64632353 0.64632353
0.65061275 0.65061275 0.65061275
0.65882353 0.65882353 0.65882353
0.6620098 0.6620098 0.6620098
0.67426471 0.67426471 0.67426471
0.70085784 0.70085784 0.70085784
0.75392157 0.75392157 0.75392157
0.67352941 0.67352941 0.67352941
0.67414216 0.67414216 0.67414216
0.67303922 0.67303922 0.67303922
0.67879902 0.67879902 0.67879902
0.67696078 0.67696078 0.67696078
0.68180147 0.68180147 0.68180147
0.70242034 0.70242034 0.70242034
0.71666667 0.71666667 0.71666667
0.78382353 0.78382353 0.78382353
0.68235294 0.68235294 0.68235294
0.68621324 0.68621324 0.68621324
0.69411765 0.69411765 0.69411765
0.70661765 0.70661765 0.70661765
0.71470588 0.71470588 0.71470588
0.72254902 0.72254902 0.72254902
0.72647059 0.72647059 0.72647059
0.73768382 0.73768382 0.73768382
0.80784314 0.80784314 0.80784314
0.68627451 0.68627451 0.68627451
0.68765319 0.68765319 0.68765319
0.69313725 0.69313725 0.69313725
0.71164216 0.71164216 0.71164216
0.74185049 0.74185049 0.74185049
0.75320159 0.75320159 0.75320159
0.76155025 0.76155025 0.76155025
0.78615196 0.78615196 0.78615196
0.82022059 0.82022059 0.82022059
0.69093137 0.69093137 0.69093137
0.69803922 0.69803922 0.69803922
0.70251225 0.70251225 0.70251225
0.72429534 0.72429534 0.72429534
0.75465686 0.75465686 0.75465686
0.77696078 0.77696078 0.77696078
0.79681373 0.79681373 0.79681373
0.83088235 0.83088235 0.83088235
0.84583333 0.84583333 0.84583333
0.77892157 0.77892157 0.77892157
0.77892157 0.77892157 0.77892157
0.78097426 0.78097426 0.78097426
0.79252451 0.79252451 0.79252451
0.81764706 0.81764706 0.81764706
0.83293505 0.83293505 0.83293505
0.85784314 0.85784314 0.85784314
0.87389706 0.87389706 0.87389706
0.88026961 0.88026961 0.88026961
0.87156863 0.87156863 0.87156863
0.85882353 0.85882353 0.85882353
0.86176471 0.86176471 0.86176471
0.87941176 0.87941176 0.87941176
0.89607843 0.89607843 0.89607843
0.90796569 0.90796569 0.90796569
0.92254902 0.92254902 0.92254902
0.92254902 0.92254902 0.92254902
0.92156863 0.92156863 0.92156863
0.75490196 0.75490196 0.75490196
0.75882353 0.75882353 0.75882353
0.7627451 0.7627451 0.7627451
0.76617647 0.76617647 0.76617647
0.7627451 0.7627451 0.7627451
0.76666667 0.76666667 0.76666667
0.7745098 0.7745098 0.7745098
0.77800245 0.77800245 0.77800245
0.78970588 0.78970588 0.78970588
0.7627451 0.7627451 0.7627451
0.76585478 0.76585478 0.76585478
0.7627451 0.7627451 0.7627451
0.7685432 0.7685432 0.7685432
0.76666667 0.76666667 0.76666667
0.77009804 0.77009804 0.77009804
0.7745098 0.7745098 0.7745098
0.77401961 0.77401961 0.77401961
0.79313725 0.79313725 0.79313725
0.7745098 0.7745098 0.7745098
0.77363664 0.77363664 0.77363664
0.77325368 0.77325368 0.77325368
0.7745098 0.7745098 0.7745098
0.76838235 0.76838235 0.76838235
0.78146446 0.78146446 0.78146446
0.78615196 0.78615196 0.78615196
0.79356618 0.79356618 0.79356618
0.80539216 0.80539216 0.80539216
0.78609069 0.78609069 0.78609069
0.78627451 0.78627451 0.78627451
0.78837316 0.78837316 0.78837316
0.78609069 0.78609069 0.78609069
0.77720588 0.77720588 0.77720588
0.79480699 0.79480699 0.79480699
0.80004596 0.80004596 0.80004596
0.80150888 0.80150888 0.80150888
0.83088235 0.83088235 0.83088235
0.79583333 0.79583333 0.79583333
0.79387255 0.79387255 0.79387255
0.80104167 0.80104167 0.80104167
0.80661765 0.80661765 0.80661765
0.80931373 0.80931373 0.80931373
0.81308211 0.81308211 0.81308211
0.81666667 0.81666667 0.81666667
0.81151961 0.81151961 0.81151961
0.82843137 0.82843137 0.82843137
0.80147059 0.80147059 0.80147059
0.80165441 0.80165441 0.80165441
0.80845588 0.80845588 0.80845588
0.81441483 0.81441483 0.81441483
0.82760417 0.82760417 0.82760417
0.83823529 0.83823529 0.83823529
0.84197304 0.84197304 0.84197304
0.85018382 0.85018382 0.85018382
0.8627451 0.8627451 0.8627451
0.80588235 0.80588235 0.80588235
0.80943627 0.80943627 0.80943627
0.80968137 0.80968137 0.80968137
0.82011336 0.82011336 0.82011336
0.83480392 0.83480392 0.83480392
0.84973958 0.84973958 0.84973958
0.86574755 0.86574755 0.86574755
0.88872549 0.88872549 0.88872549
0.89215686 0.89215686 0.89215686
0.82892157 0.82892157 0.82892157
0.82162224 0.82162224 0.82162224
0.81796875 0.81796875 0.81796875
0.83220741 0.83220741 0.83220741
0.83918505 0.83918505 0.83918505
0.86174173 0.86174173 0.86174173
0.88523284 0.88523284 0.88523284
0.91470588 0.91470588 0.91470588
0.91470588 0.91470588 0.91470588
0.85441176 0.85441176 0.85441176
0.86666667 0.86666667 0.86666667
0.85637255 0.85637255 0.85637255
0.89215686 0.89215686 0.89215686
0.89264706 0.89264706 0.89264706
0.90294118 0.90294118 0.90294118
0.93823529 0.93823529 0.93823529
0.94601716 0.94601716 0.94601716
0.94558824 0.94558824 0.94558824
0.86666667 0.86666667 0.86666667
0.86666667 0.86666667 0.86666667
0.86372549 0.86372549 0.86372549
0.84852941 0.84852941 0.84852941
0.85686275 0.85686275 0.85686275
0.87303922 0.87303922 0.87303922
0.85784314 0.85784314 0.85784314
0.86715686 0.86715686 0.86715686
0.89803922 0.89803922 0.89803922
0.8627451 0.8627451 0.8627451
0.85839461 0.85839461 0.85839461
0.8745098 0.8745098 0.8745098
0.86617647 0.86617647 0.86617647
0.87058824 0.87058824 0.87058824
0.88216912 0.88216912 0.88216912
0.87058824 0.87058824 0.87058824
0.86709559 0.86709559 0.86709559
0.88186275 0.88186275 0.88186275
0.88137255 0.88137255 0.88137255
0.87205882 0.87205882 0.87205882
0.87843137 0.87843137 0.87843137
0.87340686 0.87340686 0.87340686
0.85735294 0.85735294 0.85735294
0.87990196 0.87990196 0.87990196
0.88627451 0.88627451 0.88627451
0.88884804 0.88884804 0.88884804
0.89901961 0.89901961 0.89901961
0.87843137 0.87843137 0.87843137
0.85422794 0.85422794 0.85422794
0.88039216 0.88039216 0.88039216
0.87303922 0.87303922 0.87303922
0.87181373 0.87181373 0.87181373
0.89411765 0.89411765 0.89411765
0.88909314 0.88909314 0.88909314
0.88921569 0.88921569 0.88921569
0.90441176 0.90441176 0.90441176
0.88627451 0.88627451 0.88627451
0.88455882 0.88455882 0.88455882
0.88284314 0.88284314 0.88284314
0.88553922 0.88553922 0.88553922
0.90196078 0.90196078 0.90196078
0.89485294 0.89485294 0.89485294
0.90392157 0.90392157 0.90392157
0.9 0.9 0.9
0.90588235 0.90588235 0.90588235
0.89019608 0.89019608 0.89019608
0.89803922 0.89803922 0.89803922
0.8995098 0.8995098 0.8995098
0.90104167 0.90104167 0.90104167
0.90980392 0.90980392 0.90980392
0.91427696 0.91427696 0.91427696
0.91188725 0.91188725 0.91188725
0.92714461 0.92714461 0.92714461
0.92303922 0.92303922 0.92303922
0.90294118 0.90294118 0.90294118
0.91127451 0.91127451 0.91127451
0.90980392 0.90980392 0.90980392
0.91470588 0.91470588 0.91470588
0.92352941 0.92352941 0.92352941
0.92585784 0.92585784 0.92585784
0.93333333 0.93333333 0.93333333
0.93823529 0.93823529 0.93823529
0.9372549 0.9372549 0.9372549
0.925 0.925 0.925
0.91372549 0.91372549 0.91372549
0.91372549 0.91372549 0.91372549
0.91960784 0.91960784 0.91960784
0.9122549 0.9122549 0.9122549
0.93088235 0.93088235 0.93088235
0.94203431 0.94203431 0.94203431
0.95386029 0.95386029 0.95386029
0.95343137 0.95343137 0.95343137
0.91372549 0.91372549 0.91372549
0.91764706 0.91764706 0.91764706
0.92843137 0.92843137 0.92843137
0.93088235 0.93088235 0.93088235
0.94509804 0.94509804 0.94509804
0.94656863 0.94656863 0.94656863
0.95294118 0.95294118 0.95294118
0.97696078 0.97696078 0.97696078
0.97647059 0.97647059 0.97647059
