site/assets/luts/sha256-834f022c4cf353298b4f2ec8e50dba9bdeddab6a352c3b47107fdda120dff603.cube
# LUTr-Schema-Version: 2
# LUTr-ID: sha256-834f022c4cf353298b4f2ec8e50dba9bdeddab6a352c3b47107fdda120dff603
# LUTr-Title: polaroid px-70 warm -
# LUTr-Collection: Natron HaldCLUT
# LUTr-Collection-ID: natron-haldclut-presets
# LUTr-Source: https://github.com/NatronGitHub/clut
# LUTr-Retrieved: 2026-07-27
# LUTr-Source-File: submissions/natron-haldclut-presets/instant_consumer/polaroid_px-70_warm_-.png
# LUTr-Source-Format: HALD-PNG
# LUTr-Source-SHA256: 834f022c4cf353298b4f2ec8e50dba9bdeddab6a352c3b47107fdda120dff603
# LUTr-License: CC-BY-SA-4.0
# LUTr-License-URL: https://github.com/NatronGitHub/clut#license
# LUTr-License-Basis: repo-license-file
# LUTr-Transform-Class: film-emulation
# LUTr-Tags: creative, film, film-emulation, hald-clut, natron, png, warm, cube
# LUTr-Input-Color-Space: srgb
# LUTr-Input-Gamut: rec709
# LUTr-Input-Transfer: srgb
# LUTr-Output-Color-Space: srgb
# LUTr-Output-Gamut: rec709
# LUTr-Output-Transfer: srgb
# LUTr-Color-Space-Confidence: assumed-display-referred
# LUTr-Domain-Normalized: true
# LUTr-Shaper: none
# LUTr-Original-Grid: 64x64x64
# LUTr-Conversion-Grid: 25x25x25
# LUTr-Conversion-Interpolation: trilinear
# LUTr-Conversion-Method: HALD-PNG LUT image decoded at 16-bit and sampled to 25x25x25 3D CUBE
# LUTr-Conversion-Tool: LUTr scripts/convert-all-to-cube.mjs 2.0.0
# LUTr-Conversion-Date: 2026-07-27
# LUTr-Note: Preserve this metadata and the upstream license notices when redistributing.
TITLE "polaroid px-70 warm -"
LUT_3D_SIZE 25
DOMAIN_MIN 0 0 0
DOMAIN_MAX 1 1 1
0.019607843 0.08627451 0.10196078
0.03627451 0.08627451 0.098039216
0.056862745 0.08627451 0.090196078
0.07745098 0.082843137 0.082843137
0.10196078 0.082352941 0.080392157
0.14313725 0.082352941 0.090686275
0.18431373 0.082352941 0.097058824
0.2254902 0.080882353 0.098039216
0.2627451 0.074509804 0.098039216
0.3122549 0.070588235 0.1004902
0.4 0.074509804 0.10980392
0.48235294 0.074509804 0.11715686
0.55490196 0.054901961 0.11960784
0.62254902 0.030392157 0.12156863
0.69509804 0.071568627 0.1254902
0.77254902 0.14215686 0.13333333
0.84313725 0.19215686 0.14117647
0.88970588 0.25 0.13872549
0.92843137 0.31078431 0.13235294
0.95931373 0.35882353 0.11862745
0.99019608 0.40392157 0.10588235
0.99607843 0.44901961 0.11862745
0.99901961 0.49019608 0.13921569
1 0.52745098 0.15980392
1 0.56078431 0.17647059
0.025980392 0.096568627 0.10196078
0.03872549 0.092647059 0.098039216
0.059313725 0.089828431 0.093137255
0.07745098 0.085294118 0.084987745
0.10196078 0.083578431 0.080392157
0.14558824 0.08872549 0.090686275
0.18823529 0.08872549 0.097671569
0.23094363 0.08872549 0.10196078
0.27156863 0.087254902 0.10441176
0.32794118 0.083884804 0.10588235
0.40477941 0.078676471 0.11556373
0.47892157 0.074816176 0.11531863
0.55098039 0.065931373 0.11960784
0.62696078 0.066482843 0.1254902
0.70147059 0.09620098 0.12732843
0.775 0.15490196 0.13333333
0.83921569 0.20882353 0.1372549
0.89123775 0.2651348 0.14117647
0.92843137 0.32107843 0.13529412
0.95931373 0.37254902 0.12205882
0.98823529 0.41421569 0.10906863
0.99607843 0.45539216 0.11862745
1 0.49411765 0.13737745
1 0.53290441 0.15680147
1 0.56078431 0.17647059
0.032352941 0.10686275 0.10196078
0.040563725 0.10686275 0.099509804
0.059068627 0.10294118 0.094117647
0.078308824 0.099142157 0.090318627
0.11127451 0.1 0.092156863
0.15196078 0.10392157 0.095588235
0.19607843 0.10392157 0.10122549
0.23860294 0.10392157 0.10588235
0.2872549 0.10294118 0.10980392
0.34509804 0.099387255 0.11262255
0.41151961 0.090196078 0.11372549
0.47561275 0.079901961 0.11629902
0.54460784 0.075980392 0.11715686
0.62745098 0.096568627 0.1245098
0.70686275 0.11421569 0.1252451
0.77352941 0.16764706 0.12879902
0.83529412 0.22843137 0.13333333
0.88884804 0.28382353 0.1372549
0.92843137 0.33529412 0.13235294
0.95833333 0.38321078 0.12205882
0.98431373 0.4245098 0.11127451
0.99607843 0.46519608 0.11372549
0.99926471 0.50294118 0.13431373
1 0.53811275 0.15343137
1 0.56568627 0.17647059
0.039215686 0.11715686 0.10196078
0.039215686 0.11715686 0.098039216
0.053431373 0.11617647 0.097916667
0.083884804 0.11623775 0.10098039
0.12303922 0.12058824 0.10735294
0.15833333 0.1245098 0.10882353
0.2 0.1245098 0.10931373
0.2463848 0.11930147 0.10949755
0.29754902 0.11666667 0.10980392
0.35196078 0.11292892 0.11243873
0.41764706 0.10441176 0.11372549
0.47941176 0.097120098 0.11372549
0.5502451 0.10588235 0.11740196
0.63131127 0.1245098 0.12156863
0.70686275 0.13688725 0.12156863
0.77107843 0.18823529 0.1254902
0.83529412 0.24607843 0.12941176
0.88854167 0.29803922 0.12990196
0.9245098 0.34558824 0.12843137
0.95539216 0.39313725 0.11862745
0.98431373 0.43651961 0.10612745
0.99957108 0.47598039 0.10686275
1 0.51029412 0.12659314
1 0.54528186 0.15343137
1 0.57254902 0.17254902
0.045098039 0.13333333 0.10392157
0.045098039 0.13014706 0.10073529
0.048529412 0.12794118 0.098529412
0.090196078 0.13333333 0.10906863
0.13137255 0.14019608 0.11960784
0.16617647 0.14509804 0.11936275
0.20196078 0.14705882 0.11372549
0.2504902 0.14166667 0.1129902
0.30196078 0.13333333 0.10980392
0.35588235 0.12622549 0.10906863
0.42009804 0.1245098 0.11078431
0.48872549 0.13284314 0.11372549
0.56078431 0.14411765 0.11764706
0.6370098 0.15784314 0.11985294
0.70686275 0.18676471 0.12156863
0.76960784 0.22818627 0.12156863
0.83333333 0.2745098 0.12352941
0.88627451 0.31372549 0.12156863
0.91862745 0.35686275 0.11715686
0.9495098 0.40196078 0.10833333
0.98235294 0.44705882 0.095098039
1 0.48602941 0.099509804
1 0.52058824 0.12696078
0.99730392 0.55539216 0.15269608
0.99607843 0.58235294 0.17254902
0.046568627 0.1622549 0.11421569
0.047365196 0.15882353 0.11421569
0.062745098 0.1627451 0.11433824
0.096629902 0.1627451 0.11770833
0.13553922 0.16617647 0.12156863
0.17009804 0.16660539 0.12156863
0.20392157 0.16960784 0.11764706
0.25245098 0.16636029 0.11960784
0.31029412 0.16666667 0.12205882
0.36176471 0.15539216 0.11029412
0.42696078 0.16384804 0.1182598
0.49908088 0.17120098 0.11930147
0.57083333 0.17598039 0.11715686
0.64215686 0.19607843 0.11764706
0.70392157 0.23333333 0.11764706
0.76568627 0.27040441 0.11715686
0.82696078 0.30735294 0.1127451
0.88020833 0.34215686 0.10245098
0.91531863 0.38186275 0.10012255
0.9466299 0.42647059 0.090196078
0.97794118 0.46764706 0.081862745
0.99558824 0.50392157 0.091176471
0.99558824 0.53517157 0.12205882
0.99607843 0.56617647 0.15147059
0.99607843 0.59656863 0.17205882
0.03627451 0.19019608 0.1245098
0.05379902 0.19497549 0.12634804
0.080147059 0.20098039 0.12916667
0.11029412 0.2064951 0.13137255
0.14215686 0.20196078 0.12990196
0.17303922 0.19693627 0.12414216
0.20465686 0.19387255 0.11838235
0.25980392 0.20147059 0.12193627
0.31666667 0.20784314 0.12156863
0.37389706 0.21041667 0.11703431
0.4372549 0.21102941 0.11764706
0.5067402 0.21176471 0.11862745
0.57745098 0.20833333 0.1122549
0.63909314 0.23419118 0.11078431
0.7 0.26862745 0.10784314
0.76176471 0.3067402 0.10355392
0.82352941 0.34215686 0.092156863
0.87647059 0.37659314 0.081862745
0.9127451 0.4120098 0.082598039
0.94105392 0.44840686 0.075612745
0.97107843 0.48823529 0.068137255
0.98529412 0.52107843 0.084313725
0.98921569 0.55196078 0.11176471
0.99215686 0.58284314 0.13872549
0.99607843 0.60686275 0.16568627
0.02745098 0.2245098 0.13088235
0.057781863 0.23241422 0.13633578
0.089215686 0.23970588 0.14264706
0.12009804 0.24852941 0.14656863
0.1497549 0.24656863 0.14191176
0.1776348 0.24656863 0.13284314
0.21286765 0.24803922 0.12585784
0.26911765 0.25104167 0.12457108
0.32843137 0.25833333 0.1254902
0.38872549 0.26525735 0.12303922
0.45196078 0.26556373 0.12156863
0.51960784 0.26372549 0.11764706
0.58431373 0.26568627 0.10710784
0.64185049 0.27892157 0.095894608
0.7 0.30490196 0.084313725
0.76176471 0.340625 0.077941176
0.82352941 0.37696078 0.067647059
0.87254902 0.40931373 0.058884804
0.90882353 0.43982843 0.05379902
0.94099265 0.47334559 0.047058824
0.96862745 0.50955882 0.045343137
0.97910539 0.54166667 0.065196078
0.98431373 0.5692402 0.097181373
0.98970588 0.59803922 0.12843137
0.99460784 0.61715686 0.15147059
0.02745098 0.29019608 0.1372549
0.045098039 0.29019608 0.13970588
0.082352941 0.29411765 0.14607843
0.11960784 0.29754902 0.15294118
0.14705882 0.30196078 0.14705882
0.1745098 0.30245098 0.13676471
0.22254902 0.30588235 0.13333333
0.27941176 0.30980392 0.13333333
0.34117647 0.31372549 0.12941176
0.40686275 0.32009804 0.12941176
0.46862745 0.32156863 0.1245098
0.53039216 0.325 0.11421569
0.59215686 0.32745098 0.1
0.6495098 0.33823529 0.085784314
0.70490196 0.35490196 0.068627451
0.76568627 0.37696078 0.051960784
0.82745098 0.41176471 0.039215686
0.87254902 0.44264706 0.031372549
0.90588235 0.47352941 0.030392157
0.93970588 0.5004902 0.020098039
0.97058824 0.53333333 0.015686275
0.97696078 0.55833333 0.048529412
0.98333333 0.58235294 0.083333333
0.98823529 0.60686275 0.11421569
0.99215686 0.61960784 0.13333333
0.021078431 0.35196078 0.14362745
0.029901961 0.35349265 0.14362745
0.055392157 0.35588235 0.1432598
0.1004902 0.35588235 0.14871324
0.13431373 0.35661765 0.14705882
0.1713848 0.35998775 0.14099265
0.23186275 0.36482843 0.13970588
0.290625 0.36819853 0.1372549
0.35539216 0.37156863 0.1372549
0.42107843 0.37794118 0.13180147
0.4807598 0.38333333 0.11813725
0.54068627 0.38676471 0.10392157
0.60245098 0.39191176 0.093627451
0.66029412 0.3995098 0.078921569
0.71703431 0.41372549 0.058333333
0.77205882 0.43033088 0.035294118
0.82990196 0.44901961 0.013235294
0.87254902 0.47653186 0.0068627451
0.90490196 0.50686275 0.0089460784
0.93970588 0.53560049 0.0041053922
0.96617647 0.55833333 0.0051470588
0.97696078 0.57843137 0.036090686
0.98333333 0.59901961 0.073039216
0.98970588 0.62352941 0.10637255
0.99460784 0.63627451 0.1254902
0.014705882 0.41764706 0.14901961
0.014705882 0.41764706 0.14546569
0.02254902 0.41764706 0.14117647
0.068504902 0.41421569 0.14497549
0.11911765 0.40931373 0.14509804
0.17291667 0.41409314 0.14509804
0.23823529 0.42132353 0.14215686
0.29901961 0.4254902 0.14117647
0.36176471 0.42941176 0.13627451
0.42745098 0.43578431 0.12598039
0.49240196 0.44215686 0.11078431
0.55490196 0.44889706 0.09375
0.61519608 0.45490196 0.079411765
0.67401961 0.46262255 0.064705882
0.72941176 0.4754902 0.044117647
0.78480392 0.48909314 0.023897059
0.83529412 0.50294118 0.0078431373
0.87401961 0.51960784 0.00098039216
0.90490196 0.54411765 0.0039215686
0.93578431 0.57156863 0.0039215686
0.95980392 0.58529412 0.0058823529
0.97303922 0.6 0.027941176
0.98333333 0.61985294 0.061764706
0.98970588 0.64411765 0.099019608
0.99607843 0.66078431 0.1245098
0.0083333333 0.47941176 0.14558824
0.01127451 0.47726716 0.14528186
0.0039215686 0.47585784 0.14117647
0.035416667 0.4754902 0.14074755
0.12647059 0.47132353 0.14509804
0.18284314 0.47205882 0.14509804
0.24117647 0.47977941 0.14215686
0.30422794 0.48351716 0.13970588
0.36862745 0.4877451 0.12990196
0.43627451 0.49381127 0.11697304
0.4995098 0.50036765 0.10134804
0.56519608 0.51029412 0.08682598
0.62696078 0.51666667 0.069117647
0.68480392 0.52696078 0.050980392
0.73970588 0.53333333 0.02745098
0.79148284 0.54411765 0.017585784
0.83872549 0.55441176 0.0078431373
0.87401961 0.57107843 0.0039215686
0.90490196 0.58823529 0.0039215686
0.93235294 0.60582108 0.0039215686
0.95514706 0.61617647 0.0078431373
0.97303922 0.62653186 0.017218137
0.98333333 0.64411765 0.048039216
0.98970588 0.66078431 0.083823529
1 0.68137255 0.11813725
0.0039215686 0.54117647 0.13921569
0.0095588235 0.54117647 0.14044118
0.035294118 0.5372549 0.14362745
0.085539216 0.53357843 0.14705882
0.15098039 0.53333333 0.14803922
0.19411765 0.53553922 0.14460784
0.24264706 0.53872549 0.14117647
0.31421569 0.54264706 0.13578431
0.38431373 0.54901961 0.12941176
0.45122549 0.55416667 0.12426471
0.51568627 0.55931373 0.10637255
0.57745098 0.56617647 0.088970588
0.64117647 0.57254902 0.074509804
0.69877451 0.58088235 0.05245098
0.75 0.59166667 0.0083333333
0.79558824 0.5995098 0.0046568627
0.83921569 0.60784314 0.0098039216
0.87401961 0.62132353 0.0078431373
0.90098039 0.63235294 0.0088235294
0.92818627 0.64436275 0.0039215686
0.95098039 0.65196078 0.0078431373
0.96936275 0.65514706 0.011764706
0.98333333 0.66372549 0.015196078
0.99362745 0.67745098 0.037745098
1 0.68823529 0.058823529
0.0083333333 0.60588235 0.13431373
0.020833333 0.60373775 0.13645833
0.088235294 0.59767157 0.15
0.1533701 0.59509804 0.15729167
0.20661765 0.59509804 0.15539216
0.24313725 0.59509804 0.15245098
0.28210784 0.59767157 0.14522059
0.34754902 0.6026348 0.13756127
0.40931373 0.60637255 0.13039216
0.47077206 0.61029412 0.12647059
0.53235294 0.61115196 0.11813725
0.59411765 0.61421569 0.11127451
0.65367647 0.61985294 0.095098039
0.70876225 0.62990196 0.06182598
0.75294118 0.63627451 0.035171569
0.79803922 0.64528186 0.018688725
0.83921569 0.65343137 0.011764706
0.86979167 0.66341912 0.014215686
0.89693627 0.66960784 0.015196078
0.92359069 0.67990196 0.0044117647
0.94509804 0.6879902 0.0056372549
0.96176471 0.69166667 0.011335784
0.97928922 0.69473039 0.0087009804
0.99491422 0.69920343 0.0042892157
1 0.6995098 0.0098039216
0.10686275 0.65098039 0.15490196
0.1127451 0.64816176 0.1567402
0.15588235 0.64779412 0.16053922
0.22120098 0.65 0.16752451
0.26323529 0.65294118 0.16568627
0.29411765 0.65294118 0.15551471
0.32009804 0.65367647 0.14607843
0.37732843 0.65784314 0.14705882
0.43627451 0.65784314 0.15
0.49264706 0.65784314 0.14816176
0.5497549 0.65882353 0.14509804
0.60821078 0.66176471 0.13480392
0.66568627 0.66764706 0.11568627
0.71482843 0.67365196 0.089338235
0.75612745 0.67818627 0.073284314
0.79803922 0.69068627 0.04252451
0.83921569 0.70098039 0.0078431373
0.86617647 0.70588235 0.024019608
0.89240196 0.71078431 0.025490196
0.91752451 0.71813725 0.010784314
0.93970588 0.72254902 0.011764706
0.95784314 0.72254902 0.032230392
0.9747549 0.72573529 0.048039216
0.99068627 0.72647059 0.056862745
0.99607843 0.72647059 0.057843137
0.21617647 0.69754902 0.1754902
0.21770833 0.69454657 0.17941176
0.23639706 0.69215686 0.17941176
0.28302696 0.69430147 0.18314951
0.3245098 0.69607843 0.18137255
0.35128676 0.69607843 0.175
0.37843137 0.69901961 0.17267157
0.42009804 0.70447304 0.17751225
0.47009804 0.70784314 0.17696078
0.51917892 0.70784314 0.17303922
0.56531863 0.70539216 0.16666667
0.62205882 0.70784314 0.15814951
0.67328431 0.7125 0.14093137
0.71568627 0.7158701 0.12696078
0.75392157 0.72254902 0.10980392
0.79411765 0.7283701 0.085845588
0.83137255 0.73382353 0.069117647
0.85925245 0.73719363 0.07310049
0.88492647 0.74227941 0.076960784
0.91256127 0.74901961 0.064215686
0.93455882 0.75269608 0.067647059
0.95245098 0.75343137 0.08872549
0.97058824 0.75343137 0.10980392
0.98670343 0.75343137 0.11323529
0.99607843 0.75343137 0.11470588
0.3254902 0.74509804 0.2
0.3254902 0.74117647 0.2
0.33039216 0.7372549 0.2
0.34754902 0.73333333 0.2
0.38235294 0.7372549 0.2
0.40931373 0.7377451 0.19607843
0.44019608 0.74117647 0.20294118
0.47647059 0.74656863 0.21176471
0.52156863 0.75294118 0.21176471
0.55882353 0.75294118 0.20147059
0.59215686 0.75294118 0.19117647
0.63284314 0.75294118 0.18088235
0.67647059 0.75490196 0.17254902
0.71568627 0.75686275 0.16813725
0.75294118 0.75686275 0.16176471
0.79019608 0.76078431 0.14754902
0.82352941 0.76078431 0.1372549
0.85196078 0.76470588 0.13088235
0.88039216 0.76960784 0.12941176
0.90833333 0.77598039 0.12205882
0.92941176 0.78039216 0.12352941
0.9495098 0.78039216 0.14215686
0.96666667 0.78431373 0.15882353
0.98186275 0.78431373 0.17009804
0.99607843 0.78823529 0.17647059
0.40539216 0.77990196 0.23088235
0.40931373 0.77898284 0.22696078
0.41421569 0.77843137 0.22058824
0.4245098 0.77843137 0.21666667
0.44289216 0.78161765 0.21421569
0.47107843 0.78235294 0.21960784
0.50196078 0.78235294 0.22990196
0.53094363 0.78290441 0.24019608
0.56421569 0.7877451 0.24656863
0.59901961 0.7877451 0.23627451
0.62708333 0.78713235 0.22205882
0.65343137 0.78529412 0.21764706
0.68210784 0.7877451 0.21764706
0.71783088 0.7877451 0.21764706
0.75294118 0.7877451 0.21617647
0.78627451 0.7877451 0.20931373
0.81960784 0.79166667 0.19901961
0.8471201 0.79466912 0.19264706
0.87463235 0.7995098 0.18382353
0.90226716 0.80343137 0.17352941
0.92818627 0.80735294 0.16985294
0.94344363 0.80882353 0.18547794
0.96090686 0.81127451 0.2
0.97640931 0.81366422 0.2161152
0.99362745 0.81666667 0.23088235
0.47352941 0.80686275 0.26666667
0.47928922 0.80686275 0.26213235
0.48602941 0.80759804 0.25318627
0.49558824 0.81078431 0.24742647
0.50196078 0.81372549 0.24313725
0.51997549 0.81372549 0.24754902
0.54411765 0.81151961 0.25784314
0.56875 0.81078431 0.26715686
0.59901961 0.81372549 0.27352941
0.62928922 0.81372549 0.26715686
0.65490196 0.8129902 0.25906863
0.6754902 0.81078431 0.2627451
0.7 0.81372549 0.2627451
0.72892157 0.81470588 0.2627451
0.76053922 0.81470588 0.2627451
0.78933824 0.81764706 0.25882353
0.81568627 0.81862745 0.25588235
0.84411765 0.82156863 0.24558824
0.87181373 0.8254902 0.23921569
0.89963235 0.82904412 0.22892157
0.92058824 0.82990196 0.2254902
0.93811275 0.83333333 0.23198529
0.95563725 0.83431373 0.24215686
0.97303922 0.8372549 0.25747549
0.97941176 0.8372549 0.26568627
0.54215686 0.83431373 0.30784314
0.54589461 0.83431373 0.30147059
0.55 0.83431373 0.29215686
0.55349265 0.83731618 0.28823529
0.55808824 0.8379902 0.28431373
0.57058824 0.83823529 0.28823529
0.58897059 0.8377451 0.2932598
0.60490196 0.83823529 0.29803922
0.62990196 0.84166667 0.30441176
0.65490196 0.83952206 0.30018382
0.67892157 0.83823529 0.30392157
0.69908088 0.83823529 0.30392157
0.71887255 0.83995098 0.30784314
0.74558824 0.84166667 0.30778186
0.77303922 0.84166667 0.30477941
0.79852941 0.84215686 0.30392157
0.81911765 0.84215686 0.30343137
0.84264706 0.84589461 0.2995098
0.86875 0.84963235 0.29154412
0.89356618 0.85 0.28731618
0.91421569 0.85367647 0.28333333
0.9338848 0.85741422 0.28382353
0.95110294 0.86041667 0.2872549
0.96666667 0.86176471 0.29754902
0.96911765 0.86176471 0.3
0.60980392 0.8627451 0.34901961
0.60857843 0.86078431 0.34387255
0.60980392 0.86078431 0.33872549
0.61176471 0.86078431 0.33357843
0.61666667 0.86078431 0.33137255
0.62598039 0.86078431 0.33161765
0.63627451 0.8627451 0.33333333
0.6504902 0.86348039 0.33333333
0.6627451 0.86666667 0.3372549
0.68014706 0.86470588 0.34117647
0.7 0.8627451 0.34215686
0.72058824 0.86446078 0.34852941
0.7372549 0.86666667 0.35098039
0.7620098 0.86862745 0.35465686
0.78431373 0.86862745 0.35098039
0.80416667 0.86666667 0.34901961
0.82352941 0.86666667 0.35098039
0.84411765 0.86862745 0.35098039
0.86715686 0.87058824 0.34705882
0.88921569 0.87230392 0.34313725
0.90882353 0.8745098 0.34117647
0.92647059 0.87843137 0.33529412
0.94705882 0.88235294 0.33529412
0.95686275 0.88553922 0.33529412
0.95882353 0.88235294 0.33529412
0.66078431 0.88333333 0.39019608
0.66127451 0.88333333 0.38645833
0.66213235 0.88333333 0.38235294
0.66819853 0.88333333 0.37849265
0.67107843 0.8872549 0.37843137
0.67738971 0.88376225 0.37843137
0.6872549 0.88333333 0.37843137
0.69362745 0.88333333 0.37843137
0.6995098 0.88333333 0.37843137
0.7122549 0.88333333 0.38265931
0.72892157 0.88419118 0.38639706
0.74607843 0.8872549 0.39019608
0.76421569 0.88921569 0.39436275
0.78186275 0.89117647 0.39803922
0.79473039 0.89117647 0.39803922
0.81127451 0.89117647 0.39803922
0.82843137 0.89117647 0.39852941
0.84822304 0.89148284 0.40067402
0.86862745 0.89509804 0.40110294
0.88921569 0.89509804 0.39552696
0.90980392 0.89730392 0.39264706
0.92647059 0.89901961 0.39025735
0.9439951 0.90245098 0.38688725
0.95294118 0.90294118 0.3872549
0.95294118 0.90245098 0.38676471
0.70882353 0.90392157 0.43137255
0.70943627 0.90392157 0.4307598
0.7127451 0.90392157 0.42720588
0.71629902 0.90392157 0.42352941
0.72058824 0.90637255 0.42303922
0.72463235 0.90784314 0.42352941
0.72916667 0.90686275 0.42352941
0.73480392 0.90392157 0.42254902
0.7372549 0.9 0.41960784
0.74313725 0.90061275 0.42156863
0.76348039 0.90392157 0.43431373
0.77696078 0.90735294 0.43529412
0.79313725 0.90784314 0.43921569
0.80245098 0.90784314 0.43921569
0.8127451 0.90882353 0.44215686
0.82843137 0.91176471 0.44313725
0.84509804 0.91176471 0.44607843
0.85821078 0.91568627 0.44705882
0.8745098 0.91568627 0.45
0.89215686 0.91948529 0.45
0.90833333 0.91960784 0.44607843
0.92340686 0.91960784 0.44473039
0.94093137 0.91960784 0.44215686
0.94901961 0.91960784 0.44215686
0.94901961 0.91960784 0.44215686
0.76029412 0.9245098 0.47254902
0.76029412 0.9245098 0.47254902
0.76090686 0.9245098 0.46973039
0.76421569 0.9245098 0.46862745
0.76666667 0.9245098 0.46862745
0.77058824 0.92843137 0.46881127
0.77389706 0.92843137 0.47071078
0.77843137 0.92542892 0.46954657
0.77303922 0.91911765 0.46078431
0.77107843 0.91372549 0.45398284
0.79460784 0.92340686 0.47634804
0.81145833 0.9245098 0.48400735
0.82205882 0.92696078 0.48431373
0.82843137 0.92696078 0.48431373
0.8372549 0.92806373 0.48762255
0.85147059 0.92843137 0.490625
0.86421569 0.93088235 0.49215686
0.87542892 0.93235294 0.49215686
0.88872549 0.93480392 0.49607843
0.89901961 0.93480392 0.49607843
0.91053922 0.93553922 0.49607843
0.92383578 0.93627451 0.49754902
0.93811275 0.93627451 0.49754902
0.94509804 0.93872549 0.49754902
0.94509804 0.93872549 0.49754902
0.8 0.94117647 0.50588235
0.80245098 0.94117647 0.50588235
0.80882353 0.94509804 0.51078431
0.80441176 0.94166667 0.50637255
0.80392157 0.94117647 0.50588235
0.80784314 0.94166667 0.50588235
0.81470588 0.94509804 0.5127451
0.81029412 0.94362745 0.50686275
0.79607843 0.92941176 0.48627451
0.79166667 0.92401961 0.47794118
0.81764706 0.93431373 0.50392157
0.84215686 0.94460784 0.52843137
0.84509804 0.94117647 0.52156863
0.85098039 0.94117647 0.52156863
0.85784314 0.94117647 0.5245098
0.86813725 0.94509804 0.5254902
0.87843137 0.94509804 0.5254902
0.88480392 0.94509804 0.5254902
0.89509804 0.94901961 0.53039216
0.90931373 0.95245098 0.53676471
0.91568627 0.94901961 0.53333333
0.92598039 0.9495098 0.5372549
0.93627451 0.95294118 0.54019608
0.94117647 0.95294118 0.54117647
0.94117647 0.95294118 0.54117647
0.015686275 0.08627451 0.10196078
0.032352941 0.08627451 0.098039216
0.053308824 0.08627451 0.09375
0.073529412 0.08627451 0.090502451
0.095588235 0.084803922 0.090686275
0.13939951 0.08627451 0.097058824
0.18370098 0.08627451 0.10735294
0.22457108 0.082352941 0.10833333
0.26519608 0.080882353 0.1122549
0.3254902 0.077512255 0.115625
0.40245098 0.079044118 0.12291667
0.48265931 0.080882353 0.12775735
0.55490196 0.064460784 0.13308824
0.62567402 0.055698529 0.13823529
0.70147059 0.09375 0.13823529
0.77591912 0.15557598 0.13786765
0.83921569 0.18970588 0.13970588
0.88823529 0.24607843 0.14025735
0.92879902 0.31397059 0.1372549
0.96323529 0.36881127 0.13106618
0.9870098 0.41421569 0.13088235
0.99607843 0.45539216 0.14136029
0.99607843 0.49301471 0.1564951
0.99846814 0.53082108 0.17107843
1 0.5622549 0.18284314
0.022610294 0.095098039 0.10196078
0.03627451 0.092647059 0.099303002
0.056862745 0.092279412 0.095511642
0.076646752 0.089031863 0.092647059
0.1004902 0.08872549 0.092677696
0.14424786 0.09129136 0.10091146
0.18717831 0.093795956 0.10796569
0.23186275 0.093604473 0.11282935
0.2754902 0.092095588 0.115625
0.33670343 0.088380821 0.11885723
0.41053922 0.083976716 0.12547488
0.48148744 0.080997243 0.12794118
0.55321691 0.077481618 0.13308824
0.62872243 0.083042279 0.13823529
0.70746017 0.11384804 0.13823529
0.77745098 0.16384038 0.13752298
0.83921569 0.20882353 0.1372549
0.88823529 0.2627451 0.14117647
0.92918199 0.32371324 0.13970588
0.96323529 0.37617953 0.13468903
0.98578431 0.42058824 0.1299326
0.99607843 0.46157322 0.13803615
0.99607843 0.49957108 0.15340074
1 0.53604473 0.16862745
1 0.56470588 0.18529412
0.032352941 0.10686275 0.10257353
0.040563725 0.10686275 0.10257353
0.061397059 0.10382966 0.10110294
0.085768995 0.10355392 0.10013787
0.1127451 0.10269608 0.10061275
0.15245098 0.1057598 0.10744485
0.19705882 0.10747549 0.11243873
0.24123775 0.10747549 0.11761642
0.29007353 0.10686275 0.12071078
0.35170037 0.10248162 0.12486213
0.4182598 0.093014706 0.12509191
0.48276654 0.085294118 0.12775735
0.55055147 0.089154412 0.13112745
0.63230699 0.11269914 0.13601409
