site/assets/luts/sha256-da515d4d54478001c23c9a8e989838a75c4f6c50f1eb468832902736d1d3ccdc.cube
# LUTr-Schema-Version: 2
# LUTr-ID: sha256-da515d4d54478001c23c9a8e989838a75c4f6c50f1eb468832902736d1d3ccdc
# LUTr-Title: polaroid px-100uv+ warm
# LUTr-Collection: Natron HaldCLUT
# LUTr-Collection-ID: natron-haldclut-presets
# LUTr-Source: https://github.com/NatronGitHub/clut
# LUTr-Retrieved: 2026-07-27
# LUTr-Source-File: submissions/natron-haldclut-presets/instant_consumer/polaroid_px-100uv+_warm.png
# LUTr-Source-Format: HALD-PNG
# LUTr-Source-SHA256: da515d4d54478001c23c9a8e989838a75c4f6c50f1eb468832902736d1d3ccdc
# LUTr-License: CC-BY-SA-4.0
# LUTr-License-URL: https://github.com/NatronGitHub/clut#license
# LUTr-License-Basis: repo-license-file
# LUTr-Transform-Class: film-emulation
# LUTr-Tags: creative, film, film-emulation, hald-clut, natron, png, warm, cube
# LUTr-Input-Color-Space: srgb
# LUTr-Input-Gamut: rec709
# LUTr-Input-Transfer: srgb
# LUTr-Output-Color-Space: srgb
# LUTr-Output-Gamut: rec709
# LUTr-Output-Transfer: srgb
# LUTr-Color-Space-Confidence: assumed-display-referred
# LUTr-Domain-Normalized: true
# LUTr-Shaper: none
# LUTr-Original-Grid: 64x64x64
# LUTr-Conversion-Grid: 25x25x25
# LUTr-Conversion-Interpolation: trilinear
# LUTr-Conversion-Method: HALD-PNG LUT image decoded at 16-bit and sampled to 25x25x25 3D CUBE
# LUTr-Conversion-Tool: LUTr scripts/convert-all-to-cube.mjs 2.0.0
# LUTr-Conversion-Date: 2026-07-27
# LUTr-Note: Preserve this metadata and the upstream license notices when redistributing.
TITLE "polaroid px-100uv+ warm"
LUT_3D_SIZE 5
DOMAIN_MIN 0 0 0
DOMAIN_MAX 1 1 1
0.29019608 0.27058824 0.2745098
0.30980392 0.29411765 0.29705882
0.39607843 0.38431373 0.38823529
0.51568627 0.50392157 0.50686275
0.63529412 0.61960784 0.61176471
0.31666667 0.3 0.3
0.32745098 0.30882353 0.3125
0.40882353 0.39705882 0.40098039
0.51176471 0.5 0.50318627
0.63823529 0.62254902 0.61176471
0.42352941 0.41372549 0.41568627
0.43529412 0.42352941 0.425
0.4627451 0.45294118 0.45588235
0.54117647 0.53088235 0.52941176
0.65098039 0.63137255 0.61960784
0.58235294 0.56666667 0.55980392
0.55759804 0.54509804 0.54117647
0.57058824 0.55882353 0.55490196
0.63602941 0.61887255 0.61078431
0.73137255 0.70784314 0.68823529
0.77647059 0.75294118 0.72941176
0.76960784 0.74607843 0.72254902
0.77843137 0.75686275 0.73137255
0.8 0.77745098 0.75
0.84313725 0.81960784 0.78823529
0.32058824 0.30490196 0.30490196
0.35171569 0.33823529 0.33823529
0.44019608 0.42843137 0.43235294
0.53823529 0.52720588 0.52647059
0.65490196 0.63823529 0.62647059
0.37745098 0.36568627 0.36862745
0.37843137 0.37052696 0.37058824
0.45183824 0.44276961 0.4439951
0.54607843 0.53431373 0.53039216
0.66862745 0.64901961 0.6372549
0.46960784 0.45980392 0.46176471
0.47696078 0.46715686 0.46715686
0.50220588 0.49313725 0.49313725
0.56666667 0.55490196 0.55343137
0.69509804 0.6754902 0.65833333
0.60588235 0.59240196 0.58529412
0.60122549 0.58645833 0.58137255
0.61568627 0.59987745 0.59313725
0.67279412 0.65294118 0.64117647
0.74387255 0.72254902 0.7
0.78823529 0.76862745 0.74117647
0.77083333 0.74803922 0.7245098
0.78872549 0.76519608 0.73921569
0.81495098 0.79142157 0.76397059
0.83921569 0.81568627 0.78823529
0.46862745 0.45882353 0.4627451
0.48186275 0.47009804 0.47009804
0.53039216 0.51764706 0.51666667
0.59607843 0.58039216 0.5754902
0.71960784 0.69607843 0.67647059
0.48235294 0.47205882 0.4745098
0.49742647 0.48602941 0.48848039
0.53578431 0.52401961 0.52401961
0.6192402 0.60330882 0.59583333
0.74509804 0.72303922 0.69803922
0.53921569 0.52647059 0.5254902
0.54411765 0.53235294 0.53235294
0.58823529 0.57647059 0.57058824
0.65539216 0.6377451 0.62647059
0.75294118 0.73137255 0.70686275
0.66323529 0.64558824 0.63186275
0.66727941 0.64705882 0.63529412
0.67867647 0.65906863 0.64509804
0.72610294 0.70330882 0.68370098
0.79509804 0.77156863 0.74411765
0.81764706 0.79411765 0.76666667
0.8122549 0.78529412 0.75980392
0.82058824 0.79705882 0.76666667
0.84411765 0.82058824 0.78921569
0.87647059 0.85294118 0.82156863
0.63921569 0.62647059 0.61470588
0.65392157 0.63823529 0.62622549
0.68137255 0.66519608 0.65
0.7254902 0.70196078 0.68529412
0.77843137 0.75392157 0.73039216
0.65392157 0.6375 0.62647059
0.67408088 0.65759804 0.64215686
0.70208333 0.68247549 0.66470588
0.72297794 0.69944853 0.68063725
0.80098039 0.77352941 0.75
0.66911765 0.64803922 0.63578431
0.68639706 0.66678922 0.65294118
0.72083333 0.6995098 0.68137255
0.75955882 0.73615196 0.71262255
0.81617647 0.79313725 0.76372549
0.7254902 0.70882353 0.68921569
0.72506127 0.70435049 0.68529412
0.75735294 0.73468137 0.71335784
0.79846814 0.7754902 0.74803922
0.84117647 0.82058824 0.78921569
0.85098039 0.82745098 0.79607843
0.85098039 0.82745098 0.8
0.85980392 0.83970588 0.80490196
0.86666667 0.84485294 0.81176471
0.86666667 0.84705882 0.81176471
0.84313725 0.82352941 0.79215686
0.83137255 0.80784314 0.78039216
0.84705882 0.82352941 0.79411765
0.86764706 0.84705882 0.8127451
0.8627451 0.84313725 0.81176471
0.84313725 0.81960784 0.78823529
0.84313725 0.82034314 0.79215686
0.85490196 0.83529412 0.80098039
0.86593137 0.84411765 0.8127451
0.8745098 0.85196078 0.82352941
0.85098039 0.83137255 0.8
0.84901961 0.82745098 0.79754902
0.85490196 0.83529412 0.80392157
0.87352941 0.85098039 0.81960784
0.88235294 0.8627451 0.82941176
0.85490196 0.83529412 0.80490196
0.84485294 0.8252451 0.79485294
0.86715686 0.84754902 0.81421569
0.86838235 0.84779412 0.81568627
0.88529412 0.86568627 0.83039216
0.87058824 0.85098039 0.81960784
0.8745098 0.85490196 0.82254902
0.87843137 0.85686275 0.82352941
0.88333333 0.86372549 0.82843137
0.88235294 0.8627451 0.82745098
