site/assets/luts/sha256-55cee44486f5b43116cbaa8764f5be3780dcf795909b919b9aa78130f193c97f.cube
# LUTr-Schema-Version: 2
# LUTr-ID: sha256-55cee44486f5b43116cbaa8764f5be3780dcf795909b919b9aa78130f193c97f
# LUTr-Title: fuji ilford delta 3200
# LUTr-Collection: Natron HaldCLUT
# LUTr-Collection-ID: natron-haldclut-presets
# LUTr-Source: https://github.com/NatronGitHub/clut
# LUTr-Retrieved: 2026-07-27
# LUTr-Source-File: submissions/natron-haldclut-presets/negative_old/fuji_ilford_delta_3200.png
# LUTr-Source-Format: HALD-PNG
# LUTr-Source-SHA256: 55cee44486f5b43116cbaa8764f5be3780dcf795909b919b9aa78130f193c97f
# LUTr-License: CC-BY-SA-4.0
# LUTr-License-URL: https://github.com/NatronGitHub/clut#license
# LUTr-License-Basis: repo-license-file
# LUTr-Transform-Class: film-emulation
# LUTr-Tags: creative, film, film-emulation, hald-clut, natron, png, cube
# LUTr-Input-Color-Space: srgb
# LUTr-Input-Gamut: rec709
# LUTr-Input-Transfer: srgb
# LUTr-Output-Color-Space: srgb
# LUTr-Output-Gamut: rec709
# LUTr-Output-Transfer: srgb
# LUTr-Color-Space-Confidence: assumed-display-referred
# LUTr-Domain-Normalized: true
# LUTr-Shaper: none
# LUTr-Original-Grid: 64x64x64
# LUTr-Conversion-Grid: 25x25x25
# LUTr-Conversion-Interpolation: trilinear
# LUTr-Conversion-Method: HALD-PNG LUT image decoded at 16-bit and sampled to 25x25x25 3D CUBE
# LUTr-Conversion-Tool: LUTr scripts/convert-all-to-cube.mjs 2.0.0
# LUTr-Conversion-Date: 2026-07-27
# LUTr-Note: Preserve this metadata and the upstream license notices when redistributing.
TITLE "fuji ilford delta 3200"
LUT_3D_SIZE 9
DOMAIN_MIN 0 0 0
DOMAIN_MAX 1 1 1
0.074509804 0.074509804 0.074509804
0.078431373 0.078431373 0.078431373
0.085294118 0.085294118 0.085294118
0.12401961 0.12401961 0.12401961
0.19019608 0.19019608 0.19019608
0.26960784 0.26960784 0.26960784
0.35588235 0.35588235 0.35588235
0.47254902 0.47254902 0.47254902
0.58039216 0.58039216 0.58039216
0.070588235 0.070588235 0.070588235
0.086213235 0.086213235 0.086213235
0.10441176 0.10441176 0.10441176
0.14136029 0.14136029 0.14136029
0.20539216 0.20539216 0.20539216
0.28627451 0.28627451 0.28627451
0.37205882 0.37205882 0.37205882
0.47640931 0.47640931 0.47640931
0.5877451 0.5877451 0.5877451
0.10490196 0.10490196 0.10490196
0.12352941 0.12352941 0.12352941
0.12622549 0.12622549 0.12622549
0.19117647 0.19117647 0.19117647
0.25392157 0.25392157 0.25392157
0.3189951 0.3189951 0.3189951
0.40906863 0.40906863 0.40906863
0.51066176 0.51066176 0.51066176
0.61862745 0.61862745 0.61862745
0.18382353 0.18382353 0.18382353
0.19509804 0.19509804 0.19509804
0.21813725 0.21813725 0.21813725
0.25349265 0.25349265 0.25349265
0.30367647 0.30367647 0.30367647
0.37401961 0.37401961 0.37401961
0.46029412 0.46029412 0.46029412
0.55539216 0.55539216 0.55539216
0.62843137 0.62843137 0.62843137
0.28039216 0.28039216 0.28039216
0.28823529 0.28823529 0.28823529
0.31470588 0.31470588 0.31470588
0.34558824 0.34558824 0.34558824
0.37254902 0.37254902 0.37254902
0.43578431 0.43578431 0.43578431
0.51666667 0.51666667 0.51666667
0.61151961 0.61151961 0.61151961
0.70784314 0.70784314 0.70784314
0.39411765 0.39411765 0.39411765
0.40539216 0.40539216 0.40539216
0.41948529 0.41948529 0.41948529
0.44454657 0.44454657 0.44454657
0.46666667 0.46666667 0.46666667
0.51323529 0.51323529 0.51323529
0.57022059 0.57022059 0.57022059
0.6653799 0.6653799 0.6653799
0.75441176 0.75441176 0.75441176
0.54215686 0.54215686 0.54215686
0.55343137 0.55343137 0.55343137
0.55392157 0.55392157 0.55392157
0.55526961 0.55526961 0.55526961
0.60196078 0.60196078 0.60196078
0.63382353 0.63382353 0.63382353
0.67156863 0.67156863 0.67156863
0.72107843 0.72107843 0.72107843
0.82156863 0.82156863 0.82156863
0.70833333 0.70833333 0.70833333
0.71268382 0.71268382 0.71268382
0.72401961 0.72401961 0.72401961
0.72824755 0.72824755 0.72824755
0.75122549 0.75122549 0.75122549
0.77205882 0.77205882 0.77205882
0.80294118 0.80294118 0.80294118
0.82598039 0.82598039 0.82598039
0.87990196 0.87990196 0.87990196
0.88235294 0.88235294 0.88235294
0.85882353 0.85882353 0.85882353
0.86666667 0.86666667 0.86666667
0.8745098 0.8745098 0.8745098
0.88823529 0.88823529 0.88823529
0.89705882 0.89705882 0.89705882
0.91176471 0.91176471 0.91176471
0.93382353 0.93382353 0.93382353
0.96862745 0.96862745 0.96862745
0.082352941 0.082352941 0.082352941
0.082352941 0.082352941 0.082352941
0.08872549 0.08872549 0.08872549
0.1403799 0.1403799 0.1403799
0.20955882 0.20955882 0.20955882
0.28265931 0.28265931 0.28265931
0.37120098 0.37120098 0.37120098
0.48382353 0.48382353 0.48382353
0.59558824 0.59558824 0.59558824
0.082291667 0.082291667 0.082291667
0.092761949 0.092761949 0.092761949
0.1122549 0.1122549 0.1122549
0.16486673 0.16486673 0.16486673
0.22864583 0.22864583 0.22864583
0.30147059 0.30147059 0.30147059
0.39019608 0.39019608 0.39019608
0.49117647 0.49117647 0.49117647
0.58314951 0.58314951 0.58314951
0.12316176 0.12316176 0.12316176
0.13534007 0.13534007 0.13534007
0.16519608 0.16519608 0.16519608
0.21127451 0.21127451 0.21127451
0.27205882 0.27205882 0.27205882
0.33590686 0.33590686 0.33590686
0.42423407 0.42423407 0.42423407
0.52585784 0.52585784 0.52585784
0.63137255 0.63137255 0.63137255
0.21452206 0.21452206 0.21452206
0.21840533 0.21840533 0.21840533
0.23370098 0.23370098 0.23370098
0.26599265 0.26599265 0.26599265
0.32205882 0.32205882 0.32205882
0.39166667 0.39166667 0.39166667
0.47401961 0.47401961 0.47401961
0.56666667 0.56666667 0.56666667
0.64362745 0.64362745 0.64362745
0.31470588 0.31470588 0.31470588
0.31887255 0.31887255 0.31887255
0.32610294 0.32610294 0.32610294
0.35294118 0.35294118 0.35294118
0.39166667 0.39166667 0.39166667
0.4495098 0.4495098 0.4495098
0.52830882 0.52830882 0.52830882
0.61715686 0.61715686 0.61715686
0.71911765 0.71911765 0.71911765
0.41715686 0.41715686 0.41715686
0.42628676 0.42628676 0.42628676
0.42910539 0.42910539 0.42910539
0.44657629 0.44657629 0.44657629
0.48578431 0.48578431 0.48578431
0.51708793 0.51708793 0.51708793
0.58884804 0.58884804 0.58884804
0.6745098 0.6745098 0.6745098
0.75588235 0.75588235 0.75588235
0.55637255 0.55637255 0.55637255
0.56384804 0.56384804 0.56384804
0.56911765 0.56911765 0.56911765
0.57477022 0.57477022 0.57477022
0.59283088 0.59283088 0.59283088
0.63431373 0.63431373 0.63431373
0.67245711 0.67245711 0.67245711
0.73785233 0.73785233 0.73785233
0.8254902 0.8254902 0.8254902
0.70876225 0.70876225 0.70876225
0.71923254 0.71923254 0.71923254
0.72446385 0.72446385 0.72446385
0.71982996 0.71982996 0.71982996
0.74558824 0.74558824 0.74558824
0.77469363 0.77469363 0.77469363
0.80294118 0.80294118 0.80294118
0.84993873 0.84993873 0.84993873
0.88333333 0.88333333 0.88333333
0.86617647 0.86617647 0.86617647
0.87009804 0.87009804 0.87009804
0.88088235 0.88088235 0.88088235
0.87058824 0.87058824 0.87058824
0.88259804 0.88259804 0.88259804
0.90245098 0.90245098 0.90245098
0.92181373 0.92181373 0.92181373
0.9372549 0.9372549 0.9372549
0.94558824 0.94558824 0.94558824
0.097058824 0.097058824 0.097058824
0.094117647 0.094117647 0.094117647
0.11960784 0.11960784 0.11960784
0.16188725 0.16188725 0.16188725
0.22303922 0.22303922 0.22303922
0.30821078 0.30821078 0.30821078
0.39411765 0.39411765 0.39411765
0.50294118 0.50294118 0.50294118
0.61862745 0.61862745 0.61862745
0.10735294 0.10735294 0.10735294
0.12254902 0.12254902 0.12254902
0.14319853 0.14319853 0.14319853
0.18480392 0.18480392 0.18480392
0.25343137 0.25343137 0.25343137
0.32843137 0.32843137 0.32843137
0.41715686 0.41715686 0.41715686
0.52205882 0.52205882 0.52205882
0.63039216 0.63039216 0.63039216
0.13308824 0.13308824 0.13308824
0.16902574 0.16902574 0.16902574
0.2 0.2 0.2
0.2372549 0.2372549 0.2372549
0.30147059 0.30147059 0.30147059
0.37208946 0.37208946 0.37208946
0.45882353 0.45882353 0.45882353
0.56029412 0.56029412 0.56029412
0.65294118 0.65294118 0.65294118
0.24865196 0.24865196 0.24865196
0.25625 0.25625 0.25625
0.26911765 0.26911765 0.26911765
0.30381434 0.30381434 0.30381434
0.3588848 0.3588848 0.3588848
0.42608762 0.42608762 0.42608762
0.50217525 0.50217525 0.50217525
0.59117647 0.59117647 0.59117647
0.65453431 0.65453431 0.65453431
0.35 0.35 0.35
0.35784314 0.35784314 0.35784314
0.36544118 0.36544118 0.36544118
0.39068627 0.39068627 0.39068627
0.42328431 0.42328431 0.42328431
0.47794118 0.47794118 0.47794118
0.55134804 0.55134804 0.55134804
0.63578431 0.63578431 0.63578431
0.7245098 0.7245098 0.7245098
0.44742647 0.44742647 0.44742647
0.45749081 0.45749081 0.45749081
0.46727941 0.46727941 0.46727941
0.48333333 0.48333333 0.48333333
0.51789216 0.51789216 0.51789216
0.55 0.55 0.55
0.60392157 0.60392157 0.60392157
0.69362745 0.69362745 0.69362745
0.77732843 0.77732843 0.77732843
0.58823529 0.58823529 0.58823529
0.59316789 0.59316789 0.59316789
0.59509804 0.59509804 0.59509804
0.59963235 0.59963235 0.59963235
0.6245098 0.6245098 0.6245098
0.65511642 0.65511642 0.65511642
0.68627451 0.68627451 0.68627451
0.74788603 0.74788603 0.74788603
0.83161765 0.83161765 0.83161765
0.73872549 0.73872549 0.73872549
0.74652267 0.74652267 0.74652267
0.74264706 0.74264706 0.74264706
0.73872549 0.73872549 0.73872549
0.75900735 0.75900735 0.75900735
0.78020833 0.78020833 0.78020833
0.81461397 0.81461397 0.81461397
0.85 0.85 0.85
0.88333333 0.88333333 0.88333333
0.8872549 0.8872549 0.8872549
0.87830882 0.87830882 0.87830882
0.87769608 0.87769608 0.87769608
0.88541667 0.88541667 0.88541667
0.89019608 0.89019608 0.89019608
0.89497549 0.89497549 0.89497549
0.91862745 0.91862745 0.91862745
0.94411765 0.94411765 0.94411765
0.94117647 0.94117647 0.94117647
0.13431373 0.13431373 0.13431373
0.14430147 0.14430147 0.14430147
0.17647059 0.17647059 0.17647059
0.2127451 0.2127451 0.2127451
0.25661765 0.25661765 0.25661765
0.33780637 0.33780637 0.33780637
0.42438725 0.42438725 0.42438725
0.53167892 0.53167892 0.53167892
0.64705882 0.64705882 0.64705882
0.15343137 0.15343137 0.15343137
0.17410386 0.17410386 0.17410386
0.19361213 0.19361213 0.19361213
0.22580423 0.22580423 0.22580423
0.27616422 0.27616422 0.27616422
0.35539216 0.35539216 0.35539216
0.44594056 0.44594056 0.44594056
0.55290288 0.55290288 0.55290288
0.65833333 0.65833333 0.65833333
0.18970588 0.18970588 0.18970588
0.21127451 0.21127451 0.21127451
0.24901961 0.24901961 0.24901961
0.2877451 0.2877451 0.2877451
0.3435049 0.3435049 0.3435049
0.40490196 0.40490196 0.40490196
0.48970588 0.48970588 0.48970588
0.59117647 0.59117647 0.59117647
0.69166667 0.69166667 0.69166667
0.25741422 0.25741422 0.25741422
0.28216146 0.28216146 0.28216146
0.31839767 0.31839767 0.31839767
0.35700827 0.35700827 0.35700827
0.40980392 0.40980392 0.40980392
0.4719133 0.4719133 0.4719133
0.53555453 0.53555453 0.53555453
0.62194393 0.62194393 0.62194393
0.69810049 0.69810049 0.69810049
0.3620098 0.3620098 0.3620098
0.38514093 0.38514093 0.38514093
0.41158088 0.41158088 0.41158088
0.43823529 0.43823529 0.43823529
0.47034314 0.47034314 0.47034314
0.52303922 0.52303922 0.52303922
0.58933824 0.58933824 0.58933824
0.66976103 0.66976103 0.66976103
0.75147059 0.75147059 0.75147059
0.49852941 0.49852941 0.49852941
0.51022518 0.51022518 0.51022518
0.51343444 0.51343444 0.51343444
0.53333333 0.53333333 0.53333333
0.5533701 0.5533701 0.5533701
0.58872549 0.58872549 0.58872549
0.64071691 0.64071691 0.64071691
0.71911765 0.71911765 0.71911765
0.79607843 0.79607843 0.79607843
0.62487745 0.62487745 0.62487745
0.6308364 0.6308364 0.6308364
0.62990196 0.62990196 0.62990196
0.64319853 0.64319853 0.64319853
0.66023284 0.66023284 0.66023284
0.68460478 0.68460478 0.68460478
0.71688113 0.71688113 0.71688113
0.77401961 0.77401961 0.77401961
0.84362745 0.84362745 0.84362745
0.7653799 0.7653799 0.7653799
0.76911765 0.76911765 0.76911765
0.76568627 0.76568627 0.76568627
0.77647825 0.77647825 0.77647825
0.78161765 0.78161765 0.78161765
0.79705116 0.79705116 0.79705116
0.82469363 0.82469363 0.82469363
0.85686275 0.85686275 0.85686275
0.88382353 0.88382353 0.88382353
0.89019608 0.89019608 0.89019608
0.88921569 0.88921569 0.88921569
0.88296569 0.88296569 0.88296569
0.89019608 0.89019608 0.89019608
0.89730392 0.89730392 0.89730392
0.91525735 0.91525735 0.91525735
0.92254902 0.92254902 0.92254902
0.94558824 0.94558824 0.94558824
0.95686275 0.95686275 0.95686275
0.20784314 0.20784314 0.20784314
0.21715686 0.21715686 0.21715686
0.23823529 0.23823529 0.23823529
0.27818627 0.27818627 0.27818627
0.32941176 0.32941176 0.32941176
0.37352941 0.37352941 0.37352941
0.45588235 0.45588235 0.45588235
0.55686275 0.55686275 0.55686275
0.67254902 0.67254902 0.67254902
0.22867647 0.22867647 0.22867647
0.23109681 0.23109681 0.23109681
0.26709559 0.26709559 0.26709559
0.30867034 0.30867034 0.30867034
0.34240196 0.34240196 0.34240196
0.38455882 0.38455882 0.38455882
0.475 0.475 0.475
0.57570466 0.57570466 0.57570466
0.68382353 0.68382353 0.68382353
0.26862745 0.26862745 0.26862745
0.28382353 0.28382353 0.28382353
0.32205882 0.32205882 0.32205882
0.36072304 0.36072304 0.36072304
0.40220588 0.40220588 0.40220588
0.4346201 0.4346201 0.4346201
0.51764706 0.51764706 0.51764706
0.61770833 0.61770833 0.61770833
0.70980392 0.70980392 0.70980392
0.30563725 0.30563725 0.30563725
0.33651961 0.33651961 0.33651961
0.37977941 0.37977941 0.37977941
0.41351103 0.41351103 0.41351103
0.46372549 0.46372549 0.46372549
0.50545343 0.50545343 0.50545343
0.5685049 0.5685049 0.5685049
0.65931373 0.65931373 0.65931373
0.73504902 0.73504902 0.73504902
0.37745098 0.37745098 0.37745098
0.41495098 0.41495098 0.41495098
0.45196078 0.45196078 0.45196078
0.48676471 0.48676471 0.48676471
0.5245098 0.5245098 0.5245098
0.5754902 0.5754902 0.5754902
0.63848039 0.63848039 0.63848039
0.70710784 0.70710784 0.70710784
0.76862745 0.76862745 0.76862745
0.50784314 0.50784314 0.50784314
0.52352941 0.52352941 0.52352941
0.53823529 0.53823529 0.53823529
0.58379289 0.58379289 0.58379289
0.60343137 0.60343137 0.60343137
0.63455882 0.63455882 0.63455882
0.684375 0.684375 0.684375
0.75098039 0.75098039 0.75098039
0.81078431 0.81078431 0.81078431
0.64313725 0.64313725 0.64313725
0.65710784 0.65710784 0.65710784
0.67058824 0.67058824 0.67058824
0.6875 0.6875 0.6875
0.70220588 0.70220588 0.70220588
0.71231618 0.71231618 0.71231618
0.74791667 0.74791667 0.74791667
0.80490196 0.80490196 0.80490196
0.86764706 0.86764706 0.86764706
0.78063725 0.78063725 0.78063725
0.78998162 0.78998162 0.78998162
0.7971201 0.7971201 0.7971201
0.80695466 0.80695466 0.80695466
0.81164216 0.81164216 0.81164216
0.82089461 0.82089461 0.82089461
0.84754902 0.84754902 0.84754902
0.87751225 0.87751225 0.87751225
0.91470588 0.91470588 0.91470588
0.90392157 0.90392157 0.90392157
0.87769608 0.87769608 0.87769608
0.90441176 0.90441176 0.90441176
0.89779412 0.89779412 0.89779412
0.91372549 0.91372549 0.91372549
0.91887255 0.91887255 0.91887255
0.93578431 0.93578431 0.93578431
0.94166667 0.94166667 0.94166667
0.96078431 0.96078431 0.96078431
0.30392157 0.30392157 0.30392157
0.31390931 0.31390931 0.31390931
0.32401961 0.32401961 0.32401961
0.37401961 0.37401961 0.37401961
0.41887255 0.41887255 0.41887255
0.45594363 0.45594363 0.45594363
0.48394608 0.48394608 0.48394608
0.5877451 0.5877451 0.5877451
0.6745098 0.6745098 0.6745098
0.30606618 0.30606618 0.30606618
0.33039216 0.33039216 0.33039216
0.35949755 0.35949755 0.35949755
0.39382659 0.39382659 0.39382659
0.43406863 0.43406863 0.43406863
0.46568627 0.46568627 0.46568627
0.50306373 0.50306373 0.50306373
0.60294118 0.60294118 0.60294118
0.70128676 0.70128676 0.70128676
0.36323529 0.36323529 0.36323529
0.37884498 0.37884498 0.37884498
0.40539216 0.40539216 0.40539216
0.43310355 0.43310355 0.43310355
0.47892157 0.47892157 0.47892157
0.50363051 0.50363051 0.50363051
0.54543505 0.54543505 0.54543505
0.63524816 0.63524816 0.63524816
0.73284314 0.73284314 0.73284314
0.38382353 0.38382353 0.38382353
0.40692402 0.40692402 0.40692402
0.45147059 0.45147059 0.45147059
0.48815104 0.48815104 0.48815104
0.5325674 0.5325674 0.5325674
0.5634421 0.5634421 0.5634421
0.59693627 0.59693627 0.59693627
0.68535539 0.68535539 0.68535539
0.76323529 0.76323529 0.76323529
0.4370098 0.4370098 0.4370098
0.45343137 0.45343137 0.45343137
0.49068627 0.49068627 0.49068627
0.53480392 0.53480392 0.53480392
0.58333333 0.58333333 0.58333333
0.63063725 0.63063725 0.63063725
0.65796569 0.65796569 0.65796569
0.72818627 0.72818627 0.72818627
0.78627451 0.78627451 0.78627451
0.50539216 0.50539216 0.50539216
0.52843137 0.52843137 0.52843137
0.55539216 0.55539216 0.55539216
0.60965839 0.60965839 0.60965839
0.64901961 0.64901961 0.64901961
0.68278186 0.68278186 0.68278186
0.72585784 0.72585784 0.72585784
0.77794118 0.77794118 0.77794118
0.83039216 0.83039216 0.83039216
0.64166667 0.64166667 0.64166667
0.65151654 0.65151654 0.65151654
0.66960784 0.66960784 0.66960784
0.69656863 0.69656863 0.69656863
0.73805147 0.73805147 0.73805147
0.75343137 0.75343137 0.75343137
0.78998162 0.78998162 0.78998162
0.83933824 0.83933824 0.83933824
0.89215686 0.89215686 0.89215686
0.77843137 0.77843137 0.77843137
0.79019608 0.79019608 0.79019608
0.80098039 0.80098039 0.80098039
0.81665901 0.81665901 0.81665901
0.83627451 0.83627451 0.83627451
0.85098805 0.85098805 0.85098805
0.87535233 0.87535233 0.87535233
0.90863971 0.90863971 0.90863971
0.93039216 0.93039216 0.93039216
0.89656863 0.89656863 0.89656863
0.90606618 0.90606618 0.90606618
0.89901961 0.89901961 0.89901961
0.91127451 0.91127451 0.91127451
0.92818627 0.92818627 0.92818627
0.93333333 0.93333333 0.93333333
0.94509804 0.94509804 0.94509804
0.95490196 0.95490196 0.95490196
0.97647059 0.97647059 0.97647059
0.42352941 0.42352941 0.42352941
0.41960784 0.41960784 0.41960784
0.45465686 0.45465686 0.45465686
0.49154412 0.49154412 0.49154412
0.53088235 0.53088235 0.53088235
0.57009804 0.57009804 0.57009804
0.59803922 0.59803922 0.59803922
0.61311275 0.61311275 0.61311275
0.71568627 0.71568627 0.71568627
0.43884804 0.43884804 0.43884804
0.44727328 0.44727328 0.44727328
0.47696078 0.47696078 0.47696078
0.50392157 0.50392157 0.50392157
0.54607843 0.54607843 0.54607843
0.58137255 0.58137255 0.58137255
0.60931373 0.60931373 0.60931373
0.63425245 0.63425245 0.63425245
0.73198529 0.73198529 0.73198529
0.46887255 0.46887255 0.46887255
0.49338235 0.49338235 0.49338235
0.50563725 0.50563725 0.50563725
0.5361826 0.5361826 0.5361826
0.57647059 0.57647059 0.57647059
0.61510417 0.61510417 0.61510417
0.64142157 0.64142157 0.64142157
0.66626838 0.66626838 0.66626838
0.75882353 0.75882353 0.75882353
0.51335784 0.51335784 0.51335784
0.52803309 0.52803309 0.52803309
0.55275735 0.55275735 0.55275735
0.58039216 0.58039216 0.58039216
0.61911765 0.61911765 0.61911765
0.65392157 0.65392157 0.65392157
0.67714461 0.67714461 0.67714461
0.70932904 0.70932904 0.70932904
0.77928922 0.77928922 0.77928922
0.52647059 0.52647059 0.52647059
0.5307598 0.5307598 0.5307598
0.56875 0.56875 0.56875
0.61017157 0.61017157 0.61017157
0.65196078 0.65196078 0.65196078
0.69319853 0.69319853 0.69319853
0.71764706 0.71764706 0.71764706
0.75386029 0.75386029 0.75386029
0.79460784 0.79460784 0.79460784
0.57781863 0.57781863 0.57781863
0.59313725 0.59313725 0.59313725
0.60536152 0.60536152 0.60536152
0.64601716 0.64601716 0.64601716
0.68198529 0.68198529 0.68198529
0.72401961 0.72401961 0.72401961
0.76602328 0.76602328 0.76602328
0.80833333 0.80833333 0.80833333
0.84215686 0.84215686 0.84215686
0.64803922 0.64803922 0.64803922
0.66816789 0.66816789 0.66816789
0.69019608 0.69019608 0.69019608
0.69592525 0.69592525 0.69592525
0.75441176 0.75441176 0.75441176
0.78688725 0.78688725 0.78688725
0.82352941 0.82352941 0.82352941
0.86338848 0.86338848 0.86338848
0.90318627 0.90318627 0.90318627
0.77855392 0.77855392 0.77855392
0.7939185 0.7939185 0.7939185
0.79411765 0.79411765 0.79411765
0.81671262 0.81671262 0.81671262
0.85441176 0.85441176 0.85441176
0.86946998 0.86946998 0.86946998
0.8935049 0.8935049 0.8935049
0.93126532 0.93126532 0.93126532
0.94166667 0.94166667 0.94166667
0.90294118 0.90294118 0.90294118
0.91237745 0.91237745 0.91237745
0.90661765 0.90661765 0.90661765
0.9125 0.9125 0.9125
0.92941176 0.92941176 0.92941176
0.93872549 0.93872549 0.93872549
0.95857843 0.95857843 0.95857843
0.96605392 0.96605392 0.96605392
0.96862745 0.96862745 0.96862745
0.56372549 0.56372549 0.56372549
0.58284314 0.58284314 0.58284314
0.61323529 0.61323529 0.61323529
0.63235294 0.63235294 0.63235294
0.66323529 0.66323529 0.66323529
0.70588235 0.70588235 0.70588235
0.73933824 0.73933824 0.73933824
0.74797794 0.74797794 0.74797794
0.75490196 0.75490196 0.75490196
0.58584559 0.58584559 0.58584559
0.59754902 0.59754902 0.59754902
0.62026654 0.62026654 0.62026654
0.63756127 0.63756127 0.63756127
0.6745098 0.6745098 0.6745098
0.71060049 0.71060049 0.71060049
0.74754902 0.74754902 0.74754902
0.76618413 0.76618413 0.76618413
0.77058824 0.77058824 0.77058824
0.62634804 0.62634804 0.62634804
0.62892157 0.62892157 0.62892157
0.64362745 0.64362745 0.64362745
0.66617647 0.66617647 0.66617647
0.69754902 0.69754902 0.69754902
0.72794118 0.72794118 0.72794118
0.75980392 0.75980392 0.75980392
0.7745098 0.7745098 0.7745098
0.77487745 0.77487745 0.77487745
0.64932598 0.64932598 0.64932598
0.66105239 0.66105239 0.66105239
0.67406556 0.67406556 0.67406556
0.69460784 0.69460784 0.69460784
0.72009804 0.72009804 0.72009804
0.75202206 0.75202206 0.75202206
0.78529412 0.78529412 0.78529412
0.8009421 0.8009421 0.8009421
0.80784314 0.80784314 0.80784314
0.6379902 0.6379902 0.6379902
0.66078431 0.66078431 0.66078431
0.68609069 0.68609069 0.68609069
0.72058824 0.72058824 0.72058824
0.7504902 0.7504902 0.7504902
0.78342525 0.78342525 0.78342525
0.81397059 0.81397059 0.81397059
0.83452819 0.83452819 0.83452819
0.83210784 0.83210784 0.83210784
0.64754902 0.64754902 0.64754902
0.66519608 0.66519608 0.66519608
0.69575674 0.69575674 0.69575674
0.72941176 0.72941176 0.72941176
0.7620098 0.7620098 0.7620098
0.80833333 0.80833333 0.80833333
0.84474571 0.84474571 0.84474571
0.8654182 0.8654182 0.8654182
0.87303922 0.87303922 0.87303922
0.7254902 0.7254902 0.7254902
0.72941176 0.72941176 0.72941176
0.73572304 0.73572304 0.73572304
0.75945159 0.75945159 0.75945159
0.79313725 0.79313725 0.79313725
0.82696078 0.82696078 0.82696078
0.86731005 0.86731005 0.86731005
0.90134804 0.90134804 0.90134804
0.92009804 0.92009804 0.92009804
0.82640931 0.82640931 0.82640931
0.81851256 0.81851256 0.81851256
0.8102788 0.8102788 0.8102788
0.83625153 0.83625153 0.83625153
0.87254902 0.87254902 0.87254902
0.88137255 0.88137255 0.88137255
0.92397365 0.92397365 0.92397365
0.95435049 0.95435049 0.95435049
0.95784314 0.95784314 0.95784314
0.90147059 0.90147059 0.90147059
0.91029412 0.91029412 0.91029412
0.91764706 0.91764706 0.91764706
0.92922794 0.92922794 0.92922794
0.93137255 0.93137255 0.93137255
0.94528186 0.94528186 0.94528186
0.96568627 0.96568627 0.96568627
0.97696078 0.97696078 0.97696078
0.98088235 0.98088235 0.98088235
0.75294118 0.75294118 0.75294118
0.74901961 0.74901961 0.74901961
0.75588235 0.75588235 0.75588235
0.775 0.775 0.775
0.80588235 0.80588235 0.80588235
0.84460784 0.84460784 0.84460784
0.8627451 0.8627451 0.8627451
0.87892157 0.87892157 0.87892157
0.88235294 0.88235294 0.88235294
0.76078431 0.76078431 0.76078431
0.76072304 0.76072304 0.76072304
0.76764706 0.76764706 0.76764706
0.78890931 0.78890931 0.78890931
0.81348039 0.81348039 0.81348039
0.84546569 0.84546569 0.84546569
0.87095588 0.87095588 0.87095588
0.8872549 0.8872549 0.8872549
0.89362745 0.89362745 0.89362745
0.77254902 0.77254902 0.77254902
0.78088235 0.78088235 0.78088235
0.78602941 0.78602941 0.78602941
0.80477941 0.80477941 0.80477941
0.82745098 0.82745098 0.82745098
0.84852941 0.84852941 0.84852941
0.86862745 0.86862745 0.86862745
0.89203431 0.89203431 0.89203431
0.90098039 0.90098039 0.90098039
0.77254902 0.77254902 0.77254902
0.77990196 0.77990196 0.77990196
0.79901961 0.79901961 0.79901961
0.80784314 0.80784314 0.80784314
0.82083333 0.82083333 0.82083333
0.85741422 0.85741422 0.85741422
0.8682598 0.8682598 0.8682598
0.91354167 0.91354167 0.91354167
0.90833333 0.90833333 0.90833333
0.79803922 0.79803922 0.79803922
0.79044118 0.79044118 0.79044118
0.80294118 0.80294118 0.80294118
0.82867647 0.82867647 0.82867647
0.84313725 0.84313725 0.84313725
0.87401961 0.87401961 0.87401961
0.8872549 0.8872549 0.8872549
0.91764706 0.91764706 0.91764706
0.89019608 0.89019608 0.89019608
0.77254902 0.77254902 0.77254902
0.775 0.775 0.775
0.80294118 0.80294118 0.80294118
0.82598039 0.82598039 0.82598039
0.86029412 0.86029412 0.86029412
0.88382353 0.88382353 0.88382353
0.90833333 0.90833333 0.90833333
0.93088235 0.93088235 0.93088235
0.91666667 0.91666667 0.91666667
0.80196078 0.80196078 0.80196078
0.79803922 0.79803922 0.79803922
0.82279412 0.82279412 0.82279412
0.82487745 0.82487745 0.82487745
0.84852941 0.84852941 0.84852941
0.88933824 0.88933824 0.88933824
0.91862745 0.91862745 0.91862745
0.95306373 0.95306373 0.95306373
0.94607843 0.94607843 0.94607843
0.87843137 0.87843137 0.87843137
0.87156863 0.87156863 0.87156863
0.87892157 0.87892157 0.87892157
0.8973652 0.8973652 0.8973652
0.90833333 0.90833333 0.90833333
0.92383578 0.92383578 0.92383578
0.94656863 0.94656863 0.94656863
0.97254902 0.97254902 0.97254902
0.97696078 0.97696078 0.97696078
0.88235294 0.88235294 0.88235294
0.92107843 0.92107843 0.92107843
0.91862745 0.91862745 0.91862745
0.90980392 0.90980392 0.90980392
0.93529412 0.93529412 0.93529412
0.95833333 0.95833333 0.95833333
0.97254902 0.97254902 0.97254902
0.98088235 0.98088235 0.98088235
0.99607843 0.99607843 0.99607843
