site/assets/luts/sha256-4487e5dfba0b4b4521ffecc4ae5922e25e8f82fd200948e58b96f6d1dde63b56.cube
# LUTr-Schema-Version: 2
# LUTr-ID: sha256-4487e5dfba0b4b4521ffecc4ae5922e25e8f82fd200948e58b96f6d1dde63b56
# LUTr-Title: polaroid px-100uv+ cold
# LUTr-Collection: Natron HaldCLUT
# LUTr-Collection-ID: natron-haldclut-presets
# LUTr-Source: https://github.com/NatronGitHub/clut
# LUTr-Retrieved: 2026-07-27
# LUTr-Source-File: submissions/natron-haldclut-presets/instant_consumer/polaroid_px-100uv+_cold.png
# LUTr-Source-Format: HALD-PNG
# LUTr-Source-SHA256: 4487e5dfba0b4b4521ffecc4ae5922e25e8f82fd200948e58b96f6d1dde63b56
# LUTr-License: CC-BY-SA-4.0
# LUTr-License-URL: https://github.com/NatronGitHub/clut#license
# LUTr-License-Basis: repo-license-file
# LUTr-Transform-Class: film-emulation
# LUTr-Tags: creative, film, film-emulation, hald-clut, natron, png, cool, cube
# LUTr-Input-Color-Space: srgb
# LUTr-Input-Gamut: rec709
# LUTr-Input-Transfer: srgb
# LUTr-Output-Color-Space: srgb
# LUTr-Output-Gamut: rec709
# LUTr-Output-Transfer: srgb
# LUTr-Color-Space-Confidence: assumed-display-referred
# LUTr-Domain-Normalized: true
# LUTr-Shaper: none
# LUTr-Original-Grid: 64x64x64
# LUTr-Conversion-Grid: 25x25x25
# LUTr-Conversion-Interpolation: trilinear
# LUTr-Conversion-Method: HALD-PNG LUT image decoded at 16-bit and sampled to 25x25x25 3D CUBE
# LUTr-Conversion-Tool: LUTr scripts/convert-all-to-cube.mjs 2.0.0
# LUTr-Conversion-Date: 2026-07-27
# LUTr-Note: Preserve this metadata and the upstream license notices when redistributing.
TITLE "polaroid px-100uv+ cold"
LUT_3D_SIZE 9
DOMAIN_MIN 0 0 0
DOMAIN_MAX 1 1 1
0.2 0.27058824 0.27843137
0.19607843 0.27058824 0.27843137
0.21372549 0.28431373 0.29215686
0.26127451 0.32401961 0.33186275
0.30980392 0.36666667 0.3745098
0.38088235 0.42647059 0.42647059
0.46078431 0.49705882 0.48823529
0.54215686 0.56960784 0.55
0.61176471 0.63137255 0.60392157
0.21127451 0.28186275 0.28970588
0.20735294 0.28186275 0.28970588
0.22205882 0.29264706 0.3004902
0.25980392 0.32401961 0.33186275
0.32156863 0.37622549 0.38406863
0.39117647 0.43431373 0.4377451
0.46568627 0.5 0.49558824
0.54607843 0.57009804 0.55392157
0.60833333 0.62794118 0.60392157
0.23039216 0.30098039 0.30882353
0.22745098 0.29803922 0.30588235
0.25686275 0.31960784 0.33137255
0.28676471 0.34375 0.35441176
0.33676471 0.3872549 0.39509804
0.40588235 0.4439951 0.44607843
0.47254902 0.5 0.5
0.54607843 0.56666667 0.55735294
0.57745098 0.6 0.58039216
0.29362745 0.35 0.35784314
0.29332108 0.35 0.35784314
0.31041667 0.36470588 0.37254902
0.34068627 0.38921569 0.39705882
0.38014706 0.42132353 0.42794118
0.41960784 0.45098039 0.45882353
0.47647059 0.50061275 0.5
0.55814951 0.57745098 0.56550245
0.61029412 0.62990196 0.60637255
0.37254902 0.41568627 0.41960784
0.37647059 0.41936275 0.42352941
0.38039216 0.42303922 0.42745098
0.39068627 0.43063725 0.43578431
0.42352941 0.45784314 0.4627451
0.45906863 0.48651961 0.48970588
0.50980392 0.53333333 0.52696078
0.57941176 0.59901961 0.58308824
0.63921569 0.65490196 0.62745098
0.45147059 0.47745098 0.48137255
0.45147059 0.47873775 0.48137255
0.44816176 0.47745098 0.48137255
0.44754902 0.4783701 0.48137255
0.4754902 0.50294118 0.50147059
0.51029412 0.53382353 0.52935049
0.5557598 0.57708333 0.56323529
0.61029412 0.62990196 0.60588235
0.66421569 0.67990196 0.64460784
0.53235294 0.55196078 0.54313725
0.53137255 0.55196078 0.54313725
0.53210784 0.55490196 0.54313725
0.53419118 0.55588235 0.54705882
0.55 0.57254902 0.55882353
0.57806373 0.59767157 0.57990196
0.61642157 0.63431373 0.60980392
0.66568627 0.68137255 0.64558824
0.70784314 0.72254902 0.67941176
0.62598039 0.64509804 0.61715686
0.6254902 0.64509804 0.61715686
0.62941176 0.64889706 0.62107843
0.63333333 0.65245098 0.625
0.64093137 0.65661765 0.62843137
0.65784314 0.67352941 0.63823529
0.69656863 0.70845588 0.66862745
0.73480392 0.74699755 0.6995098
0.76176471 0.77303922 0.72205882
0.75294118 0.76862745 0.71372549
0.72598039 0.74166667 0.69411765
0.72058824 0.73333333 0.68921569
0.74362745 0.75539216 0.70588235
0.73137255 0.74313725 0.69607843
0.75196078 0.76372549 0.7127451
0.78039216 0.79215686 0.73431373
0.79264706 0.80392157 0.74558824
0.81568627 0.81960784 0.76078431
0.22303922 0.29362745 0.30147059
0.22303922 0.29362745 0.30147059
0.22990196 0.3004902 0.30833333
0.27892157 0.33952206 0.34705882
0.34068627 0.39166667 0.39583333
0.40245098 0.44558824 0.44558824
0.47218137 0.50784314 0.4995098
0.54650735 0.57395833 0.55392157
0.61568627 0.63872549 0.60784314
0.22738971 0.29754902 0.30539216
0.23431373 0.30141697 0.30931373
0.24970895 0.31568627 0.32401961
0.29008885 0.34920343 0.35704657
0.34852941 0.39754902 0.40321691
0.41029412 0.45212163 0.45212163
0.47717525 0.51127451 0.50343137
0.55042892 0.57702206 0.55784314
0.6161152 0.63578431 0.60827206
0.25343137 0.32009804 0.32794118
0.26115196 0.32401961 0.33218444
0.28026961 0.33912377 0.3504902
0.32120098 0.37352941 0.38137255
0.35759804 0.40422794 0.40931373
0.41813725 0.4564951 0.45758272
0.48382353 0.51127451 0.50772059
0.55 0.57046569 0.55859375
0.60637255 0.62598039 0.60257353
0.31813725 0.37303922 0.37843137
0.32203585 0.37636336 0.38088235
0.33293505 0.38198529 0.38982843
0.35949755 0.40441176 0.4122549
0.39117647 0.43137255 0.43529412
0.44019608 0.47156863 0.47468597
0.50111826 0.52428002 0.52095588
0.56184896 0.58006281 0.56922488
0.62567402 0.64509804 0.61783088
0.39166667 0.43088235 0.43480392
0.39384191 0.43137255 0.4370098
0.39209559 0.43265931 0.4370098
0.40481005 0.44215686 0.44607843
0.42806373 0.46139706 0.46617647
0.47107843 0.49705882 0.49803922
0.52892157 0.54871324 0.5408701
0.59068627 0.61007966 0.59068627
0.64313725 0.66053922 0.63137255
0.46305147 0.48872549 0.49264706
0.46127451 0.48872549 0.48903186
0.46145833 0.48921569 0.48921569
0.4653799 0.49313725 0.49306832
0.48397672 0.5104473 0.50784314
0.51390931 0.53736979 0.52990196
0.55994179 0.57990196 0.56582414
0.61372549 0.63177849 0.60618873
0.66029412 0.67598039 0.64313725
0.5439951 0.56372549 0.55453431
0.54362745 0.56360294 0.55441176
0.54007353 0.56259191 0.55098039
0.54007353 0.56237745 0.55098039
0.55324755 0.5747549 0.56078431
0.57953431 0.59745711 0.57990196
0.62340686 0.64178922 0.61461397
0.65827206 0.67395833 0.64166667
0.69656863 0.7122549 0.67169118
0.63719363 0.65294118 0.625
0.63719363 0.65594363 0.625
0.63719363 0.65594363 0.625
0.63302696 0.65 0.62220435
0.64286152 0.66026348 0.63039216
0.67003676 0.68572304 0.64993873
0.70831801 0.72234988 0.67909007
0.73137255 0.74313725 0.69901961
0.76568627 0.77745098 0.72598039
0.74117647 0.75686275 0.70588235
0.7372549 0.75251225 0.70196078
0.73321078 0.74852941 0.69803922
0.72401961 0.7372549 0.69234069
0.74117647 0.75294118 0.70588235
0.76617647 0.778125 0.72303922
0.78529412 0.79607843 0.73823529
0.8004902 0.80833333 0.75251225
0.82352941 0.83088235 0.76862745
0.25784314 0.32352941 0.33137255
0.26078431 0.32708333 0.33235294
0.2745098 0.33529412 0.34289216
0.31703431 0.37254902 0.37647059
0.37941176 0.4245098 0.42647059
0.44117647 0.47647059 0.475
0.50686275 0.53823529 0.5254902
0.57303922 0.6 0.57647059
0.63431373 0.65392157 0.62254902
0.26078431 0.32365196 0.33137255
0.27844669 0.33829657 0.34613971
0.29757966 0.35355392 0.36130515
0.33615196 0.38734681 0.39126838
0.38719363 0.43039216 0.43210784
0.44866728 0.48405331 0.48020833
0.5114277 0.53823529 0.53030025
0.58039216 0.60392157 0.58039216
0.63823529 0.65784314 0.62610294
0.2872549 0.34681373 0.35392157
0.30281863 0.35784314 0.36623775
0.3245098 0.37426471 0.38155637
0.36482843 0.40879289 0.41461397
0.40698529 0.4439951 0.44705882
0.45906863 0.49090074 0.48823529
0.52028186 0.54215686 0.53651961
0.58039216 0.6 0.58382353
0.6372549 0.65686275 0.6254902
0.35147059 0.4 0.40392157
0.36073836 0.40539216 0.41153493
0.37230392 0.41651348 0.42071078
0.4 0.43921569 0.44313725
0.43627451 0.46930147 0.47009804
0.4807598 0.50844056 0.50490196
0.53223039 0.55355392 0.54525123
0.58823529 0.60784314 0.58877145
0.65 0.66960784 0.63529412
0.41862745 0.45392157 0.45637255
0.42254902 0.45637255 0.45833333
0.4254902 0.45980392 0.45980392
0.44093137 0.47279412 0.47401961
0.46936275 0.49705882 0.49705882
0.50753676 0.53155637 0.52598039
0.55110294 0.57156863 0.55980392
0.60637255 0.62401961 0.60220588
0.66127451 0.67745098 0.64264706
0.48823529 0.51568627 0.51176471
0.48578431 0.51176471 0.50784314
0.48431373 0.50784314 0.50628064
0.49007353 0.51421569 0.5105239
0.51372549 0.53707108 0.52886029
0.54571078 0.56813725 0.55637255
0.59007353 0.60940564 0.58970588
0.62892157 0.64803922 0.62058824
0.66997549 0.68566176 0.65
0.56666667 0.58921569 0.57058824
0.57058824 0.59019608 0.57352941
0.56666667 0.59019608 0.57132353
0.57196691 0.59313725 0.57377451
0.58039216 0.60147059 0.58137255
0.60698529 0.62598039 0.60245098
0.63333333 0.65220588 0.62193627
0.66348039 0.67981005 0.64451593
0.67941176 0.69509804 0.65588235
0.65539216 0.67107843 0.63933824
0.66017157 0.67821691 0.64324449
0.66715686 0.68284314 0.64718137
0.6636489 0.68223039 0.64705882
0.66470588 0.68284314 0.64705882
0.67745098 0.69701287 0.65703125
0.70833333 0.72380515 0.67950368
0.73512561 0.74656863 0.6995098
0.75526961 0.76580882 0.71482843
0.74509804 0.75980392 0.70882353
0.74509804 0.75980392 0.70968137
0.75661765 0.77083333 0.71740196
0.7495098 0.76188725 0.71090686
0.75245098 0.76568627 0.71519608
0.7754902 0.7872549 0.73272059
0.78529412 0.79681373 0.74044118
0.80833333 0.81617647 0.75735294
0.83627451 0.84019608 0.78039216
0.33431373 0.38529412 0.38921569
0.34430147 0.39313725 0.39705882
0.35931373 0.40490196 0.40845588
0.37990196 0.42395833 0.4245098
0.42205882 0.46053922 0.45857843
0.47990196 0.50980392 0.50343137
0.53590686 0.56127451 0.54889706
0.60343137 0.62303922 0.5995098
0.65735294 0.67696078 0.64166667
0.3403799 0.38921569 0.39313725
0.35561428 0.40095741 0.40484069
0.3729473 0.41654412 0.42009804
0.39129136 0.43431373 0.43438266
0.4270527 0.46323529 0.4629902
0.48382353 0.51127451 0.50636489
0.54901961 0.57008272 0.55646446
0.61051624 0.63028493 0.604519
0.65863971 0.67696078 0.64295343
0.35747549 0.4067402 0.40784314
0.37109375 0.41531863 0.41750919
0.3939951 0.43431373 0.43511029
0.41813725 0.45513174 0.45582108
0.45294118 0.48357843 0.48186275
0.49852941 0.52267157 0.51726409
0.55343137 0.57671569 0.56210172
0.61519608 0.63480392 0.60831801
0.66519608 0.68419118 0.64705882
0.39558824 0.43627451 0.43780637
0.40949755 0.44737286 0.44785539
0.42879902 0.46335784 0.46335784
0.44901961 0.48039216 0.47943474
0.48259804 0.50882353 0.50490196
0.52401961 0.54697457 0.5372549
0.56418505 0.58443627 0.57058824
0.61942402 0.63872549 0.61401654
0.67696078 0.69264706 0.65643382
0.4495098 0.48088235 0.47892157
0.45450368 0.48651961 0.48284314
0.46697304 0.49730392 0.49411765
0.48333333 0.50882353 0.50609681
0.51151961 0.53186275 0.52794118
0.55098039 0.57104779 0.55882353
0.58578431 0.60588235 0.58829657
0.63023897 0.64852941 0.62092525
0.68480392 0.7004902 0.66127451
0.51911765 0.54264706 0.53480392
0.51819853 0.54264706 0.53480392
0.52552083 0.54863664 0.53872549
0.53817402 0.55833333 0.54752604
0.5497549 0.5698223 0.55759804
0.57941176 0.59997702 0.58186275
0.61943934 0.63728554 0.6127451
0.66189491 0.67922028 0.6446155
0.69803922 0.71372549 0.67303922
0.59754902 0.61715686 0.59411765
0.60147059 0.62268689 0.59790135
0.60539216 0.62463235 0.6004902
0.60723039 0.6261489 0.6004902
0.61697304 0.63553922 0.60943627
0.63333333 0.65068934 0.62225797
0.65931373 0.67598039 0.64126838
0.69361213 0.70922181 0.66662071
0.70784314 0.72352941 0.67977941
0.68235294 0.69754902 0.65833333
0.68621324 0.70163143 0.6622549
0.69715074 0.710769 0.67009804
0.69761795 0.71189491 0.67016697
0.69362745 0.70931373 0.66681985
0.70716912 0.72285539 0.67849265
0.72512255 0.73907782 0.69178922
0.74885876 0.76062347 0.70980392
0.75882353 0.77058824 0.71930147
0.76323529 0.775 0.72009804
0.76060049 0.7723652 0.72009804
0.76470588 0.77647059 0.72340686
0.76078431 0.77254902 0.71917892
0.76397059 0.77573529 0.72352941
0.77591912 0.78860294 0.73278186
0.79669118 0.80784314 0.74901961
0.82432598 0.83431373 0.77156863
0.82352941 0.83137255 0.77254902
0.4254902 0.45882353 0.45882353
0.42720588 0.45882353 0.46053922
0.44411765 0.47598039 0.4745098
0.46323529 0.49264706 0.48872549
0.48431373 0.51176471 0.50588235
0.51593137 0.54068627 0.53284314
0.56470588 0.58578431 0.57009804
0.63431373 0.65392157 0.62254902
0.69019608 0.70784314 0.66862745
0.43333333 0.46838235 0.46642157
0.43719363 0.4705576 0.46966912
0.45220588 0.48229167 0.47971814
0.46764706 0.49641544 0.49249387
0.48333333 0.50980392 0.50477941
0.51593137 0.53823529 0.53039216
0.57647059 0.5973652 0.57984069
0.6416973 0.66127451 0.62990196
0.69215686 0.70955882 0.66862745
0.44656863 0.47990196 0.47598039
0.44803922 0.47990196 0.47745098
0.46482843 0.49387255 0.48995098
0.48400735 0.51035539 0.50465686
0.50294118 0.52671569 0.52009804
0.53455882 0.55539216 0.54381127
0.58823529 0.60735294 0.5872549
0.64607843 0.66568627 0.63382353
0.69607843 0.71323529 0.67254902
0.46789216 0.49926471 0.49411765
0.47279412 0.5004902 0.49656863
0.49166667 0.51617647 0.51084559
0.50833333 0.53186275 0.52401961
0.53026961 0.55183824 0.54240196
0.5627451 0.58235294 0.56813725
0.60300245 0.62230392 0.59963235
0.65784314 0.67647059 0.64197304
0.71176471 0.72867647 0.68431373
0.48627451 0.51470588 0.50882353
0.50343137 0.52745098 0.52132353
0.51348039 0.5370098 0.52916667
0.52892157 0.54987745 0.54007353
0.55539216 0.575 0.5622549
0.58578431 0.60637255 0.58897059
0.61960784 0.63921569 0.6127451
0.66838235 0.68615196 0.64987745
0.71176471 0.72843137 0.68431373
0.55392157 0.57745098 0.56176471
0.56176471 0.58514093 0.56783088
0.56960784 0.58921569 0.57352941
0.5783701 0.59705882 0.5794424
0.59534314 0.61495098 0.5939951
0.61666667 0.63627451 0.61081495
0.64754902 0.66715686 0.63560049
0.68676471 0.70416667 0.66593137
0.73529412 0.74852941 0.70073529
0.62843137 0.64754902 0.61911765
0.63235294 0.65140931 0.62303922
0.63884804 0.65526961 0.62536765
0.64705882 0.6627451 0.63229167
0.65416667 0.67058824 0.63921569
0.66452206 0.68143382 0.64705882
0.69019608 0.70588235 0.66470588
0.725 0.73939951 0.69362745
0.75784314 0.77107843 0.71862745
0.71323529 0.72843137 0.68357843
0.71623775 0.72892157 0.68529412
0.71685049 0.73057598 0.68658088
0.71920956 0.73235294 0.68887868
0.72365196 0.73651961 0.69289216
0.73789828 0.75196078 0.70343137
0.75294118 0.76636029 0.71366422
0.77377451 0.78379289 0.73039216
0.79093137 0.8004902 0.74387255
0.79019608 0.80196078 0.74313725
0.78235294 0.79411765 0.73553922
0.77843137 0.78823529 0.73333333
0.77058824 0.78235294 0.72745098
0.78431373 0.79411765 0.73921569
0.79877451 0.81053922 0.7497549
0.80833333 0.81960784 0.75686275
0.81960784 0.82769608 0.76691176
0.82352941 0.83137255 0.76862745
0.52205882 0.54558824 0.53382353
0.52205882 0.5495098 0.53627451
0.52990196 0.55526961 0.54129902
0.54803922 0.57064951 0.55588235
0.56715686 0.58676471 0.57034314
0.58088235 0.59957108 0.58333333
0.59411765 0.61335784 0.59558824
0.66930147 0.68627451 0.65098039
0.72843137 0.74411765 0.6995098
0.52598039 0.55294118 0.5377451
0.52986366 0.55343137 0.54019608
0.53762255 0.56015625 0.54715074
0.55324755 0.57303922 0.5588848
0.56887255 0.58676471 0.57034314
0.58609069 0.60330116 0.58468903
0.61527267 0.63391544 0.60998775
0.67649357 0.69264706 0.65686275
0.73137255 0.746875 0.69981618
0.53676471 0.55919118 0.54558824
0.54031863 0.56127451 0.54803922
0.54779412 0.56657475 0.55333946
0.56242341 0.58074449 0.5657935
0.57843137 0.59534314 0.57892157
0.59705882 0.61473652 0.59310662
0.6276348 0.64724265 0.61813725
0.67696078 0.69607843 0.65686275
0.72879902 0.74264706 0.69558824
0.54656863 0.56764706 0.55441176
0.55085018 0.57064951 0.55588235
0.56090686 0.57987132 0.56372549
0.5777114 0.59532782 0.57886029
0.59537377 0.6127451 0.5926777
0.6158318 0.63465839 0.6098652
0.64973958 0.66842831 0.63627451
0.69871324 0.71470588 0.6727405
0.74509804 0.76023284 0.70833333
0.56715686 0.58921569 0.57083333
0.57352941 0.59675245 0.57735907
0.58014706 0.5997549 0.58063725
0.59509804 0.6127451 0.59240196
0.61213235 0.63014706 0.60747549
0.63036152 0.64877451 0.62254902
0.66427696 0.68161765 0.64705882
0.70897672 0.72530637 0.68088235
0.75833333 0.77009804 0.71911765
0.60140931 0.62401961 0.59901961
0.6122549 0.63186275 0.60655637
0.61502757 0.63209252 0.60778186
0.62310049 0.640625 0.61378676
0.64362745 0.66127451 0.63158701
0.66023284 0.67800245 0.6442019
0.68627451 0.70265012 0.6627451
0.72119332 0.73596048 0.69001225
0.76617647 0.77647059 0.72457108
0.6504902 0.67009804 0.63664216
0.6618413 0.67794118 0.64425551
0.66286765 0.67855392 0.64509804
0.67401961 0.68970588 0.65404412
0.6877451 0.70490196 0.66550245
0.70085784 0.71654412 0.673269
0.7192402 0.73465074 0.68844975
0.75196078 0.76421569 0.71554841
0.78284314 0.79362745 0.73872549
0.73627451 0.7504902 0.70294118
0.74234069 0.75523131 0.70686275
0.73970588 0.75147059 0.70390625
0.74706648 0.75883119 0.70967371
0.75554534 0.76838235 0.71724877
0.76023284 0.77352941 0.71991422
0.76969975 0.78146446 0.72642463
0.78939951 0.79899663 0.74344363
0.80588235 0.81372549 0.75490196
0.81568627 0.82352941 0.76078431
0.80802696 0.8158701 0.75471814
0.80330882 0.81286765 0.75404412
0.81323529 0.82352941 0.7622549
0.81568627 0.82426471 0.7622549
0.81415441 0.82352941 0.76133578
0.81568627 0.825 0.76470588
0.8213848 0.82922794 0.76862745
0.82745098 0.83529412 0.77254902
0.62254902 0.64215686 0.61372549
0.62254902 0.64215686 0.61458333
0.63039216 0.65 0.61862745
0.64105392 0.65784314 0.62830882
0.65784314 0.67303922 0.64166667
0.67107843 0.68529412 0.65294118
0.68235294 0.69632353 0.66176471
0.72757353 0.74019608 0.69607843
0.76960784 0.78137255 0.72647059
0.62647059 0.64607843 0.61764706
0.6303462 0.64607843 0.61861213
0.63495711 0.6528799 0.62254902
0.64589461 0.66125919 0.63002451
0.66176471 0.6754902 0.64362745
0.67873775 0.69306066 0.65723039
0.69378064 0.709375 0.66948529
0.71715686 0.73272059 0.68834252
0.76568627 0.77745098 0.72303922
0.63039216 0.64926471 0.62083333
0.63688725 0.65257353 0.62254902
0.64215686 0.65784314 0.62867647
0.65245098 0.66568627 0.63606005
0.66911765 0.68247549 0.64938725
0.68275123 0.69598652 0.66032475
0.69552696 0.71176471 0.66936275
0.70431985 0.72389706 0.67683824
0.7627451 0.77671569 0.72254902
0.63321078 0.65 0.62218137
0.63823529 0.65703125 0.62642463
0.64901961 0.66544118 0.63333333
0.6629136 0.67689951 0.64468444
0.68014706 0.69387255 0.65827206
0.69561887 0.70890012 0.67009804
0.70900735 0.72469363 0.68085172
0.7260723 0.74272365 0.69411765
0.77144608 0.78321078 0.72830882
0.64019608 0.65539216 0.62941176
0.64362745 0.66109069 0.62941176
0.65220588 0.67058824 0.63676471
0.67230392 0.6879902 0.65202206
0.68578431 0.70122549 0.66372549
0.70318627 0.71746324 0.67720588
0.71740196 0.73198529 0.68786765
0.74338235 0.75833333 0.70735294
0.77941176 0.79019608 0.73578431
0.66862745 0.68468137 0.64901961
0.67009804 0.68956801 0.6504902
0.67794118 0.69656863 0.6578125
0.68823529 0.70392157 0.6634038
0.70073529 0.71642157 0.67506127
0.72254902 0.73676471 0.6910386
0.73676471 0.75079657 0.70165441
0.76470588 0.77556679 0.7245098
0.80490196 0.81029412 0.75539216
0.68529412 0.70196078 0.66176471
0.70061275 0.71639093 0.67352941
0.71053922 0.7245098 0.68137255
0.7127451 0.72833946 0.68403799
0.72156863 0.7377451 0.69166667
0.74479167 0.75726103 0.70765931
0.76427696 0.77585784 0.72279412
0.79460784 0.80245098 0.74656863
0.82058824 0.8254902 0.76666667
0.74607843 0.75796569 0.71078431
0.75850184 0.77015931 0.71943934
0.76666667 0.7745098 0.72352941
0.77081801 0.78235294 0.73025429
0.77598039 0.78903186 0.73394608
0.7877451 0.79803922 0.74050245
0.79497549 0.80281863 0.74592525
0.82150735 0.82849265 0.76660539
0.82879902 0.83541667 0.77389706
0.81568627 0.82352941 0.76470588
0.82352941 0.82843137 0.76862745
0.82426471 0.83137255 0.76960784
0.83137255 0.83811275 0.77647059
0.82745098 0.83480392 0.77205882
0.83982843 0.84411765 0.78039216
0.83235294 0.83921569 0.77647059
0.83529412 0.84056373 0.77745098
0.83529412 0.84019608 0.77647059
0.72696078 0.73872549 0.69509804
0.72696078 0.74221814 0.69558824
0.73394608 0.74656863 0.6995098
0.7372549 0.74656863 0.70294118
0.7504902 0.76029412 0.7129902
0.76194853 0.77009804 0.72254902
0.76715686 0.77757353 0.72647059
0.790625 0.80147059 0.74607843
0.80882353 0.81666667 0.75784314
0.72696078 0.73915441 0.69515931
0.73088235 0.74264706 0.6986443
0.73480392 0.74656863 0.6995098
0.74090839 0.7504902 0.70343137
0.75441176 0.76375613 0.71495098
0.76730239 0.7771829 0.72647059
0.77397365 0.78272059 0.73039216
0.78971354 0.79803922 0.74264706
0.80882353 0.82009804 0.75784314
0.73088235 0.74252451 0.69546569
0.73345588 0.74264706 0.69901961
0.73872549 0.74941789 0.70294118
0.74656863 0.75441176 0.7089614
0.75833333 0.76746324 0.71862745
0.76925551 0.7776348 0.72647059
0.77794118 0.78921569 0.73431373
0.78186275 0.79352022 0.73823529
0.80882353 0.8192402 0.75772059
0.73480392 0.74656863 0.6995098
0.73915441 0.7504902 0.70343137
0.74313725 0.75441176 0.70735294
0.7504902 0.76207108 0.71341912
0.75833333 0.76960784 0.71878064
0.7713848 0.78155637 0.73020067
0.78632047 0.79705882 0.74077819
0.78997396 0.80101869 0.74246324
0.8122549 0.82009804 0.75784314
0.73872549 0.74681373 0.70318627
0.74114583 0.75269608 0.70364583
0.74301471 0.75588235 0.70723039
0.75441176 0.76583946 0.71470588
0.76286765 0.77267157 0.72254902
0.78039216 0.79019608 0.73808211
0.79313725 0.80098039 0.74564951
0.80147059 0.80906863 0.75196078
0.82401961 0.82990196 0.76911765
0.75018382 0.75980392 0.7122549
0.74758732 0.75935202 0.71078431
0.7504902 0.76354167 0.7122549
0.75655637 0.76960784 0.71470588
0.77156863 0.78318015 0.72892157
0.78921569 0.79754136 0.74215686
0.8015625 0.80919118 0.75133272
0.8249617 0.83000919 0.76950061
0.83560049 0.83952206 0.78039216
0.77107843 0.78272059 0.73039216
0.77107843 0.78235294 0.73092831
0.77855392 0.79019608 0.73529412
0.77205882 0.78538603 0.7303462
0.77794118 0.78946078 0.73449755
0.79852941 0.80698529 0.75009191
0.81819853 0.82423407 0.76326593
0.83589154 0.83970588 0.77814032
0.83627451 0.83933824 0.78039216
0.79454657 0.80196078 0.74656863
0.80179228 0.80844822 0.75354626
0.80882353 0.81323529 0.75784314
0.80098039 0.80900735 0.7536152
0.80539216 0.81495098 0.75591299
0.82655484 0.83235294 0.76960784
0.83213848 0.83606005 0.77438725
0.84405637 0.84754902 0.78475031
0.84313725 0.84705882 0.78431373
0.82794118 0.83186275 0.77303922
0.83878676 0.84270833 0.78082108
0.84227941 0.84620098 0.78431373
0.84362745 0.84883578 0.78609069
0.84926471 0.85514706 0.79044118
0.85490196 0.85882353 0.79215686
0.85539216 0.85539216 0.79215686
0.85147059 0.85490196 0.78872549
0.84754902 0.85098039 0.78823529
0.81568627 0.82352941 0.76470588
0.82352941 0.83137255 0.77205882
0.81960784 0.82745098 0.76862745
0.82205882 0.82745098 0.76862745
0.83137255 0.83921569 0.77647059
0.83137255 0.83529412 0.77647059
0.83529412 0.84019608 0.78039216
0.84705882 0.85147059 0.78823529
0.85098039 0.85490196 0.79215686
0.80784314 0.81568627 0.75686275
0.81176471 0.81960784 0.76078431
0.81875 0.82352941 0.76470588
0.82352941 0.82990196 0.76893382
0.83921569 0.84313725 0.78063725
0.83529412 0.83921569 0.77647059
0.83921569 0.84313725 0.78039216
0.85098039 0.85533088 0.79215686
0.85490196 0.85882353 0.79215686
0.80784314 0.81568627 0.75686275
0.80735294 0.81519608 0.75637255
0.81789216 0.82328431 0.76446078
0.82990196 0.83382353 0.77254902
0.8377451 0.84313725 0.78039216
0.84252451 0.84705882 0.78370098
0.84705882 0.85098039 0.7875
0.85882353 0.8627451 0.79620098
0.85882353 0.8627451 0.79607843
0.82352941 0.82990196 0.76862745
0.82990196 0.83382353 0.77254902
0.82352941 0.82990196 0.76862745
0.82591912 0.83137255 0.76862745
0.83137255 0.8372549 0.77647059
0.84552696 0.85098039 0.78578431
0.84705882 0.85245098 0.78823529
0.85116422 0.85490196 0.79215686
0.85490196 0.85882353 0.79215686
0.8254902 0.83137255 0.76862745
0.82745098 0.83137255 0.77058824
0.83137255 0.83529412 0.77254902
0.83210784 0.8372549 0.7745098
0.83137255 0.8372549 0.77647059
0.84705882 0.85098039 0.78823529
0.85343137 0.85539216 0.79215686
0.85490196 0.85882353 0.79215686
0.85490196 0.85490196 0.79215686
0.82892157 0.83284314 0.77254902
0.82352941 0.82745098 0.76862745
0.83137255 0.83529412 0.77254902
0.83529412 0.84166667 0.77647059
0.83284314 0.83921569 0.77647059
0.84313725 0.84705882 0.78431373
0.85943627 0.86164216 0.79607843
0.85098039 0.85441176 0.7903799
0.83921569 0.84313725 0.78039216
0.84313725 0.84705882 0.78431373
0.82843137 0.83529412 0.77352941
0.84313725 0.84705882 0.78504902
0.8317402 0.83737745 0.77647059
0.83578431 0.84166667 0.77843137
0.85098039 0.85490196 0.78860294
0.85490196 0.85882353 0.79215686
0.84963235 0.85098039 0.78823529
0.83921569 0.84019608 0.78039216
0.84705882 0.84754902 0.78823529
0.85055147 0.85147059 0.78872549
0.85098039 0.85490196 0.79215686
0.84754902 0.85147059 0.78872549
0.85318627 0.85882353 0.79240196
0.86145833 0.86305147 0.79871324
0.85931373 0.8627451 0.79607843
0.85447304 0.85490196 0.79172794
0.84754902 0.85098039 0.78823529
0.85490196 0.85490196 0.79215686
0.85882353 0.85882353 0.79607843
0.85882353 0.8627451 0.79901961
0.86666667 0.87058824 0.80539216
0.85882353 0.8627451 0.79607843
0.86029412 0.8627451 0.79607843
0.86666667 0.86666667 0.8
0.8622549 0.8627451 0.79607843
0.85882353 0.85882353 0.79215686
