site/assets/luts/sha256-268fe8537672456a51b1247d7d259f43d39a140b8f75376acc520b24641e59d9.cube
# LUTr-Schema-Version: 2
# LUTr-ID: sha256-268fe8537672456a51b1247d7d259f43d39a140b8f75376acc520b24641e59d9
# LUTr-Title: kodak kodachrome 200
# LUTr-Collection: Natron HaldCLUT
# LUTr-Collection-ID: natron-haldclut-presets
# LUTr-Source: https://github.com/NatronGitHub/clut
# LUTr-Retrieved: 2026-07-27
# LUTr-Source-File: submissions/natron-haldclut-presets/colorslide/kodak_kodachrome_200.png
# LUTr-Source-Format: HALD-PNG
# LUTr-Source-SHA256: 268fe8537672456a51b1247d7d259f43d39a140b8f75376acc520b24641e59d9
# LUTr-License: CC-BY-SA-4.0
# LUTr-License-URL: https://github.com/NatronGitHub/clut#license
# LUTr-License-Basis: repo-license-file
# LUTr-Transform-Class: film-emulation
# LUTr-Tags: creative, film, film-emulation, hald-clut, natron, png, cube
# LUTr-Input-Color-Space: srgb
# LUTr-Input-Gamut: rec709
# LUTr-Input-Transfer: srgb
# LUTr-Output-Color-Space: srgb
# LUTr-Output-Gamut: rec709
# LUTr-Output-Transfer: srgb
# LUTr-Color-Space-Confidence: assumed-display-referred
# LUTr-Domain-Normalized: true
# LUTr-Shaper: none
# LUTr-Original-Grid: 64x64x64
# LUTr-Conversion-Grid: 25x25x25
# LUTr-Conversion-Interpolation: trilinear
# LUTr-Conversion-Method: HALD-PNG LUT image decoded at 16-bit and sampled to 25x25x25 3D CUBE
# LUTr-Conversion-Tool: LUTr scripts/convert-all-to-cube.mjs 2.0.0
# LUTr-Conversion-Date: 2026-07-27
# LUTr-Note: Preserve this metadata and the upstream license notices when redistributing.
TITLE "kodak kodachrome 200"
LUT_3D_SIZE 9
DOMAIN_MIN 0 0 0
DOMAIN_MAX 1 1 1
0.019607843 0.015686275 0.023529412
0.069607843 0.012254902 0.012254902
0.1754902 0.018627451 0.018627451
0.3377451 0.045588235 0.049509804
0.49607843 0.02745098 0.033333333
0.6372549 0.0093137255 0.015686275
0.75588235 0.023529412 0.019607843
0.84068627 0.019117647 0.023529412
0.91764706 0.0078431373 0.019607843
0.046568627 0.081372549 0.03872549
0.10435049 0.09307598 0.05435049
0.1995098 0.081372549 0.039093137
0.35294118 0.080882353 0.060784314
0.50735294 0.075245098 0.058088235
0.64901961 0.069117647 0.042647059
0.75980392 0.068627451 0.043014706
0.85153186 0.069056373 0.042647059
0.92156863 0.056862745 0.03872549
0.073529412 0.21470588 0.11078431
0.1310049 0.22352941 0.12254902
0.23406863 0.21470588 0.10686275
0.39166667 0.2192402 0.12892157
0.54019608 0.2127451 0.12303922
0.66078431 0.20294118 0.1057598
0.77083333 0.19117647 0.10073529
0.86813725 0.16629902 0.075122549
0.93627451 0.15392157 0.061764706
0.036764706 0.36911765 0.19705882
0.12843137 0.36666667 0.20128676
0.27205882 0.37303922 0.17696078
0.41917892 0.37303922 0.19503676
0.55539216 0.37107843 0.19509804
0.675 0.36127451 0.17598039
0.7754902 0.35588235 0.16360294
0.86813725 0.34148284 0.1495098
0.94117647 0.33235294 0.13578431
0.11568627 0.51764706 0.28431373
0.21397059 0.5120098 0.28651961
0.33333333 0.51176471 0.27254902
0.45294118 0.51568627 0.28553922
0.57058824 0.52156863 0.28039216
0.68284314 0.51691176 0.25367647
0.7754902 0.50588235 0.25441176
0.87598039 0.49215686 0.225
0.94117647 0.48627451 0.2
0.2872549 0.62794118 0.37696078
0.32205882 0.63186275 0.38302696
0.40428922 0.63786765 0.36973039
0.49601716 0.63425245 0.37064951
0.5995098 0.63186275 0.37696078
0.69160539 0.63186275 0.36127451
0.77977941 0.63186275 0.34852941
0.87579657 0.61979167 0.31764706
0.94117647 0.60980392 0.29313725
0.42647059 0.72843137 0.46568627
0.43382353 0.73235294 0.46568627
0.48014706 0.73235294 0.46960784
0.54411765 0.73235294 0.46568627
0.62892157 0.73284314 0.4627451
0.70735294 0.73296569 0.45637255
0.79019608 0.72916667 0.44534314
0.8754902 0.7245098 0.41776961
0.95196078 0.72843137 0.37647059
0.51519608 0.82892157 0.5622549
0.51911765 0.83284314 0.5622549
0.55196078 0.83026961 0.5622549
0.60441176 0.83284314 0.56256127
0.67132353 0.83284314 0.56617647
0.73284314 0.81715686 0.54901961
0.80245098 0.82205882 0.5504902
0.87990196 0.82941176 0.53872549
0.95686275 0.83284314 0.50833333
0.58823529 0.91372549 0.64313725
0.59607843 0.92156863 0.6504902
0.61470588 0.93137255 0.65588235
0.64803922 0.92156863 0.65098039
0.69411765 0.90392157 0.64117647
0.75196078 0.89166667 0.63137255
0.82254902 0.91470588 0.64313725
0.89901961 0.92156863 0.63529412
0.97647059 0.93333333 0.62745098
0.011764706 0.0039215686 0.026470588
0.065257353 0.011335784 0.034375
0.16997549 0.0088235294 0.034803922
0.32843137 0.026470588 0.052941176
0.48872549 0.025980392 0.056372549
0.63333333 0.017156863 0.051960784
0.75588235 0.034436275 0.065196078
0.85637255 0.011764706 0.029963235
0.90980392 0.0039215686 0.019607843
0.050490196 0.081372549 0.084313725
0.096078431 0.085723039 0.085240502
0.20729167 0.092754289 0.088250613
0.34977788 0.081043199 0.092195159
0.4997549 0.084313725 0.096109069
0.63880974 0.07522212 0.094630821
0.75631127 0.05736826 0.080775123
0.85245098 0.061335784 0.073039216
0.91764706 0.050428922 0.061764706
0.089215686 0.2189951 0.14607843
0.12740502 0.22254902 0.14607843
0.23030025 0.21927083 0.15392157
0.38426777 0.21862745 0.15422794
0.53063725 0.21519608 0.15955882
0.65330882 0.2037837 0.15655637
0.7638174 0.18333333 0.13860294
0.86421569 0.16818321 0.11830576
0.92806373 0.17218137 0.10441176
0.034191176 0.37352941 0.21783088
0.11187194 0.37322304 0.22203585
0.26421569 0.37303922 0.2310049
0.41954657 0.37303922 0.22990196
0.54754902 0.37215074 0.22990196
0.66341912 0.36519608 0.21979933
0.76776961 0.35310968 0.2019761
0.86813725 0.34019608 0.18224571
0.93382353 0.33235294 0.16421569
0.12083333 0.51813725 0.30661765
0.21204044 0.51764706 0.32184436
0.32573529 0.51764706 0.32647059
0.4479473 0.52083333 0.31755515
0.56875 0.52156863 0.30882353
0.675 0.51112132 0.30401348
0.7754902 0.50539216 0.28713235
0.87426471 0.50217525 0.25318627
0.94117647 0.50392157 0.22696078
0.28707108 0.62941176 0.41145833
0.32598039 0.63723192 0.42647059
0.40050551 0.63970588 0.41617647
0.50202206 0.63578431 0.40262714
0.59568015 0.63186275 0.39607843
0.68823529 0.63186275 0.39166667
0.78333333 0.62807904 0.375
0.88349418 0.62009804 0.34197304
0.94117647 0.61979167 0.32892157
0.41862745 0.73235294 0.5004902
0.42990196 0.73627451 0.5029565
0.47846201 0.73627451 0.50009191
0.54803922 0.73325674 0.49215686
0.62843137 0.73235294 0.48872549
0.7053462 0.73333333 0.48872549
0.79181985 0.72778799 0.47178309
0.88377757 0.7245098 0.4495098
0.94644608 0.72193627 0.43039216
0.50735294 0.82849265 0.58872549
0.51514246 0.82892157 0.58529412
0.54411765 0.83316483 0.58362439
0.60222886 0.83676471 0.58110447
0.66544118 0.83722426 0.58379289
0.72908241 0.825 0.57745098
0.80330882 0.82936581 0.56960784
0.88806679 0.83284314 0.55778952
0.95343137 0.82941176 0.54172794
0.57303922 0.90588235 0.65490196
0.57689951 0.90931373 0.65490196
0.60294118 0.92009804 0.65833333
0.64215686 0.92352941 0.65686275
0.69019608 0.92107843 0.6622549
0.75196078 0.91341912 0.65459559
0.82291667 0.93026961 0.65931373
0.8995098 0.92892157 0.64607843
0.98039216 0.93382353 0.63872549
0.028431373 0.011764706 0.096078431
0.058578431 0.017156863 0.093504902
0.15661765 0.0039215686 0.08627451
0.31875 0.0078431373 0.093627451
0.48823529 0.010294118 0.098039216
0.62941176 0.0078431373 0.093995098
0.74411765 0.0080882353 0.085294118
0.84558824 0.018259804 0.091666667
0.91764706 0.0078431373 0.07254902
0.054411765 0.087745098 0.14607843
0.093137255 0.08604473 0.15225184
0.20036765 0.089705882 0.15257353
0.34791667 0.084849877 0.15355392
0.50128676 0.08872549 0.16078431
0.63886336 0.081112132 0.14852941
0.74776348 0.064920343 0.13409926
0.85343137 0.045572917 0.11458333
0.9254902 0.037745098 0.095465686
0.073529412 0.21151961 0.21789216
0.098008578 0.21862745 0.22153799
0.21942402 0.21470588 0.21936275
0.37303922 0.20658701 0.22300858
0.52647059 0.2064951 0.22953431
0.65085784 0.19693627 0.21835172
0.76115196 0.18235294 0.2002451
0.86323529 0.16259191 0.17598039
0.92867647 0.14901961 0.14901961
0.065196078 0.36911765 0.29497549
0.094745711 0.37437194 0.29460784
0.2551777 0.37028186 0.2995098
0.41078431 0.37193627 0.30591299
0.54540441 0.36911765 0.30955882
0.65862439 0.36303615 0.3
0.76654412 0.34923407 0.28394608
0.86813725 0.3430913 0.25926777
0.90441176 0.33235294 0.24362745
0.1 0.52156863 0.37794118
0.20202206 0.51942402 0.38431373
0.31066176 0.52316176 0.38480392
0.43921569 0.52156863 0.38382353
0.5629902 0.52156863 0.38627451
0.67015931 0.51219363 0.37941176
0.77046569 0.50539216 0.36948529
0.87205882 0.49393382 0.3377451
0.91421569 0.49264706 0.32058824
0.30784314 0.64362745 0.47585784
0.31752451 0.63970588 0.47193627
0.39378064 0.63970588 0.4705576
0.49695159 0.6372549 0.46104473
0.58480392 0.63578431 0.46090686
0.68321078 0.62941176 0.46482843
0.77941176 0.62401961 0.45208333
0.87575061 0.61979167 0.41930147
0.93370098 0.62009804 0.4057598
0.40465686 0.73627451 0.54681373
0.42598039 0.73921569 0.54681373
0.47622549 0.74019608 0.54926471
0.5403799 0.74019608 0.54518995
0.62071078 0.73627451 0.53897059
0.6995098 0.73627451 0.54117647
0.78768382 0.72714461 0.53143382
0.88354779 0.7245098 0.51001838
0.94215686 0.7245098 0.50294118
0.50343137 0.83284314 0.62352941
0.51427696 0.83284314 0.62009804
0.54901961 0.84047181 0.62380515
0.59019608 0.84460784 0.62389706
0.65802696 0.84068627 0.61954657
0.72633272 0.83489583 0.61519608
0.79938725 0.83284314 0.61547181
0.89226409 0.83284314 0.59946385
0.95686275 0.83321078 0.59117647
0.57254902 0.92058824 0.68921569
0.57904412 0.9245098 0.68921569
0.60367647 0.92867647 0.68921569
0.64166667 0.93517157 0.69276961
0.69019608 0.93529412 0.69264706
0.74803922 0.92487745 0.68529412
0.81764706 0.93431373 0.69019608
0.8995098 0.93333333 0.68137255
0.97352941 0.93431373 0.6745098
0.011764706 0.0078431373 0.1745098
0.050612745 0.012009804 0.17720588
0.15686275 0.0078431373 0.17598039
0.30637255 0.009375 0.18143382
0.48308824 0.011029412 0.18823529
0.62941176 0.0078431373 0.18627451
0.74117647 0.0039215686 0.16115196
0.83284314 0.0078431373 0.14411765
0.91519608 0.0024509804 0.11029412
0.044117647 0.092340686 0.22990196
0.086090686 0.081104473 0.23494945
0.18039216 0.077098652 0.2377451
0.33694853 0.084987745 0.24540441
0.4973652 0.073223039 0.253125
0.62941176 0.066973039 0.2411152
0.74443934 0.056556373 0.22107843
0.84384957 0.060784314 0.19675245
0.91764706 0.030882353 0.175
0.062745098 0.20870098 0.29852941
0.093765319 0.21078431 0.30439645
0.21311275 0.21078431 0.31029412
0.36813725 0.20931373 0.31127451
0.51966912 0.21078431 0.32095588
0.64693627 0.19901961 0.31482843
0.75376838 0.18688725 0.29644608
0.85637255 0.1622549 0.2665288
0.90735294 0.1622549 0.25
0.026531863 0.36911765 0.37604167
0.07823989 0.37303922 0.37996324
0.24068627 0.37303922 0.38295037
0.39601716 0.36911765 0.3872549
0.54362745 0.36519608 0.39356618
0.65931373 0.35792739 0.39509804
0.76372549 0.3495098 0.37866115
0.8577742 0.34754902 0.35392157
0.90441176 0.34411765 0.34356618
0.078676471 0.52156863 0.45514706
0.16887255 0.52156863 0.45514706
0.30128676 0.52052696 0.45906863
0.4283701 0.52034314 0.46375613
0.55723039 0.51960784 0.46691176
0.66323529 0.51222426 0.46737132
0.76102941 0.50906863 0.46158088
0.85637255 0.49518995 0.43357843
0.90710784 0.49142157 0.42156863
0.26372549 0.63578431 0.52996324
0.30882353 0.64362745 0.53333333
0.38445159 0.64007353 0.53333333
0.48572304 0.64117647 0.53333333
0.57840074 0.63970588 0.53333333
0.67912837 0.6348652 0.53333333
0.76911765 0.63094363 0.53310355
0.86058517 0.62774969 0.51342678
0.92604167 0.6254902 0.50196078
0.39607843 0.73627451 0.59509804
0.41928615 0.74019608 0.59509804
0.4713848 0.74102328 0.59629289
0.53419118 0.7407935 0.59961703
0.61182598 0.73627451 0.59509804
0.69852941 0.73235294 0.59509804
0.78259804 0.73627451 0.6004902
0.87008272 0.73235294 0.5910386
0.9372549 0.73235294 0.57941176
0.496875 0.83333333 0.66078431
0.50729167 0.83333333 0.65863971
0.54214154 0.84068627 0.6622549
0.5872549 0.84104626 0.66606158
0.65324755 0.83685662 0.6622549
0.71954657 0.83676471 0.66244638
0.79852941 0.8368413 0.6622549
0.88543964 0.83333333 0.654519
0.95343137 0.8372549 0.64901961
0.57794118 0.94411765 0.72941176
0.57775735 0.93854167 0.7254902
0.59718137 0.92610294 0.72009804
0.6377451 0.93817402 0.72794118
0.68504902 0.93333333 0.72794118
0.74803922 0.94454657 0.73339461
0.81862745 0.92794118 0.72009804
0.89901961 0.93578431 0.72224265
0.97647059 0.94607843 0.71862745
0.0039215686 0.0039215686 0.28235294
0.045833333 0.0078431373 0.28235294
0.1372549 0.0019607843 0.28578431
0.29852941 0.011764706 0.29534314
0.46764706 0.011764706 0.3
0.62156863 0.0019607843 0.29411765
0.73235294 0.0078431373 0.28529412
0.82892157 0.0058823529 0.25882353
0.90588235 0.0058823529 0.24509804
0.029166667 0.076960784 0.32843137
0.066697304 0.075245098 0.33014706
0.17334559 0.082352941 0.33780637
0.32156863 0.077941176 0.33823529
0.48296569 0.067647059 0.34227941
0.6254902 0.069117647 0.34543505
0.73627451 0.057659314 0.328125
0.83480392 0.061305147 0.31075368
0.90392157 0.05 0.29705882
0.041176471 0.20980392 0.38823529
0.085232843 0.20484069 0.38823529
0.20330882 0.20294118 0.3939951
0.35441176 0.20171569 0.3995098
0.50416667 0.19534314 0.40367647
0.64117647 0.18823529 0.40514706
0.74595588 0.18002451 0.39546569
0.84417892 0.15906863 0.37371324
0.90882353 0.14313725 0.36176471
0.031372549 0.37156863 0.45906863
0.047242647 0.36862745 0.45980392
0.22401961 0.36323529 0.46464461
0.38333333 0.36277574 0.47279412
0.52965686 0.36127451 0.47340686
0.6495098 0.36127451 0.47867647
0.75196078 0.36109069 0.47334559
0.8497549 0.34558824 0.46265319
0.91691176 0.33431373 0.45122549
0.039215686 0.52941176 0.52941176
0.1439951 0.51973039 0.52745098
0.27990196 0.52132353 0.53333333
0.41433824 0.51960784 0.5372549
0.54607843 0.51911765 0.53970588
0.65539216 0.51372549 0.54411765
0.75514706 0.50980392 0.54191176
0.85245098 0.50367647 0.53419118
0.91862745 0.49411765 0.52352941
0.24681373 0.63578431 0.5872549
0.28946078 0.63970588 0.58848039
0.37794118 0.6372549 0.59044118
0.47457108 0.63455882 0.5948223
0.57279412 0.63651961 0.59509804
0.66789216 0.63333333 0.59782475
0.75998775 0.63596814 0.59901961
0.85588235 0.63284314 0.59509804
0.92034314 0.6254902 0.58333333
0.37990196 0.73627451 0.64509804
0.40490196 0.73627451 0.64313725
0.45686275 0.73872549 0.64509804
0.52843137 0.7372549 0.64993873
0.60588235 0.73946078 0.65441176
0.68866422 0.73627451 0.65294118
0.77598039 0.73909314 0.65294118
0.86648284 0.7346201 0.64901961
0.93431373 0.73088235 0.64117647
0.4872549 0.83480392 0.70073529
0.50094975 0.8372549 0.70098039
0.53161765 0.84068627 0.70490196
0.58014706 0.84215686 0.70882353
0.64754902 0.83982843 0.70686275
0.71452206 0.83961397 0.70686275
0.79485294 0.84338235 0.71078431
0.88382353 0.84090074 0.70860907
0.95294118 0.83308824 0.70098039
0.55294118 0.92745098 0.75490196
0.57426471 0.94117647 0.7625
0.59215686 0.93284314 0.75588235
0.61887255 0.92107843 0.75245098
0.67843137 0.93039216 0.7627451
0.73553922 0.92303922 0.75980392
0.81617647 0.94117647 0.76715686
0.89901961 0.95808824 0.77401961
0.95882353 0.93333333 0.75490196
0.0039215686 0.0078431373 0.36911765
0.032843137 0.025796569 0.38345588
0.13235294 0.0078431373 0.36911765
0.28290441 0.0087622549 0.37457108
0.46593137 0.023529412 0.40245098
0.60980392 0.020526961 0.41072304
0.72696078 0.011764706 0.40343137
0.825 0.009620098 0.37892157
0.89264706 0.0093137255 0.36666667
0.025980392 0.065502451 0.40637255
0.03527114 0.061006434 0.40955882
0.16715686 0.074954044 0.41421569
0.31372549 0.071867341 0.41764706
0.47613358 0.054901961 0.42647059
0.61715686 0.051960784 0.42959559
0.72843137 0.04620098 0.42905944
0.82876072 0.046484375 0.41868873
0.8908701 0.038541667 0.40753676
0.038970588 0.19509804 0.45588235
0.080254289 0.19607843 0.45943627
0.19693627 0.19234069 0.46553309
0.34460784 0.18186275 0.47156863
0.48866422 0.17922794 0.47941176
0.62941176 0.18125 0.48374694
0.73296569 0.1620098 0.47659314
0.83468137 0.14803922 0.46911765
0.89620098 0.13088235 0.46482843
0.028921569 0.36856618 0.52156863
0.063036152 0.3613894 0.52156863
0.21433824 0.35611213 0.52941176
0.3754902 0.35833333 0.5372549
0.51617647 0.35634191 0.54117647
0.63220741 0.3528799 0.54901961
0.73978248 0.34457721 0.54486826
0.84099265 0.3245098 0.53413756
0.90833333 0.32058824 0.53088235
0.039705882 0.52941176 0.59117647
0.075735294 0.52156863 0.58832721
0.25551471 0.52009804 0.59509804
0.41617647 0.51764706 0.59874387
0.53651961 0.51372549 0.60098039
0.64408701 0.50860907 0.60340074
0.74491422 0.50465686 0.60686275
0.84460784 0.4903799 0.60073529
0.91372549 0.47965686 0.59509804
0.23088235 0.64025735 0.64270833
0.27346814 0.63970588 0.64270833
0.3622549 0.63578431 0.64496017
0.46615349 0.62941176 0.64720435
0.56320466 0.62941176 0.65101103
0.65782016 0.63520987 0.65294118
0.75219056 0.63333333 0.65686275
0.85245098 0.63223039 0.65619638
0.92156863 0.62401961 0.65055147
0.36078431 0.73627451 0.69301471
0.38319547 0.73627451 0.69117647
0.44411765 0.73992034 0.69693627
0.51980699 0.73627451 0.7001685
0.59681373 0.73627451 0.70257353
0.68143382 0.73702512 0.70477941
0.76654412 0.7372549 0.7064951
0.86029412 0.73590686 0.70477941
0.92941176 0.72843137 0.70085784
0.47598039 0.83596814 0.74362745
0.48772212 0.83333333 0.74475337
0.52362132 0.83982843 0.74754902
0.5745098 0.84509804 0.75539216
0.63841912 0.84117647 0.75603554
0.70820312 0.84871324 0.75912224
0.78762255 0.84799326 0.75963542
0.87254902 0.84117647 0.75535386
0.94166667 0.8408701 0.75294118
0.56078431 0.95294118 0.80539216
0.56862745 0.94509804 0.80294118
0.58786765 0.94117647 0.80147059
0.63143382 0.95747549 0.81231618
0.67622549 0.93602941 0.80318627
0.73627451 0.9504902 0.81170343
0.80980392 0.94901961 0.81323529
0.89607843 0.94656863 0.81060049
0.96617647 0.93872549 0.80294118
0 0 0.44117647
0.019607843 0.0078431373 0.4372549
0.11960784 0.0078431373 0.43333333
0.28492647 0.014215686 0.44362745
0.45833333 0.023529412 0.46666667
0.59313725 0.01752451 0.47156863
0.7127451 0.0039215686 0.46568627
0.81372549 0.015686275 0.48468137
0.8754902 0.015686275 0.47647059
0.011887255 0.056495098 0.47205882
0.042478554 0.064338235 0.47205882
0.14681373 0.062530637 0.4754902
0.29617034 0.056939338 0.47875306
0.46862745 0.050735294 0.49148284
0.61269914 0.050490196 0.49852941
0.71731005 0.046446078 0.4995098
0.82129289 0.026363358 0.4995098
0.86678922 0.023039216 0.4995098
0.025735294 0.18235294 0.52058824
0.068351716 0.18333333 0.52221201
0.17843137 0.17512255 0.5254902
0.32401961 0.16593137 0.53186275
0.4872549 0.16482843 0.54117647
0.62377451 0.16320466 0.54583333
0.72843137 0.1466299 0.54172794
0.82365196 0.13428309 0.54044118
0.89779412 0.10294118 0.53651961
0.024632353 0.35490196 0.57941176
0.023529412 0.35490196 0.57941176
0.18795956 0.34803922 0.5870098
0.35490196 0.34480699 0.59473039
0.51280637 0.33939951 0.60196078
0.62941176 0.33668811 0.60335478
0.73517157 0.32270221 0.60196078
0.83644301 0.3143076 0.59901961
0.90490196 0.30343137 0.59509804
0.025490196 0.51519608 0.64117647
0.078492647 0.51151961 0.640625
0.24705882 0.50735294 0.64460784
0.39436275 0.50900735 0.65140931
0.53112745 0.51176471 0.65539216
0.64099265 0.50318627 0.65686275
0.74019608 0.48970588 0.65723039
0.84460784 0.48602941 0.66078431
0.90490196 0.47745098 0.65686275
0.19154412 0.63627451 0.69473039
0.24375 0.6372549 0.69473039
0.33566176 0.6372549 0.69509804
0.44705882 0.63333333 0.69731924
0.55367647 0.63155637 0.70085784
0.65003064 0.62904412 0.70477941
0.74439338 0.6254902 0.70704657
0.84799326 0.62414216 0.7102788
0.91372549 0.61372549 0.7064951
0.35220588 0.73627451 0.74338235
0.3745098 0.73627451 0.74402574
0.42843137 0.74019608 0.74730392
0.50628064 0.73627451 0.74803922
0.58762255 0.73321078 0.74877451
0.67169118 0.73318015 0.75177696
0.75686275 0.73553922 0.75514706
0.85358456 0.7333027 0.75661765
0.93014706 0.72843137 0.75294118
0.46323529 0.84215686 0.79497549
0.47463235 0.84080882 0.79385723
0.5120098 0.83982843 0.79476103
0.56659007 0.84509804 0.79901961
0.62420343 0.84074755 0.79901961
0.69901961 0.84509804 0.80588235
0.78339461 0.84767157 0.80686275
0.87124694 0.84486826 0.80663297
0.93664216 0.83713235 0.80281863
0.54901961 0.95392157 0.85196078
0.55943627 0.95 0.84901961
0.57941176 0.95 0.84901961
0.61580882 0.95281863 0.8502451
0.66666667 0.94558824 0.85196078
0.72352941 0.94803922 0.85588235
0.80294118 0.95343137 0.85980392
0.88713235 0.93382353 0.85061275
0.96862745 0.94019608 0.84901961
0.0039215686 0.011764706 0.49901961
0.023039216 0.02310049 0.5033701
0.09754902 0.0078431373 0.48676471
0.26930147 0.0078431373 0.50147059
0.43676471 0.0078431373 0.51813725
0.58253676 0.0081495098 0.52254902
0.70980392 0.0042892157 0.53137255
0.81323529 0.0039215686 0.54172794
0.88676471 0.0034313725 0.53039216
0.011703431 0.045588235 0.52156863
0.019117647 0.047372855 0.52990196
0.12843137 0.053063725 0.52591912
0.28523284 0.049731924 0.53551624
0.46400123 0.050214461 0.54944853
0.60104167 0.042264093 0.54773284
0.71349571 0.030269608 0.55306373
0.81194087 0.014384191 0.55772825
0.8745098 0.022610294 0.55294118
0.019607843 0.15931373 0.56066176
0.037683824 0.15931373 0.57118566
0.15438113 0.15147059 0.57509191
0.30392157 0.14754902 0.58155637
0.48333333 0.14246324 0.59160539
0.61282169 0.13590686 0.59299939
0.72545956 0.11963848 0.59181985
0.82414216 0.10415135 0.59473039
0.88664216 0.089705882 0.59117647
0.027267157 0.32401961 0.62371324
0.021055453 0.32810202 0.62892157
0.14203431 0.32536765 0.63333333
0.3335095 0.32401961 0.64068627
0.50490196 0.32049632 0.64852941
0.62702206 0.31943168 0.6526348
0.73235294 0.29840686 0.65245098
0.836803 0.28480392 0.65294118
0.87224265 0.27941176 0.65116422
0.017401961 0.49779412 0.68676471
0.0093443627 0.50539216 0.6911152
0.19852941 0.49607843 0.69093137
0.36930147 0.49396446 0.69656863
0.52438725 0.49068627 0.70085784
0.63578431 0.49298407 0.70710784
0.73719363 0.48290441 0.70655637
0.84417892 0.47622549 0.70836397
0.89779412 0.47990196 0.71053922
0.11029412 0.63186275 0.74117647
0.18284314 0.62892157 0.74072457
0.30972733 0.625 0.74068627
0.428125 0.62156863 0.73988205
0.54240196 0.62141544 0.74803922
0.64018842 0.62382812 0.75679381
0.74019608 0.61764706 0.75252757
0.84460784 0.61372549 0.75900735
0.91372549 0.60980392 0.76060049
0.29509804 0.73235294 0.79375
0.33676471 0.73235294 0.79342831
0.40058211 0.73198529 0.79497549
0.49054841 0.73221507 0.79407169
0.5752451 0.72977941 0.79632353
0.66029412 0.73242953 0.80235907
0.75284926 0.73235294 0.80159314
0.85245098 0.72838542 0.80675551
0.9254902 0.72414216 0.80943627
0.42843137 0.83719363 0.84460784
0.45539216 0.84073989 0.84117647
0.49292279 0.84117647 0.84117647
0.55091912 0.84552696 0.84901961
0.61204044 0.84509804 0.85202206
0.69115349 0.84885876 0.85294118
0.77598039 0.84117647 0.85294118
0.86524969 0.83289675 0.85981158
0.94172794 0.83676471 0.86470588
0.52058824 0.93676471 0.88235294
0.53719363 0.94908088 0.89160539
0.56188725 0.95245098 0.89767157
0.58694853 0.92598039 0.88970588
0.6504902 0.94730392 0.89901961
0.71403186 0.94932598 0.90294118
0.79117647 0.94203431 0.91078431
0.89215686 0.94264706 0.91127451
0.98382353 0.95931373 0.91813725
0.0039215686 0.015686275 0.54509804
0.023039216 0.011764706 0.53382353
0.06372549 0 0.5254902
0.26176471 0.0053921569 0.52941176
0.4372549 0.0039215686 0.54705882
0.5877451 0.011764706 0.57254902
0.70882353 0.0078431373 0.57647059
0.80931373 0 0.56029412
0.88627451 0 0.54117647
0.0034313725 0.029411765 0.55245098
0.020036765 0.045588235 0.54509804
0.11666667 0.053921569 0.55637255
0.27843137 0.032352941 0.56764706
0.44656863 0.030637255 0.57598039
0.58970588 0.025183824 0.58382353
0.70882353 0.01127451 0.58419118
0.80931373 0.01127451 0.57947304
0.88578431 0.0078431373 0.5872549
0.011764706 0.13823529 0.59117647
0.03872549 0.14767157 0.59019608
0.14044118 0.13039216 0.60196078
0.3 0.13186275 0.61041667
0.47254902 0.11960784 0.61568627
0.60882353 0.12205882 0.6254902
0.71740196 0.1245098 0.62941176
0.82414216 0.093259804 0.6254902
0.89313725 0.070588235 0.62647059
0.019607843 0.31029412 0.65196078
0.038235294 0.30704657 0.6495098
0.15588235 0.30490196 0.65588235
0.32303922 0.30490196 0.66372549
0.49926471 0.2995098 0.66764706
0.62493873 0.29558824 0.67395833
0.73125 0.28137255 0.67843137
0.83498775 0.26960784 0.66764706
0.87205882 0.26176471 0.66764706
0.0098039216 0.48627451 0.71372549
0.012009804 0.49191176 0.71372549
0.15686275 0.49019608 0.71764706
0.35980392 0.48382353 0.72230392
0.52156863 0.47745098 0.72156863
0.62941176 0.48039216 0.72941176
0.73284314 0.46666667 0.73333333
0.8370098 0.45490196 0.72941176
0.88823529 0.45098039 0.73137255
0.051960784 0.62941176 0.77156863
0.14724265 0.61795343 0.76764706
0.27058824 0.60980392 0.76617647
0.41035539 0.61372549 0.7754902
0.53921569 0.61372549 0.77156863
0.63578431 0.61617647 0.77401961
0.73835784 0.61372549 0.78578431
0.84479167 0.61029412 0.79148284
0.91372549 0.60980392 0.79754902
0.26470588 0.73235294 0.82156863
0.32156863 0.72843137 0.81801471
0.38357843 0.72769608 0.81764706
0.48284314 0.73235294 0.82732843
0.56372549 0.73333333 0.82941176
0.6560049 0.73333333 0.82696078
0.74901961 0.72941176 0.8379902
0.85294118 0.7245098 0.83627451
0.9254902 0.71666667 0.8372549
0.40539216 0.82107843 0.86323529
0.43627451 0.84460784 0.8754902
0.47107843 0.84509804 0.87598039
0.53529412 0.84901961 0.88578431
0.6004902 0.84877451 0.8872549
0.68333333 0.85294118 0.8872549
0.77193627 0.84901961 0.8872549
0.86905637 0.83333333 0.88339461
0.94607843 0.82941176 0.90294118
0.49019608 0.91372549 0.90196078
0.52107843 0.94852941 0.93235294
0.54803922 0.95686275 0.93823529
0.58921569 0.96470588 0.94901961
0.63921569 0.95490196 0.94509804
0.7127451 0.96470588 0.95294118
0.7872549 0.96568627 0.95784314
0.89215686 0.96470588 0.96862745
0.98823529 0.97254902 0.98039216
