site/assets/luts/sha256-f756886a17e624a743f1d172fc5551849fd85bd3c767bc27cc2074ea6b29f361.cube
# LUTr-Schema-Version: 2
# LUTr-ID: sha256-f756886a17e624a743f1d172fc5551849fd85bd3c767bc27cc2074ea6b29f361
# LUTr-Title: polaroid px-100uv+ warm +
# LUTr-Collection: Natron HaldCLUT
# LUTr-Collection-ID: natron-haldclut-presets
# LUTr-Source: https://github.com/NatronGitHub/clut
# LUTr-Retrieved: 2026-07-27
# LUTr-Source-File: submissions/natron-haldclut-presets/instant_consumer/polaroid_px-100uv+_warm_+.png
# LUTr-Source-Format: HALD-PNG
# LUTr-Source-SHA256: f756886a17e624a743f1d172fc5551849fd85bd3c767bc27cc2074ea6b29f361
# LUTr-License: CC-BY-SA-4.0
# LUTr-License-URL: https://github.com/NatronGitHub/clut#license
# LUTr-License-Basis: repo-license-file
# LUTr-Transform-Class: film-emulation
# LUTr-Tags: creative, film, film-emulation, hald-clut, natron, png, warm, cube
# LUTr-Input-Color-Space: srgb
# LUTr-Input-Gamut: rec709
# LUTr-Input-Transfer: srgb
# LUTr-Output-Color-Space: srgb
# LUTr-Output-Gamut: rec709
# LUTr-Output-Transfer: srgb
# LUTr-Color-Space-Confidence: assumed-display-referred
# LUTr-Domain-Normalized: true
# LUTr-Shaper: none
# LUTr-Original-Grid: 64x64x64
# LUTr-Conversion-Grid: 25x25x25
# LUTr-Conversion-Interpolation: trilinear
# LUTr-Conversion-Method: HALD-PNG LUT image decoded at 16-bit and sampled to 25x25x25 3D CUBE
# LUTr-Conversion-Tool: LUTr scripts/convert-all-to-cube.mjs 2.0.0
# LUTr-Conversion-Date: 2026-07-27
# LUTr-Note: Preserve this metadata and the upstream license notices when redistributing.
TITLE "polaroid px-100uv+ warm +"
LUT_3D_SIZE 9
DOMAIN_MIN 0 0 0
DOMAIN_MAX 1 1 1
0.3372549 0.31372549 0.31372549
0.33333333 0.30980392 0.30980392
0.34117647 0.32058824 0.32058824
0.36715686 0.34754902 0.35147059
0.40392157 0.38823529 0.39019608
0.45 0.43823529 0.44068627
0.49607843 0.48823529 0.48823529
0.55784314 0.54656863 0.54607843
0.63529412 0.62352941 0.61176471
0.3372549 0.31372549 0.31764706
0.3372549 0.31715686 0.31715686
0.34509804 0.32536765 0.32536765
0.36323529 0.34362745 0.34754902
0.40392157 0.38823529 0.39019608
0.45392157 0.44215686 0.44215686
0.50257353 0.49215686 0.49215686
0.55784314 0.54957108 0.54607843
0.63529412 0.62352941 0.61176471
0.34803922 0.32745098 0.33137255
0.35196078 0.33578431 0.33627451
0.35906863 0.34338235 0.34338235
0.37401961 0.35441176 0.35833333
0.41127451 0.39509804 0.39901961
0.44852941 0.43676471 0.44068627
0.50392157 0.49215686 0.49215686
0.56960784 0.56176471 0.55686275
0.63823529 0.63039216 0.61568627
0.39068627 0.375 0.37892157
0.38676471 0.3713848 0.375
0.38578431 0.37009804 0.37107843
0.40882353 0.39313725 0.39705882
0.43578431 0.42401961 0.42794118
0.46666667 0.45882353 0.46121324
0.51139706 0.50245098 0.50245098
0.57352941 0.56568627 0.55802696
0.63284314 0.625 0.61323529
0.43137255 0.42352941 0.42745098
0.42965686 0.41985294 0.42377451
0.42352941 0.41176471 0.41421569
0.44240196 0.43063725 0.43382353
0.4627451 0.45490196 0.45490196
0.49362745 0.48578431 0.48578431
0.53333333 0.5254902 0.525
0.58529412 0.57745098 0.57156863
0.63921569 0.62941176 0.61764706
0.47745098 0.46960784 0.47352941
0.47990196 0.47205882 0.47567402
0.47745098 0.4685049 0.47242647
0.49166667 0.48382353 0.48474265
0.50686275 0.49901961 0.49779412
0.53866422 0.53082108 0.52689951
0.58137255 0.57254902 0.56715686
0.63351716 0.62205882 0.61158088
0.6877451 0.67598039 0.66029412
0.55196078 0.54411765 0.54313725
0.55588235 0.54803922 0.54705882
0.55980392 0.54901961 0.54803922
0.55588235 0.54803922 0.54705882
0.57303922 0.56519608 0.56127451
0.6004902 0.59264706 0.58443627
0.63921569 0.63039216 0.61862745
0.68480392 0.67218137 0.65637255
0.73529412 0.71960784 0.69901961
0.65686275 0.64509804 0.63284314
0.65680147 0.64509804 0.63284314
0.66458333 0.65245098 0.63676471
0.66078431 0.64901961 0.63676471
0.66446078 0.65465686 0.64068627
0.69313725 0.68137255 0.66390931
0.72009804 0.70796569 0.68480392
0.75435049 0.73872549 0.7151348
0.77745098 0.76519608 0.7377451
0.77647059 0.76078431 0.73333333
0.76470588 0.74901961 0.72205882
0.76372549 0.74901961 0.72156863
0.77254902 0.75686275 0.73088235
0.77254902 0.75686275 0.72941176
0.77892157 0.76470588 0.73578431
0.79411765 0.78235294 0.75098039
0.8122549 0.8 0.76911765
0.84705882 0.83137255 0.8
0.34509804 0.325 0.3254902
0.34503676 0.32457108 0.32542892
0.3567402 0.33676471 0.33970588
0.3786152 0.35931373 0.36323529
0.41372549 0.3997549 0.40171569
0.45765931 0.44607843 0.44822304
0.50735294 0.4995098 0.4995098
0.57696078 0.5661152 0.56127451
0.64313725 0.63137255 0.61960784
0.34810049 0.3254902 0.32935049
0.35245098 0.33284314 0.33632813
0.36066176 0.34373468 0.34460784
0.37859222 0.36247702 0.36619945
0.41737132 0.40321691 0.40560662
0.46138174 0.44981618 0.45185355
0.51127451 0.50343137 0.5
0.58088235 0.56960784 0.56519608
0.64656863 0.63480392 0.62303922
0.35980392 0.34276961 0.34669118
0.36098346 0.34486826 0.34754902
0.36642157 0.35073529 0.35147059
0.39545037 0.38137255 0.38235294
0.42849265 0.41495098 0.41862745
0.47103248 0.45994179 0.46150429
0.51948529 0.51127451 0.51106005
0.58088235 0.57303922 0.56519608
0.63664216 0.62757353 0.61568627
0.39675245 0.38284314 0.38676471
0.39834559 0.38498775 0.38890931
0.40163909 0.38650429 0.39019608
0.42401961 0.40882353 0.41236979
0.44730392 0.43578431 0.43921569
0.47560509 0.46684283 0.4707644
0.53088235 0.52271752 0.52117034
0.58872549 0.58088235 0.57330729
0.62107843 0.61323529 0.60196078
0.43872549 0.42916667 0.43308824
0.4370098 0.42892157 0.43284314
0.4408701 0.42916667 0.43284314
0.45539216 0.44362745 0.44715074
0.47647059 0.47022059 0.47034314
0.50392157 0.49730392 0.49739583
0.54454657 0.53670343 0.53327206
0.60487132 0.59488358 0.5870098
0.66446078 0.65441176 0.63897059
0.49656863 0.48872549 0.48921569
0.5004902 0.49050245 0.48937653
0.49771752 0.48872549 0.48886336
0.50196078 0.49264706 0.49264706
0.51862745 0.51421569 0.51060049
0.55165441 0.5444087 0.5400046
0.59077819 0.58092831 0.57477022
0.6377451 0.62598039 0.61421569
0.68382353 0.67205882 0.65490196
0.57022059 0.55980392 0.5557598
0.57107843 0.56237745 0.55588235
0.57009804 0.55836397 0.55441176
0.575 0.56617647 0.5622549
0.58578431 0.57794118 0.57205882
0.60382966 0.59598652 0.58760723
0.64561887 0.63452819 0.62254902
0.68823529 0.67647059 0.65767463
0.72696078 0.71176471 0.69203431
0.66813725 0.65680147 0.64411765
0.66764706 0.65588235 0.64063266
0.66421569 0.64901961 0.63676471
0.6603171 0.64852941 0.63676471
0.66617647 0.65462623 0.64258578
0.69705882 0.68529412 0.66756281
0.72712929 0.71536458 0.69226409
0.76268382 0.75 0.72297794
0.78829657 0.77261029 0.74515931
0.76862745 0.75294118 0.72941176
0.76078431 0.74558824 0.72156863
0.76470588 0.74901961 0.7254902
0.74197304 0.7286152 0.70637255
0.76323529 0.74754902 0.72181373
0.7995098 0.78382353 0.75245098
0.81323529 0.79791667 0.76911765
0.81568627 0.8 0.77254902
0.82009804 0.80441176 0.77696078
0.35294118 0.33235294 0.33627451
0.36764706 0.35147059 0.35539216
0.37941176 0.3627451 0.36446078
0.39068627 0.37438725 0.37794118
0.43039216 0.41666667 0.41911765
0.47928922 0.46862745 0.4692402
0.53431373 0.52279412 0.52254902
0.60392157 0.59215686 0.58431373
0.66568627 0.65098039 0.63823529
0.36629902 0.34803922 0.35183824
0.37156863 0.35582108 0.35899203
0.3825674 0.36688113 0.37058824
0.4032935 0.38921569 0.39313725
0.44001225 0.42818627 0.43210784
0.48484988 0.47628676 0.47647059
0.53823529 0.52990196 0.52637868
0.60752145 0.59607843 0.58518689
0.6692402 0.65477941 0.64178922
0.3752451 0.36176471 0.36568627
0.38970588 0.37438725 0.37794118
0.39485294 0.38161765 0.38553922
0.42009804 0.40833333 0.4122549
0.45490196 0.44362745 0.44705882
0.49488358 0.48615196 0.48704044
0.54908088 0.53897059 0.53670343
0.61418505 0.60392157 0.59215686
0.67426471 0.66176471 0.64607843
0.41715686 0.40539216 0.40784314
0.42107843 0.40917586 0.4120864
0.42380515 0.41204044 0.41596201
0.44313725 0.43198529 0.43529412
0.4754902 0.46617647 0.46887255
0.50882353 0.50098039 0.50098039
0.55784314 0.55 0.54607843
0.61928615 0.60784314 0.59866728
0.67071078 0.65784314 0.64215686
0.46421569 0.45441176 0.45784314
0.46568627 0.45588235 0.45784314
0.46531863 0.45392157 0.45637255
0.47794118 0.46764706 0.47009804
0.49779412 0.49289216 0.49313725
0.53186275 0.52640931 0.52401961
0.57414216 0.56629902 0.56115196
0.6254902 0.61617647 0.60569853
0.65392157 0.64215686 0.62990196
0.52352941 0.51568627 0.51568627
0.52357537 0.51568627 0.51568627
0.52745098 0.51568627 0.51568627
0.5339614 0.52352941 0.52205882
0.54871324 0.54117647 0.5372549
0.57058824 0.56421569 0.55813419
0.60272672 0.59488358 0.58887868
0.6560049 0.64460784 0.63242953
0.6995098 0.6877451 0.66813725
0.59313725 0.58529412 0.57745098
0.59411765 0.58627451 0.57769608
0.59730392 0.58627451 0.57916667
0.60168505 0.59065564 0.5828125
0.61090686 0.60294118 0.59276961
0.62833946 0.62049632 0.60863971
0.66121324 0.65018382 0.63823529
0.70355392 0.69178922 0.67310049
0.74705882 0.73431373 0.71078431
0.675 0.66323529 0.64840686
0.68627451 0.67418811 0.65614277
0.68716299 0.675 0.65931373
0.69068627 0.67892157 0.65984988
0.69068627 0.67892157 0.6627451
0.70098039 0.68921569 0.66942402
0.73529412 0.72288603 0.7
0.76737132 0.75441176 0.73007047
0.79693627 0.78125 0.75379902
0.76470588 0.74901961 0.7254902
0.77156863 0.75845588 0.73235294
0.77941176 0.76372549 0.73651961
0.77022059 0.7567402 0.7310049
0.77254902 0.76029412 0.73333333
0.7807598 0.76568627 0.73823529
0.80196078 0.78921569 0.75784314
0.82352941 0.80784314 0.77683824
0.83039216 0.81470588 0.78431373
0.40098039 0.38676471 0.39068627
0.41636029 0.40226716 0.40490196
0.42389706 0.40882353 0.4127451
0.42996324 0.41519608 0.41911765
0.46053922 0.44877451 0.45073529
0.50735294 0.49803922 0.49859069
0.56127451 0.55159314 0.54889706
0.63137255 0.61930147 0.60882353
0.69264706 0.68088235 0.66127451
0.41617647 0.40226716 0.40459559
0.42359069 0.40882353 0.41268382
0.43132659 0.41666667 0.42058824
0.43901654 0.42824755 0.43197763
0.46519608 0.45726103 0.45931373
0.51501225 0.50716912 0.50636489
0.56862745 0.55735294 0.55343137
0.63523284 0.62303922 0.61127451
0.7004902 0.68480392 0.66911765
0.43529412 0.42058824 0.42352941
0.43723958 0.4245098 0.42745098
0.44659926 0.43483456 0.43685662
0.45634191 0.4472886 0.44987745
0.48357843 0.47573529 0.47794118
0.52797181 0.51875 0.5183364
0.58088235 0.57205882 0.56519608
0.64656863 0.63480392 0.62291667
0.70833333 0.69264706 0.67414216
0.45196078 0.44019608 0.44264706
0.45576746 0.44411765 0.44637714
0.46228554 0.45228248 0.4540288
0.47794118 0.47009804 0.47044271
0.51078431 0.50398284 0.50294118
0.5466299 0.53913143 0.53670343
0.59250919 0.58379289 0.57659314
0.6504902 0.63872549 0.62665441
0.69411765 0.68143382 0.6627451
0.49264706 0.48284314 0.48480392
0.49264706 0.48465074 0.48480392
0.49748775 0.48768382 0.48854167
0.51424632 0.50640319 0.50536152
0.53578431 0.52990196 0.52794118
0.56620711 0.55882353 0.55294118
0.60980392 0.60122549 0.59215686
0.65940564 0.6495098 0.63455882
0.69166667 0.68063725 0.66176471
0.55196078 0.54264706 0.53927696
0.55441176 0.54411765 0.54264706
0.5551011 0.54656863 0.54264706
0.56862745 0.55929075 0.55386029
0.58504902 0.57674632 0.56936275
0.60294118 0.59454657 0.58612898
0.63627451 0.6254902 0.61597733
0.68676471 0.675 0.6585095
0.72156863 0.7088848 0.68927696
0.625 0.61617647 0.60441176
0.62892157 0.61715686 0.60833333
0.62794118 0.61617647 0.60539216
0.62725184 0.61548713 0.60477941
0.64166667 0.63186275 0.61868873
0.65686275 0.64716605 0.63189338
0.67990196 0.66813725 0.65327819
0.71845895 0.70646446 0.68685662
0.76960784 0.75637255 0.73039216
0.70539216 0.69362745 0.67401961
0.71715686 0.70196078 0.68344056
0.71741728 0.70228248 0.68417586
0.71372549 0.70165441 0.68204657
0.71501225 0.70196078 0.68235294
0.72518382 0.71330423 0.69129136
0.74897365 0.73520221 0.71360294
0.77009804 0.75686275 0.73329504
0.80833333 0.79264706 0.76519608
0.78284314 0.76715686 0.73970588
0.79197304 0.77628676 0.74883578
0.79215686 0.77647059 0.74901961
0.79215686 0.77647059 0.74901961
0.7872549 0.77279412 0.74607843
0.79852941 0.78284314 0.75686275
0.81176471 0.79607843 0.76862745
0.82794118 0.8122549 0.78431373
0.84852941 0.83284314 0.80392157
0.47254902 0.46078431 0.4627451
0.47843137 0.46838235 0.47034314
0.48627451 0.47794118 0.47843137
0.49926471 0.48946078 0.48946078
0.51764706 0.50784314 0.50784314
0.53284314 0.525 0.525
0.58823529 0.58039216 0.57647059
0.66176471 0.65 0.63627451
0.72352941 0.70784314 0.68823529
0.48014706 0.47034314 0.47034314
0.48406863 0.47426471 0.47447917
0.49019608 0.48223039 0.48235294
0.50303309 0.49402574 0.49518995
0.52340686 0.51458333 0.51360294
0.54813113 0.54028799 0.53912377
0.5995098 0.58823529 0.58382353
0.6661152 0.65392157 0.64191176
0.72916667 0.71348039 0.69362745
0.49705882 0.48578431 0.48578431
0.49803922 0.48946078 0.48921569
0.50453431 0.49411765 0.49411765
0.51335784 0.50551471 0.50551471
0.53676471 0.52818627 0.52647059
0.57322304 0.56427696 0.55839461
0.61544118 0.60612745 0.59693627
0.67745098 0.66470588 0.64926471
0.73137255 0.71568627 0.69607843
0.50906863 0.49803922 0.49803922
0.50833333 0.49803922 0.49803922
0.51556373 0.50680147 0.50588235
0.52521446 0.51963848 0.51737132
0.55514706 0.54828431 0.54436275
0.59289216 0.58504902 0.57720588
0.634375 0.62408088 0.61341912
0.69044118 0.67735907 0.66014093
0.74558824 0.73063725 0.70710784
0.52745098 0.51862745 0.51764706
0.5254902 0.51666667 0.51666667
0.53284314 0.52573529 0.5247549
0.55379902 0.54828431 0.54362745
0.57647059 0.56960784 0.5627451
0.61066176 0.60245098 0.59264706
0.65343137 0.64289216 0.62965686
0.70490196 0.69276961 0.67328431
0.75294118 0.7372549 0.71372549
0.58529412 0.57426471 0.56960784
0.5890625 0.57882966 0.57352941
0.59160539 0.58137255 0.5754902
0.60539216 0.59558824 0.58682598
0.62218137 0.6129902 0.60220588
0.63869485 0.62843137 0.61593137
0.67408088 0.66323529 0.64754902
0.72181373 0.70916054 0.68783701
0.76617647 0.75245098 0.72622549
0.65735294 0.64705882 0.63382353
0.6627451 0.65098039 0.63903186
0.66335784 0.65098039 0.63921569
0.6627451 0.64987745 0.63529412
0.67647059 0.6627451 0.64705882
0.6877451 0.6745098 0.65618873
0.70980392 0.69509804 0.67659314
0.74895833 0.73633578 0.71280637
0.78480392 0.76960784 0.74362745
0.74019608 0.725 0.70490196
0.74261642 0.72843137 0.70514706
0.73762255 0.72457108 0.70171569
0.73627451 0.72083333 0.70098039
0.74117647 0.72745098 0.70588235
0.75269608 0.73832721 0.71544118
0.76795343 0.75245098 0.72867647
0.78507966 0.7698223 0.74258578
0.80833333 0.79264706 0.76519608
0.81372549 0.79803922 0.76666667
0.80588235 0.79019608 0.76102941
0.8004902 0.78627451 0.75735294
0.80318627 0.78823529 0.76004902
0.80392157 0.78823529 0.76078431
0.80539216 0.78970588 0.7622549
0.81960784 0.80441176 0.77647059
0.82769608 0.81568627 0.78431373
0.83137255 0.81960784 0.78823529
0.55196078 0.54166667 0.54019608
0.55557598 0.54558824 0.54411765
0.56127451 0.55343137 0.5495098
0.57941176 0.56856618 0.56372549
0.59852941 0.58872549 0.58088235
0.6004902 0.59264706 0.5872549
0.6245098 0.61519608 0.60735294
0.69264706 0.67696078 0.66127451
0.75833333 0.74264706 0.71519608
0.55557598 0.54773284 0.54411765
0.55732996 0.54932598 0.54746477
0.56515012 0.55677083 0.55306373
0.57941176 0.57064951 0.56598499
0.60235907 0.59240196 0.58406863
0.6122549 0.60403646 0.59538909
0.63884804 0.62745098 0.61919424
0.69656863 0.68243719 0.66519608
0.75833333 0.74264706 0.71648284
0.56703431 0.55698529 0.55306373
0.56911765 0.56090686 0.55698529
0.57570466 0.56657475 0.56256127
0.58379289 0.57594975 0.56971507
0.60821078 0.59852941 0.58921569
0.63255208 0.62340686 0.61188725
0.66176471 0.65 0.63713235
0.70825674 0.69535846 0.67683824
0.76948529 0.75379902 0.72696078
0.57696078 0.56764706 0.56072304
0.58088235 0.57237286 0.56753217
0.58835784 0.57987132 0.57405025
0.59810049 0.5908318 0.58220741
0.61712623 0.60928309 0.59828431
0.64607843 0.63578431 0.62312347
0.6778799 0.6661152 0.65042892
0.72254902 0.71040901 0.68988205
0.77009804 0.75441176 0.72941176
0.58995098 0.58137255 0.57352941
0.58995098 0.58079044 0.57533701
0.59834559 0.58964461 0.58210784
0.6127451 0.60490196 0.59436275
0.63762255 0.62818627 0.61470588
0.66204044 0.65119485 0.63655025
0.69583333 0.68210784 0.6653799
0.74142157 0.72769608 0.70523897
0.78186275 0.76740196 0.73995098
0.62101716 0.61170343 0.60294118
0.62683058 0.61686581 0.6071538
0.63333333 0.62156863 0.61133578
0.64270833 0.63131127 0.61954657
0.66369485 0.65343137 0.63627451
0.68823529 0.67626379 0.65761336
0.71764706 0.70196078 0.68235294
0.75900735 0.74412531 0.71972273
0.79607843 0.78094363 0.75294118
0.68284314 0.67107843 0.65723039
0.69064032 0.67847733 0.6622549
0.69408701 0.68186275 0.6653799
0.69754902 0.68186275 0.66617647
0.71127451 0.69901961 0.67745098
0.72218137 0.7084712 0.68578431
0.74068627 0.725 0.70147059
0.77850797 0.7634038 0.73650429
0.80784314 0.79362745 0.76286765
0.7658701 0.75147059 0.72647059
0.76715686 0.75147059 0.72794118
0.76194853 0.74658395 0.72254902
0.76342678 0.74908088 0.72535999
0.77107843 0.75735294 0.73186275
0.7786152 0.76323529 0.73578431
0.78270527 0.76769301 0.74056373
0.80245098 0.78703278 0.75931373
0.82892157 0.81372549 0.78235294
0.82352941 0.80931373 0.77647059
0.81335784 0.79767157 0.76758578
0.82107843 0.80539216 0.77647059
0.82107843 0.80692402 0.77794118
0.82892157 0.81323529 0.78578431
0.82892157 0.81323529 0.78578431
0.83137255 0.81678922 0.78541667
0.84332108 0.82922794 0.79785539
0.85245098 0.84068627 0.80539216
0.64215686 0.63039216 0.62156863
0.64607843 0.63823529 0.62647059
0.65686275 0.64607843 0.63406863
0.67205882 0.66066176 0.64607843
0.68529412 0.67352941 0.65735294
0.69460784 0.68247549 0.66507353
0.70416667 0.68995098 0.67254902
0.72046569 0.70477941 0.6877451
0.77352941 0.75784314 0.73333333
0.64215686 0.63431373 0.62254902
0.64682904 0.63823529 0.62647059
0.65686275 0.64607843 0.63406863
0.66960784 0.65784314 0.6439951
0.68523284 0.67481618 0.65735294
0.70194547 0.69010417 0.67231924
0.71197917 0.69954044 0.68039216
0.73491115 0.7203125 0.69961703
0.78137255 0.76568627 0.73823529
0.65 0.63823529 0.62647059
0.65784314 0.64607843 0.63428309
0.66397059 0.65294118 0.63988971
0.66960784 0.65784314 0.6448223
0.69019608 0.67892157 0.66127451
0.7060049 0.69561887 0.67647059
0.72506127 0.7127451 0.69289216
0.74705882 0.73428309 0.71139706
0.79705882 0.78137255 0.75367647
0.65637255 0.64607843 0.63333333
0.66550245 0.65392157 0.64080882
0.67582721 0.66531863 0.64947917
0.67898284 0.66859681 0.65252757
0.69387255 0.68284314 0.66470588
0.71476716 0.70185355 0.68186275
0.73627451 0.72331495 0.70098039
0.75723039 0.74348958 0.71973039
0.79705882 0.78382353 0.75392157
0.66323529 0.65147059 0.63823529
0.67218137 0.66041667 0.64509804
0.68431373 0.67254902 0.65502451
0.6901348 0.68014706 0.66078431
0.71102941 0.69926471 0.67745098
0.73033088 0.71783088 0.69485294
0.7495098 0.73529412 0.71213235
0.77401961 0.75900735 0.73480392
0.80637255 0.79264706 0.76323529
0.68970588 0.67683824 0.6622549
0.69731924 0.68541667 0.66617647
0.70245098 0.69053309 0.67009804
0.70931373 0.69644608 0.6751685
0.73014706 0.71764706 0.69289216
0.74761029 0.73491115 0.71000306
0.76075368 0.74522059 0.72153799
0.78333333 0.76795343 0.74264706
0.81421569 0.80036765 0.76960784
0.72156863 0.70882353 0.68995098
0.73385417 0.72058824 0.70058211
0.74019608 0.7245098 0.70392157
0.7370098 0.72377451 0.70098039
0.75 0.7377451 0.7122549
0.76510417 0.75196078 0.72561275
0.78204657 0.76691176 0.74093137
0.80309436 0.78992034 0.76188725
0.82941176 0.81593137 0.78602941
0.78223039 0.76666667 0.74178922
0.78529412 0.76960784 0.74301471
0.78235294 0.76666667 0.74215686
0.79001225 0.77446385 0.74862132
0.80324755 0.78866422 0.76053922
0.80845588 0.79330576 0.76531863
0.81323529 0.79788603 0.77009804
0.83284314 0.81764706 0.78627451
0.85232843 0.83933824 0.80539216
0.83529412 0.82058824 0.78823529
0.83884804 0.82352941 0.79178922
0.84313725 0.82745098 0.79607843
0.84203431 0.82634804 0.79607843
0.84705882 0.83137255 0.8004902
0.84803922 0.83235294 0.80098039
0.84877451 0.83627451 0.80416667
0.85980392 0.84718137 0.81311275
0.86666667 0.85490196 0.81960784
0.74264706 0.73088235 0.70735294
0.74613971 0.73088235 0.71127451
0.7504902 0.73860294 0.71519608
0.76207108 0.74871324 0.72518382
0.76397059 0.75 0.72647059
0.77530637 0.76194853 0.73449755
0.78272059 0.76703431 0.74215686
0.79319853 0.77751225 0.75091912
0.80490196 0.78921569 0.76176471
0.74264706 0.73088235 0.71121324
0.74656863 0.73480392 0.71127451
0.7504902 0.73872549 0.71519608
0.76051624 0.74656863 0.72303922
0.7700674 0.75612745 0.73060662
0.7776348 0.76354167 0.73823529
0.78578431 0.77310049 0.74607843
0.7971201 0.78186275 0.75441176
0.81617647 0.80055147 0.77303922
0.74656863 0.73480392 0.71127451
0.7504902 0.73872549 0.71744792
0.75441176 0.74261642 0.71911765
0.75833333 0.74656863 0.72299326
0.77181373 0.75833333 0.73431373
0.77922794 0.76582414 0.73938419
0.79249387 0.77745098 0.75
0.80140931 0.78578431 0.75833333
0.82401961 0.81127451 0.78088235
0.7504902 0.73872549 0.71519608
0.75833333 0.74564951 0.72254902
0.7622549 0.75 0.72647059
0.76568627 0.7504902 0.72647059
0.77009804 0.75808824 0.73235294
0.78448989 0.77059589 0.74307598
0.80105699 0.7877451 0.75837929
0.80517004 0.79313725 0.76523437
0.82794118 0.81617647 0.78480392
0.75441176 0.74068627 0.71862745
0.76176471 0.74656863 0.72276348
0.76617647 0.75392157 0.72647059
0.76715686 0.75407475 0.72769608
0.77855392 0.76580882 0.73823529
0.79705882 0.78284314 0.75392157
0.80882353 0.79356618 0.76550245
0.81295956 0.80055147 0.7698223
0.83578431 0.82401961 0.79068627
0.76746324 0.75196078 0.72824755
0.7790288 0.7654182 0.73823529
0.77389706 0.76176471 0.73408395
0.77519148 0.76294424 0.73523284
0.79280025 0.78023897 0.75073529
0.8053845 0.79294577 0.76224724
0.81643689 0.80231311 0.77329963
0.82608762 0.81259957 0.78239124
0.84362745 0.82794118 0.79656863
0.78921569 0.7745098 0.75
0.79635417 0.78132659 0.75355392
0.7939951 0.77843137 0.75085784
0.7957261 0.7819087 0.7537837
0.80931373 0.79748775 0.76746324
0.8225337 0.80919118 0.77835478
0.83321078 0.82022059 0.78884804
0.84362745 0.82806373 0.79669118
0.85502451 0.83933824 0.80796569
0.8004902 0.78480392 0.75735294
0.80919884 0.79619332 0.76568627
0.81655944 0.80098039 0.76992953
0.82481618 0.81145833 0.78137255
0.83042279 0.81666667 0.78529412
0.84384957 0.82832414 0.79721967
0.84754902 0.83186275 0.80059743
0.85244332 0.84051777 0.8080193
0.86672794 0.85496324 0.82052696
0.85490196 0.83921569 0.80392157
0.85098039 0.83529412 0.80042892
0.85147059 0.83578431 0.80428922
0.85539216 0.83970588 0.80784314
0.85906863 0.84362745 0.8120098
0.86323529 0.84754902 0.81617647
0.86409314 0.85098039 0.81960784
0.86672794 0.85490196 0.82009804
0.87107843 0.85931373 0.82401961
0.82352941 0.80784314 0.78039216
0.81960784 0.80392157 0.77647059
0.82647059 0.81078431 0.78039216
0.82745098 0.81176471 0.78431373
0.83137255 0.81568627 0.78823529
0.84460784 0.82892157 0.79607843
0.85098039 0.83529412 0.80392157
0.86617647 0.8504902 0.81911765
0.85882353 0.84313725 0.81176471
0.83480392 0.81911765 0.78823529
0.82702206 0.81176471 0.78039216
0.83125 0.81556373 0.78431373
0.83351716 0.81813725 0.78823529
0.83921569 0.82352941 0.79215686
0.84852941 0.83284314 0.8
0.85098039 0.83529412 0.80392157
0.85490196 0.83921569 0.80784314
0.85490196 0.83921569 0.80784314
0.83529412 0.81960784 0.78823529
0.83835784 0.82352941 0.79215686
0.83823529 0.82254902 0.79117647
0.83737745 0.82352941 0.79215686
0.84313725 0.82745098 0.79607843
0.84460784 0.8307598 0.79607843
0.84705882 0.83431373 0.8
0.85098039 0.83529412 0.80392157
0.85490196 0.83921569 0.80784314
0.84166667 0.82598039 0.79607843
0.83529412 0.81960784 0.78823529
0.83137255 0.81605392 0.78578431
0.83137255 0.81715686 0.78731618
0.8372549 0.82352941 0.79019608
0.85245098 0.83676471 0.80392157
0.85490196 0.84105392 0.80784314
0.85490196 0.83952206 0.80784314
0.85882353 0.84705882 0.81421569
0.83921569 0.82352941 0.79019608
0.84509804 0.82941176 0.79411765
0.83186275 0.81960784 0.78431373
0.83014706 0.81764706 0.78431373
0.83921569 0.82745098 0.79313725
0.85098039 0.83676471 0.80392157
0.85490196 0.84313725 0.80784314
0.85294118 0.83921569 0.80588235
0.86666667 0.85490196 0.81960784
0.83921569 0.82352941 0.79215686
0.83529412 0.81991422 0.78823529
0.83529412 0.81960784 0.78823529
0.8401348 0.82745098 0.79307598
0.84852941 0.83676471 0.80269608
0.8533701 0.84160539 0.80784314
0.86605392 0.85428922 0.81960784
0.85490196 0.84313725 0.80784314
0.85490196 0.84166667 0.80784314
0.83823529 0.82254902 0.79215686
0.83933824 0.82487745 0.7935049
0.83921569 0.8245098 0.79215686
0.84595588 0.83382353 0.8
0.85490196 0.84313725 0.80784314
0.85882353 0.84460784 0.81176471
0.8627451 0.85098039 0.81568627
0.86286765 0.85098039 0.81580882
0.85980392 0.84411765 0.8127451
0.80784314 0.79215686 0.76470588
0.83094363 0.81525735 0.78474265
0.85134804 0.83835784 0.80392157
0.8591299 0.8473652 0.81207108
0.8627451 0.84730392 0.81568627
0.8627451 0.84705882 0.81568627
0.86409314 0.85098039 0.81960784
0.8745098 0.85974265 0.82745098
0.88235294 0.87058824 0.83529412
0.85098039 0.83529412 0.8
0.85490196 0.83921569 0.80392157
0.86568627 0.85 0.81470588
0.87058824 0.85490196 0.82107843
0.86666667 0.85098039 0.81960784
0.86666667 0.85098039 0.81960784
0.87058824 0.85490196 0.82352941
0.8745098 0.8627451 0.82745098
0.87843137 0.86666667 0.83137255
