site/assets/luts/sha256-ef3c1648f916ab363c8226586502e61973d48dcf229119ee93af25a1b94d0285.cube
# LUTr-Schema-Version: 2
# LUTr-ID: sha256-ef3c1648f916ab363c8226586502e61973d48dcf229119ee93af25a1b94d0285
# LUTr-Title: fuji neopan acros 100
# LUTr-Collection: Natron HaldCLUT
# LUTr-Collection-ID: natron-haldclut-presets
# LUTr-Source: https://github.com/NatronGitHub/clut
# LUTr-Retrieved: 2026-07-27
# LUTr-Source-File: submissions/natron-haldclut-presets/bw/fuji_neopan_acros_100.png
# LUTr-Source-Format: HALD-PNG
# LUTr-Source-SHA256: ef3c1648f916ab363c8226586502e61973d48dcf229119ee93af25a1b94d0285
# LUTr-License: CC-BY-SA-4.0
# LUTr-License-URL: https://github.com/NatronGitHub/clut#license
# LUTr-License-Basis: repo-license-file
# LUTr-Transform-Class: film-emulation
# LUTr-Tags: creative, film, film-emulation, hald-clut, natron, png, black-and-white, cube
# LUTr-Input-Color-Space: srgb
# LUTr-Input-Gamut: rec709
# LUTr-Input-Transfer: srgb
# LUTr-Output-Color-Space: srgb
# LUTr-Output-Gamut: rec709
# LUTr-Output-Transfer: srgb
# LUTr-Color-Space-Confidence: assumed-display-referred
# LUTr-Domain-Normalized: true
# LUTr-Shaper: none
# LUTr-Original-Grid: 64x64x64
# LUTr-Conversion-Grid: 25x25x25
# LUTr-Conversion-Interpolation: trilinear
# LUTr-Conversion-Method: HALD-PNG LUT image decoded at 16-bit and sampled to 25x25x25 3D CUBE
# LUTr-Conversion-Tool: LUTr scripts/convert-all-to-cube.mjs 2.0.0
# LUTr-Conversion-Date: 2026-07-27
# LUTr-Note: Preserve this metadata and the upstream license notices when redistributing.
TITLE "fuji neopan acros 100"
LUT_3D_SIZE 5
DOMAIN_MIN 0 0 0
DOMAIN_MAX 1 1 1
0.02745098 0.02745098 0.02745098
0.026470588 0.026470588 0.026470588
0.088235294 0.088235294 0.088235294
0.14215686 0.14215686 0.14215686
0.23529412 0.23529412 0.23529412
0.15882353 0.15882353 0.15882353
0.1745098 0.1745098 0.1745098
0.21568627 0.21568627 0.21568627
0.28921569 0.28921569 0.28921569
0.38529412 0.38529412 0.38529412
0.36862745 0.36862745 0.36862745
0.38823529 0.38823529 0.38823529
0.41470588 0.41470588 0.41470588
0.46617647 0.46617647 0.46617647
0.53333333 0.53333333 0.53333333
0.62058824 0.62058824 0.62058824
0.63921569 0.63921569 0.63921569
0.65490196 0.65490196 0.65490196
0.6752451 0.6752451 0.6752451
0.69705882 0.69705882 0.69705882
0.83529412 0.83529412 0.83529412
0.85392157 0.85392157 0.85392157
0.85882353 0.85882353 0.85882353
0.89901961 0.89901961 0.89901961
0.90588235 0.90588235 0.90588235
0.02745098 0.02745098 0.02745098
0.042156863 0.042156863 0.042156863
0.076470588 0.076470588 0.076470588
0.16176471 0.16176471 0.16176471
0.27745098 0.27745098 0.27745098
0.18210784 0.18210784 0.18210784
0.18694853 0.18694853 0.18694853
0.22647059 0.22647059 0.22647059
0.30355392 0.30355392 0.30355392
0.39411765 0.39411765 0.39411765
0.38823529 0.38823529 0.38823529
0.39938725 0.39938725 0.39938725
0.42328431 0.42328431 0.42328431
0.48529412 0.48529412 0.48529412
0.5372549 0.5372549 0.5372549
0.63529412 0.63529412 0.63529412
0.64142157 0.64142157 0.64142157
0.65686275 0.65686275 0.65686275
0.6752451 0.6752451 0.6752451
0.70490196 0.70490196 0.70490196
0.85392157 0.85392157 0.85392157
0.88039216 0.88039216 0.88039216
0.86813725 0.86813725 0.86813725
0.89803922 0.89803922 0.89803922
0.91372549 0.91372549 0.91372549
0.023529412 0.023529412 0.023529412
0.055392157 0.055392157 0.055392157
0.090196078 0.090196078 0.090196078
0.17254902 0.17254902 0.17254902
0.32156863 0.32156863 0.32156863
0.20098039 0.20098039 0.20098039
0.20784314 0.20784314 0.20784314
0.25294118 0.25294118 0.25294118
0.31960784 0.31960784 0.31960784
0.37990196 0.37990196 0.37990196
0.40392157 0.40392157 0.40392157
0.41642157 0.41642157 0.41642157
0.44313725 0.44313725 0.44313725
0.49313725 0.49313725 0.49313725
0.52941176 0.52941176 0.52941176
0.64705882 0.64705882 0.64705882
0.65098039 0.65098039 0.65098039
0.65882353 0.65882353 0.65882353
0.68321078 0.68321078 0.68321078
0.73088235 0.73088235 0.73088235
0.86862745 0.86862745 0.86862745
0.88529412 0.88529412 0.88529412
0.88627451 0.88627451 0.88627451
0.89264706 0.89264706 0.89264706
0.9372549 0.9372549 0.9372549
0.054901961 0.054901961 0.054901961
0.07254902 0.07254902 0.07254902
0.12745098 0.12745098 0.12745098
0.19313725 0.19313725 0.19313725
0.33333333 0.33333333 0.33333333
0.22156863 0.22156863 0.22156863
0.22745098 0.22745098 0.22745098
0.27745098 0.27745098 0.27745098
0.34172794 0.34172794 0.34172794
0.44509804 0.44509804 0.44509804
0.42843137 0.42843137 0.42843137
0.44117647 0.44117647 0.44117647
0.47205882 0.47205882 0.47205882
0.50980392 0.50980392 0.50980392
0.57352941 0.57352941 0.57352941
0.66593137 0.66593137 0.66593137
0.66930147 0.66930147 0.66930147
0.68198529 0.68198529 0.68198529
0.70514706 0.70514706 0.70514706
0.74803922 0.74803922 0.74803922
0.88235294 0.88235294 0.88235294
0.90098039 0.90098039 0.90098039
0.89656863 0.89656863 0.89656863
0.89607843 0.89607843 0.89607843
0.91960784 0.91960784 0.91960784
0.062745098 0.062745098 0.062745098
0.08627451 0.08627451 0.08627451
0.14313725 0.14313725 0.14313725
0.20588235 0.20588235 0.20588235
0.42352941 0.42352941 0.42352941
0.24803922 0.24803922 0.24803922
0.25416667 0.25416667 0.25416667
0.28529412 0.28529412 0.28529412
0.34509804 0.34509804 0.34509804
0.47352941 0.47352941 0.47352941
0.45294118 0.45294118 0.45294118
0.45980392 0.45980392 0.45980392
0.48627451 0.48627451 0.48627451
0.53235294 0.53235294 0.53235294
0.6 0.6 0.6
0.67058824 0.67058824 0.67058824
0.67745098 0.67745098 0.67745098
0.70147059 0.70147059 0.70147059
0.7129902 0.7129902 0.7129902
0.76372549 0.76372549 0.76372549
0.89019608 0.89019608 0.89019608
0.9127451 0.9127451 0.9127451
0.92352941 0.92352941 0.92352941
0.91764706 0.91764706 0.91764706
0.92941176 0.92941176 0.92941176
