site/assets/luts/sha256-478115888b88129e1e2a88b130291185e4fcf5798eedfa0c80f72c50c033d634.cube
# LUTr-Schema-Version: 2
# LUTr-ID: sha256-478115888b88129e1e2a88b130291185e4fcf5798eedfa0c80f72c50c033d634
# LUTr-Title: deuteranope correct lut
# LUTr-Collection: Colour-Blind LUTs
# LUTr-Collection-ID: andrewwillmott-colour-blind-luts
# LUTr-Source: https://github.com/andrewwillmott/colour-blind-luts
# LUTr-Retrieved: 2026-07-27
# LUTr-Source-File: submissions/andrewwillmott-colour-blind-luts/luts/deuteranope_correct_lut.png
# LUTr-Source-Format: HALD-PNG
# LUTr-Source-SHA256: 478115888b88129e1e2a88b130291185e4fcf5798eedfa0c80f72c50c033d634
# LUTr-License: Unlicense
# LUTr-License-URL: https://github.com/andrewwillmott/colour-blind-luts/blob/master/LICENSE
# LUTr-License-Basis: repo-license-file
# LUTr-Transform-Class: accessibility
# LUTr-Tags: technical, accessibility, color-vision, simulation, correction, png, deuteranopia, cube
# LUTr-Input-Color-Space: srgb
# LUTr-Input-Gamut: rec709
# LUTr-Input-Transfer: srgb
# LUTr-Output-Color-Space: srgb
# LUTr-Output-Gamut: rec709
# LUTr-Output-Transfer: srgb
# LUTr-Color-Space-Confidence: assumed-display-referred
# LUTr-Domain-Normalized: true
# LUTr-Shaper: none
# LUTr-Original-Grid: 32x32x32
# LUTr-Conversion-Grid: 32x32x32
# LUTr-Conversion-Interpolation: none
# LUTr-Conversion-Method: HALD-PNG LUT image decoded at 16-bit and sampled to 32x32x32 3D CUBE
# LUTr-Conversion-Tool: LUTr scripts/convert-all-to-cube.mjs 2.0.0
# LUTr-Conversion-Date: 2026-07-27
# LUTr-Note: Preserve this metadata and the upstream license notices when redistributing.
TITLE "deuteranope correct lut"
LUT_3D_SIZE 32
DOMAIN_MIN 0 0 0
DOMAIN_MAX 1 1 1
0.011657893 0.015640497 0.011657893
0.050843061 0 0.046890974
0.089814603 0 0.078110933
0.12503243 0 0.10928511
0.16023499 0 0.14047456
0.19929808 0.000015259022 0.17175555
0.23450065 0 0.20306706
0.26961166 0 0.2342565
0.30870527 0.000015259022 0.26941329
0.34392309 0 0.30060273
0.3790341 0 0.33191424
0.41811246 0 0.36301213
0.45331502 0 0.39432364
0.48844129 0 0.42549783
0.52758068 0 0.45679408
0.56269169 0.000015259022 0.48796826
0.59784848 0 0.52315557
0.63692683 0 0.55437552
0.6721294 0 0.58556497
0.70725566 0 0.61675441
0.74639506 0 0.6480354
0.78150607 0 0.67934691
0.81672389 0 0.71053635
0.8558175 0 0.74569314
0.89102007 0 0.77688258
0.92614633 0 0.80817884
0.9613489 0 0.83936828
0.99645991 0 0.87055772
0.99650568 0 0.90180819
0.99645991 0 0.93307393
0.99650568 0 0.96432441
0.99645991 0 0.99559014
0 0.046875715 0.000045777066
0.046860456 0.042954147 0.015640497
0.085923552 0.035126268 0.066315709
0.12111086 0 0.10144198
0.16020447 0 0.13659876
0.19542229 0 0.16791028
0.23447013 0.000030518044 0.1990692
0.26961166 0 0.2342565
0.30869001 0 0.26547646
0.34380102 0 0.2966659
0.37901884 0 0.32784009
0.41811246 0 0.36301213
0.45331502 0 0.39432364
0.48844129 0 0.42549783
0.52758068 0 0.45679408
0.56269169 0.000015259022 0.48796826
0.59790951 0 0.51927977
0.63698787 0 0.55049973
0.6721294 0 0.58556497
0.70725566 0 0.61675441
0.74245823 0 0.64805066
0.78150607 0 0.67934691
0.81672389 0 0.71053635
0.8518349 0 0.74171054
0.89091325 0 0.7729305
0.92614633 0 0.80817884
0.9613489 0 0.83936828
0.99645991 0 0.87055772
0.99650568 0 0.90180819
0.99645991 0 0.93307393
0.99650568 0 0.96432441
0.99645991 0 0.99559014
0 0.082093538 0.000045777066
0.019531548 0.082047761 0.000091554131
0.078080415 0.07426566 0.015655756
0.11717403 0.066407263 0.082017243
0.15622187 0.054688334 0.12104982
0.19539178 0.019531548 0.16003662
0.23054856 0.000015259022 0.19134813
0.26956588 0 0.22644388
0.3047837 0 0.25763333
0.34000153 0 0.29288167
0.37907988 0 0.32397955
0.41423667 0 0.3591516
0.4532845 0 0.39044785
0.48850233 0 0.42162203
0.52361334 0 0.45281147
0.56269169 0 0.48403143
0.59790951 0 0.51927977
0.63312734 0 0.55046921
0.67209888 0 0.58168917
0.7073167 0 0.61287861
0.74242771 0 0.64419013
0.78150607 0 0.67934691
0.81672389 0 0.71053635
0.8518349 0 0.74171054
0.89091325 0 0.7729305
0.92613107 0 0.80424201
0.96131838 0 0.83549248
0.99645991 0 0.87055772
0.99650568 0 0.90180819
0.99645991 0 0.93307393
0.99650568 0 0.96432441
0.99645991 0 0.99559014
0 0.11721981 0.000091554131
0 0.11721981 0.000091554131
0.058487831 0.1133135 0.000030518044
0.10540932 0.10939193 0.015640497
0.14842451 0.10160983 0.093781949
0.18744182 0.089829862 0.14056611
0.22661173 0.070283055 0.17959869
0.26572061 0.042954147 0.2147097
0.30087739 0 0.24977493
0.33995575 0 0.28493172
0.37517357 0 0.31624323
0.41425193 0 0.35141527
0.44937819 0 0.38258946
0.48451972 0 0.41765469
0.52367437 0 0.44893568
0.55878538 0 0.4802472
0.59789425 0 0.51534295
0.63300526 0 0.54653239
0.66822309 0 0.57770657
0.70727092 0 0.60900282
0.74242771 0 0.64419013
0.77764553 0 0.67536431
0.81669337 0 0.70666056
0.85189593 0 0.73783474
0.88711376 0 0.76914626
0.92613107 0 0.80424201
0.96131838 0 0.83549248
0.99652094 0 0.86668193
0.99647517 0 0.89794766
0.99652094 0 0.92919814
0.99647517 0 0.96044862
0.99645991 0 0.99559014
0 0.15237659 0.000015259022
0 0.14845502 0.000091554131
0 0.14845502 0.000091554131
0.089799344 0.14457923 0.000045777066
0.14059663 0.1406424 0.015548943
0.17969024 0.13278401 0.10928511
0.21878386 0.1210956 0.15614557
0.25784695 0.10943771 0.19913024
0.29691005 0.08986038 0.23422599
0.33601892 0.058609903 0.27325856
0.371252 0 0.30840009
0.41029984 0 0.33968109
0.44545663 0 0.37474632
0.48455024 0 0.40990311
0.5197528 0 0.44121462
0.55877012 0 0.47631037
0.59398795 0 0.50749981
0.63303578 0 0.5387808
0.66819257 0 0.57384604
0.70339513 0 0.60514229
0.74244297 0 0.63631647
0.77759976 0 0.67148852
0.81281758 0 0.70267796
0.85189593 0 0.73389792
0.88700694 0 0.76508736
0.9260853 0 0.80024414
0.96130312 0 0.83155566
0.99641413 0 0.8627451
0.99645991 0 0.89399557
0.99652094 0 0.92919814
0.99647517 0 0.96044862
0.99652094 0 0.99171435
0 0.18359655 0.000015259022
0 0.18359655 0.000015259022
0 0.18359655 0.000015259022
0.062394141 0.17972076 0.000061036088
0.12489509 0.17584497 0.000091554131
0.16794079 0.17189288 0.011718929
0.2109102 0.16411078 0.12112612
0.25389487 0.15236133 0.17175555
0.29306477 0.14065766 0.21474022
0.33211261 0.12892348 0.25377279
0.36731518 0.10543984 0.29289693
0.40640879 0.078110933 0.32800793
0.44161135 0 0.36302739
0.48062867 0 0.39810788
0.51970703 0 0.43327993
0.55492485 0 0.46459144
0.5940032 0 0.49974823
0.62915999 0 0.5347982
0.664271 0 0.56610971
0.70342565 0 0.59728389
0.73858244 0 0.63245594
0.77755398 0 0.6636759
0.8127718 0 0.69880217
0.84798962 0 0.73011368
0.88706798 0 0.76121157
0.9222858 0 0.79645991
0.95739681 0 0.82764935
0.99647517 0 0.85886931
0.99642939 0 0.89011978
0.99649042 0 0.92532235
0.9965362 0 0.95657282
0.99658198 0 0.98783856
0 0.21879911 0.0001373312
0 0.21879911 0.0001373312
0 0.21493858 0.000076295109
0 0.21493858 0.000076295109
0.10151827 0.21100175 0.000076295109
0.15614557 0.20703441 0.000045777066
0.19909972 0.20320439 0.015609979
0.24220645 0.19533074 0.1288777
0.28514534 0.18754864 0.18352026
0.32423896 0.17584497 0.23038071
0.36339361 0.16015869 0.27335012
0.40241093 0.14454871 0.31244373
0.43761349 0.12501717 0.34752422
0.47675288 0.097642481 0.38649577
0.51583124 0.039078355 0.42160678
0.55100328 0 0.45673304
0.59006638 0 0.4880293
0.6252079 0 0.52307927
0.66430152 0 0.55823606
0.69950408 0 0.58954757
0.7385214 0 0.62464332
0.77364767 0 0.65583276
0.80886549 0 0.69095903
0.84794385 0 0.72217899
0.88316167 0 0.75742733
0.92224002 0 0.78864729
0.95735103 0 0.81983673
0.99250782 0 0.8548867
0.99649042 0 0.88624399
0.9965362 0 0.91750973
0.99652094 0 0.952636
0.9965362 0 0.98396277
0 0.25394064 0.000061036088
0 0.25394064 0.000061036088
0 0.25006485 0.00012207218
0 0.25006485 0.00012207218
0.062455177 0.24614328 0.00016784924
0.13661402 0.24228275 0.00012207218
0.18738079 0.23834592 0.000061036088
0.23035019 0.23439384 0.015548943
0.27335012 0.22661173 0.14052033
0.31631952 0.21875334 0.19916075
0.35551995 0.20700389 0.24600595
0.39458305 0.19536126 0.28899062
0.43363088 0.1797055 0.33196002
0.47280079 0.16408026 0.36707103
0.50794232 0.1445182 0.40613413
0.54694438 0.11326772 0.4411078
0.58609903 0.066392004 0.47634089
0.62136263 0 0.51148241
0.66037995 0 0.54645609
0.69559777 0 0.58170443
0.73461509 0 0.61680018
0.7698024 0 0.64805066
0.80891127 0 0.68314641
0.84402228 0 0.71445792
0.88311589 0 0.74961471
0.91833371 0 0.78080415
0.95347524 0 0.81585412
0.99252308 0 0.84715038
0.99655146 0 0.8823682
0.99650568 0 0.91363394
0.99655146 0 0.94476234
0.9965362 0 0.97988861
0 0.28519112 0.00016784924
0 0.28519112 0.00016784924
0 0.28519112 0.00016784924
0 0.28519112 0.00016784924
0 0.28130007 0.00012207218
0.10527199 0.27739376 0.000030518044
0.1678645 0.27347219 0.000061036088
0.21863127 0.26955062 0
0.26544594 0.26567483 0.01559472
0.30464637 0.25781643 0.14840925
0.34763104 0.25004959 0.21086442
0.38677043 0.2383154 0.26158541
0.42586404 0.23050278 0.30463111
0.46491188 0.21487755 0.34747845
0.50402075 0.19923705 0.38658732
0.54314488 0.18358129 0.42568093
0.58217746 0.16015869 0.46071565
0.61727321 0.13276875 0.49971771
0.65642786 0.085908293 0.53482872
0.69164569 0 0.5699855
0.730663 0 0.605066
0.76589609 0 0.64032959
0.80495918 0 0.67141222
0.84011597 0 0.70659953
0.87920958 0 0.74175631
0.91441215 0 0.77294575
0.95350576 0 0.80810254
0.98861677 0 0.83941405
0.99650568 0 0.87455558
0.99644465 0 0.90568399
0.99650568 0 0.94088655
0.99655146 0 0.97215229
0 0.32040894 0.00016784924
0 0.32040894 0.00016784924
0 0.32040894 0.00016784924
0 0.31642634 0.00016784924
0 0.31642634 0.00016784924
0.050675212 0.3125658 0.00016784924
0.14439612 0.30867475 0.000045777066
0.19908446 0.3047837 0.000076295109
0.24985122 0.30084688 0.000015259022
0.29279011 0.29694057 0.011642634
0.33583581 0.28908217 0.15617609
0.37886625 0.28125429 0.22262913
0.41791409 0.26956588 0.27335012
0.46097505 0.26176852 0.32024109
0.50005341 0.24998856 0.36314946
0.53524071 0.23439384 0.40608835
0.57436484 0.21873808 0.44519722
0.6133669 0.19917601 0.48416876
0.65250629 0.17967498 0.51934081
0.68763256 0.14842451 0.55440604
0.72675669 0.10933089 0.58950179
0.76589609 0 0.62456703
0.80111391 0 0.65981537
0.84020752 0 0.69498741
0.87534905 0 0.73003738
0.91444266 0 0.76519417
0.94955367 0 0.79638361
0.98866255 0 0.83147936
0.99652094 0 0.86668193
0.99647517 0 0.89794766
0.99645991 0 0.93307393
0.99650568 0 0.96432441
0 0.35553521 0.00021362631
0 0.35553521 0.00021362631
0 0.35164416 0.00016784924
0 0.35164416 0.00016784924
0 0.35164416 0.00016784924
0 0.34769207 0.00015259022
0.10531777 0.34381628 0.0001373312
0.17958343 0.33989471 0.000091554131
0.23427176 0.33603418 0
0.281178 0.33211261 0.000030518044
0.32411688 0.3282063 0.011657893
0.36714733 0.32036316 0.16800183
0.41017777 0.3125658 0.2343328
0.44919509 0.30472267 0.28899062
0.49214923 0.29300374 0.33575952
0.53124285 0.28128481 0.38272679
0.5703975 0.2695201 0.42163729
0.60944533 0.25387961 0.46462196
0.64466316 0.2383154 0.49980926
0.68366522 0.21873808 0.5387808
0.72280461 0.19533074 0.57788968
0.75797665 0.16792554 0.61301595
0.79708553 0.12883192 0.64812696
0.83625544 0.054612039 0.68317693
0.87139696 0 0.71831846
0.91041428 0 0.75341421
0.94564736 0 0.78866255
0.98472572 0 0.81976043
0.99644465 0 0.85499351
0.99642939 0 0.89011978
0.99647517 0 0.92138552
0.9965362 0 0.95657282
0 0.38677043 0.00021362631
0 0.38677043 0.00021362631
0 0.38677043 0.00021362631
0 0.38677043 0.00021362631
0 0.3829099 0.00015259022
0 0.3829099 0.00015259022
0 0.37900359 0.00021362631
0.14831769 0.37508202 0.000061036088
0.21074235 0.37114519 0.000030518044
0.26543069 0.36725414 0.000076295109
0.31232166 0.36336309 0
0.35533684 0.3594873 0.011795224
0.39835203 0.3516289 0.17576867
0.44132143 0.34381628 0.24609751
0.48436713 0.33597314 0.3007248
0.52349126 0.32423896 0.35146105
0.56252384 0.31642634 0.39836728
0.60161746 0.30466163 0.44127565
0.64072633 0.28902113 0.48026246
0.67974365 0.27342641 0.51935607
0.71499199 0.25781643 0.55841917
0.75399405 0.23823911 0.59739071
0.79320974 0.21484703 0.63250172
0.83219654 0.18356603 0.66761273
0.8673991 0.14448768 0.70667582
0.90656901 0.085877775 0.74178683
0.9417258 0 0.77686732
0.98086519 0 0.80816358
0.99645991 0 0.8433051
0.99644465 0 0.87843137
0.99650568 0 0.91363394
0.99655146 0 0.94476234
0 0.42191196 0.0001373312
0 0.42191196 0.0001373312
0 0.42191196 0.0001373312
0 0.42191196 0.0001373312
0 0.41803616 0.00019836728
0 0.41803616 0.00019836728
0 0.41414511 0.00015259022
0.10133516 0.41025406 0.00015259022
0.18730449 0.41019303 0.000076295109
0.24592966 0.40636301 0.000091554131
0.29675746 0.39850462 0.000091554131
0.34355688 0.3946746 0
0.38658732 0.39067674 0.011734188
0.43352407 0.38281834 0.18356603
0.47261769 0.37503624 0.25384909
0.51560235 0.36720836 0.31236744
0.55463493 0.35550469 0.36308843
0.59377432 0.34766155 0.41000992
0.63286793 0.33595789 0.45685512
0.67191577 0.3242237 0.49590295
0.71096361 0.3085832 0.53887236
0.75007248 0.29295796 0.5778439
0.78915084 0.27345693 0.61689174
0.82436866 0.25389487 0.65207904
0.86343175 0.23044175 0.69098955
0.90252537 0.20306706 0.72622263
0.93778897 0.16401923 0.76130312
0.97689784 0.10930037 0.79645991
0.99647517 0 0.83147936
0.99652094 0 0.86668193
0.99650568 0 0.90180819
0.99650568 0 0.93694972
0 0.45709926 0.00025940337
0 0.45709926 0.00025940337
0 0.45709926 0.00025940337
0 0.45325399 0.00019836728
0 0.45325399 0.00019836728
0 0.45325399 0.00019836728
0 0.44927138 0.00019836728
0 0.44534981 0.00025940337
0.14830243 0.44542611 0.00010681315
0.22246128 0.44153506 0.00018310826
0.27708858 0.43759823 0.000030518044
0.32790112 0.42975509 0.000030518044
0.37480735 0.42586404 0
0.42168307 0.41806668 0.01559472
0.46478981 0.41416037 0.19139391
0.5038529 0.4062562 0.26549172
0.54685283 0.39848936 0.32806897
0.58591592 0.39066148 0.37872892
0.62500954 0.37894255 0.42571145
0.66411841 0.36723888 0.47257191
0.70319677 0.35545892 0.51548028
0.7422446 0.34372473 0.55451286
0.78135348 0.32809949 0.5934844
0.82047761 0.31245899 0.63259327
0.85955596 0.29295796 0.67162585
0.89469749 0.27342641 0.71056687
0.93382162 0.24994278 0.74573892
0.97289998 0.21872282 0.7808957
0.99635309 0.18358129 0.81986725
0.99638361 0.13279927 0.85502403
0.99642939 0 0.89011978
0.99649042 0 0.92532235
0 0.49225605 0.00018310826
0 0.48838025 0.00024414435
0 0.48838025 0.00024414435
0 0.48838025 0.00024414435
0 0.48838025 0.00024414435
0 0.4844892 0.00019836728
0 0.4844892 0.00019836728
0 0.48049134 0.00018310826
0.093522545 0.48058289 0.00018310826
0.19111925 0.47664607 0.000091554131
0.25371176 0.4727245 0.0001373312
0.30841535 0.46886397 0.000045777066
0.35913634 0.46106661 0.000045777066
0.40602731 0.45714504 0.000076295109
0.45291829 0.44937819 0.015609979
0.49599451 0.44542611 0.19916075
0.53507286 0.43758297 0.27731746
0.57808804 0.42970932 0.3397116
0.61722744 0.42192721 0.39056992
0.65626001 0.4102388 0.44129091
0.69925994 0.40238041 0.48810559
0.73833829 0.39060044 0.53101396
0.77746242 0.37502098 0.57405966
0.81258869 0.36325628 0.61300069
0.85169757 0.34761578 0.6520943
0.89071489 0.33203632 0.6910811
0.92988479 0.31248951 0.73011368
0.96891737 0.28903639 0.76528573
0.99632258 0.26556802 0.80428779
0.99639887 0.23825437 0.83942931
0.99642939 0.20306706 0.87463188
0.99644465 0.15228504 0.9097734
0 0.52353704 0.00018310826
0 0.52353704 0.00018310826
0 0.52353704 0.00018310826
0 0.52353704 0.00018310826
0 0.52353704 0.00018310826
0 0.51961547 0.00024414435
0 0.51961547 0.00024414435
0 0.5156939 0.00030518044
0 0.51184863 0.00024414435
0.14818036 0.51183337 0.00015259022
0.22630655 0.50788128 0.0001373312
0.28880751 0.50402075 0.000045777066
0.34349584 0.5001297 0.000091554131
0.39046311 0.49231708 0.000061036088
0.43735409 0.48841077 0.000091554131
0.48416876 0.48056764 0.015564202
0.52724498 0.47667659 0.20317388
0.56636912 0.46880293 0.28508431
0.60929274 0.46095979 0.34760052
0.64840162 0.45316243 0.40607309
0.69147784 0.44145876 0.45690089
0.73051041 0.43364614 0.50382238
0.76958877 0.42188144 0.54673075
0.80865187 0.41022354 0.58970016
0.84780652 0.39844358 0.628748
0.88685435 0.38281834 0.67159533
0.9220264 0.36713207 0.71059739
0.96110475 0.3476463 0.74962997
0.99630732 0.32808423 0.78483253
0.99629206 0.30853742 0.82383459
0.99629206 0.28509957 0.85903716
0.99636835 0.25386435 0.89813077
0 0.55872435 0.00028992142
0 0.55872435 0.00028992142
0 0.55872435 0.00028992142
0 0.55872435 0.00028992142
0 0.554757 0.00016784924
0 0.554757 0.00016784924
0 0.554757 0.00016784924
0 0.55083543 0.00022888533
0 0.5469749 0.00030518044
0.077882048 0.54700542 0.00028992142
0.19504082 0.54306859 0.00010681315
0.26543069 0.53916228 0.00015259022
0.32011902 0.53528649 0.000076295109
0.37474632 0.53131914 0.000030518044
0.42160678 0.52356756 0
0.46849775 0.51964599 0.000030518044
0.51541924 0.51572442 0.015640497
0.55844968 0.50794232 0.21092546
0.59751278 0.50005341 0.29684901
0.64060426 0.49225605 0.35930419
0.67971313 0.48444343 0.41791409
0.72265202 0.47658503 0.46860456
0.76174563 0.46488136 0.51544976
0.80083925 0.45317769 0.56231022
0.83993286 0.44141299 0.60521859
0.8789807 0.42975509 0.64820325
0.91813535 0.41797513 0.68723583
0.95715267 0.40236515 0.72632944
0.99626154 0.38673991 0.76531624
0.99624628 0.3671931 0.8043183
0.99632258 0.34758526 0.84333562
0.99632258 0.32416266 0.87853819
0 0.59386587 0.00022888533
0 0.59386587 0.00022888533
0 0.58995956 0.00028992142
0 0.58995956 0.00028992142
0 0.58995956 0.00028992142
0 0.58995956 0.00028992142
0 0.58603799 0.0003509575
0 0.58603799 0.0003509575
0 0.58211643 0.00022888533
0 0.58211643 0.00022888533
0.14430457 0.57822538 0.00016784924
0.23416495 0.57434958 0.00012207218
0.29658961 0.5703975 0.00010681315
0.35521477 0.56656748 0.00010681315
0.40598154 0.56263066 0.000045777066
0.45293355 0.55481804 0.000015259022
0.49982452 0.55091173 0.000045777066
0.54271763 0.54700542 0.015548943
0.58974594 0.53916228 0.2186923
0.62880903 0.53128862 0.30461585
0.67183948 0.52349126 0.37094682
0.71085679 0.51572442 0.42954147
0.75396353 0.50788128 0.48030823
0.79299611 0.49616236 0.53116655
0.83212024 0.48833448 0.57795071
0.87110704 0.47660029 0.62085908
0.91027695 0.46489662 0.66384375
0.94932479 0.44925612 0.70681315
0.98837263 0.43752193 0.74584573
0.99618524 0.42186618 0.78480201
0.99626154 0.40622568 0.82394141
0.99624628 0.38667887 0.86295872
0 0.62507057 0.00033569848
0 0.62507057 0.00033569848
0 0.62507057 0.00033569848
0 0.62507057 0.00033569848
0 0.62507057 0.00033569848
0 0.6212253 0.00027466239
0 0.6212253 0.00027466239
0 0.6212253 0.00027466239
0 0.61730373 0.0003509575
0 0.61335164 0.00021362631
0.038834211 0.61339742 0.00024414435
0.19508659 0.60949111 0.00021362631
0.26924544 0.60561532 0.00016784924
0.33177691 0.60164797 0.000015259022
0.38646525 0.59775692 0.000061036088
0.43729305 0.59389639 0.000061036088
0.48409247 0.58606851 0
0.53098344 0.58214694 0
0.57399863 0.57830167 0.011688411
0.62095064 0.57041276 0.22658122
0.66001373 0.56255436 0.31236744
0.70304417 0.55480278 0.38277256
0.74602884 0.5469749 0.44127565
0.78513771 0.53908598 0.49594873
0.82417029 0.52739757 0.54666972
0.86329442 0.51953918 0.59357595
0.90235752 0.50788128 0.63656062
0.94145113 0.49611658 0.67946899
0.98060578 0.48439765 0.72245365
0.99615473 0.46877241 0.76528573
0.99616999 0.45705348 0.80436408
0.99626154 0.44142824 0.84350347
0 0.6602884 0.00033569848
0 0.6602884 0.00033569848
0 0.6602884 0.00033569848
0 0.6602884 0.00033569848
0 0.65635157 0.00033569848
0 0.65635157 0.00033569848
0 0.65635157 0.00033569848
0 0.65246052 0.00027466239
0 0.65246052 0.00027466239
0 0.64853895 0.00033569848
0 0.64853895 0.00033569848
0.13644617 0.64466316 0.00027466239
0.23404288 0.64074159 0.00016784924
0.30443275 0.63685054 0.00021362631
0.3668574 0.63292897 0.000061036088
0.41768521 0.62906844 0.000076295109
0.46845197 0.62513161 0.000015259022
0.51531243 0.61738003 0
0.5622034 0.61345846 0.000015259022
0.6091249 0.60953689 0.015609979
0.65221637 0.60167849 0.23047227
0.69127947 0.59389639 0.32021057
0.73434043 0.58603799 0.39053941
0.77726406 0.5781796 0.45304036
0.81634241 0.57042802 0.5076524
0.85542077 0.56258488 0.55843442
0.89460594 0.55083543 0.60529488
0.93757534 0.53910124 0.6521706
0.97656214 0.52738231 0.69507897
0.99624628 0.51566339 0.73801785
0.99621576 0.50395972 0.780972
0.99621576 0.48825818 0.8200351
0 0.69541466 0.00038147555
0 0.69541466 0.00038147555
0 0.69541466 0.00038147555
0 0.69156939 0.00032043946
0 0.69156939 0.00032043946
0 0.69156939 0.00032043946
0 0.69156939 0.00032043946
0 0.68758679 0.00032043946
0 0.68758679 0.00032043946
0 0.68368048 0.00025940337
0 0.68368048 0.00025940337
0 0.67981994 0.00032043946
0.19110399 0.67592889 0.00022888533
0.27702754 0.67199207 0.00021362631
0.3395285 0.66814679 0.0001373312
0.39818418 0.66417945 0.000076295109
0.45287251 0.6602884 0.00012207218
0.49967193 0.65644312 0.000030518044
0.54656291 0.64853895 0.000045777066
0.59345388 0.6446479 0
0.64034485 0.6368658 0.015625238
0.68342107 0.63295949 0.23823911
0.72251469 0.62510109 0.33197528
0.76548409 0.61728847 0.40228885
0.80849928 0.60941482 0.46468299
0.84759289 0.60163272 0.51941711
0.8867628 0.5938201 0.57413596
0.92971695 0.58210117 0.62090486
0.96874952 0.57430381 0.66781109
0.99616999 0.5625391 0.71068894
0.99613947 0.55083543 0.75364309
0.99618524 0.53907073 0.79658198
0 0.72669566 0.00038147555
0 0.72669566 0.00038147555
0 0.72669566 0.00038147555
0 0.72669566 0.00038147555
0 0.72669566 0.00038147555
0 0.72669566 0.00038147555
0 0.72280461 0.00032043946
0 0.72280461 0.00032043946
0 0.72280461 0.00032043946
0 0.71888304 0.00038147555
0 0.71496147 0.00025940337
0 0.71496147 0.00025940337
0.12466621 0.71108568 0.00027466239
0.23796445 0.70714885 0.00018310826
0.31221485 0.70324254 0.0001373312
0.3747158 0.69936675 0.00018310826
0.43327993 0.69546044 0.00012207218
0.48403143 0.69152361 0.000061036088
0.53092241 0.68763256 0
0.58165866 0.6798352 0
0.6246891 0.67595941 0
0.67159533 0.67203784 0.015564202
0.71467155 0.66422522 0.24213016
0.75371939 0.65636683 0.33972686
0.79671931 0.64850843 0.41393149
0.83981079 0.64071107 0.47638666
0.87882811 0.63286793 0.53104448
0.92185855 0.6250248 0.58568704
0.96090639 0.61330587 0.6365301
0.99616999 0.60549325 0.68342107
0.99612421 0.59378958 0.72637522
0.99612421 0.58204013 0.7731899
0 0.76183719 0.00030518044
0 0.76183719 0.00030518044
0 0.76183719 0.00030518044
0 0.76183719 0.00030518044
0 0.76183719 0.00030518044
0 0.75793088 0.00036621653
0 0.75793088 0.00036621653
0 0.75793088 0.00036621653
0 0.75402457 0.00030518044
0 0.75402457 0.00030518044
0 0.75016403 0.00038147555
0 0.75016403 0.00038147555
0 0.74616617 0.00036621653
0.18712139 0.74236667 0.00024414435
0.27708858 0.73844511 0.00021362631
0.3473106 0.73450828 0.00018310826
0.40979629 0.730663 0.00010681315
0.46449989 0.72677195 0.0001373312
0.51525139 0.72283513 0.000076295109
0.56601816 0.71891356 0.000015259022
0.61290913 0.71499199 0.000045777066
0.65600061 0.70722515 0
0.69895476 0.70328832 0.011734188
0.74587625 0.69546044 0.25000381
0.78501564 0.68757153 0.34761578
0.82792401 0.67978943 0.42169833
0.87095445 0.67196155 0.48815137
0.91013962 0.66413367 0.54288548
0.95307851 0.65635157 0.59751278
0.9922179 0.64461738 0.64824903
0.99607843 0.63680476 0.69510948
0.99607843 0.62505531 0.74192416
0 0.79703975 0.00042725261
0 0.79703975 0.00042725261
0 0.79703975 0.00042725261
0 0.79703975 0.00042725261
0 0.7931487 0.00036621653
0 0.7931487 0.00036621653
0 0.7931487 0.00036621653
0 0.7931487 0.00036621653
0 0.78915084 0.00036621653
0 0.78915084 0.00036621653
0 0.78527504 0.00042725261
0 0.78527504 0.00042725261
0 0.78138399 0.00036621653
0.10121309 0.77749294 0.00036621653
0.23791867 0.77363241 0.00030518044
0.3160296 0.76969558 0.00015259022
0.3824979 0.76575875 0.00010681315
0.44106203 0.76185245 0.000045777066
0.49575036 0.75796139 0.000091554131
0.54657816 0.75410086 0.000091554131
0.59734493 0.75017929 0.000030518044
0.6442359 0.74625772 0.000061036088
0.68715953 0.73846036 0
0.73017472 0.73060197 0.011749447
0.77714199 0.72674144 0.25389487
0.81622034 0.71883726 0.35538262
0.85929656 0.71105516 0.42964828
0.90225071 0.70318151 0.49591821
