site/assets/luts/sha256-c671d1ec5fd8ed4aeedae815fa349880c5e3b53fe3f3feb4d8900e6b1e12674f.cube
# LUTr-Schema-Version: 2
# LUTr-ID: sha256-c671d1ec5fd8ed4aeedae815fa349880c5e3b53fe3f3feb4d8900e6b1e12674f
# LUTr-Title: polaroid px-70 ++
# LUTr-Collection: Natron HaldCLUT
# LUTr-Collection-ID: natron-haldclut-presets
# LUTr-Source: https://github.com/NatronGitHub/clut
# LUTr-Retrieved: 2026-07-27
# LUTr-Source-File: submissions/natron-haldclut-presets/instant_consumer/polaroid_px-70_++.png
# LUTr-Source-Format: HALD-PNG
# LUTr-Source-SHA256: c671d1ec5fd8ed4aeedae815fa349880c5e3b53fe3f3feb4d8900e6b1e12674f
# LUTr-License: CC-BY-SA-4.0
# LUTr-License-URL: https://github.com/NatronGitHub/clut#license
# LUTr-License-Basis: repo-license-file
# LUTr-Transform-Class: film-emulation
# LUTr-Tags: creative, film, film-emulation, hald-clut, natron, png, cube
# LUTr-Input-Color-Space: srgb
# LUTr-Input-Gamut: rec709
# LUTr-Input-Transfer: srgb
# LUTr-Output-Color-Space: srgb
# LUTr-Output-Gamut: rec709
# LUTr-Output-Transfer: srgb
# LUTr-Color-Space-Confidence: assumed-display-referred
# LUTr-Domain-Normalized: true
# LUTr-Shaper: none
# LUTr-Original-Grid: 64x64x64
# LUTr-Conversion-Grid: 25x25x25
# LUTr-Conversion-Interpolation: trilinear
# LUTr-Conversion-Method: HALD-PNG LUT image decoded at 16-bit and sampled to 25x25x25 3D CUBE
# LUTr-Conversion-Tool: LUTr scripts/convert-all-to-cube.mjs 2.0.0
# LUTr-Conversion-Date: 2026-07-27
# LUTr-Note: Preserve this metadata and the upstream license notices when redistributing.
TITLE "polaroid px-70 ++"
LUT_3D_SIZE 5
DOMAIN_MIN 0 0 0
DOMAIN_MAX 1 1 1
0.20784314 0.31764706 0.25882353
0.23039216 0.31764706 0.25882353
0.35686275 0.31764706 0.25882353
0.81176471 0.3754902 0.23529412
0.96862745 0.50196078 0.22352941
0.20490196 0.33235294 0.25882353
0.23823529 0.34019608 0.25882353
0.42843137 0.37009804 0.24803922
0.81666667 0.45490196 0.22254902
0.97352941 0.5872549 0.24411765
0.15294118 0.51568627 0.2372549
0.26960784 0.51813725 0.24264706
0.55196078 0.55392157 0.23235294
0.81862745 0.60931373 0.20392157
0.95490196 0.67058824 0.24313725
0.44705882 0.76372549 0.28823529
0.50098039 0.7627451 0.28333333
0.65686275 0.77058824 0.30735294
0.81838235 0.78235294 0.30490196
0.90196078 0.79117647 0.3372549
0.81176471 0.86666667 0.49019608
0.8 0.85882353 0.48235294
0.83333333 0.8627451 0.49803922
0.85980392 0.86666667 0.50294118
0.89411765 0.8627451 0.50196078
0.21568627 0.3254902 0.27352941
0.23921569 0.3247549 0.26666667
0.40686275 0.3254902 0.27352941
0.81568627 0.36666667 0.27745098
0.97352941 0.5754902 0.32352941
0.21789216 0.34093137 0.26985294
0.26060049 0.35079657 0.26666667
0.47561275 0.3625 0.2685049
0.83958333 0.46666667 0.27297794
0.96176471 0.6129902 0.32745098
0.2495098 0.54460784 0.275
0.31875 0.53664216 0.27352941
0.57965686 0.56666667 0.26960784
0.83823529 0.61556373 0.26323529
0.93529412 0.67941176 0.30343137
0.51862745 0.7747549 0.33529412
0.56960784 0.77193627 0.34044118
0.68578431 0.77843137 0.35098039
0.82941176 0.79093137 0.36329657
0.90490196 0.79485294 0.39019608
0.80686275 0.8627451 0.49019608
0.81151961 0.8625 0.49240196
0.83137255 0.8627451 0.49803922
0.8627451 0.8629902 0.50588235
0.89019608 0.8627451 0.50686275
0.23333333 0.3254902 0.32156863
0.30147059 0.32892157 0.31764706
0.48333333 0.35294118 0.3372549
0.83333333 0.35882353 0.39264706
0.9627451 0.55686275 0.42352941
0.22598039 0.36470588 0.34460784
0.33921569 0.37254902 0.35379902
0.55686275 0.42867647 0.36593137
0.84926471 0.47781863 0.40061275
0.9495098 0.6754902 0.45294118
0.30980392 0.57058824 0.37156863
0.41151961 0.56764706 0.37598039
0.65343137 0.60343137 0.39460784
0.8504902 0.68112745 0.425
0.91960784 0.74803922 0.45784314
0.63186275 0.78333333 0.42843137
0.66335784 0.77892157 0.43051471
0.74583333 0.78627451 0.43946078
0.84019608 0.79840686 0.44705882
0.8995098 0.80539216 0.45784314
0.82941176 0.8627451 0.51176471
0.82990196 0.8627451 0.51029412
0.84705882 0.8627451 0.51666667
0.87156863 0.86666667 0.5254902
0.89019608 0.8627451 0.51372549
0.43137255 0.34509804 0.52058824
0.55882353 0.39240196 0.50514706
0.76372549 0.53137255 0.51519608
0.86372549 0.65955882 0.50784314
0.9254902 0.69607843 0.50980392
0.42034314 0.43627451 0.52352941
0.56740196 0.46985294 0.51887255
0.78039216 0.5932598 0.51715686
0.87156863 0.72371324 0.51470588
0.91666667 0.73039216 0.51470588
0.38627451 0.62696078 0.50735294
0.51458333 0.63480392 0.50428922
0.75073529 0.68627451 0.51102941
0.86053922 0.77647059 0.51862745
0.90882353 0.78333333 0.52647059
0.65588235 0.79019608 0.50686275
0.6776348 0.78627451 0.50392157
0.77401961 0.79411765 0.51078431
0.85631127 0.82248775 0.51881127
0.89803922 0.83308824 0.52328431
0.83921569 0.86764706 0.53039216
0.82965686 0.86053922 0.52720588
0.85686275 0.8627451 0.53333333
0.88235294 0.86666667 0.5372549
0.89411765 0.86666667 0.54117647
0.78823529 0.68627451 0.58431373
0.80686275 0.69705882 0.57647059
0.85686275 0.76666667 0.56666667
0.88627451 0.81960784 0.55294118
0.90588235 0.80784314 0.54901961
0.79411765 0.72254902 0.57647059
0.80465686 0.72132353 0.56887255
0.85490196 0.7745098 0.56078431
0.8872549 0.82843137 0.55294118
0.89803922 0.84313725 0.54901961
0.78235294 0.76470588 0.56862745
0.79607843 0.76421569 0.56470588
0.84705882 0.8 0.56078431
0.88235294 0.83137255 0.55196078
0.89607843 0.85294118 0.54901961
0.74411765 0.80980392 0.55686275
0.76176471 0.80882353 0.55686275
0.81715686 0.82058824 0.55196078
0.8754902 0.84730392 0.54901961
0.89803922 0.85882353 0.54901961
0.8627451 0.87058824 0.55294118
0.83823529 0.8627451 0.54901961
0.8627451 0.86666667 0.54901961
0.8754902 0.85882353 0.55196078
0.89803922 0.86666667 0.54901961
