site/assets/luts/sha256-f0a86dcf58188e0191d1c2e2230ca8133d9e8e459c4646f7a6c08884fe623830.cube
# LUTr-Schema-Version: 2
# LUTr-ID: sha256-f0a86dcf58188e0191d1c2e2230ca8133d9e8e459c4646f7a6c08884fe623830
# LUTr-Title: kodak bw 400 cn
# LUTr-Collection: Natron HaldCLUT
# LUTr-Collection-ID: natron-haldclut-presets
# LUTr-Source: https://github.com/NatronGitHub/clut
# LUTr-Retrieved: 2026-07-27
# LUTr-Source-File: submissions/natron-haldclut-presets/bw/kodak_bw_400_cn.png
# LUTr-Source-Format: HALD-PNG
# LUTr-Source-SHA256: f0a86dcf58188e0191d1c2e2230ca8133d9e8e459c4646f7a6c08884fe623830
# LUTr-License: CC-BY-SA-4.0
# LUTr-License-URL: https://github.com/NatronGitHub/clut#license
# LUTr-License-Basis: repo-license-file
# LUTr-Transform-Class: film-emulation
# LUTr-Tags: creative, film, film-emulation, hald-clut, natron, png, black-and-white, cube
# LUTr-Input-Color-Space: srgb
# LUTr-Input-Gamut: rec709
# LUTr-Input-Transfer: srgb
# LUTr-Output-Color-Space: srgb
# LUTr-Output-Gamut: rec709
# LUTr-Output-Transfer: srgb
# LUTr-Color-Space-Confidence: assumed-display-referred
# LUTr-Domain-Normalized: true
# LUTr-Shaper: none
# LUTr-Original-Grid: 64x64x64
# LUTr-Conversion-Grid: 25x25x25
# LUTr-Conversion-Interpolation: trilinear
# LUTr-Conversion-Method: HALD-PNG LUT image decoded at 16-bit and sampled to 25x25x25 3D CUBE
# LUTr-Conversion-Tool: LUTr scripts/convert-all-to-cube.mjs 2.0.0
# LUTr-Conversion-Date: 2026-07-27
# LUTr-Note: Preserve this metadata and the upstream license notices when redistributing.
TITLE "kodak bw 400 cn"
LUT_3D_SIZE 5
DOMAIN_MIN 0 0 0
DOMAIN_MAX 1 1 1
0.019607843 0.019607843 0.019607843
0.071568627 0.071568627 0.071568627
0.11764706 0.11764706 0.11764706
0.23333333 0.23333333 0.23333333
0.33333333 0.33333333 0.33333333
0.18235294 0.18235294 0.18235294
0.2002451 0.2002451 0.2002451
0.24705882 0.24705882 0.24705882
0.32254902 0.32254902 0.32254902
0.44509804 0.44509804 0.44509804
0.36862745 0.36862745 0.36862745
0.3745098 0.3745098 0.3745098
0.41176471 0.41176471 0.41176471
0.46568627 0.46568627 0.46568627
0.54901961 0.54901961 0.54901961
0.60392157 0.60392157 0.60392157
0.61176471 0.61176471 0.61176471
0.63088235 0.63088235 0.63088235
0.66666667 0.66666667 0.66666667
0.70490196 0.70490196 0.70490196
0.82745098 0.82745098 0.82745098
0.83921569 0.83921569 0.83921569
0.83529412 0.83529412 0.83529412
0.85882353 0.85882353 0.85882353
0.8745098 0.8745098 0.8745098
0.078431373 0.078431373 0.078431373
0.1 0.1 0.1
0.16813725 0.16813725 0.16813725
0.24803922 0.24803922 0.24803922
0.37352941 0.37352941 0.37352941
0.2127451 0.2127451 0.2127451
0.2276348 0.2276348 0.2276348
0.27990196 0.27990196 0.27990196
0.35490196 0.35490196 0.35490196
0.46176471 0.46176471 0.46176471
0.39754902 0.39754902 0.39754902
0.40294118 0.40294118 0.40294118
0.43186275 0.43186275 0.43186275
0.48517157 0.48517157 0.48517157
0.56568627 0.56568627 0.56568627
0.62328431 0.62328431 0.62328431
0.63357843 0.63357843 0.63357843
0.64534314 0.64534314 0.64534314
0.68627451 0.68627451 0.68627451
0.73921569 0.73921569 0.73921569
0.83921569 0.83921569 0.83921569
0.81838235 0.81838235 0.81838235
0.85245098 0.85245098 0.85245098
0.8627451 0.8627451 0.8627451
0.90686275 0.90686275 0.90686275
0.14705882 0.14705882 0.14705882
0.18627451 0.18627451 0.18627451
0.21176471 0.21176471 0.21176471
0.31323529 0.31323529 0.31323529
0.4372549 0.4372549 0.4372549
0.2745098 0.2745098 0.2745098
0.29129902 0.29129902 0.29129902
0.33529412 0.33529412 0.33529412
0.4127451 0.4127451 0.4127451
0.48529412 0.48529412 0.48529412
0.45098039 0.45098039 0.45098039
0.45171569 0.45171569 0.45171569
0.48431373 0.48431373 0.48431373
0.54852941 0.54852941 0.54852941
0.61078431 0.61078431 0.61078431
0.65686275 0.65686275 0.65686275
0.66372549 0.66372549 0.66372549
0.68455882 0.68455882 0.68455882
0.71372549 0.71372549 0.71372549
0.75882353 0.75882353 0.75882353
0.85686275 0.85686275 0.85686275
0.86715686 0.86715686 0.86715686
0.87058824 0.87058824 0.87058824
0.87352941 0.87352941 0.87352941
0.87647059 0.87647059 0.87647059
0.23431373 0.23431373 0.23431373
0.24509804 0.24509804 0.24509804
0.30784314 0.30784314 0.30784314
0.40122549 0.40122549 0.40122549
0.50784314 0.50784314 0.50784314
0.35514706 0.35514706 0.35514706
0.36838235 0.36838235 0.36838235
0.41164216 0.41164216 0.41164216
0.48069853 0.48069853 0.48069853
0.57156863 0.57156863 0.57156863
0.52058824 0.52058824 0.52058824
0.51740196 0.51740196 0.51740196
0.54926471 0.54926471 0.54926471
0.61176471 0.61176471 0.61176471
0.68529412 0.68529412 0.68529412
0.71764706 0.71764706 0.71764706
0.70980392 0.70980392 0.70980392
0.71960784 0.71960784 0.71960784
0.76170343 0.76170343 0.76170343
0.77941176 0.77941176 0.77941176
0.87156863 0.87156863 0.87156863
0.8870098 0.8870098 0.8870098
0.89068627 0.89068627 0.89068627
0.90588235 0.90588235 0.90588235
0.91372549 0.91372549 0.91372549
0.38039216 0.38039216 0.38039216
0.37745098 0.37745098 0.37745098
0.38627451 0.38627451 0.38627451
0.44803922 0.44803922 0.44803922
0.59215686 0.59215686 0.59215686
0.46960784 0.46960784 0.46960784
0.4754902 0.4754902 0.4754902
0.49264706 0.49264706 0.49264706
0.5629902 0.5629902 0.5629902
0.66372549 0.66372549 0.66372549
0.59607843 0.59607843 0.59607843
0.60539216 0.60539216 0.60539216
0.64901961 0.64901961 0.64901961
0.69705882 0.69705882 0.69705882
0.73137255 0.73137255 0.73137255
0.7745098 0.7745098 0.7745098
0.7754902 0.7754902 0.7754902
0.79656863 0.79656863 0.79656863
0.81470588 0.81470588 0.81470588
0.85686275 0.85686275 0.85686275
0.92156863 0.92156863 0.92156863
0.91764706 0.91764706 0.91764706
0.93137255 0.93137255 0.93137255
0.92647059 0.92647059 0.92647059
0.96470588 0.96470588 0.96470588
