site/assets/luts/sha256-0d3ac0f349e446e658c57291394b14b31050dbf4d34a61e5420a18c0039743e0.cube
# LUTr-Schema-Version: 2
# LUTr-ID: sha256-0d3ac0f349e446e658c57291394b14b31050dbf4d34a61e5420a18c0039743e0
# LUTr-Title: polaroid 690 warm
# LUTr-Collection: Natron HaldCLUT
# LUTr-Collection-ID: natron-haldclut-presets
# LUTr-Source: https://github.com/NatronGitHub/clut
# LUTr-Retrieved: 2026-07-27
# LUTr-Source-File: submissions/natron-haldclut-presets/instant_pro/polaroid_690_warm.png
# LUTr-Source-Format: HALD-PNG
# LUTr-Source-SHA256: 0d3ac0f349e446e658c57291394b14b31050dbf4d34a61e5420a18c0039743e0
# LUTr-License: CC-BY-SA-4.0
# LUTr-License-URL: https://github.com/NatronGitHub/clut#license
# LUTr-License-Basis: repo-license-file
# LUTr-Transform-Class: film-emulation
# LUTr-Tags: creative, film, film-emulation, hald-clut, natron, png, warm, cube
# LUTr-Input-Color-Space: srgb
# LUTr-Input-Gamut: rec709
# LUTr-Input-Transfer: srgb
# LUTr-Output-Color-Space: srgb
# LUTr-Output-Gamut: rec709
# LUTr-Output-Transfer: srgb
# LUTr-Color-Space-Confidence: assumed-display-referred
# LUTr-Domain-Normalized: true
# LUTr-Shaper: none
# LUTr-Original-Grid: 64x64x64
# LUTr-Conversion-Grid: 25x25x25
# LUTr-Conversion-Interpolation: trilinear
# LUTr-Conversion-Method: HALD-PNG LUT image decoded at 16-bit and sampled to 25x25x25 3D CUBE
# LUTr-Conversion-Tool: LUTr scripts/convert-all-to-cube.mjs 2.0.0
# LUTr-Conversion-Date: 2026-07-27
# LUTr-Note: Preserve this metadata and the upstream license notices when redistributing.
TITLE "polaroid 690 warm"
LUT_3D_SIZE 5
DOMAIN_MIN 0 0 0
DOMAIN_MAX 1 1 1
0.14901961 0.066666667 0.050980392
0.24411765 0.078431373 0.058823529
0.49607843 0.0058823529 0.062745098
0.78431373 0 0.02745098
0.99215686 0 0
0.14901961 0.19705882 0.048039216
0.26985294 0.21495098 0.037990196
0.57598039 0.20882353 0.012745098
0.85318627 0.093872549 0.015686275
1 0.016666667 0
0.092156863 0.47647059 0
0.27009804 0.47352941 0
0.58137255 0.52843137 0
0.90098039 0.56470588 0
1 0.56666667 0
0.18529412 0.74411765 0
0.32083333 0.72941176 0.0031862745
0.56568627 0.74264706 0
0.85465686 0.78039216 0.0039215686
1 0.80686275 0.0039215686
0.54901961 0.96078431 0.11372549
0.59901961 0.96078431 0.083333333
0.72352941 0.94509804 0.01372549
0.90490196 0.95294118 0.056862745
1 0.95686275 0.10980392
0.13431373 0.074509804 0.1627451
0.25490196 0.079411765 0.18627451
0.4877451 0.030882353 0.18039216
0.76176471 0 0.15980392
0.99607843 0 0.11176471
0.16470588 0.20490196 0.18921569
0.28382353 0.22120098 0.20704657
0.56752451 0.17781863 0.19460784
0.83449755 0.014522059 0.15257353
0.99607843 0.01372549 0.10196078
0.060294118 0.5245098 0.18578431
0.28529412 0.50735294 0.16470588
0.58946078 0.53529412 0.13823529
0.91176471 0.57610294 0.17009804
1 0.54705882 0.17058824
0.17034314 0.75661765 0.096078431
0.31985294 0.75140931 0.053186275
0.57340686 0.75441176 0.01752451
0.85490196 0.7879902 0.012990196
1 0.81544118 0.14485294
0.53039216 0.95980392 0.28921569
0.58014706 0.95465686 0.27230392
0.72303922 0.95441176 0.23431373
0.90171569 0.95 0.24411765
0.99607843 0.94901961 0.26764706
0.015686275 0.084313725 0.50196078
0.26372549 0.058333333 0.54019608
0.60294118 0.0058823529 0.58627451
0.81862745 0 0.49117647
0.9745098 0 0.44313725
0.084803922 0.22843137 0.51372549
0.28137255 0.23504902 0.54693627
0.62352941 0.2372549 0.58921569
0.83161765 0.11911765 0.49693627
0.98627451 0.0078431373 0.44117647
0.12058824 0.53137255 0.54313725
0.33504902 0.54656863 0.56421569
0.62156863 0.57647059 0.58088235
0.86985294 0.49632353 0.5245098
1 0.37941176 0.42156863
0.27107843 0.78970588 0.55196078
0.37401961 0.79705882 0.54693627
0.59215686 0.77647059 0.50098039
0.85821078 0.79987745 0.51311275
0.99607843 0.81862745 0.58235294
0.52941176 0.96078431 0.59803922
0.57303922 0.95931373 0.58284314
0.69019608 0.94411765 0.53921569
0.87892157 0.95245098 0.53137255
0.99607843 0.95294118 0.57254902
0.015686275 0.10392157 0.83823529
0.30490196 0.076470588 0.84534314
0.64607843 0.0039215686 0.87352941
0.9254902 0.097303922 0.87818627
1 0.043137255 0.80490196
0.081617647 0.25294118 0.82745098
0.33921569 0.26115196 0.83958333
0.64607843 0.29669118 0.86960784
0.92156863 0.35196078 0.87818627
0.99215686 0.30318627 0.80686275
0.021078431 0.4995098 0.79411765
0.2692402 0.5057598 0.79411765
0.61936275 0.5627451 0.83431373
0.89117647 0.62745098 0.85392157
0.99607843 0.53627451 0.79362745
0.37352941 0.79338235 0.82254902
0.46372549 0.79117647 0.81807598
0.65943627 0.80012255 0.83002451
0.87352941 0.83057598 0.85257353
0.99828431 0.75661765 0.79509804
0.63333333 0.94117647 0.84215686
0.6754902 0.95196078 0.84901961
0.75931373 0.94901961 0.83088235
0.86642157 0.95294118 0.81151961
0.99901961 0.95588235 0.83823529
0.49019608 0.28235294 0.99215686
0.56960784 0.28921569 0.99215686
0.73529412 0.31960784 0.98823529
0.92058824 0.42156863 0.99117647
1 0.52941176 0.98823529
0.47745098 0.39313725 0.98431373
0.57034314 0.4125 0.98823529
0.74215686 0.45245098 0.99068627
0.9245098 0.53014706 0.98823529
1 0.60588235 0.98431373
0.49411765 0.60784314 0.97843137
0.56960784 0.61617647 0.97941176
0.73039216 0.63627451 0.97647059
0.91617647 0.70490196 0.98235294
0.99607843 0.75490196 0.98039216
0.4627451 0.79215686 0.95
0.54313725 0.79607843 0.96470588
0.68431373 0.79852941 0.95196078
0.8875 0.83823529 0.96862745
0.98823529 0.87647059 0.97156863
0.72941176 0.95294118 0.94117647
0.78627451 0.95980392 0.96764706
0.8254902 0.95098039 0.9627451
0.92745098 0.95784314 0.97254902
1 0.96078431 0.97647059
