site/assets/luts/sha256-6024be35f655b6e1076065513863afff18aded1b545afb14c3c4b7c86ac0aa44.cube
# LUTr-Schema-Version: 2
# LUTr-ID: sha256-6024be35f655b6e1076065513863afff18aded1b545afb14c3c4b7c86ac0aa44
# LUTr-Title: 60's faded
# LUTr-Collection: Natron HaldCLUT
# LUTr-Collection-ID: natron-haldclut-presets
# LUTr-Source: https://github.com/NatronGitHub/clut
# LUTr-Retrieved: 2026-07-27
# LUTr-Source-File: submissions/natron-haldclut-presets/various/60's_faded.png
# LUTr-Source-Format: HALD-PNG
# LUTr-Source-SHA256: 6024be35f655b6e1076065513863afff18aded1b545afb14c3c4b7c86ac0aa44
# LUTr-License: CC-BY-SA-4.0
# LUTr-License-URL: https://github.com/NatronGitHub/clut#license
# LUTr-License-Basis: repo-license-file
# LUTr-Transform-Class: film-emulation
# LUTr-Tags: creative, film, film-emulation, hald-clut, natron, png, vintage, cube
# LUTr-Input-Color-Space: srgb
# LUTr-Input-Gamut: rec709
# LUTr-Input-Transfer: srgb
# LUTr-Output-Color-Space: srgb
# LUTr-Output-Gamut: rec709
# LUTr-Output-Transfer: srgb
# LUTr-Color-Space-Confidence: assumed-display-referred
# LUTr-Domain-Normalized: true
# LUTr-Shaper: none
# LUTr-Original-Grid: 64x64x64
# LUTr-Conversion-Grid: 25x25x25
# LUTr-Conversion-Interpolation: trilinear
# LUTr-Conversion-Method: HALD-PNG LUT image decoded at 16-bit and sampled to 25x25x25 3D CUBE
# LUTr-Conversion-Tool: LUTr scripts/convert-all-to-cube.mjs 2.0.0
# LUTr-Conversion-Date: 2026-07-27
# LUTr-Note: Preserve this metadata and the upstream license notices when redistributing.
TITLE "60's faded"
LUT_3D_SIZE 25
DOMAIN_MIN 0 0 0
DOMAIN_MAX 1 1 1
0.46666667 0.11372549 0.098039216
0.48333333 0.13578431 0.12254902
0.49509804 0.14509804 0.13921569
0.50931373 0.14901961 0.15588235
0.51372549 0.14901961 0.14117647
0.51764706 0.13578431 0.12009804
0.53529412 0.14313725 0.13431373
0.56127451 0.15735294 0.14705882
0.58431373 0.18039216 0.16078431
0.60245098 0.15735294 0.13382353
0.62156863 0.15784314 0.14313725
0.64215686 0.17205882 0.16764706
0.66470588 0.17254902 0.15294118
0.68676471 0.1754902 0.14117647
0.69705882 0.15490196 0.13039216
0.71813725 0.15588235 0.13921569
0.74901961 0.17647059 0.17647059
0.75931373 0.17401961 0.16127451
0.76862745 0.17058824 0.14607843
0.76862745 0.16764706 0.14803922
0.76666667 0.18627451 0.16078431
0.76029412 0.1877451 0.16372549
0.74705882 0.17058824 0.15
0.74509804 0.17009804 0.14656863
0.74901961 0.17647059 0.15294118
0.4872549 0.17156863 0.14166667
0.48817402 0.16911765 0.13860294
0.49620098 0.17205882 0.14607843
0.50539216 0.17598039 0.15030637
0.51176471 0.17598039 0.14191176
0.51813725 0.17224265 0.13204657
0.53713235 0.17463235 0.13884804
0.56127451 0.17879902 0.14797794
0.58431373 0.19068627 0.15294118
0.60245098 0.1848652 0.1403799
0.62156863 0.18272059 0.14105392
0.64215686 0.18903186 0.15422794
0.66421569 0.1870098 0.15073529
0.68480392 0.18517157 0.14730392
0.70147059 0.19828431 0.16102941
0.71966912 0.19258578 0.15238971
0.74264706 0.19705882 0.1622549
0.75839461 0.19613971 0.15159314
0.76568627 0.20110294 0.1502451
0.77420343 0.21366422 0.17806373
0.76862745 0.20686275 0.16029412
0.7685049 0.21954657 0.18118873
0.75392157 0.2004902 0.1557598
0.75300245 0.20349265 0.159375
0.75294118 0.20343137 0.15931373
0.47254902 0.18921569 0.12254902
0.48088235 0.19362745 0.13088235
0.49411765 0.20294118 0.14117647
0.50183824 0.20588235 0.1442402
0.51176471 0.20637255 0.14068627
0.52463235 0.22365196 0.16397059
0.53995098 0.20980392 0.14509804
0.56372549 0.21323529 0.15183824
0.58431373 0.21470588 0.15294118
0.60245098 0.21617647 0.14656863
0.62156863 0.21862745 0.14509804
0.64571078 0.21862745 0.14901961
0.66519608 0.21862745 0.14803922
0.68431373 0.22034314 0.14889706
0.70098039 0.22426471 0.15833333
0.72058824 0.22377451 0.15208333
0.74215686 0.2254902 0.15196078
0.75931373 0.225 0.14865196
0.76470588 0.23039216 0.15294118
0.7685049 0.22953431 0.15196078
0.76862745 0.23235294 0.15441176
0.76556373 0.23480392 0.16090686
0.76102941 0.23529412 0.16176471
0.76605392 0.24901961 0.18186275
0.75784314 0.23431373 0.16078431
0.47794118 0.23235294 0.13921569
0.48088235 0.22971814 0.13443627
0.4877451 0.23382353 0.1377451
0.49846814 0.23431373 0.13866422
0.50808824 0.23382353 0.13357843
0.52254902 0.23431373 0.13468137
0.54313725 0.24068627 0.14718137
0.56372549 0.24344363 0.153125
0.58431373 0.24558824 0.15294118
0.60275735 0.24589461 0.146875
0.62156863 0.2495098 0.14509804
0.64564951 0.24993873 0.14552696
0.66666667 0.25073529 0.14730392
0.69068627 0.2497549 0.14430147
0.70490196 0.26262255 0.16531863
0.72579657 0.25900735 0.15833333
0.75245098 0.25 0.13823529
0.75716912 0.25588235 0.14754902
0.76176471 0.26127451 0.15294118
0.7651348 0.26127451 0.15251225
0.76862745 0.26495098 0.15833333
0.77248775 0.278125 0.18106618
0.76568627 0.26789216 0.16691176
0.76109069 0.26188725 0.15618873
0.76078431 0.26127451 0.15686275
0.4745098 0.26078431 0.13333333
0.48529412 0.27083333 0.15098039
0.48284314 0.26078431 0.12745098
0.49460784 0.26078431 0.13112745
0.50784314 0.26666667 0.14019608
0.52254902 0.26151961 0.13063725
0.54313725 0.26813725 0.14411765
0.5629902 0.26936275 0.14705882
0.58235294 0.2745098 0.14901961
0.60098039 0.2745098 0.14191176
0.62156863 0.2745098 0.13529412
0.64558824 0.27647059 0.14068627
0.66862745 0.27843137 0.14705882
0.68897059 0.28578431 0.15588235
0.70392157 0.28333333 0.15
0.7252451 0.28970588 0.15661765
0.74705882 0.30588235 0.18431373
0.75416667 0.29607843 0.16495098
0.75931373 0.29362745 0.16078431
0.76446078 0.29583333 0.1625
0.76666667 0.29803922 0.16372549
0.76862745 0.30318627 0.17181373
0.76519608 0.29656863 0.16176471
0.76397059 0.28872549 0.15269608
0.7627451 0.29019608 0.15686275
0.47990196 0.29705882 0.14852941
0.48676471 0.3057598 0.15882353
0.47843137 0.29178922 0.12622549
0.490625 0.28719363 0.1307598
0.50588235 0.28995098 0.13186275
0.52254902 0.29209559 0.13376225
0.54264706 0.29767157 0.14276961
0.55980392 0.29264706 0.13400735
0.58382353 0.30931373 0.15784314
0.60226716 0.30569853 0.14779412
0.62156863 0.30085784 0.13480392
0.64908088 0.32230392 0.17598039
0.67058824 0.30318627 0.14264706
0.68682598 0.30735294 0.14859069
0.70098039 0.30735294 0.14252451
0.7245098 0.31470588 0.15061275
0.74509804 0.31813725 0.15490196
0.75294118 0.31893382 0.15275735
0.75833333 0.32254902 0.16041667
0.7651348 0.32604167 0.16421569
0.76495098 0.3247549 0.1625
0.76421569 0.32297794 0.15637255
0.76997549 0.33541667 0.17745098
0.76488971 0.32843137 0.16127451
0.76911765 0.33921569 0.18529412
0.4627451 0.31568627 0.12352941
0.47046569 0.32181373 0.13602941
0.47916667 0.32965686 0.1497549
0.49019608 0.32095588 0.14019608
0.50588235 0.33088235 0.15784314
0.52205882 0.32218137 0.13933824
0.53921569 0.31960784 0.13039216
0.55980392 0.32193627 0.13272059
0.58039216 0.32647059 0.14411765
0.60098039 0.33394608 0.14914216
0.62230392 0.33431373 0.1502451
0.64607843 0.33431373 0.14852941
0.66911765 0.33039216 0.14411765
0.6872549 0.33480392 0.15196078
0.70392157 0.33823529 0.1497549
0.7245098 0.34215686 0.15147059
0.74215686 0.34215686 0.15196078
0.75539216 0.34497549 0.15257353
0.76397059 0.34705882 0.16053922
0.77120098 0.34705882 0.15772059
0.77156863 0.3504902 0.16127451
0.77107843 0.35428922 0.16458333
0.77058824 0.36029412 0.175
0.76617647 0.35392157 0.16127451
0.77254902 0.37058824 0.19215686
0.45882353 0.34313725 0.12205882
0.46911765 0.3495098 0.13780637
0.47941176 0.3557598 0.15257353
0.49313725 0.34914216 0.14129902
0.50588235 0.34803922 0.13921569
0.52205882 0.35128676 0.1432598
0.53627451 0.35012255 0.13321078
0.55735294 0.35042892 0.13480392
0.58039216 0.35735294 0.14901961
0.60490196 0.37095588 0.1713848
0.6254902 0.37352941 0.17279412
0.64607843 0.36568627 0.15753676
0.66666667 0.36053922 0.1495098
0.6872549 0.35980392 0.14381127
0.70392157 0.36482843 0.15085784
0.72395833 0.36819853 0.15386029
0.74117647 0.37156863 0.15931373
0.75484069 0.37156863 0.15686275
0.76568627 0.37156863 0.15747549
0.77726716 0.38253676 0.17377451
0.77647059 0.37230392 0.15563725
0.77401961 0.37696078 0.16096814
0.77254902 0.3817402 0.16764706
0.77254902 0.38180147 0.16764706
0.77647059 0.39509804 0.18823529
0.4627451 0.38823529 0.16078431
0.46911765 0.38186275 0.1504902
0.47941176 0.37254902 0.1372549
0.49313725 0.37598039 0.14411765
0.51176471 0.39607843 0.1745098
0.52205882 0.37647059 0.14068627
0.53921569 0.37647059 0.14019608
0.55980392 0.37647059 0.14117647
0.58039216 0.38039216 0.14509804
0.60343137 0.38676471 0.15392157
0.6254902 0.39117647 0.15980392
0.64607843 0.38823529 0.15294118
0.66666667 0.38431373 0.14509804
0.6872549 0.38431373 0.14166667
0.70392157 0.38823529 0.14803922
0.72303922 0.39215686 0.14509804
0.7372549 0.39215686 0.14901961
0.75539216 0.41519608 0.18970588
0.76568627 0.39901961 0.1627451
0.77598039 0.3995098 0.16372549
0.77647059 0.40196078 0.16470588
0.77647059 0.4004902 0.16470588
0.77647059 0.40392157 0.16470588
0.77647059 0.40784314 0.17254902
0.77647059 0.41568627 0.18431373
0.45882353 0.39460784 0.12205882
0.46819853 0.40680147 0.14583333
0.48002451 0.40539216 0.14852941
0.50526961 0.42297794 0.1713848
0.50931373 0.40955882 0.15196078
0.52254902 0.40765931 0.15177696
0.54203431 0.41311275 0.16372549
0.5622549 0.40643382 0.14908088
0.58284314 0.40490196 0.14509804
0.60435049 0.40490196 0.14264706
0.6254902 0.40882353 0.14264706
0.64607843 0.40882353 0.14264706
0.67058824 0.40490196 0.13357843
0.6872549 0.40931373 0.14295343
0.70490196 0.4127451 0.15012255
0.72359069 0.41770833 0.15655637
0.73872549 0.42107843 0.16078431
0.75447304 0.42113971 0.16188725
0.76568627 0.42058824 0.16323529
0.77383578 0.42432598 0.16813725
0.77720588 0.43382353 0.17941176
0.77647059 0.4245098 0.15833333
0.77647059 0.42806373 0.16372549
0.77647059 0.42843137 0.16617647
0.78039216 0.43235294 0.17401961
0.45882353 0.43235294 0.14705882
0.46703431 0.42647059 0.13468137
0.48039216 0.42941176 0.14607843
0.49362745 0.42561275 0.13786765
0.50588235 0.4245098 0.13039216
0.52647059 0.42941176 0.1439951
0.54313725 0.43235294 0.15073529
0.56372549 0.43186275 0.14901961
0.58529412 0.42941176 0.14117647
0.60526961 0.43284314 0.14877451
0.6254902 0.42745098 0.13308824
0.64963235 0.43002451 0.14252451
0.67058824 0.4372549 0.15833333
0.6872549 0.43345588 0.14558824
0.70392157 0.4372549 0.15490196
0.72340686 0.43848039 0.15245098
0.74117647 0.44019608 0.15294118
0.7560049 0.44117647 0.15931373
0.76887255 0.44509804 0.16470588
0.77254902 0.44901961 0.16862745
0.77696078 0.44901961 0.1627451
0.77941176 0.45036765 0.16017157
0.78333333 0.45392157 0.16960784
0.77708333 0.44865196 0.1564951
0.78039216 0.44901961 0.15980392
0.45539216 0.45392157 0.1377451
0.46519608 0.45343137 0.14313725
0.48039216 0.45392157 0.15
0.49362745 0.45042892 0.14166667
0.50980392 0.4497549 0.14093137
0.52647059 0.44993873 0.13756127
0.54142157 0.45808824 0.15686275
0.56519608 0.46360294 0.17022059
0.58823529 0.45343137 0.14411765
0.60851716 0.45735294 0.15441176
0.62892157 0.45735294 0.15110294
0.65 0.45343137 0.14761029
0.67058824 0.46470588 0.16323529
0.6872549 0.45441176 0.14209559
0.70134804 0.45784314 0.14558824
0.72432598 0.46985294 0.16838235
0.74068627 0.46176471 0.14901961
0.76305147 0.46176471 0.15343137
0.76862745 0.46568627 0.16090686
0.77254902 0.46617647 0.16084559
0.7745098 0.46593137 0.15490196
0.77738971 0.46666667 0.15006127
0.79411765 0.4872549 0.19509804
0.78363971 0.47530637 0.165625
0.78382353 0.47303922 0.16323529
0.45098039 0.47254902 0.1254902
0.46642157 0.4745098 0.1377451
0.48186275 0.4745098 0.14705882
0.49705882 0.4745098 0.14705882
0.5127451 0.4745098 0.14607843
0.52647059 0.47622549 0.1502451
0.54313725 0.47892157 0.15147059
0.56176471 0.47843137 0.14387255
0.58627451 0.48627451 0.16470588
0.60882353 0.48308824 0.15514706
0.62941176 0.49068627 0.17254902
0.6502451 0.48504902 0.16446078
0.67058824 0.48235294 0.15490196
0.6872549 0.47671569 0.14534314
0.70245098 0.47990196 0.14852941
0.72181373 0.48112745 0.14779412
0.74509804 0.48627451 0.15686275
0.76519608 0.48553922 0.15490196
0.76960784 0.48627451 0.16078431
0.77426471 0.48823529 0.16078431
0.77745098 0.49019608 0.15882353
0.78088235 0.49068627 0.16127451
0.79264706 0.50441176 0.18872549
0.79877451 0.50857843 0.19681373
0.79803922 0.50588235 0.19215686
0.45882353 0.49117647 0.12647059
0.47156863 0.49509804 0.13988971
0.48333333 0.49509804 0.14644608
0.49754902 0.49509804 0.14901961
0.51372549 0.49730392 0.14901961
0.52996324 0.49901961 0.14987745
0.54705882 0.49901961 0.14607843
0.56372549 0.49656863 0.14295343
0.58480392 0.50245098 0.14901961
0.60882353 0.49901961 0.13903186
0.63333333 0.51176471 0.17193627
0.65392157 0.5033701 0.15821078
0.67279412 0.49705882 0.14754902
0.69117647 0.4995098 0.15386029
0.70796569 0.50294118 0.15735294
0.7245098 0.50294118 0.15686275
0.74509804 0.50294118 0.16078431
0.76323529 0.50508578 0.16078431
0.76960784 0.50637255 0.16066176
0.77647059 0.50637255 0.15729167
0.78039216 0.5127451 0.16495098
0.78431373 0.51470588 0.16862745
0.78419118 0.51041667 0.16421569
0.78823529 0.50949755 0.15949755
0.79215686 0.51078431 0.16470588
0.45882353 0.50490196 0.13039216
0.46973039 0.51237745 0.14362745
0.48333333 0.51568627 0.14901961
0.49754902 0.51568627 0.14901961
0.51372549 0.51960784 0.15098039
0.53296569 0.51960784 0.15294118
0.5502451 0.51740196 0.14901961
0.56764706 0.51605392 0.14656863
0.58823529 0.51960784 0.14901961
0.60882353 0.52316176 0.14803922
0.63333333 0.51960784 0.15122549
0.65784314 0.51311275 0.14644608
0.67843137 0.51421569 0.14803922
0.69460784 0.52009804 0.15735294
0.70955882 0.52352941 0.16151961
0.72696078 0.52352941 0.15931373
0.74509804 0.51960784 0.15392157
0.76323529 0.52058824 0.15747549
0.76960784 0.52279412 0.15588235
0.77647059 0.52316176 0.15343137
0.78039216 0.53137255 0.16323529
0.7817402 0.53284314 0.16593137
0.78431373 0.53284314 0.16911765
0.78639706 0.52892157 0.15931373
0.79215686 0.53137255 0.16470588
0.46029412 0.5377451 0.15196078
0.46060049 0.54932598 0.17205882
0.48039216 0.53419118 0.14473039
0.49754902 0.53578431 0.14491422
0.51495098 0.54289216 0.15490196
0.53253676 0.54381127 0.15569853
0.55098039 0.53835784 0.1504902
0.57156863 0.53474265 0.14356618
0.59215686 0.54019608 0.14901961
0.60882353 0.54411765 0.14957108
0.63333333 0.54105392 0.1497549
0.65606618 0.53982843 0.15533088
0.67573529 0.54019608 0.15661765
0.69099265 0.54411765 0.15667892
0.70784314 0.54411765 0.15539216
0.72696078 0.54264706 0.15447304
0.74509804 0.54019608 0.15294118
0.76323529 0.53535539 0.14901961
0.76960784 0.54411765 0.15686275
0.77647059 0.54773284 0.15833333
0.77965686 0.55196078 0.15612745
0.7870098 0.56090686 0.17493873
0.78737745 0.55539216 0.16801471
0.79920343 0.56004902 0.18229167
0.79607843 0.55196078 0.16323529
0.4627451 0.56862745 0.16862745
0.47303922 0.56617647 0.16372549
0.48333333 0.55686275 0.14803922
0.50098039 0.56421569 0.15931373
0.51372549 0.56862745 0.15882353
0.53039216 0.57156863 0.16666667
0.55098039 0.56568627 0.15392157
0.57156863 0.56323529 0.1504902
0.59215686 0.56078431 0.15294118
0.60882353 0.56470588 0.14901961
0.63039216 0.56470588 0.14607843
0.65735294 0.56470588 0.14901961
0.67647059 0.56470588 0.14509804
0.69068627 0.56470588 0.14901961
0.70490196 0.56470588 0.14215686
0.7245098 0.56323529 0.15294118
0.74509804 0.56078431 0.15294118
0.75931373 0.56078431 0.15686275
0.76960784 0.56470588 0.15686275
0.77647059 0.56813725 0.16029412
0.77843137 0.5745098 0.15294118
0.78431373 0.56911765 0.15686275
0.78627451 0.57647059 0.15784314
0.79362745 0.57107843 0.16078431
0.82352941 0.6 0.2
0.46666667 0.58529412 0.1622549
0.47058824 0.58529412 0.15980392
0.48333333 0.58247549 0.14583333
0.49803922 0.58321078 0.14877451
0.5129902 0.59191176 0.16151961
0.53039216 0.5942402 0.17886029
0.54803922 0.58762255 0.15355392
0.57248775 0.58284314 0.14901961
0.59607843 0.57892157 0.1504902
0.6127451 0.584375 0.14656863
0.62941176 0.58529412 0.14289216
0.65392157 0.58676471 0.15490196
0.6745098 0.5879902 0.15931373
0.69099265 0.58890931 0.15931373
0.70784314 0.58529412 0.15539216
0.72696078 0.58621324 0.15925245
0.74509804 0.58529412 0.16323529
0.75931373 0.58284314 0.16078431
0.76960784 0.5817402 0.15625
0.7786152 0.58529412 0.15165441
0.78627451 0.59338235 0.16446078
0.78854167 0.59362745 0.1713848
0.78860294 0.59595588 0.16642157
0.79564951 0.6 0.16911765
0.81715686 0.61568627 0.19754902
0.46666667 0.60196078 0.15686275
0.47034314 0.59926471 0.15428922
0.48578431 0.60245098 0.15514706
0.50147059 0.60220588 0.15502451
0.51764706 0.60686275 0.16078431
0.53431373 0.60796569 0.16727941
0.55269608 0.60514706 0.16029412
0.57659314 0.60318627 0.15747549
0.59901961 0.60196078 0.15686275
0.61482843 0.60477941 0.15808824
0.63333333 0.60490196 0.15392157
0.65392157 0.60490196 0.1564951
0.6745098 0.60490196 0.1622549
0.69117647 0.60588235 0.16875
0.70955882 0.60588235 0.1627451
0.72696078 0.60159314 0.15441176
0.74901961 0.60098039 0.15490196
0.76139706 0.60159314 0.1564951
0.76960784 0.60098039 0.15220588
0.77990196 0.60147059 0.15294118
0.78676471 0.60931373 0.16764706
0.79215686 0.61372549 0.17990196
0.79215686 0.6127451 0.17058824
0.79816176 0.61482843 0.17610294
0.80784314 0.62156863 0.18823529
0.46323529 0.61862745 0.15686275
0.4776348 0.62352941 0.16979167
0.49105392 0.62107843 0.16433824
0.50490196 0.61819853 0.15637255
0.51960784 0.62254902 0.1625
0.53731618 0.62598039 0.16464461
0.55747549 0.62598039 0.16678922
0.57892157 0.62892157 0.17591912
0.5995098 0.62892157 0.17990196
0.61666667 0.62598039 0.17463235
0.6372549 0.62254902 0.16617647
0.65735294 0.615625 0.15036765
0.67622549 0.61715686 0.15539216
0.69460784 0.61911765 0.16127451
0.71176471 0.61911765 0.15833333
0.72696078 0.61734069 0.15147059
0.75294118 0.61813725 0.15196078
0.76323529 0.61893382 0.15667892
0.77352941 0.62254902 0.15686275
0.78339461 0.62555147 0.16629902
0.78995098 0.62647059 0.17058824
0.79558824 0.63039216 0.18039216
0.79607843 0.63039216 0.17990196
0.8036152 0.63186275 0.18186275
0.80784314 0.63480392 0.19166667
0.45686275 0.62745098 0.14117647
0.47671569 0.6377451 0.16544118
0.48970588 0.63480392 0.15784314
0.50539216 0.64068627 0.16102941
0.52058824 0.64117647 0.16176471
0.53823529 0.64313725 0.16495098
0.55882353 0.64166667 0.16813725
0.58137255 0.64191176 0.17132353
0.60196078 0.64313725 0.17254902
0.62058824 0.64313725 0.17058824
0.63872549 0.64068627 0.16421569
0.65784314 0.6372549 0.15906863
0.67647059 0.63235294 0.15686275
0.69485294 0.63529412 0.1629902
0.71176471 0.63578431 0.16519608
0.72843137 0.63529412 0.1627451
0.74901961 0.63921569 0.1627451
0.76519608 0.63921569 0.16078431
0.77352941 0.63921569 0.16078431
0.78553922 0.6495098 0.18676471
0.79019608 0.64215686 0.17058824
0.79607843 0.64509804 0.17867647
0.80147059 0.64509804 0.18333333
0.80661765 0.64583333 0.18186275
0.81176471 0.64901961 0.19019608
0.48088235 0.66960784 0.1995098
0.48118873 0.66011029 0.17708333
0.4872549 0.65281863 0.16507353
0.50140931 0.6588848 0.16378676
0.51740196 0.65980392 0.15441176
0.53823529 0.65931373 0.16127451
0.55882353 0.65919118 0.16556373
0.57941176 0.65919118 0.16280637
0.6 0.65784314 0.1622549
0.62077206 0.66084559 0.16715686
0.64117647 0.6567402 0.15821078
0.65833333 0.65631127 0.16464461
0.67843137 0.65416667 0.17328431
0.69460784 0.64754902 0.16862745
0.71176471 0.65355392 0.17193627
0.73216912 0.65588235 0.16911765
0.74901961 0.65588235 0.16127451
0.76715686 0.65588235 0.1567402
0.77745098 0.65588235 0.1620098
0.78382353 0.65545343 0.16035539
0.79215686 0.65735294 0.16421569
0.79656863 0.659375 0.17689951
0.8060049 0.65980392 0.18676471
0.80931373 0.65931373 0.17598039
0.81568627 0.6627451 0.18333333
0.45490196 0.66764706 0.15490196
0.46911765 0.66568627 0.16188725
0.48357843 0.66666667 0.1745098
0.49754902 0.67598039 0.16323529
0.51813725 0.675 0.16078431
0.54080882 0.67144608 0.18247549
0.55882353 0.66397059 0.1745098
0.57843137 0.67365196 0.18419118
0.59901961 0.68333333 0.19215686
0.62058824 0.68431373 0.18468137
0.64117647 0.67254902 0.15833333
0.66090686 0.67647059 0.17095588
0.67843137 0.67303922 0.17843137
0.69203431 0.65784314 0.16568627
0.71176471 0.66764706 0.17769608
0.72843137 0.67647059 0.17941176
0.74901961 0.67941176 0.18431373
0.77107843 0.67977941 0.19362745
0.77965686 0.67181373 0.17671569
0.78688725 0.66703431 0.16323529
0.79509804 0.67401961 0.18284314
0.79656863 0.67352941 0.17046569
0.81053922 0.67647059 0.19828431
0.81115196 0.6685049 0.16642157
0.8127451 0.66960784 0.16666667
0.45098039 0.65392157 0.16127451
0.47248775 0.6504902 0.1783701
0.49056373 0.66262255 0.18762255
0.50177696 0.68676471 0.18480392
0.525 0.67867647 0.19093137
0.53988971 0.66243873 0.17830882
0.56176471 0.66654412 0.18026961
0.58480392 0.68051471 0.18247549
0.60147059 0.68235294 0.17696078
0.62205882 0.69117647 0.1872549
0.64644608 0.68051471 0.19215686
0.66550245 0.68933824 0.18903186
0.67916667 0.69117647 0.18112745
0.69117647 0.66341912 0.15625
0.71323529 0.68039216 0.1810049
0.73137255 0.68817402 0.18872549
0.7504902 0.67696078 0.17401961
0.76752451 0.66703431 0.16488971
0.78921569 0.66801471 0.18676471
0.79754902 0.66973039 0.18835784
0.79754902 0.67254902 0.17867647
0.79883578 0.67892157 0.17107843
0.8245098 0.68737745 0.20245098
0.83033088 0.68284314 0.18290441
0.825 0.67990196 0.1877451
0.45490196 0.64705882 0.16078431
0.48039216 0.63431373 0.18921569
0.49901961 0.65588235 0.20490196
0.52401961 0.62352941 0.2004902
0.53333333 0.65098039 0.19411765
0.54166667 0.65882353 0.17598039
0.56568627 0.6754902 0.19019608
0.59117647 0.69264706 0.20490196
0.61568627 0.67843137 0.20392157
0.64656863 0.64117647 0.20784314
0.66470588 0.64607843 0.20980392
0.68921569 0.65931373 0.21470588
0.70392157 0.70196078 0.21568627
0.69509804 0.67058824 0.16519608
0.7254902 0.66764706 0.18921569
0.75686275 0.65 0.20882353
0.75686275 0.67058824 0.18431373
0.77598039 0.66813725 0.17843137
0.80784314 0.65294118 0.21078431
0.80392157 0.66617647 0.2004902
0.8 0.6745098 0.18627451
0.80098039 0.67892157 0.17696078
0.83529412 0.69313725 0.20098039
0.8622549 0.70294118 0.22205882
0.83529412 0.68235294 0.23137255
0.49362745 0.17156863 0.15588235
0.49301471 0.17818627 0.16072304
0.50723039 0.16139706 0.16666667
0.50992647 0.1661152 0.16881127
0.51691176 0.16740196 0.16470588
0.52205882 0.17040441 0.15882353
0.53921569 0.17071078 0.16813725
0.5622549 0.18118873 0.17996324
0.58431373 0.19558824 0.18137255
0.60490196 0.1848652 0.17714461
0.62438725 0.17205882 0.18431373
0.64264706 0.18106618 0.18578431
0.66029412 0.18848039 0.1754902
0.67910539 0.19264706 0.16813725
0.69607843 0.18382353 0.16960784
0.72113971 0.18958333 0.18045343
0.74656863 0.1995098 0.19019608
0.75594363 0.19595588 0.18474265
0.76568627 0.19534314 0.17867647
0.77205882 0.19381127 0.178125
0.77622549 0.21176471 0.18897059
0.77303922 0.20618873 0.19393382
0.76752451 0.21678922 0.19203431
0.76329657 0.20196078 0.18872549
0.76568627 0.20588235 0.19019608
0.49301471 0.18909314 0.16403186
0.49125306 0.19188879 0.16648284
0.50219056 0.18656556 0.16819853
0.50716912 0.19131434 0.17058824
0.51541054 0.19436275 0.16957721
0.52225031 0.19332108 0.16508119
0.54143689 0.19629289 0.17297794
0.56338082 0.20206801 0.1838848
0.58431373 0.20980392 0.18382353
0.60490196 0.20459559 0.18017004
0.6254902 0.20294118 0.18517157
0.64607843 0.20429688 0.18634344
0.66470588 0.2073223 0.18039216
0.68333333 0.21078431 0.17959559
0.70300245 0.21446078 0.18579963
0.72359069 0.21596967 0.18719363
0.74509804 0.22052696 0.19019608
0.75896906 0.21956955 0.18927696
0.76937806 0.22155331 0.18938419
0.7792356 0.22646293 0.20068168
0.77818627 0.22717525 0.19019608
0.77513787 0.2287454 0.19682904
0.76919424 0.23308824 0.19287684
0.76848192 0.22647059 0.1946921
0.76960784 0.23039216 0.19901961
0.49178922 0.21813725 0.1622549
0.49186581 0.21852022 0.16542586
0.49764093 0.22215074 0.17129289
0.50539216 0.22352941 0.17117034
0.51360294 0.22598039 0.17058824
0.5256587 0.23584559 0.18411458
0.54313725 0.22901348 0.17772672
0.56502757 0.23357843 0.18811275
0.58676471 0.23529412 0.1872549
0.60582108 0.23460478 0.18143382
0.62696078 0.23713235 0.18602941
0.64612439 0.23681066 0.18350184
0.66666667 0.23903186 0.18094363
0.68765319 0.24166667 0.18235294
0.70462623 0.24359681 0.1877451
0.7245098 0.24558824 0.18941483
