site/assets/luts/sha256-857902b54bd10888a28cb871fd1cf5380b63b1550146a8546d0f961b75283e7f.cube
# LUTr-Schema-Version: 2
# LUTr-ID: sha256-857902b54bd10888a28cb871fd1cf5380b63b1550146a8546d0f961b75283e7f
# LUTr-Title: lomography redscale 100
# LUTr-Collection: Natron HaldCLUT
# LUTr-Collection-ID: natron-haldclut-presets
# LUTr-Source: https://github.com/NatronGitHub/clut
# LUTr-Retrieved: 2026-07-27
# LUTr-Source-File: submissions/natron-haldclut-presets/negative_color/lomography_redscale_100.png
# LUTr-Source-Format: HALD-PNG
# LUTr-Source-SHA256: 857902b54bd10888a28cb871fd1cf5380b63b1550146a8546d0f961b75283e7f
# LUTr-License: CC-BY-SA-4.0
# LUTr-License-URL: https://github.com/NatronGitHub/clut#license
# LUTr-License-Basis: repo-license-file
# LUTr-Transform-Class: film-emulation
# LUTr-Tags: creative, film, film-emulation, hald-clut, natron, png, cube
# LUTr-Input-Color-Space: srgb
# LUTr-Input-Gamut: rec709
# LUTr-Input-Transfer: srgb
# LUTr-Output-Color-Space: srgb
# LUTr-Output-Gamut: rec709
# LUTr-Output-Transfer: srgb
# LUTr-Color-Space-Confidence: assumed-display-referred
# LUTr-Domain-Normalized: true
# LUTr-Shaper: none
# LUTr-Original-Grid: 64x64x64
# LUTr-Conversion-Grid: 25x25x25
# LUTr-Conversion-Interpolation: trilinear
# LUTr-Conversion-Method: HALD-PNG LUT image decoded at 16-bit and sampled to 25x25x25 3D CUBE
# LUTr-Conversion-Tool: LUTr scripts/convert-all-to-cube.mjs 2.0.0
# LUTr-Conversion-Date: 2026-07-27
# LUTr-Note: Preserve this metadata and the upstream license notices when redistributing.
TITLE "lomography redscale 100"
LUT_3D_SIZE 9
DOMAIN_MIN 0 0 0
DOMAIN_MAX 1 1 1
0.011764706 0.0078431373 0.011764706
0.058333333 0.011764706 0.011764706
0.14215686 0.0049019608 0.030392157
0.24264706 0.037745098 0.073039216
0.3627451 0.056862745 0.12352941
0.49460784 0.064215686 0.18186275
0.60294118 0.075490196 0.22843137
0.69558824 0.086764706 0.26715686
0.76862745 0.11764706 0.29803922
0.019607843 0.034803922 0.011764706
0.058333333 0.034803922 0.015686275
0.11997549 0.034803922 0.023897059
0.22567402 0.058333333 0.067830882
0.3372549 0.07377451 0.11372549
0.48431373 0.10294118 0.17794118
0.59901961 0.11421569 0.22843137
0.69601716 0.12892157 0.27107843
0.77254902 0.12892157 0.30196078
0.030392157 0.076470588 0.015686275
0.06127451 0.084313725 0.023039216
0.11960784 0.095098039 0.034313725
0.21409314 0.10784314 0.065196078
0.34313725 0.12745098 0.11764706
0.47585784 0.14816176 0.1754902
0.60612745 0.1627451 0.23235294
0.70735294 0.17855392 0.275
0.7872549 0.17941176 0.30980392
0.050980392 0.14215686 0.025980392
0.073529412 0.14981618 0.033517157
0.11960784 0.16139706 0.047058824
0.20588235 0.17058824 0.066176471
0.34117647 0.20294118 0.12156863
0.48431373 0.23235294 0.17941176
0.61960784 0.23627451 0.2372549
0.71734069 0.24264706 0.27892157
0.78578431 0.25441176 0.30980392
0.047058824 0.24705882 0.041176471
0.056372549 0.24901961 0.039215686
0.08872549 0.25882353 0.050980392
0.17107843 0.26666667 0.074264706
0.31568627 0.28627451 0.12156863
0.47745098 0.3125 0.17941176
0.63186275 0.33333333 0.24264706
0.74117647 0.34142157 0.29093137
0.82352941 0.35098039 0.32745098
0 0.37598039 0.064215686
0.01372549 0.37843137 0.064215686
0.025 0.3817402 0.062132353
0.067218137 0.39411765 0.076041667
0.22965686 0.40392157 0.1122549
0.44564951 0.43872549 0.17640931
0.63627451 0.46286765 0.24901961
0.76029412 0.47432598 0.3026348
0.86421569 0.48039216 0.34509804
0 0.52156863 0.091176471
0 0.51372549 0.087254902
0 0.51372549 0.072303922
0.0078431373 0.52156863 0.074509804
0.033823529 0.52941176 0.087254902
0.32340686 0.55735294 0.15036765
0.60808824 0.58921569 0.24044118
0.77855392 0.60526961 0.31078431
0.90784314 0.62058824 0.36568627
0 0.64117647 0.11029412
0 0.6372549 0.10680147
0 0.6442402 0.095098039
0 0.64117647 0.068627451
0.0098039216 0.64901961 0.076715686
0.040563725 0.65833333 0.092463235
0.45036765 0.7004902 0.18333333
0.72745098 0.73143382 0.29466912
0.90588235 0.75490196 0.36911765
0 0.77254902 0.12941176
0 0.77352941 0.11372549
0 0.75686275 0.10588235
0 0.77892157 0.068137255
0.0039215686 0.76470588 0.060784314
0.0078431373 0.74460784 0.065686275
0.021568627 0.77156863 0.070588235
0.53137255 0.83578431 0.22794118
0.90980392 0.89019608 0.37254902
0.01127451 0.0073529412 0.018627451
0.080453431 0.019546569 0.038235294
0.16531863 0.026102941 0.058333333
0.24883578 0.058823529 0.075490196
0.38995098 0.050735294 0.13676471
0.50606618 0.071875 0.18578431
0.61078431 0.090686275 0.23235294
0.6995098 0.10153186 0.27107843
0.76862745 0.12941176 0.30196078
0.026531863 0.03872549 0.034803922
0.076960784 0.046453738 0.0426394
0.1504902 0.056648284 0.054411765
0.24133732 0.071951593 0.073123468
0.37034314 0.089460784 0.12898284
0.49806219 0.10900735 0.18314951
0.61041667 0.12821691 0.23235294
0.70729167 0.13976716 0.275
0.77947304 0.14068627 0.30588235
0.061397059 0.095588235 0.050490196
0.073085172 0.092156863 0.046400123
0.13998162 0.1064951 0.058333333
0.22942708 0.11783088 0.08057598
0.35661765 0.1370098 0.1252451
0.49607843 0.16243873 0.18333333
0.61727941 0.17414216 0.2361826
0.71519608 0.18595282 0.27892157
0.78468137 0.19656863 0.30980392
0.072732843 0.16372549 0.062254902
0.085891544 0.16176471 0.060516238
0.13106618 0.16934743 0.066176471
0.21973805 0.17978707 0.084428615
0.34770221 0.20275735 0.12264093
0.49344363 0.22744332 0.18467371
0.62740502 0.23667279 0.24117647
0.72650888 0.25802696 0.28520987
0.80459559 0.26960784 0.31764706
0.037254902 0.25686275 0.066176471
0.054411765 0.25879289 0.068106618
0.083333333 0.27034314 0.074019608
0.16862745 0.28048407 0.088235294
0.31544118 0.29877451 0.12328431
0.48351716 0.32411152 0.18504902
0.63921569 0.34203431 0.24828431
0.74852941 0.35465686 0.29635417
0.83651961 0.35686275 0.33333333
0.011580882 0.38596814 0.091176471
0.0081495098 0.38208487 0.083333333
0.013648897 0.38615196 0.077542892
0.071629902 0.40029871 0.087124694
0.25033701 0.41348039 0.11534926
0.46715686 0.44607843 0.18021599
0.64404105 0.46953125 0.25030637
0.7627451 0.4838848 0.30294118
0.86029412 0.4973652 0.3463848
0 0.5254902 0.11421569
0 0.51775429 0.11018689
0.0039215686 0.51764706 0.097794118
0.006495098 0.52156863 0.085784314
0.065747549 0.53523284 0.098529412
0.36593137 0.5622549 0.14705882
0.60140931 0.59301471 0.23728554
0.78278186 0.61311275 0.31481311
0.87855392 0.62708333 0.3564951
0 0.64503676 0.13284314
0 0.64504442 0.12468597
0 0.64509804 0.10958946
0 0.64509804 0.087293199
0.0056372549 0.65052083 0.082322304
0.068872549 0.66525735 0.094316789
0.45804228 0.70453431 0.18714767
0.72886029 0.73578431 0.29558824
0.92977941 0.75882353 0.38082108
0 0.76862745 0.17156863
0 0.76764706 0.15637255
0 0.75588235 0.12291667
0 0.77009804 0.095098039
0 0.76470588 0.075735294
0.0049019608 0.77971814 0.043811275
0.034436275 0.7745098 0.075367647
0.50545343 0.84761029 0.21525735
0.91323529 0.87058824 0.37647059
0.054901961 0.031372549 0.073529412
0.10379902 0.031372549 0.07745098
0.19215686 0.034313725 0.089215686
0.29509804 0.061764706 0.11813725
0.41176471 0.069117647 0.15
0.52928922 0.085661765 0.19754902
0.62720588 0.10294118 0.23946078
0.70980392 0.10980392 0.275
0.77647059 0.11078431 0.30588235
0.046078431 0.053063725 0.080269608
0.096936275 0.060906863 0.085018382
0.17389706 0.071997549 0.088235294
0.27205882 0.091498162 0.10735294
0.39540441 0.11011029 0.14466912
0.52550551 0.12602635 0.19693627
0.62965686 0.1442402 0.24019608
0.72167586 0.15232843 0.27892157
0.78431373 0.15539216 0.30968137
0.068872549 0.10784314 0.092892157
0.096078431 0.11164216 0.092156863
0.16139706 0.12310049 0.1
0.25260417 0.13884804 0.11194853
0.38370098 0.15980392 0.14215686
0.51663603 0.17515319 0.19411765
0.63333333 0.18982843 0.24093137
0.73054534 0.20232843 0.2833027
0.78039216 0.20980392 0.30588235
0.074509804 0.18676471 0.11029412
0.09754902 0.18823529 0.11029412
0.14733456 0.19607843 0.11614583
0.23682598 0.21029412 0.12159926
0.37604167 0.2254902 0.14136029
0.52231924 0.24797794 0.19803922
0.6481924 0.26911765 0.25039828
0.74448529 0.28169424 0.29099265
0.81384804 0.28688725 0.32340686
0.042647059 0.28578431 0.12352941
0.054411765 0.28596814 0.12352941
0.099509804 0.29080882 0.1254902
0.19552696 0.30251225 0.13063725
0.34632353 0.32009804 0.14901961
0.51617647 0.34754902 0.19883578
0.65465686 0.36960784 0.25661765
0.76550245 0.37745098 0.30202206
0.84803922 0.38137255 0.33872549
0.0039215686 0.40196078 0.13566176
0.0031096814 0.40061275 0.13114277
0.010784314 0.40854779 0.13529412
0.10343137 0.41934743 0.13590686
0.29044118 0.43823529 0.14797794
0.49140625 0.46211703 0.1921875
0.65309436 0.48504902 0.25686275
0.77745098 0.49928002 0.30989583
0.86703431 0.51176471 0.34938725
0 0.52843137 0.15588235
0 0.52815564 0.15122549
0.0039215686 0.52916667 0.14313725
0.011243873 0.53716299 0.13921569
0.10735294 0.54791667 0.12830882
0.38676471 0.57622549 0.15931373
0.61727941 0.60471814 0.24509804
0.78085172 0.63079044 0.31470588
0.90784314 0.64215686 0.36862745
0 0.65686275 0.19375
0 0.65589767 0.18278186
0 0.65523897 0.16335784
0 0.65307904 0.14068627
0.019607843 0.66029412 0.1127451
0.085646446 0.67768076 0.10499387
0.48125 0.715625 0.19669118
0.75761336 0.75147059 0.30848652
0.93664216 0.76973039 0.38345588
0 0.78529412 0.24509804
0 0.76862745 0.23235294
0 0.78137255 0.2129902
0 0.76470588 0.16139706
0 0.77009804 0.12598039
0.012867647 0.76715686 0.081985294
0.0053921569 0.79019608 0.059803922
0.56311275 0.85661765 0.23553922
0.93235294 0.8745098 0.38431373
0.047058824 0.021078431 0.12794118
0.14215686 0.039031863 0.13039216
0.22696078 0.053431373 0.14215686
0.32261029 0.076960784 0.15637255
0.43382353 0.099264706 0.18602941
0.55042892 0.11917892 0.20784314
0.64460784 0.12254902 0.24473039
0.72285539 0.13057598 0.27892157
0.78431373 0.14362745 0.30833333
0.077941176 0.075980392 0.14822304
0.12465533 0.083823529 0.14589461
0.20424326 0.094730392 0.14995404
0.29901961 0.11010263 0.16029412
0.42205882 0.13293505 0.1754902
0.54657629 0.15207567 0.20839461
0.6522212 0.16622243 0.25058211
0.73431373 0.17401961 0.28676471
0.79215686 0.1745098 0.31354167
0.08872549 0.13382353 0.16323529
0.12567402 0.1377451 0.16409314
0.18789828 0.15061275 0.1674326
0.2805913 0.1649663 0.17522978
0.41102941 0.18676471 0.18645833
0.5495098 0.20588235 0.21453738
0.65637255 0.22009804 0.25422794
0.74606311 0.22401961 0.29252451
0.80036765 0.22156863 0.31617647
0.08872549 0.21280637 0.18082108
0.11176471 0.21911765 0.18462776
0.17035846 0.22696078 0.18627451
0.26681219 0.23599112 0.19224112
0.4122549 0.25836397 0.20297181
0.55458027 0.2751685 0.21683517
0.6707261 0.28993566 0.26018689
0.75755208 0.29846814 0.29852941
0.83290441 0.29699755 0.32941176
0.050245098 0.31151961 0.20073529
0.059803922 0.31029412 0.20196078
0.10686275 0.32009804 0.20073529
0.22858456 0.33189338 0.20539216
0.39068627 0.35012255 0.21127451
0.55098039 0.37300858 0.23409926
0.67843137 0.39522059 0.27132353
0.77990196 0.40245098 0.3104473
0.86078431 0.40171569 0.34387255
0.010845588 0.42647059 0.22003676
0.020281863 0.42401961 0.21831342
0.010294118 0.43370098 0.21473652
0.09977788 0.44328278 0.21764706
0.32794118 0.46911765 0.22303922
0.51233915 0.49215686 0.23661918
0.68016238 0.51482843 0.27855392
0.80147059 0.52990196 0.3212546
0.88627451 0.53045343 0.35686275
0 0.54473039 0.24362745
0 0.54085478 0.23578431
0.0029411765 0.54362745 0.22720588
0.0047947304 0.55631127 0.21865809
0.15612745 0.57359069 0.21881127
0.42892157 0.59924939 0.23359375
0.66332721 0.62778799 0.26688113
0.80837929 0.65088848 0.32647059
0.90477941 0.65735294 0.36752451
0 0.66470588 0.27892157
0 0.66715686 0.27542892
0 0.66715686 0.25833333
0.0052619485 0.67107843 0.23529412
0.018719363 0.67941176 0.20637255
0.11504289 0.6995098 0.17615656
0.54368873 0.73435968 0.23074449
0.78265931 0.76305147 0.32077206
0.92892157 0.77714461 0.38088235
0 0.77647059 0.32107843
0 0.78039216 0.32107843
0 0.78431373 0.30698529
0 0.79068627 0.27941176
0.0058823529 0.76470588 0.21446078
0.0068627451 0.78131127 0.14172794
0.03247549 0.80196078 0.067156863
0.56740196 0.8596201 0.24185049
0.93039216 0.89901961 0.38676471
0.090196078 0.074509804 0.22156863
0.16911765 0.073039216 0.21764706
0.25882353 0.081862745 0.23235294
0.35294118 0.097303922 0.23333333
0.4627451 0.10980392 0.23137255
0.57107843 0.1504902 0.23921569
0.66127451 0.14509804 0.25392157
0.73823529 0.16666667 0.28676471
0.80196078 0.17843137 0.31764706
0.10588235 0.10318627 0.22892157
0.15196078 0.11099877 0.23112745
0.23523284 0.12291667 0.2370098
0.33351716 0.13694853 0.24093137
0.45306373 0.15416667 0.24068627
0.57254902 0.17530637 0.24313725
0.67083333 0.19191176 0.26219363
0.74779412 0.19754902 0.29240196
0.80980392 0.19362745 0.32156863
0.12156863 0.16764706 0.25588235
0.15784314 0.17647059 0.25814951
0.21960784 0.17647059 0.26372549
0.31887255 0.19460784 0.26421569
0.44411765 0.2127451 0.26176471
0.57254902 0.23284314 0.26176471
0.67696078 0.24705882 0.275
0.76145833 0.25392157 0.3
0.82303922 0.25098039 0.3254902
0.10416667 0.25637255 0.28210784
0.14298407 0.25245098 0.27760417
0.21004902 0.26390931 0.28927696
0.3125 0.2752451 0.29264706
0.44865196 0.29264706 0.29264706
0.57647059 0.30735294 0.28452819
0.69148284 0.32340686 0.28602941
0.77892157 0.33226103 0.30833333
0.85343137 0.32573529 0.33651961
0.055882353 0.34705882 0.30980392
0.08370098 0.34509804 0.30784314
0.14926471 0.35514706 0.31348039
0.27573529 0.37573529 0.31960784
0.4254902 0.39509804 0.32352941
0.57720588 0.41017157 0.32377451
0.70784314 0.42401961 0.29215686
0.80318627 0.4372549 0.32205882
0.86666667 0.43627451 0.34607843
0.0012254902 0.4620098 0.32818627
0.016176471 0.46112132 0.32622549
0.051593137 0.46237745 0.32604167
0.16173407 0.47996324 0.33287377
0.36703431 0.49889706 0.34387255
0.55471814 0.52380515 0.34163603
0.70857843 0.54215686 0.32530637
0.82833946 0.56078431 0.33578431
0.91053922 0.56078431 0.36740196
0 0.56617647 0.3377451
0 0.56421569 0.33792892
0.006495098 0.56654412 0.33566176
0.032843137 0.57990196 0.34454657
0.21495098 0.59901961 0.35269608
0.47726716 0.62677696 0.35612745
0.67855392 0.65294118 0.35196078
0.83529412 0.67230392 0.34754902
0.90686275 0.67647059 0.36862745
0 0.67843137 0.375
0 0.67843137 0.37135417
0 0.67886029 0.36029412
0.01283701 0.68529412 0.35735294
0.0084558824 0.69473039 0.34705882
0.23033088 0.71847426 0.33529412
0.5995098 0.75735294 0.33216912
0.81942402 0.78648897 0.3416973
0.94362745 0.79803922 0.38848039
0 0.78431373 0.40980392
0 0.79019608 0.41568627
0 0.77647059 0.39411765
0.0039215686 0.78823529 0.37990196
0.0039215686 0.78921569 0.34313725
0.0039215686 0.78039216 0.29779412
0.024509804 0.81960784 0.18676471
0.62916667 0.88137255 0.27107843
0.91372549 0.91176471 0.37843137
0.16127451 0.10980392 0.31813725
0.21372549 0.08560049 0.30422794
0.29803922 0.10306373 0.32205882
0.38921569 0.11666667 0.32352941
0.49289216 0.14534314 0.3254902
0.59411765 0.15980392 0.2995098
0.68186275 0.16862745 0.28345588
0.75147059 0.18314951 0.29607843
0.81323529 0.17647059 0.31911765
0.15214461 0.14705882 0.33118873
0.20083487 0.15098039 0.33511029
0.28138787 0.16237745 0.34647672
0.37676164 0.17807138 0.35833333
0.49059436 0.19862132 0.36029412
0.60196078 0.21464461 0.33658854
0.6941636 0.22401961 0.30098039
0.76697304 0.22579657 0.30369945
0.81930147 0.22401961 0.3254902
0.17340686 0.20453431 0.35637255
0.20232843 0.21119792 0.35784314
0.27132353 0.22325368 0.37144608
0.3689185 0.24120711 0.38474265
0.484375 0.25692402 0.38707108
0.60196078 0.27526042 0.36738664
0.70245098 0.28351716 0.32401961
0.78247549 0.28970588 0.31747855
0.83933824 0.28688725 0.3372549
0.15343137 0.29810049 0.38480392
0.19166667 0.3004902 0.39106158
0.2557598 0.30340074 0.40232843
0.36568627 0.32032782 0.41505055
0.4877451 0.33504902 0.42205882
0.61072304 0.35147059 0.41078431
0.71459865 0.37038909 0.37169118
0.80245098 0.37272518 0.32647825
0.8627451 0.36960784 0.34509804
0.091666667 0.39558824 0.41102941
0.13183211 0.39705882 0.41470588
0.21053922 0.4033701 0.42444853
0.34338235 0.41957721 0.44313725
0.47610294 0.43651961 0.45171569
0.61127451 0.45 0.44754902
0.725 0.46378676 0.39901961
0.8236826 0.47490809 0.35514706
0.88627451 0.47671569 0.35759804
0.010294118 0.5 0.43186275
0.011764706 0.5 0.43402267
0.080882353 0.50392157 0.44186581
0.2511489 0.51868873 0.45965839
0.43308824 0.54117647 0.4752451
0.5877451 0.55882353 0.48151808
0.73129596 0.57621017 0.45859375
0.84123775 0.58816636 0.40287224
0.91911765 0.59803922 0.38278186
0.0039215686 0.59264706 0.43186275
0.0039215686 0.59264706 0.43578431
0.0039215686 0.59656863 0.44837623
0.065134804 0.61078431 0.46623775
0.3036152 0.62990196 0.48627451
0.53950674 0.65686275 0.50683211
0.70159314 0.67686887 0.48777574
0.85294118 0.69595588 0.43854167
0.94681373 0.70526961 0.39031863
0 0.70098039 0.45980392
0 0.69989277 0.46356464
0 0.69348958 0.45686275
0.01127451 0.70042892 0.45080423
0.018382353 0.71871936 0.47221201
0.30177696 0.74656863 0.49411765
0.62320772 0.78039216 0.50001532
0.8189951 0.80373775 0.42285539
0.95410539 0.81911765 0.39460784
0 0.79362745 0.49313725
0 0.79558824 0.49313725
0 0.79362745 0.4877451
0.0015318627 0.78829657 0.47095588
0.006372549 0.78308824 0.46470588
0.0098651961 0.78970588 0.45594363
0.057107843 0.83627451 0.40833333
0.67849265 0.89522059 0.39393382
0.92696078 0.9254902 0.38823529
0.18333333 0.12156863 0.39803922
0.26629902 0.14313725 0.41519608
0.34803922 0.16372549 0.43137255
0.43676471 0.16421569 0.43884804
0.52696078 0.18333333 0.44313725
0.62107843 0.1995098 0.41519608
0.70784314 0.21446078 0.3745098
0.77843137 0.23235294 0.33026961
0.82745098 0.23529412 0.32941176
0.20894608 0.19215686 0.43039216
0.25969669 0.20098039 0.43893995
0.34411765 0.21666667 0.45661765
0.43566176 0.23609069 0.47365196
0.53333333 0.24411765 0.4778799
0.62892157 0.25882353 0.46426164
0.71338848 0.26700368 0.41314338
0.79244792 0.27156863 0.34011949
0.83186275 0.2754902 0.33823529
0.2252451 0.2627451 0.46078431
0.26106005 0.26654412 0.46556373
0.34191176 0.28137255 0.48167892
0.43299632 0.29803922 0.50143995
0.53296569 0.31323529 0.51176471
0.63587623 0.32686887 0.49978554
0.7254902 0.3379902 0.45759804
0.80174632 0.34019608 0.37935049
0.8497549 0.33946078 0.35514706
0.22120098 0.34227941 0.48811275
0.25651042 0.35209865 0.49745711
0.33679534 0.36164216 0.51155025
0.42708333 0.37078738 0.52840074
0.53903186 0.39166667 0.54344363
0.6439185 0.40257353 0.54252451
0.73697917 0.4208027 0.50833333
0.82443321 0.42495404 0.42143076
0.89080882 0.42009804 0.36531863
0.16568627 0.44313725 0.51176471
0.22647059 0.45098039 0.52218137
0.30098039 0.45490196 0.53504902
0.41170343 0.46427696 0.5533701
0.53357843 0.48112745 0.57230392
0.64460784 0.50269608 0.57181373
0.74546569 0.51727941 0.54411765
0.83964461 0.52702206 0.47824755
0.91813725 0.52696078 0.38480392
0.031495098 0.53872549 0.53235294
0.11335784 0.54067096 0.5372549
0.2104473 0.5489277 0.55150123
0.3495098 0.56286765 0.57110907
0.49969363 0.57843137 0.5911152
0.62905944 0.59594056 0.59718137
0.75294118 0.61403186 0.59090074
0.85453431 0.62731311 0.53071385
0.93370098 0.63492647 0.43627451
0.0022058824 0.6245098 0.52941176
0.011734069 0.63128064 0.53713235
0.021997549 0.63848039 0.55435049
0.18998162 0.64941789 0.57830882
0.41323529 0.67107843 0.60870098
0.59381127 0.69166667 0.6333027
0.73946078 0.71102941 0.63253676
0.86951593 0.72591912 0.58091299
0.96666667 0.7372549 0.42916667
0 0.72009804 0.54166667
0.0032322304 0.72020527 0.54535846
0.0035539216 0.72095588 0.54509804
0.016804534 0.73008578 0.55490196
0.06942402 0.75165441 0.58602941
0.42545956 0.78002451 0.63293505
0.6692402 0.80735294 0.65625
0.84569547 0.832644 0.60839461
0.9872549 0.84595588 0.44607843
0.00098039216 0.81862745 0.5745098
0 0.80882353 0.56666667
0.0039215686 0.8 0.56838235
0.0039215686 0.8060049 0.55698529
0.016176471 0.79656863 0.57401961
0.014828431 0.81813725 0.5754902
0.063235294 0.85171569 0.55367647
0.72058824 0.90245098 0.59117647
0.96372549 0.9245098 0.4372549
0.24705882 0.17647059 0.49509804
0.33676471 0.20441176 0.51862745
0.41078431 0.23909314 0.54166667
0.48805147 0.24460784 0.553125
0.57328431 0.25245098 0.55882353
0.65177696 0.25294118 0.54920343
0.72879902 0.27892157 0.51666667
0.79754902 0.25637255 0.41317402
0.83235294 0.25980392 0.34607843
0.29117647 0.25833333 0.53039216
0.34166667 0.26704197 0.54258578
0.40992647 0.27757353 0.56090686
0.49589461 0.29834559 0.57775735
0.58112745 0.31004902 0.59120711
0.66354167 0.31734069 0.58427543
0.73664216 0.32591912 0.56078431
0.80850184 0.33333333 0.48272825
0.85490196 0.33333333 0.39362745
0.31433824 0.32843137 0.56127451
0.34987745 0.33267463 0.57256434
0.41804534 0.34810049 0.59166667
0.49852941 0.36403186 0.60863971
0.58658088 0.37567402 0.62077206
0.67512255 0.38664216 0.62215074
0.75137868 0.39901961 0.6046875
0.82129289 0.39901961 0.53745404
0.88235294 0.40208333 0.43627451
0.32726716 0.41011029 0.59215686
0.36223192 0.42052696 0.60349265
0.42414216 0.42835478 0.61582414
0.50030637 0.43890165 0.63560049
0.59773284 0.45441176 0.65514706
0.6828508 0.46501225 0.65931373
0.76605392 0.47896752 0.64264706
0.84267004 0.48284314 0.59830729
0.90441176 0.48333333 0.47616422
0.31421569 0.50490196 0.62328431
0.34653799 0.51295956 0.62895221
0.40196078 0.51703431 0.64178922
0.4879902 0.52965686 0.66096814
0.59117647 0.5432598 0.68014706
0.6888174 0.55965074 0.69877451
0.77990196 0.57156863 0.69209559
0.85637255 0.57962623 0.65076593
0.92107843 0.57745098 0.52083333
0.21519608 0.58970588 0.6372549
0.26515778 0.59577206 0.64509804
0.35006127 0.60441176 0.66349571
0.45459559 0.61660539 0.68265165
0.56829044 0.62803309 0.70229779
0.67113971 0.64449295 0.71796109
0.78382353 0.66083027 0.72892157
0.87307751 0.67205882 0.69221814
0.94264706 0.67990196 0.57009804
0.053186275 0.6745098 0.64509804
0.049188113 0.67830882 0.65294118
0.20217525 0.6859375 0.66764706
0.35208333 0.69960172 0.69442402
0.52745098 0.715625 0.72634804
0.65908395 0.7346201 0.75196078
0.77610294 0.75257353 0.76397059
0.87765012 0.76196385 0.74454657
0.96470588 0.77205882 0.62892157
0.00006127451 0.75882353 0.6533701
0.023897059 0.76269148 0.65637255
0.018688725 0.76619179 0.66453738
0.042195159 0.77273284 0.67516085
0.30768995 0.79365809 0.71645221
0.54430147 0.81884957 0.75702359
0.72921262 0.83823529 0.79047181
0.8721201 0.86078431 0.78540901
0.9817402 0.87303922 0.67800245
0.0078431373 0.82009804 0.63235294
0.012193627 0.82310049 0.64803922
0.015808824 0.80919118 0.65637255
0.0058823529 0.82254902 0.64264706
0.015196078 0.82426471 0.67352941
0.01752451 0.84901961 0.67579657
0.21311275 0.88517157 0.71936275
0.7533701 0.92941176 0.78578431
0.98039216 0.92990196 0.69019608
0.34117647 0.23529412 0.56078431
0.41911765 0.26960784 0.61568627
0.47254902 0.3127451 0.63431373
0.53823529 0.3254902 0.64705882
0.61764706 0.32156863 0.66666667
0.68284314 0.30735294 0.64607843
0.75882353 0.34803922 0.6627451
0.81666667 0.35686275 0.59901961
0.8627451 0.29803922 0.39215686
0.37941176 0.31617647 0.61470588
0.42647059 0.33578431 0.63823529
0.48995098 0.35416667 0.65955882
0.5495098 0.35833333 0.66047794
0.61960784 0.36764706 0.67401961
0.70067402 0.38314951 0.69705882
0.76629902 0.39473039 0.68578431
0.82751225 0.39901961 0.64466912
0.87401961 0.39852941 0.57107843
0.41470588 0.40490196 0.65784314
0.44215686 0.40539216 0.66127451
0.49166667 0.41715686 0.67671569
0.56323529 0.43088235 0.69914216
0.64411765 0.44656863 0.72401961
0.71384804 0.45159314 0.72806373
0.77745098 0.45588235 0.71568627
0.83627451 0.4495098 0.66666667
0.88627451 0.46764706 0.63823529
0.44460784 0.49117647 0.69803922
0.46207108 0.48921569 0.69589461
0.51213235 0.49901961 0.71556373
0.57598039 0.51176471 0.73131127
0.65220588 0.51985294 0.74754902
0.72843137 0.53284314 0.76323529
0.78872549 0.53284314 0.74178922
0.85833333 0.54901961 0.74479167
0.90980392 0.55245098 0.68872549
0.44509804 0.5745098 0.72941176
0.46519608 0.57598039 0.73039216
0.49901961 0.57352941 0.72990196
0.58014706 0.59338235 0.7620098
0.65784314 0.60784314 0.78235294
0.73553922 0.60833333 0.78406863
0.7995098 0.61176471 0.77156863
0.87156863 0.62745098 0.76764706
0.92156863 0.63921569 0.74901961
0.425 0.65539216 0.75588235
0.44656863 0.65931373 0.75833333
0.49840686 0.66262255 0.76997549
0.56758578 0.67352941 0.78823529
0.64117647 0.68284314 0.80343137
0.72843137 0.69460784 0.82107843
0.8122549 0.69705882 0.81384804
0.88872549 0.72058824 0.8245098
0.92794118 0.72598039 0.80539216
0.34509804 0.73823529 0.76764706
0.3814951 0.74362745 0.77745098
0.44681373 0.74779412 0.79215686
0.53811275 0.75870098 0.81580882
0.64852941 0.77647059 0.85
0.72598039 0.78480392 0.85833333
0.82083333 0.79803922 0.8754902
0.89558824 0.8060049 0.86666667
0.93529412 0.81078431 0.86372549
0.059313725 0.80441176 0.73627451
0.072732843 0.80055147 0.74068627
0.25441176 0.82193627 0.7754902
0.39466912 0.83235294 0.80196078
0.53946078 0.84460784 0.83529412
0.68939951 0.86862745 0.88284314
0.79901961 0.88039216 0.91041667
0.89957108 0.89172794 0.9122549
0.96813725 0.90294118 0.89509804
0 0.84705882 0.6627451
0.019607843 0.82009804 0.72156863
0.0098039216 0.83431373 0.72647059
0.006372549 0.84705882 0.72009804
0.021568627 0.86078431 0.70392157
0.1254902 0.89558824 0.76911765
0.62843137 0.92352941 0.87647059
0.85294118 0.94901961 0.92598039
0.95686275 0.95294118 0.94901961
