site/assets/luts/sha256-30569c1628b48eac1e7940fadf929901c07adf87be03d58012450bce8b81dee8.cube
# LUTr-Schema-Version: 2
# LUTr-ID: sha256-30569c1628b48eac1e7940fadf929901c07adf87be03d58012450bce8b81dee8
# LUTr-Title: polaroid px-680 +
# LUTr-Collection: Natron HaldCLUT
# LUTr-Collection-ID: natron-haldclut-presets
# LUTr-Source: https://github.com/NatronGitHub/clut
# LUTr-Retrieved: 2026-07-27
# LUTr-Source-File: submissions/natron-haldclut-presets/instant_consumer/polaroid_px-680_+.png
# LUTr-Source-Format: HALD-PNG
# LUTr-Source-SHA256: 30569c1628b48eac1e7940fadf929901c07adf87be03d58012450bce8b81dee8
# LUTr-License: CC-BY-SA-4.0
# LUTr-License-URL: https://github.com/NatronGitHub/clut#license
# LUTr-License-Basis: repo-license-file
# LUTr-Transform-Class: film-emulation
# LUTr-Tags: creative, film, film-emulation, hald-clut, natron, png, cube
# LUTr-Input-Color-Space: srgb
# LUTr-Input-Gamut: rec709
# LUTr-Input-Transfer: srgb
# LUTr-Output-Color-Space: srgb
# LUTr-Output-Gamut: rec709
# LUTr-Output-Transfer: srgb
# LUTr-Color-Space-Confidence: assumed-display-referred
# LUTr-Domain-Normalized: true
# LUTr-Shaper: none
# LUTr-Original-Grid: 64x64x64
# LUTr-Conversion-Grid: 25x25x25
# LUTr-Conversion-Interpolation: trilinear
# LUTr-Conversion-Method: HALD-PNG LUT image decoded at 16-bit and sampled to 25x25x25 3D CUBE
# LUTr-Conversion-Tool: LUTr scripts/convert-all-to-cube.mjs 2.0.0
# LUTr-Conversion-Date: 2026-07-27
# LUTr-Note: Preserve this metadata and the upstream license notices when redistributing.
TITLE "polaroid px-680 +"
LUT_3D_SIZE 25
DOMAIN_MIN 0 0 0
DOMAIN_MAX 1 1 1
0.12156863 0.22352941 0.21960784
0.12156863 0.22107843 0.21960784
0.12156863 0.21960784 0.21960784
0.13627451 0.22303922 0.21960784
0.15490196 0.2254902 0.21960784
0.17352941 0.22745098 0.21960784
0.19117647 0.22745098 0.21960784
0.20931373 0.22745098 0.21960784
0.22352941 0.22352941 0.21960784
0.28529412 0.22990196 0.21960784
0.34313725 0.23529412 0.21960784
0.39754902 0.23872549 0.21960784
0.46666667 0.24509804 0.21960784
0.55294118 0.25490196 0.21911765
0.63921569 0.25882353 0.21568627
0.72941176 0.2627451 0.21029412
0.78431373 0.29019608 0.20784314
0.83578431 0.325 0.20784314
0.88039216 0.36078431 0.20392157
0.90098039 0.39852941 0.21127451
0.91960784 0.43921569 0.21568627
0.9377451 0.47205882 0.22009804
0.95196078 0.49607843 0.23333333
0.97009804 0.52205882 0.24852941
0.98039216 0.5372549 0.25490196
0.12156863 0.22990196 0.22205882
0.12156863 0.22990196 0.21960784
0.125 0.22990196 0.21960784
0.13890931 0.22990196 0.22334559
0.15808824 0.23063725 0.22352941
0.17726716 0.23382353 0.22352941
0.19473039 0.23382353 0.22352941
0.21323529 0.23137255 0.22297794
0.24411765 0.23137255 0.22205882
0.29313725 0.23382353 0.22205882
0.34852941 0.23529412 0.21960784
0.4 0.23872549 0.21960784
0.46985294 0.24509804 0.21960784
0.55723039 0.25539216 0.21979167
0.64313725 0.26666667 0.21605392
0.72941176 0.27843137 0.21176471
0.79068627 0.30441176 0.21176471
0.83670343 0.3377451 0.20784314
0.87683824 0.3689951 0.2067402
0.89852941 0.40226716 0.21127451
0.91764706 0.43921569 0.21372549
0.9377451 0.47205882 0.21636029
0.95196078 0.49607843 0.2314951
0.96672794 0.52205882 0.24761029
0.97647059 0.54117647 0.26127451
0.12156863 0.23921569 0.22352941
0.12156863 0.23921569 0.22352941
0.13039216 0.23627451 0.22352941
0.1442402 0.23627451 0.22352941
0.16078431 0.2377451 0.22352941
0.18137255 0.23921569 0.22352941
0.1997549 0.23921569 0.22352941
0.225 0.23921569 0.22352941
0.25980392 0.24019608 0.22352941
0.30735294 0.24019608 0.22352941
0.35857843 0.24093137 0.22352941
0.40723039 0.24411765 0.21960784
0.47990196 0.25441176 0.21960784
0.56188725 0.2682598 0.21960784
0.65098039 0.28308824 0.21666667
0.73431373 0.29693627 0.21568627
0.79705882 0.32254902 0.2127451
0.84056373 0.35379902 0.21176471
0.87181373 0.38431373 0.20784314
0.89571078 0.41519608 0.21127451
0.91715686 0.44215686 0.21176471
0.9377451 0.47169118 0.21531863
0.9502451 0.49681373 0.23112745
0.9622549 0.52598039 0.25
0.97254902 0.55 0.26666667
0.12156863 0.24656863 0.22352941
0.12401961 0.24656863 0.22352941
0.13394608 0.24656863 0.22352941
0.14761029 0.24356618 0.22352941
0.16470588 0.24313725 0.2252451
0.18137255 0.24313725 0.22696078
0.20453431 0.24571078 0.22352941
0.23137255 0.24656863 0.22352941
0.27009804 0.24656863 0.22352941
0.31911765 0.24920343 0.22352941
0.3689951 0.25134804 0.22352941
0.42702206 0.26127451 0.21966912
0.49901961 0.27156863 0.21593137
0.57941176 0.28278186 0.21574755
0.66213235 0.29914216 0.21617647
0.74460784 0.31439951 0.21568627
0.80735294 0.33676471 0.21568627
0.83872549 0.36764706 0.2096201
0.86960784 0.39460784 0.20441176
0.89313725 0.4254902 0.20827206
0.91372549 0.45245098 0.21176471
0.93474265 0.48327206 0.21960784
0.94803922 0.50992647 0.23676471
0.9622549 0.53547794 0.25392157
0.97254902 0.56029412 0.27058824
0.11960784 0.25686275 0.22352941
0.12794118 0.25686275 0.2247549
0.13676471 0.25588235 0.22352941
0.15196078 0.25294118 0.2252451
0.16568627 0.24901961 0.22745098
0.18504902 0.24926471 0.22745098
0.20539216 0.25294118 0.2245098
0.23333333 0.25294118 0.22352941
0.27647059 0.25686275 0.22352941
0.32794118 0.25931373 0.22622549
0.38039216 0.26764706 0.22303922
0.44803922 0.27794118 0.21960784
0.52156863 0.28627451 0.21470588
0.59779412 0.29681373 0.21176471
0.67843137 0.31372549 0.21323529
0.75808824 0.33235294 0.21568627
0.81176471 0.35294118 0.21176471
0.83872549 0.37867647 0.20661765
0.86960784 0.40490196 0.20147059
0.89313725 0.43578431 0.20367647
0.91372549 0.46666667 0.21372549
0.93406863 0.49754902 0.22401961
0.94803922 0.525 0.2377451
0.9622549 0.55073529 0.26053922
0.97647059 0.5745098 0.28039216
0.11764706 0.26715686 0.22352941
0.12401961 0.26715686 0.22352941
0.13823529 0.26323529 0.22487745
0.15245098 0.26323529 0.22745098
0.16691176 0.25931373 0.22745098
0.18529412 0.25931373 0.22745098
0.20208333 0.25931373 0.2245098
0.22941176 0.26292892 0.22352941
0.27843137 0.26715686 0.22352941
0.33645833 0.27794118 0.22352941
0.39068627 0.2877451 0.21960784
0.46372549 0.29460784 0.21617647
0.53995098 0.30098039 0.21176471
0.61268382 0.31078431 0.20784314
0.69117647 0.32830882 0.20784314
0.75196078 0.353125 0.21127451
0.8 0.37794118 0.21127451
0.83480392 0.40196078 0.20520833
0.86948529 0.42303922 0.2
0.89264706 0.4504902 0.20692402
0.90980392 0.48137255 0.21764706
0.93039216 0.51176471 0.22401961
0.94803922 0.53970588 0.2372549
0.96403186 0.56617647 0.26715686
0.98039216 0.58921569 0.28676471
0.11372549 0.27745098 0.22352941
0.12401961 0.27745098 0.22352941
0.13823529 0.27426471 0.22745098
0.15245098 0.27647059 0.22745098
0.16862745 0.27647059 0.22745098
0.18529412 0.27598039 0.22745098
0.20294118 0.27254902 0.2245098
0.22867647 0.27107843 0.22352941
0.28529412 0.28431373 0.22352941
0.34129902 0.29460784 0.22107843
0.39877451 0.30490196 0.21887255
0.47745098 0.31519608 0.21568627
0.55392157 0.32303922 0.21176471
0.62561275 0.3307598 0.20477941
0.68823529 0.35098039 0.20465686
0.74571078 0.37855392 0.20784314
0.8 0.40490196 0.20784314
0.83835784 0.42647059 0.20392157
0.86862745 0.44779412 0.20392157
0.88921569 0.47414216 0.21029412
0.90980392 0.50196078 0.21764706
0.93039216 0.52879902 0.22401961
0.94803922 0.55367647 0.2370098
0.96470588 0.57990196 0.26715686
0.97745098 0.60294118 0.29411765
0.10980392 0.2877451 0.22352941
0.1216299 0.28866422 0.22598039
0.13492647 0.29313725 0.22745098
0.14834559 0.29834559 0.22745098
0.16397059 0.30171569 0.22745098
0.18351716 0.29852941 0.22745098
0.20196078 0.29852941 0.22352941
0.23872549 0.30300245 0.22352941
0.29166667 0.31176471 0.22352941
0.3495098 0.32058824 0.21960784
0.40686275 0.32843137 0.21568627
0.48265931 0.34246324 0.21207108
0.55490196 0.35686275 0.20906863
0.62696078 0.37156863 0.20373775
0.69362745 0.38921569 0.20098039
0.75091912 0.40882353 0.20245098
0.80539216 0.43186275 0.20392157
0.84264706 0.45245098 0.20392157
0.86470588 0.4754902 0.20784314
0.88529412 0.49969363 0.21519608
0.90833333 0.5252451 0.22303922
0.9286152 0.54901961 0.23155637
0.94019608 0.56519608 0.24154412
0.95441176 0.58627451 0.26660539
0.96715686 0.60539216 0.28480392
0.098039216 0.30980392 0.22352941
0.11078431 0.31372549 0.22352941
0.12647059 0.31862745 0.22745098
0.14019608 0.325 0.22745098
0.15686275 0.32745098 0.22745098
0.17352941 0.32892157 0.22352941
0.20392157 0.32941176 0.22352941
0.2504902 0.33872549 0.22352941
0.30196078 0.34509804 0.22352941
0.35343137 0.35539216 0.21960784
0.40980392 0.36568627 0.21568627
0.47892157 0.37941176 0.21176471
0.55490196 0.39607843 0.20588235
0.63088235 0.4127451 0.2
0.69705882 0.43039216 0.19803922
0.75245098 0.44607843 0.19607843
0.80392157 0.4627451 0.2
0.83872549 0.47941176 0.20245098
0.86078431 0.5 0.20784314
0.88137255 0.5245098 0.21519608
0.90588235 0.54705882 0.2254902
0.92598039 0.56911765 0.23578431
0.93627451 0.57941176 0.24901961
0.94656863 0.59509804 0.26323529
0.95686275 0.60784314 0.27843137
0.071078431 0.35490196 0.22352941
0.074448529 0.35735294 0.22352941
0.094117647 0.35882353 0.22352941
0.11844363 0.35882353 0.22352941
0.14289216 0.35637255 0.22352941
0.16433824 0.35667892 0.22352941
0.21323529 0.36384804 0.22352941
0.26078431 0.37297794 0.22352941
0.30588235 0.38235294 0.22352941
0.35490196 0.3911152 0.22052696
0.41078431 0.40110294 0.21568627
0.48284314 0.41685049 0.20833333
0.55490196 0.43406863 0.20196078
0.62696078 0.45128676 0.19577206
0.69607843 0.46703431 0.19252451
0.75 0.48333333 0.19215686
0.79117647 0.49607843 0.19362745
0.82598039 0.50784314 0.19362745
0.85330882 0.5245098 0.19754902
0.875 0.54754902 0.20490196
0.89558824 0.56764706 0.21519608
0.91617647 0.58204657 0.23235294
0.92990196 0.59362745 0.24718137
0.93872549 0.60392157 0.26029412
0.94901961 0.61813725 0.27205882
0.045098039 0.39901961 0.22352941
0.046936275 0.40355392 0.22352941
0.053676471 0.40416667 0.22352941
0.076102941 0.40392157 0.22352941
0.10392157 0.40098039 0.22352941
0.14607843 0.4 0.22365196
0.20808824 0.40220588 0.2252451
0.25588235 0.40894608 0.22352941
0.29705882 0.41568627 0.21960784
0.35208333 0.42708333 0.2189951
0.41397059 0.43946078 0.21470588
0.48382353 0.45428922 0.20833333
0.55490196 0.47205882 0.20196078
0.62647059 0.48713235 0.19558824
0.69215686 0.50318627 0.1875
0.73823529 0.51629902 0.18823529
0.77843137 0.52843137 0.19215686
0.81421569 0.53872549 0.18823529
0.84509804 0.5497549 0.1872549
0.86862745 0.56960784 0.19460784
0.8877451 0.58431373 0.20931373
0.90686275 0.59754902 0.22830882
0.92426471 0.60857843 0.24509804
0.93480392 0.61911765 0.25747549
0.94411765 0.62843137 0.26666667
0.024509804 0.4372549 0.22009804
0.024509804 0.43988971 0.22009804
0.024509804 0.44522059 0.22352941
0.028860294 0.44859069 0.22052696
0.057352941 0.44509804 0.22181373
0.11905637 0.44509804 0.22359069
0.1872549 0.44460784 0.22401961
0.24166667 0.44656863 0.22352941
0.28333333 0.45294118 0.21960784
0.34442402 0.46323529 0.21568627
0.41470588 0.47745098 0.21176471
0.48290441 0.49166667 0.20833333
0.55318627 0.50637255 0.20367647
0.62261029 0.52107843 0.19901961
0.68480392 0.53737745 0.19522059
0.73511029 0.5526348 0.19558824
0.77254902 0.56666667 0.19558824
0.80392157 0.57089461 0.18952206
0.83872549 0.57867647 0.17953431
0.86182598 0.58719363 0.18817402
0.87892157 0.60098039 0.20784314
0.8995098 0.61176471 0.22408088
0.92009804 0.62205882 0.23872549
0.93480392 0.63449755 0.2526348
0.94117647 0.63872549 0.25931373
0.0039215686 0.47254902 0.21568627
0.0058823529 0.47769608 0.21887255
0.0098039216 0.48284314 0.21960784
0.0078431373 0.48627451 0.21960784
0.019607843 0.48823529 0.21960784
0.0875 0.4879902 0.22156863
0.15490196 0.48627451 0.22156863
0.21470588 0.48627451 0.21887255
0.2745098 0.49019608 0.21568627
0.34142157 0.49926471 0.21568627
0.41029412 0.51127451 0.21568627
0.47916667 0.5247549 0.21568627
0.54803922 0.54019608 0.2127451
0.61495098 0.55563725 0.20759804
0.6754902 0.57254902 0.20588235
0.73088235 0.59117647 0.20980392
0.77647059 0.60784314 0.20980392
0.80612745 0.61176471 0.20465686
0.83186275 0.60980392 0.20196078
0.85392157 0.61372549 0.20588235
0.8745098 0.62058824 0.21470588
0.89485294 0.62794118 0.22573529
0.91372549 0.63823529 0.23284314
0.93161765 0.6504902 0.24534314
0.9372549 0.65294118 0.25294118
0.0044117647 0.51176471 0.21960784
0.0044117647 0.51176471 0.21960784
0.0078431373 0.5192402 0.21960784
0.0078431373 0.52261029 0.21960784
0.015441176 0.52352941 0.21960784
0.064705882 0.52346814 0.21960784
0.13529412 0.52340686 0.22034314
0.20655637 0.52322304 0.21960784
0.27892157 0.52745098 0.22009804
0.34460784 0.53382353 0.22352941
0.41507353 0.54754902 0.22745098
0.47935049 0.55827206 0.22352941
0.54485294 0.57426471 0.21789216
0.61078431 0.5911152 0.21568627
0.66911765 0.60735294 0.21617647
0.72205882 0.62401961 0.22028186
0.77941176 0.64803922 0.2245098
0.80098039 0.64460784 0.22714461
0.825 0.64080882 0.22892157
0.84607843 0.64460784 0.23278186
0.87009804 0.64852941 0.23848039
0.8872549 0.6528799 0.24025735
0.90784314 0.65931373 0.24068627
0.92843137 0.66550245 0.2408701
0.93333333 0.66813725 0.24460784
0.011764706 0.55294118 0.22352941
0.0089460784 0.55294118 0.22254902
0.0078431373 0.55392157 0.21960784
0.0078431373 0.55686275 0.21960784
0.0049019608 0.55784314 0.21813725
0.041421569 0.55784314 0.21703431
0.12867647 0.55784314 0.21960784
0.21470588 0.55894608 0.22291667
0.28921569 0.56470588 0.22647059
0.35490196 0.57316176 0.23039216
0.41985294 0.58308824 0.23039216
0.48235294 0.59558824 0.22781863
0.54803922 0.61029412 0.22647059
0.60992647 0.62205882 0.22561275
0.65882353 0.63602941 0.23235294
0.71176471 0.64803922 0.23762255
0.76176471 0.66470588 0.24509804
0.79595588 0.67254902 0.25085784
0.81936275 0.6754902 0.25588235
0.84215686 0.6754902 0.25943627
0.86372549 0.67794118 0.26421569
0.88431373 0.6807598 0.26764706
0.90392157 0.68651961 0.26985294
0.9245098 0.69154412 0.27990196
0.93333333 0.69509804 0.28529412
0.011764706 0.59411765 0.22745098
0.016605392 0.59411765 0.22745098
0.015686275 0.59411765 0.22352941
0.011948529 0.59411765 0.2213848
0.012990196 0.59656863 0.22034314
0.060906863 0.59656863 0.22107843
0.1435049 0.59656863 0.22352941
0.225 0.5971201 0.22408088
0.29558824 0.60196078 0.22892157
0.36519608 0.6122549 0.23529412
0.43088235 0.62009804 0.24068627
0.49117647 0.62745098 0.24068627
0.54901961 0.6377451 0.23823529
0.60490196 0.64785539 0.24246324
0.65281863 0.65833333 0.24901961
0.70392157 0.67107843 0.25784314
0.74607843 0.68529412 0.26568627
0.78180147 0.69558824 0.27261029
0.81433824 0.70637255 0.2817402
0.83676471 0.70637255 0.28658088
0.85882353 0.70637255 0.29338235
0.87941176 0.70667892 0.3004902
0.9 0.71213235 0.30894608
0.91911765 0.71721814 0.32107843
0.93333333 0.72205882 0.32892157
0.0078431373 0.63529412 0.23137255
0.024509804 0.63529412 0.23137255
0.019607843 0.63529412 0.22745098
0.020588235 0.63529412 0.22401961
0.064705882 0.63529412 0.22941176
0.13186275 0.63529412 0.23137255
0.18039216 0.63529412 0.23137255
0.23382353 0.63529412 0.22745098
0.30588235 0.63921569 0.23137255
0.37794118 0.64558824 0.24558824
0.44117647 0.64803922 0.25098039
0.49558824 0.65490196 0.25098039
0.54901961 0.66470588 0.25098039
0.60245098 0.675 0.25539216
0.65 0.68529412 0.26568627
0.69754902 0.69558824 0.27745098
0.7372549 0.70588235 0.28627451
0.77843137 0.71617647 0.29656863
0.80980392 0.7254902 0.30686275
0.83431373 0.72941176 0.31715686
0.85490196 0.72941176 0.32745098
0.8754902 0.73333333 0.3377451
0.89607843 0.74019608 0.35098039
0.91666667 0.74656863 0.36372549
0.93333333 0.75294118 0.37647059
0.029901961 0.6754902 0.23382353
0.062254902 0.67401961 0.2377451
0.057965686 0.67401961 0.23345588
0.091666667 0.67401961 0.23363971
0.15539216 0.67254902 0.23848039
0.20704657 0.67224265 0.24430147
0.2442402 0.67009804 0.24448529
0.27941176 0.66617647 0.24411765
0.32745098 0.67009804 0.24803922
0.39007353 0.67401961 0.25588235
0.45147059 0.67794118 0.26127451
0.50588235 0.68314951 0.26341912
0.55343137 0.69166667 0.26372549
0.60459559 0.69932598 0.27205882
0.65061275 0.70588235 0.28627451
0.69754902 0.71617647 0.30140931
0.7372549 0.72647059 0.31470588
0.77352941 0.73431373 0.32352941
0.80404412 0.74215686 0.33382353
0.82794118 0.74577206 0.34558824
0.8497549 0.75 0.35833333
0.87156863 0.75392157 0.37254902
0.89215686 0.76078431 0.38284314
0.91029412 0.76623775 0.39705882
0.92696078 0.77107843 0.40490196
0.13137255 0.69705882 0.24803922
0.14031863 0.69901961 0.24742647
0.15490196 0.69926471 0.24656863
0.18909314 0.70085784 0.25245098
0.22843137 0.70392157 0.25784314
0.26176471 0.70098039 0.26213235
0.29901961 0.69779412 0.26862745
0.33517157 0.69705882 0.27071078
0.37352941 0.69705882 0.26960784
0.41654412 0.70098039 0.2689951
0.46470588 0.70563725 0.27181373
0.51617647 0.71139706 0.2807598
0.56764706 0.71568627 0.29117647
0.61470588 0.72095588 0.30147059
0.65612745 0.72671569 0.31176471
0.69669118 0.73639706 0.32598039
0.73333333 0.74313725 0.33921569
0.76715686 0.75061275 0.35012255
0.79705882 0.75808824 0.36078431
0.82120098 0.76262255 0.37401961
0.84313725 0.76813725 0.38676471
0.86666667 0.77107843 0.39987745
0.88431373 0.77843137 0.41372549
0.90490196 0.78382353 0.42401961
0.92058824 0.79019608 0.43431373
0.2377451 0.72401961 0.26568627
0.24889706 0.72616422 0.26862745
0.27071078 0.73051471 0.27352941
0.27334559 0.72794118 0.28082108
0.29656863 0.72818627 0.29044118
0.32009804 0.72794118 0.29221814
0.35134804 0.72536765 0.29301471
0.3877451 0.72401961 0.29675245
0.425 0.7245098 0.29656863
0.46011029 0.72824755 0.29656863
0.49166667 0.73198529 0.29754902
0.53033088 0.73535539 0.30784314
0.58137255 0.73995098 0.32205882
0.62892157 0.74454657 0.33535539
0.66960784 0.75061275 0.34264706
0.70196078 0.75588235 0.35637255
0.72941176 0.75980392 0.36372549
0.76029412 0.76795343 0.37745098
0.79031863 0.77561275 0.38823529
0.8151348 0.77984069 0.40196078
0.83578431 0.78529412 0.41446078
0.8598652 0.79166667 0.42738971
0.88088235 0.79816176 0.44375
0.90098039 0.80441176 0.45618873
0.91764706 0.81078431 0.46519608
0.33529412 0.75098039 0.30588235
0.34362745 0.75416667 0.30980392
0.35196078 0.75490196 0.31372549
0.36053922 0.75318627 0.31740196
0.37254902 0.75294118 0.32254902
0.39338235 0.75294118 0.32720588
0.41568627 0.75147059 0.32401961
0.44362745 0.75294118 0.32352941
0.47647059 0.75490196 0.3254902
0.50612745 0.75490196 0.32745098
0.53137255 0.75490196 0.33235294
0.55931373 0.75857843 0.34068627
0.60196078 0.76372549 0.35294118
0.64877451 0.76887255 0.36495098
0.68333333 0.77254902 0.3754902
0.71151961 0.77647059 0.3877451
0.73529412 0.78039216 0.39803922
0.75710784 0.78676471 0.40637255
0.78333333 0.79313725 0.41862745
0.80686275 0.7997549 0.42892157
0.83039216 0.80392157 0.44215686
0.85392157 0.80833333 0.45563725
0.87598039 0.81715686 0.47107843
0.89705882 0.82426471 0.48578431
0.91568627 0.83137255 0.5
0.41960784 0.77794118 0.35098039
0.42205882 0.77794118 0.3536152
0.42794118 0.78137255 0.35490196
0.43823529 0.78137255 0.35882353
0.45269608 0.77794118 0.3627451
0.46758578 0.77794118 0.36617647
0.4877451 0.77794118 0.3627451
0.50784314 0.77794118 0.35882353
0.53137255 0.78137255 0.35882353
0.54803922 0.78137255 0.36096814
0.57218137 0.78137255 0.36715686
0.60006127 0.78480392 0.37745098
0.62916667 0.78921569 0.3877451
0.66519608 0.79313725 0.39803922
0.69571078 0.79705882 0.40882353
0.72156863 0.79883578 0.42040441
0.74607843 0.80490196 0.43284314
0.76666667 0.80882353 0.43970588
0.78676471 0.81360294 0.44987745
0.80735294 0.81666667 0.45980392
0.82990196 0.82058824 0.47009804
0.85594363 0.82800245 0.48480392
0.87696078 0.83492647 0.50110294
0.8995098 0.83970588 0.5122549
0.90980392 0.83970588 0.51813725
0.50196078 0.80588235 0.39607843
0.50196078 0.80588235 0.39791667
0.50612745 0.80588235 0.39926471
0.51421569 0.80588235 0.40257353
0.52843137 0.80588235 0.40392157
0.53958333 0.80490196 0.40392157
0.55 0.80490196 0.40686275
0.56666667 0.80490196 0.40392157
0.57941176 0.80490196 0.4
0.58676471 0.80196078 0.39607843
0.61004902 0.80196078 0.40196078
0.6377451 0.80551471 0.41127451
0.66078431 0.80833333 0.41862745
0.68835784 0.81421569 0.43321078
0.71593137 0.81764706 0.44607843
0.74031863 0.81973039 0.45845588
0.76372549 0.8254902 0.47058824
0.78333333 0.82941176 0.47732843
0.80073529 0.83333333 0.48431373
0.82058824 0.83419118 0.49375
0.84166667 0.83921569 0.50490196
0.86286765 0.84522059 0.5182598
0.88431373 0.84607843 0.52720588
0.89656863 0.84705882 0.53137255
0.90588235 0.84607843 0.52843137
0.575 0.83186275 0.44117647
0.57892157 0.83186275 0.44117647
0.58321078 0.83431373 0.4432598
0.59019608 0.83431373 0.44509804
0.5997549 0.83308824 0.44828431
0.60147059 0.83167892 0.44509804
0.61176471 0.83186275 0.44865196
0.62506127 0.83186275 0.44901961
0.63088235 0.83039216 0.44509804
0.63480392 0.82310049 0.43780637
0.64767157 0.82254902 0.43786765
0.66519608 0.82107843 0.43823529
0.68480392 0.8245098 0.44828431
0.71390931 0.83480392 0.46960784
0.73933824 0.84154412 0.4872549
0.75882353 0.83970588 0.49270833
0.78333333 0.84607843 0.50784314
0.79908088 0.85 0.51329657
0.81519608 0.85061275 0.52058824
0.83333333 0.85392157 0.52941176
0.85441176 0.85784314 0.53970588
0.87107843 0.85637255 0.54411765
0.88137255 0.85637255 0.54411765
0.89503676 0.85637255 0.54803922
0.9004902 0.85245098 0.54264706
0.63529412 0.85098039 0.4745098
0.63529412 0.85098039 0.4745098
0.64411765 0.85490196 0.47843137
0.65441176 0.85882353 0.48235294
0.65294118 0.85490196 0.48039216
0.65490196 0.85098039 0.47843137
0.66176471 0.85392157 0.48137255
0.67205882 0.85490196 0.48627451
0.6745098 0.85098039 0.47843137
0.67205882 0.84313725 0.47205882
0.67058824 0.83431373 0.46176471
0.67794118 0.83137255 0.45833333
0.70784314 0.84117647 0.48039216
0.73480392 0.85147059 0.50294118
0.7627451 0.86176471 0.52745098
0.77696078 0.86029412 0.52843137
0.79607843 0.86666667 0.54117647
0.81029412 0.86666667 0.54362745
0.82941176 0.86764706 0.55
0.85 0.87058824 0.56421569
0.86078431 0.86862745 0.56078431
0.86764706 0.86617647 0.55686275
0.88137255 0.8627451 0.56078431
0.89166667 0.8627451 0.56715686
0.89803922 0.85882353 0.55686275
0.1254902 0.22352941 0.22352941
0.12401961 0.22352941 0.22352941
0.12610294 0.22352941 0.22352941
0.13658088 0.22352941 0.22352941
0.15612745 0.22745098 0.22352941
0.17352941 0.22775735 0.22352941
0.19117647 0.22745098 0.22352941
0.21023284 0.22745098 0.22297794
0.23382353 0.22598039 0.22352941
0.2901348 0.22990196 0.22352941
0.3495098 0.23529412 0.22414216
0.40735294 0.23921569 0.22352941
0.48210784 0.24509804 0.22598039
0.5658701 0.25520833 0.22334559
0.65306373 0.26066176 0.22205882
0.73039216 0.27205882 0.21905637
0.78431373 0.3004902 0.22205882
0.83578431 0.33529412 0.21905637
0.87855392 0.36715686 0.21666667
0.90098039 0.40226716 0.221875
0.91960784 0.44044118 0.22843137
0.93805147 0.47420343 0.23302696
0.95196078 0.49963235 0.24644608
0.96672794 0.5245098 0.25974265
0.97009804 0.53480392 0.26764706
0.1254902 0.22990196 0.22352941
0.1254902 0.22894455 0.22352941
0.12938113 0.22967218 0.22352941
0.14050245 0.22990196 0.22352941
0.15686275 0.23213848 0.22352941
0.17726716 0.23382353 0.22352941
0.19473039 0.23382353 0.22352941
0.21603094 0.23137255 0.22352941
0.24656863 0.23290441 0.22352941
0.29780944 0.23439798 0.22352941
0.35176164 0.23705576 0.22352941
0.40735294 0.23921569 0.22352941
0.48333333 0.24509804 0.22598039
0.56753217 0.25539216 0.22578891
0.65343137 0.26642157 0.22219669
0.73151808 0.28177849 0.21813725
0.78731618 0.31078431 0.21905637
0.83670343 0.34258578 0.21687347
0.87568934 0.37346814 0.21689645
0.89852941 0.40735294 0.221875
0.91764706 0.44270833 0.22766544
0.93785999 0.47439491 0.23284314
0.95196078 0.49963235 0.24437806
0.96280637 0.5245098 0.25939798
0.97101716 0.54270833 0.27156863
0.1254902 0.23627451 0.22598039
0.12702206 0.23627451 0.2248315
0.13321078 0.23627451 0.22352941
0.145144 0.23627451 0.22352941
0.16078431 0.2377451 0.22352941
0.18137255 0.23921569 0.22352941
0.20039828 0.23921569 0.22352941
0.22745098 0.23921569 0.22352941
0.26262255 0.24019608 0.22352941
0.30796569 0.24019608 0.22352941
0.36081495 0.24338235 0.22352941
0.41671262 0.2446538 0.22513787
0.49234069 0.25410539 0.22444853
0.5745098 0.26657475 0.22316176
0.65723039 0.28216912 0.22205882
