site/assets/luts/sha256-44c584a76419aaed78918221f3d59b68ffb3cf92ee6503ff602e210374aa13b4.cube
# LUTr-Schema-Version: 2
# LUTr-ID: sha256-44c584a76419aaed78918221f3d59b68ffb3cf92ee6503ff602e210374aa13b4
# LUTr-Title: generic fuji astia 100
# LUTr-Collection: Natron HaldCLUT
# LUTr-Collection-ID: natron-haldclut-presets
# LUTr-Source: https://github.com/NatronGitHub/clut
# LUTr-Retrieved: 2026-07-27
# LUTr-Source-File: submissions/natron-haldclut-presets/colorslide/generic_fuji_astia_100.png
# LUTr-Source-Format: HALD-PNG
# LUTr-Source-SHA256: 44c584a76419aaed78918221f3d59b68ffb3cf92ee6503ff602e210374aa13b4
# LUTr-License: CC-BY-SA-4.0
# LUTr-License-URL: https://github.com/NatronGitHub/clut#license
# LUTr-License-Basis: repo-license-file
# LUTr-Transform-Class: film-emulation
# LUTr-Tags: creative, film, film-emulation, hald-clut, natron, png, cube
# LUTr-Input-Color-Space: srgb
# LUTr-Input-Gamut: rec709
# LUTr-Input-Transfer: srgb
# LUTr-Output-Color-Space: srgb
# LUTr-Output-Gamut: rec709
# LUTr-Output-Transfer: srgb
# LUTr-Color-Space-Confidence: assumed-display-referred
# LUTr-Domain-Normalized: true
# LUTr-Shaper: none
# LUTr-Original-Grid: 64x64x64
# LUTr-Conversion-Grid: 25x25x25
# LUTr-Conversion-Interpolation: trilinear
# LUTr-Conversion-Method: HALD-PNG LUT image decoded at 16-bit and sampled to 25x25x25 3D CUBE
# LUTr-Conversion-Tool: LUTr scripts/convert-all-to-cube.mjs 2.0.0
# LUTr-Conversion-Date: 2026-07-27
# LUTr-Note: Preserve this metadata and the upstream license notices when redistributing.
TITLE "generic fuji astia 100"
LUT_3D_SIZE 9
DOMAIN_MIN 0 0 0
DOMAIN_MAX 1 1 1
0 0 0
0.10882353 0.017156863 0.012745098
0.21666667 0.0078431373 0.0078431373
0.35098039 0.015686275 0.011764706
0.49803922 0.01372549 0.015686275
0.63480392 0.062745098 0.014215686
0.76862745 0.021568627 0.011764706
0.87990196 0.019607843 0.023039216
0.98823529 0.0039215686 0
0.058333333 0.12009804 0.042647059
0.12401961 0.12058824 0.039215686
0.23615196 0.10796569 0.020588235
0.36127451 0.1004902 0.011764706
0.5 0.1004902 0.0080882353
0.6372549 0.10490196 0.011764706
0.76470588 0.10012255 0.013602941
0.87990196 0.10484069 0.046568627
0.97647059 0.10441176 0.0078431373
0.093137255 0.23235294 0.040196078
0.12095588 0.2310049 0.034926471
0.22058824 0.23137255 0.031372549
0.36127451 0.22647059 0.030392157
0.50147059 0.23137255 0.034803922
0.63333333 0.22647059 0.038235294
0.76372549 0.23455882 0.02745098
0.87598039 0.23137255 0.035171569
0.97352941 0.21862745 0.025490196
0.038235294 0.37696078 0.091176471
0.057352941 0.37481618 0.091666667
0.21715686 0.36666667 0.054411765
0.36127451 0.3627451 0.050061275
0.50465686 0.36519608 0.043627451
0.63333333 0.36366422 0.067585784
0.76115196 0.36519608 0.04252451
0.87775735 0.36666667 0.039522059
0.98921569 0.36519608 0.018627451
0.021568627 0.51372549 0.094117647
0.070343137 0.50980392 0.092401961
0.22254902 0.50588235 0.070588235
0.36789216 0.50588235 0.070588235
0.50588235 0.50588235 0.065686275
0.63259804 0.50196078 0.079166667
0.75294118 0.49803922 0.076470588
0.87598039 0.49803922 0.064215686
0.95294118 0.49411765 0.052941176
0.0093137255 0.64509804 0.084803922
0.059129902 0.64479167 0.087561275
0.21262255 0.64117647 0.08627451
0.36911765 0.63817402 0.078431373
0.50857843 0.6372549 0.078431373
0.63333333 0.63333333 0.08627451
0.75294118 0.63333333 0.087377451
0.87598039 0.6372549 0.078125
0.95441176 0.63088235 0.066666667
0.032352941 0.76470588 0.073529412
0.090318627 0.76764706 0.077818627
0.23235294 0.76151961 0.072794118
0.3745098 0.75980392 0.066053922
0.51029412 0.75686275 0.075
0.63333333 0.75686275 0.09375
0.75686275 0.75686275 0.067892157
0.87205882 0.76078431 0.061764706
0.97254902 0.75686275 0.053921569
0.093137255 0.87254902 0.05
0.16764706 0.87604167 0.040502451
0.27892157 0.87205882 0.018504902
0.39803922 0.86862745 0.044607843
0.52156863 0.86862745 0.024754902
0.64509804 0.86862745 0.040686275
0.76470588 0.87254902 0.023529412
0.86421569 0.86770833 0.019117647
0.97254902 0.86813725 0.026960784
0.16470588 0.98431373 0.078431373
0.19460784 0.98872549 0.074509804
0.29411765 0.95980392 0.059803922
0.41127451 0.98578431 0.069117647
0.52745098 0.98823529 0.066666667
0.64509804 0.99166667 0.045588235
0.75196078 0.9754902 0.065686275
0.86078431 0.97647059 0.054901961
0.99215686 0.99607843 0.0078431373
0.012745098 0.013235294 0.10490196
0.11574755 0.022732843 0.11182598
0.21311275 0.0083333333 0.092647059
0.35098039 0.02745098 0.092647059
0.5 0.028921569 0.084558824
0.6346201 0.024019608 0.07745098
0.76862745 0.011887255 0.064338235
0.88033088 0.017279412 0.060845588
0.99460784 0.0014705882 0.046568627
0.058823529 0.1127451 0.11617647
0.13534773 0.10876225 0.11531097
0.22863051 0.11176471 0.10796569
0.35490196 0.11525735 0.1004902
0.4995098 0.10291054 0.086734069
0.6372549 0.10441176 0.084375
0.76862745 0.10441176 0.077328431
0.88382353 0.097112439 0.065249694
0.96905637 0.10441176 0.068627451
0.067156863 0.23039216 0.11911765
0.125 0.23137255 0.12046569
0.22058824 0.23140319 0.11516544
0.35882353 0.23492647 0.10929841
0.49803922 0.23112745 0.099571078
0.63480392 0.22166054 0.096737132
0.7614277 0.22064951 0.089185049
0.87340686 0.22777267 0.088235294
0.97009804 0.22254902 0.087745098
0.036764706 0.37303922 0.13057598
0.057720588 0.37058824 0.12649357
0.21470588 0.3665288 0.12401961
0.35863971 0.36911765 0.11929381
0.50196078 0.36911765 0.11479779
0.63333333 0.36245404 0.11539522
0.75886949 0.3627451 0.10061275
0.87647059 0.36666667 0.10447304
0.98431373 0.36666667 0.093137255
0.017647059 0.50980392 0.14019608
0.068596814 0.50787377 0.13428309
0.21862745 0.50759804 0.12843137
0.3627451 0.50784314 0.12647059
0.50294118 0.50698529 0.12843137
0.63342525 0.49834559 0.12009804
0.75294118 0.49675245 0.12205882
0.87647059 0.5002451 0.1122549
0.95612745 0.4997549 0.10857843
0.013235294 0.646875 0.12843137
0.056518076 0.64268536 0.12843137
0.21041667 0.6432598 0.13235294
0.37058824 0.64117647 0.13461244
0.50980392 0.63921569 0.13161765
0.63333333 0.62860754 0.12192862
0.75655637 0.62941176 0.12000613
0.87598039 0.63480392 0.11176471
0.94264706 0.62941176 0.10753676
0.040073529 0.76764706 0.12352941
0.086596201 0.76470588 0.13411458
0.23520221 0.76335784 0.12794118
0.37931985 0.76078431 0.12322304
0.50980392 0.76078431 0.1158701
0.63333333 0.76078431 0.09888174
0.75686275 0.75980392 0.10723039
0.87205882 0.75943627 0.10272672
0.95245098 0.75588235 0.09129902
0.078921569 0.87205882 0.12794118
0.14460784 0.87560509 0.12439491
0.2754902 0.87254902 0.12477022
0.39852941 0.87254902 0.11952359
0.52178309 0.87254902 0.11519608
0.64150582 0.87254902 0.11074602
0.76078431 0.87205882 0.095971201
0.8642693 0.86862745 0.080277267
0.97653186 0.86862745 0.049387255
0.14558824 0.96078431 0.1627451
0.20245098 0.97947304 0.15588235
0.29803922 0.98995098 0.13970588
0.41372549 0.96470588 0.15539216
0.53112745 0.97279412 0.15122549
0.65165441 0.95980392 0.13333333
0.75588235 0.97696078 0.13137255
0.86078431 0.96868873 0.11268382
0.97941176 0.96470588 0.1004902
0.057843137 0.011764706 0.22058824
0.10784314 0.0078431373 0.21568627
0.21642157 0.01495098 0.21495098
0.36066176 0.0030637255 0.19816176
0.5 0.022058824 0.19215686
0.63835784 0.01629902 0.18615196
0.76078431 0.012745098 0.18357843
0.87512255 0.023529412 0.18431373
0.97254902 0.015686275 0.17647059
0.073161765 0.10784314 0.23039216
0.1245098 0.11090686 0.22732843
0.22735907 0.10833333 0.21568627
0.35831801 0.10833333 0.20945159
0.50147059 0.10435049 0.21084559
0.64117647 0.107981 0.20387561
0.76470588 0.10441176 0.19987745
0.88033088 0.1004902 0.19439338
0.97634804 0.096568627 0.18039216
0.084558824 0.23039216 0.23137255
0.12107843 0.22745098 0.23529412
0.22616422 0.22591912 0.22352941
0.36265319 0.22325368 0.22300858
0.50392157 0.22267157 0.22463235
0.63872549 0.22144608 0.21559436
0.76133578 0.21960784 0.20386029
0.87218137 0.22276348 0.19957108
0.97132353 0.21862745 0.1879902
0.043137255 0.36666667 0.23823529
0.052956495 0.36911765 0.23039216
0.21580882 0.36519608 0.23921569
0.36196385 0.36556373 0.23990502
0.50392157 0.36164216 0.23406863
0.63374694 0.35735294 0.22414216
0.76078431 0.35772059 0.20784314
0.87340686 0.37089461 0.21144301
0.95735294 0.37414216 0.2057598
0.01372549 0.50588235 0.24362745
0.071262255 0.50588235 0.24215686
0.21666667 0.50980392 0.23431373
0.36758578 0.50410539 0.23118873
0.50735294 0.50122549 0.23112745
0.63645833 0.49607843 0.22205882
0.76458333 0.50343137 0.20919118
0.87647059 0.50416667 0.22622549
0.9745098 0.50588235 0.22401961
0.025 0.64264706 0.25392157
0.07254902 0.64509804 0.25004596
0.20784314 0.64117647 0.23903186
0.37262561 0.6372549 0.23713235
0.50919118 0.6372549 0.23449755
0.63517157 0.63033088 0.23270527
0.75686275 0.62941176 0.225
0.87628676 0.6372549 0.22945772
0.97009804 0.63333333 0.21421569
0.055882353 0.76862745 0.25882353
0.09129902 0.76507353 0.25784314
0.22996324 0.76207108 0.24632353
0.37512255 0.76078431 0.24240196
0.51323529 0.76078431 0.24779412
0.63333333 0.76078431 0.24497549
0.75294118 0.76078431 0.24215686
0.8685049 0.76078431 0.21920956
0.96544118 0.75686275 0.20392157
0.098897059 0.88296569 0.26580882
0.15234375 0.87647059 0.26311275
0.27107843 0.87647059 0.2622549
0.39852941 0.87647059 0.26311275
0.52377451 0.87469363 0.26188725
0.64031863 0.87598039 0.25784314
0.75367647 0.87542892 0.24552696
0.863894 0.87645527 0.2338848
0.96127451 0.87647059 0.22389706
0.14117647 0.97941176 0.28235294
0.20637255 0.98088235 0.27757353
0.30514706 0.98039216 0.2745098
0.41764706 0.96911765 0.27843137
0.53186275 0.95392157 0.27058824
0.64509804 0.98884804 0.26237745
0.75588235 0.9747549 0.25784314
0.86029412 0.97769608 0.24963235
0.99117647 0.99411765 0.24607843
0.026470588 0.011764706 0.3627451
0.10833333 0.015379902 0.35490196
0.21715686 0.012132353 0.35098039
0.35735294 0.0078431373 0.34221814
0.50588235 0.01495098 0.33382353
0.63872549 0.040196078 0.32990196
0.76862745 0.011764706 0.32205882
0.88039216 0.015992647 0.31942402
0.98431373 0.029901961 0.31421569
0.07567402 0.10784314 0.36911765
0.11617647 0.10553768 0.36535692
0.22352941 0.10833333 0.35476409
0.36519608 0.10258119 0.3495098
0.50768995 0.10392157 0.34696691
0.63952972 0.10703891 0.34155178
0.76862745 0.097533701 0.33511029
0.88039216 0.092647059 0.32745098
0.98756127 0.092156863 0.31942402
0.10159314 0.23039216 0.36629902
0.11956189 0.22712929 0.36616115
0.22754289 0.22699142 0.36222426
0.36873468 0.22071078 0.35845588
0.50906863 0.21617647 0.35582108
0.64250919 0.22058824 0.34928002
0.76862745 0.21960784 0.33921569
0.88025429 0.22254902 0.33743873
0.97267157 0.21862745 0.32990196
0.027941176 0.3721201 0.38333333
0.064276961 0.36992188 0.3778799
0.21917892 0.36911765 0.37257966
0.36911765 0.36366422 0.36946232
0.50980392 0.35416667 0.3661152
0.64117647 0.35643382 0.35758272
0.76470588 0.36058517 0.34143689
0.87647059 0.36519608 0.33921569
0.97598039 0.36574755 0.33921569
0.015686275 0.50980392 0.39338235
0.064552696 0.50808824 0.38627451
0.20686275 0.50588235 0.37696078
0.36911765 0.50073529 0.37496936
0.51176471 0.49803922 0.37120098
0.64090074 0.49926471 0.36295956
0.76078431 0.50318627 0.34779412
0.88023897 0.50588235 0.3502451
0.98039216 0.50392157 0.34828431
0.013235294 0.64509804 0.39411765
0.046859681 0.64117647 0.38872549
0.19803922 0.63895527 0.38494179
0.36911765 0.63333333 0.38088235
0.50980392 0.63333333 0.37889093
0.6372549 0.6372549 0.37359069
0.75686275 0.6372549 0.36366422
0.87628676 0.63694853 0.35882353
0.97408088 0.63333333 0.35735294
0.059803922 0.76862745 0.39865196
0.076547181 0.76416973 0.39473039
0.22279412 0.75686275 0.38909314
0.37732843 0.75686275 0.38688725
0.51372549 0.75686275 0.38517157
0.6372549 0.76078431 0.38235294
0.75686275 0.76332721 0.37285539
0.8676011 0.76078431 0.35863971
0.96078431 0.75686275 0.35735294
0.10637255 0.88382353 0.40459559
0.16685049 0.87620251 0.40196078
0.27107843 0.87254902 0.40013787
0.39675245 0.87254902 0.40196078
0.52156863 0.87058824 0.39568015
0.64117647 0.87598039 0.39442402
0.7564185 0.87990196 0.38440564
0.86078431 0.87990196 0.37277114
0.95294118 0.87647059 0.36960784
0.14117647 0.98186275 0.40980392
0.20637255 0.97254902 0.40980392
0.30404412 0.97928922 0.41164216
0.40980392 0.99025735 0.40680147
0.52941176 0.9627451 0.40588235
0.64362745 0.97156863 0.40441176
0.75196078 0.98541667 0.39656863
0.86078431 0.98480392 0.39019608
0.95539216 0.98823529 0.38480392
0.029411765 0.015686275 0.5
0.10441176 0.011519608 0.49019608
0.21176471 0.012254902 0.48480392
0.36127451 0.0125 0.47647059
0.50980392 0.018627451 0.47058824
0.64117647 0.035784314 0.46666667
0.76862745 0.015686275 0.46029412
0.88602941 0.021568627 0.45490196
0.98039216 0.031372549 0.44705882
0.083333333 0.10441176 0.50563725
0.11004902 0.10413603 0.5002451
0.21960784 0.10827206 0.48848039
0.36789216 0.10401348 0.48235294
0.5127451 0.1002451 0.48223039
0.64469975 0.1004902 0.48014706
0.7723652 0.096568627 0.47444853
0.88431373 0.096568627 0.46424632
0.97843137 0.096323529 0.45661765
0.083823529 0.22303922 0.50343137
0.11133578 0.23088235 0.50196078
0.21776961 0.22647059 0.49705882
0.36397059 0.22800245 0.49705882
0.51176471 0.22254902 0.49166667
0.64748775 0.22352941 0.49001225
0.77401961 0.21997549 0.48223039
0.88645833 0.21862745 0.4745098
0.98431373 0.21470588 0.46666667
0.036764706 0.37303922 0.51617647
0.067003676 0.36920956 0.50980392
0.21470588 0.36789216 0.50710784
0.36519608 0.36443015 0.50710784
0.50723039 0.36127451 0.50416667
0.64583333 0.36004902 0.49776348
0.77113971 0.36164216 0.48578431
0.88210784 0.36519608 0.47647059
0.98431373 0.36127451 0.4745098
0.019607843 0.5 0.51372549
0.021568627 0.50772059 0.51887255
0.20833333 0.50392157 0.51568627
0.36519608 0.50196078 0.51409314
0.50490196 0.49803922 0.50980392
0.63933824 0.50134804 0.50085784
0.76544118 0.50392157 0.49093137
0.87634804 0.50490196 0.48529412
0.97254902 0.49803922 0.48235294
0.02622549 0.63406863 0.52156863
0.052205882 0.63416054 0.51969975
0.209375 0.63406863 0.52034314
0.36666667 0.63480392 0.51764706
0.50526961 0.63333333 0.51372549
0.6372549 0.63333333 0.50542279
0.76078431 0.63694853 0.4966299
0.87254902 0.63177083 0.49411765
0.9745098 0.63210784 0.49289216
0.050980392 0.76470588 0.53333333
0.10980392 0.76078431 0.52941176
0.23529412 0.75294118 0.5254902
0.38180147 0.75667892 0.52205882
0.51421569 0.76078431 0.51789216
0.6372549 0.75686275 0.51317402
0.76078431 0.76078431 0.50514706
0.86862745 0.75686275 0.49852941
0.96960784 0.75294118 0.50196078
0.11078431 0.87818627 0.53333333
0.17573529 0.87276348 0.53333333
0.27334559 0.87230392 0.53333333
0.39675245 0.87254902 0.52974877
0.5254902 0.87732843 0.52573529
0.64509804 0.87598039 0.521875
0.75686275 0.87647059 0.51550245
0.86400123 0.87647059 0.5120098
0.96813725 0.87254902 0.50980392
0.1372549 0.99411765 0.54313725
0.20245098 0.97426471 0.5370098
0.29803922 0.98235294 0.54068627
0.41053922 0.97573529 0.54117647
0.52941176 0.98627451 0.53529412
0.64754902 0.97254902 0.53333333
0.75588235 0.98039216 0.53235294
0.85686275 0.98946078 0.52156863
0.98235294 0.98627451 0.51764706
0.047058824 0.0078431373 0.62941176
0.10392157 0.013051471 0.6254902
0.21384804 0.010661765 0.61973039
0.35735294 0.015686275 0.61127451
0.50710784 0.023529412 0.60196078
0.64117647 0.02689951 0.59803922
0.76862745 0.014215686 0.59019608
0.89166667 0.0056985294 0.58449755
0.99362745 0.0024509804 0.58235294
0.072732843 0.10833333 0.62922794
0.11502757 0.11221661 0.62726716
0.21568627 0.11181066 0.62156863
0.36127451 0.11176471 0.61745558
0.50971201 0.10784314 0.6104473
0.64509804 0.10392157 0.60980392
0.77254902 0.10473346 0.60183824
0.88807445 0.10784314 0.59207261
0.97910539 0.10441176 0.58578431
0.077941176 0.22291667 0.63296569
0.12147672 0.22745098 0.62941176
0.21194853 0.23137255 0.6254902
0.36219363 0.23137255 0.6254902
0.50814951 0.23137255 0.6245098
0.64509804 0.22352941 0.61764706
0.77254902 0.21960784 0.60955882
0.88431373 0.21960784 0.60196078
0.98676471 0.21323529 0.59705882
0.050980392 0.36911765 0.64117647
0.088235294 0.36911765 0.64025735
0.20931373 0.36450674 0.6372549
0.36127451 0.36427696 0.6372549
0.50542279 0.3627451 0.63259804
0.64601716 0.35735294 0.62493873
0.77438725 0.36150429 0.61372549
0.88726256 0.36519608 0.60668658
0.97947304 0.36127451 0.60196078
0.035294118 0.50980392 0.64656863
0.041421569 0.50588235 0.64656863
0.21758578 0.50245098 0.64509804
0.36320466 0.50045956 0.6372549
0.5 0.49803922 0.63455882
0.63921569 0.49653799 0.62941176
0.76666667 0.50392157 0.61764706
0.88014706 0.50652574 0.60980392
0.96470588 0.5 0.60784314
0.044669118 0.63780637 0.64810049
0.069477635 0.63732384 0.64901961
0.22218137 0.6372549 0.64509804
0.37150735 0.6372549 0.64509804
0.50588235 0.63333333 0.64025735
0.63333333 0.62941176 0.63390778
0.75686275 0.63333333 0.62510723
0.87254902 0.6372549 0.6221201
0.95931373 0.63180147 0.62303922
0.045098039 0.76470588 0.65686275
0.089705882 0.76078431 0.65261949
0.22671569 0.75980392 0.64509804
0.37663909 0.76078431 0.64901961
0.50925245 0.76078431 0.64901961
0.63823529 0.75686275 0.64140625
0.76078431 0.75340074 0.63360907
0.86855086 0.75588235 0.62977941
0.96176471 0.75477941 0.63333333
0.11574755 0.87383578 0.65863971
0.15089614 0.87644761 0.65297947
0.26861213 0.86470588 0.65294118
0.39411765 0.8723652 0.65686275
0.52156863 0.87990196 0.65416667
0.64509804 0.87469363 0.64901961
0.75980392 0.8723652 0.64509804
0.86813725 0.87254902 0.64117647
0.971875 0.87254902 0.6372549
0.1372549 0.98431373 0.66617647
0.19852941 0.97892157 0.66323529
0.29509804 0.97316176 0.66470588
0.40588235 0.975 0.66470588
0.5254902 0.98112745 0.65686275
0.64509804 0.97346814 0.65447304
0.75588235 0.97647059 0.64865196
0.86421569 0.98057598 0.64509804
0.97941176 0.98578431 0.64509804
0.025490196 0.010784314 0.74901961
0.1122549 0.015686275 0.74031863
0.21985294 0.020343137 0.73333333
0.35343137 0.015073529 0.73235294
0.50147059 0.013235294 0.7254902
0.64117647 0.026470588 0.71727941
0.76862745 0.012009804 0.70980392
0.88823529 0.023651961 0.70196078
0.9754902 0.023529412 0.69411765
0.053431373 0.10306373 0.74901961
0.12745098 0.10833333 0.74541973
0.22352941 0.10719975 0.74117647
0.35863971 0.10994179 0.7372549
0.50386029 0.10808824 0.73131127
0.64117647 0.10145527 0.72317708
0.76862745 0.10505515 0.71731005
0.8838848 0.11176471 0.70980392
0.96862745 0.11176471 0.70196078
0.058088235 0.23039216 0.75294118
0.10882353 0.23137255 0.75294118
0.21495098 0.22334559 0.74901961
0.3627451 0.22619485 0.74877451
0.50392157 0.22745098 0.74105392
0.64117647 0.22144608 0.73471201
0.76862745 0.21568627 0.7252451
0.88103554 0.22745098 0.72156863
0.9754902 0.23137255 0.71764706
0.016176471 0.36911765 0.76470588
0.067647059 0.36666667 0.76269914
0.21397059 0.36191789 0.75686275
0.36519608 0.35882353 0.75363051
0.50588235 0.35882353 0.74901961
0.6432598 0.35735294 0.74117647
0.7689951 0.36127451 0.73688725
0.8877451 0.36648284 0.73296569
0.98872549 0.36335784 0.7254902
0.029411765 0.50735294 0.76617647
0.03682598 0.50784314 0.76862745
0.21372549 0.50392157 0.76041667
0.36697304 0.4966299 0.75496324
0.50416667 0.49411765 0.74901961
0.6372549 0.49411765 0.74117647
0.7627451 0.50196078 0.74117647
0.88382353 0.50545343 0.7370098
0.975 0.50196078 0.72941176
0.023039216 0.64117647 0.76470588
0.072135417 0.64117647 0.76484375
0.22273284 0.64056373 0.76078431
0.37428002 0.6372549 0.76078431
0.51372549 0.63210784 0.7526348
0.63333333 0.62941176 0.74901961
0.75686275 0.63333333 0.75012255
0.87250306 0.6372549 0.74606311
0.96078431 0.6372549 0.74056373
0.044362745 0.76078431 0.77156863
0.098069853 0.7606924 0.76862745
0.23995098 0.76317402 0.76470588
0.38606005 0.76372549 0.76470588
0.51813725 0.76078431 0.76078431
0.64117647 0.75477941 0.75686275
0.76023284 0.75294118 0.76078431
0.86813725 0.75588235 0.75294118
0.95171569 0.75294118 0.74583333
0.095098039 0.87254902 0.77941176
0.15686275 0.86960784 0.77259498
0.27463235 0.86822917 0.77254902
0.39834559 0.87647059 0.77169118
0.52205882 0.87616422 0.76770833
0.64509804 0.87254902 0.76470588
0.76078431 0.87215074 0.76470588
0.86824449 0.86470588 0.75958946
0.96421569 0.86470588 0.74938725
0.13823529 0.96666667 0.78431373
0.20343137 0.97745098 0.78039216
0.29411765 0.98039216 0.78112745
0.40625 0.98492647 0.7814951
0.5254902 0.9754902 0.77254902
0.64117647 0.98088235 0.76862745
0.75294118 0.98333333 0.76470588
0.86556373 0.97254902 0.76372549
0.95980392 0.96666667 0.76078431
0.043627451 0.020098039 0.86078431
0.11617647 0.019607843 0.8533701
0.22058824 0.023529412 0.84865196
0.3495098 0.023529412 0.84460784
0.49607843 0.016176471 0.8370098
0.63480392 0.0093137255 0.83155637
0.76421569 0.02745098 0.82928922
0.88823529 0.032291667 0.825
0.95686275 0.035784314 0.81372549
0.062254902 0.10398284 0.86378676
0.12439491 0.10441176 0.86078431
0.22676164 0.10392157 0.85294118
0.35471814 0.10042892 0.85014553
0.4995098 0.10021446 0.8408701
0.6372549 0.096262255 0.83284314
0.76470588 0.10359988 0.82892157
0.88474265 0.10735294 0.8258655
0.97261029 0.10441176 0.82150735
0.058946078 0.23137255 0.86862745
0.10716912 0.22745098 0.87120098
0.21963848 0.21896446 0.8643076
0.36465993 0.21839767 0.86078431
0.50588235 0.21954657 0.85416667
0.64264706 0.2230239 0.84428615
0.77147672 0.21568627 0.84105392
0.89068627 0.22003676 0.83065257
0.97291667 0.23088235 0.83590686
0.026776961 0.36911765 0.87647059
0.067608762 0.36666667 0.87297794
0.22254902 0.3615962 0.86862745
0.36911765 0.35735294 0.86685049
0.50588235 0.3627451 0.86461397
0.64509804 0.36127451 0.85679381
0.77254902 0.36127451 0.85268076
0.88792892 0.36519608 0.84883578
0.97205882 0.36666667 0.84332108
0.025 0.50980392 0.87598039
0.033057598 0.50784314 0.87818627
0.21366422 0.50196078 0.87230392
0.37040441 0.5 0.86862745
0.50980392 0.50012255 0.86262255
0.64117647 0.49803922 0.85686275
0.7627451 0.50588235 0.8564951
0.88336397 0.50634191 0.85594363
0.96029412 0.50196078 0.84681373
0.033333333 0.63872549 0.86648284
0.058984375 0.63088235 0.87009804
0.21617647 0.63743873 0.87247243
0.37273284 0.6372549 0.87627911
0.50980392 0.63333333 0.86847426
0.63241422 0.62941176 0.86599265
0.75686275 0.63333333 0.86599265
0.87050398 0.6372549 0.85798866
0.96599265 0.63333333 0.85422794
0.055882353 0.76078431 0.88039216
0.088235294 0.76067708 0.88382353
0.23627451 0.76470588 0.8796875
0.38275123 0.75984988 0.88016238
0.51764706 0.75704657 0.87297794
0.64117647 0.75317096 0.87241115
0.76078431 0.75407475 0.87276348
0.87205882 0.75686275 0.86781556
0.96470588 0.75294118 0.86029412
0.10294118 0.86862745 0.88474265
0.17941176 0.86862745 0.88382353
0.27892157 0.87207414 0.88382353
0.39803922 0.87248775 0.88382353
0.52356005 0.86884191 0.87622549
0.64901961 0.86889553 0.87598039
0.76732537 0.86556373 0.87598039
0.87254902 0.86470588 0.86819087
0.97555147 0.86372549 0.86421569
0.14166667 0.97941176 0.8877451
0.20637255 0.97647059 0.88823529
0.29803922 0.96911765 0.88823529
0.40588235 0.98039216 0.88823529
0.5254902 0.9629902 0.88406863
0.64362745 0.96991422 0.88039216
0.75992647 0.96213235 0.87647059
0.87555147 0.97248775 0.87990196
0.95588235 0.94754902 0.87205882
0 0 0.97647059
0.11176471 0.015686275 0.96078431
0.21078431 0.0029411765 0.96568627
0.35343137 0.015686275 0.94901961
0.49803922 0.011764706 0.93921569
0.63872549 0.015686275 0.94656863
0.75686275 0.02745098 0.92941176
0.88431373 0.031862745 0.92941176
0.94901961 0.035294118 0.9254902
0.07745098 0.1004902 0.96862745
0.11617647 0.097058824 0.965625
0.22438725 0.1004902 0.95588235
0.35471814 0.096568627 0.94344363
0.49779412 0.096568627 0.93063725
0.63480392 0.096078431 0.91813725
0.76078431 0.10012255 0.90098039
0.88039216 0.1 0.91421569
0.98676471 0.089215686 0.93235294
0.071568627 0.23039216 0.97254902
0.11617647 0.22352941 0.96519608
0.21960784 0.22352941 0.96446078
0.36237745 0.21286765 0.96078431
0.50588235 0.21715686 0.95490196
0.6372549 0.21470588 0.91519608
0.76470588 0.21666667 0.92867647
0.89215686 0.21029412 0.93112745
0.98137255 0.21568627 0.93823529
0.026470588 0.36519608 0.98431373
0.083333333 0.36305147 0.97303922
0.21078431 0.36164216 0.97806373
0.36519608 0.35490196 0.95140931
0.50588235 0.3620098 0.96593137
0.63872549 0.36427696 0.95147059
0.76862745 0.36127451 0.94105392
0.88431373 0.36127451 0.94362745
0.9622549 0.3627451 0.95147059
0.011764706 0.50588235 0.98431373
0.054411765 0.50980392 0.94068627
0.21078431 0.50392157 0.97009804
0.3627451 0.50122549 0.96348039
0.50196078 0.50490196 0.96176471
0.6372549 0.50196078 0.96470588
0.76127451 0.50343137 0.94852941
0.88333333 0.49803922 0.9625
0.92745098 0.49803922 0.94901961
0.015686275 0.64117647 0.97647059
0.071078431 0.64117647 0.96881127
0.21715686 0.64154412 0.96470588
0.36366422 0.63872549 0.97794118
0.50196078 0.63333333 0.96348039
0.63425245 0.63333333 0.97892157
0.75686275 0.63333333 0.97156863
0.87254902 0.62941176 0.95294118
0.97941176 0.63333333 0.97009804
0.045098039 0.75980392 0.9754902
0.10208333 0.76078431 0.97941176
0.24338235 0.76372549 0.97941176
0.37732843 0.76078431 0.97401961
0.5122549 0.76078431 0.98088235
0.6372549 0.7564951 0.97254902
0.75980392 0.75612745 0.97647059
0.87205882 0.75686275 0.96482843
0.96960784 0.75686275 0.96666667
0.099019608 0.86421569 0.96078431
0.16813725 0.87254902 0.97297794
0.275 0.87340686 0.9754902
0.40196078 0.86862745 0.99025735
0.52156863 0.87622549 0.97254902
0.64117647 0.87469363 0.97254902
0.76458333 0.8682598 0.96960784
0.86862745 0.86813725 0.97261029
0.94460784 0.86421569 0.97696078
0.16470588 0.94509804 0.97254902
0.19558824 0.9872549 0.99509804
0.29411765 0.98137255 0.97647059
0.40980392 0.99460784 0.99852941
0.5254902 0.97843137 0.98039216
0.64117647 0.97990196 0.98137255
0.75882353 0.96862745 0.9754902
0.86862745 0.97254902 0.98039216
0.99215686 0.99215686 0.99215686
