site/assets/luts/sha256-2b7ae58501aa6bf48a019ac58f69f228d2b33ecafefcc2548ef07a085e769064.cube
# LUTr-Schema-Version: 2
# LUTr-ID: sha256-2b7ae58501aa6bf48a019ac58f69f228d2b33ecafefcc2548ef07a085e769064
# LUTr-Title: cividis lut
# LUTr-Collection: Colour-Blind LUTs
# LUTr-Collection-ID: andrewwillmott-colour-blind-luts
# LUTr-Source: https://github.com/andrewwillmott/colour-blind-luts
# LUTr-Retrieved: 2026-07-27
# LUTr-Source-File: submissions/andrewwillmott-colour-blind-luts/luts/cividis_lut.png
# LUTr-Source-Format: HALD-PNG
# LUTr-Source-SHA256: 2b7ae58501aa6bf48a019ac58f69f228d2b33ecafefcc2548ef07a085e769064
# LUTr-License: Unlicense
# LUTr-License-URL: https://github.com/andrewwillmott/colour-blind-luts/blob/master/LICENSE
# LUTr-License-Basis: repo-license-file
# LUTr-Transform-Class: accessibility
# LUTr-Tags: technical, accessibility, color-vision, simulation, correction, png, cube
# LUTr-Input-Color-Space: srgb
# LUTr-Input-Gamut: rec709
# LUTr-Input-Transfer: srgb
# LUTr-Output-Color-Space: srgb
# LUTr-Output-Gamut: rec709
# LUTr-Output-Transfer: srgb
# LUTr-Color-Space-Confidence: assumed-display-referred
# LUTr-Domain-Normalized: true
# LUTr-Shaper: none
# LUTr-Original-Grid: 256
# LUTr-Conversion-Grid: 32x32x32
# LUTr-Conversion-Interpolation: linear
# LUTr-Conversion-Method: HALD-PNG LUT image decoded at 16-bit and sampled to 32x32x32 3D CUBE
# LUTr-Conversion-Tool: LUTr scripts/convert-all-to-cube.mjs 2.0.0
# LUTr-Conversion-Date: 2026-07-27
# LUTr-Conversion-Warning: Source is a 256-sample false-colour ramp; converted as Rec.709 luminance to RGB.
# LUTr-Note: Preserve this metadata and the upstream license notices when redistributing.
TITLE "cividis lut"
LUT_3D_SIZE 32
DOMAIN_MIN 0 0 0
DOMAIN_MAX 1 1 1
0.000091554131 0.12498665 0.29698634
0.000049610034 0.12788879 0.31062994
0.0000076659357 0.13470491 0.32032911
0.000042016947 0.13766065 0.33304888
0.00010644891 0.14443866 0.34376336
0.000046141313 0.14839399 0.35455839
0.000099292917 0.154233 0.36718249
0.000068920572 0.1571274 0.38082992
0.000091117034 0.16401215 0.39063973
0.000065014754 0.16691032 0.40428081
0.00012988381 0.17374546 0.41796635
0.000053807249 0.17667148 0.42684033
0.00013580136 0.17965929 0.43363532
0.000076295109 0.18355077 0.4337377
0.000077315003 0.18931445 0.43364716
0.000045777066 0.19223598 0.43273023
0.00015055043 0.19910054 0.42980087
0.000091554131 0.20309758 0.42973983
0.013390457 0.20884326 0.42976305
0.042699682 0.21483871 0.42582173
0.070016514 0.21866045 0.425908
0.087746121 0.22262493 0.4258793
0.10532063 0.2283555 0.42188706
0.11901441 0.23436839 0.42191363
0.13269492 0.23815686 0.42199958
0.14637983 0.24217167 0.42194247
0.15606814 0.24788461 0.42006571
0.16885917 0.25387764 0.41804478
0.17950493 0.2576864 0.41796191
0.18922058 0.26450858 0.4180276
0.19717944 0.26742708 0.41798929
0.20789146 0.27344068 0.41795111
0.000032301873 0.14012828 0.33546793
0.000097170928 0.14694485 0.34877641
0.00005956433 0.14988116 0.35850157
0.000089577842 0.15621594 0.37217966
0.000049490423 0.15963389 0.3858429
0.000081984756 0.16401147 0.39561454
0.000089718126 0.16939784 0.40926196
0.00011445842 0.17576677 0.42244117
0.0000343771 0.17913911 0.42925938
0.000099345093 0.18208134 0.43372041
0.000087622226 0.18498932 0.43371504
0.000045777066 0.19133288 0.43361563
0.000045777066 0.19471332 0.43030146
0.00011489551 0.2015979 0.42976318
0.0015451384 0.20452321 0.42975102
0.025356341 0.21132144 0.4293016
0.052628489 0.21485814 0.42583145
0.077561952 0.2211191 0.42589112
0.094145167 0.22403067 0.42442259
0.1102647 0.2308493 0.42192721
0.12393024 0.23433924 0.42187477
0.13769022 0.24063551 0.4219664
0.14991764 0.24356441 0.42193158
0.16108281 0.25035707 0.41798319
0.17136566 0.2539165 0.41802535
0.18205861 0.26015454 0.41794146
0.19282936 0.26562368 0.41803445
0.20009371 0.26991722 0.41799949
0.21040767 0.27339211 0.41797054
0.21725194 0.27967059 0.41803304
0.22792724 0.28516526 0.41800099
0.2348056 0.28944229 0.41793228
0.000079862767 0.15618679 0.37711492
0.000069352255 0.16214038 0.38879698
0.000072269681 0.16503129 0.40059531
0.00013713874 0.17186643 0.41427359
0.000075598117 0.17575705 0.42498652
0.000085016871 0.17964478 0.43175629
0.000076295109 0.18355077 0.4337377
0.00010633471 0.18745719 0.43367618
0.000045777066 0.19133288 0.43361563
0.000099765946 0.19722151 0.42980087
0.000091554131 0.20309758 0.42973983
0.004118661 0.20700051 0.4297703
0.035285147 0.21384736 0.42679511
0.062580214 0.21681045 0.42587172
0.084038853 0.22261768 0.4258793
0.10163549 0.22649829 0.42185781
0.11529711 0.23337522 0.42192721
0.12893687 0.23628508 0.42193428
0.14267257 0.24216441 0.42194247
0.1523367 0.24604176 0.42191215
0.16600836 0.25285385 0.41803176
0.17578316 0.25583639 0.41799093
0.18546253 0.26263681 0.4179623
0.19528728 0.26561397 0.41797616
0.20501926 0.2724237 0.41796063
0.21288676 0.27530275 0.41798997
0.22066418 0.28216482 0.41803707
0.23039487 0.28514583 0.41802042
0.23733152 0.29192935 0.41795171
0.2459779 0.29483069 0.41796099
0.25484883 0.30168461 0.41797042
0.26171649 0.30464828 0.41803553
0.00012742366 0.17438264 0.41921857
0.000048886953 0.17729635 0.4274529
0.0001283648 0.18023133 0.43369865
0.000076295109 0.18355077 0.4337377
0.00006747441 0.18994425 0.43363732
0.000045777066 0.19286331 0.4321152
0.00014391522 0.19973338 0.42979219
0.000091554131 0.20309758 0.42973983
0.016534526 0.20946814 0.42976059
0.045213954 0.21484363 0.42582419
0.071997424 0.2192836 0.42590563
0.089003257 0.22262739 0.4258793
0.10656792 0.2289853 0.42189936
0.12025925 0.23436101 0.42190379
0.13396119 0.2387855 0.42199542
0.14763697 0.24217413 0.42194247
0.15734249 0.24850949 0.41943099
0.16949389 0.25388748 0.41803986
0.18025214 0.25831179 0.41795597
0.19049493 0.2651433 0.41804974
0.19782154 0.26805688 0.41799421
0.20852864 0.27342838 0.41795603
0.21536566 0.27781333 0.41801128
0.22558972 0.28467131 0.41799821
0.23291932 0.28757924 0.41796408
0.23981798 0.29295631 0.41797114
0.25045773 0.29733968 0.41793296
0.25731646 0.30421053 0.41799956
0.26418603 0.30709914 0.41797978
0.27100155 0.31247012 0.41793779
0.27782007 0.31687624 0.4180327
0.28461161 0.32370577 0.4179267
0.000092542522 0.1856142 0.4337052
0.000045777066 0.19133288 0.43361563
0.00004898146 0.19534249 0.42980087
0.00010505492 0.20223016 0.42975333
0.0021847769 0.20515055 0.42975594
0.027870612 0.21196107 0.42866688
0.055143915 0.21496044 0.42583545
0.079448886 0.22174151 0.4258862
0.096041942 0.22465554 0.42377311
0.11153906 0.23148894 0.42192721
0.12517882 0.23441331 0.42186899
0.13895474 0.24126285 0.42195656
0.15053022 0.24419175 0.42192666
0.16233011 0.25098933 0.41799549
0.17206138 0.25398639 0.41801995
0.18267119 0.26077941 0.41793654
0.19345178 0.26562122 0.41801969
0.20134101 0.27055193 0.41798965
0.21104401 0.27342373 0.41797546
0.21789158 0.28030038 0.41804042
0.22855212 0.28516034 0.41800591
0.23544524 0.29007209 0.4179372
0.24229965 0.29295167 0.41799001
0.25298365 0.29981702 0.41795239
0.25983021 0.30469181 0.41802102
0.26665751 0.30959624 0.41793305
0.27350796 0.31249486 0.41800569
0.28029742 0.31931472 0.41801327
0.28712492 0.32420853 0.41792932
0.29396001 0.32908263 0.41798647
0.30080316 0.33200585 0.41792966
0.30760386 0.33888097 0.42087158
0.000091554131 0.20309758 0.42973983
0.0072627303 0.20762539 0.42976784
0.037799419 0.21448699 0.42616039
0.065101866 0.21743779 0.42588402
0.085295989 0.22262014 0.4258793
0.10288967 0.22712804 0.42186309
0.11657147 0.23401486 0.42192721
0.13021123 0.2369198 0.42195642
0.1439297 0.24216687 0.42194247
0.15358444 0.24666673 0.42130276
0.16725565 0.25348611 0.41804406
0.17704521 0.25646373 0.41798109
0.18673688 0.26327153 0.41798444
0.195928 0.26619961 0.4179797
0.20626655 0.27305842 0.41795079
0.21351164 0.27593993 0.41799489
0.22191147 0.28279954 0.41802723
0.23103304 0.28571473 0.41800761
0.23797116 0.29255915 0.41795663
0.24722519 0.29546787 0.41795115
0.25547371 0.30232424 0.4179778
0.26234327 0.30520561 0.41802331
0.26913485 0.31203472 0.4179039
0.27597559 0.31501107 0.41802512
0.28276886 0.32181224 0.41797023
0.28963635 0.32469874 0.41794875
0.29649564 0.33156969 0.41801562
0.30327073 0.33450849 0.41794868
0.31011424 0.34136609 0.42187784
0.31694555 0.34425321 0.42191523
0.32374944 0.35108442 0.42180881
0.33063301 0.35403818 0.42193114
0.073884357 0.21990602 0.42590071
0.090448393 0.22281279 0.42568841
0.10781522 0.2296151 0.42191167
0.12150408 0.23435363 0.42189395
0.1352257 0.23941284 0.42198558
0.14872374 0.24234175 0.42194117
0.15861685 0.24913436 0.41879627
0.17012861 0.25389732 0.41803494
0.18086471 0.25893666 0.41795105
0.19161628 0.26562848 0.41806322
0.19846364 0.26868667 0.41799913
0.20916582 0.27341608 0.41796095
0.2160053 0.27844312 0.41801866
0.22670937 0.28517485 0.4179914
0.23355896 0.2882115 0.41794932
0.2404404 0.29294893 0.41797606
0.25109736 0.29796702 0.41793788
0.25794393 0.30473534 0.41800651
0.2648109 0.30774124 0.41796502
0.27163627 0.31247504 0.41795501
0.27844741 0.31749374 0.41802778
0.28523864 0.32425206 0.41791481
0.29209426 0.32721495 0.41796818
0.29896766 0.33201311 0.41797319
0.3057466 0.33701646 0.41901432
0.31263816 0.34376993 0.42189727
0.31947147 0.34674998 0.42185694
0.32623336 0.35156836 0.4218603
0.33312009 0.35651714 0.42193438
0.33987341 0.36327239 0.42581784
0.34672324 0.36625401 0.42576447
0.35359642 0.37106109 0.42574091
0.12645318 0.23504803 0.42189113
0.14021925 0.24189019 0.42194672
0.1511428 0.24481909 0.42192174
0.1635774 0.25162159 0.41800779
0.17332344 0.25461372 0.41801011
0.18328377 0.26140429 0.41793162
0.1940742 0.26561876 0.41800493
0.2025883 0.27118665 0.41797981
0.21166889 0.27406091 0.41798038
0.21853122 0.28093018 0.4180478
0.229177 0.28515542 0.41801083
0.23608488 0.29070189 0.41794212
0.24354694 0.29358884 0.41798017
0.25362328 0.30044436 0.41795731
0.26046985 0.30467705 0.41802594
0.26728485 0.31021374 0.41792567
0.27413284 0.31313204 0.41801061
0.28092475 0.31993222 0.41800835
0.28776456 0.32419377 0.41793424
0.29460211 0.32971243 0.41799385
0.30142798 0.33262946 0.41793417
0.30823366 0.33951323 0.42150138
0.31509607 0.3437505 0.4219167
0.32193571 0.34923442 0.42182332
0.32873947 0.35218091 0.42191663
0.33553914 0.35898477 0.42191495
0.3423799 0.36331125 0.42579841
0.34923106 0.36872297 0.42576942
0.35606405 0.37164183 0.42570072
0.36286944 0.37852519 0.42924461
0.36973229 0.38280403 0.42969851
0.37265038 0.38829731 0.42969727
0.16825684 0.2538683 0.41804945
0.17830727 0.25709107 0.41797125
0.18801124 0.26390625 0.41800658
0.1965701 0.26682941 0.41798462
0.20728679 0.27345235 0.41794644
0.21413652 0.27657711 0.41799981
0.22315877 0.28343426 0.41801739
0.23167268 0.28634699 0.41799285
0.2386049 0.29297069 0.41796155
0.24847249 0.29610505 0.41794131
0.25609859 0.30296388 0.41798518
0.26296815 0.30584771 0.41800855
0.2697645 0.31246053 0.41790422
0.27660047 0.31564825 0.41803004
0.28339373 0.32245433 0.41795547
0.29025877 0.32533592 0.41795367
0.29713216 0.33202036 0.41801672
0.30389561 0.33514567 0.4179536
0.31075388 0.34199342 0.42188276
0.31758519 0.34488546 0.42190047
0.32436884 0.35155385 0.42180951
0.33127511 0.35466797 0.42193606
0.33801572 0.36146884 0.42401557
0.34487323 0.36443302 0.42577898
0.35175367 0.37106834 0.42578444
0.35853168 0.37416775 0.42572015
0.36538907 0.38101225 0.42966457
0.37110372 0.38391741 0.42970932
0.3751282 0.39073818 0.42980128
0.38198339 0.39456963 0.4335613
0.38874695 0.40052515 0.43354021
0.39557657 0.4034197 0.43467018
0.19910573 0.26931647 0.41800405
0.209803 0.27340378 0.41796587
0.21664493 0.27907292 0.41802604
0.22733424 0.28516993 0.41799632
0.2341986 0.28884376 0.41793456
0.24106281 0.29294155 0.41798098
0.251737 0.29859435 0.4179428
0.25858357 0.30472058 0.41801143
0.26543578 0.30838334 0.41795026
0.27227099 0.31247996 0.41797223
0.27907475 0.31811124 0.41802286
0.28587828 0.3242373 0.41791973
0.29271668 0.32785213 0.4179731
0.29959008 0.33201065 0.41795843
0.3063764 0.33764871 0.41964412
0.31326058 0.34376501 0.42190219
0.32011111 0.34738224 0.42184218
0.32686562 0.35157328 0.42187752
0.33373267 0.35714202 0.42192946
0.34050812 0.36328223 0.42581292
0.34735058 0.3668715 0.42575955
0.3542213 0.37105863 0.42572615
0.36101218 0.37666793 0.42738009
0.36789679 0.3828258 0.429684
0.37111344 0.38646276 0.42970932
0.37761526 0.39322524 0.43228834
0.38443264 0.39619863 0.43354187
0.39125771 0.40236009 0.43355964
0.39806362 0.40590676 0.43715724
0.4049358 0.41277862 0.43747647
0.40785059 0.41572425 0.43905529
0.41467461 0.42250195 0.44132634
0.22980187 0.2851505 0.41801575
0.23672452 0.29133169 0.41794704
0.24479424 0.29422602 0.41797033
0.25425584 0.3010776 0.41796341
0.26110949 0.30466228 0.41803086
0.26791218 0.31083124 0.41791829
0.27475771 0.31376922 0.41801553
0.28155098 0.3205608 0.417999
0.2884042 0.32417901 0.41793916
0.2952442 0.33034223 0.41800123
0.30205286 0.33326664 0.41793909
0.3088676 0.34014342 0.42186825
0.31571849 0.34374558 0.42192162
0.32255074 0.34986176 0.4218184
0.32938157 0.35281071 0.42192155
0.33615846 0.35961157 0.4221583
0.34301461 0.36332109 0.42579349
0.3498707 0.36935276 0.42577434
0.35668893 0.37228146 0.42570564
0.36350279 0.37915499 0.42965006
0.3703547 0.38279665 0.42970343
0.37327772 0.3889148 0.42969235
0.38011162 0.39454061 0.43357581
0.38686067 0.39866789 0.4335257
0.39372534 0.40234066 0.43357907
0.40058432 0.40839382 0.43751665
0.40624094 0.4141146 0.43744564
0.41033765 0.41820833 0.44135046
0.41713252 0.42501816 0.44134577
0.42400592 0.42796225 0.44535123
0.43082554 0.43360312 0.44532555
0.43374428 0.43767776 0.44924221
0.25672347 0.30360352 0.41799256
0.26359303 0.3064898 0.41799379
0.27039922 0.31246545 0.41792144
0.27722534 0.31628542 0.41803496
0.28401861 0.32309643 0.41794071
0.29088119 0.3259731 0.41795859
0.29775458 0.3320179 0.41800196
0.30452049 0.33578285 0.41795852
0.31139352 0.34262076 0.42188768
0.31822482 0.34551772 0.42188571
0.3250011 0.35155877 0.42182673
0.33191721 0.35529777 0.42194098
0.33864552 0.36209863 0.42464536
0.34550057 0.36505052 0.42577406
0.35237855 0.37106588 0.42576968
0.35915656 0.37480738 0.42572507
0.36602871 0.38164205 0.42966949
0.37110618 0.38456197 0.42970932
0.375758 0.39136798 0.43043108
0.38261811 0.39457947 0.43355638
0.38938659 0.40115495 0.43354513
0.39620636 0.4040495 0.43529998
0.40309305 0.41089234 0.43752
0.40624094 0.4141146 0.43744564
0.41282471 0.42065653 0.44133103
0.41964344 0.42581164 0.4430813
0.42647221 0.43045611 0.44535949
0.43333203 0.43364198 0.44530612
0.4362702 0.4401551 0.44926164
0.44309056 0.44534757 0.4508574
0.44987888 0.44995245 0.45381299
0.45677938 0.45678383 0.4570654
0.27970208 0.31872873 0.41801794
0.28651792 0.32422254 0.41792465
0.29335067 0.32848497 0.41797947
0.3002125 0.33200819 0.41794367
0.3070062 0.33828097 0.42027392
0.31388299 0.34376009 0.42190711
0.32073701 0.34801175 0.42183291
0.32749788 0.3515782 0.42189474
0.33434524 0.3577669 0.42192454
0.34114284 0.36329207 0.425808
0.34798442 0.3674955 0.42575983
0.35484618 0.37105617 0.42571139
0.36164197 0.37729773 0.42801235
0.36851921 0.38281842 0.42968892
0.37142771 0.38709382 0.42970686
0.37824506 0.39385504 0.43291814
0.38504521 0.3968235 0.43353695
0.39188259 0.40235517 0.43356456
0.39869804 0.40653656 0.43749488
0.40556068 0.41341826 0.43746171
0.40848039 0.41635404 0.43968509
0.41529702 0.42313913 0.44133126
0.42217042 0.42608322 0.44533672
0.42895927 0.43289459 0.44534006
0.43358302 0.43584092 0.44754219
0.43876707 0.4426615 0.44924233
0.44557459 0.44556538 0.45308816
0.45237565 0.45243951 0.45630005
0.45706874 0.45706874 0.45706874
0.46216258 0.46218642 0.46096551
0.46897969 0.4687609 0.46121098
0.47578243 0.47193348 0.4647956
0.30267774 0.33390382 0.41794401
0.30950724 0.34077076 0.42187317
0.31634091 0.34374066 0.42192654
0.32316578 0.35048909 0.42181348
0.33002367 0.35344051 0.42192647
0.33678826 0.36024137 0.4227881
0.34364933 0.36333093 0.42578857
0.35051034 0.36998256 0.42577926
0.35731381 0.3729211 0.42571056
0.36414243 0.37978479 0.42965498
0.37097712 0.38278927 0.42970835
0.37390506 0.3895323 0.42968743
0.38074634 0.39455045 0.43357089
0.38750031 0.39929769 0.43353062
0.39435021 0.40233574 0.43358399
0.40122396 0.40902362 0.43752403
0.40624094 0.4141146 0.43744564
0.41096745 0.41882829 0.44134554
0.41775494 0.42565534 0.44135069
0.42462833 0.42859943 0.44535615
0.43146026 0.43361296 0.44532063
0.43438392 0.43830509 0.44924713
0.4412347 0.44519713 0.44918404
0.4480325 0.44808159 0.45310759
0.4548931 0.45492657 0.45704364
0.45785164 0.45785164 0.45785164
0.46458163 0.46465405 0.46094608
0.47144732 0.46879976 0.46365918
0.47829676 0.47440213 0.46480344
0.4812065 0.48053745 0.46870209
0.48805815 0.48420864 0.46876987
0.49485142 0.490998 0.46875837
0.32563336 0.35156369 0.42184395
0.33253877 0.35592415 0.42193905
0.33927531 0.36272843 0.42527516
0.34612791 0.36566801 0.42576914
0.35300343 0.37106342 0.42575492
0.35978471 0.37544047 0.42614784
0.36666835 0.38227185 0.42967441
0.37110864 0.38520653 0.42970932
0.3763878 0.39199778 0.43106088
0.38323874 0.39498075 0.43355146
0.39002623 0.40178475 0.43355005
0.39683616 0.4046793 0.43592978
0.40371792 0.41153198 0.43750524
0.40662313 0.41449678 0.43782783
0.41345451 0.42127649 0.44132611
0.42028554 0.42580918 0.4437234
0.42710201 0.43107361 0.44535457
0.43359753 0.43400542 0.44567041
0.43690984 0.44078244 0.44926656
0.44372035 0.44533527 0.4514872
0.45051114 0.45058225 0.45444278
0.45706874 0.45706874 0.45706874
0.4603387 0.4603387 0.4603387
0.46709903 0.46713956 0.46096241
0.47392516 0.47010524 0.46481011
0.48048624 0.4768884 0.46514402
0.48373242 0.48048887 0.46872152
0.49053464 0.4866539 0.46874581
0.49733918 0.49223041 0.46876234
0.50417335 0.49641251 0.46871378
0.51102712 0.50328607 0.46876715
0.51787369 0.50619588 0.46869845
0.34862405 0.3681253 0.42576475
0.35547105 0.37105371 0.42569663
0.36227177 0.37792753 0.42864461
0.36914162 0.38281104 0.42969384
0.37205505 0.38771132 0.42970194
0.37887486 0.39448484 0.43354793
0.38565779 0.39744838 0.43353203
0.39250746 0.40235025 0.43356948
0.39933768 0.40716636 0.43750226
0.40618555 0.4140579 0.43744695
0.40911019 0.41698384 0.44031489
0.41591944 0.42377631 0.44133618
0.42279284 0.4267204 0.44534164
0.42958907 0.43351209 0.44533514
0.4335781 0.43646334 0.4481769
0.43939195 0.4433036 0.44922757
0.44619701 0.44620256 0.45309308
0.45300791 0.45306931 0.45692984
0.45706874 0.45706874 0.45706874
0.46277515 0.4628113 0.46096059
0.46960457 0.46877074 0.46183093
0.47641222 0.47255344 0.46479068
0.48044738 0.47943375 0.46761165
0.4862154 0.48232961 0.4687481
0.49300866 0.48911897 0.46873661
0.49984567 0.49226927 0.46874291
0.50664098 0.49892872 0.46873321
0.51351054 0.50395263 0.46872991
0.52038011 0.50869269 0.46872113
0.52717279 0.51548671 0.46871312
0.53394054 0.51957411 0.46869209
0.54080569 0.5252918 0.46871014
0.37110139 0.38330574 0.42970932
0.37453239 0.3901498 0.42968251
0.38138106 0.39456029 0.43356597
0.38813995 0.39992749 0.43353554
0.3949789 0.40282204 0.43407251
0.4018636 0.40965342 0.43753141
0.40624094 0.4141146 0.43744564
0.41159725 0.41944825 0.44134062
0.418392 0.42581643 0.44182986
0.42525075 0.4292366 0.44536107
0.43209497 0.4336228 0.44531571
0.43502356 0.43893243 0.44925205
0.44186309 0.44537154 0.44962994
0.44865492 0.44871877 0.45311251
0.45553274 0.45555637 0.45705102
0.45848144 0.45848144 0.45848144
0.46521275 0.4652823 0.4609479
0.4720722 0.4688096 0.46427913
0.4789364 0.47502947 0.46480836
0.48184613 0.48052515 0.46870701
0.48868464 0.48483291 0.46876757
0.49547629 0.49163518 0.46876575
0.50232454 0.49458192 0.46872348
0.50914084 0.50142881 0.46875264
0.51598741 0.50433862 0.46868394
0.52284773 0.51120889 0.46875027
0.529641 0.51799826 0.46873877
0.53643555 0.52092645 0.4686762
0.54327478 0.52779627 0.4687237
0.55011816 0.53130968 0.46867033
0.55696714 0.53753573 0.4686842
0.56380571 0.54436133 0.46872183
0.39066471 0.40236476 0.43355498
0.39746596 0.4053091 0.43655957
0.4043428 0.41217162 0.43749048
0.40725293 0.41512658 0.43845763
0.41408395 0.42189729 0.44132167
0.42092764 0.42580672 0.4443655
0.42773181 0.4316911 0.44534965
0.43359261 0.43462784 0.44630513
0.4375492 0.44141006 0.4492711
0.44435015 0.44532296 0.45211699
0.45114339 0.45121205 0.45507258
0.45706874 0.45706874 0.45706874
0.4609685 0.4609685 0.4609685
0.46773867 0.46776936 0.46096733
0.47455496 0.4707252 0.46480519
0.4804764 0.47753296 0.46576889
0.48437205 0.48047657 0.46872644
0.49116198 0.4872714 0.46873843
0.4979739 0.49224025 0.46875742
0.50479823 0.49704969 0.4687187
0.51166676 0.50391586 0.46877207
0.51851333 0.50682568 0.46870337
0.52532278 0.51366572 0.46873489
0.53210504 0.51958137 0.46873562
0.53896147 0.5234135 0.46869563
0.54575213 0.53023475 0.46870427
0.55264669 0.53320047 0.46868765
0.55942487 0.54001308 0.46867615
0.56627334 0.54687754 0.46874126
0.57310274 0.54978415 0.46870576
0.5799289 0.55658047 0.46866489
0.58675652 0.55950093 0.46481493
0.40973999 0.41761364 0.44094469
0.41654186 0.42441349 0.4413411
0.42341526 0.42735758 0.44534656
0.4302232 0.43359378 0.44533022
0.43357318 0.43708575 0.44881162
0.44001683 0.44394569 0.44921281
0.44681942 0.44683974 0.453098
0.45364646 0.45369911 0.45702925
0.45706874 0.45706874 0.45706874
0.46338773 0.46343618 0.46095567
0.47022945 0.46878058 0.46245089
0.47705012 0.47317947 0.46479385
0.48043754 0.48007831 0.46823652
0.48684027 0.48296679 0.46875548
0.49363354 0.48975615 0.46874399
0.50047454 0.49276093 0.46873799
0.50726586 0.4995659 0.46873813
0.51413542 0.50395017 0.46871515
0.52100498 0.50932987 0.46872851
0.52779825 0.51611923 0.46871701
0.53456296 0.51957165 0.46867733
0.54143056 0.52592898 0.46871506
0.54824638 0.53128066 0.46868484
0.55516067 0.53568573 0.46870596
0.56195079 0.54249042 0.46870529
0.56873157 0.54694084 0.46876069
0.5756064 0.5522531 0.46866973
0.58239547 0.55864285 0.46824436
0.58921443 0.56203656 0.46475663
0.59604459 0.56885386 0.4647559
0.60291239 0.57428427 0.46481299
0.60974472 0.5785669 0.46484089
0.43272969 0.43363264 0.44531079
0.4356632 0.43955977 0.44925697
0.44249289 0.44535924 0.45025973
0.44927888 0.44935479 0.45321532
0.45617238 0.45618617 0.4570584
0.45911124 0.45911124 0.45911124
0.46585239 0.4659121 0.46095282
0.4726977 0.46889695 0.4648197
0.47957604 0.47565681 0.46481328
0.48248577 0.48051285 0.46871193
0.48931198 0.48545041 0.46876019
0.49610213 0.49221123 0.46877193
0.50295188 0.49519941 0.46871856
0.50978048 0.5020586 0.46875756
0.51662705 0.50496841 0.46868886
0.52347278 0.51184474 0.46875665
0.53026588 0.51863543 0.46874615
0.53707519 0.52155624 0.46868112
0.54390212 0.52841376 0.46871878
0.55075316 0.53134321 0.46866588
0.55757972 0.53816307 0.46867682
0.56443059 0.54499851 0.46872675
0.57121646 0.54791963 0.46874929
0.5780934 0.55470145 0.46865038
0.58490196 0.55861371 0.46579616
0.59172564 0.56452651 0.46475926
0.59851117 0.57133499 0.46475159
0.60541888 0.5743037 0.464881
0.61221235 0.58110253 0.4647826
0.61902035 0.58792282 0.46086806
0.62586692 0.59383578 0.46089176
0.6326991 0.59770941 0.46085273
0.45177565 0.45184185 0.45570238
0.45706874 0.45706874 0.45706874
0.46158126 0.46159343 0.46097018
0.46837831 0.46839916 0.46097225
0.47518476 0.47134515 0.46480027
0.48046656 0.47817752 0.46639377
0.48499752 0.48108776 0.46873372
0.49178932 0.4878889 0.46873105
0.49860862 0.49225009 0.4687525
0.5054231 0.49768687 0.46872362
0.51229267 0.50395743 0.46875868
0.51915297 0.50745547 0.46870829
0.52595012 0.51428322 0.46872751
0.53272746 0.51957891 0.46872086
0.53958781 0.52404995 0.46870055
0.54637946 0.53085225 0.46869935
0.55328879 0.53383027 0.46869503
0.56006451 0.54064041 0.46868353
0.56689607 0.54695535 0.46874618
0.57374238 0.55041641 0.468691
0.58055131 0.55721765 0.46866981
0.58737893 0.56014303 0.46480016
0.59423086 0.56700386 0.46477041
0.60103709 0.57382205 0.46477102
0.60789638 0.57672932 0.46486203
0.61467415 0.58359735 0.4632667
0.62153429 0.59041587 0.46088749
0.62839284 0.59379692 0.46083347
0.63515701 0.60017766 0.4583978
0.64203041 0.60701498 0.45699446
0.64881046 0.60995329 0.45693526
0.65565513 0.61675797 0.45354416
0.47085433 0.46879042 0.46307085
0.47768975 0.4738068 0.46479877
0.48059949 0.48054912 0.46869742
0.48746515 0.48360397 0.46876286
