site/assets/luts/sha256-7c35fe7ce6efe4380844499d4ccc5d6c5ec650e6d4885e4451020f8bf162082f.cube
# LUTr-Schema-Version: 2
# LUTr-ID: sha256-7c35fe7ce6efe4380844499d4ccc5d6c5ec650e6d4885e4451020f8bf162082f
# LUTr-Title: goldfx bright spring breeze
# LUTr-Collection: Natron HaldCLUT
# LUTr-Collection-ID: natron-haldclut-presets
# LUTr-Source: https://github.com/NatronGitHub/clut
# LUTr-Retrieved: 2026-07-27
# LUTr-Source-File: submissions/natron-haldclut-presets/picturefx/goldfx_bright_spring_breeze.png
# LUTr-Source-Format: HALD-PNG
# LUTr-Source-SHA256: 7c35fe7ce6efe4380844499d4ccc5d6c5ec650e6d4885e4451020f8bf162082f
# LUTr-License: CC-BY-SA-4.0
# LUTr-License-URL: https://github.com/NatronGitHub/clut#license
# LUTr-License-Basis: repo-license-file
# LUTr-Transform-Class: film-emulation
# LUTr-Tags: creative, film, film-emulation, hald-clut, natron, png, cube
# LUTr-Input-Color-Space: srgb
# LUTr-Input-Gamut: rec709
# LUTr-Input-Transfer: srgb
# LUTr-Output-Color-Space: srgb
# LUTr-Output-Gamut: rec709
# LUTr-Output-Transfer: srgb
# LUTr-Color-Space-Confidence: assumed-display-referred
# LUTr-Domain-Normalized: true
# LUTr-Shaper: none
# LUTr-Original-Grid: 64x64x64
# LUTr-Conversion-Grid: 25x25x25
# LUTr-Conversion-Interpolation: trilinear
# LUTr-Conversion-Method: HALD-PNG LUT image decoded at 16-bit and sampled to 25x25x25 3D CUBE
# LUTr-Conversion-Tool: LUTr scripts/convert-all-to-cube.mjs 2.0.0
# LUTr-Conversion-Date: 2026-07-27
# LUTr-Note: Preserve this metadata and the upstream license notices when redistributing.
TITLE "goldfx bright spring breeze"
LUT_3D_SIZE 5
DOMAIN_MIN 0 0 0
DOMAIN_MAX 1 1 1
0.0078431373 0.011764706 0.011764706
0.17745098 0.066666667 0.048039216
0.45098039 0.056862745 0.058823529
0.73039216 0.059803922 0.066666667
0.98823529 0.23529412 0.1372549
0.046078431 0.24019608 0.08627451
0.19828431 0.24803922 0.067401961
0.51960784 0.26813725 0.091666667
0.79313725 0.29313725 0.12156863
0.96568627 0.33823529 0.14313725
0.1 0.44901961 0.098039216
0.20686275 0.47598039 0.11568627
0.48627451 0.48529412 0.10490196
0.79803922 0.53431373 0.11323529
1 0.6254902 0.23529412
0.16960784 0.68431373 0.1245098
0.29313725 0.73039216 0.17254902
0.49656863 0.72156863 0.1745098
0.74926471 0.73823529 0.17352941
0.99411765 0.84117647 0.22254902
0.57254902 1 0.36078431
0.70490196 0.99411765 0.43823529
0.84901961 0.99607843 0.45098039
0.99901961 0.99901961 0.45196078
1 0.97647059 0.45882353
0.015686275 0.092156863 0.18921569
0.15808824 0.11862745 0.23651961
0.48333333 0.10637255 0.2245098
0.75490196 0.094117647 0.20857843
0.9754902 0.21568627 0.23529412
0.057107843 0.27745098 0.24215686
0.21666667 0.29001225 0.26709559
0.53982843 0.24938725 0.24938725
0.78155637 0.24074755 0.22879902
0.98897059 0.33897059 0.25980392
0.11127451 0.50147059 0.2245098
0.18860294 0.52107843 0.2442402
0.50514706 0.49705882 0.19803922
0.82757353 0.55477941 0.25441176
0.99803922 0.59509804 0.29264706
0.20882353 0.72916667 0.19803922
0.25906863 0.7379902 0.21648284
0.47830882 0.71066176 0.18002451
0.76176471 0.74332108 0.17843137
0.99803922 0.82573529 0.2127451
0.61862745 0.99901961 0.42254902
0.70318627 1 0.45686275
0.85735294 1 0.47254902
0.99509804 0.9997549 0.45514706
1 0.97647059 0.46568627
0.01372549 0.19215686 0.48039216
0.059313725 0.19215686 0.52254902
0.53235294 0.23235294 0.55294118
0.81715686 0.30686275 0.57205882
0.99019608 0.3254902 0.53529412
0.078431373 0.35196078 0.52156863
0.12806373 0.34362745 0.55894608
0.59191176 0.36666667 0.60465686
0.83737745 0.37107843 0.57647059
0.98872549 0.28970588 0.5
0.12941176 0.59411765 0.55490196
0.18186275 0.62083333 0.5745098
0.61127451 0.63676471 0.63088235
0.84411765 0.52647059 0.51421569
0.99215686 0.53921569 0.50588235
0.2372549 0.83676471 0.49117647
0.25318627 0.84669118 0.49558824
0.46936275 0.78235294 0.44705882
0.78541667 0.78541667 0.37977941
0.99656863 0.86666667 0.51764706
0.60392157 1 0.58823529
0.63970588 1 0.60294118
0.76176471 0.99901961 0.59509804
0.95392157 0.99754902 0.55392157
1 0.98039216 0.54509804
0.038235294 0.34019608 0.77647059
0.053676471 0.31960784 0.7879902
0.50539216 0.37843137 0.80588235
0.80980392 0.47941176 0.81568627
0.99411765 0.63529412 0.86078431
0.11078431 0.4627451 0.80073529
0.13645833 0.45392157 0.82156863
0.53223039 0.4754902 0.83333333
0.82714461 0.54117647 0.84019608
0.98651961 0.63823529 0.85980392
0.14558824 0.65294118 0.78039216
0.19411765 0.68137255 0.8185049
0.52303922 0.64485294 0.84240196
0.8564951 0.73688725 0.88210784
0.99068627 0.78137255 0.89313725
0.27279412 0.88529412 0.83308824
0.33272059 0.9213848 0.86568627
0.53553922 0.92401961 0.87745098
0.84142157 0.90618873 0.87573529
0.99509804 0.82622549 0.7997549
0.61666667 1 0.8745098
0.66446078 1 0.88014706
0.63676471 1 0.84852941
0.82083333 0.99607843 0.7754902
1 0.98039216 0.7245098
0.29019608 0.59607843 0.94509804
0.33235294 0.57647059 0.94509804
0.60784314 0.6372549 0.9627451
0.81078431 0.71764706 0.96470588
0.95294118 0.81176471 0.98431373
0.36078431 0.65980392 0.95980392
0.42156863 0.66323529 0.96936275
0.58137255 0.63921569 0.94656863
0.81764706 0.73431373 0.96470588
0.94901961 0.80686275 0.97647059
0.50588235 0.8 0.97058824
0.50294118 0.80833333 0.98284314
0.63627451 0.79705882 0.99215686
0.82205882 0.80980392 0.97107843
0.96470588 0.84509804 0.98235294
0.45686275 0.94019608 0.98823529
0.49142157 0.96813725 0.99705882
0.54166667 0.93382353 0.99117647
0.79093137 0.91495098 0.98553922
0.96862745 0.94705882 0.99607843
0.70980392 1 1
0.78529412 1 1
0.79411765 1 1
0.9 1 1
0.99607843 0.98823529 0.98823529
