site/assets/luts/sha256-71ed9843721e3697acced2623749c1f390b4db226900fcc6257157a907b99315.cube
# LUTr-Schema-Version: 2
# LUTr-ID: sha256-71ed9843721e3697acced2623749c1f390b4db226900fcc6257157a907b99315
# LUTr-Title: polaroid time zero (expired) ---
# LUTr-Collection: Natron HaldCLUT
# LUTr-Collection-ID: natron-haldclut-presets
# LUTr-Source: https://github.com/NatronGitHub/clut
# LUTr-Retrieved: 2026-07-27
# LUTr-Source-File: submissions/natron-haldclut-presets/instant_consumer/polaroid_time_zero_(expired)_---.png
# LUTr-Source-Format: HALD-PNG
# LUTr-Source-SHA256: 71ed9843721e3697acced2623749c1f390b4db226900fcc6257157a907b99315
# LUTr-License: CC-BY-SA-4.0
# LUTr-License-URL: https://github.com/NatronGitHub/clut#license
# LUTr-License-Basis: repo-license-file
# LUTr-Transform-Class: film-emulation
# LUTr-Tags: creative, film, film-emulation, hald-clut, natron, png, cube
# LUTr-Input-Color-Space: srgb
# LUTr-Input-Gamut: rec709
# LUTr-Input-Transfer: srgb
# LUTr-Output-Color-Space: srgb
# LUTr-Output-Gamut: rec709
# LUTr-Output-Transfer: srgb
# LUTr-Color-Space-Confidence: assumed-display-referred
# LUTr-Domain-Normalized: true
# LUTr-Shaper: none
# LUTr-Original-Grid: 64x64x64
# LUTr-Conversion-Grid: 25x25x25
# LUTr-Conversion-Interpolation: trilinear
# LUTr-Conversion-Method: HALD-PNG LUT image decoded at 16-bit and sampled to 25x25x25 3D CUBE
# LUTr-Conversion-Tool: LUTr scripts/convert-all-to-cube.mjs 2.0.0
# LUTr-Conversion-Date: 2026-07-27
# LUTr-Note: Preserve this metadata and the upstream license notices when redistributing.
TITLE "polaroid time zero (expired) ---"
LUT_3D_SIZE 5
DOMAIN_MIN 0 0 0
DOMAIN_MAX 1 1 1
0.11764706 0.02745098 0.023529412
0.19313725 0.020588235 0.031372549
0.45490196 0 0.019607843
0.77941176 0.0078431373 0.020588235
0.96470588 0.11764706 0.11372549
0.15490196 0.15980392 0.015686275
0.26078431 0.15367647 0.0095588235
0.53970588 0.12843137 0.015686275
0.78627451 0.099019608 0.0039215686
0.95 0.26372549 0.049019608
0.30392157 0.47058824 0.0039215686
0.41715686 0.45294118 0.0044117647
0.64705882 0.49019608 0.0039215686
0.81960784 0.48431373 0.0078431373
0.95098039 0.51176471 0.011764706
0.50980392 0.69313725 0
0.58627451 0.70882353 0.0039215686
0.73088235 0.71127451 0.0078431373
0.86176471 0.72230392 0.081372549
0.95294118 0.74019608 0.29705882
0.72156863 0.89411765 0
0.74411765 0.89411765 0
0.81372549 0.89019608 0.0019607843
0.92254902 0.92058824 0.23921569
0.99215686 0.91764706 0.52156863
0.16568627 0.011764706 0.11372549
0.20808824 0.0078431373 0.11176471
0.49803922 0.0039215686 0.13823529
0.77647059 0.0058823529 0.17426471
0.96078431 0.1872549 0.21666667
0.18235294 0.14607843 0.10980392
0.3002451 0.1721201 0.11329657
0.55882353 0.15281863 0.12916667
0.79436275 0.19185049 0.14705882
0.95392157 0.32156863 0.20588235
0.32794118 0.47058824 0.038235294
0.44289216 0.47794118 0.035539216
0.65392157 0.49485294 0.092647059
0.81421569 0.49227941 0.12254902
0.95294118 0.53137255 0.18431373
0.54485294 0.69803922 0.0029411765
0.59387255 0.69785539 0.0080269608
0.72254902 0.70526961 0.0082107843
0.85784314 0.72457108 0.23455882
0.95759804 0.74411765 0.36764706
0.73039216 0.90196078 0.15980392
0.75147059 0.90710784 0.12254902
0.81372549 0.8995098 0.035294118
0.9125 0.90441176 0.29411765
0.99313725 0.91960784 0.56960784
0.39215686 0.025490196 0.39803922
0.43186275 0.031862745 0.40098039
0.57352941 0.046078431 0.39411765
0.78333333 0.044117647 0.42058824
0.95294118 0.29411765 0.46470588
0.49411765 0.26176471 0.39803922
0.53431373 0.2810049 0.40784314
0.62794118 0.28921569 0.40245098
0.79803922 0.26875 0.42218137
0.94803922 0.38921569 0.45294118
0.49313725 0.46666667 0.36078431
0.5625 0.49411765 0.36838235
0.67843137 0.51127451 0.36862745
0.8247549 0.5127451 0.38529412
0.93921569 0.55098039 0.42156863
0.58284314 0.69362745 0.35588235
0.63541667 0.70098039 0.36323529
0.72990196 0.7127451 0.3372549
0.85784314 0.72879902 0.45490196
0.95 0.74460784 0.49656863
0.72941176 0.9 0.45490196
0.74901961 0.90196078 0.44607843
0.80294118 0.90196078 0.39901961
0.89607843 0.89901961 0.44705882
0.99215686 0.9254902 0.65882353
0.65784314 0.27254902 0.69411765
0.6745098 0.30686275 0.69509804
0.73529412 0.3745098 0.6995098
0.81372549 0.39534314 0.68235294
0.92843137 0.41568627 0.70098039
0.71151961 0.44803922 0.6872549
0.72254902 0.45569853 0.69411765
0.76017157 0.48627451 0.70588235
0.82843137 0.49552696 0.69840686
0.90980392 0.47254902 0.69387255
0.72647059 0.58039216 0.67303922
0.7622549 0.59203431 0.68125
0.79681373 0.62745098 0.69191176
0.84117647 0.61838235 0.68431373
0.93235294 0.60784314 0.70588235
0.70563725 0.71372549 0.64803922
0.72426471 0.7127451 0.64044118
0.78370098 0.72365196 0.65343137
0.85428922 0.74019608 0.67132353
0.94485294 0.74877451 0.69117647
0.75 0.88627451 0.69411765
0.75392157 0.84803922 0.67377451
0.79411765 0.89656863 0.69068627
0.87254902 0.91740196 0.6872549
0.96666667 0.90882353 0.76960784
0.81960784 0.58431373 0.91372549
0.82254902 0.58333333 0.90588235
0.83921569 0.60392157 0.90784314
0.87156863 0.64019608 0.91372549
0.92156863 0.65098039 0.90196078
0.82745098 0.62941176 0.89803922
0.83529412 0.64117647 0.90588235
0.85392157 0.65392157 0.91127451
0.8745098 0.6627451 0.89877451
0.90588235 0.67058824 0.89901961
0.84901961 0.71372549 0.89803922
0.85 0.71666667 0.88578431
0.87058824 0.7372549 0.90686275
0.89019608 0.74460784 0.90686275
0.92156863 0.74509804 0.9
0.83137255 0.78529412 0.89901961
0.85 0.79411765 0.90882353
0.88578431 0.8127451 0.9127451
0.91764706 0.8372549 0.92230392
0.94509804 0.82352941 0.89705882
0.81960784 0.87843137 0.89411765
0.83137255 0.90980392 0.91078431
0.85686275 0.89803922 0.91372549
0.90294118 0.92156863 0.92156863
0.94117647 0.90980392 0.91764706
