site/assets/luts/sha256-c7acb2554f830c75812f951781583b60011ba74f293a1ace57ea72724826af4e.cube
# LUTr-Schema-Version: 2
# LUTr-ID: sha256-c7acb2554f830c75812f951781583b60011ba74f293a1ace57ea72724826af4e
# LUTr-Title: polaroid px-70 warm ++
# LUTr-Collection: Natron HaldCLUT
# LUTr-Collection-ID: natron-haldclut-presets
# LUTr-Source: https://github.com/NatronGitHub/clut
# LUTr-Retrieved: 2026-07-27
# LUTr-Source-File: submissions/natron-haldclut-presets/instant_consumer/polaroid_px-70_warm_++.png
# LUTr-Source-Format: HALD-PNG
# LUTr-Source-SHA256: c7acb2554f830c75812f951781583b60011ba74f293a1ace57ea72724826af4e
# LUTr-License: CC-BY-SA-4.0
# LUTr-License-URL: https://github.com/NatronGitHub/clut#license
# LUTr-License-Basis: repo-license-file
# LUTr-Transform-Class: film-emulation
# LUTr-Tags: creative, film, film-emulation, hald-clut, natron, png, warm, cube
# LUTr-Input-Color-Space: srgb
# LUTr-Input-Gamut: rec709
# LUTr-Input-Transfer: srgb
# LUTr-Output-Color-Space: srgb
# LUTr-Output-Gamut: rec709
# LUTr-Output-Transfer: srgb
# LUTr-Color-Space-Confidence: assumed-display-referred
# LUTr-Domain-Normalized: true
# LUTr-Shaper: none
# LUTr-Original-Grid: 64x64x64
# LUTr-Conversion-Grid: 25x25x25
# LUTr-Conversion-Interpolation: trilinear
# LUTr-Conversion-Method: HALD-PNG LUT image decoded at 16-bit and sampled to 25x25x25 3D CUBE
# LUTr-Conversion-Tool: LUTr scripts/convert-all-to-cube.mjs 2.0.0
# LUTr-Conversion-Date: 2026-07-27
# LUTr-Note: Preserve this metadata and the upstream license notices when redistributing.
TITLE "polaroid px-70 warm ++"
LUT_3D_SIZE 5
DOMAIN_MIN 0 0 0
DOMAIN_MAX 1 1 1
0.42745098 0.2627451 0.16470588
0.44313725 0.26666667 0.16470588
0.51176471 0.26666667 0.16078431
0.80980392 0.34313725 0.12843137
1 0.52156863 0.11372549
0.42745098 0.29215686 0.16470588
0.44387255 0.29705882 0.16078431
0.54019608 0.30735294 0.15343137
0.82083333 0.39877451 0.10857843
0.99607843 0.58039216 0.11176471
0.41568627 0.46078431 0.15294118
0.45392157 0.45833333 0.15294118
0.6 0.48921569 0.12843137
0.86960784 0.59754902 0.012254902
0.99607843 0.67254902 0.094117647
0.4872549 0.76470588 0.21764706
0.53627451 0.76470588 0.22843137
0.67843137 0.77205882 0.23676471
0.87352941 0.79583333 0.2627451
0.99607843 0.8254902 0.36176471
0.85882353 0.91372549 0.50980392
0.85588235 0.91078431 0.50588235
0.89411765 0.91176471 0.51960784
0.94215686 0.91764706 0.5372549
0.96470588 0.91764706 0.5372549
0.43431373 0.27058824 0.18333333
0.44705882 0.27058824 0.18039216
0.52058824 0.26666667 0.18333333
0.84313725 0.29411765 0.2
1 0.55196078 0.27843137
0.43137255 0.29632353 0.18431373
0.44705882 0.29313725 0.18039216
0.56397059 0.31372549 0.19117647
0.87352941 0.42653186 0.20906863
0.99607843 0.60612745 0.28431373
0.43627451 0.47598039 0.20392157
0.47095588 0.47622549 0.2
0.61985294 0.50906863 0.19558824
0.87561275 0.59754902 0.16617647
0.99019608 0.66470588 0.20833333
0.5254902 0.7754902 0.30465686
0.56151961 0.77101716 0.30220588
0.70845588 0.78296569 0.33137255
0.88039216 0.80214461 0.33627451
0.99828431 0.8254902 0.40808824
0.84705882 0.90980392 0.50686275
0.86960784 0.91372549 0.51764706
0.89754902 0.91372549 0.52843137
0.93823529 0.91666667 0.54093137
0.98039216 0.92941176 0.57254902
0.43921569 0.27058824 0.2627451
0.46911765 0.2745098 0.25392157
0.55882353 0.29607843 0.27843137
0.84754902 0.29362745 0.37647059
1 0.51176471 0.44901961
0.4372549 0.30490196 0.27990196
0.48235294 0.31813725 0.29117647
0.60490196 0.36764706 0.31666667
0.87487745 0.38897059 0.39901961
1 0.6245098 0.4754902
0.44509804 0.49607843 0.33823529
0.50245098 0.51176471 0.35490196
0.66176471 0.54215686 0.37990196
0.89632353 0.64901961 0.42426471
0.99607843 0.74901961 0.4754902
0.62941176 0.79656863 0.45196078
0.65686275 0.78762255 0.44620098
0.76666667 0.79117647 0.45980392
0.89497549 0.81004902 0.4629902
0.98823529 0.82009804 0.47990196
0.89411765 0.92156863 0.54705882
0.88921569 0.91372549 0.54313725
0.91372549 0.91372549 0.55294118
0.94607843 0.92009804 0.56372549
0.97647059 0.91960784 0.56470588
0.53529412 0.29019608 0.53529412
0.62083333 0.32647059 0.51764706
0.8 0.43627451 0.55
0.91985294 0.62941176 0.54607843
0.99607843 0.64705882 0.55784314
0.51372549 0.37745098 0.5502451
0.61053922 0.40784314 0.54411765
0.80833333 0.53578431 0.54754902
0.9252451 0.68848039 0.54705882
0.98529412 0.69387255 0.55784314
0.43970588 0.61127451 0.53921569
0.52279412 0.60257353 0.53921569
0.77892157 0.66151961 0.5504902
0.92953431 0.76789216 0.55171569
0.99166667 0.77598039 0.56176471
0.64338235 0.80220588 0.53823529
0.67818627 0.79803922 0.53529412
0.79803922 0.80477941 0.54607843
0.92377451 0.83357843 0.55508578
0.98823529 0.86862745 0.57426471
0.89803922 0.91764706 0.58529412
0.90294118 0.91470588 0.57818627
0.92745098 0.91764706 0.59264706
0.95294118 0.91789216 0.59411765
0.98039216 0.92647059 0.60980392
0.81960784 0.63921569 0.65882353
0.85784314 0.67647059 0.65490196
0.92941176 0.75882353 0.63921569
0.97745098 0.84509804 0.63235294
0.98823529 0.87058824 0.63137255
0.82941176 0.70294118 0.65882353
0.86568627 0.7245098 0.65490196
0.93137255 0.78235294 0.64313725
0.97647059 0.85490196 0.63137255
0.98431373 0.88627451 0.63137255
0.81568627 0.76862745 0.65294118
0.83872549 0.76813725 0.65
0.91568627 0.80686275 0.63921569
0.97352941 0.87205882 0.63578431
0.98431373 0.90196078 0.63921569
0.77941176 0.84117647 0.63921569
0.79019608 0.83627451 0.63529412
0.85147059 0.84215686 0.63039216
0.96102941 0.88406863 0.63921569
0.98431373 0.91862745 0.64705882
0.9254902 0.93333333 0.65098039
0.91862745 0.92647059 0.64705882
0.93137255 0.92156863 0.6254902
0.95686275 0.9254902 0.65098039
0.98039216 0.94509804 0.66666667
