site/assets/luts/sha256-702b143f57457fbdad48cf8ab780c99772c694290d54c9f39353d7fc2a66ea00.cube
# LUTr-Schema-Version: 2
# LUTr-ID: sha256-702b143f57457fbdad48cf8ab780c99772c694290d54c9f39353d7fc2a66ea00
# LUTr-Title: warm
# LUTr-Collection: Natron HaldCLUT
# LUTr-Collection-ID: natron-haldclut-presets
# LUTr-Source: https://github.com/NatronGitHub/clut
# LUTr-Retrieved: 2026-07-27
# LUTr-Source-File: submissions/natron-haldclut-presets/various/warm.png
# LUTr-Source-Format: HALD-PNG
# LUTr-Source-SHA256: 702b143f57457fbdad48cf8ab780c99772c694290d54c9f39353d7fc2a66ea00
# LUTr-License: CC-BY-SA-4.0
# LUTr-License-URL: https://github.com/NatronGitHub/clut#license
# LUTr-License-Basis: repo-license-file
# LUTr-Transform-Class: film-emulation
# LUTr-Tags: creative, film, film-emulation, hald-clut, natron, png, warm, cube
# LUTr-Input-Color-Space: srgb
# LUTr-Input-Gamut: rec709
# LUTr-Input-Transfer: srgb
# LUTr-Output-Color-Space: srgb
# LUTr-Output-Gamut: rec709
# LUTr-Output-Transfer: srgb
# LUTr-Color-Space-Confidence: assumed-display-referred
# LUTr-Domain-Normalized: true
# LUTr-Shaper: none
# LUTr-Original-Grid: 64x64x64
# LUTr-Conversion-Grid: 25x25x25
# LUTr-Conversion-Interpolation: trilinear
# LUTr-Conversion-Method: HALD-PNG LUT image decoded at 16-bit and sampled to 25x25x25 3D CUBE
# LUTr-Conversion-Tool: LUTr scripts/convert-all-to-cube.mjs 2.0.0
# LUTr-Conversion-Date: 2026-07-27
# LUTr-Note: Preserve this metadata and the upstream license notices when redistributing.
TITLE "warm"
LUT_3D_SIZE 5
DOMAIN_MIN 0 0 0
DOMAIN_MAX 1 1 1
0.011764706 0.0039215686 0.0078431373
0.30490196 0.10490196 0.13137255
0.57058824 0.2 0.23333333
0.79509804 0.37058824 0.31176471
0.96470588 0.46666667 0.40392157
0.16176471 0.19607843 0.10784314
0.34044118 0.2245098 0.14093137
0.57156863 0.33137255 0.21372549
0.79509804 0.49313725 0.32058824
0.98333333 0.65588235 0.43137255
0.31764706 0.49803922 0.20980392
0.44117647 0.48284314 0.21519608
0.58137255 0.50294118 0.22745098
0.79901961 0.65294118 0.33284314
0.97647059 0.79215686 0.45294118
0.44901961 0.77745098 0.31078431
0.56862745 0.79534314 0.32745098
0.68431373 0.78039216 0.31715686
0.80196078 0.80367647 0.3372549
0.96862745 0.89509804 0.42843137
0.57254902 0.98823529 0.41960784
0.67941176 0.97647059 0.43235294
0.7745098 0.95490196 0.40588235
0.89117647 0.9872549 0.42058824
0.97647059 0.97647059 0.48627451
0.16666667 0.1127451 0.20784314
0.31446078 0.094852941 0.20955882
0.57156863 0.19705882 0.30637255
0.77965686 0.33137255 0.41960784
0.97647059 0.5245098 0.53529412
0.18602941 0.20490196 0.21568627
0.33235294 0.21544118 0.22261029
0.57120098 0.32647059 0.30637255
0.79136029 0.48946078 0.42334559
0.97352941 0.63995098 0.53431373
0.31323529 0.49460784 0.30882353
0.4372549 0.4877451 0.31176471
0.58039216 0.50392157 0.32254902
0.79571078 0.65931373 0.42671569
0.97254902 0.78431373 0.53529412
0.43921569 0.79509804 0.41960784
0.56862745 0.79117647 0.41960784
0.68296569 0.79215686 0.42034314
0.79601716 0.8 0.42689951
0.9745098 0.89191176 0.53823529
0.5754902 0.98137255 0.53921569
0.67352941 0.96862745 0.53529412
0.78921569 0.97794118 0.54019608
0.88039216 0.96789216 0.53848039
0.98039216 0.97647059 0.54313725
0.36078431 0.21176471 0.41568627
0.44117647 0.1995098 0.41813725
0.57647059 0.21372549 0.43039216
0.78823529 0.32696078 0.54705882
0.96078431 0.53137255 0.66862745
0.33235294 0.32892157 0.42352941
0.44509804 0.32892157 0.42352941
0.57941176 0.33455882 0.42745098
0.78688725 0.48627451 0.53958333
0.97598039 0.65 0.67352941
0.3254902 0.50196078 0.42843137
0.45367647 0.49656863 0.42622549
0.58578431 0.50931373 0.43333333
0.79166667 0.65882353 0.54705882
0.9754902 0.78823529 0.67058824
0.46029412 0.78039216 0.54705882
0.57254902 0.78823529 0.54705882
0.69068627 0.78431373 0.54705882
0.7997549 0.80294118 0.55490196
0.96519608 0.88823529 0.6627451
0.58235294 0.98235294 0.6745098
0.68235294 0.98039216 0.67401961
0.79411765 0.98235294 0.67745098
0.88578431 0.97745098 0.6745098
0.96862745 0.97843137 0.68039216
0.47352941 0.33627451 0.67843137
0.5629902 0.35 0.6754902
0.68578431 0.34313725 0.68627451
0.8004902 0.35 0.69656863
0.98137255 0.49607843 0.82647059
0.45612745 0.48627451 0.68333333
0.56470588 0.48627451 0.68235294
0.68039216 0.49019608 0.67941176
0.79289216 0.50196078 0.6879902
0.97720588 0.65122549 0.8247549
0.45637255 0.65735294 0.68235294
0.56862745 0.65147059 0.68627451
0.68823529 0.65686275 0.68627451
0.79436275 0.66029412 0.68026961
0.95539216 0.77254902 0.80441176
0.46691176 0.80759804 0.6995098
0.59136029 0.80465686 0.70551471
0.69607843 0.8 0.69289216
0.80030637 0.80710784 0.69019608
0.97745098 0.89901961 0.82328431
0.57745098 0.97941176 0.8254902
0.68137255 0.97745098 0.82181373
0.77009804 0.94803922 0.79362745
0.87941176 0.96666667 0.81666667
0.96470588 0.98039216 0.82647059
0.61176471 0.48627451 0.96470588
0.68137255 0.48627451 0.9745098
0.78627451 0.5254902 0.96078431
0.88823529 0.49313725 0.97352941
0.98039216 0.54901961 0.97254902
0.57254902 0.65490196 0.9754902
0.68039216 0.64803922 0.96666667
0.78529412 0.64068627 0.96176471
0.88823529 0.65294118 0.97279412
0.98333333 0.65686275 0.97647059
0.60980392 0.79215686 0.96862745
0.67598039 0.78333333 0.94754902
0.7872549 0.7872549 0.96568627
0.88823529 0.79509804 0.97156863
0.98627451 0.80196078 0.98235294
0.58431373 0.89901961 0.9745098
0.68039216 0.89215686 0.96078431
0.78431373 0.89117647 0.95245098
0.87965686 0.88823529 0.94044118
0.95294118 0.9 0.96470588
0.57254902 0.98823529 0.98431373
0.68431373 0.96862745 0.97647059
0.78823529 0.96666667 0.9627451
0.88823529 0.96862745 0.94509804
0.94117647 0.97254902 0.92156863
