site/assets/luts/sha256-11d83251c20b4cee66950ab680c6ba62af14e9a5d279865218d045b8fa6fb2ec.cube
# LUTr-Schema-Version: 2
# LUTr-ID: sha256-11d83251c20b4cee66950ab680c6ba62af14e9a5d279865218d045b8fa6fb2ec
# LUTr-Title: ilford hp5 plus 400
# LUTr-Collection: Natron HaldCLUT
# LUTr-Collection-ID: natron-haldclut-presets
# LUTr-Source: https://github.com/NatronGitHub/clut
# LUTr-Retrieved: 2026-07-27
# LUTr-Source-File: submissions/natron-haldclut-presets/bw/ilford_hp5_plus_400.png
# LUTr-Source-Format: HALD-PNG
# LUTr-Source-SHA256: 11d83251c20b4cee66950ab680c6ba62af14e9a5d279865218d045b8fa6fb2ec
# LUTr-License: CC-BY-SA-4.0
# LUTr-License-URL: https://github.com/NatronGitHub/clut#license
# LUTr-License-Basis: repo-license-file
# LUTr-Transform-Class: film-emulation
# LUTr-Tags: creative, film, film-emulation, hald-clut, natron, png, cube
# LUTr-Input-Color-Space: srgb
# LUTr-Input-Gamut: rec709
# LUTr-Input-Transfer: srgb
# LUTr-Output-Color-Space: srgb
# LUTr-Output-Gamut: rec709
# LUTr-Output-Transfer: srgb
# LUTr-Color-Space-Confidence: assumed-display-referred
# LUTr-Domain-Normalized: true
# LUTr-Shaper: none
# LUTr-Original-Grid: 64x64x64
# LUTr-Conversion-Grid: 25x25x25
# LUTr-Conversion-Interpolation: trilinear
# LUTr-Conversion-Method: HALD-PNG LUT image decoded at 16-bit and sampled to 25x25x25 3D CUBE
# LUTr-Conversion-Tool: LUTr scripts/convert-all-to-cube.mjs 2.0.0
# LUTr-Conversion-Date: 2026-07-27
# LUTr-Note: Preserve this metadata and the upstream license notices when redistributing.
TITLE "ilford hp5 plus 400"
LUT_3D_SIZE 5
DOMAIN_MIN 0 0 0
DOMAIN_MAX 1 1 1
0.011764706 0.011764706 0.011764706
0.042156863 0.042156863 0.042156863
0.08627451 0.08627451 0.08627451
0.22745098 0.22745098 0.22745098
0.45098039 0.45098039 0.45098039
0.096078431 0.096078431 0.096078431
0.10686275 0.10686275 0.10686275
0.18578431 0.18578431 0.18578431
0.31397059 0.31397059 0.31397059
0.5 0.5 0.5
0.25098039 0.25098039 0.25098039
0.27205882 0.27205882 0.27205882
0.34803922 0.34803922 0.34803922
0.43921569 0.43921569 0.43921569
0.59215686 0.59215686 0.59215686
0.50980392 0.50980392 0.50980392
0.52230392 0.52230392 0.52230392
0.5627451 0.5627451 0.5627451
0.63529412 0.63529412 0.63529412
0.72843137 0.72843137 0.72843137
0.76470588 0.76470588 0.76470588
0.77156863 0.77156863 0.77156863
0.78627451 0.78627451 0.78627451
0.83235294 0.83235294 0.83235294
0.89803922 0.89803922 0.89803922
0.043137255 0.043137255 0.043137255
0.084313725 0.084313725 0.084313725
0.18235294 0.18235294 0.18235294
0.29215686 0.29215686 0.29215686
0.49705882 0.49705882 0.49705882
0.15392157 0.15392157 0.15392157
0.18841912 0.18841912 0.18841912
0.26519608 0.26519608 0.26519608
0.38627451 0.38627451 0.38627451
0.55392157 0.55392157 0.55392157
0.31421569 0.31421569 0.31421569
0.34865196 0.34865196 0.34865196
0.40759804 0.40759804 0.40759804
0.51041667 0.51041667 0.51041667
0.64607843 0.64607843 0.64607843
0.54705882 0.54705882 0.54705882
0.56648284 0.56648284 0.56648284
0.6004902 0.6004902 0.6004902
0.66721814 0.66721814 0.66721814
0.76544118 0.76544118 0.76544118
0.80294118 0.80294118 0.80294118
0.8 0.8 0.8
0.81372549 0.81372549 0.81372549
0.84803922 0.84803922 0.84803922
0.89215686 0.89215686 0.89215686
0.11176471 0.11176471 0.11176471
0.1872549 0.1872549 0.1872549
0.27254902 0.27254902 0.27254902
0.4122549 0.4122549 0.4122549
0.55098039 0.55098039 0.55098039
0.28235294 0.28235294 0.28235294
0.31715686 0.31715686 0.31715686
0.38063725 0.38063725 0.38063725
0.4872549 0.4872549 0.4872549
0.62254902 0.62254902 0.62254902
0.43823529 0.43823529 0.43823529
0.46862745 0.46862745 0.46862745
0.51372549 0.51372549 0.51372549
0.59803922 0.59803922 0.59803922
0.71176471 0.71176471 0.71176471
0.6254902 0.6254902 0.6254902
0.65110294 0.65110294 0.65110294
0.6872549 0.6872549 0.6872549
0.74865196 0.74865196 0.74865196
0.81862745 0.81862745 0.81862745
0.83333333 0.83333333 0.83333333
0.83284314 0.83284314 0.83284314
0.86666667 0.86666667 0.86666667
0.88627451 0.88627451 0.88627451
0.90980392 0.90980392 0.90980392
0.3372549 0.3372549 0.3372549
0.38235294 0.38235294 0.38235294
0.43431373 0.43431373 0.43431373
0.55 0.55 0.55
0.67941176 0.67941176 0.67941176
0.46666667 0.46666667 0.46666667
0.48235294 0.48235294 0.48235294
0.53198529 0.53198529 0.53198529
0.61862745 0.61862745 0.61862745
0.71862745 0.71862745 0.71862745
0.59264706 0.59264706 0.59264706
0.61458333 0.61458333 0.61458333
0.64705882 0.64705882 0.64705882
0.71507353 0.71507353 0.71507353
0.78529412 0.78529412 0.78529412
0.75686275 0.75686275 0.75686275
0.76544118 0.76544118 0.76544118
0.78823529 0.78823529 0.78823529
0.83057598 0.83057598 0.83057598
0.87941176 0.87941176 0.87941176
0.8872549 0.8872549 0.8872549
0.90588235 0.90588235 0.90588235
0.91470588 0.91470588 0.91470588
0.92647059 0.92647059 0.92647059
0.95294118 0.95294118 0.95294118
0.55294118 0.55294118 0.55294118
0.56862745 0.56862745 0.56862745
0.64117647 0.64117647 0.64117647
0.70392157 0.70392157 0.70392157
0.8 0.8 0.8
0.64019608 0.64019608 0.64019608
0.65196078 0.65196078 0.65196078
0.68480392 0.68480392 0.68480392
0.74215686 0.74215686 0.74215686
0.83039216 0.83039216 0.83039216
0.75686275 0.75686275 0.75686275
0.76764706 0.76764706 0.76764706
0.77843137 0.77843137 0.77843137
0.83186275 0.83186275 0.83186275
0.87647059 0.87647059 0.87647059
0.87254902 0.87254902 0.87254902
0.8754902 0.8754902 0.8754902
0.88970588 0.88970588 0.88970588
0.89215686 0.89215686 0.89215686
0.94313725 0.94313725 0.94313725
0.95294118 0.95294118 0.95294118
0.97745098 0.97745098 0.97745098
0.96078431 0.96078431 0.96078431
0.99215686 0.99215686 0.99215686
0.96470588 0.96470588 0.96470588
