site/assets/luts/sha256-4487e5dfba0b4b4521ffecc4ae5922e25e8f82fd200948e58b96f6d1dde63b56.cube
# LUTr-Schema-Version: 2
# LUTr-ID: sha256-4487e5dfba0b4b4521ffecc4ae5922e25e8f82fd200948e58b96f6d1dde63b56
# LUTr-Title: polaroid px-100uv+ cold
# LUTr-Collection: Natron HaldCLUT
# LUTr-Collection-ID: natron-haldclut-presets
# LUTr-Source: https://github.com/NatronGitHub/clut
# LUTr-Retrieved: 2026-07-27
# LUTr-Source-File: submissions/natron-haldclut-presets/instant_consumer/polaroid_px-100uv+_cold.png
# LUTr-Source-Format: HALD-PNG
# LUTr-Source-SHA256: 4487e5dfba0b4b4521ffecc4ae5922e25e8f82fd200948e58b96f6d1dde63b56
# LUTr-License: CC-BY-SA-4.0
# LUTr-License-URL: https://github.com/NatronGitHub/clut#license
# LUTr-License-Basis: repo-license-file
# LUTr-Transform-Class: film-emulation
# LUTr-Tags: creative, film, film-emulation, hald-clut, natron, png, cool, cube
# LUTr-Input-Color-Space: srgb
# LUTr-Input-Gamut: rec709
# LUTr-Input-Transfer: srgb
# LUTr-Output-Color-Space: srgb
# LUTr-Output-Gamut: rec709
# LUTr-Output-Transfer: srgb
# LUTr-Color-Space-Confidence: assumed-display-referred
# LUTr-Domain-Normalized: true
# LUTr-Shaper: none
# LUTr-Original-Grid: 64x64x64
# LUTr-Conversion-Grid: 25x25x25
# LUTr-Conversion-Interpolation: trilinear
# LUTr-Conversion-Method: HALD-PNG LUT image decoded at 16-bit and sampled to 25x25x25 3D CUBE
# LUTr-Conversion-Tool: LUTr scripts/convert-all-to-cube.mjs 2.0.0
# LUTr-Conversion-Date: 2026-07-27
# LUTr-Note: Preserve this metadata and the upstream license notices when redistributing.
TITLE "polaroid px-100uv+ cold"
LUT_3D_SIZE 25
DOMAIN_MIN 0 0 0
DOMAIN_MAX 1 1 1
0.2 0.27058824 0.27843137
0.19607843 0.27058824 0.27843137
0.19607843 0.27058824 0.27843137
0.19607843 0.27058824 0.27843137
0.19607843 0.27058824 0.27843137
0.19705882 0.27107843 0.27892157
0.21372549 0.28431373 0.29215686
0.22892157 0.29705882 0.30490196
0.24313725 0.30980392 0.31764706
0.26127451 0.32401961 0.33186275
0.27647059 0.33823529 0.34607843
0.29313725 0.35245098 0.36029412
0.30980392 0.36666667 0.3745098
0.33431373 0.38529412 0.39264706
0.35490196 0.40588235 0.40980392
0.38088235 0.42647059 0.42647059
0.40784314 0.45098039 0.44705882
0.43235294 0.47401961 0.46764706
0.46078431 0.49705882 0.48823529
0.48872549 0.52058824 0.50882353
0.51568627 0.54509804 0.52941176
0.54215686 0.56960784 0.55
0.56666667 0.59411765 0.57058824
0.59117647 0.61470588 0.58970588
0.61176471 0.63137255 0.60392157
0.2 0.27058824 0.27843137
0.19908088 0.27058824 0.27843137
0.19607843 0.27058824 0.27843137
0.19607843 0.27058824 0.27843137
0.19411765 0.26666667 0.2745098
0.19656863 0.27107843 0.27892157
0.21078431 0.28431373 0.29215686
0.22892157 0.29705882 0.30490196
0.24558824 0.30980392 0.32009804
0.26127451 0.32401961 0.33186275
0.27647059 0.33823529 0.34607843
0.29577206 0.35245098 0.36029412
0.31372549 0.36862745 0.37647059
0.3346201 0.38743873 0.39313725
0.35882353 0.40588235 0.41041667
0.38333333 0.42947304 0.43039216
0.40784314 0.45098039 0.4495098
0.43480392 0.47401961 0.46764706
0.46139706 0.49705882 0.48823529
0.48872549 0.52273284 0.51096814
0.51568627 0.54705882 0.53186275
0.54264706 0.57009804 0.55214461
0.56960784 0.59411765 0.57058824
0.59417892 0.61470588 0.59117647
0.61176471 0.63137255 0.60392157
0.20098039 0.2754902 0.28333333
0.20098039 0.2754902 0.28333333
0.20098039 0.2745098 0.28235294
0.20012255 0.27193627 0.27977941
0.19705882 0.27107843 0.27892157
0.19497549 0.2685049 0.27647059
0.21397059 0.28455882 0.29313725
0.2310049 0.2995098 0.30772059
0.24705882 0.31372549 0.32156863
0.25980392 0.32401961 0.33186275
0.27671569 0.33921569 0.34705882
0.29803922 0.35588235 0.36384804
0.31764706 0.37254902 0.38039216
0.33958333 0.39019608 0.39705882
0.36348039 0.40980392 0.41397059
0.3872549 0.43039216 0.43321078
0.41176471 0.45196078 0.45098039
0.43688725 0.4754902 0.47156863
0.4625 0.5 0.49215686
0.49007353 0.52401961 0.5127451
0.51764706 0.54705882 0.53333333
0.5435049 0.57009804 0.55392157
0.56985294 0.59411765 0.5745098
0.59509804 0.61862745 0.59117647
0.61176471 0.63137255 0.60392157
0.21127451 0.28186275 0.28970588
0.2091299 0.28186275 0.28970588
0.20772059 0.28186275 0.28970588
0.20735294 0.28186275 0.28970588
0.20735294 0.27794118 0.28578431
0.21127451 0.28235294 0.29019608
0.22205882 0.29264706 0.3004902
0.23645833 0.30343137 0.31470588
0.24705882 0.31372549 0.32156863
0.25980392 0.32401961 0.33186275
0.27659314 0.33921569 0.34705882
0.30098039 0.35588235 0.36421569
0.32156863 0.37622549 0.38406863
0.34564951 0.39313725 0.40091912
0.3692402 0.41372549 0.4185049
0.39117647 0.43431373 0.4377451
0.41568627 0.45490196 0.45490196
0.44019608 0.4776348 0.47518382
0.46568627 0.5 0.49558824
0.49264706 0.52401961 0.5127451
0.51936275 0.54705882 0.53333333
0.54607843 0.57009804 0.55392157
0.57058824 0.59411765 0.5745098
0.59509804 0.61470588 0.59117647
0.60833333 0.62794118 0.60392157
0.21764706 0.28823529 0.29607843
0.21568627 0.28823529 0.29607843
0.21568627 0.28823529 0.29607843
0.21568627 0.28823529 0.29607843
0.21764706 0.28823529 0.29607843
0.22401961 0.29264706 0.30220588
0.23235294 0.30294118 0.31078431
0.24387255 0.31053922 0.32034314
0.25098039 0.31764706 0.32745098
0.25808824 0.32156863 0.33259804
0.275 0.33529412 0.34705882
0.30073529 0.35588235 0.36593137
0.3254902 0.37843137 0.38529412
0.3502451 0.39901961 0.40490196
0.37401961 0.41764706 0.42352941
0.39779412 0.43823529 0.44142157
0.42156863 0.45882353 0.45882353
0.44411765 0.47941176 0.47622549
0.46911765 0.5 0.49607843
0.49485294 0.5245098 0.51666667
0.52058824 0.54705882 0.5372549
0.54607843 0.56960784 0.55392157
0.57058824 0.59362745 0.5745098
0.59044118 0.61127451 0.58970588
0.60196078 0.62156863 0.59803922
0.22352941 0.29460784 0.30245098
0.22352941 0.29411765 0.30196078
0.22352941 0.29411765 0.30196078
0.22352941 0.29411765 0.30196078
0.22598039 0.29656863 0.30441176
0.23627451 0.30294118 0.31078431
0.24362745 0.31029412 0.32107843
0.25294118 0.31813725 0.32745098
0.25931373 0.32205882 0.33382353
0.26617647 0.3286152 0.34019608
0.28088235 0.33970588 0.35147059
0.30533088 0.36029412 0.37156863
0.32990196 0.38088235 0.38872549
0.35441176 0.40147059 0.40882353
0.37843137 0.42156863 0.42598039
0.40294118 0.44215686 0.44479167
0.42352941 0.45882353 0.4627451
0.44656863 0.47941176 0.47941176
0.46997549 0.50098039 0.49656863
0.49705882 0.5245098 0.51672794
0.52156863 0.54681373 0.5372549
0.54607843 0.56960784 0.55735294
0.57009804 0.58982843 0.57156863
0.58137255 0.60098039 0.58382353
0.5877451 0.60735294 0.5877451
0.23039216 0.30098039 0.30882353
0.23039216 0.30098039 0.30882353
0.22745098 0.29803922 0.30588235
0.22745098 0.29803922 0.30588235
0.23333333 0.30343137 0.31127451
0.24656863 0.31323529 0.32107843
0.25686275 0.31960784 0.33137255
0.26617647 0.32953431 0.3377451
0.27647059 0.33627451 0.34705882
0.28676471 0.34375 0.35441176
0.29803922 0.35367647 0.36470588
0.31568627 0.36973039 0.37879902
0.33676471 0.3872549 0.39509804
0.36078431 0.40490196 0.4127451
0.38235294 0.4254902 0.43014706
0.40588235 0.4439951 0.44607843
0.42352941 0.45882353 0.4627451
0.44767157 0.47941176 0.47941176
0.47254902 0.5 0.5
0.49963235 0.5245098 0.52058824
0.52352941 0.54509804 0.53872549
0.54607843 0.56666667 0.55735294
0.5629902 0.58406863 0.56862745
0.57291667 0.59252451 0.57683824
0.57745098 0.6 0.58039216
0.24215686 0.30882353 0.31666667
0.24215686 0.30882353 0.31666667
0.23823529 0.30845588 0.31519608
0.23578431 0.30490196 0.3127451
0.24803922 0.31470588 0.32254902
0.26096814 0.32481618 0.33284314
0.27254902 0.33382353 0.34313725
0.28284314 0.34319853 0.35196078
0.29313725 0.3504902 0.35980392
0.30343137 0.35925245 0.36862745
0.31764706 0.3692402 0.37892157
0.33186275 0.38265931 0.39068627
0.34926471 0.39558824 0.40343137
0.36715686 0.41029412 0.41795343
0.3877451 0.42757353 0.43370098
0.40686275 0.44460784 0.44852941
0.42745098 0.45882353 0.4627451
0.44803922 0.47941176 0.47941176
0.47291667 0.5 0.5
0.5004902 0.52432598 0.52058824
0.5254902 0.54509804 0.54117647
0.54577206 0.5653799 0.55735294
0.56090686 0.58051471 0.56764706
0.5754902 0.59509804 0.57941176
0.5872549 0.60686275 0.58970588
0.26666667 0.32941176 0.3372549
0.26421569 0.32941176 0.3372549
0.2627451 0.32843137 0.33333333
0.2627451 0.32892157 0.33676471
0.26862745 0.33333333 0.33921569
0.27892157 0.34117647 0.34901961
0.28921569 0.34803922 0.35588235
0.2995098 0.35686275 0.36617647
0.30980392 0.36470588 0.37254902
0.32401961 0.375 0.38284314
0.33529412 0.38529412 0.39313725
0.35196078 0.39558824 0.40343137
0.36470588 0.40980392 0.41764706
0.38088235 0.42009804 0.42794118
0.39509804 0.43431373 0.43823529
0.40931373 0.44460784 0.45
0.42745098 0.45882353 0.4627451
0.44803922 0.4754902 0.47941176
0.47352941 0.5 0.5
0.5004902 0.52401961 0.52058824
0.52745098 0.54901961 0.54117647
0.55 0.56960784 0.56127451
0.57058824 0.5872549 0.5745098
0.5872549 0.60539216 0.5872549
0.6 0.61960784 0.6
0.29362745 0.35 0.35784314
0.29117647 0.35 0.35784314
0.28970588 0.35 0.35784314
0.29332108 0.35 0.35784314
0.29828431 0.35514706 0.36176471
0.30557598 0.36047794 0.36617647
0.31041667 0.36470588 0.37254902
0.31764706 0.37015931 0.37800245
0.32794118 0.37892157 0.38676471
0.34068627 0.38921569 0.39705882
0.35490196 0.3995098 0.40735294
0.36648284 0.40980392 0.41764706
0.38014706 0.42132353 0.42794118
0.39509804 0.43431373 0.43823529
0.40723039 0.44460784 0.44852941
0.41960784 0.45098039 0.45882353
0.43382353 0.46127451 0.46666667
0.44957108 0.4754902 0.47941176
0.47647059 0.50061275 0.5
0.50441176 0.52794118 0.52432598
0.53259804 0.55416667 0.54509804
0.55814951 0.57745098 0.56550245
0.58088235 0.59693627 0.58186275
0.59754902 0.61568627 0.59607843
0.61029412 0.62990196 0.60637255
0.31960784 0.37156863 0.37843137
0.31960784 0.37058824 0.37843137
0.31960784 0.37083333 0.37843137
0.32058824 0.37414216 0.37928922
0.32647059 0.37696078 0.38431373
0.3314951 0.38235294 0.39019608
0.33529412 0.38529412 0.39240196
0.33921569 0.38627451 0.39411765
0.34607843 0.39313725 0.40098039
0.35735294 0.40343137 0.41127451
0.37058824 0.41372549 0.41862745
0.38186275 0.42401961 0.42892157
0.39509804 0.43431373 0.43872549
0.40931373 0.44460784 0.44852941
0.41960784 0.45490196 0.45882353
0.43198529 0.46127451 0.46764706
0.44411765 0.47156863 0.4754902
0.46078431 0.48639706 0.48823529
0.48235294 0.50882353 0.50490196
0.50931373 0.53284314 0.5254902
0.53627451 0.55784314 0.54901961
0.56311275 0.58272059 0.56960784
0.5872549 0.60661765 0.5879902
0.60784314 0.62598039 0.60392157
0.62058824 0.64019608 0.61568627
0.34754902 0.39509804 0.39901961
0.34754902 0.39509804 0.39901961
0.34754902 0.39509804 0.39901961
0.34797794 0.39509804 0.4028799
0.35367647 0.39901961 0.40686275
0.35631127 0.40294118 0.41078431
0.35980392 0.40294118 0.41078431
0.35980392 0.40471814 0.41096814
0.36372549 0.40735294 0.41519608
0.37401961 0.41734069 0.42156863
0.38480392 0.42745098 0.43186275
0.39852941 0.43474265 0.44215686
0.40931373 0.44460784 0.45245098
0.42003676 0.45490196 0.45882353
0.43382353 0.46519608 0.46911765
0.44411765 0.47530637 0.47922794
0.45833333 0.48578431 0.48921569
0.47469363 0.49981618 0.5
0.49558824 0.51911765 0.51519608
0.51960784 0.54313725 0.53578431
0.54460784 0.56617647 0.55465686
0.56917892 0.58921569 0.57352941
0.59362745 0.61323529 0.59362745
0.61470588 0.63382353 0.61060049
0.63088235 0.64705882 0.62303922
0.37254902 0.41568627 0.41960784
0.37254902 0.41568627 0.41960784
0.3745098 0.41568627 0.42205882
0.37647059 0.41936275 0.42352941
0.37941176 0.41960784 0.42745098
0.38039216 0.42156863 0.42745098
0.38039216 0.42303922 0.42745098
0.38039216 0.42352941 0.42745098
0.38431373 0.42352941 0.42941176
0.39068627 0.43063725 0.43578431
0.40098039 0.43823529 0.44411765
0.41323529 0.44852941 0.45245098
0.42352941 0.45784314 0.4627451
0.43406863 0.46519608 0.46911765
0.44754902 0.4754902 0.47941176
0.45906863 0.48651961 0.48970588
0.4745098 0.5 0.5
0.49117647 0.51544118 0.51348039
0.50980392 0.53333333 0.52696078
0.53235294 0.55392157 0.54607843
0.55686275 0.57843137 0.5627451
0.57941176 0.59901961 0.58308824
0.60392157 0.61960784 0.6
0.62377451 0.64019608 0.61593137
0.63921569 0.65490196 0.62745098
0.39754902 0.43627451 0.44019608
0.39969363 0.43627451 0.44019608
0.40110294 0.43627451 0.44411765
0.40147059 0.44019608 0.44411765
0.40490196 0.44019608 0.44411765
0.40490196 0.44019608 0.44411765
0.40110294 0.44019608 0.44411765
0.40098039 0.44019608 0.44411765
0.40441176 0.44019608 0.44411765
0.40735294 0.44362745 0.44785539
0.41715686 0.45245098 0.45637255
0.42794118 0.45974265 0.46666667
0.43823529 0.46911765 0.47303922
0.44852941 0.47941176 0.48333333
0.46139706 0.48970588 0.49019608
0.4745098 0.50177696 0.50177696
0.49117647 0.51470588 0.51421569
0.50753676 0.53106618 0.52481618
0.5245098 0.54803922 0.53970588
0.54852941 0.56862745 0.55637255
0.56911765 0.58872549 0.57303922
0.58970588 0.60931373 0.58964461
0.60992647 0.62941176 0.6060049
0.62910539 0.64607843 0.61893382
0.64313725 0.65882353 0.63137255
0.4254902 0.45686275 0.46078431
0.4254902 0.45686275 0.46078431
0.4254902 0.45686275 0.46470588
0.4254902 0.45686275 0.46470588
0.4254902 0.45784314 0.46176471
0.4254902 0.45686275 0.46164216
0.4254902 0.45686275 0.46078431
0.4245098 0.45686275 0.46078431
0.4245098 0.45686275 0.46078431
0.4254902 0.45747549 0.46176471
0.43210784 0.46495098 0.46887255
0.44460784 0.47303922 0.47696078
0.45490196 0.48333333 0.4872549
0.46654412 0.49362745 0.49656863
0.47941176 0.50392157 0.50392157
0.49178922 0.51752451 0.51421569
0.50784314 0.53137255 0.5245098
0.52267157 0.54620098 0.53872549
0.54117647 0.56176471 0.55
0.56176471 0.58235294 0.56666667
0.58137255 0.60098039 0.58186275
0.6 0.61960784 0.59607843
0.61764706 0.63627451 0.61053922
0.6372549 0.65294118 0.62438725
0.65 0.66568627 0.63529412
0.45147059 0.47745098 0.48137255
0.45147059 0.47745098 0.48137255
0.45147059 0.47745098 0.48137255
0.45147059 0.47873775 0.48137255
0.45 0.47892157 0.48137255
0.45 0.47873775 0.48137255
0.44816176 0.47745098 0.48137255
0.44754902 0.47745098 0.48137255
0.44754902 0.47745098 0.48137255
0.44754902 0.4783701 0.48137255
0.45245098 0.48235294 0.48529412
0.46488971 0.49264706 0.49264706
0.4754902 0.50294118 0.50147059
0.48578431 0.51323529 0.51145833
0.5 0.52352941 0.51960784
0.51029412 0.53382353 0.52935049
0.5245098 0.54803922 0.53872549
0.54025735 0.56170343 0.5504902
0.5557598 0.57708333 0.56323529
0.57322304 0.59313725 0.57696078
0.59362745 0.6120098 0.59166667
0.61029412 0.62990196 0.60588235
0.63088235 0.64656863 0.61911765
0.64846814 0.66623775 0.63431373
0.66421569 0.67990196 0.64460784
0.47843137 0.50196078 0.50196078
0.47843137 0.50196078 0.50196078
0.47843137 0.50196078 0.50196078
0.47843137 0.50196078 0.50196078
0.47647059 0.50196078 0.50196078
0.4745098 0.50196078 0.50196078
0.4745098 0.50196078 0.50196078
0.4745098 0.50196078 0.50196078
0.4745098 0.50196078 0.50196078
0.47696078 0.50441176 0.50196078
0.47941176 0.50686275 0.50588235
0.48970588 0.51372549 0.50980392
0.49607843 0.52352941 0.51960784
0.50686275 0.53382353 0.52598039
0.52058824 0.54019608 0.53627451
0.53088235 0.55441176 0.54509804
0.54509804 0.56470588 0.55294118
0.55784314 0.57892157 0.56323529
0.57058824 0.59313725 0.57352941
0.5872549 0.60686275 0.5872549
0.60392157 0.62352941 0.6
0.62401961 0.64019608 0.6127451
0.64117647 0.66078431 0.62941176
0.66176471 0.67745098 0.64215686
0.67843137 0.69803922 0.65882353
0.50539216 0.52647059 0.52254902
0.50294118 0.52647059 0.52254902
0.50294118 0.52647059 0.52254902
0.50294118 0.52647059 0.52254902
0.50294118 0.52647059 0.52254902
0.50294118 0.52892157 0.52254902
0.50147059 0.52892157 0.52254902
0.50147059 0.52892157 0.52254902
0.50294118 0.52892157 0.52254902
0.50539216 0.53039216 0.52408088
0.50931373 0.53321078 0.52708333
0.51666667 0.5403799 0.53382353
0.52303922 0.54730392 0.53823529
0.53088235 0.55422794 0.54393382
0.54117647 0.56078431 0.55294118
0.55447304 0.575 0.56078431
0.56813725 0.5877451 0.57107843
0.57990196 0.5995098 0.58137255
0.59411765 0.61262255 0.59019608
0.60784314 0.62616422 0.60177696
0.6245098 0.64215686 0.61470588
0.64117647 0.66029412 0.62892157
0.66176471 0.67745098 0.64313725
0.68143382 0.6971201 0.65790441
0.69509804 0.70833333 0.66911765
0.53235294 0.55196078 0.54313725
0.53137255 0.55196078 0.54313725
0.53137255 0.55196078 0.54313725
0.53137255 0.55196078 0.54313725
0.53137255 0.55196078 0.54313725
0.53137255 0.55490196 0.54313725
0.53210784 0.55490196 0.54313725
0.53235294 0.55526961 0.54522059
0.53235294 0.55588235 0.54705882
0.53419118 0.55588235 0.54705882
0.5370098 0.55906863 0.54803922
0.54362745 0.56617647 0.55441176
0.55 0.57254902 0.55882353
0.55637255 0.57855392 0.56323529
0.56666667 0.58553922 0.56960784
0.57806373 0.59767157 0.57990196
0.59117647 0.60980392 0.59019608
0.60441176 0.62291667 0.5995098
0.61642157 0.63431373 0.60980392
0.62977941 0.64816176 0.62009804
0.64754902 0.66323529 0.63137255
0.66568627 0.68137255 0.64558824
0.68259804 0.69828431 0.65980392
0.70085784 0.71323529 0.67303922
0.70784314 0.72254902 0.67941176
0.55931373 0.57941176 0.56764706
0.55931373 0.57910539 0.56715686
0.55931373 0.57892157 0.56372549
0.55931373 0.57935049 0.56372549
0.55931373 0.57941176 0.56715686
0.55931373 0.57941176 0.56721814
0.55931373 0.58198529 0.56764706
0.55980392 0.58284314 0.56764706
0.56323529 0.58284314 0.56764706
0.56323529 0.58284314 0.56764706
0.56421569 0.58419118 0.57120098
0.57064951 0.59068627 0.575
0.57720588 0.59705882 0.57941176
0.58376225 0.6033701 0.58382353
0.59362745 0.61066176 0.59019608
0.60392157 0.62009804 0.59705882
0.61470588 0.63382353 0.60686275
0.62843137 0.64460784 0.61715686
0.64007353 0.65845588 0.62745098
0.65643382 0.6721201 0.6377451
0.67132353 0.6870098 0.6502451
0.68927696 0.70196078 0.66317402
0.70392157 0.71960784 0.67683824
0.71813725 0.73039216 0.68707108
0.725 0.73676471 0.69362745
0.58627451 0.60588235 0.58823529
0.58627451 0.60588235 0.58823529
0.58872549 0.60980392 0.58872549
0.59019608 0.60980392 0.59019608
0.59019608 0.60980392 0.59019608
0.59215686 0.61176471 0.59044118
0.59362745 0.61372549 0.59215686
0.59411765 0.61372549 0.59411765
0.59607843 0.61372549 0.59411765
0.59607843 0.61568627 0.59411765
0.59656863 0.61617647 0.59460784
0.60171569 0.61936275 0.59779412
0.60686275 0.6254902 0.60098039
0.61372549 0.62990196 0.60441176
0.62058824 0.63676471 0.61078431
0.62892157 0.64656863 0.61715686
0.64117647 0.65686275 0.62745098
0.65269608 0.66911765 0.63578431
0.66617647 0.68186275 0.64803922
0.68161765 0.69534314 0.65833333
0.69509804 0.71078431 0.66862745
0.7125 0.72598039 0.68284314
0.7245098 0.74019608 0.69313725
0.73602941 0.74779412 0.70073529
0.74509804 0.75490196 0.70588235
0.62598039 0.64509804 0.61715686
0.6254902 0.64509804 0.61715686
0.6254902 0.64509804 0.61715686
0.6254902 0.64509804 0.61715686
0.62892157 0.64509804 0.61715686
0.62941176 0.64852941 0.62064951
0.62941176 0.64889706 0.62107843
0.63333333 0.64901961 0.62107843
0.63333333 0.65245098 0.6245098
0.63333333 0.65245098 0.625
0.63688725 0.65294118 0.625
0.6372549 0.65294118 0.625
0.64093137 0.65661765 0.62843137
0.64466912 0.66078431 0.62935049
0.65110294 0.66421569 0.63235294
0.65784314 0.67352941 0.63823529
0.66862745 0.68431373 0.64852941
0.68235294 0.69803922 0.65851716
0.69656863 0.70845588 0.66862745
0.71029412 0.72254902 0.67935049
0.72303922 0.73676471 0.68946078
0.73480392 0.74699755 0.6995098
0.74509804 0.75686275 0.70931373
0.75539216 0.76697304 0.71599265
0.76176471 0.77303922 0.72205882
0.67058824 0.68627451 0.65196078
0.67058824 0.68627451 0.65134804
0.66887255 0.68627451 0.64803922
0.66666667 0.68627451 0.64803922
0.66666667 0.68333333 0.64803922
0.66936275 0.68627451 0.64803922
0.66985294 0.68627451 0.64901961
0.67095588 0.68664216 0.65196078
0.6745098 0.69019608 0.65196078
0.6745098 0.69019608 0.65477941
0.6745098 0.69019608 0.65588235
0.6754902 0.69117647 0.65588235
0.67696078 0.69117647 0.65588235
0.6754902 0.69117647 0.65294118
0.67622549 0.69117647 0.65294118
0.69019608 0.70441176 0.66335784
0.70588235 0.71862745 0.6754902
0.71715686 0.73186275 0.68578431
0.73063725 0.74313725 0.69607843
0.74166667 0.75343137 0.70637255
0.7504902 0.7622549 0.7122549
0.75919118 0.77058824 0.71703431
0.76568627 0.77745098 0.72426471
0.77598039 0.78382353 0.7317402
0.78235294 0.79019608 0.73627451
0.71176471 0.72745098 0.68284314
0.71176471 0.72745098 0.68284314
0.70747549 0.72536765 0.67892157
0.70637255 0.72205882 0.67745098
0.6997549 0.71544118 0.67352941
0.69234069 0.70802696 0.66832108
0.70036765 0.71568627 0.67352941
0.70637255 0.72113971 0.67745098
0.71029412 0.72352941 0.68137255
0.71329657 0.72689951 0.68284314
0.71458333 0.72745098 0.68284314
0.71439951 0.72616422 0.68284314
0.70833333 0.72132353 0.67941176
0.70226716 0.71636029 0.67352941
0.70539216 0.72107843 0.67647059
0.72254902 0.73676471 0.68970588
0.74166667 0.75490196 0.70490196
0.75588235 0.76764706 0.71519608
0.76188725 0.77365196 0.72058824
0.76764706 0.77941176 0.7245098
0.77352941 0.78333333 0.72965686
0.77971814 0.7877451 0.73498775
0.78627451 0.79473039 0.73982843
0.79509804 0.80202206 0.7471201
0.80147059 0.80931373 0.7504902
0.75294118 0.76862745 0.71372549
0.74264706 0.75833333 0.70588235
0.73333333 0.74803922 0.69803922
0.72598039 0.74166667 0.69411765
0.71960784 0.73529412 0.68823529
0.70686275 0.72254902 0.67892157
0.72058824 0.73333333 0.68921569
0.72696078 0.74117647 0.69411765
0.73333333 0.74901961 0.69803922
0.74362745 0.75539216 0.70588235
0.75196078 0.76372549 0.7127451
0.7377451 0.75343137 0.70245098
0.73137255 0.74313725 0.69607843
0.72941176 0.74117647 0.69411765
0.73627451 0.74803922 0.70098039
0.75196078 0.76372549 0.7127451
0.77254902 0.78431373 0.72941176
0.77892157 0.79068627 0.73333333
0.78039216 0.79215686 0.73431373
0.78431373 0.79558824 0.7372549
0.78823529 0.79803922 0.74117647
0.79264706 0.80392157 0.74558824
0.8 0.80784314 0.75196078
0.80931373 0.81568627 0.75833333
0.81568627 0.81960784 0.76078431
0.20637255 0.27696078 0.28480392
0.20637255 0.27696078 0.28480392
0.20355392 0.27696078 0.28480392
0.20245098 0.27696078 0.28480392
0.20245098 0.27696078 0.28480392
0.20655637 0.27745098 0.28529412
0.21715686 0.28884804 0.29669118
0.23376225 0.30196078 0.30980392
0.2495098 0.31372549 0.32156863
0.26464461 0.32794118 0.33578431
0.28002451 0.34105392 0.34889706
0.2995098 0.35618873 0.36403186
0.32009804 0.37377451 0.37965686
0.34068627 0.39166667 0.39558824
0.36127451 0.40980392 0.41262255
0.38425245 0.43039216 0.43039216
0.40784314 0.45343137 0.4495098
0.43480392 0.4754902 0.46856618
0.46139706 0.49889706 0.48823529
0.48872549 0.52273284 0.50882353
0.51568627 0.54705882 0.52941176
0.54246324 0.57009804 0.55
0.56960784 0.59411765 0.57058824
0.59417892 0.61715686 0.59117647
0.61176471 0.63137255 0.60392157
0.20637255 0.2778799 0.28572304
0.20637255 0.27696078 0.28480392
0.2037837 0.27696078 0.28480392
0.20245098 0.27696078 0.28480392
0.20245098 0.27696078 0.28480392
0.20294118 0.27745098 0.28529412
0.21715686 0.2877451 0.29558824
0.23341759 0.30196078 0.31014859
0.2495098 0.31372549 0.32401961
0.26464461 0.32794118 0.33578431
0.28154105 0.34212623 0.35038297
0.3017693 0.35844822 0.36629136
0.32132353 0.37545956 0.38238358
0.34080116 0.39166667 0.39833027
0.36375613 0.4122549 0.41548713
0.38633578 0.43192402 0.43249847
0.41121324 0.45343137 0.45098039
0.43606771 0.4754902 0.47156863
0.4629136 0.5 0.49160539
0.48903186 0.52421109 0.51219363
0.51568627 0.54705882 0.53278186
0.54264706 0.57143842 0.5533701
0.56960784 0.59411765 0.57257966
0.59509804 0.61862745 0.59117647
0.61176471 0.63474265 0.60392157
0.20845588 0.28125 0.28909314
0.20776654 0.28102022 0.28886336
0.20719975 0.27904412 0.28826593
0.2064185 0.27807904 0.28592218
0.20526961 0.27794118 0.28578431
0.20784314 0.27843137 0.28788297
0.22107843 0.29093137 0.29905025
0.23630515 0.30335478 0.31188725
0.24987745 0.31617647 0.32438725
0.26464461 0.32738971 0.33731618
0.28293505 0.34313725 0.35297181
0.30712316 0.36230086 0.370144
0.32401961 0.37714461 0.38498775
0.3446538 0.39535846 0.3998315
0.36685049 0.41387868 0.41780025
0.39071691 0.43431373 0.43607537
0.41458333 0.45490196 0.45490196
0.43978248 0.47725184 0.47300858
0.46485907 0.5 0.49215686
