site/assets/luts/sha256-f756886a17e624a743f1d172fc5551849fd85bd3c767bc27cc2074ea6b29f361.cube
# LUTr-Schema-Version: 2
# LUTr-ID: sha256-f756886a17e624a743f1d172fc5551849fd85bd3c767bc27cc2074ea6b29f361
# LUTr-Title: polaroid px-100uv+ warm +
# LUTr-Collection: Natron HaldCLUT
# LUTr-Collection-ID: natron-haldclut-presets
# LUTr-Source: https://github.com/NatronGitHub/clut
# LUTr-Retrieved: 2026-07-27
# LUTr-Source-File: submissions/natron-haldclut-presets/instant_consumer/polaroid_px-100uv+_warm_+.png
# LUTr-Source-Format: HALD-PNG
# LUTr-Source-SHA256: f756886a17e624a743f1d172fc5551849fd85bd3c767bc27cc2074ea6b29f361
# LUTr-License: CC-BY-SA-4.0
# LUTr-License-URL: https://github.com/NatronGitHub/clut#license
# LUTr-License-Basis: repo-license-file
# LUTr-Transform-Class: film-emulation
# LUTr-Tags: creative, film, film-emulation, hald-clut, natron, png, warm, cube
# LUTr-Input-Color-Space: srgb
# LUTr-Input-Gamut: rec709
# LUTr-Input-Transfer: srgb
# LUTr-Output-Color-Space: srgb
# LUTr-Output-Gamut: rec709
# LUTr-Output-Transfer: srgb
# LUTr-Color-Space-Confidence: assumed-display-referred
# LUTr-Domain-Normalized: true
# LUTr-Shaper: none
# LUTr-Original-Grid: 64x64x64
# LUTr-Conversion-Grid: 25x25x25
# LUTr-Conversion-Interpolation: trilinear
# LUTr-Conversion-Method: HALD-PNG LUT image decoded at 16-bit and sampled to 25x25x25 3D CUBE
# LUTr-Conversion-Tool: LUTr scripts/convert-all-to-cube.mjs 2.0.0
# LUTr-Conversion-Date: 2026-07-27
# LUTr-Note: Preserve this metadata and the upstream license notices when redistributing.
TITLE "polaroid px-100uv+ warm +"
LUT_3D_SIZE 25
DOMAIN_MIN 0 0 0
DOMAIN_MAX 1 1 1
0.3372549 0.31372549 0.31372549
0.3372549 0.31372549 0.31372549
0.33333333 0.3127451 0.31372549
0.33333333 0.30980392 0.30980392
0.32941176 0.30784314 0.30784314
0.33382353 0.31029412 0.31029412
0.34117647 0.32058824 0.32058824
0.3504902 0.33088235 0.33088235
0.36078431 0.3372549 0.34117647
0.36715686 0.34754902 0.35147059
0.3745098 0.35784314 0.36176471
0.3877451 0.37156863 0.3754902
0.40392157 0.38823529 0.39019608
0.42009804 0.40490196 0.40833333
0.43431373 0.42156863 0.42254902
0.45 0.43823529 0.44068627
0.46666667 0.45490196 0.45490196
0.48088235 0.47156863 0.47156863
0.49607843 0.48823529 0.48823529
0.51323529 0.50490196 0.50490196
0.53137255 0.52156863 0.52156863
0.55784314 0.54656863 0.54607843
0.58529412 0.5745098 0.56960784
0.6122549 0.60294118 0.59264706
0.63529412 0.62352941 0.61176471
0.3372549 0.31372549 0.31764706
0.3372549 0.31372549 0.31372549
0.33333333 0.3127451 0.31372549
0.33333333 0.30980392 0.31011029
0.33063725 0.30784314 0.30906863
0.33382353 0.31029412 0.31029412
0.34056373 0.32058824 0.32058824
0.3504902 0.3278799 0.33088235
0.35686275 0.3372549 0.34117647
0.36715686 0.34754902 0.34810049
0.37352941 0.35784314 0.35882353
0.3877451 0.37156863 0.37205882
0.40392157 0.3870098 0.39019608
0.42009804 0.40490196 0.40833333
0.43431373 0.42156863 0.4254902
0.45153186 0.43976716 0.44160539
0.46666667 0.45490196 0.45882353
0.48241422 0.47248775 0.47303922
0.49791667 0.48823529 0.48823529
0.51323529 0.50490196 0.50490196
0.52941176 0.52156863 0.52156863
0.55784314 0.54656863 0.54607843
0.58529412 0.5745098 0.56960784
0.61378676 0.60294118 0.59509804
0.63529412 0.62352941 0.61421569
0.3372549 0.31372549 0.31764706
0.3372549 0.31372549 0.31372549
0.33406863 0.31372549 0.31372549
0.33333333 0.31078431 0.31372549
0.33431373 0.3122549 0.31372549
0.33737745 0.31507353 0.31507353
0.34117647 0.32083333 0.32083333
0.34901961 0.32696078 0.33088235
0.35686275 0.3372549 0.3372549
0.36323529 0.34362745 0.34754902
0.37352941 0.35490196 0.35784314
0.3877451 0.37156863 0.37205882
0.40392157 0.38676471 0.39019608
0.42009804 0.40490196 0.40833333
0.4372549 0.42254902 0.4254902
0.45245098 0.44105392 0.44215686
0.46764706 0.45882353 0.45882353
0.48370098 0.47365196 0.4754902
0.49926471 0.49117647 0.49117647
0.51409314 0.50539216 0.50539216
0.52990196 0.52156863 0.52156863
0.55784314 0.54656863 0.54607843
0.58529412 0.5745098 0.57034314
0.6122549 0.60294118 0.59509804
0.63529412 0.62352941 0.61176471
0.3372549 0.31372549 0.31764706
0.33351716 0.31372549 0.31372549
0.3372549 0.31372549 0.31470588
0.3372549 0.31715686 0.31715686
0.34068627 0.31764706 0.31936275
0.34160539 0.32199755 0.32199755
0.34509804 0.32536765 0.32536765
0.34901961 0.32910539 0.33088235
0.35686275 0.33382353 0.3372549
0.36323529 0.34362745 0.34754902
0.37352941 0.35392157 0.35784314
0.38731618 0.37156863 0.37205882
0.40392157 0.38823529 0.39019608
0.42058824 0.40490196 0.40882353
0.4372549 0.42254902 0.4254902
0.45392157 0.44215686 0.44215686
0.47058824 0.45882353 0.4622549
0.48694853 0.47696078 0.47696078
0.50257353 0.49215686 0.49215686
0.51709559 0.50882353 0.50882353
0.53333333 0.5254902 0.5252451
0.55784314 0.54957108 0.54607843
0.58529412 0.5745098 0.56960784
0.6122549 0.60079657 0.59264706
0.63529412 0.62352941 0.61176471
0.33333333 0.30980392 0.31372549
0.33333333 0.3122549 0.31372549
0.3377451 0.31617647 0.31813725
0.34117647 0.32132353 0.32156863
0.34411765 0.3245098 0.3254902
0.34730392 0.32769608 0.32769608
0.3504902 0.33137255 0.33284314
0.35294118 0.33333333 0.33529412
0.35686275 0.33529412 0.3372549
0.36078431 0.34240196 0.34436275
0.37352941 0.35441176 0.35784314
0.3877451 0.37156863 0.3754902
0.40392157 0.38823529 0.39215686
0.42058824 0.40490196 0.40882353
0.43578431 0.42205882 0.4254902
0.45318627 0.44019608 0.44215686
0.47058824 0.45882353 0.46078431
0.4872549 0.47941176 0.47941176
0.50343137 0.49509804 0.49509804
0.51887255 0.50931373 0.50931373
0.53823529 0.52941176 0.52941176
0.56176471 0.55392157 0.55
0.58578431 0.57794118 0.57058824
0.6122549 0.60294118 0.59264706
0.63529412 0.62352941 0.61176471
0.33431373 0.31078431 0.31470588
0.3377451 0.31421569 0.31813725
0.34166667 0.32169118 0.32303922
0.34552696 0.32591912 0.32898284
0.34901961 0.32990196 0.33161765
0.34993873 0.33339461 0.33382353
0.35330882 0.3372549 0.33762255
0.35704657 0.33903186 0.34136029
0.36078431 0.34117647 0.34166667
0.36127451 0.34166667 0.34558824
0.37487745 0.35539216 0.35931373
0.39123775 0.37248775 0.37640931
0.40612745 0.39044118 0.39411765
0.42058824 0.40533088 0.40925245
0.43431373 0.42169118 0.4254902
0.45 0.43805147 0.44068627
0.46666667 0.45490196 0.45882353
0.4846201 0.47518382 0.4754902
0.50294118 0.49215686 0.49473039
0.52101716 0.5127451 0.5127451
0.54166667 0.53357843 0.53333333
0.56574755 0.55784314 0.55392157
0.59313725 0.58235294 0.57708333
0.61470588 0.60471814 0.59509804
0.63529412 0.62745098 0.6122549
0.34803922 0.32745098 0.33137255
0.34803922 0.32806373 0.33198529
0.35196078 0.33235294 0.33553922
0.35196078 0.33578431 0.33627451
0.35588235 0.33627451 0.34019608
0.35588235 0.34019608 0.34019608
0.35906863 0.34338235 0.34338235
0.36372549 0.34803922 0.34803922
0.36764706 0.35098039 0.35196078
0.37401961 0.35441176 0.35833333
0.38431373 0.36470588 0.36862745
0.39546569 0.37892157 0.38284314
0.41127451 0.39509804 0.39901961
0.42401961 0.40870098 0.41262255
0.4379902 0.42254902 0.42647059
0.44852941 0.43676471 0.44068627
0.4627451 0.45196078 0.45490196
0.4814951 0.47156863 0.47254902
0.50392157 0.49215686 0.49215686
0.5245098 0.51568627 0.5127451
0.54656863 0.5372549 0.53333333
0.56960784 0.56176471 0.55686275
0.59387255 0.58602941 0.57745098
0.61801471 0.60980392 0.59865196
0.63823529 0.63039216 0.61568627
0.36372549 0.34411765 0.34803922
0.3622549 0.34411765 0.34803922
0.3622549 0.34473039 0.34803922
0.3658701 0.34656863 0.3504902
0.36617647 0.34926471 0.3504902
0.36617647 0.3504902 0.3504902
0.36617647 0.3504902 0.35343137
0.37401961 0.35833333 0.3588848
0.37794118 0.3622549 0.36617647
0.38431373 0.36862745 0.37254902
0.39460784 0.37892157 0.38284314
0.40490196 0.38921569 0.39313725
0.41911765 0.40343137 0.40735294
0.42971814 0.41764706 0.42156863
0.4432598 0.42977941 0.43186275
0.45392157 0.44215686 0.44515931
0.46421569 0.45245098 0.45637255
0.48241422 0.47064951 0.47303922
0.50428922 0.49607843 0.49607843
0.52843137 0.51795343 0.51666667
0.54901961 0.54117647 0.5372549
0.57352941 0.56354167 0.55784314
0.59705882 0.58921569 0.57843137
0.62101716 0.61317402 0.6004902
0.64313725 0.63529412 0.61960784
0.37647059 0.36078431 0.36470588
0.37647059 0.36078431 0.36470588
0.37647059 0.36078431 0.36372549
0.37647059 0.36078431 0.36421569
0.37647059 0.36078431 0.36078431
0.37647059 0.36078431 0.36078431
0.37647059 0.36078431 0.36372549
0.38186275 0.36617647 0.36862745
0.38823529 0.37254902 0.37647059
0.39607843 0.38039216 0.38284314
0.40490196 0.38921569 0.39313725
0.41519608 0.3995098 0.40343137
0.4254902 0.41372549 0.41764706
0.43970588 0.4245098 0.42843137
0.45 0.43823529 0.44215686
0.46029412 0.44852941 0.45245098
0.47058824 0.4627451 0.4627451
0.4872549 0.47696078 0.47941176
0.50784314 0.49607843 0.49607843
0.52843137 0.52058824 0.51666667
0.55098039 0.54117647 0.5372549
0.57352941 0.56568627 0.56176471
0.59803922 0.58921569 0.58235294
0.62254902 0.61470588 0.60294118
0.64313725 0.63529412 0.61960784
0.39068627 0.375 0.37892157
0.39068627 0.375 0.37892157
0.39031863 0.375 0.37855392
0.38676471 0.3713848 0.375
0.38676471 0.37107843 0.37230392
0.38284314 0.36715686 0.37107843
0.38578431 0.37009804 0.37107843
0.39123775 0.37647059 0.37892157
0.39852941 0.38284314 0.38676471
0.40882353 0.39313725 0.39705882
0.41519608 0.40343137 0.40588235
0.4254902 0.41372549 0.41746324
0.43578431 0.42401961 0.42794118
0.44607843 0.43431373 0.43823529
0.45637255 0.44571078 0.44852941
0.46666667 0.45882353 0.46121324
0.48088235 0.46911765 0.47303922
0.49509804 0.48578431 0.4872549
0.51139706 0.50245098 0.50245098
0.53088235 0.52058824 0.52058824
0.5497549 0.54117647 0.53921569
0.57352941 0.56568627 0.55802696
0.59742647 0.58737745 0.57990196
0.61862745 0.6098652 0.59901961
0.63284314 0.625 0.61323529
0.40490196 0.39019608 0.39411765
0.40490196 0.39019608 0.39411765
0.40416667 0.39019608 0.39411765
0.40098039 0.38664216 0.39056373
0.39705882 0.38186275 0.38578431
0.3939951 0.37830882 0.38223039
0.39313725 0.37745098 0.38137255
0.40098039 0.38566176 0.38921569
0.40882353 0.39313725 0.39705882
0.41911765 0.40343137 0.40735294
0.4254902 0.41372549 0.41764706
0.43578431 0.42401961 0.42794118
0.44607843 0.43431373 0.43823529
0.45625 0.44460784 0.44852941
0.4627451 0.45490196 0.45882353
0.47303922 0.46519608 0.46911765
0.4872549 0.47941176 0.48235294
0.50330882 0.49362745 0.49546569
0.51960784 0.51102941 0.51102941
0.53382353 0.52585784 0.52463235
0.55098039 0.54166667 0.54117647
0.56997549 0.56213235 0.55784314
0.59313725 0.58529412 0.57769608
0.61041667 0.60196078 0.59264706
0.62254902 0.61470588 0.60294118
0.41862745 0.40686275 0.41078431
0.41862745 0.40686275 0.41078431
0.41862745 0.40686275 0.41078431
0.41519608 0.40300245 0.40692402
0.41127451 0.39901961 0.40294118
0.40735294 0.39466912 0.39859069
0.40686275 0.39117647 0.39509804
0.41256127 0.39705882 0.40098039
0.41911765 0.40735294 0.41078431
0.42941176 0.41715686 0.41764706
0.43835784 0.42401961 0.42794118
0.44607843 0.43431373 0.43823529
0.45465686 0.44460784 0.44460784
0.4627451 0.45490196 0.45496324
0.47303922 0.46519608 0.4682598
0.48333333 0.4754902 0.47941176
0.49411765 0.48627451 0.48970588
0.51047794 0.50245098 0.5026348
0.52696078 0.5182598 0.51813725
0.54362745 0.53278186 0.53235294
0.55661765 0.54852941 0.54485294
0.56960784 0.56176471 0.55784314
0.59019608 0.57977941 0.5745098
0.60196078 0.59411765 0.58627451
0.61176471 0.6004902 0.59264706
0.43137255 0.42352941 0.42745098
0.43137255 0.42352941 0.42745098
0.43137255 0.42352941 0.42745098
0.42965686 0.41985294 0.42377451
0.42745098 0.41568627 0.41960784
0.4252451 0.41176471 0.41568627
0.42352941 0.41176471 0.41421569
0.42818627 0.41446078 0.41715686
0.43529412 0.42352941 0.4254902
0.44240196 0.43063725 0.43382353
0.45 0.43823529 0.44166667
0.45637255 0.44485294 0.44852941
0.4627451 0.45490196 0.45490196
0.47303922 0.46519608 0.46519608
0.48333333 0.4754902 0.4754902
0.49362745 0.48578431 0.48578431
0.50392157 0.49607843 0.49607843
0.51544118 0.50759804 0.50833333
0.53333333 0.5254902 0.525
0.55392157 0.54607843 0.54387255
0.56862745 0.55980392 0.55686275
0.58529412 0.57745098 0.57156863
0.60735294 0.59803922 0.59019608
0.62573529 0.61789216 0.60612745
0.63921569 0.62941176 0.61764706
0.44754902 0.43970588 0.44362745
0.44754902 0.43970588 0.44362745
0.44754902 0.43970588 0.44362745
0.44754902 0.43970588 0.440625
0.44411765 0.43627451 0.43995098
0.44405637 0.43235294 0.43627451
0.44105392 0.42843137 0.43235294
0.44540441 0.43363971 0.43627451
0.45196078 0.44019608 0.44362745
0.45833333 0.44785539 0.45018382
0.46458333 0.45551471 0.4567402
0.47064951 0.45974265 0.45974265
0.47328431 0.46519608 0.46519608
0.48241422 0.47156863 0.475
0.49362745 0.48480392 0.48578431
0.50441176 0.49626225 0.49626225
0.51813725 0.51029412 0.50686275
0.52892157 0.52107843 0.52089461
0.54411765 0.53627451 0.53578431
0.56470588 0.55643382 0.55245098
0.58480392 0.5752451 0.56911765
0.60196078 0.59362745 0.58578431
0.62254902 0.61421569 0.60257353
0.64675245 0.63498775 0.62303922
0.66715686 0.65539216 0.63970588
0.46176471 0.45392157 0.45784314
0.46176471 0.45392157 0.45784314
0.4625 0.45392157 0.45784314
0.46470588 0.45686275 0.45784314
0.46323529 0.45343137 0.45735294
0.46078431 0.45257353 0.45637255
0.46078431 0.44901961 0.45294118
0.46115196 0.4504902 0.45441176
0.46862745 0.45686275 0.46078431
0.47536765 0.46715686 0.46752451
0.48063725 0.47279412 0.47279412
0.48431373 0.47647059 0.47647059
0.48823529 0.47892157 0.48039216
0.49007353 0.48223039 0.48186275
0.50612745 0.49828431 0.49607843
0.52107843 0.51323529 0.51139706
0.53529412 0.52745098 0.52352941
0.54840686 0.54019608 0.5377451
0.56397059 0.55367647 0.5497549
0.58137255 0.57095588 0.56580882
0.59901961 0.59019608 0.58284314
0.61862745 0.60772059 0.59865196
0.63627451 0.62745098 0.61666667
0.66078431 0.64901961 0.63517157
0.67745098 0.66568627 0.65
0.47745098 0.46960784 0.47352941
0.47745098 0.46960784 0.47352941
0.47806373 0.46960784 0.47352941
0.47990196 0.47205882 0.47567402
0.47990196 0.47205882 0.4747549
0.47959559 0.46960784 0.47352941
0.47745098 0.4685049 0.47242647
0.47745098 0.46868873 0.47052696
0.48382353 0.47352941 0.47745098
0.49166667 0.48382353 0.48474265
0.49803922 0.49019608 0.49019608
0.50441176 0.49656863 0.49656863
0.50686275 0.49901961 0.49779412
0.51323529 0.50539216 0.50508578
0.52352941 0.51568627 0.51360294
0.53866422 0.53082108 0.52689951
0.55196078 0.54411765 0.54019608
0.56770833 0.55833333 0.55441176
0.58137255 0.57254902 0.56715686
0.59803922 0.58676471 0.58106618
0.61470588 0.60416667 0.59558824
0.63351716 0.62205882 0.61158088
0.65196078 0.64019608 0.62732843
0.67199755 0.66023284 0.64607843
0.6877451 0.67598039 0.66029412
0.49411765 0.48627451 0.49019608
0.49411765 0.48627451 0.49019608
0.49803922 0.49019608 0.49019608
0.49803922 0.49019608 0.49411765
0.49803922 0.49019608 0.49411765
0.49803922 0.49019608 0.49019608
0.49411765 0.48627451 0.49019608
0.49166667 0.48382353 0.4877451
0.49803922 0.49019608 0.49411765
0.50833333 0.5004902 0.50196078
0.51862745 0.51078431 0.51078431
0.525 0.51715686 0.51372549
0.52941176 0.52156863 0.51960784
0.5377451 0.52990196 0.52598039
0.54803922 0.54019608 0.53627451
0.55833333 0.5504902 0.54656863
0.57254902 0.56470588 0.55686275
0.58676471 0.57745098 0.57107843
0.60098039 0.59019608 0.58235294
0.61519608 0.60686275 0.59558824
0.63137255 0.62156863 0.60980392
0.64803922 0.63627451 0.6245098
0.66862745 0.65392157 0.64117647
0.68529412 0.67352941 0.65637255
0.70196078 0.68627451 0.67058824
0.52254902 0.51470588 0.51715686
0.525 0.51715686 0.51715686
0.525 0.51715686 0.51715686
0.525 0.51715686 0.51715686
0.525 0.51715686 0.51789216
0.525 0.51715686 0.51715686
0.52389706 0.51384804 0.51715686
0.52107843 0.51323529 0.51323529
0.52107843 0.51323529 0.51470588
0.52984069 0.52199755 0.52254902
0.53921569 0.53137255 0.53039216
0.54558824 0.5377451 0.53431373
0.55196078 0.54411765 0.54019608
0.56078431 0.55294118 0.54871324
0.56862745 0.56078431 0.55686275
0.57892157 0.57107843 0.56378676
0.59313725 0.58284314 0.57745098
0.60588235 0.59558824 0.5877451
0.61862745 0.60980392 0.60012255
0.63529412 0.62401961 0.6122549
0.65 0.63823529 0.6252451
0.66470588 0.65294118 0.63854167
0.68284314 0.66997549 0.65428922
0.70104167 0.68719363 0.66966912
0.71617647 0.70294118 0.68333333
0.55196078 0.54411765 0.54313725
0.55551471 0.54656863 0.54411765
0.55588235 0.54803922 0.54411765
0.55588235 0.54803922 0.54705882
0.55833333 0.54803922 0.54754902
0.55980392 0.54901961 0.54803922
0.55980392 0.54901961 0.54803922
0.55686275 0.54803922 0.54411765
0.55588235 0.54803922 0.54411765
0.55588235 0.54803922 0.54705882
0.56053922 0.55196078 0.55098039
0.56617647 0.55833333 0.55490196
0.57303922 0.56519608 0.56127451
0.58284314 0.575 0.57107843
0.59313725 0.58529412 0.57769608
0.6004902 0.59264706 0.58443627
0.61372549 0.60294118 0.59411765
0.62463235 0.61617647 0.60441176
0.63921569 0.63039216 0.61862745
0.65245098 0.64411765 0.62892157
0.66862745 0.65686275 0.64264706
0.68480392 0.67218137 0.65637255
0.70122549 0.6870098 0.66985294
0.71862745 0.70477941 0.68517157
0.73529412 0.71960784 0.69901961
0.58284314 0.575 0.57107843
0.58658088 0.57873775 0.5713848
0.58676471 0.57892157 0.575
0.58976716 0.57892157 0.575
0.59068627 0.58284314 0.575
0.59411765 0.58284314 0.5754902
0.59460784 0.58284314 0.5754902
0.59411765 0.58284314 0.575
0.59068627 0.58235294 0.575
0.5903799 0.57892157 0.575
0.58676471 0.57892157 0.575
0.5872549 0.57941176 0.5754902
0.59705882 0.58921569 0.58504902
0.61078431 0.5995098 0.59166667
0.62107843 0.61323529 0.60196078
0.63137255 0.61991422 0.61047794
0.6377451 0.62990196 0.61813725
0.64852941 0.64019608 0.62843137
0.6627451 0.65098039 0.63921569
0.67689951 0.6651348 0.6495098
0.69093137 0.67916667 0.65980392
0.70539216 0.69319853 0.67401961
0.71960784 0.70686275 0.68737745
0.73792892 0.72352941 0.70030637
0.75588235 0.74019608 0.71666667
0.61568627 0.60784314 0.60196078
0.61887255 0.60980392 0.60196078
0.62009804 0.61029412 0.60196078
0.62156863 0.61348039 0.60196078
0.6254902 0.61470588 0.60588235
0.62769608 0.61764706 0.60588235
0.62941176 0.61764706 0.60588235
0.62941176 0.61764706 0.60588235
0.62745098 0.61568627 0.60588235
0.62426471 0.61372549 0.60588235
0.62156863 0.61176471 0.60539216
0.62156863 0.61348039 0.60588235
0.62745098 0.61960784 0.61078431
0.6379902 0.62990196 0.61813725
0.65196078 0.64019608 0.62843137
0.66078431 0.6504902 0.63602941
0.66862745 0.65686275 0.64117647
0.67892157 0.66715686 0.65147059
0.68921569 0.67794118 0.66176471
0.70318627 0.69142157 0.67205882
0.71568627 0.70294118 0.68431373
0.72990196 0.71617647 0.69460784
0.74362745 0.72843137 0.70637255
0.75637255 0.74068627 0.71715686
0.76666667 0.75098039 0.72745098
0.65686275 0.64509804 0.63284314
0.65686275 0.64724265 0.63284314
0.6567402 0.64509804 0.63284314
0.65680147 0.64509804 0.63284314
0.66053922 0.64877451 0.63676471
0.66421569 0.65245098 0.63676471
0.66458333 0.65245098 0.63676471
0.66470588 0.65294118 0.6372549
0.66470588 0.65294118 0.6372549
0.66078431 0.64901961 0.63676471
0.66078431 0.64901961 0.63676471
0.66078431 0.64901961 0.63676471
0.66446078 0.65465686 0.64068627
0.67303922 0.66127451 0.64852941
0.68333333 0.67156863 0.65539216
0.69313725 0.68137255 0.66390931
0.6995098 0.6877451 0.66813725
0.70588235 0.69411765 0.6745098
0.72009804 0.70796569 0.68480392
0.73039216 0.71862745 0.69552696
0.74240196 0.72892157 0.70514706
0.75435049 0.73872549 0.7151348
0.76078431 0.74852941 0.72242647
0.77089461 0.75539216 0.73137255
0.77745098 0.76519608 0.7377451
0.69803922 0.68627451 0.66764706
0.69803922 0.68627451 0.66764706
0.69411765 0.68308824 0.66666667
0.69411765 0.68235294 0.66666667
0.69656863 0.68333333 0.66764706
0.69901961 0.68639706 0.66764706
0.70196078 0.6872549 0.67058824
0.70294118 0.69019608 0.67156863
0.70196078 0.69019608 0.67156863
0.70012255 0.6872549 0.67058824
0.69828431 0.68627451 0.67058824
0.70196078 0.68982843 0.67144608
0.70392157 0.69068627 0.67303922
0.71029412 0.69816176 0.67941176
0.71764706 0.70588235 0.68627451
0.72647059 0.7122549 0.69117647
0.73039216 0.71568627 0.69509804
0.73566176 0.72205882 0.69852941
0.74730392 0.73529412 0.71176471
0.76127451 0.74558824 0.72205882
0.76813725 0.75441176 0.72745098
0.77365196 0.75919118 0.73186275
0.78137255 0.76568627 0.73921569
0.7877451 0.7745098 0.74852941
0.79803922 0.78235294 0.75490196
0.73921569 0.72598039 0.70245098
0.73921569 0.72653186 0.70300245
0.73713235 0.72352941 0.70183824
0.73529412 0.72205882 0.69852941
0.73382353 0.72083333 0.69852941
0.73382353 0.71991422 0.69852941
0.73713235 0.72205882 0.70036765
0.73921569 0.72598039 0.70245098
0.74166667 0.72745098 0.70245098
0.73921569 0.72598039 0.70245098
0.73921569 0.72598039 0.70245098
0.74136029 0.72726716 0.70245098
0.74313725 0.72990196 0.70637255
0.7473652 0.73382353 0.70900735
0.75281863 0.7377451 0.71384804
0.75735294 0.74166667 0.71666667
0.75588235 0.74166667 0.71666667
0.7622549 0.74656863 0.72303922
0.775 0.76115196 0.73431373
0.78694853 0.77254902 0.74411765
0.79117647 0.7754902 0.74803922
0.79558824 0.77990196 0.75245098
0.80404412 0.79019608 0.76164216
0.8122549 0.79803922 0.76911765
0.82009804 0.80441176 0.7754902
0.77647059 0.76078431 0.73333333
0.77401961 0.75833333 0.73088235
0.76764706 0.75196078 0.7254902
0.76470588 0.74901961 0.72205882
0.76078431 0.74509804 0.72156863
0.76078431 0.74509804 0.72156863
0.76372549 0.74901961 0.72156863
0.76617647 0.75294118 0.7254902
0.77254902 0.75686275 0.72941176
0.77254902 0.75686275 0.73088235
0.77156863 0.75686275 0.72941176
0.76862745 0.75686275 0.72941176
0.77254902 0.75686275 0.72941176
0.77647059 0.76078431 0.73333333
0.77941176 0.76470588 0.73627451
0.77892157 0.76470588 0.73578431
0.77647059 0.76078431 0.73333333
0.77892157 0.76715686 0.73970588
0.79411765 0.78235294 0.75098039
0.80735294 0.79215686 0.76078431
0.80784314 0.79215686 0.76470588
0.8122549 0.8 0.76911765
0.82254902 0.80686275 0.7754902
0.83284314 0.81715686 0.78578431
0.84705882 0.83137255 0.8
0.3372549 0.31617647 0.31764706
0.3372549 0.31617647 0.31764706
0.3372549 0.31372549 0.31617647
0.33578431 0.31372549 0.31372549
0.33578431 0.3122549 0.3122549
0.33970588 0.31636029 0.31666667
0.34473039 0.32340686 0.3245098
0.35386029 0.33333333 0.33480392
0.36078431 0.34117647 0.34362745
0.37015931 0.35147059 0.35392157
0.37745098 0.36066176 0.36421569
0.39148284 0.37420343 0.37598039
0.40514706 0.38946078 0.39215686
0.42040441 0.40490196 0.40863971
0.43615196 0.42218137 0.4254902
0.45153186 0.43976716 0.44160539
0.46666667 0.45735294 0.45882353
0.48333333 0.47248775 0.47303922
0.49901961 0.48823529 0.49007353
0.5153799 0.50753676 0.50753676
0.53578431 0.52794118 0.52794118
0.56047794 0.5526348 0.54871324
0.58590686 0.57745098 0.57058824
0.61378676 0.60294118 0.59509804
0.63529412 0.62352941 0.61421569
0.3372549 0.31617647 0.31764706
0.3372549 0.31617647 0.31764706
0.3372549 0.31372549 0.31617647
0.33578431 0.31372549 0.31391697
0.33578431 0.31271446 0.31393995
0.33982077 0.31655178 0.31666667
0.34473039 0.32340686 0.32489277
0.35328585 0.33275888 0.33445925
0.36078431 0.34117647 0.34362745
0.36865043 0.3502068 0.35296415
0.37745098 0.36029412 0.36237745
0.39148284 0.37420343 0.37598039
0.40514706 0.38946078 0.39215686
0.4205193 0.40490196 0.40863971
0.4372549 0.42254902 0.4254902
0.45245098 0.44068627 0.44215686
0.46666667 0.45827206 0.45882353
0.48333333 0.47303922 0.47399663
0.49901961 0.49007353 0.49007353
0.5153799 0.50753676 0.50753676
0.53578431 0.52794118 0.52794118
0.56066942 0.5526348 0.54871324
0.58811275 0.57806373 0.57058824
0.61528033 0.60420496 0.59509804
0.63866422 0.62745098 0.61568627
0.3372549 0.31617647 0.31764706
0.3372549 0.31617647 0.31764706
0.3372549 0.31617647 0.31764706
0.33779105 0.31617647 0.31654412
0.33878676 0.31654412 0.31770833
0.34148284 0.32068015 0.32068015
0.34693627 0.32558211 0.3270527
0.35294118 0.33241422 0.33425245
0.36041667 0.34080882 0.34362745
0.36715686 0.34823836 0.35147059
0.37745098 0.35845588 0.36222426
0.38988971 0.37205882 0.37579657
0.40514706 0.38946078 0.39215686
0.42058824 0.40704657 0.40882353
0.4372549 0.42438725 0.4254902
0.45268076 0.44215686 0.44215686
