site/assets/luts/sha256-b0244e372b50bec13c2762fcce0d0646dc027046ed75ea9bd39c27ad5ff6412c.cube
# LUTr-Schema-Version: 2
# LUTr-ID: sha256-b0244e372b50bec13c2762fcce0d0646dc027046ed75ea9bd39c27ad5ff6412c
# LUTr-Title: kodak t-max 3200
# LUTr-Collection: Natron HaldCLUT
# LUTr-Collection-ID: natron-haldclut-presets
# LUTr-Source: https://github.com/NatronGitHub/clut
# LUTr-Retrieved: 2026-07-27
# LUTr-Source-File: submissions/natron-haldclut-presets/bw/kodak_t-max_3200.png
# LUTr-Source-Format: HALD-PNG
# LUTr-Source-SHA256: b0244e372b50bec13c2762fcce0d0646dc027046ed75ea9bd39c27ad5ff6412c
# LUTr-License: CC-BY-SA-4.0
# LUTr-License-URL: https://github.com/NatronGitHub/clut#license
# LUTr-License-Basis: repo-license-file
# LUTr-Transform-Class: film-emulation
# LUTr-Tags: creative, film, film-emulation, hald-clut, natron, png, cube
# LUTr-Input-Color-Space: srgb
# LUTr-Input-Gamut: rec709
# LUTr-Input-Transfer: srgb
# LUTr-Output-Color-Space: srgb
# LUTr-Output-Gamut: rec709
# LUTr-Output-Transfer: srgb
# LUTr-Color-Space-Confidence: assumed-display-referred
# LUTr-Domain-Normalized: true
# LUTr-Shaper: none
# LUTr-Original-Grid: 64x64x64
# LUTr-Conversion-Grid: 25x25x25
# LUTr-Conversion-Interpolation: trilinear
# LUTr-Conversion-Method: HALD-PNG LUT image decoded at 16-bit and sampled to 25x25x25 3D CUBE
# LUTr-Conversion-Tool: LUTr scripts/convert-all-to-cube.mjs 2.0.0
# LUTr-Conversion-Date: 2026-07-27
# LUTr-Note: Preserve this metadata and the upstream license notices when redistributing.
TITLE "kodak t-max 3200"
LUT_3D_SIZE 9
DOMAIN_MIN 0 0 0
DOMAIN_MAX 1 1 1
0.011764706 0.011764706 0.011764706
0.0078431373 0.0078431373 0.0078431373
0.014705882 0.014705882 0.014705882
0.035294118 0.035294118 0.035294118
0.054901961 0.054901961 0.054901961
0.066666667 0.066666667 0.066666667
0.096078431 0.096078431 0.096078431
0.15294118 0.15294118 0.15294118
0.16862745 0.16862745 0.16862745
0.069607843 0.069607843 0.069607843
0.073468137 0.073468137 0.073468137
0.083946078 0.083946078 0.083946078
0.10343137 0.10343137 0.10343137
0.12598039 0.12598039 0.12598039
0.14773284 0.14773284 0.14773284
0.18088235 0.18088235 0.18088235
0.24650735 0.24650735 0.24650735
0.28039216 0.28039216 0.28039216
0.15784314 0.15784314 0.15784314
0.15428922 0.15428922 0.15428922
0.16470588 0.16470588 0.16470588
0.18982843 0.18982843 0.18982843
0.21862745 0.21862745 0.21862745
0.23566176 0.23566176 0.23566176
0.26593137 0.26593137 0.26593137
0.33529412 0.33529412 0.33529412
0.39313725 0.39313725 0.39313725
0.28039216 0.28039216 0.28039216
0.27647059 0.27647059 0.27647059
0.27254902 0.27254902 0.27254902
0.29068627 0.29068627 0.29068627
0.3125 0.3125 0.3125
0.34607843 0.34607843 0.34607843
0.38578431 0.38578431 0.38578431
0.44215686 0.44215686 0.44215686
0.48578431 0.48578431 0.48578431
0.41764706 0.41764706 0.41764706
0.41544118 0.41544118 0.41544118
0.42892157 0.42892157 0.42892157
0.44828431 0.44828431 0.44828431
0.46666667 0.46666667 0.46666667
0.49362745 0.49362745 0.49362745
0.53039216 0.53039216 0.53039216
0.56151961 0.56151961 0.56151961
0.58039216 0.58039216 0.58039216
0.58235294 0.58235294 0.58235294
0.58596814 0.58596814 0.58596814
0.59914216 0.59914216 0.59914216
0.60833333 0.60833333 0.60833333
0.61838235 0.61838235 0.61838235
0.63872549 0.63872549 0.63872549
0.65539216 0.65539216 0.65539216
0.66372549 0.66372549 0.66372549
0.675 0.675 0.675
0.70098039 0.70098039 0.70098039
0.70845588 0.70845588 0.70845588
0.7127451 0.7127451 0.7127451
0.71666667 0.71666667 0.71666667
0.72843137 0.72843137 0.72843137
0.74019608 0.74019608 0.74019608
0.74730392 0.74730392 0.74730392
0.75637255 0.75637255 0.75637255
0.76666667 0.76666667 0.76666667
0.80588235 0.80588235 0.80588235
0.81366422 0.81366422 0.81366422
0.81372549 0.81372549 0.81372549
0.81746324 0.81746324 0.81746324
0.82720588 0.82720588 0.82720588
0.82892157 0.82892157 0.82892157
0.83382353 0.83382353 0.83382353
0.84509804 0.84509804 0.84509804
0.85588235 0.85588235 0.85588235
0.89411765 0.89411765 0.89411765
0.90539216 0.90539216 0.90539216
0.90980392 0.90980392 0.90980392
0.90980392 0.90980392 0.90980392
0.90784314 0.90784314 0.90784314
0.90588235 0.90588235 0.90588235
0.90980392 0.90980392 0.90980392
0.91813725 0.91813725 0.91813725
0.92941176 0.92941176 0.92941176
0.019607843 0.019607843 0.019607843
0.038235294 0.038235294 0.038235294
0.04620098 0.04620098 0.04620098
0.031372549 0.031372549 0.031372549
0.045588235 0.045588235 0.045588235
0.075490196 0.075490196 0.075490196
0.13872549 0.13872549 0.13872549
0.17254902 0.17254902 0.17254902
0.23284314 0.23284314 0.23284314
0.080882353 0.080882353 0.080882353
0.084375 0.084375 0.084375
0.09252451 0.09252451 0.09252451
0.10702359 0.10702359 0.10702359
0.12990196 0.12990196 0.12990196
0.16029412 0.16029412 0.16029412
0.2029565 0.2029565 0.2029565
0.24699755 0.24699755 0.24699755
0.31182598 0.31182598 0.31182598
0.16556373 0.16556373 0.16556373
0.16176471 0.16176471 0.16176471
0.17012868 0.17012868 0.17012868
0.19198836 0.19198836 0.19198836
0.22248775 0.22248775 0.22248775
0.25294118 0.25294118 0.25294118
0.29264706 0.29264706 0.29264706
0.34693627 0.34693627 0.34693627
0.39963235 0.39963235 0.39963235
0.2903799 0.2903799 0.2903799
0.28778339 0.28778339 0.28778339
0.28382353 0.28382353 0.28382353
0.30360754 0.30360754 0.30360754
0.33676471 0.33676471 0.33676471
0.37457108 0.37457108 0.37457108
0.40540748 0.40540748 0.40540748
0.45128676 0.45128676 0.45128676
0.48970588 0.48970588 0.48970588
0.43284314 0.43284314 0.43284314
0.42892157 0.42892157 0.42892157
0.43823529 0.43823529 0.43823529
0.45710784 0.45710784 0.45710784
0.48296569 0.48296569 0.48296569
0.50686275 0.50686275 0.50686275
0.53431373 0.53431373 0.53431373
0.56933211 0.56933211 0.56933211
0.58627451 0.58627451 0.58627451
0.59381127 0.59381127 0.59381127
0.59540441 0.59540441 0.59540441
0.60503983 0.60503983 0.60503983
0.60980392 0.60980392 0.60980392
0.62735907 0.62735907 0.62735907
0.6408701 0.6408701 0.6408701
0.65237439 0.65237439 0.65237439
0.67064951 0.67064951 0.67064951
0.6841299 0.6841299 0.6841299
0.71360294 0.71360294 0.71360294
0.71360294 0.71360294 0.71360294
0.71666667 0.71666667 0.71666667
0.72045037 0.72045037 0.72045037
0.73039216 0.73039216 0.73039216
0.74019608 0.74019608 0.74019608
0.74803922 0.74803922 0.74803922
0.76361826 0.76361826 0.76361826
0.77156863 0.77156863 0.77156863
0.81715686 0.81715686 0.81715686
0.82064951 0.82064951 0.82064951
0.81715686 0.81715686 0.81715686
0.82091759 0.82091759 0.82091759
0.82916667 0.82916667 0.82916667
0.83396906 0.83396906 0.83396906
0.84030331 0.84030331 0.84030331
0.84890472 0.84890472 0.84890472
0.859375 0.859375 0.859375
0.90196078 0.90196078 0.90196078
0.90931373 0.90931373 0.90931373
0.90943627 0.90943627 0.90943627
0.91979167 0.91979167 0.91979167
0.91372549 0.91372549 0.91372549
0.90980392 0.90980392 0.90980392
0.91372549 0.91372549 0.91372549
0.92205882 0.92205882 0.92205882
0.9372549 0.9372549 0.9372549
0.023529412 0.023529412 0.023529412
0.043995098 0.043995098 0.043995098
0.055147059 0.055147059 0.055147059
0.049509804 0.049509804 0.049509804
0.071568627 0.071568627 0.071568627
0.10392157 0.10392157 0.10392157
0.16176471 0.16176471 0.16176471
0.22892157 0.22892157 0.22892157
0.30882353 0.30882353 0.30882353
0.095710784 0.095710784 0.095710784
0.10462623 0.10462623 0.10462623
0.1182598 0.1182598 0.1182598
0.12780331 0.12780331 0.12780331
0.15245098 0.15245098 0.15245098
0.1872549 0.1872549 0.1872549
0.22990196 0.22990196 0.22990196
0.28518689 0.28518689 0.28518689
0.35490196 0.35490196 0.35490196
0.18235294 0.18235294 0.18235294
0.18811275 0.18811275 0.18811275
0.19926471 0.19926471 0.19926471
0.21813725 0.21813725 0.21813725
0.24509804 0.24509804 0.24509804
0.27990196 0.27990196 0.27990196
0.32647059 0.32647059 0.32647059
0.38103554 0.38103554 0.38103554
0.42843137 0.42843137 0.42843137
0.32107843 0.32107843 0.32107843
0.31715686 0.31715686 0.31715686
0.31470588 0.31470588 0.31470588
0.33284314 0.33284314 0.33284314
0.36372549 0.36372549 0.36372549
0.40245098 0.40245098 0.40245098
0.43333333 0.43333333 0.43333333
0.48128064 0.48128064 0.48128064
0.51556373 0.51556373 0.51556373
0.46176471 0.46176471 0.46176471
0.45588235 0.45588235 0.45588235
0.46139706 0.46139706 0.46139706
0.48204657 0.48204657 0.48204657
0.50098039 0.50098039 0.50098039
0.53382353 0.53382353 0.53382353
0.55784314 0.55784314 0.55784314
0.59172794 0.59172794 0.59172794
0.61568627 0.61568627 0.61568627
0.61482843 0.61482843 0.61482843
0.61311275 0.61311275 0.61311275
0.61593137 0.61593137 0.61593137
0.62512255 0.62512255 0.62512255
0.64264706 0.64264706 0.64264706
0.65718444 0.65718444 0.65718444
0.66715686 0.66715686 0.66715686
0.68321078 0.68321078 0.68321078
0.70992647 0.70992647 0.70992647
0.72745098 0.72745098 0.72745098
0.7245098 0.7245098 0.7245098
0.72377451 0.72377451 0.72377451
0.73026961 0.73026961 0.73026961
0.74019608 0.74019608 0.74019608
0.75196078 0.75196078 0.75196078
0.75661765 0.75661765 0.75661765
0.77398897 0.77398897 0.77398897
0.78161765 0.78161765 0.78161765
0.825 0.825 0.825
0.825 0.825 0.825
0.82144608 0.82144608 0.82144608
0.82859988 0.82859988 0.82859988
0.83694853 0.83694853 0.83694853
0.84165135 0.84165135 0.84165135
0.84718137 0.84718137 0.84718137
0.85202206 0.85202206 0.85202206
0.86421569 0.86421569 0.86421569
0.90196078 0.90196078 0.90196078
0.90588235 0.90588235 0.90588235
0.9127451 0.9127451 0.9127451
0.91617647 0.91617647 0.91617647
0.91372549 0.91372549 0.91372549
0.91875 0.91875 0.91875
0.9254902 0.9254902 0.9254902
0.91078431 0.91078431 0.91078431
0.94215686 0.94215686 0.94215686
0.053431373 0.053431373 0.053431373
0.057352941 0.057352941 0.057352941
0.062132353 0.062132353 0.062132353
0.083333333 0.083333333 0.083333333
0.097303922 0.097303922 0.097303922
0.13333333 0.13333333 0.13333333
0.16752451 0.16752451 0.16752451
0.23529412 0.23529412 0.23529412
0.33431373 0.33431373 0.33431373
0.12677696 0.12677696 0.12677696
0.13480392 0.13480392 0.13480392
0.14901961 0.14901961 0.14901961
0.16147365 0.16147365 0.16147365
0.18333333 0.18333333 0.18333333
0.21433058 0.21433058 0.21433058
0.25772059 0.25772059 0.25772059
0.32003676 0.32003676 0.32003676
0.39577206 0.39577206 0.39577206
0.2245098 0.2245098 0.2245098
0.22598039 0.22598039 0.22598039
0.23480392 0.23480392 0.23480392
0.24901961 0.24901961 0.24901961
0.27720588 0.27720588 0.27720588
0.30727635 0.30727635 0.30727635
0.36017157 0.36017157 0.36017157
0.42401961 0.42401961 0.42401961
0.47647059 0.47647059 0.47647059
0.3588848 0.3588848 0.3588848
0.35362286 0.35362286 0.35362286
0.35680147 0.35680147 0.35680147
0.37214308 0.37214308 0.37214308
0.40217525 0.40217525 0.40217525
0.42941176 0.42941176 0.42941176
0.46066176 0.46066176 0.46066176
0.51666667 0.51666667 0.51666667
0.5627451 0.5627451 0.5627451
0.49460784 0.49460784 0.49460784
0.49004289 0.49004289 0.49004289
0.49411765 0.49411765 0.49411765
0.50759804 0.50759804 0.50759804
0.53210784 0.53210784 0.53210784
0.55686275 0.55686275 0.55686275
0.57959559 0.57959559 0.57959559
0.61387868 0.61387868 0.61387868
0.6502451 0.6502451 0.6502451
0.63578431 0.63578431 0.63578431
0.63333333 0.63333333 0.63333333
0.6348652 0.6348652 0.6348652
0.6442019 0.6442019 0.6442019
0.65315564 0.65315564 0.65315564
0.67015931 0.67015931 0.67015931
0.67953431 0.67953431 0.67953431
0.70158548 0.70158548 0.70158548
0.72359069 0.72359069 0.72359069
0.73872549 0.73872549 0.73872549
0.73688725 0.73688725 0.73688725
0.73627451 0.73627451 0.73627451
0.74356618 0.74356618 0.74356618
0.75196078 0.75196078 0.75196078
0.76072304 0.76072304 0.76072304
0.76963848 0.76963848 0.76963848
0.78538603 0.78538603 0.78538603
0.79080882 0.79080882 0.79080882
0.83284314 0.83284314 0.83284314
0.83529412 0.83529412 0.83529412
0.83529412 0.83529412 0.83529412
0.84087776 0.84087776 0.84087776
0.84451593 0.84451593 0.84451593
0.84933364 0.84933364 0.84933364
0.85618873 0.85618873 0.85618873
0.858678 0.858678 0.858678
0.86813725 0.86813725 0.86813725
0.90980392 0.90980392 0.90980392
0.91372549 0.91372549 0.91372549
0.92487745 0.92487745 0.92487745
0.92248775 0.92248775 0.92248775
0.91617647 0.91617647 0.91617647
0.9254902 0.9254902 0.9254902
0.9372549 0.9372549 0.9372549
0.93333333 0.93333333 0.93333333
0.9372549 0.9372549 0.9372549
0.092156863 0.092156863 0.092156863
0.080392157 0.080392157 0.080392157
0.099019608 0.099019608 0.099019608
0.11764706 0.11764706 0.11764706
0.13431373 0.13431373 0.13431373
0.16102941 0.16102941 0.16102941
0.21764706 0.21764706 0.21764706
0.28333333 0.28333333 0.28333333
0.35882353 0.35882353 0.35882353
0.16176471 0.16176471 0.16176471
0.16127451 0.16127451 0.16127451
0.17990196 0.17990196 0.17990196
0.19886642 0.19886642 0.19886642
0.22598039 0.22598039 0.22598039
0.2515625 0.2515625 0.2515625
0.30245098 0.30245098 0.30245098
0.36835172 0.36835172 0.36835172
0.41176471 0.41176471 0.41176471
0.26078431 0.26078431 0.26078431
0.25686275 0.25686275 0.25686275
0.27365196 0.27365196 0.27365196
0.29362745 0.29362745 0.29362745
0.3245098 0.3245098 0.3245098
0.34754902 0.34754902 0.34754902
0.40098039 0.40098039 0.40098039
0.46323529 0.46323529 0.46323529
0.50980392 0.50980392 0.50980392
0.39607843 0.39607843 0.39607843
0.39353554 0.39353554 0.39353554
0.39932598 0.39932598 0.39932598
0.41271446 0.41271446 0.41271446
0.44117647 0.44117647 0.44117647
0.46029412 0.46029412 0.46029412
0.49632353 0.49632353 0.49632353
0.55318627 0.55318627 0.55318627
0.58455882 0.58455882 0.58455882
0.53333333 0.53333333 0.53333333
0.5314951 0.5314951 0.5314951
0.53112745 0.53112745 0.53112745
0.54338235 0.54338235 0.54338235
0.56568627 0.56568627 0.56568627
0.58504902 0.58504902 0.58504902
0.60490196 0.60490196 0.60490196
0.64068627 0.64068627 0.64068627
0.66568627 0.66568627 0.66568627
0.65735294 0.65735294 0.65735294
0.65735294 0.65735294 0.65735294
0.65735294 0.65735294 0.65735294
0.66446078 0.66446078 0.66446078
0.67401961 0.67401961 0.67401961
0.68480392 0.68480392 0.68480392
0.70079657 0.70079657 0.70079657
0.71657475 0.71657475 0.71657475
0.73627451 0.73627451 0.73627451
0.74803922 0.74803922 0.74803922
0.74803922 0.74803922 0.74803922
0.75392157 0.75392157 0.75392157
0.75980392 0.75980392 0.75980392
0.76691176 0.76691176 0.76691176
0.77408088 0.77408088 0.77408088
0.7872549 0.7872549 0.7872549
0.79877451 0.79877451 0.79877451
0.80637255 0.80637255 0.80637255
0.83872549 0.83872549 0.83872549
0.8370098 0.8370098 0.8370098
0.8432598 0.8432598 0.8432598
0.85431985 0.85431985 0.85431985
0.85637255 0.85637255 0.85637255
0.85392157 0.85392157 0.85392157
0.86464461 0.86464461 0.86464461
0.87401961 0.87401961 0.87401961
0.88161765 0.88161765 0.88161765
0.91372549 0.91372549 0.91372549
0.9120098 0.9120098 0.9120098
0.9127451 0.9127451 0.9127451
0.9254902 0.9254902 0.9254902
0.92745098 0.92745098 0.92745098
0.91691176 0.91691176 0.91691176
0.9372549 0.9372549 0.9372549
0.94338235 0.94338235 0.94338235
0.95294118 0.95294118 0.95294118
0.11372549 0.11372549 0.11372549
0.11991422 0.11991422 0.11991422
0.14203431 0.14203431 0.14203431
0.15294118 0.15294118 0.15294118
0.19313725 0.19313725 0.19313725
0.22751225 0.22751225 0.22751225
0.28627451 0.28627451 0.28627451
0.34117647 0.34117647 0.34117647
0.3995098 0.3995098 0.3995098
0.20490196 0.20490196 0.20490196
0.20925245 0.20925245 0.20925245
0.23279718 0.23279718 0.23279718
0.24668352 0.24668352 0.24668352
0.28152574 0.28152574 0.28152574
0.309375 0.309375 0.309375
0.35992647 0.35992647 0.35992647
0.42630974 0.42630974 0.42630974
0.48039216 0.48039216 0.48039216
0.31372549 0.31372549 0.31372549
0.31853554 0.31853554 0.31853554
0.33308824 0.33308824 0.33308824
0.35539216 0.35539216 0.35539216
0.38235294 0.38235294 0.38235294
0.40931373 0.40931373 0.40931373
0.44865196 0.44865196 0.44865196
0.50747549 0.50747549 0.50747549
0.54607843 0.54607843 0.54607843
0.43872549 0.43872549 0.43872549
0.44234069 0.44234069 0.44234069
0.45490196 0.45490196 0.45490196
0.46764706 0.46764706 0.46764706
0.48921569 0.48921569 0.48921569
0.51617647 0.51617647 0.51617647
0.55134804 0.55134804 0.55134804
0.58970588 0.58970588 0.58970588
0.61329657 0.61329657 0.61329657
0.5754902 0.5754902 0.5754902
0.5747549 0.5747549 0.5747549
0.57794118 0.57794118 0.57794118
0.58532475 0.58532475 0.58532475
0.60147059 0.60147059 0.60147059
0.61911765 0.61911765 0.61911765
0.64362745 0.64362745 0.64362745
0.66642157 0.66642157 0.66642157
0.68382353 0.68382353 0.68382353
0.68823529 0.68823529 0.68823529
0.68431373 0.68431373 0.68431373
0.68247549 0.68247549 0.68247549
0.68431373 0.68431373 0.68431373
0.69803922 0.69803922 0.69803922
0.71176471 0.71176471 0.71176471
0.72414216 0.72414216 0.72414216
0.74185049 0.74185049 0.74185049
0.75435049 0.75435049 0.75435049
0.76911765 0.76911765 0.76911765
0.76911765 0.76911765 0.76911765
0.77303922 0.77303922 0.77303922
0.77696078 0.77696078 0.77696078
0.78210784 0.78210784 0.78210784
0.79310662 0.79310662 0.79310662
0.80275735 0.80275735 0.80275735
0.81608456 0.81608456 0.81608456
0.82303922 0.82303922 0.82303922
0.85392157 0.85392157 0.85392157
0.85376072 0.85376072 0.85376072
0.85553002 0.85553002 0.85553002
0.85991881 0.85991881 0.85991881
0.86783088 0.86783088 0.86783088
0.87175245 0.87175245 0.87175245
0.87999387 0.87999387 0.87999387
0.88929994 0.88929994 0.88929994
0.89509804 0.89509804 0.89509804
0.92941176 0.92941176 0.92941176
0.93088235 0.93088235 0.93088235
0.92696078 0.92696078 0.92696078
0.92849265 0.92849265 0.92849265
0.94313725 0.94313725 0.94313725
0.94209559 0.94209559 0.94209559
0.9504902 0.9504902 0.9504902
0.94901961 0.94901961 0.94901961
0.94901961 0.94901961 0.94901961
0.1627451 0.1627451 0.1627451
0.18933824 0.18933824 0.18933824
0.21470588 0.21470588 0.21470588
0.2377451 0.2377451 0.2377451
0.28333333 0.28333333 0.28333333
0.28541667 0.28541667 0.28541667
0.32843137 0.32843137 0.32843137
0.4 0.4 0.4
0.49607843 0.49607843 0.49607843
0.26666667 0.26666667 0.26666667
0.27810968 0.27810968 0.27810968
0.2995098 0.2995098 0.2995098
0.31662071 0.31662071 0.31662071
0.35300245 0.35300245 0.35300245
0.37058824 0.37058824 0.37058824
0.41813725 0.41813725 0.41813725
0.46776961 0.46776961 0.46776961
0.53345588 0.53345588 0.53345588
0.38014706 0.38014706 0.38014706
0.38780637 0.38780637 0.38780637
0.39773284 0.39773284 0.39773284
0.42135417 0.42135417 0.42135417
0.44877451 0.44877451 0.44877451
0.47545956 0.47545956 0.47545956
0.50980392 0.50980392 0.50980392
0.55003064 0.55003064 0.55003064
0.59215686 0.59215686 0.59215686
0.49019608 0.49019608 0.49019608
0.49701287 0.49701287 0.49701287
0.51063113 0.51063113 0.51063113
0.52594975 0.52594975 0.52594975
0.54791667 0.54791667 0.54791667
0.57225797 0.57225797 0.57225797
0.59791667 0.59791667 0.59791667
0.62879902 0.62879902 0.62879902
0.65355392 0.65355392 0.65355392
0.62058824 0.62058824 0.62058824
0.61893382 0.61893382 0.61893382
0.61960784 0.61960784 0.61960784
0.62622549 0.62622549 0.62622549
0.63823529 0.63823529 0.63823529
0.65539216 0.65539216 0.65539216
0.67794118 0.67794118 0.67794118
0.69773284 0.69773284 0.69773284
0.71519608 0.71519608 0.71519608
0.71911765 0.71911765 0.71911765
0.71911765 0.71911765 0.71911765
0.72009804 0.72009804 0.72009804
0.72303922 0.72303922 0.72303922
0.73210784 0.73210784 0.73210784
0.73480392 0.73480392 0.73480392
0.75 0.75 0.75
0.76911765 0.76911765 0.76911765
0.77977941 0.77977941 0.77977941
0.79509804 0.79509804 0.79509804
0.79607843 0.79607843 0.79607843
0.8 0.8 0.8
0.80392157 0.80392157 0.80392157
0.80686275 0.80686275 0.80686275
0.81151961 0.81151961 0.81151961
0.81997549 0.81997549 0.81997549
0.83468137 0.83468137 0.83468137
0.84509804 0.84509804 0.84509804
0.87205882 0.87205882 0.87205882
0.87561275 0.87561275 0.87561275
0.87953431 0.87953431 0.87953431
0.87365196 0.87365196 0.87365196
0.8754902 0.8754902 0.8754902
0.88730086 0.88730086 0.88730086
0.89644608 0.89644608 0.89644608
0.90294118 0.90294118 0.90294118
0.90784314 0.90784314 0.90784314
0.94215686 0.94215686 0.94215686
0.94901961 0.94901961 0.94901961
0.93529412 0.93529412 0.93529412
0.91764706 0.91764706 0.91764706
0.94313725 0.94313725 0.94313725
0.94901961 0.94901961 0.94901961
0.95294118 0.95294118 0.95294118
0.94117647 0.94117647 0.94117647
0.93333333 0.93333333 0.93333333
0.26470588 0.26470588 0.26470588
0.27947304 0.27947304 0.27947304
0.31029412 0.31029412 0.31029412
0.34246324 0.34246324 0.34246324
0.34215686 0.34215686 0.34215686
0.38921569 0.38921569 0.38921569
0.4314951 0.4314951 0.4314951
0.49264706 0.49264706 0.49264706
0.56617647 0.56617647 0.56617647
0.3533701 0.3533701 0.3533701
0.36427696 0.36427696 0.36427696
0.38676471 0.38676471 0.38676471
0.40637255 0.40637255 0.40637255
0.43284314 0.43284314 0.43284314
0.46086857 0.46086857 0.46086857
0.49607843 0.49607843 0.49607843
0.53818168 0.53818168 0.53818168
0.59215686 0.59215686 0.59215686
0.46421569 0.46421569 0.46421569
0.46905637 0.46905637 0.46905637
0.48403799 0.48403799 0.48403799
0.50303309 0.50303309 0.50303309
0.52604167 0.52604167 0.52604167
0.5495098 0.5495098 0.5495098
0.57977941 0.57977941 0.57977941
0.5995098 0.5995098 0.5995098
0.63431373 0.63431373 0.63431373
0.56390931 0.56390931 0.56390931
0.56783088 0.56783088 0.56783088
0.57696078 0.57696078 0.57696078
0.58491881 0.58491881 0.58491881
0.59338235 0.59338235 0.59338235
0.61470588 0.61470588 0.61470588
0.63788297 0.63788297 0.63788297
0.66862745 0.66862745 0.66862745
0.69607843 0.69607843 0.69607843
0.66960784 0.66960784 0.66960784
0.67132353 0.67132353 0.67132353
0.67352941 0.67352941 0.67352941
0.67745098 0.67745098 0.67745098
0.67916667 0.67916667 0.67916667
0.68946078 0.68946078 0.68946078
0.70882353 0.70882353 0.70882353
0.73039216 0.73039216 0.73039216
0.74730392 0.74730392 0.74730392
0.75245098 0.75245098 0.75245098
0.75373775 0.75373775 0.75373775
0.75968137 0.75968137 0.75968137
0.76390931 0.76390931 0.76390931
0.75891544 0.75891544 0.75891544
0.76084559 0.76084559 0.76084559
0.77806373 0.77806373 0.77806373
0.79908088 0.79908088 0.79908088
0.80294118 0.80294118 0.80294118
0.82169118 0.82169118 0.82169118
0.82205882 0.82205882 0.82205882
0.82598039 0.82598039 0.82598039
0.82598039 0.82598039 0.82598039
0.82941176 0.82941176 0.82941176
0.83382353 0.83382353 0.83382353
0.84558824 0.84558824 0.84558824
0.85692402 0.85692402 0.85692402
0.86470588 0.86470588 0.86470588
0.89166667 0.89166667 0.89166667
0.89209559 0.89209559 0.89209559
0.89134498 0.89134498 0.89134498
0.89209559 0.89209559 0.89209559
0.8958027 0.8958027 0.8958027
0.90296415 0.90296415 0.90296415
0.91035539 0.91035539 0.91035539
0.91470588 0.91470588 0.91470588
0.92248775 0.92248775 0.92248775
0.95686275 0.95686275 0.95686275
0.96078431 0.96078431 0.96078431
0.94901961 0.94901961 0.94901961
0.9495098 0.9495098 0.9495098
0.95710784 0.95710784 0.95710784
0.95294118 0.95294118 0.95294118
0.94509804 0.94509804 0.94509804
0.9372549 0.9372549 0.9372549
0.92941176 0.92941176 0.92941176
0.36862745 0.36862745 0.36862745
0.37647059 0.37647059 0.37647059
0.39117647 0.39117647 0.39117647
0.40784314 0.40784314 0.40784314
0.38627451 0.38627451 0.38627451
0.4622549 0.4622549 0.4622549
0.55392157 0.55392157 0.55392157
0.58921569 0.58921569 0.58921569
0.63529412 0.63529412 0.63529412
0.44166667 0.44166667 0.44166667
0.45251225 0.45251225 0.45251225
0.47291667 0.47291667 0.47291667
0.49264706 0.49264706 0.49264706
0.51813725 0.51813725 0.51813725
0.54166667 0.54166667 0.54166667
0.57303922 0.57303922 0.57303922
0.60741422 0.60741422 0.60741422
0.65098039 0.65098039 0.65098039
0.54117647 0.54117647 0.54117647
0.54865196 0.54865196 0.54865196
0.56102941 0.56102941 0.56102941
0.56666667 0.56666667 0.56666667
0.58431373 0.58431373 0.58431373
0.59558824 0.59558824 0.59558824
0.62254902 0.62254902 0.62254902
0.6495098 0.6495098 0.6495098
0.66862745 0.66862745 0.66862745
0.63480392 0.63480392 0.63480392
0.63480392 0.63480392 0.63480392
0.63872549 0.63872549 0.63872549
0.64411765 0.64411765 0.64411765
0.64803922 0.64803922 0.64803922
0.65343137 0.65343137 0.65343137
0.67647059 0.67647059 0.67647059
0.70735294 0.70735294 0.70735294
0.73970588 0.73970588 0.73970588
0.71568627 0.71568627 0.71568627
0.71764706 0.71764706 0.71764706
0.71764706 0.71764706 0.71764706
0.71764706 0.71764706 0.71764706
0.71764706 0.71764706 0.71764706
0.72303922 0.72303922 0.72303922
0.73970588 0.73970588 0.73970588
0.76519608 0.76519608 0.76519608
0.77058824 0.77058824 0.77058824
0.7754902 0.7754902 0.7754902
0.7754902 0.7754902 0.7754902
0.77941176 0.77941176 0.77941176
0.77941176 0.77941176 0.77941176
0.78333333 0.78333333 0.78333333
0.78872549 0.78872549 0.78872549
0.80686275 0.80686275 0.80686275
0.81734069 0.81734069 0.81734069
0.81862745 0.81862745 0.81862745
0.83333333 0.83333333 0.83333333
0.8372549 0.8372549 0.8372549
0.8372549 0.8372549 0.8372549
0.83933824 0.83933824 0.83933824
0.84509804 0.84509804 0.84509804
0.85294118 0.85294118 0.85294118
0.86078431 0.86078431 0.86078431
0.86776961 0.86776961 0.86776961
0.87254902 0.87254902 0.87254902
0.89901961 0.89901961 0.89901961
0.89901961 0.89901961 0.89901961
0.89901961 0.89901961 0.89901961
0.91078431 0.91078431 0.91078431
0.91470588 0.91470588 0.91470588
0.91685049 0.91685049 0.91685049
0.91421569 0.91421569 0.91421569
0.91813725 0.91813725 0.91813725
0.92205882 0.92205882 0.92205882
0.95294118 0.95294118 0.95294118
0.95686275 0.95686275 0.95686275
0.95686275 0.95686275 0.95686275
0.96862745 0.96862745 0.96862745
0.9745098 0.9745098 0.9745098
0.95686275 0.95686275 0.95686275
0.94509804 0.94509804 0.94509804
0.9372549 0.9372549 0.9372549
0.93333333 0.93333333 0.93333333
