site/assets/luts/sha256-30569c1628b48eac1e7940fadf929901c07adf87be03d58012450bce8b81dee8.cube
# LUTr-Schema-Version: 2
# LUTr-ID: sha256-30569c1628b48eac1e7940fadf929901c07adf87be03d58012450bce8b81dee8
# LUTr-Title: polaroid px-680 +
# LUTr-Collection: Natron HaldCLUT
# LUTr-Collection-ID: natron-haldclut-presets
# LUTr-Source: https://github.com/NatronGitHub/clut
# LUTr-Retrieved: 2026-07-27
# LUTr-Source-File: submissions/natron-haldclut-presets/instant_consumer/polaroid_px-680_+.png
# LUTr-Source-Format: HALD-PNG
# LUTr-Source-SHA256: 30569c1628b48eac1e7940fadf929901c07adf87be03d58012450bce8b81dee8
# LUTr-License: CC-BY-SA-4.0
# LUTr-License-URL: https://github.com/NatronGitHub/clut#license
# LUTr-License-Basis: repo-license-file
# LUTr-Transform-Class: film-emulation
# LUTr-Tags: creative, film, film-emulation, hald-clut, natron, png, cube
# LUTr-Input-Color-Space: srgb
# LUTr-Input-Gamut: rec709
# LUTr-Input-Transfer: srgb
# LUTr-Output-Color-Space: srgb
# LUTr-Output-Gamut: rec709
# LUTr-Output-Transfer: srgb
# LUTr-Color-Space-Confidence: assumed-display-referred
# LUTr-Domain-Normalized: true
# LUTr-Shaper: none
# LUTr-Original-Grid: 64x64x64
# LUTr-Conversion-Grid: 25x25x25
# LUTr-Conversion-Interpolation: trilinear
# LUTr-Conversion-Method: HALD-PNG LUT image decoded at 16-bit and sampled to 25x25x25 3D CUBE
# LUTr-Conversion-Tool: LUTr scripts/convert-all-to-cube.mjs 2.0.0
# LUTr-Conversion-Date: 2026-07-27
# LUTr-Note: Preserve this metadata and the upstream license notices when redistributing.
TITLE "polaroid px-680 +"
LUT_3D_SIZE 5
DOMAIN_MIN 0 0 0
DOMAIN_MAX 1 1 1
0.12156863 0.22352941 0.21960784
0.19117647 0.22745098 0.21960784
0.46666667 0.24509804 0.21960784
0.88039216 0.36078431 0.20392157
0.98039216 0.5372549 0.25490196
0.11372549 0.27745098 0.22352941
0.20294118 0.27254902 0.2245098
0.55392157 0.32303922 0.21176471
0.86862745 0.44779412 0.20392157
0.97745098 0.60294118 0.29411765
0.0039215686 0.47254902 0.21568627
0.15490196 0.48627451 0.22156863
0.54803922 0.54019608 0.2127451
0.83186275 0.60980392 0.20196078
0.9372549 0.65294118 0.25294118
0.13137255 0.69705882 0.24803922
0.29901961 0.69779412 0.26862745
0.56764706 0.71568627 0.29117647
0.79705882 0.75808824 0.36078431
0.92058824 0.79019608 0.43431373
0.63529412 0.85098039 0.4745098
0.66176471 0.85392157 0.48137255
0.70784314 0.84117647 0.48039216
0.82941176 0.86764706 0.55
0.89803922 0.85882353 0.55686275
0.13627451 0.22745098 0.24313725
0.20171569 0.23529412 0.24509804
0.53088235 0.21617647 0.26715686
0.88039216 0.41470588 0.32426471
0.96862745 0.60588235 0.40882353
0.14705882 0.27941176 0.25759804
0.23946078 0.30667892 0.26789216
0.6067402 0.35 0.29117647
0.86807598 0.5002451 0.32444853
0.96176471 0.63333333 0.40882353
0.1754902 0.52647059 0.28823529
0.26666667 0.51740196 0.2807598
0.62573529 0.58186275 0.29362745
0.83921569 0.61384804 0.31078431
0.95 0.68872549 0.39166667
0.28137255 0.70784314 0.31078431
0.39332108 0.71041667 0.32469363
0.60257353 0.72352941 0.36568627
0.78946078 0.7627451 0.41764706
0.92156863 0.79411765 0.47156863
0.65098039 0.85490196 0.49313725
0.65392157 0.84705882 0.48529412
0.72303922 0.85196078 0.51176471
0.8254902 0.8627451 0.55784314
0.9127451 0.88137255 0.60980392
0.20392157 0.24509804 0.37058824
0.37254902 0.28333333 0.39558824
0.63137255 0.39215686 0.43137255
0.86617647 0.39852941 0.48039216
0.9627451 0.60588235 0.5254902
0.18333333 0.32843137 0.39754902
0.37647059 0.36629902 0.42095588
0.68014706 0.48137255 0.46053922
0.85588235 0.53394608 0.49460784
0.94901961 0.65784314 0.53921569
0.22941176 0.52352941 0.40588235
0.38921569 0.54019608 0.42254902
0.6872549 0.61617647 0.47401961
0.84068627 0.6754902 0.50490196
0.93921569 0.73235294 0.53921569
0.47990196 0.71029412 0.44803922
0.56004902 0.71752451 0.45686275
0.67254902 0.73995098 0.47647059
0.81568627 0.7745098 0.51666667
0.92058824 0.79019608 0.53627451
0.67058824 0.85098039 0.53137255
0.68578431 0.85098039 0.53137255
0.73921569 0.85882353 0.54803922
0.82205882 0.85 0.57156863
0.92352941 0.88823529 0.63137255
0.48823529 0.35392157 0.59019608
0.60882353 0.41053922 0.58627451
0.77303922 0.57745098 0.59411765
0.86470588 0.68921569 0.60490196
0.9372549 0.68529412 0.6127451
0.49509804 0.44607843 0.5879902
0.61354167 0.49338235 0.59019608
0.78137255 0.61862745 0.5995098
0.86470588 0.72352941 0.61366422
0.9254902 0.71887255 0.61666667
0.31470588 0.58186275 0.55686275
0.49987745 0.59595588 0.56654412
0.74436275 0.66789216 0.58995098
0.86666667 0.75686275 0.61372549
0.9254902 0.76960784 0.6245098
0.47426471 0.71666667 0.54313725
0.51544118 0.7127451 0.54142157
0.68431373 0.74313725 0.56960784
0.84564951 0.79564951 0.61354167
0.9254902 0.82058824 0.62843137
0.61078431 0.84705882 0.57647059
0.64313725 0.84607843 0.57745098
0.74068627 0.85588235 0.59411765
0.85367647 0.87058824 0.6252451
0.90294118 0.87843137 0.64803922
0.78431373 0.69019608 0.69411765
0.79901961 0.69411765 0.68627451
0.85686275 0.74705882 0.68235294
0.90686275 0.81372549 0.68235294
0.92156863 0.83529412 0.67843137
0.78431373 0.70980392 0.69019608
0.79926471 0.72058824 0.69019608
0.84558824 0.74607843 0.67352941
0.90980392 0.81960784 0.68529412
0.92156863 0.84313725 0.68235294
0.75098039 0.74509804 0.69215686
0.76421569 0.74313725 0.68627451
0.83333333 0.77254902 0.68333333
0.89705882 0.82303922 0.68235294
0.9254902 0.84117647 0.68235294
0.64019608 0.78921569 0.67156863
0.65661765 0.78529412 0.67156863
0.74117647 0.78921569 0.67205882
0.8747549 0.82843137 0.68063725
0.94117647 0.86764706 0.70196078
0.72156863 0.88627451 0.69019608
0.72254902 0.8754902 0.68333333
0.77647059 0.88235294 0.69019608
0.85588235 0.86960784 0.68627451
0.94509804 0.88235294 0.70588235
