site/assets/luts/sha256-a52eb7902d918bbb770dafd44a01d7e441ad375567940b7b00803603058983d5.cube
# LUTr-Schema-Version: 2
# LUTr-ID: sha256-a52eb7902d918bbb770dafd44a01d7e441ad375567940b7b00803603058983d5
# LUTr-Title: kodak portra 160 ++
# LUTr-Collection: Natron HaldCLUT
# LUTr-Collection-ID: natron-haldclut-presets
# LUTr-Source: https://github.com/NatronGitHub/clut
# LUTr-Retrieved: 2026-07-27
# LUTr-Source-File: submissions/natron-haldclut-presets/negative_new/kodak_portra_160_++.png
# LUTr-Source-Format: HALD-PNG
# LUTr-Source-SHA256: a52eb7902d918bbb770dafd44a01d7e441ad375567940b7b00803603058983d5
# LUTr-License: CC-BY-SA-4.0
# LUTr-License-URL: https://github.com/NatronGitHub/clut#license
# LUTr-License-Basis: repo-license-file
# LUTr-Transform-Class: film-emulation
# LUTr-Tags: creative, film, film-emulation, hald-clut, natron, png, cube
# LUTr-Input-Color-Space: srgb
# LUTr-Input-Gamut: rec709
# LUTr-Input-Transfer: srgb
# LUTr-Output-Color-Space: srgb
# LUTr-Output-Gamut: rec709
# LUTr-Output-Transfer: srgb
# LUTr-Color-Space-Confidence: assumed-display-referred
# LUTr-Domain-Normalized: true
# LUTr-Shaper: none
# LUTr-Original-Grid: 64x64x64
# LUTr-Conversion-Grid: 25x25x25
# LUTr-Conversion-Interpolation: trilinear
# LUTr-Conversion-Method: HALD-PNG LUT image decoded at 16-bit and sampled to 25x25x25 3D CUBE
# LUTr-Conversion-Tool: LUTr scripts/convert-all-to-cube.mjs 2.0.0
# LUTr-Conversion-Date: 2026-07-27
# LUTr-Note: Preserve this metadata and the upstream license notices when redistributing.
TITLE "kodak portra 160 ++"
LUT_3D_SIZE 5
DOMAIN_MIN 0 0 0
DOMAIN_MAX 1 1 1
0.15294118 0.10980392 0.082352941
0.26666667 0.08627451 0.082352941
0.58039216 0.033333333 0.041176471
0.85098039 0.044117647 0.0029411765
0.99215686 0.18823529 0
0.1245098 0.24215686 0.07745098
0.25490196 0.25392157 0.080392157
0.59411765 0.28333333 0.006372549
0.84607843 0.29485294 0.0041666667
0.99215686 0.3254902 0.020588235
0.11372549 0.50980392 0.017647059
0.24558824 0.50147059 0.020588235
0.53333333 0.54509804 0.010784314
0.81764706 0.58382353 0.0058823529
0.99607843 0.57254902 0
0.29313725 0.7254902 0.12647059
0.35490196 0.70980392 0.11642157
0.52647059 0.72107843 0.1004902
0.74901961 0.77254902 0.1245098
0.98431373 0.81176471 0.057843137
0.54509804 0.94901961 0.45490196
0.56372549 0.94019608 0.44313725
0.65490196 0.94117647 0.45490196
0.79509804 0.95098039 0.46568627
0.96470588 0.98823529 0.5254902
0.11470588 0.097058824 0.25392157
0.28848039 0.079411765 0.27058824
0.61029412 0.019117647 0.26764706
0.85098039 0.017647059 0.24117647
0.97647059 0.14313725 0.23333333
0.058333333 0.28112745 0.26176471
0.28082108 0.28039216 0.27034314
0.61605392 0.27892157 0.24154412
0.84607843 0.28946078 0.22702206
0.98995098 0.3254902 0.20122549
0.15882353 0.55735294 0.27401961
0.3 0.53443627 0.26666667
0.55318627 0.56617647 0.25980392
0.82156863 0.5685049 0.17328431
0.99607843 0.55735294 0.086764706
0.33137255 0.73921569 0.31764706
0.38854167 0.73161765 0.30367647
0.53235294 0.72647059 0.29215686
0.74932598 0.76936275 0.32745098
0.98431373 0.80784314 0.29338235
0.53333333 0.93333333 0.49705882
0.57573529 0.94534314 0.50588235
0.64509804 0.93039216 0.47990196
0.7997549 0.96642157 0.5370098
0.95686275 0.97647059 0.55980392
0.0078431373 0.11568627 0.61372549
0.325 0.14362745 0.61078431
0.64607843 0.15490196 0.62058824
0.87598039 0.27843137 0.61323529
0.99607843 0.35686275 0.59215686
0.054901961 0.32107843 0.59901961
0.33431373 0.34301471 0.61360294
0.63161765 0.37598039 0.61985294
0.86262255 0.44105392 0.61678922
0.97794118 0.45 0.58823529
0.18333333 0.61960784 0.59509804
0.38161765 0.61568627 0.60392157
0.5995098 0.60098039 0.60098039
0.8245098 0.59754902 0.56544118
0.98039216 0.60196078 0.55980392
0.44901961 0.79852941 0.59705882
0.49767157 0.78995098 0.59742647
0.57892157 0.75269608 0.55686275
0.76764706 0.77904412 0.57622549
0.9745098 0.8 0.55490196
0.58627451 0.96470588 0.65882353
0.60392157 0.95735294 0.65
0.66666667 0.95392157 0.63431373
0.79264706 0.95539216 0.63235294
0.94901961 0.97254902 0.67254902
0.29411765 0.27058824 0.83431373
0.43455882 0.29313725 0.83823529
0.64558824 0.36176471 0.83431373
0.85465686 0.44705882 0.83823529
0.97156863 0.50490196 0.8372549
0.35465686 0.4254902 0.82647059
0.45686275 0.44136029 0.83039216
0.6497549 0.49117647 0.83357843
0.84197304 0.55704657 0.83823529
0.99215686 0.59215686 0.83431373
0.35735294 0.61960784 0.80294118
0.45588235 0.62218137 0.80686275
0.64607843 0.65220588 0.8122549
0.83431373 0.69509804 0.82879902
0.98823529 0.7245098 0.84068627
0.48112745 0.83823529 0.81470588
0.54473039 0.82647059 0.81525735
0.67941176 0.83002451 0.81862745
0.81789216 0.82328431 0.81078431
0.99117647 0.82328431 0.79509804
0.64509804 0.97941176 0.81862745
0.66862745 0.97745098 0.81936275
0.72745098 0.97352941 0.81862745
0.81862745 0.96862745 0.80196078
0.95588235 0.98137255 0.81176471
0.54901961 0.53333333 0.99215686
0.59803922 0.54019608 0.98823529
0.71176471 0.58235294 0.99215686
0.85 0.62941176 0.98137255
0.94509804 0.67843137 0.98431373
0.57352941 0.60294118 0.98137255
0.61078431 0.60588235 0.98210784
0.72156863 0.63921569 0.9872549
0.84901961 0.67083333 0.97058824
0.98627451 0.71666667 0.98431373
0.59803922 0.72156863 0.98039216
0.63823529 0.72352941 0.98676471
0.72941176 0.73529412 0.9745098
0.86078431 0.76813725 0.98137255
0.96862745 0.79411765 0.98039216
0.58431373 0.84607843 0.97058824
0.62254902 0.84509804 0.97279412
0.7127451 0.84362745 0.9745098
0.85294118 0.86397059 0.97181373
0.98823529 0.88039216 0.96176471
0.6745098 0.99607843 0.98039216
0.70490196 0.98529412 0.95490196
0.76078431 0.98627451 0.98235294
0.87156863 0.98039216 0.98137255
0.98823529 0.96078431 0.98431373
