site/assets/luts/sha256-6c04c088d86cb5bc034f2c1f70fc26f53e07379579174c9952b9bff85121c876.cube
# LUTr-Schema-Version: 2
# LUTr-ID: sha256-6c04c088d86cb5bc034f2c1f70fc26f53e07379579174c9952b9bff85121c876
# LUTr-Title: polaroid time zero (expired) --
# LUTr-Collection: Natron HaldCLUT
# LUTr-Collection-ID: natron-haldclut-presets
# LUTr-Source: https://github.com/NatronGitHub/clut
# LUTr-Retrieved: 2026-07-27
# LUTr-Source-File: submissions/natron-haldclut-presets/instant_consumer/polaroid_time_zero_(expired)_--.png
# LUTr-Source-Format: HALD-PNG
# LUTr-Source-SHA256: 6c04c088d86cb5bc034f2c1f70fc26f53e07379579174c9952b9bff85121c876
# LUTr-License: CC-BY-SA-4.0
# LUTr-License-URL: https://github.com/NatronGitHub/clut#license
# LUTr-License-Basis: repo-license-file
# LUTr-Transform-Class: film-emulation
# LUTr-Tags: creative, film, film-emulation, hald-clut, natron, png, cube
# LUTr-Input-Color-Space: srgb
# LUTr-Input-Gamut: rec709
# LUTr-Input-Transfer: srgb
# LUTr-Output-Color-Space: srgb
# LUTr-Output-Gamut: rec709
# LUTr-Output-Transfer: srgb
# LUTr-Color-Space-Confidence: assumed-display-referred
# LUTr-Domain-Normalized: true
# LUTr-Shaper: none
# LUTr-Original-Grid: 64x64x64
# LUTr-Conversion-Grid: 25x25x25
# LUTr-Conversion-Interpolation: trilinear
# LUTr-Conversion-Method: HALD-PNG LUT image decoded at 16-bit and sampled to 25x25x25 3D CUBE
# LUTr-Conversion-Tool: LUTr scripts/convert-all-to-cube.mjs 2.0.0
# LUTr-Conversion-Date: 2026-07-27
# LUTr-Note: Preserve this metadata and the upstream license notices when redistributing.
TITLE "polaroid time zero (expired) --"
LUT_3D_SIZE 25
DOMAIN_MIN 0 0 0
DOMAIN_MAX 1 1 1
0.24705882 0.074509804 0.035294118
0.25735294 0.074509804 0.035294118
0.26764706 0.074509804 0.035294118
0.2745098 0.074509804 0.035294118
0.28431373 0.074509804 0.039215686
0.29460784 0.070588235 0.03872549
0.30490196 0.070588235 0.035294118
0.31519608 0.069117647 0.031372549
0.3254902 0.066666667 0.031372549
0.34705882 0.060294118 0.029901961
0.38431373 0.046078431 0.035294118
0.42156863 0.031862745 0.03872549
0.46666667 0.017647059 0.033333333
0.5122549 0.0039215686 0.02745098
0.55686275 0.00098039216 0.024509804
0.59411765 0 0.022058824
0.63921569 0 0.019607843
0.68676471 0 0.017156863
0.73431373 0.0039215686 0.015686275
0.78578431 0.0039215686 0.012254902
0.83137255 0.0039215686 0.011764706
0.87205882 0.012745098 0.0078431373
0.90686275 0.029411765 0.0078431373
0.93921569 0.046078431 0.0078431373
0.96862745 0.058823529 0.0078431373
0.25098039 0.084803922 0.032843137
0.25735294 0.084803922 0.032843137
0.26764706 0.083823529 0.035294118
0.27794118 0.080882353 0.035294118
0.28431373 0.078921569 0.035294118
0.29460784 0.076654412 0.035294118
0.30490196 0.073039216 0.032843137
0.31519608 0.070036765 0.031372549
0.3254902 0.066666667 0.028921569
0.34368873 0.061764706 0.028370098
0.38492647 0.046078431 0.031372549
0.42794118 0.032169118 0.032843137
0.46911765 0.018872549 0.032107843
0.51194853 0.0073529412 0.02745098
0.55625 0.0028186275 0.023897059
0.59803922 0 0.018688725
0.63921569 0 0.015686275
0.68921569 0 0.014154412
0.73786765 0.0039215686 0.012867647
0.78609069 0.0039215686 0.011764706
0.83137255 0.0039215686 0.0085784314
0.87254902 0.0085171569 0.0078431373
0.90686275 0.026960784 0.0078431373
0.9377451 0.053370098 0.0078431373
0.96470588 0.079411765 0.0078431373
0.25196078 0.096078431 0.031372549
0.25735294 0.095098039 0.031372549
0.26740196 0.095098039 0.031372549
0.27438725 0.09129902 0.031372549
0.28480392 0.091176471 0.031372549
0.29852941 0.088112745 0.03125
0.30882353 0.084313725 0.030392157
0.31911765 0.08002451 0.02745098
0.33039216 0.076470588 0.02745098
0.3495098 0.073651961 0.026470588
0.38995098 0.059803922 0.026470588
0.43333333 0.046936275 0.02745098
0.4745098 0.031862745 0.026960784
0.5127451 0.017156863 0.026102941
0.55686275 0.0058823529 0.019607843
0.60012255 0 0.013235294
0.64411765 0 0.010784314
0.69460784 0 0.010784314
0.74313725 0 0.0078431373
0.79019608 0.0037990196 0.0078431373
0.83137255 0 0.0068627451
0.87340686 0.0034313725 0.0039215686
0.90710784 0.025245098 0.0039215686
0.93811275 0.075367647 0.0039215686
0.96470588 0.1127451 0.0039215686
0.25490196 0.10931373 0.027941176
0.25735294 0.10931373 0.027941176
0.26372549 0.10539216 0.027941176
0.27401961 0.10539216 0.027941176
0.28823529 0.10539216 0.02745098
0.29895833 0.10490196 0.024019608
0.3122549 0.10110294 0.024019608
0.32432598 0.097058824 0.023529412
0.34068627 0.097058824 0.023529412
0.36341912 0.090686275 0.023529412
0.39558824 0.084191176 0.023529412
0.43376225 0.070098039 0.023529412
0.4745098 0.059313725 0.021813725
0.5161152 0.044607843 0.019178922
0.56066176 0.024509804 0.013112745
0.60539216 0.0042892157 0.0065563725
0.6504902 0.0034313725 0.0044117647
0.69822304 0.0037377451 0.0044117647
0.7495098 0 0.0039215686
0.79362745 0 0.0039215686
0.83480392 0.0034313725 0.0022058824
0.87647059 0.00006127451 0.00049019608
0.91078431 0.036397059 0.00049019608
0.94166667 0.092647059 0.00049019608
0.97205882 0.14705882 0
0.25686275 0.11960784 0.025490196
0.25882353 0.11960784 0.025490196
0.26372549 0.11960784 0.025490196
0.27745098 0.11960784 0.02377451
0.28823529 0.12254902 0.021568627
0.30245098 0.12156863 0.019607843
0.31568627 0.11813725 0.019607843
0.33431373 0.11764706 0.019607843
0.35294118 0.11764706 0.017647059
0.37794118 0.11127451 0.017647059
0.40441176 0.10490196 0.019607843
0.4372549 0.096323529 0.017647059
0.47843137 0.088235294 0.015686275
0.52156863 0.083578431 0.011519608
0.56470588 0.067647059 0.0083333333
0.61053922 0.051470588 0.0051470588
0.65686275 0.043137255 0.0039215686
0.70514706 0.030882353 0.0039215686
0.75490196 0.016666667 0
0.79607843 0.020588235 0
0.83529412 0.034313725 0
0.87622549 0.048039216 0.0019607843
0.90882353 0.077941176 0.0019607843
0.94044118 0.13357843 0.0012254902
0.96470588 0.17843137 0
0.25931373 0.13872549 0.023039216
0.25931373 0.13498775 0.023039216
0.26507353 0.13480392 0.022181373
0.2783701 0.13823529 0.019178922
0.29044118 0.13823529 0.015686275
0.30245098 0.14123775 0.015196078
0.31960784 0.13823529 0.015196078
0.34068627 0.13823529 0.013909314
0.36078431 0.13823529 0.01127451
0.38431373 0.13578431 0.01127451
0.41176471 0.13088235 0.011764706
0.44607843 0.12745098 0.012193627
0.48676471 0.12328431 0.0098039216
0.52794118 0.11868873 0.0069240196
0.57205882 0.10882353 0.0034313725
0.61813725 0.1026348 0.0036151961
0.66715686 0.096568627 0.0039215686
0.71470588 0.08627451 0.0039215686
0.76127451 0.073529412 0
0.79901961 0.076960784 0
0.83921569 0.091176471 0.0039215686
0.87598039 0.10588235 0.0039215686
0.90686275 0.12892157 0.0039215686
0.9377451 0.17843137 0.0039215686
0.96029412 0.21323529 0
0.27352941 0.17254902 0.016666667
0.27352941 0.17254902 0.016666667
0.27843137 0.16862745 0.016421569
0.28786765 0.16568627 0.013112745
0.29509804 0.16176471 0.011764706
0.30294118 0.15882353 0.0088235294
0.32647059 0.16102941 0.0080882353
0.34705882 0.1627451 0.0067401961
0.36470588 0.1627451 0.0049019608
0.39289216 0.16066176 0.0049019608
0.42941176 0.16495098 0.0080882353
0.46666667 0.16862745 0.011764706
0.50392157 0.1627451 0.0078431373
0.54473039 0.15686275 0.0034313725
0.58333333 0.15588235 0
0.62843137 0.15196078 0
0.67745098 0.14803922 0.00098039216
0.72610294 0.14166667 0.0039215686
0.77156863 0.13529412 0
0.80539216 0.13872549 0.0034313725
0.84068627 0.15098039 0.0039215686
0.87598039 0.16715686 0.0039215686
0.90686275 0.18431373 0.0039215686
0.9377451 0.2254902 0.0039215686
0.95686275 0.25098039 0
0.28382353 0.20980392 0.011764706
0.28627451 0.2088848 0.011764706
0.29411765 0.20588235 0.011764706
0.30294118 0.20196078 0.010294118
0.31078431 0.19877451 0.0078431373
0.3254902 0.20214461 0.0078431373
0.34607843 0.20343137 0.0067401961
0.36574755 0.2028799 0.0039215686
0.38333333 0.1995098 0
0.41329657 0.1995098 0
0.45 0.20294118 0.0039215686
0.4872549 0.20588235 0.0076593137
0.5245098 0.20392157 0.0051470588
0.56158088 0.20196078 0.0036151961
0.59901961 0.20343137 0
0.6411152 0.20343137 0
0.6877451 0.20343137 0
0.73921569 0.20006127 0
0.78296569 0.19803922 0.00036764706
0.81439951 0.20226716 0.0039215686
0.84509804 0.21078431 0.0039215686
0.87990196 0.225 0.0039215686
0.90894608 0.24068627 0.0039215686
0.93627451 0.26911765 0.0039215686
0.95294118 0.29215686 0
0.29411765 0.24705882 0.0078431373
0.3004902 0.24313725 0.0078431373
0.31078431 0.24313725 0.0078431373
0.32107843 0.24313725 0.0044117647
0.33529412 0.24705882 0.0039215686
0.35 0.25098039 0.0039215686
0.37058824 0.25098039 0.0039215686
0.39117647 0.25098039 0.0039215686
0.41176471 0.25098039 0
0.43872549 0.24852941 0
0.47352941 0.24705882 0.0039215686
0.50833333 0.24705882 0.0039215686
0.54705882 0.24705882 0.0039215686
0.58186275 0.24754902 0.0039215686
0.61666667 0.25392157 0.00098039216
0.65686275 0.25490196 0
0.70196078 0.25490196 0
0.75098039 0.25490196 0
0.79117647 0.25882353 0.00098039216
0.82205882 0.26617647 0.0039215686
0.84901961 0.27254902 0.0039215686
0.87990196 0.28284314 0.0039215686
0.91078431 0.29607843 0.0039215686
0.93627451 0.31666667 0.0039215686
0.95294118 0.3372549 0
0.30441176 0.28039216 0.0014705882
0.31568627 0.28192402 0.003002451
0.33026961 0.28676471 0.0039215686
0.34509804 0.29068627 0.0039215686
0.35906863 0.29460784 0.0039215686
0.3745098 0.2963848 0.0039215686
0.39117647 0.29852941 0.0039215686
0.41476716 0.3 0.0048406863
0.43872549 0.29852941 0
0.46715686 0.29699755 0
0.49803922 0.29460784 0.00098039216
0.53265931 0.29460784 0.0039215686
0.56764706 0.29460784 0.0039215686
0.59901961 0.29852941 0.0039215686
0.63627451 0.30245098 0.0039215686
0.67745098 0.30637255 0
0.72009804 0.30637255 0
0.76519608 0.30790441 0
0.80147059 0.31311275 0.0039215686
0.8286152 0.32156863 0.0039215686
0.85612745 0.32916667 0.0039215686
0.88204657 0.33823529 0.0039215686
0.91078431 0.35098039 0.0039215686
0.9377451 0.36421569 0.003002451
0.95686275 0.38235294 0
0.3245098 0.32352941 0
0.33835784 0.32892157 0
0.35367647 0.33504902 0
0.36703431 0.33823529 0.0025735294
0.38235294 0.34215686 0.0034313725
0.39595588 0.34509804 0.0039215686
0.41495098 0.34583333 0.0039215686
0.43664216 0.34607843 0.0029411765
0.46470588 0.34607843 0
0.49558824 0.34509804 0
0.52647059 0.34215686 0
0.55747549 0.34215686 0.0037990196
0.58823529 0.34558824 0.0039215686
0.61960784 0.35 0.0039215686
0.65686275 0.35392157 0.0039215686
0.69411765 0.35992647 0
0.73529412 0.36176471 0
0.77696078 0.36458333 0
0.80784314 0.37058824 0.0039215686
0.83517157 0.37708333 0.0039215686
0.86127451 0.38431373 0.0039215686
0.88737745 0.39460784 0.0039215686
0.9125 0.40490196 0.0031862745
0.94019608 0.41629902 0
0.96078431 0.42843137 0
0.35539216 0.37794118 0
0.36568627 0.38039216 0
0.38002451 0.38578431 0
0.39368873 0.38921569 0.00042892157
0.40490196 0.38970588 0
0.41911765 0.39019608 0
0.43333333 0.39019608 0
0.45833333 0.39362745 0
0.48921569 0.39362745 0
0.52009804 0.39362745 0
0.55098039 0.39362745 0
0.57843137 0.39362745 0
0.60882353 0.39558824 0.0022058824
0.64019608 0.40147059 0.0039215686
0.6745098 0.40833333 0.0013480392
0.71109069 0.41323529 0
0.75196078 0.41715686 0
0.7872549 0.42089461 0
0.81715686 0.42855392 0.0039215686
0.84166667 0.43278186 0.0039215686
0.86642157 0.44044118 0.0039215686
0.89160539 0.44901961 0.0039215686
0.91568627 0.45931373 0.00098039216
0.94166667 0.46960784 0
0.96470588 0.47598039 0
0.38627451 0.42941176 0
0.39460784 0.43063725 0
0.40686275 0.43382353 0
0.42083333 0.4372549 0
0.43235294 0.43823529 0
0.44362745 0.43897059 0
0.45539216 0.4372549 0
0.48284314 0.43995098 0
0.50980392 0.44117647 0
0.54068627 0.44117647 0
0.57156863 0.44215686 0
0.60245098 0.44509804 0
0.63137255 0.44901961 0
0.66421569 0.45318627 0
0.69509804 0.45980392 0
0.73137255 0.46617647 0
0.76862745 0.47254902 0
0.79901961 0.47769608 0
0.82205882 0.48137255 0.0039215686
0.84607843 0.4877451 0.0039215686
0.87058824 0.49019608 0.0039215686
0.89509804 0.49828431 0.0039215686
0.91862745 0.50490196 0.0039215686
0.94093137 0.51127451 0.0039215686
0.95882353 0.51764706 0.0019607843
0.41323529 0.47696078 0
0.42303922 0.48088235 0
0.43345588 0.48443627 0
0.4471201 0.48480392 0
0.45833333 0.48823529 0
0.47205882 0.48474265 0
0.48578431 0.48468137 0
0.50637255 0.48872549 0
0.53431373 0.49215686 0
0.56127451 0.49215686 0
0.59215686 0.49227941 0
0.62303922 0.49650735 0
0.65392157 0.5004902 0
0.6848652 0.50490196 0
0.71568627 0.50833333 0
0.75 0.51372549 0
0.78088235 0.51960784 0
0.80490196 0.52616422 0
0.82683824 0.53137255 0.0035539216
0.85042892 0.53186275 0.0039215686
0.8745098 0.53529412 0.0080882353
0.89509804 0.53921569 0.0078431373
0.91568627 0.54607843 0.0049019608
0.93609069 0.55245098 0.0039215686
0.95245098 0.55882353 0.0039215686
0.44019608 0.52843137 0
0.44754902 0.52843137 0
0.45857843 0.53235294 0
0.47205882 0.53235294 0
0.48529412 0.52941176 0
0.49693627 0.52941176 0
0.51446078 0.53161765 0
0.53431373 0.53627451 0
0.55784314 0.54019608 0
0.58333333 0.54019608 0
0.6127451 0.54044118 0
0.64362745 0.54497549 0
0.675 0.5504902 0
0.70894608 0.5560049 0
0.73406863 0.55906863 0
0.75919118 0.56017157 0
0.78431373 0.56470588 0
0.80882353 0.57107843 0
0.83259804 0.57573529 0
0.8564951 0.57647059 0.0034313725
0.87794118 0.57941176 0.015196078
0.89816176 0.58039216 0.0078431373
0.91960784 0.5872549 0.0039215686
0.93590686 0.59362745 0.0039215686
0.94901961 0.6 0.0039215686
0.46715686 0.5745098 0
0.47352941 0.5745098 0
0.48627451 0.5745098 0
0.49803922 0.5745098 0
0.51078431 0.57328431 0
0.52518382 0.5723652 0
0.54362745 0.57745098 0
0.56421569 0.58082108 0
0.58333333 0.58627451 0
0.60692402 0.58627451 0
0.63333333 0.58835784 0
0.66060049 0.58805147 0
0.68970588 0.59142157 0
0.71881127 0.59283088 0
0.74068627 0.5995098 0.0011029412
0.76519608 0.60196078 0.0039215686
0.78970588 0.60588235 0.0039215686
0.81421569 0.6122549 0
0.83872549 0.61862745 0
0.86305147 0.62156863 0
0.88308824 0.62156863 0.025
0.9004902 0.62334559 0.010784314
0.91960784 0.62843137 0.0039215686
0.93627451 0.63480392 0.006372549
0.95294118 0.64117647 0
0.50196078 0.61568627 0
0.50441176 0.61568627 0
0.51078431 0.61568627 0
0.5245098 0.61568627 0
0.53529412 0.61372549 0
0.55 0.61568627 0
0.57058824 0.61862745 0
0.5872549 0.62352941 0
0.60784314 0.62745098 0
0.62843137 0.62745098 0
0.64901961 0.62745098 0
0.67352941 0.62745098 0
0.7 0.62352941 0
0.72696078 0.62745098 0
0.75098039 0.63431373 0.0039215686
0.77303922 0.63921569 0.0039215686
0.79607843 0.64705882 0.0039215686
0.82058824 0.65343137 0.0039215686
0.84509804 0.65980392 0
0.86960784 0.66617647 0
0.88823529 0.66666667 0.045098039
0.90294118 0.66715686 0.032843137
0.92058824 0.67058824 0.0058823529
0.93627451 0.6745098 0.028921569
0.95294118 0.67843137 0.043137255
0.53676471 0.65686275 0
0.53676471 0.65686275 0
0.54068627 0.65686275 0
0.54803922 0.65471814 0
0.55906863 0.65294118 0
0.5745098 0.65471814 0
0.59178922 0.65686275 0
0.61176471 0.65833333 0
0.62843137 0.65833333 0
0.64564951 0.65833333 0.003370098
0.66323529 0.65833333 0.0039215686
0.68756127 0.65833333 0.0039215686
0.7122549 0.65833333 0.0039215686
0.7372549 0.65882353 0.0039215686
0.76127451 0.66519608 0.0039215686
0.78186275 0.67156863 0.0053921569
0.80637255 0.68039216 0.010294118
0.8278799 0.68823529 0.014215686
0.85183824 0.69460784 0.014215686
0.87352941 0.70098039 0.015870098
0.89019608 0.70661765 0.10367647
0.90637255 0.70539216 0.11715686
0.92058824 0.70539216 0.12009804
0.93627451 0.71023284 0.14270833
0.9504902 0.71470588 0.16470588
0.57156863 0.69803922 0
0.57156863 0.69803922 0
0.57156863 0.69632353 0
0.57156863 0.69411765 0
0.58235294 0.69411765 0
0.59865196 0.69411765 0
0.61568627 0.69313725 0
0.63088235 0.69166667 0.0020833333
0.64901961 0.68921569 0.0039215686
0.66507353 0.68529412 0.0039215686
0.68210784 0.68529412 0.0039215686
0.70159314 0.68909314 0.0039215686
0.725 0.68921569 0.0039215686
0.75098039 0.69056373 0.0039215686
0.77156863 0.69705882 0.0039215686
0.79215686 0.70428922 0.0039215686
0.8127451 0.71176471 0.0068627451
0.83627451 0.7185049 0.0068627451
0.85784314 0.72377451 0.0036764706
0.87843137 0.73088235 0.00036764706
0.89313725 0.73382353 0.093627451
0.90772059 0.73933824 0.20061275
0.92058824 0.74019608 0.23872549
0.93419118 0.74019608 0.23921569
0.94509804 0.74019608 0.24313725
0.60245098 0.73529412 0
0.60245098 0.73529412 0
0.60245098 0.73529412 0
0.59901961 0.73529412 0
0.60490196 0.73186275 0
0.61960784 0.73094363 0
0.63627451 0.725 0.0034313725
0.65147059 0.72254902 0.0039215686
0.66960784 0.71666667 0.0039215686
0.68382353 0.71617647 0.0039215686
0.69901961 0.71617647 0.0039215686
0.71617647 0.71617647 0.0039215686
0.73848039 0.72009804 0.0039215686
0.76127451 0.72101716 0.0073529412
0.78186275 0.72708333 0.0047794118
0.80245098 0.73186275 0.0039215686
0.82303922 0.73627451 0.0039215686
0.84362745 0.74264706 0.0039215686
0.86421569 0.74889706 0.0073529412
0.88480392 0.75196078 0.027512255
0.89779412 0.75588235 0.11348039
0.91072304 0.76029412 0.22696078
0.92401961 0.76666667 0.30061275
0.93088235 0.76715686 0.32334559
0.94117647 0.76715686 0.32941176
0.63333333 0.76470588 0.0039215686
0.63333333 0.76470588 0.0019607843
0.63137255 0.76470588 0
0.62941176 0.76470588 0
0.63137255 0.7627451 0
0.64362745 0.76053922 0.0039215686
0.65784314 0.75588235 0.0039215686
0.67279412 0.75220588 0.0039215686
0.68823529 0.74705882 0.0058823529
0.70441176 0.74460784 0.0078431373
0.71911765 0.74313725 0.0078431373
0.73455882 0.74509804 0.0078431373
0.75294118 0.74705882 0.0058823529
0.7754902 0.75098039 0.0078431373
0.79411765 0.75441176 0.0093137255
0.8127451 0.75882353 0.0051470588
0.82941176 0.7627451 0
0.85 0.76789216 0.0012254902
0.87058824 0.77303922 0.010784314
0.8875 0.77647059 0.066666667
0.90196078 0.77941176 0.15588235
0.91446078 0.78088235 0.25490196
0.92843137 0.78431373 0.32598039
0.93676471 0.79215686 0.37990196
0.94509804 0.79803922 0.42156863
0.66029412 0.78970588 0.0039215686
0.66029412 0.78970588 0.0039215686
0.66029412 0.78970588 0.00049019608
0.66029412 0.78927696 0.0034926471
0.6625 0.7875 0.0039215686
0.66856618 0.78529412 0.0039215686
0.6814951 0.78529412 0.0042892157
0.69656863 0.78167892 0.0078431373
0.71078431 0.77794118 0.0078431373
0.725 0.77401961 0.0078431373
0.73921569 0.77401961 0.0078431373
0.75343137 0.77401961 0.0078431373
0.76936275 0.77598039 0.0078431373
0.78627451 0.77794118 0.0078431373
0.8064951 0.78186275 0.010784314
0.82334559 0.78547794 0.012254902
0.84019608 0.78970588 0.0083333333
0.86029412 0.79344363 0.0019607843
0.87683824 0.79840686 0.0089460784
0.89319853 0.80098039 0.095098039
0.90612745 0.80098039 0.19166667
0.91905637 0.80098039 0.28333333
0.93235294 0.80490196 0.35208333
0.94264706 0.81243873 0.41011029
0.9495098 0.81617647 0.45980392
0.69117647 0.81666667 0.00098039216
0.69117647 0.81666667 0
0.69117647 0.81593137 0.00098039216
0.69117647 0.81372549 0.0039215686
0.69509804 0.81127451 0.0039215686
0.69558824 0.80882353 0.0069852941
0.70514706 0.80882353 0.0078431373
0.7182598 0.80772059 0.0078431373
0.73431373 0.80588235 0.0078431373
0.74558824 0.80306373 0.0078431373
0.75980392 0.80269608 0.0078431373
0.77352941 0.80490196 0.0078431373
0.78676471 0.80490196 0.0078431373
0.80294118 0.80882353 0.0040441176
0.82058824 0.80882353 0.0085784314
0.8372549 0.8127451 0.013848039
0.85392157 0.81666667 0.015686275
0.87058824 0.82058824 0.021691176
0.8870098 0.82156863 0.07622549
0.9004902 0.82156863 0.16053922
0.91470588 0.82156863 0.25245098
0.92598039 0.82156863 0.33002451
0.93627451 0.82230392 0.38333333
0.94656863 0.82647059 0.43970588
0.95588235 0.83039216 0.48333333
0.71813725 0.83970588 0
0.71813725 0.83970588 0
0.71911765 0.83970588 0
0.72205882 0.83823529 0.0039215686
0.72328431 0.83431373 0.0039215686
0.72598039 0.83039216 0.0078431373
0.72892157 0.83039216 0.0078431373
0.74166667 0.83039216 0.0078431373
0.75588235 0.83039216 0.0078431373
0.76617647 0.83039216 0.0087622549
0.77708333 0.83039216 0.011764706
0.79068627 0.83039216 0.0080269608
0.80490196 0.83308824 0.0078431373
0.81942402 0.83578431 0.0039215686
0.83517157 0.83762255 0.0039215686
0.85147059 0.83970588 0.012132353
0.86813725 0.84215686 0.017156863
0.88480392 0.84215686 0.10588235
0.89865196 0.84215686 0.18235294
0.91421569 0.84215686 0.25784314
0.925 0.84215686 0.33431373
0.93351716 0.8403799 0.3745098
0.94166667 0.83786765 0.41519608
0.95196078 0.84307598 0.47297794
0.96078431 0.84460784 0.51421569
0.74117647 0.85882353 0
0.74362745 0.8627451 0
0.74509804 0.86176471 0
0.74509804 0.85539216 0.0039215686
0.74509804 0.85294118 0.0058823529
0.74901961 0.85098039 0.0078431373
0.75196078 0.84705882 0.010784314
0.75833333 0.84705882 0.0078431373
0.76862745 0.85098039 0.0078431373
0.77892157 0.84705882 0.010294118
0.79313725 0.84803922 0.011764706
0.80343137 0.85098039 0.011764706
0.81960784 0.85294118 0.0078431373
0.83235294 0.85539216 0.0073529412
0.84901961 0.86176471 0.0039215686
0.86421569 0.86372549 0.020588235
0.88235294 0.86666667 0.11764706
0.89656863 0.8627451 0.20245098
0.91078431 0.86568627 0.28921569
0.925 0.8627451 0.35
0.93137255 0.85686275 0.37254902
0.9377451 0.8504902 0.40147059
0.94411765 0.84705882 0.44117647
0.95833333 0.85245098 0.5004902
0.96470588 0.85882353 0.54509804
0.2495098 0.074509804 0.037745098
0.25735294 0.074509804 0.037745098
0.26372549 0.074509804 0.039215686
0.27401961 0.074509804 0.039215686
0.28112745 0.074509804 0.041666667
0.29068627 0.070588235 0.041666667
0.30208333 0.070588235 0.039215686
0.31519608 0.067585784 0.03682598
0.3254902 0.066666667 0.033823529
0.34944853 0.057843137 0.033823529
0.38333333 0.045098039 0.035906863
0.42156863 0.028431373 0.039215686
0.46666667 0.017647059 0.034558824
0.51194853 0.0073529412 0.02745098
0.55686275 0.0028186275 0.026348039
0.59803922 0 0.022977941
0.63921569 0 0.019607843
0.68768382 0 0.019607843
0.73786765 0.0039215686 0.019240196
0.78823529 0.0039215686 0.018137255
0.83651961 0.0039215686 0.018137255
0.87254902 0.014031863 0.018137255
0.90686275 0.027941176 0.014215686
0.9401348 0.04307598 0.011213235
0.97107843 0.058823529 0.0078431373
0.25098039 0.084803922 0.035294118
0.25735294 0.084803922 0.035294118
0.26482843 0.082720588 0.036213235
0.27401961 0.080882353 0.037745098
0.28262868 0.078921569 0.039215686
0.29167433 0.076654412 0.039100797
0.30245098 0.073039216 0.037882966
0.31462163 0.070381434 0.035868566
0.3254902 0.066666667 0.033823529
0.34705882 0.060294118 0.033823529
0.38431373 0.048299632 0.034375
0.42640931 0.034620098 0.034375
0.46758578 0.019332108 0.032107843
0.51176471 0.0068704044 0.02745098
0.55294118 0.0029871324 0.025199142
0.59803922 0.0021063113 0.021484375
0.64258578 0.0024509804 0.016605392
0.69034161 0.00057444853 0.016260723
0.74137561 0.0039215686 0.016375613
0.79135263 0.0039215686 0.015686275
0.83529412 0.0039215686 0.015686275
0.87549786 0.0099188113 0.016957721
0.90686275 0.026731005 0.014215686
0.9377451 0.051876532 0.011213235
0.96470588 0.080330882 0.010294118
0.25490196 0.095465686 0.033210784
0.25735294 0.095098039 0.033210784
0.26482843 0.095098039 0.033823529
0.27401961 0.09129902 0.034926471
0.28431373 0.091176471 0.034926471
0.2946538 0.088112745 0.034926471
0.30526961 0.084773284 0.033639706
0.31659007 0.080392157 0.033210784
0.33039216 0.076470588 0.031004902
0.35209865 0.073651961 0.030315564
0.38921569 0.063449755 0.029748775
0.43135723 0.051960784 0.029289216
0.47126225 0.032781863 0.02745098
0.51176471 0.014139093 0.026470588
0.55459559 0.0051470588 0.020343137
0.60150123 0.0045343137 0.017386642
0.64767157 0.0045343137 0.014215686
0.69483762 0.0034620098 0.011534926
0.74497549 0.0021139706 0.010508578
0.79397978 0.0034773284 0.0096813725
0.83529412 0.0039215686 0.012316176
0.87605699 0.0068627451 0.014215686
0.9075674 0.029258578 0.013480392
0.9377451 0.074877451 0.010294118
0.96470588 0.11127451 0.0096813725
0.25490196 0.10931373 0.030085784
0.25827206 0.10889246 0.031372549
0.26372549 0.10539216 0.030407475
0.27401961 0.10539216 0.031372549
0.28495711 0.10490196 0.030729167
0.29826134 0.10490196 0.030085784
0.31139706 0.10110294 0.029947917
0.32432598 0.097250306 0.027757353
0.34068627 0.097058824 0.027757353
0.36501225 0.090686275 0.026470588
0.39589461 0.084313725 0.026164216
