site/assets/luts/sha256-d2094bc21b7028b4481e75813ee1d614ae98a8ffa01f975edd2c893c5350bf97.cube
# LUTr-Schema-Version: 2
# LUTr-ID: sha256-d2094bc21b7028b4481e75813ee1d614ae98a8ffa01f975edd2c893c5350bf97
# LUTr-Title: golden bright
# LUTr-Collection: Natron HaldCLUT
# LUTr-Collection-ID: natron-haldclut-presets
# LUTr-Source: https://github.com/NatronGitHub/clut
# LUTr-Retrieved: 2026-07-27
# LUTr-Source-File: submissions/natron-haldclut-presets/various/golden_bright.png
# LUTr-Source-Format: HALD-PNG
# LUTr-Source-SHA256: d2094bc21b7028b4481e75813ee1d614ae98a8ffa01f975edd2c893c5350bf97
# LUTr-License: CC-BY-SA-4.0
# LUTr-License-URL: https://github.com/NatronGitHub/clut#license
# LUTr-License-Basis: repo-license-file
# LUTr-Transform-Class: film-emulation
# LUTr-Tags: creative, film, film-emulation, hald-clut, natron, png, cube
# LUTr-Input-Color-Space: srgb
# LUTr-Input-Gamut: rec709
# LUTr-Input-Transfer: srgb
# LUTr-Output-Color-Space: srgb
# LUTr-Output-Gamut: rec709
# LUTr-Output-Transfer: srgb
# LUTr-Color-Space-Confidence: assumed-display-referred
# LUTr-Domain-Normalized: true
# LUTr-Shaper: none
# LUTr-Original-Grid: 64x64x64
# LUTr-Conversion-Grid: 25x25x25
# LUTr-Conversion-Interpolation: trilinear
# LUTr-Conversion-Method: HALD-PNG LUT image decoded at 16-bit and sampled to 25x25x25 3D CUBE
# LUTr-Conversion-Tool: LUTr scripts/convert-all-to-cube.mjs 2.0.0
# LUTr-Conversion-Date: 2026-07-27
# LUTr-Note: Preserve this metadata and the upstream license notices when redistributing.
TITLE "golden bright"
LUT_3D_SIZE 25
DOMAIN_MIN 0 0 0
DOMAIN_MAX 1 1 1
0.1254902 0.11372549 0.062745098
0.17303922 0.13431373 0.070588235
0.2127451 0.14313725 0.068627451
0.26421569 0.12990196 0.1004902
0.31960784 0.11960784 0.12156863
0.37892157 0.11715686 0.096568627
0.43431373 0.11078431 0.068627451
0.49901961 0.11127451 0.060294118
0.56470588 0.12156863 0.066666667
0.63039216 0.12401961 0.070588235
0.68823529 0.1254902 0.070588235
0.74607843 0.1254902 0.070588235
0.79215686 0.11960784 0.066666667
0.82941176 0.11029412 0.059313725
0.8745098 0.11764706 0.073529412
0.91029412 0.12009804 0.074509804
0.94117647 0.10980392 0.062745098
0.95294118 0.11862745 0.058823529
0.96078431 0.13529412 0.062745098
0.96470588 0.15588235 0.062745098
0.96078431 0.1372549 0.060784314
0.96029412 0.12058824 0.058333333
0.95980392 0.10980392 0.054901961
0.97401961 0.10980392 0.058823529
0.98431373 0.10980392 0.058823529
0.13578431 0.16127451 0.076960784
0.1745098 0.16029412 0.072058824
0.2127451 0.15490196 0.064828431
0.26421569 0.15490196 0.088051471
0.31764706 0.15416667 0.094117647
0.3754902 0.15098039 0.076776961
0.43333333 0.15098039 0.06372549
0.49656863 0.14859069 0.062745098
0.5622549 0.15098039 0.066666667
0.62401961 0.15637255 0.066666667
0.68541667 0.14754902 0.070588235
0.74393382 0.13939951 0.070588235
0.79607843 0.1372549 0.070588235
0.83235294 0.1377451 0.065686275
0.88382353 0.14031863 0.088602941
0.92696078 0.14160539 0.1
0.95147059 0.14313725 0.080882353
0.95931373 0.14160539 0.066666667
0.96078431 0.1495098 0.060294118
0.96470588 0.15931373 0.058823529
0.9627451 0.14558824 0.059558824
0.95814951 0.13805147 0.058823529
0.95441176 0.13676471 0.058823529
0.96764706 0.12928922 0.062745098
0.98186275 0.11960784 0.06127451
0.1372549 0.20882353 0.090196078
0.17169118 0.20428922 0.087867647
0.2127451 0.19926471 0.081372549
0.25943627 0.19607843 0.067647059
0.31519608 0.19607843 0.069607843
0.37144608 0.19595588 0.070098039
0.42843137 0.19215686 0.062745098
0.49166667 0.19007353 0.0625
0.55686275 0.18823529 0.06372549
0.61666667 0.18872549 0.061764706
0.6754902 0.18259804 0.065931373
0.7372549 0.18039216 0.066666667
0.79019608 0.18137255 0.070588235
0.83382353 0.18431373 0.075
0.88529412 0.18063725 0.095098039
0.93321078 0.17855392 0.11066176
0.95784314 0.18431373 0.095098039
0.96470588 0.17977941 0.078431373
0.96470588 0.17156863 0.0625
0.96470588 0.17058824 0.054901961
0.96029412 0.16764706 0.058333333
0.95281863 0.16764706 0.05870098
0.94803922 0.16446078 0.057843137
0.95735294 0.16580882 0.064215686
0.96764706 0.16862745 0.067647059
0.13333333 0.25294118 0.09754902
0.16666667 0.24656863 0.10422794
0.20833333 0.24117647 0.094240196
0.25637255 0.24460784 0.067156863
0.3120098 0.24068627 0.068382353
0.36807598 0.23676471 0.066176471
0.42254902 0.23039216 0.059803922
0.48872549 0.22941176 0.065196078
0.55294118 0.22941176 0.070098039
0.60343137 0.2254902 0.055392157
0.66519608 0.2254902 0.062745098
0.72696078 0.2254902 0.066237745
0.78455882 0.22892157 0.066911765
0.83382353 0.22941176 0.072058824
0.88272059 0.22634804 0.089705882
0.92401961 0.2254902 0.096384804
0.96078431 0.22892157 0.098039216
0.97420343 0.22518382 0.085294118
0.97120098 0.21617647 0.068627451
0.96084559 0.209375 0.055330882
0.95514706 0.21151961 0.058333333
0.94852941 0.20882353 0.057904412
0.94473039 0.20502451 0.054901961
0.9504902 0.20949755 0.064215686
0.95735294 0.21323529 0.070588235
0.12941176 0.30392157 0.094117647
0.16544118 0.29754902 0.098529412
0.20490196 0.29215686 0.098039216
0.25269608 0.29583333 0.07745098
0.30686275 0.29215686 0.073529412
0.36544118 0.28823529 0.072303922
0.42156863 0.28431373 0.065686275
0.48872549 0.28627451 0.072794118
0.55294118 0.28431373 0.074509804
0.60367647 0.27794118 0.062254902
0.66078431 0.27254902 0.059803922
0.72083333 0.2745098 0.064460784
0.77941176 0.2745098 0.062745098
0.83357843 0.2745098 0.065196078
0.87647059 0.2745098 0.074019608
0.91642157 0.2745098 0.081862745
0.95882353 0.2745098 0.088235294
0.98308824 0.27328431 0.087745098
0.96862745 0.26568627 0.07254902
0.95490196 0.26078431 0.058823529
0.95294118 0.26078431 0.058823529
0.94901961 0.26078431 0.060539216
0.9504902 0.26078431 0.058823529
0.9622549 0.26078431 0.068137255
0.97058824 0.26470588 0.080392157
0.13284314 0.35539216 0.089215686
0.1627451 0.35147059 0.087928922
0.2064951 0.34754902 0.093137255
0.24901961 0.34754902 0.082843137
0.30171569 0.34166667 0.074509804
0.35882353 0.33878676 0.070526961
0.41715686 0.33541667 0.066176471
0.48560049 0.33921569 0.075490196
0.55245098 0.33578431 0.078431373
0.60422794 0.33333333 0.072058824
0.6567402 0.32696078 0.063112745
0.71421569 0.32359069 0.06182598
0.77181373 0.32352941 0.060539216
0.82849265 0.32401961 0.059313725
0.87009804 0.32401961 0.065318627
0.91127451 0.32401961 0.075490196
0.94803922 0.32401961 0.081862745
0.95931373 0.31764706 0.078921569
0.95404412 0.30821078 0.065196078
0.94460784 0.30741422 0.058823529
0.94852941 0.30784314 0.058823529
0.9495098 0.30882353 0.058823529
0.95980392 0.3122549 0.058946078
0.96881127 0.3122549 0.066360294
0.97647059 0.3122549 0.074019608
0.12647059 0.40686275 0.075490196
0.15588235 0.40404412 0.074387255
0.20098039 0.40196078 0.079411765
0.24595588 0.39938725 0.074632353
0.29705882 0.39313725 0.073039216
0.35147059 0.38676471 0.066176471
0.40392157 0.38112745 0.056862745
0.47071078 0.38370098 0.065196078
0.53823529 0.3872549 0.074509804
0.59754902 0.38480392 0.070955882
0.65294118 0.37941176 0.065686275
0.70441176 0.3754902 0.058946078
0.75637255 0.37156863 0.057352941
0.8122549 0.3754902 0.062745098
0.85980392 0.3754902 0.062745098
0.90453431 0.37696078 0.065196078
0.93921569 0.37843137 0.070588235
0.95 0.37205882 0.064828431
0.94607843 0.35784314 0.057843137
0.94375 0.3557598 0.058333333
0.94803922 0.35588235 0.058823529
0.95343137 0.35980392 0.058823529
0.96372549 0.36078431 0.059068627
0.97303922 0.35980392 0.059191176
0.97647059 0.36078431 0.06372549
0.12303922 0.45686275 0.064215686
0.15343137 0.45833333 0.06875
0.19607843 0.45833333 0.06875
0.24313725 0.45490196 0.066482843
0.29534314 0.44607843 0.074019608
0.34754902 0.44001225 0.062254902
0.40196078 0.43627451 0.058823529
0.46072304 0.43327206 0.059375
0.5254902 0.43480392 0.065196078
0.58970588 0.43572304 0.067585784
0.64693627 0.43088235 0.061764706
0.70294118 0.42696078 0.058823529
0.75416667 0.42696078 0.056372549
0.80098039 0.42696078 0.058823529
0.84852941 0.42696078 0.060661765
0.89460784 0.42696078 0.06127451
0.93970588 0.43088235 0.058823529
0.97775735 0.42935049 0.06127451
0.96960784 0.41960784 0.058823529
0.95459559 0.41145833 0.058823529
0.95441176 0.41127451 0.062745098
0.95882353 0.41127451 0.062745098
0.96911765 0.41127451 0.060906863
0.97647059 0.41127451 0.059742647
0.97647059 0.4127451 0.058823529
0.12941176 0.50196078 0.066666667
0.1627451 0.50588235 0.093627451
0.19803922 0.51078431 0.080392157
0.24068627 0.51029412 0.058823529
0.29215686 0.50392157 0.060784314
0.34411765 0.49803922 0.059313725
0.40196078 0.49411765 0.061764706
0.45980392 0.49019608 0.062745098
0.52156863 0.48627451 0.062745098
0.58333333 0.48627451 0.062745098
0.64411765 0.48627451 0.061764706
0.6995098 0.48235294 0.058823529
0.75098039 0.48235294 0.058823529
0.79460784 0.48186275 0.058823529
0.83921569 0.47843137 0.058823529
0.88431373 0.47598039 0.058823529
0.93333333 0.48235294 0.070588235
0.97205882 0.47598039 0.056372549
0.9754902 0.47058824 0.058823529
0.96519608 0.46666667 0.062254902
0.96078431 0.4627451 0.062745098
0.96519608 0.4627451 0.066176471
0.97254902 0.46568627 0.065686275
0.98039216 0.46666667 0.062745098
0.98039216 0.47058824 0.062745098
0.12941176 0.54705882 0.056372549
0.14460784 0.54859069 0.065441176
0.19889706 0.55588235 0.080637255
0.24068627 0.56127451 0.061458333
0.28578431 0.55735294 0.056372549
0.34148284 0.55343137 0.058823529
0.40196078 0.55012255 0.062745098
0.46372549 0.54558824 0.065747549
0.52156863 0.54411765 0.062745098
0.58333333 0.54166667 0.062745098
0.63835784 0.54129902 0.062132353
0.69313725 0.54019608 0.058823529
0.74583333 0.54019608 0.062009804
0.79068627 0.53970588 0.06127451
0.83713235 0.53333333 0.06127451
0.87947304 0.52843137 0.058823529
0.9254902 0.52990196 0.065196078
0.95876225 0.52261029 0.056372549
0.96470588 0.51813725 0.055882353
0.96470588 0.51439951 0.058823529
0.96789216 0.51421569 0.063970588
0.97156863 0.51813725 0.066666667
0.97830882 0.51997549 0.066666667
0.98339461 0.52205882 0.066666667
0.98431373 0.52205882 0.066666667
0.13333333 0.60196078 0.064705882
0.1435049 0.60379902 0.064338235
0.19313725 0.60906863 0.068627451
0.24068627 0.61237745 0.067769608
0.28284314 0.61127451 0.062254902
0.34019608 0.60980392 0.064705882
0.40196078 0.60661765 0.066911765
0.46372549 0.60159314 0.06629902
0.52156863 0.59803922 0.062745098
0.57990196 0.59705882 0.062745098
0.63161765 0.59313725 0.058823529
0.68676471 0.5939951 0.058823529
0.74264706 0.59705882 0.062745098
0.79460784 0.59705882 0.062745098
0.84387255 0.59485294 0.062745098
0.88860294 0.59019608 0.062132353
0.93039216 0.58529412 0.062745098
0.96617647 0.58051471 0.06372549
0.97034314 0.5745098 0.059803922
0.96960784 0.57058824 0.062745098
0.97107843 0.57058824 0.062745098
0.97659314 0.57095588 0.066666667
0.98333333 0.57426471 0.066666667
0.98823529 0.57745098 0.067647059
0.98431373 0.57745098 0.070588235
0.13676471 0.66372549 0.074509804
0.14834559 0.66372549 0.076470588
0.19313725 0.66764706 0.078921569
0.24068627 0.66813725 0.077941176
0.28431373 0.66421569 0.074019608
0.33584559 0.66421569 0.082291667
0.39718137 0.66421569 0.082720588
0.46029412 0.66011029 0.068811275
0.52156863 0.65588235 0.062745098
0.57352941 0.65 0.059007353
0.62585784 0.64460784 0.055392157
0.68339461 0.64846814 0.058823529
0.74093137 0.65196078 0.062745098
0.79460784 0.65153186 0.062745098
0.8435049 0.64852941 0.060171569
0.88872549 0.64491422 0.059007353
0.93333333 0.64068627 0.063235294
0.97469363 0.64068627 0.066666667
0.98296569 0.63664216 0.062745098
0.97990196 0.63241422 0.062745098
0.97598039 0.62843137 0.062745098
0.97218137 0.625 0.063664216
0.97647059 0.62806373 0.066666667
0.97745098 0.62892157 0.067156863
0.97745098 0.62892157 0.066666667
0.1372549 0.7254902 0.082352941
0.14852941 0.7254902 0.081617647
0.19068627 0.72352941 0.082352941
0.23504902 0.71960784 0.078676471
0.28039216 0.71960784 0.076470588
0.33186275 0.71568627 0.090686275
0.39019608 0.71421569 0.091666667
0.45661765 0.71102941 0.073529412
0.51960784 0.70784314 0.062745098
0.57303922 0.70147059 0.061519608
0.62598039 0.69901961 0.057352941
0.69093137 0.71102941 0.0625
0.74411765 0.70686275 0.062745098
0.79215686 0.6997549 0.062745098
0.83186275 0.69117647 0.058823529
0.87132353 0.68235294 0.057598039
0.91764706 0.68627451 0.060784314
0.96348039 0.6875 0.064705882
0.98235294 0.68823529 0.062745098
0.98431373 0.68823529 0.062745098
0.98235294 0.68627451 0.060784314
0.97794118 0.68235294 0.062745098
0.96421569 0.67892157 0.064705882
0.95686275 0.6745098 0.066666667
0.95882353 0.6745098 0.066666667
0.1372549 0.78676471 0.082352941
0.14577206 0.78284314 0.082352941
0.18394608 0.77757353 0.080882353
0.22892157 0.775 0.070588235
0.27426471 0.77132353 0.068137255
0.32843137 0.76709559 0.073529412
0.39019608 0.76029412 0.074019608
0.45539216 0.75753676 0.069117647
0.51715686 0.75588235 0.067156863
0.5754902 0.7596201 0.068443627
0.63419118 0.76066176 0.067034314
0.69509804 0.76623775 0.06317402
0.74509804 0.75710784 0.059068627
0.79068627 0.74656863 0.063296569
0.83186275 0.73284314 0.063235294
0.87254902 0.72530637 0.058823529
0.91029412 0.73137255 0.058823529
0.95067402 0.73431373 0.062745098
0.97610294 0.73933824 0.062745098
0.98033088 0.73970588 0.062745098
0.98431373 0.73970588 0.058823529
0.98425245 0.73921569 0.058823529
0.97046569 0.73235294 0.062254902
0.95490196 0.72156863 0.062745098
0.95245098 0.71911765 0.062745098
0.14411765 0.82745098 0.082352941
0.14938725 0.82205882 0.082352941
0.18063725 0.81372549 0.080392157
0.22254902 0.81666667 0.070098039
0.26911765 0.82009804 0.058823529
0.32806373 0.81433824 0.062867647
0.3872549 0.80857843 0.066666667
0.44901961 0.80686275 0.06997549
0.51078431 0.80686275 0.070588235
0.56960784 0.80551471 0.070588235
0.62720588 0.80490196 0.067401961
0.68823529 0.80735294 0.060171569
0.74411765 0.80490196 0.062745098
0.79460784 0.79166667 0.071078431
0.83995098 0.78039216 0.072058824
0.87830882 0.77193627 0.062745098
0.91666667 0.77647059 0.061764706
0.95208333 0.78223039 0.062745098
0.97647059 0.7872549 0.062745098
0.98333333 0.79117647 0.060171569
0.9877451 0.79117647 0.058823529
0.98039216 0.78333333 0.058823529
0.95980392 0.76372549 0.058823529
0.94607843 0.75392157 0.058823529
0.94607843 0.75392157 0.058823529
0.14509804 0.86470588 0.078431373
0.15392157 0.85441176 0.080882353
0.17365196 0.83933824 0.086642157
0.2122549 0.84803922 0.075183824
0.26397059 0.85686275 0.063480392
0.32058824 0.85686275 0.063235294
0.38088235 0.85294118 0.069607843
0.44019608 0.84901961 0.070588235
0.49656863 0.84117647 0.066666667
0.55104167 0.83241422 0.065747549
0.61470588 0.83860294 0.062745098
0.68155637 0.85245098 0.059129902
0.73921569 0.85098039 0.063970588
0.79313725 0.84068627 0.071078431
0.84276961 0.83039216 0.075122549
0.88131127 0.82303922 0.069117647
0.92156863 0.82696078 0.062745098
0.95729167 0.83088235 0.06182598
0.98529412 0.83541667 0.058823529
0.98823529 0.83872549 0.058823529
0.98627451 0.83529412 0.062745098
0.97009804 0.81930147 0.062438725
0.94963235 0.79926471 0.056985294
0.94258578 0.79368873 0.054901961
0.94558824 0.79852941 0.054901961
0.1372549 0.90588235 0.070588235
0.14754902 0.89313725 0.076960784
0.17156863 0.88235294 0.081372549
0.20588235 0.89313725 0.067647059
0.26078431 0.89803922 0.062745098
0.31666667 0.89803922 0.066666667
0.3745098 0.89803922 0.070588235
0.43627451 0.89803922 0.074509804
0.49803922 0.89019608 0.070588235
0.55980392 0.89019608 0.064215686
0.62156863 0.89411765 0.058823529
0.67941176 0.89754902 0.058823529
0.73529412 0.89607843 0.062745098
0.78676471 0.88578431 0.066666667
0.83431373 0.8754902 0.066666667
0.88039216 0.8745098 0.066666667
0.92156863 0.8745098 0.062745098
0.96029412 0.87843137 0.060294118
0.99215686 0.88235294 0.058823529
0.98872549 0.88235294 0.062745098
0.98431373 0.8745098 0.070588235
0.97990196 0.87009804 0.070098039
0.97647059 0.86666667 0.059803922
0.97647059 0.86666667 0.058823529
0.97647059 0.87058824 0.054901961
0.12696078 0.95098039 0.060294118
0.14307598 0.93768382 0.066666667
0.17156863 0.93419118 0.06752451
0.20245098 0.94509804 0.060784314
0.25563725 0.94313725 0.061519608
0.31029412 0.93658088 0.064522059
0.36813725 0.93284314 0.066666667
0.42598039 0.92892157 0.068137255
0.49166667 0.93039216 0.065686275
0.56072304 0.93284314 0.060294118
0.6245098 0.93039216 0.058823529
0.67990196 0.93020833 0.058823529
0.73284314 0.92965686 0.062009804
0.78284314 0.92089461 0.063235294
0.83247549 0.91384804 0.066666667
0.87647059 0.91415441 0.065747549
0.91764706 0.91568627 0.062745098
0.95392157 0.91868873 0.060294118
0.98284314 0.92107843 0.059803922
0.98578431 0.91960784 0.066176471
0.98431373 0.91372549 0.071323529
0.975 0.9026348 0.067953431
0.96727941 0.89803922 0.059803922
0.96666667 0.89803922 0.056372549
0.96911765 0.9004902 0.054901961
0.13431373 0.96666667 0.058823529
0.14154412 0.96029412 0.062377451
0.16666667 0.95808824 0.062745098
0.20196078 0.96262255 0.060171569
0.25294118 0.96176471 0.062745098
0.30747549 0.95747549 0.066666667
0.3627451 0.95490196 0.06372549
0.41666667 0.95281863 0.058823529
0.48137255 0.95098039 0.057843137
0.55343137 0.95490196 0.058823529
0.61985294 0.95490196 0.058823529
0.67585784 0.95490196 0.062254902
0.73088235 0.95588235 0.062745098
0.78272059 0.95943627 0.062745098
0.82965686 0.95367647 0.062745098
0.86764706 0.95196078 0.062745098
0.90490196 0.94803922 0.062745098
0.93872549 0.95196078 0.062745098
0.96666667 0.95612745 0.061764706
0.98296569 0.9560049 0.062622549
0.98333333 0.94852941 0.065686275
0.97659314 0.94031863 0.065318627
0.95318627 0.91764706 0.059068627
0.94215686 0.90882353 0.054901961
0.94607843 0.91176471 0.054901961
0.14117647 0.97990196 0.058823529
0.14117647 0.97959559 0.058823529
0.15343137 0.97941176 0.059313725
0.20147059 0.97640931 0.062254902
0.24926471 0.97205882 0.062745098
0.30447304 0.97156863 0.062806373
0.3627451 0.97156863 0.062745098
0.42040441 0.96795343 0.058823529
0.48186275 0.96813725 0.058823529
0.54803922 0.97420343 0.058823529
0.61421569 0.97941176 0.058823529
0.6716299 0.97941176 0.059252451
0.72573529 0.97769608 0.062745098
0.77849265 0.97696078 0.062745098
0.82095588 0.97732843 0.066176471
0.85949755 0.9745098 0.066176471
0.89460784 0.97205882 0.066176471
0.92892157 0.97598039 0.062745098
0.96029412 0.97990196 0.061397059
0.98039216 0.97996324 0.058823529
0.98039216 0.97573529 0.059068627
0.98039216 0.97591912 0.059313725
0.97647059 0.97205882 0.058823529
0.96439951 0.94773284 0.058333333
0.95980392 0.93970588 0.058333333
0.13921569 0.97647059 0.058823529
0.13921569 0.97965686 0.058823529
0.15441176 0.98235294 0.058823529
0.1997549 0.98063725 0.058823529
0.24411765 0.98235294 0.058823529
0.30147059 0.98235294 0.058823529
0.3627451 0.98578431 0.059313725
0.42058824 0.98235294 0.058823529
0.48235294 0.98235294 0.058823529
0.54411765 0.98235294 0.058823529
0.60392157 0.98235294 0.058823529
0.6622549 0.97892157 0.058823529
0.71764706 0.97352941 0.061764706
0.76911765 0.97303922 0.066666667
0.81568627 0.98039216 0.066666667
0.85686275 0.97965686 0.069852941
0.89411765 0.97843137 0.066666667
0.92892157 0.98039216 0.064215686
0.95980392 0.98039216 0.061764706
0.97990196 0.98039216 0.058823529
0.98039216 0.98039216 0.058823529
0.98039216 0.98039216 0.058823529
0.98039216 0.98039216 0.058823529
0.97647059 0.97573529 0.058823529
0.9745098 0.96862745 0.058823529
0.125 0.95980392 0.054901961
0.13578431 0.96666667 0.058823529
0.15845588 0.97205882 0.058823529
0.19405637 0.97248775 0.058823529
0.24117647 0.98014706 0.058823529
0.29705882 0.98082108 0.058823529
0.35833333 0.98382353 0.058823529
0.41256127 0.98020833 0.058823529
0.47009804 0.97598039 0.058823529
0.5276348 0.97205882 0.058823529
0.58664216 0.96911765 0.058823529
0.65147059 0.96905637 0.058823529
0.70759804 0.96544118 0.057107843
0.76323529 0.97745098 0.06317402
0.81164216 0.98431373 0.066666667
0.85637255 0.98069853 0.070588235
0.89362745 0.98039216 0.066666667
0.92873775 0.97990196 0.066360294
0.96372549 0.98137255 0.061764706
0.97990196 0.98131127 0.058823529
0.98039216 0.98088235 0.058823529
0.98045343 0.98088235 0.058823529
0.98039216 0.98039216 0.058823529
0.97696078 0.97696078 0.058823529
0.97696078 0.97696078 0.058823529
0.12156863 0.95294118 0.054901961
0.13247549 0.95931373 0.058823529
0.15294118 0.96862745 0.058823529
0.19019608 0.97205882 0.058823529
0.2377451 0.97647059 0.058823529
0.29276961 0.97647059 0.058823529
0.35122549 0.97745098 0.058823529
0.40551471 0.97536765 0.054901961
0.45980392 0.96960784 0.054901961
0.51703431 0.96507353 0.054901961
0.57622549 0.96176471 0.055147059
0.64117647 0.96813725 0.058823529
0.70441176 0.97745098 0.058823529
0.76323529 0.98737745 0.060171569
0.80563725 0.98529412 0.063480392
0.84607843 0.97990196 0.066666667
0.88333333 0.97058824 0.06372549
0.92058824 0.97205882 0.062745098
0.96372549 0.98210784 0.059558824
0.98039216 0.9872549 0.058823529
0.98382353 0.9872549 0.058823529
0.9872549 0.9872549 0.058823529
0.98504902 0.98504902 0.058823529
0.98431373 0.98333333 0.058823529
0.98333333 0.98333333 0.058823529
0.12156863 0.95833333 0.054901961
0.12401961 0.96078431 0.056433824
0.14693627 0.96752451 0.058823529
0.18480392 0.97077206 0.058823529
0.23259804 0.97254902 0.058823529
0.28743873 0.97254902 0.058823529
0.34375 0.97144608 0.057720588
0.3995098 0.97015931 0.054901961
0.45490196 0.96470588 0.054901961
0.5127451 0.96470588 0.054901961
0.5745098 0.96470588 0.055269608
0.63627451 0.97205882 0.058823529
0.7004902 0.98235294 0.058823529
0.76127451 0.99166667 0.058823529
0.79705882 0.98137255 0.058823529
0.83186275 0.96960784 0.06127451
0.86911765 0.95931373 0.058823529
0.91029412 0.96323529 0.058823529
0.95392157 0.97990196 0.058823529
0.97714461 0.98333333 0.058823529
0.97279412 0.98063725 0.058823529
0.97205882 0.97420343 0.058639706
0.97205882 0.97205882 0.058823529
0.97261029 0.97205882 0.062745098
0.97352941 0.97205882 0.062745098
0.12156863 0.96470588 0.054901961
0.12156863 0.96470588 0.054901961
0.14019608 0.96568627 0.054901961
0.17843137 0.96862745 0.055392157
0.22941176 0.96862745 0.054901961
0.28480392 0.96862745 0.054901961
0.34019608 0.96862745 0.054901961
0.39558824 0.96470588 0.054901961
0.45490196 0.96470588 0.054901961
0.5127451 0.96470588 0.054901961
0.5745098 0.96568627 0.055882353
0.63627451 0.97205882 0.058823529
0.69803922 0.98235294 0.058823529
0.75882353 0.99166667 0.058823529
0.79313725 0.97843137 0.058823529
0.82794118 0.96323529 0.058823529
0.85882353 0.94509804 0.054901961
0.89607843 0.95539216 0.057352941
0.93333333 0.96960784 0.058823529
0.95784314 0.97352941 0.058823529
0.94901961 0.95882353 0.058823529
0.94068627 0.94411765 0.054901961
0.94411765 0.94411765 0.054901961
0.94656863 0.94656863 0.058823529
0.94901961 0.94901961 0.058823529
0.13333333 0.12156863 0.10637255
0.17303922 0.13186275 0.10784314
0.21666667 0.13627451 0.10784314
0.26452206 0.12352941 0.11403186
0.31764706 0.11446078 0.12671569
0.37941176 0.11764706 0.10796569
0.44117647 0.11433824 0.1
0.50386029 0.11519608 0.096078431
0.56862745 0.12156863 0.096078431
0.63039216 0.12849265 0.096078431
0.69007353 0.12659314 0.089338235
0.7463848 0.1254902 0.084497549
0.79607843 0.12352941 0.082352941
0.83333333 0.11617647 0.093933824
0.8745098 0.12058824 0.099387255
0.92058824 0.12794118 0.10091912
0.95784314 0.12009804 0.096078431
0.97352941 0.12647059 0.088786765
0.97107843 0.14497549 0.08370098
0.97107843 0.15686275 0.077941176
0.97107843 0.1372549 0.081127451
0.97205882 0.12058824 0.080392157
0.97352941 0.10833333 0.077941176
0.97984069 0.10980392 0.076470588
0.98431373 0.10980392 0.071078431
0.13670343 0.16127451 0.10392157
0.1709329 0.15882353 0.10392157
0.21522672 0.1555913 0.10453431
0.26421569 0.15147059 0.11041667
0.31764706 0.15098039 0.10814951
0.37941176 0.15098039 0.10440411
0.44048713 0.15098039 0.1
0.50443474 0.15098039 0.096078431
0.56715686 0.15189951 0.096078431
0.62681526 0.15449602 0.092708333
0.68693321 0.14754902 0.088648897
0.7433364 0.14039522 0.084497549
0.79561887 0.13802083 0.0828125
0.83878676 0.1401348 0.091000306
0.88405331 0.14137561 0.098820466
0.92900582 0.14426317 0.10688572
0.96476716 0.13823529 0.10147059
0.97444853 0.13972886 0.091176471
0.97107843 0.15343137 0.078814338
