site/assets/luts/sha256-97fa22ba2b82a9cee32d319451fb40d0aac81b0540a3978d9fbdcfe2209cbb38.cube
# LUTr-Schema-Version: 2
# LUTr-ID: sha256-97fa22ba2b82a9cee32d319451fb40d0aac81b0540a3978d9fbdcfe2209cbb38
# LUTr-Title: polaroid px-70 warm
# LUTr-Collection: Natron HaldCLUT
# LUTr-Collection-ID: natron-haldclut-presets
# LUTr-Source: https://github.com/NatronGitHub/clut
# LUTr-Retrieved: 2026-07-27
# LUTr-Source-File: submissions/natron-haldclut-presets/instant_consumer/polaroid_px-70_warm.png
# LUTr-Source-Format: HALD-PNG
# LUTr-Source-SHA256: 97fa22ba2b82a9cee32d319451fb40d0aac81b0540a3978d9fbdcfe2209cbb38
# LUTr-License: CC-BY-SA-4.0
# LUTr-License-URL: https://github.com/NatronGitHub/clut#license
# LUTr-License-Basis: repo-license-file
# LUTr-Transform-Class: film-emulation
# LUTr-Tags: creative, film, film-emulation, hald-clut, natron, png, warm, cube
# LUTr-Input-Color-Space: srgb
# LUTr-Input-Gamut: rec709
# LUTr-Input-Transfer: srgb
# LUTr-Output-Color-Space: srgb
# LUTr-Output-Gamut: rec709
# LUTr-Output-Transfer: srgb
# LUTr-Color-Space-Confidence: assumed-display-referred
# LUTr-Domain-Normalized: true
# LUTr-Shaper: none
# LUTr-Original-Grid: 64x64x64
# LUTr-Conversion-Grid: 25x25x25
# LUTr-Conversion-Interpolation: trilinear
# LUTr-Conversion-Method: HALD-PNG LUT image decoded at 16-bit and sampled to 25x25x25 3D CUBE
# LUTr-Conversion-Tool: LUTr scripts/convert-all-to-cube.mjs 2.0.0
# LUTr-Conversion-Date: 2026-07-27
# LUTr-Note: Preserve this metadata and the upstream license notices when redistributing.
TITLE "polaroid px-70 warm"
LUT_3D_SIZE 25
DOMAIN_MIN 0 0 0
DOMAIN_MAX 1 1 1
0.13333333 0.12941176 0.14901961
0.13333333 0.12696078 0.14901961
0.12941176 0.1254902 0.14901961
0.12941176 0.1254902 0.14509804
0.12941176 0.12352941 0.14509804
0.13088235 0.12156863 0.14509804
0.16176471 0.12156863 0.14803922
0.18872549 0.1254902 0.14901961
0.21568627 0.1254902 0.14901961
0.25294118 0.12303922 0.15294118
0.29019608 0.12156863 0.15392157
0.33823529 0.125 0.15686275
0.40980392 0.12745098 0.16078431
0.48186275 0.12990196 0.16078431
0.55686275 0.13333333 0.16372549
0.63529412 0.13333333 0.16470588
0.71372549 0.13333333 0.16470588
0.7754902 0.19264706 0.16078431
0.84117647 0.25196078 0.15588235
0.90686275 0.30686275 0.14901961
0.94509804 0.35882353 0.15098039
0.96568627 0.41029412 0.15735294
0.98333333 0.45882353 0.16470588
0.99215686 0.49705882 0.18333333
0.99607843 0.51372549 0.19607843
0.13333333 0.13186275 0.14901961
0.13333333 0.13186275 0.14901961
0.13333333 0.13125 0.14901961
0.13333333 0.12941176 0.14901961
0.13333333 0.12794118 0.14754902
0.14117647 0.12794118 0.14773284
0.16813725 0.12794118 0.14901961
0.19754902 0.12941176 0.14901961
0.2245098 0.12941176 0.15147059
0.25931373 0.12640931 0.15294118
0.29264706 0.12340686 0.15686275
0.3403799 0.12371324 0.15686275
0.4122549 0.13063725 0.16078431
0.48823529 0.13627451 0.16078431
0.56323529 0.13970588 0.16433824
0.64074755 0.14454657 0.16470588
0.71372549 0.16421569 0.16470588
0.77794118 0.20876225 0.1622549
0.84117647 0.26078431 0.15588235
0.90686275 0.3122549 0.14932598
0.94509804 0.36127451 0.15220588
0.96568627 0.41243873 0.15735294
0.98627451 0.45882353 0.16188725
0.99515931 0.5 0.1778799
0.99607843 0.52647059 0.19215686
0.13333333 0.13823529 0.14901961
0.13333333 0.1372549 0.14901961
0.13333333 0.13651961 0.14901961
0.13419118 0.13431373 0.14901961
0.1377451 0.13333333 0.14901961
0.15134804 0.13431373 0.14901961
0.17843137 0.13651961 0.15196078
0.20723039 0.13786765 0.15294118
0.23627451 0.13431373 0.15294118
0.26960784 0.13431373 0.15294118
0.30392157 0.13431373 0.15686275
0.35686275 0.13517157 0.15686275
0.42696078 0.14068627 0.16078431
0.49852941 0.14656863 0.16078431
0.57058824 0.15294118 0.16078431
0.64558824 0.16568627 0.16470588
0.71372549 0.19117647 0.16470588
0.77941176 0.23137255 0.1622549
0.84019608 0.28137255 0.16078431
0.89901961 0.32928922 0.15686275
0.93823529 0.37598039 0.15931373
0.96213235 0.42254902 0.16433824
0.98848039 0.4629902 0.16078431
1 0.50428922 0.17303922
1 0.54509804 0.19215686
0.13333333 0.14509804 0.15294118
0.13333333 0.14460784 0.14901961
0.13333333 0.14068627 0.14901961
0.13676471 0.14068627 0.14901961
0.13921569 0.1372549 0.14901961
0.15741422 0.14068627 0.14901961
0.18529412 0.14117647 0.15294118
0.21568627 0.14491422 0.15294118
0.24656863 0.14460784 0.15294118
0.27990196 0.14460784 0.15294118
0.3245098 0.14718137 0.15943627
0.38039216 0.15153186 0.15686275
0.44240196 0.15416667 0.16078431
0.50882353 0.15643382 0.16078431
0.58088235 0.16323529 0.16078431
0.65165441 0.18382353 0.16256127
0.71764706 0.21862745 0.16470588
0.78069853 0.25716912 0.16078431
0.83982843 0.29460784 0.1560049
0.89901961 0.34215686 0.15300245
0.93161765 0.3877451 0.15906863
0.95833333 0.43284314 0.16127451
0.98921569 0.47745098 0.16078431
1 0.51519608 0.17518382
1 0.55245098 0.19607843
0.12941176 0.15490196 0.15294118
0.13333333 0.15098039 0.15294118
0.13333333 0.14705882 0.1504902
0.13676471 0.14338235 0.14901961
0.13823529 0.14313725 0.14901961
0.16029412 0.14362745 0.1495098
0.19411765 0.14852941 0.15294118
0.22598039 0.15098039 0.15294118
0.25686275 0.15098039 0.15294118
0.2877451 0.15098039 0.15294118
0.3372549 0.15539216 0.15686275
0.39901961 0.16421569 0.15686275
0.46078431 0.16862745 0.15882353
0.52254902 0.17254902 0.16078431
0.58578431 0.17058824 0.16078431
0.65539216 0.20588235 0.16078431
0.72352941 0.24509804 0.16078431
0.78529412 0.28112745 0.15686275
0.84460784 0.31470588 0.14852941
0.90318627 0.34926471 0.13970588
0.93333333 0.40196078 0.14901961
0.9622549 0.45147059 0.15710784
0.98970588 0.50098039 0.16372549
0.99754902 0.53529412 0.18529412
1 0.56666667 0.20392157
0.12941176 0.16127451 0.15343137
0.13186275 0.16127451 0.15294118
0.13345588 0.15784314 0.15294118
0.13768382 0.15784314 0.15294118
0.14191176 0.15833333 0.15294118
0.17058824 0.1622549 0.15300245
0.20539216 0.16605392 0.15343137
0.23627451 0.16617647 0.15686275
0.26715686 0.16568627 0.15343137
0.29834559 0.16011029 0.15294118
0.35453431 0.17107843 0.15392157
0.41372549 0.18523284 0.15686275
0.475 0.19117647 0.15637255
0.53780637 0.19730392 0.15692402
0.60294118 0.20870098 0.16029412
0.66862745 0.2377451 0.16029412
0.73431373 0.27598039 0.15686275
0.79577206 0.31109069 0.15422794
0.85232843 0.34607843 0.14509804
0.9 0.3838848 0.14160539
0.93529412 0.42916667 0.14705882
0.97009804 0.47444853 0.15294118
0.99509804 0.52254902 0.1627451
0.99607843 0.55441176 0.18921569
1 0.58480392 0.21176471
0.12941176 0.17156863 0.15686275
0.13296569 0.17634804 0.15686275
0.14019608 0.18137255 0.15686275
0.14669118 0.18529412 0.15686275
0.15735294 0.18921569 0.15686275
0.18088235 0.19313725 0.15686275
0.21568627 0.19607843 0.15906863
0.24656863 0.19705882 0.16041667
0.27745098 0.19705882 0.15686275
0.31654412 0.19889706 0.15686275
0.37254902 0.20882353 0.15539216
0.43051471 0.2127451 0.15343137
0.48382353 0.21323529 0.15294118
0.54840686 0.22291667 0.15306373
0.61960784 0.24901961 0.15612745
0.68921569 0.27781863 0.15686275
0.75098039 0.31078431 0.15686275
0.80735294 0.34742647 0.15110294
0.85563725 0.38504902 0.14509804
0.9 0.42169118 0.14509804
0.93529412 0.46519608 0.14901961
0.97058824 0.50490196 0.15294118
0.99534314 0.5379902 0.16176471
0.99607843 0.57205882 0.19264706
0.99705882 0.59901961 0.21568627
0.13480392 0.20980392 0.1622549
0.14117647 0.20980392 0.1622549
0.1504902 0.2122549 0.16188725
0.15784314 0.21617647 0.16078431
0.17009804 0.22083333 0.16078431
0.19117647 0.22420343 0.16078431
0.22205882 0.22794118 0.16078431
0.25594363 0.22941176 0.16078431
0.2877451 0.23186275 0.16078431
0.33676471 0.23970588 0.15925245
0.39276961 0.25 0.15686275
0.44969363 0.25441176 0.15294118
0.50441176 0.25392157 0.15294118
0.56305147 0.26501225 0.14901961
0.63026961 0.29129902 0.14865196
0.7004902 0.31917892 0.15147059
0.75833333 0.35098039 0.15147059
0.80980392 0.38823529 0.14601716
0.85919118 0.4245098 0.14546569
0.90147059 0.45882353 0.14901961
0.9379902 0.49779412 0.14901961
0.96813725 0.52990196 0.1495098
0.98578431 0.55392157 0.16384804
0.99068627 0.58235294 0.19264706
0.99215686 0.60392157 0.21029412
0.14509804 0.25882353 0.16862745
0.15147059 0.25490196 0.16862745
0.15784314 0.25098039 0.16470588
0.16813725 0.25098039 0.16470588
0.17843137 0.25490196 0.16470588
0.19754902 0.25882353 0.16470588
0.23137255 0.26176471 0.16470588
0.26323529 0.2627451 0.16470588
0.30196078 0.26666667 0.16470588
0.35735294 0.27941176 0.16078431
0.40980392 0.2872549 0.15686275
0.46421569 0.29754902 0.15294118
0.52745098 0.30980392 0.15294118
0.58333333 0.32598039 0.14852941
0.64607843 0.34313725 0.14607843
0.70686275 0.36372549 0.14117647
0.76470588 0.39215686 0.14117647
0.81372549 0.42941176 0.1372549
0.8627451 0.46176471 0.14509804
0.90392157 0.48872549 0.14852941
0.93529412 0.52352941 0.14509804
0.96127451 0.55 0.1495098
0.9754902 0.57058824 0.16666667
0.98431373 0.59264706 0.19264706
0.98823529 0.61176471 0.20784314
0.14901961 0.30637255 0.17254902
0.15784314 0.30392157 0.17254902
0.16813725 0.29791667 0.17107843
0.17628676 0.29460784 0.17107843
0.18480392 0.29215686 0.16862745
0.20655637 0.29607843 0.16862745
0.24227941 0.29963235 0.16862745
0.27745098 0.30637255 0.16715686
0.31862745 0.31421569 0.16470588
0.37493873 0.3245098 0.16170343
0.42941176 0.33272059 0.15870098
0.48088235 0.33988971 0.15324755
0.54362745 0.36127451 0.15220588
0.60392157 0.38167892 0.14883578
0.65992647 0.39338235 0.13970588
0.71323529 0.40490196 0.13241422
0.76862745 0.43333333 0.13088235
0.81617647 0.46568627 0.13088235
0.8627451 0.49448529 0.13480392
0.90392157 0.51960784 0.13480392
0.93333333 0.54656863 0.13872549
0.95147059 0.57058824 0.15
0.96703431 0.58762255 0.17058824
0.97886029 0.60839461 0.19117647
0.98431373 0.62205882 0.20392157
0.15294118 0.36176471 0.17254902
0.15931373 0.35637255 0.17254902
0.17058824 0.35073529 0.17254902
0.18345588 0.34620098 0.17254902
0.19803922 0.34656863 0.17254902
0.22352941 0.34742647 0.17254902
0.26078431 0.35294118 0.16960784
0.29656863 0.35931373 0.16862745
0.33823529 0.36666667 0.16862745
0.39215686 0.37990196 0.16470588
0.44607843 0.39117647 0.16078431
0.50490196 0.40490196 0.15821078
0.5622549 0.41960784 0.15343137
0.6192402 0.43676471 0.14852941
0.67377451 0.44705882 0.13897059
0.72169118 0.45196078 0.12696078
0.77254902 0.46960784 0.12058824
0.81764706 0.50147059 0.1245098
0.8627451 0.52818627 0.12622549
0.90392157 0.55098039 0.1254902
0.93088235 0.57156863 0.13088235
0.94595588 0.59117647 0.15
0.9627451 0.60784314 0.17058824
0.97585784 0.62414216 0.18688725
0.97941176 0.63235294 0.19509804
0.15294118 0.42058824 0.17647059
0.16145833 0.41292892 0.17647059
0.17794118 0.40796569 0.17647059
0.19803922 0.40490196 0.17604167
0.21862745 0.40490196 0.17622549
0.24754902 0.40882353 0.17640931
0.2810049 0.40919118 0.17340686
0.31470588 0.41452206 0.1723652
0.35245098 0.4245098 0.16862745
0.40245098 0.43529412 0.16599265
0.46029412 0.44914216 0.16458333
0.5216299 0.46323529 0.16078431
0.57965686 0.47769608 0.15857843
0.63333333 0.49215686 0.15196078
0.68480392 0.49938725 0.14166667
0.73449755 0.50686275 0.13137255
0.77990196 0.51911765 0.125
0.825 0.54822304 0.12371324
0.86531863 0.56776961 0.12156863
0.90392157 0.58229167 0.12156863
0.92769608 0.59681373 0.12941176
0.94558824 0.61176471 0.14957108
0.96017157 0.62843137 0.16666667
0.97273284 0.64019608 0.18057598
0.97647059 0.64607843 0.18480392
0.15098039 0.47843137 0.17647059
0.16960784 0.47328431 0.17647059
0.19411765 0.47009804 0.17647059
0.21642157 0.46666667 0.17647059
0.23921569 0.46666667 0.17843137
0.26813725 0.47058824 0.18039216
0.29901961 0.47058824 0.17696078
0.33529412 0.4745098 0.1745098
0.36862745 0.48235294 0.17058824
0.40882353 0.49068627 0.16862745
0.4745098 0.50490196 0.16666667
0.53627451 0.51911765 0.16495098
0.59509804 0.53235294 0.1627451
0.64926471 0.54362745 0.15661765
0.69901961 0.55392157 0.14803922
0.74387255 0.56617647 0.14240196
0.78627451 0.58039216 0.13529412
0.82941176 0.59068627 0.12107843
0.86617647 0.60147059 0.11372549
0.89509804 0.61323529 0.12303922
0.91960784 0.62745098 0.14117647
0.94215686 0.6379902 0.15539216
0.95980392 0.65 0.16568627
0.97058824 0.65882353 0.17328431
0.97058824 0.65882353 0.1745098
0.19068627 0.54019608 0.18088235
0.20067402 0.53645833 0.18088235
0.21470588 0.53235294 0.18039216
0.23523284 0.52843137 0.18039216
0.25955882 0.53039216 0.18039216
0.28474265 0.53229167 0.18088235
0.31556373 0.53235294 0.18088235
0.35588235 0.53596814 0.18088235
0.39411765 0.53970588 0.18088235
0.43743873 0.54234069 0.17873775
0.49301471 0.55637255 0.17303922
0.55140931 0.56966912 0.17261029
0.60833333 0.58088235 0.16887255
0.66084559 0.59509804 0.16427696
0.70625 0.60539216 0.16127451
0.75147059 0.61911765 0.15588235
0.79264706 0.62941176 0.14558824
0.82959559 0.63333333 0.13186275
0.86470588 0.63811275 0.12708333
0.88829657 0.64803922 0.14123775
0.91151961 0.65833333 0.15588235
0.93431373 0.66862745 0.17009804
0.95490196 0.67855392 0.17781863
0.96862745 0.68382353 0.18707108
0.96911765 0.68382353 0.18970588
0.24215686 0.60490196 0.1872549
0.25147059 0.60134804 0.1872549
0.25392157 0.59632353 0.18627451
0.25269608 0.59056373 0.1807598
0.28137255 0.59068627 0.18382353
0.30490196 0.59019608 0.18431373
0.33382353 0.59093137 0.18651961
0.38480392 0.59117647 0.19117647
0.43137255 0.59117647 0.19411765
0.47352941 0.59754902 0.19411765
0.51862745 0.60784314 0.18627451
0.56544118 0.61519608 0.17941176
0.61715686 0.62843137 0.1754902
0.66764706 0.63970588 0.17156863
0.7127451 0.65 0.17156863
0.75821078 0.66029412 0.16727941
0.79901961 0.67058824 0.15980392
0.83088235 0.6745098 0.16176471
0.86176471 0.67622549 0.1625
0.88529412 0.68198529 0.16911765
0.90588235 0.68921569 0.17941176
0.92745098 0.69644608 0.19068627
0.94877451 0.70588235 0.20098039
0.96617647 0.71286765 0.21458333
0.97254902 0.71764706 0.2245098
0.3122549 0.65833333 0.20833333
0.32254902 0.66072304 0.20686275
0.32401961 0.65343137 0.20625
0.32371324 0.64313725 0.20441176
0.34485294 0.64264706 0.20686275
0.36795343 0.64264706 0.20686275
0.38431373 0.64264706 0.20294118
0.42352941 0.64264706 0.20386029
0.46715686 0.64656863 0.20539216
0.50833333 0.6504902 0.20931373
0.5495098 0.65894608 0.20196078
0.58939951 0.66439951 0.19295343
0.62916667 0.67058824 0.18627451
0.67579657 0.68333333 0.19019608
0.72242647 0.69362745 0.18909314
0.76813725 0.70091912 0.1838848
0.8 0.70637255 0.18872549
0.83088235 0.71121324 0.19264706
0.86078431 0.71458333 0.19754902
0.88382353 0.71813725 0.20392157
0.90196078 0.72205882 0.20710784
0.92254902 0.72647059 0.21256127
0.94375 0.73284314 0.22156863
0.96133578 0.74258578 0.2372549
0.97254902 0.7495098 0.25539216
0.38823529 0.70980392 0.23137255
0.39607843 0.71372549 0.23137255
0.39215686 0.70098039 0.22745098
0.39215686 0.69068627 0.22745098
0.40980392 0.69019608 0.22941176
0.42843137 0.69019608 0.22745098
0.44215686 0.69411765 0.22058824
0.45931373 0.69166667 0.21568627
0.49803922 0.69411765 0.21960784
0.53921569 0.7004902 0.22990196
0.58039216 0.70294118 0.22745098
0.61764706 0.70588235 0.22745098
0.65490196 0.70784314 0.22745098
0.69264706 0.71813725 0.23137255
0.74019608 0.72843137 0.22843137
0.77696078 0.73333333 0.22745098
0.80392157 0.74117647 0.22745098
0.83480392 0.74509804 0.22745098
0.86078431 0.75 0.22745098
0.88137255 0.75294118 0.23480392
0.90196078 0.75686275 0.23921569
0.92205882 0.75735294 0.23921569
0.93921569 0.76078431 0.24215686
0.95441176 0.76862745 0.26176471
0.96470588 0.77254902 0.27843137
0.45147059 0.74852941 0.25833333
0.44901961 0.74515931 0.2528799
0.44754902 0.74362745 0.24742647
0.44754902 0.73547794 0.24773284
0.46519608 0.73137255 0.24803922
0.47941176 0.73498775 0.24411765
0.49154412 0.73284314 0.24264706
0.50784314 0.73284314 0.24509804
0.5377451 0.73676471 0.2504902
0.57401961 0.74221814 0.25778186
0.60735294 0.74313725 0.2622549
0.64509804 0.74099265 0.26470588
0.68137255 0.74387255 0.26666667
0.71488971 0.75116422 0.26862745
0.75428922 0.75931373 0.26862745
0.78578431 0.76421569 0.26862745
0.81421569 0.76960784 0.26862745
0.83964461 0.77598039 0.26770833
0.86078431 0.77990196 0.26470588
0.88137255 0.78137255 0.26991422
0.89803922 0.78529412 0.27401961
0.91862745 0.78560049 0.27647059
0.93676471 0.78884804 0.27941176
0.94564951 0.79166667 0.28878676
0.9504902 0.79313725 0.29754902
0.50686275 0.7754902 0.28529412
0.50330882 0.7754902 0.27892157
0.49828431 0.7754902 0.26862745
0.49767157 0.77291667 0.26384804
0.5127451 0.77156863 0.26764706
0.53137255 0.76862745 0.275
0.54901961 0.76862745 0.28529412
0.56752451 0.7682598 0.29019608
0.58529412 0.76862745 0.29019608
0.61519608 0.77401961 0.29375
0.6372549 0.7754902 0.29705882
0.67193627 0.7754902 0.29803922
0.70588235 0.77794118 0.30147059
0.73676471 0.78382353 0.30502451
0.76691176 0.79019608 0.30808824
0.7932598 0.79448529 0.30980392
0.81960784 0.79901961 0.30980392
0.84019608 0.80196078 0.30980392
0.86053922 0.80367647 0.30588235
0.87745098 0.80588235 0.30968137
0.89558824 0.80833333 0.31323529
0.91470588 0.80992647 0.31776961
0.93455882 0.81372549 0.3254902
0.94656863 0.81801471 0.33578431
0.94901961 0.81862745 0.34117647
0.5622549 0.80637255 0.31617647
0.5596201 0.8026348 0.30980392
0.55784314 0.80294118 0.30294118
0.55692402 0.80294118 0.3
0.56960784 0.80269608 0.30588235
0.58676471 0.80245098 0.31617647
0.60821078 0.80245098 0.32647059
0.62598039 0.80245098 0.33137255
0.64019608 0.80245098 0.32745098
0.65520833 0.80245098 0.32794118
0.67107843 0.80637255 0.3314951
0.69558824 0.80637255 0.33186275
0.72647059 0.81029412 0.33578431
0.75386029 0.81427696 0.3401348
0.77794118 0.81813725 0.34620098
0.80245098 0.82224265 0.34754902
0.81960784 0.82598039 0.35098039
0.84019608 0.82647059 0.34883578
0.85686275 0.82990196 0.34705882
0.87444853 0.83039216 0.34748775
0.89411765 0.83382353 0.35294118
0.91121324 0.83431373 0.3627451
0.93137255 0.83811275 0.37303922
0.94656863 0.84344363 0.38363971
0.95294118 0.84558824 0.38970588
0.61764706 0.83333333 0.34313725
0.61960784 0.83333333 0.34509804
0.61960784 0.83137255 0.34852941
0.62132353 0.82965686 0.34877451
0.63137255 0.83039216 0.35294118
0.64803922 0.83333333 0.3629902
0.66715686 0.83480392 0.36862745
0.67598039 0.83455882 0.36862745
0.68627451 0.83333333 0.36666667
0.69656863 0.83137255 0.36470588
0.70931373 0.83186275 0.36519608
0.72303922 0.83529412 0.36838235
0.74509804 0.83823529 0.37352941
0.76960784 0.83946078 0.37867647
0.79215686 0.84313725 0.38382353
0.8120098 0.84705882 0.38823529
0.82941176 0.84705882 0.38823529
0.84607843 0.85098039 0.38823529
0.86176471 0.85098039 0.38823529
0.87573529 0.85490196 0.38651961
0.89411765 0.85490196 0.39411765
0.91078431 0.85882353 0.40441176
0.92843137 0.8627451 0.41470588
0.94656863 0.86813725 0.42769608
0.95882353 0.87254902 0.4372549
0.66960784 0.85588235 0.38627451
0.6754902 0.85851716 0.38890931
0.68186275 0.85980392 0.3942402
0.68872549 0.85980392 0.39846814
0.69142157 0.85980392 0.4004902
0.70790441 0.85980392 0.40588235
0.71176471 0.85980392 0.40588235
0.71697304 0.85588235 0.40588235
0.72352941 0.85588235 0.40539216
0.73382353 0.85343137 0.40196078
0.74411765 0.85588235 0.40294118
0.75784314 0.85588235 0.40931373
0.77401961 0.85980392 0.41372549
0.79068627 0.86372549 0.41813725
0.81078431 0.86409314 0.42414216
0.83118873 0.86764706 0.42696078
0.84411765 0.86764706 0.42892157
0.85814951 0.87156863 0.4254902
0.87205882 0.87156863 0.425
0.88235294 0.87156863 0.42457108
0.89632353 0.8752451 0.43088235
0.9151348 0.87598039 0.44117647
0.93272059 0.88235294 0.45196078
0.94785539 0.8872549 0.46207108
0.95686275 0.8872549 0.46372549
0.7245098 0.88039216 0.43137255
0.72806373 0.88039216 0.43382353
0.73333333 0.88039216 0.43848039
0.74362745 0.88382353 0.44264706
0.74852941 0.88431373 0.44705882
0.75208333 0.88039216 0.44411765
0.75294118 0.88039216 0.44313725
0.75686275 0.87647059 0.44313725
0.76176471 0.87647059 0.44313725
0.77107843 0.87647059 0.44313725
0.78137255 0.87647059 0.44705882
0.79166667 0.87904412 0.4504902
0.80637255 0.88186275 0.45490196
0.82120098 0.88431373 0.45894608
0.83235294 0.88504902 0.46176471
0.84865196 0.88823529 0.46666667
0.86176471 0.88823529 0.46666667
0.87389706 0.88921569 0.46372549
0.88235294 0.88823529 0.4620098
0.89264706 0.89178922 0.46237745
0.90343137 0.89264706 0.46862745
0.92156863 0.89656863 0.47892157
0.93627451 0.90073529 0.4870098
0.94656863 0.90098039 0.49007353
0.95294118 0.90098039 0.48823529
0.77843137 0.90098039 0.47647059
0.77990196 0.90098039 0.47794118
0.78480392 0.90306373 0.4807598
0.78988971 0.90128676 0.48284314
0.79019608 0.90098039 0.48161765
0.79411765 0.90098039 0.48431373
0.79411765 0.89705882 0.48039216
0.79803922 0.89705882 0.48039216
0.80196078 0.89705882 0.48039216
0.80741422 0.89705882 0.48431373
0.81715686 0.90098039 0.48884804
0.82530637 0.90098039 0.49215686
0.8377451 0.90490196 0.49803922
0.85 0.90471814 0.49803922
0.85257353 0.90245098 0.4932598
0.86623775 0.90882353 0.50392157
0.87745098 0.90882353 0.50392157
0.88682598 0.90882353 0.50091912
0.89558824 0.90882353 0.5
0.90294118 0.90882353 0.50214461
0.91323529 0.9127451 0.50588235
0.92745098 0.91666667 0.51599265
0.9372549 0.91666667 0.51703431
0.94509804 0.91519608 0.51366422
0.94901961 0.9127451 0.51029412
0.81960784 0.91764706 0.51372549
0.82598039 0.92156863 0.51617647
0.82745098 0.92156863 0.51764706
0.82352941 0.91764706 0.51372549
0.8254902 0.91764706 0.51372549
0.82745098 0.91764706 0.51715686
0.82745098 0.91372549 0.51078431
0.82745098 0.91372549 0.50980392
0.83137255 0.91372549 0.50980392
0.8377451 0.91372549 0.51372549
0.84411765 0.91764706 0.51862745
0.85441176 0.92107843 0.52892157
0.86666667 0.92352941 0.53529412
0.8627451 0.91715686 0.52107843
0.86470588 0.91568627 0.51568627
0.88137255 0.92303922 0.53235294
0.89019608 0.92941176 0.5372549
0.89656863 0.9254902 0.53088235
0.90294118 0.9254902 0.52941176
0.91323529 0.9254902 0.53284314
0.91960784 0.92941176 0.53921569
0.92990196 0.93284314 0.54460784
0.93627451 0.92941176 0.53823529
0.94264706 0.9254902 0.53333333
0.94509804 0.9254902 0.53333333
0.13088235 0.12941176 0.14901961
0.13088235 0.12941176 0.14901961
0.12941176 0.12904412 0.14901961
0.12941176 0.12579657 0.14901961
0.12941176 0.1254902 0.14901961
0.14068627 0.12530637 0.14901961
0.16237745 0.1254902 0.14901961
0.18780637 0.1254902 0.14901961
0.21176471 0.12156863 0.14901961
0.24901961 0.12156863 0.15202206
0.29362745 0.12438725 0.15686275
0.35226716 0.1276348 0.16060049
0.42132353 0.13186275 0.16323529
0.49215686 0.13363971 0.16470588
0.56531863 0.1372549 0.16654412
0.64258578 0.14117647 0.16715686
0.71617647 0.16029412 0.16862745
0.77941176 0.20294118 0.17107843
0.8439951 0.25894608 0.16617647
0.90716912 0.31372549 0.15802696
0.94509804 0.36397059 0.16053922
0.96519608 0.41243873 0.17156863
0.97941176 0.45882353 0.18186275
0.990625 0.49944853 0.19215686
0.99607843 0.52401961 0.20245098
0.13333333 0.1348652 0.15055147
0.13333333 0.13390778 0.15055147
0.13333333 0.13319547 0.1501685
0.13333333 0.13186275 0.14901961
0.13455882 0.12941176 0.14901961
0.14705882 0.12960325 0.15055147
0.17095588 0.13117341 0.15055147
0.19659161 0.13036918 0.15055147
0.22205882 0.12794118 0.15147059
0.25651808 0.12794118 0.15294118
0.29630821 0.12702206 0.15686275
0.35379136 0.12863051 0.16078431
0.42346814 0.13382353 0.16323529
0.49479167 0.13982077 0.16470588
0.57020527 0.14546569 0.16539522
0.6471201 0.15562194 0.16715686
0.72009804 0.17542892 0.16862745
0.7848652 0.21695006 0.16770833
0.84846814 0.27015931 0.1622549
0.90857077 0.32009804 0.15802696
0.94509804 0.36764706 0.16148897
0.96568627 0.41574755 0.1713848
0.98517157 0.46260723 0.17748162
0.99342065 0.50189951 0.18972886
0.99607843 0.52830882 0.20245098
0.13333333 0.14178922 0.15183824
0.13333333 0.14007353 0.15183824
0.13333333 0.13786765 0.15147059
0.13676471 0.1372549 0.15147059
0.13952206 0.13431373 0.15165441
0.15513174 0.13636642 0.15294118
0.18069853 0.13814338 0.15294118
0.20539216 0.13823529 0.15294118
0.23382353 0.13823529 0.15294118
0.26776961 0.13676471 0.1557598
0.30818015 0.13538603 0.15968137
0.36556373 0.13809743 0.16078431
0.43039216 0.14215686 0.16397059
0.50245098 0.14656863 0.16470588
0.5776348 0.1573223 0.16470588
0.65294118 0.17575061 0.165625
