site/assets/luts/sha256-18bb16d2887680d97cd5f68b3e486dee9d7caf4d7c88ac77b67da1fe5942305e.cube
# LUTr-Schema-Version: 2
# LUTr-ID: sha256-18bb16d2887680d97cd5f68b3e486dee9d7caf4d7c88ac77b67da1fe5942305e
# LUTr-Title: warm highlight
# LUTr-Collection: Natron HaldCLUT
# LUTr-Collection-ID: natron-haldclut-presets
# LUTr-Source: https://github.com/NatronGitHub/clut
# LUTr-Retrieved: 2026-07-27
# LUTr-Source-File: submissions/natron-haldclut-presets/various/warm_highlight.png
# LUTr-Source-Format: HALD-PNG
# LUTr-Source-SHA256: 18bb16d2887680d97cd5f68b3e486dee9d7caf4d7c88ac77b67da1fe5942305e
# LUTr-License: CC-BY-SA-4.0
# LUTr-License-URL: https://github.com/NatronGitHub/clut#license
# LUTr-License-Basis: repo-license-file
# LUTr-Transform-Class: film-emulation
# LUTr-Tags: creative, film, film-emulation, hald-clut, natron, png, warm, cube
# LUTr-Input-Color-Space: srgb
# LUTr-Input-Gamut: rec709
# LUTr-Input-Transfer: srgb
# LUTr-Output-Color-Space: srgb
# LUTr-Output-Gamut: rec709
# LUTr-Output-Transfer: srgb
# LUTr-Color-Space-Confidence: assumed-display-referred
# LUTr-Domain-Normalized: true
# LUTr-Shaper: none
# LUTr-Original-Grid: 64x64x64
# LUTr-Conversion-Grid: 25x25x25
# LUTr-Conversion-Interpolation: trilinear
# LUTr-Conversion-Method: HALD-PNG LUT image decoded at 16-bit and sampled to 25x25x25 3D CUBE
# LUTr-Conversion-Tool: LUTr scripts/convert-all-to-cube.mjs 2.0.0
# LUTr-Conversion-Date: 2026-07-27
# LUTr-Note: Preserve this metadata and the upstream license notices when redistributing.
TITLE "warm highlight"
LUT_3D_SIZE 25
DOMAIN_MIN 0 0 0
DOMAIN_MAX 1 1 1
0.047058824 0.035294118 0.023529412
0.098039216 0.079411765 0.052941176
0.089215686 0.045098039 0.032352941
0.10539216 0.04754902 0.035294118
0.1254902 0.052941176 0.039215686
0.17205882 0.06372549 0.051470588
0.24215686 0.068627451 0.049019608
0.28578431 0.045098039 0.031862745
0.39607843 0.062745098 0.050980392
0.45686275 0.04754902 0.031862745
0.55882353 0.058823529 0.039215686
0.64362745 0.048039216 0.031862745
0.7372549 0.062745098 0.043137255
0.80245098 0.048529412 0.032843137
0.85784314 0.07254902 0.059803922
0.88676471 0.058333333 0.040196078
0.92156863 0.082352941 0.062745098
0.94362745 0.07254902 0.052941176
0.95882353 0.060784314 0.045098039
0.97941176 0.067156863 0.04754902
0.99019608 0.098039216 0.068627451
0.99607843 0.060294118 0.040686275
1 0.07745098 0.060784314
1 0.080882353 0.06127451
1 0.058823529 0.043137255
0.13970588 0.14460784 0.089215686
0.1411152 0.13026961 0.082230392
0.14705882 0.11409314 0.075367647
0.18419118 0.13057598 0.082352941
0.22769608 0.14607843 0.090686275
0.25643382 0.1317402 0.090870098
0.32120098 0.13247549 0.093259804
0.40551471 0.13884804 0.094730392
0.46323529 0.1245098 0.081862745
0.57120098 0.14669118 0.089215686
0.65 0.14901961 0.090686275
0.72941176 0.15018382 0.090686275
0.78897059 0.13480392 0.086519608
0.83921569 0.128125 0.081862745
0.87904412 0.13786765 0.084436275
0.91035539 0.13333333 0.08872549
0.93186275 0.12303922 0.080882353
0.94607843 0.10508578 0.068259804
0.96703431 0.12732843 0.08504902
0.97971814 0.12941176 0.081862745
0.99019608 0.14093137 0.087254902
0.99607843 0.13872549 0.086642157
1 0.13480392 0.085171569
1 0.13927696 0.085784314
1 0.14019608 0.094117647
0.11372549 0.1245098 0.071568627
0.13578431 0.13688725 0.079411765
0.18186275 0.15980392 0.10269608
0.17671569 0.13651961 0.08504902
0.18970588 0.12941176 0.071568627
0.23468137 0.13051471 0.078186275
0.33529412 0.15196078 0.096323529
0.4125 0.15625 0.098406863
0.46078431 0.13823529 0.084313725
0.53676471 0.13480392 0.076960784
0.6127451 0.13333333 0.07377451
0.69571078 0.13333333 0.071568627
0.77058824 0.13333333 0.073039216
0.83615196 0.13676471 0.072426471
0.87058824 0.13333333 0.072303922
0.90343137 0.13786765 0.073161765
0.9245098 0.1127451 0.058823529
0.94362745 0.11090686 0.063848039
0.96568627 0.13921569 0.081127451
0.97990196 0.13002451 0.072181373
0.98970588 0.13186275 0.071568627
0.99656863 0.13235294 0.07254902
1 0.13161765 0.071813725
1 0.12843137 0.071323529
1 0.13137255 0.067647059
0.064705882 0.080392157 0.036764706
0.070894608 0.081004902 0.037561275
0.088357843 0.085416667 0.038235294
0.10539216 0.085294118 0.038235294
0.12083333 0.08627451 0.037009804
0.13651961 0.083272059 0.031801471
0.21446078 0.085661765 0.030759804
0.30453431 0.095220588 0.043933824
0.40980392 0.11421569 0.063235294
0.47420343 0.097058824 0.047058824
0.5432598 0.08995098 0.034191176
0.64803922 0.099019608 0.040196078
0.73504902 0.099509804 0.03872549
0.81231618 0.11335784 0.045159314
0.85098039 0.10735294 0.045220588
0.88756127 0.11421569 0.051348039
0.9245098 0.11960784 0.054901961
0.94491422 0.12009804 0.059129902
0.95980392 0.11360294 0.050490196
0.97598039 0.096691176 0.035845588
0.98627451 0.13137255 0.06372549
0.99656863 0.10447304 0.044178922
1 0.099019608 0.041666667
1 0.12248775 0.061397059
1 0.10147059 0.040686275
0.1 0.15294118 0.068627451
0.12181373 0.15686275 0.068627451
0.14803922 0.1622549 0.073529412
0.16764706 0.16078431 0.070588235
0.19509804 0.16960784 0.078431373
0.25490196 0.18848039 0.086519608
0.33431373 0.19215686 0.089705882
0.40147059 0.1872549 0.090686275
0.46862745 0.18039216 0.094117647
0.54044118 0.17916667 0.088235294
0.625 0.18039216 0.081862745
0.72401961 0.19044118 0.086519608
0.79215686 0.18823529 0.085294118
0.85367647 0.19362745 0.087990196
0.8745098 0.18480392 0.082843137
0.90514706 0.19313725 0.092401961
0.94117647 0.20980392 0.10588235
0.95147059 0.18284314 0.086029412
0.9627451 0.16029412 0.067647059
0.97598039 0.14877451 0.054901961
0.98823529 0.16176471 0.060784314
0.99607843 0.15465686 0.057107843
0.99901961 0.17205882 0.075
1 0.20637255 0.10441176
1 0.18431373 0.084313725
0.10735294 0.19803922 0.079901961
0.15588235 0.21501225 0.090196078
0.19019608 0.2254902 0.095588235
0.21378676 0.2254902 0.095588235
0.22647059 0.21372549 0.0875
0.2372549 0.19901961 0.075551471
0.30502451 0.20196078 0.075490196
0.40851716 0.21568627 0.087928922
0.48872549 0.21813725 0.091666667
0.54191176 0.20845588 0.085906863
0.61568627 0.20588235 0.079411765
0.68259804 0.19724265 0.071262255
0.76397059 0.18921569 0.064460784
0.83045343 0.19460784 0.069056373
0.86360294 0.18419118 0.065196078
0.89362745 0.17941176 0.060784314
0.925 0.19264706 0.069607843
0.94754902 0.18854167 0.064522059
0.96127451 0.16323529 0.048651961
0.97205882 0.16856618 0.053431373
0.98627451 0.16372549 0.047794118
0.99264706 0.15637255 0.042156863
0.99901961 0.16433824 0.051102941
1 0.18805147 0.068627451
1 0.20441176 0.073039216
0.055882353 0.16372549 0.028431373
0.071568627 0.1692402 0.033333333
0.093137255 0.18014706 0.040931373
0.11409314 0.18370098 0.040563725
0.11960784 0.17352941 0.032843137
0.13933824 0.175 0.031740196
0.21740196 0.17622549 0.032843137
0.30330882 0.18382353 0.037377451
0.3754902 0.18039216 0.033333333
0.47830882 0.19705882 0.048529412
0.56323529 0.19852941 0.049754902
0.66348039 0.21004902 0.048651961
0.7377451 0.20784314 0.046078431
0.8 0.21360294 0.052818627
0.85490196 0.21544118 0.056372549
0.89056373 0.2127451 0.052083333
0.92156863 0.21372549 0.049019608
0.94546569 0.20943627 0.047794118
0.96078431 0.19852941 0.040441176
0.97193627 0.21213235 0.05502451
0.98627451 0.19558824 0.040196078
0.99264706 0.19803922 0.043137255
0.9997549 0.19338235 0.039460784
1 0.22144608 0.052818627
1 0.21372549 0.045098039
0.11617647 0.30980392 0.066176471
0.12536765 0.31262255 0.068995098
0.16752451 0.34791667 0.092769608
0.18792892 0.33988971 0.087438725
0.20367647 0.32892157 0.080147059
0.23186275 0.32481618 0.076164216
0.30428922 0.32169118 0.079901961
0.39289216 0.33449755 0.085906863
0.44852941 0.31617647 0.07254902
0.54754902 0.33523284 0.082291667
0.63063725 0.34105392 0.096078431
0.71078431 0.34068627 0.091482843
0.78308824 0.33872549 0.082843137
0.84295343 0.34509804 0.083517157
0.88566176 0.36286765 0.10036765
0.91574755 0.36629902 0.10441176
0.93235294 0.35245098 0.095588235
0.9504902 0.34368873 0.088296569
0.96715686 0.34178922 0.081862745
0.97959559 0.33860294 0.079411765
0.99019608 0.32622549 0.077696078
0.99626225 0.34215686 0.080514706
1 0.33933824 0.080269608
1 0.34644608 0.082843137
1 0.37254902 0.093627451
0.16470588 0.43921569 0.098039216
0.17745098 0.44705882 0.098039216
0.19803922 0.44705882 0.10098039
0.21176471 0.44019608 0.094607843
0.21764706 0.41960784 0.088235294
0.25343137 0.41078431 0.08627451
0.31176471 0.39313725 0.08627451
0.37009804 0.3754902 0.074509804
0.47058824 0.4 0.082352941
0.56078431 0.41421569 0.08627451
0.63431373 0.40784314 0.089215686
0.74019608 0.44558824 0.1127451
0.79607843 0.41960784 0.092156863
0.84852941 0.4127451 0.087254902
0.88627451 0.43627451 0.10784314
0.90490196 0.3995098 0.083333333
0.93333333 0.4 0.078431373
0.95147059 0.39754902 0.078431373
0.96666667 0.40098039 0.078431373
0.97990196 0.39362745 0.078431373
0.99019608 0.38431373 0.078431373
0.99656863 0.39264706 0.078431373
1 0.39411765 0.079411765
1 0.39460784 0.076960784
1 0.35686275 0.058823529
0.061764706 0.36470588 0.033823529
0.081372549 0.37064951 0.039215686
0.095955882 0.37585784 0.039583333
0.11047794 0.37193627 0.038419118
0.1370098 0.38578431 0.04877451
0.14632353 0.37444853 0.036397059
0.22242647 0.37647059 0.037254902
0.30073529 0.37971814 0.039031863
0.40196078 0.39558824 0.05245098
0.49319853 0.40502451 0.056433824
0.56789216 0.39546569 0.047181373
0.65569853 0.38903186 0.041482843
0.74313725 0.39191176 0.043627451
0.8129902 0.40147059 0.047794118
0.84914216 0.39313725 0.042647059
0.88915441 0.39436275 0.042463235
0.92156863 0.38921569 0.044117647
0.94221814 0.38921569 0.042156863
0.95882353 0.38541667 0.040441176
0.97579657 0.38921569 0.045098039
0.98946078 0.38406863 0.041666667
0.99264706 0.38872549 0.044607843
0.99963235 0.38578431 0.044607843
1 0.39074755 0.046078431
1 0.37352941 0.038235294
0.1245098 0.53333333 0.080392157
0.13370098 0.5182598 0.080392157
0.16348039 0.53504902 0.092892157
0.17781863 0.52401961 0.085661765
0.19558824 0.51813725 0.078431373
0.23529412 0.52205882 0.082843137
0.29607843 0.50906863 0.071568627
0.3754902 0.51691176 0.078553922
0.46078431 0.52254902 0.085294118
0.57843137 0.56176471 0.10637255
0.64289216 0.55269608 0.10098039
0.69644608 0.51348039 0.075612745
0.79411765 0.55441176 0.08872549
0.84105392 0.54865196 0.095220588
0.875 0.53333333 0.0875
0.9004902 0.51433824 0.074877451
0.93039216 0.53431373 0.082352941
0.95612745 0.56629902 0.094730392
0.96642157 0.5502451 0.090441176
0.97941176 0.53823529 0.084681373
0.99019608 0.55784314 0.093627451
0.99607843 0.57352941 0.098406863
1 0.57279412 0.09877451
1 0.56348039 0.097426471
1 0.54313725 0.098039216
0.11960784 0.6 0.079901961
0.1567402 0.61623775 0.10067402
0.15845588 0.60441176 0.088235294
0.19908088 0.62064951 0.094669118
0.24166667 0.63848039 0.096078431
0.26666667 0.61501225 0.088112745
0.35379902 0.63321078 0.094240196
0.41881127 0.62469363 0.093321078
0.46029412 0.59068627 0.083333333
0.5286152 0.58743873 0.079901961
0.60490196 0.58860294 0.075122549
0.68743873 0.57518382 0.068259804
0.76446078 0.58137255 0.069607843
0.81954657 0.58284314 0.075490196
0.86078431 0.57254902 0.068627451
0.91090686 0.62420343 0.099264706
0.93382353 0.61127451 0.091666667
0.94803922 0.57567402 0.063419118
0.96311275 0.58419118 0.071078431
0.97640931 0.59558824 0.079963235
0.98676471 0.5997549 0.081862745
0.99607843 0.60343137 0.087254902
1 0.59742647 0.081740196
1 0.58357843 0.073284314
1 0.57745098 0.073529412
0.066666667 0.59411765 0.037254902
0.085294118 0.60318627 0.045588235
0.096078431 0.60098039 0.041666667
0.12328431 0.60906863 0.046078431
0.15294118 0.61862745 0.051960784
0.15294118 0.60441176 0.037745098
0.23921569 0.61323529 0.044607843
0.30514706 0.60710784 0.039215686
0.39019608 0.60784314 0.043137255
0.46960784 0.60759804 0.042892157
0.55294118 0.60833333 0.039705882
0.65073529 0.60637255 0.037745098
0.74509804 0.62254902 0.055882353
0.81004902 0.62622549 0.058088235
0.84607843 0.59852941 0.03872549
0.88823529 0.61593137 0.053186275
0.91764706 0.61764706 0.054901961
0.94019608 0.5995098 0.03995098
0.96078431 0.60588235 0.044607843
0.97009804 0.59583333 0.040931373
0.98529412 0.59901961 0.042156863
0.99607843 0.60759804 0.051960784
0.99901961 0.62647059 0.067156863
1 0.61593137 0.058823529
1 0.59411765 0.043137255
0.12107843 0.7254902 0.080882353
0.13805147 0.72322304 0.079595588
0.15931373 0.72536765 0.07745098
0.18333333 0.725 0.080453431
0.20441176 0.72598039 0.078676471
0.19332108 0.68841912 0.057843137
0.31470588 0.72659314 0.079779412
0.36531863 0.70502451 0.067953431
0.45343137 0.71029412 0.075490196
0.58033088 0.74926471 0.10594363
0.6129902 0.71654412 0.079289216
0.70392157 0.72254902 0.079963235
0.78553922 0.72990196 0.081372549
0.81807598 0.7 0.065686275
0.85833333 0.69681373 0.062990196
0.91286765 0.74730392 0.10367647
0.93333333 0.74411765 0.098039216
0.95 0.73645833 0.088909314
0.97303922 0.75526961 0.096078431
0.97990196 0.73118873 0.083272059
0.99019608 0.74558824 0.091421569
0.99607843 0.75441176 0.09754902
1 0.74791667 0.10477941
1 0.72420343 0.090686275
1 0.71813725 0.087254902
0.12156863 0.79019608 0.07745098
0.13921569 0.79019608 0.080269608
0.15784314 0.79436275 0.078431373
0.18811275 0.79803922 0.085294118
0.20245098 0.79215686 0.07745098
0.22696078 0.7745098 0.074509804
0.31666667 0.79313725 0.07745098
0.39987745 0.78848039 0.088235294
0.50392157 0.80392157 0.093137255
0.5754902 0.80196078 0.095465686
0.63161765 0.79313725 0.093382353
0.71078431 0.79497549 0.085784314
0.78676471 0.79411765 0.082352941
0.81813725 0.76519608 0.062745098
0.85955882 0.77156863 0.070098039
0.9004902 0.78235294 0.081372549
0.92647059 0.77843137 0.074509804
0.94705882 0.78198529 0.075367647
0.96372549 0.77769608 0.070833333
0.97696078 0.77071078 0.061887255
0.98676471 0.77647059 0.064215686
0.99607843 0.77843137 0.069607843
1 0.7747549 0.072794118
1 0.78137255 0.08247549
1 0.78431373 0.088235294
0.084803922 0.80588235 0.041666667
0.080085784 0.80294118 0.036887255
0.10526961 0.8129902 0.04620098
0.11580882 0.80931373 0.040992647
0.13553922 0.81078431 0.03995098
0.15085784 0.80882353 0.037438725
0.23860294 0.8122549 0.042647059
0.32279412 0.81574755 0.050183824
0.44656863 0.83186275 0.074509804
0.48897059 0.81709559 0.048406863
0.57573529 0.81482843 0.055637255
0.6557598 0.81488971 0.042034314
0.75171569 0.81862745 0.056372549
0.81047794 0.81556373 0.047058824
0.8495098 0.81372549 0.048529412
0.88823529 0.8122549 0.055821078
0.92156863 0.80735294 0.05
0.94270833 0.81427696 0.060294118
0.95882353 0.80637255 0.051960784
0.97567402 0.79234069 0.031372549
0.98627451 0.80147059 0.044117647
0.99264706 0.803125 0.045772059
1 0.80686275 0.050245098
1 0.8283701 0.075919118
1 0.84411765 0.091666667
0.14117647 0.87843137 0.078431373
0.13480392 0.87352941 0.072058824
0.12843137 0.85588235 0.06372549
0.13970588 0.85441176 0.062254902
0.18627451 0.87058824 0.074509804
0.24509804 0.88529412 0.078431373
0.31470588 0.87941176 0.084313725
0.36617647 0.87303922 0.075980392
0.47843137 0.88627451 0.094117647
0.56666667 0.88921569 0.097058824
0.62156863 0.87352941 0.080392157
0.68676471 0.86666667 0.070588235
0.78431373 0.88431373 0.096078431
0.82794118 0.86911765 0.07254902
0.85098039 0.85490196 0.05
0.88823529 0.85735294 0.060294118
0.92156863 0.8627451 0.074509804
0.95 0.87058824 0.08627451
0.96568627 0.86176471 0.075490196
0.97598039 0.84754902 0.048039216
0.98627451 0.85686275 0.066666667
0.99607843 0.8627451 0.074509804
0.99901961 0.86960784 0.078431373
1 0.88529412 0.087745098
1 0.90588235 0.098039216
0.14068627 0.92009804 0.082843137
0.15349265 0.92009804 0.090747549
0.15710784 0.90735294 0.088602941
0.18314951 0.90735294 0.095404412
0.2004902 0.91470588 0.083823529
0.2403799 0.91648284 0.078921569
0.32953431 0.91887255 0.096813725
0.38020833 0.91378676 0.083762255
0.45588235 0.91617647 0.080392157
0.53823529 0.91525735 0.078921569
0.63578431 0.91642157 0.091053922
0.73278186 0.91991422 0.10827206
0.78406863 0.91740196 0.097794118
0.83835784 0.91256127 0.092769608
0.85931373 0.89705882 0.060539216
0.88731618 0.89509804 0.054473039
0.92156863 0.90784314 0.079901961
0.95545343 0.92113971 0.10747549
0.96323529 0.90061275 0.068259804
0.97205882 0.89215686 0.055392157
0.98627451 0.90343137 0.075980392
0.99607843 0.91439951 0.096752451
0.99607843 0.9182598 0.09375
1 0.92009804 0.087745098
1 0.92401961 0.091666667
0.067647059 0.93039216 0.042156863
0.10245098 0.93321078 0.062745098
0.10392157 0.93137255 0.052941176
0.13982843 0.93137255 0.065318627
0.13235294 0.93039216 0.044607843
0.1932598 0.93186275 0.053921569
0.27205882 0.93529412 0.064460784
0.32169118 0.93137255 0.054289216
0.38921569 0.93137255 0.043137255
0.48933824 0.93137255 0.050122549
0.56617647 0.92671569 0.042892157
0.67818627 0.93088235 0.066421569
0.76617647 0.93235294 0.07745098
0.84252451 0.93615196 0.094117647
0.86470588 0.93235294 0.069607843
0.88737745 0.93235294 0.043014706
0.91764706 0.93529412 0.060784314
0.94546569 0.93578431 0.068137255
0.95808824 0.92058824 0.031127451
0.97205882 0.9245098 0.048406863
0.98284314 0.92205882 0.044607843
0.99215686 0.91703431 0.03247549
0.99607843 0.92941176 0.053921569
0.99816176 0.93860294 0.075
1 0.94313725 0.081372549
0.095098039 0.95539216 0.060294118
0.11470588 0.95539216 0.067463235
0.12843137 0.95539216 0.065196078
0.15294118 0.95539216 0.069117647
0.16470588 0.95539216 0.058823529
0.21158088 0.95245098 0.059742647
0.3370098 0.96237745 0.096691176
0.41887255 0.96629902 0.10251225
0.46078431 0.95931373 0.086764706
0.53560049 0.95931373 0.079718137
0.61323529 0.95539216 0.073039216
0.69901961 0.95582108 0.080392157
0.79681373 0.96348039 0.10122549
0.85496324 0.96366422 0.10006127
0.8622549 0.95686275 0.066176471
0.88805147 0.95588235 0.04932598
0.92107843 0.95588235 0.069117647
0.9473652 0.95343137 0.070098039
0.96139706 0.94889706 0.04754902
0.9754902 0.95189951 0.068627451
0.98627451 0.95147059 0.071078431
0.99264706 0.95104167 0.068688725
0.99607843 0.95441176 0.075980392
0.99969363 0.95949755 0.081066176
1 0.96372549 0.077941176
0.16078431 0.98039216 0.10196078
0.16911765 0.98235294 0.10637255
0.17696078 0.98039216 0.097058824
0.2002451 0.98039216 0.091911765
0.22745098 0.98137255 0.089215686
0.20955882 0.97303922 0.062745098
0.35294118 0.98333333 0.095588235
0.40588235 0.98235294 0.092647059
0.49607843 0.98431373 0.10196078
0.57671569 0.98235294 0.10073529
0.65392157 0.98284314 0.094117647
0.71862745 0.98063725 0.092401961
0.78921569 0.97941176 0.094117647
0.84338235 0.98039216 0.084313725
0.85196078 0.97745098 0.05
0.89093137 0.97916667 0.065931373
0.93921569 0.98235294 0.10196078
0.95147059 0.97916667 0.082107843
0.96176471 0.97598039 0.056372549
0.97598039 0.97622549 0.068382353
0.99117647 0.98235294 0.10294118
0.99607843 0.98039216 0.093872549
0.99754902 0.98039216 0.08627451
1 0.98039216 0.08627451
1 0.98039216 0.08627451
0.12254902 0.99264706 0.076470588
0.13314951 0.99264706 0.080698529
0.10980392 0.99264706 0.056495098
0.12647059 0.98872549 0.049509804
0.14607843 0.99044118 0.046323529
0.1560049 0.98872549 0.039276961
0.26066176 0.99264706 0.059803922
0.3411152 0.99393382 0.058088235
0.40980392 0.99607843 0.045098039
0.49730392 0.99393382 0.052328431
0.57598039 0.99264706 0.052328431
0.67291667 0.99264706 0.064705882
0.77598039 0.99264706 0.073529412
0.83186275 0.99264706 0.065012255
0.84644608 0.99607843 0.034803922
0.8841299 0.99607843 0.035784314
0.92156863 0.99607843 0.031862745
0.94607843 0.99264706 0.058823529
0.96568627 0.98958333 0.065196078
0.97598039 0.99221814 0.030392157
0.98578431 0.99215686 0.070343137
0.99258578 0.99215686 0.076470588
0.99865196 0.99522059 0.049877451
1 0.99607843 0.058026961
1 0.99264706 0.085294118
0.084313725 1 0.052941176
0.14252451 0.99938725 0.086887255
0.15931373 0.99901961 0.086029412
0.17218137 0.99644608 0.07254902
0.17843137 0.99607843 0.066666667
0.21642157 0.99644608 0.071078431
0.32647059 0.99901961 0.094607843
0.36862745 0.99901961 0.079166667
0.49117647 0.99901961 0.10098039
0.54142157 0.99901961 0.082720588
0.63676471 0.99901961 0.095098039
0.69313725 1 0.075245098
0.77794118 1 0.067156863
0.83223039 1 0.058333333
0.84901961 0.99681373 0.044117647
0.88223039 0.99607843 0.046078431
0.91764706 0.99607843 0.046078431
0.94607843 0.99901961 0.073039216
0.97181373 0.99901961 0.092401961
0.97634804 0.99607843 0.065196078
0.98235294 0.99558824 0.05
0.98872549 0.99522059 0.063112745
0.99534314 0.99607843 0.068137255
1 1 0.10196078
1 1 0.11666667
0.099509804 1 0.072058824
0.13541667 1 0.083394608
0.17291667 1 0.091176471
0.20459559 1 0.092463235
0.21421569 1 0.089215686
0.23253676 1 0.078431373
0.31715686 1 0.08872549
0.38186275 1 0.081862745
0.47254902 1 0.085784314
0.57898284 1 0.095404412
0.63921569 1 0.095465686
0.73045343 1 0.090870098
0.77622549 1 0.071813725
0.82175245 1 0.066237745
0.84767157 1 0.045588235
0.88284314 1 0.048529412
0.91372549 1 0.058823529
0.94460784 1 0.07310049
0.96813725 1 0.079044118
0.97628676 1 0.068627451
0.98235294 0.99754902 0.058823529
0.98854167 0.99754902 0.061397059
0.9939951 0.99938725 0.062254902
1 1 0.070098039
1 1 0.075
0.10196078 1 0.082352941
0.11617647 1 0.072058824
0.14117647 1 0.071568627
0.16764706 1 0.078431373
0.16666667 1 0.064705882
0.15882353 1 0.040686275
0.27254902 1 0.064705882
0.34215686 1 0.06127451
0.41568627 1 0.054901961
0.49656863 1 0.05245098
0.60392157 1 0.070588235
0.68333333 1 0.064705882
0.77058824 1 0.070588235
0.80539216 1 0.045588235
0.84313725 1 0.042156863
0.88431373 1 0.047058824
0.91372549 1 0.054901961
0.94215686 1 0.058823529
0.96176471 1 0.058823529
0.97598039 1 0.054901961
0.98235294 1 0.050980392
0.98823529 1 0.054411765
0.99215686 1 0.044117647
0.99754902 1 0.029901961
1 1 0.035294118
0.093627451 0.079411765 0.059803922
0.103125 0.081495098 0.063480392
0.13296569 0.093995098 0.071323529
0.12126225 0.061642157 0.049693627
0.13235294 0.059313725 0.051960784
0.14276961 0.049632353 0.045894608
0.27683824 0.090686275 0.072426471
0.33719363 0.077389706 0.06317402
0.39705882 0.06127451 0.055882353
0.48823529 0.068566176 0.059252451
0.56960784 0.064215686 0.054044118
0.66292892 0.067340686 0.058026961
0.76642157 0.087745098 0.068872549
0.81617647 0.066973039 0.057659314
0.85845588 0.073161765 0.062009804
0.89644608 0.077267157 0.063112745
0.92941176 0.090196078 0.073039216
0.94908088 0.077083333 0.066666667
0.96568627 0.07120098 0.062990196
0.97959559 0.078125 0.065196078
0.99019608 0.093382353 0.073284314
0.99607843 0.083517157 0.070281863
0.99901961 0.080392157 0.068627451
1 0.08627451 0.073039216
1 0.09754902 0.080392157
0.1189951 0.11844363 0.082781863
0.13139553 0.11809896 0.083356311
0.1620098 0.12720588 0.091988358
0.17862286 0.12463235 0.089813113
0.20435049 0.12833946 0.092371324
0.2636106 0.14104626 0.10385263
0.34675245 0.15085784 0.11199449
0.42966452 0.15552237 0.1136489
0.48327206 0.13817402 0.099448529
0.56264553 0.14001225 0.099816176
0.64863664 0.14866728 0.10677083
0.71910233 0.13859528 0.098958333
0.78952206 0.13676471 0.094883578
0.83584559 0.11721814 0.083072917
0.87437194 0.11959252 0.082184436
0.90729167 0.12349112 0.08872549
0.9348652 0.12506127 0.095159314
0.9533701 0.12535233 0.09185049
0.96795343 0.1272212 0.091498162
0.97990196 0.12041207 0.083938419
0.99019608 0.12864583 0.091207108
0.99607843 0.13180913 0.094799326
0.99963235 0.13013174 0.09252451
1 0.12949602 0.09475337
1 0.13615196 0.10140931
0.12095588 0.13909314 0.088480392
0.13163297 0.13177083 0.086014093
0.17996324 0.15704657 0.10398284
0.19448529 0.15384498 0.10171569
0.21868873 0.15520833 0.10281863
0.26871936 0.1609375 0.10738358
0.33814338 0.15790441 0.10664828
0.41292892 0.1584712 0.10577512
0.47598039 0.14705882 0.096078431
0.55568321 0.14768689 0.094546569
0.61302083 0.13247549 0.08002451
0.70526961 0.13601409 0.085232843
0.77775735 0.14019608 0.08682598
0.83334865 0.13354779 0.081740196
0.86642157 0.11933211 0.072916667
0.90502451 0.13921569 0.08504902
0.93382353 0.14313725 0.091666667
0.95232843 0.14088542 0.091574755
0.96862745 0.13753064 0.085784314
0.97892157 0.12726716 0.077496936
0.98921569 0.13547794 0.085232843
0.99612439 0.14030331 0.089430147
1 0.1379902 0.084313725
1 0.12124694 0.074846814
1 0.10980392 0.070588235
