site/assets/luts/sha256-5d135d93336bbf8536e9c655c9b60d88d11499a5e42904d049cbd022ac784bbf.cube
# LUTr-Schema-Version: 2
# LUTr-ID: sha256-5d135d93336bbf8536e9c655c9b60d88d11499a5e42904d049cbd022ac784bbf
# LUTr-Title: polaroid 690 cold --
# LUTr-Collection: Natron HaldCLUT
# LUTr-Collection-ID: natron-haldclut-presets
# LUTr-Source: https://github.com/NatronGitHub/clut
# LUTr-Retrieved: 2026-07-27
# LUTr-Source-File: submissions/natron-haldclut-presets/instant_pro/polaroid_690_cold_--.png
# LUTr-Source-Format: HALD-PNG
# LUTr-Source-SHA256: 5d135d93336bbf8536e9c655c9b60d88d11499a5e42904d049cbd022ac784bbf
# LUTr-License: CC-BY-SA-4.0
# LUTr-License-URL: https://github.com/NatronGitHub/clut#license
# LUTr-License-Basis: repo-license-file
# LUTr-Transform-Class: film-emulation
# LUTr-Tags: creative, film, film-emulation, hald-clut, natron, png, cool, cube
# LUTr-Input-Color-Space: srgb
# LUTr-Input-Gamut: rec709
# LUTr-Input-Transfer: srgb
# LUTr-Output-Color-Space: srgb
# LUTr-Output-Gamut: rec709
# LUTr-Output-Transfer: srgb
# LUTr-Color-Space-Confidence: assumed-display-referred
# LUTr-Domain-Normalized: true
# LUTr-Shaper: none
# LUTr-Original-Grid: 64x64x64
# LUTr-Conversion-Grid: 25x25x25
# LUTr-Conversion-Interpolation: trilinear
# LUTr-Conversion-Method: HALD-PNG LUT image decoded at 16-bit and sampled to 25x25x25 3D CUBE
# LUTr-Conversion-Tool: LUTr scripts/convert-all-to-cube.mjs 2.0.0
# LUTr-Conversion-Date: 2026-07-27
# LUTr-Note: Preserve this metadata and the upstream license notices when redistributing.
TITLE "polaroid 690 cold --"
LUT_3D_SIZE 5
DOMAIN_MIN 0 0 0
DOMAIN_MAX 1 1 1
0 0.0078431373 0.0039215686
0.22156863 0.011764706 0.023529412
0.54509804 0 0.01372549
0.78431373 0 0.0019607843
0.99607843 0 0
0 0.27058824 0.011764706
0.22818627 0.28039216 0.012745098
0.61078431 0.21323529 0.0044117647
0.83259804 0.065931373 0.013970588
0.99607843 0 0.00098039216
0 0.51764706 0.019607843
0.12107843 0.51519608 0.013235294
0.55294118 0.55196078 0.0039215686
0.84509804 0.58823529 0.0049019608
0.99607843 0.59411765 0.10392157
0 0.75196078 0.091176471
0.22941176 0.74411765 0.05122549
0.52303922 0.74803922 0.012254902
0.8 0.7747549 0.0039215686
0.9872549 0.79117647 0.069607843
0.45882353 0.94117647 0.31372549
0.53039216 0.95 0.29019608
0.66666667 0.94509804 0.25490196
0.83431373 0.96078431 0.20980392
0.98823529 0.96470588 0.015686275
0 0.042156863 0.29901961
0.17867647 0.037254902 0.30490196
0.52598039 0.023529412 0.25441176
0.74117647 0 0.22254902
0.97647059 0 0.1872549
0 0.27818627 0.30857843
0.24295343 0.29626225 0.32745098
0.56776961 0.25392157 0.31372549
0.79528186 0.11354167 0.25551471
0.98823529 0.029411765 0.21470588
0.0093137255 0.5372549 0.34166667
0.23786765 0.54301471 0.3245098
0.55686275 0.56446078 0.30245098
0.84117647 0.59264706 0.33517157
0.99460784 0.57058824 0.32598039
0.050245098 0.7620098 0.31446078
0.26727941 0.75196078 0.30496324
0.52071078 0.75306373 0.27830882
0.79901961 0.7747549 0.27101716
0.9872549 0.79117647 0.31862745
0.42647059 0.93627451 0.39705882
0.50808824 0.9497549 0.39313725
0.64901961 0.94656863 0.35392157
0.82745098 0.95857843 0.32941176
0.9872549 0.97254902 0.27941176
0 0.10196078 0.60980392
0.041666667 0.11960784 0.63431373
0.58333333 0.10196078 0.67058824
0.76568627 0.084313725 0.55980392
0.93529412 0.0039215686 0.52352941
0.0039215686 0.28284314 0.59264706
0.23468137 0.30588235 0.62647059
0.58406863 0.32401961 0.6627451
0.76495098 0.27058824 0.56727941
0.96666667 0.018137255 0.51617647
0.048039216 0.55686275 0.62156863
0.28088235 0.56838235 0.62352941
0.55882353 0.59607843 0.64754902
0.79191176 0.50931373 0.57941176
0.98823529 0.41764706 0.50686275
0.10784314 0.78676471 0.60980392
0.30306373 0.78125 0.61568627
0.51985294 0.77009804 0.57965686
0.79117647 0.78014706 0.58137255
0.99166667 0.79411765 0.63872549
0.38235294 0.95098039 0.63529412
0.4495098 0.95 0.62009804
0.59607843 0.94705882 0.58823529
0.80098039 0.95931373 0.55882353
0.98627451 0.96666667 0.55098039
0.0039215686 0.18235294 0.8627451
0.22377451 0.1872549 0.88039216
0.59509804 0.20196078 0.90588235
0.84289216 0.2377451 0.88995098
0.98235294 0.24607843 0.84411765
0.012009804 0.31862745 0.85955882
0.28878676 0.33039216 0.86642157
0.59693627 0.35796569 0.89865196
0.84552696 0.39564951 0.91102941
0.98504902 0.35686275 0.83995098
0.0083333333 0.5372549 0.83088235
0.19154412 0.52990196 0.82879902
0.53382353 0.575 0.86568627
0.81139706 0.63627451 0.8877451
0.9627451 0.54019608 0.81568627
0.20735294 0.78235294 0.85392157
0.34117647 0.78235294 0.85784314
0.57659314 0.78370098 0.86519608
0.80392157 0.80214461 0.88768382
0.96960784 0.72622549 0.82426471
0.50980392 0.94901961 0.87745098
0.54705882 0.95465686 0.87426471
0.63333333 0.96764706 0.87107843
0.77328431 0.96446078 0.83431373
0.96568627 0.96176471 0.84705882
0.40784314 0.32156863 0.99215686
0.49411765 0.33529412 0.99117647
0.67647059 0.3627451 0.99607843
0.85686275 0.43627451 1
0.99607843 0.5254902 0.99607843
0.45098039 0.44019608 0.99607843
0.5120098 0.44411765 0.99607843
0.65098039 0.43872549 0.99019608
0.84607843 0.53235294 0.99607843
0.9754902 0.5872549 0.99215686
0.37254902 0.61960784 0.99803922
0.45490196 0.625 0.99656863
0.63039216 0.64901961 0.99607843
0.83186275 0.68627451 0.99362745
0.98431373 0.68431373 0.98431373
0.33431373 0.7872549 0.99215686
0.40882353 0.78308824 0.99215686
0.57401961 0.775 0.9877451
0.80612745 0.80196078 0.98406863
0.97941176 0.83039216 0.99215686
0.60784314 0.96470588 0.98823529
0.64705882 0.97352941 0.99313725
0.72352941 0.96078431 0.96862745
0.83823529 0.96176471 0.97745098
0.98823529 0.98823529 0.98823529
