site/assets/luts/sha256-adc84e6300aaac69efd1558e3338d9efb307b397f371904e206f1ef54c472aa9.cube
# LUTr-Schema-Version: 2
# LUTr-ID: sha256-adc84e6300aaac69efd1558e3338d9efb307b397f371904e206f1ef54c472aa9
# LUTr-Title: polaroid px-70 +
# LUTr-Collection: Natron HaldCLUT
# LUTr-Collection-ID: natron-haldclut-presets
# LUTr-Source: https://github.com/NatronGitHub/clut
# LUTr-Retrieved: 2026-07-27
# LUTr-Source-File: submissions/natron-haldclut-presets/instant_consumer/polaroid_px-70_+.png
# LUTr-Source-Format: HALD-PNG
# LUTr-Source-SHA256: adc84e6300aaac69efd1558e3338d9efb307b397f371904e206f1ef54c472aa9
# LUTr-License: CC-BY-SA-4.0
# LUTr-License-URL: https://github.com/NatronGitHub/clut#license
# LUTr-License-Basis: repo-license-file
# LUTr-Transform-Class: film-emulation
# LUTr-Tags: creative, film, film-emulation, hald-clut, natron, png, cube
# LUTr-Input-Color-Space: srgb
# LUTr-Input-Gamut: rec709
# LUTr-Input-Transfer: srgb
# LUTr-Output-Color-Space: srgb
# LUTr-Output-Gamut: rec709
# LUTr-Output-Transfer: srgb
# LUTr-Color-Space-Confidence: assumed-display-referred
# LUTr-Domain-Normalized: true
# LUTr-Shaper: none
# LUTr-Original-Grid: 64x64x64
# LUTr-Conversion-Grid: 25x25x25
# LUTr-Conversion-Interpolation: trilinear
# LUTr-Conversion-Method: HALD-PNG LUT image decoded at 16-bit and sampled to 25x25x25 3D CUBE
# LUTr-Conversion-Tool: LUTr scripts/convert-all-to-cube.mjs 2.0.0
# LUTr-Conversion-Date: 2026-07-27
# LUTr-Note: Preserve this metadata and the upstream license notices when redistributing.
TITLE "polaroid px-70 +"
LUT_3D_SIZE 25
DOMAIN_MIN 0 0 0
DOMAIN_MAX 1 1 1
0.12156863 0.26666667 0.23921569
0.1254902 0.26666667 0.23921569
0.13039216 0.26666667 0.23921569
0.13676471 0.26323529 0.23921569
0.14705882 0.2627451 0.23921569
0.15735294 0.2622549 0.23921569
0.16764706 0.25882353 0.23921569
0.17794118 0.25735294 0.23921569
0.19215686 0.25490196 0.23921569
0.20490196 0.25245098 0.23921569
0.2245098 0.25098039 0.23921569
0.27598039 0.25490196 0.23921569
0.33333333 0.25490196 0.23529412
0.39117647 0.25882353 0.23529412
0.46176471 0.26176471 0.23529412
0.55294118 0.27598039 0.22990196
0.64313725 0.28627451 0.22352941
0.72941176 0.29264706 0.22107843
0.79803922 0.3372549 0.21078431
0.86323529 0.38235294 0.2004902
0.92156863 0.42156863 0.19019608
0.9495098 0.45686275 0.19264706
0.96372549 0.49411765 0.20294118
0.97941176 0.52990196 0.21323529
0.99215686 0.55686275 0.21960784
0.12156863 0.2627451 0.23921569
0.1254902 0.26666667 0.23921569
0.13039216 0.26666667 0.23921569
0.13676471 0.26323529 0.23921569
0.14313725 0.2627451 0.24240196
0.15606618 0.2627451 0.23921569
0.16764706 0.25943627 0.23921569
0.18186275 0.25882353 0.23921569
0.19215686 0.25490196 0.23921569
0.20582108 0.25245098 0.23921569
0.2245098 0.25098039 0.23921569
0.278125 0.25490196 0.23921569
0.33651961 0.25808824 0.23529412
0.39803922 0.26176471 0.23529412
0.47659314 0.26960784 0.23345588
0.56623775 0.28235294 0.22990196
0.65588235 0.29264706 0.22352941
0.73480392 0.30876225 0.21807598
0.80085784 0.34460784 0.21115196
0.86390931 0.38664216 0.20085784
0.92352941 0.42156863 0.18627451
0.9473652 0.45686275 0.19264706
0.96372549 0.49411765 0.20110294
0.97941176 0.53082108 0.20931373
0.99215686 0.56078431 0.21568627
0.12156863 0.2627451 0.23921569
0.12401961 0.2627451 0.23921569
0.13039216 0.2627451 0.23921569
0.13676471 0.26360294 0.23921569
0.14313725 0.26372549 0.24068627
0.15735294 0.26372549 0.23921569
0.17083333 0.2627451 0.23921569
0.18333333 0.25980392 0.23921569
0.19607843 0.25882353 0.23921569
0.20919118 0.25490196 0.23921569
0.22720588 0.25269608 0.23921569
0.28529412 0.25845588 0.23835784
0.34411765 0.26323529 0.23529412
0.4127451 0.26813725 0.23517157
0.49583333 0.27843137 0.23137255
0.58382353 0.28872549 0.22928922
0.67058824 0.30294118 0.22352941
0.73872549 0.32634804 0.21715686
0.80196078 0.35857843 0.20686275
0.86458333 0.39522059 0.19656863
0.92107843 0.42892157 0.18627451
0.94607843 0.46519608 0.18872549
0.96372549 0.50294118 0.19583333
0.98002451 0.53982843 0.20330882
0.99313725 0.56960784 0.20784314
0.11764706 0.2627451 0.23921569
0.12401961 0.2627451 0.23921569
0.13039216 0.2627451 0.23921569
0.13676471 0.26666667 0.23921569
0.14705882 0.26666667 0.23921569
0.15735294 0.26666667 0.23921569
0.17156863 0.26666667 0.23921569
0.18578431 0.26488971 0.23921569
0.1995098 0.2622549 0.23921569
0.21617647 0.25882353 0.23921569
0.25098039 0.2622549 0.23921569
0.30588235 0.26617647 0.23535539
0.36004902 0.27009804 0.23529412
0.42261029 0.275 0.23480392
0.50453431 0.28480392 0.23137255
0.59705882 0.29656863 0.22745098
0.6745098 0.31323529 0.22352941
0.74019608 0.34019608 0.21354167
0.8067402 0.37463235 0.20686275
0.86807598 0.40974265 0.19656863
0.91593137 0.44436275 0.18627451
0.94607843 0.47898284 0.18523284
0.96372549 0.51323529 0.19252451
0.98186275 0.54901961 0.19785539
0.99607843 0.57990196 0.20392157
0.11764706 0.2627451 0.23921569
0.12279412 0.2627451 0.23921569
0.13039216 0.26519608 0.23921569
0.14068627 0.26838235 0.23921569
0.14705882 0.27156863 0.23921569
0.15735294 0.27230392 0.23921569
0.17156863 0.27058824 0.23921569
0.18578431 0.26862745 0.23921569
0.20196078 0.26666667 0.23921569
0.23333333 0.26862745 0.23921569
0.27156863 0.27352941 0.23529412
0.32647059 0.27647059 0.23529412
0.37745098 0.27745098 0.23529412
0.42867647 0.28088235 0.23137255
0.50882353 0.29117647 0.22990196
0.59607843 0.31078431 0.2247549
0.67843137 0.32745098 0.21764706
0.74607843 0.3504902 0.21053922
0.81617647 0.38823529 0.20098039
0.87058824 0.42598039 0.19240196
0.91568627 0.45980392 0.18235294
0.9497549 0.49362745 0.18063725
0.96519608 0.52647059 0.1877451
0.98259804 0.55931373 0.19362745
0.99803922 0.59019608 0.2
0.11715686 0.25882353 0.23921569
0.12401961 0.2627451 0.23921569
0.13039216 0.26801471 0.23921569
0.14068627 0.27408088 0.23921569
0.15098039 0.275 0.23921569
0.15784314 0.275 0.23921569
0.17156863 0.2745098 0.23921569
0.18333333 0.27322304 0.23921569
0.20833333 0.2745098 0.23921569
0.2495098 0.27922794 0.23658088
0.29068627 0.28676471 0.23529412
0.33921569 0.2872549 0.23480392
0.39068627 0.29068627 0.23137255
0.4401348 0.29258578 0.23131127
0.51470588 0.30894608 0.22708333
0.59920343 0.32579657 0.21960784
0.67892157 0.34215686 0.21519608
0.75490196 0.36501225 0.20753676
0.82696078 0.40870098 0.19509804
0.8848652 0.44650735 0.18480392
0.92181373 0.47745098 0.17794118
0.95 0.50833333 0.17647059
0.96666667 0.53884804 0.18333333
0.98314951 0.57334559 0.19185049
0.99558824 0.59607843 0.19607843
0.11078431 0.26764706 0.23921569
0.12046569 0.27144608 0.23921569
0.13039216 0.27671569 0.23921569
0.14068627 0.28088235 0.23921569
0.15098039 0.28137255 0.23921569
0.16127451 0.28137255 0.23921569
0.17156863 0.27916667 0.23921569
0.18443627 0.27745098 0.23921569
0.21862745 0.28431373 0.23627451
0.25980392 0.29276961 0.23529412
0.30098039 0.3002451 0.23210784
0.3495098 0.30392157 0.23137255
0.40098039 0.30637255 0.22990196
0.46421569 0.3192402 0.22708333
0.53627451 0.33406863 0.22352941
0.61654412 0.35 0.21629902
0.69215686 0.36568627 0.21176471
0.76127451 0.39227941 0.20147059
0.83431373 0.43137255 0.19117647
0.89227941 0.46617647 0.18088235
0.92058824 0.49803922 0.1745098
0.95 0.525 0.16997549
0.96666667 0.55588235 0.17941176
0.98186275 0.58235294 0.18970588
0.99215686 0.60294118 0.19607843
0.095098039 0.29460784 0.23529412
0.11023284 0.29368873 0.23866422
0.12254902 0.29705882 0.23921569
0.13284314 0.29705882 0.23921569
0.14558824 0.30098039 0.23921569
0.15588235 0.29852941 0.23903186
0.16764706 0.29963235 0.2377451
0.19166667 0.30245098 0.23682598
0.22892157 0.30637255 0.23529412
0.27009804 0.31182598 0.23229167
0.31127451 0.31556373 0.2310049
0.35588235 0.32040441 0.22775735
0.42058824 0.33112745 0.22671569
0.48823529 0.34479167 0.22334559
0.55686275 0.35882353 0.21960784
0.63284314 0.37542892 0.21329657
0.70343137 0.39656863 0.20637255
0.76519608 0.425 0.19607843
0.83394608 0.4622549 0.18394608
0.88333333 0.49185049 0.17677696
0.91495098 0.51862745 0.17181373
0.9463848 0.54540441 0.16470588
0.96703431 0.57254902 0.17009804
0.98333333 0.59895833 0.18431373
0.99754902 0.61862745 0.19215686
0.074509804 0.3254902 0.23529412
0.095098039 0.32156863 0.23529412
0.11470588 0.31764706 0.23529412
0.125 0.32156863 0.23529412
0.13921569 0.3254902 0.23529412
0.1495098 0.33333333 0.23529412
0.1627451 0.3372549 0.23529412
0.20196078 0.34117647 0.23137255
0.23921569 0.34117647 0.23137255
0.28039216 0.34117647 0.22892157
0.32156863 0.34117647 0.22745098
0.37352941 0.34852941 0.22401961
0.43921569 0.36078431 0.22156863
0.50882353 0.37352941 0.21911765
0.57745098 0.3872549 0.21568627
0.64803922 0.40294118 0.21029412
0.71372549 0.43137255 0.2
0.77156863 0.45980392 0.18970588
0.83235294 0.49215686 0.17941176
0.87696078 0.51666667 0.17303922
0.90784314 0.54117647 0.16666667
0.94264706 0.56568627 0.16078431
0.96764706 0.58921569 0.1627451
0.98333333 0.61470588 0.18186275
0.99607843 0.63529412 0.19215686
0.051470588 0.35637255 0.23137255
0.069669118 0.3533701 0.23284314
0.096568627 0.34852941 0.23529412
0.1122549 0.35441176 0.23314951
0.12254902 0.36470588 0.23210784
0.13578431 0.3745098 0.23106618
0.16654412 0.37843137 0.22892157
0.20980392 0.37843137 0.2283701
0.2495098 0.37843137 0.22745098
0.29068627 0.37843137 0.22745098
0.33627451 0.38296569 0.22463235
0.39411765 0.38970588 0.21979167
0.45980392 0.4 0.21446078
0.52598039 0.41421569 0.20931373
0.59620098 0.42843137 0.2060049
0.66133578 0.44656863 0.2
0.72401961 0.47254902 0.18970588
0.77941176 0.49705882 0.18094363
0.83235294 0.51556373 0.17365196
0.87254902 0.54099265 0.16881127
0.90588235 0.56691176 0.16348039
0.93841912 0.59019608 0.16060049
0.9627451 0.61041667 0.16372549
0.98033088 0.63284314 0.18333333
0.99362745 0.65196078 0.19852941
0.020588235 0.39117647 0.23039216
0.039093137 0.38823529 0.23039216
0.064705882 0.39313725 0.23039216
0.082720588 0.4004902 0.22745098
0.093137255 0.40980392 0.22647059
0.11482843 0.41568627 0.22610294
0.16764706 0.41568627 0.22352941
0.21764706 0.41678922 0.22352941
0.25882353 0.41960784 0.22352941
0.30159314 0.41960784 0.22254902
0.35686275 0.4252451 0.21936275
0.41862745 0.43223039 0.21482843
0.48137255 0.44215686 0.20882353
0.54644608 0.45539216 0.20294118
0.61397059 0.46960784 0.19607843
0.67683824 0.49411765 0.18688725
0.73921569 0.51862745 0.17843137
0.79301471 0.53970588 0.16911765
0.83529412 0.55098039 0.16593137
0.87254902 0.57058824 0.16372549
0.90343137 0.59068627 0.16078431
0.9307598 0.61078431 0.15943627
0.95490196 0.63112745 0.16348039
0.9745098 0.65196078 0.18627451
0.99117647 0.66764706 0.20196078
0.0034313725 0.43627451 0.22401961
0.0098039216 0.43676471 0.22401961
0.030882353 0.44166667 0.22389706
0.051470588 0.44810049 0.22352941
0.064215686 0.45490196 0.22009804
0.10147059 0.45686275 0.22009804
0.16323529 0.45686275 0.21960784
0.21911765 0.45686275 0.21960784
0.2627451 0.46078431 0.21960784
0.3158701 0.46292892 0.21617647
0.37745098 0.46948529 0.2122549
0.44313725 0.47941176 0.20833333
0.50490196 0.48970588 0.20220588
0.56666667 0.5 0.19650735
0.62879902 0.51752451 0.18664216
0.69411765 0.53952206 0.1754902
0.75588235 0.56617647 0.16519608
0.79932598 0.58088235 0.15882353
0.83529412 0.58860294 0.15343137
0.86954657 0.60539216 0.15343137
0.9 0.61642157 0.15882353
0.92352941 0.6278799 0.15343137
0.95012255 0.64803922 0.15637255
0.96813725 0.66519608 0.17077206
0.97745098 0.6745098 0.17794118
0.0058823529 0.49411765 0.21960784
0.0090686275 0.49411765 0.21960784
0.016176471 0.49607843 0.21764706
0.019362745 0.49607843 0.21593137
0.03627451 0.49803922 0.21568627
0.093382353 0.49828431 0.21568627
0.15735294 0.5 0.21421569
0.21519608 0.5 0.21372549
0.26666667 0.50196078 0.21372549
0.33235294 0.51029412 0.21053922
0.39901961 0.52058824 0.20784314
0.46740196 0.53284314 0.20416667
0.52941176 0.54117647 0.19705882
0.58676471 0.54754902 0.19191176
0.64362745 0.56078431 0.18333333
0.70759804 0.58333333 0.17107843
0.76862745 0.60588235 0.15686275
0.80343137 0.61495098 0.1504902
0.83823529 0.62254902 0.14313725
0.86911765 0.63676471 0.14852941
0.89607843 0.64705882 0.15882353
0.92083333 0.65343137 0.15245098
0.94460784 0.66323529 0.14362745
0.95955882 0.67647059 0.1504902
0.9627451 0.67843137 0.15294118
0.0078431373 0.55588235 0.21127451
0.014215686 0.55588235 0.21176471
0.015686275 0.55147059 0.21164216
0.016115196 0.54846814 0.21127451
0.045343137 0.54803922 0.21127451
0.11476716 0.54803922 0.21127451
0.18088235 0.54803922 0.21127451
0.24264706 0.55147059 0.21176471
0.30392157 0.55196078 0.21568627
0.35998775 0.56176471 0.2096201
0.42647059 0.57610294 0.20379902
0.48829657 0.59019608 0.19656863
0.54779412 0.59460784 0.19215686
0.60294118 0.59895833 0.18731618
0.65735294 0.60539216 0.17745098
0.71470588 0.6245098 0.16715686
0.76421569 0.64068627 0.15686275
0.80196078 0.64754902 0.15079657
0.83823529 0.65735294 0.14607843
0.86519608 0.66764706 0.15343137
0.89558824 0.67965686 0.16715686
0.91862745 0.68431373 0.15735294
0.94178922 0.69068627 0.1504902
0.9526348 0.69166667 0.15196078
0.95294118 0.69558824 0.15441176
0.0078431373 0.62156863 0.20490196
0.017156863 0.61519608 0.20490196
0.022303922 0.60906863 0.20490196
0.019852941 0.60330882 0.20490196
0.093627451 0.60588235 0.20637255
0.16666667 0.60588235 0.20784314
0.23235294 0.60588235 0.20784314
0.28909314 0.60588235 0.21115196
0.34509804 0.60686275 0.21568627
0.4004902 0.61678922 0.21507353
0.45759804 0.63137255 0.20588235
0.5122549 0.64178922 0.19901961
0.56470588 0.64313725 0.19166667
0.61617647 0.64742647 0.18382353
0.66544118 0.65318627 0.17352941
0.71715686 0.66458333 0.16531863
0.76078431 0.6754902 0.16372549
0.80196078 0.68480392 0.16372549
0.83823529 0.69215686 0.16519608
0.86568627 0.70159314 0.17009804
0.89215686 0.71029412 0.17745098
0.91482843 0.71519608 0.17830882
0.93848039 0.72230392 0.17745098
0.94718137 0.72254902 0.18137255
0.94901961 0.72647059 0.18529412
0.07254902 0.67647059 0.21078431
0.092647059 0.66617647 0.21231618
0.11127451 0.65796569 0.21715686
0.12628676 0.65441176 0.21501225
0.17230392 0.65759804 0.20931373
0.22463235 0.66243873 0.20373775
0.27879902 0.66372549 0.20502451
0.33327206 0.6622549 0.21231618
0.39019608 0.66372549 0.21960784
0.44166667 0.66862745 0.22015931
0.49497549 0.67855392 0.21654412
0.53970588 0.68039216 0.21341912
0.58676471 0.68431373 0.20735294
0.63676471 0.68872549 0.19675245
0.68468137 0.69571078 0.18541667
0.72591912 0.70091912 0.1838848
0.7622549 0.71029412 0.18088235
0.80196078 0.71813725 0.18094363
0.83823529 0.72696078 0.17953431
0.86568627 0.73511029 0.18137255
0.89019608 0.74166667 0.19166667
0.91470588 0.7495098 0.20165441
0.93529412 0.75453431 0.20441176
0.94209559 0.75735294 0.20833333
0.94509804 0.75343137 0.21078431
0.20392157 0.71764706 0.22745098
0.20637255 0.71127451 0.22745098
0.2245098 0.70490196 0.23137255
0.23823529 0.70196078 0.22745098
0.27254902 0.70588235 0.22156863
0.30343137 0.70980392 0.21568627
0.33431373 0.70980392 0.21568627
0.37990196 0.70980392 0.22107843
0.43137255 0.71372549 0.22745098
0.48284314 0.72009804 0.22745098
0.52941176 0.7245098 0.22745098
0.56715686 0.72156863 0.22745098
0.61176471 0.72156863 0.2254902
0.66127451 0.72598039 0.21911765
0.70294118 0.73333333 0.21666667
0.7377451 0.73480392 0.21960784
0.77254902 0.74117647 0.21568627
0.80343137 0.75147059 0.20539216
0.83823529 0.76078431 0.19117647
0.86568627 0.76813725 0.19166667
0.89019608 0.77254902 0.20588235
0.91078431 0.78088235 0.22009804
0.93529412 0.7872549 0.23039216
0.94117647 0.78431373 0.23921569
0.94509804 0.78431373 0.24705882
0.34019608 0.76519608 0.24803922
0.33621324 0.75882353 0.24803922
0.32977941 0.75 0.2435049
0.32922794 0.74362745 0.2377451
0.35098039 0.74509804 0.23382353
0.37941176 0.74705882 0.23284314
0.40698529 0.75 0.23921569
0.4379902 0.75153186 0.24074755
0.46862745 0.75098039 0.24166667
0.51764706 0.75582108 0.24319853
0.55968137 0.75882353 0.24411765
0.59540441 0.75882353 0.24540441
0.63553922 0.75955882 0.24289216
0.68106618 0.76421569 0.24411765
0.71715686 0.76605392 0.2495098
0.75104167 0.76813725 0.25741422
0.78284314 0.77598039 0.25294118
0.81372549 0.78535539 0.24264706
0.8439951 0.79166667 0.22904412
0.86568627 0.79313725 0.22990196
0.88627451 0.79901961 0.24509804
0.90704657 0.80520833 0.26127451
0.92781863 0.80882353 0.27340686
0.94056373 0.81219363 0.28670343
0.95147059 0.81127451 0.29607843
0.46176471 0.80980392 0.27058824
0.44791667 0.8004902 0.26960784
0.43431373 0.79191176 0.26078431
0.4245098 0.78737745 0.25306373
0.425 0.78431373 0.24460784
0.45147059 0.7872549 0.2504902
0.48137255 0.7872549 0.26004902
0.50294118 0.7872549 0.26360294
0.52352941 0.78823529 0.26078431
0.54681373 0.79117647 0.25906863
0.58308824 0.79117647 0.26078431
0.61973039 0.79473039 0.26078431
0.65686275 0.79754902 0.26127451
0.69313725 0.79901961 0.27401961
0.72745098 0.79901961 0.28431373
0.76164216 0.80294118 0.29129902
0.79215686 0.80686275 0.29019608
0.82058824 0.81372549 0.28443627
0.84509804 0.81544118 0.28259804
0.86213235 0.8185049 0.28333333
0.88235294 0.82401961 0.29264706
0.90196078 0.82941176 0.30637255
0.91960784 0.83259804 0.31985294
0.93811275 0.8372549 0.33296569
0.95588235 0.84117647 0.34411765
0.52647059 0.83039216 0.31176471
0.51979167 0.82647059 0.30539216
0.50931373 0.82120098 0.29509804
0.49944853 0.8151348 0.28480392
0.5004902 0.81470588 0.28210784
0.51960784 0.81813725 0.28823529
0.54669118 0.81813725 0.29595588
0.56470588 0.81813725 0.3
0.58137255 0.81813725 0.29607843
0.59246324 0.81599265 0.29589461
0.61764706 0.8182598 0.29607843
0.65490196 0.8216299 0.29908088
0.68112745 0.82426471 0.30171569
0.7098652 0.82647059 0.3122549
0.7377451 0.82904412 0.32254902
0.76862745 0.83167892 0.32922794
0.79607843 0.83431373 0.33480392
0.82058824 0.83805147 0.33480392
0.84154412 0.83909314 0.33480392
0.86176471 0.84515931 0.33480392
0.87843137 0.84779412 0.33897059
0.89859069 0.8504902 0.35104167
0.91311275 0.8564951 0.36176471
0.93106618 0.85784314 0.37254902
0.94558824 0.85784314 0.38235294
0.58823529 0.85098039 0.35294118
0.58578431 0.84852941 0.34779412
0.57352941 0.84313725 0.33823529
0.56862745 0.83946078 0.33137255
0.57843137 0.84117647 0.33137255
0.59093137 0.84509804 0.33357843
0.60980392 0.84509804 0.34019608
0.62303922 0.84509804 0.34117647
0.63333333 0.84313725 0.34313725
0.64362745 0.83995098 0.34436275
0.66176471 0.83921569 0.34705882
0.69632353 0.84313725 0.34705882
0.71568627 0.84607843 0.35294118
0.73455882 0.84754902 0.35931373
0.75882353 0.85098039 0.36666667
0.78333333 0.85490196 0.37401961
0.80588235 0.85882353 0.38039216
0.8245098 0.86004902 0.38161765
0.84264706 0.8627451 0.38284314
0.85833333 0.86666667 0.38431373
0.87647059 0.87156863 0.38627451
0.89289216 0.8745098 0.39264706
0.90686275 0.8745098 0.40147059
0.92181373 0.8745098 0.40931373
0.93529412 0.8745098 0.41960784
0.6495098 0.87156863 0.39460784
0.6473652 0.87126225 0.39166667
0.64142157 0.86678922 0.38578431
0.64607843 0.86764706 0.38284314
0.65416667 0.86813725 0.38284314
0.66176471 0.87156863 0.38192402
0.66813725 0.87156863 0.38186275
0.67843137 0.86795343 0.38805147
0.68872549 0.86764706 0.39068627
0.69509804 0.86390931 0.39460784
0.70980392 0.86372549 0.39852941
0.73431373 0.86721814 0.39852941
0.75073529 0.86789216 0.40490196
0.76366422 0.8716299 0.41427696
0.78382353 0.87463235 0.41813725
0.80422794 0.8754902 0.41942402
0.8245098 0.8754902 0.42205882
0.83854167 0.87941176 0.4254902
0.85257353 0.88333333 0.4254902
0.87009804 0.88633578 0.42591912
0.88480392 0.88897059 0.42941176
0.89509804 0.89074755 0.43382353
0.90490196 0.89117647 0.44019608
0.91648284 0.89117647 0.44871324
0.92941176 0.89117647 0.45686275
0.70490196 0.89215686 0.44215686
0.70428922 0.88823529 0.43639706
0.70490196 0.88823529 0.43431373
0.71127451 0.88823529 0.4317402
0.7127451 0.88921569 0.42892157
0.71666667 0.88921569 0.42781863
0.72058824 0.89215686 0.43333333
0.72990196 0.89068627 0.43823529
0.74019608 0.88823529 0.44215686
0.74656863 0.88823529 0.44607843
0.76078431 0.88823529 0.45
0.7754902 0.89080882 0.45343137
0.78627451 0.89215686 0.45980392
0.79754902 0.89607843 0.46580882
0.80882353 0.89607843 0.46666667
0.82696078 0.89607843 0.46568627
0.84509804 0.89607843 0.46666667
0.85539216 0.89889706 0.46666667
0.86740196 0.9 0.46666667
0.88088235 0.90098039 0.47046569
0.89509804 0.90441176 0.47254902
0.90490196 0.90490196 0.47843137
0.91176471 0.90784314 0.48210784
0.91911765 0.90784314 0.4877451
0.92941176 0.90882353 0.49803922
0.76176471 0.90882353 0.48578431
0.76176471 0.90882353 0.48278186
0.7627451 0.90882353 0.47977941
0.76060049 0.90753676 0.47647059
0.76421569 0.90808824 0.47647059
0.76813725 0.90882353 0.47824755
0.77205882 0.90882353 0.48186275
0.78137255 0.90882353 0.48670343
0.79019608 0.90882353 0.49215686
0.7971201 0.90882353 0.49307598
0.80477941 0.90882353 0.49607843
0.81176471 0.91096814 0.49981618
0.81813725 0.91127451 0.50245098
0.82824755 0.91127451 0.50422794
0.83541667 0.9127451 0.50637255
0.84754902 0.9127451 0.50784314
0.86176471 0.9127451 0.50784314
0.87598039 0.91666667 0.50931373
0.88480392 0.91666667 0.51176471
0.89295343 0.91666667 0.51176471
0.90147059 0.91911765 0.51568627
0.91176471 0.92058824 0.52009804
0.91875 0.92242647 0.52536765
0.9254902 0.92303922 0.5283701
0.92794118 0.92303922 0.52990196
0.81176471 0.9254902 0.5254902
0.80539216 0.92303922 0.51911765
0.8 0.92156863 0.51372549
0.8 0.92156863 0.51029412
0.80196078 0.92156863 0.51372549
0.80784314 0.92156863 0.51764706
0.81470588 0.9254902 0.5245098
0.82745098 0.92941176 0.53186275
0.82745098 0.9254902 0.52941176
0.82745098 0.9254902 0.5254902
0.83235294 0.9245098 0.52941176
0.83872549 0.92156863 0.52941176
0.84509804 0.92352941 0.53333333
0.85147059 0.9254902 0.53333333
0.85882353 0.9254902 0.53627451
0.86813725 0.92696078 0.53872549
0.87843137 0.92941176 0.54509804
0.88872549 0.92941176 0.54509804
0.89509804 0.92941176 0.54117647
0.90196078 0.92941176 0.54460784
0.91176471 0.93137255 0.54705882
0.91813725 0.93333333 0.55294118
0.92156863 0.93333333 0.55686275
0.9254902 0.93333333 0.55294118
0.9254902 0.93333333 0.55294118
0.12156863 0.26666667 0.24313725
0.1254902 0.26666667 0.24166667
0.12977941 0.26605392 0.23982843
0.13676471 0.2627451 0.24295343
0.14313725 0.2627451 0.24240196
0.15343137 0.26011029 0.23921569
0.16372549 0.25882353 0.23921569
0.17401961 0.25735294 0.23921569
0.18578431 0.25490196 0.23921569
0.19944853 0.25245098 0.23921569
0.22843137 0.25196078 0.23921569
0.28204657 0.25490196 0.23921569
0.33970588 0.25882353 0.23529412
0.39785539 0.26145833 0.23529412
0.46911765 0.26568627 0.23529412
0.56078431 0.27990196 0.23137255
0.65343137 0.29019608 0.22745098
0.73425245 0.30539216 0.22107843
0.80196078 0.33823529 0.21470588
0.86372549 0.38578431 0.20441176
0.91838235 0.42352941 0.19534314
0.9473652 0.46292892 0.19852941
0.96556373 0.49693627 0.20355392
0.98186275 0.52990196 0.21323529
0.99215686 0.55686275 0.21960784
0.12156863 0.26666667 0.24313725
0.1254902 0.26666667 0.24166667
0.12954963 0.26453738 0.23921569
0.13542433 0.2627451 0.24147518
0.14313725 0.2627451 0.24313725
0.15343137 0.26022518 0.24055607
0.16441483 0.25882353 0.23921569
0.17606464 0.25882353 0.23921569
0.18915441 0.25490196 0.23921569
0.20210631 0.25398284 0.23921569
0.23065257 0.25379902 0.23921569
0.28315717 0.25704657 0.23921569
0.33848039 0.26004902 0.23529412
0.39963235 0.26305147 0.23529412
0.4801011 0.26999081 0.23460478
0.56937806 0.28290441 0.23024663
0.65827206 0.29509804 0.22444853
0.7394761 0.31456036 0.21995251
0.80741422 0.34931066 0.21378676
0.86929381 0.38909314 0.20367647
0.91960784 0.42352941 0.19460784
0.94870558 0.46292892 0.1963848
0.96556373 0.49823836 0.20317096
0.98094363 0.53405331 0.21153493
0.99215686 0.56231618 0.21660539
0.12156863 0.26458333 0.24166667
0.12401961 0.26343444 0.2401348
0.12941176 0.2627451 0.23921569
0.13515625 0.2627451 0.23921569
0.14313725 0.2627451 0.24295343
0.15347733 0.2627451 0.24232537
0.1671875 0.2627451 0.23921569
0.18002451 0.25905331 0.23921569
0.19313725 0.25882353 0.23921569
0.2088848 0.25565257 0.23921569
0.23606005 0.25560662 0.23921569
0.2881587 0.25922181 0.23921569
0.34093137 0.26323529 0.23529412
0.40926777 0.26813725 0.23529412
0.49583333 0.27843137 0.23137255
