site/assets/luts/sha256-44c584a76419aaed78918221f3d59b68ffb3cf92ee6503ff602e210374aa13b4.cube
# LUTr-Schema-Version: 2
# LUTr-ID: sha256-44c584a76419aaed78918221f3d59b68ffb3cf92ee6503ff602e210374aa13b4
# LUTr-Title: generic fuji astia 100
# LUTr-Collection: Natron HaldCLUT
# LUTr-Collection-ID: natron-haldclut-presets
# LUTr-Source: https://github.com/NatronGitHub/clut
# LUTr-Retrieved: 2026-07-27
# LUTr-Source-File: submissions/natron-haldclut-presets/colorslide/generic_fuji_astia_100.png
# LUTr-Source-Format: HALD-PNG
# LUTr-Source-SHA256: 44c584a76419aaed78918221f3d59b68ffb3cf92ee6503ff602e210374aa13b4
# LUTr-License: CC-BY-SA-4.0
# LUTr-License-URL: https://github.com/NatronGitHub/clut#license
# LUTr-License-Basis: repo-license-file
# LUTr-Transform-Class: film-emulation
# LUTr-Tags: creative, film, film-emulation, hald-clut, natron, png, cube
# LUTr-Input-Color-Space: srgb
# LUTr-Input-Gamut: rec709
# LUTr-Input-Transfer: srgb
# LUTr-Output-Color-Space: srgb
# LUTr-Output-Gamut: rec709
# LUTr-Output-Transfer: srgb
# LUTr-Color-Space-Confidence: assumed-display-referred
# LUTr-Domain-Normalized: true
# LUTr-Shaper: none
# LUTr-Original-Grid: 64x64x64
# LUTr-Conversion-Grid: 25x25x25
# LUTr-Conversion-Interpolation: trilinear
# LUTr-Conversion-Method: HALD-PNG LUT image decoded at 16-bit and sampled to 25x25x25 3D CUBE
# LUTr-Conversion-Tool: LUTr scripts/convert-all-to-cube.mjs 2.0.0
# LUTr-Conversion-Date: 2026-07-27
# LUTr-Note: Preserve this metadata and the upstream license notices when redistributing.
TITLE "generic fuji astia 100"
LUT_3D_SIZE 5
DOMAIN_MIN 0 0 0
DOMAIN_MAX 1 1 1
0 0 0
0.21666667 0.0078431373 0.0078431373
0.49803922 0.01372549 0.015686275
0.76862745 0.021568627 0.011764706
0.98823529 0.0039215686 0
0.093137255 0.23235294 0.040196078
0.22058824 0.23137255 0.031372549
0.50147059 0.23137255 0.034803922
0.76372549 0.23455882 0.02745098
0.97352941 0.21862745 0.025490196
0.021568627 0.51372549 0.094117647
0.22254902 0.50588235 0.070588235
0.50588235 0.50588235 0.065686275
0.75294118 0.49803922 0.076470588
0.95294118 0.49411765 0.052941176
0.032352941 0.76470588 0.073529412
0.23235294 0.76151961 0.072794118
0.51029412 0.75686275 0.075
0.75686275 0.75686275 0.067892157
0.97254902 0.75686275 0.053921569
0.16470588 0.98431373 0.078431373
0.29411765 0.95980392 0.059803922
0.52745098 0.98823529 0.066666667
0.75196078 0.9754902 0.065686275
0.99215686 0.99607843 0.0078431373
0.057843137 0.011764706 0.22058824
0.21642157 0.01495098 0.21495098
0.5 0.022058824 0.19215686
0.76078431 0.012745098 0.18357843
0.97254902 0.015686275 0.17647059
0.084558824 0.23039216 0.23137255
0.22616422 0.22591912 0.22352941
0.50392157 0.22267157 0.22463235
0.76133578 0.21960784 0.20386029
0.97132353 0.21862745 0.1879902
0.01372549 0.50588235 0.24362745
0.21666667 0.50980392 0.23431373
0.50735294 0.50122549 0.23112745
0.76458333 0.50343137 0.20919118
0.9745098 0.50588235 0.22401961
0.055882353 0.76862745 0.25882353
0.22996324 0.76207108 0.24632353
0.51323529 0.76078431 0.24779412
0.75294118 0.76078431 0.24215686
0.96544118 0.75686275 0.20392157
0.14117647 0.97941176 0.28235294
0.30514706 0.98039216 0.2745098
0.53186275 0.95392157 0.27058824
0.75588235 0.9747549 0.25784314
0.99117647 0.99411765 0.24607843
0.029411765 0.015686275 0.5
0.21176471 0.012254902 0.48480392
0.50980392 0.018627451 0.47058824
0.76862745 0.015686275 0.46029412
0.98039216 0.031372549 0.44705882
0.083823529 0.22303922 0.50343137
0.21776961 0.22647059 0.49705882
0.51176471 0.22254902 0.49166667
0.77401961 0.21997549 0.48223039
0.98431373 0.21470588 0.46666667
0.019607843 0.5 0.51372549
0.20833333 0.50392157 0.51568627
0.50490196 0.49803922 0.50980392
0.76544118 0.50392157 0.49093137
0.97254902 0.49803922 0.48235294
0.050980392 0.76470588 0.53333333
0.23529412 0.75294118 0.5254902
0.51421569 0.76078431 0.51789216
0.76078431 0.76078431 0.50514706
0.96960784 0.75294118 0.50196078
0.1372549 0.99411765 0.54313725
0.29803922 0.98235294 0.54068627
0.52941176 0.98627451 0.53529412
0.75588235 0.98039216 0.53235294
0.98235294 0.98627451 0.51764706
0.025490196 0.010784314 0.74901961
0.21985294 0.020343137 0.73333333
0.50147059 0.013235294 0.7254902
0.76862745 0.012009804 0.70980392
0.9754902 0.023529412 0.69411765
0.058088235 0.23039216 0.75294118
0.21495098 0.22334559 0.74901961
0.50392157 0.22745098 0.74105392
0.76862745 0.21568627 0.7252451
0.9754902 0.23137255 0.71764706
0.029411765 0.50735294 0.76617647
0.21372549 0.50392157 0.76041667
0.50416667 0.49411765 0.74901961
0.7627451 0.50196078 0.74117647
0.975 0.50196078 0.72941176
0.044362745 0.76078431 0.77156863
0.23995098 0.76317402 0.76470588
0.51813725 0.76078431 0.76078431
0.76023284 0.75294118 0.76078431
0.95171569 0.75294118 0.74583333
0.13823529 0.96666667 0.78431373
0.29411765 0.98039216 0.78112745
0.5254902 0.9754902 0.77254902
0.75294118 0.98333333 0.76470588
0.95980392 0.96666667 0.76078431
0 0 0.97647059
0.21078431 0.0029411765 0.96568627
0.49803922 0.011764706 0.93921569
0.75686275 0.02745098 0.92941176
0.94901961 0.035294118 0.9254902
0.071568627 0.23039216 0.97254902
0.21960784 0.22352941 0.96446078
0.50588235 0.21715686 0.95490196
0.76470588 0.21666667 0.92867647
0.98137255 0.21568627 0.93823529
0.011764706 0.50588235 0.98431373
0.21078431 0.50392157 0.97009804
0.50196078 0.50490196 0.96176471
0.76127451 0.50343137 0.94852941
0.92745098 0.49803922 0.94901961
0.045098039 0.75980392 0.9754902
0.24338235 0.76372549 0.97941176
0.5122549 0.76078431 0.98088235
0.75980392 0.75612745 0.97647059
0.96960784 0.75686275 0.96666667
0.16470588 0.94509804 0.97254902
0.29411765 0.98137255 0.97647059
0.5254902 0.97843137 0.98039216
0.75882353 0.96862745 0.9754902
0.99215686 0.99215686 0.99215686
