site/assets/luts/sha256-49a6064e834cb7151e0472e2a185c339a1f67378faf5094b60ab6781b1523f54.cube
# LUTr-Schema-Version: 2
# LUTr-ID: sha256-49a6064e834cb7151e0472e2a185c339a1f67378faf5094b60ab6781b1523f54
# LUTr-Title: Tension 1 warm
# LUTr-Collection: ChristophWurst Hald
# LUTr-Collection-ID: christophwurst-haldclut
# LUTr-Source: https://github.com/ChristophWurst/haldclut
# LUTr-Retrieved: 2026-07-27
# LUTr-Source-File: submissions/christophwurst-haldclut/Tension 1 warm.tif
# LUTr-Source-Format: HALD-TIF
# LUTr-Source-SHA256: 49a6064e834cb7151e0472e2a185c339a1f67378faf5094b60ab6781b1523f54
# LUTr-License: CC-BY-SA-4.0
# LUTr-License-URL: https://github.com/ChristophWurst/haldclut/blob/master/LICENSE
# LUTr-License-Basis: repo-license-file
# LUTr-Transform-Class: creative-look
# LUTr-Tags: creative, hald-clut, rawtherapee, tif, warm, cube
# LUTr-Input-Color-Space: srgb
# LUTr-Input-Gamut: rec709
# LUTr-Input-Transfer: srgb
# LUTr-Output-Color-Space: srgb
# LUTr-Output-Gamut: rec709
# LUTr-Output-Transfer: srgb
# LUTr-Color-Space-Confidence: assumed-display-referred
# LUTr-Domain-Normalized: true
# LUTr-Shaper: none
# LUTr-Original-Grid: 144x144x144
# LUTr-Conversion-Grid: 25x25x25
# LUTr-Conversion-Interpolation: trilinear
# LUTr-Conversion-Method: HALD-TIF LUT image decoded at 16-bit and sampled to 25x25x25 3D CUBE
# LUTr-Conversion-Tool: LUTr scripts/convert-all-to-cube.mjs 2.0.0
# LUTr-Conversion-Date: 2026-07-27
# LUTr-Note: Preserve this metadata and the upstream license notices when redistributing.
TITLE "Tension 1 warm"
LUT_3D_SIZE 25
DOMAIN_MIN 0 0 0
DOMAIN_MAX 1 1 1
0 0 0
0.01939676 0.0000019073777 6.3579258e-7
0.042641337 0.00004196231 0
0.065909438 0 0
0.093110552 0.003941914 0
0.12337428 0.0039031306 0
0.16211948 0 0
0.21258361 0.00003687597 0
0.27344676 0.000020345363 0
0.34328222 0.000040054932 0
0.42091503 0.000015259022 0
0.50243127 0.00002225274 0
0.58398566 0.000015259022 0
0.66162992 0.000055313954 0
0.73533608 0.000050863406 0
0.8012665 0.000057221332 0
0.85938303 0.000071208769 0
0.91636594 0.00001970957 0
0.96293584 0.000095368887 0
0.99615473 0.00010681315 0
0.99615473 0.00010681315 0
0.99615473 0.00010681315 0
0.99615473 0.00010681315 0
0.99615473 0.00010681315 0
0.99615473 0.00010681315 0
0.000014623229 0.015434501 0.000058492917
0.019309656 0.015625874 0.0000031789629
0.042347071 0.015639067 5.2982715e-8
0.065924697 0.018933744 0.0000038147555
0.092478362 0.019380653 3.1789629e-7
0.12415122 0.01563414 0.000012080059
0.16599765 0.011582074 0
0.21640149 1.854395e-7 0
0.27736324 0.0000050863406 0
0.34720569 0.000020981155 0
0.42482007 0.000035604384 0
0.5063611 0.000076295109 0
0.58784047 0.000059764502 0
0.66552542 0.000061036088 0
0.73533608 0.000050863406 0
0.8012665 0.000057221332 0
0.86195672 0.000040690725 0
0.91636594 0.00001970957 0
0.96293584 0.000095368887 0
0.99615473 0.00010681315 0
0.99615473 0.00010681315 0
0.99615473 0.00010681315 0
0.99615473 0.00010681315 0
0.99615473 0.00010681315 0
0.99615473 0.00010681315 0
0.0000012715852 0.034802014 0.00004196231
0.019416417 0.034844082 0.000044982325
0.038734285 0.034864852 3.1789629e-7
0.065922313 0.034840956 0
0.093125599 0.034842493 2.1193086e-7
0.12724265 0.030988053 0.0000095368887
0.16992574 0.027031357 0
0.22033673 0.01255791 0
0.28127972 0.000040690725 0
0.35107195 0 0
0.42872129 0.00003941914 0
0.51022863 0.000052770784 0
0.58985275 0.000053406577 0
0.66715379 0.000061036088 0
0.73932631 0.000067394013 0
0.80372702 0.000085831998 0
0.86195672 0.000040690725 0
0.91636594 0.00001970957 0
0.96672738 0.000080427761 0
0.99615473 0.00010681315 0
0.99615473 0.00010681315 0
0.99615473 0.00010681315 0
0.99615473 0.00010681315 0
0.99615473 0.00010681315 0
0.99615473 0.00010681315 0
0.007316701 0.058121614 0.000055313954
0.019480049 0.058119707 0.0000038147555
0.038719291 0.058086964 4.7684443e-7
0.06547837 0.058085374 0
0.093039343 0.058113031 3.1789629e-7
0.13114589 0.058155391 0.000010570052
0.17378691 0.053847658 0
0.22662803 0.043140275 0
0.28873503 0.020067521 0
0.35886931 0.000024795911 0
0.43631361 0.000058651865 0
0.51601808 0.000017325348 0
0.5957351 0.000022888533 0
0.6710321 0.000034412273 0
0.74130458 0.000059605554 0
0.80517472 0.000068665599 0
0.86326899 0.000061036088 0
0.91636594 0.00001970957 0
0.96680781 0.000080109865 0
0.99615473 0.00010681315 0
0.99615473 0.00010681315 0
0.99615473 0.00010681315 0
0.99615473 0.00010681315 0
0.99615473 0.00010681315 0
0.99615473 0.00010681315 0
0.0038554462 0.08528013 0.000025431703
0.015498716 0.088564317 0.00069269601
0.034822783 0.088522884 0.0039639548
0.061992955 0.088561456 0.00066027059
0.096322576 0.088576079 0.00065825725
0.13452099 0.088555628 0.0000010596543
0.17772628 0.085311284 0.000025431703
0.23209926 0.080781898 0
0.2968524 0.066448802 0
0.36869516 0.040070192 0
0.44437578 0.000049591821 0
0.52372831 0.000041644414 0
0.6016022 0.000053406577 0
0.67728122 0.000068029806 0
0.7450724 0.00002458398 0
0.80765431 0.000020981155 0
0.86589354 0.00010172681 0
0.91636594 0.00001970957 0
0.96584268 0.00008392462 0
0.99615473 0.00010681315 0
0.99615473 0.00010681315 0
0.99615473 0.00010681315 0
0.99615473 0.00010681315 0
0.99616744 0.013115129 0
0.99616744 0.013115129 0
0 0.12336856 0.000091554131
0 0.12336856 0.000091554131
0.016083645 0.12337873 0.0000098018023
0.05102458 0.12691119 0.0000023842222
0.092366674 0.1273181 0.000028504701
0.13501291 0.12733092 0.0000031789629
0.18394528 0.12732557 0.000030041199
0.23960781 0.12339722 0
0.30463238 0.11690382 0
0.37810982 0.10455895 0
0.45393466 0.084335501 0
0.53284412 0.045189567 0
0.6089971 0.000065486636 0
0.68115002 0.000054042369 0
0.74890612 0.000075235455 0
0.80913062 0.000043869688 0
0.86589354 0.00010172681 0
0.91636594 0.00001970957 0
0.96293584 0.000095368887 0
0.99615473 0.00010681315 0
0.99615473 0.00010681315 0
0.99610227 0.070131259 0
0.99602614 0.14047879 0
0.99600277 0.1687349 0
0.99600277 0.1687349 0
0 0.16995117 0.000072480354
0 0.16995117 0.000072480354
0 0.16995117 0.000072480354
0.020383192 0.17374208 0.000047684443
0.077725643 0.17388418 0.0001029984
0.130512 0.17680025 0.000037829658
0.1854715 0.17679866 0.000011444266
0.24649726 0.17682981 0
0.31534295 0.17321024 0
0.38800307 0.16899796 0
0.46338184 0.15894147 0
0.54099098 0.14505194 0
0.61517891 0.12852674 0
0.68498067 0.11059262 0
0.75093557 0.093214822 0
0.81151532 0.081760224 0
0.86586557 0.080488797 0
0.91632906 0.090093557 0
0.96288529 0.11435111 0
0.99603202 0.14041082 0
0.99603647 0.17227563 0
0.99603933 0.20677739 0
0.99598974 0.23907454 0
0.99601358 0.25790799 0
0.99601358 0.25790799 0
0 0.22712164 0.0001373312
0 0.22826098 0.00011507846
0 0.23100633 0.000061036088
0 0.23100633 0.000061036088
0.031976128 0.23446038 0.00011613811
0.11210565 0.23492305 0.000056929927
0.18086471 0.2381323 0.000056744488
0.25041152 0.23883662 0.000038280012
0.32021354 0.2388251 0
0.3956805 0.23495317 0
0.47160497 0.23102625 0
0.54871106 0.22651859 0
0.62182422 0.2207297 0
0.68889032 0.21429858 0
0.75433589 0.21039039 0
0.81142019 0.21140731 0
0.86582784 0.21525203 0
0.91627372 0.22294356 0
0.95889156 0.23690712 0
0.99598878 0.25419565 0
0.99596219 0.2735577 0
0.99598354 0.29650711 0
0.99595726 0.32008924 0
0.99594555 0.33262697 0
0.99594555 0.33262697 0
0 0.29692022 0.00013224486
0 0.29692022 0.00013224486
0 0.29692022 0.00013224486
0 0.30085196 0.00012207218
0 0.30085196 0.00012207218
0.070011783 0.30475509 0.00011762163
0.16619999 0.30472012 0.000040690725
0.24642028 0.30830578 0.000031577698
0.32409654 0.30868154 0.0000067817875
0.40125251 0.30865886 0.0000038147555
0.47776591 0.30586413 0
0.55310712 0.30480511 0
0.62553089 0.30349177 0
0.6927543 0.30087782 0
0.75478201 0.30088714 0
0.81143918 0.30399341 0
0.86402346 0.30955808 0
0.91235663 0.31729631 0
0.95493375 0.32726533 0
0.99598137 0.34053178 0
0.99598264 0.35453066 0
0.99591948 0.37173521 0
0.99590295 0.38838958 0
0.99596145 0.39859617 0
0.99596145 0.39859617 0
0 0.37065118 0.00019645991
0 0.37065118 0.00019645991
0 0.37065118 0.00019645991
0 0.37283751 0.00019645991
0 0.37459182 0.00021362631
0 0.37459182 0.00021362631
0.14031338 0.37850719 0.00014019226
0.23745939 0.37851522 0.00005658554
0.3227582 0.38095229 0.000069301391
0.40167301 0.38241612 0
0.4807668 0.38242574 0
0.55697488 0.38096262 0
0.62679389 0.38095865 0
0.69268767 0.38098774 0
0.75309965 0.38243718 0
0.80894203 0.38636583 0
0.86183401 0.39025839 0
0.90836949 0.39707543 0
0.95099136 0.40590715 0
0.98973505 0.41453589 0
0.99596017 0.42570954 0
0.99591773 0.43765068 0
0.99589628 0.45290017 0
0.99591249 0.46061456 0
0.99591249 0.46061456 0
0 0.44440121 0.00023015691
0 0.44440121 0.00023015691
0 0.44440121 0.00023015691
0 0.44835838 0.00019836728
0 0.44835838 0.00019836728
0 0.44835838 0.00019836728
0.096254864 0.45221065 0.00014337123
0.22343531 0.4522399 0.00013727821
0.31882497 0.45224053 0.000055949747
0.40409864 0.45226151 0.000033061214
0.48320564 0.45225918 0
0.55691901 0.45225849 0
0.62674589 0.45453956 0
0.69269612 0.45618139 0
0.75077238 0.45618139 0
0.80600363 0.46010545 0
0.8578834 0.46403067 0
0.90443343 0.46791854 0
0.94652762 0.47402724 0
0.9853409 0.48046125 0
0.99590083 0.48947318 0
0.99591376 0.49941936 0
0.99584933 0.51104626 0
0.99589787 0.51645431 0
0.99589787 0.51645431 0
0 0.51817985 0.00021108314
0 0.51817985 0.00021108314
0 0.51817985 0.00021108314
0 0.51817985 0.00021108314
0 0.51817985 0.00021108314
0 0.52161737 0.00029140493
0.036065175 0.52205104 0.00023889906
0.21282584 0.52208145 0.00014538457
0.31484533 0.52207832 0.000075447386
0.40405421 0.52208465 0.000037909133
0.48543616 0.52208844 0
0.560785 0.52210121 0.0000037882641
0.62674271 0.52212971 0
0.69085412 0.52213001 0
0.74911572 0.52286411 0
0.8035025 0.52604747 0
0.85391394 0.52782779 0
0.89784231 0.53171092 0
0.94054767 0.53562998 0
0.97794168 0.54168619 0
0.99586639 0.54773605 0
0.99582499 0.55546964 0
0.99583402 0.56332913 0
0.99586099 0.56902991 0
0.99586099 0.56902991 0
0 0.58407721 0.00028992142
0 0.58407721 0.00028992142
0 0.58407721 0.00028992142
0 0.58407721 0.00028992142
0 0.58407721 0.00028992142
0 0.58407721 0.00028992142
0.0085717556 0.58408293 0.00022125582
0.21222566 0.58408389 0.00017229979
0.32070649 0.58410519 0.00011189949
0.41062505 0.58410582 0.000052452888
0.49017255 0.58411218 0.000023524325
0.56076619 0.58414302 0.000017484296
0.6286183 0.58411917 0
0.69080199 0.58413348 0
0.74680006 0.58413062 0
0.79951362 0.58413443 0
0.85001907 0.5860914 0
0.89262894 0.59001392 0
0.93529793 0.59244678 0
0.97367342 0.59783322 0
0.99586481 0.60170901 0
0.995799 0.60786221 0
0.99583174 0.61362949 0
0.99577325 0.61738766 0
0.99577325 0.61738766 0
0 0.64219946 0.00033569848
0 0.64219946 0.00033569848
0 0.64219946 0.00033569848
0 0.64219946 0.00033569848
0 0.64219946 0.00033569848
0 0.64219946 0.00033569848
0.038964389 0.64218611 0.00028133822
0.22630038 0.64222974 0.00021068577
0.33223829 0.64040631 0.00016255097
0.4203092 0.64044102 0.000098309428
0.49658961 0.64043424 0.000029564355
0.56739113 0.64045047 0.000011364792
0.63058194 0.63832717 0.0000034968592
0.69080281 0.63836049 0
0.74679333 0.63833691 0
0.79952689 0.64046414 0
0.84610386 0.64049172 0
0.8887021 0.64046743 0
0.93092575 0.64435718 0
0.96784113 0.64830643 0
0.99576371 0.65221828 0
0.99583556 0.65612713 0
0.99577452 0.66003217 0
0.99584001 0.66392195 0
0.99584001 0.66392195 0
0 0.69480557 0.00032043946
0 0.69480557 0.00032043946
0 0.69480557 0.00032043946
0 0.69480557 0.00032043946
0 0.69480557 0.00032043946
0 0.69480557 0.00032043946
0.11186961 0.69480081 0.00027879505
0.25574343 0.69480123 0.0002044603
0.35211973 0.69252901 0.00014580843
0.43442117 0.69092406 0.00013796699
0.50813052 0.69091834 0.000071208769
0.5740781 0.69093206 0.000024742928
0.63644872 0.68977582 0
0.69468795 0.68701674 0.000026703288
0.74771486 0.68703121 0
0.79562209 0.68703381 0
0.84212677 0.68704085 0
0.88480143 0.69092284 0
0.92647027 0.69094504 0
0.96223424 0.69485792 0
0.99576181 0.69487678 0
0.99583683 0.69877038 0
0.99577579 0.70267923 0
0.9958381 0.70658045 0
0.9958381 0.70658045 0
0 0.74131189 0.00037575341
0 0.74131189 0.00037575341
0 0.74131189 0.00037575341
0 0.74131189 0.00037575341
0 0.74131189 0.00037575341
0 0.74131189 0.00037575341
0.18568942 0.74135672 0.00027275502
0.29346024 0.74136721 0.00023270008
0.37922611 0.73745518 0.00014750388
0.45375944 0.73744945 0.000099183642
0.52073479 0.73748887 0.000069619287
0.58482276 0.73599587 0.000057300806
0.64299802 0.73355745 0.000043869688
0.69854046 0.73357327 0
0.74905076 0.73358399 0.0000023842222
0.79946403 0.73360442 0.0000035763333
0.84212634 0.73361054 0
0.88479971 0.73356858 0
0.92257525 0.73358988 0
0.95803968 0.73605786 0
0.99131253 0.73753052 0
0.99577897 0.73993858 0
0.99579121 0.74158799 0
0.99579995 0.74386969 0
0.99579995 0.74386969 0
0 0.78397294 0.00036621653
0 0.78397294 0.00036621653
0 0.78397294 0.00036621653
0 0.78397294 0.00036621653
0 0.78397294 0.00036621653
0.1374893 0.78398926 0.00033845358
0.24962488 0.7826861 0.0002225274
0.33478464 0.78009715 0.00020684452
0.40850945 0.78010563 0.00016954469
0.47704534 0.77931767 0.00016467028
0.5390169 0.77727338 0.000066970152
0.59647114 0.77623259 0.00010469384
0.65264617 0.77622644 0.000030518044
0.70495537 0.77493939 0
0.75290854 0.77232607 0.000020345363
0.79947929 0.77229597 0
0.84212338 0.77233031 0
0.88359825 0.77232522 0
0.91958623 0.77234557 0
0.95441812 0.772364 0
0.98751049 0.77497605 0
0.9957936 0.77625188 0
0.99575291 0.77884591 0
0.99575799 0.78016836 0
0.99575799 0.78016836 0
0 0.82271496 0.0003687597
0 0.82271496 0.0003687597
0 0.82271496 0.0003687597
0.0048911523 0.82158007 0.00036264019
0.14382582 0.82161451 0.00030539237
0.23440192 0.8215926 0.00026464866
0.30869097 0.81883631 0.00019407568
0.37738091 0.81886259 0.00018996952
0.44033129 0.81770704 0.00015534532
0.5007004 0.81497832 0.00010705158
0.55840263 0.81494817 0.000069513322
0.61198861 0.81381625 0.000046174436
0.66367463 0.81108282 0.000058810814
0.71416686 0.81102719 0.000037379305
0.76072169 0.80996435 0.0000063049431
0.80333386 0.8099279 0
0.84470046 0.80716899 0.000002967032
0.88358434 0.80717103 0.0000031524715
0.91859328 0.80717158 0
0.95267793 0.80718231 0
0.98466458 0.80996933 0
0.99574019 0.80991773 0
0.99577134 0.81106152 0
0.99572811 0.8138393 0
0.99572811 0.8138393 0
0.016487373 0.85659571 0.00042725261
0.080289635 0.85661272 0.00042041784
0.13834847 0.856583 0.00026035706
0.19487964 0.8566186 0.00030327306
0.25221892 0.85365326 0.00025050228
0.30952131 0.85370095 0.00031582996
0.36607538 0.85269512 0.00018120089
0.42111467 0.85271277 0.0001581534
0.47521681 0.84976857 0.00019582411
0.52890536 0.84880074 0.00015592813
0.57940255 0.848833 0.00012970169
0.62978243 0.84590216 0.000046412858
0.67640002 0.84491684 0.000053406577
0.72294591 0.844941 0.000043392844
0.76558963 0.84197725 0
0.8072509 0.84101911 0.000034332799
0.8459678 0.84100735 0
0.88358161 0.8410428 0.000016212711
0.9185874 0.84105535 0
0.95026226 0.8410393 0
0.98079143 0.84106266 0
0.99571984 0.84104295 0
0.99571984 0.84104295 0
0.99570459 0.84201572 0
0.99570459 0.84201572 0
0.22243521 0.88768088 0.00033506269
0.24097288 0.88459525 0.00031005485
0.26404397 0.88461032 0.00032504896
0.29411439 0.88461326 0.00029651776
0.32949293 0.88382597 0.0002510321
0.37152743 0.88379993 0.00025813179
0.41725748 0.88378777 0.00024366751
0.46382497 0.88070433 0.00016339869
0.50953053 0.87989942 0.00013054941
0.55604249 0.87990514 0.000097912057
0.60260039 0.87680433 0.00011571425
0.64874391 0.87600124 0.00011661496
0.69183515 0.87599692 0.00003083594
0.73411282 0.87294785 0.000031127345
0.77506644 0.87211684 0.000038412468
0.813902 0.87209427 0.000022650111
0.85042725 0.87109072 0.0000021193086
0.88528342 0.86882002 0.000001854395
0.91854353 0.86821148 0
0.94965061 0.86822817 0
0.98072839 0.86820846 0
0.99568805 0.86822182 0
0.99568805 0.86822182 0
0.99568805 0.86904835 0
0.99568805 0.86904835 0
0.31860838 0.91168587 0.00025940337
0.33025726 0.91166075 0.00028970949
0.34505099 0.91099455 0.00029267652
0.36826187 0.91097601 0.00024636962
0.39539262 0.91100726 0.00018861847
0.42905519 0.91099646 0.00021924247
0.46392449 0.91101066 0.00016149132
0.50252865 0.90726859 0.00017516086
0.54451989 0.90711833 0.00012207218
0.58346812 0.90709831 0.000078520384
0.62592126 0.90386583 0.000091554131
0.66818028 0.90319433 0.000088057272
0.70728364 0.90322093 0.000096640472
0.74604685 0.8996589 0.0000092189924
0.78447628 0.89929194 0.0000010596543
0.82138107 0.89932066 0.0000031789629
0.85634818 0.8960513 0.000016954469
0.88861031 0.89541307 0.000041856345
0.91950421 0.89541657 0.0000019073777
0.94964586 0.89542462 0
0.97748828 0.89542865 0
0.99567152 0.89544518 0
0.99567152 0.89544518 0
0.99567152 0.89544518 0
0.99567152 0.89544518 0
0.39504273 0.93819905 0.00022125582
0.40325105 0.93817847 0.00023738905
0.41432329 0.9381555 0.00026480761
0.43025483 0.93478079 0.00022888533
0.45304354 0.93423838 0.0001881946
0.47944435 0.93425984 0.00020877839
0.50995127 0.93429322 0.00023031586
0.54222712 0.93427168 0.00018517459
0.57691374 0.93035337 0.00015767656
0.6122189 0.9303676 0.00013470855
0.64917649 0.93036609 0.000080109865
0.68759648 0.92647623 0.00010244208
0.7226978 0.92648966 0.000034332799
0.75940361 0.92650969 0.000080904606
0.79439374 0.9225824 0.000037988607
0.82919432 0.92258383 0.000025272755
0.86159559 0.92258081 0.000035604384
0.89252372 0.92256682 0.000013351644
0.92243315 0.91868515 0.0000028610666
0.9504441 0.91866528 0
0.97683712 0.91866592 0
0.99571794 0.91872473 0
0.99571794 0.91872473 0
0.99571794 0.91872473 0
0.99571794 0.91872473 0
0.45718827 0.95755322 0.00019328094
0.46153132 0.95755454 0.00016567695
0.47256619 0.95754188 0.00020684452
0.48411758 0.95755242 0.00013764909
0.50352102 0.95757971 0.00021023541
0.52283539 0.95758845 0.00015900113
0.55003179 0.95757547 0.00016943872
0.57721065 0.95369014 0.00018692302
0.6081835 0.95368124 0.00016021973
0.63924446 0.95365326 0.000082335139
0.67403911 0.95347503 0.000074175801
0.70707823 0.94975003 0.00013107924
0.73996529 0.94974314 0.000070572976
0.77284954 0.94957868 0.000024319066
0.80604183 0.94586173 0.000061142053
0.83714888 0.94587053 0.000055313954
0.86811119 0.94586141 0.000028822597
0.89664111 0.9419807 0.0000020133432
0.92635201 0.94195532 0.000010808474
0.95354767 0.94193147 2.6491357e-7
0.97683553 0.94197036 0
0.99569187 0.9419585 0
0.99569187 0.9419585 0
0.99569187 0.9419585 0
0.99569187 0.9419585 0
0.50777638 0.98067954 0.0002568602
0.51535378 0.98062419 0.0001970957
0.5229909 0.98065479 0.00019645991
0.53116846 0.97693917 0.00015513339
0.54675491 0.97698219 0.00016965065
0.56552033 0.97693013 0.00017780999
0.58854572 0.9769309 0.00014623229
0.61188537 0.97694725 0.00015947797
0.63906204 0.97430317 0.00016064359
0.66622408 0.97303786 0.00008742148
0.6956862 0.97302057 0.000032160508
0.72656813 0.97296846 0.000054916584
0.75559275 0.96916247 0.000061036088
0.78661529 0.96916504 0.00004879708
0.81760488 0.96912708 0.000026915219
0.84483697 0.9652475 0.000040213881
0.8758687 0.96523677 0.00002967032
0.90306351 0.96522366 0.00007436124
0.93027326 0.96521261 0.0010312556
0.9535771 0.96429731 0.013963409
0.98070687 0.9613756 0.044710312
0.99575068 0.96131393 0.067802987
0.99571227 0.96129184 0.087063687
0.99569568 0.96131266 0.098278274
0.99569568 0.96131266 0.098278274
0.55428397 0.99632258 0.011978332
0.55808601 0.99630732 0.015601078
0.56598764 0.9962768 0.01576257
0.57373159 0.99630732 0.019153887
0.58878208 0.99630732 0.019668879
0.60425854 0.99629524 0.023563745
0.62361334 0.99632258 0.030437934
0.64295288 0.99630541 0.035300476
0.66626485 0.9962768 0.043066046
0.68955138 0.99238766 0.050898375
0.71667811 0.99241881 0.058733247
0.74393581 0.99240927 0.068627451
0.77109941 0.98846418 0.078202487
0.79821406 0.98850296 0.085973144
0.82712673 0.9885036 0.095503675
0.85260929 0.98849088 0.10546464
0.87981994 0.98459856 0.11462069
0.90699308 0.98464052 0.1249911
0.93028916 0.98459983 0.13381781
0.95749917 0.98461573 0.14459068
0.98079906 0.98458584 0.1530073
0.99575799 0.98068208 0.16408026
0.99574273 0.9807126 0.17576867
0.99577325 0.98066682 0.17964446
0.99577325 0.98066682 0.17964446
0.000029246459 0.0000012715852 0.015402711
0.019327459 0.0000012715852 0.015447217
0.042658821 0.00001345761 0.015454899
0.06593622 1.5894814e-7 0.015414155
0.092517463 0.0039156346 0.015460992
0.12339144 0.00387452 0.01541797
0.16305648 0.000019073777 0.015349304
0.21260204 0.0000017219382 0.015383187
0.2734866 0.000025643634 0.015345702
0.34571984 0.000034332799 0.011530098
0.42316028 0.000027445046 0.011322141
0.50456955 0.000052426396 0.0074174211
0.58586474 0.000015259022 0.0034657053
0.66335911 0.000068718581 0
0.73533608 0.000050863406 0
0.8012665 0.000057221332 0
0.86195672 0.000040690725 0
0.91636594 0.00001970957 0
0.96293584 0.000095368887 0
0.99615473 0.00010681315 0
0.99615473 0.00010681315 0
0.99615473 0.00010681315 0
0.99615473 0.00010681315 0
0.99615473 0.00010681315 0
0.99615473 0.00010681315 0
0.000028133822 0.015435057 0.01546629
0.019342718 0.015625848 0.015391267
0.038746326 0.015584009 0.015415403
0.065934648 0.018914478 0.015465691
0.092481117 0.019391373 0.015402685
0.12419646 0.01564569 0.01541095
0.16601819 0.011538947 0.015362212
0.21646258 0.0000015364987 0.015291447
0.27734798 0.000011020405 0.015295898
0.34950845 0.000027498029 0.011588432
0.42697255 0.000032054543 0.011387718
0.50633808 0.000039313174 0.0073573917
0.58794442 0.000039101244 0.0017182294
0.66552542 0.000061036088 0
0.73533608 0.000050863406 0
0.8012665 0.000057221332 0
0.86195672 0.000040690725 0
0.91636594 0.00001970957 0
0.96680781 0.000080109865 0
0.99615473 0.00010681315 0
0.99615473 0.00010681315 0
0.99615473 0.00010681315 0
0.99615473 0.00010681315 0
0.99615473 0.00010681315 0
0.99615473 0.00010681315 0
5.2982715e-8 0.0347911 0.015455005
0.019352407 0.03487976 0.015445309
0.038746546 0.034848122 0.015477531
0.062016539 0.034800511 0.015434103
0.093072121 0.034867501 0.015439287
0.1272608 0.030979148 0.015403197
0.16992983 0.027029927 0.015388538
0.22039183 0.012575015 0.015365195
0.28126234 0.00002458398 0.015334469
0.35484426 0.000048638132 0.011555848
0.43099362 0.000048267253 0.009155731
0.51214249 0.000040054932 0.0037572869
0.59178302 0.000038147555 0
0.66930203 0.000053459559 0
0.73932631 0.000067394013 0
0.80372702 0.000085831998 0
0.86315963 0.000059340641 0
0.91636594 0.00001970957 0
0.96680781 0.000080109865 0
0.99615473 0.00010681315 0
0.99615473 0.00010681315 0
0.99615473 0.00010681315 0
0.99615473 0.00010681315 0
0.99615473 0.00010681315 0
0.99615473 0.00010681315 0
0.0038875537 0.058052949 0.015612761
0.019373616 0.058094842 0.015626874
0.038729782 0.058084579 0.015593449
0.065370603 0.058111124 0.015624046
0.093056191 0.058093957 0.015569289
0.1311691 0.057761676 0.015572229
0.17380481 0.05383526 0.015360729
0.22704051 0.042173138 0.015382359
0.28910008 0.019884413 0.011810112
0.36107218 0.000041604677 0.011383369
0.43842631 0.000043677626 0.007434826
0.51787193 0.000023819042 0.0018234101
0.5957351 0.000022888533 0
0.6733335 0.000023567374 0
0.74318737 0.000039518482 0
0.80517472 0.000068665599 0
0.86326899 0.000061036088 0
0.91636594 0.00001970957 0
0.96680781 0.000080109865 0
0.99615473 0.00010681315 0
0.99615473 0.00010681315 0
0.99615473 0.00010681315 0
0.99615473 0.00010681315 0
0.99615473 0.00010681315 0
0.99615473 0.00010681315 0
0.00065560811 0.085291892 0.015531353
0.015409811 0.08857256 0.01549861
0.031582157 0.088585413 0.01549868
0.062004559 0.088550237 0.015447442
0.096336139 0.088547539 0.015468321
0.135066 0.088534117 0.015433313
0.18015352 0.085305244 0.015384882
0.23435696 0.080773315 0.011640726
0.29684209 0.066476847 0.011430809
0.36994838 0.040094696 0.0075013193
0.44626634 0.000016477624 0.0018189672
0.52562128 0.000037511762 0
0.60321075 0.000047048651 0
0.67728122 0.000068029806 0
0.74681468 0.000042810034 0
0.80888457 0.000040054932 0
0.86589354 0.00010172681 0
0.91636594 0.00001970957 0
0.96680781 0.000080109865 0
0.99615473 0.00010681315 0
0.99615473 0.00010681315 0
0.99615473 0.00010681315 0
0.99615473 0.00010681315 0
0.99616744 0.013115129 0
0.99616744 0.013115129 0
0 0.1233533 0.011783144
