site/assets/luts/sha256-f756886a17e624a743f1d172fc5551849fd85bd3c767bc27cc2074ea6b29f361.cube
# LUTr-Schema-Version: 2
# LUTr-ID: sha256-f756886a17e624a743f1d172fc5551849fd85bd3c767bc27cc2074ea6b29f361
# LUTr-Title: polaroid px-100uv+ warm +
# LUTr-Collection: Natron HaldCLUT
# LUTr-Collection-ID: natron-haldclut-presets
# LUTr-Source: https://github.com/NatronGitHub/clut
# LUTr-Retrieved: 2026-07-27
# LUTr-Source-File: submissions/natron-haldclut-presets/instant_consumer/polaroid_px-100uv+_warm_+.png
# LUTr-Source-Format: HALD-PNG
# LUTr-Source-SHA256: f756886a17e624a743f1d172fc5551849fd85bd3c767bc27cc2074ea6b29f361
# LUTr-License: CC-BY-SA-4.0
# LUTr-License-URL: https://github.com/NatronGitHub/clut#license
# LUTr-License-Basis: repo-license-file
# LUTr-Transform-Class: film-emulation
# LUTr-Tags: creative, film, film-emulation, hald-clut, natron, png, warm, cube
# LUTr-Input-Color-Space: srgb
# LUTr-Input-Gamut: rec709
# LUTr-Input-Transfer: srgb
# LUTr-Output-Color-Space: srgb
# LUTr-Output-Gamut: rec709
# LUTr-Output-Transfer: srgb
# LUTr-Color-Space-Confidence: assumed-display-referred
# LUTr-Domain-Normalized: true
# LUTr-Shaper: none
# LUTr-Original-Grid: 64x64x64
# LUTr-Conversion-Grid: 25x25x25
# LUTr-Conversion-Interpolation: trilinear
# LUTr-Conversion-Method: HALD-PNG LUT image decoded at 16-bit and sampled to 25x25x25 3D CUBE
# LUTr-Conversion-Tool: LUTr scripts/convert-all-to-cube.mjs 2.0.0
# LUTr-Conversion-Date: 2026-07-27
# LUTr-Note: Preserve this metadata and the upstream license notices when redistributing.
TITLE "polaroid px-100uv+ warm +"
LUT_3D_SIZE 5
DOMAIN_MIN 0 0 0
DOMAIN_MAX 1 1 1
0.3372549 0.31372549 0.31372549
0.34117647 0.32058824 0.32058824
0.40392157 0.38823529 0.39019608
0.49607843 0.48823529 0.48823529
0.63529412 0.62352941 0.61176471
0.34803922 0.32745098 0.33137255
0.35906863 0.34338235 0.34338235
0.41127451 0.39509804 0.39901961
0.50392157 0.49215686 0.49215686
0.63823529 0.63039216 0.61568627
0.43137255 0.42352941 0.42745098
0.42352941 0.41176471 0.41421569
0.4627451 0.45490196 0.45490196
0.53333333 0.5254902 0.525
0.63921569 0.62941176 0.61764706
0.55196078 0.54411765 0.54313725
0.55980392 0.54901961 0.54803922
0.57303922 0.56519608 0.56127451
0.63921569 0.63039216 0.61862745
0.73529412 0.71960784 0.69901961
0.77647059 0.76078431 0.73333333
0.76372549 0.74901961 0.72156863
0.77254902 0.75686275 0.72941176
0.79411765 0.78235294 0.75098039
0.84705882 0.83137255 0.8
0.35294118 0.33235294 0.33627451
0.37941176 0.3627451 0.36446078
0.43039216 0.41666667 0.41911765
0.53431373 0.52279412 0.52254902
0.66568627 0.65098039 0.63823529
0.3752451 0.36176471 0.36568627
0.39485294 0.38161765 0.38553922
0.45490196 0.44362745 0.44705882
0.54908088 0.53897059 0.53670343
0.67426471 0.66176471 0.64607843
0.46421569 0.45441176 0.45784314
0.46531863 0.45392157 0.45637255
0.49779412 0.49289216 0.49313725
0.57414216 0.56629902 0.56115196
0.65392157 0.64215686 0.62990196
0.59313725 0.58529412 0.57745098
0.59730392 0.58627451 0.57916667
0.61090686 0.60294118 0.59276961
0.66121324 0.65018382 0.63823529
0.74705882 0.73431373 0.71078431
0.76470588 0.74901961 0.7254902
0.77941176 0.76372549 0.73651961
0.77254902 0.76029412 0.73333333
0.80196078 0.78921569 0.75784314
0.83039216 0.81470588 0.78431373
0.47254902 0.46078431 0.4627451
0.48627451 0.47794118 0.47843137
0.51764706 0.50784314 0.50784314
0.58823529 0.58039216 0.57647059
0.72352941 0.70784314 0.68823529
0.49705882 0.48578431 0.48578431
0.50453431 0.49411765 0.49411765
0.53676471 0.52818627 0.52647059
0.61544118 0.60612745 0.59693627
0.73137255 0.71568627 0.69607843
0.52745098 0.51862745 0.51764706
0.53284314 0.52573529 0.5247549
0.57647059 0.56960784 0.5627451
0.65343137 0.64289216 0.62965686
0.75294118 0.7372549 0.71372549
0.65735294 0.64705882 0.63382353
0.66335784 0.65098039 0.63921569
0.67647059 0.6627451 0.64705882
0.70980392 0.69509804 0.67659314
0.78480392 0.76960784 0.74362745
0.81372549 0.79803922 0.76666667
0.8004902 0.78627451 0.75735294
0.80392157 0.78823529 0.76078431
0.81960784 0.80441176 0.77647059
0.83137255 0.81960784 0.78823529
0.64215686 0.63039216 0.62156863
0.65686275 0.64607843 0.63406863
0.68529412 0.67352941 0.65735294
0.70416667 0.68995098 0.67254902
0.77352941 0.75784314 0.73333333
0.65 0.63823529 0.62647059
0.66397059 0.65294118 0.63988971
0.69019608 0.67892157 0.66127451
0.72506127 0.7127451 0.69289216
0.79705882 0.78137255 0.75367647
0.66323529 0.65147059 0.63823529
0.68431373 0.67254902 0.65502451
0.71102941 0.69926471 0.67745098
0.7495098 0.73529412 0.71213235
0.80637255 0.79264706 0.76323529
0.72156863 0.70882353 0.68995098
0.74019608 0.7245098 0.70392157
0.75 0.7377451 0.7122549
0.78204657 0.76691176 0.74093137
0.82941176 0.81593137 0.78602941
0.83529412 0.82058824 0.78823529
0.84313725 0.82745098 0.79607843
0.84705882 0.83137255 0.8004902
0.84877451 0.83627451 0.80416667
0.86666667 0.85490196 0.81960784
0.82352941 0.80784314 0.78039216
0.82647059 0.81078431 0.78039216
0.83137255 0.81568627 0.78823529
0.85098039 0.83529412 0.80392157
0.85882353 0.84313725 0.81176471
0.83529412 0.81960784 0.78823529
0.83823529 0.82254902 0.79117647
0.84313725 0.82745098 0.79607843
0.84705882 0.83431373 0.8
0.85490196 0.83921569 0.80784314
0.83921569 0.82352941 0.79019608
0.83186275 0.81960784 0.78431373
0.83921569 0.82745098 0.79313725
0.85490196 0.84313725 0.80784314
0.86666667 0.85490196 0.81960784
0.83823529 0.82254902 0.79215686
0.83921569 0.8245098 0.79215686
0.85490196 0.84313725 0.80784314
0.8627451 0.85098039 0.81568627
0.85980392 0.84411765 0.8127451
0.85098039 0.83529412 0.8
0.86568627 0.85 0.81470588
0.86666667 0.85098039 0.81960784
0.87058824 0.85490196 0.82352941
0.87843137 0.86666667 0.83137255
