site/assets/luts/sha256-bbd29985ab7adf11bc134a15c3664460fcef2a0cf6ae4fc1bff6f18504bcec20.cube
# LUTr-Schema-Version: 2
# LUTr-ID: sha256-bbd29985ab7adf11bc134a15c3664460fcef2a0cf6ae4fc1bff6f18504bcec20
# LUTr-Title: fuji velvia 50
# LUTr-Collection: Natron HaldCLUT
# LUTr-Collection-ID: natron-haldclut-presets
# LUTr-Source: https://github.com/NatronGitHub/clut
# LUTr-Retrieved: 2026-07-27
# LUTr-Source-File: submissions/natron-haldclut-presets/colorslide/fuji_velvia_50.png
# LUTr-Source-Format: HALD-PNG
# LUTr-Source-SHA256: bbd29985ab7adf11bc134a15c3664460fcef2a0cf6ae4fc1bff6f18504bcec20
# LUTr-License: CC-BY-SA-4.0
# LUTr-License-URL: https://github.com/NatronGitHub/clut#license
# LUTr-License-Basis: repo-license-file
# LUTr-Transform-Class: film-emulation
# LUTr-Tags: creative, film, film-emulation, hald-clut, natron, png, cube
# LUTr-Input-Color-Space: srgb
# LUTr-Input-Gamut: rec709
# LUTr-Input-Transfer: srgb
# LUTr-Output-Color-Space: srgb
# LUTr-Output-Gamut: rec709
# LUTr-Output-Transfer: srgb
# LUTr-Color-Space-Confidence: assumed-display-referred
# LUTr-Domain-Normalized: true
# LUTr-Shaper: none
# LUTr-Original-Grid: 64x64x64
# LUTr-Conversion-Grid: 25x25x25
# LUTr-Conversion-Interpolation: trilinear
# LUTr-Conversion-Method: HALD-PNG LUT image decoded at 16-bit and sampled to 25x25x25 3D CUBE
# LUTr-Conversion-Tool: LUTr scripts/convert-all-to-cube.mjs 2.0.0
# LUTr-Conversion-Date: 2026-07-27
# LUTr-Note: Preserve this metadata and the upstream license notices when redistributing.
TITLE "fuji velvia 50"
LUT_3D_SIZE 25
DOMAIN_MIN 0 0 0
DOMAIN_MAX 1 1 1
0.0039215686 0 0
0.024509804 0.0039215686 0.0078431373
0.046078431 0.0078431373 0.015686275
0.069607843 0.0078431373 0.023039216
0.092156863 0.0078431373 0.02745098
0.12352941 0.0083333333 0.031372549
0.17156863 0.014705882 0.031372549
0.22303922 0.015686275 0.031372549
0.2745098 0.011764706 0.02745098
0.32205882 0.0053921569 0.023529412
0.36862745 0 0.018627451
0.40980392 0 0.011764706
0.45098039 0 0.011764706
0.49607843 0 0.019607843
0.54117647 0 0.026470588
0.58627451 0.0039215686 0.025980392
0.62352941 0.0078431373 0.023529412
0.66470588 0.0078431373 0.023529412
0.70980392 0.0078431373 0.023529412
0.75098039 0.0078431373 0.023529412
0.79607843 0.0039215686 0.023529412
0.8372549 0.0039215686 0.019607843
0.88235294 0.0039215686 0.015686275
0.925 0.0024509804 0.0078431373
0.96078431 0 0.0039215686
0.010294118 0.015196078 0.0039215686
0.024509804 0.016666667 0.0072916667
0.045098039 0.020588235 0.012745098
0.069301471 0.020588235 0.019301471
0.092156863 0.018627451 0.02622549
0.12383578 0.014215686 0.031372549
0.17401961 0.01752451 0.031372549
0.2254902 0.019607843 0.030453431
0.2745098 0.018137255 0.02745098
0.32205882 0.010845588 0.021078431
0.36568627 0.0035539216 0.015686275
0.40980392 0 0.011764706
0.45098039 0 0.011764706
0.49607843 0 0.016176471
0.53835784 0.0035539216 0.020710784
0.58235294 0.0053921569 0.022610294
0.62352941 0.0078431373 0.021078431
0.66470588 0.0078431373 0.019607843
0.70980392 0.0078431373 0.023529412
0.75471814 0.0078431373 0.023529412
0.79607843 0.0039215686 0.023529412
0.83988971 0.0039215686 0.019301471
0.88419118 0.0039215686 0.012745098
0.9283701 0.0024509804 0.0078431373
0.96323529 0 0.0039215686
0.028431373 0.041176471 0.011764706
0.03125 0.041176471 0.0088235294
0.044852941 0.041176471 0.011764706
0.064705882 0.041176471 0.015563725
0.091666667 0.039215686 0.021078431
0.1314951 0.033210784 0.026470588
0.17720588 0.025490196 0.027205882
0.22757353 0.023529412 0.027083333
0.27843137 0.019607843 0.023529412
0.32352941 0.013848039 0.019607843
0.36495098 0.0068627451 0.014705882
0.40980392 0.00012254902 0.0083333333
0.45196078 0 0.0093137255
0.49607843 0.0013480392 0.014828431
0.5379902 0.0046568627 0.015686275
0.58272059 0.0078431373 0.018627451
0.6245098 0.0078431373 0.015686275
0.66862745 0.0078431373 0.01752451
0.70980392 0.011764706 0.020343137
0.75441176 0.0091911765 0.023529412
0.79607843 0.006372549 0.023039216
0.84117647 0.0039215686 0.019117647
0.88627451 0.0039215686 0.0125
0.93284314 0.0024509804 0.006372549
0.96960784 0 0.0029411765
0.042156863 0.065686275 0.015196078
0.042647059 0.063051471 0.011764706
0.046691176 0.061764706 0.011764706
0.058333333 0.061764706 0.011764706
0.090196078 0.057843137 0.015931373
0.13572304 0.05 0.019669118
0.18419118 0.039338235 0.020098039
0.23088235 0.027267157 0.023529412
0.27843137 0.023529412 0.020098039
0.32352941 0.019301471 0.019607843
0.3682598 0.011642157 0.014705882
0.41280637 0.0039215686 0.0078431373
0.45490196 0.0017156863 0.006127451
0.49607843 0.0073529412 0.011764706
0.54105392 0.0078431373 0.012132353
0.58627451 0.0078431373 0.012254902
0.62745098 0.0078431373 0.012254902
0.66862745 0.0099877451 0.015686275
0.70980392 0.015196078 0.019607843
0.75441176 0.012193627 0.019607843
0.79607843 0.0078431373 0.019607843
0.84117647 0.0039215686 0.015686275
0.88627451 0.0039215686 0.011764706
0.93529412 0.0037377451 0.006372549
0.97254902 0.0034313725 0.0034313725
0.052941176 0.090196078 0.017647059
0.054166667 0.088235294 0.015686275
0.054901961 0.087254902 0.013235294
0.056862745 0.080637255 0.01004902
0.088235294 0.076470588 0.011764706
0.13970588 0.070098039 0.015931373
0.1872549 0.059803922 0.019117647
0.23406863 0.04754902 0.021568627
0.27843137 0.037254902 0.021568627
0.32352941 0.042401961 0.019607843
0.36862745 0.045098039 0.017156863
0.40980392 0.046813725 0.01372549
0.45490196 0.039215686 0.011764706
0.49632353 0.030637255 0.014215686
0.54411765 0.016666667 0.012254902
0.59289216 0.0078431373 0.0078431373
0.63333333 0.0078431373 0.0078431373
0.67254902 0.012990196 0.012990196
0.7122549 0.017647059 0.016176471
0.75490196 0.015686275 0.017647059
0.79901961 0.0078431373 0.016666667
0.84338235 0.0039215686 0.013480392
0.8877451 0.0039215686 0.0088235294
0.93137255 0.0039215686 0.0078431373
0.96862745 0.0058823529 0.0078431373
0.050490196 0.13186275 0.024019608
0.050490196 0.13186275 0.024019608
0.050612745 0.1310049 0.023039216
0.058333333 0.12843137 0.020098039
0.088480392 0.12843137 0.024264706
0.13578431 0.12058824 0.027941176
0.18419118 0.11372549 0.031004902
0.23069853 0.10343137 0.031862745
0.27794118 0.093137255 0.027941176
0.32352941 0.092830882 0.025306373
0.36862745 0.096568627 0.024019608
0.40980392 0.096568627 0.024019608
0.45490196 0.090196078 0.020343137
0.5 0.075551471 0.016176471
0.54803922 0.055392157 0.013112745
0.59540441 0.036764706 0.0088235294
0.63578431 0.030392157 0.011764706
0.67432598 0.029901961 0.012254902
0.71421569 0.029779412 0.016176471
0.75839461 0.021629902 0.015686275
0.80416667 0.010539216 0.01372549
0.84859069 0.0039828431 0.011764706
0.88627451 0.0044117647 0.011764706
0.92922794 0.0083333333 0.011764706
0.96862745 0.0078431373 0.011764706
0.040196078 0.18333333 0.034313725
0.042034314 0.18333333 0.034313725
0.044852941 0.18333333 0.034313725
0.060906863 0.18590686 0.034313725
0.091666667 0.18676471 0.039705882
0.13272059 0.18186275 0.042156863
0.17965686 0.17254902 0.042156863
0.22757353 0.16335784 0.040686275
0.2745098 0.15490196 0.035294118
0.32205882 0.14914216 0.03247549
0.36862745 0.14803922 0.031372549
0.40980392 0.14718137 0.031372549
0.45490196 0.13823529 0.027941176
0.5 0.12659314 0.025980392
0.54803922 0.1127451 0.02254902
0.59411765 0.098529412 0.02254902
0.63921569 0.092156863 0.02254902
0.67941176 0.088235294 0.02254902
0.72058824 0.084068627 0.025735294
0.76262255 0.069607843 0.02254902
0.80735294 0.054411765 0.017156863
0.84901961 0.040686275 0.014705882
0.89019608 0.032107843 0.015441176
0.93468137 0.023406863 0.015686275
0.97156863 0.017647059 0.015686275
0.029901961 0.23480392 0.044607843
0.031433824 0.23627451 0.044607843
0.039093137 0.23872549 0.044607843
0.06127451 0.23872549 0.048223039
0.090686275 0.24264706 0.05245098
0.12616422 0.24001225 0.056188725
0.17401961 0.23296569 0.05245098
0.22156863 0.22303922 0.048529412
0.26911765 0.21666667 0.044607843
0.31721814 0.20790441 0.038235294
0.36531863 0.20281863 0.03247549
0.40980392 0.1995098 0.027634804
0.45490196 0.19240196 0.02745098
0.5004902 0.18088235 0.029411765
0.54840686 0.17058824 0.036397059
0.59411765 0.16029412 0.033762255
0.63921569 0.15392157 0.032843137
0.68131127 0.14908088 0.032843137
0.7254902 0.14509804 0.032843137
0.76666667 0.13480392 0.029411765
0.80661765 0.12058824 0.023039216
0.846875 0.10606618 0.019607843
0.89129902 0.09252451 0.021078431
0.93529412 0.081862745 0.019607843
0.96862745 0.075490196 0.019607843
0.015686275 0.29019608 0.054901961
0.018137255 0.29264706 0.054901961
0.02745098 0.29313725 0.053921569
0.042156863 0.29362745 0.050980392
0.068627451 0.29411765 0.052941176
0.10833333 0.29362745 0.054901961
0.1627451 0.2872549 0.058823529
0.21127451 0.28088235 0.054901961
0.2627451 0.2745098 0.050980392
0.31029412 0.26421569 0.044607843
0.36176471 0.25784314 0.038235294
0.40980392 0.25147059 0.027941176
0.45686275 0.24509804 0.029411765
0.5004902 0.23480392 0.035784314
0.54901961 0.22745098 0.042156863
0.59558824 0.21813725 0.043137255
0.63921569 0.21176471 0.043137255
0.68431373 0.20931373 0.043137255
0.72941176 0.20392157 0.039215686
0.77058824 0.19656863 0.035784314
0.80784314 0.18235294 0.025490196
0.84901961 0.16764706 0.020098039
0.89411765 0.15392157 0.026470588
0.93921569 0.14362745 0.019607843
0.96862745 0.14117647 0.015686275
0.0053921569 0.34803922 0.066666667
0.0053921569 0.34803922 0.065196078
0.011397059 0.34558824 0.057843137
0.018137255 0.34558824 0.050980392
0.041666667 0.34558824 0.050980392
0.087745098 0.34166667 0.054901961
0.14313725 0.33811275 0.057843137
0.19552696 0.33382353 0.06182598
0.24852941 0.32598039 0.058823529
0.3 0.31960784 0.054901961
0.35147059 0.31323529 0.048529412
0.40539216 0.30686275 0.040379902
0.45490196 0.3004902 0.037745098
0.5004902 0.29050245 0.042156863
0.54803922 0.28345588 0.048897059
0.59411765 0.27598039 0.050980392
0.63921569 0.26715686 0.049509804
0.68339461 0.26415441 0.049509804
0.72585784 0.25833333 0.046078431
0.77028186 0.24803922 0.035968137
0.81176471 0.2377451 0.025490196
0.85539216 0.22383578 0.020098039
0.89767157 0.21568627 0.02745098
0.94405637 0.20539216 0.018137255
0.975 0.19901961 0.011764706
0 0.4 0.071568627
0 0.40098039 0.070588235
0 0.39926471 0.061764706
0.0029411765 0.39705882 0.05245098
0.017156863 0.39313725 0.049019608
0.068504902 0.39313725 0.056372549
0.12254902 0.39019608 0.064460784
0.17794118 0.38529412 0.069730392
0.23431373 0.38137255 0.071568627
0.29031863 0.37389706 0.065196078
0.34681373 0.36862745 0.058823529
0.4004902 0.36176471 0.05245098
0.4504902 0.35441176 0.051960784
0.49914216 0.34693627 0.051960784
0.54509804 0.34019608 0.054166667
0.59166667 0.33284314 0.055882353
0.63921569 0.32352941 0.054901961
0.68284314 0.31862745 0.054901961
0.7254902 0.31004902 0.05
0.76666667 0.30343137 0.040563725
0.81176471 0.29166667 0.030882353
0.85686275 0.27990196 0.029779412
0.89803922 0.27254902 0.033333333
0.94644608 0.2622549 0.027941176
0.9754902 0.25980392 0.020588235
0 0.44852941 0.074509804
0 0.44852941 0.072058824
0 0.44852941 0.065318627
0 0.44852941 0.058394608
0.011519608 0.44632353 0.060294118
0.050490196 0.44460784 0.070526961
0.10196078 0.44166667 0.080392157
0.15863971 0.43676471 0.081862745
0.22745098 0.43284314 0.078431373
0.28921569 0.42647059 0.074203431
0.3435049 0.42009804 0.069117647
0.39754902 0.41372549 0.066176471
0.44730392 0.40906863 0.066176471
0.49656863 0.40447304 0.065686275
0.54411765 0.39803922 0.062254902
0.59166667 0.38823529 0.058823529
0.63921569 0.38137255 0.058823529
0.68284314 0.37156863 0.056372549
0.7254902 0.36519608 0.053553922
0.76666667 0.35490196 0.046629902
0.81176471 0.34460784 0.046078431
0.85300245 0.33431373 0.043137255
0.89803922 0.32401961 0.050367647
0.94313725 0.31519608 0.042463235
0.96911765 0.31470588 0.034803922
0 0.5 0.078431373
0 0.5 0.073284314
0.0019607843 0.5 0.068627451
0.0075980392 0.5 0.068627451
0.018627451 0.5 0.076470588
0.036764706 0.49607843 0.086764706
0.07745098 0.49264706 0.092156863
0.14632353 0.4875 0.089460784
0.22156863 0.48431373 0.082352941
0.28602941 0.47794118 0.077205882
0.34019608 0.47254902 0.074509804
0.39166667 0.46862745 0.076470588
0.44313725 0.46372549 0.079411765
0.49264706 0.45686275 0.079901961
0.54264706 0.45 0.073529412
0.59019608 0.44436275 0.067156863
0.63529412 0.43529412 0.060784314
0.68039216 0.42696078 0.058823529
0.7254902 0.41666667 0.054901961
0.76666667 0.40637255 0.056862745
0.81176471 0.39607843 0.056862745
0.85294118 0.38578431 0.056862745
0.89803922 0.3754902 0.058333333
0.93921569 0.36985294 0.054166667
0.96862745 0.36666667 0.049019608
0 0.54754902 0.082352941
0.0026348039 0.54969363 0.078431373
0.0053921569 0.55147059 0.078553922
0.015196078 0.55147059 0.082352941
0.025490196 0.54926471 0.08872549
0.035845588 0.5466299 0.098039216
0.06875 0.54056373 0.098039216
0.13970588 0.53578431 0.092647059
0.21176471 0.53186275 0.082352941
0.27873775 0.5276348 0.078431373
0.33382353 0.52401961 0.079901961
0.38578431 0.52009804 0.08627451
0.4372549 0.51421569 0.090441176
0.48872549 0.50833333 0.090196078
0.54019608 0.50147059 0.086764706
0.58756127 0.4963848 0.07745098
0.63480392 0.48872549 0.067156863
0.68020833 0.47843137 0.059007353
0.7254902 0.46813725 0.062867647
0.77009804 0.45784314 0.066237745
0.81176471 0.44754902 0.066666667
0.85386029 0.4372549 0.063235294
0.89803922 0.42990196 0.062745098
0.93921569 0.42205882 0.058823529
0.96862745 0.41813725 0.054901961
0 0.59509804 0.082352941
0.0039215686 0.59791667 0.082352941
0.011029412 0.59901961 0.085294118
0.019117647 0.59901961 0.092647059
0.025490196 0.59754902 0.09754902
0.03627451 0.59203431 0.098039216
0.068872549 0.5875 0.098039216
0.13860294 0.58394608 0.092647059
0.20490196 0.57941176 0.085294118
0.27058824 0.5754902 0.080269608
0.32671569 0.57230392 0.090196078
0.37892157 0.5689951 0.096568627
0.43333333 0.56421569 0.1004902
0.48566176 0.55931373 0.097058824
0.53627451 0.55220588 0.097058824
0.58443627 0.54473039 0.087745098
0.63137255 0.5372549 0.07745098
0.67708333 0.52990196 0.068995098
0.72181373 0.52058824 0.068872549
0.76666667 0.51323529 0.069607843
0.81176471 0.50196078 0.070098039
0.85686275 0.48872549 0.066666667
0.89803922 0.48137255 0.06372549
0.94105392 0.47352941 0.058823529
0.97156863 0.46960784 0.054901961
0 0.64117647 0.08627451
0.006372549 0.64417892 0.08627451
0.012745098 0.64509804 0.091176471
0.019117647 0.64509804 0.09754902
0.024019608 0.64191176 0.098039216
0.030392157 0.6372549 0.098039216
0.049019608 0.63370098 0.098039216
0.10729167 0.62941176 0.097120098
0.17598039 0.6254902 0.091666667
0.25435049 0.62156863 0.091666667
0.3192402 0.61911765 0.10330882
0.37254902 0.61550245 0.11470588
0.42671569 0.6125 0.11789216
0.47959559 0.60557598 0.11109069
0.53235294 0.59840686 0.10625
0.58235294 0.59319853 0.098039216
0.62745098 0.5877451 0.087745098
0.67199755 0.58082108 0.079901961
0.71654412 0.57169118 0.079901961
0.76127451 0.56470588 0.076164216
0.80710784 0.55441176 0.072058824
0.85324755 0.54411765 0.067953431
0.89803922 0.53382353 0.062745098
0.94313725 0.52591912 0.056433824
0.97647059 0.52254902 0.050980392
0 0.68627451 0.08627451
0.006372549 0.68872549 0.090196078
0.011764706 0.69019608 0.094117647
0.015686275 0.69019608 0.098039216
0.017647059 0.68627451 0.1
0.020098039 0.68235294 0.098039216
0.026470588 0.67843137 0.098039216
0.065196078 0.6745098 0.098039216
0.14509804 0.67058824 0.098039216
0.23529412 0.66666667 0.098039216
0.31176471 0.66666667 0.10686275
0.36960784 0.6627451 0.12107843
0.42352941 0.65686275 0.11960784
0.47696078 0.65441176 0.11372549
0.52843137 0.64705882 0.10686275
0.57843137 0.64166667 0.10196078
0.62352941 0.63529412 0.098039216
0.66715686 0.62892157 0.090196078
0.71078431 0.61960784 0.090196078
0.75490196 0.6122549 0.090196078
0.80196078 0.60196078 0.082352941
0.84901961 0.59558824 0.074019608
0.89411765 0.58529412 0.06372549
0.94068627 0.58039216 0.053431373
0.98823529 0.57647059 0.043137255
0 0.73137255 0.08627451
0.0048406863 0.73382353 0.091727941
0.0082107843 0.73529412 0.098651961
0.011458333 0.73400735 0.10410539
0.0125 0.73137255 0.10686275
0.015686275 0.72726716 0.10655637
0.016789216 0.72414216 0.10441176
0.031004902 0.72113971 0.10349265
0.12058824 0.71568627 0.10441176
0.21568627 0.71268382 0.1028799
0.30245098 0.71139706 0.10441176
0.36960784 0.70784314 0.11078431
0.42156863 0.70318627 0.11127451
0.47352941 0.69822304 0.11109069
0.52843137 0.69276961 0.10625
0.57689951 0.68768382 0.098958333
0.61960784 0.68039216 0.098039216
0.66170343 0.67555147 0.098039216
0.70625 0.66764706 0.098039216
0.75098039 0.65980392 0.096752451
0.79681373 0.65220588 0.089460784
0.84295343 0.64313725 0.081862745
0.88958333 0.63615196 0.067647059
0.93676471 0.62886029 0.057352941
0.97156863 0.62401961 0.049509804
0 0.77745098 0.08627451
0.0035539216 0.77745098 0.096568627
0.0049019608 0.77745098 0.10392157
0.0078431373 0.77781863 0.11335784
0.011764706 0.77647059 0.11862745
0.012132353 0.77340686 0.11960784
0.015686275 0.77034314 0.12254902
0.031985294 0.76568627 0.12352941
0.10980392 0.76176471 0.11960784
0.20147059 0.75894608 0.1122549
0.28921569 0.75392157 0.10098039
0.36813725 0.75036765 0.097058824
0.42156863 0.74705882 0.10147059
0.47303922 0.74203431 0.10551471
0.52745098 0.7372549 0.10220588
0.57352941 0.73223039 0.10012255
0.61568627 0.72647059 0.10196078
0.65686275 0.72009804 0.10196078
0.70294118 0.71372549 0.10196078
0.74705882 0.70637255 0.098529412
0.79411765 0.70098039 0.091176471
0.84019608 0.69460784 0.077941176
0.88235294 0.68431373 0.068382353
0.92647059 0.67794118 0.06127451
0.95980392 0.67156863 0.054901961
0 0.82156863 0.10098039
0.00030637255 0.82156863 0.1091299
0.0039215686 0.82156863 0.11764706
0.0074142157 0.82156863 0.1245098
0.0080882353 0.82156863 0.13259804
0.011764706 0.81764706 0.13676471
0.012132353 0.81372549 0.14056373
0.02745098 0.80980392 0.14197304
0.10245098 0.80931373 0.14068627
0.18903186 0.80557598 0.12990196
0.27634804 0.80183824 0.11470588
0.36127451 0.79761029 0.10104167
0.41593137 0.79019608 0.10343137
0.46568627 0.78621324 0.10931373
0.51715686 0.78198529 0.11017157
0.56715686 0.77665441 0.10784314
0.61176471 0.77401961 0.10539216
0.65557598 0.76795343 0.10196078
0.70196078 0.76127451 0.098529412
0.7466299 0.75490196 0.095036765
0.79215686 0.75245098 0.088235294
0.8372549 0.74607843 0.074938725
0.88235294 0.73578431 0.068014706
0.92696078 0.72941176 0.06127451
0.96029412 0.72303922 0.054901961
0 0.85882353 0.11960784
0 0.86519608 0.13186275
0.0024509804 0.86666667 0.13333333
0.0039215686 0.86666667 0.13529412
0.0078431373 0.8627451 0.14019608
0.0080882353 0.85857843 0.14705882
0.011764706 0.85490196 0.14901961
0.024754902 0.85367647 0.1502451
0.088235294 0.85490196 0.15294118
0.17696078 0.85294118 0.14779412
0.26519608 0.8504902 0.13823529
0.34558824 0.84166667 0.12622549
0.40980392 0.83529412 0.11666667
0.46127451 0.83088235 0.11960784
0.51078431 0.8245098 0.12009804
0.55833333 0.82156863 0.11495098
0.60588235 0.81960784 0.10588235
0.65294118 0.81838235 0.098039216
0.69901961 0.8127451 0.095588235
0.74656863 0.80637255 0.090441176
0.79215686 0.80392157 0.082352941
0.8372549 0.79754902 0.074019608
0.88382353 0.7872549 0.067156863
0.93210784 0.78088235 0.06004902
0.97058824 0.77647059 0.052941176
0 0.9004902 0.1377451
0 0.90637255 0.14803922
0 0.90796569 0.1495098
0.0038602941 0.90784314 0.14515931
0.0058823529 0.90588235 0.14705882
0.01182598 0.8995098 0.15392157
0.011887255 0.9 0.15355392
0.022058824 0.9004902 0.14901961
0.073529412 0.90392157 0.15294118
0.16488971 0.9004902 0.16194853
0.25392157 0.89644608 0.16691176
0.33241422 0.88872549 0.15140931
0.3997549 0.87867647 0.13627451
0.45686275 0.87254902 0.13033088
0.50490196 0.86862745 0.12990196
0.55459559 0.86470588 0.12058824
0.60343137 0.86470588 0.11029412
0.65116422 0.86470588 0.10030637
0.69889706 0.86115196 0.094485294
0.74656863 0.85735294 0.086764706
0.79215686 0.85343137 0.076470588
0.8377451 0.84509804 0.070098039
0.88529412 0.83737745 0.06629902
0.93284314 0.82990196 0.057352941
0.97598039 0.82598039 0.050490196
0 0.94509804 0.15196078
0 0.94754902 0.15294118
0 0.95 0.15661765
0 0.9495098 0.1495098
0.0058823529 0.94705882 0.15098039
0.012254902 0.9372549 0.16421569
0.01495098 0.94117647 0.16078431
0.012132353 0.95012255 0.15147059
0.056862745 0.95196078 0.15294118
0.14558824 0.94656863 0.16323529
0.23112745 0.9372549 0.16642157
0.31568627 0.92990196 0.16482843
0.39117647 0.92352941 0.15588235
0.45343137 0.91629902 0.14411765
0.50122549 0.90980392 0.1372549
0.54914216 0.90943627 0.12732843
0.59705882 0.90882353 0.12058824
0.64571078 0.90698529 0.1127451
0.69436275 0.90588235 0.10392157
0.74276961 0.90490196 0.093627451
0.79019608 0.90196078 0.083333333
0.83737745 0.89656863 0.069240196
0.88308824 0.88627451 0.062990196
0.93137255 0.87990196 0.054411765
0.96568627 0.87745098 0.044117647
0 0.98088235 0.15686275
0 0.98425245 0.15686275
0 0.98578431 0.15294118
0 0.99001225 0.15294118
0.0058823529 0.98676471 0.15833333
0.011764706 0.98069853 0.17009804
0.013848039 0.97941176 0.1689951
0.010845588 0.98964461 0.15631127
0.04754902 0.99362745 0.1504902
0.12696078 0.98535539 0.16378676
0.21519608 0.97745098 0.16470588
0.30410539 0.96960784 0.16470588
0.38088235 0.96397059 0.16470588
0.44822304 0.95833333 0.15784314
0.49767157 0.94803922 0.14754902
0.54613971 0.95098039 0.13578431
0.59460784 0.95245098 0.12696078
0.64270833 0.95245098 0.12003676
0.69080882 0.95098039 0.11482843
0.74117647 0.94852941 0.10851716
0.79019608 0.94460784 0.1120098
0.8372549 0.94068627 0.089889706
0.88198529 0.93566176 0.067156863
0.92745098 0.93045343 0.050490196
0.96470588 0.92892157 0.037745098
0 0.99215686 0.15686275
0 0.99215686 0.15686275
0 0.99607843 0.15686275
0 1 0.15294118
0.0058823529 0.99411765 0.1627451
0.015686275 0.98823529 0.17647059
0.015686275 0.9872549 0.17352941
0.015686275 0.99215686 0.16176471
0.082352941 0.99607843 0.16078431
0.1745098 0.99607843 0.17009804
0.23431373 0.99215686 0.16862745
0.30637255 0.98823529 0.16862745
0.37843137 0.99019608 0.16862745
0.44215686 0.99166667 0.16470588
0.49705882 0.98137255 0.15784314
0.54460784 0.98578431 0.14362745
0.59215686 1 0.12941176
0.63970588 0.99215686 0.1254902
0.6872549 0.98823529 0.11666667
0.73529412 0.98823529 0.10637255
0.78627451 0.99411765 0.094117647
0.83382353 0.98382353 0.077941176
0.88137255 0.97352941 0.060784314
0.92892157 0.96862745 0.044117647
0.96470588 0.96862745 0.02745098
0.014215686 0.010294118 0.016666667
0.026960784 0.006372549 0.014215686
0.045098039 0.0067401961 0.01629902
0.069301471 0.0078431373 0.023039216
0.090196078 0.0053921569 0.02745098
0.1213848 0.0078431373 0.031372549
0.17156863 0.011764706 0.031372549
0.22303922 0.013235294 0.031372549
0.2745098 0.011764706 0.02745098
0.32205882 0.0053921569 0.023529412
0.36617647 0 0.018627451
0.40980392 0 0.01439951
0.45098039 0 0.016911765
0.49656863 0 0.020098039
0.54301471 0 0.026470588
0.58627451 0.0039215686 0.025980392
0.62745098 0.0078431373 0.023529412
0.66862745 0.0078431373 0.023529412
0.70980392 0.0078431373 0.023529412
0.75490196 0.0044117647 0.023529412
0.79607843 0.0039215686 0.023529412
0.83756127 0.0039215686 0.019607843
0.88235294 0.0039215686 0.015686275
0.92745098 0.00091911765 0.0078431373
0.96078431 0 0.0039215686
0.015134804 0.019117647 0.017585784
0.027305453 0.019117647 0.017011336
0.045098039 0.018137255 0.018137255
0.066168811 0.017218137 0.022234988
0.090196078 0.015441176 0.02622549
0.1213848 0.011879596 0.031372549
0.17156863 0.015318627 0.031372549
0.22338388 0.018344056 0.030453431
0.2745098 0.015686275 0.02745098
0.32205882 0.0093137255 0.021078431
0.36507353 0.0029411765 0.015686275
0.40980392 0 0.01428462
0.45220588 0 0.015226716
0.49619332 0 0.019607843
0.54094669 0.0035539216 0.022916667
0.58480392 0.0050474877 0.023529412
0.62598039 0.0078431373 0.022610294
0.66862745 0.0078431373 0.02410386
0.71041667 0.0078431373 0.023529412
0.75490196 0.0070389093 0.023529412
0.79684436 0.0039215686 0.023529412
0.84069393 0.0039215686 0.019607843
0.88488051 0.0039215686 0.013434436
0.93024663 0 0.0078431373
0.96623775 0 0.0039215686
0.024877451 0.041176471 0.022671569
0.030882353 0.041176471 0.021369485
