site/assets/luts/sha256-32e54838ea9891ab1ec4b4783d88f993481e0c7a65b9e87751c0d8d092f039b8.cube
# LUTr-Schema-Version: 2
# LUTr-ID: sha256-32e54838ea9891ab1ec4b4783d88f993481e0c7a65b9e87751c0d8d092f039b8
# LUTr-Title: fuji fp-3000b negative -
# LUTr-Collection: Natron HaldCLUT
# LUTr-Collection-ID: natron-haldclut-presets
# LUTr-Source: https://github.com/NatronGitHub/clut
# LUTr-Retrieved: 2026-07-27
# LUTr-Source-File: submissions/natron-haldclut-presets/instant_pro/fuji_fp-3000b_negative_-.png
# LUTr-Source-Format: HALD-PNG
# LUTr-Source-SHA256: 32e54838ea9891ab1ec4b4783d88f993481e0c7a65b9e87751c0d8d092f039b8
# LUTr-License: CC-BY-SA-4.0
# LUTr-License-URL: https://github.com/NatronGitHub/clut#license
# LUTr-License-Basis: repo-license-file
# LUTr-Transform-Class: film-emulation
# LUTr-Tags: creative, film, film-emulation, hald-clut, natron, png, cube
# LUTr-Input-Color-Space: srgb
# LUTr-Input-Gamut: rec709
# LUTr-Input-Transfer: srgb
# LUTr-Output-Color-Space: srgb
# LUTr-Output-Gamut: rec709
# LUTr-Output-Transfer: srgb
# LUTr-Color-Space-Confidence: assumed-display-referred
# LUTr-Domain-Normalized: true
# LUTr-Shaper: none
# LUTr-Original-Grid: 64x64x64
# LUTr-Conversion-Grid: 25x25x25
# LUTr-Conversion-Interpolation: trilinear
# LUTr-Conversion-Method: HALD-PNG LUT image decoded at 16-bit and sampled to 25x25x25 3D CUBE
# LUTr-Conversion-Tool: LUTr scripts/convert-all-to-cube.mjs 2.0.0
# LUTr-Conversion-Date: 2026-07-27
# LUTr-Note: Preserve this metadata and the upstream license notices when redistributing.
TITLE "fuji fp-3000b negative -"
LUT_3D_SIZE 25
DOMAIN_MIN 0 0 0
DOMAIN_MAX 1 1 1
0.062745098 0.062745098 0.062745098
0.062745098 0.062745098 0.062745098
0.062745098 0.062745098 0.062745098
0.062745098 0.062745098 0.062745098
0.062745098 0.062745098 0.062745098
0.083823529 0.083823529 0.083823529
0.11176471 0.11176471 0.11176471
0.1377451 0.1377451 0.1377451
0.16470588 0.16470588 0.16470588
0.19166667 0.19166667 0.19166667
0.21470588 0.21470588 0.21470588
0.24166667 0.24166667 0.24166667
0.2627451 0.2627451 0.2627451
0.29215686 0.29215686 0.29215686
0.33039216 0.33039216 0.33039216
0.36666667 0.36666667 0.36666667
0.40392157 0.40392157 0.40392157
0.44264706 0.44264706 0.44264706
0.47745098 0.47745098 0.47745098
0.5122549 0.5122549 0.5122549
0.54313725 0.54313725 0.54313725
0.57401961 0.57401961 0.57401961
0.60882353 0.60882353 0.60882353
0.64362745 0.64362745 0.64362745
0.6745098 0.6745098 0.6745098
0.062745098 0.062745098 0.062745098
0.062745098 0.062745098 0.062745098
0.062745098 0.062745098 0.062745098
0.062745098 0.062745098 0.062745098
0.073039216 0.073039216 0.073039216
0.093627451 0.093627451 0.093627451
0.11752451 0.11752451 0.11752451
0.14319853 0.14319853 0.14319853
0.16862745 0.16862745 0.16862745
0.19313725 0.19313725 0.19313725
0.2182598 0.2182598 0.2182598
0.24430147 0.24430147 0.24430147
0.27107843 0.27107843 0.27107843
0.30196078 0.30196078 0.30196078
0.33676471 0.33676471 0.33676471
0.3721201 0.3721201 0.3721201
0.40784314 0.40784314 0.40784314
0.44264706 0.44264706 0.44264706
0.47843137 0.47843137 0.47843137
0.5122549 0.5122549 0.5122549
0.54313725 0.54313725 0.54313725
0.57401961 0.57401961 0.57401961
0.60882353 0.60882353 0.60882353
0.64362745 0.64362745 0.64362745
0.67058824 0.67058824 0.67058824
0.061764706 0.061764706 0.061764706
0.058823529 0.058823529 0.058823529
0.062009804 0.062009804 0.062009804
0.070588235 0.070588235 0.070588235
0.087254902 0.087254902 0.087254902
0.10477941 0.10477941 0.10477941
0.12769608 0.12769608 0.12769608
0.14901961 0.14901961 0.14901961
0.17254902 0.17254902 0.17254902
0.19705882 0.19705882 0.19705882
0.22181373 0.22181373 0.22181373
0.24963235 0.24963235 0.24963235
0.28137255 0.28137255 0.28137255
0.3122549 0.3122549 0.3122549
0.34705882 0.34705882 0.34705882
0.38125 0.38125 0.38125
0.4127451 0.4127451 0.4127451
0.44718137 0.44718137 0.44718137
0.48161765 0.48161765 0.48161765
0.51360294 0.51360294 0.51360294
0.54411765 0.54411765 0.54411765
0.57794118 0.57794118 0.57794118
0.61176471 0.61176471 0.61176471
0.64362745 0.64362745 0.64362745
0.67058824 0.67058824 0.67058824
0.062254902 0.062254902 0.062254902
0.058823529 0.058823529 0.058823529
0.060661765 0.060661765 0.060661765
0.080882353 0.080882353 0.080882353
0.099264706 0.099264706 0.099264706
0.11813725 0.11813725 0.11813725
0.13872549 0.13872549 0.13872549
0.15753676 0.15753676 0.15753676
0.17647059 0.17647059 0.17647059
0.20079657 0.20079657 0.20079657
0.22634804 0.22634804 0.22634804
0.25686275 0.25686275 0.25686275
0.28995098 0.28995098 0.28995098
0.32254902 0.32254902 0.32254902
0.35735294 0.35735294 0.35735294
0.38823529 0.38823529 0.38823529
0.41960784 0.41960784 0.41960784
0.45392157 0.45392157 0.45392157
0.48872549 0.48872549 0.48872549
0.51960784 0.51960784 0.51960784
0.5504902 0.5504902 0.5504902
0.58143382 0.58143382 0.58143382
0.61531863 0.61531863 0.61531863
0.64754902 0.64754902 0.64754902
0.67058824 0.67058824 0.67058824
0.08627451 0.08627451 0.08627451
0.084313725 0.084313725 0.084313725
0.084803922 0.084803922 0.084803922
0.093627451 0.093627451 0.093627451
0.10784314 0.10784314 0.10784314
0.1245098 0.1245098 0.1245098
0.14901961 0.14901961 0.14901961
0.16960784 0.16960784 0.16960784
0.18823529 0.18823529 0.18823529
0.20882353 0.20882353 0.20882353
0.23823529 0.23823529 0.23823529
0.26911765 0.26911765 0.26911765
0.30098039 0.30098039 0.30098039
0.33308824 0.33308824 0.33308824
0.36764706 0.36764706 0.36764706
0.39852941 0.39852941 0.39852941
0.42941176 0.42941176 0.42941176
0.4627451 0.4627451 0.4627451
0.49558824 0.49558824 0.49558824
0.52818627 0.52818627 0.52818627
0.55686275 0.55686275 0.55686275
0.5877451 0.5877451 0.5877451
0.62156863 0.62156863 0.62156863
0.65343137 0.65343137 0.65343137
0.67647059 0.67647059 0.67647059
0.11470588 0.11470588 0.11470588
0.11256127 0.11256127 0.11256127
0.11127451 0.11127451 0.11127451
0.1151348 0.1151348 0.1151348
0.12083333 0.12083333 0.12083333
0.13572304 0.13572304 0.13572304
0.16237745 0.16237745 0.16237745
0.18560049 0.18560049 0.18560049
0.20882353 0.20882353 0.20882353
0.23204657 0.23204657 0.23204657
0.25882353 0.25882353 0.25882353
0.28927696 0.28927696 0.28927696
0.32058824 0.32058824 0.32058824
0.35147059 0.35147059 0.35147059
0.38198529 0.38198529 0.38198529
0.40931373 0.40931373 0.40931373
0.43970588 0.43970588 0.43970588
0.47303922 0.47303922 0.47303922
0.50539216 0.50539216 0.50539216
0.53627451 0.53627451 0.53627451
0.56715686 0.56715686 0.56715686
0.59803922 0.59803922 0.59803922
0.62892157 0.62892157 0.62892157
0.6622549 0.6622549 0.6622549
0.68676471 0.68676471 0.68676471
0.13921569 0.13921569 0.13921569
0.13823529 0.13823529 0.13823529
0.13529412 0.13529412 0.13529412
0.13872549 0.13872549 0.13872549
0.14754902 0.14754902 0.14754902
0.16139706 0.16139706 0.16139706
0.18333333 0.18333333 0.18333333
0.2060049 0.2060049 0.2060049
0.22941176 0.22941176 0.22941176
0.2557598 0.2557598 0.2557598
0.28235294 0.28235294 0.28235294
0.31029412 0.31029412 0.31029412
0.33970588 0.33970588 0.33970588
0.36813725 0.36813725 0.36813725
0.39901961 0.39901961 0.39901961
0.42659314 0.42659314 0.42659314
0.45392157 0.45392157 0.45392157
0.48480392 0.48480392 0.48480392
0.51568627 0.51568627 0.51568627
0.54656863 0.54656863 0.54656863
0.57745098 0.57745098 0.57745098
0.60833333 0.60833333 0.60833333
0.63921569 0.63921569 0.63921569
0.67009804 0.67009804 0.67009804
0.69705882 0.69705882 0.69705882
0.16519608 0.16519608 0.16519608
0.16366422 0.16366422 0.16366422
0.16066176 0.16066176 0.16066176
0.16439951 0.16439951 0.16439951
0.18088235 0.18088235 0.18088235
0.19491422 0.19491422 0.19491422
0.21421569 0.21421569 0.21421569
0.23480392 0.23480392 0.23480392
0.25539216 0.25539216 0.25539216
0.27935049 0.27935049 0.27935049
0.30392157 0.30392157 0.30392157
0.33088235 0.33088235 0.33088235
0.35784314 0.35784314 0.35784314
0.38694853 0.38694853 0.38694853
0.41568627 0.41568627 0.41568627
0.44601716 0.44601716 0.44601716
0.47352941 0.47352941 0.47352941
0.5004902 0.5004902 0.5004902
0.52990196 0.52990196 0.52990196
0.56078431 0.56078431 0.56078431
0.58848039 0.58848039 0.58848039
0.61862745 0.61862745 0.61862745
0.6495098 0.6495098 0.6495098
0.68039216 0.68039216 0.68039216
0.70343137 0.70343137 0.70343137
0.20392157 0.20392157 0.20392157
0.20392157 0.20392157 0.20392157
0.20392157 0.20392157 0.20392157
0.20392157 0.20392157 0.20392157
0.21568627 0.21568627 0.21568627
0.23186275 0.23186275 0.23186275
0.24901961 0.24901961 0.24901961
0.26568627 0.26568627 0.26568627
0.28627451 0.28627451 0.28627451
0.30441176 0.30441176 0.30441176
0.32745098 0.32745098 0.32745098
0.35147059 0.35147059 0.35147059
0.37843137 0.37843137 0.37843137
0.40539216 0.40539216 0.40539216
0.43627451 0.43627451 0.43627451
0.46323529 0.46323529 0.46323529
0.49411765 0.49411765 0.49411765
0.52107843 0.52107843 0.52107843
0.54803922 0.54803922 0.54803922
0.575 0.575 0.575
0.60196078 0.60196078 0.60196078
0.63284314 0.63284314 0.63284314
0.66372549 0.66372549 0.66372549
0.69068627 0.69068627 0.69068627
0.71372549 0.71372549 0.71372549
0.24901961 0.24901961 0.24901961
0.24754902 0.24754902 0.24754902
0.24754902 0.24754902 0.24754902
0.24901961 0.24901961 0.24901961
0.25294118 0.25294118 0.25294118
0.2627451 0.2627451 0.2627451
0.27806373 0.27806373 0.27806373
0.29656863 0.29656863 0.29656863
0.31323529 0.31323529 0.31323529
0.33045343 0.33045343 0.33045343
0.3504902 0.3504902 0.3504902
0.37254902 0.37254902 0.37254902
0.39901961 0.39901961 0.39901961
0.42598039 0.42598039 0.42598039
0.45294118 0.45294118 0.45294118
0.48382353 0.48382353 0.48382353
0.5122549 0.5122549 0.5122549
0.5401348 0.5401348 0.5401348
0.56764706 0.56764706 0.56764706
0.59215686 0.59215686 0.59215686
0.61936275 0.61936275 0.61936275
0.646875 0.646875 0.646875
0.67463235 0.67463235 0.67463235
0.70435049 0.70435049 0.70435049
0.72794118 0.72794118 0.72794118
0.29019608 0.29019608 0.29019608
0.29019608 0.29019608 0.29019608
0.29019608 0.29019608 0.29019608
0.29105392 0.29105392 0.29105392
0.29411765 0.29411765 0.29411765
0.29718137 0.29718137 0.29718137
0.30710784 0.30710784 0.30710784
0.32352941 0.32352941 0.32352941
0.34313725 0.34313725 0.34313725
0.35796569 0.35796569 0.35796569
0.37647059 0.37647059 0.37647059
0.39791667 0.39791667 0.39791667
0.42156863 0.42156863 0.42156863
0.44607843 0.44607843 0.44607843
0.47352941 0.47352941 0.47352941
0.50404412 0.50404412 0.50404412
0.53137255 0.53137255 0.53137255
0.55833333 0.55833333 0.55833333
0.58431373 0.58431373 0.58431373
0.60882353 0.60882353 0.60882353
0.63676471 0.63676471 0.63676471
0.66482843 0.66482843 0.66482843
0.68995098 0.68995098 0.68995098
0.71801471 0.71801471 0.71801471
0.73921569 0.73921569 0.73921569
0.33137255 0.33137255 0.33137255
0.33137255 0.33137255 0.33137255
0.33137255 0.33137255 0.33137255
0.33137255 0.33137255 0.33137255
0.33357843 0.33357843 0.33357843
0.33529412 0.33529412 0.33529412
0.34215686 0.34215686 0.34215686
0.35441176 0.35441176 0.35441176
0.37107843 0.37107843 0.37107843
0.38529412 0.38529412 0.38529412
0.40085784 0.40085784 0.40085784
0.42156863 0.42156863 0.42156863
0.44215686 0.44215686 0.44215686
0.46666667 0.46666667 0.46666667
0.49411765 0.49411765 0.49411765
0.52107843 0.52107843 0.52107843
0.54803922 0.54803922 0.54803922
0.57518382 0.57518382 0.57518382
0.60110294 0.60110294 0.60110294
0.62892157 0.62892157 0.62892157
0.65416667 0.65416667 0.65416667
0.67935049 0.67935049 0.67935049
0.70723039 0.70723039 0.70723039
0.73314951 0.73314951 0.73314951
0.75245098 0.75245098 0.75245098
0.37058824 0.37058824 0.37058824
0.37058824 0.37058824 0.37058824
0.37058824 0.37058824 0.37058824
0.37254902 0.37254902 0.37254902
0.37254902 0.37254902 0.37254902
0.3747549 0.3747549 0.3747549
0.38333333 0.38333333 0.38333333
0.39289216 0.39289216 0.39289216
0.40196078 0.40196078 0.40196078
0.4122549 0.4122549 0.4122549
0.42696078 0.42696078 0.42696078
0.44607843 0.44607843 0.44607843
0.46666667 0.46666667 0.46666667
0.48921569 0.48921569 0.48921569
0.51176471 0.51176471 0.51176471
0.53897059 0.53897059 0.53897059
0.56470588 0.56470588 0.56470588
0.59240196 0.59240196 0.59240196
0.61813725 0.61813725 0.61813725
0.64387255 0.64387255 0.64387255
0.67156863 0.67156863 0.67156863
0.69705882 0.69705882 0.69705882
0.72107843 0.72107843 0.72107843
0.74607843 0.74607843 0.74607843
0.7627451 0.7627451 0.7627451
0.40588235 0.40588235 0.40588235
0.40588235 0.40588235 0.40588235
0.40931373 0.40931373 0.40931373
0.40974265 0.40974265 0.40974265
0.40980392 0.40980392 0.40980392
0.41421569 0.41421569 0.41421569
0.42144608 0.42144608 0.42144608
0.42910539 0.42910539 0.42910539
0.43676471 0.43676471 0.43676471
0.44705882 0.44705882 0.44705882
0.45735294 0.45735294 0.45735294
0.47107843 0.47107843 0.47107843
0.49166667 0.49166667 0.49166667
0.51525735 0.51525735 0.51525735
0.53627451 0.53627451 0.53627451
0.55833333 0.55833333 0.55833333
0.58529412 0.58529412 0.58529412
0.6096201 0.6096201 0.6096201
0.63517157 0.63517157 0.63517157
0.65882353 0.65882353 0.65882353
0.68504902 0.68504902 0.68504902
0.70827206 0.70827206 0.70827206
0.73492647 0.73492647 0.73492647
0.75686275 0.75686275 0.75686275
0.77696078 0.77696078 0.77696078
0.44313725 0.44313725 0.44313725
0.44411765 0.44411765 0.44411765
0.44705882 0.44705882 0.44705882
0.44705882 0.44705882 0.44705882
0.45098039 0.45098039 0.45098039
0.45232843 0.45232843 0.45232843
0.45808824 0.45808824 0.45808824
0.46311275 0.46311275 0.46311275
0.46764706 0.46764706 0.46764706
0.47794118 0.47794118 0.47794118
0.48823529 0.48823529 0.48823529
0.50232843 0.50232843 0.50232843
0.52254902 0.52254902 0.52254902
0.54019608 0.54019608 0.54019608
0.55980392 0.55980392 0.55980392
0.58137255 0.58137255 0.58137255
0.60294118 0.60294118 0.60294118
0.62892157 0.62892157 0.62892157
0.65269608 0.65269608 0.65269608
0.67634804 0.67634804 0.67634804
0.7004902 0.7004902 0.7004902
0.72463235 0.72463235 0.72463235
0.74901961 0.74901961 0.74901961
0.77352941 0.77352941 0.77352941
0.79117647 0.79117647 0.79117647
0.48823529 0.48823529 0.48823529
0.48823529 0.48823529 0.48823529
0.48860294 0.48860294 0.48860294
0.49185049 0.49185049 0.49185049
0.49215686 0.49215686 0.49215686
0.49215686 0.49215686 0.49215686
0.49571078 0.49571078 0.49571078
0.49699755 0.49699755 0.49699755
0.49852941 0.49852941 0.49852941
0.50882353 0.50882353 0.50882353
0.51948529 0.51948529 0.51948529
0.53333333 0.53333333 0.53333333
0.5495098 0.5495098 0.5495098
0.56617647 0.56617647 0.56617647
0.58529412 0.58529412 0.58529412
0.60496324 0.60496324 0.60496324
0.62647059 0.62647059 0.62647059
0.64705882 0.64705882 0.64705882
0.67156863 0.67156863 0.67156863
0.69589461 0.69589461 0.69589461
0.71789216 0.71789216 0.71789216
0.74148284 0.74148284 0.74148284
0.76568627 0.76568627 0.76568627
0.78927696 0.78927696 0.78927696
0.80931373 0.80931373 0.80931373
0.53333333 0.53333333 0.53333333
0.53333333 0.53333333 0.53333333
0.53333333 0.53333333 0.53333333
0.5372549 0.5372549 0.5372549
0.5372549 0.5372549 0.5372549
0.53333333 0.53333333 0.53333333
0.53333333 0.53333333 0.53333333
0.53333333 0.53333333 0.53333333
0.53333333 0.53333333 0.53333333
0.53970588 0.53970588 0.53970588
0.55098039 0.55098039 0.55098039
0.56764706 0.56764706 0.56764706
0.58039216 0.58039216 0.58039216
0.59656863 0.59656863 0.59656863
0.61078431 0.61078431 0.61078431
0.63039216 0.63039216 0.63039216
0.64705882 0.64705882 0.64705882
0.66764706 0.66764706 0.66764706
0.68823529 0.68823529 0.68823529
0.7127451 0.7127451 0.7127451
0.7372549 0.7372549 0.7372549
0.75833333 0.75833333 0.75833333
0.78235294 0.78235294 0.78235294
0.80686275 0.80686275 0.80686275
0.82352941 0.82352941 0.82352941
0.58088235 0.58088235 0.58088235
0.58088235 0.58088235 0.58088235
0.58088235 0.58088235 0.58088235
0.58235294 0.58235294 0.58235294
0.58088235 0.58088235 0.58088235
0.57843137 0.57843137 0.57843137
0.5754902 0.5754902 0.5754902
0.57303922 0.57303922 0.57303922
0.56666667 0.56666667 0.56666667
0.56819853 0.56819853 0.56819853
0.58370098 0.58370098 0.58370098
0.59883578 0.59883578 0.59883578
0.61323529 0.61323529 0.61323529
0.62745098 0.62745098 0.62745098
0.64166667 0.64166667 0.64166667
0.65735294 0.65735294 0.65735294
0.67401961 0.67401961 0.67401961
0.68915441 0.68915441 0.68915441
0.70882353 0.70882353 0.70882353
0.72726716 0.72726716 0.72726716
0.75073529 0.75073529 0.75073529
0.7723652 0.7723652 0.7723652
0.79656863 0.79656863 0.79656863
0.81715686 0.81715686 0.81715686
0.83382353 0.83382353 0.83382353
0.62843137 0.62843137 0.62843137
0.62843137 0.62843137 0.62843137
0.62843137 0.62843137 0.62843137
0.62757353 0.62757353 0.62757353
0.62745098 0.62745098 0.62745098
0.62352941 0.62352941 0.62352941
0.61960784 0.61960784 0.61960784
0.61458333 0.61458333 0.61458333
0.60882353 0.60882353 0.60882353
0.60882353 0.60882353 0.60882353
0.61740196 0.61740196 0.61740196
0.6307598 0.6307598 0.6307598
0.64460784 0.64460784 0.64460784
0.65845588 0.65845588 0.65845588
0.67254902 0.67254902 0.67254902
0.68823529 0.68823529 0.68823529
0.70490196 0.70490196 0.70490196
0.71764706 0.71764706 0.71764706
0.73259804 0.73259804 0.73259804
0.74656863 0.74656863 0.74656863
0.76568627 0.76568627 0.76568627
0.78627451 0.78627451 0.78627451
0.80686275 0.80686275 0.80686275
0.82781863 0.82781863 0.82781863
0.84509804 0.84509804 0.84509804
0.67598039 0.67598039 0.67598039
0.67598039 0.67598039 0.67598039
0.67598039 0.67598039 0.67598039
0.67254902 0.67254902 0.67254902
0.67230392 0.67230392 0.67230392
0.66813725 0.66813725 0.66813725
0.66176471 0.66176471 0.66176471
0.65900735 0.65900735 0.65900735
0.65637255 0.65637255 0.65637255
0.65637255 0.65637255 0.65637255
0.65784314 0.65784314 0.65784314
0.66813725 0.66813725 0.66813725
0.67892157 0.67892157 0.67892157
0.69270833 0.69270833 0.69270833
0.70637255 0.70637255 0.70637255
0.72126225 0.72126225 0.72126225
0.73578431 0.73578431 0.73578431
0.74981618 0.74981618 0.74981618
0.76029412 0.76029412 0.76029412
0.77101716 0.77101716 0.77101716
0.78529412 0.78529412 0.78529412
0.8 0.8 0.8
0.81715686 0.81715686 0.81715686
0.84166667 0.84166667 0.84166667
0.85833333 0.85833333 0.85833333
0.72156863 0.72156863 0.72156863
0.72156863 0.72156863 0.72156863
0.72156863 0.72156863 0.72156863
0.71789216 0.71789216 0.71789216
0.71470588 0.71470588 0.71470588
0.71151961 0.71151961 0.71151961
0.70637255 0.70637255 0.70637255
0.70318627 0.70318627 0.70318627
0.70196078 0.70196078 0.70196078
0.70196078 0.70196078 0.70196078
0.70245098 0.70245098 0.70245098
0.70588235 0.70588235 0.70588235
0.71568627 0.71568627 0.71568627
0.72622549 0.72622549 0.72622549
0.73823529 0.73823529 0.73823529
0.75245098 0.75245098 0.75245098
0.76666667 0.76666667 0.76666667
0.78088235 0.78088235 0.78088235
0.79117647 0.79117647 0.79117647
0.80147059 0.80147059 0.80147059
0.81176471 0.81176471 0.81176471
0.82205882 0.82205882 0.82205882
0.83431373 0.83431373 0.83431373
0.85661765 0.85661765 0.85661765
0.87254902 0.87254902 0.87254902
0.76666667 0.76666667 0.76666667
0.76666667 0.76666667 0.76666667
0.76311275 0.76311275 0.76311275
0.7627451 0.7627451 0.7627451
0.75906863 0.75906863 0.75906863
0.75533088 0.75533088 0.75533088
0.75232843 0.75232843 0.75232843
0.74969363 0.74969363 0.74969363
0.74705882 0.74705882 0.74705882
0.74705882 0.74705882 0.74705882
0.74754902 0.74754902 0.74754902
0.75055147 0.75055147 0.75055147
0.75490196 0.75490196 0.75490196
0.76317402 0.76317402 0.76317402
0.77303922 0.77303922 0.77303922
0.78511029 0.78511029 0.78511029
0.80147059 0.80147059 0.80147059
0.81176471 0.81176471 0.81176471
0.82205882 0.82205882 0.82205882
0.83235294 0.83235294 0.83235294
0.83848039 0.83848039 0.83848039
0.84503676 0.84503676 0.84503676
0.85526961 0.85526961 0.85526961
0.87432598 0.87432598 0.87432598
0.88676471 0.88676471 0.88676471
0.80490196 0.80490196 0.80490196
0.80490196 0.80490196 0.80490196
0.80465686 0.80465686 0.80465686
0.80392157 0.80392157 0.80392157
0.80196078 0.80196078 0.80196078
0.8 0.8 0.8
0.79607843 0.79607843 0.79607843
0.7939951 0.7939951 0.7939951
0.79215686 0.79215686 0.79215686
0.79215686 0.79215686 0.79215686
0.79215686 0.79215686 0.79215686
0.79473039 0.79473039 0.79473039
0.79607843 0.79607843 0.79607843
0.8004902 0.8004902 0.8004902
0.80857843 0.80857843 0.80857843
0.81813725 0.81813725 0.81813725
0.83235294 0.83235294 0.83235294
0.84264706 0.84264706 0.84264706
0.85294118 0.85294118 0.85294118
0.85943627 0.85943627 0.85943627
0.86421569 0.86421569 0.86421569
0.86911765 0.86911765 0.86911765
0.88161765 0.88161765 0.88161765
0.89264706 0.89264706 0.89264706
0.9 0.9 0.9
0.83970588 0.83970588 0.83970588
0.83970588 0.83970588 0.83970588
0.83970588 0.83970588 0.83970588
0.83970588 0.83970588 0.83970588
0.83970588 0.83970588 0.83970588
0.8372549 0.8372549 0.8372549
0.8372549 0.8372549 0.8372549
0.83578431 0.83578431 0.83578431
0.83333333 0.83333333 0.83333333
0.83333333 0.83333333 0.83333333
0.83333333 0.83333333 0.83333333
0.83186275 0.83186275 0.83186275
0.83455882 0.83455882 0.83455882
0.83988971 0.83988971 0.83988971
0.84656863 0.84656863 0.84656863
0.85294118 0.85294118 0.85294118
0.86323529 0.86323529 0.86323529
0.87352941 0.87352941 0.87352941
0.87953431 0.87953431 0.87953431
0.88480392 0.88480392 0.88480392
0.88921569 0.88921569 0.88921569
0.89724265 0.89724265 0.89724265
0.90392157 0.90392157 0.90392157
0.91421569 0.91421569 0.91421569
0.9245098 0.9245098 0.9245098
0.8627451 0.8627451 0.8627451
0.8627451 0.8627451 0.8627451
0.8627451 0.8627451 0.8627451
0.8627451 0.8627451 0.8627451
0.8627451 0.8627451 0.8627451
0.8627451 0.8627451 0.8627451
0.8627451 0.8627451 0.8627451
0.86666667 0.86666667 0.86666667
0.86666667 0.86666667 0.86666667
0.8627451 0.8627451 0.8627451
0.8627451 0.8627451 0.8627451
0.85882353 0.85882353 0.85882353
0.8627451 0.8627451 0.8627451
0.86715686 0.86715686 0.86715686
0.87352941 0.87352941 0.87352941
0.87990196 0.87990196 0.87990196
0.89019608 0.89019608 0.89019608
0.89411765 0.89411765 0.89411765
0.89803922 0.89803922 0.89803922
0.90196078 0.90196078 0.90196078
0.90784314 0.90784314 0.90784314
0.91421569 0.91421569 0.91421569
0.9245098 0.9245098 0.9245098
0.93088235 0.93088235 0.93088235
0.94117647 0.94117647 0.94117647
0.071568627 0.071568627 0.071568627
0.069117647 0.069117647 0.069117647
0.068137255 0.068137255 0.068137255
0.063051471 0.063051471 0.063051471
0.060784314 0.060784314 0.060784314
0.083823529 0.083823529 0.083823529
0.11176471 0.11176471 0.11176471
0.13927696 0.13927696 0.13927696
0.16470588 0.16470588 0.16470588
0.18921569 0.18921569 0.18921569
0.21764706 0.21764706 0.21764706
0.24166667 0.24166667 0.24166667
0.2627451 0.2627451 0.2627451
0.29215686 0.29215686 0.29215686
0.33223039 0.33223039 0.33223039
0.37003676 0.37003676 0.37003676
0.40784314 0.40784314 0.40784314
0.44264706 0.44264706 0.44264706
0.47843137 0.47843137 0.47843137
0.5122549 0.5122549 0.5122549
0.54313725 0.54313725 0.54313725
0.57432598 0.57432598 0.57432598
0.60882353 0.60882353 0.60882353
0.64362745 0.64362745 0.64362745
0.67205882 0.67205882 0.67205882
0.069117647 0.069117647 0.069117647
0.069117647 0.069117647 0.069117647
0.069117647 0.069117647 0.069117647
0.067647059 0.067647059 0.067647059
0.073529412 0.073529412 0.073529412
0.093336397 0.093336397 0.093336397
0.11790748 0.11790748 0.11790748
0.14319853 0.14319853 0.14319853
0.16715686 0.16715686 0.16715686
0.19258578 0.19258578 0.19258578
0.21963848 0.21963848 0.21963848
0.24449295 0.24449295 0.24449295
0.2708027 0.2708027 0.2708027
0.30215227 0.30215227 0.30215227
0.33860294 0.33860294 0.33860294
0.37361366 0.37361366 0.37361366
0.409375 0.409375 0.409375
0.44360447 0.44360447 0.44360447
0.47843137 0.47843137 0.47843137
0.5122549 0.5122549 0.5122549
0.54313725 0.54313725 0.54313725
0.57585018 0.57585018 0.57585018
0.60882353 0.60882353 0.60882353
0.64362745 0.64362745 0.64362745
0.67058824 0.67058824 0.67058824
0.069117647 0.069117647 0.069117647
0.069117647 0.069117647 0.069117647
0.069117647 0.069117647 0.069117647
0.073529412 0.073529412 0.073529412
0.090379902 0.090379902 0.090379902
0.10845588 0.10845588 0.10845588
0.13042279 0.13042279 0.13042279
0.15188419 0.15188419 0.15188419
0.17352941 0.17352941 0.17352941
0.19767157 0.19767157 0.19767157
