site/assets/luts/sha256-3692b26b0778714e145e3a53ce893a4a9b7bfc8c5083a7afd0bd1a6bccc97968.cube
# LUTr-Schema-Version: 2
# LUTr-ID: sha256-3692b26b0778714e145e3a53ce893a4a9b7bfc8c5083a7afd0bd1a6bccc97968
# LUTr-Title: kodak kodachrome 64
# LUTr-Collection: Natron HaldCLUT
# LUTr-Collection-ID: natron-haldclut-presets
# LUTr-Source: https://github.com/NatronGitHub/clut
# LUTr-Retrieved: 2026-07-27
# LUTr-Source-File: submissions/natron-haldclut-presets/colorslide/kodak_kodachrome_64.png
# LUTr-Source-Format: HALD-PNG
# LUTr-Source-SHA256: 3692b26b0778714e145e3a53ce893a4a9b7bfc8c5083a7afd0bd1a6bccc97968
# LUTr-License: CC-BY-SA-4.0
# LUTr-License-URL: https://github.com/NatronGitHub/clut#license
# LUTr-License-Basis: repo-license-file
# LUTr-Transform-Class: film-emulation
# LUTr-Tags: creative, film, film-emulation, hald-clut, natron, png, cube
# LUTr-Input-Color-Space: srgb
# LUTr-Input-Gamut: rec709
# LUTr-Input-Transfer: srgb
# LUTr-Output-Color-Space: srgb
# LUTr-Output-Gamut: rec709
# LUTr-Output-Transfer: srgb
# LUTr-Color-Space-Confidence: assumed-display-referred
# LUTr-Domain-Normalized: true
# LUTr-Shaper: none
# LUTr-Original-Grid: 64x64x64
# LUTr-Conversion-Grid: 25x25x25
# LUTr-Conversion-Interpolation: trilinear
# LUTr-Conversion-Method: HALD-PNG LUT image decoded at 16-bit and sampled to 25x25x25 3D CUBE
# LUTr-Conversion-Tool: LUTr scripts/convert-all-to-cube.mjs 2.0.0
# LUTr-Conversion-Date: 2026-07-27
# LUTr-Note: Preserve this metadata and the upstream license notices when redistributing.
TITLE "kodak kodachrome 64"
LUT_3D_SIZE 9
DOMAIN_MIN 0 0 0
DOMAIN_MAX 1 1 1
0.015686275 0.02745098 0.0078431373
0.065686275 0.012254902 0.019607843
0.17254902 0.019607843 0.034313725
0.34656863 0.06372549 0.040686275
0.54901961 0.10784314 0.017647059
0.67647059 0.075980392 0.015686275
0.8 0.11078431 0.015686275
0.90735294 0.10245098 0.0078431373
0.96862745 0.11372549 0.0039215686
0.038235294 0.088235294 0.045588235
0.087806373 0.072610294 0.065686275
0.2254902 0.095588235 0.061887255
0.39019608 0.12303922 0.048345588
0.56397059 0.13210784 0.017647059
0.69558824 0.14019608 0.019117647
0.81041667 0.14852941 0.015686275
0.89123775 0.13633578 0.020036765
0.95686275 0.15196078 0.023039216
0.089215686 0.22745098 0.12352941
0.13909314 0.21078431 0.13137255
0.28553922 0.23553922 0.11666667
0.45343137 0.26323529 0.093627451
0.59852941 0.27352941 0.088235294
0.71470588 0.2495098 0.082230392
0.82965686 0.24240196 0.058823529
0.92205882 0.22009804 0.034313725
0.9872549 0.21764706 0.031372549
0.11617647 0.3872549 0.19313725
0.18186275 0.40147059 0.17530637
0.35196078 0.41973039 0.17598039
0.50735294 0.43039216 0.16721814
0.64166667 0.43897059 0.16421569
0.75680147 0.43192402 0.15392157
0.86482843 0.42107843 0.12941176
0.96685049 0.40098039 0.10490196
0.99607843 0.3754902 0.089705882
0.18235294 0.54705882 0.26666667
0.28480392 0.55465686 0.27843137
0.41323529 0.56470588 0.29117647
0.54632353 0.57769608 0.2622549
0.67156863 0.58431373 0.25294118
0.78431373 0.58897059 0.24362745
0.89803922 0.60098039 0.21470588
0.99240196 0.59583333 0.19730392
0.99803922 0.57843137 0.17254902
0.32352941 0.65686275 0.37303922
0.39166667 0.67107843 0.38823529
0.47745098 0.68284314 0.38688725
0.58921569 0.69460784 0.3627451
0.68504902 0.69852941 0.35882353
0.80104167 0.71176471 0.34558824
0.90943627 0.72303922 0.31960784
0.9908701 0.72959559 0.30373775
0.99607843 0.71960784 0.30245098
0.43921569 0.76470588 0.46960784
0.47647059 0.77156863 0.47732843
0.52941176 0.77941176 0.48455882
0.62009804 0.7872549 0.46176471
0.70882353 0.79313725 0.46568627
0.80870098 0.80502451 0.45245098
0.90882353 0.81470588 0.43529412
0.97352941 0.82254902 0.41421569
1 0.82941176 0.4
0.52647059 0.86813725 0.55833333
0.54558824 0.86813725 0.55833333
0.59117647 0.87242647 0.5622549
0.65275735 0.87843137 0.5504902
0.73970588 0.88970588 0.55833333
0.8245098 0.89558824 0.54509804
0.91801471 0.90306373 0.53480392
0.98872549 0.91127451 0.52261029
1 0.91470588 0.51176471
0.6 0.97254902 0.64705882
0.61519608 0.96078431 0.63921569
0.64901961 0.96862745 0.64313725
0.69509804 0.96470588 0.63284314
0.76862745 0.99019608 0.64509804
0.84754902 0.97647059 0.63382353
0.93627451 0.98137255 0.61862745
0.99607843 0.99215686 0.61176471
1 0.98823529 0.60784314
0.019607843 0.023529412 0.061764706
0.062254902 0.0087622549 0.03872549
0.17254902 0.011764706 0.031740196
0.34656863 0.03939951 0.044607843
0.52745098 0.051470588 0.028921569
0.67254902 0.060784314 0.015379902
0.78872549 0.090686275 0.023406863
0.90343137 0.095036765 0.0039215686
0.97647059 0.10980392 0.0034313725
0.047058824 0.069607843 0.080882353
0.080330882 0.068688725 0.07689951
0.20375306 0.084099265 0.087867647
0.37790288 0.10688572 0.074348958
0.5504902 0.12230392 0.068903186
0.68088235 0.13578431 0.060784314
0.79237132 0.13111213 0.048161765
0.89117647 0.1254902 0.030392157
0.95294118 0.125 0.02745098
0.077083333 0.21470588 0.14963235
0.13399203 0.20735294 0.13904718
0.27181373 0.22843137 0.14191176
0.43645833 0.2532935 0.1432598
0.58265931 0.25042892 0.12647059
0.6995098 0.23944547 0.11292892
0.81375613 0.22723652 0.095098039
0.90772059 0.21703431 0.087254902
0.9689951 0.20147059 0.075490196
0.059313725 0.39675245 0.22579657
0.16601563 0.39117647 0.22990196
0.33935355 0.3995098 0.21960784
0.49117647 0.42439491 0.22598039
0.62647059 0.42873775 0.20931373
0.74368873 0.42156863 0.19675245
0.84768689 0.40992647 0.18272059
0.94932598 0.39126072 0.16029412
0.99215686 0.37401961 0.14883578
0.16176471 0.53946078 0.32598039
0.2661152 0.54708946 0.31666667
0.40441176 0.56115196 0.30294118
0.52981005 0.57009804 0.31685049
0.6495098 0.57647059 0.31715686
0.76902574 0.57931985 0.29607843
0.87757353 0.59172794 0.27647059
0.96709559 0.57150735 0.26084559
0.99436275 0.56127451 0.2495098
0.32401961 0.65686275 0.42432598
0.3841299 0.66715686 0.40915288
0.46323529 0.67285539 0.40735294
0.56917892 0.68021599 0.41127451
0.67166054 0.68710172 0.40735294
0.77984069 0.70117953 0.3995098
0.88578431 0.71207108 0.38079044
0.96617647 0.7122549 0.37538297
0.99215686 0.71176471 0.36813725
0.42696078 0.75992647 0.51127451
0.46395527 0.76732537 0.51101409
0.52193627 0.77484681 0.49656863
0.6122549 0.77941176 0.50022978
0.69742647 0.78400735 0.49656863
0.79888174 0.79664522 0.48694853
0.89718137 0.80686275 0.47941176
0.97271752 0.81470588 0.46453738
0.99129902 0.81470588 0.46029412
0.515625 0.86470588 0.58088235
0.54558824 0.86813725 0.58137255
0.5807598 0.86813725 0.57864583
0.64348192 0.8723269 0.57745098
0.72601103 0.88382353 0.58088235
0.81323529 0.89172794 0.57567402
0.90931373 0.9004902 0.56568627
0.9770144 0.91122089 0.55429688
0.98915441 0.90392157 0.5495098
0.56421569 0.92843137 0.63431373
0.60343137 0.95686275 0.65882353
0.63088235 0.95343137 0.65441176
0.68333333 0.95735294 0.6504902
0.75490196 0.97598039 0.65441176
0.84001225 0.98676471 0.65422794
0.92830882 0.98026961 0.64215686
0.98480392 0.98474265 0.63382353
0.99656863 0.98921569 0.62352941
0.00098039216 0.00098039216 0.11176471
0.042647059 0.0039215686 0.095588235
0.14901961 0.0078431373 0.09877451
0.32794118 0.023897059 0.11017157
0.49901961 0.027941176 0.095588235
0.64215686 0.048897059 0.088235294
0.76960784 0.06372549 0.059803922
0.86911765 0.078553922 0.06127451
0.93529412 0.087254902 0.067647059
0.019117647 0.058823529 0.15686275
0.056204044 0.055330882 0.16078431
0.17205882 0.066237745 0.15294118
0.35075061 0.088235294 0.15208333
0.5221201 0.10539216 0.14552696
0.64607843 0.11337316 0.14754902
0.76960784 0.11764706 0.11764706
0.87291667 0.10631127 0.097778799
0.93823529 0.097181373 0.082352941
0.060784314 0.1997549 0.22867647
0.11495098 0.19911152 0.22683824
0.2379902 0.21544118 0.22886029
0.40294118 0.23039216 0.22276348
0.55294118 0.22745098 0.20906863
0.67619485 0.23419118 0.20539216
0.78351716 0.21170343 0.18082108
0.87683824 0.19178922 0.16170343
0.94901961 0.18014706 0.14411765
0.018137255 0.3814951 0.32058824
0.10900735 0.38039216 0.31766238
0.26599265 0.38946078 0.321875
0.45490196 0.40723039 0.31029412
0.5877451 0.39828431 0.29834559
0.70758272 0.39450061 0.28616728
0.81519608 0.39901961 0.2747549
0.91456801 0.378125 0.25422794
0.96237745 0.35147059 0.2372549
0.054411765 0.52009804 0.41323529
0.17965686 0.52616422 0.4088848
0.36482843 0.5377451 0.4004902
0.49613971 0.55392157 0.40294118
0.61470588 0.56421569 0.39901961
0.73118873 0.56372549 0.38688725
0.84215686 0.57254902 0.37095588
0.94160539 0.56096814 0.36366422
0.96568627 0.55294118 0.35686275
0.29313725 0.64791667 0.48762255
0.34558824 0.65 0.48333333
0.42843137 0.65520833 0.4872549
0.53811275 0.66254596 0.48157169
0.64362745 0.67230392 0.47659314
0.7490962 0.68713235 0.47487745
0.85569853 0.69276961 0.46323529
0.95935968 0.69698223 0.45203738
0.98284314 0.69705882 0.44852941
0.40882353 0.75588235 0.56102941
0.44093137 0.75588235 0.56102941
0.49803922 0.75998775 0.55686275
0.58661152 0.76544118 0.55303309
0.6745098 0.77438725 0.54901961
0.77484681 0.78805147 0.54509804
0.87377451 0.79681373 0.54117647
0.96663603 0.80465686 0.53039216
0.98431373 0.80294118 0.52647059
0.50036765 0.85686275 0.63051471
0.52303922 0.85772059 0.62659314
0.56737132 0.86038603 0.61997549
0.63587623 0.87205882 0.62389706
0.71470588 0.87671569 0.61997549
0.79791667 0.8877451 0.61605392
0.89448529 0.89601716 0.6140625
0.96901042 0.90428922 0.61078431
0.97953431 0.8995098 0.60686275
0.57352941 0.95294118 0.69313725
0.58786765 0.95294118 0.69313725
0.61936275 0.95294118 0.68921569
0.67696078 0.97193627 0.69644608
0.74117647 0.97058824 0.68872549
0.82291667 0.97941176 0.68823529
0.9129902 0.98431373 0.6875
0.98051471 0.97696078 0.67303922
0.99215686 0.97254902 0.66078431
0.0039215686 0.0039215686 0.20735294
0.024816176 0.019607843 0.23284314
0.11813725 0.015686275 0.21764706
0.29160539 0.013235294 0.21372549
0.46495098 0.017156863 0.2
0.60490196 0.017156863 0.17156863
0.71666667 0.033823529 0.17340686
0.83235294 0.056372549 0.15833333
0.90735294 0.064215686 0.14460784
0.0052083333 0.036090686 0.26911765
0.020733762 0.034911152 0.25996477
0.14220282 0.04541973 0.25588235
0.31372549 0.068313419 0.25606618
0.47362132 0.078584559 0.25088848
0.60735294 0.082843137 0.24001225
0.71605392 0.082843137 0.22731311
0.82032016 0.075428922 0.20441176
0.88529412 0.063419118 0.1995098
0.035784314 0.17598039 0.33480392
0.06372549 0.17291667 0.33249081
0.18434436 0.19439338 0.32990196
0.3557598 0.20693934 0.32349877
0.50857843 0.21550245 0.31789216
0.62898284 0.21478248 0.31366422
0.73431373 0.19068627 0.29031863
0.83209252 0.16188725 0.2738511
0.89705882 0.15036765 0.2685049
0.031372549 0.35490196 0.40833333
0.053921569 0.36420803 0.41599265
0.22526042 0.36911765 0.41507353
0.40651808 0.38275888 0.40686275
0.54825368 0.39163603 0.40147059
0.66135876 0.39299173 0.39901961
0.76695772 0.37967218 0.38665748
0.8667356 0.34496783 0.36667433
0.9254902 0.32303922 0.35196078
0.034313725 0.50784314 0.4877451
0.16176471 0.50857843 0.4864277
0.32285539 0.51893382 0.49117647
0.44944853 0.52622549 0.48379289
0.57794118 0.53676471 0.47941176
0.69019608 0.54702819 0.4823223
0.79852941 0.55367647 0.47426471
0.90294118 0.54028799 0.45490196
0.94705882 0.52843137 0.44656863
0.27254902 0.63241422 0.55594363
0.32254902 0.63402267 0.55539216
0.40147059 0.64324449 0.55686275
0.50441176 0.64810049 0.55294118
0.60882353 0.65882353 0.54901961
0.71862745 0.67367494 0.54509804
0.8254902 0.68224571 0.54117647
0.92542892 0.68431373 0.53021599
0.97647059 0.68186275 0.52457108
0.38186275 0.74056373 0.61862745
0.41942402 0.74502145 0.61470588
0.47251838 0.74831495 0.6145527
0.55588235 0.75611213 0.61470588
0.6533701 0.76495098 0.61041667
0.75772059 0.78042279 0.60686275
0.85064338 0.78805147 0.60294118
0.94113051 0.7932598 0.6015625
0.98039216 0.7932598 0.59901961
0.47745098 0.84852941 0.67794118
0.5026348 0.8463848 0.67254902
0.54558824 0.84990809 0.67254902
0.61653646 0.86040901 0.67266391
0.69034926 0.86838235 0.67254902
0.78284314 0.88020067 0.67273284
0.87156863 0.88560049 0.66862745
0.95980392 0.89558824 0.66470588
0.98609069 0.8973652 0.66488971
0.55686275 0.94901961 0.73823529
0.57156863 0.94442402 0.73363971
0.60625 0.9504902 0.73639706
0.65680147 0.95686275 0.73578431
0.72696078 0.97181373 0.73823529
0.80833333 0.97401961 0.73431373
0.89313725 0.97941176 0.72941176
0.97058824 0.97107843 0.71109069
1 0.99754902 0.72794118
0 0.0019607843 0.30588235
0.011764706 0.0058823529 0.31568627
0.061764706 0.0058823529 0.30637255
0.25196078 0.0046568627 0.32083333
0.41960784 0.0039215686 0.32058824
0.54509804 0.0046568627 0.29852941
0.66029412 0.014215686 0.30098039
0.7745098 0.025490196 0.29362745
0.83921569 0.025490196 0.27843137
0.0039215686 0.030882353 0.36568627
0.013449755 0.032352941 0.36176471
0.10165441 0.029166667 0.35808824
0.27426471 0.043719363 0.36308211
0.43860294 0.062254902 0.35980392
0.55465686 0.055882353 0.34469975
0.66397059 0.050612745 0.33841912
0.76179534 0.04341299 0.32846201
0.83308824 0.028676471 0.31691176
0.014705882 0.15294118 0.425
0.037683824 0.15882353 0.42481618
0.1627451 0.17794118 0.42696078
0.32297794 0.18431373 0.42352941
0.46691176 0.18823529 0.41911765
0.58155637 0.18854167 0.40876225
0.68872549 0.15612745 0.39044118
0.78676471 0.13492647 0.37628676
0.85196078 0.12058824 0.36715686
0.022303922 0.33823529 0.49509804
0.024264706 0.34656863 0.50009191
0.20042892 0.35539216 0.49901961
0.37598039 0.36130515 0.48967525
0.5127451 0.37622549 0.48651961
0.62496936 0.38109681 0.48651961
0.734375 0.36519608 0.47622549
0.83186275 0.32769608 0.45808824
0.88455882 0.30220588 0.44730392
0.060784314 0.49117647 0.55980392
0.1625 0.4939951 0.56078431
0.29705882 0.50196078 0.55808824
0.42058824 0.50943627 0.55723039
0.54558824 0.52401961 0.55490196
0.6620098 0.54117647 0.55551471
0.76764706 0.53651961 0.54828431
0.86813725 0.51544118 0.53308824
0.93431373 0.50392157 0.5245098
0.25098039 0.61887255 0.61862745
0.30343137 0.62264093 0.61862745
0.3778799 0.62941176 0.61862745
0.48164828 0.63697917 0.61862745
0.58455882 0.64865196 0.61862745
0.68820466 0.65686275 0.61078431
0.79460784 0.6661152 0.60686275
0.89754902 0.66534926 0.59901961
0.96421569 0.66151961 0.59509804
0.3622549 0.72892157 0.67401961
0.40441176 0.73676471 0.67401961
0.45686275 0.73823529 0.67205882
0.53768382 0.74834559 0.67493873
0.62892157 0.75539216 0.67254902
0.725 0.76421569 0.66862745
0.82156863 0.7745098 0.66862745
0.91740196 0.77922794 0.66078431
0.96911765 0.77990196 0.65686275
0.46617647 0.83897059 0.72647059
0.48458946 0.84068627 0.72625613
0.53088235 0.84417892 0.72647059
0.5903799 0.85284926 0.72843137
0.67328431 0.86164216 0.72647059
0.75995711 0.87098652 0.72647059
0.85245098 0.88125 0.72647059
0.93697917 0.88406863 0.72034314
0.98088235 0.88823529 0.71470588
0.54509804 0.94509804 0.78431373
0.55637255 0.94509804 0.78431373
0.58921569 0.94068627 0.78235294
0.64215686 0.96127451 0.78946078
0.71078431 0.96078431 0.78529412
0.78995098 0.96470588 0.78039216
0.87941176 0.98039216 0.78039216
0.95392157 0.98602941 0.77647059
1 0.99411765 0.77647059
0 0.0039215686 0.39509804
0.0078431373 0.0039215686 0.40863971
0.035294118 0.0014705882 0.39264706
0.225 0.0039215686 0.39509804
0.38284314 0.0066176471 0.41078431
0.50882353 0.0039215686 0.39901961
0.625 0.0039215686 0.38088235
0.73596814 0.0078431373 0.38088235
0.78676471 0.0078431373 0.38480392
0.00049019608 0.0085171569 0.44528186
0.0036534926 0.0054764093 0.44705882
0.066789216 0.014139093 0.44136029
0.24882047 0.032222733 0.44203431
0.40196078 0.033915441 0.43759191
0.51802237 0.038235294 0.43511029
0.63316483 0.03872549 0.42719056
0.73306526 0.026470588 0.41534161
0.79460784 0.0078431373 0.40784314
0.0057598039 0.12598039 0.50441176
0.037745098 0.16211703 0.50686275
0.13275123 0.16666667 0.50625
0.30330882 0.17801777 0.50418199
0.4403799 0.18235294 0.49871324
0.55314032 0.17378983 0.49025735
0.66234681 0.15392157 0.47879902
0.75588235 0.1144761 0.46109069
0.81286765 0.091176471 0.45404412
0.011764706 0.3245098 0.57254902
0.039590993 0.33578431 0.56991422
0.18186275 0.34742647 0.5694087
0.35349265 0.34861366 0.56525735
0.48425245 0.35634191 0.5622549
0.60055147 0.36525735 0.55651808
0.7084712 0.35879289 0.54993873
0.80127145 0.31832874 0.53596048
0.85833333 0.27598039 0.52064951
0.082352941 0.48235294 0.62720588
0.16519608 0.48627451 0.62647059
0.27738971 0.49503676 0.62647059
0.40906863 0.50349265 0.6245098
0.52671569 0.51789216 0.62647059
0.63943015 0.52794118 0.62423407
0.74068627 0.51323529 0.61470588
0.84166667 0.50392157 0.60294118
0.91102941 0.50122549 0.59901961
0.22941176 0.60925245 0.68039216
0.27653952 0.61133578 0.67647059
0.35796569 0.61556373 0.67647059
0.46464461 0.62644761 0.67926624
0.57058824 0.63802083 0.68039216
0.66470588 0.64362745 0.67892157
0.76764706 0.64385723 0.67254902
0.86813725 0.64410999 0.66470588
0.93333333 0.6372549 0.65686275
0.34301471 0.71727941 0.73039216
0.37873775 0.72106311 0.72941176
0.42778799 0.72889093 0.72647059
0.51666667 0.73665748 0.73039216
0.60839461 0.74473039 0.73039216
0.69803922 0.75127145 0.72941176
0.79669118 0.75704657 0.72647059
0.89647672 0.76380208 0.72023591
0.96078431 0.76470588 0.71764706
0.44705882 0.8276348 0.78039216
0.46557904 0.83331036 0.78382353
0.51127451 0.84068627 0.78431373
0.57058824 0.84479933 0.78039216
0.65196078 0.85196078 0.78431373
0.7368796 0.85960478 0.78039216
0.82941176 0.86844363 0.7803462
0.92616422 0.87491575 0.77254902
0.97910539 0.88020833 0.77254902
0.52794118 0.93333333 0.83431373
0.53155637 0.9245098 0.82910539
0.57340686 0.94056373 0.83823529
0.62604167 0.94117647 0.83431373
0.69338235 0.95539216 0.83823529
0.76856618 0.95441176 0.83131127
0.85637255 0.96862745 0.83039216
0.95863971 0.98449755 0.83039216
1 0.99215686 0.83039216
0.0039215686 0.0039215686 0.48627451
0.0078431373 0.0039215686 0.48272059
0.01004902 0 0.46568627
0.20931373 0.0039215686 0.46862745
0.3627451 0.0088235294 0.48235294
0.48786765 0.0024509804 0.48823529
0.59509804 0.0039215686 0.47745098
0.70686275 0.0039215686 0.46041667
0.76372549 0 0.44901961
0.0039215686 0.012254902 0.52401961
0.011749387 0.022671569 0.52303922
0.060845588 0.018995098 0.51277574
0.2426011 0.0099877451 0.51127451
0.37634804 0.021752451 0.50735294
0.49364277 0.036458333 0.50686275
0.59889706 0.025582108 0.4995098
0.70615809 0.026731005 0.48849571
0.76372549 0.0078431373 0.48345588
0.010784314 0.13848039 0.57352941
0.02935049 0.13722426 0.57254902
0.11764706 0.14957108 0.57254902
0.28946078 0.17104779 0.57254902
0.41764706 0.17610294 0.56862745
0.53235294 0.14938725 0.55958946
0.63308824 0.14332108 0.54828431
0.72879902 0.10364583 0.53026961
0.78627451 0.089215686 0.52941176
0.019117647 0.33235294 0.63823529
0.044776348 0.32971814 0.63823529
0.18054534 0.33995098 0.63431373
0.33811275 0.34522059 0.63431373
0.46703431 0.35196078 0.63216912
0.57751225 0.35441176 0.62647059
0.68146446 0.34359681 0.61654412
0.77826287 0.30490196 0.60124081
0.83529412 0.26617647 0.59362745
0.076960784 0.47745098 0.68823529
0.15759804 0.47843137 0.68970588
0.26973039 0.48566176 0.6877451
0.39589461 0.49895833 0.69019608
0.51004902 0.50882353 0.68921569
0.61783088 0.5127451 0.68523284
0.72181373 0.50980392 0.68026961
0.81911765 0.49779412 0.67254902
0.88088235 0.49166667 0.66960784
0.21580882 0.59411765 0.73823529
0.26617647 0.59803922 0.73823529
0.34338235 0.60186887 0.73823529
0.44419424 0.61358762 0.73823529
0.54362745 0.62426471 0.74068627
0.64620098 0.63310355 0.73653493
0.75245098 0.63333333 0.73422181
0.85 0.63688725 0.73039216
0.91421569 0.63688725 0.72892157
0.32843137 0.70882353 0.79117647
0.36580882 0.71369485 0.79215686
0.41960784 0.71764706 0.78823529
0.49068627 0.72077206 0.7872549
0.58247549 0.7314951 0.7879902
0.67708333 0.74185049 0.78651961
0.77959559 0.74546569 0.78333333
0.87598039 0.75122549 0.78039216
0.93651961 0.75269608 0.77647059
0.425 0.82156863 0.83823529
0.44803922 0.82547488 0.84198836
0.4885723 0.83284314 0.84178922
0.55399816 0.83333333 0.8377451
0.62922794 0.83854167 0.83431373
0.71507353 0.84871324 0.83431373
0.81050858 0.85686275 0.83431373
0.90821078 0.86459865 0.832644
0.96911765 0.86764706 0.83039216
0.50882353 0.9254902 0.88431373
0.52401961 0.9254902 0.88431373
0.54313725 0.91936275 0.88235294
0.61176471 0.93272059 0.88431373
0.67794118 0.93676471 0.88431373
0.75526961 0.95294118 0.88823529
0.8372549 0.96372549 0.88823529
0.93394608 0.96519608 0.88039216
0.98529412 0.96960784 0.87647059
0 0.0039215686 0.55343137
0.0039215686 0.0039215686 0.55735294
0.021568627 0 0.52794118
0.19509804 0.0078431373 0.53645833
0.35637255 0.015686275 0.54779412
0.46813725 0.0078431373 0.52990196
0.57156863 0.0087009804 0.53872549
0.67598039 0.0078431373 0.52990196
0.74068627 0.0078431373 0.52254902
0 0.0078431373 0.58039216
0.0039215686 0.0082184436 0.58426011
0.059375 0.010294118 0.57254902
0.23295037 0.019607843 0.56993719
0.36078431 0.026960784 0.56541054
0.47608762 0.019607843 0.56452206
0.57624081 0.015563725 0.55686275
0.66813725 0.011764706 0.5498315
0.74117647 0.011764706 0.54166667
0.010416667 0.13431373 0.63382353
0.036335784 0.13786765 0.63382353
0.13406863 0.14564951 0.6299326
0.27058824 0.15490196 0.626394
0.39803922 0.16599265 0.62598039
0.51020221 0.15258885 0.61685049
0.61246936 0.14571078 0.60637255
0.69825368 0.095818015 0.5988511
0.75943627 0.068627451 0.59375
0.019607843 0.32579657 0.69607843
0.074142157 0.3223269 0.69558824
0.2 0.32463235 0.68613664
0.33235294 0.33596814 0.68393842
0.45318627 0.34543505 0.69313725
0.55657169 0.34411765 0.68020833
0.66230086 0.33511029 0.66862745
0.75490196 0.29030331 0.66029412
0.8127451 0.26881127 0.65422794
0.098039216 0.46666667 0.74779412
0.14972426 0.46666667 0.74191176
0.26231618 0.46617647 0.73382353
0.38416054 0.48226103 0.73710172
0.48995098 0.48970588 0.7377451
0.59705882 0.49068627 0.73710172
0.70245098 0.49381127 0.73039216
0.80294118 0.48039216 0.7216299
0.86813725 0.48039216 0.71421569
0.21764706 0.59411765 0.79148284
0.25790441 0.59019608 0.79166667
0.32856924 0.59019608 0.78382353
0.42591146 0.60037531 0.7911152
0.52484681 0.61087623 0.79574142
0.63295803 0.61715686 0.79215686
0.72941176 0.625 0.792019
0.82657782 0.62518382 0.78747702
0.89558824 0.62126225 0.77598039
0.32058824 0.70588235 0.8377451
0.35147059 0.70588235 0.84558824
0.40456495 0.70977328 0.84264706
0.47990196 0.71335784 0.8377451
0.57028186 0.71764706 0.84080882
0.66398591 0.72806373 0.84171262
0.76029412 0.73621324 0.84080882
0.85703125 0.73982843 0.83855699
0.91862745 0.7372549 0.84117647
0.41623775 0.82107843 0.8877451
0.43938419 0.81807598 0.89504442
0.47363664 0.82156863 0.89606311
0.54313725 0.8254902 0.89328278
0.61642157 0.83134191 0.89145221
0.70251225 0.84230239 0.89558824
0.7912837 0.84972426 0.89538909
0.89166667 0.85686275 0.88817402
0.96127451 0.86078431 0.87254902
0.49803922 0.93284314 0.94117647
0.50925245 0.91360294 0.93376225
0.54313725 0.9245098 0.94473039
0.59656863 0.925 0.94185049
0.65808824 0.92598039 0.9370098
0.7372549 0.95851716 0.95165441
0.81813725 0.95269608 0.95012255
0.91127451 0.96911765 0.95392157
0.99264706 0.98039216 0.95441176
0 0 0.56862745
0.0039215686 0.0039215686 0.56862745
0.0078431373 0 0.55
0.1872549 0.006372549 0.56470588
0.34509804 0.0078431373 0.56862745
0.45147059 0.0039215686 0.55147059
0.55294118 0.0039215686 0.55294118
0.65637255 0.011764706 0.56911765
0.7254902 0.0078431373 0.58039216
0.0039215686 0.011764706 0.60343137
0.00042892157 0.0077818627 0.60735294
0.060294118 0.0039215686 0.59558824
0.23118873 0.011458333 0.59558824
0.36029412 0.022794118 0.58406863
0.47077206 0.026960784 0.58333333
0.57107843 0.026960784 0.58382353
0.66421569 0.015625 0.57604167
0.73284314 0.0078431373 0.58431373
0.0078431373 0.13529412 0.65686275
0.029289216 0.13431373 0.65686275
0.1372549 0.15098039 0.65686275
0.27156863 0.15428922 0.64901961
0.39509804 0.16029412 0.64068627
0.50147059 0.14166667 0.64019608
0.60098039 0.11789216 0.63235294
0.6932598 0.09620098 0.61752451
0.75196078 0.061764706 0.61078431
0.011764706 0.31813725 0.72254902
0.081372549 0.32205882 0.71862745
0.20490196 0.32205882 0.71470588
0.32843137 0.32990196 0.71078431
0.44289216 0.34044118 0.7004902
0.5471201 0.34019608 0.70294118
0.64816176 0.32316176 0.70441176
0.74117647 0.28333333 0.68547794
0.80098039 0.25882353 0.67794118
0.094117647 0.4627451 0.7745098
0.14558824 0.46666667 0.77058824
0.26323529 0.46666667 0.76666667
0.37598039 0.47573529 0.7627451
0.48235294 0.48235294 0.75490196
0.58553922 0.48235294 0.75833333
0.68431373 0.48186275 0.7622549
0.7877451 0.47426471 0.75294118
0.85294118 0.47254902 0.74901961
0.21372549 0.58627451 0.81862745
0.25196078 0.58627451 0.81715686
0.3254902 0.58958333 0.81470588
0.42205882 0.59656863 0.80386029
0.51985294 0.60588235 0.80490196
0.6221201 0.60588235 0.81470588
0.71813725 0.61470588 0.81470588
0.81341912 0.61893382 0.81078431
0.88382353 0.61372549 0.80686275
0.32058824 0.70490196 0.86372549
0.35134804 0.70588235 0.85992647
0.39607843 0.70490196 0.86446078
0.47598039 0.70943627 0.86078431
0.57156863 0.71519608 0.86372549
0.65637255 0.72156863 0.86764706
0.74901961 0.73014706 0.86764706
0.8495098 0.73590686 0.85539216
0.91862745 0.73333333 0.84411765
0.41666667 0.81764706 0.90245098
0.43584559 0.81764706 0.90686275
0.46703431 0.82156863 0.91764706
0.54166667 0.825 0.91470588
0.6122549 0.82916667 0.91446078
0.6872549 0.83854167 0.92009804
0.78382353 0.84509804 0.91862745
0.8838848 0.85294118 0.91029412
0.95392157 0.85686275 0.89509804
0.49411765 0.92156863 0.9372549
0.50931373 0.91764706 0.94852941
0.54019608 0.92941176 0.97254902
0.58921569 0.91764706 0.95686275
0.64901961 0.92352941 0.95686275
0.72598039 0.95196078 0.97794118
0.81078431 0.95294118 0.97254902
0.90343137 0.96813725 0.97990196
0.98431373 0.96470588 0.96470588
