site/assets/luts/sha256-5a34154e30364fd07f633cf214406bbfa3e07dc8c69e89391a43e4c39f78224d.cube
# LUTr-Schema-Version: 2
# LUTr-ID: sha256-5a34154e30364fd07f633cf214406bbfa3e07dc8c69e89391a43e4c39f78224d
# LUTr-Title: kodak portra 160 vc -
# LUTr-Collection: Natron HaldCLUT
# LUTr-Collection-ID: natron-haldclut-presets
# LUTr-Source: https://github.com/NatronGitHub/clut
# LUTr-Retrieved: 2026-07-27
# LUTr-Source-File: submissions/natron-haldclut-presets/negative_old/kodak_portra_160_vc_-.png
# LUTr-Source-Format: HALD-PNG
# LUTr-Source-SHA256: 5a34154e30364fd07f633cf214406bbfa3e07dc8c69e89391a43e4c39f78224d
# LUTr-License: CC-BY-SA-4.0
# LUTr-License-URL: https://github.com/NatronGitHub/clut#license
# LUTr-License-Basis: repo-license-file
# LUTr-Transform-Class: film-emulation
# LUTr-Tags: creative, film, film-emulation, hald-clut, natron, png, cube
# LUTr-Input-Color-Space: srgb
# LUTr-Input-Gamut: rec709
# LUTr-Input-Transfer: srgb
# LUTr-Output-Color-Space: srgb
# LUTr-Output-Gamut: rec709
# LUTr-Output-Transfer: srgb
# LUTr-Color-Space-Confidence: assumed-display-referred
# LUTr-Domain-Normalized: true
# LUTr-Shaper: none
# LUTr-Original-Grid: 64x64x64
# LUTr-Conversion-Grid: 25x25x25
# LUTr-Conversion-Interpolation: trilinear
# LUTr-Conversion-Method: HALD-PNG LUT image decoded at 16-bit and sampled to 25x25x25 3D CUBE
# LUTr-Conversion-Tool: LUTr scripts/convert-all-to-cube.mjs 2.0.0
# LUTr-Conversion-Date: 2026-07-27
# LUTr-Note: Preserve this metadata and the upstream license notices when redistributing.
TITLE "kodak portra 160 vc -"
LUT_3D_SIZE 5
DOMAIN_MIN 0 0 0
DOMAIN_MAX 1 1 1
0.0039215686 0.019607843 0.0078431373
0.19117647 0.030392157 0.0039215686
0.56862745 0 0.0019607843
0.85784314 0.028431373 0
1 0.17254902 0
0 0.20980392 0.060784314
0.15416667 0.22867647 0.0049019608
0.57303922 0.24362745 0.0078431373
0.85490196 0.2629902 0.0078431373
0.97745098 0.31960784 0.0039215686
0.0078431373 0.50980392 0.23529412
0.13382353 0.52156863 0.2372549
0.50882353 0.54313725 0.088235294
0.81960784 0.53823529 0.011764706
0.96862745 0.50980392 0
0.22843137 0.74509804 0.41960784
0.33848039 0.74583333 0.42745098
0.51078431 0.75441176 0.40196078
0.75294118 0.77622549 0.28529412
0.98823529 0.78039216 0.14411765
0.61176471 0.94509804 0.69411765
0.63431373 0.9372549 0.69313725
0.69411765 0.93921569 0.7
0.79803922 0.95294118 0.66470588
0.90196078 0.97254902 0.63529412
0.00098039216 0.037254902 0.23333333
0.21838235 0.017401961 0.2372549
0.57303922 0.0098039216 0.225
0.85098039 0.15563725 0.24779412
1 0.27941176 0.25392157
0.0078431373 0.27156863 0.27745098
0.22769608 0.26862745 0.27181373
0.58161765 0.2747549 0.2564951
0.85098039 0.31764706 0.24564951
0.99117647 0.36372549 0.24338235
0.1877451 0.5372549 0.36568627
0.28872549 0.54411765 0.36605392
0.55 0.55612745 0.30931373
0.82156863 0.52708333 0.20343137
0.98921569 0.52745098 0.16666667
0.35490196 0.75980392 0.49901961
0.41121324 0.75588235 0.49509804
0.53688725 0.75588235 0.48125
0.76617647 0.77647059 0.40686275
0.9745098 0.78455882 0.32647059
0.63137255 0.94411765 0.7127451
0.65392157 0.94411765 0.71985294
0.70784314 0.9372549 0.71960784
0.80906863 0.96102941 0.71372549
0.93627451 0.97254902 0.66176471
0.0078431373 0.14313725 0.57647059
0.28872549 0.1754902 0.57843137
0.61764706 0.22941176 0.55882353
0.8372549 0.14117647 0.49754902
1 0.23333333 0.46862745
0.013235294 0.37156863 0.60147059
0.32757353 0.36666667 0.59019608
0.60465686 0.36960784 0.56691176
0.83529412 0.3307598 0.51213235
0.99803922 0.39754902 0.51666667
0.17058824 0.5872549 0.58137255
0.35588235 0.5875 0.58627451
0.58137255 0.575 0.57843137
0.81789216 0.55735294 0.52941176
0.99019608 0.59117647 0.54313725
0.4872549 0.77352941 0.65098039
0.52843137 0.77340686 0.65159314
0.62598039 0.76764706 0.65
0.79901961 0.78186275 0.60098039
0.99313725 0.77892157 0.53627451
0.67647059 0.94901961 0.77843137
0.69607843 0.94754902 0.78284314
0.74215686 0.94215686 0.78235294
0.82745098 0.95931373 0.78382353
0.94117647 0.9745098 0.74705882
0.2254902 0.34117647 0.83823529
0.43039216 0.38235294 0.83431373
0.67156863 0.42696078 0.82254902
0.85882353 0.47769608 0.79509804
0.99215686 0.42843137 0.75686275
0.28333333 0.46176471 0.83431373
0.44920343 0.47745098 0.83118873
0.67352941 0.52659314 0.81507353
0.84607843 0.53584559 0.7879902
0.99215686 0.50392157 0.75686275
0.33627451 0.65588235 0.81666667
0.43872549 0.65098039 0.81360294
0.65931373 0.65833333 0.81127451
0.83860294 0.67867647 0.79901961
0.98578431 0.64166667 0.77254902
0.49387255 0.81004902 0.81470588
0.55042892 0.81176471 0.81936275
0.66703431 0.80612745 0.81397059
0.81942402 0.79901961 0.80349265
0.98431373 0.80612745 0.79705882
0.70196078 0.95784314 0.86862745
0.72867647 0.96176471 0.87156863
0.78676471 0.96323529 0.8754902
0.86176471 0.95784314 0.87254902
0.97254902 0.9872549 0.86078431
0.55686275 0.58039216 0.98039216
0.61372549 0.59509804 0.97254902
0.76078431 0.63529412 0.97058824
0.91176471 0.70588235 0.97156863
0.99607843 0.72941176 0.96862745
0.59117647 0.64215686 0.98431373
0.63014706 0.64901961 0.97647059
0.7627451 0.68186275 0.97254902
0.8995098 0.71568627 0.94803922
0.98137255 0.75980392 0.96078431
0.61764706 0.75686275 0.98039216
0.65343137 0.75686275 0.97647059
0.76078431 0.75882353 0.97254902
0.89509804 0.78235294 0.95490196
0.9745098 0.81764706 0.96078431
0.60490196 0.86862745 0.97254902
0.62916667 0.87156863 0.97941176
0.7254902 0.86519608 0.97156863
0.87647059 0.86936275 0.96176471
0.97647059 0.89117647 0.95980392
0.71372549 0.98823529 0.98039216
0.72843137 0.97647059 0.94509804
0.79019608 0.9745098 0.96078431
0.87254902 0.96078431 0.98333333
0.96862745 0.98039216 0.94901961
