site/assets/luts/sha256-f0a86dcf58188e0191d1c2e2230ca8133d9e8e459c4646f7a6c08884fe623830.cube
# LUTr-Schema-Version: 2
# LUTr-ID: sha256-f0a86dcf58188e0191d1c2e2230ca8133d9e8e459c4646f7a6c08884fe623830
# LUTr-Title: kodak bw 400 cn
# LUTr-Collection: Natron HaldCLUT
# LUTr-Collection-ID: natron-haldclut-presets
# LUTr-Source: https://github.com/NatronGitHub/clut
# LUTr-Retrieved: 2026-07-27
# LUTr-Source-File: submissions/natron-haldclut-presets/bw/kodak_bw_400_cn.png
# LUTr-Source-Format: HALD-PNG
# LUTr-Source-SHA256: f0a86dcf58188e0191d1c2e2230ca8133d9e8e459c4646f7a6c08884fe623830
# LUTr-License: CC-BY-SA-4.0
# LUTr-License-URL: https://github.com/NatronGitHub/clut#license
# LUTr-License-Basis: repo-license-file
# LUTr-Transform-Class: film-emulation
# LUTr-Tags: creative, film, film-emulation, hald-clut, natron, png, black-and-white, cube
# LUTr-Input-Color-Space: srgb
# LUTr-Input-Gamut: rec709
# LUTr-Input-Transfer: srgb
# LUTr-Output-Color-Space: srgb
# LUTr-Output-Gamut: rec709
# LUTr-Output-Transfer: srgb
# LUTr-Color-Space-Confidence: assumed-display-referred
# LUTr-Domain-Normalized: true
# LUTr-Shaper: none
# LUTr-Original-Grid: 64x64x64
# LUTr-Conversion-Grid: 25x25x25
# LUTr-Conversion-Interpolation: trilinear
# LUTr-Conversion-Method: HALD-PNG LUT image decoded at 16-bit and sampled to 25x25x25 3D CUBE
# LUTr-Conversion-Tool: LUTr scripts/convert-all-to-cube.mjs 2.0.0
# LUTr-Conversion-Date: 2026-07-27
# LUTr-Note: Preserve this metadata and the upstream license notices when redistributing.
TITLE "kodak bw 400 cn"
LUT_3D_SIZE 25
DOMAIN_MIN 0 0 0
DOMAIN_MAX 1 1 1
0.019607843 0.019607843 0.019607843
0.015686275 0.015686275 0.015686275
0.011764706 0.011764706 0.011764706
0.014705882 0.014705882 0.014705882
0.033333333 0.033333333 0.033333333
0.051470588 0.051470588 0.051470588
0.071568627 0.071568627 0.071568627
0.066666667 0.066666667 0.066666667
0.062745098 0.062745098 0.062745098
0.060294118 0.060294118 0.060294118
0.07254902 0.07254902 0.07254902
0.097058824 0.097058824 0.097058824
0.11764706 0.11764706 0.11764706
0.13823529 0.13823529 0.13823529
0.15882353 0.15882353 0.15882353
0.17941176 0.17941176 0.17941176
0.19607843 0.19607843 0.19607843
0.21666667 0.21666667 0.21666667
0.23333333 0.23333333 0.23333333
0.25 0.25 0.25
0.26666667 0.26666667 0.26666667
0.28333333 0.28333333 0.28333333
0.30392157 0.30392157 0.30392157
0.3245098 0.3245098 0.3245098
0.33333333 0.33333333 0.33333333
0.03872549 0.03872549 0.03872549
0.037193627 0.037193627 0.037193627
0.03872549 0.03872549 0.03872549
0.042156863 0.042156863 0.042156863
0.053186275 0.053186275 0.053186275
0.064705882 0.064705882 0.064705882
0.082843137 0.082843137 0.082843137
0.080330882 0.080330882 0.080330882
0.081862745 0.081862745 0.081862745
0.084865196 0.084865196 0.084865196
0.092769608 0.092769608 0.092769608
0.10980392 0.10980392 0.10980392
0.13186275 0.13186275 0.13186275
0.15245098 0.15245098 0.15245098
0.17193627 0.17193627 0.17193627
0.19123775 0.19123775 0.19123775
0.20882353 0.20882353 0.20882353
0.22696078 0.22696078 0.22696078
0.24362745 0.24362745 0.24362745
0.26060049 0.26060049 0.26060049
0.27818627 0.27818627 0.27818627
0.29607843 0.29607843 0.29607843
0.31960784 0.31960784 0.31960784
0.34209559 0.34209559 0.34209559
0.36029412 0.36029412 0.36029412
0.065686275 0.065686275 0.065686275
0.065686275 0.065686275 0.065686275
0.066666667 0.066666667 0.066666667
0.073039216 0.073039216 0.073039216
0.081372549 0.081372549 0.081372549
0.089705882 0.089705882 0.089705882
0.10294118 0.10294118 0.10294118
0.10428922 0.10428922 0.10428922
0.10784314 0.10784314 0.10784314
0.11066176 0.11066176 0.11066176
0.12083333 0.12083333 0.12083333
0.13443627 0.13443627 0.13443627
0.15098039 0.15098039 0.15098039
0.17022059 0.17022059 0.17022059
0.18823529 0.18823529 0.18823529
0.20845588 0.20845588 0.20845588
0.2245098 0.2245098 0.2245098
0.24117647 0.24117647 0.24117647
0.25857843 0.25857843 0.25857843
0.27585784 0.27585784 0.27585784
0.29509804 0.29509804 0.29509804
0.31666667 0.31666667 0.31666667
0.34019608 0.34019608 0.34019608
0.36286765 0.36286765 0.36286765
0.38235294 0.38235294 0.38235294
0.096568627 0.096568627 0.096568627
0.096568627 0.096568627 0.096568627
0.09754902 0.09754902 0.09754902
0.10392157 0.10392157 0.10392157
0.1122549 0.1122549 0.1122549
0.11709559 0.11709559 0.11709559
0.12696078 0.12696078 0.12696078
0.12843137 0.12843137 0.12843137
0.13235294 0.13235294 0.13235294
0.13609069 0.13609069 0.13609069
0.14595588 0.14595588 0.14595588
0.15931373 0.15931373 0.15931373
0.1752451 0.1752451 0.1752451
0.19166667 0.19166667 0.19166667
0.20882353 0.20882353 0.20882353
0.22420343 0.22420343 0.22420343
0.23872549 0.23872549 0.23872549
0.25667892 0.25667892 0.25667892
0.27463235 0.27463235 0.27463235
0.29221814 0.29221814 0.29221814
0.3127451 0.3127451 0.3127451
0.3372549 0.3372549 0.3372549
0.36176471 0.36176471 0.36176471
0.38235294 0.38235294 0.38235294
0.40294118 0.40294118 0.40294118
0.1254902 0.1254902 0.1254902
0.1254902 0.1254902 0.1254902
0.12745098 0.12745098 0.12745098
0.13308824 0.13308824 0.13308824
0.14117647 0.14117647 0.14117647
0.14730392 0.14730392 0.14730392
0.1504902 0.1504902 0.1504902
0.15490196 0.15490196 0.15490196
0.15882353 0.15882353 0.15882353
0.1620098 0.1620098 0.1620098
0.17205882 0.17205882 0.17205882
0.18578431 0.18578431 0.18578431
0.20098039 0.20098039 0.20098039
0.21617647 0.21617647 0.21617647
0.22647059 0.22647059 0.22647059
0.24068627 0.24068627 0.24068627
0.25490196 0.25490196 0.25490196
0.27230392 0.27230392 0.27230392
0.29019608 0.29019608 0.29019608
0.30882353 0.30882353 0.30882353
0.33235294 0.33235294 0.33235294
0.35416667 0.35416667 0.35416667
0.37794118 0.37794118 0.37794118
0.39901961 0.39901961 0.39901961
0.41764706 0.41764706 0.41764706
0.15441176 0.15441176 0.15441176
0.15441176 0.15441176 0.15441176
0.15441176 0.15441176 0.15441176
0.16133578 0.16133578 0.16133578
0.16593137 0.16593137 0.16593137
0.17052696 0.17052696 0.17052696
0.17389706 0.17389706 0.17389706
0.17922794 0.17922794 0.17922794
0.18529412 0.18529412 0.18529412
0.18792892 0.18792892 0.18792892
0.19816176 0.19816176 0.19816176
0.2122549 0.2122549 0.2122549
0.22647059 0.22647059 0.22647059
0.23676471 0.23676471 0.23676471
0.24705882 0.24705882 0.24705882
0.25735294 0.25735294 0.25735294
0.27156863 0.27156863 0.27156863
0.28823529 0.28823529 0.28823529
0.30490196 0.30490196 0.30490196
0.3254902 0.3254902 0.3254902
0.3495098 0.3495098 0.3495098
0.37015931 0.37015931 0.37015931
0.39117647 0.39117647 0.39117647
0.41519608 0.41519608 0.41519608
0.43186275 0.43186275 0.43186275
0.18235294 0.18235294 0.18235294
0.18235294 0.18235294 0.18235294
0.18161765 0.18161765 0.18161765
0.18615196 0.18615196 0.18615196
0.19166667 0.19166667 0.19166667
0.19448529 0.19448529 0.19448529
0.2002451 0.2002451 0.2002451
0.20343137 0.20343137 0.20343137
0.20882353 0.20882353 0.20882353
0.21335784 0.21335784 0.21335784
0.22328431 0.22328431 0.22328431
0.23664216 0.23664216 0.23664216
0.24705882 0.24705882 0.24705882
0.25735294 0.25735294 0.25735294
0.26764706 0.26764706 0.26764706
0.27794118 0.27794118 0.27794118
0.28823529 0.28823529 0.28823529
0.30490196 0.30490196 0.30490196
0.32254902 0.32254902 0.32254902
0.34313725 0.34313725 0.34313725
0.36372549 0.36372549 0.36372549
0.38468137 0.38468137 0.38468137
0.40784314 0.40784314 0.40784314
0.42904412 0.42904412 0.42904412
0.44509804 0.44509804 0.44509804
0.2122549 0.2122549 0.2122549
0.2122549 0.2122549 0.2122549
0.2122549 0.2122549 0.2122549
0.21599265 0.21599265 0.21599265
0.21740196 0.21740196 0.21740196
0.22040441 0.22040441 0.22040441
0.22401961 0.22401961 0.22401961
0.22886029 0.22886029 0.22886029
0.23431373 0.23431373 0.23431373
0.23915441 0.23915441 0.23915441
0.24705882 0.24705882 0.24705882
0.25735294 0.25735294 0.25735294
0.26764706 0.26764706 0.26764706
0.27794118 0.27794118 0.27794118
0.28823529 0.28823529 0.28823529
0.29852941 0.29852941 0.29852941
0.30882353 0.30882353 0.30882353
0.32064951 0.32064951 0.32064951
0.33823529 0.33823529 0.33823529
0.35882353 0.35882353 0.35882353
0.37941176 0.37941176 0.37941176
0.40030637 0.40030637 0.40030637
0.42303922 0.42303922 0.42303922
0.44509804 0.44509804 0.44509804
0.46176471 0.46176471 0.46176471
0.23921569 0.23921569 0.23921569
0.24313725 0.24313725 0.24313725
0.24313725 0.24313725 0.24313725
0.24313725 0.24313725 0.24313725
0.24705882 0.24705882 0.24705882
0.25098039 0.25098039 0.25098039
0.25098039 0.25098039 0.25098039
0.25637255 0.25637255 0.25637255
0.2627451 0.2627451 0.2627451
0.26666667 0.26666667 0.26666667
0.27156863 0.27156863 0.27156863
0.28186275 0.28186275 0.28186275
0.29215686 0.29215686 0.29215686
0.29852941 0.29852941 0.29852941
0.30882353 0.30882353 0.30882353
0.31911765 0.31911765 0.31911765
0.32941176 0.32941176 0.32941176
0.34215686 0.34215686 0.34215686
0.35784314 0.35784314 0.35784314
0.3754902 0.3754902 0.3754902
0.39607843 0.39607843 0.39607843
0.41666667 0.41666667 0.41666667
0.44117647 0.44117647 0.44117647
0.46176471 0.46176471 0.46176471
0.47843137 0.47843137 0.47843137
0.27009804 0.27009804 0.27009804
0.27101716 0.27101716 0.27101716
0.27401961 0.27401961 0.27401961
0.27401961 0.27401961 0.27401961
0.2747549 0.2747549 0.2747549
0.27794118 0.27794118 0.27794118
0.28186275 0.28186275 0.28186275
0.28578431 0.28578431 0.28578431
0.28970588 0.28970588 0.28970588
0.29754902 0.29754902 0.29754902
0.30245098 0.30245098 0.30245098
0.30931373 0.30931373 0.30931373
0.31911765 0.31911765 0.31911765
0.32941176 0.32941176 0.32941176
0.33970588 0.33970588 0.33970588
0.34754902 0.34754902 0.34754902
0.36029412 0.36029412 0.36029412
0.37058824 0.37058824 0.37058824
0.38125 0.38125 0.38125
0.3963848 0.3963848 0.3963848
0.41666667 0.41666667 0.41666667
0.4372549 0.4372549 0.4372549
0.45784314 0.45784314 0.45784314
0.48235294 0.48235294 0.48235294
0.49656863 0.49656863 0.49656863
0.30098039 0.30098039 0.30098039
0.30098039 0.30098039 0.30098039
0.30098039 0.30098039 0.30098039
0.30441176 0.30441176 0.30441176
0.30490196 0.30490196 0.30490196
0.30882353 0.30882353 0.30882353
0.31176471 0.31176471 0.31176471
0.31666667 0.31666667 0.31666667
0.3245098 0.3245098 0.3245098
0.33088235 0.33088235 0.33088235
0.33627451 0.33627451 0.33627451
0.34019608 0.34019608 0.34019608
0.35 0.35 0.35
0.35637255 0.35637255 0.35637255
0.36666667 0.36666667 0.36666667
0.37696078 0.37696078 0.37696078
0.3872549 0.3872549 0.3872549
0.39754902 0.39754902 0.39754902
0.40784314 0.40784314 0.40784314
0.42071078 0.42071078 0.42071078
0.4372549 0.4372549 0.4372549
0.45784314 0.45784314 0.45784314
0.47916667 0.47916667 0.47916667
0.50085784 0.50085784 0.50085784
0.51568627 0.51568627 0.51568627
0.33578431 0.33578431 0.33578431
0.33529412 0.33529412 0.33529412
0.33186275 0.33186275 0.33186275
0.33186275 0.33186275 0.33186275
0.33578431 0.33578431 0.33578431
0.33970588 0.33970588 0.33970588
0.34264706 0.34264706 0.34264706
0.34901961 0.34901961 0.34901961
0.35539216 0.35539216 0.35539216
0.36176471 0.36176471 0.36176471
0.36813725 0.36813725 0.36813725
0.37408088 0.37408088 0.37408088
0.37892157 0.37892157 0.37892157
0.3872549 0.3872549 0.3872549
0.39754902 0.39754902 0.39754902
0.40784314 0.40784314 0.40784314
0.41470588 0.41470588 0.41470588
0.425 0.425 0.425
0.43480392 0.43480392 0.43480392
0.44552696 0.44552696 0.44552696
0.46176471 0.46176471 0.46176471
0.48186275 0.48186275 0.48186275
0.50294118 0.50294118 0.50294118
0.51960784 0.51960784 0.51960784
0.53235294 0.53235294 0.53235294
0.36862745 0.36862745 0.36862745
0.36740196 0.36740196 0.36740196
0.36666667 0.36666667 0.36666667
0.36666667 0.36666667 0.36666667
0.36666667 0.36666667 0.36666667
0.37058824 0.37058824 0.37058824
0.3745098 0.3745098 0.3745098
0.38112745 0.38112745 0.38112745
0.38823529 0.38823529 0.38823529
0.39534314 0.39534314 0.39534314
0.40196078 0.40196078 0.40196078
0.40588235 0.40588235 0.40588235
0.41176471 0.41176471 0.41176471
0.41813725 0.41813725 0.41813725
0.42696078 0.42696078 0.42696078
0.43480392 0.43480392 0.43480392
0.44509804 0.44509804 0.44509804
0.45539216 0.45539216 0.45539216
0.46568627 0.46568627 0.46568627
0.47598039 0.47598039 0.47598039
0.4872549 0.4872549 0.4872549
0.50294118 0.50294118 0.50294118
0.51960784 0.51960784 0.51960784
0.53627451 0.53627451 0.53627451
0.54901961 0.54901961 0.54901961
0.40539216 0.40539216 0.40539216
0.40196078 0.40196078 0.40196078
0.40196078 0.40196078 0.40196078
0.40196078 0.40196078 0.40196078
0.40196078 0.40196078 0.40196078
0.40238971 0.40238971 0.40238971
0.40845588 0.40845588 0.40845588
0.41501225 0.41501225 0.41501225
0.42107843 0.42107843 0.42107843
0.4276348 0.4276348 0.4276348
0.43419118 0.43419118 0.43419118
0.44025735 0.44025735 0.44025735
0.44460784 0.44460784 0.44460784
0.44901961 0.44901961 0.44901961
0.45539216 0.45539216 0.45539216
0.46568627 0.46568627 0.46568627
0.47598039 0.47598039 0.47598039
0.48627451 0.48627451 0.48627451
0.49656863 0.49656863 0.49656863
0.50300245 0.50300245 0.50300245
0.51323529 0.51323529 0.51323529
0.52395833 0.52395833 0.52395833
0.5372549 0.5372549 0.5372549
0.55294118 0.55294118 0.55294118
0.56568627 0.56568627 0.56568627
0.44313725 0.44313725 0.44313725
0.44313725 0.44313725 0.44313725
0.44019608 0.44019608 0.44019608
0.43921569 0.43921569 0.43921569
0.43921569 0.43921569 0.43921569
0.44313725 0.44313725 0.44313725
0.44632353 0.44632353 0.44632353
0.45134804 0.45134804 0.45134804
0.45882353 0.45882353 0.45882353
0.46335784 0.46335784 0.46335784
0.46838235 0.46838235 0.46838235
0.47414216 0.47414216 0.47414216
0.47892157 0.47892157 0.47892157
0.48247549 0.48247549 0.48247549
0.4870098 0.4870098 0.4870098
0.49656863 0.49656863 0.49656863
0.50686275 0.50686275 0.50686275
0.51715686 0.51715686 0.51715686
0.52745098 0.52745098 0.52745098
0.5377451 0.5377451 0.5377451
0.54411765 0.54411765 0.54411765
0.55441176 0.55441176 0.55441176
0.5625 0.5625 0.5625
0.57205882 0.57205882 0.57205882
0.58627451 0.58627451 0.58627451
0.48431373 0.48431373 0.48431373
0.48131127 0.48131127 0.48131127
0.48039216 0.48039216 0.48039216
0.48039216 0.48039216 0.48039216
0.48039216 0.48039216 0.48039216
0.48431373 0.48431373 0.48431373
0.4872549 0.4872549 0.4872549
0.49215686 0.49215686 0.49215686
0.49607843 0.49607843 0.49607843
0.50153186 0.50153186 0.50153186
0.50784314 0.50784314 0.50784314
0.51158088 0.51158088 0.51158088
0.51495098 0.51495098 0.51495098
0.51832108 0.51832108 0.51832108
0.52144608 0.52144608 0.52144608
0.52892157 0.52892157 0.52892157
0.53921569 0.53921569 0.53921569
0.5495098 0.5495098 0.5495098
0.55980392 0.55980392 0.55980392
0.57009804 0.57009804 0.57009804
0.57965686 0.57965686 0.57965686
0.58890931 0.58890931 0.58890931
0.59595588 0.59595588 0.59595588
0.6028799 0.6028799 0.6028799
0.60833333 0.60833333 0.60833333
0.52156863 0.52156863 0.52156863
0.52156863 0.52156863 0.52156863
0.52156863 0.52156863 0.52156863
0.52156863 0.52156863 0.52156863
0.52156863 0.52156863 0.52156863
0.5254902 0.5254902 0.5254902
0.52843137 0.52843137 0.52843137
0.53333333 0.53333333 0.53333333
0.5372549 0.5372549 0.5372549
0.54117647 0.54117647 0.54117647
0.54607843 0.54607843 0.54607843
0.54901961 0.54901961 0.54901961
0.55294118 0.55294118 0.55294118
0.55686275 0.55686275 0.55686275
0.55980392 0.55980392 0.55980392
0.56470588 0.56470588 0.56470588
0.57254902 0.57254902 0.57254902
0.58284314 0.58284314 0.58284314
0.59705882 0.59705882 0.59705882
0.60735294 0.60735294 0.60735294
0.61764706 0.61764706 0.61764706
0.62401961 0.62401961 0.62401961
0.63137255 0.63137255 0.63137255
0.63921569 0.63921569 0.63921569
0.64313725 0.64313725 0.64313725
0.5627451 0.5627451 0.5627451
0.5627451 0.5627451 0.5627451
0.5627451 0.5627451 0.5627451
0.5627451 0.5627451 0.5627451
0.56397059 0.56397059 0.56397059
0.56666667 0.56666667 0.56666667
0.57058824 0.57058824 0.57058824
0.5745098 0.5745098 0.5745098
0.57843137 0.57843137 0.57843137
0.58235294 0.58235294 0.58235294
0.58627451 0.58627451 0.58627451
0.58988971 0.58988971 0.58988971
0.59093137 0.59093137 0.59093137
0.59411765 0.59411765 0.59411765
0.59742647 0.59742647 0.59742647
0.60251225 0.60251225 0.60251225
0.60980392 0.60980392 0.60980392
0.62009804 0.62009804 0.62009804
0.63186275 0.63186275 0.63186275
0.64215686 0.64215686 0.64215686
0.65490196 0.65490196 0.65490196
0.66256127 0.66256127 0.66256127
0.66801471 0.66801471 0.66801471
0.67156863 0.67156863 0.67156863
0.67401961 0.67401961 0.67401961
0.60392157 0.60392157 0.60392157
0.60392157 0.60392157 0.60392157
0.60392157 0.60392157 0.60392157
0.60477941 0.60477941 0.60477941
0.60784314 0.60784314 0.60784314
0.60784314 0.60784314 0.60784314
0.61176471 0.61176471 0.61176471
0.61568627 0.61568627 0.61568627
0.61960784 0.61960784 0.61960784
0.62205882 0.62205882 0.62205882
0.62671569 0.62671569 0.62671569
0.62745098 0.62745098 0.62745098
0.63088235 0.63088235 0.63088235
0.6317402 0.6317402 0.6317402
0.63529412 0.63529412 0.63529412
0.63921569 0.63921569 0.63921569
0.64607843 0.64607843 0.64607843
0.65637255 0.65637255 0.65637255
0.66666667 0.66666667 0.66666667
0.67794118 0.67794118 0.67794118
0.68823529 0.68823529 0.68823529
0.69705882 0.69705882 0.69705882
0.7002451 0.7002451 0.7002451
0.70245098 0.70245098 0.70245098
0.70490196 0.70490196 0.70490196
0.64509804 0.64509804 0.64509804
0.64509804 0.64509804 0.64509804
0.64509804 0.64509804 0.64509804
0.64895833 0.64895833 0.64895833
0.64901961 0.64901961 0.64901961
0.64901961 0.64901961 0.64901961
0.65294118 0.65294118 0.65294118
0.65686275 0.65686275 0.65686275
0.66078431 0.66078431 0.66078431
0.66323529 0.66323529 0.66323529
0.66470588 0.66470588 0.66470588
0.66819853 0.66819853 0.66819853
0.66862745 0.66862745 0.66862745
0.67254902 0.67254902 0.67254902
0.67291667 0.67291667 0.67291667
0.67665441 0.67665441 0.67665441
0.68431373 0.68431373 0.68431373
0.69117647 0.69117647 0.69117647
0.70147059 0.70147059 0.70147059
0.71176471 0.71176471 0.71176471
0.72205882 0.72205882 0.72205882
0.72794118 0.72794118 0.72794118
0.73186275 0.73186275 0.73186275
0.73333333 0.73333333 0.73333333
0.73578431 0.73578431 0.73578431
0.68627451 0.68627451 0.68627451
0.68627451 0.68627451 0.68627451
0.68627451 0.68627451 0.68627451
0.68995098 0.68995098 0.68995098
0.69019608 0.69019608 0.69019608
0.69019608 0.69019608 0.69019608
0.69411765 0.69411765 0.69411765
0.69803922 0.69803922 0.69803922
0.7 0.7 0.7
0.70196078 0.70196078 0.70196078
0.70392157 0.70392157 0.70392157
0.70563725 0.70563725 0.70563725
0.70686275 0.70686275 0.70686275
0.70980392 0.70980392 0.70980392
0.71323529 0.71323529 0.71323529
0.71446078 0.71446078 0.71446078
0.71960784 0.71960784 0.71960784
0.72794118 0.72794118 0.72794118
0.73627451 0.73627451 0.73627451
0.74656863 0.74656863 0.74656863
0.75294118 0.75294118 0.75294118
0.75539216 0.75539216 0.75539216
0.76176471 0.76176471 0.76176471
0.76421569 0.76421569 0.76421569
0.76666667 0.76666667 0.76666667
0.72745098 0.72745098 0.72745098
0.72745098 0.72745098 0.72745098
0.72745098 0.72745098 0.72745098
0.72745098 0.72745098 0.72745098
0.73137255 0.73137255 0.73137255
0.73137255 0.73137255 0.73137255
0.73529412 0.73529412 0.73529412
0.73658088 0.73658088 0.73658088
0.73921569 0.73921569 0.73921569
0.73921569 0.73921569 0.73921569
0.73921569 0.73921569 0.73921569
0.74221814 0.74221814 0.74221814
0.74485294 0.74485294 0.74485294
0.74705882 0.74705882 0.74705882
0.75085784 0.75085784 0.75085784
0.75226716 0.75226716 0.75226716
0.75490196 0.75490196 0.75490196
0.76256127 0.76256127 0.76256127
0.77107843 0.77107843 0.77107843
0.77794118 0.77794118 0.77794118
0.78186275 0.78186275 0.78186275
0.78578431 0.78578431 0.78578431
0.78970588 0.78970588 0.78970588
0.79362745 0.79362745 0.79362745
0.79754902 0.79754902 0.79754902
0.76470588 0.76470588 0.76470588
0.76531863 0.76531863 0.76531863
0.76862745 0.76862745 0.76862745
0.76862745 0.76862745 0.76862745
0.77107843 0.77107843 0.77107843
0.77254902 0.77254902 0.77254902
0.77573529 0.77573529 0.77573529
0.77647059 0.77647059 0.77647059
0.77647059 0.77647059 0.77647059
0.77647059 0.77647059 0.77647059
0.77647059 0.77647059 0.77647059
0.77732843 0.77732843 0.77732843
0.77892157 0.77892157 0.77892157
0.7817402 0.7817402 0.7817402
0.7875 0.7875 0.7875
0.78921569 0.78921569 0.78921569
0.79313725 0.79313725 0.79313725
0.79889706 0.79889706 0.79889706
0.80490196 0.80490196 0.80490196
0.80882353 0.80882353 0.80882353
0.8127451 0.8127451 0.8127451
0.81409314 0.81409314 0.81409314
0.81960784 0.81960784 0.81960784
0.8245098 0.8245098 0.8245098
0.8254902 0.8254902 0.8254902
0.8004902 0.8004902 0.8004902
0.8004902 0.8004902 0.8004902
0.80441176 0.80441176 0.80441176
0.80802696 0.80802696 0.80802696
0.80980392 0.80980392 0.80980392
0.8122549 0.8122549 0.8122549
0.8122549 0.8122549 0.8122549
0.81078431 0.81078431 0.81078431
0.80833333 0.80833333 0.80833333
0.80833333 0.80833333 0.80833333
0.80833333 0.80833333 0.80833333
0.80833333 0.80833333 0.80833333
0.81151961 0.81151961 0.81151961
0.81617647 0.81617647 0.81617647
0.81973039 0.81973039 0.81973039
0.82401961 0.82401961 0.82401961
0.82794118 0.82794118 0.82794118
0.83186275 0.83186275 0.83186275
0.83578431 0.83578431 0.83578431
0.83792892 0.83792892 0.83792892
0.83823529 0.83823529 0.83823529
0.84215686 0.84215686 0.84215686
0.84546569 0.84546569 0.84546569
0.85055147 0.85055147 0.85055147
0.85392157 0.85392157 0.85392157
0.82745098 0.82745098 0.82745098
0.82745098 0.82745098 0.82745098
0.83137255 0.83137255 0.83137255
0.83480392 0.83480392 0.83480392
0.83921569 0.83921569 0.83921569
0.84264706 0.84264706 0.84264706
0.83921569 0.83921569 0.83921569
0.83529412 0.83529412 0.83529412
0.83137255 0.83137255 0.83137255
0.83137255 0.83137255 0.83137255
0.83137255 0.83137255 0.83137255
0.83137255 0.83137255 0.83137255
0.83529412 0.83529412 0.83529412
0.83921569 0.83921569 0.83921569
0.84313725 0.84313725 0.84313725
0.84705882 0.84705882 0.84705882
0.85098039 0.85098039 0.85098039
0.85490196 0.85490196 0.85490196
0.85882353 0.85882353 0.85882353
0.85882353 0.85882353 0.85882353
0.85882353 0.85882353 0.85882353
0.85931373 0.85931373 0.85931373
0.86568627 0.86568627 0.86568627
0.87058824 0.87058824 0.87058824
0.8745098 0.8745098 0.8745098
0.029901961 0.029901961 0.029901961
0.025980392 0.025980392 0.025980392
0.024509804 0.024509804 0.024509804
0.028125 0.028125 0.028125
0.039705882 0.039705882 0.039705882
0.053921569 0.053921569 0.053921569
0.065686275 0.065686275 0.065686275
0.066666667 0.066666667 0.066666667
0.066666667 0.066666667 0.066666667
0.072487745 0.072487745 0.072487745
0.084681373 0.084681373 0.084681373
0.10110294 0.10110294 0.10110294
0.12156863 0.12156863 0.12156863
0.14197304 0.14197304 0.14197304
0.15882353 0.15882353 0.15882353
0.17941176 0.17941176 0.17941176
0.19607843 0.19607843 0.19607843
0.2151348 0.2151348 0.2151348
0.23333333 0.23333333 0.23333333
0.25 0.25 0.25
0.26666667 0.26666667 0.26666667
0.28333333 0.28333333 0.28333333
0.30330882 0.30330882 0.30330882
0.32303922 0.32303922 0.32303922
0.33088235 0.33088235 0.33088235
0.046568627 0.046568627 0.046568627
0.045098039 0.045098039 0.045098039
0.045098039 0.045098039 0.045098039
0.048713235 0.048713235 0.048713235
0.059099265 0.059099265 0.059099265
0.070588235 0.070588235 0.070588235
0.082352941 0.082352941 0.082352941
0.083907782 0.083907782 0.083907782
0.085784314 0.085784314 0.085784314
0.091237745 0.091237745 0.091237745
0.10134804 0.10134804 0.10134804
0.11629136 0.11629136 0.11629136
0.13477328 0.13477328 0.13477328
0.15379136 0.15379136 0.15379136
0.17193627 0.17193627 0.17193627
0.19123775 0.19123775 0.19123775
0.20882353 0.20882353 0.20882353
0.22638634 0.22638634 0.22638634
0.24362745 0.24362745 0.24362745
0.26060049 0.26060049 0.26060049
0.27818627 0.27818627 0.27818627
0.29607843 0.29607843 0.29607843
0.31845895 0.31845895 0.31845895
0.34117647 0.34117647 0.34117647
0.35784314 0.35784314 0.35784314
0.072058824 0.072058824 0.072058824
0.072058824 0.072058824 0.072058824
0.072886029 0.072886029 0.072886029
0.078875613 0.078875613 0.078875613
0.085784314 0.085784314 0.085784314
0.095465686 0.095465686 0.095465686
0.10401348 0.10401348 0.10401348
0.10738358 0.10738358 0.10738358
0.11066176 0.11066176 0.11066176
0.11680453 0.11680453 0.11680453
