site/assets/luts/sha256-857902b54bd10888a28cb871fd1cf5380b63b1550146a8546d0f961b75283e7f.cube
# LUTr-Schema-Version: 2
# LUTr-ID: sha256-857902b54bd10888a28cb871fd1cf5380b63b1550146a8546d0f961b75283e7f
# LUTr-Title: lomography redscale 100
# LUTr-Collection: Natron HaldCLUT
# LUTr-Collection-ID: natron-haldclut-presets
# LUTr-Source: https://github.com/NatronGitHub/clut
# LUTr-Retrieved: 2026-07-27
# LUTr-Source-File: submissions/natron-haldclut-presets/negative_color/lomography_redscale_100.png
# LUTr-Source-Format: HALD-PNG
# LUTr-Source-SHA256: 857902b54bd10888a28cb871fd1cf5380b63b1550146a8546d0f961b75283e7f
# LUTr-License: CC-BY-SA-4.0
# LUTr-License-URL: https://github.com/NatronGitHub/clut#license
# LUTr-License-Basis: repo-license-file
# LUTr-Transform-Class: film-emulation
# LUTr-Tags: creative, film, film-emulation, hald-clut, natron, png, cube
# LUTr-Input-Color-Space: srgb
# LUTr-Input-Gamut: rec709
# LUTr-Input-Transfer: srgb
# LUTr-Output-Color-Space: srgb
# LUTr-Output-Gamut: rec709
# LUTr-Output-Transfer: srgb
# LUTr-Color-Space-Confidence: assumed-display-referred
# LUTr-Domain-Normalized: true
# LUTr-Shaper: none
# LUTr-Original-Grid: 64x64x64
# LUTr-Conversion-Grid: 25x25x25
# LUTr-Conversion-Interpolation: trilinear
# LUTr-Conversion-Method: HALD-PNG LUT image decoded at 16-bit and sampled to 25x25x25 3D CUBE
# LUTr-Conversion-Tool: LUTr scripts/convert-all-to-cube.mjs 2.0.0
# LUTr-Conversion-Date: 2026-07-27
# LUTr-Note: Preserve this metadata and the upstream license notices when redistributing.
TITLE "lomography redscale 100"
LUT_3D_SIZE 5
DOMAIN_MIN 0 0 0
DOMAIN_MAX 1 1 1
0.011764706 0.0078431373 0.011764706
0.14215686 0.0049019608 0.030392157
0.3627451 0.056862745 0.12352941
0.60294118 0.075490196 0.22843137
0.76862745 0.11764706 0.29803922
0.030392157 0.076470588 0.015686275
0.11960784 0.095098039 0.034313725
0.34313725 0.12745098 0.11764706
0.60612745 0.1627451 0.23235294
0.7872549 0.17941176 0.30980392
0.047058824 0.24705882 0.041176471
0.08872549 0.25882353 0.050980392
0.31568627 0.28627451 0.12156863
0.63186275 0.33333333 0.24264706
0.82352941 0.35098039 0.32745098
0 0.52156863 0.091176471
0 0.51372549 0.072303922
0.033823529 0.52941176 0.087254902
0.60808824 0.58921569 0.24044118
0.90784314 0.62058824 0.36568627
0 0.77254902 0.12941176
0 0.75686275 0.10588235
0.0039215686 0.76470588 0.060784314
0.021568627 0.77156863 0.070588235
0.90980392 0.89019608 0.37254902
0.054901961 0.031372549 0.073529412
0.19215686 0.034313725 0.089215686
0.41176471 0.069117647 0.15
0.62720588 0.10294118 0.23946078
0.77647059 0.11078431 0.30588235
0.068872549 0.10784314 0.092892157
0.16139706 0.12310049 0.1
0.38370098 0.15980392 0.14215686
0.63333333 0.18982843 0.24093137
0.78039216 0.20980392 0.30588235
0.042647059 0.28578431 0.12352941
0.099509804 0.29080882 0.1254902
0.34632353 0.32009804 0.14901961
0.65465686 0.36960784 0.25661765
0.84803922 0.38137255 0.33872549
0 0.52843137 0.15588235
0.0039215686 0.52916667 0.14313725
0.10735294 0.54791667 0.12830882
0.61727941 0.60471814 0.24509804
0.90784314 0.64215686 0.36862745
0 0.78529412 0.24509804
0 0.78137255 0.2129902
0 0.77009804 0.12598039
0.0053921569 0.79019608 0.059803922
0.93235294 0.8745098 0.38431373
0.090196078 0.074509804 0.22156863
0.25882353 0.081862745 0.23235294
0.4627451 0.10980392 0.23137255
0.66127451 0.14509804 0.25392157
0.80196078 0.17843137 0.31764706
0.12156863 0.16764706 0.25588235
0.21960784 0.17647059 0.26372549
0.44411765 0.2127451 0.26176471
0.67696078 0.24705882 0.275
0.82303922 0.25098039 0.3254902
0.055882353 0.34705882 0.30980392
0.14926471 0.35514706 0.31348039
0.4254902 0.39509804 0.32352941
0.70784314 0.42401961 0.29215686
0.86666667 0.43627451 0.34607843
0 0.56617647 0.3377451
0.006495098 0.56654412 0.33566176
0.21495098 0.59901961 0.35269608
0.67855392 0.65294118 0.35196078
0.90686275 0.67647059 0.36862745
0 0.78431373 0.40980392
0 0.77647059 0.39411765
0.0039215686 0.78921569 0.34313725
0.024509804 0.81960784 0.18676471
0.91372549 0.91176471 0.37843137
0.18333333 0.12156863 0.39803922
0.34803922 0.16372549 0.43137255
0.52696078 0.18333333 0.44313725
0.70784314 0.21446078 0.3745098
0.82745098 0.23529412 0.32941176
0.2252451 0.2627451 0.46078431
0.34191176 0.28137255 0.48167892
0.53296569 0.31323529 0.51176471
0.7254902 0.3379902 0.45759804
0.8497549 0.33946078 0.35514706
0.16568627 0.44313725 0.51176471
0.30098039 0.45490196 0.53504902
0.53357843 0.48112745 0.57230392
0.74546569 0.51727941 0.54411765
0.91813725 0.52696078 0.38480392
0.0022058824 0.6245098 0.52941176
0.021997549 0.63848039 0.55435049
0.41323529 0.67107843 0.60870098
0.73946078 0.71102941 0.63253676
0.96666667 0.7372549 0.42916667
0.00098039216 0.81862745 0.5745098
0.0039215686 0.8 0.56838235
0.016176471 0.79656863 0.57401961
0.063235294 0.85171569 0.55367647
0.96372549 0.9245098 0.4372549
0.34117647 0.23529412 0.56078431
0.47254902 0.3127451 0.63431373
0.61764706 0.32156863 0.66666667
0.75882353 0.34803922 0.6627451
0.8627451 0.29803922 0.39215686
0.41470588 0.40490196 0.65784314
0.49166667 0.41715686 0.67671569
0.64411765 0.44656863 0.72401961
0.77745098 0.45588235 0.71568627
0.88627451 0.46764706 0.63823529
0.44509804 0.5745098 0.72941176
0.49901961 0.57352941 0.72990196
0.65784314 0.60784314 0.78235294
0.7995098 0.61176471 0.77156863
0.92156863 0.63921569 0.74901961
0.34509804 0.73823529 0.76764706
0.44681373 0.74779412 0.79215686
0.64852941 0.77647059 0.85
0.82083333 0.79803922 0.8754902
0.93529412 0.81078431 0.86372549
0 0.84705882 0.6627451
0.0098039216 0.83431373 0.72647059
0.021568627 0.86078431 0.70392157
0.62843137 0.92352941 0.87647059
0.95686275 0.95294118 0.94901961
