site/assets/luts/sha256-4fd68ff1fcbc9fe8c5fa6ee3dd018887729c39181ea289006c7a7ae45dfc2df3.cube
# LUTr-Schema-Version: 2
# LUTr-ID: sha256-4fd68ff1fcbc9fe8c5fa6ee3dd018887729c39181ea289006c7a7ae45dfc2df3
# LUTr-Title: fuji superia 800 ++
# LUTr-Collection: Natron HaldCLUT
# LUTr-Collection-ID: natron-haldclut-presets
# LUTr-Source: https://github.com/NatronGitHub/clut
# LUTr-Retrieved: 2026-07-27
# LUTr-Source-File: submissions/natron-haldclut-presets/negative_old/fuji_superia_800_++.png
# LUTr-Source-Format: HALD-PNG
# LUTr-Source-SHA256: 4fd68ff1fcbc9fe8c5fa6ee3dd018887729c39181ea289006c7a7ae45dfc2df3
# LUTr-License: CC-BY-SA-4.0
# LUTr-License-URL: https://github.com/NatronGitHub/clut#license
# LUTr-License-Basis: repo-license-file
# LUTr-Transform-Class: film-emulation
# LUTr-Tags: creative, film, film-emulation, hald-clut, natron, png, cube
# LUTr-Input-Color-Space: srgb
# LUTr-Input-Gamut: rec709
# LUTr-Input-Transfer: srgb
# LUTr-Output-Color-Space: srgb
# LUTr-Output-Gamut: rec709
# LUTr-Output-Transfer: srgb
# LUTr-Color-Space-Confidence: assumed-display-referred
# LUTr-Domain-Normalized: true
# LUTr-Shaper: none
# LUTr-Original-Grid: 64x64x64
# LUTr-Conversion-Grid: 25x25x25
# LUTr-Conversion-Interpolation: trilinear
# LUTr-Conversion-Method: HALD-PNG LUT image decoded at 16-bit and sampled to 25x25x25 3D CUBE
# LUTr-Conversion-Tool: LUTr scripts/convert-all-to-cube.mjs 2.0.0
# LUTr-Conversion-Date: 2026-07-27
# LUTr-Note: Preserve this metadata and the upstream license notices when redistributing.
TITLE "fuji superia 800 ++"
LUT_3D_SIZE 25
DOMAIN_MIN 0 0 0
DOMAIN_MAX 1 1 1
0.074509804 0.18823529 0.19215686
0.084803922 0.18823529 0.19215686
0.095098039 0.18431373 0.19607843
0.10882353 0.18431373 0.19607843
0.12941176 0.18431373 0.19215686
0.15 0.18431373 0.1877451
0.17745098 0.18431373 0.18431373
0.21764706 0.18431373 0.18431373
0.25882353 0.18431373 0.18431373
0.29607843 0.18431373 0.18431373
0.34705882 0.18431373 0.18431373
0.40147059 0.18823529 0.18431373
0.45882353 0.18823529 0.18431373
0.51323529 0.18431373 0.18039216
0.58529412 0.18431373 0.17352941
0.65343137 0.18039216 0.16715686
0.71372549 0.18431373 0.16078431
0.75245098 0.19460784 0.15686275
0.79215686 0.20490196 0.15588235
0.83333333 0.21127451 0.1495098
0.8745098 0.21372549 0.14117647
0.91960784 0.21960784 0.13284314
0.94705882 0.23039216 0.12941176
0.96911765 0.24607843 0.12941176
0.98431373 0.25490196 0.1254902
0.074509804 0.18823529 0.19215686
0.083884804 0.18823529 0.19215686
0.095710784 0.18676471 0.19362745
0.11305147 0.18676471 0.19234069
0.13063725 0.18431373 0.18897059
0.15 0.18431373 0.1877451
0.17647059 0.18431373 0.18431373
0.21764706 0.18523284 0.18431373
0.26127451 0.18676471 0.18431373
0.30245098 0.19068627 0.18431373
0.35343137 0.19460784 0.18431373
0.41176471 0.19705882 0.18431373
0.46446078 0.19387255 0.18431373
0.51783088 0.18921569 0.18008578
0.5877451 0.19068627 0.17352941
0.65588235 0.19313725 0.16470588
0.71372549 0.19460784 0.16078431
0.75490196 0.19761029 0.15686275
0.79571078 0.20490196 0.15294118
0.83333333 0.21127451 0.1495098
0.8745098 0.22009804 0.14313725
0.9153799 0.23039216 0.13547794
0.95183824 0.24031863 0.13002451
0.97794118 0.25245098 0.1254902
0.98431373 0.25882353 0.1254902
0.074509804 0.18823529 0.18823529
0.084803922 0.18884804 0.19178922
0.099754902 0.18921569 0.19215686
0.11580882 0.19313725 0.19215686
0.13284314 0.19166667 0.18872549
0.15012255 0.19056373 0.1877451
0.18137255 0.19411765 0.18431373
0.22254902 0.19522059 0.18431373
0.26372549 0.19705882 0.18431373
0.30784314 0.20098039 0.18431373
0.35980392 0.20490196 0.18431373
0.42156863 0.20882353 0.18345588
0.47745098 0.20882353 0.17990196
0.5307598 0.20490196 0.17634804
0.59509804 0.20563725 0.16960784
0.65686275 0.20698529 0.16470588
0.71470588 0.20882353 0.16078431
0.75698529 0.20980392 0.15686275
0.79681373 0.21004902 0.15294118
0.8372549 0.22107843 0.14938725
0.8745098 0.23284314 0.14313725
0.91176471 0.24460784 0.13688725
0.95 0.25196078 0.13039216
0.98370098 0.26078431 0.12156863
0.98431373 0.26470588 0.12156863
0.06372549 0.19852941 0.18823529
0.077757353 0.20147059 0.19197304
0.092647059 0.20306373 0.19215686
0.10931373 0.20686275 0.19515931
0.12941176 0.20686275 0.19215686
0.15484069 0.21078431 0.18823529
0.19166667 0.21470588 0.18431373
0.23155637 0.21323529 0.18431373
0.27009804 0.21078431 0.18431373
0.31127451 0.21127451 0.18088235
0.3627451 0.21519608 0.18088235
0.42794118 0.21911765 0.18045343
0.48602941 0.21911765 0.17647059
0.54362745 0.21868873 0.17254902
0.60539216 0.22169118 0.16862745
0.66323529 0.22254902 0.16323529
0.725 0.22303922 0.15686275
0.76029412 0.22892157 0.15686275
0.8 0.23517157 0.15294118
0.84068627 0.24209559 0.14901961
0.88186275 0.25196078 0.14142157
0.91862745 0.26176471 0.1372549
0.94914216 0.26862745 0.13504902
0.97726716 0.28284314 0.12156863
0.98823529 0.28529412 0.11813725
0.047058824 0.22941176 0.19215686
0.051470588 0.22941176 0.19215686
0.070588235 0.22941176 0.19607843
0.094607843 0.22598039 0.19607843
0.12647059 0.22745098 0.19411765
0.16446078 0.23137255 0.1877451
0.19901961 0.23529412 0.18137255
0.23921569 0.23529412 0.18039216
0.28039216 0.23137255 0.18039216
0.31642157 0.22818627 0.18039216
0.37156863 0.23186275 0.18039216
0.44019608 0.24068627 0.18039216
0.50196078 0.24313725 0.17647059
0.55931373 0.24509804 0.17254902
0.61617647 0.24852941 0.16862745
0.67598039 0.25171569 0.16470588
0.7254902 0.25294118 0.16078431
0.76348039 0.25539216 0.15441176
0.80196078 0.26127451 0.15196078
0.84313725 0.26642157 0.14558824
0.8872549 0.27058824 0.13921569
0.92279412 0.27892157 0.13308824
0.94705882 0.29215686 0.12647059
0.97426471 0.30343137 0.11887255
0.99411765 0.31372549 0.11176471
0.026470588 0.26029412 0.19215686
0.028615196 0.25980392 0.19215686
0.039705882 0.25637255 0.19301471
0.067218137 0.25637255 0.19607843
0.11470588 0.25882353 0.19436275
0.16176471 0.25686275 0.1877451
0.20379902 0.2564951 0.18051471
0.24577206 0.25833333 0.17794118
0.29509804 0.26470588 0.18039216
0.34313725 0.27126225 0.18069853
0.39901961 0.27303922 0.18051471
0.46078431 0.27647059 0.18045343
0.52230392 0.28039216 0.17647059
0.57984069 0.28039216 0.17634804
0.63125 0.28039216 0.16862745
0.68449755 0.28382353 0.16470588
0.72598039 0.28382353 0.16078431
0.76930147 0.28204657 0.15441176
0.80821078 0.2872549 0.14901961
0.84558824 0.28468137 0.15459559
0.88627451 0.29730392 0.13921569
0.9221201 0.30392157 0.13284314
0.94705882 0.31421569 0.12647059
0.97303922 0.32794118 0.11617647
0.99558824 0.33823529 0.10980392
0.0098039216 0.29117647 0.19607843
0.0088235294 0.2872549 0.1932598
0.011029412 0.28431373 0.19215686
0.042769608 0.28946078 0.19215686
0.092156863 0.29852941 0.19607843
0.14166667 0.29803922 0.19080882
0.19436275 0.3002451 0.18137255
0.25882353 0.3060049 0.17647059
0.31568627 0.3127451 0.18039216
0.37009804 0.31727941 0.18431373
0.42352941 0.32132353 0.18137255
0.4817402 0.31764706 0.18345588
0.5377451 0.31470588 0.17647059
0.59362745 0.31470588 0.17291667
0.64509804 0.31470588 0.16642157
0.68933824 0.31470588 0.16470588
0.73235294 0.31470588 0.16078431
0.7745098 0.31372549 0.15330882
0.81397059 0.31470588 0.14828431
0.84558824 0.31862745 0.14509804
0.88480392 0.3245098 0.13921569
0.91911765 0.33088235 0.13590686
0.94607843 0.34117647 0.12647059
0.97156863 0.35245098 0.11948529
0.98921569 0.36176471 0.11372549
0 0.33823529 0.2
0 0.33578431 0.19754902
0.00098039216 0.33284314 0.19754902
0.024203431 0.33921569 0.19607843
0.071568627 0.34142157 0.19607843
0.12303922 0.34136029 0.19185049
0.18982843 0.35539216 0.18529412
0.26219363 0.36268382 0.17647059
0.33088235 0.36813725 0.17107843
0.38719363 0.37297794 0.175
0.44803922 0.37144608 0.175
0.50588235 0.36599265 0.17371324
0.55588235 0.35833333 0.17107843
0.60520833 0.346875 0.16685049
0.65208333 0.34669118 0.16470588
0.69607843 0.35006127 0.16078431
0.73872549 0.35098039 0.15686275
0.77990196 0.35098039 0.15294118
0.81678922 0.35281863 0.14803922
0.8495098 0.353125 0.14381127
0.88431373 0.35343137 0.13921569
0.91911765 0.35784314 0.13284314
0.94607843 0.36813725 0.12757353
0.97003676 0.37843137 0.12156863
0.98970588 0.38872549 0.11764706
0 0.4 0.20392157
0.0039215686 0.39852941 0.20392157
0.0049019608 0.40098039 0.20392157
0.015196078 0.40784314 0.20392157
0.043137255 0.40784314 0.2
0.085784314 0.4122549 0.19558824
0.16470588 0.41862745 0.18529412
0.25245098 0.42352941 0.175
0.3372549 0.42352941 0.16862745
0.40294118 0.42745098 0.16470588
0.46862745 0.42745098 0.15980392
0.53039216 0.43088235 0.1495098
0.58235294 0.42156863 0.14901961
0.62892157 0.40735294 0.1495098
0.66372549 0.39313725 0.15588235
0.70392157 0.38823529 0.15686275
0.74509804 0.39215686 0.15294118
0.78627451 0.39215686 0.1504902
0.82254902 0.39215686 0.14509804
0.85686275 0.39215686 0.14166667
0.88823529 0.38823529 0.1372549
0.91911765 0.38872549 0.13333333
0.94607843 0.39901961 0.13039216
0.97156863 0.40931373 0.12156863
0.99607843 0.41960784 0.11372549
0.0039215686 0.45784314 0.20784314
0.0039215686 0.46084559 0.20784314
0.0078431373 0.46666667 0.21127451
0.0093137255 0.47567402 0.20814951
0.0075980392 0.48137255 0.20122549
0.030882353 0.48167892 0.19558824
0.12647059 0.48713235 0.19068627
0.23278186 0.48921569 0.1877451
0.33186275 0.48921569 0.18137255
0.41660539 0.48529412 0.16470588
0.49166667 0.49019608 0.13958333
0.56096814 0.496875 0.12285539
0.61519608 0.49362745 0.11813725
0.65214461 0.475 0.12677696
0.68431373 0.45588235 0.13921569
0.71758578 0.44068627 0.14558824
0.75294118 0.43333333 0.1504902
0.7911152 0.43333333 0.14901961
0.82892157 0.43333333 0.14448529
0.86127451 0.42941176 0.14117647
0.89215686 0.42818627 0.13848039
0.92285539 0.42941176 0.13970588
0.94889706 0.43382353 0.13676471
0.97457108 0.44411765 0.13039216
0.99607843 0.45441176 0.12401961
0 0.51960784 0.20784314
0.0039215686 0.52352941 0.2129902
0.0068627451 0.52843137 0.22083333
0.0049019608 0.5377451 0.22156863
0.0053921569 0.54264706 0.21617647
0.019240196 0.54620098 0.21164216
0.12843137 0.54926471 0.2129902
0.23958333 0.55 0.21372549
0.33823529 0.54313725 0.20588235
0.42107843 0.53823529 0.18529412
0.49877451 0.54705882 0.15196078
0.57647059 0.55735294 0.1185049
0.64117647 0.56127451 0.092156863
0.67303922 0.53823529 0.1067402
0.70392157 0.51764706 0.12205882
0.73578431 0.50245098 0.125
0.76568627 0.48823529 0.13529412
0.79938725 0.47696078 0.14019608
0.83455882 0.4752451 0.14093137
0.86519608 0.47107843 0.14080882
0.89607843 0.46862745 0.14215686
0.92389706 0.46666667 0.14509804
0.95392157 0.47058824 0.14583333
0.97977941 0.47892157 0.14068627
0.99607843 0.48529412 0.13823529
0 0.5745098 0.21813725
0.0039215686 0.57824755 0.22892157
0.0049019608 0.58321078 0.23566176
0.0082720588 0.58970588 0.23872549
0.01127451 0.59583333 0.23872549
0.029901961 0.60147059 0.23829657
0.13541667 0.60147059 0.23480392
0.24785539 0.60147059 0.2346201
0.34117647 0.59754902 0.22647059
0.42107843 0.58970588 0.20588235
0.49718137 0.59852941 0.17990196
0.56660539 0.60238971 0.15202206
0.63014706 0.6002451 0.12401961
0.68425245 0.59307598 0.10894608
0.72156863 0.58198529 0.10036765
0.75245098 0.56666667 0.10441176
0.77990196 0.55 0.11813725
0.81078431 0.53363971 0.12843137
0.84080882 0.52205882 0.13909314
0.86911765 0.5122549 0.14803922
0.89779412 0.50808824 0.15416667
0.92696078 0.50784314 0.15545343
0.95784314 0.51078431 0.15245098
0.98694853 0.5158701 0.14883578
0.99607843 0.51960784 0.14852941
0.0039215686 0.61960784 0.24901961
0.0058823529 0.62279412 0.25539216
0.0039215686 0.62843137 0.26176471
0.0078431373 0.63676471 0.2629902
0.0088235294 0.64215686 0.25588235
0.024264706 0.64534314 0.24901961
0.13382353 0.64705882 0.25245098
0.24411765 0.64632353 0.25098039
0.3372549 0.64313725 0.24313725
0.41519608 0.63848039 0.22892157
0.48676471 0.64313725 0.20931373
0.55196078 0.64313725 0.1872549
0.61176471 0.63921569 0.1627451
0.67156863 0.63921569 0.13308824
0.73186275 0.64313725 0.088235294
0.76960784 0.63161765 0.082107843
0.79411765 0.60784314 0.10784314
0.82107843 0.58848039 0.12794118
0.84803922 0.57254902 0.14215686
0.875 0.55931373 0.15808824
0.90196078 0.55 0.17156863
0.93088235 0.54926471 0.17205882
0.96029412 0.55294118 0.16715686
0.9872549 0.55686275 0.16740196
0.99411765 0.55686275 0.17058824
0.0044117647 0.66470588 0.27941176
0.0081495098 0.66734069 0.28235294
0.0033088235 0.67389706 0.28872549
0.0077205882 0.68082108 0.29166667
0.040441176 0.68210784 0.2877451
0.096568627 0.67990196 0.28382353
0.16764706 0.68296569 0.28125
0.25618873 0.68382353 0.2745098
0.33382353 0.68431373 0.26372549
0.40637255 0.68431373 0.2495098
0.47205882 0.68296569 0.23578431
0.53382353 0.67996324 0.21856618
0.59142157 0.67647059 0.19779412
0.64901961 0.67598039 0.16911765
0.70686275 0.67598039 0.13860294
0.7653799 0.6745098 0.11139706
0.7995098 0.66029412 0.11666667
0.83137255 0.64332108 0.12616422
0.85833333 0.62806373 0.14166667
0.8848652 0.61476716 0.15588235
0.90637255 0.60098039 0.18039216
0.93431373 0.59852941 0.18878676
0.96176471 0.60245098 0.18566176
0.98547794 0.60226716 0.19479167
0.99215686 0.59852941 0.20098039
0.0078431373 0.70294118 0.30392157
0.010294118 0.71335784 0.31139706
0.015931373 0.71789216 0.31642157
0.045833333 0.71862745 0.32254902
0.10735294 0.71617647 0.31862745
0.16556373 0.71470588 0.3185049
0.2245098 0.71470588 0.31470588
0.29448529 0.71764706 0.30931373
0.36078431 0.71862745 0.29803922
0.41421569 0.71568627 0.2877451
0.47156863 0.71397059 0.27647059
0.5307598 0.71078431 0.26237745
0.58431373 0.70735294 0.24215686
0.63823529 0.70686275 0.22058824
0.69313725 0.70686275 0.19926471
0.74558824 0.70477941 0.17732843
0.79705882 0.70294118 0.14901961
0.84056373 0.70036765 0.12769608
0.87156863 0.68651961 0.13529412
0.89215686 0.67046569 0.15882353
0.9127451 0.65882353 0.18529412
0.93737745 0.65 0.20588235
0.9627451 0.65147059 0.20882353
0.98002451 0.64889706 0.22205882
0.99215686 0.64313725 0.22843137
0.029901961 0.74166667 0.33284314
0.09932598 0.75067402 0.34613971
0.10710784 0.74914216 0.34987745
0.14981618 0.74558824 0.35471814
0.19044118 0.74558824 0.35416667
0.23382353 0.74558824 0.35079657
0.28382353 0.74558824 0.34767157
0.33817402 0.7495098 0.34466912
0.3872549 0.74558824 0.34313725
0.43290441 0.74166667 0.33578431
0.48088235 0.74166667 0.32193627
0.53480392 0.74166667 0.30851716
0.58235294 0.7377451 0.29362745
0.6377451 0.7377451 0.27892157
0.68921569 0.7377451 0.26568627
0.74068627 0.7377451 0.24209559
0.79068627 0.7377451 0.2127451
0.83878676 0.7377451 0.17941176
0.875 0.73321078 0.16446078
0.89558824 0.72401961 0.18137255
0.91764706 0.7125 0.20367647
0.94234069 0.70539216 0.22303922
0.96311275 0.70208333 0.23443627
0.97941176 0.69460784 0.24993873
0.99215686 0.68823529 0.25931373
0.18039216 0.77254902 0.38431373
0.22058824 0.77647059 0.38823529
0.23235294 0.77647059 0.38823529
0.24607843 0.77254902 0.39215686
0.28431373 0.77254902 0.39215686
0.31960784 0.77254902 0.38823529
0.35784314 0.77254902 0.38823529
0.38872549 0.77254902 0.38823529
0.41960784 0.77254902 0.38039216
0.45686275 0.77009804 0.37401961
0.49411765 0.77254902 0.36372549
0.53872549 0.77254902 0.35343137
0.58627451 0.76862745 0.34705882
0.6377451 0.76862745 0.33676471
0.68921569 0.76862745 0.32647059
0.73921569 0.76862745 0.30539216
0.78823529 0.76862745 0.27843137
0.82941176 0.76470588 0.25392157
0.86176471 0.76470588 0.23529412
0.88921569 0.76078431 0.23529412
0.91568627 0.75294118 0.24509804
0.94264706 0.74901961 0.25539216
0.9627451 0.74607843 0.26960784
0.97941176 0.73970588 0.27990196
0.99607843 0.73333333 0.29019608
0.2872549 0.79705882 0.43333333
0.30931373 0.7995098 0.43241422
0.32598039 0.80098039 0.42941176
0.34871324 0.80343137 0.43314951
0.37573529 0.80343137 0.43333333
0.39852941 0.7995098 0.43204657
0.42058824 0.79705882 0.43578431
0.44656863 0.79705882 0.43578431
0.475 0.79705882 0.43186275
0.50980392 0.79558824 0.42156863
0.54154412 0.79705882 0.41519608
0.56697304 0.79705882 0.40882353
0.60490196 0.79705882 0.40294118
0.64754902 0.7973652 0.39215686
0.68627451 0.7995098 0.38186275
0.73584559 0.7995098 0.36470588
0.77794118 0.79803922 0.34656863
0.81666667 0.79558824 0.32990196
0.85147059 0.79558824 0.31029412
0.88480392 0.79197304 0.29883578
0.91176471 0.78897059 0.3004902
0.93578431 0.78363971 0.31078431
0.95637255 0.77990196 0.31715686
0.97696078 0.77542892 0.32444853
0.99607843 0.77205882 0.32745098
0.38627451 0.82254902 0.48333333
0.40196078 0.82254902 0.47941176
0.41838235 0.82573529 0.4754902
0.43737745 0.82941176 0.4754902
0.44901961 0.82794118 0.47843137
0.46568627 0.8254902 0.47990196
0.48627451 0.82254902 0.48627451
0.50833333 0.82254902 0.48688725
0.53529412 0.82156863 0.48333333
0.56176471 0.82156863 0.47585784
0.58235294 0.82156863 0.47083333
0.60294118 0.82156863 0.46507353
0.63627451 0.82205882 0.4622549
0.67107843 0.8254902 0.45110294
0.70122549 0.82647059 0.4375
0.73259804 0.82941176 0.42401961
0.77254902 0.82647059 0.41372549
0.80919118 0.82585784 0.4004902
0.84289216 0.8254902 0.38431373
0.87683824 0.82634804 0.36470588
0.90735294 0.8245098 0.35392157
0.93039216 0.8182598 0.36078431
0.95098039 0.8125 0.36470588
0.9754902 0.80968137 0.3689951
0.99215686 0.80784314 0.37254902
0.48578431 0.8495098 0.53480392
0.49215686 0.8495098 0.53216912
0.50294118 0.85 0.52696078
0.50637255 0.85 0.52395833
0.5127451 0.84803922 0.52352941
0.53088235 0.84607843 0.53088235
0.54803922 0.8495098 0.53480392
0.56881127 0.8495098 0.5372549
0.58627451 0.84607843 0.53480392
0.60655637 0.84607843 0.53088235
0.62352941 0.84607843 0.52683824
0.64068627 0.84607843 0.52261029
0.66715686 0.84607843 0.51691176
0.69803922 0.84957108 0.50680147
0.72634804 0.85 0.49607843
0.74754902 0.85 0.48578431
0.77598039 0.85 0.47941176
0.80949755 0.85 0.46519608
0.84215686 0.85 0.45
0.87303922 0.85 0.42941176
0.90220588 0.85 0.41446078
0.92647059 0.84601716 0.40931373
0.95098039 0.84558824 0.40931373
0.9754902 0.84509804 0.41127451
0.99558824 0.84509804 0.41372549
0.58039216 0.8745098 0.58627451
0.58039216 0.8745098 0.58627451
0.57843137 0.87352941 0.57843137
0.57843137 0.87058824 0.5745098
0.5872549 0.87254902 0.5754902
0.59656863 0.87058824 0.57843137
0.60539216 0.87058824 0.58039216
0.61666667 0.87058824 0.58235294
0.63137255 0.87058824 0.58235294
0.64803922 0.87058824 0.58235294
0.66372549 0.87058824 0.57990196
0.67965686 0.87058824 0.57671569
0.69901961 0.87058824 0.56960784
0.72647059 0.8745098 0.5625
0.74705882 0.8745098 0.55686275
0.76568627 0.87058824 0.54754902
0.78627451 0.87058824 0.53921569
0.81323529 0.87058824 0.52769608
0.84362745 0.87058824 0.5122549
0.86936275 0.87034314 0.49534314
0.89705882 0.87058824 0.48039216
0.92083333 0.87034314 0.47230392
0.94656863 0.87009804 0.46911765
0.97230392 0.87205882 0.4627451
0.99411765 0.8745098 0.45882353
0.6372549 0.89460784 0.6254902
0.6372549 0.89246324 0.62518382
0.63468137 0.89105392 0.62144608
0.64068627 0.8911152 0.62107843
0.64705882 0.89117647 0.62156863
0.65392157 0.89117647 0.6254902
0.66029412 0.89117647 0.6254902
0.66715686 0.89117647 0.62598039
0.68088235 0.89117647 0.62598039
0.69332108 0.89117647 0.62567402
0.70502451 0.89203431 0.6254902
0.71911765 0.89460784 0.62506127
0.73259804 0.89460784 0.62156863
0.74705882 0.89509804 0.61807598
0.76470588 0.89460784 0.61384804
0.78284314 0.89117647 0.60833333
0.80098039 0.89460784 0.59852941
0.82107843 0.89509804 0.58854167
0.84509804 0.89411765 0.57487745
0.86954657 0.89117647 0.56078431
0.89215686 0.89117647 0.55
0.91819853 0.89117647 0.540625
0.94301471 0.89117647 0.53333333
0.96715686 0.89117647 0.52696078
0.98382353 0.89460784 0.52058824
0.68137255 0.90882353 0.66372549
0.68137255 0.90784314 0.66090686
0.68161765 0.90784314 0.65882353
0.68492647 0.90784314 0.65882353
0.68970588 0.90784314 0.65931373
0.69852941 0.90882353 0.66409314
0.71102941 0.91176471 0.66960784
0.72095588 0.91176471 0.67058824
0.72941176 0.91176471 0.67058824
0.73578431 0.90992647 0.66703431
0.74313725 0.90882353 0.66372549
0.7504902 0.90882353 0.65980392
0.75686275 0.90833333 0.65588235
0.77107843 0.91176471 0.65968137
0.78529412 0.91176471 0.65882353
0.80343137 0.91176471 0.65281863
0.81862745 0.91176471 0.64313725
0.83345588 0.90992647 0.63382353
0.84803922 0.90882353 0.62426471
0.86568627 0.91139706 0.62267157
0.89019608 0.91176471 0.61421569
0.91470588 0.91176471 0.6057598
0.93848039 0.91176471 0.59901961
0.95931373 0.91176471 0.58872549
0.97352941 0.91176471 0.58235294
0.72745098 0.9245098 0.7
0.72745098 0.92303922 0.69852941
0.72745098 0.92303922 0.69669118
0.73106618 0.92432598 0.7
0.73406863 0.9245098 0.7
0.74362745 0.92481618 0.70422794
0.7495098 0.92696078 0.70526961
0.75196078 0.92303922 0.70098039
0.75588235 0.92303922 0.70098039
0.7622549 0.92303922 0.69761029
0.76764706 0.91911765 0.69215686
0.77107843 0.91911765 0.68676471
0.78137255 0.92107843 0.69142157
0.79558824 0.92481618 0.69871324
0.80919118 0.92843137 0.7
0.82401961 0.92843137 0.69460784
0.83676471 0.92696078 0.68284314
0.84313725 0.92150735 0.66709559
0.85441176 0.91948529 0.65968137
0.8713848 0.92303922 0.66421569
0.89093137 0.92696078 0.66544118
0.91078431 0.92843137 0.66568627
0.93321078 0.92843137 0.65686275
0.94901961 0.92843137 0.64803922
0.96323529 0.92843137 0.64803922
0.76470588 0.9372549 0.73333333
0.76470588 0.9372549 0.72941176
0.76470588 0.9372549 0.72941176
0.76813725 0.9372549 0.73284314
0.77843137 0.94117647 0.73921569
0.77254902 0.93676471 0.72892157
0.76862745 0.93333333 0.72254902
0.76470588 0.92941176 0.71617647
0.76862745 0.92941176 0.71372549
0.77892157 0.92941176 0.72009804
0.78431373 0.92941176 0.71372549
0.79166667 0.92941176 0.71715686
0.80196078 0.93333333 0.72352941
0.81617647 0.9372549 0.72598039
0.83039216 0.94117647 0.73627451
0.84068627 0.94117647 0.73039216
0.84705882 0.9372549 0.71372549
0.85343137 0.93333333 0.70196078
0.86470588 0.93333333 0.69411765
0.88137255 0.93333333 0.69803922
0.89607843 0.9372549 0.70196078
0.91078431 0.94117647 0.70245098
0.92745098 0.94215686 0.70294118
0.94264706 0.94117647 0.69411765
0.95686275 0.94117647 0.69411765
0.080882353 0.18823529 0.19460784
0.084803922 0.18431373 0.19552696
0.092647059 0.18431373 0.19607843
0.10667892 0.18186275 0.19607843
0.12696078 0.18431373 0.19338235
0.15 0.18431373 0.18805147
0.17647059 0.18431373 0.18431373
0.21764706 0.18431373 0.18676471
0.25637255 0.18431373 0.18431373
0.29454657 0.18039216 0.18431373
0.3442402 0.18431373 0.18431373
0.40147059 0.18560049 0.18431373
0.46004902 0.1870098 0.18431373
0.51666667 0.18431373 0.18039216
0.58529412 0.18247549 0.17536765
0.65098039 0.17947304 0.17107843
0.71127451 0.18039216 0.17107843
0.75245098 0.19068627 0.16323529
0.79215686 0.20098039 0.15833333
0.83333333 0.20784314 0.15165441
0.8745098 0.21176471 0.14754902
0.91323529 0.2158701 0.14313725
0.94644608 0.22647059 0.13676471
0.97156863 0.24307598 0.13094363
0.99068627 0.25490196 0.12941176
0.078431373 0.18823529 0.19460784
0.084803922 0.18543964 0.19460784
0.095098039 0.18492647 0.19607843
0.11000306 0.18676471 0.1952742
0.12941176 0.18431373 0.1916973
0.14743413 0.18431373 0.18805147
0.17356005 0.18431373 0.18431373
0.21707261 0.18523284 0.18523284
0.25882353 0.18676471 0.18584559
0.30057445 0.19068627 0.18431373
0.35143995 0.19460784 0.18584559
0.4091299 0.19460784 0.18450521
0.46519608 0.19310662 0.18431373
0.51942402 0.18921569 0.17997089
0.58590686 0.19068627 0.17536765
0.65216759 0.19034161 0.17107843
0.70980392 0.19068627 0.16807598
0.75432751 0.19460784 0.16323529
0.79607843 0.20245098 0.1564951
0.83363971 0.2091299 0.15165441
0.87374387 0.21617647 0.14754902
0.91224724 0.22555147 0.14362745
0.94731924 0.23653493 0.13860294
0.97698376 0.24944853 0.13059896
0.98915441 0.25735294 0.12794118
0.076348039 0.18823529 0.19276961
0.084053309 0.18907782 0.19215686
0.097028186 0.19203431 0.19460784
0.11292892 0.19313725 0.19223346
0.12996324 0.19313725 0.19105392
0.14977022 0.19033395 0.18809743
0.17754289 0.19411765 0.18492647
0.22041973 0.19522059 0.18676471
0.26311275 0.19705882 0.18676471
0.30784314 0.20098039 0.18676471
0.35882353 0.20490196 0.18676471
0.41703431 0.2069087 0.18676471
0.47518382 0.20563725 0.18357843
0.53333333 0.20490196 0.1786152
0.59145221 0.20563725 0.175
0.65294118 0.20526961 0.17107843
