site/assets/luts/sha256-adc84e6300aaac69efd1558e3338d9efb307b397f371904e206f1ef54c472aa9.cube
# LUTr-Schema-Version: 2
# LUTr-ID: sha256-adc84e6300aaac69efd1558e3338d9efb307b397f371904e206f1ef54c472aa9
# LUTr-Title: polaroid px-70 +
# LUTr-Collection: Natron HaldCLUT
# LUTr-Collection-ID: natron-haldclut-presets
# LUTr-Source: https://github.com/NatronGitHub/clut
# LUTr-Retrieved: 2026-07-27
# LUTr-Source-File: submissions/natron-haldclut-presets/instant_consumer/polaroid_px-70_+.png
# LUTr-Source-Format: HALD-PNG
# LUTr-Source-SHA256: adc84e6300aaac69efd1558e3338d9efb307b397f371904e206f1ef54c472aa9
# LUTr-License: CC-BY-SA-4.0
# LUTr-License-URL: https://github.com/NatronGitHub/clut#license
# LUTr-License-Basis: repo-license-file
# LUTr-Transform-Class: film-emulation
# LUTr-Tags: creative, film, film-emulation, hald-clut, natron, png, cube
# LUTr-Input-Color-Space: srgb
# LUTr-Input-Gamut: rec709
# LUTr-Input-Transfer: srgb
# LUTr-Output-Color-Space: srgb
# LUTr-Output-Gamut: rec709
# LUTr-Output-Transfer: srgb
# LUTr-Color-Space-Confidence: assumed-display-referred
# LUTr-Domain-Normalized: true
# LUTr-Shaper: none
# LUTr-Original-Grid: 64x64x64
# LUTr-Conversion-Grid: 25x25x25
# LUTr-Conversion-Interpolation: trilinear
# LUTr-Conversion-Method: HALD-PNG LUT image decoded at 16-bit and sampled to 25x25x25 3D CUBE
# LUTr-Conversion-Tool: LUTr scripts/convert-all-to-cube.mjs 2.0.0
# LUTr-Conversion-Date: 2026-07-27
# LUTr-Note: Preserve this metadata and the upstream license notices when redistributing.
TITLE "polaroid px-70 +"
LUT_3D_SIZE 9
DOMAIN_MIN 0 0 0
DOMAIN_MAX 1 1 1
0.12156863 0.26666667 0.23921569
0.13676471 0.26323529 0.23921569
0.16764706 0.25882353 0.23921569
0.20490196 0.25245098 0.23921569
0.33333333 0.25490196 0.23529412
0.55294118 0.27598039 0.22990196
0.79803922 0.3372549 0.21078431
0.9495098 0.45686275 0.19264706
0.99215686 0.55686275 0.21960784
0.11764706 0.2627451 0.23921569
0.13676471 0.26666667 0.23921569
0.17156863 0.26666667 0.23921569
0.21617647 0.25882353 0.23921569
0.36004902 0.27009804 0.23529412
0.59705882 0.29656863 0.22745098
0.8067402 0.37463235 0.20686275
0.94607843 0.47898284 0.18523284
0.99607843 0.57990196 0.20392157
0.11078431 0.26764706 0.23921569
0.14068627 0.28088235 0.23921569
0.17156863 0.27916667 0.23921569
0.25980392 0.29276961 0.23529412
0.40098039 0.30637255 0.22990196
0.61654412 0.35 0.21629902
0.83431373 0.43137255 0.19117647
0.95 0.525 0.16997549
0.99215686 0.60294118 0.19607843
0.051470588 0.35637255 0.23137255
0.1122549 0.35441176 0.23314951
0.16654412 0.37843137 0.22892157
0.29068627 0.37843137 0.22745098
0.45980392 0.4 0.21446078
0.66133578 0.44656863 0.2
0.83235294 0.51556373 0.17365196
0.93841912 0.59019608 0.16060049
0.99362745 0.65196078 0.19852941
0.0058823529 0.49411765 0.21960784
0.019362745 0.49607843 0.21593137
0.15735294 0.5 0.21421569
0.33235294 0.51029412 0.21053922
0.52941176 0.54117647 0.19705882
0.70759804 0.58333333 0.17107843
0.83823529 0.62254902 0.14313725
0.92083333 0.65343137 0.15245098
0.9627451 0.67843137 0.15294118
0.07254902 0.67647059 0.21078431
0.12628676 0.65441176 0.21501225
0.27879902 0.66372549 0.20502451
0.44166667 0.66862745 0.22015931
0.58676471 0.68431373 0.20735294
0.72591912 0.70091912 0.1838848
0.83823529 0.72696078 0.17953431
0.91470588 0.7495098 0.20165441
0.94509804 0.75343137 0.21078431
0.46176471 0.80980392 0.27058824
0.4245098 0.78737745 0.25306373
0.48137255 0.7872549 0.26004902
0.54681373 0.79117647 0.25906863
0.65686275 0.79754902 0.26127451
0.76164216 0.80294118 0.29129902
0.84509804 0.81544118 0.28259804
0.90196078 0.82941176 0.30637255
0.95588235 0.84117647 0.34411765
0.6495098 0.87156863 0.39460784
0.64607843 0.86764706 0.38284314
0.66813725 0.87156863 0.38186275
0.69509804 0.86390931 0.39460784
0.75073529 0.86789216 0.40490196
0.80422794 0.8754902 0.41942402
0.85257353 0.88333333 0.4254902
0.89509804 0.89074755 0.43382353
0.92941176 0.89117647 0.45686275
0.81176471 0.9254902 0.5254902
0.8 0.92156863 0.51029412
0.81470588 0.9254902 0.5245098
0.82745098 0.9254902 0.5254902
0.84509804 0.92352941 0.53333333
0.86813725 0.92696078 0.53872549
0.89509804 0.92941176 0.54117647
0.91813725 0.93333333 0.55294118
0.9254902 0.93333333 0.55294118
0.1254902 0.26666667 0.24313725
0.13333333 0.2627451 0.24313725
0.15588235 0.25490196 0.24313725
0.19283088 0.25098039 0.23921569
0.35073529 0.26102941 0.23921569
0.57745098 0.28118873 0.23743873
0.82205882 0.34411765 0.22218137
0.94650735 0.47205882 0.21519608
1 0.56813725 0.22696078
0.1254902 0.26666667 0.24313725
0.13332567 0.2627451 0.24313725
0.16001838 0.25850184 0.24313725
0.22647059 0.2627451 0.24264706
0.3669424 0.27205882 0.23921569
0.60686275 0.29507506 0.233678
0.83337929 0.37892157 0.21813725
0.95397518 0.49073989 0.20827206
0.99607843 0.58425245 0.23823529
0.1185049 0.27647059 0.24007353
0.13382353 0.28431373 0.23921569
0.17113971 0.28137255 0.23921569
0.26090686 0.29829963 0.23921569
0.41727941 0.31158088 0.23529412
0.63253676 0.35022978 0.22575061
0.8325674 0.4372549 0.20808824
0.95392157 0.53998162 0.20355392
0.99215686 0.61421569 0.23480392
0.087561275 0.35147059 0.23658088
0.12420343 0.35206801 0.23684896
0.18186275 0.37365196 0.23529412
0.30478707 0.38480392 0.23346354
0.47647059 0.41348039 0.22598039
0.67113971 0.44008119 0.20654871
0.83743873 0.51141238 0.18463542
0.94607843 0.59253983 0.18382353
0.99215686 0.65980392 0.23057598
0.019362745 0.50588235 0.22720588
0.059650735 0.51326593 0.22349877
0.19283088 0.50802696 0.2252451
0.36004902 0.52941176 0.22588848
0.53897059 0.55661765 0.20943627
0.71642157 0.58455882 0.18137255
0.83866422 0.62058824 0.1848652
0.93088235 0.665625 0.17573529
0.95931373 0.68651961 0.19215686
0.14589461 0.67401961 0.22843137
0.21227788 0.68183977 0.22322304
0.32999387 0.67449449 0.23181679
0.45686275 0.67928156 0.23223805
0.60612745 0.6997549 0.21657475
0.73669577 0.70784314 0.21666667
0.83965993 0.73088235 0.21371017
0.91844363 0.74981618 0.22013634
0.96617647 0.76372549 0.25343137
0.46519608 0.80980392 0.27696078
0.46862745 0.80249694 0.27781863
0.51164216 0.79938725 0.27760417
0.58351716 0.79117647 0.29747243
0.66985294 0.79901961 0.29215686
0.77231924 0.80782782 0.29889706
0.84129902 0.81544118 0.31020221
0.90663297 0.83344056 0.3254902
0.93578431 0.83431373 0.34803922
0.66127451 0.8754902 0.39803922
0.66814491 0.87194393 0.40147059
0.68109681 0.87156863 0.40856311
0.70873928 0.87156863 0.41415441
0.75073529 0.8754902 0.42503064
0.80765931 0.87941176 0.43333333
0.85245098 0.8872549 0.43633578
0.89859069 0.89074755 0.44939491
0.94117647 0.89852941 0.47248775
0.81127451 0.9254902 0.525
0.80392157 0.92156863 0.51758578
0.82009804 0.9254902 0.52598039
0.83382353 0.9254902 0.53314951
0.84901961 0.9254902 0.53921569
0.86685049 0.92420343 0.53235294
0.89117647 0.92561275 0.53480392
0.91856618 0.93376225 0.56078431
0.93676471 0.9372549 0.56813725
0.12254902 0.2627451 0.25098039
0.13982843 0.25882353 0.25098039
0.15514706 0.25490196 0.24705882
0.20232843 0.25098039 0.24705882
0.34803922 0.25490196 0.25098039
0.61078431 0.25919118 0.25784314
0.84019608 0.31764706 0.25857843
0.95735294 0.49203431 0.27598039
0.99901961 0.59313725 0.30294118
0.13333333 0.2627451 0.25098039
0.1372549 0.25931373 0.25
0.16072304 0.25747549 0.24963235
0.23431373 0.26585478 0.25
0.38535539 0.26672794 0.25392157
0.64901961 0.29816176 0.25784314
0.84791667 0.39191176 0.26495098
0.95784314 0.51372549 0.27325368
0.99264706 0.59901961 0.30306373
0.12867647 0.28112745 0.25
0.13673407 0.28333333 0.24607843
0.18823529 0.28921569 0.25
0.2760723 0.3010723 0.25098039
0.44865196 0.31715686 0.25392157
0.6666973 0.36973039 0.25784314
0.86047794 0.45955882 0.26170343
0.95833333 0.56335784 0.26997549
0.9872549 0.60882353 0.28651961
0.10367647 0.36948529 0.25036765
0.14355086 0.38601409 0.25
0.21896446 0.38262868 0.25392157
0.33344056 0.39523591 0.25392157
0.50392157 0.41194853 0.24607843
0.70441176 0.45545343 0.23895527
0.8560049 0.53465074 0.23872549
0.94344363 0.60886949 0.2558364
0.98860294 0.67267157 0.29264706
0.11960784 0.53431373 0.25343137
0.13633578 0.52285539 0.24644608
0.25196078 0.52647059 0.25379902
0.39080882 0.54558824 0.25147059
0.55906863 0.56666667 0.24534314
0.73308824 0.59920343 0.22794118
0.85245098 0.64154412 0.23039216
0.92647059 0.67414216 0.24595588
0.97647059 0.71078431 0.27941176
0.25894608 0.68872549 0.26507353
0.29803922 0.68564645 0.26046262
0.38210784 0.68578431 0.26452206
0.49143689 0.69123775 0.27208946
0.63082108 0.70514706 0.27279412
0.75304841 0.71816789 0.26456801
0.84653799 0.73848039 0.26544118
0.92023591 0.75214461 0.27352941
0.96678922 0.76703431 0.30686275
0.48995098 0.80686275 0.31960784
0.50266544 0.80294118 0.31547181
0.53161765 0.79901961 0.30851716
0.60245098 0.79647672 0.33265931
0.68615196 0.8067402 0.34166667
0.77530637 0.81326593 0.34215686
0.84901961 0.82291667 0.34730392
0.91066176 0.83468137 0.3622549
0.93921569 0.8372549 0.38529412
0.67990196 0.8754902 0.42438725
0.68000919 0.87156863 0.4245098
0.68710172 0.86764706 0.42193627
0.73155637 0.8751685 0.44241728
0.775 0.87898284 0.44767157
0.81360294 0.88069853 0.45543811
0.85379902 0.88716299 0.45952819
0.89852941 0.89466912 0.47113971
0.92120098 0.89509804 0.47977941
0.8245098 0.92647059 0.53823529
0.81875 0.9254902 0.52977941
0.82254902 0.9245098 0.53161765
0.83676471 0.92438725 0.53688725
0.85441176 0.9254902 0.54117647
0.87205882 0.92585784 0.54840686
0.89803922 0.92941176 0.55661765
0.91764706 0.93284314 0.55637255
0.92941176 0.9254902 0.54215686
0.11372549 0.25490196 0.25490196
0.14491422 0.25667892 0.25882353
0.17585784 0.2567402 0.26066176
0.25300245 0.26911765 0.26911765
0.35563725 0.26593137 0.27303922
0.62199755 0.25343137 0.2872549
0.85441176 0.2817402 0.30968137
0.96911765 0.4286152 0.33498775
1 0.61127451 0.39068627
0.14099265 0.26256127 0.26519608
0.15398284 0.26070006 0.26315104
0.2029565 0.26827512 0.26881127
0.2484758 0.27555147 0.2683364
0.40147059 0.28710172 0.28259804
0.64234069 0.28705576 0.29725797
0.86435355 0.33688725 0.31470588
0.96374847 0.4872549 0.34656863
1 0.65330882 0.40557598
0.13786765 0.29669118 0.27696078
0.15828738 0.29304534 0.27487745
0.21283701 0.30064338 0.27487745
0.31101409 0.31772365 0.28074449
0.46813725 0.33020833 0.28872549
0.6939185 0.36300551 0.30663297
0.87561275 0.47193627 0.33137255
0.95735294 0.60084252 0.37040441
0.98823529 0.68382353 0.41164216
0.13033088 0.38088235 0.28633578
0.15991881 0.39234069 0.28633578
0.24204963 0.39411765 0.29025735
0.37465533 0.41043964 0.29360447
0.55294118 0.4370098 0.29901961
0.73494945 0.48186275 0.30778186
0.86960784 0.5725337 0.33020833
0.93823529 0.64607843 0.3608992
0.98039216 0.70686275 0.39466912
0.19705882 0.53602941 0.3004902
0.24558824 0.53529412 0.2997549
0.33063725 0.54613971 0.30251225
0.45395221 0.55658701 0.30640319
0.60294118 0.56960784 0.30392157
0.75343137 0.60193015 0.29993873
0.86176471 0.65588235 0.31936275
0.93014706 0.70098039 0.34641544
0.98161765 0.74362745 0.39093137
0.40625 0.69454657 0.33970588
0.43345588 0.7 0.33449755
0.46070772 0.69460784 0.32463235
0.53823529 0.69607843 0.32817096
0.65490196 0.70560662 0.33670343
0.76689645 0.72107843 0.33670343
0.86254596 0.74379596 0.3372549
0.92469363 0.75314032 0.33627451
0.96078431 0.77794118 0.37984069
0.58529412 0.81078431 0.39068627
0.56279105 0.80686275 0.37046569
0.59261642 0.80477941 0.37254902
0.64912684 0.80755208 0.38541667
0.71421569 0.80833333 0.39381127
0.78284314 0.81580882 0.40502451
0.85294118 0.82858456 0.41020221
0.913894 0.83431373 0.40981924
0.94620098 0.8372549 0.42855392
0.71421569 0.8754902 0.46470588
0.6995098 0.87156863 0.45539216
0.72075674 0.87855392 0.45850184
0.74821538 0.8754902 0.4650046
0.78596814 0.87907475 0.4754902
0.81813725 0.87941176 0.48216912
0.86122855 0.88688725 0.48578431
0.9127451 0.89090839 0.48805147
0.94362745 0.90294118 0.50980392
0.81960784 0.91911765 0.5372549
0.82224265 0.92156863 0.53970588
0.83382353 0.9254902 0.54362745
0.84258578 0.9254902 0.54509804
0.86176471 0.92671569 0.55269608
0.8745098 0.92401961 0.55294118
0.8872549 0.92193627 0.55294118
0.92156863 0.93333333 0.56470588
0.94509804 0.93872549 0.58186275
0.15098039 0.25882353 0.3
0.18137255 0.2627451 0.30392157
0.25980392 0.27401961 0.30980392
0.35955882 0.29460784 0.31372549
0.45980392 0.31470588 0.32745098
0.61887255 0.30588235 0.34142157
0.84656863 0.31862745 0.38578431
0.95441176 0.44558824 0.41617647
0.99607843 0.55098039 0.4372549
0.15882353 0.28186275 0.31348039
0.1950674 0.27797181 0.31348039
0.25778186 0.28265931 0.31151961
0.37083333 0.30392157 0.32530637
0.48529412 0.33529412 0.33872549
0.64745711 0.34598652 0.35441176
0.85245098 0.37432598 0.39509804
0.96568627 0.47769608 0.42202819
0.99656863 0.5870098 0.44583333
0.14705882 0.32009804 0.32745098
0.19417892 0.31672794 0.33327206
0.27855392 0.33345588 0.33786765
0.41213235 0.35870098 0.3463848
0.53970588 0.39338235 0.35490196
0.69558824 0.41188725 0.37303922
0.85980392 0.47095588 0.40098039
0.95637255 0.56109069 0.43333333
0.98137255 0.66813725 0.46764706
0.10441176 0.41642157 0.34436275
0.15637255 0.41568627 0.34491422
0.26795343 0.41862745 0.34828431
0.45003064 0.4502451 0.35977328
0.61115196 0.49509804 0.37340686
0.74408701 0.52601103 0.38823529
0.87377451 0.59019608 0.41856618
0.93560049 0.66593137 0.44754902
0.97328431 0.74730392 0.49264706
0.21176471 0.55882353 0.36764706
0.25220588 0.55294118 0.35992647
0.36715686 0.56127451 0.36813725
0.5004902 0.57120098 0.37843137
0.64901961 0.60098039 0.39166667
0.77647059 0.63247549 0.39803922
0.86495098 0.6752451 0.41715686
0.92512255 0.72647059 0.44460784
0.96470588 0.7754902 0.47745098
0.42058824 0.7 0.39436275
0.45260417 0.70177696 0.39901961
0.51881127 0.70784314 0.40294118
0.6 0.71026348 0.40857843
0.69436275 0.72193627 0.41776961
0.79188113 0.73382353 0.41715686
0.86078431 0.75196078 0.42622549
0.91862745 0.77401961 0.43838848
0.96004902 0.79558824 0.46004902
0.61862745 0.81078431 0.44607843
0.63615196 0.81372549 0.44656863
0.65588235 0.80686275 0.44693627
0.68970588 0.80778186 0.44564951
0.74313725 0.81397059 0.45612745
0.80147059 0.82310049 0.46047794
0.85759804 0.8372549 0.46433824
0.91470588 0.83333333 0.46862745
0.94705882 0.8377451 0.47843137
0.74460784 0.88112745 0.50490196
0.7448223 0.8754902 0.49751838
0.75563725 0.87156863 0.49699755
0.77411152 0.87941176 0.50490196
0.80196078 0.87916667 0.50882353
0.83161765 0.88710172 0.51666667
0.87579657 0.89117647 0.52052696
0.91467525 0.89139093 0.52101716
0.94460784 0.89509804 0.53406863
0.8372549 0.92352941 0.55490196
0.8372549 0.92156863 0.55294118
0.84313725 0.9254902 0.55490196
0.85343137 0.9254902 0.55931373
0.86372549 0.92156863 0.56078431
0.86470588 0.91372549 0.55147059
0.89166667 0.92254902 0.56127451
0.92377451 0.93161765 0.57083333
0.94117647 0.93333333 0.57843137
0.2372549 0.27598039 0.3995098
0.27205882 0.2723652 0.39411765
0.37205882 0.29178922 0.40306373
0.50582108 0.32640931 0.41464461
0.63627451 0.41078431 0.42941176
0.75140931 0.48425245 0.44656863
0.83970588 0.45159314 0.46090686
0.94001225 0.5254902 0.49332108
0.98039216 0.5495098 0.50343137
0.2372549 0.29460784 0.41194853
0.29273131 0.29901961 0.41356464
0.38013174 0.3084712 0.41675858
0.51604626 0.34803922 0.42218903
0.65867034 0.44108456 0.43691789
0.75931373 0.50256587 0.44993873
0.85111826 0.49901961 0.47058824
0.94460784 0.54770987 0.49362745
0.9903799 0.63578431 0.51666667
0.22401961 0.35085784 0.43235294
0.27362132 0.34914216 0.43517157
0.3950674 0.37046569 0.43716299
0.54785539 0.4089614 0.44450061
0.68333333 0.4995098 0.45477941
0.76973039 0.56421569 0.4600337
0.85821078 0.56568627 0.47843137
0.94024203 0.5995098 0.49750306
0.97647059 0.66764706 0.51568627
0.14160539 0.4721201 0.44117647
0.22585018 0.46372549 0.43578431
0.37009804 0.47012868 0.44411765
0.55415135 0.51135876 0.45504749
0.70245098 0.58504902 0.4666973
0.79463082 0.6442019 0.47477022
0.87624081 0.65281863 0.49595588
0.93265165 0.68333333 0.50901501
0.96862745 0.7372549 0.52696078
0.23676471 0.59877451 0.45343137
0.28284314 0.59362745 0.44779412
0.38731618 0.59099265 0.44901961
0.51197917 0.60150123 0.45934436
0.70490196 0.6504902 0.47892157
0.8122549 0.69338235 0.48676471
0.87132353 0.71703431 0.49932598
0.92141544 0.75147059 0.51822917
0.96004902 0.80465686 0.54460784
0.43719363 0.71084559 0.47408088
0.47647059 0.71457567 0.46727175
0.52052696 0.71383272 0.46715686
0.61231618 0.71960784 0.47745098
0.71397059 0.73532475 0.48602941
0.80464154 0.75547641 0.49460784
0.86539522 0.77794118 0.50526961
0.91685049 0.8087546 0.5286152
0.94362745 0.82107843 0.53088235
0.60992647 0.81188725 0.48982843
0.63319547 0.81377145 0.49434743
0.65867034 0.80989583 0.49402574
0.70980392 0.81470588 0.50349265
0.76580882 0.81862745 0.50833333
0.81715686 0.82941176 0.51505821
0.8638174 0.8372549 0.51948529
0.91073836 0.84566483 0.5245098
0.95539216 0.8495098 0.52512255
0.74705882 0.87941176 0.52775735
0.74748775 0.87506127 0.53137255
0.75784314 0.87562806 0.52794118
0.79325214 0.88150276 0.53137255
0.82224265 0.88284314 0.54117647
0.84901961 0.88934589 0.54816942
0.88177083 0.89407169 0.55098039
0.91078431 0.89460784 0.55496324
0.94509804 0.89479167 0.5591299
0.84705882 0.9254902 0.56862745
0.85147059 0.9254902 0.56881127
0.8560049 0.9254902 0.56973039
0.8627451 0.92303922 0.57009804
0.86936275 0.92156863 0.57009804
0.87598039 0.91856618 0.57009804
0.90355392 0.92830882 0.58039216
0.92598039 0.93333333 0.58970588
0.94117647 0.9372549 0.59607843
0.4127451 0.29901961 0.53823529
0.46384804 0.32340686 0.53039216
0.55514706 0.35171569 0.5372549
0.67745098 0.41017157 0.54301471
0.79068627 0.51078431 0.5504902
0.84019608 0.64117647 0.54019608
0.88897059 0.6872549 0.55
0.92990196 0.66813725 0.55098039
0.96764706 0.68333333 0.55882353
0.43026961 0.36666667 0.52941176
0.47124694 0.35061275 0.54803922
0.5557598 0.37941176 0.54019608
0.68382353 0.42691483 0.55243566
0.78890931 0.53933824 0.55202206
0.84411765 0.65503983 0.54411765
0.88897059 0.69114583 0.54705882
0.92990196 0.68321078 0.55522365
0.96029412 0.70490196 0.56176471
0.42181373 0.41960784 0.54803922
0.43661152 0.40931373 0.55416667
0.55098039 0.44332108 0.54803922
0.68762255 0.50143995 0.54803922
0.7932598 0.59313725 0.55588235
0.8495098 0.70526961 0.55088848
0.88504902 0.72058824 0.55098039
0.92303922 0.7127451 0.55719975
0.95588235 0.73039216 0.55882353
0.40955882 0.54607843 0.54901961
0.44289216 0.54197304 0.54803922
0.53468137 0.55021446 0.55379902
0.67009804 0.58883272 0.54803922
0.78553922 0.65686275 0.55490196
0.84767157 0.73287377 0.55121017
0.88777574 0.76911765 0.55784314
0.9185815 0.75133272 0.56176471
0.95686275 0.7754902 0.56237745
0.29852941 0.63872549 0.53529412
0.35588235 0.63921569 0.53627451
0.46433824 0.64742647 0.53737745
0.61973039 0.66488971 0.54503676
0.76348039 0.69828431 0.55441176
0.8377451 0.75949755 0.55459559
0.88431373 0.80269608 0.56176471
0.91439951 0.79234069 0.56311275
0.93872549 0.81617647 0.56960784
0.47071078 0.73811275 0.53921569
0.49473039 0.73783701 0.53615196
0.54690564 0.73452819 0.54240196
0.62234988 0.73466605 0.54313725
0.71335784 0.74368873 0.54705882
0.82421875 0.78616728 0.55098039
0.8810049 0.82515319 0.55784314
0.91421569 0.83423713 0.56703431
0.94264706 0.85098039 0.57745098
0.62843137 0.82156863 0.54313725
0.63529412 0.82156863 0.54641544
0.66881127 0.81862745 0.54387255
0.70652574 0.81706495 0.54705882
0.77009804 0.82328431 0.54901961
0.82598039 0.8372549 0.55808824
0.87254902 0.84920343 0.56011029
0.91421569 0.8689951 0.5698223
0.94877451 0.88039216 0.58308824
0.74803922 0.88419118 0.55490196
0.75215993 0.879519 0.55833333
0.76326593 0.87941176 0.55833333
0.79215686 0.88296569 0.5622549
0.82671569 0.88547794 0.56979167
0.86078431 0.89094669 0.57401961
0.89129902 0.89966299 0.57784926
0.91824449 0.90343137 0.58196998
0.94509804 0.90735294 0.58933824
0.84705882 0.9254902 0.58039216
0.85098039 0.92941176 0.58137255
0.85588235 0.92720588 0.58431373
0.86519608 0.9254902 0.58492647
0.88627451 0.92941176 0.58921569
0.89803922 0.92941176 0.59607843
0.90294118 0.91862745 0.58823529
0.92990196 0.93333333 0.60098039
0.94901961 0.94117647 0.61176471
0.62990196 0.43921569 0.63137255
0.65692402 0.47359069 0.62015931
0.70453431 0.49215686 0.61973039
0.79283088 0.56096814 0.61960784
0.83995098 0.63186275 0.60637255
0.88431373 0.74705882 0.59313725
0.91127451 0.80992647 0.59264706
0.93817402 0.80974265 0.59264706
0.95686275 0.79411765 0.59264706
0.63431373 0.48872549 0.62794118
0.6651348 0.49559589 0.62794118
0.72591912 0.53872549 0.62401961
0.78661918 0.58752298 0.61764706
0.84365809 0.66617647 0.6004902
0.88801317 0.74947151 0.59901961
0.91127451 0.81303615 0.59264706
0.93731618 0.8136106 0.59264706
0.95294118 0.80147059 0.59656863
0.61875 0.55294118 0.62365196
0.64993873 0.54695159 0.62365196
0.71286765 0.58422181 0.61617647
0.78627451 0.64122243 0.6122549
0.84387255 0.70294118 0.60441176
0.88431373 0.77156863 0.59656863
0.91023284 0.81755515 0.59264706
0.92990196 0.83492647 0.59564951
0.94509804 0.81715686 0.59607843
0.60765931 0.62126225 0.61617647
0.63560049 0.63253676 0.60855545
0.69901961 0.64509804 0.6097886
0.7786152 0.68204657 0.61072304
0.84132966 0.7370098 0.60450368
0.88186275 0.78976716 0.59656863
0.91122855 0.83097426 0.59264706
0.93033088 0.85414369 0.59656863
0.94901961 0.84019608 0.59656863
0.56789216 0.70710784 0.60441176
0.59286152 0.71323529 0.60291054
0.66599265 0.71636029 0.60098039
0.75539216 0.73112745 0.60245098
0.81948529 0.75992647 0.6004902
0.87711397 0.80701593 0.59764093
0.91127451 0.84871324 0.59656863
0.92947304 0.85931373 0.59656863
0.94338235 0.85392157 0.59656863
0.53676471 0.76176471 0.59313725
0.55200674 0.76550245 0.59532016
0.60548407 0.7676011 0.59313725
0.69215686 0.7698989 0.59136029
0.78054534 0.78759191 0.59295343
0.85460325 0.82223499 0.5957644
0.90565257 0.86421569 0.59911152
0.92947304 0.87696078 0.6004902
0.93854167 0.88431373 0.6004902
0.66678922 0.83382353 0.58872549
0.67071078 0.83382353 0.58872549
0.69264706 0.82990196 0.59178922
0.73293505 0.83333333 0.58872549
0.77696078 0.82990196 0.59093137
0.83181679 0.84497549 0.59264706
0.88639706 0.86813725 0.59656863
0.92689951 0.89901961 0.60441176
0.94901961 0.9060049 0.60833333
0.76268382 0.89466912 0.58829657
0.76317402 0.89069393 0.58872549
0.77397365 0.8877451 0.58872549
0.8 0.8877451 0.58872549
0.83474265 0.89160539 0.59310662
0.86476716 0.89466912 0.59818474
0.89569547 0.89854473 0.60398284
0.93076746 0.91508119 0.60914522
0.94901961 0.92640931 0.61960784
0.85490196 0.92941176 0.6
0.84797794 0.92640931 0.6004902
0.85980392 0.93039216 0.6004902
0.86029412 0.92579657 0.596875
0.88235294 0.92941176 0.60416667
0.89558824 0.92696078 0.6096201
0.9189951 0.93468137 0.61311275
0.93817402 0.94074755 0.61966912
0.94901961 0.94117647 0.62745098
0.79215686 0.68235294 0.65098039
0.80343137 0.69411765 0.64705882
0.82352941 0.7127451 0.64411765
0.8495098 0.73823529 0.63921569
0.88235294 0.77647059 0.63137255
0.91372549 0.82892157 0.62745098
0.9254902 0.84313725 0.60686275
0.9377451 0.86715686 0.60784314
0.94901961 0.89019608 0.61568627
0.78823529 0.69313725 0.64705882
0.81078431 0.71617647 0.65098039
0.82647059 0.7245098 0.64313725
0.85343137 0.75245098 0.63921569
0.88455882 0.79387255 0.63529412
0.90735294 0.81715686 0.62352941
0.92242647 0.84019608 0.60772059
0.94117647 0.87843137 0.61525735
0.95294118 0.89705882 0.62303922
0.78627451 0.71568627 0.64411765
0.80294118 0.72879902 0.64362745
0.83112745 0.75637255 0.64313725
0.85012255 0.76568627 0.63529412
0.8877451 0.80686275 0.63137255
0.91090686 0.83578431 0.62352941
0.92941176 0.8627451 0.61960784
0.94117647 0.89068627 0.61666667
0.95294118 0.89705882 0.62254902
0.77647059 0.74607843 0.63921569
0.80018382 0.75980392 0.63921569
0.81801471 0.77009804 0.63921569
0.8495098 0.79068627 0.63529412
0.87794118 0.80980392 0.62745098
0.90735294 0.84460784 0.62352941
0.92977941 0.87267157 0.61715686
0.93382353 0.87107843 0.60410539
0.94901961 0.8877451 0.61568627
0.77647059 0.79215686 0.63529412
0.78284314 0.78897059 0.63578431
0.79117647 0.78235294 0.63137255
0.84019608 0.81348039 0.63455882
0.86862745 0.82843137 0.62745098
0.90269608 0.85245098 0.62205882
0.91862745 0.86960784 0.6122549
0.94509804 0.90392157 0.62132353
0.94509804 0.9 0.61960784
0.73333333 0.81323529 0.63137255
0.74754902 0.81715686 0.63167892
0.7495098 0.81470588 0.62598039
0.80042892 0.82444853 0.63082108
0.84926471 0.8372549 0.62745098
0.89705882 0.86868873 0.62745098
0.91764706 0.88272059 0.61568627
0.9377451 0.90588235 0.61568627
0.94509804 0.90980392 0.61960784
0.74705882 0.85980392 0.62647059
0.74754902 0.85686275 0.62401961
0.74852941 0.84901961 0.61960784
0.79448529 0.85588235 0.62745098
0.81470588 0.85833333 0.62352941
0.86470588 0.87598039 0.62352941
0.91078431 0.89436275 0.61960784
0.9377451 0.91507353 0.62058824
0.95294118 0.92647059 0.63137255
0.79313725 0.89852941 0.61176471
0.80490196 0.89852941 0.61960784
0.81568627 0.90245098 0.61997549
0.83627451 0.90422794 0.62352941
0.85563725 0.89901961 0.62352941
0.87285539 0.90422794 0.62009804
0.90698529 0.91384804 0.62352941
0.94117647 0.92640931 0.6283701
0.94901961 0.93333333 0.63186275
0.87843137 0.94117647 0.63137255
0.87058824 0.9372549 0.62745098
0.87156863 0.93333333 0.62745098
0.88872549 0.93970588 0.63382353
0.88627451 0.92941176 0.62745098
0.89558824 0.92696078 0.62745098
0.92647059 0.94509804 0.63823529
0.9377451 0.94117647 0.63529412
0.94901961 0.94509804 0.64313725
