site/assets/luts/sha256-ca8c645f39b6eea926d3380438ad71115f0819c3583a3e0f6ee0ecbfd2b40854.cube
# LUTr-Schema-Version: 2
# LUTr-ID: sha256-ca8c645f39b6eea926d3380438ad71115f0819c3583a3e0f6ee0ecbfd2b40854
# LUTr-Title: kodak elite color 400
# LUTr-Collection: Natron HaldCLUT
# LUTr-Collection-ID: natron-haldclut-presets
# LUTr-Source: https://github.com/NatronGitHub/clut
# LUTr-Retrieved: 2026-07-27
# LUTr-Source-File: submissions/natron-haldclut-presets/negative_color/kodak_elite_color_400.png
# LUTr-Source-Format: HALD-PNG
# LUTr-Source-SHA256: ca8c645f39b6eea926d3380438ad71115f0819c3583a3e0f6ee0ecbfd2b40854
# LUTr-License: CC-BY-SA-4.0
# LUTr-License-URL: https://github.com/NatronGitHub/clut#license
# LUTr-License-Basis: repo-license-file
# LUTr-Transform-Class: film-emulation
# LUTr-Tags: creative, film, film-emulation, hald-clut, natron, png, cube
# LUTr-Input-Color-Space: srgb
# LUTr-Input-Gamut: rec709
# LUTr-Input-Transfer: srgb
# LUTr-Output-Color-Space: srgb
# LUTr-Output-Gamut: rec709
# LUTr-Output-Transfer: srgb
# LUTr-Color-Space-Confidence: assumed-display-referred
# LUTr-Domain-Normalized: true
# LUTr-Shaper: none
# LUTr-Original-Grid: 64x64x64
# LUTr-Conversion-Grid: 25x25x25
# LUTr-Conversion-Interpolation: trilinear
# LUTr-Conversion-Method: HALD-PNG LUT image decoded at 16-bit and sampled to 25x25x25 3D CUBE
# LUTr-Conversion-Tool: LUTr scripts/convert-all-to-cube.mjs 2.0.0
# LUTr-Conversion-Date: 2026-07-27
# LUTr-Note: Preserve this metadata and the upstream license notices when redistributing.
TITLE "kodak elite color 400"
LUT_3D_SIZE 9
DOMAIN_MIN 0 0 0
DOMAIN_MAX 1 1 1
0.0078431373 0.0078431373 0.023529412
0.089215686 0.015196078 0.0083333333
0.17352941 0.011764706 0.0088235294
0.26470588 0.006372549 0.014215686
0.38823529 0.011764706 0.045098039
0.51715686 0.0039215686 0.048039216
0.6627451 0 0.0078431373
0.79411765 0.0039215686 0.015686275
0.90980392 0.0039215686 0.0078431373
0.065686275 0.08872549 0.039215686
0.11574755 0.069546569 0.027818627
0.18970588 0.068137255 0.036887255
0.28382353 0.051470588 0.041666667
0.39779412 0.032843137 0.039215686
0.5245098 0.01127451 0.049509804
0.67046569 0.0034313725 0.0073529412
0.79368873 0.0078431373 0.016115196
0.90588235 0.0078431373 0.015686275
0.11960784 0.17745098 0.042156863
0.15404412 0.17732843 0.069607843
0.2245098 0.15710784 0.042401961
0.31617647 0.14509804 0.053921569
0.43039216 0.11029412 0.05
0.55931373 0.059313725 0.039215686
0.68529412 0.032352941 0.042156863
0.80882353 0.011764706 0.045588235
0.9245098 0.0039215686 0.019607843
0.16960784 0.29607843 0.076960784
0.20018382 0.28431373 0.071752451
0.27647059 0.28039216 0.076960784
0.36127451 0.27107843 0.082352941
0.47303922 0.2377451 0.083578431
0.6004902 0.19754902 0.073039216
0.72009804 0.13578431 0.07120098
0.83529412 0.061948529 0.069117647
0.94117647 0.025980392 0.048039216
0.22941176 0.4254902 0.096078431
0.26568627 0.42941176 0.10392157
0.33872549 0.42401961 0.10392157
0.42303922 0.41764706 0.098039216
0.53039216 0.3872549 0.097058824
0.64705882 0.34681373 0.089460784
0.75392157 0.29705882 0.082352941
0.8627451 0.2254902 0.074754902
0.95882353 0.12352941 0.078431373
0.32990196 0.57205882 0.13088235
0.34656863 0.5745098 0.12156863
0.40428922 0.56703431 0.11801471
0.48235294 0.55729167 0.10827206
0.57867647 0.54264706 0.10588235
0.68186275 0.51568627 0.10827206
0.78480392 0.47022059 0.095220588
0.88792892 0.41519608 0.070588235
0.98578431 0.33578431 0.062745098
0.43627451 0.71372549 0.12352941
0.4622549 0.70686275 0.10882353
0.48921569 0.70294118 0.1127451
0.55931373 0.69227941 0.099509804
0.63970588 0.68627451 0.094117647
0.72120098 0.67009804 0.093137255
0.81568627 0.6370098 0.084313725
0.90735294 0.60490196 0.065686275
0.98823529 0.55294118 0.053921569
0.5745098 0.8372549 0.057843137
0.57843137 0.83333333 0.053921569
0.60882353 0.82990196 0.065686275
0.65343137 0.8254902 0.065870098
0.71078431 0.81764706 0.065686275
0.77775735 0.81764706 0.056372549
0.85441176 0.79889706 0.037377451
0.93529412 0.78235294 0.034803922
1 0.76372549 0.034803922
0.65490196 0.90980392 0.02745098
0.65882353 0.91372549 0.015686275
0.73039216 0.9627451 0.00098039216
0.75 0.94901961 0.019607843
0.78431373 0.93921569 0.017647059
0.83823529 0.94117647 0.010294118
0.89901961 0.94803922 0.0039215686
0.95 0.91421569 0.01127451
1 0.93333333 0
0.01127451 0.019117647 0.069117647
0.07745098 0.015686275 0.069607843
0.1622549 0.015686275 0.073161765
0.2495098 0.0039215686 0.069607843
0.38039216 0.0041666667 0.07745098
0.51568627 0.0039215686 0.075980392
0.65502451 0.0039215686 0.056862745
0.79019608 0.0039215686 0.042156863
0.91862745 0.0039215686 0.014215686
0.034865196 0.096568627 0.085723039
0.10478707 0.088671875 0.08872549
0.18480392 0.069653799 0.08872549
0.27775735 0.053921569 0.088296569
0.39172794 0.032352941 0.08526348
0.52369026 0.0073529412 0.080882353
0.66629902 0.0069240196 0.073039216
0.79846814 0.0078431373 0.056870404
0.91029412 0.0043504902 0.037745098
0.10441176 0.18872549 0.11176471
0.13852635 0.18484988 0.10752145
0.20919118 0.1705576 0.10784314
0.303125 0.15147059 0.10816483
0.42254902 0.11617647 0.10441176
0.55018382 0.077435662 0.10392157
0.68529412 0.031617647 0.098958333
0.81404718 0.011764706 0.079534314
0.91813725 0.0039215686 0.049877451
0.15196078 0.3 0.13480392
0.17800245 0.29204963 0.13088235
0.2495098 0.28417586 0.13088235
0.34116881 0.27243413 0.13057598
0.45670956 0.25768995 0.12965686
0.58491881 0.21352635 0.12696078
0.7122549 0.14612439 0.11629902
0.83551624 0.055231311 0.094990809
0.94362745 0.011764706 0.068137255
0.21764706 0.42941176 0.14803922
0.24289216 0.42962623 0.14433211
0.31764706 0.42401961 0.14601716
0.40392157 0.41749387 0.14500613
0.51029412 0.40392157 0.14718137
0.62965686 0.36501225 0.14411765
0.74742647 0.30294118 0.13137255
0.8622549 0.20833333 0.11053922
0.96838235 0.11004902 0.082352941
0.31078431 0.57598039 0.15245098
0.33137255 0.578125 0.15196078
0.39355086 0.56875 0.14857537
0.47176777 0.5641008 0.15680147
0.56583946 0.5497549 0.15588235
0.67021293 0.52745098 0.14968597
0.78088235 0.48880208 0.13272059
0.88560049 0.41666667 0.11617647
0.98449755 0.33970588 0.093137255
0.42757353 0.71372549 0.14313725
0.44705882 0.71372549 0.14791667
0.48443627 0.70588235 0.14947917
0.54773284 0.69545037 0.1477788
0.62230392 0.68627451 0.15098039
0.71335784 0.67120098 0.14203431
0.81176471 0.65416667 0.12735907
0.90441176 0.62178309 0.11686581
0.99166667 0.55980392 0.093137255
0.5627451 0.83333333 0.13529412
0.56747089 0.83333333 0.14264706
0.60140931 0.83333333 0.13540135
0.64564951 0.82726716 0.12300092
0.70343137 0.81985294 0.12892157
0.77254902 0.81721814 0.11546415
0.85053615 0.80539216 0.090579044
0.93131893 0.79068627 0.069546569
0.99607843 0.76372549 0.069117647
0.67401961 0.92892157 0.12745098
0.68186275 0.93976716 0.12352941
0.71666667 0.94901961 0.11188725
0.74754902 0.95294118 0.091666667
0.78431373 0.95 0.08627451
0.83431373 0.95012255 0.063602941
0.89166667 0.93627451 0.03627451
0.96176471 0.94025735 0.0082720588
0.99607843 0.92892157 0.0078431373
0.0078431373 0.012745098 0.14705882
0.050490196 0.011764706 0.14963235
0.13308824 0.0095588235 0.15
0.24509804 0.018627451 0.15392157
0.37647059 0.019117647 0.16029412
0.50931373 0.0078431373 0.15281863
0.65171569 0.0039215686 0.12941176
0.78933824 0 0.10245098
0.90392157 0.00098039216 0.081372549
0.030882353 0.11090686 0.16911765
0.084099265 0.10310968 0.16531863
0.1622549 0.089460784 0.16654412
0.26297488 0.062745098 0.17000613
0.38106618 0.03995098 0.16917892
0.5153799 0.016666667 0.16554841
0.66360294 0.0039215686 0.15245098
0.80147059 0.0039215686 0.1254902
0.90882353 0.00012254902 0.095588235
0.058823529 0.21176471 0.18602941
0.11666667 0.20496324 0.18823529
0.18995098 0.18903186 0.184375
0.28777574 0.1629902 0.18431373
0.40747549 0.13492647 0.18823529
0.5442402 0.091452206 0.18431373
0.68161765 0.030637255 0.17610294
0.81372549 0.010784314 0.15330882
0.92941176 0.006127451 0.11691176
0.10098039 0.31286765 0.20551471
0.15110294 0.31309743 0.20375306
0.2189951 0.29681373 0.20772059
0.32159926 0.28016238 0.20551471
0.44197304 0.2627451 0.20735294
0.58042279 0.22780331 0.20528493
0.71158088 0.16289828 0.19834559
0.83186275 0.070680147 0.17719056
0.93578431 0.029534314 0.15245098
0.18284314 0.44215686 0.21862745
0.20814951 0.43897059 0.22009804
0.28786765 0.43333333 0.22107843
0.38088235 0.42359069 0.21666667
0.49068627 0.41004902 0.22058824
0.62205882 0.37604167 0.22150735
0.74313725 0.31617647 0.20943627
0.85882353 0.21862745 0.19240196
0.96421569 0.11568627 0.17745098
0.25833333 0.59068627 0.23566176
0.2995098 0.58405331 0.23181679
0.37107843 0.57953431 0.23235294
0.44964767 0.57182904 0.22953431
0.55441176 0.55680147 0.23474265
0.66248468 0.53529412 0.23235294
0.77328431 0.50171569 0.22334559
0.88167892 0.43578431 0.2024663
0.97254902 0.36041667 0.18137255
0.39877451 0.71372549 0.25196078
0.42009804 0.71372549 0.24880515
0.46568627 0.71372549 0.25588235
0.5379902 0.70526961 0.25306373
0.61740196 0.69056373 0.24705882
0.7080576 0.67889093 0.23529412
0.80226716 0.66311275 0.23020833
0.90122549 0.63465074 0.20784314
0.98627451 0.56960784 0.18431373
0.54068627 0.82941176 0.26617647
0.55217525 0.8372549 0.26000306
0.58538603 0.83333333 0.2622549
0.63048407 0.83370098 0.26139706
0.69393382 0.82720588 0.24963235
0.76470588 0.81764706 0.23863358
0.84304534 0.80637255 0.225
0.92708333 0.79122243 0.18992034
0.99607843 0.75980392 0.15931373
0.67941176 0.94607843 0.24705882
0.69375 0.95772059 0.24215686
0.70490196 0.94901961 0.24215686
0.73823529 0.95294118 0.23823529
0.77696078 0.9495098 0.23039216
0.81470588 0.92193627 0.21715686
0.89313725 0.95392157 0.18995098
0.95796569 0.93823529 0.14215686
1 0.93431373 0.035294118
0.015686275 0.033823529 0.23480392
0.046078431 0.026164216 0.23480392
0.10294118 0.010661765 0.23088235
0.22696078 0.020526961 0.24019608
0.37132353 0.02745098 0.24656863
0.50839461 0.013296569 0.24264706
0.64742647 0.0039215686 0.22205882
0.78645833 0 0.19509804
0.91127451 0 0.1745098
0.02745098 0.12254902 0.25441176
0.073039216 0.11648284 0.25392157
0.13872549 0.10330882 0.25145527
0.24307598 0.080882353 0.25784314
0.37490809 0.051470588 0.25784314
0.50931373 0.021568627 0.25441176
0.65919118 0 0.24901961
0.79456955 0.0039215686 0.22205882
0.90765931 0 0.19754902
0.044240196 0.22634804 0.27585784
0.085661765 0.22441789 0.27696078
0.15897672 0.20716912 0.27303922
0.2721201 0.18598346 0.27401961
0.39810049 0.15643382 0.27849265
0.53601409 0.11493566 0.28088235
0.6760723 0.067156863 0.27668505
0.80526961 0.010738358 0.25686275
0.92156863 0 0.22598039
0.059742647 0.33382353 0.29515931
0.081686581 0.3323606 0.29835325
0.1807598 0.31560968 0.3
0.3057981 0.30187653 0.29699755
0.4323223 0.28134191 0.30168505
0.56689645 0.23846507 0.30484069
0.69803922 0.18192402 0.29699755
0.82794118 0.098537071 0.2810815
0.92205882 0.034252451 0.25931373
0.090686275 0.46397059 0.32303922
0.14411765 0.46397059 0.3254902
0.24509804 0.45196078 0.32303922
0.35272672 0.44240196 0.31911765
0.47659314 0.42205882 0.32622549
0.60585172 0.39191176 0.32772672
0.73284314 0.34362745 0.31789216
0.85490196 0.27221201 0.30147059
0.96323529 0.13970588 0.28627451
0.18523284 0.59803922 0.34852941
0.23106618 0.59803922 0.34761029
0.33627451 0.59204963 0.34460784
0.42254902 0.58604473 0.34682904
0.53308824 0.57328431 0.34852941
0.65161612 0.55098039 0.34832261
0.76372549 0.51649816 0.33860294
0.87825521 0.46293658 0.32615656
0.9716299 0.375 0.30692402
0.35747549 0.72120098 0.37058824
0.38515625 0.72340686 0.36764706
0.43198529 0.7254902 0.37156863
0.51409314 0.71787684 0.36875
0.60539216 0.70851716 0.37156863
0.69656863 0.69748775 0.36358762
0.7942402 0.67806373 0.35563725
0.89937194 0.6314951 0.34122243
0.9807598 0.58198529 0.32267157
0.51372549 0.83333333 0.38627451
0.52779565 0.83986673 0.38273591
0.56907169 0.84332108 0.38235294
0.61606158 0.84106158 0.38646599
0.68137255 0.83661152 0.39010417
0.75607384 0.82892923 0.37684589
0.83247549 0.81582414 0.36911765
0.91960784 0.78861826 0.35290288
0.98186275 0.76617647 0.32598039
0.66813725 0.94901961 0.38480392
0.68449755 0.9627451 0.38480392
0.69460784 0.95294118 0.38088235
0.72310049 0.95447304 0.38235294
0.77254902 0.95931373 0.38088235
0.82346814 0.95741422 0.36911765
0.87647059 0.93051471 0.36127451
0.95226716 0.93823529 0.33547794
0.98431373 0.9372549 0.31666667
0.019607843 0.052941176 0.32745098
0.029166667 0.033823529 0.32352941
0.07745098 0.028431373 0.32696078
0.19215686 0.019852941 0.33210784
0.34019608 0.014705882 0.33529412
0.48897059 0.0098039216 0.33382353
0.62990196 0.0039215686 0.31960784
0.7747549 0 0.30759804
0.90784314 0 0.29411765
0.02745098 0.14142157 0.3504902
0.047824755 0.13333333 0.34852941
0.10833333 0.12555147 0.35392157
0.21020221 0.11063113 0.3604473
0.34865196 0.076960784 0.35833333
0.49852941 0.03872549 0.35637255
0.64387255 0.017953431 0.35637255
0.78627451 0.0039215686 0.33627451
0.90784314 0.0034313725 0.31323529
0.032843137 0.24509804 0.37401961
0.06807598 0.24129902 0.37769608
0.11568627 0.23112745 0.38026961
0.22873775 0.21188725 0.38504902
0.37009804 0.18210784 0.3872549
0.51758578 0.14430147 0.38872549
0.66470588 0.089828431 0.39080882
0.79411765 0.026593137 0.375
0.90343137 0.0073529412 0.34803922
0.031372549 0.35686275 0.40441176
0.05245098 0.35294118 0.40808824
0.11519608 0.33792892 0.40655637
0.25661765 0.32303922 0.41320466
0.40110294 0.30551471 0.41813725
0.540625 0.27156863 0.42205882
0.68921569 0.21580882 0.41868873
0.81798407 0.1247549 0.40294118
0.92352941 0.025735294 0.38602941
0.016666667 0.48039216 0.4372549
0.060171569 0.47757353 0.43823529
0.17377451 0.47205882 0.4372549
0.30392157 0.46053922 0.43982843
0.44558824 0.44901961 0.44901961
0.5817402 0.42303922 0.44901961
0.71470588 0.37843137 0.44485294
0.84301471 0.28541667 0.42892157
0.94803922 0.18431373 0.41176471
0.1127451 0.60784314 0.46813725
0.14969363 0.6125 0.46740196
0.26544118 0.60906863 0.46421569
0.3799326 0.60465686 0.46421569
0.50294118 0.5935049 0.47132353
0.625 0.57647059 0.47496936
0.74705882 0.5379902 0.46795343
0.85750613 0.47990196 0.45523897
0.96372549 0.39558824 0.44460784
0.29411765 0.72745098 0.49509804
0.32150735 0.73455882 0.49117647
0.38946078 0.73529412 0.48762255
0.47910539 0.73192402 0.48676471
0.57205882 0.72058824 0.49068627
0.6752451 0.71102941 0.49901961
0.78321078 0.68982843 0.49019608
0.88504902 0.64908088 0.47542892
0.97990196 0.5995098 0.46519608
0.47892157 0.84117647 0.51764706
0.50193015 0.84852941 0.51372549
0.54460784 0.85269608 0.50980392
0.59353554 0.84990809 0.51029412
0.6627451 0.84509804 0.51397059
0.73707108 0.8372549 0.51755515
0.82083333 0.82567402 0.51133578
0.91176471 0.80245098 0.49583333
0.96102941 0.78676471 0.48235294
0.65098039 0.95490196 0.51764706
0.63946078 0.94558824 0.51960784
0.67941176 0.95686275 0.52303922
0.71544118 0.9627451 0.52156863
0.75392157 0.95686275 0.51764706
0.8127451 0.96666667 0.50980392
0.87107843 0.95098039 0.50784314
0.94215686 0.95269608 0.49215686
0.9745098 0.93529412 0.47843137
0.0039215686 0.068137255 0.42941176
0.0039215686 0.054411765 0.42941176
0.05 0.054411765 0.43909314
0.16127451 0.055392157 0.44509804
0.3004902 0.032352941 0.43970588
0.46078431 0.016237745 0.44901961
0.61335784 0.016789216 0.45833333
0.76697304 0.0078431373 0.45784314
0.88872549 0 0.4254902
0.013909314 0.17352941 0.46029412
0.015341605 0.16626072 0.4627451
0.073606005 0.15387561 0.46813725
0.16992188 0.14117647 0.47205882
0.31789216 0.10980392 0.47205882
0.47254902 0.065870098 0.47334559
0.62792586 0.029503676 0.4765625
0.77042739 0 0.4719133
0.85949755 0 0.45392157
0.019607843 0.28026961 0.4872549
0.025628064 0.27303922 0.49117647
0.071323529 0.2620098 0.4948223
0.16973039 0.24382659 0.498606
0.32867647 0.21697304 0.50686275
0.49140625 0.175 0.50672488
0.64512868 0.1166973 0.50686275
0.78198529 0.045833333 0.5058364
0.87303922 0.022181373 0.49056373
0.02689951 0.39166667 0.51666667
0.02745098 0.37627911 0.51813725
0.022058824 0.36868873 0.525
0.18529412 0.35637255 0.52751225
0.35196078 0.33235294 0.53474265
0.50876225 0.3057981 0.5377451
0.67078738 0.24816176 0.53382353
0.80533088 0.15686275 0.53755362
0.91023284 0.046507353 0.52653186
0.019607843 0.51593137 0.55416667
0.018872549 0.50563725 0.55294118
0.039583333 0.49558824 0.55612745
0.2083027 0.48259804 0.55762868
0.38958333 0.47267157 0.56433824
0.54120711 0.44509804 0.56470588
0.6877451 0.40245098 0.56470588
0.8260723 0.31593137 0.55686275
0.94387255 0.21446078 0.5504902
0.016605392 0.63817402 0.58627451
0.023376225 0.63088235 0.57990196
0.15294118 0.63019301 0.58143382
0.29460784 0.62061121 0.58235294
0.45490196 0.60885417 0.58851103
0.591322 0.5971201 0.5946921
0.72156863 0.55755208 0.5911152
0.84106158 0.51078431 0.5877451
0.95386029 0.4283701 0.57598039
0.16017157 0.74448529 0.60686275
0.19987745 0.74780944 0.60539216
0.30971201 0.74620098 0.60477941
0.432981 0.7376685 0.60539216
0.53431373 0.73014706 0.6122549
0.64845282 0.72303922 0.61862745
0.75710784 0.70744485 0.61470588
0.86783088 0.67807904 0.61349571
0.98002451 0.62156863 0.60232843
0.41666667 0.85422794 0.62971814
0.44281556 0.85471814 0.62598039
0.50392157 0.85686275 0.62835478
0.55882353 0.85294118 0.63333333
0.63814338 0.8497549 0.63363971
0.71121324 0.84509804 0.63756127
0.80355392 0.8384038 0.63543199
0.9 0.81753983 0.62575827
0.97665441 0.79509804 0.60588235
0.64264706 0.97254902 0.64362745
0.65030637 0.975 0.64754902
0.66262255 0.96752451 0.64901961
0.69209559 0.96415441 0.64901961
0.74044118 0.9627451 0.64509804
0.79117647 0.95925245 0.64356618
0.85784314 0.9622549 0.64448529
0.93823529 0.9622549 0.63431373
0.99607843 0.94901961 0.60980392
0 0.12352941 0.54509804
0.0039215686 0.11127451 0.54497549
0.016911765 0.088480392 0.54730392
0.11703431 0.087254902 0.55294118
0.2627451 0.068627451 0.55980392
0.42352941 0.0078431373 0.56470588
0.59313725 0.015686275 0.58529412
0.75539216 0.01127451 0.59166667
0.87941176 0 0.56176471
0 0.22009804 0.57205882
0.0073529412 0.21138174 0.57205882
0.028155637 0.19319853 0.575
0.1243413 0.17945772 0.57990196
0.2627451 0.15692402 0.58382353
0.43417586 0.10700061 0.58713235
0.60392157 0.069117647 0.60352328
0.75882353 0.01127451 0.60343137
0.8754902 0 0.59129902
0.0078431373 0.32279412 0.59803922
0.011519608 0.31185662 0.59803922
0.016237745 0.29963235 0.60490196
0.10441176 0.2841299 0.60603554
0.26482843 0.25980392 0.61617647
0.45410539 0.21816789 0.62156863
0.61531863 0.16470588 0.62254902
0.76681985 0.083302696 0.62647059
0.90343137 0.0031862745 0.62254902
0.014705882 0.4307598 0.62598039
0.015686275 0.41738664 0.62536765
0.018167892 0.40723039 0.62316176
0.064016544 0.39154412 0.63284314
0.26470588 0.37401961 0.64460784
0.46905637 0.34307598 0.65061275
0.63939951 0.29096201 0.65245098
0.78779105 0.19840686 0.65453431
0.91323529 0.074019608 0.65735294
0.014215686 0.55392157 0.65980392
0.011764706 0.54307598 0.65814951
0.0078431373 0.52781863 0.65980392
0.086151961 0.51488971 0.66403186
0.30441176 0.50294118 0.67156863
0.48596814 0.47898284 0.6754902
0.65686275 0.44191176 0.67647059
0.80759804 0.36691176 0.67640931
0.93235294 0.26372549 0.67598039
0.013848039 0.66360294 0.68958333
0.017555147 0.66139706 0.68730086
0.018627451 0.64972426 0.69068627
0.18846507 0.63785233 0.68760723
0.36795343 0.63008578 0.69460784
0.53884804 0.61793811 0.69996936
0.69249387 0.5877451 0.70134804
0.82567402 0.54425551 0.70298713
0.94767157 0.46470588 0.6995098
0.030637255 0.76078431 0.71372549
0.069485294 0.76151961 0.7129902
0.18406863 0.76151961 0.71053922
0.34034926 0.75367647 0.70980392
0.46029412 0.74718137 0.71960784
0.61553309 0.73823529 0.7254902
0.72640931 0.72567402 0.7247549
0.84126838 0.69515931 0.72251838
0.96372549 0.64215686 0.72083333
0.36090686 0.86813725 0.73762255
0.38443627 0.86465993 0.73370098
0.43318015 0.86568627 0.73284314
0.5092065 0.86556373 0.73730086
0.59246324 0.86176471 0.7442402
0.69238664 0.85686275 0.74816176
0.78333333 0.85303309 0.74525123
0.87990196 0.82941176 0.74031863
0.98039216 0.80245098 0.73345588
0.61078431 0.97647059 0.75294118
0.60784314 0.96960784 0.75588235
0.64852941 0.97965686 0.75759804
0.65772059 0.96360294 0.75477941
0.7245098 0.97647059 0.75980392
0.77696078 0.97107843 0.76078431
0.83553922 0.95588235 0.75906863
0.91813725 0.95343137 0.75294118
0.98823529 0.95784314 0.74509804
0 0.17009804 0.64460784
0 0.16917892 0.64852941
0 0.13676471 0.65294118
0.04252451 0.11231618 0.65900735
0.1870098 0.11960784 0.66617647
0.36881127 0.071568627 0.66599265
0.5622549 0.023529412 0.68872549
0.73529412 0.012193627 0.69509804
0.88186275 0.0039215686 0.68431373
0 0.26574755 0.66372549
0.0039139093 0.25048254 0.66764706
0.006495098 0.23442096 0.67161458
0.051654412 0.22432598 0.67974112
0.18504902 0.20925245 0.68382353
0.37195159 0.16868873 0.69322151
0.57234988 0.10240502 0.70338542
0.73921569 0.022663909 0.71084559
0.88278186 0 0.71078431
0.0039215686 0.3627451 0.69080882
0.007567402 0.35370711 0.69203431
0.0078431373 0.34601716 0.69852941
0.027573529 0.33053002 0.70637255
0.1627451 0.3129902 0.71354167
0.37954963 0.27291667 0.72205882
0.58768382 0.21384804 0.72570466
0.74695159 0.1285386 0.7338848
0.89914216 0.0025735294 0.74166667
0.0099877451 0.46697304 0.72126225
0.0078431373 0.45939798 0.72156863
0.010309436 0.45001532 0.7245098
0.0041130515 0.43647365 0.73413756
0.14476103 0.41911765 0.73863358
0.3948989 0.38970588 0.74509804
0.59600184 0.35 0.75257353
0.7627451 0.27843137 0.75735294
0.90098039 0.15196078 0.76648284
0.011764706 0.58088235 0.75220588
0.011764706 0.57916667 0.75245098
0.0078431373 0.56390931 0.75245098
0.015594363 0.55352328 0.75744485
0.14656863 0.54362745 0.76519608
0.42175245 0.5245098 0.77205882
0.61176471 0.48952206 0.77990196
0.77429534 0.43327206 0.78014706
0.90563725 0.33627451 0.78406863
0.015686275 0.6846201 0.76697304
0.023529412 0.68333333 0.77134651
0.015686275 0.676394 0.77530637
0.017164522 0.6661152 0.78333333
0.26780025 0.66109069 0.7872549
0.47335325 0.6495098 0.79509804
0.6286152 0.62513787 0.79901961
0.79397212 0.58758425 0.80369945
0.92322304 0.51911765 0.80735294
0.022181373 0.77990196 0.79546569
0.032337623 0.77990196 0.79546569
0.0087009804 0.77570466 0.80585172
0.17205882 0.77169118 0.80637255
0.38443627 0.76911765 0.81421569
0.54068627 0.76127451 0.81813725
0.6801777 0.74852941 0.82196691
0.8185049 0.72064951 0.82634804
0.93125 0.6754902 0.82892157
0.18333333 0.87990196 0.83333333
0.21029412 0.88039216 0.82941176
0.28483456 0.87691483 0.82941176
0.39969363 0.87877604 0.83567708
0.51004902 0.87996324 0.84117647
0.63335631 0.87254902 0.84246324
0.7442402 0.86518076 0.84869792
0.84944853 0.84901961 0.85212929
0.96029412 0.81862745 0.84552696
0.54068627 0.97647059 0.84901961
0.55655637 0.97732843 0.8528799
0.57977941 0.97696078 0.85379902
0.63235294 0.98039216 0.85814951
0.65392157 0.96495098 0.85686275
0.73529412 0.97107843 0.86207108
0.81323529 0.9564951 0.86029412
0.90686275 0.97653186 0.86862745
0.96862745 0.96127451 0.86470588
0 0.25490196 0.74117647
0 0.23627451 0.73333333
0 0.19607843 0.73823529
0.0078431373 0.18039216 0.74754902
0.1372549 0.15490196 0.74313725
0.32401961 0.13823529 0.75686275
0.5245098 0.043137255 0.77352941
0.72058824 0.02745098 0.78039216
0.87058824 0.0039215686 0.79215686
0 0.31666667 0.74117647
0 0.2971201 0.75196078
0.0029411765 0.28872549 0.75686275
0.014215686 0.27647059 0.76421569
0.099019608 0.25882353 0.77205882
0.3122549 0.23627451 0.78529412
0.52977941 0.15196078 0.77855392
0.71709559 0.067218137 0.8
0.87794118 0.0039215686 0.80392157
0 0.40980392 0.78431373
0 0.39705882 0.77561275
0 0.38529412 0.78235294
0.006372549 0.37892157 0.79227941
0.014215686 0.36911765 0.80441176
0.3245098 0.31813725 0.78284314
0.54142157 0.2745098 0.80588235
0.72058824 0.17843137 0.8064951
0.88529412 0.038235294 0.79607843
0.0039215686 0.49754902 0.79068627
0 0.49754902 0.80459559
0.0039215686 0.48468137 0.79742647
0.009375 0.4754902 0.79509804
0.023039216 0.47009804 0.81617647
0.32696078 0.41862745 0.79705882
0.56666667 0.37536765 0.79264706
0.73186275 0.33658088 0.84589461
0.89264706 0.21715686 0.84803922
0.0078431373 0.59803922 0.80784314
0.0078431373 0.6 0.81936275
0.0039215686 0.59607843 0.82941176
0.010294118 0.57794118 0.81053922
0.023529412 0.58039216 0.83529412
0.3004902 0.55465686 0.82867647
0.55 0.53480392 0.84901961
0.73235294 0.47941176 0.86495098
0.87058824 0.40588235 0.86078431
0.015686275 0.69852941 0.81568627
0.015686275 0.69852941 0.82745098
0.0078431373 0.70147059 0.85
0.010294118 0.69699755 0.86268382
0.028186275 0.69338235 0.87156863
0.37984069 0.67346814 0.85784314
0.5745098 0.66127451 0.87720588
0.74773284 0.63253676 0.89185049
0.87696078 0.56568627 0.8745098
0.015686275 0.79509804 0.84509804
0.014828431 0.79129902 0.84669118
0.020588235 0.79117647 0.85808824
0.018627451 0.79509804 0.89007353
0.14754902 0.79509804 0.9004902
0.44901961 0.78431373 0.89215686
0.62009804 0.77867647 0.90686275
0.77855392 0.74852941 0.91078431
0.88823529 0.70980392 0.8872549
0.027941176 0.89558824 0.90735294
0.014828431 0.89558824 0.91078431
0.020955882 0.89607843 0.92303922
0.18921569 0.89166667 0.92401961
0.38137255 0.88995098 0.91813725
0.55655637 0.8877451 0.91629902
0.68039216 0.88419118 0.9377451
0.80729167 0.87598039 0.94957108
0.9504902 0.84901961 0.94215686
0.49019608 0.98823529 0.92156863
0.46715686 0.97941176 0.91715686
0.53431373 0.9872549 0.92352941
0.56960784 0.98823529 0.94803922
0.62745098 0.98431373 0.94705882
0.69607843 0.98970588 0.97156863
0.76764706 0.95882353 0.93137255
0.87254902 0.98431373 0.97647059
0.99215686 0.99215686 0.99215686
