site/assets/luts/sha256-214c546be398c45898041f33cb6df2ab6855b996b9a0599c1fdadc086821335d.cube
# LUTr-Schema-Version: 2
# LUTr-ID: sha256-214c546be398c45898041f33cb6df2ab6855b996b9a0599c1fdadc086821335d
# LUTr-Title: polaroid time zero (expired)
# LUTr-Collection: Natron HaldCLUT
# LUTr-Collection-ID: natron-haldclut-presets
# LUTr-Source: https://github.com/NatronGitHub/clut
# LUTr-Retrieved: 2026-07-27
# LUTr-Source-File: submissions/natron-haldclut-presets/instant_consumer/polaroid_time_zero_(expired).png
# LUTr-Source-Format: HALD-PNG
# LUTr-Source-SHA256: 214c546be398c45898041f33cb6df2ab6855b996b9a0599c1fdadc086821335d
# LUTr-License: CC-BY-SA-4.0
# LUTr-License-URL: https://github.com/NatronGitHub/clut#license
# LUTr-License-Basis: repo-license-file
# LUTr-Transform-Class: film-emulation
# LUTr-Tags: creative, film, film-emulation, hald-clut, natron, png, cube
# LUTr-Input-Color-Space: srgb
# LUTr-Input-Gamut: rec709
# LUTr-Input-Transfer: srgb
# LUTr-Output-Color-Space: srgb
# LUTr-Output-Gamut: rec709
# LUTr-Output-Transfer: srgb
# LUTr-Color-Space-Confidence: assumed-display-referred
# LUTr-Domain-Normalized: true
# LUTr-Shaper: none
# LUTr-Original-Grid: 64x64x64
# LUTr-Conversion-Grid: 25x25x25
# LUTr-Conversion-Interpolation: trilinear
# LUTr-Conversion-Method: HALD-PNG LUT image decoded at 16-bit and sampled to 25x25x25 3D CUBE
# LUTr-Conversion-Tool: LUTr scripts/convert-all-to-cube.mjs 2.0.0
# LUTr-Conversion-Date: 2026-07-27
# LUTr-Note: Preserve this metadata and the upstream license notices when redistributing.
TITLE "polaroid time zero (expired)"
LUT_3D_SIZE 5
DOMAIN_MIN 0 0 0
DOMAIN_MAX 1 1 1
0.61568627 0.34901961 0.12941176
0.65490196 0.36862745 0.13333333
0.70392157 0.35686275 0.1372549
0.80196078 0.35686275 0.1372549
0.92156863 0.38823529 0.13333333
0.63137255 0.39117647 0.13333333
0.65318627 0.38333333 0.12647059
0.71176471 0.3872549 0.1254902
0.80980392 0.39828431 0.11764706
0.90392157 0.42254902 0.12156863
0.6627451 0.49607843 0.054901961
0.68382353 0.49019608 0.055392157
0.75784314 0.50882353 0.055882353
0.83823529 0.52598039 0.10245098
0.9254902 0.54509804 0.084313725
0.72745098 0.65784314 0.015686275
0.74901961 0.65318627 0.011764706
0.80686275 0.66519608 0.0039215686
0.87941176 0.68455882 0.093872549
0.93333333 0.70098039 0.22254902
0.80392157 0.81176471 0.050980392
0.81568627 0.80686275 0.014705882
0.86078431 0.81176471 0.0039215686
0.91568627 0.81764706 0.19509804
0.96470588 0.83529412 0.42745098
0.63529412 0.36078431 0.15980392
0.65098039 0.36176471 0.16078431
0.70196078 0.35686275 0.16372549
0.81372549 0.3754902 0.18014706
0.94019608 0.39117647 0.18333333
0.63529412 0.3872549 0.15196078
0.66096814 0.39099265 0.15827206
0.71470588 0.39056373 0.15588235
0.82132353 0.41078431 0.16452206
0.91838235 0.43431373 0.1747549
0.67254902 0.49803922 0.11617647
0.6872549 0.49595588 0.11862745
0.75661765 0.51078431 0.13088235
0.84803922 0.5254902 0.14754902
0.91715686 0.53921569 0.14656863
0.72254902 0.66004902 0.016666667
0.74215686 0.65784314 0.034558824
0.79509804 0.66519608 0.012009804
0.87647059 0.68210784 0.16378676
0.9372549 0.70392157 0.25612745
0.81470588 0.82647059 0.14803922
0.81887255 0.81568627 0.10392157
0.85784314 0.82598039 0.069607843
0.91470588 0.82058824 0.24926471
0.96470588 0.8372549 0.45490196
0.68039216 0.36078431 0.2745098
0.69607843 0.36617647 0.28431373
0.73333333 0.36960784 0.29607843
0.8254902 0.38676471 0.29411765
0.94117647 0.41960784 0.33333333
0.69607843 0.40882353 0.28088235
0.71176471 0.41507353 0.27855392
0.75294118 0.42279412 0.28823529
0.83443627 0.41605392 0.3
0.92941176 0.45098039 0.31960784
0.70588235 0.49607843 0.25882353
0.72401961 0.50392157 0.25098039
0.77254902 0.52352941 0.26078431
0.85343137 0.53382353 0.27892157
0.94117647 0.55784314 0.29705882
0.73676471 0.65392157 0.24362745
0.75085784 0.65784314 0.23737745
0.7997549 0.66862745 0.23921569
0.8754902 0.68210784 0.28627451
0.92941176 0.7122549 0.35441176
0.80784314 0.80784314 0.3
0.82254902 0.81617647 0.30833333
0.85294118 0.8245098 0.28823529
0.90294118 0.82254902 0.32598039
0.96078431 0.83921569 0.51568627
0.77843137 0.42843137 0.49803922
0.78848039 0.43161765 0.50416667
0.8127451 0.4495098 0.51127451
0.86078431 0.47647059 0.50514706
0.9254902 0.48431373 0.52058824
0.78995098 0.48627451 0.49019608
0.80582108 0.49436275 0.49803922
0.82990196 0.5192402 0.51017157
0.86862745 0.5189951 0.49485294
0.93333333 0.51470588 0.51838235
0.79803922 0.56519608 0.48627451
0.82843137 0.58419118 0.49019608
0.84338235 0.60367647 0.49607843
0.8754902 0.60870098 0.48909314
0.93823529 0.60490196 0.50392157
0.79313725 0.68112745 0.4627451
0.80416667 0.67426471 0.45784314
0.83786765 0.68602941 0.46237745
0.88596814 0.70955882 0.47971814
0.94509804 0.71176471 0.49730392
0.82352941 0.81568627 0.50882353
0.83235294 0.81176471 0.50269608
0.84215686 0.79705882 0.47892157
0.89730392 0.82254902 0.50122549
0.95294118 0.84313725 0.60196078
0.8627451 0.58431373 0.70588235
0.87058824 0.59215686 0.71372549
0.88039216 0.60392157 0.71568627
0.89901961 0.62843137 0.72254902
0.92941176 0.65490196 0.72941176
0.86568627 0.59705882 0.68529412
0.8745098 0.6254902 0.70514706
0.88627451 0.64019608 0.71568627
0.90196078 0.65710784 0.7120098
0.92843137 0.67352941 0.7245098
0.88627451 0.70196078 0.71960784
0.88529412 0.69607843 0.70735294
0.89411765 0.70784314 0.71764706
0.90833333 0.72401961 0.72843137
0.92156863 0.73137255 0.73137255
0.87352941 0.74607843 0.70980392
0.88137255 0.75392157 0.70980392
0.89362745 0.76568627 0.71372549
0.91764706 0.78529412 0.72647059
0.93333333 0.79411765 0.74313725
0.8627451 0.81568627 0.71764706
0.87058824 0.80784314 0.7127451
0.88039216 0.80980392 0.70784314
0.91078431 0.82352941 0.72941176
0.94901961 0.85490196 0.77647059
