site/assets/luts/sha256-984b1ef2a884944fca9918b183275ae02429609b6f6ffb54417036ad4ed840ff.cube
# LUTr-Schema-Version: 2
# LUTr-ID: sha256-984b1ef2a884944fca9918b183275ae02429609b6f6ffb54417036ad4ed840ff
# LUTr-Title: generic fuji velvia 100
# LUTr-Collection: Natron HaldCLUT
# LUTr-Collection-ID: natron-haldclut-presets
# LUTr-Source: https://github.com/NatronGitHub/clut
# LUTr-Retrieved: 2026-07-27
# LUTr-Source-File: submissions/natron-haldclut-presets/colorslide/generic_fuji_velvia_100.png
# LUTr-Source-Format: HALD-PNG
# LUTr-Source-SHA256: 984b1ef2a884944fca9918b183275ae02429609b6f6ffb54417036ad4ed840ff
# LUTr-License: CC-BY-SA-4.0
# LUTr-License-URL: https://github.com/NatronGitHub/clut#license
# LUTr-License-Basis: repo-license-file
# LUTr-Transform-Class: film-emulation
# LUTr-Tags: creative, film, film-emulation, hald-clut, natron, png, cube
# LUTr-Input-Color-Space: srgb
# LUTr-Input-Gamut: rec709
# LUTr-Input-Transfer: srgb
# LUTr-Output-Color-Space: srgb
# LUTr-Output-Gamut: rec709
# LUTr-Output-Transfer: srgb
# LUTr-Color-Space-Confidence: assumed-display-referred
# LUTr-Domain-Normalized: true
# LUTr-Shaper: none
# LUTr-Original-Grid: 64x64x64
# LUTr-Conversion-Grid: 25x25x25
# LUTr-Conversion-Interpolation: trilinear
# LUTr-Conversion-Method: HALD-PNG LUT image decoded at 16-bit and sampled to 25x25x25 3D CUBE
# LUTr-Conversion-Tool: LUTr scripts/convert-all-to-cube.mjs 2.0.0
# LUTr-Conversion-Date: 2026-07-27
# LUTr-Note: Preserve this metadata and the upstream license notices when redistributing.
TITLE "generic fuji velvia 100"
LUT_3D_SIZE 9
DOMAIN_MIN 0 0 0
DOMAIN_MAX 1 1 1
0.02745098 0.039215686 0.023529412
0.085294118 0.016176471 0.011764706
0.20294118 0.018627451 0.02254902
0.35980392 0.0093137255 0.023529412
0.54117647 0.0078431373 0.033333333
0.73823529 0.0024509804 0.010294118
0.89901961 0.0039215686 0.014705882
1 0.0039215686 0.0078431373
1 0 0.0039215686
0.046568627 0.088235294 0.023529412
0.070465686 0.080882353 0.0049019608
0.19914216 0.080882353 0.019117647
0.35588235 0.073039216 0.017463235
0.54117647 0.073039216 0.016176471
0.73039216 0.063909314 0.011764706
0.89509804 0.053431373 0.016176471
0.98866422 0.05692402 0.015686275
1 0.042156863 0
0.059803922 0.20294118 0.011764706
0.090196078 0.20379902 0.014338235
0.1747549 0.20294118 0.014705882
0.34803922 0.20294118 0.0078431373
0.5372549 0.19705882 0.0078431373
0.7310049 0.18333333 0.019607843
0.89215686 0.18333333 0.0078431373
0.99607843 0.18186275 0.0083333333
1 0.16372549 0.02254902
0.032843137 0.36911765 0.037745098
0.024816176 0.36893382 0.024019608
0.10588235 0.37156863 0.015318627
0.3245098 0.37156863 0.019607843
0.52941176 0.36642157 0.026715686
0.70833333 0.35980392 0.015134804
0.87303922 0.35980392 0.011764706
0.99215686 0.35196078 0.0081495098
1 0.34803922 0.0053921569
0.0078431373 0.55686275 0.037254902
0.0039215686 0.55686275 0.019607843
0 0.55882353 0.011764706
0.26053922 0.56004902 0.011764706
0.48627451 0.55980392 0.02254902
0.67352941 0.54436275 0.015686275
0.83823529 0.54068627 0.019607843
0.97769608 0.53676471 0.025245098
0.99607843 0.5254902 0.01372549
0 0.74068627 0.019607843
0.0039215686 0.72892157 0.019607843
0.0050245098 0.72218137 0.015686275
0.14509804 0.73039216 0.010294118
0.44362745 0.72892157 0.0078431373
0.64656863 0.72254902 0.012683824
0.81421569 0.71862745 0.011764706
0.93970588 0.71323529 0.014215686
1 0.70833333 0.0078431373
0 0.87156863 0.010784314
0 0.86764706 0.011764706
0.0039215686 0.87132353 0.0071078431
0.066666667 0.88333333 0.0018382353
0.39215686 0.87941176 0.0029411765
0.61176471 0.86666667 0.0039215686
0.77867647 0.86666667 0.0039215686
0.90637255 0.86262255 0.0039215686
0.97843137 0.85098039 0.0039215686
0 0.99215686 0
0.00049019608 0.99215686 0
0.012132353 0.97401961 0
0.096752451 0.99050245 0
0.41323529 0.98529412 0
0.6004902 0.99246324 0
0.75637255 0.9877451 0
0.86862745 0.96176471 0
0.96078431 0.97843137 0
0.0039215686 0.99215686 0
0.034313725 0.99558824 0.0039215686
0.18137255 1 0
0.35637255 1 0
0.5372549 1 0
0.68186275 1 0
0.79607843 0.99705882 0
0.88382353 0.99215686 0
0.95686275 0.99607843 0
0.016176471 0.020098039 0.076960784
0.088235294 0.016237745 0.080392157
0.20392157 0.019117647 0.084313725
0.35735294 0.015379902 0.076960784
0.54313725 0.0058823529 0.073284314
0.72647059 0.0078431373 0.080882353
0.90637255 0.0078431373 0.073897059
0.99607843 0.012254902 0.076470588
1 0.0044117647 0.084803922
0.042647059 0.084313725 0.084742647
0.088235294 0.080882353 0.080882353
0.19607843 0.073161765 0.077083333
0.35980392 0.076776961 0.076960784
0.55073529 0.069362745 0.073039216
0.7341299 0.061542586 0.07734375
0.90652574 0.052696078 0.069439338
0.9926394 0.049027267 0.069125306
1 0.045159314 0.065686275
0.058823529 0.19607843 0.084926471
0.078431373 0.20428922 0.077083333
0.18020833 0.20220588 0.073253676
0.35686275 0.19108456 0.069117647
0.54901961 0.18848039 0.065502451
0.73092831 0.17647059 0.068933824
0.89509804 0.1807598 0.061397059
0.99215686 0.17634804 0.061443015
1 0.16384804 0.068627451
0.01127451 0.36372549 0.077757353
0.022120098 0.37156863 0.06584712
0.10294118 0.37156863 0.062729779
0.32506127 0.36771599 0.069117647
0.53088235 0.36577819 0.06127451
0.7078508 0.35980392 0.060776654
0.87696078 0.35307904 0.056234681
0.98856464 0.3464614 0.061764706
1 0.3403799 0.065686275
0.0039215686 0.55686275 0.063970588
0.0039215686 0.56078431 0.057843137
0.014522059 0.55882353 0.050428922
0.25137868 0.56078431 0.057843137
0.49607843 0.55686275 0.051470588
0.67959559 0.54436275 0.051960784
0.84534314 0.53333333 0.050245098
0.98357843 0.5370098 0.044117647
0.99607843 0.5254902 0.048039216
0 0.73676471 0.025183824
0.0039215686 0.73284314 0.033003983
0.006495098 0.725 0.031556373
0.1797258 0.72903646 0.031571691
0.44607843 0.72956495 0.029105392
0.64656863 0.72107843 0.034022672
0.80735294 0.71715686 0.030744485
0.94585631 0.70931373 0.026799939
0.99068627 0.70686275 0.041176471
0 0.87414216 0.011764706
0 0.87176777 0.015456495
0.0039215686 0.87417279 0.0078431373
0.064445466 0.87977941 0.0039215686
0.38823529 0.87457108 0.0077205882
0.60727635 0.87058824 0.0039215686
0.77389706 0.8627451 0.0084865196
0.91297488 0.85929841 0.010416667
0.96164216 0.85490196 0.0078431373
0.0034926471 0.97401961 0.0077818627
0.0039215686 0.97696078 0.0069776348
0.0081648284 0.97254902 0.0034313725
0.11286765 0.97865349 0
0.40735294 0.96933211 0.00042892157
0.61354167 0.97699908 0.0039215686
0.76035539 0.96928615 0.0039215686
0.88327972 0.95784314 0.0039215686
0.96029412 0.96660539 0
0.0039215686 0.99607843 0
0.015196078 0.99607843 0.0039215686
0.13431373 1 0
0.36648284 1 0
0.51593137 0.99607843 0
0.65704657 0.99068627 0.0053921569
0.79117647 0.99558824 0.0039215686
0.88382353 0.99215686 0.0069240196
0.95686275 0.99607843 0
0.014705882 0.018627451 0.19901961
0.092156863 0.034436275 0.20379902
0.2 0.0085784314 0.20392157
0.35588235 0.0078431373 0.19509804
0.54656863 0.0019607843 0.19607843
0.73541667 0.0049019608 0.20539216
0.91176471 0.0039215686 0.18333333
0.99607843 0.0039215686 0.18235294
1 0 0.18235294
0.031862745 0.072671569 0.19901961
0.085125613 0.069117647 0.20021446
0.19509804 0.066452206 0.20101103
0.35980392 0.055744485 0.18837316
0.54901961 0.05747549 0.19509804
0.73688725 0.052542892 0.19509804
0.90015319 0.042647059 0.18897059
0.99607843 0.038924632 0.19241728
1 0.052941176 0.1872549
0.055882353 0.18823529 0.18333333
0.087898284 0.19509804 0.18354779
0.1879902 0.19289216 0.18651961
0.36032475 0.18103554 0.19178922
0.54901961 0.18137255 0.19044118
0.73321078 0.16835172 0.18259804
0.89215686 0.16446078 0.18039216
0.99313725 0.16115196 0.18768382
1 0.15588235 0.18455882
0.010784314 0.36127451 0.18909314
0.022043505 0.37011336 0.1754902
0.13296569 0.36372549 0.17193627
0.33143382 0.36017157 0.16973039
0.53039216 0.36372549 0.17941176
0.71017157 0.35234375 0.17807904
0.87696078 0.34093137 0.17230392
0.98860294 0.33713235 0.1717065
1 0.33517157 0.17205882
0 0.55294118 0.15392157
0.0029411765 0.55784314 0.15563725
0.013480392 0.55355392 0.15392157
0.26470588 0.55294118 0.16470588
0.49558824 0.5497549 0.16078431
0.67745098 0.5439951 0.1588848
0.84571078 0.53235294 0.15710784
0.98069853 0.52922794 0.15392157
0.99607843 0.52156863 0.15686275
0 0.73321078 0.11311275
0.0039215686 0.73284314 0.1092065
0.0035845588 0.725 0.10796569
0.19460784 0.725 0.11335784
0.44877451 0.72316176 0.1122549
0.64656863 0.71715686 0.11078431
0.81832108 0.70995711 0.11534926
0.94998468 0.70257353 0.11599265
0.99669118 0.70208333 0.12058824
0 0.87843137 0.050735294
0 0.87876838 0.042493873
0.006495098 0.8747549 0.062928922
0.098223039 0.8745098 0.072426471
0.40134804 0.86948529 0.054411765
0.61841299 0.86354167 0.063694853
0.7754902 0.86292892 0.059252451
0.91078431 0.85462623 0.083609069
0.99117647 0.85294118 0.053921569
0.00049019608 0.96960784 0.064215686
0 0.9817402 0.038250613
0.0079963235 0.96905637 0.068780637
0.12490809 0.97522978 0.056341912
0.42132353 0.97352941 0.046507353
0.61482843 0.98164828 0.035615809
0.76479779 0.97095588 0.043229167
0.88425245 0.96551777 0.045159314
0.96727941 0.95919118 0.047181373
0.0039215686 1 0.083333333
0.010294118 1 0.079411765
0.18112745 1 0.082352941
0.35392157 1 0.076593137
0.5254902 1 0.092156863
0.67254902 0.99607843 0.085171569
0.79583333 0.99901961 0.087745098
0.88762255 0.99473039 0.089705882
0.95784314 0.98627451 0.054901961
0.015686275 0.0053921569 0.36764706
0.096568627 0.024509804 0.36617647
0.2 0.0082107843 0.36764706
0.35735294 0.0078431373 0.36856618
0.54117647 0.0039215686 0.3754902
0.74215686 0.0039215686 0.36764706
0.91568627 0.0057598039 0.36556373
0.99607843 0.0039215686 0.35980392
0.99607843 0.0078431373 0.35980392
0.033517157 0.06372549 0.36127451
0.093137255 0.061764706 0.359375
0.20280331 0.057766544 0.36377145
0.36072304 0.054404105 0.36243873
0.54304534 0.050245098 0.37156863
0.73823529 0.03560815 0.35851716
0.90779718 0.040333946 0.35637255
0.98638174 0.036619179 0.35234375
0.99607843 0.05 0.35214461
0.034191176 0.19117647 0.35588235
0.082659314 0.17887561 0.3524663
0.19525123 0.17303922 0.35012255
0.36395527 0.17267157 0.3573223
0.54963235 0.15882353 0.36072304
0.73676471 0.15934436 0.36072304
0.89791667 0.1486826 0.34803922
0.99348958 0.15588235 0.35196078
0.99607843 0.14019608 0.34803922
0.0038602941 0.3495098 0.35343137
0.036757047 0.35496324 0.3448989
0.14123775 0.35301777 0.34166667
0.34201134 0.3495098 0.34319853
0.54264706 0.34166667 0.34996936
0.71862745 0.3353171 0.34503676
0.8801011 0.32935049 0.33682598
0.9977405 0.32194393 0.33805147
1 0.31911765 0.34411765
0 0.5372549 0.34289216
0 0.54479167 0.33563113
0.047120098 0.54117647 0.3286152
0.28161765 0.53648897 0.33480392
0.50392157 0.53370098 0.3310049
0.6877451 0.52745098 0.32254902
0.85422794 0.52267157 0.32481618
0.98863358 0.52156863 0.32181373
1 0.51642157 0.32794118
0 0.71617647 0.31911765
0.00080422794 0.71770833 0.31372549
0.011764706 0.71729473 0.31372549
0.18247549 0.71378676 0.31519608
0.46492034 0.7073223 0.31323529
0.65441176 0.70481771 0.30400582
0.81911765 0.69970895 0.30588235
0.96079197 0.69754902 0.30643382
0.99215686 0.69901961 0.30643382
0 0.86997549 0.30098039
0 0.86020221 0.28566176
0.0012561275 0.85821078 0.29733456
0.12611826 0.8615962 0.2995098
0.434375 0.85245098 0.30134804
0.63013174 0.85421262 0.28875613
0.79050245 0.85490196 0.28008578
0.92150735 0.85036765 0.295144
0.99117647 0.84313725 0.29068627
0 0.97824755 0.29411765
0.0031632966 0.95430453 0.28253676
0.010646446 0.96470588 0.29166667
0.15208333 0.97408088 0.29247089
0.42999387 0.97009804 0.29289216
0.6278799 0.9622549 0.28957567
0.77389706 0.96715686 0.28167892
0.89008885 0.95543045 0.29166667
0.97647059 0.95196078 0.28039216
0.0039215686 0.99215686 0.28529412
0.0066789216 1 0.29773284
0.19963235 1 0.30453431
0.38492647 1 0.30496324
0.53112745 0.99803922 0.29558824
0.66133578 0.99607843 0.2995098
0.79791667 0.99607843 0.29558824
0.88988971 0.99607843 0.29558824
0.97107843 1 0.28921569
0.021568627 0.0058823529 0.54705882
0.10098039 0.006127451 0.54705882
0.20294118 0.0039215686 0.54705882
0.36764706 0.0085784314 0.54509804
0.54509804 0.0039215686 0.55098039
0.74338235 0.0053921569 0.55294118
0.91470588 0.0093137255 0.55245098
0.99607843 0.0058823529 0.54509804
0.99607843 0.0078431373 0.5372549
0.035539216 0.044117647 0.54901961
0.10661765 0.047794118 0.55098039
0.21078431 0.045833333 0.54901961
0.36911765 0.042800245 0.54705882
0.5557598 0.033578431 0.54914216
0.74215686 0.03716299 0.54730392
0.91176471 0.022058824 0.54534314
0.98458946 0.021078431 0.54139093
0.99607843 0.025 0.53137255
0.053431373 0.16666667 0.53578431
0.10189951 0.15980392 0.53811275
0.20686275 0.15821078 0.54215686
0.36783088 0.1591299 0.54509804
0.55784314 0.15196078 0.54509804
0.74160539 0.14460784 0.53504902
0.90294118 0.13088235 0.52598039
0.99258578 0.13431373 0.52794118
0.99607843 0.12892157 0.52401961
0.020588235 0.34142157 0.52622549
0.031678922 0.3388174 0.53014706
0.15447304 0.33805147 0.53333333
0.35196078 0.33897059 0.53042279
0.5504902 0.32193627 0.53333333
0.72555147 0.31786152 0.52745098
0.88088235 0.31078431 0.51764706
0.99745711 0.30980392 0.51764706
0.99852941 0.30686275 0.51764706
0.00098039216 0.53333333 0.51862745
0.0025735294 0.52867647 0.51948529
0.012745098 0.52745098 0.51960784
0.29987745 0.52095588 0.51960784
0.51519608 0.51176471 0.51960784
0.70379902 0.50882353 0.51102941
0.86176471 0.50882353 0.51372549
0.99068627 0.50404412 0.51372549
0.99607843 0.50686275 0.51568627
0 0.69558824 0.50980392
0.0037377451 0.69623162 0.50459559
0.013602941 0.70116422 0.50465686
0.22545956 0.6948223 0.50318627
0.47830882 0.69178922 0.49865196
0.67132353 0.68998162 0.49702819
0.83253676 0.68382353 0.50226716
0.9620098 0.68259804 0.50318627
0.99803922 0.68137255 0.50196078
0 0.85147059 0.50539216
0 0.84926471 0.49803922
0.0045343137 0.84742647 0.50134804
0.16721814 0.84859069 0.49914216
0.45343137 0.84117647 0.49411765
0.64558824 0.83970588 0.48627451
0.80183824 0.8372549 0.49227941
0.92892157 0.83180147 0.49368873
0.99264706 0.82892157 0.49019608
0 0.95416667 0.4879902
0.0039522059 0.94650735 0.49754902
0.0029411765 0.95741422 0.49803922
0.19944853 0.95799632 0.49126838
0.45661765 0.95833333 0.49387255
0.6364277 0.95058211 0.4864277
0.78131127 0.94730392 0.48627451
0.89730392 0.94065564 0.49019608
0.98210784 0.93676471 0.48431373
0.0039215686 0.99215686 0.48627451
0.037745098 0.99607843 0.48823529
0.2 1 0.50098039
0.39264706 1 0.49803922
0.53333333 0.99215686 0.49313725
0.68578431 0.99607843 0.49411765
0.80098039 0.99019608 0.49411765
0.89730392 0.99436275 0.48602941
0.97647059 1 0.48235294
0.019607843 0 0.72107843
0.10441176 0.0039215686 0.71470588
0.20490196 0.0024509804 0.70747549
0.37156863 0.006372549 0.71231618
0.55686275 0.0051470588 0.72254902
0.74607843 0.0048406863 0.71770833
0.92254902 0.0039215686 0.71715686
1 0.0039215686 0.71715686
1 0.0093137255 0.70931373
0.04754902 0.034313725 0.71715686
0.10441176 0.021591605 0.71688879
0.20880821 0.025934436 0.71862745
0.37537531 0.016597733 0.71403952
0.56421569 0.034221814 0.71323529
0.75 0.033762255 0.71243107
0.91617647 0.023039216 0.70931373
0.99093137 0.011703431 0.70931373
1 0.011764706 0.70539216
0.085661765 0.14080882 0.69963235
0.1122549 0.14803922 0.71017157
0.21632966 0.14730392 0.71360294
0.3754902 0.13549326 0.71646752
0.56078431 0.13474265 0.71145833
0.74276961 0.12663909 0.70539216
0.90723039 0.11804534 0.69791667
0.99630821 0.11305147 0.6962163
1 0.11948529 0.69509804
0.026470588 0.3338848 0.69509804
0.03381587 0.32892157 0.70539216
0.16830576 0.32280944 0.70617341
0.35755974 0.316322 0.70539216
0.5504902 0.30882353 0.70416667
0.73016238 0.30343137 0.69697457
0.8933364 0.29859069 0.69117647
0.99356618 0.29466912 0.69037224
1 0.29650735 0.6966299
0 0.51887255 0.69117647
0.0053002451 0.51234681 0.69632353
0.059068627 0.5122549 0.69148284
0.31862745 0.5046875 0.69166667
0.52463235 0.49803922 0.69142157
0.7044424 0.49730392 0.68820466
0.86176471 0.49675245 0.68578431
0.99623162 0.49264706 0.68406863
0.99607843 0.49338235 0.69362745
0 0.68878676 0.67886029
0 0.68498009 0.67886029
0.0039215686 0.68878676 0.67794118
0.2588848 0.68094363 0.68036918
0.4921875 0.67521446 0.68140319
0.67851562 0.68278186 0.66917892
0.83673407 0.67470895 0.67401961
0.96384038 0.66843597 0.67101716
0.99068627 0.66317402 0.66709559
0 0.83419118 0.67009804
0.00032169118 0.83497243 0.67009804
0.027941176 0.83529412 0.67009804
0.20658701 0.83604473 0.67120098
0.46446078 0.82990196 0.66930147
0.65356924 0.83013174 0.6622549
0.81204044 0.82564338 0.66556373
0.92904412 0.81960784 0.6622549
0.98823529 0.82058824 0.66372549
0.0053921569 0.94068627 0.66617647
0.0039215686 0.93872549 0.66403186
0.005713848 0.9504902 0.65980392
0.23191636 0.9511106 0.65349265
0.47411152 0.94574142 0.65833333
0.64442402 0.94479167 0.65821844
0.79673713 0.93448223 0.65772059
0.90359222 0.93069853 0.65833333
0.98216912 0.92745098 0.65588235
0.0053921569 0.99460784 0.66617647
0.029105392 0.99607843 0.66372549
0.19656863 0.99644608 0.66556373
0.38480392 0.99607843 0.66617647
0.54705882 0.99607843 0.65833333
0.67892157 0.98676471 0.65686275
0.79215686 0.97647059 0.65441176
0.89920343 0.99785539 0.6596201
0.98039216 0.98431373 0.6504902
0.031372549 0.0039215686 0.86568627
0.10882353 0.0039215686 0.87058824
0.21568627 0.0039215686 0.86470588
0.36973039 0.011764706 0.85980392
0.5495098 0.011764706 0.86176471
0.74362745 0.0078431373 0.86875
0.92352941 0.0029411765 0.86887255
1 0.0039215686 0.86654412
1 0.0039215686 0.85882353
0.045343137 0.018259804 0.86764706
0.11176471 0.013526348 0.87225797
0.22279412 0.030422794 0.86277574
0.37285539 0.023529412 0.860769
0.55857843 0.011764706 0.86501225
0.74607843 0.0099877451 0.86505821
0.9189951 0.01127451 0.86311275
0.99607843 0.015196078 0.85931373
1 0.0039215686 0.85931373
0.067401961 0.12769608 0.85882353
0.11237745 0.13128064 0.8627451
0.22745098 0.13229167 0.85882353
0.3814951 0.12953431 0.85882353
0.56544118 0.11568627 0.8627451
0.74623162 0.11228554 0.85661765
0.91470588 0.10839461 0.85643382
0.99620098 0.10392157 0.85183824
1 0.1127451 0.84705882
0.019240196 0.31066176 0.85526961
0.044607843 0.31666667 0.85508578
0.19102328 0.31176471 0.85098039
0.37378983 0.30405944 0.85490196
0.55594363 0.29656863 0.85042892
0.73339461 0.29031863 0.84852941
0.89656863 0.28667279 0.84396446
0.99607843 0.28394608 0.84068627
1 0.28321078 0.83921569
0.00098039216 0.49411765 0.8504902
0.0069240196 0.49803922 0.84730392
0.084803922 0.50122549 0.83921569
0.33768382 0.49411765 0.84313725
0.53137255 0.48995098 0.83848039
0.71397059 0.48504902 0.83939951
0.86960784 0.48345588 0.83921569
0.97518382 0.4778799 0.83529412
1 0.47352941 0.83578431
0.00098039216 0.67732843 0.83713235
0.0026348039 0.6754902 0.83328738
0.030637255 0.67732843 0.83069853
0.2939951 0.67009804 0.83003983
0.50539216 0.67009804 0.82745098
0.68431373 0.67120098 0.82428002
0.84093137 0.66602328 0.82552083
0.96429228 0.65441176 0.82648591
0.99607843 0.65441176 0.82928922
0 0.83137255 0.82254902
0.0039215686 0.82009804 0.82254902
0.0099877451 0.82647059 0.82089461
0.23909314 0.82264093 0.81666667
0.47879902 0.81960784 0.81568627
0.6629902 0.81988358 0.8127451
0.81697304 0.81568627 0.80919118
0.93140319 0.81231618 0.81568627
0.99215686 0.80318627 0.81642157
0.013112745 0.92303922 0.81262255
0.0043045343 0.93474265 0.81176471
0.015134804 0.93746936 0.81265319
0.26338848 0.93517157 0.814231
0.49074755 0.93057598 0.80784314
0.65280331 0.92953431 0.80355392
0.8 0.92313113 0.80088848
0.91481311 0.929856 0.80390625
0.99117647 0.92561275 0.80747549
0.024509804 0.99313725 0.80784314
0.065196078 0.99215686 0.81176471
0.20514706 0.99387255 0.81176471
0.39656863 0.99607843 0.80821078
0.55539216 0.99215686 0.80441176
0.69252451 0.99313725 0.80281863
0.80294118 0.97647059 0.79607843
0.90343137 0.97598039 0.79607843
0.98823529 0.99313725 0.80392157
0.015196078 0 0.9745098
0.10484069 0.00049019608 0.98621324
0.21568627 0.00049019608 0.96605392
0.3754902 0.0039215686 0.96519608
0.55661765 0.0039215686 0.97254902
0.73431373 0.0039215686 0.96568627
0.91948529 0.0039215686 0.9622549
1 0.00006127451 0.96568627
1 0 0.98235294
0.047058824 0.030882353 0.97009804
0.10919884 0.012630208 0.97346814
0.22316176 0.00703125 0.98039216
0.37908241 0.014705882 0.97111673
0.55664828 0.013020833 0.96029412
0.74822304 0.02522212 0.96519608
0.91862745 0.0047794118 0.96997549
0.99613205 0.0069776348 0.97009804
1 0.015196078 0.97009804
0.06372549 0.12438725 0.97401961
0.11409314 0.12058824 0.96525735
0.23431373 0.12536765 0.97331495
0.3872549 0.1097886 0.97144608
0.56470588 0.1091299 0.95006127
0.74857537 0.1006587 0.96930147
0.91078431 0.098988971 0.96875
0.99183517 0.10453431 0.95870098
1 0.091666667 0.96458333
0.033333333 0.30098039 0.97303922
0.069829963 0.30882353 0.96305147
0.20490196 0.2957261 0.96458333
0.37996324 0.28884038 0.9548943
0.55863971 0.28137255 0.95441176
0.73915441 0.28107384 0.95507812
0.9004902 0.27719056 0.9622549
0.99997702 0.27069547 0.96133578
1 0.26960784 0.95490196
0.0083333333 0.49362745 0.95
0.0076286765 0.49803922 0.95193015
0.087622549 0.49001225 0.95441176
0.34197304 0.48504902 0.95343137
0.53835784 0.48321078 0.95465686
0.71789216 0.47665441 0.9504902
0.86911765 0.47573529 0.94871324
0.98673407 0.4622549 0.94586397
0.99607843 0.45490196 0.93848039
0.0039215686 0.66979167 0.92910539
0.0043504902 0.6713848 0.93069853
0.020327819 0.66649816 0.94264706
0.29901961 0.66194853 0.93988205
0.51234681 0.66185662 0.93854167
0.69607843 0.65650276 0.93891697
0.84928002 0.65418199 0.93636642
0.97834712 0.65 0.93649663
0.99607843 0.64234069 0.93069853
0.0039215686 0.82303922 0.91127451
0.0039215686 0.81960784 0.91911765
0.012132353 0.8192402 0.93085172
0.24643076 0.81531863 0.92792586
0.49025735 0.81348039 0.92665441
0.67009804 0.81158088 0.93051471
0.82362132 0.80873162 0.9299326
0.94215686 0.8 0.92372855
0.99215686 0.8 0.92303922
0.0074142157 0.92653186 0.91519608
0.011703431 0.92303922 0.91557138
0.029028799 0.93045343 0.92303922
0.2877451 0.92696078 0.92238817
0.50245098 0.92696078 0.92132353
0.67058824 0.91911765 0.92024357
0.80392157 0.9189951 0.92136949
0.91557138 0.91905637 0.9108992
0.99166667 0.91519608 0.91127451
0.023039216 0.99558824 0.91519608
0.035232843 0.99607843 0.91960784
0.22046569 0.99607843 0.91911765
0.40539216 0.99362745 0.91881127
0.55098039 0.98995098 0.91519608
0.69607843 0.99460784 0.91390931
0.81090686 0.99117647 0.91519608
0.90300245 0.98480392 0.9151348
0.99264706 0.99656863 0.91519608
0.015686275 0.0039215686 0.99607843
0.10490196 0.0039215686 0.99607843
0.22352941 0.0039215686 0.98529412
0.37303922 0.0039215686 0.98431373
0.54705882 0.0039215686 0.98431373
0.73823529 0.0078431373 0.98431373
0.91568627 0.0039215686 0.99313725
0.99607843 0.0039215686 0.99607843
1 0.0039215686 0.99607843
0.054411765 0.034803922 0.99215686
0.11574755 0.030882353 0.99215686
0.21960784 0.016176471 0.99558824
0.3754902 0.0073529412 0.99589461
0.55857843 0.01127451 0.99215686
0.74822304 0.021752451 0.98039216
0.91078431 0.0049019608 0.99215686
0.99957108 0.015686275 0.99607843
1 0.019117647 0.98823529
0.070588235 0.1245098 0.99705882
0.12193627 0.11973039 0.99607843
0.23137255 0.10955882 0.99607843
0.39620098 0.10134804 1
0.57254902 0.093137255 0.99607843
0.74889706 0.096936275 0.99154412
0.90514706 0.093137255 0.99607843
0.99620098 0.088357843 0.99215686
1 0.093137255 0.98431373
0.060294118 0.29166667 0.99754902
0.054411765 0.30490196 0.99607843
0.21335784 0.29411765 0.99607843
0.38180147 0.28137255 0.99270833
0.56544118 0.27745098 0.99607843
0.74215686 0.27352941 0.99307598
0.89987745 0.2692402 0.98578431
0.98302696 0.25931373 0.97794118
1 0.26176471 0.99460784
0.015686275 0.49019608 0.99215686
0.0078431373 0.48627451 0.99436275
0.10980392 0.49019608 0.9872549
0.33676471 0.48431373 0.99215686
0.53921569 0.48235294 0.99019608
0.71911765 0.46936275 0.98431373
0.86813725 0.47009804 0.99215686
0.98088235 0.45490196 0.98823529
0.99803922 0.45294118 0.99607843
0.0078431373 0.65833333 0.99607843
0.0065563725 0.65833333 0.99215686
0.024877451 0.65502451 0.99607843
0.30735294 0.65588235 0.99908088
0.5122549 0.64926471 0.99607843
0.7 0.63964461 0.98915441
0.84595588 0.64264706 0.99215686
0.97959559 0.64264706 0.99460784
0.99607843 0.63627451 0.99607843
0 0.80686275 0.99117647
0.0039215686 0.81176471 0.9807598
0.01004902 0.80955882 0.97941176
0.2810049 0.80490196 0.99068627
0.49656863 0.80735294 0.99607843
0.67401961 0.8 0.98039216
0.82254902 0.80098039 0.99117647
0.94215686 0.79693627 0.9872549
0.99607843 0.79607843 0.9872549
0.0039215686 0.91911765 0.98039216
0.0083333333 0.915625 0.97996324
0.041911765 0.91960784 0.98872549
0.30784314 0.91911765 0.98823529
0.51078431 0.92279412 0.99044118
0.67824755 0.91519608 0.98039216
0.81862745 0.91176471 0.99215686
0.92254902 0.9151348 0.98480392
0.99607843 0.91470588 0.98039216
0.0039215686 0.99215686 0.99215686
0.064705882 0.99607843 0.98088235
0.23627451 0.99607843 0.9754902
0.40294118 0.99460784 0.98039216
0.55882353 0.99411765 0.98823529
0.69607843 0.99215686 0.97892157
0.81176471 0.99215686 0.97745098
0.91470588 0.99166667 0.99166667
0.99607843 0.99607843 0.99607843
