site/assets/luts/sha256-0d3ac0f349e446e658c57291394b14b31050dbf4d34a61e5420a18c0039743e0.cube
# LUTr-Schema-Version: 2
# LUTr-ID: sha256-0d3ac0f349e446e658c57291394b14b31050dbf4d34a61e5420a18c0039743e0
# LUTr-Title: polaroid 690 warm
# LUTr-Collection: Natron HaldCLUT
# LUTr-Collection-ID: natron-haldclut-presets
# LUTr-Source: https://github.com/NatronGitHub/clut
# LUTr-Retrieved: 2026-07-27
# LUTr-Source-File: submissions/natron-haldclut-presets/instant_pro/polaroid_690_warm.png
# LUTr-Source-Format: HALD-PNG
# LUTr-Source-SHA256: 0d3ac0f349e446e658c57291394b14b31050dbf4d34a61e5420a18c0039743e0
# LUTr-License: CC-BY-SA-4.0
# LUTr-License-URL: https://github.com/NatronGitHub/clut#license
# LUTr-License-Basis: repo-license-file
# LUTr-Transform-Class: film-emulation
# LUTr-Tags: creative, film, film-emulation, hald-clut, natron, png, warm, cube
# LUTr-Input-Color-Space: srgb
# LUTr-Input-Gamut: rec709
# LUTr-Input-Transfer: srgb
# LUTr-Output-Color-Space: srgb
# LUTr-Output-Gamut: rec709
# LUTr-Output-Transfer: srgb
# LUTr-Color-Space-Confidence: assumed-display-referred
# LUTr-Domain-Normalized: true
# LUTr-Shaper: none
# LUTr-Original-Grid: 64x64x64
# LUTr-Conversion-Grid: 25x25x25
# LUTr-Conversion-Interpolation: trilinear
# LUTr-Conversion-Method: HALD-PNG LUT image decoded at 16-bit and sampled to 25x25x25 3D CUBE
# LUTr-Conversion-Tool: LUTr scripts/convert-all-to-cube.mjs 2.0.0
# LUTr-Conversion-Date: 2026-07-27
# LUTr-Note: Preserve this metadata and the upstream license notices when redistributing.
TITLE "polaroid 690 warm"
LUT_3D_SIZE 25
DOMAIN_MIN 0 0 0
DOMAIN_MAX 1 1 1
0.14901961 0.066666667 0.050980392
0.14901961 0.066666667 0.050980392
0.14901961 0.062745098 0.047058824
0.16715686 0.066666667 0.050980392
0.19019608 0.07254902 0.056862745
0.21666667 0.078431373 0.058823529
0.24411765 0.078431373 0.058823529
0.275 0.058333333 0.058823529
0.30196078 0.035294118 0.054901961
0.3377451 0.021078431 0.054901961
0.39313725 0.014705882 0.058823529
0.44460784 0.011764706 0.062254902
0.49607843 0.0058823529 0.062745098
0.54362745 0.0034313725 0.062254902
0.59509804 0 0.055882353
0.64117647 0 0.047058824
0.69019608 0 0.039215686
0.7377451 0 0.031372549
0.78431373 0 0.02745098
0.82941176 0 0.023529412
0.87843137 0.0039215686 0.015686275
0.92745098 0 0.01127451
0.97254902 0 0.0039215686
0.99215686 0 0
0.99215686 0 0
0.14264706 0.080882353 0.050980392
0.14417892 0.079411765 0.053431373
0.15 0.079779412 0.050980392
0.16764706 0.079595588 0.050980392
0.19142157 0.082107843 0.06004902
0.21666667 0.081066176 0.056372549
0.24411765 0.08125 0.055269608
0.275 0.062806373 0.054901961
0.30833333 0.048039216 0.054901961
0.34895833 0.035294118 0.054901961
0.39558824 0.020465686 0.058823529
0.44852941 0.012071078 0.062254902
0.49730392 0.0058823529 0.061519608
0.55128676 0.0034313725 0.055882353
0.59963235 0 0.049142157
0.64601716 0 0.042218137
0.69656863 0 0.035294118
0.74411765 0 0.031372549
0.79068627 0.0039215686 0.026470588
0.83921569 0.0039215686 0.020098039
0.88676471 0.0039215686 0.015686275
0.93400735 0.0039215686 0.0078431373
0.97647059 0.0039215686 0.0039215686
0.99215686 0.006372549 0.0039215686
0.99215686 0.006372549 0.0039215686
0.13627451 0.096078431 0.050980392
0.1432598 0.096078431 0.053921569
0.15416667 0.1 0.054901961
0.17156863 0.1 0.055882353
0.19411765 0.095588235 0.054901961
0.21801471 0.090686275 0.050980392
0.24436275 0.084313725 0.050245098
0.28137255 0.075 0.050980392
0.31960784 0.068627451 0.050980392
0.35980392 0.058333333 0.054901961
0.40490196 0.035294118 0.058088235
0.44865196 0.017279412 0.058823529
0.50245098 0.0083333333 0.055882353
0.55894608 0 0.046936275
0.60710784 0 0.042156863
0.65539216 0 0.037132353
0.70686275 0 0.035294118
0.75441176 0 0.031372549
0.80196078 0.0039215686 0.026470588
0.8495098 0.0039215686 0.020098039
0.89656863 0.0039215686 0.015686275
0.94019608 0.0039215686 0.0078431373
0.97745098 0.0046568627 0.0049019608
0.98933824 0.0082107843 0.0049019608
0.99215686 0.011764706 0.0049019608
0.12990196 0.1127451 0.047058824
0.14344363 0.11666667 0.053125
0.15784314 0.11764706 0.058455882
0.17199755 0.12058824 0.06182598
0.19607843 0.11470588 0.058578431
0.22101716 0.10882353 0.054411765
0.24803922 0.11090686 0.048039216
0.2877451 0.10294118 0.047242647
0.32892157 0.092647059 0.050980392
0.37009804 0.080208333 0.051286765
0.41519608 0.063112745 0.054901961
0.459375 0.042156863 0.055392157
0.51102941 0.016911765 0.04754902
0.56666667 0 0.039644608
0.61507353 0 0.035784314
0.66697304 0.0036151961 0.035294118
0.71715686 0 0.035294118
0.76599265 0.00030637255 0.029227941
0.81482843 0.0039215686 0.023897059
0.86029412 0.0039215686 0.019669118
0.90710784 0.0039215686 0.01372549
0.95 0.0039215686 0.0078431373
0.97536765 0.0068627451 0.0074754902
0.98578431 0.011764706 0.0078431373
0.99215686 0.011764706 0.0078431373
0.13921569 0.13921569 0.052941176
0.1495098 0.13921569 0.057352941
0.16176471 0.13921569 0.063235294
0.17377451 0.14117647 0.064705882
0.19803922 0.13921569 0.060784314
0.22671569 0.14142157 0.054411765
0.25735294 0.14460784 0.047058824
0.29411765 0.14044118 0.056372549
0.33529412 0.13137255 0.045098039
0.37965686 0.11911765 0.045098039
0.42598039 0.10686275 0.044607843
0.47598039 0.093137255 0.039460784
0.52941176 0.065686275 0.034313725
0.58455882 0.046078431 0.029901961
0.63284314 0.028921569 0.034803922
0.68186275 0.015441176 0.035294118
0.73333333 0.0019607843 0.031372549
0.77965686 0.0019607843 0.02745098
0.82647059 0.0044117647 0.023039216
0.87401961 0.0039215686 0.016176471
0.91960784 0.0019607843 0.010784314
0.96029412 0.0039215686 0.0056372549
0.97941176 0.0068627451 0.0039215686
0.9870098 0.011764706 0.0078431373
0.99215686 0.011764706 0.0058823529
0.15245098 0.17009804 0.062254902
0.15667892 0.16746324 0.062254902
0.16568627 0.16617647 0.062254902
0.17947304 0.16666667 0.062254902
0.20416667 0.17009804 0.058578431
0.23241422 0.17408088 0.050980392
0.26409314 0.17830882 0.04754902
0.3026348 0.17843137 0.053002451
0.34117647 0.1745098 0.034313725
0.38921569 0.16697304 0.030882353
0.44509804 0.16629902 0.030392157
0.49656863 0.15294118 0.026531863
0.55196078 0.13529412 0.023039216
0.60784314 0.12794118 0.023039216
0.65625 0.10477941 0.026960784
0.70147059 0.077941176 0.026776961
0.74313725 0.04754902 0.026470588
0.78988971 0.032046569 0.02254902
0.83713235 0.016053922 0.019485294
0.88431373 0.0093137255 0.015257353
0.92794118 0.0024509804 0.0075980392
0.97009804 0 0.0034313725
0.98333333 0.0068627451 0.0039215686
0.99001225 0.011580882 0.0039215686
0.99607843 0.01127451 0.0039215686
0.14901961 0.19705882 0.048039216
0.15539216 0.19705882 0.051593137
0.17034314 0.20171569 0.051960784
0.18627451 0.20477941 0.051960784
0.20931373 0.20441176 0.054901961
0.23578431 0.20796569 0.050490196
0.26985294 0.21495098 0.037990196
0.30747549 0.21960784 0.028308824
0.34803922 0.21568627 0.020588235
0.40306373 0.21715686 0.017647059
0.4627451 0.22230392 0.015931373
0.51715686 0.21727941 0.012745098
0.57598039 0.20882353 0.012745098
0.63566176 0.20686275 0.012745098
0.68259804 0.18627451 0.016666667
0.72879902 0.1682598 0.016666667
0.7745098 0.14705882 0.012745098
0.81176471 0.12303922 0.012745098
0.85318627 0.093872549 0.015686275
0.89803922 0.077328431 0.0091911765
0.94166667 0.054901961 0.0044117647
0.97696078 0.03247549 0
0.98651961 0.035294118 0
0.99362745 0.023406863 0
1 0.016666667 0
0.14509804 0.23088235 0.039215686
0.15931373 0.23578431 0.040196078
0.17352941 0.24117647 0.040196078
0.19117647 0.24509804 0.040196078
0.2125 0.24117647 0.044852941
0.23854167 0.24166667 0.04754902
0.27487745 0.25012255 0.03370098
0.31421569 0.25741422 0.016666667
0.35686275 0.2622549 0.0078431373
0.41470588 0.26862745 0.0069240196
0.47647059 0.275 0.0029411765
0.53823529 0.27953431 0
0.59607843 0.27941176 0.0039215686
0.65723039 0.27910539 0.0039215686
0.70931373 0.27267157 0.006372549
0.75539216 0.25882353 0.0088235294
0.79509804 0.24607843 0.0078431373
0.83235294 0.22941176 0.0078431373
0.87352941 0.2060049 0.010294118
0.91685049 0.18792892 0.0065563725
0.95490196 0.16985294 0.0031862745
0.97873775 0.14901961 0
0.98762255 0.14852941 0
0.99362745 0.15245098 0
1 0.15 0
0.14117647 0.28235294 0.039215686
0.15784314 0.28235294 0.031372549
0.17352941 0.28235294 0.026470588
0.1877451 0.28627451 0.023529412
0.21176471 0.28627451 0.025490196
0.24460784 0.29019608 0.02745098
0.27843137 0.29411765 0.020588235
0.31421569 0.30196078 0.010294118
0.35686275 0.30980392 0.0078431373
0.41470588 0.31764706 0.0039215686
0.47254902 0.3254902 0.0029411765
0.53431373 0.33284314 0
0.59411765 0.3372549 0
0.65833333 0.34166667 0
0.72647059 0.34901961 0
0.78088235 0.34754902 0
0.81568627 0.3372549 0.0039215686
0.85294118 0.32696078 0.0039215686
0.89411765 0.31176471 0.0039215686
0.93186275 0.29117647 0.0039215686
0.96078431 0.27647059 0
0.98137255 0.2622549 0
0.99215686 0.25784314 0
0.99607843 0.26813725 0
1 0.27058824 0
0.13088235 0.33382353 0.032843137
0.14754902 0.33229167 0.025919118
0.16813725 0.32990196 0.016176471
0.18511029 0.32990196 0.0058823529
0.21176471 0.33259804 0.0049019608
0.24460784 0.33560049 0.0093137255
0.27941176 0.34105392 0.011764706
0.31176471 0.34797794 0.0078431373
0.35686275 0.35735294 0.0078431373
0.4122549 0.36764706 0.0039215686
0.47254902 0.37401961 0.0029411765
0.53057598 0.38216912 0
0.59215686 0.38995098 0
0.65539216 0.39705882 0
0.72107843 0.40343137 0
0.78082108 0.40833333 0
0.82598039 0.40539216 0
0.86807598 0.39993873 0.00055147059
0.90833333 0.39301471 0
0.94019608 0.38382353 0
0.96397059 0.3745098 0
0.98560049 0.36648284 0
0.99607843 0.35747549 0
0.99607843 0.34810049 0
1 0.34264706 0
0.12058824 0.38431373 0.02254902
0.1372549 0.38137255 0.016176471
0.15784314 0.37965686 0.006127451
0.17941176 0.37659314 0.00036764706
0.20980392 0.37647059 0
0.24460784 0.38039216 0.0039215686
0.2754902 0.38504902 0.0075980392
0.31176471 0.39362745 0.0074754902
0.35784314 0.40490196 0.0039215686
0.4122549 0.41519608 0.0039215686
0.47156863 0.4252451 0.0039215686
0.52953431 0.43186275 0
0.5872549 0.43970588 0
0.64901961 0.44718137 0
0.71078431 0.45171569 0
0.77254902 0.45735294 0
0.83431373 0.46666667 0
0.87401961 0.46188725 0
0.90882353 0.45122549 0
0.93884804 0.44509804 0
0.96421569 0.43921569 0
0.98529412 0.43333333 0
0.99607843 0.43112745 0
0.99607843 0.42536765 0
1 0.41862745 0
0.10637255 0.42941176 0.012254902
0.1254902 0.42892157 0.0044117647
0.15147059 0.4254902 0.0039215686
0.17591912 0.42199755 0
0.20808824 0.42107843 0
0.24068627 0.42205882 0.00091911765
0.27193627 0.42843137 0.0039215686
0.31323529 0.43872549 0.0039215686
0.36078431 0.45245098 0.0039215686
0.4122549 0.46109069 0.0039215686
0.46862745 0.46960784 0.0039215686
0.52696078 0.47990196 0.00049019608
0.58259804 0.48602941 0
0.63872549 0.49258578 0
0.7004902 0.49865196 0
0.76617647 0.50539216 0
0.82401961 0.51176471 0
0.86911765 0.51360294 0
0.90490196 0.50723039 0
0.93578431 0.50343137 0
0.9627451 0.49926471 0
0.98872549 0.49895833 0
0.99607843 0.49852941 0
0.99754902 0.49852941 0
1 0.49460784 0
0.092156863 0.47647059 0
0.11519608 0.47647059 0
0.14215686 0.47254902 0
0.17303922 0.47083333 0
0.20196078 0.46666667 0
0.23480392 0.46691176 0
0.27009804 0.47352941 0
0.31568627 0.47990196 0
0.3627451 0.48823529 0.0019607843
0.40906863 0.49656863 0.0031862745
0.46470588 0.50735294 0.0019607843
0.52647059 0.52083333 0
0.58137255 0.52843137 0
0.63382353 0.53553922 0
0.69068627 0.54264706 0
0.75196078 0.54901961 0
0.80980392 0.55490196 0
0.85735294 0.56127451 0
0.90098039 0.56470588 0
0.93382353 0.56102941 0
0.96666667 0.56078431 0
0.99264706 0.56078431 0
0.9995098 0.56078431 0
1 0.56348039 0
1 0.56666667 0
0.098039216 0.52401961 0
0.10833333 0.52616422 0
0.13186275 0.52696078 0
0.1627451 0.51666667 0
0.19362745 0.5120098 0
0.22849265 0.51182598 0
0.27058824 0.51482843 0
0.31568627 0.51715686 0
0.36078431 0.52352941 0
0.40569853 0.53118873 0
0.45637255 0.54105392 0
0.51813725 0.55441176 0
0.57622549 0.56470588 0
0.63033088 0.575 0
0.68529412 0.58529412 0
0.74430147 0.59166667 0
0.7995098 0.59803922 0
0.84705882 0.60196078 0
0.89362745 0.60686275 0
0.93137255 0.61323529 0
0.96813725 0.61789216 0
0.99699755 0.61911765 0
1 0.6254902 0
1 0.63167892 0
1 0.63431373 0.00049019608
0.10098039 0.57156863 0
0.10833333 0.5754902 0
0.12745098 0.5747549 0
0.15833333 0.56519608 0
0.18480392 0.55833333 0
0.2254902 0.55686275 0
0.27058824 0.55686275 0
0.31568627 0.55833333 0
0.36078431 0.56176471 0
0.40196078 0.56862745 0
0.44534314 0.57745098 0
0.50747549 0.58872549 0
0.56960784 0.60245098 0
0.62696078 0.61360294 0
0.68137255 0.62426471 0
0.73419118 0.63137255 0
0.78627451 0.63529412 0
0.83676471 0.64166667 0
0.88333333 0.64485294 0
0.92107843 0.65098039 0
0.95980392 0.65931373 0
0.99656863 0.66409314 0.00036764706
1 0.66764706 0.0039215686
1 0.67303922 0.0068627451
1 0.6754902 0.0068627451
0.092647059 0.62156863 0
0.11470588 0.62003676 0
0.14669118 0.61666667 0
0.17401961 0.60980392 0
0.20098039 0.60465686 0
0.23235294 0.60324755 0
0.27561275 0.60196078 0
0.31623775 0.60196078 0
0.36078431 0.60343137 0
0.4028799 0.60833333 0
0.44558824 0.61470588 0
0.503125 0.62481618 0
0.56470588 0.6377451 0
0.62205882 0.6495098 0
0.67352941 0.65980392 0
0.725 0.66862745 0
0.775 0.675 0
0.82647059 0.67984069 0
0.87340686 0.68431373 0
0.91421569 0.6903799 0
0.95294118 0.69534314 0
0.99264706 0.70030637 0.00049019608
0.99607843 0.70245098 0.0039215686
0.99607843 0.70484069 0.0093137255
0.99607843 0.70637255 0.011764706
0.11372549 0.66666667 0
0.13284314 0.6627451 0
0.16372549 0.65784314 0
0.19068627 0.65490196 0
0.21764706 0.65098039 0
0.24901961 0.64705882 0
0.28333333 0.64705882 0
0.31960784 0.64313725 0
0.36470588 0.64705882 0
0.40833333 0.65098039 0
0.45588235 0.65490196 0
0.51078431 0.6622549 0
0.56666667 0.67254902 0
0.62205882 0.68284314 0
0.67352941 0.69313725 0
0.725 0.70196078 0
0.77254902 0.70980392 0
0.82009804 0.71372549 0
0.86666667 0.72156863 0
0.90784314 0.7254902 0
0.95098039 0.73137255 0
0.99264706 0.7372549 0
0.99607843 0.7372549 0.0039215686
0.99607843 0.7372549 0.0078431373
0.99607843 0.7372549 0.011764706
0.16127451 0.70784314 0
0.17003676 0.70392157 0
0.18223039 0.69901961 0
0.20520833 0.69607843 0
0.23186275 0.69215686 0
0.26305147 0.68952206 0
0.29754902 0.68823529 0
0.33235294 0.68823529 0
0.37107843 0.68823529 0
0.41862745 0.69215686 0
0.46617647 0.6942402 0
0.51519608 0.69969363 0
0.56666667 0.70735294 0
0.61991422 0.71764706 0
0.67352941 0.725 0
0.72408088 0.73284314 0.00091911765
0.77009804 0.74068627 0
0.81672794 0.74460784 0
0.86029412 0.7495098 0
0.90147059 0.75637255 0.0021446078
0.94264706 0.7622549 0
0.97892157 0.76813725 0
0.99509804 0.77205882 0.0039215686
0.99908088 0.77205882 0.0063112745
1 0.77205882 0.0078431373
0.18529412 0.74411765 0
0.19620098 0.74056373 0
0.21102941 0.7370098 0
0.22463235 0.73370098 0
0.24656863 0.73333333 0
0.28333333 0.72941176 0.00012254902
0.32083333 0.72941176 0.0031862745
0.36139706 0.72941176 0.0039215686
0.39411765 0.72941176 0.00098039216
0.43137255 0.72941176 0
0.47941176 0.73333333 0
0.52144608 0.73713235 0
0.56568627 0.74264706 0
0.61470588 0.75196078 0
0.66960784 0.75588235 0.00073529412
0.72071078 0.76127451 0.0039215686
0.76862745 0.76764706 0.0039215686
0.81372549 0.7754902 0.0039215686
0.85465686 0.78039216 0.0039215686
0.89509804 0.78811275 0
0.93676471 0.79509804 0
0.96519608 0.7995098 0
0.99313725 0.80367647 0
1 0.80686275 0.0029411765
1 0.80686275 0.0039215686
0.22107843 0.77843137 0.0039215686
0.23511029 0.77843137 0.0039215686
0.25306373 0.7745098 0.0039215686
0.26758578 0.7745098 0.0034926471
0.28382353 0.77107843 0.0036764706
0.31721814 0.77058824 0.0039215686
0.35539216 0.77058824 0.0039215686
0.38988971 0.77058824 0.0039215686
0.41813725 0.77058824 0.0039215686
0.44803922 0.76697304 0
0.49056373 0.77071078 0
0.53780637 0.7745098 0.003002451
0.58308824 0.77696078 0.0034313725
0.62800245 0.77941176 0.0034926471
0.67303922 0.78578431 0.0039215686
0.7245098 0.79215686 0.0073529412
0.77205882 0.79852941 0.0073529412
0.81372549 0.80508578 0.0073529412
0.85477941 0.81127451 0.0039215686
0.89558824 0.81856618 0.0034926471
0.93137255 0.82598039 0.0034313725
0.95833333 0.82996324 0.0034313725
0.98884804 0.83419118 0.0034313725
1 0.83431373 0.0034313725
1 0.8377451 0.0034313725
0.28823529 0.81960784 0.0098039216
0.2997549 0.81960784 0.0078431373
0.31127451 0.81568627 0.0078431373
0.32303922 0.81568627 0.0078431373
0.33921569 0.81176471 0.0098039216
0.36421569 0.80980392 0.0095588235
0.39656863 0.81127451 0.0078431373
0.42598039 0.81176471 0.0078431373
0.45490196 0.80980392 0.0039215686
0.47867647 0.80784314 0.0039215686
0.51421569 0.80588235 0.0039215686
0.56053922 0.80784314 0.0039215686
0.60882353 0.80980392 0.0039215686
0.65269608 0.81372549 0.0041666667
0.69362745 0.81764706 0.0078431373
0.73602941 0.82303922 0.011764706
0.78235294 0.82941176 0.011764706
0.82352941 0.83578431 0.011764706
0.8622549 0.84166667 0.0098039216
0.90196078 0.84681373 0.0080882353
0.93529412 0.85098039 0.0088235294
0.96397059 0.85490196 0.012009804
0.99019608 0.85833333 0.01372549
1 0.85882353 0.012990196
1 0.85882353 0.011764706
0.35588235 0.85686275 0.015686275
0.3622549 0.85686275 0.0078431373
0.36862745 0.8567402 0.0078431373
0.37892157 0.8533701 0.0078431373
0.39509804 0.85269608 0.014215686
0.41568627 0.84901961 0.015257353
0.44656863 0.84901961 0.011887255
0.47334559 0.84901961 0.0078431373
0.49607843 0.84901961 0.0078431373
0.52058824 0.84509804 0.010477941
0.55 0.84460784 0.0082107843
0.5877451 0.84460784 0.0048406863
0.63455882 0.84460784 0.0041666667
0.67794118 0.84552696 0.0044117647
0.71862745 0.85159314 0.010416667
0.75637255 0.85655637 0.015686275
0.79313725 0.86029412 0.019607843
0.83137255 0.86403186 0.015686275
0.87107843 0.86813725 0.015686275
0.90833333 0.87205882 0.012254902
0.94142157 0.87598039 0.013970588
0.96966912 0.87941176 0.019607843
0.99411765 0.87990196 0.01997549
1 0.88333333 0.019914216
1 0.88333333 0.019607843
0.41764706 0.89509804 0.015686275
0.42156863 0.89411765 0.0078431373
0.42720588 0.89411765 0.0049019608
0.43676471 0.89411765 0.010906863
0.45343137 0.88872549 0.02254902
0.47058824 0.88627451 0.019485294
0.49583333 0.8870098 0.012745098
0.51960784 0.8872549 0.0078431373
0.5372549 0.88627451 0.010784314
0.56176471 0.88272059 0.013602941
0.59117647 0.88235294 0.011764706
0.62291667 0.87941176 0.010906863
0.66029412 0.87941176 0.0053921569
0.70490196 0.88247549 0.0039215686
0.74607843 0.8870098 0.0078431373
0.78223039 0.89056373 0.017156863
0.81078431 0.89117647 0.023529412
0.8435049 0.89178922 0.018995098
0.88039216 0.89607843 0.015686275
0.91519608 0.89987745 0.015686275
0.94705882 0.90294118 0.018627451
0.97389706 0.90392157 0.019607843
0.99509804 0.90392157 0.02254902
1 0.90502451 0.022058824
1 0.90686275 0.019607843
0.47941176 0.92990196 0.024509804
0.48425245 0.92990196 0.029411765
0.48504902 0.93137255 0.0084558824
0.49803922 0.93008578 0.017156863
0.51004902 0.92598039 0.023529412
0.52567402 0.92352941 0.020894608
0.54656863 0.92598039 0.012745098
0.56476716 0.92352941 0.016176471
0.58235294 0.92205882 0.018627451
0.60594363 0.92052696 0.017156863
0.63235294 0.91813725 0.017156863
0.66176471 0.91421569 0.017156863
0.69338235 0.91495098 0.0085784314
0.73186275 0.91813725 0.0039215686
0.77156863 0.92144608 0.0068627451
0.80104167 0.92058824 0.017156863
0.82892157 0.92058824 0.023529412
0.85735294 0.92205882 0.021078431
0.89068627 0.92598039 0.012867647
0.9254902 0.9286152 0.017953431
0.95367647 0.92720588 0.029656863
0.97922794 0.92990196 0.016973039
0.99938725 0.93051471 0.018627451
1 0.92990196 0.022058824
1 0.93235294 0.0088235294
0.54901961 0.96078431 0.11372549
0.54362745 0.95686275 0.10196078
0.55588235 0.95980392 0.10098039
0.55637255 0.95686275 0.10882353
0.5745098 0.96078431 0.10196078
0.58137255 0.95735294 0.089705882
0.59901961 0.96078431 0.083333333
0.60931373 0.95539216 0.070588235
0.62745098 0.95294118 0.066666667
0.64803922 0.95294118 0.060294118
0.66862745 0.94509804 0.042156863
0.69313725 0.94166667 0.027941176
0.72352941 0.94509804 0.01372549
0.75882353 0.9495098 0.0034313725
0.78921569 0.94607843 0.0068627451
0.81470588 0.94117647 0.017156863
0.84313725 0.94117647 0.02745098
0.87254902 0.94509804 0.040196078
0.90490196 0.95294118 0.056862745
0.93235294 0.9495098 0.058823529
0.95686275 0.94901961 0.064705882
0.98186275 0.95294118 0.075490196
1 0.95392157 0.090196078
1 0.95294118 0.089215686
1 0.95686275 0.10980392
0.14901961 0.069117647 0.06372549
0.14901961 0.067585784 0.06372549
0.14901961 0.066666667 0.06372549
0.16372549 0.069117647 0.06372549
0.18823529 0.070588235 0.065196078
0.21060049 0.074509804 0.069117647
0.24019608 0.071568627 0.069117647
0.27107843 0.055882353 0.065196078
0.2995098 0.035294118 0.06127451
0.33474265 0.021446078 0.059803922
0.38958333 0.015318627 0.06127451
0.44215686 0.011764706 0.064889706
0.49166667 0.0058823529 0.067892157
0.5372549 0.0012867647 0.069117647
0.58541667 0 0.063357843
0.6338848 0 0.055882353
0.68235294 0 0.049509804
0.73382353 0 0.044669118
0.78137255 0 0.039583333
0.82892157 0.0037377451 0.032536765
0.87720588 0.0031862745 0.024019608
0.92401961 0 0.016176471
0.97156863 0 0.0073529412
0.99215686 0 0.0049019608
0.99215686 0 0.0049019608
0.14264706 0.082414216 0.06372549
0.14509804 0.080882353 0.064644608
0.15176164 0.081495098 0.064414828
0.16764706 0.083333333 0.06372549
0.19096201 0.082873775 0.065655637
0.21392463 0.08057598 0.065196078
0.24019608 0.075949755 0.065196078
0.27387408 0.063518689 0.062806373
0.30533088 0.050490196 0.06127451
0.34558824 0.037400429 0.06037837
0.39352022 0.020128676 0.06127451
0.44460784 0.012071078 0.062745098
0.49411765 0.0058823529 0.065196078
0.54362745 0.0038066789 0.062630208
0.59417892 0.0015318627 0.057720588
0.64417892 0 0.052305453
0.69411765 0 0.048039216
0.74258578 0.0026807598 0.042011336
0.79068627 0.0039215686 0.036994485
0.83921569 0.0039215686 0.030277267
0.88676471 0.0039215686 0.023560049
0.93382353 0.0039215686 0.01384038
0.97463235 0.0039215686 0.0073529412
0.99215686 0.0039215686 0.006372549
0.99215686 0.0054534314 0.006372549
0.1372549 0.097916667 0.06372549
0.14362745 0.097916667 0.066344975
0.15462623 0.1 0.064552696
0.17156863 0.10183824 0.064093137
0.19411765 0.097855392 0.064276961
0.21801471 0.092034314 0.06372549
0.24509804 0.086672794 0.064001225
0.2772212 0.079151348 0.061657475
0.31617647 0.07254902 0.06127451
0.3588848 0.059803922 0.06127451
0.4018076 0.03504902 0.06127451
0.44865196 0.012821691 0.062561275
0.49834559 0.0046568627 0.060477941
0.55084252 0.0044577206 0.056004902
0.60438113 0.0024509804 0.051776961
0.6560049 0.0032322304 0.048498775
0.70686275 0.0024509804 0.043504902
0.75441176 0.003370098 0.038434436
0.80150123 0.0039215686 0.033578431
0.8495098 0.0061427696 0.029044118
0.89656863 0.0054534314 0.02064951
0.94019608 0.0039215686 0.013909314
0.97533701 0.0046568627 0.0089154412
0.98956801 0.0078431373 0.010294118
0.99215686 0.0084558824 0.010294118
0.13578431 0.1127451 0.065012255
0.14657629 0.11666667 0.066467525
0.15784314 0.11962316 0.065196078
0.17199755 0.12058824 0.063319547
0.19607843 0.11681985 0.062224265
0.22105545 0.11252298 0.06372549
0.25177696 0.10840993 0.066666667
0.28634344 0.10778186 0.062254902
0.32518382 0.099019608 0.057843137
0.36716452 0.08493413 0.058647365
0.41164216 0.059313725 0.057766544
0.45637255 0.03582261 0.057536765
0.50906863 0.021875 0.053033088
0.56617647 0.0082107843 0.04977788
0.61974571 0.0060661765 0.048223039
0.66960784 0.0039215686 0.044232537
0.72058824 0.00030637255 0.037745098
0.76606158 0.00042126225 0.032552083
0.81321998 0.0039215686 0.029365809
0.86023284 0.006372549 0.02410386
0.90710784 0.006372549 0.019025735
0.94983915 0.0060661765 0.011871936
0.9754136 0.0073988971 0.0097579657
0.98609069 0.011458333 0.010776654
0.99215686 0.011764706 0.010294118
0.14044118 0.14313725 0.064460784
0.15196078 0.14044118 0.0671875
0.16354167 0.13970588 0.067401961
0.1754902 0.14117647 0.064859069
0.19963235 0.13921569 0.062009804
0.22818627 0.1393076 0.062653186
0.25876225 0.14142157 0.06372549
0.29488358 0.14163603 0.065134804
0.33210784 0.13651961 0.053431373
0.37769608 0.12426471 0.051470588
