site/assets/luts/sha256-d2094bc21b7028b4481e75813ee1d614ae98a8ffa01f975edd2c893c5350bf97.cube
# LUTr-Schema-Version: 2
# LUTr-ID: sha256-d2094bc21b7028b4481e75813ee1d614ae98a8ffa01f975edd2c893c5350bf97
# LUTr-Title: golden bright
# LUTr-Collection: Natron HaldCLUT
# LUTr-Collection-ID: natron-haldclut-presets
# LUTr-Source: https://github.com/NatronGitHub/clut
# LUTr-Retrieved: 2026-07-27
# LUTr-Source-File: submissions/natron-haldclut-presets/various/golden_bright.png
# LUTr-Source-Format: HALD-PNG
# LUTr-Source-SHA256: d2094bc21b7028b4481e75813ee1d614ae98a8ffa01f975edd2c893c5350bf97
# LUTr-License: CC-BY-SA-4.0
# LUTr-License-URL: https://github.com/NatronGitHub/clut#license
# LUTr-License-Basis: repo-license-file
# LUTr-Transform-Class: film-emulation
# LUTr-Tags: creative, film, film-emulation, hald-clut, natron, png, cube
# LUTr-Input-Color-Space: srgb
# LUTr-Input-Gamut: rec709
# LUTr-Input-Transfer: srgb
# LUTr-Output-Color-Space: srgb
# LUTr-Output-Gamut: rec709
# LUTr-Output-Transfer: srgb
# LUTr-Color-Space-Confidence: assumed-display-referred
# LUTr-Domain-Normalized: true
# LUTr-Shaper: none
# LUTr-Original-Grid: 64x64x64
# LUTr-Conversion-Grid: 25x25x25
# LUTr-Conversion-Interpolation: trilinear
# LUTr-Conversion-Method: HALD-PNG LUT image decoded at 16-bit and sampled to 25x25x25 3D CUBE
# LUTr-Conversion-Tool: LUTr scripts/convert-all-to-cube.mjs 2.0.0
# LUTr-Conversion-Date: 2026-07-27
# LUTr-Note: Preserve this metadata and the upstream license notices when redistributing.
TITLE "golden bright"
LUT_3D_SIZE 9
DOMAIN_MIN 0 0 0
DOMAIN_MAX 1 1 1
0.1254902 0.11372549 0.062745098
0.26421569 0.12990196 0.1004902
0.43431373 0.11078431 0.068627451
0.63039216 0.12401961 0.070588235
0.79215686 0.11960784 0.066666667
0.91029412 0.12009804 0.074509804
0.96078431 0.13529412 0.062745098
0.96029412 0.12058824 0.058333333
0.98431373 0.10980392 0.058823529
0.13333333 0.25294118 0.09754902
0.25637255 0.24460784 0.067156863
0.42254902 0.23039216 0.059803922
0.60343137 0.2254902 0.055392157
0.78455882 0.22892157 0.066911765
0.92401961 0.2254902 0.096384804
0.97120098 0.21617647 0.068627451
0.94852941 0.20882353 0.057904412
0.95735294 0.21323529 0.070588235
0.12647059 0.40686275 0.075490196
0.24595588 0.39938725 0.074632353
0.40392157 0.38112745 0.056862745
0.59754902 0.38480392 0.070955882
0.75637255 0.37156863 0.057352941
0.90453431 0.37696078 0.065196078
0.94607843 0.35784314 0.057843137
0.95343137 0.35980392 0.058823529
0.97647059 0.36078431 0.06372549
0.12941176 0.54705882 0.056372549
0.24068627 0.56127451 0.061458333
0.40196078 0.55012255 0.062745098
0.58333333 0.54166667 0.062745098
0.74583333 0.54019608 0.062009804
0.87947304 0.52843137 0.058823529
0.96470588 0.51813725 0.055882353
0.97156863 0.51813725 0.066666667
0.98431373 0.52205882 0.066666667
0.1372549 0.7254902 0.082352941
0.23504902 0.71960784 0.078676471
0.39019608 0.71421569 0.091666667
0.57303922 0.70147059 0.061519608
0.74411765 0.70686275 0.062745098
0.87132353 0.68235294 0.057598039
0.98235294 0.68823529 0.062745098
0.97794118 0.68235294 0.062745098
0.95882353 0.6745098 0.066666667
0.14509804 0.86470588 0.078431373
0.2122549 0.84803922 0.075183824
0.38088235 0.85294118 0.069607843
0.55104167 0.83241422 0.065747549
0.73921569 0.85098039 0.063970588
0.88131127 0.82303922 0.069117647
0.98529412 0.83541667 0.058823529
0.97009804 0.81930147 0.062438725
0.94558824 0.79852941 0.054901961
0.13431373 0.96666667 0.058823529
0.20196078 0.96262255 0.060171569
0.3627451 0.95490196 0.06372549
0.55343137 0.95490196 0.058823529
0.73088235 0.95588235 0.062745098
0.86764706 0.95196078 0.062745098
0.96666667 0.95612745 0.061764706
0.97659314 0.94031863 0.065318627
0.94607843 0.91176471 0.054901961
0.125 0.95980392 0.054901961
0.19405637 0.97248775 0.058823529
0.35833333 0.98382353 0.058823529
0.5276348 0.97205882 0.058823529
0.70759804 0.96544118 0.057107843
0.85637255 0.98069853 0.070588235
0.96372549 0.98137255 0.061764706
0.98045343 0.98088235 0.058823529
0.97696078 0.97696078 0.058823529
0.12156863 0.96470588 0.054901961
0.17843137 0.96862745 0.055392157
0.34019608 0.96862745 0.054901961
0.5127451 0.96470588 0.054901961
0.69803922 0.98235294 0.058823529
0.82794118 0.96323529 0.058823529
0.93333333 0.96960784 0.058823529
0.94068627 0.94411765 0.054901961
0.94901961 0.94901961 0.058823529
0.13578431 0.11715686 0.19019608
0.2716299 0.12113971 0.19019608
0.44509804 0.11421569 0.17941176
0.63057598 0.11942402 0.17469363
0.78848039 0.12156863 0.1745098
0.925 0.12040441 0.17028186
0.98811275 0.13737745 0.1692402
0.98872549 0.12493873 0.1622549
0.99215686 0.10980392 0.1627451
0.13033088 0.24466912 0.18235294
0.26727175 0.24068627 0.17843137
0.44488358 0.24068627 0.17843137
0.62244179 0.24052543 0.1745098
0.78630515 0.23480392 0.17037377
0.92056526 0.22910539 0.16301317
0.98252145 0.22412684 0.15837929
0.97205882 0.209375 0.1474954
0.99558824 0.21715686 0.14754902
0.13676471 0.41115196 0.17941176
0.2495098 0.40283395 0.1745098
0.41568627 0.38624387 0.16372549
0.60784314 0.3902114 0.15968137
0.77806373 0.38333333 0.1557598
0.91139706 0.38328738 0.15543811
0.98645833 0.37156863 0.15196078
0.98120404 0.3629136 0.14673713
0.99301471 0.36372549 0.1435049
0.1372549 0.56911765 0.17058824
0.24117647 0.56345741 0.16797641
0.4024663 0.55232843 0.15637255
0.59509804 0.55031403 0.14944853
0.76626838 0.54877451 0.1497549
0.9028799 0.55 0.14313725
0.97686887 0.52443321 0.13913909
0.98442096 0.52205882 0.13498775
0.99344363 0.51844363 0.13676471
0.1372549 0.7254902 0.15514706
0.23066789 0.72352941 0.15340074
0.38627451 0.71133578 0.14534314
0.58121936 0.71305147 0.14298407
0.75882353 0.71348039 0.13921569
0.88970588 0.69626225 0.13529412
0.98504902 0.69607843 0.12573529
0.98480392 0.68921569 0.12325368
0.97377451 0.68014706 0.11960784
0.13921569 0.86433824 0.14313725
0.2091299 0.84113817 0.14295343
0.37481618 0.85686275 0.13982843
0.56476716 0.84368873 0.13480392
0.74623162 0.85294118 0.12974877
0.88664982 0.84106158 0.12352941
0.98529412 0.83762255 0.11960784
0.98563879 0.82886029 0.11388634
0.96568627 0.81078431 0.10343137
0.13235294 0.96078431 0.13051471
0.20409007 0.95784314 0.13169424
0.3620098 0.96161152 0.12818627
0.54842218 0.95477941 0.12218137
0.72156863 0.9536152 0.11568627
0.87242647 0.95317096 0.11960784
0.98091299 0.95588235 0.11596201
0.99204963 0.94598652 0.10304841
0.99215686 0.95208333 0.095098039
0.1254902 0.97457108 0.12346814
0.19319853 0.98076746 0.11998315
0.35458027 0.98898591 0.11960784
0.53182445 0.97587316 0.11145833
0.71323529 0.97622549 0.1075674
0.86786918 0.99199602 0.10369945
0.97821691 0.99204963 0.10347733
0.96733303 0.96470588 0.087806373
0.99558824 0.99558824 0.089215686
0.12156863 0.97598039 0.1122549
0.18541667 0.98682598 0.11574755
0.34019608 0.97610294 0.11139706
0.51648284 0.97598039 0.10784314
0.70588235 0.98970588 0.10833333
0.86078431 0.99558824 0.099816176
0.98333333 0.99607843 0.091666667
0.96856618 0.96813725 0.087316176
0.99117647 0.99117647 0.093137255
0.18823529 0.12156863 0.3245098
0.27156863 0.11617647 0.31764706
0.44607843 0.1254902 0.3129902
0.63039216 0.13958333 0.30980392
0.80196078 0.11666667 0.30882353
0.93419118 0.12401961 0.30882353
0.99607843 0.1372549 0.29803922
0.99215686 0.11764706 0.29411765
1 0.10980392 0.29019608
0.14080882 0.24852941 0.32585784
0.26770833 0.24889706 0.31276042
0.44509804 0.24172794 0.31017157
0.61943934 0.23195466 0.30588235
0.78651961 0.2372549 0.30545343
0.91568627 0.22313113 0.29705882
0.97576593 0.21360294 0.2885723
0.98480392 0.21372549 0.28541667
0.99607843 0.21372549 0.28541667
0.14534314 0.41372549 0.30980392
0.25637255 0.40686275 0.30523897
0.42254902 0.39191176 0.30122549
0.61011029 0.3872549 0.29730392
0.78235294 0.3872549 0.29056373
0.91568627 0.37987132 0.2870098
0.99178922 0.37058824 0.28216912
0.99215686 0.36372549 0.27515319
0.99607843 0.35980392 0.27377451
0.13541667 0.57487745 0.30196078
0.23854167 0.56568627 0.29803922
0.40526961 0.55919118 0.2893076
0.59509804 0.55629596 0.28345588
0.7745098 0.5495098 0.27781863
0.90784314 0.5459712 0.2745098
0.9916973 0.53382353 0.27043505
0.99215686 0.52593444 0.26605392
0.99607843 0.52205882 0.25992647
0.13333333 0.73137255 0.29166667
0.22530637 0.71985294 0.2877451
0.39117647 0.71568627 0.2807598
0.5872549 0.72352941 0.2745098
0.76397059 0.71421569 0.27058824
0.89411765 0.70784314 0.26544118
0.98921569 0.69607843 0.26029412
0.99607843 0.69215686 0.25876225
0.99607843 0.68823529 0.25098039
0.13333333 0.86078431 0.28235294
0.22075674 0.86078431 0.27843137
0.37512255 0.86470588 0.27460172
0.57218137 0.85833333 0.27035846
0.75098039 0.85189951 0.26348039
0.88431373 0.84754902 0.25212929
0.99561887 0.84509804 0.25018382
1 0.84091605 0.24558824
1 0.83786765 0.24497549
0.12622549 0.97426471 0.27352941
0.20980392 0.97058824 0.2669424
0.36348039 0.97132353 0.2625
0.55799632 0.96544118 0.25857843
0.73517157 0.95980392 0.24963235
0.87647059 0.9606924 0.24607843
0.99240196 0.95588235 0.23805147
1 0.95640319 0.2348652
1 0.95612745 0.22745098
0.12254902 0.98002451 0.25833333
0.19352022 0.98517157 0.25488664
0.35477941 0.99301471 0.25098039
0.54407169 0.99603248 0.24306066
0.72175245 1 0.23921569
0.87254902 1 0.23690257
0.98422181 1 0.23112745
0.99607843 0.99595588 0.22351409
1 1 0.21948529
0.1254902 0.98431373 0.25490196
0.18884804 0.99215686 0.25134804
0.33946078 0.98504902 0.24313725
0.5245098 0.99178922 0.23529412
0.70980392 0.99607843 0.23137255
0.87046569 1 0.23529412
0.9872549 1 0.22647059
0.99607843 0.99607843 0.21960784
1 1 0.21078431
0.16323529 0.12156863 0.46323529
0.27579657 0.12941176 0.45931373
0.44901961 0.1254902 0.44963235
0.63339461 0.11764706 0.44509804
0.8004902 0.11838235 0.44509804
0.93921569 0.11764706 0.44454657
0.99607843 0.11911765 0.43517157
0.99607843 0.11734069 0.42941176
1 0.11372549 0.42941176
0.13903186 0.25392157 0.45343137
0.26013327 0.25422794 0.44901961
0.44166667 0.24878983 0.44117647
0.63039216 0.23939951 0.43988971
0.79411765 0.23284314 0.43756127
0.92352941 0.22677696 0.43756127
0.99607843 0.22144608 0.42909007
0.99215686 0.21368719 0.42144608
1 0.21323529 0.42028186
0.13627451 0.41409314 0.44791667
0.24973958 0.4042739 0.43860294
0.41862745 0.3932598 0.43449755
0.6057598 0.38909314 0.43223039
0.78088235 0.39068627 0.42579657
0.91568627 0.37941176 0.42254902
0.99215686 0.37132353 0.41991422
0.98841912 0.36237745 0.40842525
0.99607843 0.35919118 0.40477941
0.12604167 0.56519608 0.43033088
0.23265165 0.56390931 0.42629442
0.40980392 0.56326593 0.42571998
0.59175092 0.55588235 0.4219133
0.7745098 0.5495098 0.41617647
0.90784314 0.54411765 0.41372549
0.98884804 0.53760723 0.40874694
0.98823529 0.52469363 0.39803922
0.98878676 0.52598039 0.39411765
0.13333333 0.73137255 0.4254902
0.22533701 0.71976103 0.41911765
0.39607843 0.71764706 0.41636029
0.58455882 0.71764706 0.41148897
0.75943627 0.70526961 0.40710784
0.89607843 0.70392157 0.40441176
0.99215686 0.7 0.39785539
0.98961397 0.68952206 0.39019608
0.98970588 0.68823529 0.38357843
0.12794118 0.87254902 0.41372549
0.22107843 0.8622549 0.40925245
0.3754902 0.85894608 0.40741422
0.56525735 0.85498621 0.40196078
0.74828431 0.84901961 0.39488358
0.88676471 0.84509804 0.38627451
0.99931066 0.84509804 0.38457414
0.99607843 0.83314185 0.3778799
0.99607843 0.82941176 0.37395833
0.13688725 0.97169118 0.40196078
0.20677083 0.97000613 0.39803922
0.36740196 0.97058824 0.40168505
0.55265012 0.97179841 0.39388787
0.73872549 0.97254902 0.38609069
0.87647059 0.97254902 0.38065257
0.9885723 0.95952819 0.37588848
1 0.9638174 0.36827512
1 0.95294118 0.36666667
0.1254902 0.99607843 0.39234069
0.19362745 0.99607843 0.39019608
0.35183824 0.99215686 0.39001225
0.53498009 0.99607843 0.3792356
0.72117034 1 0.37058824
0.86862745 1 0.37273284
0.97904412 1 0.36554841
1 0.99607843 0.35704657
1 1 0.35471814
0.1254902 0.99607843 0.38480392
0.19019608 0.99246324 0.38235294
0.33566176 0.99215686 0.37340686
0.52058824 0.99607843 0.36911765
0.70980392 1 0.36519608
0.86378676 1 0.3627451
0.98394608 1 0.3560049
0.99607843 1 0.35098039
1 1 0.34705882
0.18039216 0.1254902 0.59803922
0.27205882 0.12352941 0.59215686
0.44901961 0.12990196 0.58431373
0.63308824 0.12818627 0.58039216
0.80588235 0.11372549 0.58039216
0.93578431 0.1125 0.57647059
1 0.11519608 0.56862745
1 0.10980392 0.56862745
1 0.11372549 0.57058824
0.13553922 0.24681373 0.58627451
0.26099877 0.24074755 0.58238358
0.43903186 0.23529412 0.57843137
0.62671569 0.23691789 0.5747549
0.79914216 0.22941176 0.5745098
0.92383578 0.22043505 0.56887255
0.99607843 0.21715686 0.56121324
0.99044118 0.21672794 0.55735294
0.99215686 0.20955882 0.55735294
0.13676471 0.40441176 0.58284314
0.24093137 0.39730392 0.57126225
0.42156863 0.3872549 0.56568627
0.61501225 0.39460784 0.56470588
0.78284314 0.38995098 0.55833333
0.91176471 0.37156863 0.55147059
0.99215686 0.36985294 0.54865196
0.98823529 0.35588235 0.53970588
0.99215686 0.34803922 0.5377451
0.1377451 0.56764706 0.56740196
0.23789828 0.56927083 0.56544118
0.40980392 0.5629902 0.56470588
0.59656863 0.55735294 0.55759804
0.77132353 0.54816176 0.55134804
0.90784314 0.54166667 0.54856005
0.99142157 0.53866422 0.54338235
0.98823529 0.52205882 0.53201593
0.98823529 0.52058824 0.52818627
0.12941176 0.73235294 0.56176471
0.22512255 0.73051471 0.55588235
0.38872549 0.71985294 0.55588235
0.57512255 0.71372549 0.54938725
0.75686275 0.70392157 0.54362745
0.9 0.69938725 0.53688725
0.99215686 0.69779412 0.53406863
0.98823529 0.68627451 0.52438725
0.98823529 0.69215686 0.5245098
0.13333333 0.87254902 0.55220588
0.22352941 0.86078431 0.54264706
0.37732843 0.85294118 0.54240196
0.56764706 0.84993873 0.53771446
0.74313725 0.8497549 0.53002451
0.89123775 0.84846814 0.52625613
1 0.8403799 0.52156863
0.99592525 0.82925858 0.51755515
0.99362745 0.8254902 0.51102941
0.13480392 0.98382353 0.53676471
0.2064951 0.97420343 0.53131127
0.36985294 0.97156863 0.53284314
0.55098039 0.97064951 0.52910539
0.73039216 0.95980392 0.52156863
0.87726716 0.97254902 0.51856618
0.99607843 0.96862745 0.51127451
0.99607843 0.95631127 0.50716912
1 0.95294118 0.4995098
0.13333333 0.9877451 0.5254902
0.19338235 0.98823529 0.52132353
0.35055147 0.99607843 0.51764706
0.53226103 1 0.51608456
0.71041667 1 0.51151961
0.86617647 1 0.50882353
0.98039216 1 0.49926471
1 1 0.49215686
1 1 0.48823529
0.12941176 0.99215686 0.52156863
0.18602941 0.99215686 0.51372549
0.33137255 0.99607843 0.50637255
0.51985294 0.99607843 0.50588235
0.70392157 0.99705882 0.49901961
0.85906863 0.99754902 0.49607843
0.97843137 1 0.49019608
1 1 0.49019608
1 1 0.48823529
0.12843137 0.1127451 0.725
0.27205882 0.13480392 0.72922794
0.44117647 0.11311275 0.71678922
0.62800245 0.12401961 0.72107843
0.80196078 0.11691176 0.71568627
0.92113971 0.12604167 0.70392157
0.99607843 0.12205882 0.70428922
1 0.11194853 0.7036152
1 0.11372549 0.70784314
0.13970588 0.24852941 0.72352941
0.26056219 0.24117647 0.71933977
0.43382353 0.23365502 0.7196538
0.61862745 0.22941176 0.7122549
0.78872549 0.22941176 0.70857843
0.91979933 0.21471354 0.69607843
0.99607843 0.22130821 0.69393382
0.98357843 0.20492494 0.68196998
0.98431373 0.20980392 0.68480392
0.14093137 0.40686275 0.71568627
0.25252757 0.39647672 0.70992647
0.41498162 0.38651961 0.70208333
0.60355392 0.38296569 0.70208333
0.7754902 0.38063725 0.69644608
0.91176471 0.37156863 0.69146752
0.99607843 0.3669424 0.68112745
0.99215686 0.35588235 0.67287071
0.99607843 0.35196078 0.67463235
0.13517157 0.56911765 0.70055147
0.23302696 0.5661152 0.70238971
0.39989277 0.5566636 0.70147059
0.59175092 0.55343137 0.69454657
0.76228554 0.54485294 0.68532475
0.90784314 0.53661918 0.68431373
0.99607843 0.53589154 0.67608762
0.99607843 0.52579657 0.66832108
0.99607843 0.51966912 0.66078431
0.13137255 0.72352941 0.6870098
0.22941176 0.71976103 0.69093137
0.38823529 0.71795343 0.68823529
0.57594975 0.71568627 0.68578431
0.75625 0.70955882 0.67647059
0.89607843 0.70223652 0.67132353
0.99252451 0.69908088 0.66991422
0.99607843 0.69215686 0.66216299
0.99607843 0.68823529 0.65759804
0.13241422 0.86862745 0.68131127
0.22616422 0.86078431 0.67647059
0.37843137 0.85770527 0.67513787
0.56525735 0.85294118 0.67128523
0.74286152 0.85294118 0.66470588
0.88431373 0.84844516 0.65778186
0.99538909 0.84356618 0.65326287
0.99908088 0.8372549 0.64754902
0.99754902 0.8254902 0.64509804
0.12941176 0.98713235 0.67156863
0.20147059 0.97798713 0.67000613
0.3645527 0.9754902 0.6622549
0.54705882 0.9682598 0.66078431
0.72941176 0.9754902 0.65686275
0.87624081 0.96187194 0.65108762
0.99215686 0.95030637 0.64509804
0.9977788 0.95196078 0.63872549
1 0.95257353 0.63443627
0.13155637 0.98253676 0.65637255
0.18923866 0.99607843 0.66191023
0.35183824 1 0.65502451
0.53197763 0.99607843 0.64950214
0.71740196 0.99607843 0.64231005
0.86599265 0.99688266 0.6439185
0.97556679 1 0.63429841
1 1 0.63069853
1 1 0.62941176
0.1254902 0.98823529 0.64264706
0.18382353 0.99589461 0.64901961
0.33529412 0.99705882 0.64901961
0.52058824 0.99215686 0.63572304
0.7 0.98823529 0.62696078
0.85441176 0.99607843 0.62941176
0.9754902 0.99607843 0.62267157
0.99852941 0.99607843 0.62156863
1 0.99607843 0.62696078
0.13823529 0.1254902 0.86176471
0.26813725 0.15294118 0.85894608
0.4372549 0.12083333 0.84387255
0.63039216 0.11556373 0.85490196
0.79411765 0.12058824 0.84264706
0.91911765 0.12254902 0.84019608
1 0.10980392 0.83921569
0.99914216 0.11936275 0.83088235
1 0.11764706 0.83137255
0.13296569 0.24509804 0.85245098
0.25681679 0.24085478 0.8432598
0.43054534 0.23036152 0.84249387
0.61438419 0.2254136 0.83529412
0.78259804 0.22928922 0.8377451
0.91960784 0.22133885 0.82826287
0.98829657 0.22022059 0.82276348
0.99145221 0.20980392 0.82282475
0.99693627 0.2127451 0.82352941
0.14583333 0.40220588 0.83946078
0.24779412 0.39509804 0.84034926
0.41691176 0.39436275 0.83921569
0.60073529 0.38088235 0.83529412
0.77058824 0.3754902 0.82794118
0.90821078 0.37423407 0.82058824
0.9846201 0.36642157 0.81078431
0.98872549 0.35490196 0.80787377
1 0.35196078 0.80955882
0.14791667 0.56127451 0.82463235
0.2346201 0.56127451 0.82892157
0.39914216 0.55735294 0.83146446
0.58656556 0.55019914 0.82352941
0.75490196 0.54436275 0.81568627
0.90147059 0.53382353 0.81435355
0.99607843 0.5317402 0.80784314
0.99607843 0.52259498 0.80098039
0.99889706 0.51666667 0.79644608
0.14313725 0.71519608 0.81568627
0.22328431 0.71789216 0.81372549
0.38921569 0.71372549 0.81421569
0.57941176 0.71176471 0.81372549
0.75490196 0.70710784 0.80784314
0.88719363 0.7 0.80392157
0.99497549 0.69044118 0.8
0.99773284 0.68792892 0.79589461
1 0.67941176 0.78872549
0.1254902 0.86470588 0.81458333
0.20159314 0.8442402 0.79871324
0.3768076 0.85459559 0.80784314
0.55833333 0.85255821 0.80061275
0.734375 0.84901961 0.79889706
0.87647059 0.84578738 0.79607843
0.99313725 0.83835784 0.78431373
0.99865196 0.83333333 0.77924326
0.99607843 0.82941176 0.77647059
0.12941176 0.97818627 0.80710784
0.19852941 0.96507353 0.80392157
0.35919118 0.96758578 0.80355392
0.54102328 0.9635723 0.7924326
0.72291667 0.96838235 0.78615196
0.86890319 0.96041667 0.78477328
0.98621324 0.95606618 0.77720588
1 0.95291054 0.77647059
0.99607843 0.94803922 0.76862745
0.1254902 0.98480392 0.78872549
0.19405637 0.9877451 0.79117647
0.34727328 0.9997549 0.79607843
0.52794118 0.99344363 0.78440564
0.70539216 0.99215686 0.77610294
0.86047794 0.99607843 0.77700674
0.97359069 0.99647672 0.7682598
0.99607843 0.99865196 0.77205882
0.99607843 0.99607843 0.76470588
0.1254902 0.97745098 0.78529412
0.19019608 0.9877451 0.78431373
0.33529412 0.99607843 0.78823529
0.51029412 0.98823529 0.77009804
0.68431373 0.98823529 0.76715686
0.84620098 0.99362745 0.76568627
0.97352941 0.99632353 0.75612745
0.99607843 0.99607843 0.75686275
0.99607843 0.99607843 0.75686275
0.1372549 0.12156863 0.90539216
0.26862745 0.15042892 0.92941176
0.42928922 0.11764706 0.90980392
0.61421569 0.1213848 0.91354167
0.78382353 0.12352941 0.9247549
0.92303922 0.12745098 0.93431373
0.9877451 0.11372549 0.93235294
0.99264706 0.11421569 0.92941176
0.99607843 0.11421569 0.91764706
0.12898284 0.2372549 0.90931373
0.25245864 0.23671109 0.91415441
0.42581189 0.23719363 0.92063419
0.61121324 0.23286612 0.92941176
0.78210784 0.22107843 0.93284314
0.91568627 0.22091759 0.93302696
0.9870864 0.21360294 0.92830882
0.98523284 0.20544577 0.92243413
0.99215686 0.20582108 0.91029412
0.13431373 0.40159314 0.92928922
0.24068627 0.3948223 0.92912071
0.41363358 0.39172794 0.92941176
0.60637255 0.38037684 0.92892157
0.77009804 0.37536765 0.92977941
0.89126838 0.36230086 0.90557598
0.98802083 0.3627451 0.91764706
0.98920037 0.35496324 0.92683824
0.9877451 0.35539216 0.92843137
0.14362745 0.56078431 0.92990196
0.23431373 0.55949755 0.93314951
0.39477635 0.5439951 0.90968137
0.59479167 0.54148284 0.92395833
0.76323529 0.53765319 0.93333333
0.89351256 0.52912071 0.9294807
0.99558824 0.53204657 0.93370098
0.99215686 0.52532935 0.92967984
0.9872549 0.51372549 0.89589461
0.14313725 0.71519608 0.93553922
0.21737132 0.71568627 0.9294424
0.38082108 0.71127451 0.93676471
0.5765625 0.70376838 0.9231924
0.75563725 0.69105392 0.93333333
0.88014706 0.68823529 0.90768995
0.98890931 0.6877451 0.90122549
0.99564951 0.68431373 0.91688113
0.99607843 0.67254902 0.89681373
0.13480392 0.86029412 0.93204657
0.20222886 0.86078431 0.92790288
0.36528799 0.85294118 0.92303922
0.5548943 0.84835325 0.92843137
0.73406863 0.84117647 0.92454044
0.8763557 0.83222273 0.91862745
0.96801471 0.82691483 0.89854473
0.99258578 0.82696078 0.9035386
0.99607843 0.82677696 0.90520833
0.14803922 0.96262255 0.92254902
0.19411765 0.96666667 0.92334559
0.34803922 0.95609681 0.91176471
0.54180453 0.94448529 0.90776654
0.72254902 0.95196078 0.90833333
0.86174939 0.94607843 0.89718137
0.9739277 0.94957108 0.89889706
0.99558824 0.94901961 0.89938725
0.99215686 0.94901961 0.9
0.12849265 0.99564951 0.91476716
0.19319853 0.99607843 0.91524969
0.34019608 0.99183517 0.9067402
0.53006281 0.98649663 0.89493719
0.70560662 0.98771446 0.88872549
0.84918045 0.99215686 0.90098039
0.97210478 0.99607843 0.89411765
0.99215686 0.99215686 0.88768382
0.98480392 0.98780637 0.87647059
0.1254902 0.99264706 0.91568627
0.18627451 0.99264706 0.91568627
0.33223039 0.99068627 0.89803922
0.51666667 0.98952206 0.90343137
0.69583333 0.98823529 0.8997549
0.8408701 0.99166667 0.89313725
0.97205882 0.99558824 0.87892157
0.99215686 0.99607843 0.87996324
0.99215686 0.99215686 0.88088235
0.1254902 0.11372549 0.89019608
0.26862745 0.14558824 0.91029412
0.41862745 0.11666667 0.89411765
0.6004902 0.12156863 0.90588235
0.76666667 0.11372549 0.90196078
0.91715686 0.11617647 0.9254902
0.98823529 0.12156863 0.93039216
0.98823529 0.12598039 0.92941176
0.98823529 0.12941176 0.92941176
0.13333333 0.23333333 0.89803922
0.25588235 0.22640931 0.89901961
0.41764706 0.23333333 0.9127451
0.60294118 0.23088235 0.925
0.76666667 0.21372549 0.91568627
0.90441176 0.21354167 0.91813725
0.96813725 0.20588235 0.91973039
0.94430147 0.18976716 0.88633578
0.98431373 0.20147059 0.9254902
0.13431373 0.39411765 0.92058824
0.24166667 0.39031863 0.92058824
0.40686275 0.38259804 0.9245098
0.57291667 0.36580882 0.8932598
0.75686275 0.3754902 0.92352941
0.87316176 0.34865196 0.90012255
0.97867647 0.35588235 0.9254902
0.97291667 0.34411765 0.91715686
0.94215686 0.32745098 0.8872549
0.13970588 0.55735294 0.93333333
0.23302696 0.55343137 0.9254902
0.39411765 0.53529412 0.91458333
0.58186275 0.52898284 0.91617647
0.73627451 0.52377451 0.90686275
0.87738971 0.52058824 0.91856618
0.98431373 0.51813725 0.93235294
0.96813725 0.50882353 0.91176471
0.94754902 0.49068627 0.89264706
0.14313725 0.70980392 0.93333333
0.21151961 0.71004902 0.92941176
0.37303922 0.69852941 0.92352941
0.57352941 0.69607843 0.90857843
0.7372549 0.69313725 0.9245098
0.8745098 0.67965686 0.9254902
0.97598039 0.67647059 0.92941176
0.98823529 0.68039216 0.92941176
0.97647059 0.66470588 0.91568627
0.13333333 0.84509804 0.93333333
0.20716912 0.85147059 0.92371324
0.36164216 0.84509804 0.9254902
0.54656863 0.84754902 0.92941176
0.72990196 0.83406863 0.93333333
0.86078431 0.82064951 0.92941176
0.94460784 0.81764706 0.9254902
0.98333333 0.82303922 0.92990196
0.975 0.80441176 0.91617647
0.13333333 0.94019608 0.9254902
0.20134804 0.94411765 0.9254902
0.35416667 0.94705882 0.9254902
0.54411765 0.94803922 0.92941176
0.71813725 0.94803922 0.93333333
0.8439951 0.93517157 0.9122549
0.93259804 0.93431373 0.90367647
0.97205882 0.93541667 0.90833333
0.9372549 0.89019608 0.88235294
0.13284314 0.98823529 0.92598039
0.18970588 0.98431373 0.9254902
0.33615196 0.98039216 0.91764706
0.52009804 0.96832108 0.90716912
0.69730392 0.97598039 0.91519608
0.81979167 0.95539216 0.89675245
0.93517157 0.97107843 0.90833333
0.97156863 0.97205882 0.90931373
0.93823529 0.93823529 0.88333333
0.13333333 0.99607843 0.9372549
0.19068627 0.97696078 0.91813725
0.31666667 0.96176471 0.90588235
0.51127451 0.97107843 0.91372549
0.68823529 0.97843137 0.92352941
0.80588235 0.94362745 0.88872549
0.92352941 0.94607843 0.88823529
0.96519608 0.96911765 0.90637255
0.98823529 0.99215686 0.93333333
