site/assets/luts/sha256-d5c3de0a39d1dcb6a64bcc1bbec8a058ccc25ccbd77b8ef19aa58d3b2b0760df.cube
# LUTr-Schema-Version: 2
# LUTr-ID: sha256-d5c3de0a39d1dcb6a64bcc1bbec8a058ccc25ccbd77b8ef19aa58d3b2b0760df
# LUTr-Title: polaroid px-680 warm ++
# LUTr-Collection: Natron HaldCLUT
# LUTr-Collection-ID: natron-haldclut-presets
# LUTr-Source: https://github.com/NatronGitHub/clut
# LUTr-Retrieved: 2026-07-27
# LUTr-Source-File: submissions/natron-haldclut-presets/instant_consumer/polaroid_px-680_warm_++.png
# LUTr-Source-Format: HALD-PNG
# LUTr-Source-SHA256: d5c3de0a39d1dcb6a64bcc1bbec8a058ccc25ccbd77b8ef19aa58d3b2b0760df
# LUTr-License: CC-BY-SA-4.0
# LUTr-License-URL: https://github.com/NatronGitHub/clut#license
# LUTr-License-Basis: repo-license-file
# LUTr-Transform-Class: film-emulation
# LUTr-Tags: creative, film, film-emulation, hald-clut, natron, png, warm, cube
# LUTr-Input-Color-Space: srgb
# LUTr-Input-Gamut: rec709
# LUTr-Input-Transfer: srgb
# LUTr-Output-Color-Space: srgb
# LUTr-Output-Gamut: rec709
# LUTr-Output-Transfer: srgb
# LUTr-Color-Space-Confidence: assumed-display-referred
# LUTr-Domain-Normalized: true
# LUTr-Shaper: none
# LUTr-Original-Grid: 64x64x64
# LUTr-Conversion-Grid: 25x25x25
# LUTr-Conversion-Interpolation: trilinear
# LUTr-Conversion-Method: HALD-PNG LUT image decoded at 16-bit and sampled to 25x25x25 3D CUBE
# LUTr-Conversion-Tool: LUTr scripts/convert-all-to-cube.mjs 2.0.0
# LUTr-Conversion-Date: 2026-07-27
# LUTr-Note: Preserve this metadata and the upstream license notices when redistributing.
TITLE "polaroid px-680 warm ++"
LUT_3D_SIZE 9
DOMAIN_MIN 0 0 0
DOMAIN_MAX 1 1 1
0.36078431 0.27843137 0.13333333
0.36078431 0.2745098 0.13333333
0.36470588 0.27058824 0.12941176
0.42058824 0.2745098 0.12941176
0.49215686 0.27647059 0.12156863
0.69362745 0.2877451 0.11617647
0.85 0.32352941 0.083333333
0.92696078 0.37303922 0.090196078
0.98823529 0.4627451 0.16078431
0.36078431 0.28627451 0.13333333
0.36078431 0.28235294 0.13333333
0.37242647 0.28186275 0.13333333
0.43186275 0.28578431 0.12567402
0.53308824 0.29191176 0.11789216
0.70539216 0.31127451 0.10441176
0.84607843 0.34644608 0.087254902
0.93039216 0.4004902 0.11372549
0.98039216 0.45882353 0.15294118
0.35686275 0.3 0.12941176
0.35686275 0.28933824 0.12941176
0.38333333 0.29926471 0.12941176
0.43909314 0.3127451 0.12193627
0.55 0.32598039 0.10441176
0.70931373 0.34852941 0.085784314
0.83921569 0.38039216 0.064705882
0.91960784 0.42794118 0.080759804
0.98137255 0.50882353 0.18039216
0.34509804 0.33186275 0.12156863
0.35294118 0.35196078 0.12303922
0.3754902 0.34607843 0.11801471
0.43872549 0.36758578 0.10827206
0.58406863 0.41642157 0.074019608
0.71029412 0.41911765 0.036764706
0.82071078 0.44117647 0.031004902
0.90686275 0.48039216 0.061764706
0.96617647 0.54215686 0.17401961
0.32745098 0.43529412 0.10392157
0.33504902 0.44681373 0.10588235
0.37107843 0.44901961 0.10392157
0.44852941 0.47647059 0.091666667
0.55882353 0.49411765 0.051960784
0.71813725 0.54117647 0.0078431373
0.82009804 0.54117647 0.0058823529
0.89313725 0.54093137 0.021813725
0.95686275 0.59019608 0.1372549
0.29901961 0.53921569 0.080882353
0.32107843 0.54558824 0.093627451
0.34803922 0.53921569 0.090196078
0.4278799 0.56035539 0.082352941
0.5372549 0.58088235 0.088970588
0.67199755 0.61856618 0.071446078
0.80147059 0.6497549 0.080514706
0.87794118 0.64901961 0.13988971
0.92941176 0.66862745 0.1995098
0.31568627 0.63921569 0.11176471
0.31090686 0.63431373 0.09129902
0.36470588 0.64583333 0.11568627
0.42156863 0.64791667 0.12561275
0.53823529 0.66715686 0.15637255
0.64963235 0.69031863 0.18578431
0.77083333 0.72058824 0.225
0.85882353 0.74754902 0.27291667
0.91372549 0.76372549 0.33333333
0.41470588 0.74264706 0.22254902
0.42990196 0.73529412 0.2221201
0.45147059 0.73529412 0.2245098
0.51421569 0.74136029 0.25392157
0.59166667 0.75637255 0.27892157
0.67598039 0.77371324 0.31764706
0.76017157 0.78933824 0.35343137
0.83670343 0.81323529 0.4033701
0.89754902 0.84019608 0.45196078
0.6 0.85098039 0.41176471
0.58823529 0.83921569 0.39607843
0.60686275 0.83529412 0.40294118
0.64803922 0.84705882 0.42990196
0.68823529 0.84705882 0.44509804
0.74558824 0.86421569 0.48382353
0.79411765 0.86666667 0.50392157
0.85539216 0.88578431 0.55735294
0.88627451 0.88235294 0.56862745
0.36078431 0.275 0.1372549
0.36470588 0.2745098 0.1372549
0.37512255 0.2745098 0.14068627
0.42303922 0.27843137 0.13694853
0.53504902 0.27843137 0.1370098
0.70900735 0.28235294 0.12481618
0.84264706 0.33382353 0.1310049
0.93033088 0.40098039 0.16072304
0.98382353 0.47058824 0.21078431
0.36078431 0.28970588 0.1372549
0.36813725 0.28278186 0.1372549
0.37941176 0.28186275 0.1372549
0.4245098 0.27843137 0.13488817
0.5504902 0.28995098 0.13526348
0.71317402 0.31439951 0.12516085
0.84967831 0.35698529 0.1285386
0.93039216 0.42352941 0.16501991
0.97303922 0.48143382 0.21035539
0.36078431 0.30490196 0.1372549
0.36465993 0.29836091 0.1372549
0.37931985 0.29898897 0.13333333
0.44299939 0.31127451 0.12904412
0.56960784 0.32794118 0.11789216
0.7245098 0.35637255 0.10625
0.84990809 0.39503676 0.11372549
0.92352941 0.44270833 0.14085478
0.97267157 0.51323529 0.21433824
0.3504902 0.34822304 0.13333333
0.35686275 0.35026808 0.13069853
0.38982843 0.36355699 0.12941176
0.45648744 0.38627451 0.12088695
0.59206495 0.41194853 0.1015625
0.72622549 0.44135263 0.080261949
0.83788297 0.45796569 0.083333333
0.91207108 0.49139859 0.12303922
0.96893382 0.55 0.20116422
0.32745098 0.44901961 0.11740196
0.34065564 0.45465686 0.11691176
0.37647059 0.46072304 0.11721814
0.4495098 0.475 0.10900735
0.58088235 0.51348039 0.091421569
0.72123162 0.54313725 0.065686275
0.82401961 0.54387255 0.074203431
0.89880515 0.55272672 0.10422794
0.93480392 0.57818627 0.15122549
0.3004902 0.5495098 0.10018382
0.32865349 0.5495098 0.11436121
0.35980392 0.55343137 0.10747549
0.4386106 0.56753217 0.12077206
0.54883578 0.59283088 0.12000613
0.6841299 0.62401961 0.12371324
0.80355392 0.65160846 0.1501685
0.87941176 0.65716912 0.18970588
0.92941176 0.67647059 0.22892157
0.31470588 0.64571078 0.12205882
0.34264706 0.6495098 0.13823529
0.37990196 0.65 0.14319853
0.45001532 0.65387561 0.16078431
0.55147059 0.67671569 0.18566176
0.66029412 0.69024203 0.21309743
0.7754902 0.72132353 0.25857843
0.85490196 0.74718137 0.30228248
0.9127451 0.76764706 0.34460784
0.41764706 0.7348652 0.22555147
0.43982077 0.73877911 0.23590686
0.47112439 0.73872549 0.25314032
0.52359069 0.74264706 0.27050398
0.59923407 0.75465686 0.30196078
0.68344056 0.77156863 0.33471967
0.76029412 0.78627451 0.37107843
0.8370864 0.81011795 0.41813725
0.89454657 0.83976716 0.459375
0.58431373 0.83921569 0.4
0.60533088 0.84803922 0.42009804
0.60343137 0.83137255 0.40036765
0.64215686 0.84099265 0.42745098
0.69387255 0.85441176 0.46421569
0.73645833 0.85116422 0.46960784
0.79411765 0.85980392 0.50257353
0.85104167 0.87573529 0.54840686
0.89460784 0.89068627 0.60098039
0.35686275 0.2745098 0.14117647
0.36862745 0.2745098 0.15159314
0.37941176 0.2745098 0.15196078
0.40735294 0.27058824 0.14865196
0.52254902 0.26372549 0.1622549
0.71764706 0.25686275 0.1754902
0.85073529 0.33921569 0.21176471
0.93394608 0.45012255 0.26727941
0.96862745 0.51960784 0.31764706
0.36078431 0.28590686 0.15196078
0.36470588 0.2785386 0.15663297
0.38259804 0.28186275 0.15367647
0.43053002 0.28230699 0.15833333
0.56317402 0.28970588 0.17040441
0.7256587 0.30784314 0.18641238
0.8541973 0.36614583 0.21397059
0.92996324 0.46230086 0.26383272
0.96960784 0.53480392 0.31801471
0.36151961 0.30490196 0.1620098
0.3685049 0.29708946 0.15588235
0.39093137 0.30655637 0.16219363
0.47058824 0.31933211 0.1685049
0.59632353 0.33627451 0.17401961
0.75036765 0.36323529 0.18137255
0.85318627 0.42352941 0.21764706
0.92331495 0.49215686 0.26035539
0.95784314 0.54313725 0.30906863
0.35833333 0.35931373 0.16666667
0.36813725 0.37071078 0.16556373
0.40882353 0.37598039 0.17058824
0.48370098 0.39198836 0.1745098
0.60882353 0.415625 0.17371324
0.74359681 0.44450061 0.17153799
0.84911152 0.4713848 0.18676471
0.91439951 0.52365196 0.2435049
0.95710784 0.57610294 0.29865196
0.34803922 0.4622549 0.16666667
0.36004902 0.46470588 0.16691176
0.40134804 0.4689951 0.17058824
0.46838235 0.47892157 0.16960784
0.60147059 0.52034314 0.16715686
0.73314951 0.53848039 0.17058824
0.8317402 0.54313725 0.17352941
0.90098039 0.56335784 0.20931373
0.94509804 0.60882353 0.27205882
0.35098039 0.56703431 0.17205882
0.36363358 0.56095282 0.17352941
0.39549632 0.56519608 0.17288603
0.46458333 0.57742034 0.18382353
0.56654412 0.60036765 0.19693627
0.69963235 0.6301011 0.21282169
0.8122549 0.65147059 0.23746936
0.88186275 0.66122855 0.26881127
0.91470588 0.66715686 0.27879902
0.35612745 0.64828431 0.1872549
0.36813725 0.64996936 0.18354779
0.42291667 0.65759804 0.21023284
0.47892157 0.66706495 0.22441789
0.57843137 0.67892157 0.2564951
0.675 0.69561887 0.27916667
0.77469363 0.72132353 0.31807598
0.85882353 0.74460784 0.35061275
0.90980392 0.77156863 0.38627451
0.44068627 0.74166667 0.27071078
0.45931373 0.73480392 0.27838542
0.48627451 0.74264706 0.28180147
0.54661458 0.7504902 0.31237745
0.6096201 0.75637255 0.33946078
0.69532782 0.77401961 0.37794118
0.77043505 0.79457721 0.41017157
0.84019608 0.81672794 0.44477635
0.88688725 0.83198529 0.48002451
0.57647059 0.83137255 0.40686275
0.5877451 0.83137255 0.41164216
0.60906863 0.83504902 0.42058824
0.6495098 0.84460784 0.44313725
0.68627451 0.84509804 0.46470588
0.74558824 0.86090686 0.50281863
0.80196078 0.87083333 0.53431373
0.85539216 0.88235294 0.57303922
0.88921569 0.88921569 0.60196078
0.36470588 0.2745098 0.18382353
0.38020833 0.2745098 0.18314951
0.3939951 0.2745098 0.18860294
0.42751225 0.27843137 0.1995098
0.53210784 0.27696078 0.21862745
0.71770833 0.26672794 0.25833333
0.85428922 0.31764706 0.29129902
0.92205882 0.43872549 0.34705882
0.96323529 0.5504902 0.41421569
0.36470588 0.28627451 0.19656863
0.37473192 0.28057598 0.19528186
0.40531556 0.28783701 0.20796569
0.45037531 0.29234069 0.21236979
0.55441176 0.29077819 0.22941176
0.72762714 0.28676471 0.26372549
0.86188725 0.34836091 0.29411765
0.92018229 0.46734069 0.36443781
0.96096814 0.57175245 0.42579657
0.36078431 0.31176471 0.20821078
0.37205882 0.31622243 0.21813725
0.41197917 0.3176777 0.2252451
0.48088235 0.33664216 0.23457414
0.60637255 0.33504902 0.25539216
0.74460784 0.36761642 0.28088235
0.85 0.44610907 0.33250613
0.91265319 0.55085784 0.40330882
0.9432598 0.59509804 0.43296569
0.36323529 0.36868873 0.21574755
0.36862745 0.37971814 0.23235294
0.42863051 0.39022672 0.24227941
0.509375 0.4124617 0.25351563
0.64047181 0.43333333 0.27132353
0.75400582 0.45957414 0.28855699
0.84523591 0.52621017 0.33872549
0.90434283 0.57922028 0.38302696
0.94810049 0.62843137 0.42696078
0.37696078 0.46078431 0.23431373
0.38848039 0.46731005 0.24117647
0.44515931 0.47702206 0.25183824
0.50272672 0.49779412 0.25882353
0.63039216 0.52218137 0.2817402
0.75027574 0.53651961 0.2875
0.83351716 0.56519608 0.30569853
0.89705882 0.60456495 0.34445466
0.93137255 0.64093137 0.38627451
0.41415441 0.57058824 0.26764706
0.43088235 0.56978401 0.26764706
0.47173713 0.57682292 0.27401961
0.51323529 0.58991268 0.2754902
0.60343137 0.60563725 0.29390319
0.716322 0.63298866 0.31862745
0.8122549 0.65539216 0.34362745
0.88075214 0.66746324 0.3588848
0.92941176 0.69558824 0.39074755
0.45 0.65968137 0.28921569
0.45539216 0.65807292 0.28707108
0.46461397 0.66259191 0.27864583
0.53460478 0.67144608 0.30637255
0.60079657 0.68284314 0.32830882
0.69437806 0.70147059 0.35767463
0.78627451 0.72843137 0.38431373
0.85980392 0.74852941 0.41897978
0.91372549 0.77156863 0.43921569
0.503125 0.74313725 0.34656863
0.50806526 0.74268536 0.34046415
0.53235294 0.74656863 0.34701287
0.57333793 0.75441176 0.36206342
0.63480392 0.75833333 0.38946078
0.70576746 0.7754902 0.41898744
0.77463235 0.79411765 0.44857537
0.84411765 0.82105545 0.48664216
0.90196078 0.84626225 0.52941176
0.60784314 0.84852941 0.45343137
0.60392157 0.83707108 0.44558824
0.62316176 0.83958333 0.45343137
0.65980392 0.85098039 0.4754902
0.68431373 0.83235294 0.47205882
0.74957108 0.86427696 0.52401961
0.79767157 0.85306373 0.52671569
0.85147059 0.86715686 0.56862745
0.89411765 0.89019608 0.63284314
0.38431373 0.27647059 0.27647059
0.3997549 0.2745098 0.28235294
0.44901961 0.28627451 0.30147059
0.51519608 0.30367647 0.32156863
0.60588235 0.35490196 0.33921569
0.71323529 0.33186275 0.35833333
0.82794118 0.35441176 0.38872549
0.90294118 0.44705882 0.43014706
0.9627451 0.54313725 0.47647059
0.38627451 0.29362745 0.2997549
0.39754902 0.2916973 0.30217525
0.45294118 0.30367647 0.31691176
0.51976103 0.32959559 0.33431373
0.61911765 0.3627451 0.35085784
0.7270527 0.35750613 0.37092525
0.84142157 0.38259804 0.39877451
0.90903799 0.47696078 0.43946078
0.96446078 0.5620098 0.48406863
0.37892157 0.32647059 0.31911765
0.39754902 0.33112745 0.32279412
0.45330882 0.34693627 0.33308824
0.54969363 0.38872549 0.35833333
0.66642157 0.42696078 0.3745098
0.75882353 0.42297794 0.39436275
0.84252451 0.45686275 0.42156863
0.91041667 0.53431373 0.4627451
0.95 0.6004902 0.49803922
0.37058824 0.40294118 0.32941176
0.38471201 0.39901961 0.32941176
0.44460784 0.41041667 0.34479167
0.55640319 0.44460784 0.36911765
0.6745098 0.4932598 0.39375
0.76053922 0.50340074 0.41522672
0.83743873 0.55784314 0.45441176
0.89509804 0.61151961 0.48602941
0.94509804 0.65 0.50980392
0.38039216 0.47745098 0.32352941
0.40257353 0.47647059 0.3254902
0.44754902 0.4872549 0.3370098
0.55588235 0.51752451 0.37107843
0.66568627 0.54705882 0.40098039
0.75919118 0.57242647 0.42034314
0.82941176 0.61911765 0.4502451
0.89473039 0.66421569 0.4935049
0.93529412 0.7 0.51666667
0.4127451 0.5620098 0.32965686
0.4370098 0.56519608 0.33587623
0.48872549 0.57806373 0.34822304
0.58409926 0.60462623 0.38284314
0.6557598 0.62156863 0.40355392
0.7416973 0.64727328 0.42818627
0.81832108 0.66495098 0.44191176
0.88314951 0.67745098 0.44779412
0.9247549 0.71789216 0.48823529
0.47941176 0.65539216 0.36372549
0.48707108 0.65300245 0.35784314
0.52696078 0.66397059 0.37254902
0.59136029 0.67928922 0.39528186
0.6495098 0.68823529 0.4125
0.72083333 0.70539216 0.43621324
0.79718137 0.72806373 0.45882353
0.86317402 0.75128676 0.48382353
0.91372549 0.77303922 0.49411765
0.55392157 0.74485294 0.41519608
0.53630515 0.73921569 0.39800858
0.57009804 0.75355392 0.41568627
0.60171569 0.75471814 0.42025123
0.65931373 0.76029412 0.44044118
0.71715686 0.77778799 0.46930147
0.78069853 0.80196078 0.49411765
0.84803922 0.8245098 0.53532475
0.89583333 0.8379902 0.56397059
0.6254902 0.84705882 0.49803922
0.62156863 0.84117647 0.49019608
0.63235294 0.84656863 0.49019608
0.65269608 0.8495098 0.49534314
0.69607843 0.85098039 0.51568627
0.7504902 0.86544118 0.55245098
0.80196078 0.87058824 0.57696078
0.85588235 0.88063725 0.61862745
0.88235294 0.89019608 0.64509804
0.42107843 0.29411765 0.43333333
0.44558824 0.29558824 0.43088235
0.50796569 0.31421569 0.44620098
0.59852941 0.35147059 0.46323529
0.70294118 0.45514706 0.48161765
0.76666667 0.4872549 0.48823529
0.8254902 0.46715686 0.49497549
0.89754902 0.50441176 0.51599265
0.94509804 0.56764706 0.5495098
0.42990196 0.31470588 0.43854167
0.44558824 0.31470588 0.44262408
0.50980392 0.33079044 0.45286458
0.60851716 0.38382353 0.47077206
0.70750613 0.46715686 0.48422181
0.77273284 0.50723805 0.49215686
0.82918199 0.48938419 0.50047488
0.89901961 0.51809896 0.52216605
0.94540441 0.57745098 0.55196078
0.43431373 0.35784314 0.46078431
0.43071385 0.35084252 0.46024816
0.50980392 0.37892157 0.46446078
0.62202819 0.42193627 0.48584559
0.72303922 0.51109069 0.49319853
0.77303922 0.53823529 0.50314032
0.82503064 0.54215686 0.51495098
0.89002757 0.5807598 0.53772978
0.93578431 0.61801471 0.56372549
0.3745098 0.43143382 0.44656863
0.39931066 0.42990196 0.44871324
0.4877451 0.44414828 0.46326593
0.60637255 0.48390778 0.48318781
0.70778186 0.55759804 0.5004902
0.783678 0.60594363 0.52205882
0.83443627 0.60631127 0.53627451
0.88707108 0.61776195 0.54754136
0.93186275 0.65827206 0.57401961
0.37916667 0.50539216 0.43259804
0.40612745 0.50539216 0.43504902
0.45790441 0.51470588 0.44779412
0.565625 0.54044118 0.46792279
0.69693627 0.58982843 0.5004902
0.77303922 0.62401961 0.52352941
0.8254902 0.65594363 0.53658088
0.88707108 0.66577819 0.55701593
0.9254902 0.69926471 0.58333333
0.41231618 0.57696078 0.41709559
0.43719363 0.57696078 0.42254902
0.48578431 0.59056373 0.43431373
0.56756281 0.60539216 0.45
0.67794118 0.63354779 0.48844975
0.76370251 0.67012102 0.52745098
0.82941176 0.69719669 0.54595588
0.88155637 0.71459099 0.55813419
0.91372549 0.74767157 0.58535539
0.43541667 0.64215686 0.40747549
0.45753676 0.6439951 0.41021752
0.51590074 0.6573223 0.42288603
0.58466605 0.67107843 0.44742647
0.6745098 0.69215686 0.48529412
0.73935355 0.71715686 0.51421569
0.80891544 0.74788603 0.54227941
0.87144608 0.77219669 0.56139706
0.90882353 0.79460784 0.58590686
0.5122549 0.73351716 0.45
0.52761183 0.73464308 0.44969363
0.56488971 0.73872549 0.45735294
0.61868873 0.74890472 0.47617953
0.68431373 0.76412377 0.50294118
0.72762714 0.78186275 0.52303922
0.7899663 0.80735294 0.55735294
0.85165441 0.82892157 0.58839614
0.88841912 0.84148284 0.60520833
0.61666667 0.84705882 0.54264706
0.60637255 0.83400735 0.52714461
0.63431373 0.84276961 0.53811275
0.65637255 0.83431373 0.53682598
0.69877451 0.85367647 0.55588235
0.74411765 0.86666667 0.57640931
0.80196078 0.87512255 0.61519608
0.85588235 0.88480392 0.65165441
0.89558824 0.89411765 0.68921569
0.48627451 0.34019608 0.56470588
0.50747549 0.33443627 0.57254902
0.58504902 0.37352941 0.57230392
0.66911765 0.42634804 0.57830882
0.7627451 0.50784314 0.59117647
0.81029412 0.61666667 0.59938725
0.84509804 0.63063725 0.60392157
0.87536765 0.61556373 0.60686275
0.9245098 0.62647059 0.62941176
0.49313725 0.36323529 0.57254902
0.51917892 0.36715686 0.57135417
0.58759191 0.39273897 0.57647059
0.67598039 0.44456189 0.58333333
0.76029412 0.52941176 0.59160539
0.81029412 0.61930147 0.60133272
0.84509804 0.63416054 0.60456495
0.87794118 0.62126225 0.60684743
0.91654412 0.63296569 0.6254902
0.49411765 0.41495098 0.57156863
0.51715686 0.41654412 0.57129289
0.57665441 0.43768382 0.5754902
0.67205882 0.49188113 0.58333333
0.75416667 0.56372549 0.59473039
0.80845588 0.63765319 0.60640319
0.84411765 0.66213235 0.61096814
0.87144608 0.64105392 0.61106005
0.9245098 0.65612745 0.63333333
0.4807598 0.48137255 0.56580882
0.50079657 0.48471201 0.55824142
0.56617647 0.5 0.56920956
0.66855086 0.53978248 0.5872549
0.74877451 0.60643382 0.59871324
0.80761336 0.66202512 0.6122549
0.84102328 0.69276961 0.62254902
0.87414216 0.6787837 0.62068015
0.92107843 0.68321078 0.64227941
0.41617647 0.53921569 0.54460784
0.42928922 0.53504902 0.54093137
0.48933824 0.54411765 0.54644608
0.6122549 0.57469363 0.56813725
0.73063725 0.6245098 0.59313725
0.80073529 0.68210784 0.61617647
0.83970588 0.71960784 0.62941176
0.88063725 0.72150735 0.63792892
0.90686275 0.71715686 0.64166667
0.4377451 0.60784314 0.52904412
0.45294118 0.60502451 0.52843137
0.49754902 0.60723039 0.53198529
0.57375919 0.61855086 0.54370404
0.67426471 0.64724265 0.57034314
0.77401961 0.69411765 0.60404412
0.83952206 0.74617034 0.63403799
0.87892157 0.75980392 0.64767157
0.90980392 0.78394608 0.67365196
0.4497549 0.66397059 0.50784314
0.47012868 0.66176471 0.50490196
0.50465686 0.66734069 0.50784314
0.57791054 0.6734375 0.52215074
0.66458333 0.69338235 0.54901961
0.74770221 0.72527574 0.58409926
0.81893382 0.76764706 0.62015931
0.87098652 0.79852941 0.64644608
0.9002451 0.81764706 0.67867647
0.44877451 0.72401961 0.49093137
0.47008272 0.72696078 0.49382659
0.50775123 0.72696078 0.49696691
0.58904718 0.74117647 0.52401961
0.65925245 0.75625 0.54871324
0.73235294 0.78097426 0.58431373
0.79901961 0.81081495 0.62303922
0.86050858 0.83751532 0.65914522
0.89031863 0.85281863 0.68223039
0.54313725 0.83137255 0.56960784
0.55833333 0.83235294 0.56580882
0.59313725 0.84338235 0.5745098
0.62732843 0.83517157 0.5807598
0.68137255 0.84558824 0.5995098
0.73235294 0.85526961 0.61519608
0.80196078 0.87965686 0.65710784
0.85588235 0.88235294 0.68529412
0.90588235 0.89509804 0.73137255
0.60637255 0.45 0.67990196
0.63284314 0.47254902 0.67598039
0.68333333 0.49301471 0.68382353
0.74185049 0.53645833 0.67990196
0.80441176 0.61127451 0.68553922
0.84332108 0.67469363 0.69509804
0.86678922 0.73529412 0.69509804
0.88284314 0.73088235 0.69166667
0.90196078 0.71960784 0.6995098
0.61807598 0.48039216 0.67647059
0.63633578 0.48775276 0.67647059
0.67794118 0.50960478 0.67990196
0.74313725 0.5490579 0.68382353
0.8004902 0.61320466 0.68924632
0.84117647 0.68192402 0.69509804
0.86678922 0.73137255 0.69944853
0.88333333 0.74129902 0.6995098
0.90588235 0.72261029 0.70294118
0.62647059 0.51470588 0.67610294
0.64166667 0.52130821 0.68468137
0.67901348 0.54509804 0.68011642
0.73578431 0.57598039 0.68039216
0.79656863 0.63314951 0.69166667
0.84080882 0.69411765 0.69901961
0.86421569 0.74996936 0.70621936
0.88241422 0.75306373 0.69949449
0.89852941 0.74558824 0.70036765
0.60079657 0.55686275 0.67567402
0.62254902 0.56443781 0.67251072
0.66078431 0.57945772 0.67383578
0.725 0.60637255 0.68242187
0.78627451 0.65588235 0.6877451
0.83333333 0.71305913 0.6991345
0.86029412 0.76164216 0.70693934
0.88268229 0.77018229 0.70696998
0.89166667 0.76256127 0.70343137
0.51862745 0.60171569 0.65514706
0.55294118 0.60101103 0.65490196
0.61023284 0.61011029 0.66182598
0.69362745 0.63308824 0.67417279
0.75980392 0.66593137 0.68210784
0.82490809 0.7254902 0.70088848
0.85980392 0.78272059 0.71164216
0.88241422 0.78284314 0.71102941
0.89411765 0.7754902 0.70710784
0.46685049 0.64705882 0.63970588
0.48838082 0.64705882 0.6372549
0.52193627 0.64313725 0.63970588
0.59583333 0.65373775 0.64754902
0.71418505 0.68063725 0.66976103
0.79411765 0.72892157 0.69258578
0.85392157 0.78137255 0.71470588
0.87941176 0.81029412 0.72320006
0.8995098 0.80637255 0.72432598
0.5 0.70539216 0.62193627
0.50375306 0.70490196 0.62463235
0.53783701 0.70098039 0.6252451
0.58809743 0.70490196 0.63328738
0.66078431 0.72156863 0.64828431
0.75667892 0.74419424 0.67254902
0.83042279 0.79166667 0.70796569
0.87817096 0.83688725 0.73056066
0.90196078 0.83676471 0.73921569
0.49558824 0.7745098 0.61813725
0.50599724 0.77070313 0.61421569
0.55134804 0.76666667 0.61646752
0.59622396 0.76666667 0.62559743
0.64920343 0.7799326 0.63878676
0.7254902 0.79101563 0.65831036
0.80157782 0.81764706 0.6879136
0.86715686 0.85276501 0.73393842
0.90196078 0.875 0.75441176
0.48382353 0.84754902 0.62941176
0.52297794 0.83578431 0.62947304
0.51715686 0.82794118 0.61678922
0.56421569 0.82794118 0.6254902
0.61764706 0.83921569 0.63848039
0.70667892 0.85238971 0.66997549
0.78284314 0.85784314 0.69473039
0.85588235 0.87107843 0.73088235
0.90588235 0.89411765 0.76470588
0.74509804 0.61568627 0.77647059
0.76078431 0.62794118 0.78088235
0.7754902 0.63529412 0.77254902
0.80637255 0.66666667 0.77401961
0.83333333 0.69607843 0.75882353
0.86421569 0.74019608 0.7622549
0.88627451 0.78137255 0.76372549
0.89460784 0.8127451 0.76470588
0.90196078 0.82352941 0.76470588
0.74460784 0.63088235 0.77598039
0.75686275 0.63970588 0.78088235
0.77585784 0.64852941 0.7754902
0.81060049 0.67708333 0.77677696
0.8372549 0.70759804 0.77230392
0.86636029 0.75 0.76813725
0.88333333 0.79264706 0.76813725
0.89460784 0.81917892 0.76470588
0.90637255 0.83137255 0.77254902
0.74215686 0.64705882 0.77254902
0.75343137 0.65477941 0.77647059
0.76691176 0.65784314 0.76936275
0.7995098 0.68002451 0.76605392
0.83578431 0.71911765 0.77254902
0.86421569 0.75772059 0.77254902
0.88235294 0.79705882 0.76862745
0.89411765 0.83321078 0.76960784
0.90588235 0.83823529 0.77647059
0.71127451 0.66127451 0.76470588
0.73039216 0.67401961 0.77383578
0.74803922 0.67414216 0.77107843
0.775 0.67794118 0.75392157
0.82622549 0.73137255 0.77254902
0.85692402 0.76764706 0.77310049
0.87941176 0.80735294 0.77218137
0.89068627 0.83008578 0.76452206
0.89558824 0.83137255 0.76470588
0.69607843 0.70392157 0.78039216
0.69558824 0.7 0.77622549
0.71323529 0.69901961 0.76911765
0.75857843 0.71102941 0.77254902
0.80588235 0.73627451 0.77352941
0.84460784 0.7754902 0.77254902
0.87303922 0.8127451 0.76519608
0.89411765 0.84117647 0.77647059
0.89803922 0.84313725 0.77058824
0.60441176 0.73333333 0.76813725
0.57843137 0.71519608 0.74362745
0.64901961 0.7245098 0.76078431
0.69460784 0.73480392 0.76862745
0.75686275 0.72867647 0.74779412
0.81709559 0.77083333 0.75698529
0.86617647 0.82058824 0.7754902
0.88890931 0.84754902 0.77303922
0.90588235 0.86813725 0.78823529
0.56862745 0.78921569 0.76666667
0.55098039 0.76764706 0.73958333
0.58333333 0.75808824 0.72647059
0.62843137 0.76335784 0.74068627
0.68970588 0.77843137 0.77156863
0.77683824 0.79460784 0.77757353
0.84901961 0.82622549 0.78137255
0.88321078 0.86372549 0.77254902
0.90588235 0.87941176 0.79215686
0.57303922 0.83676471 0.7495098
0.58033088 0.83578431 0.75588235
0.59914216 0.83235294 0.7504902
0.62205882 0.8276348 0.7403799
0.67622549 0.83651961 0.76495098
0.72892157 0.83627451 0.77254902
0.79803922 0.84852941 0.77683824
0.86280637 0.86758578 0.77647059
0.90588235 0.88970588 0.79166667
0.58431373 0.87058824 0.76078431
0.58823529 0.86715686 0.75343137
0.60686275 0.8745098 0.76470588
0.62990196 0.86029412 0.75686275
0.67843137 0.86862745 0.77058824
0.73088235 0.87794118 0.7627451
0.79411765 0.88529412 0.77941176
0.85196078 0.8745098 0.77254902
0.90196078 0.88627451 0.78039216
