site/assets/luts/sha256-857902b54bd10888a28cb871fd1cf5380b63b1550146a8546d0f961b75283e7f.cube
# LUTr-Schema-Version: 2
# LUTr-ID: sha256-857902b54bd10888a28cb871fd1cf5380b63b1550146a8546d0f961b75283e7f
# LUTr-Title: lomography redscale 100
# LUTr-Collection: Natron HaldCLUT
# LUTr-Collection-ID: natron-haldclut-presets
# LUTr-Source: https://github.com/NatronGitHub/clut
# LUTr-Retrieved: 2026-07-27
# LUTr-Source-File: submissions/natron-haldclut-presets/negative_color/lomography_redscale_100.png
# LUTr-Source-Format: HALD-PNG
# LUTr-Source-SHA256: 857902b54bd10888a28cb871fd1cf5380b63b1550146a8546d0f961b75283e7f
# LUTr-License: CC-BY-SA-4.0
# LUTr-License-URL: https://github.com/NatronGitHub/clut#license
# LUTr-License-Basis: repo-license-file
# LUTr-Transform-Class: film-emulation
# LUTr-Tags: creative, film, film-emulation, hald-clut, natron, png, cube
# LUTr-Input-Color-Space: srgb
# LUTr-Input-Gamut: rec709
# LUTr-Input-Transfer: srgb
# LUTr-Output-Color-Space: srgb
# LUTr-Output-Gamut: rec709
# LUTr-Output-Transfer: srgb
# LUTr-Color-Space-Confidence: assumed-display-referred
# LUTr-Domain-Normalized: true
# LUTr-Shaper: none
# LUTr-Original-Grid: 64x64x64
# LUTr-Conversion-Grid: 25x25x25
# LUTr-Conversion-Interpolation: trilinear
# LUTr-Conversion-Method: HALD-PNG LUT image decoded at 16-bit and sampled to 25x25x25 3D CUBE
# LUTr-Conversion-Tool: LUTr scripts/convert-all-to-cube.mjs 2.0.0
# LUTr-Conversion-Date: 2026-07-27
# LUTr-Note: Preserve this metadata and the upstream license notices when redistributing.
TITLE "lomography redscale 100"
LUT_3D_SIZE 25
DOMAIN_MIN 0 0 0
DOMAIN_MAX 1 1 1
0.011764706 0.0078431373 0.011764706
0.024509804 0.0078431373 0.011764706
0.041176471 0.011764706 0.011764706
0.058333333 0.011764706 0.011764706
0.078431373 0.011764706 0.011764706
0.11127451 0.01127451 0.020098039
0.14215686 0.0049019608 0.030392157
0.1745098 0.010784314 0.044607843
0.21176471 0.023529412 0.058823529
0.24264706 0.037745098 0.073039216
0.27352941 0.048039216 0.087254902
0.30441176 0.054901961 0.10098039
0.3627451 0.056862745 0.12352941
0.42156863 0.055392157 0.15
0.45882353 0.061764706 0.16666667
0.49460784 0.064215686 0.18186275
0.52941176 0.066666667 0.19607843
0.56813725 0.070588235 0.2127451
0.60294118 0.075490196 0.22843137
0.63382353 0.081862745 0.24215686
0.66470588 0.08627451 0.25294118
0.69558824 0.086764706 0.26715686
0.71960784 0.097058824 0.27745098
0.74558824 0.10735294 0.29166667
0.76862745 0.11764706 0.29803922
0.014215686 0.014215686 0.011764706
0.027512255 0.014215686 0.011764706
0.043014706 0.013602941 0.011764706
0.05814951 0.011764706 0.011764706
0.074509804 0.011764706 0.0085784314
0.10919118 0.01439951 0.024387255
0.13970588 0.017769608 0.031372549
0.17150735 0.022977941 0.044607843
0.20539216 0.029901961 0.058823529
0.23872549 0.040196078 0.072120098
0.26960784 0.048039216 0.084313725
0.30177696 0.057046569 0.098835784
0.35441176 0.058823529 0.12156863
0.40147059 0.061764706 0.14185049
0.44607843 0.068137255 0.16029412
0.48578431 0.073958333 0.17849265
0.5254902 0.079411765 0.19607843
0.56666667 0.082414216 0.2127451
0.60294118 0.087622549 0.22843137
0.63382353 0.094791667 0.24215686
0.66470588 0.097794118 0.25490196
0.69558824 0.1004902 0.26715686
0.72254902 0.10404412 0.2810049
0.74803922 0.11072304 0.29166667
0.76862745 0.11764706 0.3004902
0.015686275 0.024509804 0.011764706
0.028431373 0.024509804 0.013602941
0.044117647 0.02377451 0.012745098
0.058333333 0.020710784 0.011887255
0.074509804 0.020588235 0.012254902
0.099509804 0.021078431 0.01997549
0.13235294 0.02745098 0.029411765
0.16421569 0.033823529 0.041789216
0.19901961 0.040196078 0.054901961
0.23272059 0.048039216 0.069117647
0.26495098 0.052696078 0.083333333
0.29914216 0.058455882 0.097426471
0.34215686 0.063235294 0.11666667
0.38933824 0.072058824 0.13431373
0.43504902 0.079411765 0.15490196
0.48431373 0.087622549 0.1754902
0.5254902 0.095098039 0.19607843
0.5627451 0.097916667 0.2127451
0.59901961 0.10073529 0.22843137
0.63370098 0.10772059 0.24215686
0.66470588 0.1127451 0.25539216
0.69901961 0.11568627 0.27107843
0.72352941 0.11568627 0.28137255
0.74803922 0.11470588 0.29166667
0.76960784 0.11764706 0.30196078
0.019607843 0.034803922 0.011764706
0.026286765 0.034803922 0.011764706
0.044240196 0.034803922 0.015686275
0.058333333 0.034803922 0.015686275
0.07622549 0.034803922 0.017401961
0.099019608 0.034803922 0.020036765
0.11997549 0.034803922 0.023897059
0.15392157 0.042647059 0.036948529
0.18872549 0.050490196 0.051470588
0.22567402 0.058333333 0.067830882
0.25919118 0.062254902 0.080759804
0.29607843 0.066176471 0.097058824
0.3372549 0.07377451 0.11372549
0.38676471 0.085784314 0.13431373
0.43823529 0.096078431 0.15747549
0.48431373 0.10294118 0.17794118
0.5254902 0.10882353 0.19607843
0.5627451 0.11145833 0.2127451
0.59901961 0.11421569 0.22843137
0.63333333 0.12101716 0.24215686
0.66666667 0.12671569 0.25686275
0.69601716 0.12892157 0.27107843
0.72352941 0.12892157 0.28137255
0.75165441 0.12892157 0.29166667
0.77254902 0.12892157 0.30196078
0.019607843 0.043137255 0.011764706
0.025245098 0.044362745 0.011029412
0.042647059 0.04754902 0.015686275
0.054411765 0.047303922 0.012254902
0.068627451 0.045098039 0.012745098
0.09877451 0.050980392 0.025245098
0.11960784 0.053921569 0.026960784
0.1502451 0.058823529 0.036764706
0.18627451 0.066666667 0.050980392
0.22156863 0.073039216 0.065196078
0.25833333 0.078921569 0.080392157
0.29607843 0.085784314 0.097058824
0.33823529 0.091176471 0.11470588
0.38676471 0.098529412 0.13455882
0.43823529 0.10882353 0.15882353
0.48627451 0.11715686 0.17794118
0.5254902 0.12156863 0.19607843
0.56348039 0.1247549 0.2127451
0.5995098 0.12843137 0.22843137
0.63382353 0.13504902 0.24264706
0.66666667 0.14019608 0.25686275
0.70147059 0.14534314 0.27132353
0.72892157 0.14852941 0.28529412
0.75661765 0.14901961 0.29558824
0.77843137 0.14901961 0.30588235
0.020098039 0.05245098 0.0083333333
0.024693627 0.054411765 0.010477941
0.041544118 0.060784314 0.016176471
0.054901961 0.06372549 0.016176471
0.066911765 0.062009804 0.012254902
0.091666667 0.068137255 0.020588235
0.11960784 0.074509804 0.030514706
0.1495098 0.079411765 0.040686275
0.18382353 0.083333333 0.050980392
0.21764706 0.089705882 0.065196078
0.25490196 0.095955882 0.080392157
0.29607843 0.10245098 0.097058824
0.34142157 0.10686275 0.11764706
0.39019608 0.11127451 0.13823529
0.43480392 0.12107843 0.1557598
0.47745098 0.12745098 0.1754902
0.52107843 0.13382353 0.19558824
0.56617647 0.1377451 0.2127451
0.60294118 0.14301471 0.22941176
0.63425245 0.14908088 0.24264706
0.67058824 0.15563725 0.25882353
0.70692402 0.16176471 0.275
0.73431373 0.16519608 0.28566176
0.76127451 0.16519608 0.2995098
0.78431373 0.16519608 0.30637255
0.030392157 0.076470588 0.015686275
0.032843137 0.076470588 0.01752451
0.04877451 0.084313725 0.023529412
0.06127451 0.084313725 0.023039216
0.073529412 0.085784314 0.02254902
0.094240196 0.08872549 0.026960784
0.11960784 0.095098039 0.034313725
0.14620098 0.098161765 0.040686275
0.17745098 0.10392157 0.050980392
0.21409314 0.10784314 0.065196078
0.25196078 0.11568627 0.080392157
0.29607843 0.12218137 0.097426471
0.34313725 0.12745098 0.11764706
0.38762255 0.13480392 0.13823529
0.43137255 0.14142157 0.15563725
0.47585784 0.14816176 0.1754902
0.52058824 0.15392157 0.19509804
0.56629902 0.16029412 0.2127451
0.60612745 0.1627451 0.23235294
0.6377451 0.16666667 0.24607843
0.67254902 0.17254902 0.26078431
0.70735294 0.17855392 0.275
0.7375 0.17941176 0.28921569
0.76482843 0.17941176 0.2995098
0.7872549 0.17941176 0.30980392
0.040686275 0.10098039 0.021078431
0.042218137 0.10098039 0.021078431
0.054044118 0.10490196 0.02745098
0.067463235 0.10833333 0.030882353
0.081127451 0.10882353 0.028921569
0.096568627 0.1127451 0.03314951
0.11960784 0.11666667 0.038602941
0.14558824 0.11666667 0.043137255
0.17254902 0.11911765 0.049509804
0.20980392 0.12604167 0.062806373
0.25196078 0.1372549 0.080392157
0.29607843 0.14540441 0.10098039
0.34117647 0.15147059 0.11838235
0.38627451 0.16029412 0.13823529
0.43431373 0.16875 0.15882353
0.48039216 0.1778799 0.17640931
0.5254902 0.18333333 0.19607843
0.56966912 0.18633578 0.21666667
0.60894608 0.1872549 0.23272059
0.64295343 0.18872549 0.24656863
0.6752451 0.19191176 0.26078431
0.70735294 0.19509804 0.275
0.73823529 0.19509804 0.28921569
0.76819853 0.19509804 0.30098039
0.79362745 0.19362745 0.31372549
0.047058824 0.12156863 0.023529412
0.047058824 0.12156863 0.023529412
0.055882353 0.1254902 0.02745098
0.070098039 0.1254902 0.030882353
0.08627451 0.13137255 0.035294118
0.10245098 0.13382353 0.039215686
0.11960784 0.1372549 0.043137255
0.14411765 0.14117647 0.047058824
0.16862745 0.1372549 0.050980392
0.20833333 0.14362745 0.06372549
0.25196078 0.15784314 0.080392157
0.2995098 0.16813725 0.10098039
0.34117647 0.17843137 0.12156863
0.38627451 0.18480392 0.13823529
0.43431373 0.19509804 0.15882353
0.48186275 0.20539216 0.17941176
0.52941176 0.20784314 0.2
0.57303922 0.21176471 0.21666667
0.61470588 0.21176471 0.23627451
0.6495098 0.21519608 0.2504902
0.68039216 0.21568627 0.26470588
0.71127451 0.21617647 0.27892157
0.74215686 0.21960784 0.28921569
0.77156863 0.21960784 0.30343137
0.79215686 0.21960784 0.31372549
0.050980392 0.14215686 0.025980392
0.050980392 0.14215686 0.023529412
0.056862745 0.14497549 0.02745098
0.073529412 0.14981618 0.033517157
0.088235294 0.15514706 0.038480392
0.1026348 0.16029412 0.043443627
0.11960784 0.16139706 0.047058824
0.14258578 0.16421569 0.050980392
0.16862745 0.16568627 0.053431373
0.20588235 0.17058824 0.066176471
0.24914216 0.18125 0.084313725
0.29577206 0.19264706 0.1036152
0.34117647 0.20294118 0.12156863
0.38253676 0.21323529 0.13823529
0.43186275 0.22352941 0.15882353
0.48431373 0.23235294 0.17941176
0.53186275 0.23627451 0.2
0.5778799 0.23627451 0.21966912
0.61960784 0.23627451 0.2372549
0.65588235 0.23841912 0.2526348
0.68676471 0.24019608 0.26593137
0.71734069 0.24264706 0.27892157
0.74607843 0.24656863 0.29276961
0.77156863 0.2504902 0.30343137
0.78578431 0.25441176 0.30980392
0.050980392 0.17254902 0.031372549
0.050980392 0.1754902 0.029534314
0.055882353 0.17573529 0.031617647
0.06997549 0.18026961 0.036151961
0.084313725 0.18578431 0.043137255
0.099019608 0.19117647 0.047058824
0.11960784 0.19117647 0.047058824
0.13921569 0.19117647 0.050980392
0.16470588 0.19509804 0.054901961
0.20588235 0.20147059 0.071568627
0.24705882 0.20784314 0.087254902
0.29080882 0.21813725 0.10490196
0.33333333 0.22843137 0.12156863
0.37757353 0.23872549 0.13823529
0.42867647 0.24901961 0.15882353
0.48517157 0.25833333 0.17941176
0.53333333 0.26470588 0.2
0.57904412 0.26470588 0.22058824
0.62377451 0.26151961 0.2372549
0.66213235 0.26176471 0.25441176
0.69215686 0.26568627 0.26862745
0.71997549 0.27009804 0.28026961
0.74705882 0.27745098 0.29313725
0.76727941 0.28137255 0.30306373
0.77941176 0.28529412 0.30882353
0.050980392 0.20980392 0.035294118
0.050980392 0.20980392 0.035294118
0.05245098 0.21029412 0.035294118
0.065747549 0.21415441 0.039154412
0.078676471 0.21813725 0.043137255
0.095098039 0.21813725 0.047058824
0.1122549 0.22071078 0.049632353
0.12941176 0.22205882 0.050980392
0.15441176 0.2254902 0.058333333
0.19852941 0.22990196 0.071568627
0.23970588 0.23786765 0.088235294
0.28088235 0.24509804 0.10490196
0.32598039 0.25539216 0.12156863
0.37107843 0.26917892 0.13823529
0.42291667 0.27647059 0.15882353
0.48333333 0.28265931 0.17941176
0.5372549 0.28921569 0.20343137
0.58235294 0.29136029 0.22058824
0.62708333 0.29252451 0.24105392
0.66862745 0.29258578 0.25741422
0.6995098 0.29828431 0.27230392
0.73039216 0.30484069 0.28627451
0.76078431 0.31127451 0.29963235
0.78578431 0.31617647 0.31078431
0.79852941 0.31960784 0.31715686
0.047058824 0.24705882 0.041176471
0.049019608 0.24705882 0.041176471
0.050980392 0.24705882 0.039215686
0.056372549 0.24901961 0.039215686
0.066666667 0.25196078 0.045098039
0.076715686 0.25514706 0.049264706
0.08872549 0.25882353 0.050980392
0.10416667 0.26029412 0.053676471
0.12745098 0.2627451 0.060784314
0.17107843 0.26666667 0.074264706
0.21764706 0.27156863 0.089705882
0.26617647 0.27818627 0.10514706
0.31568627 0.28627451 0.12156863
0.36519608 0.29656863 0.13823529
0.41862745 0.30686275 0.15882353
0.47745098 0.3125 0.17941176
0.53921569 0.31764706 0.20392157
0.58627451 0.32794118 0.2245098
0.63186275 0.33333333 0.24264706
0.6747549 0.33676471 0.26176471
0.70980392 0.33823529 0.27647059
0.74117647 0.34142157 0.29093137
0.7754902 0.34656863 0.30637255
0.80563725 0.3497549 0.31985294
0.82352941 0.35098039 0.32745098
0.030392157 0.28872549 0.051470588
0.034313725 0.28823529 0.048835784
0.035661765 0.28823529 0.04754902
0.041727941 0.28823529 0.04754902
0.044362745 0.29215686 0.04754902
0.050428922 0.29607843 0.051041667
0.063357843 0.29865196 0.054901961
0.076286765 0.30147059 0.06060049
0.096568627 0.30392157 0.066666667
0.13988971 0.30784314 0.07745098
0.18762255 0.3127451 0.092156863
0.23529412 0.31911765 0.10539216
0.2870098 0.3252451 0.11960784
0.34754902 0.33186275 0.1377451
0.41017157 0.34215686 0.15882353
0.46960784 0.35245098 0.17941176
0.52941176 0.3627451 0.20392157
0.58823529 0.37058824 0.2245098
0.63541667 0.3754902 0.24509804
0.68039216 0.37843137 0.26568627
0.71593137 0.38235294 0.28063725
0.75098039 0.38627451 0.29509804
0.78566176 0.38627451 0.30919118
0.81813725 0.38627451 0.32481618
0.84803922 0.38578431 0.3377451
0.01372549 0.33333333 0.057843137
0.015563725 0.33333333 0.057843137
0.020833333 0.33259804 0.054901961
0.025367647 0.33333333 0.054044118
0.028431373 0.33333333 0.054901961
0.028553922 0.33345588 0.054901961
0.037009804 0.3372549 0.058578431
0.050490196 0.34448529 0.064215686
0.065686275 0.34901961 0.070588235
0.10686275 0.35147059 0.080882353
0.15294118 0.35392157 0.091176471
0.20441176 0.36029412 0.10232843
0.26078431 0.36323529 0.11617647
0.32316176 0.37303922 0.13431373
0.39828431 0.38333333 0.15563725
0.45686275 0.39473039 0.17941176
0.52254902 0.40784314 0.2
0.58370098 0.41421569 0.2245098
0.63627451 0.41960784 0.24803922
0.68333333 0.42340686 0.26568627
0.72107843 0.42745098 0.28382353
0.75747549 0.43039216 0.29889706
0.79142157 0.43039216 0.31495098
0.82696078 0.43039216 0.33026961
0.85784314 0.43039216 0.34117647
0 0.37598039 0.064215686
0.0015318627 0.37598039 0.064215686
0.0073529412 0.37598039 0.064215686
0.01372549 0.37843137 0.064215686
0.016911765 0.37843137 0.064215686
0.018321078 0.37843137 0.062438725
0.025 0.3817402 0.062132353
0.033823529 0.38627451 0.066666667
0.041666667 0.39019608 0.070588235
0.067218137 0.39411765 0.076041667
0.10735294 0.39803922 0.085784314
0.16096814 0.39803922 0.097365196
0.22965686 0.40392157 0.1122549
0.29234069 0.41421569 0.13069853
0.37414216 0.4245098 0.15490196
0.44564951 0.43872549 0.17640931
0.51372549 0.44901961 0.2
0.57941176 0.45686275 0.2245098
0.63627451 0.46286765 0.24901961
0.68431373 0.46813725 0.26960784
0.72352941 0.47132353 0.28504902
0.76029412 0.47432598 0.3026348
0.79816176 0.47757353 0.31776961
0.83480392 0.47886029 0.33327206
0.86421569 0.48039216 0.34509804
0 0.42745098 0.074509804
0 0.425 0.074509804
0.00098039216 0.42352941 0.074509804
0.0039215686 0.42352941 0.071078431
0.0078431373 0.42745098 0.070588235
0.011764706 0.42352941 0.070098039
0.014705882 0.42352941 0.066666667
0.023529412 0.42892157 0.068137255
0.031372549 0.43137255 0.070588235
0.033823529 0.4377451 0.073039216
0.058823529 0.44019608 0.079411765
0.099509804 0.44313725 0.089705882
0.15882353 0.44509804 0.10588235
0.24313725 0.45539216 0.12647059
0.32941176 0.46568627 0.15098039
0.41960784 0.47990196 0.1754902
0.50196078 0.49019608 0.2
0.57156863 0.49803922 0.2245098
0.63235294 0.50588235 0.24607843
0.68039216 0.50980392 0.26568627
0.72352941 0.51372549 0.28627451
0.76666667 0.51813725 0.30294118
0.80784314 0.52156863 0.32352941
0.84509804 0.5254902 0.33872549
0.8745098 0.52941176 0.34901961
0 0.475 0.082352941
0 0.47346814 0.081433824
0 0.47254902 0.080882353
0 0.47254902 0.080882353
0 0.47058824 0.078921569
0.0039215686 0.46862745 0.072732843
0.0053921569 0.46862745 0.067279412
0.0098651961 0.47254902 0.068137255
0.013235294 0.47647059 0.070588235
0.014705882 0.48039216 0.070588235
0.023897059 0.48431373 0.075490196
0.038051471 0.48431373 0.083333333
0.083578431 0.4875 0.095588235
0.18265931 0.49656863 0.12009804
0.28443627 0.50796569 0.14460784
0.37898284 0.51862745 0.16519608
0.47254902 0.52892157 0.18970588
0.55551471 0.5401348 0.21966912
0.61911765 0.54803922 0.2432598
0.67009804 0.55441176 0.26323529
0.72230392 0.55808824 0.28627451
0.77303922 0.56145833 0.30686275
0.81531863 0.56629902 0.32634804
0.85876225 0.57150735 0.34356618
0.88872549 0.5745098 0.35686275
0 0.52156863 0.091176471
0 0.51973039 0.091176471
0 0.51764706 0.090196078
0 0.51372549 0.087254902
0 0.50980392 0.084803922
0 0.50980392 0.078921569
0 0.51372549 0.072303922
0.0011029412 0.51372549 0.070588235
0.0068627451 0.51764706 0.070588235
0.0078431373 0.52156863 0.074509804
0.01495098 0.5254902 0.078431373
0.016053922 0.5254902 0.082230392
0.033823529 0.52941176 0.087254902
0.1245098 0.5377451 0.10882353
0.22352941 0.54705882 0.12941176
0.32340686 0.55735294 0.15036765
0.42647059 0.56764706 0.1745098
0.52647059 0.57855392 0.20821078
0.60808824 0.58921569 0.24044118
0.66323529 0.59558824 0.26176471
0.72156863 0.6004902 0.28627451
0.77855392 0.60526961 0.31078431
0.82352941 0.61102941 0.32916667
0.86678922 0.61605392 0.34803922
0.90784314 0.62058824 0.36568627
0 0.5627451 0.09754902
0 0.5627451 0.09754902
0 0.55882353 0.09754902
0 0.55490196 0.094117647
0 0.55490196 0.08995098
0 0.55447304 0.085355392
0 0.55490196 0.079289216
0 0.55833333 0.076654412
0.0039215686 0.55882353 0.074509804
0.0065563725 0.5627451 0.074509804
0.011764706 0.5627451 0.074632353
0.015257353 0.56617647 0.078431373
0.022058824 0.57058824 0.082598039
0.069178922 0.57542892 0.092156863
0.14338235 0.58272059 0.1127451
0.24785539 0.59215686 0.13333333
0.37892157 0.60245098 0.15784314
0.48155637 0.61488971 0.1908701
0.57855392 0.62696078 0.22745098
0.6495098 0.63676471 0.25784314
0.7125 0.64313725 0.28431373
0.78026961 0.6495098 0.31127451
0.82830882 0.65294118 0.33223039
0.86648284 0.65833333 0.34803922
0.90637255 0.66470588 0.36862745
0 0.60392157 0.10392157
0 0.60196078 0.10392157
0 0.6 0.10392157
0 0.59632353 0.10196078
0 0.59607843 0.097058824
0 0.59803922 0.092156863
0 0.5995098 0.088235294
0 0.6 0.082843137
0 0.6 0.074509804
0.0031862745 0.60122549 0.070588235
0.006372549 0.60392157 0.071078431
0.0098039216 0.60735294 0.074509804
0.0098039216 0.61078431 0.076470588
0.026715686 0.61397059 0.082598039
0.054901961 0.61715686 0.093137255
0.14754902 0.62573529 0.11421569
0.30588235 0.6372549 0.14117647
0.4377451 0.65073529 0.17205882
0.52009804 0.6622549 0.20686275
0.61078431 0.67401961 0.24338235
0.68529412 0.68235294 0.2745098
0.75392157 0.69019608 0.30147059
0.81421569 0.69705882 0.32892157
0.86348039 0.70269608 0.3504902
0.90196078 0.70980392 0.36862745
0 0.64117647 0.11029412
0 0.6408701 0.11029412
0 0.63982843 0.11029412
0 0.6372549 0.10680147
0 0.64117647 0.10416667
0 0.64117647 0.098529412
0 0.6442402 0.095098039
0 0.64509804 0.086580882
0 0.64509804 0.078921569
0 0.64117647 0.068627451
0.0039215686 0.64509804 0.070710784
0.0073529412 0.64810049 0.074080882
0.0098039216 0.64901961 0.076715686
0.015196078 0.65245098 0.082352941
0.011764706 0.65294118 0.084926471
0.040563725 0.65833333 0.092463235
0.15539216 0.67205882 0.11568627
0.31666667 0.68627451 0.14558824
0.45036765 0.7004902 0.18333333
0.56807598 0.71427696 0.22886029
0.66764706 0.72377451 0.26813725
0.72745098 0.73143382 0.29466912
0.79264706 0.73823529 0.32254902
0.85539216 0.74509804 0.34932598
0.90588235 0.75490196 0.36911765
0 0.68627451 0.11666667
0 0.67990196 0.11666667
0 0.67843137 0.11372549
0 0.67843137 0.11029412
0 0.68235294 0.10784314
0 0.68627451 0.10453431
0 0.68627451 0.09877451
0 0.68627451 0.09375
0 0.68627451 0.085294118
0 0.68811275 0.077818627
0.0039215686 0.68627451 0.074509804
0.0073529412 0.68627451 0.078308824
0.010294118 0.69019608 0.078431373
0.011397059 0.69019608 0.078431373
0.011519608 0.69313725 0.079166667
0.010661765 0.69803922 0.083333333
0.0098039216 0.70588235 0.087254902
0.14730392 0.71960784 0.11470588
0.34730392 0.73529412 0.15367647
0.48664216 0.74938725 0.19840686
0.62205882 0.76372549 0.25245098
0.70257353 0.77340686 0.28517157
0.78553922 0.78627451 0.32254902
0.8439951 0.79154412 0.34509804
0.89901961 0.79901961 0.36862745
0 0.73137255 0.1254902
0 0.72199755 0.12003676
0 0.725 0.11482843
0 0.72892157 0.11158088
0 0.73137255 0.10980392
0 0.72745098 0.10588235
0 0.72745098 0.10588235
0 0.73137255 0.096568627
0 0.73284314 0.08627451
0 0.73676471 0.077512255
0.0028186275 0.73639706 0.073039216
0.0073529412 0.73529412 0.073039216
0.0078431373 0.73137255 0.072303922
0.0078431373 0.73137255 0.069117647
0.0078431373 0.73137255 0.070955882
0.0039215686 0.73327206 0.073039216
0.0014705882 0.72156863 0.082352941
0.037622549 0.73578431 0.086335784
0.09252451 0.76176471 0.092892157
0.32818627 0.78235294 0.14822304
0.50955882 0.79852941 0.21053922
0.64466912 0.81323529 0.26734069
0.77941176 0.82904412 0.31887255
0.84074755 0.83872549 0.34558824
0.90196078 0.84901961 0.37009804
0 0.77254902 0.12941176
0 0.7622549 0.1254902
0 0.76960784 0.11764706
0 0.77352941 0.11372549
0 0.76470588 0.10980392
0 0.76029412 0.10588235
0 0.75686275 0.10588235
0 0.7622549 0.092647059
0 0.76862745 0.082352941
0 0.77892157 0.068137255
0.00098039216 0.77843137 0.062745098
0.0039215686 0.76911765 0.062745098
0.0039215686 0.76470588 0.060784314
0.0044117647 0.76470588 0.054901961
0.0078431373 0.76470588 0.054901961
0.0078431373 0.74460784 0.065686275
0.0078431373 0.7254902 0.082352941
0.019607843 0.74460784 0.078431373
0.021568627 0.77156863 0.070588235
0.0093137255 0.79852941 0.059803922
0.21176471 0.82156863 0.11764706
0.53137255 0.83578431 0.22794118
0.74705882 0.83823529 0.30784314
0.83529412 0.86078431 0.34313725
0.90980392 0.89019608 0.37254902
0.011764706 0.0078431373 0.011764706
0.024509804 0.0078431373 0.011764706
0.041176471 0.011764706 0.012377451
0.061764706 0.011764706 0.014215686
0.086764706 0.01495098 0.020098039
0.11764706 0.013909314 0.030392157
0.15 0.011764706 0.040686275
0.17849265 0.020526961 0.047058824
0.21323529 0.029901961 0.06127451
0.25202206 0.038664216 0.076960784
0.2872549 0.045220588 0.091789216
0.3245098 0.05067402 0.10784314
0.36985294 0.053676471 0.12867647
0.42156863 0.054901961 0.15
0.45980392 0.058823529 0.16666667
0.49552696 0.065747549 0.18186275
0.53333333 0.069117647 0.19607843
0.57058824 0.070588235 0.21421569
0.6064951 0.075490196 0.22843137
0.6341299 0.082169118 0.24264706
0.66593137 0.0875 0.25490196
0.69773284 0.093137255 0.26715686
0.72316176 0.10343137 0.27990196
0.74558824 0.11127451 0.29166667
0.76862745 0.12009804 0.29803922
0.011764706 0.014215686 0.011764706
0.025635723 0.014215686 0.011764706
0.043704044 0.014215686 0.014215686
0.060477941 0.013296569 0.014215686
0.082843137 0.01495098 0.01963848
0.1153799 0.01751685 0.029044118
0.14538909 0.021277574 0.038465074
0.17604167 0.027244179 0.047058824
0.20876225 0.03627451 0.058823529
0.24391085 0.045611213 0.073613664
0.28026961 0.052098652 0.088694853
0.31905637 0.053913909 0.10601256
0.3627451 0.057628676 0.12457108
0.40846354 0.061764706 0.14362745
0.4522212 0.068520221 0.16297488
0.4904565 0.075467218 0.17941176
0.52849265 0.079411765 0.19607843
0.56701134 0.082988664 0.2127451
0.60386029 0.088005515 0.22843137
0.63627451 0.094791667 0.24264706
0.66789216 0.10021446 0.25658701
0.69921109 0.10392923 0.27059589
0.72467831 0.10796569 0.28137255
0.74803922 0.11429994 0.29166667
0.76862745 0.12009804 0.29957108
0.015686275 0.024509804 0.012377451
0.028431373 0.024509804 0.015686275
0.045098039 0.024509804 0.01629902
0.061841299 0.023406863 0.018137255
0.081556373 0.023406863 0.020588235
0.10698529 0.027144608 0.026470588
0.1372549 0.031985294 0.036029412
0.16721814 0.038893995 0.044240196
0.20147059 0.045955882 0.057843137
0.23688725 0.053354779 0.071568627
0.2729473 0.059313725 0.087438725
0.30997243 0.062254902 0.10289522
0.35220588 0.065134804 0.12064951
