site/assets/luts/sha256-cd0143760e87245efb546d40d63a9d471d0b42e8fd520544163762d9015c2672.cube
# LUTr-Schema-Version: 2
# LUTr-ID: sha256-cd0143760e87245efb546d40d63a9d471d0b42e8fd520544163762d9015c2672
# LUTr-Title: kodak elite chrome 400
# LUTr-Collection: Natron HaldCLUT
# LUTr-Collection-ID: natron-haldclut-presets
# LUTr-Source: https://github.com/NatronGitHub/clut
# LUTr-Retrieved: 2026-07-27
# LUTr-Source-File: submissions/natron-haldclut-presets/colorslide/kodak_elite_chrome_400.png
# LUTr-Source-Format: HALD-PNG
# LUTr-Source-SHA256: cd0143760e87245efb546d40d63a9d471d0b42e8fd520544163762d9015c2672
# LUTr-License: CC-BY-SA-4.0
# LUTr-License-URL: https://github.com/NatronGitHub/clut#license
# LUTr-License-Basis: repo-license-file
# LUTr-Transform-Class: film-emulation
# LUTr-Tags: creative, film, film-emulation, hald-clut, natron, png, cube
# LUTr-Input-Color-Space: srgb
# LUTr-Input-Gamut: rec709
# LUTr-Input-Transfer: srgb
# LUTr-Output-Color-Space: srgb
# LUTr-Output-Gamut: rec709
# LUTr-Output-Transfer: srgb
# LUTr-Color-Space-Confidence: assumed-display-referred
# LUTr-Domain-Normalized: true
# LUTr-Shaper: none
# LUTr-Original-Grid: 64x64x64
# LUTr-Conversion-Grid: 25x25x25
# LUTr-Conversion-Interpolation: trilinear
# LUTr-Conversion-Method: HALD-PNG LUT image decoded at 16-bit and sampled to 25x25x25 3D CUBE
# LUTr-Conversion-Tool: LUTr scripts/convert-all-to-cube.mjs 2.0.0
# LUTr-Conversion-Date: 2026-07-27
# LUTr-Note: Preserve this metadata and the upstream license notices when redistributing.
TITLE "kodak elite chrome 400"
LUT_3D_SIZE 5
DOMAIN_MIN 0 0 0
DOMAIN_MAX 1 1 1
0 0 0
0.14117647 0.0068627451 0.0068627451
0.40588235 0.023529412 0.0058823529
0.67058824 0.047058824 0
0.89803922 0.078431373 0
0.11372549 0.20392157 0.081372549
0.22352941 0.18921569 0.061764706
0.45539216 0.17352941 0.028431373
0.7 0.11985294 0.0075980392
0.89215686 0.08627451 0
0.21764706 0.50588235 0.1627451
0.35245098 0.5 0.15980392
0.54803922 0.49803922 0.12941176
0.76176471 0.45392157 0.059803922
0.97254902 0.28039216 0
0.48137255 0.74901961 0.35
0.51960784 0.75686275 0.34019608
0.65294118 0.75735294 0.29215686
0.82745098 0.76004902 0.16838235
0.98137255 0.73039216 0.035294118
0.67843137 0.96470588 0.56078431
0.70980392 0.97352941 0.55
0.79019608 0.99019608 0.53137255
0.90784314 0.99901961 0.49117647
1 0.99607843 0.32156863
0.011764706 0.0078431373 0.12352941
0.11495098 0.0049019608 0.10171569
0.37745098 0.012254902 0.07254902
0.6627451 0.039460784 0.021568627
0.89117647 0.074509804 0.0068627451
0.093872549 0.19681373 0.21078431
0.20073529 0.19215686 0.19509804
0.43946078 0.17058824 0.14705882
0.68866422 0.1127451 0.065502451
0.90955882 0.078431373 0.0039215686
0.19019608 0.49362745 0.31568627
0.32267157 0.50404412 0.30759804
0.53186275 0.49803922 0.26176471
0.74779412 0.44031863 0.17647059
0.9627451 0.28676471 0.026470588
0.4502451 0.75686275 0.4620098
0.50545343 0.75686275 0.44632353
0.63345588 0.75294118 0.41764706
0.81176471 0.74822304 0.33357843
0.99117647 0.72647059 0.12303922
0.67058824 0.96470588 0.61372549
0.70906863 0.97647059 0.60759804
0.7745098 0.97254902 0.59411765
0.88823529 0.98137255 0.55465686
0.99607843 0.96862745 0.38235294
0.0039215686 0.015686275 0.33529412
0.083333333 0.011764706 0.31519608
0.33333333 0.0078431373 0.26078431
0.63382353 0.025490196 0.21617647
0.90392157 0.070588235 0.019607843
0.051960784 0.20392157 0.42647059
0.14705882 0.1995098 0.41764706
0.40294118 0.17083333 0.38137255
0.65551471 0.10882353 0.30747549
0.89901961 0.055392157 0.13627451
0.085294118 0.49117647 0.51568627
0.26176471 0.49362745 0.51372549
0.49754902 0.49313725 0.49411765
0.71127451 0.44926471 0.43578431
0.92058824 0.29313725 0.30588235
0.41715686 0.75196078 0.60735294
0.46617647 0.74509804 0.60428922
0.60122549 0.75294118 0.59142157
0.78137255 0.74044118 0.55196078
0.95392157 0.71078431 0.46715686
0.68039216 0.97843137 0.73529412
0.69068627 0.96764706 0.72892157
0.76176471 0.97352941 0.71960784
0.87843137 0.99166667 0.69852941
0.99607843 0.98431373 0.60588235
0.0078431373 0.034313725 0.55980392
0.029166667 0.0125 0.55196078
0.28921569 0.01127451 0.5372549
0.59509804 0.0078431373 0.49411765
0.86372549 0.02254902 0.36078431
0.011764706 0.2245098 0.6254902
0.078063725 0.21868873 0.61764706
0.35551471 0.19411765 0.60980392
0.61390931 0.11427696 0.5776348
0.79607843 0.016421569 0.52279412
0.044607843 0.49803922 0.69117647
0.13786765 0.49852941 0.69473039
0.44313725 0.50196078 0.68112745
0.67156863 0.45833333 0.65943627
0.88823529 0.29705882 0.60196078
0.3504902 0.74338235 0.76936275
0.42113971 0.74803922 0.76544118
0.55980392 0.75294118 0.76397059
0.74411765 0.74411765 0.74828431
0.95 0.70294118 0.69436275
0.64607843 0.95980392 0.85686275
0.67377451 0.96495098 0.85686275
0.74264706 0.96421569 0.84901961
0.85294118 0.97254902 0.83431373
0.9872549 0.98333333 0.80686275
0 0.011764706 0.70588235
0.00098039216 0.01372549 0.72843137
0.23529412 0.011764706 0.73529412
0.54803922 0.0068627451 0.69607843
0.79215686 0.0039215686 0.70980392
0 0.27058824 0.7872549
0.025490196 0.26666667 0.79411765
0.27352941 0.24264706 0.78333333
0.57941176 0.15857843 0.77377451
0.79313725 0.016666667 0.7372549
0.0098039216 0.50980392 0.84901961
0.0083333333 0.51764706 0.85686275
0.39509804 0.51372549 0.82941176
0.63333333 0.48235294 0.83333333
0.86666667 0.36666667 0.82156863
0.21568627 0.74509804 0.91862745
0.3254902 0.74901961 0.91470588
0.50196078 0.75245098 0.90980392
0.70367647 0.74485294 0.90980392
0.89901961 0.71372549 0.89215686
0.60784314 0.94901961 0.96470588
0.64509804 0.96372549 0.9872549
0.71568627 0.95490196 0.96666667
0.81470588 0.94705882 0.95882353
0.99215686 0.99215686 0.99215686
