site/assets/luts/sha256-72d572692e76abd699c3247a2caabb856c43eee1ef261e87d74c6e345a4d41e9.cube
# LUTr-Schema-Version: 2
# LUTr-ID: sha256-72d572692e76abd699c3247a2caabb856c43eee1ef261e87d74c6e345a4d41e9
# LUTr-Title: polaroid px-100uv+ warm --
# LUTr-Collection: Natron HaldCLUT
# LUTr-Collection-ID: natron-haldclut-presets
# LUTr-Source: https://github.com/NatronGitHub/clut
# LUTr-Retrieved: 2026-07-27
# LUTr-Source-File: submissions/natron-haldclut-presets/instant_consumer/polaroid_px-100uv+_warm_--.png
# LUTr-Source-Format: HALD-PNG
# LUTr-Source-SHA256: 72d572692e76abd699c3247a2caabb856c43eee1ef261e87d74c6e345a4d41e9
# LUTr-License: CC-BY-SA-4.0
# LUTr-License-URL: https://github.com/NatronGitHub/clut#license
# LUTr-License-Basis: repo-license-file
# LUTr-Transform-Class: film-emulation
# LUTr-Tags: creative, film, film-emulation, hald-clut, natron, png, warm, cube
# LUTr-Input-Color-Space: srgb
# LUTr-Input-Gamut: rec709
# LUTr-Input-Transfer: srgb
# LUTr-Output-Color-Space: srgb
# LUTr-Output-Gamut: rec709
# LUTr-Output-Transfer: srgb
# LUTr-Color-Space-Confidence: assumed-display-referred
# LUTr-Domain-Normalized: true
# LUTr-Shaper: none
# LUTr-Original-Grid: 64x64x64
# LUTr-Conversion-Grid: 25x25x25
# LUTr-Conversion-Interpolation: trilinear
# LUTr-Conversion-Method: HALD-PNG LUT image decoded at 16-bit and sampled to 25x25x25 3D CUBE
# LUTr-Conversion-Tool: LUTr scripts/convert-all-to-cube.mjs 2.0.0
# LUTr-Conversion-Date: 2026-07-27
# LUTr-Note: Preserve this metadata and the upstream license notices when redistributing.
TITLE "polaroid px-100uv+ warm --"
LUT_3D_SIZE 5
DOMAIN_MIN 0 0 0
DOMAIN_MAX 1 1 1
0.0039215686 0.0078431373 0.019607843
0.13137255 0.11960784 0.12745098
0.38431373 0.36470588 0.36470588
0.51960784 0.5 0.49509804
0.63921569 0.61960784 0.60784314
0.16372549 0.15588235 0.16372549
0.23431373 0.21936275 0.22181373
0.38627451 0.36519608 0.36519608
0.52818627 0.51078431 0.50686275
0.66960784 0.65392157 0.63823529
0.40588235 0.39019608 0.39019608
0.4254902 0.40588235 0.40588235
0.47941176 0.45882353 0.45686275
0.55980392 0.54019608 0.53235294
0.63333333 0.61568627 0.60196078
0.58235294 0.5627451 0.55588235
0.58333333 0.56666667 0.55661765
0.59607843 0.57696078 0.56666667
0.65857843 0.64215686 0.62720588
0.76078431 0.75 0.72647059
0.81568627 0.80784314 0.78431373
0.8 0.78823529 0.76862745
0.80392157 0.79215686 0.77647059
0.86666667 0.85588235 0.84019608
0.93333333 0.92941176 0.91764706
0.21176471 0.20392157 0.20784314
0.28921569 0.26960784 0.27352941
0.43627451 0.41470588 0.41666667
0.5625 0.54289216 0.53897059
0.66960784 0.65392157 0.63823529
0.30171569 0.28504902 0.28529412
0.37058824 0.35098039 0.35171569
0.46078431 0.43933824 0.44117647
0.56789216 0.5497549 0.54509804
0.69215686 0.67352941 0.65686275
0.47401961 0.45441176 0.45392157
0.48529412 0.46433824 0.46176471
0.52230392 0.50269608 0.50098039
0.59411765 0.575 0.56715686
0.70196078 0.68627451 0.66666667
0.6127451 0.59313725 0.58235294
0.61666667 0.6002451 0.58848039
0.62512255 0.60588235 0.59705882
0.67647059 0.66078431 0.64436275
0.74411765 0.73235294 0.7127451
0.81862745 0.80686275 0.7872549
0.83529412 0.82720588 0.80759804
0.83431373 0.82647059 0.80686275
0.86985294 0.8620098 0.84632353
0.90294118 0.89509804 0.88333333
0.45882353 0.44313725 0.43921569
0.50539216 0.48578431 0.48382353
0.54019608 0.52058824 0.51862745
0.60735294 0.58970588 0.57990196
0.74117647 0.72745098 0.70784314
0.4995098 0.47990196 0.47598039
0.52377451 0.50490196 0.50183824
0.55441176 0.53480392 0.53088235
0.63235294 0.61397059 0.60294118
0.75098039 0.7372549 0.71764706
0.53921569 0.51960784 0.51764706
0.55980392 0.54019608 0.53553922
0.59705882 0.57843137 0.56960784
0.6620098 0.64240196 0.62720588
0.78235294 0.76666667 0.74509804
0.66960784 0.65343137 0.63970588
0.68051471 0.66372549 0.64705882
0.69117647 0.6754902 0.65955882
0.73137255 0.71568627 0.69595588
0.80196078 0.78627451 0.77009804
0.86078431 0.85294118 0.83333333
0.88137255 0.87352941 0.85784314
0.87254902 0.8627451 0.84705882
0.8872549 0.87941176 0.86519608
0.93921569 0.93529412 0.9254902
0.65686275 0.63823529 0.62647059
0.68137255 0.66568627 0.65
0.70637255 0.68921569 0.675
0.73333333 0.72083333 0.70490196
0.78137255 0.76862745 0.74607843
0.67279412 0.65710784 0.64215686
0.68131127 0.66544118 0.64957108
0.71237745 0.69558824 0.68296569
0.73707108 0.72395833 0.70490196
0.80906863 0.79705882 0.7752451
0.67598039 0.65637255 0.64068627
0.68835784 0.66997549 0.65428922
0.72647059 0.71176471 0.69240196
0.76740196 0.75453431 0.73443627
0.85637255 0.84656863 0.82892157
0.71862745 0.70294118 0.68333333
0.73308824 0.71764706 0.69803922
0.76813725 0.75477941 0.73517157
0.81881127 0.80704657 0.7875
0.89215686 0.88431373 0.87181373
0.91078431 0.90588235 0.89117647
0.90686275 0.90294118 0.89117647
0.92401961 0.92009804 0.90833333
0.9379902 0.93406863 0.92254902
0.9627451 0.95882353 0.95392157
0.89803922 0.89019608 0.8745098
0.90490196 0.90098039 0.88627451
0.91568627 0.91176471 0.9
0.9254902 0.91862745 0.90980392
0.92156863 0.91372549 0.90588235
0.88627451 0.87843137 0.86666667
0.90490196 0.89705882 0.88529412
0.91960784 0.91372549 0.90392157
0.9372549 0.93112745 0.92328431
0.94509804 0.94117647 0.93627451
0.90196078 0.89803922 0.88627451
0.89656863 0.89117647 0.87941176
0.92352941 0.91960784 0.91176471
0.94166667 0.9372549 0.93039216
0.95686275 0.95294118 0.94901961
0.90784314 0.90294118 0.88823529
0.91078431 0.90588235 0.89411765
0.92696078 0.92254902 0.91323529
0.94607843 0.94215686 0.93431373
0.96078431 0.95784314 0.95392157
0.93333333 0.92941176 0.91764706
0.94117647 0.9372549 0.9254902
0.94509804 0.93921569 0.93529412
0.96862745 0.96764706 0.96078431
0.96470588 0.96078431 0.95686275
