site/assets/luts/sha256-ecba29a42fefc598707fa123038bf991ec5255442575c1d422b0776104927979.cube
# LUTr-Schema-Version: 2
# LUTr-ID: sha256-ecba29a42fefc598707fa123038bf991ec5255442575c1d422b0776104927979
# LUTr-Title: fuji 800z ++
# LUTr-Collection: Natron HaldCLUT
# LUTr-Collection-ID: natron-haldclut-presets
# LUTr-Source: https://github.com/NatronGitHub/clut
# LUTr-Retrieved: 2026-07-27
# LUTr-Source-File: submissions/natron-haldclut-presets/negative_new/fuji_800z_++.png
# LUTr-Source-Format: HALD-PNG
# LUTr-Source-SHA256: ecba29a42fefc598707fa123038bf991ec5255442575c1d422b0776104927979
# LUTr-License: CC-BY-SA-4.0
# LUTr-License-URL: https://github.com/NatronGitHub/clut#license
# LUTr-License-Basis: repo-license-file
# LUTr-Transform-Class: film-emulation
# LUTr-Tags: creative, film, film-emulation, hald-clut, natron, png, cube
# LUTr-Input-Color-Space: srgb
# LUTr-Input-Gamut: rec709
# LUTr-Input-Transfer: srgb
# LUTr-Output-Color-Space: srgb
# LUTr-Output-Gamut: rec709
# LUTr-Output-Transfer: srgb
# LUTr-Color-Space-Confidence: assumed-display-referred
# LUTr-Domain-Normalized: true
# LUTr-Shaper: none
# LUTr-Original-Grid: 64x64x64
# LUTr-Conversion-Grid: 25x25x25
# LUTr-Conversion-Interpolation: trilinear
# LUTr-Conversion-Method: HALD-PNG LUT image decoded at 16-bit and sampled to 25x25x25 3D CUBE
# LUTr-Conversion-Tool: LUTr scripts/convert-all-to-cube.mjs 2.0.0
# LUTr-Conversion-Date: 2026-07-27
# LUTr-Note: Preserve this metadata and the upstream license notices when redistributing.
TITLE "fuji 800z ++"
LUT_3D_SIZE 5
DOMAIN_MIN 0 0 0
DOMAIN_MAX 1 1 1
0.12156863 0.13333333 0.094117647
0.24313725 0.15196078 0.08627451
0.55294118 0.066666667 0.082352941
0.86960784 0.0049019608 0.051960784
1 0.11372549 0.0039215686
0.089215686 0.23137255 0.1127451
0.20882353 0.25196078 0.10980392
0.53333333 0.28578431 0.068137255
0.85661765 0.27745098 0.015686275
1 0.31372549 0
0.058823529 0.4254902 0.14901961
0.18529412 0.42156863 0.14705882
0.49411765 0.52156863 0.073529412
0.82303922 0.5504902 0.0093137255
0.98823529 0.55098039 0
0.17843137 0.64313725 0.21470588
0.2754902 0.63627451 0.2252451
0.46372549 0.65980392 0.21372549
0.76078431 0.73259804 0.20196078
0.97352941 0.77941176 0.15294118
0.61176471 0.87843137 0.53333333
0.64215686 0.88235294 0.54901961
0.70196078 0.8745098 0.55686275
0.82254902 0.90294118 0.56764706
0.95294118 0.94509804 0.60784314
0.1127451 0.1372549 0.20882353
0.25882353 0.13333333 0.22058824
0.59852941 0.025490196 0.23529412
0.89215686 0.0039215686 0.22965686
1 0.029411765 0.22254902
0.10073529 0.26887255 0.2252451
0.26397059 0.28082108 0.23235294
0.57757353 0.27561275 0.22953431
0.87824755 0.24142157 0.21642157
0.99607843 0.30269608 0.21642157
0.14558824 0.49803922 0.26176471
0.25943627 0.47022059 0.25980392
0.52132353 0.52941176 0.24411765
0.82892157 0.54693627 0.19742647
0.99558824 0.54509804 0.15245098
0.28333333 0.67647059 0.31568627
0.33014706 0.66102941 0.30171569
0.47071078 0.65698529 0.28946078
0.77585784 0.73627451 0.31746324
0.98431373 0.77647059 0.31372549
0.63039216 0.88921569 0.57843137
0.64803922 0.88210784 0.57426471
0.70882353 0.8754902 0.58284314
0.82941176 0.90588235 0.60514706
0.95294118 0.94509804 0.63529412
0.18823529 0.15294118 0.4627451
0.32156863 0.1627451 0.47009804
0.61568627 0.11372549 0.50784314
0.92745098 0.0083333333 0.53431373
0.99803922 0.16666667 0.50784314
0.11862745 0.26568627 0.47401961
0.31176471 0.29730392 0.48921569
0.62426471 0.30465686 0.52794118
0.91495098 0.28370098 0.52745098
0.99607843 0.36078431 0.52352941
0.082352941 0.56176471 0.51078431
0.3375 0.56691176 0.52181373
0.60735294 0.56960784 0.53480392
0.85808824 0.56519608 0.51470588
0.99215686 0.57254902 0.5127451
0.46176471 0.74607843 0.55784314
0.50539216 0.7377451 0.55036765
0.57843137 0.69852941 0.50906863
0.79901961 0.74620098 0.54803922
0.98872549 0.77647059 0.53823529
0.65098039 0.89803922 0.66666667
0.65686275 0.88382353 0.65245098
0.72745098 0.89509804 0.66568627
0.82401961 0.90392157 0.68235294
0.95882353 0.95490196 0.71960784
0.33333333 0.18235294 0.73627451
0.45073529 0.18921569 0.73333333
0.66372549 0.22107843 0.75196078
0.89803922 0.25392157 0.77965686
0.99705882 0.30490196 0.76862745
0.32671569 0.30686275 0.73333333
0.43866422 0.31960784 0.74019608
0.66764706 0.35281863 0.75404412
0.89313725 0.39846814 0.78039216
0.99926471 0.45294118 0.78333333
0.15294118 0.50147059 0.71911765
0.3495098 0.51887255 0.7254902
0.62647059 0.55367647 0.74730392
0.86568627 0.61286765 0.77855392
0.99215686 0.62892157 0.77794118
0.47058824 0.77647059 0.76470588
0.55392157 0.7745098 0.77156863
0.68921569 0.77156863 0.77156863
0.83897059 0.77622549 0.7754902
0.98823529 0.79117647 0.77965686
0.70294118 0.9254902 0.80686275
0.7254902 0.92647059 0.80980392
0.7754902 0.92941176 0.80833333
0.8372549 0.91862745 0.79411765
0.9254902 0.9372549 0.80980392
0.62745098 0.38431373 0.94901961
0.66568627 0.40294118 0.94117647
0.78627451 0.42352941 0.93333333
0.92745098 0.50784314 0.9372549
0.99607843 0.55686275 0.9372549
0.60882353 0.46078431 0.93431373
0.66176471 0.4747549 0.93333333
0.77745098 0.4995098 0.92941176
0.91862745 0.55416667 0.92769608
0.99313725 0.60686275 0.93823529
0.54509804 0.59215686 0.93333333
0.61078431 0.59803922 0.9254902
0.76470588 0.62843137 0.93529412
0.90392157 0.66715686 0.93333333
0.99607843 0.69803922 0.93529412
0.52156863 0.76470588 0.92647059
0.57352941 0.75686275 0.9254902
0.67990196 0.75294118 0.92843137
0.86372549 0.78333333 0.93627451
0.9872549 0.81764706 0.92941176
0.70196078 0.96078431 0.94509804
0.71372549 0.94313725 0.93529412
0.78431373 0.9627451 0.95098039
0.88431373 0.95686275 0.92843137
0.96078431 0.96078431 0.94509804
