site/assets/luts/sha256-186330efff38c4b9415793ff5bd9ffe7b3f9b857af24235359b906f27915b5ea.cube
# LUTr-Schema-Version: 2
# LUTr-ID: sha256-186330efff38c4b9415793ff5bd9ffe7b3f9b857af24235359b906f27915b5ea
# LUTr-Title: fuji neopan 1600 +
# LUTr-Collection: Natron HaldCLUT
# LUTr-Collection-ID: natron-haldclut-presets
# LUTr-Source: https://github.com/NatronGitHub/clut
# LUTr-Retrieved: 2026-07-27
# LUTr-Source-File: submissions/natron-haldclut-presets/negative_old/fuji_neopan_1600_+.png
# LUTr-Source-Format: HALD-PNG
# LUTr-Source-SHA256: 186330efff38c4b9415793ff5bd9ffe7b3f9b857af24235359b906f27915b5ea
# LUTr-License: CC-BY-SA-4.0
# LUTr-License-URL: https://github.com/NatronGitHub/clut#license
# LUTr-License-Basis: repo-license-file
# LUTr-Transform-Class: film-emulation
# LUTr-Tags: creative, film, film-emulation, hald-clut, natron, png, black-and-white, cube
# LUTr-Input-Color-Space: srgb
# LUTr-Input-Gamut: rec709
# LUTr-Input-Transfer: srgb
# LUTr-Output-Color-Space: srgb
# LUTr-Output-Gamut: rec709
# LUTr-Output-Transfer: srgb
# LUTr-Color-Space-Confidence: assumed-display-referred
# LUTr-Domain-Normalized: true
# LUTr-Shaper: none
# LUTr-Original-Grid: 64x64x64
# LUTr-Conversion-Grid: 25x25x25
# LUTr-Conversion-Interpolation: trilinear
# LUTr-Conversion-Method: HALD-PNG LUT image decoded at 16-bit and sampled to 25x25x25 3D CUBE
# LUTr-Conversion-Tool: LUTr scripts/convert-all-to-cube.mjs 2.0.0
# LUTr-Conversion-Date: 2026-07-27
# LUTr-Note: Preserve this metadata and the upstream license notices when redistributing.
TITLE "fuji neopan 1600 +"
LUT_3D_SIZE 5
DOMAIN_MIN 0 0 0
DOMAIN_MAX 1 1 1
0.094117647 0.094117647 0.094117647
0.10588235 0.10588235 0.10588235
0.15098039 0.15098039 0.15098039
0.25294118 0.25294118 0.25294118
0.41960784 0.41960784 0.41960784
0.13235294 0.13235294 0.13235294
0.15416667 0.15416667 0.15416667
0.24411765 0.24411765 0.24411765
0.35588235 0.35588235 0.35588235
0.54509804 0.54509804 0.54509804
0.28431373 0.28431373 0.28431373
0.30686275 0.30686275 0.30686275
0.39117647 0.39117647 0.39117647
0.56666667 0.56666667 0.56666667
0.74705882 0.74705882 0.74705882
0.56666667 0.56666667 0.56666667
0.56446078 0.56446078 0.56446078
0.62352941 0.62352941 0.62352941
0.73921569 0.73921569 0.73921569
0.87647059 0.87647059 0.87647059
0.90980392 0.90980392 0.90980392
0.91078431 0.91078431 0.91078431
0.91764706 0.91764706 0.91764706
0.95294118 0.95294118 0.95294118
0.98431373 0.98431373 0.98431373
0.10980392 0.10980392 0.10980392
0.11862745 0.11862745 0.11862745
0.18578431 0.18578431 0.18578431
0.28995098 0.28995098 0.28995098
0.48137255 0.48137255 0.48137255
0.15392157 0.15392157 0.15392157
0.19099265 0.19099265 0.19099265
0.27696078 0.27696078 0.27696078
0.38406863 0.38406863 0.38406863
0.55710784 0.55710784 0.55710784
0.34215686 0.34215686 0.34215686
0.36813725 0.36813725 0.36813725
0.43602941 0.43602941 0.43602941
0.59522059 0.59522059 0.59522059
0.74705882 0.74705882 0.74705882
0.61176471 0.61176471 0.61176471
0.62426471 0.62426471 0.62426471
0.65686275 0.65686275 0.65686275
0.75073529 0.75073529 0.75073529
0.88259804 0.88259804 0.88259804
0.90882353 0.90882353 0.90882353
0.90098039 0.90098039 0.90098039
0.92598039 0.92598039 0.92598039
0.95465686 0.95465686 0.95465686
0.98039216 0.98039216 0.98039216
0.19607843 0.19607843 0.19607843
0.2254902 0.2254902 0.2254902
0.31568627 0.31568627 0.31568627
0.38235294 0.38235294 0.38235294
0.56862745 0.56862745 0.56862745
0.24509804 0.24509804 0.24509804
0.30220588 0.30220588 0.30220588
0.37916667 0.37916667 0.37916667
0.46237745 0.46237745 0.46237745
0.62598039 0.62598039 0.62598039
0.37058824 0.37058824 0.37058824
0.43137255 0.43137255 0.43137255
0.53431373 0.53431373 0.53431373
0.6372549 0.6372549 0.6372549
0.75490196 0.75490196 0.75490196
0.68480392 0.68480392 0.68480392
0.7127451 0.7127451 0.7127451
0.7370098 0.7370098 0.7370098
0.79607843 0.79607843 0.79607843
0.89558824 0.89558824 0.89558824
0.93529412 0.93529412 0.93529412
0.93676471 0.93676471 0.93676471
0.94509804 0.94509804 0.94509804
0.96568627 0.96568627 0.96568627
0.98431373 0.98431373 0.98431373
0.36862745 0.36862745 0.36862745
0.41568627 0.41568627 0.41568627
0.52401961 0.52401961 0.52401961
0.62843137 0.62843137 0.62843137
0.68235294 0.68235294 0.68235294
0.44191176 0.44191176 0.44191176
0.49283088 0.49283088 0.49283088
0.5872549 0.5872549 0.5872549
0.66709559 0.66709559 0.66709559
0.74901961 0.74901961 0.74901961
0.51911765 0.51911765 0.51911765
0.55539216 0.55539216 0.55539216
0.68406863 0.68406863 0.68406863
0.76323529 0.76323529 0.76323529
0.825 0.825 0.825
0.69093137 0.69093137 0.69093137
0.71648284 0.71648284 0.71648284
0.78627451 0.78627451 0.78627451
0.86887255 0.86887255 0.86887255
0.91691176 0.91691176 0.91691176
0.93333333 0.93333333 0.93333333
0.94509804 0.94509804 0.94509804
0.94754902 0.94754902 0.94754902
0.97647059 0.97647059 0.97647059
0.98137255 0.98137255 0.98137255
0.75686275 0.75686275 0.75686275
0.75980392 0.75980392 0.75980392
0.80196078 0.80196078 0.80196078
0.8872549 0.8872549 0.8872549
0.92156863 0.92156863 0.92156863
0.77647059 0.77647059 0.77647059
0.79681373 0.79681373 0.79681373
0.84068627 0.84068627 0.84068627
0.89117647 0.89117647 0.89117647
0.9254902 0.9254902 0.9254902
0.79607843 0.79607843 0.79607843
0.81764706 0.81764706 0.81764706
0.85588235 0.85588235 0.85588235
0.92107843 0.92107843 0.92107843
0.95490196 0.95490196 0.95490196
0.80686275 0.80686275 0.80686275
0.80588235 0.80588235 0.80588235
0.87009804 0.87009804 0.87009804
0.94215686 0.94215686 0.94215686
0.98039216 0.98039216 0.98039216
0.96078431 0.96078431 0.96078431
0.94509804 0.94509804 0.94509804
0.95294118 0.95294118 0.95294118
0.98039216 0.98039216 0.98039216
0.99607843 0.99607843 0.99607843
