site/assets/luts/sha256-4546a96192f2595e8ce4613e0962a337581ea75ad577501f95ee3d0e60a659cf.cube
# LUTr-Schema-Version: 2
# LUTr-ID: sha256-4546a96192f2595e8ce4613e0962a337581ea75ad577501f95ee3d0e60a659cf
# LUTr-Title: fuji 400h +
# LUTr-Collection: Natron HaldCLUT
# LUTr-Collection-ID: natron-haldclut-presets
# LUTr-Source: https://github.com/NatronGitHub/clut
# LUTr-Retrieved: 2026-07-27
# LUTr-Source-File: submissions/natron-haldclut-presets/negative_new/fuji_400h_+.png
# LUTr-Source-Format: HALD-PNG
# LUTr-Source-SHA256: 4546a96192f2595e8ce4613e0962a337581ea75ad577501f95ee3d0e60a659cf
# LUTr-License: CC-BY-SA-4.0
# LUTr-License-URL: https://github.com/NatronGitHub/clut#license
# LUTr-License-Basis: repo-license-file
# LUTr-Transform-Class: film-emulation
# LUTr-Tags: creative, film, film-emulation, hald-clut, natron, png, cube
# LUTr-Input-Color-Space: srgb
# LUTr-Input-Gamut: rec709
# LUTr-Input-Transfer: srgb
# LUTr-Output-Color-Space: srgb
# LUTr-Output-Gamut: rec709
# LUTr-Output-Transfer: srgb
# LUTr-Color-Space-Confidence: assumed-display-referred
# LUTr-Domain-Normalized: true
# LUTr-Shaper: none
# LUTr-Original-Grid: 64x64x64
# LUTr-Conversion-Grid: 25x25x25
# LUTr-Conversion-Interpolation: trilinear
# LUTr-Conversion-Method: HALD-PNG LUT image decoded at 16-bit and sampled to 25x25x25 3D CUBE
# LUTr-Conversion-Tool: LUTr scripts/convert-all-to-cube.mjs 2.0.0
# LUTr-Conversion-Date: 2026-07-27
# LUTr-Note: Preserve this metadata and the upstream license notices when redistributing.
TITLE "fuji 400h +"
LUT_3D_SIZE 9
DOMAIN_MIN 0 0 0
DOMAIN_MAX 1 1 1
0.078431373 0.074509804 0.02745098
0.15931373 0.09754902 0.054901961
0.27352941 0.096078431 0.02745098
0.43186275 0.030392157 0.021078431
0.6 0.011764706 0.015686275
0.75098039 0.0078431373 0.0093137255
0.87352941 0.024509804 0
0.96519608 0.15490196 0
1 0.23529412 0
0.094117647 0.14019608 0.035294118
0.14405637 0.14019608 0.031372549
0.26960784 0.14313725 0.023529412
0.43431373 0.13284314 0.017463235
0.59852941 0.10171569 0.0041666667
0.74705882 0.10067402 0.0036151961
0.86176471 0.1564951 0.00049019608
0.95790441 0.22303922 0
0.99607843 0.28921569 0.0044117647
0.056862745 0.24607843 0.045098039
0.11813725 0.24362745 0.051470588
0.24803922 0.25171569 0.028676471
0.41470588 0.25428922 0.0057598039
0.58627451 0.25245098 0.0053921569
0.7317402 0.26568627 0.0039215686
0.85416667 0.29117647 0.0039215686
0.95098039 0.33125 0.0029411765
0.99215686 0.36960784 0.0039215686
0 0.37696078 0.0039215686
0.0094362745 0.37089461 0.003247549
0.19889706 0.37843137 0.0078431373
0.38480392 0.38964461 0.0039215686
0.5622549 0.39534314 0.0078431373
0.71415441 0.40496324 0.0039215686
0.83468137 0.42046569 0.0039215686
0.93186275 0.43921569 0.011764706
0.99215686 0.4622549 0.0078431373
0 0.51764706 0.0039215686
0.0039215686 0.50588235 0.021568627
0.1372549 0.50588235 0.015686275
0.34803922 0.51495098 0.0039215686
0.53333333 0.5245098 0.011764706
0.67647059 0.52941176 0.0039215686
0.80196078 0.55147059 0.0039215686
0.91151961 0.55294118 0.0039215686
0.99215686 0.55882353 0.0039215686
0.0014705882 0.63186275 0.041176471
0.0039215686 0.62941176 0.061458333
0.13578431 0.62156863 0.089705882
0.33290441 0.62009804 0.057352941
0.48602941 0.62794118 0.013235294
0.63033088 0.63333333 0.0087622549
0.76715686 0.64754902 0.0078431373
0.88627451 0.66323529 0.0052083333
0.96323529 0.66470588 0.0078431373
0.0029411765 0.7372549 0.15588235
0.071568627 0.74019608 0.17634804
0.20906863 0.73651961 0.18259804
0.35232843 0.72879902 0.19718137
0.48235294 0.72843137 0.16617647
0.60882353 0.73333333 0.12794118
0.73235294 0.74411765 0.041176471
0.85980392 0.76421569 0.018014706
0.92745098 0.77647059 0.0078431373
0.16862745 0.8372549 0.30882353
0.24852941 0.84160539 0.30882353
0.32941176 0.83676471 0.32058824
0.42040441 0.83333333 0.34656863
0.5127451 0.82941176 0.34240196
0.61323529 0.84068627 0.32714461
0.71715686 0.84203431 0.29264706
0.83676471 0.86078431 0.25006127
0.90196078 0.86813725 0.23186275
0.38431373 0.93333333 0.47843137
0.40735294 0.94166667 0.49068627
0.43823529 0.9254902 0.48627451
0.49901961 0.93578431 0.50833333
0.56666667 0.93333333 0.51372549
0.64754902 0.93970588 0.51617647
0.72843137 0.94901961 0.52156863
0.8254902 0.95735294 0.51029412
0.88627451 0.94901961 0.47843137
0.13676471 0.090196078 0.10441176
0.15833333 0.085723039 0.092585784
0.28235294 0.094117647 0.11213235
0.43970588 0.046078431 0.11194853
0.60367647 0.0044117647 0.1004902
0.75098039 0.0036151961 0.096078431
0.86960784 0.054411765 0.088602941
0.96176471 0.17303922 0.084252451
0.99607843 0.24656863 0.11127451
0.10238971 0.15238971 0.10833333
0.15931373 0.15856311 0.10447304
0.28115809 0.15147059 0.10479473
0.43970588 0.13288143 0.098184743
0.60588235 0.11764706 0.094362745
0.74721967 0.11590839 0.079901961
0.86568627 0.16943934 0.072058824
0.95795803 0.23039216 0.068458946
0.99607843 0.29270833 0.083884804
0.080637255 0.26127451 0.10686275
0.1316636 0.26127451 0.10441176
0.26032475 0.25882353 0.090349265
0.43088235 0.25882353 0.067647059
0.59761029 0.25784314 0.043014706
0.74353554 0.26715686 0.030453431
0.8578125 0.29047181 0.024693627
0.95085784 0.32717525 0.022273284
0.99215686 0.36960784 0.053431373
0.0052083333 0.39803922 0.10018382
0.06227788 0.39362745 0.1004902
0.21176471 0.38938419 0.095848652
0.39270833 0.39545803 0.056548713
0.56979167 0.40425858 0.016023284
0.72107843 0.40496324 0.00080422794
0.83676471 0.42254902 0
0.93216912 0.43919271 0.013319547
0.99607843 0.46617647 0.0034313725
0.0075980392 0.525 0.11495098
0.0073529412 0.51957721 0.11001838
0.17432598 0.51372549 0.11109069
0.35882353 0.51602328 0.099019608
0.53517157 0.53125 0.047303922
0.6752451 0.5370098 0.016911765
0.80514706 0.55294118 0.0039215686
0.91081495 0.55294118 0.0095894608
0.99019608 0.5627451 0.0039215686
0.0078431373 0.64313725 0.15214461
0.011764706 0.6372549 0.14871324
0.16778493 0.63218444 0.15735294
0.34932598 0.62922794 0.15833333
0.50162377 0.63186275 0.11495098
0.63578431 0.63970588 0.053730086
0.77144608 0.66021752 0.010906863
0.88627451 0.66862745 0
0.96893382 0.66715686 0.011764706
0.0082107843 0.74411765 0.21617647
0.094010417 0.74019608 0.22210478
0.24316789 0.73599877 0.23262868
0.36227022 0.72843137 0.2410386
0.49454657 0.73235294 0.22622549
0.6127451 0.7399663 0.20196078
0.74019608 0.74877451 0.13247549
0.85228248 0.76286765 0.10882353
0.96421569 0.7754902 0.055882353
0.21862745 0.84417892 0.34754902
0.26373315 0.84068627 0.35011489
0.33333333 0.83419118 0.35108762
0.41290594 0.83488817 0.35189951
0.50398284 0.83633578 0.35618873
0.6127451 0.83694853 0.35398284
0.71715686 0.84068627 0.32953431
0.82543658 0.84901961 0.29307598
0.940625 0.87156863 0.29313725
0.38823529 0.9372549 0.49754902
0.40343137 0.9372549 0.49797794
0.4495098 0.93688725 0.50931373
0.50686275 0.93756127 0.52352941
0.57426471 0.94264706 0.55171569
0.64607843 0.93511029 0.52892157
0.73137255 0.94473039 0.525
0.825 0.94558824 0.50980392
0.89803922 0.95294118 0.50980392
0.12941176 0.094117647 0.21960784
0.18713235 0.11764706 0.21862745
0.28921569 0.095098039 0.21862745
0.44362745 0.013848039 0.21605392
0.61127451 0.0078431373 0.24068627
0.75882353 0.0078431373 0.24215686
0.87745098 0.087009804 0.25661765
0.9622549 0.19754902 0.26862745
0.99607843 0.26960784 0.28823529
0.11678922 0.14803922 0.21470588
0.18579963 0.15931373 0.21862745
0.29993873 0.15484069 0.22254902
0.45481005 0.1276348 0.22241115
0.62144608 0.091482843 0.24019608
0.76568627 0.11884191 0.25137868
0.86577819 0.16960784 0.25220588
0.95441176 0.24980086 0.25703125
0.99215686 0.29313725 0.26911765
0.042156863 0.28235294 0.23112745
0.16372549 0.27095588 0.22974877
0.29944853 0.26997549 0.23406863
0.45713848 0.26522672 0.23287377
0.62058824 0.27205882 0.225
0.75579044 0.2833027 0.23823529
0.85882353 0.30980392 0.2372549
0.94362745 0.34895833 0.24126838
0.98823529 0.37328431 0.25
0.030759804 0.4245098 0.25294118
0.15255821 0.42089461 0.24799326
0.28039216 0.40759804 0.24178922
0.43026961 0.40882353 0.2407935
0.59761029 0.42120098 0.21519608
0.73247549 0.41911765 0.20185355
0.83970588 0.42922794 0.20294118
0.93088235 0.4537837 0.1955576
0.99105392 0.47401961 0.22843137
0.033823529 0.55 0.25833333
0.090196078 0.54761029 0.25833333
0.26164216 0.53272059 0.25588235
0.39473039 0.52922794 0.25196078
0.54460784 0.54068627 0.2245098
0.69332108 0.54871324 0.19515931
0.80980392 0.55196078 0.15723039
0.91323529 0.55526961 0.12352941
0.98872549 0.56960784 0.15294118
0.017156863 0.65539216 0.27990196
0.098177083 0.65226716 0.28676471
0.25186887 0.64344363 0.28293505
0.38382353 0.63909314 0.28492647
0.51666667 0.64025735 0.26930147
0.65257353 0.65454963 0.24264706
0.78140319 0.66715686 0.20686275
0.88641238 0.6692402 0.17501532
0.97781863 0.66470588 0.12928922
0.06127451 0.74803922 0.31495098
0.16277574 0.75088848 0.33382353
0.27941176 0.74730392 0.33235294
0.38921569 0.73609069 0.33685662
0.50061275 0.7377451 0.33296569
0.62242647 0.74494485 0.31495098
0.74019608 0.75251225 0.29485294
0.85588235 0.76400123 0.24886642
0.94901961 0.76862745 0.24240196
0.25281863 0.84852941 0.41078431
0.27619485 0.84460784 0.40392157
0.35379902 0.84375 0.4140625
0.42585784 0.83809743 0.41960784
0.52132353 0.83854167 0.43284314
0.61666667 0.84015012 0.43333333
0.71678922 0.84473039 0.4064951
0.82924326 0.8533701 0.38262868
0.93970588 0.86801471 0.36813725
0.41372549 0.95196078 0.54215686
0.40355392 0.92953431 0.52022059
0.45686275 0.94215686 0.54117647
0.50686275 0.93627451 0.5495098
0.57303922 0.93382353 0.56813725
0.65147059 0.94215686 0.57254902
0.73235294 0.95 0.56764706
0.825 0.95281863 0.55441176
0.92058824 0.95196078 0.53921569
0.16176471 0.10588235 0.37156863
0.21960784 0.11029412 0.37156863
0.32585784 0.089093137 0.38051471
0.46960784 0.048529412 0.39117647
0.6254902 0.0078431373 0.40294118
0.76813725 0.020526961 0.40441176
0.88137255 0.012377451 0.40294118
0.96176471 0.15686275 0.41666667
0.99607843 0.28921569 0.44656863
0.14834559 0.15980392 0.37910539
0.21176471 0.16584712 0.37677696
0.32659314 0.16715686 0.38664216
0.47493107 0.15035999 0.39890472
0.63357843 0.080790441 0.39901961
0.77058824 0.062254902 0.40833333
0.86960784 0.13627451 0.41649816
0.95490196 0.23976716 0.42009804
0.99607843 0.33253676 0.45067402
0.09375 0.2745098 0.39448529
0.18071385 0.26960784 0.39070159
0.33088235 0.28026961 0.39923407
0.48247549 0.28521752 0.40879289
0.62745098 0.27555147 0.40876225
0.75421262 0.28855699 0.42051164
0.85965074 0.31519608 0.4270527
0.94252451 0.35752145 0.43088235
0.99460784 0.42401961 0.45245098
0.0069240196 0.41372549 0.40533088
0.090081189 0.43871783 0.41470588
0.30441176 0.43178615 0.41908701
0.47408088 0.42851563 0.41767004
0.61323529 0.43998162 0.4169424
0.73676471 0.45147059 0.42310049
0.84085478 0.45355392 0.42101716
0.93136489 0.47303922 0.42401961
0.98768382 0.50091912 0.42401961
0.030882353 0.57254902 0.42598039
0.14978554 0.57604167 0.43210784
0.32959559 0.55949755 0.42542892
0.4502451 0.55539216 0.42496936
0.58014706 0.55968137 0.41311275
0.71179534 0.5627451 0.39270833
0.8127451 0.55790441 0.38425245
0.91323529 0.56305147 0.38465074
0.98186275 0.57377451 0.38848039
0.22806373 0.67745098 0.45202206
0.28481158 0.67653186 0.45392923
0.35343137 0.66568627 0.44454657
0.43823529 0.65539216 0.43970588
0.54684436 0.65 0.43186275
0.67052696 0.65743719 0.41317402
0.78284314 0.66715686 0.39310662
0.89019608 0.66715686 0.37970282
0.98921569 0.66378676 0.35882353
0.25747549 0.76372549 0.46715686
0.27757353 0.76372549 0.46328125
0.35186887 0.75980392 0.45603554
0.43463542 0.75127145 0.45784314
0.52598039 0.74411765 0.45692402
0.62996324 0.74803922 0.44784007
0.74157475 0.75514706 0.43085172
0.85588235 0.75980392 0.40001532
0.96041667 0.76862745 0.40245098
0.29852941 0.85245098 0.49901961
0.33118873 0.84852941 0.49852941
0.38204657 0.85116422 0.49894301
0.45147059 0.84852941 0.50245098
0.52892157 0.84068627 0.50655637
0.62185968 0.84080116 0.50697763
0.71666667 0.84852941 0.49620098
0.82941176 0.8526348 0.48175551
0.94473039 0.87156863 0.47028186
0.41127451 0.94215686 0.5745098
0.4254902 0.93970588 0.57352941
0.47254902 0.94509804 0.59031863
0.52009804 0.9372549 0.59705882
0.58553922 0.94240196 0.61078431
0.65784314 0.93333333 0.60790441
0.73480392 0.93676471 0.59803922
0.83155637 0.93112745 0.57640931
0.92303922 0.95833333 0.60098039
0.19215686 0.11372549 0.53529412
0.25980392 0.10637255 0.53921569
0.36862745 0.1004902 0.54705882
0.50833333 0.093627451 0.55416667
0.63823529 0.052941176 0.55686275
0.7497549 0.0083333333 0.55686275
0.87156863 0.011764706 0.55294118
0.95367647 0.089215686 0.55686275
0.99803922 0.25882353 0.55686275
0.19681373 0.16568627 0.53357843
0.26960784 0.17328431 0.53921569
0.36862745 0.17261029 0.54313725
0.50906863 0.18057598 0.55352328
0.64313725 0.1685049 0.56384804
0.76862745 0.12000613 0.5627451
0.86991422 0.11593137 0.55808824
0.94699755 0.21917892 0.55680147
0.98995098 0.3120098 0.55882353
0.16078431 0.27843137 0.54313725
0.2245098 0.27107843 0.54332108
0.36666667 0.2877451 0.54742647
0.50588235 0.29803922 0.55759804
0.6372549 0.29142157 0.56446078
0.75520833 0.29803922 0.56421569
0.86176471 0.31176471 0.56078431
0.94215686 0.35520833 0.56053922
0.99607843 0.41470588 0.57401961
0.063235294 0.40392157 0.54632353
0.16387868 0.41387868 0.54901961
0.3278799 0.43082108 0.55140931
0.49019608 0.43670343 0.56789216
0.62230392 0.44178922 0.57254902
0.74068627 0.45340074 0.57527574
0.84362745 0.46636029 0.57536765
0.92824755 0.49451593 0.58265931
0.99730392 0.53651961 0.60441176
0.02254902 0.57058824 0.56666667
0.10367647 0.5745098 0.56470588
0.32598039 0.55710784 0.55784314
0.47830882 0.56323529 0.57536765
0.60833333 0.58235294 0.58431373
0.72046569 0.57977941 0.57708333
0.82058824 0.58039216 0.56446078
0.91323529 0.5814951 0.55882353
0.97843137 0.59705882 0.56862745
0.17279412 0.69338235 0.57647059
0.25989583 0.68863358 0.57647059
0.36807598 0.69209559 0.58186275
0.4870098 0.67423407 0.57873775
0.59142157 0.67365196 0.58161765
0.68921569 0.67818627 0.56911765
0.79019608 0.67395833 0.54246324
0.89411765 0.67098652 0.54068627
0.98553922 0.67303922 0.54044118
0.32647059 0.78088235 0.59068627
0.36280637 0.78137255 0.59785539
0.41066176 0.77745098 0.58921569
0.4875 0.77071078 0.58431373
0.57083333 0.7625 0.57892157
0.64803922 0.75686275 0.57107843
0.75061275 0.75821078 0.55367647
0.85968137 0.76372549 0.54595588
0.96470588 0.76813725 0.53431373
0.37401961 0.86397059 0.60269608
0.40808824 0.86050858 0.60680147
0.43964461 0.8598652 0.60220588
0.49068627 0.85637255 0.59852941
0.56495098 0.85147059 0.60269608
0.6375 0.84509804 0.59754902
0.72714461 0.84852941 0.59117647
0.8333027 0.85637255 0.57941176
0.94852941 0.87205882 0.57598039
0.46078431 0.94313725 0.64901961
0.46838235 0.94289216 0.64901961
0.47892157 0.94264706 0.63872549
0.52401961 0.92254902 0.63872549
0.59411765 0.93333333 0.65294118
0.66838235 0.94436275 0.66985294
0.74754902 0.94313725 0.66470588
0.83676471 0.94362745 0.65318627
0.90980392 0.95882353 0.65490196
0.30245098 0.12156863 0.66078431
0.35637255 0.12696078 0.66470588
0.43431373 0.12267157 0.67254902
0.55 0.11721814 0.67892157
0.66740196 0.16372549 0.67647059
0.77003676 0.13823529 0.67984069
0.85882353 0.13382353 0.67046569
0.94607843 0.17824755 0.66862745
0.98186275 0.23431373 0.66715686
0.31029412 0.19246324 0.65931373
0.35275735 0.19607843 0.66470588
0.43193934 0.19607843 0.67054228
0.55245098 0.20196078 0.67640165
0.66838235 0.21920956 0.68553922
0.76978401 0.21439951 0.69215686
0.86176471 0.22305453 0.68394608
0.94838388 0.23905484 0.6745098
0.9682598 0.27248775 0.66715686
0.29656863 0.28480392 0.66470588
0.3239277 0.28443627 0.66715686
0.42426471 0.29393382 0.67254902
0.53967525 0.3088848 0.67745098
0.65833333 0.33707108 0.68676471
0.75634191 0.33627451 0.6928462
0.85 0.35098039 0.68615196
0.94656863 0.35870098 0.6756587
0.99178922 0.37892157 0.67438725
0.18186275 0.38921569 0.65386029
0.25772825 0.39558824 0.65931373
0.38567708 0.41703431 0.66323529
0.51078431 0.43578431 0.672572
0.63722426 0.45759804 0.68311887
0.74405637 0.47122396 0.69068627
0.84215686 0.48278186 0.69178922
0.93223805 0.48216912 0.68192402
0.98915441 0.5033701 0.68621324
0.15490196 0.53504902 0.6625
0.22637868 0.53400735 0.66323529
0.3526348 0.54301471 0.66666667
0.48115809 0.55147059 0.675
0.61372549 0.5692402 0.68247549
0.7254902 0.58431373 0.69068627
0.8245098 0.58841912 0.68645833
0.91323529 0.60033701 0.6908701
0.98823529 0.62352941 0.7004902
0.20974265 0.68039216 0.68376225
0.28148744 0.67365962 0.67647059
0.37693015 0.6712163 0.67892157
0.48878676 0.66839767 0.67984069
0.59972426 0.67303922 0.68284314
0.7057981 0.69103094 0.68676471
0.80147059 0.69109988 0.67964154
0.89803922 0.69380362 0.67506893
0.97254902 0.70545343 0.68584559
0.30196078 0.79227941 0.69460784
0.34362745 0.80116422 0.69134498
0.42227328 0.79840686 0.69460784
0.51144301 0.78656556 0.6935049
0.60557598 0.77977941 0.69068627
0.68333333 0.77659314 0.68284314
0.77205882 0.77686887 0.67647059
0.8676011 0.77696078 0.6691636
0.96078431 0.77696078 0.66372549
0.40802696 0.87990196 0.69883578
0.43453585 0.87943474 0.7087163
0.47994792 0.87352941 0.70686275
0.51825214 0.86942402 0.69718903
0.59666054 0.86559436 0.69280025
0.66715686 0.85637255 0.68665748
0.75490196 0.86029412 0.68762255
0.85042892 0.86394761 0.68284314
0.95422794 0.87205882 0.6754902
0.50196078 0.95833333 0.7245098
0.4995098 0.9495098 0.72205882
0.54914216 0.95588235 0.73137255
0.57291667 0.94944853 0.72542892
0.60931373 0.92279412 0.71078431
0.68039216 0.94748775 0.72542892
0.75919118 0.94669118 0.72732843
0.84607843 0.94540441 0.72058824
0.94411765 0.97009804 0.7245098
0.4127451 0.17058824 0.76764706
0.44901961 0.17843137 0.76372549
0.50686275 0.17769608 0.76764706
0.59754902 0.17659314 0.7754902
0.69313725 0.21764706 0.77941176
0.78480392 0.25747549 0.78125
0.86642157 0.28848039 0.78039216
0.94215686 0.29448529 0.77647059
0.99215686 0.30882353 0.76862745
0.41213235 0.22058824 0.76764706
0.44558824 0.23492647 0.76372549
0.50588235 0.23428309 0.76666667
0.59301471 0.24296875 0.77340686
0.69313725 0.27352941 0.7754902
0.78223039 0.30491728 0.78325674
0.8651348 0.33529412 0.78627451
0.93823529 0.33604473 0.77512255
0.98566176 0.35392157 0.76764706
0.39313725 0.31470588 0.76372549
0.43082108 0.3166973 0.76372549
0.49417892 0.31936275 0.76544118
0.57876838 0.33802083 0.76810662
0.67843137 0.36078431 0.7754902
0.77328431 0.39641544 0.78443627
0.85710784 0.41133578 0.7872549
0.93088235 0.41280637 0.77904412
0.9872549 0.42647059 0.76764706
0.34803922 0.41556373 0.75588235
0.38296569 0.42401961 0.75730699
0.45392157 0.43088235 0.75588235
0.55943627 0.44460784 0.76372549
0.6591299 0.47205882 0.77377451
0.75421262 0.49889706 0.78443627
0.84561887 0.51519608 0.78863358
0.92665441 0.51386336 0.77936581
0.99607843 0.52095588 0.77009804
0.2622549 0.51029412 0.74411765
0.29509804 0.51421569 0.74730392
0.39068627 0.52083333 0.75490196
0.5127451 0.54270833 0.7596201
0.61960784 0.56544118 0.76691176
0.72830882 0.59246324 0.78051471
0.82806373 0.61213235 0.7872549
0.91519608 0.61887255 0.78333333
0.98578431 0.62941176 0.77892157
0.28333333 0.65196078 0.75919118
0.31763174 0.65307904 0.76090686
0.38958333 0.64803922 0.75919118
0.48578431 0.64901961 0.75980392
0.58339461 0.65398284 0.7625
0.70153186 0.68431373 0.77636336
0.81323529 0.71421569 0.78973652
0.90324755 0.71519608 0.7872549
0.97671569 0.72205882 0.78627451
0.32941176 0.77941176 0.7747549
0.35315564 0.77552083 0.77257966
0.41470588 0.77922794 0.7745098
0.50637255 0.77184436 0.77230392
0.59509804 0.77438725 0.77230392
0.69880515 0.79090074 0.77941176
0.80140931 0.79883578 0.79044118
0.89093137 0.79583333 0.77931985
0.96936275 0.7997549 0.7745098
0.3935049 0.88762255 0.78627451
0.41176471 0.88382353 0.78247549
0.46936275 0.88370098 0.78704044
0.53863358 0.88382353 0.78739277
0.62009804 0.88553922 0.78633578
0.69371936 0.86875 0.77953431
0.78823529 0.87178309 0.7872549
0.88086703 0.87291667 0.7754902
0.96029412 0.87696078 0.76776961
0.47745098 0.97352941 0.79117647
0.48872549 0.96421569 0.79411765
0.52647059 0.96470588 0.79411765
0.57892157 0.95257353 0.79803922
0.64558824 0.95588235 0.79509804
0.70588235 0.95 0.79117647
0.78039216 0.95294118 0.79338235
0.86519608 0.94644608 0.79019608
0.94705882 0.95490196 0.79117647
0.52352941 0.25735294 0.86029412
0.54607843 0.24908088 0.85637255
0.58468137 0.26421569 0.85637255
0.64117647 0.2846201 0.85196078
0.71813725 0.3129902 0.86004902
0.8004902 0.36305147 0.86421569
0.87659314 0.41764706 0.86813725
0.95006127 0.41029412 0.86813725
0.9995098 0.40245098 0.87156863
0.52303922 0.29552696 0.8598652
0.53872549 0.29901961 0.85588235
0.58345588 0.31276042 0.85637255
0.64509804 0.32489277 0.85953585
0.71617647 0.35588235 0.86029412
0.79574908 0.39117647 0.86437653
0.87357537 0.43982843 0.86813725
0.94232537 0.44503676 0.86416207
0.98780637 0.44068627 0.86029412
0.51629902 0.37941176 0.85637255
0.53431373 0.37849265 0.85637255
0.57570466 0.38780637 0.85625
0.63779105 0.40013787 0.86029412
0.70906863 0.43229167 0.86029412
0.78590686 0.46318934 0.86421569
0.8666973 0.50615809 0.86792279
0.93598346 0.50980392 0.86029412
0.99117647 0.49803922 0.86029412
0.47647059 0.47303922 0.84705882
0.50490196 0.47064951 0.85245098
0.54839154 0.47852328 0.85382966
0.61783088 0.49460784 0.85392157
0.69240196 0.51020221 0.85637255
0.77352941 0.5391008 0.86372549
0.85537684 0.56920956 0.86764706
0.93131127 0.5771829 0.86748621
0.98400735 0.57696078 0.86421569
0.41029412 0.54215686 0.84093137
0.44019608 0.55 0.84289216
0.5 0.55759804 0.84871324
0.58382353 0.57671569 0.84877451
0.66262255 0.59485294 0.84840686
0.75808824 0.62696078 0.86014093
0.84197304 0.64803922 0.86795343
0.92303922 0.65343137 0.87156863
0.97058824 0.65563725 0.86813725
0.33970588 0.63529412 0.83823529
0.36519608 0.63709406 0.83676471
0.42339154 0.64019608 0.84068627
0.50679381 0.64380362 0.84342831
0.62417279 0.67386642 0.8484375
0.72537531 0.68970588 0.84933364
0.82156863 0.71813725 0.86122855
0.90784314 0.73431373 0.87156863
0.98284314 0.73284314 0.86421569
0.35931373 0.76078431 0.85245098
0.37224265 0.75637255 0.84852941
0.43832721 0.75664828 0.85171569
0.50307904 0.75307904 0.84816176
0.58351716 0.74901961 0.846875
0.69607843 0.76573223 0.85343137
0.80306373 0.78431373 0.85992647
0.8995098 0.80992647 0.87167586
0.98382353 0.80992647 0.86813725
0.38621324 0.8716299 0.86378676
0.41634498 0.86861979 0.86378676
0.46470588 0.87254902 0.86421569
0.53921569 0.87647059 0.86466759
0.61397059 0.87248775 0.86378676
0.70245098 0.86856618 0.86856618
0.80294118 0.87596507 0.87205882
0.89553462 0.88779871 0.87113971
0.96427696 0.89166667 0.86813725
0.43872549 0.93627451 0.87205882
0.47009804 0.96770833 0.87205882
0.50784314 0.97242647 0.87156863
0.55784314 0.9504902 0.87205882
0.64068627 0.97205882 0.87598039
0.71813725 0.96078431 0.87941176
0.80330882 0.96029412 0.87598039
0.89166667 0.96427696 0.87199755
0.97303922 0.96862745 0.87205882
0.62352941 0.41176471 0.94509804
0.63088235 0.39607843 0.93333333
0.66666667 0.42843137 0.94705882
0.69509804 0.41813725 0.92303922
0.75490196 0.45098039 0.93529412
0.82254902 0.49705882 0.94362745
0.88529412 0.53823529 0.94117647
0.95392157 0.56519608 0.94117647
0.98431373 0.57647059 0.94117647
0.61617647 0.43480392 0.94117647
0.62745098 0.42647059 0.93333333
0.66176471 0.44816176 0.94411765
0.69920343 0.44656863 0.93302696
0.74926471 0.46617647 0.92965686
0.81862745 0.51470588 0.94117647
0.88431373 0.55245098 0.94509804
0.95349265 0.57910539 0.94117647
0.98039216 0.58039216 0.9372549
0.61862745 0.49607843 0.94509804
0.62745098 0.49215686 0.9377451
0.65 0.49607843 0.93333333
0.69264706 0.50294118 0.93272059
0.75 0.53186275 0.94313725
0.81078431 0.55453431 0.9372549
0.88063725 0.5872549 0.94411765
0.9504902 0.61948529 0.94509804
0.99215686 0.61176471 0.93823529
0.58186275 0.55392157 0.93333333
0.59656863 0.5495098 0.92892157
0.63762255 0.56470588 0.9372549
0.6838848 0.57352941 0.93780637
0.73872549 0.58995098 0.93872549
0.80294118 0.60490196 0.93333333
0.8689951 0.62242647 0.93210784
0.94001225 0.64460784 0.93382353
0.98970588 0.66372549 0.94264706
0.57058824 0.62745098 0.94313725
0.5622549 0.62328431 0.93308824
0.61127451 0.63333333 0.94264706
0.6625 0.63848039 0.94117647
0.71666667 0.64509804 0.92941176
0.78995098 0.6627451 0.92941176
0.86323529 0.68431373 0.93627451
0.93823529 0.70245098 0.9375
0.97647059 0.71764706 0.94313725
0.48872549 0.68137255 0.93333333
0.48823529 0.67745098 0.92303922
0.5377451 0.68529412 0.93443627
0.59901961 0.69166667 0.93039216
0.67745098 0.70416667 0.93455882
0.76317402 0.71813725 0.92849265
0.85392157 0.74509804 0.94264706
0.93302696 0.76764706 0.94491422
0.98970588 0.77156863 0.94509804
0.46176471 0.76862745 0.9372549
0.46176471 0.76384804 0.92892157
0.50612745 0.76691176 0.94019608
0.55036765 0.76372549 0.91862745
0.62843137 0.76764706 0.94166667
0.71654412 0.77598039 0.93933824
0.82156863 0.79901961 0.9372549
0.91029412 0.81764706 0.92953431
0.98823529 0.83333333 0.94901961
0.45539216 0.86813725 0.9377451
0.47058824 0.86862745 0.94564951
0.50404412 0.87205882 0.94411765
0.55392157 0.87205882 0.93137255
0.60416667 0.86470588 0.91642157
0.70245098 0.86862745 0.95147059
0.80294118 0.87218137 0.94117647
0.8995098 0.89166667 0.94117647
0.9877451 0.90343137 0.95245098
0.4627451 0.96470588 0.94901961
0.47401961 0.96911765 0.95735294
0.50784314 0.95294118 0.95196078
0.55784314 0.975 0.96176471
0.6254902 0.96470588 0.95882353
0.70637255 0.95588235 0.94509804
0.79901961 0.96372549 0.94117647
0.89166667 0.97990196 0.96813725
0.99215686 0.97647059 0.94117647
