site/assets/luts/sha256-3692b26b0778714e145e3a53ce893a4a9b7bfc8c5083a7afd0bd1a6bccc97968.cube
# LUTr-Schema-Version: 2
# LUTr-ID: sha256-3692b26b0778714e145e3a53ce893a4a9b7bfc8c5083a7afd0bd1a6bccc97968
# LUTr-Title: kodak kodachrome 64
# LUTr-Collection: Natron HaldCLUT
# LUTr-Collection-ID: natron-haldclut-presets
# LUTr-Source: https://github.com/NatronGitHub/clut
# LUTr-Retrieved: 2026-07-27
# LUTr-Source-File: submissions/natron-haldclut-presets/colorslide/kodak_kodachrome_64.png
# LUTr-Source-Format: HALD-PNG
# LUTr-Source-SHA256: 3692b26b0778714e145e3a53ce893a4a9b7bfc8c5083a7afd0bd1a6bccc97968
# LUTr-License: CC-BY-SA-4.0
# LUTr-License-URL: https://github.com/NatronGitHub/clut#license
# LUTr-License-Basis: repo-license-file
# LUTr-Transform-Class: film-emulation
# LUTr-Tags: creative, film, film-emulation, hald-clut, natron, png, cube
# LUTr-Input-Color-Space: srgb
# LUTr-Input-Gamut: rec709
# LUTr-Input-Transfer: srgb
# LUTr-Output-Color-Space: srgb
# LUTr-Output-Gamut: rec709
# LUTr-Output-Transfer: srgb
# LUTr-Color-Space-Confidence: assumed-display-referred
# LUTr-Domain-Normalized: true
# LUTr-Shaper: none
# LUTr-Original-Grid: 64x64x64
# LUTr-Conversion-Grid: 25x25x25
# LUTr-Conversion-Interpolation: trilinear
# LUTr-Conversion-Method: HALD-PNG LUT image decoded at 16-bit and sampled to 25x25x25 3D CUBE
# LUTr-Conversion-Tool: LUTr scripts/convert-all-to-cube.mjs 2.0.0
# LUTr-Conversion-Date: 2026-07-27
# LUTr-Note: Preserve this metadata and the upstream license notices when redistributing.
TITLE "kodak kodachrome 64"
LUT_3D_SIZE 5
DOMAIN_MIN 0 0 0
DOMAIN_MAX 1 1 1
0.015686275 0.02745098 0.0078431373
0.17254902 0.019607843 0.034313725
0.54901961 0.10784314 0.017647059
0.8 0.11078431 0.015686275
0.96862745 0.11372549 0.0039215686
0.089215686 0.22745098 0.12352941
0.28553922 0.23553922 0.11666667
0.59852941 0.27352941 0.088235294
0.82965686 0.24240196 0.058823529
0.9872549 0.21764706 0.031372549
0.18235294 0.54705882 0.26666667
0.41323529 0.56470588 0.29117647
0.67156863 0.58431373 0.25294118
0.89803922 0.60098039 0.21470588
0.99803922 0.57843137 0.17254902
0.43921569 0.76470588 0.46960784
0.52941176 0.77941176 0.48455882
0.70882353 0.79313725 0.46568627
0.90882353 0.81470588 0.43529412
1 0.82941176 0.4
0.6 0.97254902 0.64705882
0.64901961 0.96862745 0.64313725
0.76862745 0.99019608 0.64509804
0.93627451 0.98137255 0.61862745
1 0.98823529 0.60784314
0.00098039216 0.00098039216 0.11176471
0.14901961 0.0078431373 0.09877451
0.49901961 0.027941176 0.095588235
0.76960784 0.06372549 0.059803922
0.93529412 0.087254902 0.067647059
0.060784314 0.1997549 0.22867647
0.2379902 0.21544118 0.22886029
0.55294118 0.22745098 0.20906863
0.78351716 0.21170343 0.18082108
0.94901961 0.18014706 0.14411765
0.054411765 0.52009804 0.41323529
0.36482843 0.5377451 0.4004902
0.61470588 0.56421569 0.39901961
0.84215686 0.57254902 0.37095588
0.96568627 0.55294118 0.35686275
0.40882353 0.75588235 0.56102941
0.49803922 0.75998775 0.55686275
0.6745098 0.77438725 0.54901961
0.87377451 0.79681373 0.54117647
0.98431373 0.80294118 0.52647059
0.57352941 0.95294118 0.69313725
0.61936275 0.95294118 0.68921569
0.74117647 0.97058824 0.68872549
0.9129902 0.98431373 0.6875
0.99215686 0.97254902 0.66078431
0 0.0019607843 0.30588235
0.061764706 0.0058823529 0.30637255
0.41960784 0.0039215686 0.32058824
0.66029412 0.014215686 0.30098039
0.83921569 0.025490196 0.27843137
0.014705882 0.15294118 0.425
0.1627451 0.17794118 0.42696078
0.46691176 0.18823529 0.41911765
0.68872549 0.15612745 0.39044118
0.85196078 0.12058824 0.36715686
0.060784314 0.49117647 0.55980392
0.29705882 0.50196078 0.55808824
0.54558824 0.52401961 0.55490196
0.76764706 0.53651961 0.54828431
0.93431373 0.50392157 0.5245098
0.3622549 0.72892157 0.67401961
0.45686275 0.73823529 0.67205882
0.62892157 0.75539216 0.67254902
0.82156863 0.7745098 0.66862745
0.96911765 0.77990196 0.65686275
0.54509804 0.94509804 0.78431373
0.58921569 0.94068627 0.78235294
0.71078431 0.96078431 0.78529412
0.87941176 0.98039216 0.78039216
1 0.99411765 0.77647059
0.0039215686 0.0039215686 0.48627451
0.01004902 0 0.46568627
0.3627451 0.0088235294 0.48235294
0.59509804 0.0039215686 0.47745098
0.76372549 0 0.44901961
0.010784314 0.13848039 0.57352941
0.11764706 0.14957108 0.57254902
0.41764706 0.17610294 0.56862745
0.63308824 0.14332108 0.54828431
0.78627451 0.089215686 0.52941176
0.076960784 0.47745098 0.68823529
0.26973039 0.48566176 0.6877451
0.51004902 0.50882353 0.68921569
0.72181373 0.50980392 0.68026961
0.88088235 0.49166667 0.66960784
0.32843137 0.70882353 0.79117647
0.41960784 0.71764706 0.78823529
0.58247549 0.7314951 0.7879902
0.77959559 0.74546569 0.78333333
0.93651961 0.75269608 0.77647059
0.50882353 0.9254902 0.88431373
0.54313725 0.91936275 0.88235294
0.67794118 0.93676471 0.88431373
0.8372549 0.96372549 0.88823529
0.98529412 0.96960784 0.87647059
0 0 0.56862745
0.0078431373 0 0.55
0.34509804 0.0078431373 0.56862745
0.55294118 0.0039215686 0.55294118
0.7254902 0.0078431373 0.58039216
0.0078431373 0.13529412 0.65686275
0.1372549 0.15098039 0.65686275
0.39509804 0.16029412 0.64068627
0.60098039 0.11789216 0.63235294
0.75196078 0.061764706 0.61078431
0.094117647 0.4627451 0.7745098
0.26323529 0.46666667 0.76666667
0.48235294 0.48235294 0.75490196
0.68431373 0.48186275 0.7622549
0.85294118 0.47254902 0.74901961
0.32058824 0.70490196 0.86372549
0.39607843 0.70490196 0.86446078
0.57156863 0.71519608 0.86372549
0.74901961 0.73014706 0.86764706
0.91862745 0.73333333 0.84411765
0.49411765 0.92156863 0.9372549
0.54019608 0.92941176 0.97254902
0.64901961 0.92352941 0.95686275
0.81078431 0.95294118 0.97254902
0.98431373 0.96470588 0.96470588
