site/assets/luts/sha256-ca8c645f39b6eea926d3380438ad71115f0819c3583a3e0f6ee0ecbfd2b40854.cube
# LUTr-Schema-Version: 2
# LUTr-ID: sha256-ca8c645f39b6eea926d3380438ad71115f0819c3583a3e0f6ee0ecbfd2b40854
# LUTr-Title: kodak elite color 400
# LUTr-Collection: Natron HaldCLUT
# LUTr-Collection-ID: natron-haldclut-presets
# LUTr-Source: https://github.com/NatronGitHub/clut
# LUTr-Retrieved: 2026-07-27
# LUTr-Source-File: submissions/natron-haldclut-presets/negative_color/kodak_elite_color_400.png
# LUTr-Source-Format: HALD-PNG
# LUTr-Source-SHA256: ca8c645f39b6eea926d3380438ad71115f0819c3583a3e0f6ee0ecbfd2b40854
# LUTr-License: CC-BY-SA-4.0
# LUTr-License-URL: https://github.com/NatronGitHub/clut#license
# LUTr-License-Basis: repo-license-file
# LUTr-Transform-Class: film-emulation
# LUTr-Tags: creative, film, film-emulation, hald-clut, natron, png, cube
# LUTr-Input-Color-Space: srgb
# LUTr-Input-Gamut: rec709
# LUTr-Input-Transfer: srgb
# LUTr-Output-Color-Space: srgb
# LUTr-Output-Gamut: rec709
# LUTr-Output-Transfer: srgb
# LUTr-Color-Space-Confidence: assumed-display-referred
# LUTr-Domain-Normalized: true
# LUTr-Shaper: none
# LUTr-Original-Grid: 64x64x64
# LUTr-Conversion-Grid: 25x25x25
# LUTr-Conversion-Interpolation: trilinear
# LUTr-Conversion-Method: HALD-PNG LUT image decoded at 16-bit and sampled to 25x25x25 3D CUBE
# LUTr-Conversion-Tool: LUTr scripts/convert-all-to-cube.mjs 2.0.0
# LUTr-Conversion-Date: 2026-07-27
# LUTr-Note: Preserve this metadata and the upstream license notices when redistributing.
TITLE "kodak elite color 400"
LUT_3D_SIZE 5
DOMAIN_MIN 0 0 0
DOMAIN_MAX 1 1 1
0.0078431373 0.0078431373 0.023529412
0.17352941 0.011764706 0.0088235294
0.38823529 0.011764706 0.045098039
0.6627451 0 0.0078431373
0.90980392 0.0039215686 0.0078431373
0.11960784 0.17745098 0.042156863
0.2245098 0.15710784 0.042401961
0.43039216 0.11029412 0.05
0.68529412 0.032352941 0.042156863
0.9245098 0.0039215686 0.019607843
0.22941176 0.4254902 0.096078431
0.33872549 0.42401961 0.10392157
0.53039216 0.3872549 0.097058824
0.75392157 0.29705882 0.082352941
0.95882353 0.12352941 0.078431373
0.43627451 0.71372549 0.12352941
0.48921569 0.70294118 0.1127451
0.63970588 0.68627451 0.094117647
0.81568627 0.6370098 0.084313725
0.98823529 0.55294118 0.053921569
0.65490196 0.90980392 0.02745098
0.73039216 0.9627451 0.00098039216
0.78431373 0.93921569 0.017647059
0.89901961 0.94803922 0.0039215686
1 0.93333333 0
0.0078431373 0.012745098 0.14705882
0.13308824 0.0095588235 0.15
0.37647059 0.019117647 0.16029412
0.65171569 0.0039215686 0.12941176
0.90392157 0.00098039216 0.081372549
0.058823529 0.21176471 0.18602941
0.18995098 0.18903186 0.184375
0.40747549 0.13492647 0.18823529
0.68161765 0.030637255 0.17610294
0.92941176 0.006127451 0.11691176
0.18284314 0.44215686 0.21862745
0.28786765 0.43333333 0.22107843
0.49068627 0.41004902 0.22058824
0.74313725 0.31617647 0.20943627
0.96421569 0.11568627 0.17745098
0.39877451 0.71372549 0.25196078
0.46568627 0.71372549 0.25588235
0.61740196 0.69056373 0.24705882
0.80226716 0.66311275 0.23020833
0.98627451 0.56960784 0.18431373
0.67941176 0.94607843 0.24705882
0.70490196 0.94901961 0.24215686
0.77696078 0.9495098 0.23039216
0.89313725 0.95392157 0.18995098
1 0.93431373 0.035294118
0.019607843 0.052941176 0.32745098
0.07745098 0.028431373 0.32696078
0.34019608 0.014705882 0.33529412
0.62990196 0.0039215686 0.31960784
0.90784314 0 0.29411765
0.032843137 0.24509804 0.37401961
0.11568627 0.23112745 0.38026961
0.37009804 0.18210784 0.3872549
0.66470588 0.089828431 0.39080882
0.90343137 0.0073529412 0.34803922
0.016666667 0.48039216 0.4372549
0.17377451 0.47205882 0.4372549
0.44558824 0.44901961 0.44901961
0.71470588 0.37843137 0.44485294
0.94803922 0.18431373 0.41176471
0.29411765 0.72745098 0.49509804
0.38946078 0.73529412 0.48762255
0.57205882 0.72058824 0.49068627
0.78321078 0.68982843 0.49019608
0.97990196 0.5995098 0.46519608
0.65098039 0.95490196 0.51764706
0.67941176 0.95686275 0.52303922
0.75392157 0.95686275 0.51764706
0.87107843 0.95098039 0.50784314
0.9745098 0.93529412 0.47843137
0 0.12352941 0.54509804
0.016911765 0.088480392 0.54730392
0.2627451 0.068627451 0.55980392
0.59313725 0.015686275 0.58529412
0.87941176 0 0.56176471
0.0078431373 0.32279412 0.59803922
0.016237745 0.29963235 0.60490196
0.26482843 0.25980392 0.61617647
0.61531863 0.16470588 0.62254902
0.90343137 0.0031862745 0.62254902
0.014215686 0.55392157 0.65980392
0.0078431373 0.52781863 0.65980392
0.30441176 0.50294118 0.67156863
0.65686275 0.44191176 0.67647059
0.93235294 0.26372549 0.67598039
0.030637255 0.76078431 0.71372549
0.18406863 0.76151961 0.71053922
0.46029412 0.74718137 0.71960784
0.72640931 0.72567402 0.7247549
0.96372549 0.64215686 0.72083333
0.61078431 0.97647059 0.75294118
0.64852941 0.97965686 0.75759804
0.7245098 0.97647059 0.75980392
0.83553922 0.95588235 0.75906863
0.98823529 0.95784314 0.74509804
0 0.25490196 0.74117647
0 0.19607843 0.73823529
0.1372549 0.15490196 0.74313725
0.5245098 0.043137255 0.77352941
0.87058824 0.0039215686 0.79215686
0 0.40980392 0.78431373
0 0.38529412 0.78235294
0.014215686 0.36911765 0.80441176
0.54142157 0.2745098 0.80588235
0.88529412 0.038235294 0.79607843
0.0078431373 0.59803922 0.80784314
0.0039215686 0.59607843 0.82941176
0.023529412 0.58039216 0.83529412
0.55 0.53480392 0.84901961
0.87058824 0.40588235 0.86078431
0.015686275 0.79509804 0.84509804
0.020588235 0.79117647 0.85808824
0.14754902 0.79509804 0.9004902
0.62009804 0.77867647 0.90686275
0.88823529 0.70980392 0.8872549
0.49019608 0.98823529 0.92156863
0.53431373 0.9872549 0.92352941
0.62745098 0.98431373 0.94705882
0.76764706 0.95882353 0.93137255
0.99215686 0.99215686 0.99215686
