site/assets/luts/sha256-7f9a659516fd1cf0fdbae2d17d76ceee1db1e2ef7c101b6eded814abe1113b98.cube
# LUTr-Schema-Version: 2
# LUTr-ID: sha256-7f9a659516fd1cf0fdbae2d17d76ceee1db1e2ef7c101b6eded814abe1113b98
# LUTr-Title: fuji fp-100c negative ++
# LUTr-Collection: Natron HaldCLUT
# LUTr-Collection-ID: natron-haldclut-presets
# LUTr-Source: https://github.com/NatronGitHub/clut
# LUTr-Retrieved: 2026-07-27
# LUTr-Source-File: submissions/natron-haldclut-presets/instant_pro/fuji_fp-100c_negative_++.png
# LUTr-Source-Format: HALD-PNG
# LUTr-Source-SHA256: 7f9a659516fd1cf0fdbae2d17d76ceee1db1e2ef7c101b6eded814abe1113b98
# LUTr-License: CC-BY-SA-4.0
# LUTr-License-URL: https://github.com/NatronGitHub/clut#license
# LUTr-License-Basis: repo-license-file
# LUTr-Transform-Class: film-emulation
# LUTr-Tags: creative, film, film-emulation, hald-clut, natron, png, cube
# LUTr-Input-Color-Space: srgb
# LUTr-Input-Gamut: rec709
# LUTr-Input-Transfer: srgb
# LUTr-Output-Color-Space: srgb
# LUTr-Output-Gamut: rec709
# LUTr-Output-Transfer: srgb
# LUTr-Color-Space-Confidence: assumed-display-referred
# LUTr-Domain-Normalized: true
# LUTr-Shaper: none
# LUTr-Original-Grid: 64x64x64
# LUTr-Conversion-Grid: 25x25x25
# LUTr-Conversion-Interpolation: trilinear
# LUTr-Conversion-Method: HALD-PNG LUT image decoded at 16-bit and sampled to 25x25x25 3D CUBE
# LUTr-Conversion-Tool: LUTr scripts/convert-all-to-cube.mjs 2.0.0
# LUTr-Conversion-Date: 2026-07-27
# LUTr-Note: Preserve this metadata and the upstream license notices when redistributing.
TITLE "fuji fp-100c negative ++"
LUT_3D_SIZE 5
DOMAIN_MIN 0 0 0
DOMAIN_MAX 1 1 1
0.26666667 0.14509804 0.16470588
0.30098039 0.14117647 0.16078431
0.46078431 0.1372549 0.15490196
0.78627451 0.21078431 0.16372549
1 0.38823529 0.17254902
0.27058824 0.19019608 0.18039216
0.31176471 0.20122549 0.17181373
0.50490196 0.24313725 0.15686275
0.79607843 0.33946078 0.16568627
0.9872549 0.49215686 0.19901961
0.24901961 0.38431373 0.23921569
0.30784314 0.41323529 0.25294118
0.54803922 0.53137255 0.17941176
0.82696078 0.61127451 0.15784314
0.99607843 0.66078431 0.26470588
0.31960784 0.69019608 0.3872549
0.40196078 0.69803922 0.40294118
0.57058824 0.73823529 0.4127451
0.82058824 0.79411765 0.36960784
0.99215686 0.81372549 0.40588235
0.78431373 0.88235294 0.61568627
0.82156863 0.89019608 0.62647059
0.87647059 0.89215686 0.63137255
0.94313725 0.90294118 0.63235294
0.99215686 0.90196078 0.59607843
0.27352941 0.1372549 0.20196078
0.30759804 0.14338235 0.20563725
0.50980392 0.12254902 0.23823529
0.82181373 0.1622549 0.27181373
0.99215686 0.41666667 0.33039216
0.26740196 0.19313725 0.22941176
0.31942402 0.21366422 0.24019608
0.54019608 0.24656863 0.25931373
0.82254902 0.33884804 0.28590686
0.98921569 0.50318627 0.34828431
0.28186275 0.43235294 0.31911765
0.33737745 0.44914216 0.32696078
0.55661765 0.53921569 0.29583333
0.82585784 0.59056373 0.29558824
0.99264706 0.65882353 0.37647059
0.36078431 0.70588235 0.43627451
0.43921569 0.71703431 0.45116422
0.60036765 0.74215686 0.47218137
0.82824755 0.79901961 0.45257353
0.99607843 0.81666667 0.48946078
0.80490196 0.89705882 0.63039216
0.81960784 0.89093137 0.62745098
0.89117647 0.89411765 0.64215686
0.95490196 0.90686275 0.64240196
1 0.92156863 0.64215686
0.32352941 0.11960784 0.4
0.43039216 0.11568627 0.41862745
0.62843137 0.20294118 0.46078431
0.89019608 0.29705882 0.51862745
1 0.48823529 0.54705882
0.26960784 0.19313725 0.41764706
0.39411765 0.21568627 0.44963235
0.63161765 0.33872549 0.4872549
0.8877451 0.44313725 0.5372549
1 0.56421569 0.56421569
0.22254902 0.42745098 0.45294118
0.32745098 0.46568627 0.47034314
0.59411765 0.56519608 0.51911765
0.84705882 0.62867647 0.54215686
0.99215686 0.67647059 0.56470588
0.4245098 0.71176471 0.5504902
0.50159314 0.72843137 0.55784314
0.65392157 0.75784314 0.575
0.84509804 0.79889706 0.58333333
0.99901961 0.81372549 0.59460784
0.79803922 0.88627451 0.63921569
0.82401961 0.89019608 0.64264706
0.89313725 0.89411765 0.65392157
0.97107843 0.90196078 0.66470588
0.99607843 0.91372549 0.66470588
0.56176471 0.00098039216 0.64509804
0.66789216 0.01495098 0.65294118
0.84705882 0.25882353 0.66862745
0.95196078 0.57279412 0.66372549
1 0.6627451 0.66666667
0.50490196 0.14485294 0.64534314
0.61446078 0.17426471 0.65704657
0.82745098 0.38933824 0.67254902
0.94117647 0.64136029 0.66372549
1 0.71764706 0.67156863
0.010784314 0.39362745 0.62647059
0.17034314 0.41335784 0.6372549
0.70857843 0.55686275 0.6622549
0.94644608 0.74215686 0.66470588
1 0.77156863 0.67156863
0.24607843 0.68210784 0.62156863
0.36911765 0.69761029 0.62843137
0.60453431 0.72953431 0.64411765
0.89932598 0.80588235 0.66372549
1 0.83333333 0.67647059
0.72352941 0.89019608 0.67156863
0.7625 0.89387255 0.6754902
0.85931373 0.89411765 0.68088235
0.97254902 0.89632353 0.69730392
1 0.91372549 0.70784314
0.85882353 0.18823529 0.78431373
0.88627451 0.25 0.77647059
0.96470588 0.48039216 0.76470588
1 0.71176471 0.75686275
1 0.79607843 0.75294118
0.81568627 0.30882353 0.77843137
0.84705882 0.3629902 0.77156863
0.95441176 0.56372549 0.77254902
1 0.73995098 0.7497549
1 0.81862745 0.75686275
0.58039216 0.41176471 0.77647059
0.66323529 0.46470588 0.7745098
0.87843137 0.63235294 0.76960784
0.99607843 0.77647059 0.75637255
1 0.8372549 0.76470588
0.0078431373 0.67156863 0.74509804
0.024509804 0.67254902 0.74436275
0.22058824 0.67794118 0.76372549
0.95980392 0.80220588 0.77352941
1 0.88627451 0.78039216
0.69803922 0.89803922 0.78823529
0.69607843 0.89117647 0.77352941
0.8 0.9 0.78627451
0.90882353 0.89509804 0.76568627
1 0.92941176 0.80392157
