site/assets/luts/sha256-10fc17c11b7077a71e468d64f36fc8b813e3e5c7852b2a1efc9b346fc94683bd.cube
# LUTr-Schema-Version: 2
# LUTr-ID: sha256-10fc17c11b7077a71e468d64f36fc8b813e3e5c7852b2a1efc9b346fc94683bd
# LUTr-Title: kodak portra 160 vc
# LUTr-Collection: Natron HaldCLUT
# LUTr-Collection-ID: natron-haldclut-presets
# LUTr-Source: https://github.com/NatronGitHub/clut
# LUTr-Retrieved: 2026-07-27
# LUTr-Source-File: submissions/natron-haldclut-presets/negative_old/kodak_portra_160_vc.png
# LUTr-Source-Format: HALD-PNG
# LUTr-Source-SHA256: 10fc17c11b7077a71e468d64f36fc8b813e3e5c7852b2a1efc9b346fc94683bd
# LUTr-License: CC-BY-SA-4.0
# LUTr-License-URL: https://github.com/NatronGitHub/clut#license
# LUTr-License-Basis: repo-license-file
# LUTr-Transform-Class: film-emulation
# LUTr-Tags: creative, film, film-emulation, hald-clut, natron, png, cube
# LUTr-Input-Color-Space: srgb
# LUTr-Input-Gamut: rec709
# LUTr-Input-Transfer: srgb
# LUTr-Output-Color-Space: srgb
# LUTr-Output-Gamut: rec709
# LUTr-Output-Transfer: srgb
# LUTr-Color-Space-Confidence: assumed-display-referred
# LUTr-Domain-Normalized: true
# LUTr-Shaper: none
# LUTr-Original-Grid: 64x64x64
# LUTr-Conversion-Grid: 25x25x25
# LUTr-Conversion-Interpolation: trilinear
# LUTr-Conversion-Method: HALD-PNG LUT image decoded at 16-bit and sampled to 25x25x25 3D CUBE
# LUTr-Conversion-Tool: LUTr scripts/convert-all-to-cube.mjs 2.0.0
# LUTr-Conversion-Date: 2026-07-27
# LUTr-Note: Preserve this metadata and the upstream license notices when redistributing.
TITLE "kodak portra 160 vc"
LUT_3D_SIZE 25
DOMAIN_MIN 0 0 0
DOMAIN_MAX 1 1 1
0 0 0
0.045098039 0.010294118 0.010294118
0.090196078 0.019607843 0.016666667
0.13137255 0.020098039 0.019607843
0.17254902 0.01372549 0.019607843
0.20980392 0.0073529412 0.015686275
0.25098039 0.0078431373 0.015686275
0.29215686 0.011764706 0.014215686
0.32941176 0.011764706 0.011764706
0.37058824 0.011764706 0.0039215686
0.40686275 0.012745098 0.0049019608
0.44166667 0.019117647 0.015196078
0.4745098 0.023529412 0.021568627
0.50784314 0.023529412 0.02745098
0.54901961 0.023529412 0.02745098
0.59558824 0.023529412 0.018137255
0.64313725 0.02745098 0.011764706
0.69215686 0.031372549 0.0078431373
0.7372549 0.03627451 0.011764706
0.77843137 0.043137255 0.011764706
0.82352941 0.049019608 0.015686275
0.86862745 0.054901961 0.015686275
0.90980392 0.061764706 0.015686275
0.95490196 0.066666667 0.015686275
0.99607843 0.070588235 0.015686275
0.051470588 0.043627451 0.033333333
0.072058824 0.045098039 0.026960784
0.10477941 0.045465686 0.028431373
0.14411765 0.046568627 0.029901961
0.18161765 0.043872549 0.029901961
0.21746324 0.040870098 0.028125
0.25735294 0.037254902 0.022058824
0.29552696 0.037806373 0.019607843
0.33578431 0.03872549 0.018137255
0.37359069 0.040257353 0.014215686
0.41139706 0.042647059 0.01127451
0.44540441 0.042647059 0.017830882
0.47892157 0.042647059 0.024754902
0.51421569 0.043627451 0.029595588
0.55294118 0.033333333 0.024509804
0.59558824 0.025980392 0.018137255
0.64313725 0.02745098 0.0078431373
0.69068627 0.031372549 0.0078431373
0.73431373 0.03627451 0.011764706
0.77843137 0.043137255 0.011764706
0.82352941 0.049019608 0.015686275
0.86519608 0.055392157 0.015686275
0.90980392 0.061764706 0.015686275
0.95245098 0.066666667 0.015686275
0.98970588 0.070588235 0.015686275
0.050980392 0.081372549 0.021568627
0.082843137 0.081372549 0.025980392
0.11764706 0.082352941 0.033333333
0.15245098 0.082352941 0.039705882
0.18872549 0.081862745 0.042647059
0.22647059 0.078308824 0.039705882
0.26372549 0.074509804 0.032352941
0.30098039 0.070588235 0.023039216
0.34117647 0.070588235 0.019607843
0.37843137 0.073529412 0.020588235
0.41495098 0.073529412 0.020588235
0.4495098 0.073529412 0.023529412
0.48480392 0.073039216 0.027941176
0.52058824 0.064215686 0.02745098
0.56176471 0.051715686 0.023529412
0.60085784 0.038235294 0.015686275
0.64313725 0.02745098 0.0078431373
0.68823529 0.029901961 0.0074754902
0.73431373 0.037009804 0.0088235294
0.77843137 0.043995098 0.011764706
0.82352941 0.050980392 0.015686275
0.86605392 0.055392157 0.015686275
0.90980392 0.061764706 0.015686275
0.95490196 0.066666667 0.015686275
0.98823529 0.070588235 0.015686275
0.065686275 0.11960784 0.034313725
0.091666667 0.11960784 0.037254902
0.12536765 0.11960784 0.043627451
0.15925245 0.11960784 0.050490196
0.19583333 0.11960784 0.054411765
0.23327206 0.11568627 0.05
0.27144608 0.11188725 0.039705882
0.30980392 0.10784314 0.029411765
0.34460784 0.10441176 0.019607843
0.38235294 0.10441176 0.02567402
0.41862745 0.10343137 0.027328431
0.45343137 0.1004902 0.027389706
0.48995098 0.09877451 0.02745098
0.53088235 0.08872549 0.030882353
0.56862745 0.077941176 0.027941176
0.60802696 0.062254902 0.021568627
0.64656863 0.045588235 0.01127451
0.68823529 0.038541667 0.0099877451
0.73431373 0.042769608 0.011764706
0.77843137 0.046997549 0.015625
0.82352941 0.050980392 0.015686275
0.86862745 0.055392157 0.015686275
0.90980392 0.061764706 0.015686275
0.95147059 0.066666667 0.015686275
0.98137255 0.070588235 0.015686275
0.08627451 0.15686275 0.058823529
0.10416667 0.15686275 0.058823529
0.13431373 0.15686275 0.06127451
0.16887255 0.15686275 0.064460784
0.20294118 0.15686275 0.067647059
0.24093137 0.15294118 0.062254902
0.27892157 0.1495098 0.055392157
0.31495098 0.14632353 0.049509804
0.35294118 0.14509804 0.039215686
0.38897059 0.14117647 0.039215686
0.42303922 0.13480392 0.034803922
0.45710784 0.12794118 0.027696078
0.49607843 0.12352941 0.034313725
0.53529412 0.11911765 0.041176471
0.5745098 0.11078431 0.041176471
0.61372549 0.1004902 0.038480392
0.65490196 0.08627451 0.025490196
0.69803922 0.070833333 0.018382353
0.73921569 0.057843137 0.018137255
0.78235294 0.052941176 0.017892157
0.82745098 0.050980392 0.015686275
0.87058824 0.055392157 0.015686275
0.90980392 0.058823529 0.015686275
0.94093137 0.066666667 0.015686275
0.96078431 0.070588235 0.015686275
0.11078431 0.19754902 0.083823529
0.12352941 0.19411765 0.079595588
0.14754902 0.19754902 0.087254902
0.1754902 0.19761029 0.079963235
0.21004902 0.19411765 0.078921569
0.24558824 0.19319853 0.075490196
0.28284314 0.19019608 0.076348039
0.32009804 0.18627451 0.069914216
0.36078431 0.18627451 0.059803922
0.39589461 0.18235294 0.057169118
0.43051471 0.17487745 0.050980392
0.46476716 0.17064951 0.044607843
0.50220588 0.16470588 0.045833333
0.53970588 0.15833333 0.051960784
0.58039216 0.15098039 0.055392157
0.61813725 0.14148284 0.05
0.66323529 0.12745098 0.035784314
0.70441176 0.11078431 0.029227941
0.74558824 0.090196078 0.026593137
0.78676471 0.069178922 0.020526961
0.83186275 0.055392157 0.015686275
0.87591912 0.054963235 0.011764706
0.8995098 0.061764706 0.014705882
0.92009804 0.06685049 0.015686275
0.94068627 0.070588235 0.015686275
0.12941176 0.23529412 0.10588235
0.14154412 0.23529412 0.099142157
0.16176471 0.23529412 0.095343137
0.18615196 0.23529412 0.093995098
0.21715686 0.23529412 0.089215686
0.25281863 0.23137255 0.089705882
0.28946078 0.22843137 0.090931373
0.32708333 0.22745098 0.084926471
0.36470588 0.22352941 0.07745098
0.40134804 0.22352941 0.074632353
0.4372549 0.21936275 0.069362745
0.47169118 0.2122549 0.064828431
0.50735294 0.20784314 0.06127451
0.54607843 0.19987745 0.063112745
0.58431373 0.19313725 0.065686275
0.6254902 0.17892157 0.057352941
0.66960784 0.16470588 0.046078431
0.71176471 0.14803922 0.038235294
0.75269608 0.12745098 0.033578431
0.79411765 0.10686275 0.026593137
0.83872549 0.082352941 0.017647059
0.8745098 0.064828431 0.012132353
0.89877451 0.069362745 0.015686275
0.92071078 0.073897059 0.015686275
0.94705882 0.074509804 0.015686275
0.13872549 0.27107843 0.11519608
0.15147059 0.27107843 0.11127451
0.17598039 0.27107843 0.11176471
0.2004902 0.27254902 0.10753676
0.22696078 0.27254902 0.10343137
0.26047794 0.27254902 0.10196078
0.29620098 0.26862745 0.099509804
0.33284314 0.26862745 0.097058824
0.37009804 0.26470588 0.095588235
0.40643382 0.26470588 0.092218137
0.44252451 0.26078431 0.087132353
0.47824755 0.25686275 0.080392157
0.51446078 0.25098039 0.074019608
0.55226716 0.24460784 0.072365196
0.58970588 0.23431373 0.071568627
0.6338848 0.22009804 0.062745098
0.67598039 0.20588235 0.05245098
0.72107843 0.19405637 0.042156863
0.76372549 0.17794118 0.034313725
0.80490196 0.15735294 0.02745098
0.84583333 0.13676471 0.019607843
0.88137255 0.1122549 0.017156863
0.9122549 0.092034314 0.017156863
0.93921569 0.082352941 0.016605392
0.96372549 0.078431373 0.015686275
0.14901961 0.30980392 0.1254902
0.16568627 0.30980392 0.12794118
0.18627451 0.30980392 0.13431373
0.21029412 0.30980392 0.13382353
0.2372549 0.30980392 0.11960784
0.26813725 0.30980392 0.11372549
0.30294118 0.30980392 0.11372549
0.33921569 0.30980392 0.11372549
0.37647059 0.30588235 0.10980392
0.41127451 0.30588235 0.10735294
0.44705882 0.30196078 0.10196078
0.48431373 0.29803922 0.094607843
0.52156863 0.29411765 0.088235294
0.55882353 0.28970588 0.078431373
0.6 0.2754902 0.075490196
0.64117647 0.26372549 0.069117647
0.68627451 0.25098039 0.058823529
0.73137255 0.24068627 0.048529412
0.77745098 0.22941176 0.034313725
0.82156863 0.2127451 0.024019608
0.85686275 0.19215686 0.019607843
0.88823529 0.16323529 0.019607843
0.92254902 0.13235294 0.019607843
0.95735294 0.09754902 0.018137255
0.98431373 0.082352941 0.015686275
0.15931373 0.34705882 0.13578431
0.17843137 0.34705882 0.14362745
0.19901961 0.34705882 0.1504902
0.2245098 0.34705882 0.14803922
0.2495098 0.34779412 0.13897059
0.27598039 0.34852941 0.1377451
0.30870098 0.34852941 0.13137255
0.34466912 0.34705882 0.13039216
0.38039216 0.34705882 0.12794118
0.41672794 0.34552696 0.12401961
0.45281863 0.34313725 0.11973039
0.48854167 0.33921569 0.11256127
0.5254902 0.33529412 0.10490196
0.56519608 0.32873775 0.094607843
0.60637255 0.32058824 0.087622549
0.64810049 0.31029412 0.082352941
0.69264706 0.30147059 0.080392157
0.74019608 0.28878676 0.059926471
0.7877451 0.27794118 0.039705882
0.83792892 0.26764706 0.020588235
0.87034314 0.24166667 0.019607843
0.90441176 0.21452206 0.019607843
0.93823529 0.18296569 0.019607843
0.97064951 0.14215686 0.018688725
0.99754902 0.10441176 0.015686275
0.17941176 0.38431373 0.15490196
0.19117647 0.38431373 0.15735294
0.2125 0.38431373 0.15955882
0.23529412 0.38431373 0.1627451
0.25980392 0.38431373 0.16078431
0.28566176 0.3872549 0.15833333
0.31568627 0.3872549 0.15196078
0.3504902 0.3872549 0.14497549
0.38529412 0.38431373 0.14215686
0.42193627 0.38431373 0.13921569
0.45784314 0.38259804 0.13529412
0.4935049 0.37953431 0.13051471
0.53039216 0.37401961 0.12303922
0.57058824 0.36813725 0.11519608
0.6127451 0.36397059 0.10490196
0.65723039 0.35539216 0.098529412
0.70196078 0.34509804 0.088235294
0.74767157 0.33541667 0.073406863
0.79632353 0.32647059 0.055882353
0.84473039 0.31911765 0.041789216
0.8877451 0.30294118 0.023039216
0.92647059 0.28026961 0.018259804
0.96372549 0.25294118 0.014705882
0.98578431 0.21605392 0.017401961
0.99215686 0.1872549 0.015686275
0.20294118 0.4254902 0.1754902
0.20931373 0.42334559 0.1754902
0.225 0.42205882 0.17598039
0.24558824 0.42205882 0.17941176
0.27181373 0.4254902 0.17941176
0.29895833 0.4254902 0.17892157
0.32598039 0.4254902 0.16911765
0.35704657 0.42205882 0.15882353
0.39166667 0.42205882 0.15637255
0.42677696 0.42175245 0.15373775
0.46262255 0.42156863 0.15196078
0.49957108 0.41813725 0.14810049
0.53676471 0.4120098 0.14215686
0.57794118 0.40631127 0.13186275
0.61911765 0.40294118 0.12463235
0.66439951 0.4004902 0.1153799
0.70931373 0.39362745 0.10490196
0.75686275 0.38547794 0.094301471
0.80355392 0.38051471 0.080392157
0.84895833 0.37401961 0.066605392
0.8995098 0.35808824 0.044117647
0.95042892 0.34509804 0.018198529
0.98529412 0.32120098 0.0082107843
0.98921569 0.28265931 0.021568627
0.99607843 0.25196078 0.012254902
0.22745098 0.4627451 0.19411765
0.22745098 0.4627451 0.19215686
0.23529412 0.46078431 0.19019608
0.25588235 0.4625 0.19387255
0.28235294 0.4627451 0.19411765
0.30931373 0.4627451 0.19019608
0.3372549 0.4627451 0.18480392
0.36715686 0.46127451 0.175
0.39803922 0.45882353 0.16862745
0.43284314 0.46078431 0.16862745
0.46813725 0.46029412 0.16813725
0.50416667 0.45882353 0.1629902
0.54313725 0.45294118 0.15588235
0.58455882 0.44705882 0.14852941
0.62941176 0.44313725 0.14166667
0.67205882 0.44166667 0.13382353
0.71960784 0.43921569 0.1254902
0.76715686 0.4379902 0.11519608
0.81372549 0.43676471 0.10490196
0.85882353 0.42818627 0.091176471
0.90980392 0.4127451 0.062745098
0.96102941 0.40098039 0.032107843
0.99166667 0.38284314 0.015686275
0.99362745 0.34460784 0.025245098
0.99803922 0.31568627 0.015686275
0.24803922 0.50392157 0.2122549
0.24803922 0.50177696 0.20851716
0.24889706 0.49901961 0.20441176
0.26960784 0.49993873 0.20441176
0.29460784 0.50392157 0.20490196
0.31954657 0.50484069 0.20441176
0.34620098 0.50784314 0.20061275
0.37303922 0.50422794 0.19558824
0.40392157 0.5004902 0.18970588
0.43903186 0.5 0.18658088
0.47365196 0.5 0.18125
0.50876225 0.5 0.17745098
0.5495098 0.49215686 0.17107843
0.59460784 0.4877451 0.16170343
0.63578431 0.48431373 0.15747549
0.68088235 0.48431373 0.15
0.72598039 0.48431373 0.14215686
0.77352941 0.48480392 0.13400735
0.82107843 0.48480392 0.12401961
0.86911765 0.48137255 0.10386029
0.91617647 0.46519608 0.076960784
0.9627451 0.45245098 0.047058824
0.9872549 0.43615196 0.033210784
0.99344363 0.40686275 0.034313725
0.99607843 0.38823529 0.027941176
0.25882353 0.54901961 0.22647059
0.25882353 0.54840686 0.22365196
0.2625 0.54411765 0.22156863
0.27647059 0.54411765 0.22156863
0.30147059 0.54656863 0.22156863
0.32683824 0.54901961 0.22120098
0.35073529 0.54901961 0.21764706
0.37696078 0.54901961 0.21433824
0.40784314 0.54509804 0.21078431
0.44448529 0.54117647 0.20588235
0.48039216 0.54117647 0.19877451
0.51482843 0.54117647 0.19166667
0.55833333 0.53529412 0.18480392
0.60110294 0.53198529 0.17928922
0.64534314 0.52941176 0.1745098
0.68872549 0.52941176 0.16727941
0.73333333 0.53235294 0.15980392
0.78137255 0.53296569 0.1495098
0.83063725 0.53308824 0.13431373
0.87892157 0.52855392 0.11372549
0.9245098 0.51862745 0.089215686
0.96911765 0.50428922 0.061151961
0.9872549 0.49019608 0.05
0.99215686 0.47316176 0.045710784
0.99215686 0.46372549 0.042156863
0.26813725 0.59558824 0.24068627
0.26813725 0.59411765 0.24068627
0.27512255 0.59166667 0.23823529
0.29068627 0.59166667 0.23823529
0.31127451 0.59166667 0.23823529
0.33216912 0.59411765 0.23676471
0.35637255 0.59411765 0.23431373
0.3838848 0.59019608 0.23284314
0.41715686 0.58627451 0.23039216
0.45140931 0.58235294 0.22346814
0.48737745 0.57990196 0.21433824
0.525 0.58235294 0.20735294
0.56617647 0.57990196 0.20220588
0.60998775 0.57990196 0.19724265
0.65245098 0.57990196 0.19178922
0.6966299 0.57990196 0.18578431
0.74264706 0.57990196 0.17794118
0.79019608 0.58235294 0.16280637
0.8377451 0.57843137 0.14068627
0.88921569 0.57469363 0.12009804
0.93676471 0.56936275 0.095588235
0.97892157 0.55588235 0.071568627
0.99154412 0.54558824 0.06127451
0.99215686 0.53970588 0.057291667
0.99215686 0.53823529 0.056372549
0.2745098 0.63921569 0.25490196
0.27696078 0.63921569 0.25490196
0.2872549 0.63823529 0.25490196
0.30490196 0.63529412 0.25490196
0.32156863 0.63529412 0.25490196
0.34215686 0.63529412 0.25098039
0.3627451 0.63529412 0.25098039
0.39264706 0.63137255 0.24705882
0.42352941 0.62745098 0.24313725
0.45833333 0.62352941 0.23676471
0.49411765 0.62352941 0.23137255
0.53186275 0.62352941 0.22401961
0.57254902 0.62352941 0.21960784
0.61764706 0.62745098 0.21519608
0.65882353 0.62745098 0.20882353
0.70392157 0.62745098 0.20245098
0.74901961 0.63137255 0.19215686
0.79656863 0.62892157 0.1754902
0.84803922 0.62647059 0.15098039
0.8995098 0.62009804 0.12647059
0.94705882 0.61568627 0.10196078
0.99264706 0.60735294 0.081372549
0.99607843 0.60392157 0.071568627
0.99215686 0.60245098 0.065196078
0.99215686 0.59607843 0.054901961
0.27843137 0.68039216 0.26519608
0.28333333 0.68039216 0.26519608
0.29852941 0.68039216 0.26580882
0.31550245 0.68039216 0.26764706
0.33308824 0.68039216 0.26764706
0.35196078 0.68039216 0.26734069
0.36911765 0.67708333 0.26519608
0.39901961 0.67591912 0.26127451
0.43382353 0.67254902 0.25735294
0.46770833 0.67107843 0.25251225
0.50343137 0.67107843 0.24742647
0.53952206 0.67107843 0.24068627
0.58039216 0.67107843 0.23504902
0.62401961 0.67254902 0.22971814
0.66629902 0.675 0.22487745
0.71084559 0.67892157 0.21966912
0.75539216 0.67892157 0.21029412
0.80349265 0.67892157 0.19607843
0.85441176 0.675 0.17156863
0.90343137 0.67156863 0.14705882
0.95343137 0.66519608 0.12058824
0.99264706 0.65931373 0.093627451
0.99607843 0.65355392 0.071568627
0.99607843 0.64846814 0.057352941
0.99607843 0.64362745 0.044607843
0.28333333 0.7254902 0.2754902
0.29215686 0.7254902 0.27830882
0.30857843 0.7254902 0.28137255
0.32463235 0.7254902 0.28517157
0.33970588 0.7254902 0.28823529
0.35490196 0.725 0.28823529
0.3754902 0.72156863 0.28431373
0.40833333 0.71764706 0.27892157
0.44019608 0.71764706 0.27254902
0.475 0.71764706 0.26801471
0.51078431 0.71789216 0.2629902
0.54803922 0.71862745 0.25637255
0.58921569 0.72254902 0.2504902
0.63039216 0.72254902 0.24509804
0.6754902 0.7247549 0.24191176
0.72058824 0.72647059 0.23517157
0.76470588 0.72647059 0.22843137
0.80931373 0.72647059 0.21458333
0.85980392 0.7254902 0.19215686
0.90833333 0.72169118 0.16813725
0.95539216 0.71666667 0.14117647
0.98872549 0.71078431 0.11029412
0.99583333 0.70392157 0.078431373
0.99607843 0.69473039 0.056495098
0.99705882 0.6872549 0.038235294
0.29362745 0.76323529 0.29313725
0.3 0.76666667 0.29705882
0.31433824 0.76666667 0.30453431
0.32800245 0.76666667 0.30876225
0.34289216 0.76666667 0.3127451
0.36127451 0.76617647 0.3122549
0.38480392 0.7627451 0.30232843
0.41568627 0.75882353 0.29705882
0.4504902 0.75882353 0.29313725
0.48382353 0.75882353 0.28547794
0.52107843 0.76360294 0.27781863
0.55833333 0.77009804 0.27359069
0.5995098 0.77230392 0.26593137
0.64068627 0.77058824 0.26133578
0.68480392 0.77058824 0.25526961
0.72843137 0.77401961 0.24901961
0.77205882 0.7745098 0.24264706
0.81746324 0.7745098 0.23204657
0.86629902 0.77401961 0.21531863
0.91470588 0.77009804 0.18872549
0.96421569 0.77009804 0.16176471
0.98823529 0.76525735 0.13039216
0.99509804 0.75796569 0.086642157
0.99607843 0.74852941 0.054595588
1 0.73872549 0.035294118
0.30980392 0.8 0.31372549
0.3129902 0.80392157 0.31764706
0.32058824 0.80784314 0.32254902
0.33088235 0.80955882 0.33284314
0.34509804 0.81078431 0.33627451
0.36764706 0.80563725 0.32916667
0.39215686 0.80392157 0.32254902
0.4247549 0.8 0.31617647
0.45686275 0.8 0.30980392
0.49166667 0.8 0.30343137
0.52745098 0.80392157 0.29705882
0.56495098 0.80588235 0.29068627
0.60686275 0.80588235 0.28333333
0.65098039 0.80980392 0.27794118
0.69509804 0.80980392 0.27156863
0.7379902 0.81372549 0.26519608
0.78235294 0.81764706 0.25882353
0.82745098 0.81960784 0.2497549
0.87303922 0.81960784 0.23480392
0.92107843 0.81960784 0.20906863
0.97352941 0.82254902 0.18235294
0.99215686 0.81715686 0.14264706
0.99509804 0.81176471 0.084803922
0.99754902 0.80637255 0.040196078
1 0.8 0.029411765
0.32598039 0.84117647 0.33431373
0.32647059 0.84509804 0.33823529
0.33382353 0.84901961 0.34301471
0.34117647 0.85245098 0.3495098
0.35343137 0.84681373 0.35147059
0.3745098 0.84466912 0.34601716
0.40147059 0.84509804 0.33921569
0.43235294 0.84381127 0.3341299
0.46715686 0.84117647 0.32647059
0.50147059 0.84117647 0.32254902
0.53382353 0.84117647 0.3189951
0.57150735 0.84074755 0.31127451
0.61421569 0.83308824 0.30098039
0.66084559 0.8372549 0.29417892
0.70539216 0.84362745 0.28811275
0.74883578 0.84607843 0.28186275
0.79264706 0.84852941 0.275
0.83596814 0.85539216 0.26764706
0.87990196 0.86078431 0.25392157
0.93137255 0.86421569 0.22941176
0.98014706 0.86862745 0.20514706
0.99215686 0.86813725 0.15140931
0.99607843 0.86776961 0.081985294
1 0.86813725 0.021262255
1 0.86568627 0.019607843
0.34019608 0.88627451 0.35882353
0.34019608 0.88627451 0.35882353
0.34485294 0.89019608 0.35980392
0.35147059 0.89105392 0.36617647
0.36372549 0.88088235 0.36176471
0.38480392 0.87904412 0.35980392
0.41176471 0.88627451 0.35661765
0.44264706 0.88627451 0.35159314
0.47745098 0.88235294 0.34705882
0.50833333 0.88235294 0.34705882
0.54313725 0.88235294 0.34534314
0.58137255 0.87585784 0.33223039
0.62254902 0.86715686 0.31813725
0.66813725 0.86507353 0.30870098
0.71348039 0.87156863 0.30416667
0.75784314 0.87696078 0.29852941
0.80294118 0.88627451 0.29215686
0.84411765 0.89301471 0.28823529
0.8872549 0.90196078 0.27818627
0.93517157 0.9057598 0.25686275
0.97696078 0.90686275 0.23578431
0.99215686 0.90637255 0.18566176
0.99607843 0.9127451 0.1120098
1 0.91580882 0.04877451
1 0.91666667 0.029411765
0.35441176 0.92352941 0.3754902
0.35533088 0.92598039 0.3754902
0.35833333 0.93026961 0.37794118
0.36176471 0.93137255 0.37941176
0.37401961 0.91421569 0.3747549
0.39509804 0.9127451 0.371875
0.42242647 0.93039216 0.37401961
0.45386029 0.92990196 0.37156863
0.48382353 0.92352941 0.37156863
0.51415441 0.92352941 0.37156863
0.5504902 0.92254902 0.36666667
0.59166667 0.9122549 0.35275735
0.63284314 0.90196078 0.33823529
0.67794118 0.8963848 0.32794118
0.72267157 0.90147059 0.32120098
0.76721814 0.91176471 0.31666667
0.80931373 0.92352941 0.31666667
0.85441176 0.93719363 0.3127451
0.89558824 0.94742647 0.30723039
0.93921569 0.95067402 0.28921569
0.9745098 0.94852941 0.26985294
0.99264706 0.94883578 0.22794118
0.99607843 0.95098039 0.17058824
1 0.95637255 0.11078431
1 0.96813725 0.043627451
0.36470588 0.94901961 0.38823529
0.36470588 0.95294118 0.38823529
0.36862745 0.96078431 0.39215686
0.37205882 0.96470588 0.39215686
0.38235294 0.94509804 0.38627451
0.40539216 0.94607843 0.38431373
0.43529412 0.96666667 0.38823529
0.46176471 0.96323529 0.38823529
0.49019608 0.95686275 0.38823529
0.51715686 0.95539216 0.39068627
0.55686275 0.95196078 0.38333333
0.59803922 0.94166667 0.36911765
0.64313725 0.93333333 0.35490196
0.68480392 0.92941176 0.34460784
0.72941176 0.92941176 0.33823529
0.7745098 0.93872549 0.33333333
0.81568627 0.94901961 0.32941176
0.86078431 0.96568627 0.32941176
0.90196078 0.98235294 0.32941176
0.93970588 0.98823529 0.31862745
0.9745098 0.98431373 0.3
0.99607843 0.98431373 0.26862745
0.99901961 0.9872549 0.22745098
1 0.99215686 0.17941176
1 0.98823529 0.10980392
0.011764706 0.010294118 0.034803922
0.045098039 0.016666667 0.034803922
0.087745098 0.019607843 0.03872549
0.12892157 0.019607843 0.034987745
0.17009804 0.01495098 0.031617647
0.20980392 0.0061887255 0.026776961
0.24852941 0.0099264706 0.026593137
0.28823529 0.015134804 0.026960784
0.32696078 0.015686275 0.026960784
0.3651348 0.014215686 0.022120098
0.40147059 0.014583333 0.019117647
0.43903186 0.01942402 0.021875
0.4745098 0.022794118 0.024754902
0.51127451 0.023529412 0.02745098
0.54901961 0.019607843 0.024509804
0.59558824 0.023529412 0.019056373
0.64313725 0.02745098 0.015686275
0.69123775 0.032904412 0.014215686
0.7372549 0.038112745 0.014215686
0.78216912 0.043137255 0.015686275
0.82352941 0.049019608 0.015686275
0.86862745 0.054901961 0.015686275
0.90980392 0.058823529 0.015686275
0.95245098 0.064215686 0.015686275
0.98578431 0.070588235 0.015686275
0.041176471 0.045098039 0.051470588
0.066950061 0.046974571 0.04810049
0.10363051 0.049249387 0.045787377
0.14178156 0.04833027 0.045098039
0.17965686 0.045098039 0.040716912
0.21665901 0.041061581 0.03794424
0.25421262 0.037484681 0.033563113
0.29181219 0.039070159 0.034574142
0.33033088 0.041176471 0.034803922
0.36836703 0.042095588 0.032758885
0.40525429 0.042095588 0.028109681
0.442356 0.042647059 0.027443321
0.47769608 0.043841912 0.029442402
0.51421569 0.042340686 0.029787071
0.55539216 0.033333333 0.024509804
0.5971201 0.025980392 0.019056373
0.64313725 0.02745098 0.014215686
0.69068627 0.031372549 0.014215686
0.7372549 0.036963848 0.014215686
0.78186275 0.043137255 0.015502451
0.82352941 0.049019608 0.015686275
0.86862745 0.05501685 0.015686275
0.90980392 0.059512868 0.015686275
0.95118719 0.064215686 0.015686275
0.98823529 0.070588235 0.015686275
0.052573529 0.082352941 0.051102941
0.080223652 0.084880515 0.051332721
0.11580882 0.085906863 0.052726716
