site/assets/luts/sha256-18bb16d2887680d97cd5f68b3e486dee9d7caf4d7c88ac77b67da1fe5942305e.cube
# LUTr-Schema-Version: 2
# LUTr-ID: sha256-18bb16d2887680d97cd5f68b3e486dee9d7caf4d7c88ac77b67da1fe5942305e
# LUTr-Title: warm highlight
# LUTr-Collection: Natron HaldCLUT
# LUTr-Collection-ID: natron-haldclut-presets
# LUTr-Source: https://github.com/NatronGitHub/clut
# LUTr-Retrieved: 2026-07-27
# LUTr-Source-File: submissions/natron-haldclut-presets/various/warm_highlight.png
# LUTr-Source-Format: HALD-PNG
# LUTr-Source-SHA256: 18bb16d2887680d97cd5f68b3e486dee9d7caf4d7c88ac77b67da1fe5942305e
# LUTr-License: CC-BY-SA-4.0
# LUTr-License-URL: https://github.com/NatronGitHub/clut#license
# LUTr-License-Basis: repo-license-file
# LUTr-Transform-Class: film-emulation
# LUTr-Tags: creative, film, film-emulation, hald-clut, natron, png, warm, cube
# LUTr-Input-Color-Space: srgb
# LUTr-Input-Gamut: rec709
# LUTr-Input-Transfer: srgb
# LUTr-Output-Color-Space: srgb
# LUTr-Output-Gamut: rec709
# LUTr-Output-Transfer: srgb
# LUTr-Color-Space-Confidence: assumed-display-referred
# LUTr-Domain-Normalized: true
# LUTr-Shaper: none
# LUTr-Original-Grid: 64x64x64
# LUTr-Conversion-Grid: 25x25x25
# LUTr-Conversion-Interpolation: trilinear
# LUTr-Conversion-Method: HALD-PNG LUT image decoded at 16-bit and sampled to 25x25x25 3D CUBE
# LUTr-Conversion-Tool: LUTr scripts/convert-all-to-cube.mjs 2.0.0
# LUTr-Conversion-Date: 2026-07-27
# LUTr-Note: Preserve this metadata and the upstream license notices when redistributing.
TITLE "warm highlight"
LUT_3D_SIZE 9
DOMAIN_MIN 0 0 0
DOMAIN_MAX 1 1 1
0.047058824 0.035294118 0.023529412
0.10539216 0.04754902 0.035294118
0.24215686 0.068627451 0.049019608
0.45686275 0.04754902 0.031862745
0.7372549 0.062745098 0.043137255
0.88676471 0.058333333 0.040196078
0.95882353 0.060784314 0.045098039
0.99607843 0.060294118 0.040686275
1 0.058823529 0.043137255
0.064705882 0.080392157 0.036764706
0.10539216 0.085294118 0.038235294
0.21446078 0.085661765 0.030759804
0.47420343 0.097058824 0.047058824
0.73504902 0.099509804 0.03872549
0.88756127 0.11421569 0.051348039
0.95980392 0.11360294 0.050490196
0.99656863 0.10447304 0.044178922
1 0.10147059 0.040686275
0.055882353 0.16372549 0.028431373
0.11409314 0.18370098 0.040563725
0.21740196 0.17622549 0.032843137
0.47830882 0.19705882 0.048529412
0.7377451 0.20784314 0.046078431
0.89056373 0.2127451 0.052083333
0.96078431 0.19852941 0.040441176
0.99264706 0.19803922 0.043137255
1 0.21372549 0.045098039
0.061764706 0.36470588 0.033823529
0.11047794 0.37193627 0.038419118
0.22242647 0.37647059 0.037254902
0.49319853 0.40502451 0.056433824
0.74313725 0.39191176 0.043627451
0.88915441 0.39436275 0.042463235
0.95882353 0.38541667 0.040441176
0.99264706 0.38872549 0.044607843
1 0.37352941 0.038235294
0.066666667 0.59411765 0.037254902
0.12328431 0.60906863 0.046078431
0.23921569 0.61323529 0.044607843
0.46960784 0.60759804 0.042892157
0.74509804 0.62254902 0.055882353
0.88823529 0.61593137 0.053186275
0.96078431 0.60588235 0.044607843
0.99607843 0.60759804 0.051960784
1 0.59411765 0.043137255
0.084803922 0.80588235 0.041666667
0.11580882 0.80931373 0.040992647
0.23860294 0.8122549 0.042647059
0.48897059 0.81709559 0.048406863
0.75171569 0.81862745 0.056372549
0.88823529 0.8122549 0.055821078
0.95882353 0.80637255 0.051960784
0.99264706 0.803125 0.045772059
1 0.84411765 0.091666667
0.067647059 0.93039216 0.042156863
0.13982843 0.93137255 0.065318627
0.27205882 0.93529412 0.064460784
0.48933824 0.93137255 0.050122549
0.76617647 0.93235294 0.07745098
0.88737745 0.93235294 0.043014706
0.95808824 0.92058824 0.031127451
0.99215686 0.91703431 0.03247549
1 0.94313725 0.081372549
0.12254902 0.99264706 0.076470588
0.12647059 0.98872549 0.049509804
0.26066176 0.99264706 0.059803922
0.49730392 0.99393382 0.052328431
0.77598039 0.99264706 0.073529412
0.8841299 0.99607843 0.035784314
0.96568627 0.98958333 0.065196078
0.99258578 0.99215686 0.076470588
1 0.99264706 0.085294118
0.10196078 1 0.082352941
0.16764706 1 0.078431373
0.27254902 1 0.064705882
0.49656863 1 0.05245098
0.77058824 1 0.070588235
0.88431373 1 0.047058824
0.96176471 1 0.058823529
0.98823529 1 0.054411765
1 1 0.035294118
0.078921569 0.066666667 0.077941176
0.14509804 0.075061275 0.086335784
0.30625 0.097671569 0.10759804
0.54540441 0.097671569 0.11286765
0.77230392 0.086029412 0.10441176
0.90784314 0.098529412 0.11268382
0.96654412 0.10845588 0.11789216
0.99307598 0.11323529 0.12401961
1 0.11372549 0.125
0.10318627 0.14148284 0.097916667
0.15608915 0.136106 0.094692096
0.31197917 0.15775123 0.11323529
0.5250383 0.13533241 0.09921875
0.77794118 0.14684436 0.10787377
0.90441176 0.16144301 0.11358762
0.96971507 0.18020833 0.12628676
0.99607843 0.13039982 0.085615809
1 0.14583333 0.10324755
0.084068627 0.21617647 0.083946078
0.1740962 0.26527267 0.10834865
0.30012255 0.25716912 0.10404412
0.54937194 0.27296262 0.11590074
0.79172794 0.28302696 0.12205882
0.90574449 0.26256127 0.11056985
0.96443015 0.26231618 0.10628064
0.99650735 0.25667892 0.1027114
1 0.29166667 0.13345588
0.11115196 0.44944853 0.10428922
0.15725337 0.43838848 0.095143995
0.28892463 0.44053309 0.095189951
0.52924326 0.44718137 0.097311581
0.77735907 0.45566789 0.10462623
0.90607384 0.44967831 0.10105699
0.96703431 0.46282169 0.11056985
0.99656863 0.44584099 0.10056679
1 0.48155637 0.12873775
0.084803922 0.63480392 0.081617647
0.15992647 0.64846814 0.09721201
0.31875 0.67113971 0.1125
0.52490809 0.65367647 0.098284314
0.76654412 0.65723039 0.10551471
0.90621936 0.66112132 0.10508578
0.96213235 0.64932598 0.096875
0.99632353 0.65055147 0.097977941
1 0.6247549 0.083333333
0.082536765 0.82285539 0.079227941
0.16577053 0.83670343 0.10224418
0.29696691 0.83295037 0.10560662
0.53151042 0.83572304 0.09865962
0.79041054 0.8489277 0.12720588
0.90379136 0.83448989 0.10331648
0.96622243 0.825 0.089215686
0.99607843 0.82254902 0.082965686
1 0.84166667 0.12322304
0.094117647 0.93223039 0.084436275
0.14584865 0.93615196 0.090854779
0.31783088 0.94047181 0.11764706
0.5350337 0.93921569 0.098667279
0.77683824 0.93829657 0.10772059
0.90232843 0.93583027 0.099509804
0.96176471 0.93201593 0.089767157
0.99607843 0.93137255 0.093688725
1 0.92879902 0.075857843
0.092463235 0.98964461 0.088602941
0.16172641 0.98953738 0.10409007
0.29992341 0.99264706 0.10874694
0.53676471 0.99264706 0.10500919
0.77794118 0.99093137 0.11608456
0.90196078 0.99607843 0.098054534
0.9627451 0.99607843 0.092156863
0.99656863 0.99607843 0.085240502
1 0.99607843 0.077512255
0.10980392 0.99656863 0.10147059
0.19068627 1 0.1245098
0.32058824 1 0.12745098
0.54607843 1 0.11372549
0.77426471 1 0.10294118
0.90459559 1 0.10208333
0.96176471 1 0.089215686
0.99264706 1 0.088296569
1 1 0.074509804
0.11372549 0.098039216 0.19019608
0.18492647 0.10735294 0.19411765
0.34117647 0.125 0.21102941
0.57303922 0.1185049 0.20870098
0.79558824 0.13137255 0.22156863
0.91666667 0.12598039 0.22598039
0.97058824 0.12769608 0.2245098
0.99264706 0.12941176 0.22254902
1 0.1254902 0.22352941
0.11789216 0.15796569 0.1932598
0.18507966 0.16155025 0.19375
0.33627451 0.17095588 0.20330882
0.57290135 0.17794118 0.2158701
0.79338235 0.18602941 0.23339461
0.91029412 0.18578431 0.21234681
0.97352941 0.18112745 0.20867034
0.99607843 0.16917892 0.19450061
1 0.16360294 0.19166667
0.12573529 0.2747549 0.19313725
0.18704044 0.27745098 0.19978554
0.33903186 0.29080882 0.20606618
0.57941176 0.29623162 0.22429534
0.80343137 0.30968137 0.23088235
0.91421569 0.30713848 0.21746324
0.96905637 0.30845588 0.22205882
0.99607843 0.28360907 0.19865196
1 0.27352941 0.19240196
0.14080882 0.49656863 0.21960784
0.18916973 0.47455576 0.19517463
0.33694853 0.48324142 0.20698529
0.58157169 0.50183824 0.22156863
0.79583333 0.51109069 0.23186275
0.91323529 0.50784314 0.22254902
0.96666667 0.49571078 0.20686275
0.99607843 0.48279718 0.19419424
1 0.47536765 0.19509804
0.11960784 0.67254902 0.18872549
0.19313725 0.68014706 0.20355392
0.34019608 0.69313725 0.21384804
0.58823529 0.69957108 0.2252451
0.78970588 0.69387255 0.22867647
0.90251225 0.68988971 0.21470588
0.96188725 0.68492647 0.20281863
0.99656863 0.68137255 0.19816176
1 0.67009804 0.18676471
0.12365196 0.84019608 0.18443627
0.19276961 0.84255515 0.20450368
0.33137255 0.84656863 0.21188725
0.58933824 0.85202206 0.22777267
0.8057598 0.85147059 0.23633578
0.90237439 0.84901961 0.21709559
0.96568627 0.84865196 0.21063113
0.99607843 0.84754902 0.20294118
1 0.84117647 0.19301471
0.12328431 0.94093137 0.19411765
0.19264706 0.94249387 0.20147059
0.34117647 0.94313725 0.21905637
0.57941176 0.94313725 0.22092525
0.79117647 0.9439951 0.23909314
0.91311275 0.94653799 0.22426471
0.96960784 0.94313725 0.21501225
0.99656863 0.94313725 0.1989277
1 0.94289216 0.19509804
0.12414216 0.98921569 0.19362745
0.19313725 0.99264706 0.20159314
0.34335172 0.99264706 0.21547181
0.57910539 0.98958333 0.21444547
0.79822304 0.99264706 0.22647059
0.91453738 0.99607843 0.23431373
0.96222426 0.98872549 0.21890319
0.99607843 0.99575674 0.19852941
1 0.99607843 0.1872549
0.12941176 0.99607843 0.19803922
0.20539216 0.9995098 0.21911765
0.35294118 1 0.23137255
0.57977941 0.99705882 0.22352941
0.79754902 1 0.23480392
0.90098039 1 0.23823529
0.96887255 1 0.23333333
0.99215686 0.99620098 0.19375
1 1 0.18823529
0.15833333 0.12794118 0.35735294
0.21470588 0.13333333 0.36470588
0.36776961 0.1372549 0.36666667
0.59362745 0.13823529 0.36911765
0.79607843 0.16495098 0.37696078
0.91366422 0.13333333 0.36666667
0.97352941 0.12941176 0.36666667
0.99607843 0.13204657 0.36519608
1 0.15147059 0.35882353
0.16470588 0.18939951 0.35735294
0.21323529 0.19313725 0.35343137
0.36421569 0.19808517 0.36458333
0.58578431 0.20196844 0.37058824
0.8 0.20416667 0.37172181
0.91655178 0.20679381 0.36911765
0.96960784 0.19117647 0.36911765
0.99215686 0.19115349 0.35762102
1 0.19313725 0.34558824
0.15208333 0.30098039 0.35343137
0.21717218 0.30088848 0.36096814
0.35009191 0.30710784 0.36292892
0.59362745 0.31597733 0.36934743
0.80128676 0.33474265 0.36727941
0.91703431 0.31507353 0.36934743
0.96740196 0.3064951 0.3685049
0.99425551 0.30882353 0.35735294
1 0.31066176 0.36066176
0.15392157 0.49166667 0.35343137
0.21452206 0.49698989 0.35735294
0.35683211 0.51127451 0.36458333
0.5872549 0.51462163 0.3745098
0.79727328 0.51911765 0.36666667
0.90245098 0.51819853 0.37338388
0.96176471 0.50392157 0.3649663
0.99215686 0.50354626 0.35911458
1 0.50251225 0.36856618
0.14632353 0.70098039 0.36568627
0.21387868 0.69264706 0.35735294
0.35533088 0.69981618 0.36127451
0.58970588 0.70199142 0.37003676
0.79963235 0.70330882 0.37058824
0.88676471 0.69684436 0.36911765
0.96127451 0.70196078 0.36838235
0.98832721 0.69313725 0.3611826
0.99607843 0.68823529 0.35661765
0.14754902 0.84564951 0.35343137
0.21844363 0.84460784 0.36470588
0.36868873 0.84509804 0.36925551
0.58970588 0.84957108 0.37058824
0.78848039 0.84191176 0.37573529
0.89068627 0.84397212 0.36427696
0.95882353 0.83333333 0.36127451
0.98872549 0.83903186 0.35735294
0.99607843 0.84509804 0.35343137
0.15686275 0.94215686 0.35735294
0.21452206 0.94313725 0.36024816
0.36176471 0.94313725 0.37022059
0.59362745 0.93999694 0.37058824
0.80110294 0.94705882 0.37089461
0.89566483 0.9442402 0.37120098
0.9627451 0.94681373 0.37058824
0.99215686 0.94178922 0.35338542
0.99938725 0.93823529 0.34497549
0.15147059 0.98088235 0.35735294
0.21470588 0.98872549 0.36125153
0.37567402 0.98835784 0.36493566
0.59051011 0.98560815 0.36764706
0.79068627 0.98480392 0.37867647
0.90245098 0.98920803 0.38088235
0.96568627 0.98088235 0.37709865
0.99188879 0.98088235 0.35294118
0.99607843 0.98088235 0.3377451
0.14509804 1 0.35735294
0.2223652 0.99607843 0.36256127
0.36911765 0.99607843 0.36164216
0.58186275 0.99754902 0.36372549
0.80784314 1 0.36666667
0.90490196 1 0.38088235
0.96605392 0.99718137 0.38872549
0.98823529 0.99607843 0.35900735
0.99607843 0.99215686 0.3377451
0.16078431 0.13529412 0.52352941
0.21862745 0.14926471 0.50171569
0.36127451 0.1372549 0.50931373
0.59215686 0.1372549 0.5254902
0.80294118 0.13333333 0.51764706
0.91740196 0.14044118 0.51544118
0.96960784 0.13333333 0.51470588
0.99607843 0.12990196 0.51936275
1 0.16666667 0.50588235
0.15490196 0.19509804 0.51176471
0.21862745 0.20294118 0.51648284
0.36047794 0.19509804 0.50845588
0.59362745 0.19901961 0.51063113
0.80477941 0.20367647 0.52745098
0.91731005 0.2020527 0.52417279
0.97052696 0.19785539 0.53529412
0.99215686 0.1953125 0.52521446
1 0.21004902 0.50735294
0.17352941 0.30882353 0.51666667
0.21862745 0.31219363 0.51764706
0.35526961 0.30821078 0.50882353
0.59031863 0.31421569 0.50906863
0.78946078 0.31593137 0.51004902
0.90980392 0.31568627 0.51415441
0.96568627 0.32071078 0.5310049
0.99264706 0.31568627 0.53216912
1 0.31568627 0.51176471
0.14901961 0.50808824 0.52205882
0.21862745 0.51004902 0.5109375
0.3526348 0.51519608 0.5036152
0.58970588 0.5127451 0.50318627
0.78811275 0.51593137 0.52083333
0.90759804 0.5161152 0.53679534
0.9629902 0.50882353 0.5372549
0.99436275 0.51519608 0.53348652
1 0.50490196 0.5372549
0.15588235 0.69803922 0.52647059
0.21764706 0.6997549 0.51029412
0.37352941 0.70392157 0.50759804
0.58970588 0.70196078 0.51629902
0.79607843 0.69705882 0.52990196
0.90759804 0.7 0.53394608
0.96617647 0.69117647 0.52181373
0.98823529 0.69215686 0.53063725
0.99803922 0.69705882 0.53235294
0.16151961 0.84632353 0.52401961
0.22254902 0.85009191 0.51804534
0.3526348 0.84877451 0.52352941
0.58970588 0.84629289 0.51792279
0.78284314 0.84509804 0.52769608
0.90560662 0.84656863 0.50955882
0.96813725 0.83970588 0.50588235
0.98716299 0.84142157 0.51651348
0.99877451 0.8504902 0.50759804
0.15441176 0.94705882 0.52401961
0.21844363 0.94705882 0.52334559
0.35257353 0.94595588 0.53039216
0.59270833 0.94313725 0.5372549
0.7870098 0.94387255 0.53406863
0.91078431 0.94705882 0.52303922
0.96666667 0.94693627 0.5254902
0.98872549 0.93658088 0.52132353
0.99607843 0.93137255 0.50294118
0.16715686 0.98455882 0.53333333
0.22058824 0.99022672 0.52598039
0.35422794 0.99246324 0.51243873
0.59344363 0.98872549 0.54044118
0.78651961 0.98566176 0.54313725
0.91053922 0.98716299 0.54132966
0.96568627 0.98829657 0.5348652
0.98630515 0.97647059 0.51715686
0.99607843 0.96911765 0.50588235
0.1745098 0.99607843 0.52156863
0.22254902 0.99607843 0.53137255
0.35980392 0.99754902 0.52941176
0.5870098 1 0.53406863
0.80196078 1 0.53823529
0.90171569 0.99607843 0.54901961
0.96568627 1 0.54607843
0.98480392 0.99607843 0.52132353
1 0.99803922 0.49607843
0.17254902 0.12941176 0.75294118
0.21862745 0.14705882 0.74117647
0.35196078 0.14938725 0.73382353
0.59307598 0.14117647 0.71023284
0.80073529 0.14877451 0.71862745
0.90637255 0.14209559 0.72457108
0.96960784 0.12941176 0.73982843
0.98872549 0.13333333 0.72824755
1 0.12696078 0.75245098
0.17156863 0.19117647 0.72420343
0.21470588 0.19536612 0.72747396
0.36064645 0.19869792 0.72677696
0.59362745 0.19784007 0.71825214
0.80646446 0.19509804 0.71470588
0.9116345 0.19982384 0.71537224
0.97005208 0.19852941 0.71862745
0.99215686 0.19074755 0.71905637
1 0.21243873 0.72420343
0.1754902 0.30735294 0.73186275
0.2182598 0.31029412 0.73290441
0.35934436 0.31112132 0.73085172
0.58970588 0.31213235 0.74005821
0.80667892 0.32297794 0.74166667
0.91666667 0.32107843 0.72009804
0.96614583 0.32745098 0.72337623
0.99264706 0.32535233 0.74407169
1 0.33578431 0.75355392
0.14656863 0.50343137 0.75055147
0.21403952 0.50343137 0.74362745
0.37002145 0.51058517 0.74030331
0.58970588 0.50251225 0.7146829
0.79831495 0.5127451 0.72941176
0.9127451 0.51331955 0.71078431
0.96568627 0.51219363 0.71470588
0.99559589 0.5127451 0.72047335
1 0.50974265 0.73823529
0.15857843 0.69142157 0.73063725
0.21749387 0.69534314 0.72009804
0.35747549 0.69191176 0.7379902
0.58970588 0.68673407 0.71666667
0.79803922 0.68823529 0.73333333
0.91574755 0.69803922 0.71666667
0.96648284 0.70030637 0.71666667
0.98936887 0.69607843 0.71887255
1 0.69215686 0.71666667
0.15055147 0.85349265 0.7372549
0.21733303 0.84901961 0.71960784
0.35747549 0.84007353 0.75189951
0.59362745 0.83390778 0.74270833
0.79264706 0.84509804 0.7323223
0.91178768 0.8504902 0.73520987
0.96666667 0.85294118 0.73762255
0.98823529 0.85274969 0.740625
1 0.8504902 0.74607843
0.16127451 0.94705882 0.73431373
0.21452206 0.94497549 0.72928922
0.35523897 0.94313725 0.74886642
0.58892463 0.94558824 0.73546262
0.79626225 0.94705882 0.73841912
0.9127451 0.94669118 0.72904412
0.96960784 0.94549632 0.7252451
0.99215686 0.93913909 0.74301471
0.99901961 0.93039216 0.7372549
0.15588235 0.9846201 0.73057598
0.21452206 0.98872549 0.72205882
0.35298713 0.98926164 0.73517157
0.58578431 0.98560815 0.72658548
0.77769608 0.98195466 0.73756127
0.90870864 0.98302696 0.73088235
0.96568627 0.98480392 0.72250306
0.98839614 0.97647059 0.73314951
0.99607843 0.96519608 0.72665441
0.16960784 0.99754902 0.74264706
0.21470588 1 0.73088235
0.36286765 1 0.73333333
0.59215686 1 0.74993873
0.78284314 1 0.74166667
0.90490196 1 0.75245098
0.96176471 0.99791667 0.7182598
0.98431373 0.99607843 0.73057598
1 0.99754902 0.74117647
0.12254902 0.1 0.88627451
0.19313725 0.10882353 0.89791667
0.3379902 0.11960784 0.88406863
0.58578431 0.1245098 0.88970588
0.79754902 0.13529412 0.89705882
0.90306373 0.13026961 0.89129902
0.96642157 0.13308824 0.89509804
0.99227941 0.13382353 0.89411765
1 0.14509804 0.88627451
0.12732843 0.15784314 0.89313725
0.18895527 0.16531863 0.89509804
0.33140319 0.17426471 0.8872549
0.57659314 0.17843137 0.88970588
0.79607843 0.18676471 0.88688725
0.90637255 0.19643076 0.88609069
0.97352941 0.18272059 0.89518995
0.99607843 0.17352941 0.88665748
1 0.17303922 0.89019608
0.12647059 0.26642157 0.89313725
0.19362745 0.28318015 0.89770221
0.33946078 0.29564951 0.89761029
0.57303922 0.29126838 0.89411765
0.80514706 0.30588235 0.89362745
0.91384804 0.30931373 0.89705882
0.96960784 0.31568627 0.8879902
0.99607843 0.3 0.89730392
1 0.31004902 0.90122549
0.12267157 0.47156863 0.89595588
0.19007353 0.47780331 0.89705882
0.33137255 0.48321078 0.8879902
0.5837163 0.50237439 0.89940257
0.80772059 0.50741422 0.89301471
0.90637255 0.49607843 0.87879902
0.97215074 0.49653799 0.89583333
0.99656863 0.4841299 0.89136029
1 0.47401961 0.89129902
0.1127451 0.67009804 0.89558824
0.18927696 0.67506127 0.88995098
0.33627451 0.68578431 0.89460784
0.57334559 0.67843137 0.89074755
0.80490196 0.68602941 0.89705882
0.91525735 0.6995098 0.89117647
0.96666667 0.69105392 0.89840686
0.99650735 0.68088235 0.89485294
1 0.66715686 0.88088235
0.12107843 0.84019608 0.88958333
0.18884804 0.84299939 0.88693321
0.33431373 0.84500613 0.89019608
0.5754902 0.84154412 0.89264706
0.8004902 0.84491422 0.89534314
0.9127451 0.84551164 0.89411765
0.96568627 0.85085784 0.89047181
0.99318321 0.84509804 0.88723958
1 0.8372549 0.88382353
0.1129902 0.94019608 0.89313725
0.18884804 0.94387255 0.89678309
0.33137255 0.94632353 0.90153186
0.57503064 0.94338235 0.89102328
0.80122549 0.94448529 0.89485294
0.90955882 0.94215686 0.89129902
0.96550245 0.94197304 0.89019608
0.99264706 0.93921569 0.88921569
1 0.93823529 0.89240196
0.11911765 0.98884804 0.88333333
0.18492647 0.98884804 0.88627451
0.32916667 0.98872549 0.88973652
0.56666667 0.98674939 0.88717831
0.78069853 0.9846201 0.88602941
0.90098039 0.97757353 0.88760723
0.96176471 0.97303922 0.88529412
0.98871017 0.97280944 0.88529412
1 0.96911765 0.88921569
0.1245098 0.99607843 0.88921569
0.20441176 0.99987745 0.8939951
0.34901961 1 0.89877451
0.57843137 1 0.88958333
0.77254902 1 0.89166667
0.90098039 1 0.89215686
0.95882353 1 0.88946078
0.98480392 0.99607843 0.88627451
1 0.99607843 0.88921569
0.076960784 0.065686275 0.98872549
0.15447304 0.077879902 0.98578431
0.32867647 0.11617647 0.98480392
0.53633578 0.089583333 0.98511029
0.77647059 0.095588235 0.98137255
0.90459559 0.10637255 0.97745098
0.9627451 0.11776961 0.9682598
0.99607843 0.10931373 0.96917892
1 0.15735294 0.98137255
0.084558824 0.11832108 0.98523284
0.16949295 0.14639246 0.98529412
0.31681985 0.16257659 0.98180147
0.53520987 0.14191176 0.99060202
0.78333333 0.14926471 0.98694853
0.90459559 0.15110294 0.98115043
0.96568627 0.14387255 0.98088235
0.99564951 0.13235294 0.98431373
1 0.12689951 0.98529412
0.082843137 0.21973039 0.98823529
0.16887255 0.25729167 0.98872549
0.32521446 0.28933824 0.98434436
0.53363971 0.25343137 0.9884038
0.78204657 0.26709559 0.98529412
0.90579044 0.25716912 0.98484988
0.96960784 0.26936275 0.98520221
0.99607843 0.24140625 0.98829657
1 0.24754902 0.98872549
0.10606618 0.44197304 0.98511029
0.18053768 0.46589308 0.98586857
0.31259191 0.46550245 0.98414522
0.53501838 0.45247396 0.98983609
0.80217525 0.49356618 0.98511029
0.90606618 0.46661305 0.98511029
0.96407782 0.44967831 0.98688725
0.99613971 0.45439645 0.98572304
1 0.44007353 0.98658088
0.090931373 0.64142157 0.98088235
0.1575674 0.65171569 0.984375
0.3213848 0.67628676 0.98658088
0.54408701 0.65980392 0.98284314
0.77193627 0.66017157 0.98529412
0.90459559 0.66332721 0.98529412
0.96642157 0.68137255 0.98339461
0.99629289 0.66289828 0.98523284
1 0.65931373 0.98308824
0.082659314 0.82071078 0.98547794
0.1549326 0.83029259 0.98572304
0.31599265 0.83880208 0.98521752
0.54251685 0.83939185 0.98265931
0.77147672 0.83578431 0.98097426
0.89933364 0.83155637 0.98107384
0.96622243 0.83751532 0.97437194
0.99634651 0.82342218 0.98213082
1 0.84705882 0.9776348
0.10012255 0.93921569 0.97732843
0.16018689 0.93647365 0.9865962
0.29693627 0.93921569 0.98587623
0.53054534 0.93641238 0.98534007
0.79540441 0.94289216 0.98137255
0.90098039 0.93448223 0.97659314
0.96176471 0.93002451 0.984375
0.99215686 0.93002451 0.96715686
1 0.93039216 0.95588235
0.089031863 0.98964461 0.98621324
0.16514246 0.98921569 0.98442862
0.29157475 0.99007353 0.98615196
0.53216146 0.99264706 0.98899357
0.77496936 0.98872549 0.97941176
0.90098039 0.97941176 0.96111366
0.95784314 0.96911765 0.95611213
0.98480392 0.96519608 0.95392157
1 0.96868873 0.95343137
0.11519608 0.99607843 0.98088235
0.19074755 1 0.97696078
0.3432598 1 0.98480392
0.54442402 1 0.98186275
0.76666667 1 0.975
0.90116422 1 0.95765931
0.96176471 0.99607843 0.94852941
0.98431373 0.99607843 0.95392157
1 1 0.98578431
0.047058824 0.039215686 1
0.10539216 0.048039216 1
0.26176471 0.075490196 1
0.46617647 0.051960784 1
0.74509804 0.060784314 1
0.89068627 0.055392157 1
0.9627451 0.064705882 1
0.99656863 0.081862745 1
1 0.062745098 1
0.054411765 0.079901961 1
0.10435049 0.084742647 1
0.23272059 0.097916667 1
0.47959559 0.10343137 1
0.76789216 0.15318627 1
0.89852941 0.11703431 1
0.96176471 0.12205882 1
0.99264706 0.11660539 0.9995098
1 0.11617647 1
0.054901961 0.17058824 1
0.11139706 0.18284314 1
0.22377451 0.18039216 1
0.50698529 0.21887255 1
0.75098039 0.21470588 1
0.88884804 0.23504902 1
0.96176471 0.22377451 1
0.99264706 0.2057598 1
1 0.20196078 1
0.058823529 0.36421569 1
0.13897059 0.4060049 1
0.23002451 0.37977941 1
0.48590686 0.39810049 1
0.73627451 0.39387255 1
0.89166667 0.40091912 1
0.96127451 0.39105392 1
0.99313725 0.38265931 1
1 0.38235294 1
0.058823529 0.59019608 1
0.10906863 0.59607843 1
0.25784314 0.62598039 1
0.47230392 0.61029412 1
0.74607843 0.60980392 1
0.89705882 0.62843137 1
0.95882353 0.60882353 1
0.99656863 0.60073529 1
1 0.59215686 1
0.069117647 0.81029412 1
0.11047794 0.80900735 1
0.24632353 0.81568627 1
0.48811275 0.8182598 1
0.74019608 0.81176471 1
0.88376225 0.8004902 1
0.96568627 0.82696078 0.99963235
0.99246324 0.81979167 0.98645833
1 0.84509804 0.99607843
0.075490196 0.92745098 1
0.11936275 0.93039216 1
0.24877451 0.93333333 1
0.47647059 0.93431373 1
0.78431373 0.93921569 1
0.88566176 0.92512255 1
0.95784314 0.91960784 0.99803922
0.98480392 0.91960784 0.96715686
0.99607843 0.92647059 0.96764706
0.10392157 0.99264706 1
0.12156863 0.99264706 1
0.23468137 0.98872549 1
0.48431373 0.99264706 1
0.78186275 0.99044118 0.9997549
0.8963848 0.97726716 0.9908701
0.95821078 0.9682598 0.98333333
0.98088235 0.96219363 0.96427696
0.99607843 0.96519608 0.9495098
0.12941176 1 1
0.13235294 1 1
0.24019608 1 1
0.46911765 1 1
0.78823529 1 0.99411765
0.90392157 1 0.98970588
0.96176471 0.99607843 0.98333333
0.98088235 0.99607843 0.97303922
0.99607843 0.99607843 0.98823529
