site/assets/luts/sha256-35e29f51c4f95b31ff45d370becd970a284feba213383e4a156d862d2952df3b.cube
# LUTr-Schema-Version: 2
# LUTr-ID: sha256-35e29f51c4f95b31ff45d370becd970a284feba213383e4a156d862d2952df3b
# LUTr-Title: fuji fp-3000b +++
# LUTr-Collection: Natron HaldCLUT
# LUTr-Collection-ID: natron-haldclut-presets
# LUTr-Source: https://github.com/NatronGitHub/clut
# LUTr-Retrieved: 2026-07-27
# LUTr-Source-File: submissions/natron-haldclut-presets/instant_pro/fuji_fp-3000b_+++.png
# LUTr-Source-Format: HALD-PNG
# LUTr-Source-SHA256: 35e29f51c4f95b31ff45d370becd970a284feba213383e4a156d862d2952df3b
# LUTr-License: CC-BY-SA-4.0
# LUTr-License-URL: https://github.com/NatronGitHub/clut#license
# LUTr-License-Basis: repo-license-file
# LUTr-Transform-Class: film-emulation
# LUTr-Tags: creative, film, film-emulation, hald-clut, natron, png, cube
# LUTr-Input-Color-Space: srgb
# LUTr-Input-Gamut: rec709
# LUTr-Input-Transfer: srgb
# LUTr-Output-Color-Space: srgb
# LUTr-Output-Gamut: rec709
# LUTr-Output-Transfer: srgb
# LUTr-Color-Space-Confidence: assumed-display-referred
# LUTr-Domain-Normalized: true
# LUTr-Shaper: none
# LUTr-Original-Grid: 64x64x64
# LUTr-Conversion-Grid: 25x25x25
# LUTr-Conversion-Interpolation: trilinear
# LUTr-Conversion-Method: HALD-PNG LUT image decoded at 16-bit and sampled to 25x25x25 3D CUBE
# LUTr-Conversion-Tool: LUTr scripts/convert-all-to-cube.mjs 2.0.0
# LUTr-Conversion-Date: 2026-07-27
# LUTr-Note: Preserve this metadata and the upstream license notices when redistributing.
TITLE "fuji fp-3000b +++"
LUT_3D_SIZE 25
DOMAIN_MIN 0 0 0
DOMAIN_MAX 1 1 1
0.31764706 0.31764706 0.31764706
0.31764706 0.31764706 0.31764706
0.31666667 0.31666667 0.31666667
0.31372549 0.31372549 0.31372549
0.31372549 0.31372549 0.31372549
0.32205882 0.32205882 0.32205882
0.32843137 0.32843137 0.32843137
0.33480392 0.33480392 0.33480392
0.34509804 0.34509804 0.34509804
0.35147059 0.35147059 0.35147059
0.35784314 0.35784314 0.35784314
0.36470588 0.36470588 0.36470588
0.3745098 0.3745098 0.3745098
0.38088235 0.38088235 0.38088235
0.39117647 0.39117647 0.39117647
0.40931373 0.40931373 0.40931373
0.42745098 0.42745098 0.42745098
0.44803922 0.44803922 0.44803922
0.46862745 0.46862745 0.46862745
0.49656863 0.49656863 0.49656863
0.52745098 0.52745098 0.52745098
0.55784314 0.55784314 0.55784314
0.58823529 0.58823529 0.58823529
0.62794118 0.62794118 0.62794118
0.65882353 0.65882353 0.65882353
0.31764706 0.31764706 0.31764706
0.31764706 0.31764706 0.31764706
0.31764706 0.31764706 0.31764706
0.31764706 0.31764706 0.31764706
0.31887255 0.31887255 0.31887255
0.32205882 0.32205882 0.32205882
0.33125 0.33125 0.33125
0.33480392 0.33480392 0.33480392
0.34117647 0.34117647 0.34117647
0.35147059 0.35147059 0.35147059
0.35784314 0.35784314 0.35784314
0.36439951 0.36439951 0.36439951
0.37328431 0.37328431 0.37328431
0.38088235 0.38088235 0.38088235
0.39473039 0.39473039 0.39473039
0.41231618 0.41231618 0.41231618
0.42990196 0.42990196 0.42990196
0.44803922 0.44803922 0.44803922
0.46568627 0.46568627 0.46568627
0.49656863 0.49656863 0.49656863
0.52745098 0.52745098 0.52745098
0.55655637 0.55655637 0.55655637
0.58823529 0.58823529 0.58823529
0.62886029 0.62886029 0.62886029
0.66127451 0.66127451 0.66127451
0.32156863 0.32156863 0.32156863
0.32156863 0.32156863 0.32156863
0.31862745 0.31862745 0.31862745
0.32156863 0.32156863 0.32156863
0.32205882 0.32205882 0.32205882
0.32683824 0.32683824 0.32683824
0.32941176 0.32941176 0.32941176
0.33443627 0.33443627 0.33443627
0.34117647 0.34117647 0.34117647
0.35147059 0.35147059 0.35147059
0.35784314 0.35784314 0.35784314
0.36421569 0.36421569 0.36421569
0.37058824 0.37058824 0.37058824
0.38492647 0.38492647 0.38492647
0.40196078 0.40196078 0.40196078
0.4192402 0.4192402 0.4192402
0.43627451 0.43627451 0.43627451
0.4504902 0.4504902 0.4504902
0.46740196 0.46740196 0.46740196
0.50147059 0.50147059 0.50147059
0.53235294 0.53235294 0.53235294
0.56323529 0.56323529 0.56323529
0.59411765 0.59411765 0.59411765
0.63394608 0.63394608 0.63394608
0.65882353 0.65882353 0.65882353
0.32156863 0.32156863 0.32156863
0.32156863 0.32156863 0.32156863
0.32156863 0.32156863 0.32156863
0.325 0.325 0.325
0.32720588 0.32720588 0.32720588
0.32941176 0.32941176 0.32941176
0.33198529 0.33198529 0.33198529
0.33333333 0.33333333 0.33333333
0.34117647 0.34117647 0.34117647
0.35147059 0.35147059 0.35147059
0.35686275 0.35686275 0.35686275
0.36421569 0.36421569 0.36421569
0.37058824 0.37058824 0.37058824
0.38872549 0.38872549 0.38872549
0.4067402 0.4067402 0.4067402
0.42598039 0.42598039 0.42598039
0.44656863 0.44656863 0.44656863
0.46323529 0.46323529 0.46323529
0.48468137 0.48468137 0.48468137
0.51176471 0.51176471 0.51176471
0.54264706 0.54264706 0.54264706
0.57352941 0.57352941 0.57352941
0.60355392 0.60355392 0.60355392
0.63792892 0.63792892 0.63792892
0.65490196 0.65490196 0.65490196
0.3254902 0.3254902 0.3254902
0.3254902 0.3254902 0.3254902
0.3254902 0.3254902 0.3254902
0.32720588 0.32720588 0.32720588
0.32941176 0.32941176 0.32941176
0.33161765 0.33161765 0.33161765
0.33333333 0.33333333 0.33333333
0.3379902 0.3379902 0.3379902
0.34705882 0.34705882 0.34705882
0.35416667 0.35416667 0.35416667
0.35980392 0.35980392 0.35980392
0.36446078 0.36446078 0.36446078
0.37843137 0.37843137 0.37843137
0.39901961 0.39901961 0.39901961
0.41960784 0.41960784 0.41960784
0.43627451 0.43627451 0.43627451
0.45686275 0.45686275 0.45686275
0.47745098 0.47745098 0.47745098
0.5004902 0.5004902 0.5004902
0.52622549 0.52622549 0.52622549
0.55294118 0.55294118 0.55294118
0.57990196 0.57990196 0.57990196
0.61078431 0.61078431 0.61078431
0.6375 0.6375 0.6375
0.64705882 0.64705882 0.64705882
0.3254902 0.3254902 0.3254902
0.3254902 0.3254902 0.3254902
0.32941176 0.32941176 0.32941176
0.32941176 0.32941176 0.32941176
0.33333333 0.33333333 0.33333333
0.33339461 0.33339461 0.33339461
0.33762255 0.33762255 0.33762255
0.34656863 0.34656863 0.34656863
0.35343137 0.35343137 0.35343137
0.36341912 0.36341912 0.36341912
0.36875 0.36875 0.36875
0.37647059 0.37647059 0.37647059
0.39093137 0.39093137 0.39093137
0.40931373 0.40931373 0.40931373
0.42990196 0.42990196 0.42990196
0.44656863 0.44656863 0.44656863
0.46715686 0.46715686 0.46715686
0.4877451 0.4877451 0.4877451
0.51323529 0.51323529 0.51323529
0.54025735 0.54025735 0.54025735
0.56544118 0.56544118 0.56544118
0.590625 0.590625 0.590625
0.61727941 0.61727941 0.61727941
0.63088235 0.63088235 0.63088235
0.63480392 0.63480392 0.63480392
0.32941176 0.32941176 0.32941176
0.32941176 0.32941176 0.32941176
0.32941176 0.32941176 0.32941176
0.33321078 0.33321078 0.33321078
0.33333333 0.33333333 0.33333333
0.3372549 0.3372549 0.3372549
0.34093137 0.34093137 0.34093137
0.3504902 0.3504902 0.3504902
0.36078431 0.36078431 0.36078431
0.37009804 0.37009804 0.37009804
0.37647059 0.37647059 0.37647059
0.38933824 0.38933824 0.38933824
0.40441176 0.40441176 0.40441176
0.42218137 0.42218137 0.42218137
0.44019608 0.44019608 0.44019608
0.45686275 0.45686275 0.45686275
0.47745098 0.47745098 0.47745098
0.49803922 0.49803922 0.49803922
0.52352941 0.52352941 0.52352941
0.55098039 0.55098039 0.55098039
0.57745098 0.57745098 0.57745098
0.60428922 0.60428922 0.60428922
0.63137255 0.63137255 0.63137255
0.64117647 0.64117647 0.64117647
0.64117647 0.64117647 0.64117647
0.33480392 0.33480392 0.33480392
0.33480392 0.33480392 0.33480392
0.33333333 0.33333333 0.33333333
0.3346201 0.3346201 0.3346201
0.3372549 0.3372549 0.3372549
0.3377451 0.3377451 0.3377451
0.34558824 0.34558824 0.34558824
0.35588235 0.35588235 0.35588235
0.36617647 0.36617647 0.36617647
0.37647059 0.37647059 0.37647059
0.38713235 0.38713235 0.38713235
0.40098039 0.40098039 0.40098039
0.41789216 0.41789216 0.41789216
0.43511029 0.43511029 0.43511029
0.45257353 0.45257353 0.45257353
0.46807598 0.46807598 0.46807598
0.4877451 0.4877451 0.4877451
0.50778186 0.50778186 0.50778186
0.53382353 0.53382353 0.53382353
0.56470588 0.56470588 0.56470588
0.59166667 0.59166667 0.59166667
0.62009804 0.62009804 0.62009804
0.64767157 0.64767157 0.64767157
0.66176471 0.66176471 0.66176471
0.66323529 0.66323529 0.66323529
0.34117647 0.34117647 0.34117647
0.34117647 0.34117647 0.34117647
0.34019608 0.34019608 0.34019608
0.3372549 0.3372549 0.3372549
0.3372549 0.3372549 0.3372549
0.34166667 0.34166667 0.34166667
0.35196078 0.35196078 0.35196078
0.3622549 0.3622549 0.3622549
0.37254902 0.37254902 0.37254902
0.38284314 0.38284314 0.38284314
0.39705882 0.39705882 0.39705882
0.41470588 0.41470588 0.41470588
0.43137255 0.43137255 0.43137255
0.44803922 0.44803922 0.44803922
0.46568627 0.46568627 0.46568627
0.48137255 0.48137255 0.48137255
0.49803922 0.49803922 0.49803922
0.51715686 0.51715686 0.51715686
0.54411765 0.54411765 0.54411765
0.575 0.575 0.575
0.60784314 0.60784314 0.60784314
0.63676471 0.63676471 0.63676471
0.66470588 0.66470588 0.66470588
0.68382353 0.68382353 0.68382353
0.68627451 0.68627451 0.68627451
0.35147059 0.35147059 0.35147059
0.35147059 0.35147059 0.35147059
0.34754902 0.34754902 0.34754902
0.34381127 0.34381127 0.34381127
0.34117647 0.34117647 0.34117647
0.34411765 0.34411765 0.34411765
0.35441176 0.35441176 0.35441176
0.36617647 0.36617647 0.36617647
0.37647059 0.37647059 0.37647059
0.38829657 0.38829657 0.38829657
0.40441176 0.40441176 0.40441176
0.425 0.425 0.425
0.44166667 0.44166667 0.44166667
0.46207108 0.46207108 0.46207108
0.47892157 0.47892157 0.47892157
0.49503676 0.49503676 0.49503676
0.51470588 0.51470588 0.51470588
0.53529412 0.53529412 0.53529412
0.56188725 0.56188725 0.56188725
0.59313725 0.59313725 0.59313725
0.62647059 0.62647059 0.62647059
0.65735294 0.65735294 0.65735294
0.68468137 0.68468137 0.68468137
0.70441176 0.70441176 0.70441176
0.71078431 0.71078431 0.71078431
0.36176471 0.36176471 0.36176471
0.35784314 0.35784314 0.35784314
0.35392157 0.35392157 0.35392157
0.3504902 0.3504902 0.3504902
0.34803922 0.34803922 0.34803922
0.35036765 0.35036765 0.35036765
0.35980392 0.35980392 0.35980392
0.37009804 0.37009804 0.37009804
0.38039216 0.38039216 0.38039216
0.39411765 0.39411765 0.39411765
0.41470588 0.41470588 0.41470588
0.43443627 0.43443627 0.43443627
0.45196078 0.45196078 0.45196078
0.47352941 0.47352941 0.47352941
0.49730392 0.49730392 0.49730392
0.51960784 0.51960784 0.51960784
0.54019608 0.54019608 0.54019608
0.56262255 0.56262255 0.56262255
0.58602941 0.58602941 0.58602941
0.61360294 0.61360294 0.61360294
0.64313725 0.64313725 0.64313725
0.67401961 0.67401961 0.67401961
0.70416667 0.70416667 0.70416667
0.725 0.725 0.725
0.73529412 0.73529412 0.73529412
0.36813725 0.36813725 0.36813725
0.36813725 0.36813725 0.36813725
0.36421569 0.36421569 0.36421569
0.36078431 0.36078431 0.36078431
0.36029412 0.36029412 0.36029412
0.36029412 0.36029412 0.36029412
0.36458333 0.36458333 0.36458333
0.37401961 0.37401961 0.37401961
0.38431373 0.38431373 0.38431373
0.40441176 0.40441176 0.40441176
0.42144608 0.42144608 0.42144608
0.44166667 0.44166667 0.44166667
0.4622549 0.4622549 0.4622549
0.49068627 0.49068627 0.49068627
0.52414216 0.52414216 0.52414216
0.5504902 0.5504902 0.5504902
0.57107843 0.57107843 0.57107843
0.59166667 0.59166667 0.59166667
0.61360294 0.61360294 0.61360294
0.64025735 0.64025735 0.64025735
0.66740196 0.66740196 0.66740196
0.69460784 0.69460784 0.69460784
0.72254902 0.72254902 0.72254902
0.74558824 0.74558824 0.74558824
0.75980392 0.75980392 0.75980392
0.37843137 0.37843137 0.37843137
0.37843137 0.37843137 0.37843137
0.3745098 0.3745098 0.3745098
0.37279412 0.37279412 0.37279412
0.37058824 0.37058824 0.37058824
0.36666667 0.36666667 0.36666667
0.36813725 0.36813725 0.36813725
0.37867647 0.37867647 0.37867647
0.39411765 0.39411765 0.39411765
0.41470588 0.41470588 0.41470588
0.43039216 0.43039216 0.43039216
0.44803922 0.44803922 0.44803922
0.47647059 0.47647059 0.47647059
0.51176471 0.51176471 0.51176471
0.5495098 0.5495098 0.5495098
0.58014706 0.58014706 0.58014706
0.60196078 0.60196078 0.60196078
0.61862745 0.61862745 0.61862745
0.64313725 0.64313725 0.64313725
0.66740196 0.66740196 0.66740196
0.69117647 0.69117647 0.69117647
0.71691176 0.71691176 0.71691176
0.74313725 0.74313725 0.74313725
0.7629902 0.7629902 0.7629902
0.7745098 0.7745098 0.7745098
0.39705882 0.39705882 0.39705882
0.39283088 0.39283088 0.39283088
0.38909314 0.38909314 0.38909314
0.38529412 0.38529412 0.38529412
0.38137255 0.38137255 0.38137255
0.37738971 0.37738971 0.37738971
0.37352941 0.37352941 0.37352941
0.3877451 0.3877451 0.3877451
0.40441176 0.40441176 0.40441176
0.42254902 0.42254902 0.42254902
0.44031863 0.44031863 0.44031863
0.45833333 0.45833333 0.45833333
0.49264706 0.49264706 0.49264706
0.52794118 0.52794118 0.52794118
0.56617647 0.56617647 0.56617647
0.60098039 0.60098039 0.60098039
0.62843137 0.62843137 0.62843137
0.64932598 0.64932598 0.64932598
0.67095588 0.67095588 0.67095588
0.69460784 0.69460784 0.69460784
0.71887255 0.71887255 0.71887255
0.74313725 0.74313725 0.74313725
0.76335784 0.76335784 0.76335784
0.77843137 0.77843137 0.77843137
0.78872549 0.78872549 0.78872549
0.41764706 0.41764706 0.41764706
0.41127451 0.41127451 0.41127451
0.40661765 0.40661765 0.40661765
0.40208333 0.40208333 0.40208333
0.39852941 0.39852941 0.39852941
0.39497549 0.39497549 0.39497549
0.39411765 0.39411765 0.39411765
0.39987745 0.39987745 0.39987745
0.41470588 0.41470588 0.41470588
0.43284314 0.43284314 0.43284314
0.45171569 0.45171569 0.45171569
0.475 0.475 0.475
0.50637255 0.50637255 0.50637255
0.54080882 0.54080882 0.54080882
0.57573529 0.57573529 0.57573529
0.61127451 0.61127451 0.61127451
0.64509804 0.64509804 0.64509804
0.67205882 0.67205882 0.67205882
0.69803922 0.69803922 0.69803922
0.72156863 0.72156863 0.72156863
0.74313725 0.74313725 0.74313725
0.76066176 0.76066176 0.76066176
0.77818627 0.77818627 0.77818627
0.79203431 0.79203431 0.79203431
0.79901961 0.79901961 0.79901961
0.43823529 0.43823529 0.43823529
0.4348652 0.4348652 0.4348652
0.42757353 0.42757353 0.42757353
0.42254902 0.42254902 0.42254902
0.41862745 0.41862745 0.41862745
0.41470588 0.41470588 0.41470588
0.41801471 0.41801471 0.41801471
0.42101716 0.42101716 0.42101716
0.42647059 0.42647059 0.42647059
0.44166667 0.44166667 0.44166667
0.46262255 0.46262255 0.46262255
0.49019608 0.49019608 0.49019608
0.52107843 0.52107843 0.52107843
0.55343137 0.55343137 0.55343137
0.58676471 0.58676471 0.58676471
0.62156863 0.62156863 0.62156863
0.65490196 0.65490196 0.65490196
0.68817402 0.68817402 0.68817402
0.71862745 0.71862745 0.71862745
0.74166667 0.74166667 0.74166667
0.75906863 0.75906863 0.75906863
0.77628676 0.77628676 0.77628676
0.79166667 0.79166667 0.79166667
0.80349265 0.80349265 0.80349265
0.81323529 0.81323529 0.81323529
0.45882353 0.45882353 0.45882353
0.45882353 0.45882353 0.45882353
0.45392157 0.45392157 0.45392157
0.44754902 0.44754902 0.44754902
0.44509804 0.44509804 0.44509804
0.44264706 0.44264706 0.44264706
0.43921569 0.43921569 0.43921569
0.44313725 0.44313725 0.44313725
0.44705882 0.44705882 0.44705882
0.45343137 0.45343137 0.45343137
0.47352941 0.47352941 0.47352941
0.50441176 0.50441176 0.50441176
0.53529412 0.53529412 0.53529412
0.57009804 0.57009804 0.57009804
0.60098039 0.60098039 0.60098039
0.63186275 0.63186275 0.63186275
0.66666667 0.66666667 0.66666667
0.70147059 0.70147059 0.70147059
0.73235294 0.73235294 0.73235294
0.75588235 0.75588235 0.75588235
0.77254902 0.77254902 0.77254902
0.78921569 0.78921569 0.78921569
0.80294118 0.80294118 0.80294118
0.81715686 0.81715686 0.81715686
0.82745098 0.82745098 0.82745098
0.48578431 0.48578431 0.48578431
0.48425245 0.48425245 0.48425245
0.48186275 0.48186275 0.48186275
0.47843137 0.47843137 0.47843137
0.47401961 0.47401961 0.47401961
0.47009804 0.47009804 0.47009804
0.46715686 0.46715686 0.46715686
0.46372549 0.46372549 0.46372549
0.46372549 0.46372549 0.46372549
0.46764706 0.46764706 0.46764706
0.49019608 0.49019608 0.49019608
0.52107843 0.52107843 0.52107843
0.55196078 0.55196078 0.55196078
0.58676471 0.58676471 0.58676471
0.61764706 0.61764706 0.61764706
0.64761029 0.64761029 0.64761029
0.67941176 0.67941176 0.67941176
0.71421569 0.71421569 0.71421569
0.74558824 0.74558824 0.74558824
0.76617647 0.76617647 0.76617647
0.78480392 0.78480392 0.78480392
0.80165441 0.80165441 0.80165441
0.81715686 0.81715686 0.81715686
0.83137255 0.83137255 0.83137255
0.84166667 0.84166667 0.84166667
0.51666667 0.51666667 0.51666667
0.51372549 0.51372549 0.51372549
0.51348039 0.51348039 0.51348039
0.50980392 0.50980392 0.50980392
0.50588235 0.50588235 0.50588235
0.50196078 0.50196078 0.50196078
0.49877451 0.49877451 0.49877451
0.49313725 0.49313725 0.49313725
0.48529412 0.48529412 0.48529412
0.48431373 0.48431373 0.48431373
0.50686275 0.50686275 0.50686275
0.5377451 0.5377451 0.5377451
0.57254902 0.57254902 0.57254902
0.60343137 0.60343137 0.60343137
0.63431373 0.63431373 0.63431373
0.66519608 0.66519608 0.66519608
0.69607843 0.69607843 0.69607843
0.72879902 0.72879902 0.72879902
0.75980392 0.75980392 0.75980392
0.78039216 0.78039216 0.78039216
0.79558824 0.79558824 0.79558824
0.81323529 0.81323529 0.81323529
0.82745098 0.82745098 0.82745098
0.84375 0.84375 0.84375
0.85588235 0.85588235 0.85588235
0.55490196 0.55490196 0.55490196
0.55490196 0.55490196 0.55490196
0.55134804 0.55134804 0.55134804
0.54754902 0.54754902 0.54754902
0.54338235 0.54338235 0.54338235
0.53964461 0.53964461 0.53964461
0.53541667 0.53541667 0.53541667
0.52647059 0.52647059 0.52647059
0.51960784 0.51960784 0.51960784
0.51568627 0.51568627 0.51568627
0.53088235 0.53088235 0.53088235
0.56219363 0.56219363 0.56219363
0.59313725 0.59313725 0.59313725
0.62401961 0.62401961 0.62401961
0.65490196 0.65490196 0.65490196
0.68578431 0.68578431 0.68578431
0.7127451 0.7127451 0.7127451
0.74393382 0.74393382 0.74393382
0.77365196 0.77365196 0.77365196
0.79411765 0.79411765 0.79411765
0.80906863 0.80906863 0.80906863
0.82395833 0.82395833 0.82395833
0.84068627 0.84068627 0.84068627
0.85588235 0.85588235 0.85588235
0.86617647 0.86617647 0.86617647
0.59607843 0.59607843 0.59607843
0.59289216 0.59289216 0.59289216
0.58970588 0.58970588 0.58970588
0.58455882 0.58455882 0.58455882
0.58137255 0.58137255 0.58137255
0.57990196 0.57990196 0.57990196
0.56960784 0.56960784 0.56960784
0.56323529 0.56323529 0.56323529
0.55686275 0.55686275 0.55686275
0.55294118 0.55294118 0.55294118
0.55686275 0.55686275 0.55686275
0.58455882 0.58455882 0.58455882
0.61568627 0.61568627 0.61568627
0.64632353 0.64632353 0.64632353
0.6754902 0.6754902 0.6754902
0.70637255 0.70637255 0.70637255
0.73333333 0.73333333 0.73333333
0.76421569 0.76421569 0.76421569
0.79019608 0.79019608 0.79019608
0.80906863 0.80906863 0.80906863
0.8245098 0.8245098 0.8245098
0.83995098 0.83995098 0.83995098
0.85539216 0.85539216 0.85539216
0.86617647 0.86617647 0.86617647
0.8745098 0.8745098 0.8745098
0.6377451 0.6377451 0.6377451
0.63382353 0.63382353 0.63382353
0.62892157 0.62892157 0.62892157
0.62598039 0.62598039 0.62598039
0.62205882 0.62205882 0.62205882
0.62205882 0.62205882 0.62205882
0.61519608 0.61519608 0.61519608
0.60900735 0.60900735 0.60900735
0.60294118 0.60294118 0.60294118
0.59901961 0.59901961 0.59901961
0.59901961 0.59901961 0.59901961
0.61188725 0.61188725 0.61188725
0.64240196 0.64240196 0.64240196
0.66960784 0.66960784 0.66960784
0.70012255 0.70012255 0.70012255
0.72959559 0.72959559 0.72959559
0.75784314 0.75784314 0.75784314
0.78235294 0.78235294 0.78235294
0.80686275 0.80686275 0.80686275
0.82702206 0.82702206 0.82702206
0.84191176 0.84191176 0.84191176
0.85588235 0.85588235 0.85588235
0.86617647 0.86617647 0.86617647
0.87628676 0.87628676 0.87628676
0.88235294 0.88235294 0.88235294
0.69215686 0.69215686 0.69215686
0.68860294 0.68860294 0.68860294
0.68357843 0.68357843 0.68357843
0.67781863 0.67781863 0.67781863
0.675 0.675 0.675
0.67352941 0.67352941 0.67352941
0.66960784 0.66960784 0.66960784
0.66715686 0.66715686 0.66715686
0.66078431 0.66078431 0.66078431
0.65833333 0.65833333 0.65833333
0.65686275 0.65686275 0.65686275
0.65772059 0.65772059 0.65772059
0.67156863 0.67156863 0.67156863
0.70012255 0.70012255 0.70012255
0.72745098 0.72745098 0.72745098
0.75330882 0.75330882 0.75330882
0.77843137 0.77843137 0.77843137
0.80294118 0.80294118 0.80294118
0.82745098 0.82745098 0.82745098
0.8442402 0.8442402 0.8442402
0.85588235 0.85588235 0.85588235
0.86617647 0.86617647 0.86617647
0.87647059 0.87647059 0.87647059
0.88284314 0.88284314 0.88284314
0.88921569 0.88921569 0.88921569
0.74068627 0.74068627 0.74068627
0.74068627 0.74068627 0.74068627
0.73970588 0.73970588 0.73970588
0.73333333 0.73333333 0.73333333
0.73161765 0.73161765 0.73161765
0.72892157 0.72892157 0.72892157
0.72536765 0.72536765 0.72536765
0.72254902 0.72254902 0.72254902
0.72254902 0.72254902 0.72254902
0.71954657 0.71954657 0.71954657
0.71654412 0.71654412 0.71654412
0.71470588 0.71470588 0.71470588
0.71593137 0.71593137 0.71593137
0.72726716 0.72726716 0.72726716
0.75294118 0.75294118 0.75294118
0.77843137 0.77843137 0.77843137
0.80294118 0.80294118 0.80294118
0.82444853 0.82444853 0.82444853
0.84705882 0.84705882 0.84705882
0.85980392 0.85980392 0.85980392
0.86936275 0.86936275 0.86936275
0.87628676 0.87628676 0.87628676
0.88284314 0.88284314 0.88284314
0.88921569 0.88921569 0.88921569
0.89558824 0.89558824 0.89558824
0.77647059 0.77647059 0.77647059
0.77647059 0.77647059 0.77647059
0.77647059 0.77647059 0.77647059
0.77647059 0.77647059 0.77647059
0.77647059 0.77647059 0.77647059
0.77598039 0.77598039 0.77598039
0.77254902 0.77254902 0.77254902
0.76862745 0.76862745 0.76862745
0.76862745 0.76862745 0.76862745
0.76862745 0.76862745 0.76862745
0.76470588 0.76470588 0.76470588
0.76470588 0.76470588 0.76470588
0.76078431 0.76078431 0.76078431
0.76078431 0.76078431 0.76078431
0.77058824 0.77058824 0.77058824
0.79656863 0.79656863 0.79656863
0.81960784 0.81960784 0.81960784
0.84411765 0.84411765 0.84411765
0.85980392 0.85980392 0.85980392
0.87009804 0.87009804 0.87009804
0.87647059 0.87647059 0.87647059
0.88284314 0.88284314 0.88284314
0.88921569 0.88921569 0.88921569
0.89558824 0.89558824 0.89558824
0.90196078 0.90196078 0.90196078
0.31764706 0.31764706 0.31764706
0.31764706 0.31764706 0.31764706
0.31764706 0.31764706 0.31764706
0.31764706 0.31764706 0.31764706
0.31691176 0.31691176 0.31691176
0.32205882 0.32205882 0.32205882
0.32843137 0.32843137 0.32843137
0.33480392 0.33480392 0.33480392
0.34509804 0.34509804 0.34509804
0.35147059 0.35147059 0.35147059
0.35784314 0.35784314 0.35784314
0.36470588 0.36470588 0.36470588
0.3745098 0.3745098 0.3745098
0.38088235 0.38088235 0.38088235
0.39117647 0.39117647 0.39117647
0.40686275 0.40686275 0.40686275
0.42745098 0.42745098 0.42745098
0.44803922 0.44803922 0.44803922
0.46960784 0.46960784 0.46960784
0.49920343 0.49920343 0.49920343
0.52745098 0.52745098 0.52745098
0.55833333 0.55833333 0.55833333
0.58921569 0.58921569 0.58921569
0.62794118 0.62794118 0.62794118
0.65245098 0.65245098 0.65245098
0.32101716 0.32101716 0.32101716
0.32009804 0.32009804 0.32009804
0.31917892 0.31917892 0.31917892
0.31917892 0.31917892 0.31917892
0.32009804 0.32009804 0.32009804
0.32420343 0.32420343 0.32420343
0.32941176 0.32941176 0.32941176
0.33480392 0.33480392 0.33480392
0.34209559 0.34209559 0.34209559
0.35147059 0.35147059 0.35147059
0.35784314 0.35784314 0.35784314
0.36459099 0.36459099 0.36459099
0.37377451 0.37377451 0.37377451
0.38088235 0.38088235 0.38088235
0.39473039 0.39473039 0.39473039
0.41231618 0.41231618 0.41231618
0.43082108 0.43082108 0.43082108
0.44803922 0.44803922 0.44803922
0.4692402 0.4692402 0.4692402
0.49901961 0.49901961 0.49901961
0.53036152 0.53036152 0.53036152
0.5598652 0.5598652 0.5598652
0.59074755 0.59074755 0.59074755
0.62886029 0.62886029 0.62886029
0.65490196 0.65490196 0.65490196
0.32156863 0.32156863 0.32156863
0.32156863 0.32156863 0.32156863
0.32156863 0.32156863 0.32156863
0.32156863 0.32156863 0.32156863
0.32401961 0.32401961 0.32401961
0.32844669 0.32844669 0.32844669
0.33125 0.33125 0.33125
0.33466605 0.33466605 0.33466605
0.34117647 0.34117647 0.34117647
0.35147059 0.35147059 0.35147059
0.35784314 0.35784314 0.35784314
0.36421569 0.36421569 0.36421569
0.37359069 0.37359069 0.37359069
0.38492647 0.38492647 0.38492647
