site/assets/luts/sha256-c740f5b1e7b546a65c1383d0fbecddd936104726b1e08627399798b13f27cf43.cube
# LUTr-Schema-Version: 2
# LUTr-ID: sha256-c740f5b1e7b546a65c1383d0fbecddd936104726b1e08627399798b13f27cf43
# LUTr-Title: fuji provia 400x
# LUTr-Collection: Natron HaldCLUT
# LUTr-Collection-ID: natron-haldclut-presets
# LUTr-Source: https://github.com/NatronGitHub/clut
# LUTr-Retrieved: 2026-07-27
# LUTr-Source-File: submissions/natron-haldclut-presets/colorslide/fuji_provia_400x.png
# LUTr-Source-Format: HALD-PNG
# LUTr-Source-SHA256: c740f5b1e7b546a65c1383d0fbecddd936104726b1e08627399798b13f27cf43
# LUTr-License: CC-BY-SA-4.0
# LUTr-License-URL: https://github.com/NatronGitHub/clut#license
# LUTr-License-Basis: repo-license-file
# LUTr-Transform-Class: film-emulation
# LUTr-Tags: creative, film, film-emulation, hald-clut, natron, png, cube
# LUTr-Input-Color-Space: srgb
# LUTr-Input-Gamut: rec709
# LUTr-Input-Transfer: srgb
# LUTr-Output-Color-Space: srgb
# LUTr-Output-Gamut: rec709
# LUTr-Output-Transfer: srgb
# LUTr-Color-Space-Confidence: assumed-display-referred
# LUTr-Domain-Normalized: true
# LUTr-Shaper: none
# LUTr-Original-Grid: 64x64x64
# LUTr-Conversion-Grid: 25x25x25
# LUTr-Conversion-Interpolation: trilinear
# LUTr-Conversion-Method: HALD-PNG LUT image decoded at 16-bit and sampled to 25x25x25 3D CUBE
# LUTr-Conversion-Tool: LUTr scripts/convert-all-to-cube.mjs 2.0.0
# LUTr-Conversion-Date: 2026-07-27
# LUTr-Note: Preserve this metadata and the upstream license notices when redistributing.
TITLE "fuji provia 400x"
LUT_3D_SIZE 5
DOMAIN_MIN 0 0 0
DOMAIN_MAX 1 1 1
0.0078431373 0.015686275 0.011764706
0.25490196 0.0039215686 0.024509804
0.56470588 0.0058823529 0.02745098
0.86666667 0.025490196 0.010784314
0.99215686 0.011764706 0.0078431373
0.1 0.25784314 0.081372549
0.25710784 0.25784314 0.080392157
0.58970588 0.23431373 0.071078431
0.88210784 0.21372549 0.052941176
0.99607843 0.14509804 0.034313725
0.0098039216 0.54509804 0.14313725
0.21372549 0.54215686 0.13431373
0.60784314 0.52352941 0.13137255
0.90980392 0.51323529 0.11372549
1 0.49607843 0.049019608
0.0029411765 0.76372549 0.10392157
0.16102941 0.75612745 0.1
0.63627451 0.74803922 0.10882353
0.93921569 0.74117647 0.073284314
1 0.73627451 0.058823529
0 0.96078431 0.015686275
0.020588235 0.95098039 0
0.57647059 0.98039216 0.0019607843
0.95392157 0.97254902 0.0068627451
1 0.99215686 0
0.02745098 0.034313725 0.17745098
0.21666667 0.0017156863 0.16593137
0.51666667 0.0078431373 0.16813725
0.79803922 0.0078431373 0.14019608
0.99607843 0 0.083333333
0.059068627 0.22818627 0.22377451
0.22022059 0.22481618 0.21960784
0.54558824 0.20306373 0.21973039
0.82371324 0.17273284 0.18823529
0.98504902 0.14338235 0.15514706
0.00098039216 0.52990196 0.26764706
0.14901961 0.52401961 0.275
0.56176471 0.50833333 0.26813725
0.85134804 0.50588235 0.24509804
1 0.4872549 0.19558824
0 0.75686275 0.27720588
0.065992647 0.75367647 0.28553922
0.57953431 0.74803922 0.27990196
0.88584559 0.73946078 0.24117647
1 0.73406863 0.19779412
0 0.98921569 0.076470588
0.00098039216 0.99264706 0.058823529
0.53186275 0.98235294 0.056372549
0.93406863 0.96862745 0.049264706
1 0.98137255 0.017647059
0.011764706 0.0039215686 0.34705882
0.18186275 0.0039215686 0.34705882
0.46372549 0.0019607843 0.34019608
0.71764706 0.00098039216 0.32941176
0.95490196 0 0.27843137
0.041666667 0.16568627 0.40098039
0.17683824 0.16568627 0.40784314
0.47769608 0.14240196 0.40343137
0.72892157 0.1127451 0.39215686
0.95490196 0.073529412 0.35490196
0.012745098 0.48627451 0.47843137
0.062254902 0.49852941 0.48553922
0.48382353 0.4872549 0.49019608
0.75514706 0.46544118 0.47745098
0.9745098 0.4254902 0.45294118
0.0024509804 0.74117647 0.52745098
0.023406863 0.74154412 0.52781863
0.475 0.73480392 0.53382353
0.76764706 0.72659314 0.52034314
0.98431373 0.71372549 0.49901961
0 0.93921569 0.53333333
0.020588235 0.95637255 0.4995098
0.3 0.96666667 0.50588235
0.75637255 0.96323529 0.48284314
0.97254902 0.96666667 0.40784314
0.015686275 0 0.5
0.18063725 0 0.50392157
0.41568627 0 0.51617647
0.63921569 0 0.51176471
0.88431373 0 0.48921569
0.069607843 0.062745098 0.54607843
0.20526961 0.054901961 0.55
0.44411765 0.044485294 0.55
0.64865196 0.01060049 0.55
0.83823529 0.0068627451 0.53823529
0.015686275 0.43333333 0.62745098
0.21286765 0.43333333 0.63137255
0.47843137 0.40612745 0.62867647
0.69656863 0.3872549 0.62892157
0.92107843 0.34411765 0.61813725
0.0039215686 0.71764706 0.69387255
0.07567402 0.7120098 0.69258578
0.45379902 0.70882353 0.69313725
0.69705882 0.70042892 0.69705882
0.92058824 0.68627451 0.68921569
0 0.98529412 0.7245098
0.006127451 0.97426471 0.72745098
0.13137255 0.98137255 0.72843137
0.63382353 0.98504902 0.72916667
0.99019608 0.97941176 0.71666667
0.011764706 0 0.60784314
0.23235294 0 0.63529412
0.42941176 0 0.63921569
0.61764706 0 0.64313725
0.80392157 0 0.64705882
0.1627451 0.0068627451 0.65392157
0.25588235 0.0078431373 0.65784314
0.43333333 0.0073529412 0.64656863
0.61838235 0.010784314 0.65563725
0.79705882 0.0039215686 0.65196078
0.25686275 0.27254902 0.7372549
0.32843137 0.27058824 0.73676471
0.48235294 0.25784314 0.73333333
0.65931373 0.21813725 0.74117647
0.85490196 0.17254902 0.71960784
0.18235294 0.66666667 0.82058824
0.31078431 0.65196078 0.83602941
0.48431373 0.6495098 0.83480392
0.68063725 0.64068627 0.83333333
0.91470588 0.63529412 0.81764706
0 0.96470588 0.89019608
0.011764706 0.97941176 0.89705882
0.2372549 0.95686275 0.91764706
0.58137255 0.96372549 0.89803922
0.96470588 0.96862745 0.9372549
