site/assets/luts/sha256-570e3a7f574d669129b97a27b7c76ac9bfc38c0ffb543437824514076f75e2eb.cube
# LUTr-Schema-Version: 2
# LUTr-ID: sha256-570e3a7f574d669129b97a27b7c76ac9bfc38c0ffb543437824514076f75e2eb
# LUTr-Title: summer
# LUTr-Collection: Natron HaldCLUT
# LUTr-Collection-ID: natron-haldclut-presets
# LUTr-Source: https://github.com/NatronGitHub/clut
# LUTr-Retrieved: 2026-07-27
# LUTr-Source-File: submissions/natron-haldclut-presets/various/summer.png
# LUTr-Source-Format: HALD-PNG
# LUTr-Source-SHA256: 570e3a7f574d669129b97a27b7c76ac9bfc38c0ffb543437824514076f75e2eb
# LUTr-License: CC-BY-SA-4.0
# LUTr-License-URL: https://github.com/NatronGitHub/clut#license
# LUTr-License-Basis: repo-license-file
# LUTr-Transform-Class: film-emulation
# LUTr-Tags: creative, film, film-emulation, hald-clut, natron, png, cube
# LUTr-Input-Color-Space: srgb
# LUTr-Input-Gamut: rec709
# LUTr-Input-Transfer: srgb
# LUTr-Output-Color-Space: srgb
# LUTr-Output-Gamut: rec709
# LUTr-Output-Transfer: srgb
# LUTr-Color-Space-Confidence: assumed-display-referred
# LUTr-Domain-Normalized: true
# LUTr-Shaper: none
# LUTr-Original-Grid: 64x64x64
# LUTr-Conversion-Grid: 25x25x25
# LUTr-Conversion-Interpolation: trilinear
# LUTr-Conversion-Method: HALD-PNG LUT image decoded at 16-bit and sampled to 25x25x25 3D CUBE
# LUTr-Conversion-Tool: LUTr scripts/convert-all-to-cube.mjs 2.0.0
# LUTr-Conversion-Date: 2026-07-27
# LUTr-Note: Preserve this metadata and the upstream license notices when redistributing.
TITLE "summer"
LUT_3D_SIZE 5
DOMAIN_MIN 0 0 0
DOMAIN_MAX 1 1 1
0.24705882 0.0039215686 0.24313725
0.43627451 0.02745098 0.26764706
0.61764706 0.023529412 0.25490196
0.80294118 0.016666667 0.26666667
0.98039216 0.0039215686 0.25098039
0.26666667 0.25098039 0.28235294
0.43627451 0.23921569 0.28014706
0.61764706 0.24313725 0.26666667
0.81078431 0.24705882 0.28235294
0.98137255 0.24313725 0.26568627
0.25686275 0.50196078 0.25294118
0.43235294 0.50196078 0.26421569
0.61764706 0.49411765 0.25
0.8127451 0.49068627 0.30392157
0.98235294 0.49411765 0.26470588
0.25294118 0.74803922 0.25
0.43235294 0.74509804 0.25
0.61372549 0.74509804 0.28872549
0.80269608 0.74509804 0.24877451
0.96078431 0.74117647 0.28235294
0.29803922 0.98039216 0.25490196
0.44411765 0.96078431 0.28921569
0.6254902 0.97254902 0.28823529
0.80294118 0.97254902 0.29901961
0.99607843 0.98823529 0.25098039
0.29411765 0.066666667 0.37843137
0.43235294 0.039215686 0.37843137
0.61372549 0.050980392 0.3745098
0.80392157 0.047058824 0.37818627
0.96372549 0.024509804 0.3745098
0.2745098 0.24705882 0.3745098
0.43235294 0.23921569 0.3745098
0.61801471 0.23982843 0.37843137
0.80686275 0.25490196 0.37843137
0.96838235 0.24705882 0.3745098
0.27598039 0.50588235 0.36666667
0.42843137 0.49803922 0.3745098
0.61764706 0.48235294 0.37058824
0.81078431 0.49019608 0.37058824
0.96323529 0.48627451 0.37058824
0.27058824 0.74117647 0.37058824
0.43627451 0.74901961 0.37058824
0.61764706 0.74154412 0.36985294
0.79957108 0.74117647 0.37058824
0.97941176 0.73823529 0.37058824
0.26470588 0.97843137 0.37058824
0.44019608 0.96862745 0.37058824
0.6254902 0.95735294 0.37058824
0.80686275 0.96960784 0.37058824
0.98333333 0.97843137 0.37058824
0.3 0.017647059 0.49803922
0.43235294 0.038235294 0.49509804
0.61764706 0.050980392 0.49411765
0.80490196 0.039215686 0.49803922
0.93921569 0.015686275 0.49803922
0.26960784 0.24362745 0.49411765
0.4245098 0.24754902 0.49411765
0.60980392 0.25 0.49411765
0.79901961 0.25098039 0.49411765
0.97598039 0.25098039 0.49411765
0.27843137 0.50196078 0.48627451
0.43235294 0.49411765 0.49313725
0.61372549 0.49460784 0.49166667
0.79901961 0.49803922 0.49093137
0.96960784 0.49019608 0.49019608
0.29558824 0.74117647 0.49019608
0.44019608 0.74509804 0.48676471
0.61764706 0.74509804 0.4872549
0.80294118 0.74117647 0.49019608
0.97941176 0.74117647 0.49411765
0.27647059 0.95294118 0.49215686
0.44019608 0.96715686 0.49019608
0.62941176 0.95 0.49803922
0.81078431 0.97303922 0.49411765
0.96862745 0.97647059 0.49803922
0.28921569 0.033333333 0.61764706
0.42843137 0.053921569 0.62156863
0.61372549 0.02254902 0.61764706
0.80686275 0.012745098 0.61666667
0.97745098 0.02745098 0.61764706
0.26593137 0.25098039 0.61764706
0.42843137 0.25355392 0.61764706
0.61397059 0.24313725 0.62156863
0.79601716 0.24148284 0.61372549
0.96862745 0.24313725 0.61764706
0.25343137 0.49411765 0.61372549
0.43272059 0.49803922 0.62156863
0.60980392 0.48627451 0.6125
0.79117647 0.49019608 0.60943627
0.96078431 0.49019608 0.60980392
0.28651961 0.74117647 0.61764706
0.42916667 0.74117647 0.60980392
0.60588235 0.7372549 0.60980392
0.79117647 0.72941176 0.61709559
0.97352941 0.74117647 0.61764706
0.25490196 0.9754902 0.61764706
0.43627451 0.95122549 0.62156863
0.62156863 0.94656863 0.62156863
0.80612745 0.94901961 0.62377451
0.94901961 0.97745098 0.61764706
0.24705882 0.0039215686 0.74117647
0.42843137 0.037254902 0.71078431
0.61372549 0.019607843 0.72941176
0.80686275 0.02745098 0.68235294
0.98823529 0.0078431373 0.73333333
0.26078431 0.25882353 0.6872549
0.43627451 0.24705882 0.71764706
0.61372549 0.23578431 0.70686275
0.79534314 0.23921569 0.71372549
0.98529412 0.24411765 0.74117647
0.2745098 0.5 0.73529412
0.44117647 0.49019608 0.71372549
0.61176471 0.4745098 0.71666667
0.79117647 0.47843137 0.70833333
0.98235294 0.49411765 0.72941176
0.30490196 0.74509804 0.70686275
0.43235294 0.7372549 0.71764706
0.61372549 0.73578431 0.73382353
0.79117647 0.72941176 0.72156863
0.96470588 0.73333333 0.70588235
0.24705882 0.98823529 0.74117647
0.43627451 0.92941176 0.73235294
0.62156863 0.94117647 0.73333333
0.80294118 0.95490196 0.72843137
0.99215686 0.98823529 0.74117647
