site/assets/luts/sha256-bd040f24477d1e58881951a99c2af45cc812c3c561af66c26cc12a0bada9e1e2.cube
# LUTr-Schema-Version: 2
# LUTr-ID: sha256-bd040f24477d1e58881951a99c2af45cc812c3c561af66c26cc12a0bada9e1e2
# LUTr-Title: fuji fp-100c negative
# LUTr-Collection: Natron HaldCLUT
# LUTr-Collection-ID: natron-haldclut-presets
# LUTr-Source: https://github.com/NatronGitHub/clut
# LUTr-Retrieved: 2026-07-27
# LUTr-Source-File: submissions/natron-haldclut-presets/instant_pro/fuji_fp-100c_negative.png
# LUTr-Source-Format: HALD-PNG
# LUTr-Source-SHA256: bd040f24477d1e58881951a99c2af45cc812c3c561af66c26cc12a0bada9e1e2
# LUTr-License: CC-BY-SA-4.0
# LUTr-License-URL: https://github.com/NatronGitHub/clut#license
# LUTr-License-Basis: repo-license-file
# LUTr-Transform-Class: film-emulation
# LUTr-Tags: creative, film, film-emulation, hald-clut, natron, png, cube
# LUTr-Input-Color-Space: srgb
# LUTr-Input-Gamut: rec709
# LUTr-Input-Transfer: srgb
# LUTr-Output-Color-Space: srgb
# LUTr-Output-Gamut: rec709
# LUTr-Output-Transfer: srgb
# LUTr-Color-Space-Confidence: assumed-display-referred
# LUTr-Domain-Normalized: true
# LUTr-Shaper: none
# LUTr-Original-Grid: 64x64x64
# LUTr-Conversion-Grid: 25x25x25
# LUTr-Conversion-Interpolation: trilinear
# LUTr-Conversion-Method: HALD-PNG LUT image decoded at 16-bit and sampled to 25x25x25 3D CUBE
# LUTr-Conversion-Tool: LUTr scripts/convert-all-to-cube.mjs 2.0.0
# LUTr-Conversion-Date: 2026-07-27
# LUTr-Note: Preserve this metadata and the upstream license notices when redistributing.
TITLE "fuji fp-100c negative"
LUT_3D_SIZE 9
DOMAIN_MIN 0 0 0
DOMAIN_MAX 1 1 1
0.054901961 0.10588235 0.082352941
0.054901961 0.10196078 0.078431373
0.12941176 0.10196078 0.078431373
0.24607843 0.089215686 0.074509804
0.44705882 0.037254902 0.070588235
0.65196078 0.032352941 0.074509804
0.8 0.042156863 0.089215686
0.92745098 0.2495098 0.091176471
1 0.40784314 0.16470588
0.054411765 0.10980392 0.08627451
0.066176471 0.11372549 0.082352941
0.14080882 0.11323529 0.081985294
0.27518382 0.10949755 0.078431373
0.47181373 0.073039216 0.074754902
0.65802696 0.075367647 0.073284314
0.80392157 0.15980392 0.063235294
0.92738971 0.29993873 0.097242647
0.99558824 0.43431373 0.1877451
0.047058824 0.13235294 0.090196078
0.076960784 0.14007353 0.093137255
0.15784314 0.16004902 0.079411765
0.33639706 0.20147059 0.058333333
0.50833333 0.19068627 0.052941176
0.68088235 0.22303922 0.061764706
0.81176471 0.28431373 0.055882353
0.92389706 0.39068627 0.10294118
0.99509804 0.49215686 0.21078431
0.028921569 0.24509804 0.12794118
0.096875 0.25275735 0.14185049
0.17879902 0.27401961 0.12536765
0.35343137 0.33780637 0.063664216
0.54877451 0.3877451 0.0093137255
0.68823529 0.39417892 0.016237745
0.81176471 0.42990196 0.060171569
0.90704657 0.50116422 0.14166667
0.98431373 0.56813725 0.25196078
0.035294118 0.39803922 0.19607843
0.13553922 0.40392157 0.21519608
0.22647059 0.41862745 0.21813725
0.34289216 0.45980392 0.19044118
0.53823529 0.53137255 0.10784314
0.70980392 0.58308824 0.01127451
0.81666667 0.58627451 0.1004902
0.9129902 0.62009804 0.19754902
0.99019608 0.65294118 0.3
0.16421569 0.54852941 0.30245098
0.21243873 0.55116422 0.31127451
0.30343137 0.55931373 0.32745098
0.38823529 0.58572304 0.32745098
0.51960784 0.63186275 0.30220588
0.67254902 0.68039216 0.27947304
0.8375 0.72340686 0.21262255
0.92665441 0.72745098 0.28578431
0.99215686 0.74166667 0.36911765
0.33627451 0.68627451 0.42843137
0.36139706 0.68921569 0.43235294
0.41764706 0.69411765 0.45098039
0.4872549 0.70551471 0.46666667
0.57303922 0.73039216 0.45980392
0.66960784 0.76237745 0.45441176
0.80294118 0.79436275 0.42083333
0.94093137 0.82561275 0.41666667
0.99607843 0.83039216 0.45686275
0.52156863 0.80539216 0.56323529
0.53284314 0.80539216 0.56623775
0.56973039 0.80931373 0.57879902
0.61783088 0.8158701 0.59442402
0.67303922 0.82696078 0.60245098
0.73578431 0.84430147 0.59442402
0.81911765 0.86764706 0.59362745
0.92352941 0.88382353 0.58584559
0.99607843 0.89852941 0.58333333
0.75294118 0.91372549 0.71764706
0.73676471 0.90196078 0.70539216
0.76764706 0.90588235 0.71764706
0.80098039 0.90833333 0.72401961
0.84509804 0.90980392 0.73333333
0.87745098 0.91911765 0.7372549
0.92058824 0.93235294 0.74215686
0.96127451 0.9372549 0.73676471
0.99607843 0.94117647 0.74117647
0.050980392 0.10196078 0.089705882
0.073039216 0.10539216 0.094056373
0.1377451 0.10196078 0.09375
0.27156863 0.07745098 0.097365196
0.4620098 0.023529412 0.10514706
0.65441176 0.023529412 0.12579657
0.80784314 0.069485294 0.14019608
0.92702206 0.25784314 0.1754902
0.99607843 0.38921569 0.22254902
0.050980392 0.10931373 0.093627451
0.076646752 0.11323529 0.097173713
0.14036458 0.11323529 0.093627451
0.28823529 0.097441789 0.10500919
0.48722426 0.065686275 0.11596201
0.66407016 0.087094056 0.128125
0.81106005 0.17365196 0.14008885
0.92390472 0.31115962 0.17892157
0.99172794 0.42604167 0.23290441
0.076960784 0.15098039 0.11617647
0.096185662 0.14963235 0.11617647
0.18578431 0.16951593 0.11188725
0.35085784 0.19367341 0.10882353
0.52273284 0.20637255 0.10980392
0.679856 0.21983762 0.125
0.81176471 0.2995098 0.15110294
0.92696078 0.40125613 0.190625
0.97696078 0.47463235 0.24767157
0.078921569 0.26060049 0.16519608
0.12216605 0.26623775 0.17099418
0.20343137 0.28198529 0.17254902
0.36655178 0.34362745 0.12854626
0.55073529 0.38952206 0.088817402
0.69607843 0.39165901 0.11685049
0.80784314 0.43903186 0.16622243
0.91240043 0.50900735 0.22113971
0.99393382 0.57745098 0.29264706
0.096813725 0.40931373 0.2379902
0.15909926 0.41764706 0.24782475
0.25147059 0.42806373 0.25980392
0.35612745 0.46893382 0.24362745
0.53345588 0.53247549 0.17977941
0.70980392 0.58039216 0.1497549
0.82058824 0.590625 0.19509804
0.91936275 0.61764706 0.25836397
0.97058824 0.63897059 0.30073529
0.19332108 0.55833333 0.32910539
0.2403799 0.56403186 0.34052543
0.32054228 0.56698836 0.35390625
0.40980392 0.58865656 0.35814951
0.52147672 0.63170956 0.34126838
0.67316176 0.67738971 0.30755208
0.82634804 0.71429228 0.28921569
0.93088235 0.72963388 0.33747702
0.99607843 0.74166667 0.40735294
0.32879902 0.69019608 0.43615196
0.36648284 0.68627451 0.44701287
0.42156863 0.69313725 0.46136642
0.49689032 0.70219056 0.47761949
0.57518382 0.73039216 0.47971814
0.67694547 0.76127451 0.46715686
0.80401348 0.79522059 0.44856005
0.94575674 0.8256587 0.43566176
0.98958333 0.82941176 0.47303922
0.52892157 0.8088848 0.57800245
0.53976716 0.8088848 0.57886029
0.56960784 0.80931373 0.58616728
0.62696078 0.81194853 0.60065104
0.68060662 0.8252451 0.60980392
0.73556219 0.84842218 0.60824908
0.82777267 0.86470588 0.60196078
0.92310049 0.88419884 0.59761029
0.99607843 0.89509804 0.59019608
0.74068627 0.90588235 0.70980392
0.74852941 0.90931373 0.71366422
0.76421569 0.90588235 0.71678922
0.79834559 0.90931373 0.72530637
0.85416667 0.91544118 0.74460784
0.86568627 0.91372549 0.72941176
0.91176471 0.92647059 0.7377451
0.95686275 0.93284314 0.73186275
0.99264706 0.9372549 0.72598039
0.069607843 0.10196078 0.13921569
0.10428922 0.099019608 0.13909314
0.14705882 0.099019608 0.13529412
0.29620098 0.070710784 0.15980392
0.5127451 0.010294118 0.18382353
0.67990196 0.0078431373 0.22156863
0.82352941 0.1245098 0.26151961
0.93125 0.29558824 0.30943627
1 0.42843137 0.35980392
0.031004902 0.10980392 0.14473039
0.095266544 0.10980392 0.15827206
0.18682598 0.11004902 0.16917892
0.32976409 0.095174632 0.17977941
0.52052696 0.020281863 0.19491422
0.69056373 0.059436275 0.22941176
0.81865809 0.20122549 0.27147672
0.93088235 0.33678002 0.31302083
0.98909314 0.44301471 0.36127451
0.048039216 0.15171569 0.17426471
0.093719363 0.15355392 0.17892157
0.19313725 0.1747549 0.19901961
0.37153799 0.20183824 0.21715686
0.53394608 0.20477941 0.23541667
0.6872549 0.2328125 0.25220588
0.81960784 0.31905637 0.28253676
0.92696078 0.42107843 0.32539828
0.99509804 0.51078431 0.38333333
0.13039216 0.27855392 0.24754902
0.16568627 0.28284314 0.25257353
0.25343137 0.30330882 0.26344975
0.3993413 0.35182292 0.25637255
0.56060049 0.38578431 0.25196078
0.69829963 0.39914216 0.26453738
0.81397059 0.45438113 0.29708946
0.92023591 0.52169118 0.33711703
0.99215686 0.58382353 0.39852941
0.20784314 0.43480392 0.33039216
0.2439951 0.44411765 0.33578431
0.29019608 0.45122549 0.33186275
0.39534314 0.47604167 0.33382353
0.55735294 0.54215686 0.31029412
0.70398284 0.57653186 0.3033701
0.81642157 0.59522059 0.32107843
0.92132353 0.62205882 0.36501225
0.97156863 0.63823529 0.39754902
0.26813725 0.57352941 0.39607843
0.29803922 0.58137255 0.4009038
0.35563725 0.58529412 0.40765931
0.4428462 0.6004902 0.41813725
0.54803922 0.63743873 0.415625
0.68425245 0.68016238 0.40232843
0.81568627 0.70983456 0.39436275
0.93125 0.73008578 0.41711091
0.98639706 0.7377451 0.4564951
0.37941176 0.69803922 0.48504902
0.38704044 0.70088848 0.48005515
0.43946078 0.70079657 0.49191176
0.51602328 0.70943627 0.51421569
0.59705882 0.73431373 0.52156863
0.68336397 0.76421569 0.51458333
0.80392157 0.79117647 0.49644608
0.94957108 0.82751225 0.49779412
0.98823529 0.82941176 0.51691176
0.52794118 0.80588235 0.58921569
0.53975184 0.80980392 0.59281556
0.57818627 0.80980392 0.60098039
0.62798713 0.81683517 0.61727941
0.69215686 0.825 0.62806373
0.74607843 0.84411765 0.63089767
0.82487745 0.86507353 0.62852328
0.92775735 0.88768382 0.62493873
0.99607843 0.89509804 0.61703431
0.73333333 0.90588235 0.71372549
0.74522059 0.9060049 0.71764706
0.76446078 0.90661765 0.72058824
0.80343137 0.90980392 0.73186275
0.83823529 0.90784314 0.7377451
0.87659314 0.91372549 0.74117647
0.91960784 0.92720588 0.74607843
0.9682598 0.9372549 0.7495098
0.99607843 0.94117647 0.75196078
0.12254902 0.087745098 0.25147059
0.16452206 0.083823529 0.26323529
0.27254902 0.073039216 0.28468137
0.37892157 0.061764706 0.29313725
0.53602941 0.043872549 0.32230392
0.73921569 0.028492647 0.37696078
0.86519608 0.093995098 0.39007353
0.95226716 0.27218137 0.42506127
0.99607843 0.42401961 0.47941176
0.075183824 0.10147059 0.28235294
0.14705882 0.10147059 0.29019608
0.27322304 0.094730392 0.30009191
0.39669118 0.12040441 0.31820619
0.55582108 0.10793505 0.34396446
0.73393842 0.11599265 0.38333333
0.86041667 0.19875919 0.3988511
0.93943781 0.34362745 0.44268536
0.99607843 0.46470588 0.48823529
0.013235294 0.15502451 0.30931373
0.023452819 0.15992647 0.31452206
0.24310662 0.18431373 0.33970588
0.42947304 0.23581495 0.35784314
0.58578431 0.24889706 0.38278186
0.72349877 0.28751532 0.40845588
0.8419424 0.34460784 0.42340686
0.93386949 0.43762255 0.45784314
0.97855392 0.49571078 0.48578431
0.035294118 0.275 0.34705882
0.11188725 0.28284314 0.34570313
0.25790441 0.32291667 0.38082108
0.43676471 0.37310049 0.40651808
0.57965686 0.40143995 0.41078431
0.71199449 0.43782935 0.43429075
0.82208946 0.48480392 0.45101103
0.92303922 0.54148284 0.46942402
0.98823529 0.5877451 0.50692402
0.19705882 0.43210784 0.40686275
0.25229779 0.45333946 0.42230392
0.34136029 0.47640931 0.43382353
0.45416667 0.50686275 0.44901961
0.57769608 0.54963235 0.44754902
0.70903799 0.57898284 0.44978554
0.81862745 0.59705882 0.46691176
0.92034314 0.62745098 0.48685662
0.99044118 0.66544118 0.52769608
0.35392157 0.59258578 0.48627451
0.37995558 0.59773284 0.49100031
0.42369792 0.60810355 0.49264706
0.49117647 0.6216299 0.50202206
0.57405025 0.64681373 0.50833333
0.69068627 0.68823529 0.49957108
0.81960784 0.71343444 0.49856005
0.92862286 0.72627911 0.51966912
0.99215686 0.7377451 0.54123775
0.44375 0.70882353 0.54693627
0.4504902 0.70975797 0.54790135
0.48057598 0.71547181 0.54693627
0.53480392 0.7240962 0.55611213
0.61813725 0.73823529 0.57254902
0.69989277 0.76813725 0.57571998
0.81614583 0.79509804 0.56862745
0.94304534 0.82192096 0.57156863
0.99607843 0.82941176 0.60085784
0.54969363 0.80980392 0.62224265
0.56236213 0.81715686 0.62383578
0.58627451 0.81750919 0.62758885
0.63106618 0.82107843 0.63792892
0.69607843 0.82784926 0.65670956
0.75846354 0.8451057 0.66666667
0.84607843 0.86470588 0.66666667
0.93529412 0.88382353 0.66145833
0.9995098 0.90245098 0.6653799
0.74509804 0.90980392 0.7254902
0.74803922 0.90980392 0.72420343
0.76617647 0.90833333 0.72794118
0.80539216 0.91219363 0.7372549
0.84191176 0.90980392 0.74583333
0.88143382 0.91464461 0.75147059
0.92683824 0.92647059 0.76041667
0.97175245 0.9372549 0.76127451
0.99215686 0.94117647 0.76078431
0.18823529 0.052941176 0.41960784
0.2497549 0.035784314 0.42916667
0.3754902 0.023529412 0.45196078
0.52990196 0.010539216 0.48088235
0.6245098 0.15490196 0.48529412
0.72843137 0.19509804 0.50490196
0.88627451 0.29019608 0.5622549
0.97941176 0.39191176 0.57892157
0.99607843 0.42745098 0.58627451
0.16617647 0.077696078 0.43504902
0.22913603 0.062254902 0.44460784
0.37377451 0.059497549 0.46415441
0.52647059 0.10407475 0.48912377
0.62732843 0.22732843 0.50061275
0.7286152 0.26436887 0.51544118
0.88192402 0.3504902 0.5653799
0.97331495 0.42202819 0.5747549
1 0.49901961 0.5997549
0.028431373 0.14019608 0.45588235
0.11170343 0.14246324 0.46397059
0.32389706 0.1692402 0.48529412
0.53167892 0.23995098 0.51127451
0.6375 0.33897059 0.525
0.74724265 0.38529412 0.54362745
0.87254902 0.45110294 0.58419118
0.96115196 0.48529412 0.5814951
0.99852941 0.55735294 0.61372549
0.0098039216 0.26397059 0.46666667
0.028278186 0.27126225 0.47273284
0.17064951 0.29613971 0.49007353
0.45566789 0.36617647 0.5252451
0.61678922 0.45588235 0.54362745
0.7372549 0.50294118 0.56936275
0.84558824 0.53578431 0.5908701
0.94151348 0.56731005 0.5963848
0.99215686 0.61127451 0.61617647
0.1245098 0.42745098 0.48627451
0.17941176 0.44191176 0.49007353
0.29019608 0.46446078 0.51102941
0.45404412 0.50563725 0.5377451
0.60980392 0.5754902 0.57058824
0.71727941 0.59693627 0.57977941
0.82279412 0.62058824 0.59362745
0.92328431 0.64963235 0.60612745
0.99411765 0.68235294 0.63137255
0.29436275 0.5752451 0.53823529
0.32925858 0.58979779 0.54583333
0.40637255 0.60827206 0.55643382
0.52104779 0.63655025 0.57916667
0.61360294 0.66556373 0.59558824
0.72009804 0.70245098 0.59558824
0.82518382 0.71366422 0.60373775
0.92824755 0.73382353 0.6145527
0.98823529 0.75073529 0.6379902
0.44264706 0.70686275 0.60392157
0.45833333 0.70906863 0.60563725
0.51482843 0.71875 0.61176471
0.571875 0.73235294 0.62058824
0.64264706 0.74583333 0.63235294
0.71942402 0.76911765 0.64068627
0.82892157 0.79546569 0.64117647
0.94264706 0.8189951 0.64044118
0.99607843 0.8254902 0.66764706
0.57720588 0.81323529 0.66568627
0.58262868 0.81323529 0.66590074
0.60508578 0.81752451 0.66783088
0.65425858 0.82352941 0.675
0.69742647 0.83284314 0.68137255
0.77411152 0.84981618 0.69332108
0.85098039 0.86488971 0.70055147
0.94286152 0.88376225 0.70098039
0.99607843 0.89901961 0.70710784
0.75686275 0.90980392 0.74313725
0.76078431 0.91176471 0.74509804
0.77303922 0.90931373 0.74460784
0.79779412 0.91102941 0.74754902
0.84509804 0.91470588 0.75686275
0.89313725 0.91764706 0.76740196
0.9372549 0.92745098 0.77647059
0.97107843 0.93333333 0.7747549
1 0.94117647 0.78039216
0.33284314 0 0.57058824
0.38382353 0 0.57843137
0.49901961 0.0057598039 0.5935049
0.62990196 0.0054534314 0.61617647
0.73578431 0.22720588 0.63602941
0.79859069 0.36421569 0.63970588
0.85171569 0.40943627 0.64460784
0.97254902 0.50392157 0.68186275
1 0.58921569 0.71029412
0.31715686 0.026960784 0.57579657
0.37107843 0.010477941 0.58927696
0.48382353 0.0094515931 0.59803922
0.62843137 0.062124694 0.62009804
0.73308824 0.29460784 0.64420956
0.79932598 0.41169577 0.64804688
0.85508578 0.44558824 0.64906556
0.97110141 0.53268229 0.68954504
0.99822304 0.58547794 0.70098039
0.23480392 0.12696078 0.58529412
0.29656863 0.12267157 0.5939951
0.43716299 0.15027574 0.60462623
0.60232843 0.23382353 0.62702206
0.72408088 0.38860294 0.653125
0.78872549 0.49497549 0.65686275
0.86210172 0.52892157 0.66688113
0.96862745 0.589231 0.69656863
0.99754902 0.64019608 0.71176471
0.012867647 0.24215686 0.58627451
0.034367341 0.23963695 0.59008119
0.28008578 0.28950674 0.60513174
0.52361366 0.3658318 0.63431373
0.7004902 0.48606005 0.65735294
0.78570006 0.58131127 0.67295496
0.85960478 0.60735294 0.68088235
0.97660846 0.65900735 0.7151348
0.99607843 0.67205882 0.71329657
0.0046568627 0.41029412 0.58480392
0.013970588 0.41813725 0.58553922
0.15539216 0.43676471 0.59607843
0.37447917 0.47104779 0.61862745
0.61813725 0.56139706 0.65735294
0.76764706 0.65784314 0.68431373
0.86930147 0.68504902 0.70526961
0.95603554 0.69607843 0.70508578
0.98823529 0.70563725 0.70882353
0.20410539 0.56666667 0.59448529
0.25434283 0.57352175 0.60030637
0.33440564 0.59310662 0.61164216
0.46715686 0.61862745 0.62647059
0.5919424 0.65340074 0.65465686
0.74648437 0.71715686 0.68976716
0.85238971 0.74457721 0.69875919
0.94932598 0.76145833 0.70637255
0.98970588 0.76519608 0.71329657
0.36470588 0.68872549 0.6377451
0.39162071 0.69568015 0.64166667
0.44558824 0.70324755 0.64932598
0.55105699 0.72395833 0.66787684
0.65214461 0.75 0.68284314
0.74803922 0.78013174 0.70196078
0.85147059 0.80934436 0.71246936
0.94658395 0.82156863 0.70980392
0.99215686 0.82941176 0.72843137
0.52205882 0.80177696 0.69509804
0.53570006 0.80410539 0.69656863
0.57401961 0.81141238 0.7004902
0.63988205 0.82261029 0.71218597
0.72591912 0.83471201 0.72362132
0.78480392 0.84589461 0.72842371
0.86438419 0.86470588 0.74129902
0.95753676 0.88768382 0.74352022
0.99607843 0.90245098 0.74883578
0.7372549 0.91127451 0.75833333
0.72959559 0.90588235 0.75833333
0.76862745 0.90980392 0.76078431
0.80196078 0.9122549 0.76378676
0.85073529 0.91887255 0.77132353
0.88621324 0.91372549 0.78094363
0.93578431 0.92156863 0.79460784
0.9627451 0.91813725 0.77598039
0.99852941 0.94117647 0.80539216
0.50490196 0.0039215686 0.69803922
0.55294118 0 0.70539216
0.61691176 0.00098039216 0.7127451
0.73039216 0.012009804 0.72843137
0.82254902 0.24509804 0.74558824
0.89117647 0.475 0.75490196
0.92843137 0.55 0.74632353
0.96262255 0.57634804 0.74313725
0.99313725 0.64313725 0.75882353
0.48958333 0.0078431373 0.70061275
0.53468137 0.0078431373 0.70845588
0.62132353 0.0039215686 0.71740196
0.72040441 0.074157475 0.73088235
0.81642157 0.30759804 0.74705882
0.88333333 0.503125 0.75134804
0.92720588 0.5747549 0.74733456
0.95098039 0.60047488 0.74313725
0.99607843 0.66433824 0.76139706
0.44215686 0.079166667 0.70514706
0.4700674 0.091636029 0.70523897
0.58333333 0.13155637 0.71593137
0.69381127 0.24117647 0.73042279
0.80416667 0.39656863 0.7495098
0.87328431 0.56078431 0.75098039
0.91917892 0.62622549 0.74797794
0.97386642 0.65879289 0.75526961
1 0.70294118 0.76568627
0.20772059 0.23039216 0.69558824
0.32431066 0.24906556 0.70196078
0.47662377 0.28835784 0.71228554
0.63676471 0.36392463 0.72519914
0.76495098 0.48504902 0.74313725
0.85882353 0.62009804 0.75490196
0.90490196 0.67389706 0.75309436
0.96960784 0.70467218 0.75919118
1 0.73737745 0.77242647
0.014215686 0.36862745 0.68382353
0.014889706 0.36966912 0.68535539
0.076470588 0.3935049 0.69031863
0.44889706 0.4471201 0.7120098
0.68872549 0.55122549 0.7375
0.82493873 0.66574755 0.7533701
0.92156863 0.73137255 0.76421569
0.97346814 0.75465686 0.76966912
0.99607843 0.77941176 0.77794118
0.012745098 0.53296569 0.67745098
0.0095128676 0.54451593 0.67745098
0.063541667 0.55977328 0.68137255
0.28203125 0.57002145 0.69497549
0.48651961 0.60091912 0.71372549
0.76193321 0.70330882 0.74967831
0.90235907 0.77414216 0.76985294
0.97922794 0.80294118 0.77884498
0.99705882 0.82303922 0.79019608
0.23651961 0.67058824 0.68039216
0.27598039 0.67506127 0.68137255
0.34705882 0.68786765 0.69289216
0.45514706 0.69960172 0.70281863
0.58688725 0.72904412 0.72107843
0.72141544 0.76348039 0.74754902
0.87058824 0.81096814 0.76666667
0.97058824 0.83949142 0.77876838
0.99705882 0.85294118 0.78308824
0.39497549 0.79019608 0.72438725
0.42340686 0.79388787 0.72352941
0.4768076 0.79019608 0.72735907
0.54848346 0.80744485 0.73685662
0.66703431 0.8245098 0.74681373
0.77936581 0.84430147 0.7584712
0.89004289 0.86853554 0.77423407
0.96960784 0.89085478 0.78327206
0.99178922 0.89203431 0.79718137
0.6627451 0.90980392 0.78039216
0.66911765 0.90882353 0.78125
0.68333333 0.90392157 0.78112745
0.74865196 0.91188725 0.78529412
0.825 0.91568627 0.79313725
0.89901961 0.92156863 0.8060049
0.94215686 0.92132353 0.82058824
0.98811275 0.93247549 0.83492647
0.99607843 0.9372549 0.8372549
0.69264706 0.011764706 0.80147059
0.70392157 0.0039215686 0.80147059
0.7560049 0.0025735294 0.80147059
0.82205882 0.1 0.80931373
0.89509804 0.33921569 0.8127451
0.95098039 0.51421569 0.81666667
0.9817402 0.66176471 0.81311275
0.99607843 0.7 0.80490196
0.99607843 0.71470588 0.80882353
0.67745098 0.0073529412 0.80104167
0.70038297 0.0039828431 0.80147059
0.75304841 0.011106005 0.80539216
0.81470588 0.18333333 0.80931373
0.89071691 0.37720588 0.8127451
0.95163143 0.54070925 0.81666667
0.98443627 0.66887255 0.81580882
0.99307598 0.71476716 0.80919884
0.99607843 0.72555147 0.80839461
0.63284314 0.093627451 0.80147059
0.66747855 0.1245098 0.80539216
0.72012868 0.2044424 0.80539216
0.79206495 0.30061275 0.81178002
0.86470588 0.43976716 0.81323529
0.9377451 0.58198529 0.81666667
0.98566176 0.70462623 0.8169424
0.99264706 0.74166667 0.81548713
1 0.75821078 0.80931373
0.4963848 0.26323529 0.79362745
0.54842984 0.27838542 0.79754902
0.62628676 0.32009804 0.79851409
0.74086244 0.40325521 0.80520833
0.82971814 0.50897672 0.80916054
0.92315411 0.62627145 0.81452206
0.97022059 0.73137255 0.81732537
0.98523284 0.76470588 0.81666667
1 0.78382353 0.8127451
0.046813725 0.31544118 0.7875
0.10376838 0.32668505 0.78949142
0.3682598 0.37843137 0.79295343
0.59666054 0.46078431 0.79754902
0.75073529 0.56323529 0.80490196
0.88612132 0.67132353 0.81292892
0.97426471 0.76568627 0.82156863
0.99436275 0.80143995 0.82254902
1 0.82254902 0.8245098
0.033639706 0.49117647 0.77273284
0.019852941 0.50222886 0.77401961
0.018841912 0.50632659 0.77401961
0.080430453 0.52634804 0.77732843
0.5526348 0.57622549 0.79280025
0.81035539 0.68934589 0.80490196
0.94119179 0.78443627 0.82156863
1 0.84944853 0.8341299
1 0.86078431 0.84411765
0.023529412 0.66764706 0.76617647
0.0086550245 0.67418811 0.76911765
0.012530637 0.67843137 0.76617647
0.17166054 0.68221507 0.76996017
0.37340686 0.68676471 0.78357843
0.59915748 0.70663297 0.79042586
0.88854167 0.80220588 0.81666667
0.98803615 0.87561275 0.84820772
1 0.89154412 0.86323529
0.2625 0.78327206 0.76709559
0.28115043 0.78509498 0.76972273
0.35238971 0.79056373 0.77663909
0.45175398 0.79758732 0.77579657
0.57086397 0.80367647 0.77794118
0.70075827 0.82469363 0.79901961
0.83567708 0.84188113 0.81678922
0.97794118 0.89601716 0.85245864
1 0.90637255 0.86029412
0.55245098 0.91715686 0.82843137
0.55202206 0.90588235 0.81966912
0.58713235 0.91458333 0.82487745
0.65490196 0.90637255 0.82058824
0.72818627 0.91617647 0.83063725
0.82199755 0.9120098 0.83272059
0.92242647 0.92058824 0.84705882
0.98523284 0.93333333 0.87542892
1 0.94460784 0.88676471
0.82745098 0.18039216 0.89019608
0.83480392 0.19803922 0.88970588
0.85784314 0.26666667 0.88627451
0.89411765 0.36862745 0.88382353
0.94509804 0.48823529 0.87843137
0.98823529 0.61617647 0.88235294
0.99607843 0.70882353 0.86568627
1 0.79705882 0.8745098
1 0.80392157 0.87058824
0.80833333 0.19558824 0.88235294
0.82696078 0.25189951 0.8901348
0.85036765 0.31960784 0.88921569
0.88872549 0.39822304 0.88333333
0.9372549 0.51127451 0.87647059
0.98186275 0.61862745 0.87990196
0.99607843 0.72389706 0.87696078
1 0.79362745 0.8745098
1 0.81127451 0.8745098
0.7745098 0.29313725 0.88235294
0.79779412 0.32977941 0.89007353
0.82647059 0.38333333 0.88627451
0.86617647 0.45392157 0.88235294
0.91960784 0.54754902 0.87941176
0.98333333 0.65441176 0.88443627
1 0.72941176 0.87254902
1 0.80833333 0.88235294
1 0.82843137 0.8754902
0.69509804 0.37254902 0.87598039
0.71862745 0.39019608 0.87971814
0.72843137 0.40588235 0.85857843
0.82738971 0.50294118 0.88082108
0.89436275 0.59338235 0.88504902
0.9661152 0.68137255 0.88327206
0.99215686 0.75882353 0.87843137
1 0.82518382 0.88872549
1 0.81960784 0.87058824
0.54509804 0.41176471 0.88627451
0.57352941 0.42818627 0.88480392
0.64705882 0.47254902 0.88431373
0.74509804 0.53872549 0.88553922
0.84019608 0.61960784 0.88921569
0.9377451 0.70441176 0.8870098
0.99852941 0.78235294 0.89019608
1 0.84166667 0.88627451
1 0.85882353 0.88039216
0.021078431 0.5004902 0.85980392
0.0094362745 0.50018382 0.87910539
0.081862745 0.49791667 0.87720588
0.44926471 0.51672794 0.88713235
0.71544118 0.62303922 0.88848039
0.85784314 0.71084559 0.88474265
0.96813725 0.79803922 0.89019608
0.99871324 0.86783088 0.90392157
1 0.89166667 0.89803922
0.0058823529 0.70490196 0.87745098
0.011397059 0.69056373 0.85441176
0.015686275 0.67254902 0.85171569
0.0099264706 0.67401961 0.86482843
0.074019608 0.67254902 0.87794118
0.63039216 0.71911765 0.87561275
0.9127451 0.80686275 0.89509804
0.99607843 0.88026961 0.89852941
1 0.91372549 0.90980392
0.043627451 0.82843137 0.89068627
0.10343137 0.82156863 0.87340686
0.16911765 0.8189951 0.87855392
0.32352941 0.82107843 0.88737745
0.44387255 0.81323529 0.87867647
0.5846201 0.81403186 0.88921569
0.74791667 0.8189951 0.89129902
0.98394608 0.89515931 0.91280637
0.99607843 0.93333333 0.92107843
0.58039216 0.90980392 0.90588235
0.61176471 0.91715686 0.91764706
0.6372549 0.91764706 0.91764706
0.66372549 0.91372549 0.91372549
0.72745098 0.91568627 0.91372549
0.77696078 0.91372549 0.88872549
0.88529412 0.91470588 0.8745098
0.97794118 0.9372549 0.90245098
0.99215686 0.9372549 0.90196078
