site/assets/luts/sha256-5848ce860dd9911629f8dcb0beccfe2d2b930be1ff9d9840ee2bd58405a22b74.cube
# LUTr-Schema-Version: 2
# LUTr-ID: sha256-5848ce860dd9911629f8dcb0beccfe2d2b930be1ff9d9840ee2bd58405a22b74
# LUTr-Title: fuji 800z -
# LUTr-Collection: Natron HaldCLUT
# LUTr-Collection-ID: natron-haldclut-presets
# LUTr-Source: https://github.com/NatronGitHub/clut
# LUTr-Retrieved: 2026-07-27
# LUTr-Source-File: submissions/natron-haldclut-presets/negative_new/fuji_800z_-.png
# LUTr-Source-Format: HALD-PNG
# LUTr-Source-SHA256: 5848ce860dd9911629f8dcb0beccfe2d2b930be1ff9d9840ee2bd58405a22b74
# LUTr-License: CC-BY-SA-4.0
# LUTr-License-URL: https://github.com/NatronGitHub/clut#license
# LUTr-License-Basis: repo-license-file
# LUTr-Transform-Class: film-emulation
# LUTr-Tags: creative, film, film-emulation, hald-clut, natron, png, cube
# LUTr-Input-Color-Space: srgb
# LUTr-Input-Gamut: rec709
# LUTr-Input-Transfer: srgb
# LUTr-Output-Color-Space: srgb
# LUTr-Output-Gamut: rec709
# LUTr-Output-Transfer: srgb
# LUTr-Color-Space-Confidence: assumed-display-referred
# LUTr-Domain-Normalized: true
# LUTr-Shaper: none
# LUTr-Original-Grid: 64x64x64
# LUTr-Conversion-Grid: 25x25x25
# LUTr-Conversion-Interpolation: trilinear
# LUTr-Conversion-Method: HALD-PNG LUT image decoded at 16-bit and sampled to 25x25x25 3D CUBE
# LUTr-Conversion-Tool: LUTr scripts/convert-all-to-cube.mjs 2.0.0
# LUTr-Conversion-Date: 2026-07-27
# LUTr-Note: Preserve this metadata and the upstream license notices when redistributing.
TITLE "fuji 800z -"
LUT_3D_SIZE 9
DOMAIN_MIN 0 0 0
DOMAIN_MAX 1 1 1
0.0078431373 0.0039215686 0.0039215686
0.10833333 0.027941176 0.027941176
0.22647059 0.0068627451 0.0068627451
0.40294118 0.0014705882 0.0078431373
0.5627451 0 0.0039215686
0.69607843 0.0039215686 0.0039215686
0.81176471 0.0078431373 0.010784314
0.91911765 0.00049019608 0
0.99215686 0.019607843 0
0.020098039 0.092647059 0.035294118
0.076531863 0.084375 0.014828431
0.22683824 0.10539216 0.016666667
0.39264706 0.076654412 0.0093137255
0.55490196 0.031127451 0.0039215686
0.7036152 0 0.0078431373
0.81176471 0.01127451 0.032230392
0.91568627 0.045098039 0.0034926471
0.99215686 0.13431373 0.00049019608
0.0039215686 0.19117647 0.041176471
0.080882353 0.20784314 0.042279412
0.18970588 0.21887255 0.011764706
0.39117647 0.25330882 0.0042892157
0.54705882 0.22647059 0.0039215686
0.68247549 0.22205882 0.0078431373
0.79681373 0.2375 0.0085784314
0.89963235 0.2504902 0.015686275
0.98431373 0.27745098 0.0039215686
0.010294118 0.31323529 0.076960784
0.066176471 0.31194853 0.080392157
0.19215686 0.32794118 0.061764706
0.34172794 0.36819853 0.013357843
0.51862745 0.38431373 0.0098039216
0.66170343 0.39656863 0.006372549
0.78088235 0.38419118 0.0078431373
0.87745098 0.38676471 0.0078431373
0.97401961 0.40735294 0
0.068627451 0.41764706 0.1254902
0.096568627 0.41004902 0.12156863
0.18333333 0.41519608 0.11421569
0.30759804 0.44803922 0.095098039
0.46960784 0.49019608 0.041176471
0.63921569 0.53210784 0.012990196
0.76176471 0.52892157 0.0034313725
0.85833333 0.51764706 0.0039215686
0.94313725 0.52156863 0.0039215686
0.1245098 0.51421569 0.17009804
0.15882353 0.50655637 0.1754902
0.21519608 0.49852941 0.1754902
0.30238971 0.51519608 0.17248775
0.42009804 0.55 0.14754902
0.58235294 0.59264706 0.12689951
0.72254902 0.62745098 0.10379902
0.84332108 0.64362745 0.072855392
0.93333333 0.64509804 0.0078431373
0.21960784 0.60784314 0.24117647
0.23786765 0.60686275 0.2377451
0.27622549 0.59681373 0.23651961
0.33578431 0.59571078 0.23823529
0.43235294 0.61666667 0.23431373
0.55245098 0.6564951 0.23529412
0.69093137 0.69705882 0.22647059
0.82193627 0.73284314 0.22745098
0.92647059 0.76372549 0.20294118
0.34362745 0.71568627 0.33970588
0.37800245 0.73094363 0.36366422
0.38933824 0.7127451 0.34803922
0.41813725 0.70392157 0.33118873
0.48235294 0.7122549 0.33431373
0.57892157 0.74509804 0.37009804
0.68284314 0.77512255 0.35551471
0.80196078 0.80980392 0.35582108
0.87254902 0.83578431 0.36323529
0.50196078 0.83921569 0.49411765
0.52892157 0.8622549 0.51715686
0.52156863 0.82843137 0.48333333
0.57598039 0.85588235 0.51862745
0.61960784 0.85882353 0.52941176
0.67745098 0.87058824 0.52941176
0.75098039 0.89019608 0.53627451
0.83284314 0.91764706 0.54852941
0.91764706 0.94117647 0.56078431
0.026960784 0.051470588 0.080882353
0.11519608 0.04754902 0.084375
0.24117647 0.0037990196 0.076960784
0.40441176 0.0041053922 0.084803922
0.5625 0.0039215686 0.080882353
0.70392157 0.0039215686 0.084129902
0.8182598 0.0078431373 0.07254902
0.91911765 0.0073529412 0.067647059
0.99264706 0.012254902 0.067647059
0.02689951 0.10392157 0.088235294
0.10784314 0.10703125 0.088181679
0.24171262 0.10441176 0.08448223
0.40639553 0.073958333 0.084313725
0.56317402 0.026286765 0.073253676
0.70173866 0.020917586 0.068566176
0.82218137 0.010998775 0.064108456
0.91524969 0.067210478 0.06373315
0.99215686 0.15 0.067647059
0.019485294 0.21519608 0.11127451
0.1064951 0.21519608 0.1
0.23137255 0.24264706 0.084803922
0.40134804 0.2569087 0.073039216
0.54730392 0.23455882 0.050857843
0.68137255 0.22928922 0.044117647
0.80064338 0.2377451 0.03838848
0.90085784 0.25359988 0.047931985
0.95943627 0.27009804 0.037622549
0.071568627 0.33872549 0.13823529
0.12591912 0.32481618 0.1346201
0.20116422 0.33432904 0.12789522
0.36659773 0.38578431 0.10293352
0.5379902 0.40759804 0.050490196
0.66170343 0.38872549 0.014093137
0.77794118 0.38419118 0.0074295343
0.88164062 0.38674173 0.021384804
0.96470588 0.41127451 0.014522059
0.1245098 0.4370098 0.17352941
0.15294118 0.4291973 0.16960784
0.20882353 0.42077206 0.16654412
0.31323529 0.44837623 0.16185662
0.48897059 0.49889706 0.11078431
0.64313725 0.53357843 0.079993873
0.75686275 0.52071078 0.047058824
0.85661765 0.50983456 0.016421569
0.93529412 0.51960784 0.0034313725
0.17303922 0.52971814 0.2122549
0.19204963 0.52189798 0.21198683
0.24010417 0.50824142 0.2069087
0.31733303 0.52284773 0.20851716
0.43039216 0.55392157 0.20009191
0.58696385 0.59656863 0.18596814
0.73440564 0.63445159 0.17198223
0.84852941 0.63768382 0.12647059
0.91519608 0.63382353 0.088235294
0.24656863 0.62205882 0.27169118
0.25692402 0.61470588 0.264231
0.29460784 0.60686275 0.26421569
0.34264706 0.60062806 0.25807292
0.43180147 0.62046569 0.26029412
0.55784314 0.65574449 0.25735294
0.68985907 0.69678309 0.2640625
0.82832414 0.73970588 0.25784314
0.93198529 0.75980392 0.24669118
0.35490196 0.72352941 0.35790441
0.37494638 0.72707567 0.36715686
0.39056373 0.71564032 0.35609681
0.42300092 0.70437347 0.34754902
0.48995098 0.7120098 0.35952819
0.57794118 0.7411152 0.37434896
0.69375 0.78016238 0.38639706
0.80196078 0.81335018 0.38670343
0.91617647 0.85588235 0.39803922
0.5245098 0.85833333 0.52107843
0.52064951 0.8504902 0.50931373
0.54362745 0.8504902 0.51617647
0.57628676 0.85373775 0.52647059
0.61568627 0.85465686 0.53308824
0.67745098 0.8723652 0.54227941
0.75367647 0.89656863 0.55404412
0.83192402 0.91329657 0.54852941
0.88333333 0.9254902 0.5495098
0.055882353 0.029411765 0.18823529
0.12830882 0.057352941 0.19607843
0.25759804 0.021078431 0.20759804
0.42254902 0.0078431373 0.21960784
0.58970588 0.0039215686 0.21127451
0.72316176 0 0.21715686
0.83039216 0.0039215686 0.22328431
0.91997549 0.016421569 0.22254902
0.98529412 0.068627451 0.22647059
0.027328431 0.11323529 0.19865196
0.12648591 0.11997549 0.20735294
0.26167279 0.11862745 0.21001838
0.42647059 0.079779412 0.21717218
0.58572304 0.052696078 0.22616422
0.71519608 0.053553922 0.22267157
0.82552083 0.083333333 0.22454044
0.91519608 0.13394608 0.22683824
0.99215686 0.18823529 0.23039216
0.013480392 0.25318627 0.22254902
0.13026961 0.24889706 0.21875
0.26642157 0.26176471 0.22175245
0.42166054 0.25894608 0.22784926
0.5689951 0.24803922 0.22107843
0.69607843 0.25294118 0.21568627
0.80765931 0.26139706 0.21881127
0.90441176 0.27380515 0.22156863
0.9872549 0.30563725 0.22181373
0.11372549 0.38529412 0.23921569
0.17299326 0.3769761 0.24166667
0.27074142 0.37867647 0.24558824
0.3821538 0.39166667 0.24105392
0.5341299 0.39393382 0.22800245
0.67193627 0.39702819 0.19901961
0.78088235 0.39384191 0.1953125
0.88137255 0.40502451 0.1995098
0.97401961 0.42095588 0.20526961
0.19411765 0.4754902 0.26715686
0.21323529 0.47058824 0.26323529
0.27781863 0.4625 0.26311275
0.35686275 0.46813725 0.25839461
0.49313725 0.5002451 0.24852941
0.65563725 0.54215686 0.23872549
0.76213235 0.51764706 0.20330882
0.86053922 0.51936275 0.17843137
0.94117647 0.53137255 0.18970588
0.23480392 0.55821078 0.28835784
0.25698529 0.55436581 0.28895527
0.2995098 0.53737745 0.28480392
0.34810049 0.52889093 0.27755821
0.44669118 0.56158088 0.28088235
0.60551471 0.60966605 0.28590686
0.74656863 0.64362745 0.275
0.8484375 0.6372549 0.23837316
0.93443627 0.64117647 0.22291667
0.29338235 0.6372549 0.32745098
0.30931373 0.63661152 0.32916667
0.33921569 0.6254902 0.32745098
0.37463235 0.61372549 0.32012868
0.44644608 0.62352941 0.32156863
0.55955882 0.65860907 0.32193627
0.68682598 0.69803922 0.3348652
0.81666667 0.7314951 0.34068627
0.92843137 0.75196078 0.32647059
0.38529412 0.73394608 0.40343137
0.39324449 0.7314185 0.40393689
0.41271446 0.72417279 0.39770221
0.44852941 0.71778493 0.39656863
0.49509804 0.71354167 0.39264706
0.58466605 0.74019608 0.40735294
0.68746936 0.77129289 0.41678922
0.80635723 0.81689645 0.44015012
0.91470588 0.85343137 0.45098039
0.52058824 0.85686275 0.53235294
0.52990196 0.85931373 0.53676471
0.55686275 0.86740196 0.54803922
0.5807598 0.86066176 0.54656863
0.61960784 0.85882353 0.55441176
0.6627451 0.85012255 0.53884804
0.74779412 0.88308824 0.55808824
0.83676471 0.91176471 0.57009804
0.88921569 0.92843137 0.57843137
0.10588235 0.050980392 0.33137255
0.14920343 0.035784314 0.33743873
0.28137255 0.058823529 0.34705882
0.42947304 0.032843137 0.36427696
0.59730392 0.0058823529 0.36911765
0.74466912 0.0078431373 0.36464461
0.85245098 0.0057598039 0.3622549
0.92941176 0.10196078 0.3653799
0.98823529 0.14852941 0.37303922
0.065686275 0.13039216 0.33743873
0.16160386 0.12804841 0.34136029
0.28419118 0.13713235 0.35039828
0.43500306 0.13271293 0.36427696
0.60931373 0.078584559 0.37662377
0.74589461 0.07254902 0.36911765
0.84474571 0.12156863 0.36519608
0.92930453 0.18576134 0.37056526
0.97383578 0.21372549 0.37058824
0.040196078 0.24718137 0.35
0.14361213 0.25231311 0.35
0.28069853 0.26960784 0.35802696
0.44123775 0.27634804 0.3756587
0.5901348 0.27126225 0.38088235
0.71666667 0.27768076 0.37303922
0.82205882 0.28826593 0.37058824
0.9122549 0.30454963 0.37089461
0.98823529 0.32830882 0.3745098
0.049816176 0.4088848 0.36911765
0.18756127 0.41629136 0.36747089
0.29856005 0.39865196 0.37765012
0.42214308 0.41076134 0.38331036
0.55879289 0.41813725 0.37696078
0.68846507 0.41259957 0.37457108
0.7932598 0.41617647 0.36372549
0.88940717 0.43193168 0.37303922
0.97849265 0.43970588 0.37303922
0.20343137 0.51421569 0.38823529
0.26338848 0.52843137 0.39322917
0.35098039 0.5151348 0.39460784
0.41617647 0.51056985 0.38900123
0.52696078 0.51531863 0.38235294
0.65827206 0.53063725 0.37377451
0.76256127 0.52279412 0.35790441
0.86240809 0.53072917 0.35082721
0.95612745 0.54436275 0.36519608
0.3028799 0.60055147 0.3995098
0.33351716 0.60055147 0.40723805
0.37401961 0.58962929 0.40758272
0.41372549 0.56767004 0.39074755
0.49044118 0.57113971 0.38581495
0.60720741 0.60798866 0.39466912
0.74417892 0.63541667 0.39215686
0.84852941 0.6372549 0.36930913
0.94117647 0.64362745 0.36421569
0.35588235 0.67107843 0.42794118
0.37107843 0.67011336 0.43186275
0.39715074 0.65955882 0.425
0.42794118 0.64215686 0.407644
0.46838235 0.6247549 0.39215686
0.57696078 0.6622549 0.40712316
0.7129902 0.71335784 0.43676471
0.8356924 0.74713542 0.44042586
0.93382353 0.76017157 0.42389706
0.4223652 0.74901961 0.46764706
0.42598039 0.74967065 0.46995251
0.44889706 0.74522059 0.46973039
0.4754902 0.7377451 0.45899969
0.51534926 0.72224265 0.45392157
0.58970588 0.7341299 0.45753676
0.6926011 0.77371324 0.47761949
0.80588235 0.81421569 0.49721967
0.92352941 0.8627451 0.52058824
0.5254902 0.86519608 0.56960784
0.521875 0.85784314 0.5622549
0.54509804 0.85919118 0.56752451
0.58284314 0.86911765 0.57892157
0.61960784 0.8627451 0.57965686
0.66568627 0.85435049 0.57444853
0.74656863 0.88676471 0.59264706
0.83890931 0.92040441 0.61078431
0.91617647 0.94362745 0.62058824
0.10784314 0.056862745 0.46666667
0.18480392 0.066176471 0.47058824
0.30392157 0.093137255 0.47843137
0.44362745 0.080637255 0.48872549
0.59019608 0.078431373 0.50196078
0.73137255 0.016666667 0.51372549
0.86568627 0.021078431 0.50784314
0.94828431 0.1377451 0.50955882
0.99607843 0.20588235 0.50588235
0.15245098 0.15343137 0.4745098
0.2120098 0.15686275 0.4745098
0.31599265 0.16384804 0.47843137
0.44754902 0.1745098 0.49329044
0.59044118 0.16985294 0.51164216
0.73351716 0.13716299 0.51544118
0.86421569 0.15784314 0.51348039
0.9448223 0.22015931 0.50588235
0.9879902 0.25171569 0.50784314
0.13431373 0.25392157 0.4745098
0.20343137 0.26317402 0.4745098
0.31335784 0.28026961 0.48333333
0.44699755 0.29607843 0.49803922
0.58970588 0.29607843 0.50955882
0.71758578 0.30502451 0.51960784
0.83921569 0.30968137 0.51568627
0.92401961 0.3314951 0.51237745
0.99607843 0.3495098 0.50980392
0.1127451 0.38284314 0.47892157
0.19362745 0.38676471 0.47956495
0.29344363 0.38970588 0.48670343
0.43213848 0.41617647 0.49926471
0.56838235 0.43137255 0.51703431
0.69754902 0.43648897 0.52352941
0.81029412 0.44313725 0.52352941
0.90416667 0.44990809 0.52147672
0.98431373 0.45563725 0.51495098
0.18235294 0.53137255 0.5
0.2622549 0.53529412 0.50196078
0.35833333 0.5379902 0.50980392
0.45245098 0.54031863 0.51151961
0.54558824 0.53284314 0.50588235
0.66985294 0.54509804 0.51213235
0.77941176 0.54313725 0.51372549
0.87806373 0.54901961 0.50980392
0.95686275 0.55098039 0.51078431
0.32745098 0.62990196 0.51127451
0.35352328 0.63186275 0.51813725
0.40931373 0.63480392 0.5254902
0.47892157 0.62297794 0.5208027
0.53333333 0.59803922 0.50551471
0.63746936 0.61813725 0.50588235
0.75281863 0.63382353 0.50189951
0.84990809 0.63740809 0.49549632
0.95294118 0.64240196 0.48627451
0.42156863 0.70588235 0.53578431
0.42886029 0.70637255 0.53841912
0.44718137 0.69693627 0.53394608
0.4932598 0.68327206 0.52248775
0.52598039 0.65833333 0.5002451
0.59099265 0.6622549 0.49289216
0.72022059 0.70980392 0.52340686
0.84460784 0.75238971 0.54234069
0.93872549 0.75588235 0.51715686
0.47745098 0.78014706 0.56568627
0.48550858 0.78431373 0.57527574
0.49050245 0.77432598 0.55784314
0.5247549 0.7643076 0.55147059
0.54375 0.74485294 0.52806373
0.5984375 0.7359375 0.52647059
0.70539216 0.78088235 0.55802696
0.8169424 0.82156863 0.57178309
0.92818627 0.86372549 0.58921569
0.54509804 0.88627451 0.63137255
0.55269608 0.88676471 0.63186275
0.56764706 0.88578431 0.62941176
0.59264706 0.88676471 0.62745098
0.6127451 0.85588235 0.60686275
0.67279412 0.86715686 0.62009804
0.74215686 0.87352941 0.62401961
0.83284314 0.90245098 0.6372549
0.91960784 0.9254902 0.63921569
0.23186275 0.11519608 0.59264706
0.25686275 0.11678922 0.59411765
0.35196078 0.13529412 0.59987745
0.46672794 0.14264706 0.60349265
0.59607843 0.18137255 0.61495098
0.71960784 0.17205882 0.62457108
0.83713235 0.17745098 0.63333333
0.94381127 0.22089461 0.63333333
0.99068627 0.25245098 0.63333333
0.23186275 0.18088235 0.59411765
0.27552849 0.18409161 0.59411765
0.36279105 0.19215686 0.59803922
0.47401961 0.20637255 0.60741422
0.59215686 0.23743873 0.61813725
0.71568627 0.24387255 0.63234528
0.82990196 0.24281556 0.6372549
0.94558824 0.26813725 0.6372549
0.98431373 0.28841912 0.63186275
0.22794118 0.27879902 0.59019608
0.27990196 0.28302696 0.59767157
0.36908701 0.29577206 0.59803922
0.47401961 0.31041667 0.60626532
0.59031863 0.32886029 0.61813725
0.70742953 0.34342831 0.63578431
0.81614583 0.35085784 0.63869485
0.92303922 0.37022059 0.6372549
0.99571078 0.38394608 0.63333333
0.17843137 0.37352941 0.58235294
0.23516391 0.37745098 0.58615962
0.33849571 0.39105392 0.59595588
0.4530867 0.41315104 0.60083487
0.58066789 0.43480392 0.61813725
0.69573376 0.45438879 0.63333333
0.8083027 0.46917892 0.64460784
0.90882353 0.47579657 0.64509804
0.98823529 0.4778799 0.64117647
0.20539216 0.50637255 0.59068627
0.25793505 0.50637255 0.59852941
0.34656863 0.50533088 0.60422794
0.43575368 0.51271446 0.60367647
0.55955882 0.53688725 0.61617647
0.67720588 0.55637255 0.62503064
0.79362745 0.56703431 0.64381127
0.89558824 0.57196691 0.64739583
0.98357843 0.56740196 0.64313725
0.31568627 0.63970588 0.61764706
0.33340227 0.63823529 0.61764706
0.4067402 0.63186275 0.61948529
0.4838848 0.63488817 0.6254902
0.56841299 0.63333333 0.6254902
0.67477022 0.65147059 0.6372549
0.77401961 0.65147059 0.63670343
0.86813725 0.65294118 0.62842371
0.96470588 0.64754902 0.62886029
0.43431373 0.73737745 0.64178922
0.45735294 0.73664216 0.64060968
0.49702819 0.7377451 0.64708946
0.54515931 0.73247549 0.64509804
0.59313725 0.72058824 0.63707108
0.64166667 0.70363051 0.61911765
0.73299632 0.71822917 0.62582721
0.84375 0.74077819 0.62855392
0.94509804 0.74803922 0.61286765
0.50833333 0.81862745 0.66372549
0.51617647 0.81862745 0.66764706
0.53835784 0.81168811 0.66409314
0.56600031 0.80342371 0.65405178
0.60113358 0.79181985 0.64068627
0.62843137 0.76421569 0.61452206
0.69852941 0.77147672 0.61617647
0.81911765 0.82350643 0.65132506
0.93890931 0.86666667 0.6627451
0.5622549 0.90735294 0.70098039
0.56832108 0.90128676 0.70098039
0.58186275 0.89522059 0.69852941
0.60300245 0.88290441 0.68976716
0.63480392 0.88529412 0.68161765
0.68284314 0.89166667 0.68284314
0.74705882 0.89019608 0.68137255
0.8346201 0.92156863 0.70165441
0.88333333 0.92303922 0.70098039
0.32843137 0.16666667 0.70588235
0.34411765 0.16409314 0.70490196
0.41470588 0.17647059 0.70514706
0.51127451 0.19301471 0.70882353
0.61666667 0.22941176 0.71666667
0.72303922 0.27401961 0.72843137
0.82647059 0.28529412 0.73235294
0.91519608 0.29754902 0.73762255
0.99607843 0.31176471 0.75098039
0.32058824 0.21519608 0.70196078
0.35108762 0.22284007 0.70185355
0.42735907 0.23195466 0.70585172
0.51311275 0.24656863 0.70882353
0.61862745 0.28082108 0.71372549
0.71813725 0.30767463 0.7245098
0.82257966 0.32086397 0.73789828
0.91421569 0.33883272 0.74722733
0.98909314 0.3504902 0.74411765
0.3245098 0.30098039 0.69803922
0.35603554 0.30784314 0.70119485
0.42254902 0.3151348 0.70588235
0.51127451 0.32708333 0.70882353
0.61470588 0.35355392 0.71666667
0.70891544 0.38244485 0.72205882
0.81305147 0.39877451 0.74117647
0.90799632 0.41115196 0.75196078
0.99509804 0.42965686 0.75514706
0.27009804 0.38811275 0.69019608
0.31662071 0.39393382 0.69705882
0.39730392 0.40416667 0.7018076
0.49630821 0.42193627 0.70490196
0.6026348 0.44491422 0.7127451
0.70343137 0.47585784 0.7245098
0.79901961 0.49586397 0.7372549
0.90134804 0.50686275 0.74840686
0.9872549 0.51752451 0.75980392
0.23333333 0.48578431 0.68921569
0.27457108 0.48192402 0.68970588
0.34019608 0.48897059 0.68970588
0.46709559 0.51421569 0.7036152
0.57941176 0.5370098 0.7127451
0.6879902 0.56348039 0.7245098
0.78823529 0.57732843 0.74019608
0.88627451 0.59074755 0.75196078
0.98137255 0.59509804 0.75833333
0.29117647 0.6127451 0.70539216
0.3225337 0.60721507 0.70245098
0.37647059 0.60919118 0.70036765
0.4567402 0.60882353 0.70637255
0.55306373 0.61617647 0.70882353
0.65539216 0.63296569 0.71574755
0.77846201 0.66001838 0.74019608
0.89027267 0.67803309 0.75522365
0.95931373 0.67598039 0.75294118
0.40686275 0.74019608 0.72941176
0.43247549 0.7372549 0.72941176
0.46764706 0.73333333 0.72941176
0.52564338 0.73517157 0.72843137
0.59607843 0.73553922 0.73431373
0.675 0.73627451 0.73627451
0.75196078 0.73333333 0.73253676
0.86133578 0.75735294 0.74166667
0.95490196 0.76764706 0.74191176
0.53737745 0.85245098 0.75894608
0.54123775 0.85212929 0.76017157
0.54375 0.84068627 0.75701593
0.58048407 0.83742341 0.75258885
0.64613971 0.83970588 0.75208333
0.68615196 0.82156863 0.74051777
0.72806373 0.79803922 0.71761642
0.84116115 0.84106924 0.74379596
0.94473039 0.85637255 0.74117647
0.58235294 0.92254902 0.77843137
0.59313725 0.92647059 0.77941176
0.6 0.91789216 0.78014706
0.63088235 0.92610294 0.78125
0.66960784 0.92352941 0.77745098
0.71262255 0.91323529 0.76654412
0.75980392 0.89681373 0.75269608
0.83419118 0.9182598 0.76029412
0.93627451 0.95294118 0.7872549
0.4372549 0.24901961 0.80931373
0.45637255 0.24901961 0.80980392
0.50539216 0.25147059 0.81372549
0.57107843 0.28676471 0.8096201
0.66176471 0.30759804 0.81715686
0.74607843 0.3341299 0.825
0.83382353 0.37806373 0.82892157
0.91519608 0.38970588 0.83676471
0.99264706 0.38578431 0.84852941
0.4372549 0.29160539 0.80931373
0.45686275 0.28768382 0.80625766
0.50539216 0.29385723 0.80588235
0.5713848 0.30492494 0.81323529
0.66176471 0.33336397 0.82107843
0.74656863 0.37074908 0.82156863
0.83002451 0.40179228 0.82977941
0.91482077 0.42800245 0.83988205
0.97996324 0.42745098 0.84160539
0.44031863 0.36323529 0.80931373
0.45379902 0.36421569 0.80931373
0.50551471 0.36789216 0.80867034
0.57268689 0.37855392 0.81323529
0.65484069 0.39613971 0.81746324
0.74215686 0.42401961 0.82107843
0.82622549 0.46253064 0.82990196
0.91139706 0.46613051 0.84068627
0.97990196 0.47058824 0.84754902
0.38284314 0.42941176 0.80324755
0.41832108 0.43596814 0.80588235
0.48382353 0.44376532 0.80539216
0.55667892 0.45619638 0.80931373
0.64721201 0.4765625 0.81372549
0.73431373 0.49705882 0.81973805
0.82296262 0.53370098 0.82892157
0.90504749 0.54574908 0.84052543
0.97990196 0.54166667 0.84460784
0.30735294 0.49215686 0.79803922
0.3502451 0.49877451 0.7997549
0.42328431 0.51323529 0.80367647
0.52181373 0.5341299 0.80971201
0.61985294 0.5497549 0.81360294
0.71470588 0.56666667 0.81862745
0.809375 0.59362745 0.82990196
0.90392157 0.61446078 0.84117647
0.98235294 0.62230392 0.85245098
0.28529412 0.59803922 0.79773284
0.32042739 0.59503676 0.79117647
0.367019 0.59785539 0.79540441
0.43518689 0.59418658 0.79725797
0.55505515 0.60882353 0.80931373
0.67941176 0.63756127 0.81441483
0.79509804 0.663894 0.83270527
0.89109222 0.68567708 0.84476869
0.96029412 0.70275735 0.85245098
0.37022059 0.7254902 0.81029412
0.39364277 0.72550551 0.81029412
0.43235294 0.7254902 0.81400123
0.48627451 0.72254902 0.80779718
0.56060049 0.71936275 0.81372549
0.6365962 0.7122549 0.81029412
0.76087623 0.74117647 0.82662377
0.87668505 0.76845895 0.84460784
0.96776961 0.7872549 0.85637255
0.47941176 0.84460784 0.8372549
0.4872549 0.84460784 0.83327972
0.51715686 0.84499081 0.83590686
0.56701134 0.85247396 0.83665748
0.61623775 0.85248162 0.83722426
0.70251225 0.85251225 0.84855239
0.78333333 0.85589767 0.84972426
0.86404718 0.859375 0.84852941
0.9533701 0.86862745 0.85251225
0.60637255 0.95245098 0.86372549
0.60594363 0.94117647 0.85980392
0.63578431 0.9504902 0.86372549
0.65735294 0.94117647 0.85637255
0.7004902 0.93627451 0.86004902
0.74393382 0.94509804 0.86158088
0.80686275 0.93835784 0.86335784
0.87205882 0.93817402 0.86029412
0.9377451 0.93284314 0.86421569
0.56470588 0.37647059 0.90588235
0.5877451 0.37647059 0.92107843
0.61862745 0.38039216 0.91764706
0.67156863 0.39852941 0.91764706
0.73333333 0.41568627 0.91372549
0.79215686 0.4245098 0.90147059
0.8754902 0.4745098 0.92156863
0.93431373 0.50196078 0.91764706
0.99607843 0.51764706 0.9372549
0.57598039 0.3995098 0.91764706
0.58431373 0.3995098 0.91421569
0.60919118 0.39791667 0.90821078
0.66029412 0.41372549 0.90882353
0.72352941 0.42303922 0.90759804
0.80030637 0.46354167 0.91764706
0.86960784 0.49068627 0.9185049
0.93872549 0.5216299 0.92199755
0.97254902 0.52941176 0.9254902
0.56470588 0.44901961 0.91372549
0.57990196 0.45196078 0.92058824
0.59240196 0.44215686 0.89828431
0.65441176 0.45931373 0.90772059
0.7254902 0.47647059 0.91519608
0.79117647 0.4932598 0.91127451
0.8627451 0.5254902 0.91544118
0.93431373 0.55232843 0.92156863
0.97843137 0.55196078 0.92254902
0.54117647 0.50686275 0.91372549
0.55765931 0.51060049 0.9158701
0.5747549 0.50637255 0.89681373
0.64558824 0.52346814 0.91372549
0.71519608 0.53823529 0.91960784
0.78088235 0.54607843 0.90680147
0.85686275 0.57389706 0.91764706
0.92824755 0.59901961 0.92156863
0.96715686 0.59460784 0.92009804
0.48039216 0.56666667 0.91176471
0.48602941 0.5625 0.90196078
0.54754902 0.5745098 0.9122549
0.61397059 0.58480392 0.92009804
0.68431373 0.59215686 0.91372549
0.76053922 0.60343137 0.90931373
0.84901961 0.62745098 0.92156863
0.91862745 0.64534314 0.92156863
0.98627451 0.65490196 0.92941176
0.40245098 0.63186275 0.92254902
0.40557598 0.62303922 0.89148284
0.44754902 0.6254902 0.90441176
0.53235294 0.63823529 0.91617647
0.62034314 0.64534314 0.90980392
0.73290441 0.66176471 0.91819853
0.83137255 0.68627451 0.92610294
0.91078431 0.70667892 0.9254902
0.99313725 0.7245098 0.93970588
0.39215686 0.7372549 0.88235294
0.42009804 0.74509804 0.91078431
0.43921569 0.73431373 0.90784314
0.51176471 0.73333333 0.91335784
0.56960784 0.72303922 0.92156863
0.6627451 0.72352941 0.92757353
0.77843137 0.74901961 0.91985294
0.89362745 0.77855392 0.92414216
0.95784314 0.79901961 0.91960784
0.44509804 0.84509804 0.89117647
0.47898284 0.85729167 0.92941176
0.5060049 0.85551471 0.9254902
0.54920343 0.85833333 0.92334559
0.60882353 0.84901961 0.91960784
0.66813725 0.84754902 0.93204657
0.75931373 0.83333333 0.9254902
0.85245098 0.85245098 0.93382353
0.96813725 0.88382353 0.93676471
0.55686275 0.95686275 0.9372549
0.56470588 0.96078431 0.94117647
0.5872549 0.95686275 0.9372549
0.62205882 0.94803922 0.92843137
0.6745098 0.96470588 0.94509804
0.7377451 0.95833333 0.93627451
0.80686275 0.94901961 0.91764706
0.8872549 0.95980392 0.94852941
0.96470588 0.91764706 0.93333333
