site/assets/luts/sha256-a4347b0997904ffdc2c5b333d21778e4d652053eeb2b9330b183bb8c7a408493.cube
# LUTr-Schema-Version: 2
# LUTr-ID: sha256-a4347b0997904ffdc2c5b333d21778e4d652053eeb2b9330b183bb8c7a408493
# LUTr-Title: fuji fp-3000b negative ++
# LUTr-Collection: Natron HaldCLUT
# LUTr-Collection-ID: natron-haldclut-presets
# LUTr-Source: https://github.com/NatronGitHub/clut
# LUTr-Retrieved: 2026-07-27
# LUTr-Source-File: submissions/natron-haldclut-presets/instant_pro/fuji_fp-3000b_negative_++.png
# LUTr-Source-Format: HALD-PNG
# LUTr-Source-SHA256: a4347b0997904ffdc2c5b333d21778e4d652053eeb2b9330b183bb8c7a408493
# LUTr-License: CC-BY-SA-4.0
# LUTr-License-URL: https://github.com/NatronGitHub/clut#license
# LUTr-License-Basis: repo-license-file
# LUTr-Transform-Class: film-emulation
# LUTr-Tags: creative, film, film-emulation, hald-clut, natron, png, cube
# LUTr-Input-Color-Space: srgb
# LUTr-Input-Gamut: rec709
# LUTr-Input-Transfer: srgb
# LUTr-Output-Color-Space: srgb
# LUTr-Output-Gamut: rec709
# LUTr-Output-Transfer: srgb
# LUTr-Color-Space-Confidence: assumed-display-referred
# LUTr-Domain-Normalized: true
# LUTr-Shaper: none
# LUTr-Original-Grid: 64x64x64
# LUTr-Conversion-Grid: 25x25x25
# LUTr-Conversion-Interpolation: trilinear
# LUTr-Conversion-Method: HALD-PNG LUT image decoded at 16-bit and sampled to 25x25x25 3D CUBE
# LUTr-Conversion-Tool: LUTr scripts/convert-all-to-cube.mjs 2.0.0
# LUTr-Conversion-Date: 2026-07-27
# LUTr-Note: Preserve this metadata and the upstream license notices when redistributing.
TITLE "fuji fp-3000b negative ++"
LUT_3D_SIZE 25
DOMAIN_MIN 0 0 0
DOMAIN_MAX 1 1 1
0.11372549 0.11372549 0.11372549
0.11764706 0.11764706 0.11764706
0.12156863 0.12156863 0.12156863
0.125 0.125 0.125
0.12941176 0.12941176 0.12941176
0.13382353 0.13382353 0.13382353
0.14019608 0.14019608 0.14019608
0.14264706 0.14264706 0.14264706
0.15294118 0.15294118 0.15294118
0.17352941 0.17352941 0.17352941
0.19803922 0.19803922 0.19803922
0.21862745 0.21862745 0.21862745
0.23921569 0.23921569 0.23921569
0.25931373 0.25931373 0.25931373
0.27647059 0.27647059 0.27647059
0.31568627 0.31568627 0.31568627
0.35686275 0.35686275 0.35686275
0.39558824 0.39558824 0.39558824
0.43529412 0.43529412 0.43529412
0.47647059 0.47647059 0.47647059
0.51372549 0.51372549 0.51372549
0.55490196 0.55490196 0.55490196
0.59607843 0.59607843 0.59607843
0.63186275 0.63186275 0.63186275
0.65882353 0.65882353 0.65882353
0.11372549 0.11372549 0.11372549
0.11764706 0.11764706 0.11764706
0.12218137 0.12218137 0.12218137
0.1276348 0.1276348 0.1276348
0.13382353 0.13382353 0.13382353
0.13988971 0.13988971 0.13988971
0.14362745 0.14362745 0.14362745
0.14901961 0.14901961 0.14901961
0.15931373 0.15931373 0.15931373
0.17745098 0.17745098 0.17745098
0.19803922 0.19803922 0.19803922
0.21862745 0.21862745 0.21862745
0.23921569 0.23921569 0.23921569
0.2596201 0.2596201 0.2596201
0.27892157 0.27892157 0.27892157
0.31813725 0.31813725 0.31813725
0.35686275 0.35686275 0.35686275
0.39803922 0.39803922 0.39803922
0.43713235 0.43713235 0.43713235
0.47647059 0.47647059 0.47647059
0.51764706 0.51764706 0.51764706
0.55882353 0.55882353 0.55882353
0.59889706 0.59889706 0.59889706
0.63578431 0.63578431 0.63578431
0.65882353 0.65882353 0.65882353
0.11372549 0.11372549 0.11372549
0.11715686 0.11715686 0.11715686
0.12573529 0.12573529 0.12573529
0.13296569 0.13296569 0.13296569
0.13970588 0.13970588 0.13970588
0.14522059 0.14522059 0.14522059
0.1497549 0.1497549 0.1497549
0.15931373 0.15931373 0.15931373
0.17352941 0.17352941 0.17352941
0.18627451 0.18627451 0.18627451
0.19877451 0.19877451 0.19877451
0.21776961 0.21776961 0.21776961
0.23970588 0.23970588 0.23970588
0.26519608 0.26519608 0.26519608
0.29313725 0.29313725 0.29313725
0.32512255 0.32512255 0.32512255
0.36470588 0.36470588 0.36470588
0.40232843 0.40232843 0.40232843
0.44019608 0.44019608 0.44019608
0.48051471 0.48051471 0.48051471
0.52156863 0.52156863 0.52156863
0.5627451 0.5627451 0.5627451
0.60171569 0.60171569 0.60171569
0.63970588 0.63970588 0.63970588
0.66372549 0.66372549 0.66372549
0.1245098 0.1245098 0.1245098
0.12745098 0.12745098 0.12745098
0.13382353 0.13382353 0.13382353
0.14019608 0.14019608 0.14019608
0.14485294 0.14485294 0.14485294
0.15245098 0.15245098 0.15245098
0.15931373 0.15931373 0.15931373
0.16960784 0.16960784 0.16960784
0.18382353 0.18382353 0.18382353
0.19656863 0.19656863 0.19656863
0.20833333 0.20833333 0.20833333
0.22248775 0.22248775 0.22248775
0.24852941 0.24852941 0.24852941
0.27892157 0.27892157 0.27892157
0.30637255 0.30637255 0.30637255
0.3372549 0.3372549 0.3372549
0.37205882 0.37205882 0.37205882
0.40931373 0.40931373 0.40931373
0.44656863 0.44656863 0.44656863
0.4877451 0.4877451 0.4877451
0.52892157 0.52892157 0.52892157
0.57009804 0.57009804 0.57009804
0.60747549 0.60747549 0.60747549
0.64362745 0.64362745 0.64362745
0.67009804 0.67009804 0.67009804
0.14117647 0.14117647 0.14117647
0.14117647 0.14117647 0.14117647
0.14313725 0.14313725 0.14313725
0.14681373 0.14681373 0.14681373
0.15 0.15 0.15
0.15710784 0.15710784 0.15710784
0.16568627 0.16568627 0.16568627
0.17990196 0.17990196 0.17990196
0.19411765 0.19411765 0.19411765
0.20833333 0.20833333 0.20833333
0.22303922 0.22303922 0.22303922
0.23848039 0.23848039 0.23848039
0.26078431 0.26078431 0.26078431
0.28970588 0.28970588 0.28970588
0.32058824 0.32058824 0.32058824
0.35147059 0.35147059 0.35147059
0.38431373 0.38431373 0.38431373
0.42034314 0.42034314 0.42034314
0.45882353 0.45882353 0.45882353
0.49803922 0.49803922 0.49803922
0.53921569 0.53921569 0.53921569
0.57647059 0.57647059 0.57647059
0.61617647 0.61617647 0.61617647
0.65220588 0.65220588 0.65220588
0.67843137 0.67843137 0.67843137
0.15735294 0.15735294 0.15735294
0.15735294 0.15735294 0.15735294
0.15343137 0.15343137 0.15343137
0.15300245 0.15300245 0.15300245
0.15514706 0.15514706 0.15514706
0.16176471 0.16176471 0.16176471
0.17598039 0.17598039 0.17598039
0.19166667 0.19166667 0.19166667
0.20833333 0.20833333 0.20833333
0.22254902 0.22254902 0.22254902
0.23811275 0.23811275 0.23811275
0.25490196 0.25490196 0.25490196
0.275 0.275 0.275
0.3004902 0.3004902 0.3004902
0.33394608 0.33394608 0.33394608
0.36746324 0.36746324 0.36746324
0.40098039 0.40098039 0.40098039
0.43792892 0.43792892 0.43792892
0.47536765 0.47536765 0.47536765
0.51231618 0.51231618 0.51231618
0.55 0.55 0.55
0.59025735 0.59025735 0.59025735
0.62536765 0.62536765 0.62536765
0.66127451 0.66127451 0.66127451
0.68676471 0.68676471 0.68676471
0.17156863 0.17156863 0.17156863
0.17095588 0.17095588 0.17095588
0.16740196 0.16740196 0.16740196
0.16286765 0.16286765 0.16286765
0.15833333 0.15833333 0.15833333
0.17205882 0.17205882 0.17205882
0.18921569 0.18921569 0.18921569
0.20441176 0.20441176 0.20441176
0.21862745 0.21862745 0.21862745
0.23529412 0.23529412 0.23529412
0.25171569 0.25171569 0.25171569
0.26862745 0.26862745 0.26862745
0.28872549 0.28872549 0.28872549
0.31727941 0.31727941 0.31727941
0.35122549 0.35122549 0.35122549
0.38492647 0.38492647 0.38492647
0.42156863 0.42156863 0.42156863
0.45637255 0.45637255 0.45637255
0.49142157 0.49142157 0.49142157
0.52683824 0.52683824 0.52683824
0.56519608 0.56519608 0.56519608
0.60098039 0.60098039 0.60098039
0.63823529 0.63823529 0.63823529
0.67009804 0.67009804 0.67009804
0.69411765 0.69411765 0.69411765
0.1872549 0.1872549 0.1872549
0.18480392 0.18480392 0.18480392
0.18333333 0.18333333 0.18333333
0.17941176 0.17941176 0.17941176
0.17696078 0.17696078 0.17696078
0.18431373 0.18431373 0.18431373
0.20159314 0.20159314 0.20159314
0.215625 0.215625 0.215625
0.22892157 0.22892157 0.22892157
0.24613971 0.24613971 0.24613971
0.26617647 0.26617647 0.26617647
0.28645833 0.28645833 0.28645833
0.30882353 0.30882353 0.30882353
0.3377451 0.3377451 0.3377451
0.36862745 0.36862745 0.36862745
0.40343137 0.40343137 0.40343137
0.43823529 0.43823529 0.43823529
0.47457108 0.47457108 0.47457108
0.50845588 0.50845588 0.50845588
0.54264706 0.54264706 0.54264706
0.57867647 0.57867647 0.57867647
0.61256127 0.61256127 0.61256127
0.64852941 0.64852941 0.64852941
0.68039216 0.68039216 0.68039216
0.6995098 0.6995098 0.6995098
0.20784314 0.20784314 0.20784314
0.20784314 0.20784314 0.20784314
0.20686275 0.20686275 0.20686275
0.20392157 0.20392157 0.20392157
0.20392157 0.20392157 0.20392157
0.20833333 0.20833333 0.20833333
0.21470588 0.21470588 0.21470588
0.225 0.225 0.225
0.23921569 0.23921569 0.23921569
0.25980392 0.25980392 0.25980392
0.28431373 0.28431373 0.28431373
0.30490196 0.30490196 0.30490196
0.32941176 0.32941176 0.32941176
0.35441176 0.35441176 0.35441176
0.38921569 0.38921569 0.38921569
0.42401961 0.42401961 0.42401961
0.45882353 0.45882353 0.45882353
0.49215686 0.49215686 0.49215686
0.52843137 0.52843137 0.52843137
0.55931373 0.55931373 0.55931373
0.59411765 0.59411765 0.59411765
0.6254902 0.6254902 0.6254902
0.65980392 0.65980392 0.65980392
0.69313725 0.69313725 0.69313725
0.70588235 0.70588235 0.70588235
0.23235294 0.23235294 0.23235294
0.23235294 0.23235294 0.23235294
0.23088235 0.23088235 0.23088235
0.22873775 0.22873775 0.22873775
0.22965686 0.22965686 0.22965686
0.23235294 0.23235294 0.23235294
0.23419118 0.23419118 0.23419118
0.23682598 0.23682598 0.23682598
0.25588235 0.25588235 0.25588235
0.28039216 0.28039216 0.28039216
0.30490196 0.30490196 0.30490196
0.3254902 0.3254902 0.3254902
0.35 0.35 0.35
0.375 0.375 0.375
0.40882353 0.40882353 0.40882353
0.44123775 0.44123775 0.44123775
0.4754902 0.4754902 0.4754902
0.51029412 0.51029412 0.51029412
0.54509804 0.54509804 0.54509804
0.57598039 0.57598039 0.57598039
0.60833333 0.60833333 0.60833333
0.64166667 0.64166667 0.64166667
0.67401961 0.67401961 0.67401961
0.70496324 0.70496324 0.70496324
0.7122549 0.7122549 0.7122549
0.25784314 0.25784314 0.25784314
0.25784314 0.25784314 0.25784314
0.25784314 0.25784314 0.25784314
0.25784314 0.25784314 0.25784314
0.25784314 0.25784314 0.25784314
0.25919118 0.25919118 0.25919118
0.26176471 0.26176471 0.26176471
0.26715686 0.26715686 0.26715686
0.28137255 0.28137255 0.28137255
0.30379902 0.30379902 0.30379902
0.32647059 0.32647059 0.32647059
0.34705882 0.34705882 0.34705882
0.37058824 0.37058824 0.37058824
0.39546569 0.39546569 0.39546569
0.42647059 0.42647059 0.42647059
0.46127451 0.46127451 0.46127451
0.49607843 0.49607843 0.49607843
0.52941176 0.52941176 0.52941176
0.56176471 0.56176471 0.56176471
0.59522059 0.59522059 0.59522059
0.62745098 0.62745098 0.62745098
0.65833333 0.65833333 0.65833333
0.68921569 0.68921569 0.68921569
0.71862745 0.71862745 0.71862745
0.71862745 0.71862745 0.71862745
0.28529412 0.28529412 0.28529412
0.28529412 0.28529412 0.28529412
0.28529412 0.28529412 0.28529412
0.2848652 0.2848652 0.2848652
0.28872549 0.28872549 0.28872549
0.29264706 0.29264706 0.29264706
0.29558824 0.29558824 0.29558824
0.30177696 0.30177696 0.30177696
0.3122549 0.3122549 0.3122549
0.33284314 0.33284314 0.33284314
0.35355392 0.35355392 0.35355392
0.37101716 0.37101716 0.37101716
0.39117647 0.39117647 0.39117647
0.4122549 0.4122549 0.4122549
0.4435049 0.4435049 0.4435049
0.47941176 0.47941176 0.47941176
0.5127451 0.5127451 0.5127451
0.54785539 0.54785539 0.54785539
0.58235294 0.58235294 0.58235294
0.61323529 0.61323529 0.61323529
0.64411765 0.64411765 0.64411765
0.67506127 0.67506127 0.67506127
0.70637255 0.70637255 0.70637255
0.72647059 0.72647059 0.72647059
0.72892157 0.72892157 0.72892157
0.31176471 0.31176471 0.31176471
0.31495098 0.31495098 0.31495098
0.31568627 0.31568627 0.31568627
0.31568627 0.31568627 0.31568627
0.32058824 0.32058824 0.32058824
0.32573529 0.32573529 0.32573529
0.33088235 0.33088235 0.33088235
0.33529412 0.33529412 0.33529412
0.34313725 0.34313725 0.34313725
0.3625 0.3625 0.3625
0.38039216 0.38039216 0.38039216
0.39705882 0.39705882 0.39705882
0.41470588 0.41470588 0.41470588
0.43235294 0.43235294 0.43235294
0.46372549 0.46372549 0.46372549
0.49852941 0.49852941 0.49852941
0.53333333 0.53333333 0.53333333
0.56813725 0.56813725 0.56813725
0.60294118 0.60294118 0.60294118
0.63382353 0.63382353 0.63382353
0.66470588 0.66470588 0.66470588
0.69338235 0.69338235 0.69338235
0.71764706 0.71764706 0.71764706
0.73553922 0.73553922 0.73553922
0.74313725 0.74313725 0.74313725
0.35931373 0.35931373 0.35931373
0.35931373 0.35931373 0.35931373
0.36029412 0.36029412 0.36029412
0.36280637 0.36280637 0.36280637
0.3627451 0.3627451 0.3627451
0.36366422 0.36366422 0.36366422
0.36666667 0.36666667 0.36666667
0.37058824 0.37058824 0.37058824
0.3745098 0.3745098 0.3745098
0.39479167 0.39479167 0.39479167
0.41176471 0.41176471 0.41176471
0.42886029 0.42886029 0.42886029
0.44877451 0.44877451 0.44877451
0.465625 0.465625 0.465625
0.48884804 0.48884804 0.48884804
0.52303922 0.52303922 0.52303922
0.55441176 0.55441176 0.55441176
0.58872549 0.58872549 0.58872549
0.62046569 0.62046569 0.62046569
0.65392157 0.65392157 0.65392157
0.68137255 0.68137255 0.68137255
0.70735294 0.70735294 0.70735294
0.72794118 0.72794118 0.72794118
0.74460784 0.74460784 0.74460784
0.75392157 0.75392157 0.75392157
0.41078431 0.41078431 0.41078431
0.41078431 0.41078431 0.41078431
0.41078431 0.41078431 0.41078431
0.41078431 0.41078431 0.41078431
0.41078431 0.41078431 0.41078431
0.41078431 0.41078431 0.41078431
0.40784314 0.40784314 0.40784314
0.41176471 0.41176471 0.41176471
0.41568627 0.41568627 0.41568627
0.43382353 0.43382353 0.43382353
0.45196078 0.45196078 0.45196078
0.46960784 0.46960784 0.46960784
0.48480392 0.48480392 0.48480392
0.50294118 0.50294118 0.50294118
0.52426471 0.52426471 0.52426471
0.5504902 0.5504902 0.5504902
0.57843137 0.57843137 0.57843137
0.60931373 0.60931373 0.60931373
0.64019608 0.64019608 0.64019608
0.67107843 0.67107843 0.67107843
0.69705882 0.69705882 0.69705882
0.71764706 0.71764706 0.71764706
0.73823529 0.73823529 0.73823529
0.75735294 0.75735294 0.75735294
0.77058824 0.77058824 0.77058824
0.46617647 0.46617647 0.46617647
0.46617647 0.46617647 0.46617647
0.46433824 0.46433824 0.46433824
0.4627451 0.4627451 0.4627451
0.4622549 0.4622549 0.4622549
0.45814951 0.45814951 0.45814951
0.45 0.45 0.45
0.44993873 0.44993873 0.44993873
0.46078431 0.46078431 0.46078431
0.475 0.475 0.475
0.49019608 0.49019608 0.49019608
0.50557598 0.50557598 0.50557598
0.52205882 0.52205882 0.52205882
0.53872549 0.53872549 0.53872549
0.56041667 0.56041667 0.56041667
0.58382353 0.58382353 0.58382353
0.60833333 0.60833333 0.60833333
0.634375 0.634375 0.634375
0.66078431 0.66078431 0.66078431
0.68823529 0.68823529 0.68823529
0.70735294 0.70735294 0.70735294
0.72794118 0.72794118 0.72794118
0.74852941 0.74852941 0.74852941
0.76911765 0.76911765 0.76911765
0.78333333 0.78333333 0.78333333
0.51764706 0.51764706 0.51764706
0.51519608 0.51519608 0.51519608
0.51470588 0.51470588 0.51470588
0.51421569 0.51421569 0.51421569
0.50980392 0.50980392 0.50980392
0.50147059 0.50147059 0.50147059
0.49509804 0.49509804 0.49509804
0.49019608 0.49019608 0.49019608
0.50196078 0.50196078 0.50196078
0.51470588 0.51470588 0.51470588
0.52745098 0.52745098 0.52745098
0.54068627 0.54068627 0.54068627
0.55490196 0.55490196 0.55490196
0.57352941 0.57352941 0.57352941
0.59411765 0.59411765 0.59411765
0.61862745 0.61862745 0.61862745
0.63921569 0.63921569 0.63921569
0.66372549 0.66372549 0.66372549
0.68431373 0.68431373 0.68431373
0.70098039 0.70098039 0.70098039
0.72156863 0.72156863 0.72156863
0.74215686 0.74215686 0.74215686
0.7627451 0.7627451 0.7627451
0.77941176 0.77941176 0.77941176
0.79607843 0.79607843 0.79607843
0.56519608 0.56519608 0.56519608
0.56519608 0.56519608 0.56519608
0.56519608 0.56519608 0.56519608
0.56305147 0.56305147 0.56305147
0.55686275 0.55686275 0.55686275
0.54901961 0.54901961 0.54901961
0.54019608 0.54019608 0.54019608
0.53474265 0.53474265 0.53474265
0.53921569 0.53921569 0.53921569
0.55251225 0.55251225 0.55251225
0.56409314 0.56409314 0.56409314
0.5776348 0.5776348 0.5776348
0.59093137 0.59093137 0.59093137
0.60686275 0.60686275 0.60686275
0.62855392 0.62855392 0.62855392
0.64705882 0.64705882 0.64705882
0.66617647 0.66617647 0.66617647
0.68823529 0.68823529 0.68823529
0.70428922 0.70428922 0.70428922
0.71813725 0.71813725 0.71813725
0.73431373 0.73431373 0.73431373
0.75245098 0.75245098 0.75245098
0.77303922 0.77303922 0.77303922
0.79215686 0.79215686 0.79215686
0.80245098 0.80245098 0.80245098
0.6127451 0.6127451 0.6127451
0.6127451 0.6127451 0.6127451
0.6127451 0.6127451 0.6127451
0.61176471 0.61176471 0.61176471
0.60441176 0.60441176 0.60441176
0.59656863 0.59656863 0.59656863
0.58627451 0.58627451 0.58627451
0.58247549 0.58247549 0.58247549
0.58529412 0.58529412 0.58529412
0.59460784 0.59460784 0.59460784
0.60490196 0.60490196 0.60490196
0.61605392 0.61605392 0.61605392
0.62990196 0.62990196 0.62990196
0.64362745 0.64362745 0.64362745
0.65612745 0.65612745 0.65612745
0.67156863 0.67156863 0.67156863
0.68823529 0.68823529 0.68823529
0.70882353 0.70882353 0.70882353
0.7245098 0.7245098 0.7245098
0.73823529 0.73823529 0.73823529
0.7504902 0.7504902 0.7504902
0.76666667 0.76666667 0.76666667
0.7872549 0.7872549 0.7872549
0.80245098 0.80245098 0.80245098
0.80882353 0.80882353 0.80882353
0.65686275 0.65686275 0.65686275
0.65686275 0.65686275 0.65686275
0.65686275 0.65686275 0.65686275
0.65686275 0.65686275 0.65686275
0.65098039 0.65098039 0.65098039
0.64411765 0.64411765 0.64411765
0.63676471 0.63676471 0.63676471
0.63284314 0.63284314 0.63284314
0.63333333 0.63333333 0.63333333
0.63970588 0.63970588 0.63970588
0.6495098 0.6495098 0.6495098
0.66029412 0.66029412 0.66029412
0.6745098 0.6745098 0.6745098
0.68131127 0.68131127 0.68131127
0.68860294 0.68860294 0.68860294
0.69803922 0.69803922 0.69803922
0.7127451 0.7127451 0.7127451
0.72941176 0.72941176 0.72941176
0.74509804 0.74509804 0.74509804
0.75539216 0.75539216 0.75539216
0.76960784 0.76960784 0.76960784
0.78382353 0.78382353 0.78382353
0.79754902 0.79754902 0.79754902
0.8091299 0.8091299 0.8091299
0.81519608 0.81519608 0.81519608
0.69411765 0.69411765 0.69411765
0.69411765 0.69411765 0.69411765
0.69803922 0.69803922 0.69803922
0.69803922 0.69803922 0.69803922
0.69705882 0.69705882 0.69705882
0.68995098 0.68995098 0.68995098
0.68480392 0.68480392 0.68480392
0.68431373 0.68431373 0.68431373
0.68431373 0.68431373 0.68431373
0.68553922 0.68553922 0.68553922
0.69313725 0.69313725 0.69313725
0.70539216 0.70539216 0.70539216
0.7127451 0.7127451 0.7127451
0.71985294 0.71985294 0.71985294
0.7254902 0.7254902 0.7254902
0.73406863 0.73406863 0.73406863
0.74117647 0.74117647 0.74117647
0.75073529 0.75073529 0.75073529
0.7622549 0.7622549 0.7622549
0.77598039 0.77598039 0.77598039
0.78823529 0.78823529 0.78823529
0.8004902 0.8004902 0.8004902
0.8127451 0.8127451 0.8127451
0.81838235 0.81838235 0.81838235
0.82352941 0.82352941 0.82352941
0.73088235 0.73088235 0.73088235
0.73137255 0.73137255 0.73137255
0.73492647 0.73492647 0.73492647
0.73829657 0.73829657 0.73829657
0.73921569 0.73921569 0.73921569
0.73872549 0.73872549 0.73872549
0.73529412 0.73529412 0.73529412
0.73351716 0.73351716 0.73351716
0.73137255 0.73137255 0.73137255
0.73137255 0.73137255 0.73137255
0.73627451 0.73627451 0.73627451
0.74607843 0.74607843 0.74607843
0.75220588 0.75220588 0.75220588
0.75790441 0.75790441 0.75790441
0.76176471 0.76176471 0.76176471
0.76568627 0.76568627 0.76568627
0.76960784 0.76960784 0.76960784
0.77352941 0.77352941 0.77352941
0.78235294 0.78235294 0.78235294
0.79564951 0.79564951 0.79564951
0.80686275 0.80686275 0.80686275
0.81709559 0.81709559 0.81709559
0.82303922 0.82303922 0.82303922
0.82794118 0.82794118 0.82794118
0.83186275 0.83186275 0.83186275
0.76862745 0.76862745 0.76862745
0.7692402 0.7692402 0.7692402
0.76960784 0.76960784 0.76960784
0.76960784 0.76960784 0.76960784
0.76519608 0.76519608 0.76519608
0.76115196 0.76115196 0.76115196
0.76666667 0.76666667 0.76666667
0.76960784 0.76960784 0.76960784
0.76862745 0.76862745 0.76862745
0.76752451 0.76752451 0.76752451
0.76985294 0.76985294 0.76985294
0.77438725 0.77438725 0.77438725
0.77843137 0.77843137 0.77843137
0.78235294 0.78235294 0.78235294
0.78602941 0.78602941 0.78602941
0.78958333 0.78958333 0.78958333
0.79019608 0.79019608 0.79019608
0.79595588 0.79595588 0.79595588
0.80294118 0.80294118 0.80294118
0.81323529 0.81323529 0.81323529
0.82352941 0.82352941 0.82352941
0.83039216 0.83039216 0.83039216
0.83406863 0.83406863 0.83406863
0.83823529 0.83823529 0.83823529
0.84215686 0.84215686 0.84215686
0.79901961 0.79901961 0.79901961
0.79901961 0.79901961 0.79901961
0.79509804 0.79509804 0.79509804
0.79019608 0.79019608 0.79019608
0.77254902 0.77254902 0.77254902
0.76519608 0.76519608 0.76519608
0.77941176 0.77941176 0.77941176
0.79117647 0.79117647 0.79117647
0.79656863 0.79656863 0.79656863
0.79901961 0.79901961 0.79901961
0.79901961 0.79901961 0.79901961
0.79901961 0.79901961 0.79901961
0.80294118 0.80294118 0.80294118
0.80686275 0.80686275 0.80686275
0.80796569 0.80796569 0.80796569
0.81078431 0.81078431 0.81078431
0.81470588 0.81470588 0.81470588
0.81715686 0.81715686 0.81715686
0.82316176 0.82316176 0.82316176
0.83204657 0.83204657 0.83204657
0.8375 0.8375 0.8375
0.84068627 0.84068627 0.84068627
0.8442402 0.8442402 0.8442402
0.84607843 0.84607843 0.84607843
0.85098039 0.85098039 0.85098039
0.81960784 0.81960784 0.81960784
0.81960784 0.81960784 0.81960784
0.81470588 0.81470588 0.81470588
0.79705882 0.79705882 0.79705882
0.7745098 0.7745098 0.7745098
0.76568627 0.76568627 0.76568627
0.78235294 0.78235294 0.78235294
0.79901961 0.79901961 0.79901961
0.81568627 0.81568627 0.81568627
0.81960784 0.81960784 0.81960784
0.81666667 0.81666667 0.81666667
0.81960784 0.81960784 0.81960784
0.82156863 0.82156863 0.82156863
0.82401961 0.82401961 0.82401961
0.82745098 0.82745098 0.82745098
0.82745098 0.82745098 0.82745098
0.83137255 0.83137255 0.83137255
0.83382353 0.83382353 0.83382353
0.84019608 0.84019608 0.84019608
0.84656863 0.84656863 0.84656863
0.84705882 0.84705882 0.84705882
0.84754902 0.84754902 0.84754902
0.85098039 0.85098039 0.85098039
0.85490196 0.85490196 0.85490196
0.85882353 0.85882353 0.85882353
0.12009804 0.12009804 0.12009804
0.12009804 0.12009804 0.12009804
0.12156863 0.12156863 0.12156863
0.125 0.125 0.125
0.12818627 0.12818627 0.12818627
0.13382353 0.13382353 0.13382353
0.14019608 0.14019608 0.14019608
0.14901961 0.14901961 0.14901961
0.15931373 0.15931373 0.15931373
0.17745098 0.17745098 0.17745098
0.19803922 0.19803922 0.19803922
0.21862745 0.21862745 0.21862745
0.24166667 0.24166667 0.24166667
0.2622549 0.2622549 0.2622549
0.28615196 0.28615196 0.28615196
0.32113971 0.32113971 0.32113971
0.36078431 0.36078431 0.36078431
0.39895833 0.39895833 0.39895833
0.43884804 0.43884804 0.43884804
0.47677696 0.47677696 0.47677696
0.51764706 0.51764706 0.51764706
0.55882353 0.55882353 0.55882353
0.6 0.6 0.6
0.63578431 0.63578431 0.63578431
0.66127451 0.66127451 0.66127451
0.12009804 0.12009804 0.12009804
0.12009804 0.12009804 0.12009804
0.12218137 0.12218137 0.12218137
0.1276348 0.1276348 0.1276348
0.13259804 0.13259804 0.13259804
0.13988971 0.13988971 0.13988971
0.14610907 0.14610907 0.14610907
0.15481771 0.15481771 0.15481771
0.16568627 0.16568627 0.16568627
0.18082108 0.18082108 0.18082108
0.19803922 0.19803922 0.19803922
0.21862745 0.21862745 0.21862745
0.24090074 0.24090074 0.24090074
0.2633655 0.2633655 0.2633655
0.28860294 0.28860294 0.28860294
0.32263327 0.32263327 0.32263327
0.36231618 0.36231618 0.36231618
0.40161612 0.40161612 0.40161612
0.43907782 0.43907782 0.43907782
0.47811734 0.47811734 0.47811734
0.51917892 0.51917892 0.51917892
0.56035539 0.56035539 0.56035539
0.6 0.6 0.6
0.63731618 0.63731618 0.63731618
0.66219363 0.66219363 0.66219363
0.12009804 0.12009804 0.12009804
0.12140012 0.12140012 0.12140012
0.12735907 0.12735907 0.12735907
0.13405331 0.13405331 0.13405331
0.13970588 0.13970588 0.13970588
0.14652267 0.14652267 0.14652267
0.15477941 0.15477941 0.15477941
0.16323529 0.16323529 0.16323529
0.17598039 0.17598039 0.17598039
0.1877451 0.1877451 0.1877451
0.20015319 0.20015319 0.20015319
0.21654412 0.21654412 0.21654412
0.24178922 0.24178922 0.24178922
0.27156863 0.27156863 0.27156863
0.29852941 0.29852941 0.29852941
0.32982537 0.32982537 0.32982537
0.36752451 0.36752451 0.36752451
