site/assets/luts/sha256-fdd84dff165771b6291af8b5933fbceeec807627821ce86fe73ac70f50deec6a.cube
# LUTr-Schema-Version: 2
# LUTr-ID: sha256-fdd84dff165771b6291af8b5933fbceeec807627821ce86fe73ac70f50deec6a
# LUTr-Title: kodak portra 160 nc ++
# LUTr-Collection: Natron HaldCLUT
# LUTr-Collection-ID: natron-haldclut-presets
# LUTr-Source: https://github.com/NatronGitHub/clut
# LUTr-Retrieved: 2026-07-27
# LUTr-Source-File: submissions/natron-haldclut-presets/negative_old/kodak_portra_160_nc_++.png
# LUTr-Source-Format: HALD-PNG
# LUTr-Source-SHA256: fdd84dff165771b6291af8b5933fbceeec807627821ce86fe73ac70f50deec6a
# LUTr-License: CC-BY-SA-4.0
# LUTr-License-URL: https://github.com/NatronGitHub/clut#license
# LUTr-License-Basis: repo-license-file
# LUTr-Transform-Class: film-emulation
# LUTr-Tags: creative, film, film-emulation, hald-clut, natron, png, cube
# LUTr-Input-Color-Space: srgb
# LUTr-Input-Gamut: rec709
# LUTr-Input-Transfer: srgb
# LUTr-Output-Color-Space: srgb
# LUTr-Output-Gamut: rec709
# LUTr-Output-Transfer: srgb
# LUTr-Color-Space-Confidence: assumed-display-referred
# LUTr-Domain-Normalized: true
# LUTr-Shaper: none
# LUTr-Original-Grid: 64x64x64
# LUTr-Conversion-Grid: 25x25x25
# LUTr-Conversion-Interpolation: trilinear
# LUTr-Conversion-Method: HALD-PNG LUT image decoded at 16-bit and sampled to 25x25x25 3D CUBE
# LUTr-Conversion-Tool: LUTr scripts/convert-all-to-cube.mjs 2.0.0
# LUTr-Conversion-Date: 2026-07-27
# LUTr-Note: Preserve this metadata and the upstream license notices when redistributing.
TITLE "kodak portra 160 nc ++"
LUT_3D_SIZE 5
DOMAIN_MIN 0 0 0
DOMAIN_MAX 1 1 1
0.054901961 0.066666667 0.050980392
0.20686275 0.062745098 0.05
0.51568627 0.021568627 0.023529412
0.77647059 0.089215686 0.011764706
0.98039216 0.23921569 0.0078431373
0.0078431373 0.19509804 0.076470588
0.22965686 0.24901961 0.033088235
0.56176471 0.24754902 0.016666667
0.80612745 0.2754902 0.0075980392
0.95980392 0.32647059 0.0078431373
0.0019607843 0.48627451 0.20196078
0.071078431 0.50490196 0.21470588
0.47843137 0.56078431 0.031372549
0.81127451 0.56176471 0.0039215686
0.98627451 0.5254902 0.035294118
0.026470588 0.71372549 0.39215686
0.17965686 0.71666667 0.41568627
0.4127451 0.73382353 0.39460784
0.71666667 0.77083333 0.27156863
0.9754902 0.78431373 0.19607843
0.55686275 0.90196078 0.68235294
0.59117647 0.90980392 0.69705882
0.63333333 0.90392157 0.69019608
0.74705882 0.93333333 0.67745098
0.90588235 0.96470588 0.64705882
0.058823529 0.081372549 0.21078431
0.24926471 0.06372549 0.21568627
0.53823529 0.017156863 0.2
0.77156863 0.16078431 0.22377451
0.96078431 0.27352941 0.23921569
0.076960784 0.23431373 0.24485294
0.28584559 0.26078431 0.26335784
0.55208333 0.27855392 0.24166667
0.78860294 0.30686275 0.23431373
0.97058824 0.37009804 0.24607843
0.20588235 0.51715686 0.36176471
0.26960784 0.52340686 0.35784314
0.51176471 0.56470588 0.3004902
0.81090686 0.54632353 0.24632353
0.98872549 0.54705882 0.26617647
0.27083333 0.7245098 0.47965686
0.3245098 0.72058824 0.47849265
0.46286765 0.72953431 0.46617647
0.73866422 0.77156863 0.39589461
0.96862745 0.78039216 0.35490196
0.59901961 0.90686275 0.71372549
0.61887255 0.91568627 0.72254902
0.66519608 0.91666667 0.72843137
0.75490196 0.93333333 0.70490196
0.86666667 0.94901961 0.66666667
0.017647059 0.1 0.53333333
0.29705882 0.10784314 0.53921569
0.57058824 0.16862745 0.5372549
0.79362745 0.23088235 0.49901961
0.96862745 0.28235294 0.46862745
0.076470588 0.29362745 0.54852941
0.31862745 0.31151961 0.55404412
0.58235294 0.35147059 0.55833333
0.80147059 0.36384804 0.51470588
0.96960784 0.39068627 0.48872549
0.25490196 0.54901961 0.56862745
0.36666667 0.56078431 0.56348039
0.58333333 0.5745098 0.58235294
0.79607843 0.57058824 0.54166667
0.95588235 0.57156863 0.52352941
0.48039216 0.74411765 0.64509804
0.52181373 0.74178922 0.64031863
0.58823529 0.74460784 0.64215686
0.7682598 0.77083333 0.60882353
0.96862745 0.77254902 0.58039216
0.66666667 0.90980392 0.77647059
0.67598039 0.91323529 0.77647059
0.70196078 0.91470588 0.77254902
0.77598039 0.92843137 0.76911765
0.91372549 0.96078431 0.74509804
0.25098039 0.22941176 0.78333333
0.41004902 0.26372549 0.7872549
0.63627451 0.32745098 0.78333333
0.82254902 0.39607843 0.76691176
0.94509804 0.44509804 0.74509804
0.28921569 0.37156863 0.7754902
0.41862745 0.3872549 0.77965686
0.63737745 0.4372549 0.79019608
0.82947304 0.48553922 0.77941176
0.95686275 0.53504902 0.74509804
0.24166667 0.57156863 0.76372549
0.39656863 0.57512255 0.77401961
0.61495098 0.60245098 0.77941176
0.81127451 0.64080882 0.78296569
0.94509804 0.65294118 0.76029412
0.47352941 0.76053922 0.7754902
0.53455882 0.7629902 0.77922794
0.65294118 0.76372549 0.79031863
0.79356618 0.78351716 0.7997549
0.94607843 0.77720588 0.77647059
0.70980392 0.9254902 0.85588235
0.71666667 0.91789216 0.85196078
0.76911765 0.92598039 0.85980392
0.82647059 0.92230392 0.85294118
0.95196078 0.92745098 0.81862745
0.53333333 0.48235294 0.94509804
0.59411765 0.49705882 0.95294118
0.71960784 0.52941176 0.93529412
0.86862745 0.60882353 0.9372549
0.98431373 0.65490196 0.9372549
0.55196078 0.54705882 0.94901961
0.58235294 0.53848039 0.93333333
0.73480392 0.59852941 0.9504902
0.86544118 0.64387255 0.9372549
0.96960784 0.68627451 0.93823529
0.53333333 0.66078431 0.94509804
0.59509804 0.66617647 0.9495098
0.7127451 0.68137255 0.94313725
0.86519608 0.72647059 0.94509804
0.97058824 0.75686275 0.94509804
0.55098039 0.79509804 0.94509804
0.58137255 0.79411765 0.9370098
0.66470588 0.79656863 0.94558824
0.83333333 0.81691176 0.95
0.94901961 0.85294118 0.94901961
0.70980392 0.95686275 0.96078431
0.72058824 0.94509804 0.94215686
0.75882353 0.93921569 0.94901961
0.85686275 0.95392157 0.95784314
0.94901961 0.91372549 0.94901961
