site/assets/luts/sha256-68cafdb21e43389372e10c261994a936f8abd0ef445c6b11af11f59b6e6384c2.cube
# LUTr-Schema-Version: 2
# LUTr-ID: sha256-68cafdb21e43389372e10c261994a936f8abd0ef445c6b11af11f59b6e6384c2
# LUTr-Title: fuji superia 800
# LUTr-Collection: Natron HaldCLUT
# LUTr-Collection-ID: natron-haldclut-presets
# LUTr-Source: https://github.com/NatronGitHub/clut
# LUTr-Retrieved: 2026-07-27
# LUTr-Source-File: submissions/natron-haldclut-presets/negative_old/fuji_superia_800.png
# LUTr-Source-Format: HALD-PNG
# LUTr-Source-SHA256: 68cafdb21e43389372e10c261994a936f8abd0ef445c6b11af11f59b6e6384c2
# LUTr-License: CC-BY-SA-4.0
# LUTr-License-URL: https://github.com/NatronGitHub/clut#license
# LUTr-License-Basis: repo-license-file
# LUTr-Transform-Class: film-emulation
# LUTr-Tags: creative, film, film-emulation, hald-clut, natron, png, cube
# LUTr-Input-Color-Space: srgb
# LUTr-Input-Gamut: rec709
# LUTr-Input-Transfer: srgb
# LUTr-Output-Color-Space: srgb
# LUTr-Output-Gamut: rec709
# LUTr-Output-Transfer: srgb
# LUTr-Color-Space-Confidence: assumed-display-referred
# LUTr-Domain-Normalized: true
# LUTr-Shaper: none
# LUTr-Original-Grid: 64x64x64
# LUTr-Conversion-Grid: 25x25x25
# LUTr-Conversion-Interpolation: trilinear
# LUTr-Conversion-Method: HALD-PNG LUT image decoded at 16-bit and sampled to 25x25x25 3D CUBE
# LUTr-Conversion-Tool: LUTr scripts/convert-all-to-cube.mjs 2.0.0
# LUTr-Conversion-Date: 2026-07-27
# LUTr-Note: Preserve this metadata and the upstream license notices when redistributing.
TITLE "fuji superia 800"
LUT_3D_SIZE 25
DOMAIN_MIN 0 0 0
DOMAIN_MAX 1 1 1
0.0039215686 0.070588235 0.074509804
0.014215686 0.073039216 0.074509804
0.029411765 0.075490196 0.074509804
0.046078431 0.078431373 0.074509804
0.066666667 0.074509804 0.074509804
0.095588235 0.078431373 0.070098039
0.12647059 0.078431373 0.066666667
0.17352941 0.079901961 0.062745098
0.23137255 0.082352941 0.062745098
0.28676471 0.082352941 0.062745098
0.33431373 0.082352941 0.062745098
0.39705882 0.078431373 0.058823529
0.4627451 0.07254902 0.050980392
0.5245098 0.066176471 0.042647059
0.58235294 0.055882353 0.035294118
0.64019608 0.041666667 0.024509804
0.69411765 0.043137255 0.019607843
0.74313725 0.065686275 0.027941176
0.79215686 0.053921569 0
0.83333333 0.088235294 0.0039215686
0.87647059 0.11960784 0.0039215686
0.91519608 0.14607843 0
0.94607843 0.17058824 0
0.97843137 0.19901961 0
1 0.21568627 0.0039215686
0 0.066666667 0.070588235
0.014215686 0.073039216 0.074509804
0.028431373 0.079044118 0.074509804
0.043933824 0.080882353 0.074509804
0.063480392 0.078431373 0.074509804
0.098223039 0.085110294 0.073039216
0.13578431 0.090563725 0.070588235
0.18235294 0.092647059 0.065196078
0.23529412 0.095098039 0.062745098
0.29068627 0.096568627 0.061213235
0.34558824 0.095465686 0.058823529
0.40606618 0.095281863 0.058823529
0.46519608 0.092401961 0.058088235
0.5245098 0.085294118 0.052941176
0.58296569 0.075 0.044485294
0.64019608 0.066176471 0.034803922
0.69411765 0.066176471 0.023529412
0.74313725 0.080882353 0.02310049
0.79215686 0.083823529 0.014215686
0.83333333 0.10226716 0.010294118
0.8745098 0.12401961 0.0051470588
0.91519608 0.14607843 0
0.94607843 0.17352941 0.0018382353
0.97696078 0.20778186 0.0039215686
0.99607843 0.22990196 0.006372549
0 0.082352941 0.074509804
0.0075980392 0.087745098 0.074509804
0.019607843 0.096323529 0.075490196
0.033823529 0.1 0.078431373
0.058333333 0.10098039 0.078431373
0.10392157 0.1 0.078431373
0.14607843 0.10588235 0.07622549
0.19264706 0.10686275 0.070098039
0.23921569 0.10686275 0.062745098
0.29031863 0.10968137 0.057843137
0.35514706 0.11176471 0.057107843
0.41764706 0.11556373 0.054901961
0.47598039 0.11421569 0.053921569
0.52941176 0.10735294 0.054901961
0.58651961 0.1002451 0.054901961
0.64264706 0.094607843 0.04620098
0.69411765 0.097058824 0.028431373
0.74558824 0.10637255 0.020098039
0.79215686 0.11446078 0.015686275
0.83333333 0.13088235 0.017769608
0.875 0.14558824 0.0073529412
0.91617647 0.16078431 0.00098039216
0.94632353 0.19044118 0.0039215686
0.97696078 0.22536765 0.006004902
0.99607843 0.24509804 0.0078431373
0 0.11960784 0.081862745
0.00030637255 0.11960784 0.081862745
0.0093137255 0.12144608 0.079289216
0.023039216 0.12751225 0.081433824
0.053186275 0.12818627 0.082352941
0.10398284 0.12745098 0.082352941
0.15196078 0.12144608 0.082352941
0.20147059 0.12794118 0.071752451
0.24656863 0.13137255 0.059313725
0.2963848 0.12953431 0.054901961
0.3622549 0.13235294 0.054044118
0.42794118 0.13578431 0.050980392
0.4877451 0.13627451 0.043627451
0.53970588 0.13186275 0.04754902
0.59460784 0.12414216 0.051470588
0.64607843 0.1276348 0.046078431
0.69754902 0.13137255 0.031372549
0.7495098 0.12843137 0.011090686
0.79607843 0.13823529 0.0049019608
0.8372549 0.15833333 0.0044117647
0.87843137 0.17696078 0.0075980392
0.92254902 0.19558824 0.0039215686
0.95343137 0.21617647 0.006495098
0.98069853 0.24626225 0.0056985294
0.99607843 0.26176471 0.0078431373
0 0.15686275 0.082352941
0 0.15490196 0.082352941
0.00049019608 0.15343137 0.084313725
0.0093137255 0.15490196 0.082598039
0.043137255 0.15490196 0.082352941
0.10098039 0.16127451 0.075490196
0.16127451 0.16470588 0.06127451
0.21323529 0.16862745 0.053431373
0.26078431 0.16862745 0.049019608
0.31348039 0.16740196 0.06127451
0.3745098 0.1627451 0.056372549
0.43627451 0.15882353 0.04754902
0.49607843 0.15686275 0.037254902
0.5497549 0.15318627 0.035539216
0.60490196 0.15833333 0.037254902
0.65637255 0.16544118 0.034558824
0.70784314 0.16666667 0.021568627
0.75931373 0.16593137 0.006127451
0.80343137 0.1745098 0.0039215686
0.84313725 0.19338235 0.0078431373
0.88431373 0.21078431 0.0078431373
0.925 0.22647059 0.0058823529
0.95784314 0.24705882 0.0039215686
0.9879902 0.26838235 0.0039215686
0.99803922 0.27843137 0.0039215686
0 0.19362745 0.082352941
0 0.19362745 0.082352941
0 0.19056373 0.08627451
0 0.18719363 0.08627451
0.034068627 0.19264706 0.080392157
0.096568627 0.2028799 0.065625
0.16654412 0.20894608 0.042034314
0.22745098 0.20980392 0.03057598
0.27892157 0.20980392 0.042647059
0.33069853 0.20637255 0.063235294
0.3872549 0.19889706 0.064338235
0.44901961 0.19552696 0.04754902
0.50710784 0.19485294 0.033088235
0.56421569 0.19160539 0.027512255
0.6182598 0.20098039 0.027818627
0.67058824 0.20324755 0.021568627
0.71813725 0.20588235 0.01127451
0.76697304 0.21011029 0.0052083333
0.80833333 0.21960784 0.0049019608
0.8495098 0.23284314 0.0078431373
0.89044118 0.24656863 0.0078431373
0.92696078 0.25692402 0.0039215686
0.96078431 0.2745098 0.0039215686
0.99246324 0.29313725 0
0.9995098 0.29558824 0
0 0.22843137 0.078431373
0 0.23321078 0.080882353
0 0.23897059 0.087009804
0.0037990196 0.24215686 0.090196078
0.01372549 0.24803922 0.085784314
0.066666667 0.25392157 0.07120098
0.14803922 0.25392157 0.044852941
0.23333333 0.25796569 0.02120098
0.29607843 0.26078431 0.032352941
0.35686275 0.26654412 0.043995098
0.41764706 0.2629902 0.044117647
0.47389706 0.25735294 0.033823529
0.52941176 0.25343137 0.026470588
0.58186275 0.24901961 0.024019608
0.63333333 0.24338235 0.024264706
0.68272059 0.24019608 0.01127451
0.72843137 0.24705882 0.0049019608
0.77352941 0.25159314 0.0039215686
0.81568627 0.26004902 0.0039215686
0.85686275 0.27365196 0.0049019608
0.89411765 0.28431373 0.0039215686
0.92696078 0.29203431 0.0039215686
0.95857843 0.30882353 0.0039215686
0.98615196 0.32009804 0
0.98921569 0.32352941 0
0 0.28480392 0.085294118
0.003002451 0.28970588 0.088664216
0.0039215686 0.29607843 0.092279412
0.0039215686 0.30116422 0.094117647
0.0039215686 0.30147059 0.090196078
0.023223039 0.30196078 0.082843137
0.12169118 0.31372549 0.05870098
0.22113971 0.32101716 0.036213235
0.31372549 0.32794118 0.021078431
0.39258578 0.33578431 0.018198529
0.44852941 0.32941176 0.016666667
0.49852941 0.32040441 0.018137255
0.54803922 0.3127451 0.016176471
0.59969363 0.30245098 0.01372549
0.64901961 0.29215686 0.0067401961
0.69509804 0.28180147 0.00091911765
0.73872549 0.28970588 0.0014705882
0.78290441 0.29362745 0
0.82107843 0.29558824 0
0.86078431 0.30949755 0
0.89411765 0.32009804 0.0039215686
0.92873775 0.33039216 0.0039215686
0.96176471 0.34068627 0.0039215686
0.97647059 0.34558824 0.0039215686
0.98039216 0.34803922 0
0 0.35294118 0.10196078
0.0039215686 0.35294118 0.10833333
0.0039215686 0.36078431 0.10588235
0.0039215686 0.36470588 0.10245098
0.0039215686 0.36862745 0.1
0.018627451 0.36862745 0.093627451
0.10392157 0.3754902 0.07254902
0.20686275 0.38578431 0.048039216
0.30588235 0.39215686 0.02745098
0.40637255 0.4 0.0053921569
0.47156863 0.39509804 0.0039215686
0.51960784 0.38480392 0.0073529412
0.57058824 0.37647059 0.0078431373
0.61813725 0.36813725 0.0078431373
0.66666667 0.35784314 0.0078431373
0.70784314 0.34901961 0.0039215686
0.75294118 0.35294118 0.0039215686
0.79411765 0.35294118 0.0014705882
0.83039216 0.34509804 0
0.86470588 0.34852941 0
0.89803922 0.35882353 0.0039215686
0.93088235 0.36519608 0.0039215686
0.96176471 0.3754902 0.0078431373
0.97401961 0.38039216 0.0039215686
0.98039216 0.38039216 0
0 0.42254902 0.1122549
0.0039215686 0.42107843 0.12254902
0.0039215686 0.42634804 0.12267157
0.0039215686 0.43645833 0.1127451
0.0090686275 0.44068627 0.11029412
0.020465686 0.4403799 0.10422794
0.07254902 0.44178922 0.089583333
0.18137255 0.44908088 0.058394608
0.28921569 0.45392157 0.023529412
0.38333333 0.45784314 0.0023897059
0.46176471 0.45784314 0.0042892157
0.53645833 0.45655637 0.0078431373
0.59509804 0.45367647 0.0053921569
0.64215686 0.44234069 0.0078431373
0.68296569 0.42622549 0.012132353
0.7245098 0.42107843 0.0078431373
0.76715686 0.41862745 0.0039215686
0.80588235 0.41617647 0.0039215686
0.83823529 0.40343137 0
0.87156863 0.39442402 0
0.90392157 0.4 0.0039215686
0.93088235 0.40637255 0.010784314
0.9560049 0.41666667 0.01629902
0.97886029 0.42640931 0.0088235294
0.98676471 0.43186275 0
0 0.48921569 0.12254902
0.0039215686 0.49166667 0.13039216
0.0036764706 0.49803922 0.13014706
0.0029411765 0.50747549 0.12291667
0.0073529412 0.50882353 0.11862745
0.0072303922 0.50882353 0.1182598
0.028921569 0.51102941 0.10955882
0.14019608 0.51384804 0.079901961
0.26176471 0.51568627 0.043137255
0.36764706 0.51960784 0.012622549
0.45465686 0.52352941 0.0088235294
0.54019608 0.52708333 0.0079656863
0.61715686 0.53235294 0.0039215686
0.66752451 0.52107843 0.0039215686
0.70318627 0.50612745 0.0068627451
0.74019608 0.49558824 0.0074754902
0.78137255 0.48921569 0.0039215686
0.81617647 0.47904412 0.0039215686
0.84705882 0.45882353 0
0.87794118 0.44203431 0
0.90637255 0.44215686 0.010294118
0.93051471 0.45159314 0.023651961
0.95416667 0.4627451 0.025245098
0.97977941 0.47414216 0.015196078
0.99607843 0.48235294 0.0049019608
0 0.56127451 0.13284314
0.0024509804 0.56176471 0.13921569
0.0025735294 0.56666667 0.14313725
0 0.57653186 0.12941176
0.00049019608 0.57696078 0.13235294
0.00042892157 0.57359069 0.13235294
0.010661765 0.57401961 0.13186275
0.125 0.57352941 0.10441176
0.25539216 0.57745098 0.069607843
0.35735294 0.58137255 0.047058824
0.44019608 0.58186275 0.028431373
0.52598039 0.58572304 0.012193627
0.6125 0.59558824 0.0058823529
0.68033088 0.59650735 0.00006127451
0.71813725 0.57892157 0.0039215686
0.75784314 0.56764706 0.0039215686
0.79558824 0.55784314 0.0039215686
0.82273284 0.5408701 0.0039215686
0.85257353 0.52058824 0.0037990196
0.88088235 0.50343137 0.0034313725
0.91151961 0.49558824 0.011764706
0.93823529 0.5 0.028370098
0.9622549 0.51029412 0.034803922
0.98547794 0.51715686 0.028921569
0.99607843 0.52352941 0.02254902
0.0019607843 0.61960784 0.15882353
0.0051470588 0.62156863 0.16715686
0.0058823529 0.6254902 0.17254902
0.0075980392 0.62941176 0.17254902
0.0049019608 0.63235294 0.16960784
0.0041666667 0.62941176 0.17058824
0.034803922 0.62794118 0.16421569
0.14705882 0.63014706 0.13480392
0.26470588 0.63333333 0.10392157
0.35171569 0.6372549 0.081617647
0.42696078 0.6372549 0.049509804
0.50784314 0.63921569 0.013235294
0.58627451 0.64313725 0.0019607843
0.65833333 0.64338235 0.0039215686
0.7254902 0.64656863 0.0039215686
0.77254902 0.63970588 0.0019607843
0.80392157 0.62352941 0.0039215686
0.82769608 0.60294118 0.0039215686
0.85392157 0.58284314 0.0053921569
0.88480392 0.56740196 0.0039215686
0.91470588 0.55784314 0.010784314
0.94460784 0.55661765 0.028431373
0.9754902 0.55637255 0.043627451
0.99093137 0.56078431 0.044362745
0.99215686 0.56078431 0.041176471
0.0039215686 0.66911765 0.20196078
0.0078431373 0.67285539 0.20802696
0.011887255 0.67659314 0.21372549
0.015257353 0.68039216 0.21372549
0.010294118 0.68455882 0.20759804
0.0083333333 0.684375 0.20147059
0.056127451 0.68137255 0.19154412
0.16580882 0.68480392 0.17175245
0.26666667 0.68480392 0.15931373
0.35324755 0.68480392 0.14313725
0.43051471 0.68566176 0.10453431
0.50294118 0.68823529 0.052941176
0.56911765 0.68823529 0.018627451
0.63425245 0.68829657 0.0038602941
0.70551471 0.69215686 0
0.76911765 0.69411765 0.00030637255
0.79901961 0.67647059 0.0034313725
0.82647059 0.66011029 0.0039215686
0.85747549 0.64509804 0.0078431373
0.88872549 0.63137255 0.0078431373
0.91960784 0.62058824 0.0078431373
0.94699755 0.61464461 0.020098039
0.97745098 0.61029412 0.037622549
0.99234069 0.60814951 0.046568627
0.99264706 0.61029412 0.050980392
0.0039215686 0.72058824 0.24313725
0.0078431373 0.72058824 0.24558824
0.017892157 0.7245098 0.25122549
0.022181373 0.72806373 0.25196078
0.020098039 0.73088235 0.24509804
0.013480392 0.73627451 0.23186275
0.081127451 0.73627451 0.22671569
0.18321078 0.73627451 0.22107843
0.27647059 0.73627451 0.21372549
0.35980392 0.73333333 0.20159314
0.4372549 0.73235294 0.17426471
0.51323529 0.72683824 0.12855392
0.57745098 0.72598039 0.084803922
0.62855392 0.72990196 0.039215686
0.68137255 0.73039216 0.013970588
0.73933824 0.72941176 0.0024509804
0.77745098 0.71764706 0
0.81409314 0.70821078 0.0057598039
0.85808824 0.70318627 0.010784314
0.89264706 0.69264706 0.0082107843
0.92254902 0.67941176 0.0078431373
0.9504902 0.67218137 0.0093137255
0.97745098 0.66642157 0.022794118
0.99362745 0.66470588 0.034436275
0.99607843 0.66568627 0.050980392
0 0.77058824 0.28039216
0.0067401961 0.77058824 0.28192402
0.024019608 0.77058824 0.28823529
0.029718137 0.77420343 0.28823529
0.045343137 0.7745098 0.2870098
0.095588235 0.77303922 0.28186275
0.14497549 0.77058824 0.28186275
0.23474265 0.77058824 0.27794118
0.32647059 0.76911765 0.27009804
0.40098039 0.76911765 0.25980392
0.46127451 0.76911765 0.24019608
0.5254902 0.76697304 0.2004902
0.5877451 0.76666667 0.15759804
0.63333333 0.77058824 0.1463848
0.68137255 0.76764706 0.10919118
0.7283701 0.76519608 0.058333333
0.77254902 0.7627451 0.035294118
0.81764706 0.76121324 0.029044118
0.86102941 0.75637255 0.023406863
0.90018382 0.74901961 0.011948529
0.92892157 0.73553922 0.0078431373
0.95410539 0.7286152 0.0075367647
0.98137255 0.72316176 0.0046568627
0.99754902 0.72107843 0.023529412
1 0.71715686 0.068627451
0.054901961 0.81176471 0.3254902
0.058823529 0.81176471 0.3254902
0.067647059 0.81176471 0.3254902
0.11862745 0.81176471 0.32941176
0.17254902 0.81176471 0.32941176
0.21323529 0.80735294 0.32990196
0.24411765 0.80392157 0.33333333
0.29264706 0.80392157 0.33333333
0.37647059 0.80392157 0.3254902
0.43186275 0.80392157 0.31666667
0.4872549 0.80392157 0.3
0.54607843 0.80392157 0.26813725
0.59607843 0.80588235 0.25490196
0.63333333 0.81176471 0.2622549
0.68137255 0.80490196 0.21470588
0.72745098 0.79852941 0.15637255
0.76862745 0.8 0.12941176
0.81372549 0.8 0.10735294
0.85980392 0.80392157 0.058823529
0.90392157 0.80392157 0.01372549
0.9372549 0.79411765 0.0039215686
0.95833333 0.78382353 0.015686275
0.98235294 0.77745098 0.019607843
0.99607843 0.76715686 0.055882353
1 0.76470588 0.10588235
0.20294118 0.83872549 0.37941176
0.21519608 0.83872549 0.37941176
0.24264706 0.84019608 0.37696078
0.25784314 0.84019608 0.37696078
0.28186275 0.84338235 0.37622549
0.30882353 0.83872549 0.37745098
0.33970588 0.83517157 0.38088235
0.37150735 0.83480392 0.38480392
0.4122549 0.83480392 0.38088235
0.45729167 0.83633578 0.3745098
0.50784314 0.8372549 0.36176471
0.56078431 0.83854167 0.34185049
0.60245098 0.83872549 0.33284314
0.64117647 0.83890931 0.32401961
0.68529412 0.83578431 0.28308824
0.72444853 0.83088235 0.25533088
0.76470588 0.83088235 0.23627451
0.80980392 0.83425245 0.20294118
0.85526961 0.83688725 0.14558824
0.90098039 0.84215686 0.080208333
0.94142157 0.84142157 0.033578431
0.9591299 0.82892157 0.063541667
0.97843137 0.81470588 0.096568627
0.99454657 0.80533088 0.12555147
0.99754902 0.80343137 0.15490196
0.34215686 0.86960784 0.4372549
0.34460784 0.8689951 0.4372549
0.33333333 0.86397059 0.43333333
0.33639706 0.86433824 0.43333333
0.35588235 0.86470588 0.43235294
0.37696078 0.86470588 0.43247549
0.41004902 0.86176471 0.4370098
0.44264706 0.86176471 0.44019608
0.47647059 0.86470588 0.43627451
0.50735294 0.86568627 0.43051471
0.53333333 0.86862745 0.42083333
0.57218137 0.86862745 0.41127451
0.61176471 0.86862745 0.40196078
0.64595588 0.86960784 0.38664216
0.68627451 0.86666667 0.36593137
0.72414216 0.86421569 0.35245098
0.76078431 0.86176471 0.33823529
0.80490196 0.86470588 0.30196078
0.84607843 0.86078431 0.25392157
0.88627451 0.86078431 0.20686275
0.92254902 0.86078431 0.16764706
0.95294118 0.86041667 0.15404412
0.9745098 0.85490196 0.16495098
0.99362745 0.84558824 0.18639706
0.99705882 0.84313725 0.20098039
0.4245098 0.88970588 0.49166667
0.42794118 0.88970588 0.49166667
0.42389706 0.88823529 0.49154412
0.42003676 0.88529412 0.49117647
0.43529412 0.88529412 0.49117647
0.45588235 0.88921569 0.49117647
0.48333333 0.88884804 0.49546569
0.51341912 0.88890931 0.49558824
0.53823529 0.88921569 0.49509804
0.56305147 0.89136029 0.49117647
0.58382353 0.89264706 0.48970588
0.60484069 0.89264706 0.47947304
0.63970588 0.89289216 0.46740196
0.66709559 0.89313725 0.45447304
0.69448529 0.88933824 0.44105392
0.73088235 0.88921569 0.43431373
0.76421569 0.88921569 0.4245098
0.79589461 0.88676471 0.40018382
0.83223039 0.88517157 0.3685049
0.86960784 0.88480392 0.33333333
0.90833333 0.88137255 0.29436275
0.93921569 0.88137255 0.27898284
0.97009804 0.88480392 0.24926471
0.99362745 0.88431373 0.24185049
1 0.88039216 0.24509804
0.49607843 0.90980392 0.54705882
0.49607843 0.90980392 0.54705882
0.49607843 0.90588235 0.54705882
0.4997549 0.90588235 0.54901961
0.51470588 0.90882353 0.55
0.53235294 0.9120098 0.55098039
0.55343137 0.91568627 0.55490196
0.56960784 0.91372549 0.55490196
0.59019608 0.91372549 0.55686275
0.61078431 0.91372549 0.55759804
0.62892157 0.91372549 0.55490196
0.64607843 0.91372549 0.55122549
0.66862745 0.91372549 0.54117647
0.69117647 0.91151961 0.52647059
0.71176471 0.90980392 0.50980392
0.74362745 0.90784314 0.5004902
0.7745098 0.90588235 0.48627451
0.80147059 0.90588235 0.46568627
0.83186275 0.90588235 0.44901961
0.86127451 0.90759804 0.42843137
0.89411765 0.90784314 0.40490196
0.925 0.90808824 0.37892157
0.95735294 0.90980392 0.34656863
0.98995098 0.91446078 0.30735294
0.99803922 0.91568627 0.30196078
0.56813725 0.93039216 0.60294118
0.56783088 0.93008578 0.60294118
0.56666667 0.92647059 0.60245098
0.56721814 0.92598039 0.60245098
0.58137255 0.92647059 0.60245098
0.59509804 0.92990196 0.60245098
0.60147059 0.93026961 0.60208333
0.61715686 0.93039216 0.60606618
0.6372549 0.93382353 0.61421569
0.65520833 0.93382353 0.61813725
0.6692402 0.93382353 0.61678922
0.68376225 0.93382353 0.61421569
0.6995098 0.93382353 0.6120098
0.7161152 0.93039216 0.59852941
0.73627451 0.92732843 0.58431373
0.75686275 0.92647059 0.57009804
0.78480392 0.92254902 0.55196078
0.81145833 0.92254902 0.53137255
0.83823529 0.92340686 0.5122549
0.86525735 0.92640931 0.49803922
0.89019608 0.92647059 0.48578431
0.91862745 0.92640931 0.46084559
0.9495098 0.92634804 0.42696078
0.97714461 0.92990196 0.39509804
0.98333333 0.92990196 0.39264706
0.63039216 0.94803922 0.65490196
0.62757353 0.94705882 0.65392157
0.6254902 0.94313725 0.65171569
0.62904412 0.94313725 0.65392157
0.64166667 0.94362745 0.65392157
0.64914216 0.94411765 0.65355392
0.65294118 0.94411765 0.65
0.66176471 0.94705882 0.65245098
0.68235294 0.94803922 0.65882353
0.69080882 0.94803922 0.66090686
0.70392157 0.94803922 0.6625
0.71801471 0.94803922 0.65919118
0.73235294 0.94803922 0.65686275
0.74276961 0.94705882 0.6504902
0.75759804 0.94411765 0.64019608
0.77352941 0.94313725 0.62892157
0.79509804 0.94019608 0.61372549
0.81960784 0.94019608 0.59497549
0.84191176 0.94019608 0.58333333
0.86568627 0.94313725 0.57009804
0.88823529 0.94313725 0.55931373
0.91482843 0.94313725 0.53676471
0.94313725 0.94313725 0.50735294
0.96139706 0.94411765 0.49166667
0.96666667 0.94411765 0.48823529
0.67794118 0.9622549 0.69754902
0.68186275 0.9622549 0.7
0.68002451 0.95980392 0.7
0.68921569 0.95980392 0.70147059
0.69485294 0.95980392 0.70392157
0.69785539 0.95980392 0.70147059
0.70147059 0.95980392 0.70036765
0.70778186 0.9622549 0.69846814
0.72205882 0.9622549 0.70392157
0.72113971 0.95833333 0.69515931
0.73578431 0.95870098 0.70490196
0.74901961 0.95980392 0.70410539
0.76323529 0.95906863 0.70073529
0.77352941 0.95833333 0.69558824
0.78382353 0.95833333 0.68921569
0.79503676 0.95833333 0.68339461
0.80931373 0.95833333 0.6754902
0.82990196 0.95833333 0.65974265
0.84718137 0.95870098 0.65245098
0.86960784 0.95980392 0.64215686
0.88823529 0.95980392 0.63259804
0.91109069 0.95980392 0.61311275
0.92990196 0.95870098 0.59852941
0.94601716 0.95980392 0.59215686
0.95392157 0.95980392 0.58970588
0.72156863 0.97254902 0.73333333
0.72401961 0.97254902 0.7372549
0.73333333 0.97647059 0.74411765
0.73333333 0.97303922 0.74117647
0.7372549 0.97254902 0.74117647
0.7377451 0.97254902 0.74117647
0.74411765 0.97254902 0.74117647
0.7504902 0.97647059 0.74264706
0.74901961 0.97254902 0.73333333
0.74264706 0.96617647 0.71666667
0.75882353 0.96862745 0.73137255
0.77941176 0.97254902 0.74852941
0.78627451 0.96862745 0.7372549
0.79264706 0.96862745 0.72941176
0.80294118 0.96862745 0.7254902
0.81323529 0.96862745 0.72156863
0.82745098 0.97254902 0.71764706
0.84019608 0.97254902 0.71519608
0.85588235 0.97352941 0.71372549
0.87352941 0.97647059 0.71078431
0.88823529 0.97254902 0.69803922
0.90294118 0.97254902 0.68529412
0.91960784 0.97254902 0.67156863
0.93480392 0.97254902 0.66519608
0.94117647 0.97254902 0.65882353
0.0039215686 0.073039216 0.084803922
0.011213235 0.074509804 0.081801471
0.02879902 0.078431373 0.079901961
0.046078431 0.075 0.074816176
0.063480392 0.074509804 0.074509804
0.095894608 0.075980392 0.073039216
0.13223039 0.075980392 0.075490196
0.17898284 0.078431373 0.076409314
0.23382353 0.079901961 0.073039216
0.28584559 0.079901961 0.069117647
0.33370098 0.079534314 0.064583333
0.39313725 0.078431373 0.06127451
0.46078431 0.074509804 0.058578431
0.5245098 0.070404412 0.055392157
0.58333333 0.062254902 0.049019608
0.64172794 0.048958333 0.044117647
0.69411765 0.045588235 0.042647059
0.74166667 0.060294118 0.042218137
0.78823529 0.066176471 0.029901961
0.83088235 0.08872549 0.019607843
0.8745098 0.11960784 0.010784314
0.91519608 0.1463848 0.0029411765
0.94252451 0.17058824 0.011764706
0.97303922 0.19748775 0.019669118
0.99215686 0.21568627 0.020588235
0.003002451 0.070588235 0.084803922
0.010064338 0.078147978 0.081801471
0.025903799 0.082950368 0.080269608
0.042455576 0.080882353 0.076156556
0.060753676 0.076194853 0.074509804
0.097610294 0.081066176 0.073958333
0.13970588 0.087285539 0.075796569
0.18627451 0.089644608 0.076409314
0.23866422 0.091727941 0.073039216
0.29034161 0.093221507 0.070036765
0.3435049 0.095465686 0.066344975
0.40343137 0.095166973 0.062921262
0.46320466 0.091176471 0.06127451
0.5245098 0.086879596 0.057284007
0.58517157 0.078921569 0.052328431
0.64230239 0.069546569 0.046798407
0.69019608 0.070098039 0.043566176
0.74166667 0.082414216 0.042562806
0.78823529 0.089583333 0.033363971
0.83088235 0.10533088 0.024448529
0.8745098 0.12282475 0.011243873
0.91519608 0.14607843 0.0025658701
0.94252451 0.17284007 0.01138174
0.9721201 0.20386029 0.019669118
0.99215686 0.22689951 0.020588235
0.0018382353 0.085294118 0.087622549
0.0057598039 0.091605392 0.084114583
0.018229167 0.098897059 0.081341912
0.033823529 0.1 0.078507966
0.056372549 0.1004902 0.078431373
