site/assets/luts/sha256-f5081ac4f42b66644015edbaf80bc3e30c8544d788ac6de6926ac0811c50ef0e.cube
# LUTr-Schema-Version: 2
# LUTr-ID: sha256-f5081ac4f42b66644015edbaf80bc3e30c8544d788ac6de6926ac0811c50ef0e
# LUTr-Title: solarized color
# LUTr-Collection: Natron HaldCLUT
# LUTr-Collection-ID: natron-haldclut-presets
# LUTr-Source: https://github.com/NatronGitHub/clut
# LUTr-Retrieved: 2026-07-27
# LUTr-Source-File: submissions/natron-haldclut-presets/various/solarized_color.png
# LUTr-Source-Format: HALD-PNG
# LUTr-Source-SHA256: f5081ac4f42b66644015edbaf80bc3e30c8544d788ac6de6926ac0811c50ef0e
# LUTr-License: CC-BY-SA-4.0
# LUTr-License-URL: https://github.com/NatronGitHub/clut#license
# LUTr-License-Basis: repo-license-file
# LUTr-Transform-Class: film-emulation
# LUTr-Tags: creative, film, film-emulation, hald-clut, natron, png, cube
# LUTr-Input-Color-Space: srgb
# LUTr-Input-Gamut: rec709
# LUTr-Input-Transfer: srgb
# LUTr-Output-Color-Space: srgb
# LUTr-Output-Gamut: rec709
# LUTr-Output-Transfer: srgb
# LUTr-Color-Space-Confidence: assumed-display-referred
# LUTr-Domain-Normalized: true
# LUTr-Shaper: none
# LUTr-Original-Grid: 64x64x64
# LUTr-Conversion-Grid: 25x25x25
# LUTr-Conversion-Interpolation: trilinear
# LUTr-Conversion-Method: HALD-PNG LUT image decoded at 16-bit and sampled to 25x25x25 3D CUBE
# LUTr-Conversion-Tool: LUTr scripts/convert-all-to-cube.mjs 2.0.0
# LUTr-Conversion-Date: 2026-07-27
# LUTr-Note: Preserve this metadata and the upstream license notices when redistributing.
TITLE "solarized color"
LUT_3D_SIZE 5
DOMAIN_MIN 0 0 0
DOMAIN_MAX 1 1 1
0 0 0
0.25588235 0.014705882 0.0098039216
0.43921569 0.045098039 0.02745098
0.79705882 0.037254902 0.018627451
0.98039216 0 0.0039215686
0.012745098 0.56666667 0.012745098
0.26053922 0.56176471 0.027205882
0.43382353 0.56862745 0.023039216
0.80196078 0.57083333 0.012009804
0.95196078 0.56764706 0.02254902
0.0098039216 0.49411765 0.0058823529
0.25490196 0.49754902 0.02254902
0.43921569 0.48921569 0.010784314
0.79754902 0.49460784 0.032352941
0.96078431 0.47843137 0.015686275
0.038235294 0.82254902 0.035294118
0.25416667 0.8372549 0.0098039216
0.45 0.80931373 0.0068627451
0.79705882 0.80588235 0.011029412
0.96960784 0.80686275 0.014705882
0 0.98823529 0.0039215686
0.26078431 0.98627451 0.0029411765
0.41764706 0.98039216 0.017647059
0.79411765 0.95 0.020588235
0.98039216 0.99215686 0
0.0088235294 0.014705882 0.24705882
0.25882353 0.016911765 0.25073529
0.42990196 0.0073529412 0.25147059
0.80245098 0.015196078 0.24877451
0.99117647 0 0.24607843
0.0036764706 0.57671569 0.24705882
0.25980392 0.57077206 0.25214461
0.44117647 0.56470588 0.25061275
0.80330882 0.56544118 0.25098039
0.97720588 0.56862745 0.25196078
0.019607843 0.48970588 0.24705882
0.25735294 0.48933824 0.25453431
0.42794118 0.48382353 0.23921569
0.80232843 0.48946078 0.24558824
0.9495098 0.49019608 0.24656863
0.01004902 0.81078431 0.24705882
0.25919118 0.81844363 0.24607843
0.44105392 0.82536765 0.24889706
0.79779412 0.81764706 0.24534314
0.97107843 0.80882353 0.25490196
0.016666667 0.97156863 0.25490196
0.2620098 0.98406863 0.23995098
0.42892157 0.94852941 0.24852941
0.80098039 0.96372549 0.25465686
0.98039216 0.9872549 0.24803922
0.01372549 0.019607843 0.49411765
0.25735294 0.044117647 0.49803922
0.43333333 0.037254902 0.49117647
0.80098039 0.028431373 0.49754902
0.98431373 0 0.49215686
0.026960784 0.56764706 0.49019608
0.25772059 0.56507353 0.48639706
0.44558824 0.56593137 0.49705882
0.80392157 0.56838235 0.49411765
0.96764706 0.56911765 0.49803922
0.0068627451 0.47843137 0.49803922
0.25735294 0.49534314 0.49313725
0.44166667 0.48823529 0.49852941
0.80147059 0.50294118 0.49215686
0.96862745 0.5 0.49411765
0.011764706 0.81323529 0.49411765
0.26164216 0.81409314 0.49803922
0.43823529 0.81911765 0.49632353
0.80343137 0.81948529 0.49411765
0.98137255 0.82107843 0.49656863
0.0058823529 0.98431373 0.49803922
0.25637255 0.96813725 0.49215686
0.44705882 0.97058824 0.49215686
0.79705882 0.97205882 0.48676471
0.9627451 0.93529412 0.49411765
0.0068627451 0.0049019608 0.7372549
0.26348039 0.029901961 0.74436275
0.43284314 0.0024509804 0.73872549
0.80196078 0.017401961 0.74117647
0.96078431 0.021568627 0.7372549
0.016421569 0.56936275 0.74534314
0.25545343 0.56966912 0.73333333
0.4377451 0.57242647 0.74191176
0.80251225 0.57328431 0.74117647
0.96323529 0.56936275 0.73946078
0.025980392 0.48627451 0.74068627
0.25453431 0.49448529 0.7372549
0.43529412 0.49142157 0.73382353
0.79718137 0.48602941 0.7432598
0.97205882 0.48382353 0.73872549
0.034313725 0.81887255 0.7372549
0.25098039 0.8247549 0.73504902
0.43186275 0.82598039 0.74007353
0.80079657 0.8223652 0.74466912
0.97034314 0.80661765 0.74117647
0 0.98823529 0.74215686
0.25098039 0.9747549 0.74509804
0.4254902 0.96372549 0.73823529
0.80490196 0.97769608 0.74411765
0.9745098 0.97058824 0.74117647
0.0078431373 0 0.98823529
0.25980392 0 0.98921569
0.42941176 0.017647059 0.95490196
0.80098039 0.011764706 0.98333333
0.99215686 0 0.98431373
0.028431373 0.56764706 0.95588235
0.24779412 0.57990196 0.97622549
0.45735294 0.56372549 0.96029412
0.79705882 0.56372549 0.95882353
0.9754902 0.55784314 0.96372549
0.029411765 0.48039216 0.97058824
0.26862745 0.48529412 0.93823529
0.43333333 0.49019608 0.97745098
0.80245098 0.49117647 0.97941176
0.98431373 0.47647059 0.98823529
0.017647059 0.8127451 0.97745098
0.25882353 0.83112745 0.98504902
0.44558824 0.81666667 0.97254902
0.79313725 0.8127451 0.96764706
0.98333333 0.83333333 0.96666667
0 0.98823529 0.99215686
0.26176471 0.98627451 0.99411765
0.43333333 0.97647059 0.96666667
0.80098039 0.98627451 0.97745098
0.98431373 0.99215686 0.98823529
