site/assets/luts/sha256-6edb9e693c0157c413754046065cca88a27eaab727efd716a196ad84d3cf399a.cube
# LUTr-Schema-Version: 2
# LUTr-ID: sha256-6edb9e693c0157c413754046065cca88a27eaab727efd716a196ad84d3cf399a
# LUTr-Title: generic kodak ektachrome 100 vs
# LUTr-Collection: Natron HaldCLUT
# LUTr-Collection-ID: natron-haldclut-presets
# LUTr-Source: https://github.com/NatronGitHub/clut
# LUTr-Retrieved: 2026-07-27
# LUTr-Source-File: submissions/natron-haldclut-presets/colorslide/generic_kodak_ektachrome_100_vs.png
# LUTr-Source-Format: HALD-PNG
# LUTr-Source-SHA256: 6edb9e693c0157c413754046065cca88a27eaab727efd716a196ad84d3cf399a
# LUTr-License: CC-BY-SA-4.0
# LUTr-License-URL: https://github.com/NatronGitHub/clut#license
# LUTr-License-Basis: repo-license-file
# LUTr-Transform-Class: film-emulation
# LUTr-Tags: creative, film, film-emulation, hald-clut, natron, png, cube
# LUTr-Input-Color-Space: srgb
# LUTr-Input-Gamut: rec709
# LUTr-Input-Transfer: srgb
# LUTr-Output-Color-Space: srgb
# LUTr-Output-Gamut: rec709
# LUTr-Output-Transfer: srgb
# LUTr-Color-Space-Confidence: assumed-display-referred
# LUTr-Domain-Normalized: true
# LUTr-Shaper: none
# LUTr-Original-Grid: 64x64x64
# LUTr-Conversion-Grid: 25x25x25
# LUTr-Conversion-Interpolation: trilinear
# LUTr-Conversion-Method: HALD-PNG LUT image decoded at 16-bit and sampled to 25x25x25 3D CUBE
# LUTr-Conversion-Tool: LUTr scripts/convert-all-to-cube.mjs 2.0.0
# LUTr-Conversion-Date: 2026-07-27
# LUTr-Note: Preserve this metadata and the upstream license notices when redistributing.
TITLE "generic kodak ektachrome 100 vs"
LUT_3D_SIZE 25
DOMAIN_MIN 0 0 0
DOMAIN_MAX 1 1 1
0.0039215686 0.015686275 0.0039215686
0.030882353 0.023529412 0.006372549
0.061764706 0.032352941 0.0078431373
0.089215686 0.03872549 0.0044117647
0.13529412 0.033333333 0.017647059
0.18284314 0.023039216 0.035784314
0.23039216 0.026470588 0.035294118
0.2872549 0.025980392 0.02745098
0.34509804 0.015686275 0.019607843
0.40686275 0.0053921569 0.011764706
0.46372549 0.0088235294 0.0078431373
0.51911765 0.015196078 0.01127451
0.57843137 0.023529412 0.011764706
0.64656863 0.014705882 0.020098039
0.71568627 0.0039215686 0.026470588
0.78137255 0.0039215686 0.023529412
0.84705882 0.0078431373 0.019607843
0.90882353 0.0053921569 0.011764706
0.97352941 0.0039215686 0.0068627451
0.99607843 0.0039215686 0.0073529412
1 0.0058823529 0.0078431373
1 0.0078431373 0.011764706
1 0.0039215686 0.0078431373
1 0.0039215686 0.006372549
1 0.0039215686 0.0039215686
0.0073529412 0.023039216 0.0049019608
0.033333333 0.028431373 0.0072916667
0.061764706 0.034191176 0.0078431373
0.08872549 0.03872549 0.0039215686
0.13406863 0.034558824 0.015196078
0.17990196 0.036458333 0.025
0.22463235 0.04129902 0.025
0.28033088 0.03627451 0.022610294
0.34117647 0.025980392 0.019607843
0.4004902 0.021139706 0.014767157
0.46017157 0.020955882 0.0078431373
0.51862745 0.025490196 0.0078431373
0.57647059 0.028676471 0.0098039216
0.64656863 0.017647059 0.020098039
0.71862745 0.0091911765 0.026470588
0.78529412 0.010294118 0.025061275
0.84705882 0.010294118 0.019607843
0.9127451 0.0069240196 0.012683824
0.97806373 0.0039215686 0.0039215686
1 0.0039215686 0.0039215686
1 0.0078431373 0.0078431373
0.9973652 0.010294118 0.011764706
1 0.010294118 0.011764706
1 0.012745098 0.011213235
1 0.012745098 0.010294118
0.028431373 0.053921569 0.016666667
0.047916667 0.053308824 0.016666667
0.069607843 0.049019608 0.010784314
0.089215686 0.043504902 0.0014705882
0.13088235 0.04754902 0.0078431373
0.17352941 0.052941176 0.011151961
0.21764706 0.053676471 0.014705882
0.2745098 0.046936275 0.016789216
0.33235294 0.045098039 0.023529412
0.39411765 0.041176471 0.017769608
0.45294118 0.039460784 0.010784314
0.51507353 0.03627451 0.0040441176
0.57843137 0.034803922 0.0058823529
0.64656863 0.033333333 0.015196078
0.71862745 0.029656863 0.021813725
0.78676471 0.025490196 0.026838235
0.85098039 0.021568627 0.023529412
0.91519608 0.019730392 0.013235294
0.98039216 0.016911765 0.0049019608
0.99987745 0.014705882 0.0074754902
0.9995098 0.017647059 0.012745098
0.99607843 0.021568627 0.017156863
0.99607843 0.024509804 0.020588235
1 0.025122549 0.020588235
1 0.024509804 0.024509804
0.035294118 0.080882353 0.019607843
0.051960784 0.080882353 0.017463235
0.07254902 0.080392157 0.014338235
0.093137255 0.077389706 0.01127451
0.12941176 0.076960784 0.01127451
0.16666667 0.073039216 0.0073529412
0.20992647 0.069607843 0.0034313725
0.27028186 0.067830882 0.011948529
0.32941176 0.065686275 0.016176471
0.38743873 0.065379902 0.015870098
0.44901961 0.061642157 0.011764706
0.51121324 0.057352941 0.0074142157
0.58039216 0.055392157 0.0058823529
0.65 0.057352941 0.012254902
0.71862745 0.057352941 0.018627451
0.78921569 0.053431373 0.023529412
0.85490196 0.045588235 0.023529412
0.91452206 0.045588235 0.015379902
0.97009804 0.042156863 0.011642157
0.99564951 0.041666667 0.015196078
0.99607843 0.03995098 0.019362745
0.99607843 0.038235294 0.023958333
0.99607843 0.039583333 0.03002451
1 0.03872549 0.031066176
1 0.03872549 0.034803922
0.035294118 0.10784314 0.015686275
0.050490196 0.11029412 0.015686275
0.075 0.11176471 0.019607843
0.097058824 0.11176471 0.019607843
0.13039216 0.10980392 0.021568627
0.16691176 0.10588235 0.011519608
0.2127451 0.10392157 0.0098039216
0.26764706 0.10122549 0.01372549
0.3254902 0.1 0.017647059
0.38406863 0.098039216 0.019607843
0.44509804 0.095588235 0.017647059
0.50686275 0.092156863 0.019607843
0.58137255 0.092156863 0.010784314
0.65220588 0.088235294 0.011764706
0.72254902 0.088235294 0.015686275
0.79068627 0.084313725 0.020343137
0.85490196 0.080392157 0.019607843
0.91029412 0.074019608 0.019607843
0.96568627 0.068627451 0.017647059
0.99779412 0.066666667 0.019607843
1 0.064705882 0.023529412
1 0.066666667 0.02745098
1 0.068627451 0.02745098
1 0.066666667 0.030147059
1 0.064705882 0.031372549
0.035294118 0.15147059 0.024019608
0.050183824 0.14883578 0.024019608
0.076102941 0.14705882 0.024019608
0.1004902 0.14356618 0.023529412
0.12720588 0.14264706 0.019607843
0.17107843 0.13921569 0.020098039
0.21875 0.13921569 0.020098039
0.27009804 0.13903186 0.020098039
0.3254902 0.13529412 0.023529412
0.38088235 0.13529412 0.023529412
0.44117647 0.13394608 0.024632353
0.50637255 0.13002451 0.029718137
0.58014706 0.12916667 0.019852941
0.65441176 0.12346814 0.016176471
0.72254902 0.11654412 0.015686275
0.79050245 0.11341912 0.015686275
0.8504902 0.11127451 0.019607843
0.90802696 0.10520833 0.019607843
0.96127451 0.1 0.019607843
0.99895833 0.096997549 0.019607843
1 0.097794118 0.023529412
1 0.099509804 0.027022059
1 0.096078431 0.02745098
1 0.095588235 0.02745098
1 0.095588235 0.02745098
0.031372549 0.19901961 0.038235294
0.044730392 0.19546569 0.037622549
0.070343137 0.19044118 0.034313725
0.094117647 0.18468137 0.030392157
0.11960784 0.17941176 0.025980392
0.16813725 0.18039216 0.026960784
0.21887255 0.18039216 0.030392157
0.27009804 0.17647059 0.032230392
0.3254902 0.17352941 0.026470588
0.38088235 0.17254902 0.023529412
0.44117647 0.16936275 0.024509804
0.50931373 0.16862745 0.024019608
0.57843137 0.16519608 0.026470588
0.6504902 0.16029412 0.026348039
0.72034314 0.15392157 0.02254902
0.78627451 0.14803922 0.018627451
0.84019608 0.14803922 0.019607843
0.89558824 0.14509804 0.019607843
0.94803922 0.14338235 0.019607843
0.99166667 0.14117647 0.019607843
1 0.14117647 0.020098039
1 0.1372549 0.023529412
1 0.13431373 0.02745098
1 0.13186275 0.025367647
1 0.12941176 0.023529412
0.025980392 0.24656863 0.048529412
0.037254902 0.24264706 0.048529412
0.057843137 0.23835784 0.044607843
0.075 0.23480392 0.040686275
0.094362745 0.23357843 0.038235294
0.14362745 0.23039216 0.036764706
0.20245098 0.22696078 0.036764706
0.26078431 0.22156863 0.039215686
0.32009804 0.21764706 0.035294118
0.38033088 0.21219363 0.028921569
0.44117647 0.20588235 0.023897059
0.50667892 0.20588235 0.030208333
0.575 0.20588235 0.040196078
0.64479167 0.20165441 0.046078431
0.71360294 0.1995098 0.041666667
0.77898284 0.1995098 0.029840686
0.83382353 0.19558824 0.02745098
0.88529412 0.19074755 0.024080882
0.93676471 0.18737745 0.019607843
0.98480392 0.1841299 0.015686275
1 0.18235294 0.016911765
1 0.17990196 0.023529412
0.99889706 0.17990196 0.026838235
0.99852941 0.17990196 0.028921569
0.99852941 0.18137255 0.028921569
0.015686275 0.29411765 0.058823529
0.022058824 0.29019608 0.058823529
0.041176471 0.28627451 0.054901961
0.054411765 0.28627451 0.051470588
0.066666667 0.28627451 0.050980392
0.10882353 0.28186275 0.047058824
0.16666667 0.27843137 0.047058824
0.23627451 0.2745098 0.047058824
0.30196078 0.27058824 0.043137255
0.36372549 0.26421569 0.039215686
0.43039216 0.26176471 0.035294118
0.49901961 0.25539216 0.042647059
0.56666667 0.25294118 0.052941176
0.63823529 0.24705882 0.062254902
0.70686275 0.25098039 0.051960784
0.76960784 0.25098039 0.041666667
0.82745098 0.24705882 0.035294118
0.87892157 0.24068627 0.032843137
0.92647059 0.23529412 0.026470588
0.97794118 0.23186275 0.020098039
1 0.23137255 0.019607843
0.99607843 0.23186275 0.02745098
0.99607843 0.23529412 0.031372549
0.99607843 0.23529412 0.035294118
0.99607843 0.23921569 0.035294118
0.0053921569 0.33921569 0.065196078
0.0078431373 0.3377451 0.065196078
0.019607843 0.3377451 0.065196078
0.02745098 0.3377451 0.061458333
0.033823529 0.33578431 0.058088235
0.065012255 0.33333333 0.057352941
0.13088235 0.32990196 0.056740196
0.21470588 0.32935049 0.057352941
0.28529412 0.32598039 0.057352941
0.34859069 0.32205882 0.053431373
0.41764706 0.31813725 0.051960784
0.49185049 0.31452206 0.051960784
0.5627451 0.31151961 0.054901961
0.63235294 0.30618873 0.062745098
0.70294118 0.30637255 0.055882353
0.76323529 0.30398284 0.048590686
0.81715686 0.29852941 0.045588235
0.87107843 0.29368873 0.041666667
0.92291667 0.29031863 0.037377451
0.9754902 0.28676471 0.03627451
0.99607843 0.28676471 0.03627451
0.99362745 0.28939951 0.037745098
0.99215686 0.29252451 0.040686275
0.99215686 0.29368873 0.044056373
0.99215686 0.29460784 0.045588235
0 0.39019608 0.071568627
0 0.38921569 0.074509804
0.0039215686 0.38921569 0.071568627
0.0068627451 0.38921569 0.070588235
0.0068627451 0.38578431 0.065196078
0.018014706 0.38137255 0.062867647
0.10294118 0.38455882 0.06372549
0.19558824 0.38382353 0.067647059
0.26960784 0.38137255 0.067647059
0.3377451 0.37781863 0.067647059
0.40588235 0.3745098 0.06372549
0.48137255 0.37095588 0.06372549
0.55392157 0.36813725 0.059803922
0.62696078 0.36262255 0.058823529
0.69828431 0.36176471 0.056617647
0.75747549 0.35784314 0.05379902
0.81176471 0.35392157 0.051960784
0.86715686 0.35036765 0.051960784
0.92254902 0.34681373 0.048039216
0.97401961 0.34313725 0.050612745
0.99460784 0.34313725 0.049509804
0.99215686 0.34620098 0.048039216
0.99215686 0.34926471 0.051715686
0.99215686 0.35098039 0.051960784
0.99215686 0.35392157 0.051960784
0.0034313725 0.44460784 0.078431373
0.0037377451 0.44460784 0.078125
0.0039215686 0.44460784 0.077941176
0.0039215686 0.44460784 0.074938725
0.0036764706 0.44068627 0.074019608
0.0098651961 0.44019608 0.073590686
0.086151961 0.44019608 0.074019608
0.17530637 0.43658088 0.077941176
0.25588235 0.43284314 0.077941176
0.32371324 0.43284314 0.077941176
0.39558824 0.4314951 0.074387255
0.46813725 0.42849265 0.074019608
0.54362745 0.4247549 0.070098039
0.61960784 0.42015931 0.065747549
0.69166667 0.41409314 0.059681373
0.75030637 0.41305147 0.062254902
0.80784314 0.4127451 0.062254902
0.86354167 0.40882353 0.062254902
0.91997549 0.40490196 0.058333333
0.97401961 0.40147059 0.054411765
0.99607843 0.40147059 0.054411765
0.99215686 0.40490196 0.055330882
0.99215686 0.40526961 0.058333333
0.99197304 0.40882353 0.058333333
0.99166667 0.40931373 0.058823529
0.0039215686 0.5 0.082352941
0.0039215686 0.5 0.082352941
0.0049019608 0.5 0.082352941
0.0078431373 0.5 0.082352941
0.0078431373 0.5 0.082352941
0.0080882353 0.49803922 0.082352941
0.053921569 0.4995098 0.082352941
0.13210784 0.49656863 0.082352941
0.21960784 0.49019608 0.084313725
0.30269608 0.4870098 0.08627451
0.3754902 0.48431373 0.084313725
0.45147059 0.48039216 0.082598039
0.52647059 0.47745098 0.076470588
0.60367647 0.47426471 0.066666667
0.68137255 0.47107843 0.063235294
0.74264706 0.47328431 0.067401961
0.79803922 0.47058824 0.068627451
0.85588235 0.46813725 0.068627451
0.91127451 0.4627451 0.064705882
0.96593137 0.4627451 0.06127451
0.99117647 0.46078431 0.060784314
0.99215686 0.46102941 0.062745098
0.99215686 0.46421569 0.062745098
0.99215686 0.46666667 0.064705882
0.99215686 0.46666667 0.064705882
0.0039215686 0.55539216 0.08627451
0.0039215686 0.55588235 0.08627451
0.0078431373 0.55588235 0.08627451
0.0078431373 0.55588235 0.08627451
0.0078431373 0.55588235 0.08627451
0.0073529412 0.55931373 0.085845588
0.014583333 0.55931373 0.082352941
0.090012255 0.55392157 0.08627451
0.17843137 0.54754902 0.090196078
0.26666667 0.54148284 0.092647059
0.35490196 0.53615196 0.092769608
0.43431373 0.53278186 0.085845588
0.51151961 0.53186275 0.074509804
0.59558824 0.53143382 0.070159314
0.67107843 0.52806373 0.066666667
0.73235294 0.52971814 0.072058824
0.7877451 0.53186275 0.078431373
0.84295343 0.52843137 0.078921569
0.89803922 0.5245098 0.075490196
0.94607843 0.52107843 0.071568627
0.97230392 0.52058824 0.074509804
0.99264706 0.52058824 0.066666667
0.99607843 0.52058824 0.067156863
0.99607843 0.52401961 0.068443627
0.99607843 0.52401961 0.070588235
0.0039215686 0.61078431 0.08627451
0.0039215686 0.61078431 0.08627451
0.0078431373 0.61078431 0.087009804
0.0078431373 0.61078431 0.089215686
0.0078431373 0.61078431 0.087745098
0.0039215686 0.61041667 0.085906863
0.0080882353 0.60784314 0.082352941
0.045955882 0.60870098 0.08627451
0.12745098 0.60294118 0.090196078
0.2122549 0.59656863 0.090196078
0.30931373 0.59117647 0.08627451
0.41568627 0.58762255 0.078921569
0.50294118 0.5872549 0.075980392
0.58529412 0.58590686 0.070588235
0.66078431 0.58333333 0.070588235
0.72205882 0.58333333 0.074509804
0.77745098 0.5872549 0.081372549
0.82892157 0.5872549 0.088112745
0.88039216 0.58627451 0.089215686
0.92536765 0.58247549 0.081862745
0.96617647 0.57941176 0.075980392
0.99644608 0.57843137 0.070588235
0.99926471 0.57941176 0.070588235
0.99901961 0.57843137 0.073529412
0.99901961 0.57843137 0.073529412
0 0.66764706 0.08627451
0.0039215686 0.66617647 0.08627451
0.0078431373 0.6622549 0.08872549
0.0078431373 0.65833333 0.08872549
0.0078431373 0.65686275 0.085539216
0.0098039216 0.65441176 0.082352941
0.018627451 0.65625 0.082352941
0.020526961 0.65980392 0.083272059
0.061764706 0.65980392 0.08627451
0.16801471 0.6528799 0.083272059
0.30012255 0.64656863 0.080269608
0.41341912 0.64264706 0.075
0.49730392 0.64264706 0.074509804
0.57628676 0.63872549 0.070588235
0.65085784 0.63480392 0.070588235
0.71176471 0.63627451 0.07689951
0.76715686 0.63872549 0.083823529
0.81954657 0.64117647 0.089276961
0.86911765 0.63872549 0.087745098
0.91390931 0.63511029 0.081066176
0.95612745 0.63333333 0.073039216
0.99528186 0.62941176 0.069117647
1 0.62941176 0.069117647
1 0.62941176 0.070588235
1 0.62941176 0.070588235
0 0.71764706 0.082352941
0.0039215686 0.71372549 0.082352941
0.0078431373 0.70882353 0.082352941
0.011764706 0.70588235 0.082352941
0.011764706 0.70196078 0.082352941
0.016176471 0.70196078 0.082352941
0.019607843 0.70490196 0.082352941
0.018137255 0.70735294 0.082352941
0.02745098 0.70980392 0.078431373
0.16764706 0.70735294 0.079901961
0.30196078 0.70098039 0.07745098
0.40784314 0.69803922 0.074509804
0.49019608 0.69607843 0.07254902
0.56862745 0.68970588 0.070588235
0.64117647 0.68627451 0.073529412
0.70294118 0.6877451 0.079901961
0.75686275 0.69019608 0.08627451
0.8122549 0.6877451 0.083823529
0.85980392 0.68529412 0.07745098
0.90392157 0.68235294 0.071078431
0.94901961 0.67647059 0.066666667
0.98529412 0.6745098 0.062745098
0.99901961 0.6745098 0.062745098
1 0.6745098 0.062745098
1 0.6745098 0.062745098
0 0.75882353 0.069607843
0.0039215686 0.75545343 0.072058824
0.0078431373 0.75281863 0.069607843
0.011458333 0.7473652 0.069607843
0.011764706 0.74558824 0.074019608
0.015686275 0.74705882 0.078431373
0.015686275 0.75061275 0.078431373
0.018688725 0.75098039 0.074509804
0.041666667 0.75343137 0.072058824
0.1754902 0.75490196 0.072058824
0.30196078 0.75343137 0.071691176
0.40128676 0.75 0.070588235
0.48382353 0.74436275 0.070588235
0.56421569 0.73903186 0.070588235
0.63382353 0.7377451 0.073529412
0.69264706 0.73682598 0.078982843
0.7504902 0.73529412 0.07745098
0.80441176 0.73137255 0.072610294
0.85245098 0.72928922 0.067156863
0.8973652 0.72616422 0.060477941
0.93872549 0.72205882 0.057598039
0.9754902 0.71813725 0.056372549
0.99264706 0.71960784 0.054901961
0.9966299 0.72205882 0.05245098
0.99607843 0.72205882 0.05245098
0.00098039216 0.8 0.053921569
0.0039215686 0.79754902 0.064828431
0.0046568627 0.79607843 0.052941176
0.0078431373 0.79227941 0.052941176
0.011764706 0.79215686 0.059803922
0.011764706 0.79215686 0.07254902
0.011764706 0.79215686 0.068627451
0.014705882 0.7942402 0.061764706
0.034313725 0.79705882 0.057843137
0.16715686 0.79889706 0.059681373
0.29681373 0.8 0.061764706
0.39460784 0.79607843 0.065196078
0.47794118 0.79264706 0.069607843
0.55539216 0.78786765 0.070588235
0.62058824 0.78431373 0.069852941
0.68235294 0.78039216 0.069607843
0.74019608 0.77647059 0.065686275
0.79558824 0.77647059 0.059313725
0.84313725 0.77328431 0.053676471
0.8872549 0.76997549 0.05
0.92843137 0.76715686 0.05
0.9692402 0.76176471 0.049509804
0.9872549 0.76470588 0.046078431
0.99607843 0.76507353 0.042769608
0.99607843 0.76862745 0.042156863
0.00049019608 0.84117647 0.039705882
0.00049019608 0.84117647 0.03627451
0.0039215686 0.84105392 0.032352941
0.0043504902 0.83768382 0.035355392
0.0078431373 0.8372549 0.045588235
0.0078431373 0.8372549 0.051960784
0.0078431373 0.83713235 0.051593137
0.0044117647 0.8372549 0.047855392
0.012745098 0.84117647 0.043627451
0.15618873 0.84117647 0.04754902
0.29227941 0.84117647 0.048897059
0.38474265 0.8377451 0.054901961
0.47107843 0.83333333 0.059313725
0.54901961 0.82941176 0.059803922
0.61384804 0.8254902 0.059436275
0.67420343 0.82028186 0.059313725
0.72990196 0.81764706 0.051960784
0.78400735 0.82126225 0.045404412
0.83284314 0.82022059 0.040073529
0.87696078 0.81415441 0.039705882
0.91985294 0.80980392 0.039705882
0.96617647 0.80588235 0.039215686
0.99117647 0.80588235 0.035784314
0.99607843 0.80980392 0.034313725
0.9995098 0.80980392 0.031862745
0 0.88235294 0.025490196
0 0.88235294 0.021568627
0 0.88627451 0.013235294
0.0019607843 0.88284314 0.020833333
0.0039215686 0.88235294 0.034313725
0.0058823529 0.87818627 0.045588235
0.0078431373 0.87647059 0.052941176
0.012009804 0.87647059 0.052941176
0.056862745 0.87647059 0.047058824
0.175 0.87647059 0.041176471
0.29705882 0.87794118 0.041176471
0.38235294 0.87647059 0.044852941
0.46666667 0.87352941 0.040196078
0.54803922 0.86838235 0.042892157
0.60833333 0.86323529 0.043137255
0.66421569 0.85882353 0.045098039
0.71960784 0.85686275 0.045098039
0.77107843 0.86004902 0.036764706
0.82254902 0.86372549 0.032843137
0.87205882 0.85539216 0.031372549
0.91764706 0.85098039 0.031372549
0.9629902 0.84705882 0.027205882
0.99313725 0.84705882 0.024019608
0.99607843 0.85098039 0.024754902
1 0.85098039 0.021568627
0 0.91960784 0.044117647
0 0.91960784 0.040992647
0 0.92316176 0.036764706
0 0.92352941 0.040196078
0.0039215686 0.91960784 0.05
0.0039215686 0.915625 0.059375
0.0037990196 0.91262255 0.063235294
0.010784314 0.91176471 0.06372549
0.091176471 0.91127451 0.055392157
0.20441176 0.91176471 0.034803922
0.30625 0.91164216 0.031004902
0.38523284 0.90827206 0.030943627
0.46666667 0.90759804 0.025
0.54405637 0.90778186 0.01875
0.59852941 0.90098039 0.026838235
0.65392157 0.89607843 0.041360294
0.70931373 0.89607843 0.04754902
0.76078431 0.89607843 0.047732843
0.8122549 0.89558824 0.043627451
0.86372549 0.89215686 0.03627451
0.91519608 0.88823529 0.027941176
0.96323529 0.88823529 0.016053922
0.99607843 0.88823529 0.011642157
0.99607843 0.8877451 0.015870098
1 0.89166667 0.012745098
0 0.95686275 0.068627451
0 0.95686275 0.075122549
0 0.95857843 0.064705882
0 0.96078431 0.064705882
0.00049019608 0.96078431 0.067647059
0.0012254902 0.95379902 0.073897059
0.0058823529 0.94926471 0.07745098
0.019607843 0.94607843 0.080392157
0.081372549 0.94803922 0.07254902
0.20870098 0.9442402 0.05379902
0.30882353 0.94215686 0.048039216
0.3817402 0.94215686 0.048039216
0.45980392 0.94215686 0.045098039
0.53419118 0.94852941 0.039705882
0.58823529 0.94215686 0.050735294
0.64117647 0.94019608 0.061642157
0.69509804 0.9372549 0.064705882
0.7504902 0.93370098 0.062867647
0.80122549 0.93039216 0.056862745
0.84963235 0.92941176 0.050490196
0.90098039 0.92745098 0.040196078
0.95208333 0.9254902 0.026348039
0.99044118 0.92034314 0.024509804
0.99607843 0.91862745 0.030882353
1 0.91862745 0.033333333
0 0.99264706 0.089215686
0 0.99117647 0.089215686
0 0.98786765 0.087745098
0 0.99332108 0.084129902
0 0.99485294 0.081127451
0.0042279412 0.98676471 0.087928922
0.0074754902 0.97757353 0.092769608
0.02310049 0.9754902 0.095588235
0.084313725 0.9754902 0.093137255
0.21280637 0.97003676 0.081311275
0.30882353 0.96911765 0.078921569
0.38088235 0.97285539 0.078921569
0.45294118 0.98284314 0.074264706
0.52647059 0.99019608 0.070098039
0.57794118 0.9877451 0.080392157
0.63088235 0.98719363 0.090686275
0.68480392 0.98235294 0.087745098
0.73627451 0.9745098 0.080453431
0.78566176 0.97058824 0.071446078
0.83529412 0.97058824 0.06439951
0.88529412 0.97132353 0.055882353
0.93235294 0.96078431 0.051470588
0.97352941 0.9504902 0.051470588
0.99607843 0.94558824 0.056311275
1 0.94411765 0.057843137
0 1 0.098039216
0 1 0.094117647
0 0.99607843 0.093137255
0 0.99607843 0.086764706
0 0.99607843 0.084313725
0 0.99607843 0.090686275
0 0.99607843 0.10098039
0.019607843 0.99607843 0.10980392
0.11372549 0.99607843 0.10588235
0.22058824 0.99607843 0.10588235
0.31176471 0.99215686 0.10098039
0.38088235 0.99215686 0.094607843
0.44901961 0.99607843 0.084313725
0.52401961 1 0.078431373
0.57156863 1 0.085294118
0.62696078 1 0.095588235
0.67843137 0.99607843 0.094117647
0.72745098 0.99362745 0.087745098
0.77745098 0.99215686 0.081372549
0.825 0.99607843 0.074509804
0.8745098 0.99803922 0.070588235
0.91568627 0.9877451 0.071078431
0.95686275 0.98039216 0.078431373
0.99117647 0.97647059 0.08627451
0.99607843 0.96862745 0.078431373
0.010294118 0.015686275 0.024509804
0.035723039 0.025980392 0.026960784
0.065318627 0.032352941 0.028063725
0.094791667 0.035294118 0.024816176
0.1372549 0.025490196 0.027941176
0.18498775 0.017156863 0.039522059
0.23137255 0.020098039 0.038112745
0.28241422 0.022977941 0.03627451
0.34264706 0.015686275 0.025980392
0.40349265 0.0053921569 0.014154412
0.46433824 0.0049019608 0.010294118
0.525 0.011458333 0.014215686
0.58553922 0.013235294 0.018137255
0.6504902 0.01127451 0.020098039
0.72107843 0.0020833333 0.02745098
0.78529412 0.0039215686 0.023529412
0.84705882 0.010294118 0.022058824
0.90882353 0.010294118 0.018137255
0.96617647 0.0078431373 0.01875
0.98921569 0.0078431373 0.020588235
0.99289216 0.0078431373 0.019362745
0.99362745 0.0078431373 0.018137255
0.99607843 0.0067401961 0.014215686
0.99846814 0.0039215686 0.0088235294
1 0 0
0.016666667 0.026960784 0.026960784
0.037025123 0.029695159 0.027879902
0.064935662 0.035294118 0.028063725
0.092647059 0.03705576 0.024816176
0.13602941 0.030177696 0.025704657
0.18020833 0.030890012 0.031372549
0.22683824 0.032904412 0.032521446
0.27583487 0.029901961 0.035087316
0.33480392 0.024448529 0.02935049
0.39748775 0.020588235 0.01997549
0.45833333 0.020588235 0.014047181
0.52095588 0.021139706 0.015747549
0.58284314 0.023069853 0.017677696
0.6504902 0.015127145 0.020098039
0.72213542 0.0088235294 0.026838235
0.78586857 0.010294118 0.025635723
0.85098039 0.011764706 0.022977941
0.9127451 0.010638787 0.018137255
0.97009804 0.0078431373 0.017034314
0.99185049 0.0078431373 0.019056373
0.99289216 0.0086090686 0.020128676
0.99374234 0.010294118 0.018137255
0.99607843 0.010294118 0.017034314
0.99846814 0.010294118 0.014008885
1 0.010294118 0.013664216
0.034803922 0.053921569 0.035171569
0.051700368 0.053308824 0.033333333
