site/assets/luts/sha256-855a9fe920d8a1a67b5a1b0e4a31c79fa87620d60c675075f9bdab90cd267c1c.cube
# LUTr-Schema-Version: 2
# LUTr-ID: sha256-855a9fe920d8a1a67b5a1b0e4a31c79fa87620d60c675075f9bdab90cd267c1c
# LUTr-Title: fuji ilford delta 3200 ++
# LUTr-Collection: Natron HaldCLUT
# LUTr-Collection-ID: natron-haldclut-presets
# LUTr-Source: https://github.com/NatronGitHub/clut
# LUTr-Retrieved: 2026-07-27
# LUTr-Source-File: submissions/natron-haldclut-presets/negative_old/fuji_ilford_delta_3200_++.png
# LUTr-Source-Format: HALD-PNG
# LUTr-Source-SHA256: 855a9fe920d8a1a67b5a1b0e4a31c79fa87620d60c675075f9bdab90cd267c1c
# LUTr-License: CC-BY-SA-4.0
# LUTr-License-URL: https://github.com/NatronGitHub/clut#license
# LUTr-License-Basis: repo-license-file
# LUTr-Transform-Class: film-emulation
# LUTr-Tags: creative, film, film-emulation, hald-clut, natron, png, cube
# LUTr-Input-Color-Space: srgb
# LUTr-Input-Gamut: rec709
# LUTr-Input-Transfer: srgb
# LUTr-Output-Color-Space: srgb
# LUTr-Output-Gamut: rec709
# LUTr-Output-Transfer: srgb
# LUTr-Color-Space-Confidence: assumed-display-referred
# LUTr-Domain-Normalized: true
# LUTr-Shaper: none
# LUTr-Original-Grid: 64x64x64
# LUTr-Conversion-Grid: 25x25x25
# LUTr-Conversion-Interpolation: trilinear
# LUTr-Conversion-Method: HALD-PNG LUT image decoded at 16-bit and sampled to 25x25x25 3D CUBE
# LUTr-Conversion-Tool: LUTr scripts/convert-all-to-cube.mjs 2.0.0
# LUTr-Conversion-Date: 2026-07-27
# LUTr-Note: Preserve this metadata and the upstream license notices when redistributing.
TITLE "fuji ilford delta 3200 ++"
LUT_3D_SIZE 9
DOMAIN_MIN 0 0 0
DOMAIN_MAX 1 1 1
0.15686275 0.15686275 0.15686275
0.15686275 0.15686275 0.15686275
0.15686275 0.15686275 0.15686275
0.16323529 0.16323529 0.16323529
0.18823529 0.18823529 0.18823529
0.22254902 0.22254902 0.22254902
0.28039216 0.28039216 0.28039216
0.34264706 0.34264706 0.34264706
0.44705882 0.44705882 0.44705882
0.15686275 0.15686275 0.15686275
0.15686275 0.15686275 0.15686275
0.16078431 0.16078431 0.16078431
0.18186275 0.18186275 0.18186275
0.20931373 0.20931373 0.20931373
0.24411765 0.24411765 0.24411765
0.30428922 0.30428922 0.30428922
0.37303922 0.37303922 0.37303922
0.46617647 0.46617647 0.46617647
0.15882353 0.15882353 0.15882353
0.17058824 0.17058824 0.17058824
0.17696078 0.17696078 0.17696078
0.21715686 0.21715686 0.21715686
0.25098039 0.25098039 0.25098039
0.29803922 0.29803922 0.29803922
0.36372549 0.36372549 0.36372549
0.43480392 0.43480392 0.43480392
0.51568627 0.51568627 0.51568627
0.21666667 0.21666667 0.21666667
0.2245098 0.2245098 0.2245098
0.23921569 0.23921569 0.23921569
0.27009804 0.27009804 0.27009804
0.31985294 0.31985294 0.31985294
0.37738971 0.37738971 0.37738971
0.44276961 0.44276961 0.44276961
0.51421569 0.51421569 0.51421569
0.58529412 0.58529412 0.58529412
0.28431373 0.28431373 0.28431373
0.29607843 0.29607843 0.29607843
0.30392157 0.30392157 0.30392157
0.33578431 0.33578431 0.33578431
0.38823529 0.38823529 0.38823529
0.45392157 0.45392157 0.45392157
0.51960784 0.51960784 0.51960784
0.59338235 0.59338235 0.59338235
0.6627451 0.6627451 0.6627451
0.38382353 0.38382353 0.38382353
0.39019608 0.39019608 0.39019608
0.39742647 0.39742647 0.39742647
0.42702206 0.42702206 0.42702206
0.46323529 0.46323529 0.46323529
0.51813725 0.51813725 0.51813725
0.57634804 0.57634804 0.57634804
0.65931373 0.65931373 0.65931373
0.72303922 0.72303922 0.72303922
0.52254902 0.52254902 0.52254902
0.53296569 0.53296569 0.53296569
0.53333333 0.53333333 0.53333333
0.54301471 0.54301471 0.54301471
0.57401961 0.57401961 0.57401961
0.61433824 0.61433824 0.61433824
0.65882353 0.65882353 0.65882353
0.70784314 0.70784314 0.70784314
0.75980392 0.75980392 0.75980392
0.66911765 0.66911765 0.66911765
0.66911765 0.66911765 0.66911765
0.67303922 0.67303922 0.67303922
0.67696078 0.67696078 0.67696078
0.69852941 0.69852941 0.69852941
0.73284314 0.73284314 0.73284314
0.76764706 0.76764706 0.76764706
0.78627451 0.78627451 0.78627451
0.83578431 0.83578431 0.83578431
0.80784314 0.80784314 0.80784314
0.8122549 0.8122549 0.8122549
0.80392157 0.80392157 0.80392157
0.81421569 0.81421569 0.81421569
0.82745098 0.82745098 0.82745098
0.83627451 0.83627451 0.83627451
0.87058824 0.87058824 0.87058824
0.8745098 0.8745098 0.8745098
0.85490196 0.85490196 0.85490196
0.16029412 0.16029412 0.16029412
0.16078431 0.16078431 0.16078431
0.15686275 0.15686275 0.15686275
0.16323529 0.16323529 0.16323529
0.19411765 0.19411765 0.19411765
0.23284314 0.23284314 0.23284314
0.28125 0.28125 0.28125
0.3504902 0.3504902 0.3504902
0.44705882 0.44705882 0.44705882
0.16029412 0.16029412 0.16029412
0.15686275 0.15686275 0.15686275
0.16410846 0.16410846 0.16410846
0.18621324 0.18621324 0.18621324
0.21715686 0.21715686 0.21715686
0.25147059 0.25147059 0.25147059
0.30310968 0.30310968 0.30310968
0.37696078 0.37696078 0.37696078
0.46917892 0.46917892 0.46917892
0.17156863 0.17156863 0.17156863
0.18556985 0.18556985 0.18556985
0.20220588 0.20220588 0.20220588
0.22884498 0.22884498 0.22884498
0.2622549 0.2622549 0.2622549
0.30235907 0.30235907 0.30235907
0.36078431 0.36078431 0.36078431
0.43480392 0.43480392 0.43480392
0.52303922 0.52303922 0.52303922
0.2245098 0.2245098 0.2245098
0.23621324 0.23621324 0.23621324
0.25491728 0.25491728 0.25491728
0.28137255 0.28137255 0.28137255
0.32818627 0.32818627 0.32818627
0.37892157 0.37892157 0.37892157
0.44460784 0.44460784 0.44460784
0.51470588 0.51470588 0.51470588
0.59442402 0.59442402 0.59442402
0.30735294 0.30735294 0.30735294
0.31519608 0.31519608 0.31519608
0.32169118 0.32169118 0.32169118
0.34574142 0.34574142 0.34574142
0.3995098 0.3995098 0.3995098
0.45646446 0.45646446 0.45646446
0.52573529 0.52573529 0.52573529
0.59705882 0.59705882 0.59705882
0.64338235 0.64338235 0.64338235
0.40931373 0.40931373 0.40931373
0.42107843 0.42107843 0.42107843
0.425 0.425 0.425
0.43474265 0.43474265 0.43474265
0.47221201 0.47221201 0.47221201
0.52234988 0.52234988 0.52234988
0.58515625 0.58515625 0.58515625
0.65726869 0.65726869 0.65726869
0.71844363 0.71844363 0.71844363
0.53688725 0.53688725 0.53688725
0.54450061 0.54450061 0.54450061
0.54852941 0.54852941 0.54852941
0.54394914 0.54394914 0.54394914
0.57058824 0.57058824 0.57058824
0.61262255 0.61262255 0.61262255
0.6549326 0.6549326 0.6549326
0.71242341 0.71242341 0.71242341
0.78590686 0.78590686 0.78590686
0.67604167 0.67604167 0.67604167
0.67696078 0.67696078 0.67696078
0.68088235 0.68088235 0.68088235
0.68872549 0.68872549 0.68872549
0.7002451 0.7002451 0.7002451
0.725 0.725 0.725
0.76732537 0.76732537 0.76732537
0.80196078 0.80196078 0.80196078
0.84705882 0.84705882 0.84705882
0.81568627 0.81568627 0.81568627
0.82751225 0.82751225 0.82751225
0.81568627 0.81568627 0.81568627
0.82175245 0.82175245 0.82175245
0.8372549 0.8372549 0.8372549
0.84589461 0.84589461 0.84589461
0.87977941 0.87977941 0.87977941
0.88921569 0.88921569 0.88921569
0.87401961 0.87401961 0.87401961
0.15686275 0.15686275 0.15686275
0.16078431 0.16078431 0.16078431
0.17156863 0.17156863 0.17156863
0.18578431 0.18578431 0.18578431
0.21323529 0.21323529 0.21323529
0.25294118 0.25294118 0.25294118
0.30686275 0.30686275 0.30686275
0.37401961 0.37401961 0.37401961
0.45980392 0.45980392 0.45980392
0.1685049 0.1685049 0.1685049
0.17227328 0.17227328 0.17227328
0.19068627 0.19068627 0.19068627
0.20882353 0.20882353 0.20882353
0.23805147 0.23805147 0.23805147
0.27058824 0.27058824 0.27058824
0.32598039 0.32598039 0.32598039
0.40085784 0.40085784 0.40085784
0.475 0.475 0.475
0.17941176 0.17941176 0.17941176
0.19460784 0.19460784 0.19460784
0.22132353 0.22132353 0.22132353
0.24828431 0.24828431 0.24828431
0.28186275 0.28186275 0.28186275
0.32218137 0.32218137 0.32218137
0.37867647 0.37867647 0.37867647
0.44065564 0.44065564 0.44065564
0.51666667 0.51666667 0.51666667
0.2495098 0.2495098 0.2495098
0.2558364 0.2558364 0.2558364
0.27634804 0.27634804 0.27634804
0.30856311 0.30856311 0.30856311
0.34558824 0.34558824 0.34558824
0.395481 0.395481 0.395481
0.45747549 0.45747549 0.45747549
0.52205882 0.52205882 0.52205882
0.5817402 0.5817402 0.5817402
0.33431373 0.33431373 0.33431373
0.34430147 0.34430147 0.34430147
0.35686275 0.35686275 0.35686275
0.38241422 0.38241422 0.38241422
0.41593137 0.41593137 0.41593137
0.46642157 0.46642157 0.46642157
0.53713235 0.53713235 0.53713235
0.60441176 0.60441176 0.60441176
0.66078431 0.66078431 0.66078431
0.44411765 0.44411765 0.44411765
0.44473039 0.44473039 0.44473039
0.44803922 0.44803922 0.44803922
0.46839767 0.46839767 0.46839767
0.4995098 0.4995098 0.4995098
0.53523284 0.53523284 0.53523284
0.59751838 0.59751838 0.59751838
0.67365196 0.67365196 0.67365196
0.74313725 0.74313725 0.74313725
0.56372549 0.56372549 0.56372549
0.56764706 0.56764706 0.56764706
0.56764706 0.56764706 0.56764706
0.57074142 0.57074142 0.57074142
0.59240196 0.59240196 0.59240196
0.62720588 0.62720588 0.62720588
0.66292892 0.66292892 0.66292892
0.72889093 0.72889093 0.72889093
0.79803922 0.79803922 0.79803922
0.68382353 0.68382353 0.68382353
0.69477635 0.69477635 0.69477635
0.69846814 0.69846814 0.69846814
0.69914216 0.69914216 0.69914216
0.71145833 0.71145833 0.71145833
0.74460784 0.74460784 0.74460784
0.77414216 0.77414216 0.77414216
0.81689645 0.81689645 0.81689645
0.85147059 0.85147059 0.85147059
0.81960784 0.81960784 0.81960784
0.82389706 0.82389706 0.82389706
0.8245098 0.8245098 0.8245098
0.83492647 0.83492647 0.83492647
0.83921569 0.83921569 0.83921569
0.85428922 0.85428922 0.85428922
0.87156863 0.87156863 0.87156863
0.89019608 0.89019608 0.89019608
0.89019608 0.89019608 0.89019608
0.16323529 0.16323529 0.16323529
0.1745098 0.1745098 0.1745098
0.20036765 0.20036765 0.20036765
0.21421569 0.21421569 0.21421569
0.24093137 0.24093137 0.24093137
0.27843137 0.27843137 0.27843137
0.33382353 0.33382353 0.33382353
0.39558824 0.39558824 0.39558824
0.43921569 0.43921569 0.43921569
0.18627451 0.18627451 0.18627451
0.19761029 0.19761029 0.19761029
0.22144608 0.22144608 0.22144608
0.24051011 0.24051011 0.24051011
0.25882353 0.25882353 0.25882353
0.30686275 0.30686275 0.30686275
0.36078431 0.36078431 0.36078431
0.4209712 0.4209712 0.4209712
0.49117647 0.49117647 0.49117647
0.20539216 0.20539216 0.20539216
0.22843137 0.22843137 0.22843137
0.25208333 0.25208333 0.25208333
0.27306985 0.27306985 0.27306985
0.30441176 0.30441176 0.30441176
0.34558824 0.34558824 0.34558824
0.40245098 0.40245098 0.40245098
0.46421569 0.46421569 0.46421569
0.49901961 0.49901961 0.49901961
0.27009804 0.27009804 0.27009804
0.26917892 0.26917892 0.26917892
0.30035233 0.30035233 0.30035233
0.33529412 0.33529412 0.33529412
0.37647059 0.37647059 0.37647059
0.42246477 0.42246477 0.42246477
0.47689951 0.47689951 0.47689951
0.53529412 0.53529412 0.53529412
0.60189951 0.60189951 0.60189951
0.35220588 0.35220588 0.35220588
0.36648284 0.36648284 0.36648284
0.38872549 0.38872549 0.38872549
0.42058824 0.42058824 0.42058824
0.45306373 0.45306373 0.45306373
0.49923407 0.49923407 0.49923407
0.55098039 0.55098039 0.55098039
0.60882353 0.60882353 0.60882353
0.67181373 0.67181373 0.67181373
0.46323529 0.46323529 0.46323529
0.475 0.475 0.475
0.48915441 0.48915441 0.48915441
0.51427696 0.51427696 0.51427696
0.53403799 0.53403799 0.53403799
0.57303922 0.57303922 0.57303922
0.61911765 0.61911765 0.61911765
0.68890931 0.68890931 0.68890931
0.74859069 0.74859069 0.74859069
0.58676471 0.58676471 0.58676471
0.59211091 0.59211091 0.59211091
0.59390319 0.59390319 0.59390319
0.60784314 0.60784314 0.60784314
0.62352941 0.62352941 0.62352941
0.64846814 0.64846814 0.64846814
0.68872549 0.68872549 0.68872549
0.74434743 0.74434743 0.74434743
0.80943627 0.80943627 0.80943627
0.70686275 0.70686275 0.70686275
0.71568627 0.71568627 0.71568627
0.71439951 0.71439951 0.71439951
0.72323836 0.72323836 0.72323836
0.7268076 0.7268076 0.7268076
0.75630362 0.75630362 0.75630362
0.78252145 0.78252145 0.78252145
0.81415441 0.81415441 0.81415441
0.8504902 0.8504902 0.8504902
0.82745098 0.82745098 0.82745098
0.8252451 0.8252451 0.8252451
0.82990196 0.82990196 0.82990196
0.8377451 0.8377451 0.8377451
0.84313725 0.84313725 0.84313725
0.85490196 0.85490196 0.85490196
0.86948529 0.86948529 0.86948529
0.89852941 0.89852941 0.89852941
0.90441176 0.90441176 0.90441176
0.20980392 0.20980392 0.20980392
0.21544118 0.21544118 0.21544118
0.23676471 0.23676471 0.23676471
0.26911765 0.26911765 0.26911765
0.30784314 0.30784314 0.30784314
0.32254902 0.32254902 0.32254902
0.37892157 0.37892157 0.37892157
0.4502451 0.4502451 0.4502451
0.52352941 0.52352941 0.52352941
0.22303922 0.22303922 0.22303922
0.23606005 0.23606005 0.23606005
0.26170343 0.26170343 0.26170343
0.29191176 0.29191176 0.29191176
0.325 0.325 0.325
0.34148284 0.34148284 0.34148284
0.40147059 0.40147059 0.40147059
0.46568627 0.46568627 0.46568627
0.52843137 0.52843137 0.52843137
0.24264706 0.24264706 0.24264706
0.26911765 0.26911765 0.26911765
0.29987745 0.29987745 0.29987745
0.33627451 0.33627451 0.33627451
0.3629902 0.3629902 0.3629902
0.38278186 0.38278186 0.38278186
0.43884804 0.43884804 0.43884804
0.4995098 0.4995098 0.4995098
0.55 0.55 0.55
0.28970588 0.28970588 0.28970588
0.30554534 0.30554534 0.30554534
0.33860294 0.33860294 0.33860294
0.38428309 0.38428309 0.38428309
0.4254902 0.4254902 0.4254902
0.45735294 0.45735294 0.45735294
0.5004902 0.5004902 0.5004902
0.54901961 0.54901961 0.54901961
0.59117647 0.59117647 0.59117647
0.36078431 0.36078431 0.36078431
0.38026961 0.38026961 0.38026961
0.40416667 0.40416667 0.40416667
0.46053922 0.46053922 0.46053922
0.49411765 0.49411765 0.49411765
0.52990196 0.52990196 0.52990196
0.56764706 0.56764706 0.56764706
0.61568627 0.61568627 0.61568627
0.67058824 0.67058824 0.67058824
0.48308824 0.48308824 0.48308824
0.49387255 0.49387255 0.49387255
0.51360294 0.51360294 0.51360294
0.54411765 0.54411765 0.54411765
0.56482843 0.56482843 0.56482843
0.60300245 0.60300245 0.60300245
0.64632353 0.64632353 0.64632353
0.69396446 0.69396446 0.69396446
0.74681373 0.74681373 0.74681373
0.60931373 0.60931373 0.60931373
0.61495098 0.61495098 0.61495098
0.6245098 0.6245098 0.6245098
0.63872549 0.63872549 0.63872549
0.65318627 0.65318627 0.65318627
0.67696078 0.67696078 0.67696078
0.71176471 0.71176471 0.71176471
0.75545343 0.75545343 0.75545343
0.81715686 0.81715686 0.81715686
0.72745098 0.72745098 0.72745098
0.73137255 0.73137255 0.73137255
0.73719363 0.73719363 0.73719363
0.74411765 0.74411765 0.74411765
0.75379902 0.75379902 0.75379902
0.77288603 0.77288603 0.77288603
0.79656863 0.79656863 0.79656863
0.8200674 0.8200674 0.8200674
0.875 0.875 0.875
0.84117647 0.84117647 0.84117647
0.84509804 0.84509804 0.84509804
0.83627451 0.83627451 0.83627451
0.8502451 0.8502451 0.8502451
0.85784314 0.85784314 0.85784314
0.86470588 0.86470588 0.86470588
0.87941176 0.87941176 0.87941176
0.90220588 0.90220588 0.90220588
0.90784314 0.90784314 0.90784314
0.26323529 0.26323529 0.26323529
0.27303922 0.27303922 0.27303922
0.30784314 0.30784314 0.30784314
0.34957108 0.34957108 0.34957108
0.39656863 0.39656863 0.39656863
0.40588235 0.40588235 0.40588235
0.42904412 0.42904412 0.42904412
0.5004902 0.5004902 0.5004902
0.56764706 0.56764706 0.56764706
0.28088235 0.28088235 0.28088235
0.29626225 0.29626225 0.29626225
0.32303922 0.32303922 0.32303922
0.35703891 0.35703891 0.35703891
0.40931373 0.40931373 0.40931373
0.4381204 0.4381204 0.4381204
0.44754902 0.44754902 0.44754902
0.51214767 0.51214767 0.51214767
0.58167892 0.58167892 0.58167892
0.32401961 0.32401961 0.32401961
0.33053002 0.33053002 0.33053002
0.36060049 0.36060049 0.36060049
0.40274203 0.40274203 0.40274203
0.44142157 0.44142157 0.44142157
0.46464461 0.46464461 0.46464461
0.48967525 0.48967525 0.48967525
0.54675245 0.54675245 0.54675245
0.60833333 0.60833333 0.60833333
0.35441176 0.35441176 0.35441176
0.36764706 0.36764706 0.36764706
0.39411765 0.39411765 0.39411765
0.44859069 0.44859069 0.44859069
0.48624387 0.48624387 0.48624387
0.52395833 0.52395833 0.52395833
0.55 0.55 0.55
0.59195772 0.59195772 0.59195772
0.6495098 0.6495098 0.6495098
0.40539216 0.40539216 0.40539216
0.41764706 0.41764706 0.41764706
0.44332108 0.44332108 0.44332108
0.49289216 0.49289216 0.49289216
0.54411765 0.54411765 0.54411765
0.58060662 0.58060662 0.58060662
0.60814951 0.60814951 0.60814951
0.64402574 0.64402574 0.64402574
0.66029412 0.66029412 0.66029412
0.49123775 0.49123775 0.49123775
0.50461091 0.50461091 0.50461091
0.52555147 0.52555147 0.52555147
0.54916513 0.54916513 0.54916513
0.60217525 0.60217525 0.60217525
0.6372549 0.6372549 0.6372549
0.67303922 0.67303922 0.67303922
0.7108992 0.7108992 0.7108992
0.75251225 0.75251225 0.75251225
0.60784314 0.60784314 0.60784314
0.61029412 0.61029412 0.61029412
0.62803309 0.62803309 0.62803309
0.65258885 0.65258885 0.65258885
0.68333333 0.68333333 0.68333333
0.70747549 0.70747549 0.70747549
0.74181985 0.74181985 0.74181985
0.77942708 0.77942708 0.77942708
0.81372549 0.81372549 0.81372549
0.73529412 0.73529412 0.73529412
0.73556219 0.73556219 0.73556219
0.74607843 0.74607843 0.74607843
0.76108303 0.76108303 0.76108303
0.77401961 0.77401961 0.77401961
0.78872549 0.78872549 0.78872549
0.82303922 0.82303922 0.82303922
0.84656863 0.84656863 0.84656863
0.8754902 0.8754902 0.8754902
0.86127451 0.86127451 0.86127451
0.86011029 0.86011029 0.86011029
0.8627451 0.8627451 0.8627451
0.8661152 0.8661152 0.8661152
0.86593137 0.86593137 0.86593137
0.87990196 0.87990196 0.87990196
0.89448529 0.89448529 0.89448529
0.90373775 0.90373775 0.90373775
0.92794118 0.92794118 0.92794118
0.36470588 0.36470588 0.36470588
0.37598039 0.37598039 0.37598039
0.39607843 0.39607843 0.39607843
0.43737745 0.43737745 0.43737745
0.49705882 0.49705882 0.49705882
0.53627451 0.53627451 0.53627451
0.55073529 0.55073529 0.55073529
0.56911765 0.56911765 0.56911765
0.61764706 0.61764706 0.61764706
0.38382353 0.38382353 0.38382353
0.39901961 0.39901961 0.39901961
0.42107843 0.42107843 0.42107843
0.4510723 0.4510723 0.4510723
0.50140931 0.50140931 0.50140931
0.54745711 0.54745711 0.54745711
0.57132353 0.57132353 0.57132353
0.5714614 0.5714614 0.5714614
0.60355392 0.60355392 0.60355392
0.42622549 0.42622549 0.42622549
0.43026961 0.43026961 0.43026961
0.45269608 0.45269608 0.45269608
0.4859375 0.4859375 0.4859375
0.5317402 0.5317402 0.5317402
0.57398897 0.57398897 0.57398897
0.60196078 0.60196078 0.60196078
0.59947917 0.59947917 0.59947917
0.64803922 0.64803922 0.64803922
0.45098039 0.45098039 0.45098039
0.47000613 0.47000613 0.47000613
0.49825368 0.49825368 0.49825368
0.53255208 0.53255208 0.53255208
0.57297794 0.57297794 0.57297794
0.61409314 0.61409314 0.61409314
0.63676471 0.63676471 0.63676471
0.63681066 0.63681066 0.63681066
0.68541667 0.68541667 0.68541667
0.45686275 0.45686275 0.45686275
0.48235294 0.48235294 0.48235294
0.50784314 0.50784314 0.50784314
0.55392157 0.55392157 0.55392157
0.60465686 0.60465686 0.60465686
0.64730392 0.64730392 0.64730392
0.66801471 0.66801471 0.66801471
0.68051471 0.68051471 0.68051471
0.69313725 0.69313725 0.69313725
0.52977941 0.52977941 0.52977941
0.54126838 0.54126838 0.54126838
0.55597426 0.55597426 0.55597426
0.58714767 0.58714767 0.58714767
0.6247549 0.6247549 0.6247549
0.68026961 0.68026961 0.68026961
0.71614583 0.71614583 0.71614583
0.74656863 0.74656863 0.74656863
0.77855392 0.77855392 0.77855392
0.61642157 0.61642157 0.61642157
0.61632966 0.61632966 0.61632966
0.63817402 0.63817402 0.63817402
0.65719975 0.65719975 0.65719975
0.68186275 0.68186275 0.68186275
0.72990196 0.72990196 0.72990196
0.76862745 0.76862745 0.76862745
0.80735294 0.80735294 0.80735294
0.83406863 0.83406863 0.83406863
0.73921569 0.73921569 0.73921569
0.73175551 0.73175551 0.73175551
0.74206495 0.74206495 0.74206495
0.75863971 0.75863971 0.75863971
0.78455882 0.78455882 0.78455882
0.80784314 0.80784314 0.80784314
0.84117647 0.84117647 0.84117647
0.8689951 0.8689951 0.8689951
0.89068627 0.89068627 0.89068627
0.84705882 0.84705882 0.84705882
0.85539216 0.85539216 0.85539216
0.85098039 0.85098039 0.85098039
0.86127451 0.86127451 0.86127451
0.88088235 0.88088235 0.88088235
0.88872549 0.88872549 0.88872549
0.8997549 0.8997549 0.8997549
0.91421569 0.91421569 0.91421569
0.9254902 0.9254902 0.9254902
0.49656863 0.49656863 0.49656863
0.50784314 0.50784314 0.50784314
0.53835784 0.53835784 0.53835784
0.56960784 0.56960784 0.56960784
0.61176471 0.61176471 0.61176471
0.65196078 0.65196078 0.65196078
0.68272059 0.68272059 0.68272059
0.7004902 0.7004902 0.7004902
0.70392157 0.70392157 0.70392157
0.5122549 0.5122549 0.5122549
0.52702206 0.52702206 0.52702206
0.53933824 0.53933824 0.53933824
0.57289369 0.57289369 0.57289369
0.61348039 0.61348039 0.61348039
0.65802696 0.65802696 0.65802696
0.6899663 0.6899663 0.6899663
0.70435049 0.70435049 0.70435049
0.70784314 0.70784314 0.70784314
0.54607843 0.54607843 0.54607843
0.55047488 0.55047488 0.55047488
0.56547181 0.56547181 0.56547181
0.59987745 0.59987745 0.59987745
0.63431373 0.63431373 0.63431373
0.67273284 0.67273284 0.67273284
0.71102941 0.71102941 0.71102941
0.71482843 0.71482843 0.71482843
0.7245098 0.7245098 0.7245098
0.57696078 0.57696078 0.57696078
0.58453585 0.58453585 0.58453585
0.60343137 0.60343137 0.60343137
0.63823529 0.63823529 0.63823529
0.66078431 0.66078431 0.66078431
0.69405637 0.69405637 0.69405637
0.73039216 0.73039216 0.73039216
0.73382353 0.73382353 0.73382353
0.73382353 0.73382353 0.73382353
0.57647059 0.57647059 0.57647059
0.5825674 0.5825674 0.5825674
0.6127451 0.6127451 0.6127451
0.64313725 0.64313725 0.64313725
0.68590686 0.68590686 0.68590686
0.71862745 0.71862745 0.71862745
0.7495098 0.7495098 0.7495098
0.76813725 0.76813725 0.76813725
0.7754902 0.7754902 0.7754902
0.58057598 0.58057598 0.58057598
0.59630055 0.59630055 0.59630055
0.61162684 0.61162684 0.61162684
0.63921569 0.63921569 0.63921569
0.69157475 0.69157475 0.69157475
0.7391008 0.7391008 0.7391008
0.7877451 0.7877451 0.7877451
0.81439951 0.81439951 0.81439951
0.82745098 0.82745098 0.82745098
0.66188725 0.66188725 0.66188725
0.67046569 0.67046569 0.67046569
0.67668505 0.67668505 0.67668505
0.69568015 0.69568015 0.69568015
0.7182598 0.7182598 0.7182598
0.76017157 0.76017157 0.76017157
0.8064951 0.8064951 0.8064951
0.8582261 0.8582261 0.8582261
0.86948529 0.86948529 0.86948529
0.73970588 0.73970588 0.73970588
0.73959099 0.73959099 0.73959099
0.75539216 0.75539216 0.75539216
0.77254902 0.77254902 0.77254902
0.80367647 0.80367647 0.80367647
0.83082108 0.83082108 0.83082108
0.85698529 0.85698529 0.85698529
0.89069393 0.89069393 0.89069393
0.90245098 0.90245098 0.90245098
0.84264706 0.84264706 0.84264706
0.85833333 0.85833333 0.85833333
0.86752451 0.86752451 0.86752451
0.85833333 0.85833333 0.85833333
0.87843137 0.87843137 0.87843137
0.89803922 0.89803922 0.89803922
0.91421569 0.91421569 0.91421569
0.92156863 0.92156863 0.92156863
0.92598039 0.92598039 0.92598039
0.64705882 0.64705882 0.64705882
0.65392157 0.65392157 0.65392157
0.65490196 0.65490196 0.65490196
0.69656863 0.69656863 0.69656863
0.72745098 0.72745098 0.72745098
0.77156863 0.77156863 0.77156863
0.80098039 0.80098039 0.80098039
0.83578431 0.83578431 0.83578431
0.82745098 0.82745098 0.82745098
0.67401961 0.67401961 0.67401961
0.68137255 0.68137255 0.68137255
0.68198529 0.68198529 0.68198529
0.70012255 0.70012255 0.70012255
0.7372549 0.7372549 0.7372549
0.7622549 0.7622549 0.7622549
0.79889706 0.79889706 0.79889706
0.83278186 0.83278186 0.83278186
0.84264706 0.84264706 0.84264706
0.6745098 0.6745098 0.6745098
0.68872549 0.68872549 0.68872549
0.66666667 0.66666667 0.66666667
0.7245098 0.7245098 0.7245098
0.7504902 0.7504902 0.7504902
0.77009804 0.77009804 0.77009804
0.81568627 0.81568627 0.81568627
0.83051471 0.83051471 0.83051471
0.85392157 0.85392157 0.85392157
0.69656863 0.69656863 0.69656863
0.69803922 0.69803922 0.69803922
0.71482843 0.71482843 0.71482843
0.73578431 0.73578431 0.73578431
0.75220588 0.75220588 0.75220588
0.78186275 0.78186275 0.78186275
0.81519608 0.81519608 0.81519608
0.82928922 0.82928922 0.82928922
0.85882353 0.85882353 0.85882353
0.70392157 0.70392157 0.70392157
0.71323529 0.71323529 0.71323529
0.72598039 0.72598039 0.72598039
0.7377451 0.7377451 0.7377451
0.78137255 0.78137255 0.78137255
0.79681373 0.79681373 0.79681373
0.83039216 0.83039216 0.83039216
0.85882353 0.85882353 0.85882353
0.86666667 0.86666667 0.86666667
0.69558824 0.69558824 0.69558824
0.70196078 0.70196078 0.70196078
0.71323529 0.71323529 0.71323529
0.74307598 0.74307598 0.74307598
0.77843137 0.77843137 0.77843137
0.82310049 0.82310049 0.82310049
0.85588235 0.85588235 0.85588235
0.87990196 0.87990196 0.87990196
0.88382353 0.88382353 0.88382353
0.73137255 0.73137255 0.73137255
0.73088235 0.73088235 0.73088235
0.70882353 0.70882353 0.70882353
0.75490196 0.75490196 0.75490196
0.79117647 0.79117647 0.79117647
0.82647059 0.82647059 0.82647059
0.86764706 0.86764706 0.86764706
0.89558824 0.89558824 0.89558824
0.90588235 0.90588235 0.90588235
0.79705882 0.79705882 0.79705882
0.80098039 0.80098039 0.80098039
0.80196078 0.80196078 0.80196078
0.80165441 0.80165441 0.80165441
0.83431373 0.83431373 0.83431373
0.84411765 0.84411765 0.84411765
0.86862745 0.86862745 0.86862745
0.90294118 0.90294118 0.90294118
0.92205882 0.92205882 0.92205882
0.8627451 0.8627451 0.8627451
0.87401961 0.87401961 0.87401961
0.85980392 0.85980392 0.85980392
0.86911765 0.86911765 0.86911765
0.89803922 0.89803922 0.89803922
0.89803922 0.89803922 0.89803922
0.91372549 0.91372549 0.91372549
0.9254902 0.9254902 0.9254902
0.94117647 0.94117647 0.94117647
