site/assets/luts/sha256-a4347b0997904ffdc2c5b333d21778e4d652053eeb2b9330b183bb8c7a408493.cube
# LUTr-Schema-Version: 2
# LUTr-ID: sha256-a4347b0997904ffdc2c5b333d21778e4d652053eeb2b9330b183bb8c7a408493
# LUTr-Title: fuji fp-3000b negative ++
# LUTr-Collection: Natron HaldCLUT
# LUTr-Collection-ID: natron-haldclut-presets
# LUTr-Source: https://github.com/NatronGitHub/clut
# LUTr-Retrieved: 2026-07-27
# LUTr-Source-File: submissions/natron-haldclut-presets/instant_pro/fuji_fp-3000b_negative_++.png
# LUTr-Source-Format: HALD-PNG
# LUTr-Source-SHA256: a4347b0997904ffdc2c5b333d21778e4d652053eeb2b9330b183bb8c7a408493
# LUTr-License: CC-BY-SA-4.0
# LUTr-License-URL: https://github.com/NatronGitHub/clut#license
# LUTr-License-Basis: repo-license-file
# LUTr-Transform-Class: film-emulation
# LUTr-Tags: creative, film, film-emulation, hald-clut, natron, png, cube
# LUTr-Input-Color-Space: srgb
# LUTr-Input-Gamut: rec709
# LUTr-Input-Transfer: srgb
# LUTr-Output-Color-Space: srgb
# LUTr-Output-Gamut: rec709
# LUTr-Output-Transfer: srgb
# LUTr-Color-Space-Confidence: assumed-display-referred
# LUTr-Domain-Normalized: true
# LUTr-Shaper: none
# LUTr-Original-Grid: 64x64x64
# LUTr-Conversion-Grid: 25x25x25
# LUTr-Conversion-Interpolation: trilinear
# LUTr-Conversion-Method: HALD-PNG LUT image decoded at 16-bit and sampled to 25x25x25 3D CUBE
# LUTr-Conversion-Tool: LUTr scripts/convert-all-to-cube.mjs 2.0.0
# LUTr-Conversion-Date: 2026-07-27
# LUTr-Note: Preserve this metadata and the upstream license notices when redistributing.
TITLE "fuji fp-3000b negative ++"
LUT_3D_SIZE 5
DOMAIN_MIN 0 0 0
DOMAIN_MAX 1 1 1
0.11372549 0.11372549 0.11372549
0.14019608 0.14019608 0.14019608
0.23921569 0.23921569 0.23921569
0.43529412 0.43529412 0.43529412
0.65882353 0.65882353 0.65882353
0.17156863 0.17156863 0.17156863
0.18921569 0.18921569 0.18921569
0.28872549 0.28872549 0.28872549
0.49142157 0.49142157 0.49142157
0.69411765 0.69411765 0.69411765
0.31176471 0.31176471 0.31176471
0.33088235 0.33088235 0.33088235
0.41470588 0.41470588 0.41470588
0.60294118 0.60294118 0.60294118
0.74313725 0.74313725 0.74313725
0.6127451 0.6127451 0.6127451
0.58627451 0.58627451 0.58627451
0.62990196 0.62990196 0.62990196
0.7245098 0.7245098 0.7245098
0.80882353 0.80882353 0.80882353
0.81960784 0.81960784 0.81960784
0.78235294 0.78235294 0.78235294
0.82156863 0.82156863 0.82156863
0.84019608 0.84019608 0.84019608
0.85882353 0.85882353 0.85882353
0.15588235 0.15588235 0.15588235
0.18848039 0.18848039 0.18848039
0.29215686 0.29215686 0.29215686
0.46789216 0.46789216 0.46789216
0.69019608 0.69019608 0.69019608
0.20490196 0.20490196 0.20490196
0.24160539 0.24160539 0.24160539
0.34914216 0.34914216 0.34914216
0.52126225 0.52126225 0.52126225
0.7120098 0.7120098 0.7120098
0.41372549 0.41372549 0.41372549
0.40196078 0.40196078 0.40196078
0.46348039 0.46348039 0.46348039
0.62904412 0.62904412 0.62904412
0.75833333 0.75833333 0.75833333
0.66078431 0.66078431 0.66078431
0.64534314 0.64534314 0.64534314
0.65980392 0.65980392 0.65980392
0.7245098 0.7245098 0.7245098
0.80882353 0.80882353 0.80882353
0.82843137 0.82843137 0.82843137
0.8245098 0.8245098 0.8245098
0.82647059 0.82647059 0.82647059
0.83431373 0.83431373 0.83431373
0.85882353 0.85882353 0.85882353
0.38235294 0.38235294 0.38235294
0.39117647 0.39117647 0.39117647
0.48529412 0.48529412 0.48529412
0.59803922 0.59803922 0.59803922
0.74509804 0.74509804 0.74509804
0.3745098 0.3745098 0.3745098
0.41862745 0.41862745 0.41862745
0.51764706 0.51764706 0.51764706
0.62512255 0.62512255 0.62512255
0.75882353 0.75882353 0.75882353
0.50882353 0.50882353 0.50882353
0.5372549 0.5372549 0.5372549
0.57156863 0.57156863 0.57156863
0.68823529 0.68823529 0.68823529
0.79019608 0.79019608 0.79019608
0.73333333 0.73333333 0.73333333
0.73333333 0.73333333 0.73333333
0.72916667 0.72916667 0.72916667
0.76715686 0.76715686 0.76715686
0.82058824 0.82058824 0.82058824
0.84313725 0.84313725 0.84313725
0.83921569 0.83921569 0.83921569
0.83921569 0.83921569 0.83921569
0.84117647 0.84117647 0.84117647
0.84313725 0.84313725 0.84313725
0.66764706 0.66764706 0.66764706
0.66593137 0.66593137 0.66593137
0.73039216 0.73039216 0.73039216
0.75661765 0.75661765 0.75661765
0.79313725 0.79313725 0.79313725
0.67916667 0.67916667 0.67916667
0.69234069 0.69234069 0.69234069
0.72941176 0.72941176 0.72941176
0.7713848 0.7713848 0.7713848
0.80490196 0.80490196 0.80490196
0.66078431 0.66078431 0.66078431
0.69166667 0.69166667 0.69166667
0.74142157 0.74142157 0.74142157
0.78039216 0.78039216 0.78039216
0.81617647 0.81617647 0.81617647
0.78235294 0.78235294 0.78235294
0.76721814 0.76721814 0.76721814
0.80196078 0.80196078 0.80196078
0.81372549 0.81372549 0.81372549
0.83308824 0.83308824 0.83308824
0.85784314 0.85784314 0.85784314
0.84705882 0.84705882 0.84705882
0.85686275 0.85686275 0.85686275
0.85490196 0.85490196 0.85490196
0.85098039 0.85098039 0.85098039
0.84313725 0.84313725 0.84313725
0.84215686 0.84215686 0.84215686
0.84313725 0.84313725 0.84313725
0.85490196 0.85490196 0.85490196
0.85882353 0.85882353 0.85882353
0.83921569 0.83921569 0.83921569
0.84215686 0.84215686 0.84215686
0.84656863 0.84656863 0.84656863
0.84779412 0.84779412 0.84779412
0.85196078 0.85196078 0.85196078
0.81176471 0.81176471 0.81176471
0.82107843 0.82107843 0.82107843
0.84411765 0.84411765 0.84411765
0.8504902 0.8504902 0.8504902
0.85098039 0.85098039 0.85098039
0.83627451 0.83627451 0.83627451
0.84240196 0.84240196 0.84240196
0.85098039 0.85098039 0.85098039
0.85490196 0.85490196 0.85490196
0.85098039 0.85098039 0.85098039
0.8627451 0.8627451 0.8627451
0.85490196 0.85490196 0.85490196
0.85882353 0.85882353 0.85882353
0.8627451 0.8627451 0.8627451
0.8627451 0.8627451 0.8627451
