site/assets/luts/sha256-e8f782b2013cbc354c494d4aca2fd4a5093b6af151cb84dc57265fa67d4127dc.cube
# LUTr-Schema-Version: 2
# LUTr-ID: sha256-e8f782b2013cbc354c494d4aca2fd4a5093b6af151cb84dc57265fa67d4127dc
# LUTr-Title: kodak portra 160 vc +
# LUTr-Collection: Natron HaldCLUT
# LUTr-Collection-ID: natron-haldclut-presets
# LUTr-Source: https://github.com/NatronGitHub/clut
# LUTr-Retrieved: 2026-07-27
# LUTr-Source-File: submissions/natron-haldclut-presets/negative_old/kodak_portra_160_vc_+.png
# LUTr-Source-Format: HALD-PNG
# LUTr-Source-SHA256: e8f782b2013cbc354c494d4aca2fd4a5093b6af151cb84dc57265fa67d4127dc
# LUTr-License: CC-BY-SA-4.0
# LUTr-License-URL: https://github.com/NatronGitHub/clut#license
# LUTr-License-Basis: repo-license-file
# LUTr-Transform-Class: film-emulation
# LUTr-Tags: creative, film, film-emulation, hald-clut, natron, png, cube
# LUTr-Input-Color-Space: srgb
# LUTr-Input-Gamut: rec709
# LUTr-Input-Transfer: srgb
# LUTr-Output-Color-Space: srgb
# LUTr-Output-Gamut: rec709
# LUTr-Output-Transfer: srgb
# LUTr-Color-Space-Confidence: assumed-display-referred
# LUTr-Domain-Normalized: true
# LUTr-Shaper: none
# LUTr-Original-Grid: 64x64x64
# LUTr-Conversion-Grid: 25x25x25
# LUTr-Conversion-Interpolation: trilinear
# LUTr-Conversion-Method: HALD-PNG LUT image decoded at 16-bit and sampled to 25x25x25 3D CUBE
# LUTr-Conversion-Tool: LUTr scripts/convert-all-to-cube.mjs 2.0.0
# LUTr-Conversion-Date: 2026-07-27
# LUTr-Note: Preserve this metadata and the upstream license notices when redistributing.
TITLE "kodak portra 160 vc +"
LUT_3D_SIZE 9
DOMAIN_MIN 0 0 0
DOMAIN_MAX 1 1 1
0.0039215686 0.070588235 0.11372549
0.053431373 0.082352941 0.10245098
0.18431373 0.094117647 0.090196078
0.37009804 0.069607843 0.080882353
0.58039216 0.037254902 0.082352941
0.75637255 0.014215686 0.030882353
0.88529412 0.07254902 0.0078431373
0.96568627 0.15882353 0.011764706
1 0.21176471 0
0.0039215686 0.10931373 0.098529412
0.037316176 0.1127451 0.097610294
0.17941176 0.12843137 0.084436275
0.37352941 0.14491422 0.062928922
0.5879902 0.13553922 0.045833333
0.74852941 0.125 0.034313725
0.88235294 0.15245098 0.0078431373
0.97696078 0.19264706 0.00049019608
0.99607843 0.25441176 0.0078431373
0 0.23039216 0.1245098
0.01127451 0.23002451 0.11666667
0.15196078 0.24607843 0.090196078
0.39803922 0.27634804 0.034803922
0.59852941 0.25588235 0.0058823529
0.74705882 0.25306373 0.011764706
0.88161765 0.26666667 0.006127451
0.95882353 0.28811275 0.0078431373
0.99607843 0.31960784 0.0039215686
0 0.36911765 0.14460784
0.0039215686 0.37696078 0.16029412
0.094117647 0.38382353 0.14203431
0.36464461 0.41617647 0.066666667
0.57205882 0.41029412 0.022794118
0.74068627 0.39117647 0.0078431373
0.87107843 0.38333333 0.0067401961
0.96176471 0.39460784 0.0099877451
1 0.40980392 0
0.0078431373 0.51764706 0.22745098
0.0019607843 0.53137255 0.23529412
0.092156863 0.51813725 0.22254902
0.33088235 0.53578431 0.18186275
0.53921569 0.55294118 0.078431373
0.72303922 0.55735294 0.015441176
0.84803922 0.53921569 0.0088235294
0.94852941 0.52696078 0.015196078
0.99607843 0.51568627 0.0039215686
0 0.64117647 0.28529412
0.090502451 0.64754902 0.30245098
0.22340686 0.64178922 0.30637255
0.36960784 0.64509804 0.28431373
0.51029412 0.65416667 0.23872549
0.68431373 0.67408088 0.12506127
0.82205882 0.67830882 0.044240196
0.93069853 0.66439951 0.0076593137
0.99215686 0.64901961 0.0039215686
0.3 0.75294118 0.4
0.31997549 0.74803922 0.4
0.38333333 0.74509804 0.41078431
0.45625 0.74411765 0.41776961
0.54901961 0.75196078 0.38970588
0.63995098 0.75980392 0.33272059
0.77941176 0.76764706 0.26372549
0.90686275 0.77683824 0.17205882
0.97843137 0.77352941 0.11078431
0.5004902 0.83676471 0.54754902
0.50833333 0.83676471 0.54754902
0.53872549 0.84068627 0.54803922
0.57726716 0.83676471 0.56176471
0.6254902 0.84264706 0.54754902
0.69540441 0.84852941 0.52303922
0.77242647 0.85637255 0.48345588
0.86372549 0.86770833 0.43088235
0.94068627 0.87941176 0.39264706
0.6745098 0.93333333 0.70588235
0.6622549 0.92156863 0.68970588
0.68235294 0.92941176 0.70196078
0.71078431 0.93186275 0.71470588
0.73529412 0.9254902 0.70980392
0.77009804 0.92696078 0.69264706
0.80980392 0.9372549 0.68137255
0.86764706 0.94117647 0.64313725
0.9254902 0.95686275 0.63137255
0 0.059313725 0.11764706
0.05 0.074509804 0.1283701
0.1872549 0.056372549 0.13247549
0.37273284 0.019791667 0.11930147
0.58039216 0.016421569 0.12818627
0.76029412 0.015992647 0.11439951
0.88235294 0.096446078 0.10343137
0.96127451 0.17267157 0.091666667
0.98823529 0.21911765 0.084313725
0.015257353 0.1245098 0.15055147
0.04129136 0.12009804 0.14308364
0.18713235 0.12892157 0.13578431
0.38878676 0.11613817 0.13175551
0.59558824 0.11770833 0.12331495
0.75255821 0.13235294 0.11191023
0.88147978 0.16715686 0.084313725
0.97341452 0.20391391 0.087262561
0.98872549 0.26133578 0.08682598
0 0.22830882 0.16409314
0.0087009804 0.23872549 0.17401961
0.1810049 0.2466299 0.15098039
0.40526961 0.26079963 0.13137255
0.60618873 0.25563725 0.10588235
0.75102635 0.25618873 0.086810662
0.88140319 0.27184436 0.061243873
0.96568627 0.29509804 0.058333333
0.99522059 0.32647059 0.054289216
0.0036151961 0.39479167 0.21697304
0.0071078431 0.39607843 0.21307445
0.13633578 0.39229473 0.20441176
0.37838542 0.40833333 0.1721201
0.58560049 0.41832108 0.095925245
0.74361979 0.39443168 0.039705882
0.86776961 0.38235294 0.01004902
0.96942402 0.39224112 0.010148591
1 0.40735294 0.014215686
0.006127451 0.53504902 0.27156863
0.024019608 0.5370098 0.2674326
0.16862745 0.52922794 0.26531863
0.36338848 0.53578431 0.2372549
0.54889706 0.55 0.16372549
0.72132353 0.55661765 0.071629902
0.84901961 0.53762255 0.016911765
0.95416667 0.51393995 0.0059129902
0.99803922 0.50637255 0.0019607843
0.084497549 0.65116422 0.32628676
0.1528799 0.65147059 0.34084712
0.26636029 0.64509804 0.34473039
0.38872549 0.64443168 0.32794118
0.5268076 0.65808824 0.28789828
0.67266391 0.67107843 0.21844363
0.81997549 0.67438725 0.12654718
0.9372549 0.66035539 0.024586397
0.99607843 0.64901961 0.009620098
0.33051471 0.74803922 0.43088235
0.35692402 0.74803922 0.43704044
0.41029412 0.74803922 0.44221814
0.47847733 0.74497549 0.44375
0.55147059 0.75588235 0.41519608
0.65183824 0.75980392 0.37357537
0.78045343 0.76764706 0.31485907
0.89859069 0.77254902 0.23262868
0.98615196 0.77610294 0.17720588
0.5122549 0.84068627 0.55539216
0.52696078 0.84019608 0.5627451
0.55736826 0.84064032 0.57058824
0.5908701 0.83676471 0.5745098
0.64240196 0.84068627 0.56148897
0.68789062 0.84476869 0.53780637
0.77598039 0.85637255 0.51433824
0.8763557 0.86808364 0.461106
0.97898284 0.88682598 0.39601716
0.66666667 0.92598039 0.70245098
0.67052696 0.9254902 0.70147059
0.68137255 0.92156863 0.70098039
0.70441176 0.92205882 0.70765931
0.74093137 0.92769608 0.71960784
0.77352941 0.93333333 0.71439951
0.81372549 0.93872549 0.69105392
0.87156863 0.94901961 0.67346814
0.92156863 0.95245098 0.63431373
0.0078431373 0.08627451 0.24607843
0.034436275 0.081372549 0.24313725
0.20269608 0.085294118 0.24313725
0.37218137 0.020098039 0.22953431
0.58823529 0.01127451 0.23137255
0.76666667 0.0093137255 0.23419118
0.88235294 0.11519608 0.24093137
0.9682598 0.22647059 0.24607843
0.99607843 0.26960784 0.24607843
0.00049019608 0.14264706 0.26911765
0.021461397 0.14166667 0.2573989
0.19460784 0.1453125 0.24963235
0.38676471 0.11764706 0.23969056
0.60373775 0.044730392 0.22567402
0.76666667 0.11380208 0.23779105
0.88520221 0.21075368 0.24577206
0.96590074 0.24993873 0.24215686
0.99473039 0.31078431 0.25392157
0.0078431373 0.27328431 0.28529412
0.0083333333 0.26642157 0.27058824
0.20851716 0.26415441 0.26568627
0.42230392 0.26525735 0.25064338
0.60625 0.26973039 0.24644608
0.75808824 0.28581495 0.23921569
0.87751225 0.30435049 0.23823529
0.96632966 0.3231924 0.23535539
0.99607843 0.36568627 0.24215686
0.0047794118 0.40882353 0.30196078
0.13878676 0.41911765 0.31260723
0.27288603 0.41773897 0.30894608
0.42012868 0.42193627 0.2911152
0.60165441 0.42726716 0.25196078
0.75101103 0.39987745 0.22087929
0.87058824 0.40245098 0.2143076
0.95784314 0.41470588 0.20735294
0.99607843 0.42990196 0.20490196
0.12352941 0.54803922 0.34901961
0.22273284 0.54803922 0.36078431
0.30759804 0.54301471 0.35735294
0.41139706 0.54099265 0.34264706
0.56593137 0.55294118 0.30588235
0.72598039 0.53651961 0.25698529
0.85392157 0.53125 0.20428922
0.95030637 0.52156863 0.16666667
0.99607843 0.51960784 0.14362745
0.24632353 0.65870098 0.39105392
0.30772059 0.65931373 0.41456801
0.35940564 0.65885417 0.40245098
0.43970588 0.65124081 0.40784314
0.55980392 0.65949755 0.38063725
0.69362745 0.67107843 0.3316636
0.82843137 0.67107843 0.27058824
0.9372549 0.65597426 0.21060049
0.99497549 0.6377451 0.16127451
0.39901961 0.75196078 0.48651961
0.41813725 0.75196078 0.48746936
0.4620098 0.75196078 0.49117647
0.52058824 0.75196078 0.49117647
0.58419118 0.75355392 0.47708333
0.67104779 0.76090686 0.44610907
0.78553922 0.76764706 0.39589461
0.89460784 0.76862745 0.34445466
0.98333333 0.77156863 0.29901961
0.5377451 0.8432598 0.59607843
0.5605239 0.84460784 0.60098039
0.58403799 0.84347426 0.60456495
0.61386336 0.84068627 0.60882353
0.65588235 0.84068627 0.60465686
0.70980392 0.84460784 0.58236826
0.77925858 0.85407475 0.55294118
0.87977941 0.86464461 0.51432292
0.93823529 0.87107843 0.48419118
0.66960784 0.92058824 0.70882353
0.68480392 0.9254902 0.72058824
0.7 0.92941176 0.72745098
0.71323529 0.92193627 0.72438725
0.74215686 0.9245098 0.73137255
0.77892157 0.93394608 0.73247549
0.81838235 0.94117647 0.71666667
0.8754902 0.94117647 0.68480392
0.93627451 0.95588235 0.66568627
0.0053921569 0.12009804 0.41470588
0.01372549 0.10490196 0.41078431
0.25232843 0.1307598 0.41139706
0.43229167 0.11862745 0.39509804
0.59117647 0.020343137 0.37426471
0.75545343 0.0078431373 0.35735294
0.8817402 0.0074754902 0.33713235
0.9846201 0.064705882 0.33627451
1 0.30980392 0.38235294
0 0.18382353 0.41617647
0.0038143382 0.17712163 0.4153799
0.24477635 0.19669118 0.41078431
0.43395374 0.19570313 0.39790901
0.60726103 0.10701593 0.37711397
0.76029412 0.055392157 0.35617341
0.89068627 0.073391544 0.33872549
0.97653186 0.23192402 0.3658701
0.99754902 0.32849265 0.3963848
0.011764706 0.32193627 0.43541667
0.0047028186 0.31801471 0.43053002
0.26179534 0.31470588 0.42585784
0.46470588 0.32009804 0.41819853
0.62671569 0.27677696 0.39834559
0.7605239 0.26862745 0.37487745
0.87797181 0.32264093 0.38823529
0.96649816 0.37732843 0.39995404
0.99607843 0.42745098 0.4122549
0.017156863 0.45147059 0.43578431
0.055981924 0.44785539 0.43259804
0.3209712 0.4477788 0.44731924
0.46813725 0.43874847 0.43555453
0.62037377 0.42840074 0.40683211
0.75637255 0.43053768 0.38235294
0.86623775 0.4372549 0.37843137
0.95422028 0.45804228 0.38762255
0.99215686 0.48039216 0.39172794
0.23014706 0.56985294 0.46348039
0.28529412 0.57107843 0.46911765
0.39154412 0.56623775 0.46813725
0.47818627 0.55931373 0.45983456
0.59301471 0.5567402 0.43811275
0.74117647 0.55539216 0.40098039
0.85637255 0.53137255 0.36366422
0.94313725 0.53789828 0.35784314
0.99754902 0.54411765 0.35906863
0.39601716 0.66960784 0.50833333
0.425 0.67341452 0.51470588
0.45706189 0.67169118 0.5120864
0.50726869 0.66300551 0.50051317
0.60438113 0.66470588 0.47653186
0.72332261 0.67647059 0.44019608
0.82990196 0.66911765 0.41070772
0.92942708 0.65294118 0.37665441
0.99607843 0.6372549 0.334375
0.5004902 0.75980392 0.57892157
0.49595588 0.75975797 0.56617647
0.52901348 0.75980392 0.56911765
0.57401961 0.75565257 0.57046569
0.62426471 0.75520833 0.55778186
0.70245098 0.76090686 0.53907782
0.79849877 0.77175245 0.50122549
0.89955576 0.77156863 0.46372549
0.97291667 0.77254902 0.43517157
0.59509804 0.84852941 0.66127451
0.60016085 0.84852941 0.65173866
0.61482843 0.84460784 0.64964767
0.64381127 0.84068627 0.65343137
0.68146446 0.84068627 0.65343137
0.72383578 0.84430147 0.63903952
0.7935049 0.85245098 0.614231
0.88039216 0.86470588 0.58182445
0.97941176 0.88511029 0.54332108
0.69019608 0.92401961 0.73970588
0.69234069 0.92156863 0.7372549
0.68615196 0.90784314 0.72205882
0.7216299 0.92009804 0.74215686
0.75735294 0.92941176 0.75539216
0.78431373 0.92794118 0.75091912
0.82340686 0.93223039 0.73480392
0.8754902 0.94540441 0.72205882
0.94362745 0.96323529 0.71078431
0.0039215686 0.17254902 0.58627451
0.031127451 0.16470588 0.58235294
0.3 0.17843137 0.58235294
0.50220588 0.22328431 0.57328431
0.65294118 0.19803922 0.55490196
0.76862745 0.13284314 0.52647059
0.87156863 0.053921569 0.47647059
0.96985294 0.14044118 0.4625
0.99411765 0.20784314 0.45882353
0.0078431373 0.23946078 0.59019608
0.033854167 0.23333333 0.59362745
0.31078431 0.24675245 0.59191176
0.50643382 0.27803309 0.58103554
0.66335784 0.27683824 0.57034314
0.76528799 0.20818015 0.53186275
0.8716299 0.18474265 0.49313725
0.96369485 0.22261029 0.47622549
0.99803922 0.27843137 0.47573529
0.00049019608 0.37647059 0.60147059
0.1002451 0.36390931 0.60006127
0.31470588 0.35931373 0.59607843
0.51470588 0.37622549 0.5877451
0.64803922 0.3752451 0.56813725
0.75042892 0.33192402 0.53474265
0.86617647 0.31813725 0.50098039
0.9622549 0.35098039 0.50091912
0.99607843 0.41029412 0.51666667
0.020098039 0.4870098 0.58382353
0.090839461 0.49181985 0.59476103
0.33792892 0.47941176 0.59258578
0.50487132 0.47916667 0.5877451
0.64117647 0.47647059 0.57144608
0.75297181 0.47349877 0.54754902
0.86176471 0.45238971 0.52849265
0.94721201 0.48808211 0.54191176
0.9870098 0.51446078 0.55343137
0.19215686 0.58627451 0.57745098
0.29313725 0.59607843 0.58823529
0.40196078 0.59215686 0.58823529
0.52107843 0.58431373 0.58431373
0.62352941 0.58137255 0.58235294
0.73651961 0.57254902 0.55845588
0.84411765 0.56470588 0.53480392
0.93345588 0.58566176 0.53933824
0.99411765 0.59607843 0.54705882
0.39558824 0.68284314 0.59166667
0.43823529 0.68578431 0.60343137
0.50091912 0.68676471 0.60863971
0.55983456 0.67892157 0.60686275
0.63002451 0.67205882 0.59852941
0.72058824 0.67377451 0.57598039
0.82316176 0.66973039 0.54644608
0.93170956 0.65343137 0.50677083
0.99215686 0.65980392 0.50833333
0.54019608 0.77107843 0.64901961
0.55686275 0.77303922 0.65294118
0.58676471 0.77303922 0.65477941
0.63523284 0.76960784 0.659375
0.67156863 0.7625 0.65098039
0.71568627 0.76372549 0.6377451
0.81004902 0.77622549 0.60931373
0.90294118 0.76740196 0.57818627
0.97990196 0.76078431 0.5495098
0.64852941 0.85220588 0.71862745
0.64436275 0.85245098 0.71470588
0.65018382 0.85545343 0.70686275
0.68553922 0.85088848 0.71470588
0.70686275 0.84460784 0.70710784
0.74935662 0.84460784 0.70637255
0.79895833 0.85618873 0.68504902
0.88382353 0.86378676 0.6583027
0.97990196 0.88553922 0.63137255
0.71960784 0.92941176 0.78039216
0.71789216 0.92990196 0.77843137
0.725 0.92941176 0.77794118
0.74240196 0.9254902 0.77965686
0.76862745 0.92941176 0.78235294
0.7995098 0.93333333 0.78627451
0.83235294 0.9254902 0.76568627
0.88333333 0.93946078 0.75857843
0.94509804 0.95882353 0.74705882
0.0039215686 0.23823529 0.73137255
0.097242647 0.23707108 0.72616422
0.35196078 0.25931373 0.72536765
0.5377451 0.30343137 0.72352941
0.68970588 0.33602941 0.7125
0.78572304 0.32205882 0.68676471
0.85845588 0.27156863 0.65453431
0.96047794 0.26372549 0.61078431
0.98186275 0.27009804 0.59705882
0.024816176 0.2903799 0.73106618
0.17193627 0.29938725 0.72990196
0.37745098 0.32352941 0.73123468
0.54852941 0.35098039 0.72486979
0.69019608 0.38449755 0.71764706
0.78254442 0.37517616 0.69441636
0.85784314 0.34234069 0.66407782
0.95079657 0.31991422 0.62248775
0.99430147 0.32009804 0.60735294
0.14889706 0.40833333 0.73382353
0.26343444 0.41764706 0.73137255
0.39632353 0.41789216 0.7346201
0.55882353 0.43198529 0.72653186
0.68878676 0.45661765 0.71495098
0.77581189 0.46029412 0.69178922
0.86176471 0.4254902 0.66029412
0.95 0.39545037 0.62670037
0.99754902 0.42892157 0.62340686
0.16078431 0.53039216 0.71868873
0.27910539 0.5289905 0.72733609
0.42340686 0.52947304 0.72676164
0.55449602 0.52555147 0.71346507
0.67398897 0.54558824 0.70903799
0.77730545 0.55651808 0.70541513
0.85617341 0.52714461 0.67617953
0.93339461 0.50019914 0.64754902
0.98976716 0.51862745 0.64270833
0.26348039 0.61911765 0.7129902
0.33946078 0.61911765 0.71127451
0.43045343 0.61911765 0.71102941
0.53823529 0.61519608 0.70484069
0.65085784 0.61862745 0.70392157
0.75928309 0.61231618 0.69215686
0.83988971 0.60183824 0.67647059
0.92285539 0.60882353 0.6736826
0.99019608 0.60931373 0.66397059
0.3995098 0.70245098 0.70539216
0.43719363 0.69993107 0.69772518
0.50772059 0.70430453 0.70637255
0.57589614 0.69607843 0.70245098
0.65934436 0.69068627 0.70438113
0.7377451 0.68823529 0.69795496
0.82947304 0.69276961 0.68970588
0.91512714 0.69871324 0.68174786
0.98131127 0.70153186 0.67738971
0.54509804 0.78443627 0.72303922
0.55188419 0.77941176 0.71973039
0.60196078 0.78443627 0.7247549
0.6442402 0.77982537 0.72941176
0.69362745 0.77659314 0.72941176
0.74601716 0.77487745 0.72757353
0.81862745 0.7729473 0.71292892
0.91150429 0.77280944 0.68854167
0.98921569 0.77401961 0.66678922
0.65275735 0.86158088 0.77647059
0.66372549 0.86361826 0.76862745
0.68253676 0.86421569 0.77250306
0.71158854 0.86010263 0.7723652
0.74117647 0.85701593 0.77254902
0.77598039 0.85606618 0.77217371
0.8191636 0.86029412 0.7638174
0.89509804 0.86832108 0.73899357
0.97567402 0.87745098 0.72205882
0.7372549 0.9372549 0.825
0.74001225 0.93216912 0.81862745
0.75441176 0.93541667 0.82144608
0.7598652 0.93088235 0.81862745
0.77990196 0.93014706 0.81715686
0.81323529 0.9372549 0.82107843
0.85012255 0.94117647 0.82683824
0.89509804 0.93903186 0.80294118
0.95833333 0.93186275 0.77254902
0.24607843 0.35196078 0.83039216
0.32512255 0.34056373 0.83333333
0.44044118 0.3627451 0.82647059
0.58578431 0.39607843 0.81862745
0.70833333 0.44166667 0.81764706
0.80441176 0.48284314 0.81078431
0.87818627 0.47058824 0.79044118
0.94865196 0.43627451 0.78039216
0.99313725 0.43235294 0.74901961
0.27242647 0.37843137 0.83333333
0.34051777 0.39394914 0.82953431
0.45772059 0.40202206 0.83039216
0.59117647 0.43578431 0.82558211
0.70637255 0.4723652 0.82034314
0.80170037 0.51283701 0.80988051
0.87723652 0.50833333 0.79767157
0.93480392 0.45620404 0.77261029
0.9877451 0.46617647 0.75306373
0.3247549 0.4627451 0.82573529
0.38912377 0.47153799 0.8333027
0.48768382 0.48155637 0.82947304
0.59592525 0.49684436 0.82208946
0.7125 0.52745098 0.81862745
0.80392157 0.56341912 0.81078431
0.86979167 0.56121324 0.80667892
0.94139093 0.52647059 0.77742034
0.98529412 0.51862745 0.75294118
0.41286765 0.57120098 0.81801471
0.43578431 0.57009804 0.81973039
0.50490196 0.57303922 0.81973039
0.60133272 0.57401961 0.81470588
0.7127451 0.59313725 0.81403186
0.8 0.61862745 0.81009498
0.86871936 0.61176471 0.80686275
0.92383578 0.58912377 0.77990196
0.96531863 0.57647059 0.75686275
0.39117647 0.65 0.80833333
0.44001225 0.65245098 0.80833333
0.49669118 0.65588235 0.80686275
0.59160539 0.65441176 0.80863971
0.69681373 0.65637255 0.81102941
0.78235294 0.67254902 0.80686275
0.85392157 0.6810049 0.80257353
0.91599265 0.64938725 0.7776348
0.9872549 0.64509804 0.76813725
0.4495098 0.7254902 0.80085784
0.49643076 0.73074449 0.80294118
0.53599877 0.73333333 0.80294118
0.60098039 0.7254902 0.79901961
0.67481618 0.72365196 0.80686275
0.7634038 0.72715993 0.80516238
0.84414828 0.73394608 0.79509804
0.90730699 0.72303922 0.78702512
0.97977941 0.71482843 0.77941176
0.54901961 0.8 0.80367647
0.56348039 0.79617034 0.79901961
0.60827206 0.80214461 0.80294118
0.65294118 0.79901961 0.80340074
0.71360294 0.79583333 0.81433824
0.76752451 0.79191176 0.81078431
0.82904412 0.79509804 0.80667892
0.90735294 0.79583333 0.79865196
0.97941176 0.79436275 0.7872549
0.65245098 0.87561275 0.83676471
0.66029412 0.87169118 0.82510723
0.67882966 0.87156863 0.82205882
0.71128983 0.87169118 0.82990196
0.75367647 0.86856618 0.82990196
0.79620098 0.87169118 0.8377451
0.84093137 0.8689951 0.82999387
0.89912684 0.87173713 0.81464461
0.97732843 0.875 0.79852941
0.7372549 0.94117647 0.86372549
0.74117647 0.94215686 0.86372549
0.75196078 0.9375 0.85980392
0.7807598 0.94509804 0.86654412
0.79215686 0.93284314 0.86029412
0.82536765 0.94154412 0.86470588
0.86372549 0.9379902 0.86078431
0.89987745 0.94558824 0.86078431
0.9254902 0.93823529 0.84901961
0.4254902 0.44509804 0.90245098
0.47205882 0.45729167 0.89901961
0.54375 0.47291667 0.9
0.63988971 0.49460784 0.89901961
0.73602941 0.52892157 0.89509804
0.8127451 0.57156863 0.88596814
0.89227941 0.62291667 0.88333333
0.94607843 0.60196078 0.87205882
0.98431373 0.58676471 0.85637255
0.44901961 0.47941176 0.90294118
0.48769148 0.49116881 0.89982384
0.55502451 0.49771752 0.90294118
0.6478171 0.52150735 0.89901961
0.7379902 0.55539216 0.89509804
0.82020527 0.59430147 0.8872549
0.88872549 0.63333333 0.88333333
0.9495098 0.62015931 0.87591912
0.97604167 0.59761029 0.86770833
0.4877451 0.54460784 0.90294118
0.52619485 0.55243566 0.90294118
0.58419118 0.56029412 0.90294118
0.65945159 0.5748315 0.89901961
0.74730392 0.60539216 0.89509804
0.82696078 0.64105392 0.89085478
0.88872549 0.66222426 0.8872549
0.9495098 0.64803922 0.88198529
0.98137255 0.6314951 0.85637255
0.52598039 0.62009804 0.896875
0.56421569 0.63186275 0.89901961
0.59862132 0.62598039 0.89551164
0.66862745 0.6372549 0.89509804
0.74779412 0.65554534 0.89136029
0.82696078 0.68266697 0.89117647
0.88480392 0.70212929 0.8872549
0.93560049 0.69803922 0.87565104
0.97469363 0.67873775 0.86029412
0.53161765 0.69460784 0.8877451
0.56418505 0.69659926 0.89117647
0.61133578 0.69877451 0.89136029
0.67049632 0.70009191 0.89126838
0.73811275 0.70477941 0.89117647
0.81593137 0.72092525 0.89117647
0.87689951 0.73872549 0.88639706
0.92668505 0.72625613 0.87135417
0.98039216 0.71691176 0.86764706
0.53756127 0.76029412 0.8877451
0.55925245 0.76421569 0.88801317
0.60359988 0.76727941 0.8872549
0.65520067 0.76421569 0.8872549
0.7234375 0.76029412 0.89117647
0.80042892 0.76587776 0.89166667
0.8725337 0.7841299 0.89031863
0.92303922 0.77689951 0.87598039
0.97794118 0.76893382 0.86813725
0.59411765 0.82598039 0.88235294
0.6067402 0.82904412 0.88757659
0.62907475 0.82990196 0.88924632
0.67147672 0.82598039 0.8872549
0.72604167 0.82205882 0.89117647
0.7877451 0.82205882 0.88737745
0.85407475 0.82699142 0.89117647
0.9189951 0.8254902 0.88377757
0.96360294 0.83088235 0.87561275
0.66421569 0.89123775 0.89209559
0.6716299 0.8877451 0.8868796
0.68403799 0.8877451 0.89198836
0.70974265 0.8877068 0.89123775
0.75762868 0.8875 0.89512868
0.80980392 0.8877451 0.89714308
0.86116728 0.8872549 0.90294118
0.91083793 0.88736979 0.89477635
0.97555147 0.88425245 0.87990196
0.72941176 0.94460784 0.91078431
0.7372549 0.94901961 0.90729167
0.74803922 0.95245098 0.90686275
0.775 0.95294118 0.91078431
0.80196078 0.94730392 0.91053922
0.84117647 0.95294118 0.91421569
0.87598039 0.94901961 0.91470588
0.91819853 0.95637255 0.91819853
0.9377451 0.95294118 0.91421569
0.57254902 0.56470588 0.94901961
0.61127451 0.58382353 0.95686275
0.66176471 0.59901961 0.96078431
0.72647059 0.61960784 0.9622549
0.78431373 0.63921569 0.95686275
0.83578431 0.64607843 0.9372549
0.90686275 0.69803922 0.94803922
0.95392157 0.71421569 0.93382353
0.98039216 0.72156863 0.93333333
0.62254902 0.60343137 0.96470588
0.63039216 0.60729167 0.96078431
0.66482843 0.61164216 0.96078431
0.72647059 0.63088235 0.95814951
0.78431373 0.65245098 0.95637255
0.84577206 0.6754902 0.94509804
0.90294118 0.69644608 0.93517157
0.95392157 0.71862745 0.93382353
0.98039216 0.73676471 0.94117647
0.63529412 0.64215686 0.96470588
0.64264706 0.64215686 0.95821078
0.67843137 0.64803922 0.96053922
0.73002451 0.66323529 0.95931373
0.78823529 0.67745098 0.95490196
0.84607843 0.69607843 0.94473039
0.90392157 0.72941176 0.94901961
0.95735294 0.75465686 0.9442402
0.98137255 0.75196078 0.94215686
0.6495098 0.69117647 0.96078431
0.66470588 0.69295343 0.96127451
0.68529412 0.6932598 0.95723039
0.72892157 0.69901961 0.95294118
0.7870098 0.71348039 0.95294118
0.85300245 0.73878676 0.95839461
0.9 0.74754902 0.93909314
0.9473652 0.77303922 0.93903186
0.96862745 0.77892157 0.93872549
0.66666667 0.74509804 0.95686275
0.68627451 0.75318627 0.96102941
0.69509804 0.74656863 0.95833333
0.72794118 0.74509804 0.95490196
0.78431373 0.75490196 0.95294118
0.84607843 0.76666667 0.95343137
0.8995098 0.7872549 0.95294118
0.94558824 0.79460784 0.94509804
0.97843137 0.80588235 0.94509804
0.64705882 0.79901961 0.95686275
0.65471814 0.80147059 0.95686275
0.67414216 0.79901961 0.95588235
0.7026348 0.79417892 0.94534314
0.75 0.78848039 0.93382353
0.82555147 0.80386029 0.94901961
0.88431373 0.81360294 0.94264706
0.94215686 0.83069853 0.9372549
0.98431373 0.84460784 0.95294118
0.65098039 0.85196078 0.94509804
0.65539216 0.8567402 0.95943627
0.6752451 0.85686275 0.95784314
0.7064951 0.85404412 0.95502451
0.73823529 0.84558824 0.94019608
0.81078431 0.85294118 0.9557598
0.87598039 0.85563725 0.95220588
0.93431373 0.87291667 0.95686275
0.97352941 0.8872549 0.95392157
0.69068627 0.91078431 0.95343137
0.69852941 0.91421569 0.95545343
0.70931373 0.90686275 0.94754902
0.73627451 0.91078431 0.96078431
0.77303922 0.91053922 0.95833333
0.81501225 0.91207108 0.9622549
0.87267157 0.91078431 0.95686275
0.92990196 0.91470588 0.96078431
0.97598039 0.92598039 0.96078431
0.71372549 0.9372549 0.96078431
0.74068627 0.96813725 0.96421569
0.74901961 0.95686275 0.93039216
0.77647059 0.97009804 0.96617647
0.80196078 0.95098039 0.93921569
0.84068627 0.94754902 0.93480392
0.88431373 0.95784314 0.95784314
0.92990196 0.95245098 0.96862745
0.97647059 0.96862745 0.96470588
