site/assets/luts/sha256-4363f4b82b2c210ac655e3ed9b52a129ac808455c75eaa4df590a61ceec6d8cd.cube
# LUTr-Schema-Version: 2
# LUTr-ID: sha256-4363f4b82b2c210ac655e3ed9b52a129ac808455c75eaa4df590a61ceec6d8cd
# LUTr-Title: REDlogFilm to REDgamma4
# LUTr-Collection: RED Conversion
# LUTr-Collection-ID: videovillage-red-conversion-luts
# LUTr-Source: https://github.com/videovillage/RED-Conversion-LUTs
# LUTr-Retrieved: 2026-07-27
# LUTr-Source-File: submissions/videovillage-red-conversion-luts/Masters/REDlogFilm_to_REDgamma4.cube
# LUTr-Source-Format: CUBE
# LUTr-Source-SHA256: 4363f4b82b2c210ac655e3ed9b52a129ac808455c75eaa4df590a61ceec6d8cd
# LUTr-License: MIT
# LUTr-License-URL: https://github.com/videovillage/RED-Conversion-LUTs/blob/master/LICENSE.md
# LUTr-License-Basis: repo-license-file
# LUTr-Transform-Class: camera-transform
# LUTr-Tags: technical, camera, red, redlogfilm, redgamma, redgamma4, curve-only, reverse-engineered, cube
# LUTr-Input-Color-Space:
# LUTr-Input-Gamut: unspecified
# LUTr-Input-Transfer: red-logfilm
# LUTr-Output-Color-Space:
# LUTr-Output-Gamut: unchanged-unspecified
# LUTr-Output-Transfer: redgamma4
# LUTr-Color-Space-Confidence: declared-by-source
# LUTr-Domain-Normalized: true
# LUTr-Shaper: none
# LUTr-Original-Grid: 1024
# LUTr-Conversion-Grid: 33x33x33
# LUTr-Conversion-Interpolation: linear
# LUTr-Conversion-Method: Source 1D CUBE sampled to browser-compatible 33x33x33 3D CUBE
# LUTr-Conversion-Tool: LUTr scripts/convert-all-to-cube.mjs 2.0.0
# LUTr-Conversion-Date: 2026-07-27
# LUTr-Source-Labels: input=REDlogFilm post-debayered footage; output=REDgamma4 viewing curve; normalized mean absolute error=0.0244737
# LUTr-Conversion-Warning: This reverse-engineered 1D curve does not declare RGB primaries; gamut is unchanged but unspecified. A 1024-sample 1D CUBE was sampled to 33x33x33 for browser-compatible 3D CUBE hosting.
# LUTr-Note: Preserve this metadata and the upstream license notices when redistributing.
# LUTr-Upstream-Comment: Created by Tashi Trieu and Greg Cotten
TITLE "REDlogFilm to REDgamma4"
LUT_3D_SIZE 9
DOMAIN_MIN 0 0 0
DOMAIN_MAX 1 1 1
0.0024261845 0.0024261845 0.0024261845
0.019101446 0.0024261845 0.0024261845
0.11621653 0.0024261845 0.0024261845
0.29835664 0.0024261845 0.0024261845
0.5318076 0.0024261845 0.0024261845
0.7644789 0.0024261845 0.0024261845
0.9266804 0.0024261845 0.0024261845
0.99195515 0.0024261845 0.0024261845
1 0.0024261845 0.0024261845
0.0024261845 0.019101446 0.0024261845
0.019101446 0.019101446 0.0024261845
0.11621653 0.019101446 0.0024261845
0.29835664 0.019101446 0.0024261845
0.5318076 0.019101446 0.0024261845
0.7644789 0.019101446 0.0024261845
0.9266804 0.019101446 0.0024261845
0.99195515 0.019101446 0.0024261845
1 0.019101446 0.0024261845
0.0024261845 0.11621653 0.0024261845
0.019101446 0.11621653 0.0024261845
0.11621653 0.11621653 0.0024261845
0.29835664 0.11621653 0.0024261845
0.5318076 0.11621653 0.0024261845
0.7644789 0.11621653 0.0024261845
0.9266804 0.11621653 0.0024261845
0.99195515 0.11621653 0.0024261845
1 0.11621653 0.0024261845
0.0024261845 0.29835664 0.0024261845
0.019101446 0.29835664 0.0024261845
0.11621653 0.29835664 0.0024261845
0.29835664 0.29835664 0.0024261845
0.5318076 0.29835664 0.0024261845
0.7644789 0.29835664 0.0024261845
0.9266804 0.29835664 0.0024261845
0.99195515 0.29835664 0.0024261845
1 0.29835664 0.0024261845
0.0024261845 0.5318076 0.0024261845
0.019101446 0.5318076 0.0024261845
0.11621653 0.5318076 0.0024261845
0.29835664 0.5318076 0.0024261845
0.5318076 0.5318076 0.0024261845
0.7644789 0.5318076 0.0024261845
0.9266804 0.5318076 0.0024261845
0.99195515 0.5318076 0.0024261845
1 0.5318076 0.0024261845
0.0024261845 0.7644789 0.0024261845
0.019101446 0.7644789 0.0024261845
0.11621653 0.7644789 0.0024261845
0.29835664 0.7644789 0.0024261845
0.5318076 0.7644789 0.0024261845
0.7644789 0.7644789 0.0024261845
0.9266804 0.7644789 0.0024261845
0.99195515 0.7644789 0.0024261845
1 0.7644789 0.0024261845
0.0024261845 0.9266804 0.0024261845
0.019101446 0.9266804 0.0024261845
0.11621653 0.9266804 0.0024261845
0.29835664 0.9266804 0.0024261845
0.5318076 0.9266804 0.0024261845
0.7644789 0.9266804 0.0024261845
0.9266804 0.9266804 0.0024261845
0.99195515 0.9266804 0.0024261845
1 0.9266804 0.0024261845
0.0024261845 0.99195515 0.0024261845
0.019101446 0.99195515 0.0024261845
0.11621653 0.99195515 0.0024261845
0.29835664 0.99195515 0.0024261845
0.5318076 0.99195515 0.0024261845
0.7644789 0.99195515 0.0024261845
0.9266804 0.99195515 0.0024261845
0.99195515 0.99195515 0.0024261845
1 0.99195515 0.0024261845
0.0024261845 1 0.0024261845
0.019101446 1 0.0024261845
0.11621653 1 0.0024261845
0.29835664 1 0.0024261845
0.5318076 1 0.0024261845
0.7644789 1 0.0024261845
0.9266804 1 0.0024261845
0.99195515 1 0.0024261845
1 1 0.0024261845
0.0024261845 0.0024261845 0.019101446
0.019101446 0.0024261845 0.019101446
0.11621653 0.0024261845 0.019101446
0.29835664 0.0024261845 0.019101446
0.5318076 0.0024261845 0.019101446
0.7644789 0.0024261845 0.019101446
0.9266804 0.0024261845 0.019101446
0.99195515 0.0024261845 0.019101446
1 0.0024261845 0.019101446
0.0024261845 0.019101446 0.019101446
0.019101446 0.019101446 0.019101446
0.11621653 0.019101446 0.019101446
0.29835664 0.019101446 0.019101446
0.5318076 0.019101446 0.019101446
0.7644789 0.019101446 0.019101446
0.9266804 0.019101446 0.019101446
0.99195515 0.019101446 0.019101446
1 0.019101446 0.019101446
0.0024261845 0.11621653 0.019101446
0.019101446 0.11621653 0.019101446
0.11621653 0.11621653 0.019101446
0.29835664 0.11621653 0.019101446
0.5318076 0.11621653 0.019101446
0.7644789 0.11621653 0.019101446
0.9266804 0.11621653 0.019101446
0.99195515 0.11621653 0.019101446
1 0.11621653 0.019101446
0.0024261845 0.29835664 0.019101446
0.019101446 0.29835664 0.019101446
0.11621653 0.29835664 0.019101446
0.29835664 0.29835664 0.019101446
0.5318076 0.29835664 0.019101446
0.7644789 0.29835664 0.019101446
0.9266804 0.29835664 0.019101446
0.99195515 0.29835664 0.019101446
1 0.29835664 0.019101446
0.0024261845 0.5318076 0.019101446
0.019101446 0.5318076 0.019101446
0.11621653 0.5318076 0.019101446
0.29835664 0.5318076 0.019101446
0.5318076 0.5318076 0.019101446
0.7644789 0.5318076 0.019101446
0.9266804 0.5318076 0.019101446
0.99195515 0.5318076 0.019101446
1 0.5318076 0.019101446
0.0024261845 0.7644789 0.019101446
0.019101446 0.7644789 0.019101446
0.11621653 0.7644789 0.019101446
0.29835664 0.7644789 0.019101446
0.5318076 0.7644789 0.019101446
0.7644789 0.7644789 0.019101446
0.9266804 0.7644789 0.019101446
0.99195515 0.7644789 0.019101446
1 0.7644789 0.019101446
0.0024261845 0.9266804 0.019101446
0.019101446 0.9266804 0.019101446
0.11621653 0.9266804 0.019101446
0.29835664 0.9266804 0.019101446
0.5318076 0.9266804 0.019101446
0.7644789 0.9266804 0.019101446
0.9266804 0.9266804 0.019101446
0.99195515 0.9266804 0.019101446
1 0.9266804 0.019101446
0.0024261845 0.99195515 0.019101446
0.019101446 0.99195515 0.019101446
0.11621653 0.99195515 0.019101446
0.29835664 0.99195515 0.019101446
0.5318076 0.99195515 0.019101446
0.7644789 0.99195515 0.019101446
0.9266804 0.99195515 0.019101446
0.99195515 0.99195515 0.019101446
1 0.99195515 0.019101446
0.0024261845 1 0.019101446
0.019101446 1 0.019101446
0.11621653 1 0.019101446
0.29835664 1 0.019101446
0.5318076 1 0.019101446
0.7644789 1 0.019101446
0.9266804 1 0.019101446
0.99195515 1 0.019101446
1 1 0.019101446
0.0024261845 0.0024261845 0.11621653
0.019101446 0.0024261845 0.11621653
0.11621653 0.0024261845 0.11621653
0.29835664 0.0024261845 0.11621653
0.5318076 0.0024261845 0.11621653
0.7644789 0.0024261845 0.11621653
0.9266804 0.0024261845 0.11621653
0.99195515 0.0024261845 0.11621653
1 0.0024261845 0.11621653
0.0024261845 0.019101446 0.11621653
0.019101446 0.019101446 0.11621653
0.11621653 0.019101446 0.11621653
0.29835664 0.019101446 0.11621653
0.5318076 0.019101446 0.11621653
0.7644789 0.019101446 0.11621653
0.9266804 0.019101446 0.11621653
0.99195515 0.019101446 0.11621653
1 0.019101446 0.11621653
0.0024261845 0.11621653 0.11621653
0.019101446 0.11621653 0.11621653
0.11621653 0.11621653 0.11621653
0.29835664 0.11621653 0.11621653
0.5318076 0.11621653 0.11621653
0.7644789 0.11621653 0.11621653
0.9266804 0.11621653 0.11621653
0.99195515 0.11621653 0.11621653
1 0.11621653 0.11621653
0.0024261845 0.29835664 0.11621653
0.019101446 0.29835664 0.11621653
0.11621653 0.29835664 0.11621653
0.29835664 0.29835664 0.11621653
0.5318076 0.29835664 0.11621653
0.7644789 0.29835664 0.11621653
0.9266804 0.29835664 0.11621653
0.99195515 0.29835664 0.11621653
1 0.29835664 0.11621653
0.0024261845 0.5318076 0.11621653
0.019101446 0.5318076 0.11621653
0.11621653 0.5318076 0.11621653
0.29835664 0.5318076 0.11621653
0.5318076 0.5318076 0.11621653
0.7644789 0.5318076 0.11621653
0.9266804 0.5318076 0.11621653
0.99195515 0.5318076 0.11621653
1 0.5318076 0.11621653
0.0024261845 0.7644789 0.11621653
0.019101446 0.7644789 0.11621653
0.11621653 0.7644789 0.11621653
0.29835664 0.7644789 0.11621653
0.5318076 0.7644789 0.11621653
0.7644789 0.7644789 0.11621653
0.9266804 0.7644789 0.11621653
0.99195515 0.7644789 0.11621653
1 0.7644789 0.11621653
0.0024261845 0.9266804 0.11621653
0.019101446 0.9266804 0.11621653
0.11621653 0.9266804 0.11621653
0.29835664 0.9266804 0.11621653
0.5318076 0.9266804 0.11621653
0.7644789 0.9266804 0.11621653
0.9266804 0.9266804 0.11621653
0.99195515 0.9266804 0.11621653
1 0.9266804 0.11621653
0.0024261845 0.99195515 0.11621653
0.019101446 0.99195515 0.11621653
0.11621653 0.99195515 0.11621653
0.29835664 0.99195515 0.11621653
0.5318076 0.99195515 0.11621653
0.7644789 0.99195515 0.11621653
0.9266804 0.99195515 0.11621653
0.99195515 0.99195515 0.11621653
1 0.99195515 0.11621653
0.0024261845 1 0.11621653
0.019101446 1 0.11621653
0.11621653 1 0.11621653
0.29835664 1 0.11621653
0.5318076 1 0.11621653
0.7644789 1 0.11621653
0.9266804 1 0.11621653
0.99195515 1 0.11621653
1 1 0.11621653
0.0024261845 0.0024261845 0.29835664
0.019101446 0.0024261845 0.29835664
0.11621653 0.0024261845 0.29835664
0.29835664 0.0024261845 0.29835664
0.5318076 0.0024261845 0.29835664
0.7644789 0.0024261845 0.29835664
0.9266804 0.0024261845 0.29835664
0.99195515 0.0024261845 0.29835664
1 0.0024261845 0.29835664
0.0024261845 0.019101446 0.29835664
0.019101446 0.019101446 0.29835664
0.11621653 0.019101446 0.29835664
0.29835664 0.019101446 0.29835664
0.5318076 0.019101446 0.29835664
0.7644789 0.019101446 0.29835664
0.9266804 0.019101446 0.29835664
0.99195515 0.019101446 0.29835664
1 0.019101446 0.29835664
0.0024261845 0.11621653 0.29835664
0.019101446 0.11621653 0.29835664
0.11621653 0.11621653 0.29835664
0.29835664 0.11621653 0.29835664
0.5318076 0.11621653 0.29835664
0.7644789 0.11621653 0.29835664
0.9266804 0.11621653 0.29835664
0.99195515 0.11621653 0.29835664
1 0.11621653 0.29835664
0.0024261845 0.29835664 0.29835664
0.019101446 0.29835664 0.29835664
0.11621653 0.29835664 0.29835664
0.29835664 0.29835664 0.29835664
0.5318076 0.29835664 0.29835664
0.7644789 0.29835664 0.29835664
0.9266804 0.29835664 0.29835664
0.99195515 0.29835664 0.29835664
1 0.29835664 0.29835664
0.0024261845 0.5318076 0.29835664
0.019101446 0.5318076 0.29835664
0.11621653 0.5318076 0.29835664
0.29835664 0.5318076 0.29835664
0.5318076 0.5318076 0.29835664
0.7644789 0.5318076 0.29835664
0.9266804 0.5318076 0.29835664
0.99195515 0.5318076 0.29835664
1 0.5318076 0.29835664
0.0024261845 0.7644789 0.29835664
0.019101446 0.7644789 0.29835664
0.11621653 0.7644789 0.29835664
0.29835664 0.7644789 0.29835664
0.5318076 0.7644789 0.29835664
0.7644789 0.7644789 0.29835664
0.9266804 0.7644789 0.29835664
0.99195515 0.7644789 0.29835664
1 0.7644789 0.29835664
0.0024261845 0.9266804 0.29835664
0.019101446 0.9266804 0.29835664
0.11621653 0.9266804 0.29835664
0.29835664 0.9266804 0.29835664
0.5318076 0.9266804 0.29835664
0.7644789 0.9266804 0.29835664
0.9266804 0.9266804 0.29835664
0.99195515 0.9266804 0.29835664
1 0.9266804 0.29835664
0.0024261845 0.99195515 0.29835664
0.019101446 0.99195515 0.29835664
0.11621653 0.99195515 0.29835664
0.29835664 0.99195515 0.29835664
0.5318076 0.99195515 0.29835664
0.7644789 0.99195515 0.29835664
0.9266804 0.99195515 0.29835664
0.99195515 0.99195515 0.29835664
1 0.99195515 0.29835664
0.0024261845 1 0.29835664
0.019101446 1 0.29835664
0.11621653 1 0.29835664
0.29835664 1 0.29835664
0.5318076 1 0.29835664
0.7644789 1 0.29835664
0.9266804 1 0.29835664
0.99195515 1 0.29835664
1 1 0.29835664
0.0024261845 0.0024261845 0.5318076
0.019101446 0.0024261845 0.5318076
0.11621653 0.0024261845 0.5318076
0.29835664 0.0024261845 0.5318076
0.5318076 0.0024261845 0.5318076
0.7644789 0.0024261845 0.5318076
0.9266804 0.0024261845 0.5318076
0.99195515 0.0024261845 0.5318076
1 0.0024261845 0.5318076
0.0024261845 0.019101446 0.5318076
0.019101446 0.019101446 0.5318076
0.11621653 0.019101446 0.5318076
0.29835664 0.019101446 0.5318076
0.5318076 0.019101446 0.5318076
0.7644789 0.019101446 0.5318076
0.9266804 0.019101446 0.5318076
0.99195515 0.019101446 0.5318076
1 0.019101446 0.5318076
0.0024261845 0.11621653 0.5318076
0.019101446 0.11621653 0.5318076
0.11621653 0.11621653 0.5318076
0.29835664 0.11621653 0.5318076
0.5318076 0.11621653 0.5318076
0.7644789 0.11621653 0.5318076
0.9266804 0.11621653 0.5318076
0.99195515 0.11621653 0.5318076
1 0.11621653 0.5318076
0.0024261845 0.29835664 0.5318076
0.019101446 0.29835664 0.5318076
0.11621653 0.29835664 0.5318076
0.29835664 0.29835664 0.5318076
0.5318076 0.29835664 0.5318076
0.7644789 0.29835664 0.5318076
0.9266804 0.29835664 0.5318076
0.99195515 0.29835664 0.5318076
1 0.29835664 0.5318076
0.0024261845 0.5318076 0.5318076
0.019101446 0.5318076 0.5318076
0.11621653 0.5318076 0.5318076
0.29835664 0.5318076 0.5318076
0.5318076 0.5318076 0.5318076
0.7644789 0.5318076 0.5318076
0.9266804 0.5318076 0.5318076
0.99195515 0.5318076 0.5318076
1 0.5318076 0.5318076
0.0024261845 0.7644789 0.5318076
0.019101446 0.7644789 0.5318076
0.11621653 0.7644789 0.5318076
0.29835664 0.7644789 0.5318076
0.5318076 0.7644789 0.5318076
0.7644789 0.7644789 0.5318076
0.9266804 0.7644789 0.5318076
0.99195515 0.7644789 0.5318076
1 0.7644789 0.5318076
0.0024261845 0.9266804 0.5318076
0.019101446 0.9266804 0.5318076
0.11621653 0.9266804 0.5318076
0.29835664 0.9266804 0.5318076
0.5318076 0.9266804 0.5318076
0.7644789 0.9266804 0.5318076
0.9266804 0.9266804 0.5318076
0.99195515 0.9266804 0.5318076
1 0.9266804 0.5318076
0.0024261845 0.99195515 0.5318076
0.019101446 0.99195515 0.5318076
0.11621653 0.99195515 0.5318076
0.29835664 0.99195515 0.5318076
0.5318076 0.99195515 0.5318076
0.7644789 0.99195515 0.5318076
0.9266804 0.99195515 0.5318076
0.99195515 0.99195515 0.5318076
1 0.99195515 0.5318076
0.0024261845 1 0.5318076
0.019101446 1 0.5318076
0.11621653 1 0.5318076
0.29835664 1 0.5318076
0.5318076 1 0.5318076
0.7644789 1 0.5318076
0.9266804 1 0.5318076
0.99195515 1 0.5318076
1 1 0.5318076
0.0024261845 0.0024261845 0.7644789
0.019101446 0.0024261845 0.7644789
0.11621653 0.0024261845 0.7644789
0.29835664 0.0024261845 0.7644789
0.5318076 0.0024261845 0.7644789
0.7644789 0.0024261845 0.7644789
0.9266804 0.0024261845 0.7644789
0.99195515 0.0024261845 0.7644789
1 0.0024261845 0.7644789
0.0024261845 0.019101446 0.7644789
0.019101446 0.019101446 0.7644789
0.11621653 0.019101446 0.7644789
0.29835664 0.019101446 0.7644789
0.5318076 0.019101446 0.7644789
0.7644789 0.019101446 0.7644789
0.9266804 0.019101446 0.7644789
0.99195515 0.019101446 0.7644789
1 0.019101446 0.7644789
0.0024261845 0.11621653 0.7644789
0.019101446 0.11621653 0.7644789
0.11621653 0.11621653 0.7644789
0.29835664 0.11621653 0.7644789
0.5318076 0.11621653 0.7644789
0.7644789 0.11621653 0.7644789
0.9266804 0.11621653 0.7644789
0.99195515 0.11621653 0.7644789
1 0.11621653 0.7644789
0.0024261845 0.29835664 0.7644789
0.019101446 0.29835664 0.7644789
0.11621653 0.29835664 0.7644789
0.29835664 0.29835664 0.7644789
0.5318076 0.29835664 0.7644789
0.7644789 0.29835664 0.7644789
0.9266804 0.29835664 0.7644789
0.99195515 0.29835664 0.7644789
1 0.29835664 0.7644789
0.0024261845 0.5318076 0.7644789
0.019101446 0.5318076 0.7644789
0.11621653 0.5318076 0.7644789
0.29835664 0.5318076 0.7644789
0.5318076 0.5318076 0.7644789
0.7644789 0.5318076 0.7644789
0.9266804 0.5318076 0.7644789
0.99195515 0.5318076 0.7644789
1 0.5318076 0.7644789
0.0024261845 0.7644789 0.7644789
0.019101446 0.7644789 0.7644789
0.11621653 0.7644789 0.7644789
0.29835664 0.7644789 0.7644789
0.5318076 0.7644789 0.7644789
0.7644789 0.7644789 0.7644789
0.9266804 0.7644789 0.7644789
0.99195515 0.7644789 0.7644789
1 0.7644789 0.7644789
0.0024261845 0.9266804 0.7644789
0.019101446 0.9266804 0.7644789
0.11621653 0.9266804 0.7644789
0.29835664 0.9266804 0.7644789
0.5318076 0.9266804 0.7644789
0.7644789 0.9266804 0.7644789
0.9266804 0.9266804 0.7644789
0.99195515 0.9266804 0.7644789
1 0.9266804 0.7644789
0.0024261845 0.99195515 0.7644789
0.019101446 0.99195515 0.7644789
0.11621653 0.99195515 0.7644789
0.29835664 0.99195515 0.7644789
0.5318076 0.99195515 0.7644789
0.7644789 0.99195515 0.7644789
0.9266804 0.99195515 0.7644789
0.99195515 0.99195515 0.7644789
1 0.99195515 0.7644789
0.0024261845 1 0.7644789
0.019101446 1 0.7644789
0.11621653 1 0.7644789
0.29835664 1 0.7644789
0.5318076 1 0.7644789
0.7644789 1 0.7644789
0.9266804 1 0.7644789
0.99195515 1 0.7644789
1 1 0.7644789
0.0024261845 0.0024261845 0.9266804
0.019101446 0.0024261845 0.9266804
0.11621653 0.0024261845 0.9266804
0.29835664 0.0024261845 0.9266804
0.5318076 0.0024261845 0.9266804
0.7644789 0.0024261845 0.9266804
0.9266804 0.0024261845 0.9266804
0.99195515 0.0024261845 0.9266804
1 0.0024261845 0.9266804
0.0024261845 0.019101446 0.9266804
0.019101446 0.019101446 0.9266804
0.11621653 0.019101446 0.9266804
0.29835664 0.019101446 0.9266804
0.5318076 0.019101446 0.9266804
0.7644789 0.019101446 0.9266804
0.9266804 0.019101446 0.9266804
0.99195515 0.019101446 0.9266804
1 0.019101446 0.9266804
0.0024261845 0.11621653 0.9266804
0.019101446 0.11621653 0.9266804
0.11621653 0.11621653 0.9266804
0.29835664 0.11621653 0.9266804
0.5318076 0.11621653 0.9266804
0.7644789 0.11621653 0.9266804
0.9266804 0.11621653 0.9266804
0.99195515 0.11621653 0.9266804
1 0.11621653 0.9266804
0.0024261845 0.29835664 0.9266804
0.019101446 0.29835664 0.9266804
0.11621653 0.29835664 0.9266804
0.29835664 0.29835664 0.9266804
0.5318076 0.29835664 0.9266804
0.7644789 0.29835664 0.9266804
0.9266804 0.29835664 0.9266804
0.99195515 0.29835664 0.9266804
1 0.29835664 0.9266804
0.0024261845 0.5318076 0.9266804
0.019101446 0.5318076 0.9266804
0.11621653 0.5318076 0.9266804
0.29835664 0.5318076 0.9266804
0.5318076 0.5318076 0.9266804
0.7644789 0.5318076 0.9266804
0.9266804 0.5318076 0.9266804
0.99195515 0.5318076 0.9266804
1 0.5318076 0.9266804
0.0024261845 0.7644789 0.9266804
0.019101446 0.7644789 0.9266804
0.11621653 0.7644789 0.9266804
0.29835664 0.7644789 0.9266804
0.5318076 0.7644789 0.9266804
0.7644789 0.7644789 0.9266804
0.9266804 0.7644789 0.9266804
0.99195515 0.7644789 0.9266804
1 0.7644789 0.9266804
0.0024261845 0.9266804 0.9266804
0.019101446 0.9266804 0.9266804
0.11621653 0.9266804 0.9266804
0.29835664 0.9266804 0.9266804
0.5318076 0.9266804 0.9266804
0.7644789 0.9266804 0.9266804
0.9266804 0.9266804 0.9266804
0.99195515 0.9266804 0.9266804
1 0.9266804 0.9266804
0.0024261845 0.99195515 0.9266804
0.019101446 0.99195515 0.9266804
0.11621653 0.99195515 0.9266804
0.29835664 0.99195515 0.9266804
0.5318076 0.99195515 0.9266804
0.7644789 0.99195515 0.9266804
0.9266804 0.99195515 0.9266804
0.99195515 0.99195515 0.9266804
1 0.99195515 0.9266804
0.0024261845 1 0.9266804
0.019101446 1 0.9266804
0.11621653 1 0.9266804
0.29835664 1 0.9266804
0.5318076 1 0.9266804
0.7644789 1 0.9266804
0.9266804 1 0.9266804
0.99195515 1 0.9266804
1 1 0.9266804
0.0024261845 0.0024261845 0.99195515
0.019101446 0.0024261845 0.99195515
0.11621653 0.0024261845 0.99195515
0.29835664 0.0024261845 0.99195515
0.5318076 0.0024261845 0.99195515
0.7644789 0.0024261845 0.99195515
0.9266804 0.0024261845 0.99195515
0.99195515 0.0024261845 0.99195515
1 0.0024261845 0.99195515
0.0024261845 0.019101446 0.99195515
0.019101446 0.019101446 0.99195515
0.11621653 0.019101446 0.99195515
0.29835664 0.019101446 0.99195515
0.5318076 0.019101446 0.99195515
0.7644789 0.019101446 0.99195515
0.9266804 0.019101446 0.99195515
0.99195515 0.019101446 0.99195515
1 0.019101446 0.99195515
0.0024261845 0.11621653 0.99195515
0.019101446 0.11621653 0.99195515
0.11621653 0.11621653 0.99195515
0.29835664 0.11621653 0.99195515
0.5318076 0.11621653 0.99195515
0.7644789 0.11621653 0.99195515
0.9266804 0.11621653 0.99195515
0.99195515 0.11621653 0.99195515
1 0.11621653 0.99195515
0.0024261845 0.29835664 0.99195515
0.019101446 0.29835664 0.99195515
0.11621653 0.29835664 0.99195515
0.29835664 0.29835664 0.99195515
0.5318076 0.29835664 0.99195515
0.7644789 0.29835664 0.99195515
0.9266804 0.29835664 0.99195515
0.99195515 0.29835664 0.99195515
1 0.29835664 0.99195515
0.0024261845 0.5318076 0.99195515
0.019101446 0.5318076 0.99195515
0.11621653 0.5318076 0.99195515
0.29835664 0.5318076 0.99195515
0.5318076 0.5318076 0.99195515
0.7644789 0.5318076 0.99195515
0.9266804 0.5318076 0.99195515
0.99195515 0.5318076 0.99195515
1 0.5318076 0.99195515
0.0024261845 0.7644789 0.99195515
0.019101446 0.7644789 0.99195515
0.11621653 0.7644789 0.99195515
0.29835664 0.7644789 0.99195515
0.5318076 0.7644789 0.99195515
0.7644789 0.7644789 0.99195515
0.9266804 0.7644789 0.99195515
0.99195515 0.7644789 0.99195515
1 0.7644789 0.99195515
0.0024261845 0.9266804 0.99195515
0.019101446 0.9266804 0.99195515
0.11621653 0.9266804 0.99195515
0.29835664 0.9266804 0.99195515
0.5318076 0.9266804 0.99195515
0.7644789 0.9266804 0.99195515
0.9266804 0.9266804 0.99195515
0.99195515 0.9266804 0.99195515
1 0.9266804 0.99195515
0.0024261845 0.99195515 0.99195515
0.019101446 0.99195515 0.99195515
0.11621653 0.99195515 0.99195515
0.29835664 0.99195515 0.99195515
0.5318076 0.99195515 0.99195515
0.7644789 0.99195515 0.99195515
0.9266804 0.99195515 0.99195515
0.99195515 0.99195515 0.99195515
1 0.99195515 0.99195515
0.0024261845 1 0.99195515
0.019101446 1 0.99195515
0.11621653 1 0.99195515
0.29835664 1 0.99195515
0.5318076 1 0.99195515
0.7644789 1 0.99195515
0.9266804 1 0.99195515
0.99195515 1 0.99195515
1 1 0.99195515
0.0024261845 0.0024261845 1
0.019101446 0.0024261845 1
0.11621653 0.0024261845 1
0.29835664 0.0024261845 1
0.5318076 0.0024261845 1
0.7644789 0.0024261845 1
0.9266804 0.0024261845 1
0.99195515 0.0024261845 1
1 0.0024261845 1
0.0024261845 0.019101446 1
0.019101446 0.019101446 1
0.11621653 0.019101446 1
0.29835664 0.019101446 1
0.5318076 0.019101446 1
0.7644789 0.019101446 1
0.9266804 0.019101446 1
0.99195515 0.019101446 1
1 0.019101446 1
0.0024261845 0.11621653 1
0.019101446 0.11621653 1
0.11621653 0.11621653 1
0.29835664 0.11621653 1
0.5318076 0.11621653 1
0.7644789 0.11621653 1
0.9266804 0.11621653 1
0.99195515 0.11621653 1
1 0.11621653 1
0.0024261845 0.29835664 1
0.019101446 0.29835664 1
0.11621653 0.29835664 1
0.29835664 0.29835664 1
0.5318076 0.29835664 1
0.7644789 0.29835664 1
0.9266804 0.29835664 1
0.99195515 0.29835664 1
1 0.29835664 1
0.0024261845 0.5318076 1
0.019101446 0.5318076 1
0.11621653 0.5318076 1
0.29835664 0.5318076 1
0.5318076 0.5318076 1
0.7644789 0.5318076 1
0.9266804 0.5318076 1
0.99195515 0.5318076 1
1 0.5318076 1
0.0024261845 0.7644789 1
0.019101446 0.7644789 1
0.11621653 0.7644789 1
0.29835664 0.7644789 1
0.5318076 0.7644789 1
0.7644789 0.7644789 1
0.9266804 0.7644789 1
0.99195515 0.7644789 1
1 0.7644789 1
0.0024261845 0.9266804 1
0.019101446 0.9266804 1
0.11621653 0.9266804 1
0.29835664 0.9266804 1
0.5318076 0.9266804 1
0.7644789 0.9266804 1
0.9266804 0.9266804 1
0.99195515 0.9266804 1
1 0.9266804 1
0.0024261845 0.99195515 1
0.019101446 0.99195515 1
0.11621653 0.99195515 1
0.29835664 0.99195515 1
0.5318076 0.99195515 1
0.7644789 0.99195515 1
0.9266804 0.99195515 1
0.99195515 0.99195515 1
1 0.99195515 1
0.0024261845 1 1
0.019101446 1 1
0.11621653 1 1
0.29835664 1 1
0.5318076 1 1
0.7644789 1 1
0.9266804 1 1
0.99195515 1 1
1 1 1
