site/assets/luts/sha256-702b143f57457fbdad48cf8ab780c99772c694290d54c9f39353d7fc2a66ea00.cube
# LUTr-Schema-Version: 2
# LUTr-ID: sha256-702b143f57457fbdad48cf8ab780c99772c694290d54c9f39353d7fc2a66ea00
# LUTr-Title: warm
# LUTr-Collection: Natron HaldCLUT
# LUTr-Collection-ID: natron-haldclut-presets
# LUTr-Source: https://github.com/NatronGitHub/clut
# LUTr-Retrieved: 2026-07-27
# LUTr-Source-File: submissions/natron-haldclut-presets/various/warm.png
# LUTr-Source-Format: HALD-PNG
# LUTr-Source-SHA256: 702b143f57457fbdad48cf8ab780c99772c694290d54c9f39353d7fc2a66ea00
# LUTr-License: CC-BY-SA-4.0
# LUTr-License-URL: https://github.com/NatronGitHub/clut#license
# LUTr-License-Basis: repo-license-file
# LUTr-Transform-Class: film-emulation
# LUTr-Tags: creative, film, film-emulation, hald-clut, natron, png, warm, cube
# LUTr-Input-Color-Space: srgb
# LUTr-Input-Gamut: rec709
# LUTr-Input-Transfer: srgb
# LUTr-Output-Color-Space: srgb
# LUTr-Output-Gamut: rec709
# LUTr-Output-Transfer: srgb
# LUTr-Color-Space-Confidence: assumed-display-referred
# LUTr-Domain-Normalized: true
# LUTr-Shaper: none
# LUTr-Original-Grid: 64x64x64
# LUTr-Conversion-Grid: 25x25x25
# LUTr-Conversion-Interpolation: trilinear
# LUTr-Conversion-Method: HALD-PNG LUT image decoded at 16-bit and sampled to 25x25x25 3D CUBE
# LUTr-Conversion-Tool: LUTr scripts/convert-all-to-cube.mjs 2.0.0
# LUTr-Conversion-Date: 2026-07-27
# LUTr-Note: Preserve this metadata and the upstream license notices when redistributing.
TITLE "warm"
LUT_3D_SIZE 25
DOMAIN_MIN 0 0 0
DOMAIN_MAX 1 1 1
0.011764706 0.0039215686 0.0078431373
0.060784314 0.028431373 0.032352941
0.10980392 0.049019608 0.056862745
0.15833333 0.069607843 0.07745098
0.20588235 0.084313725 0.098039216
0.25686275 0.094607843 0.11470588
0.30490196 0.10490196 0.13137255
0.35490196 0.11127451 0.14656863
0.4 0.1254902 0.16470588
0.44117647 0.15 0.19558824
0.4872549 0.16568627 0.20490196
0.53529412 0.17941176 0.21519608
0.57058824 0.2 0.23333333
0.60980392 0.2245098 0.25196078
0.64705882 0.24509804 0.27254902
0.68823529 0.26176471 0.29313725
0.72941176 0.28235294 0.30980392
0.76029412 0.32990196 0.31127451
0.79509804 0.37058824 0.31176471
0.82598039 0.39117647 0.33235294
0.85686275 0.41176471 0.34901961
0.89166667 0.42843137 0.36911765
0.92254902 0.44509804 0.38333333
0.95735294 0.46029412 0.39754902
0.96470588 0.46666667 0.40392157
0.045098039 0.034803922 0.032352941
0.06807598 0.039644608 0.039644608
0.11078431 0.055392157 0.060784314
0.15833333 0.075980392 0.081372549
0.20588235 0.092156863 0.10196078
0.25343137 0.10098039 0.11813725
0.30490196 0.11127451 0.13419118
0.35637255 0.1254902 0.14957108
0.4 0.14215686 0.16715686
0.44117647 0.16666667 0.19405637
0.48664216 0.18235294 0.20490196
0.52922794 0.19607843 0.2127451
0.56862745 0.21666667 0.22818627
0.60588235 0.24117647 0.24558824
0.64705882 0.26176471 0.26617647
0.68578431 0.28235294 0.284375
0.72303922 0.30294118 0.29705882
0.76029412 0.33229167 0.30643382
0.79264706 0.37156863 0.30894608
0.82598039 0.39381127 0.32843137
0.85686275 0.41495098 0.35416667
0.88823529 0.4372549 0.37567402
0.92254902 0.46029412 0.38909314
0.95435049 0.48480392 0.40539216
0.96078431 0.49362745 0.41421569
0.078431373 0.069607843 0.053921569
0.090196078 0.065686275 0.059313725
0.11936275 0.069607843 0.069607843
0.15882353 0.082843137 0.086642157
0.20588235 0.097058824 0.10441176
0.25441176 0.11262255 0.12218137
0.30588235 0.12941176 0.1370098
0.35882353 0.14669118 0.15257353
0.4 0.1627451 0.16862745
0.44117647 0.18688725 0.19105392
0.48553922 0.20294118 0.20098039
0.52745098 0.22058824 0.21127451
0.56470588 0.24117647 0.225
0.6057598 0.26176471 0.24019608
0.64313725 0.28308824 0.26004902
0.68223039 0.30502451 0.27218137
0.72058824 0.32745098 0.28529412
0.7560049 0.34803922 0.29558824
0.79117647 0.3747549 0.30710784
0.8254902 0.40085784 0.33186275
0.85686275 0.43137255 0.35392157
0.89166667 0.46188725 0.37708333
0.92254902 0.4872549 0.39509804
0.95196078 0.51176471 0.41139706
0.95686275 0.52058824 0.42058824
0.10539216 0.1004902 0.074019608
0.11783088 0.096752451 0.076470588
0.13823529 0.096568627 0.085416667
0.1627451 0.093566176 0.093137255
0.20955882 0.1127451 0.10955882
0.26078431 0.13284314 0.12555147
0.3127451 0.15085784 0.14019608
0.3622549 0.17040441 0.15588235
0.4 0.1872549 0.17254902
0.44117647 0.20765931 0.18921569
0.48235294 0.22438725 0.20098039
0.52352941 0.24117647 0.21127451
0.56470588 0.26176471 0.22181373
0.60196078 0.28584559 0.23670343
0.64313725 0.30686275 0.25306373
0.68039216 0.32873775 0.26470588
0.71764706 0.35147059 0.27843137
0.75618873 0.37205882 0.29264706
0.79203431 0.39754902 0.31127451
0.82598039 0.42843137 0.33235294
0.85686275 0.45931373 0.35686275
0.88823529 0.48976716 0.38088235
0.92254902 0.51715686 0.39889706
0.9495098 0.54264706 0.41685049
0.95294118 0.54754902 0.43088235
0.11960784 0.12745098 0.080392157
0.13676471 0.12745098 0.086764706
0.15980392 0.12696078 0.096078431
0.1870098 0.12720588 0.098039216
0.22941176 0.13921569 0.10980392
0.28063725 0.15980392 0.12598039
0.32696078 0.17696078 0.14313725
0.36593137 0.19436275 0.15833333
0.40392157 0.20980392 0.17254902
0.44191176 0.22843137 0.18676471
0.48235294 0.24509804 0.19705882
0.52352941 0.26568627 0.20735294
0.56470588 0.28529412 0.21862745
0.60367647 0.30686275 0.23406863
0.64313725 0.33088235 0.24901961
0.68039216 0.35269608 0.26421569
0.72156863 0.37843137 0.28039216
0.75882353 0.40416667 0.29779412
0.79509804 0.43137255 0.31568627
0.82598039 0.45931373 0.33823529
0.85980392 0.48627451 0.36078431
0.89166667 0.51715686 0.38137255
0.92254902 0.54460784 0.40196078
0.95073529 0.57107843 0.41862745
0.9627451 0.58235294 0.43137255
0.1377451 0.15833333 0.090686275
0.1591299 0.15833333 0.097058824
0.18737745 0.15882353 0.099387255
0.21525735 0.16182598 0.10196078
0.25196078 0.17009804 0.10980392
0.29656863 0.18670343 0.12647059
0.33382353 0.20294118 0.14313725
0.37089461 0.21813725 0.15833333
0.40784314 0.23235294 0.17254902
0.44509804 0.24901961 0.18498775
0.48284314 0.26960784 0.19693627
0.52401961 0.28676471 0.20686275
0.56519608 0.30686275 0.21715686
0.60588235 0.33137255 0.23143382
0.6432598 0.35502451 0.24595588
0.68431373 0.38057598 0.26568627
0.72156863 0.40931373 0.28284314
0.76029412 0.43627451 0.30079657
0.79509804 0.46323529 0.31960784
0.82947304 0.49019608 0.34068627
0.86078431 0.51715686 0.36127451
0.89166667 0.54411765 0.38137255
0.92254902 0.57463235 0.40196078
0.95343137 0.60196078 0.41862745
0.97303922 0.61764706 0.43137255
0.16176471 0.19607843 0.10784314
0.18517157 0.19607843 0.10882353
0.2127451 0.19681373 0.11446078
0.24007353 0.19607843 0.10894608
0.27107843 0.19901961 0.10980392
0.30637255 0.21066176 0.12610294
0.34044118 0.2245098 0.14093137
0.37414216 0.23872549 0.1564951
0.40784314 0.25294118 0.16862745
0.44509804 0.26960784 0.1817402
0.48627451 0.29019608 0.19313725
0.52745098 0.31078431 0.20343137
0.57156863 0.33137255 0.21372549
0.60968137 0.35502451 0.22843137
0.64705882 0.38235294 0.24828431
0.68431373 0.40931373 0.26752451
0.7245098 0.4372549 0.28627451
0.7627451 0.46531863 0.30294118
0.79509804 0.49313725 0.32058824
0.82990196 0.52107843 0.34411765
0.86078431 0.54803922 0.36470588
0.89166667 0.575 0.38480392
0.92254902 0.60220588 0.40196078
0.95637255 0.62953431 0.41862745
0.98333333 0.65588235 0.43137255
0.19656863 0.24117647 0.12843137
0.21084559 0.24117647 0.12843137
0.23835784 0.23872549 0.12843137
0.26470588 0.23872549 0.1245098
0.28921569 0.24117647 0.1245098
0.31666667 0.24166667 0.13137255
0.34754902 0.2504902 0.14276961
0.37843137 0.26170343 0.15386029
0.41176471 0.27352941 0.16323529
0.44564951 0.29019608 0.17444853
0.48627451 0.30968137 0.1877451
0.53088235 0.33137255 0.1995098
0.57647059 0.35661765 0.21053922
0.61323529 0.38216912 0.22843137
0.64803922 0.40931373 0.24901961
0.68676471 0.43872549 0.26660539
0.7254902 0.46715686 0.28235294
0.7627451 0.49558824 0.29993873
0.79509804 0.52291667 0.31960784
0.82990196 0.54852941 0.34264706
0.86078431 0.57622549 0.36470588
0.89166667 0.60196078 0.38498775
0.92254902 0.62953431 0.40196078
0.95680147 0.65686275 0.42009804
0.97892157 0.67745098 0.43529412
0.22745098 0.28627451 0.14901961
0.24019608 0.28627451 0.14901961
0.26470588 0.28627451 0.14509804
0.28872549 0.28627451 0.14166667
0.30980392 0.28823529 0.14117647
0.33431373 0.28627451 0.14509804
0.35882353 0.28627451 0.14901961
0.38480392 0.29019608 0.15686275
0.41568627 0.29803922 0.15686275
0.44901961 0.31078431 0.16715686
0.48921569 0.32745098 0.18235294
0.53088235 0.35147059 0.2004902
0.57254902 0.38235294 0.21764706
0.61372549 0.40931373 0.23578431
0.65098039 0.4372549 0.25588235
0.68823529 0.46715686 0.27058824
0.7254902 0.49803922 0.28235294
0.76421569 0.52647059 0.29656863
0.79509804 0.55196078 0.31960784
0.82990196 0.5754902 0.34019608
0.86078431 0.60196078 0.36470588
0.89166667 0.62843137 0.38529412
0.92254902 0.65588235 0.40588235
0.95343137 0.67745098 0.42647059
0.97647059 0.69803922 0.43921569
0.26470588 0.32990196 0.16960784
0.27199755 0.33137255 0.16568627
0.28639706 0.33382353 0.16568627
0.30980392 0.3377451 0.16176471
0.33039216 0.3377451 0.16176471
0.35490196 0.33382353 0.16176471
0.37941176 0.33198529 0.16176471
0.40238971 0.33137255 0.16084559
0.42843137 0.33137255 0.15931373
0.45386029 0.33321078 0.15778186
0.49019608 0.35477941 0.17843137
0.53137255 0.38235294 0.20147059
0.57254902 0.40931373 0.22598039
0.61372549 0.43988971 0.24234069
0.65159314 0.46715686 0.25747549
0.69068627 0.49803922 0.27058824
0.72941176 0.52892157 0.27843137
0.76813725 0.55735294 0.29264706
0.79803922 0.57941176 0.31629902
0.82745098 0.60245098 0.34019608
0.86078431 0.62769608 0.36470588
0.89166667 0.65324755 0.38921569
0.92254902 0.67745098 0.41164216
0.95196078 0.70196078 0.43039216
0.97254902 0.71862745 0.44558824
0.28039216 0.38235294 0.18235294
0.29031863 0.38529412 0.18198529
0.30980392 0.38627451 0.18063725
0.33039216 0.38835784 0.17843137
0.35343137 0.38529412 0.17843137
0.3754902 0.38394608 0.17843137
0.39901961 0.38063725 0.17769608
0.42058824 0.37745098 0.17634804
0.44509804 0.37745098 0.1745098
0.47144608 0.38026961 0.17696078
0.49803922 0.3870098 0.1879902
0.53272059 0.40980392 0.21127451
0.57254902 0.43823529 0.23382353
0.61372549 0.46715686 0.24754902
0.65490196 0.49730392 0.2625
0.69215686 0.525 0.27414216
0.72941176 0.55490196 0.28627451
0.76666667 0.58223039 0.3
0.79901961 0.60392157 0.31960784
0.82990196 0.62806373 0.34411765
0.86078431 0.65343137 0.36911765
0.89166667 0.67879902 0.3932598
0.92254902 0.70269608 0.41470588
0.95232843 0.72647059 0.43492647
0.97352941 0.74411765 0.45098039
0.29705882 0.44019608 0.19558824
0.30980392 0.44050245 0.19558824
0.33039216 0.44068627 0.19509804
0.35098039 0.4372549 0.19509804
0.3754902 0.43676471 0.19558824
0.39607843 0.43284314 0.19509804
0.41960784 0.42904412 0.19509804
0.44117647 0.42892157 0.19509804
0.46568627 0.42892157 0.19509804
0.49019608 0.43284314 0.20116422
0.51470588 0.43676471 0.20784314
0.53921569 0.44460784 0.22248775
0.57647059 0.46715686 0.23333333
0.61672794 0.49803922 0.24368873
0.65490196 0.52512255 0.26078431
0.69215686 0.55459559 0.28780637
0.72941176 0.57941176 0.29362745
0.76421569 0.60392157 0.31029412
0.79901961 0.62806373 0.32610294
0.82990196 0.65202206 0.3471201
0.86078431 0.67720588 0.37058824
0.89558824 0.70238971 0.39705882
0.92647059 0.72904412 0.41764706
0.95343137 0.75226716 0.43823529
0.97647059 0.77107843 0.45490196
0.31764706 0.49803922 0.20980392
0.33039216 0.49681373 0.20980392
0.35147059 0.49362745 0.21176471
0.3754902 0.48872549 0.21176471
0.39607843 0.48823529 0.21176471
0.41715686 0.48431373 0.21372549
0.44117647 0.48284314 0.21519608
0.46323529 0.48235294 0.21568627
0.48627451 0.48431373 0.21960784
0.51078431 0.48823529 0.22598039
0.53529412 0.49068627 0.23382353
0.55588235 0.49558824 0.23161765
0.58137255 0.50294118 0.22745098
0.61764706 0.52843137 0.23431373
0.65539216 0.55441176 0.25441176
0.69215686 0.58014706 0.28014706
0.72941176 0.60588235 0.30196078
0.76421569 0.62965686 0.31936275
0.79901961 0.65294118 0.33284314
0.82990196 0.6754902 0.34828431
0.86078431 0.70098039 0.36960784
0.89166667 0.72647059 0.39509804
0.9245098 0.75098039 0.41568627
0.95343137 0.7754902 0.43627451
0.97647059 0.79215686 0.45294118
0.33480392 0.55882353 0.2245098
0.35490196 0.55165441 0.22824755
0.3754902 0.54669118 0.22843137
0.39607843 0.54362745 0.22843137
0.41887255 0.53970588 0.23235294
0.44117647 0.53621324 0.23235294
0.46213235 0.53578431 0.23615196
0.48627451 0.53627451 0.2377451
0.51078431 0.53970588 0.24411765
0.53167892 0.54362745 0.2504902
0.55588235 0.54754902 0.24791667
0.57647059 0.55098039 0.240625
0.59705882 0.55343137 0.23382353
0.62156863 0.55974265 0.22585784
0.65588235 0.58247549 0.25208333
0.69197304 0.60569853 0.27892157
0.72941176 0.62892157 0.30245098
0.76421569 0.65557598 0.32647059
0.79901961 0.67794118 0.33958333
0.82990196 0.70196078 0.3528799
0.86078431 0.72303922 0.36838235
0.89166667 0.74797794 0.38872549
0.92254902 0.77193627 0.40931373
0.95343137 0.79607843 0.42990196
0.97647059 0.8122549 0.44656863
0.35882353 0.6 0.24215686
0.3754902 0.6 0.24509804
0.39901961 0.59901961 0.24901961
0.42058824 0.59546569 0.24901961
0.44117647 0.59460784 0.25294118
0.46176471 0.59117647 0.25294118
0.48627451 0.59117647 0.25588235
0.50833333 0.59227941 0.26078431
0.53137255 0.59509804 0.26764706
0.55588235 0.59865196 0.26678922
0.57647059 0.59901961 0.26078431
0.59705882 0.6 0.25428922
0.61617647 0.6 0.24558824
0.63529412 0.6004902 0.24558824
0.65955882 0.61151961 0.25980392
0.69178922 0.63137255 0.28137255
0.7254902 0.65588235 0.30588235
0.7627451 0.68039216 0.32647059
0.79681373 0.70490196 0.34313725
0.82990196 0.72647059 0.35637255
0.86078431 0.74852941 0.36666667
0.89166667 0.77193627 0.3810049
0.92254902 0.79607843 0.39901961
0.95343137 0.81519608 0.42205882
0.97647059 0.82941176 0.43627451
0.38333333 0.64117647 0.26176471
0.4 0.64509804 0.26329657
0.42058824 0.64901961 0.26568627
0.44117647 0.64920343 0.26960784
0.46446078 0.64656863 0.26960784
0.48627451 0.64393382 0.27224265
0.50686275 0.64375 0.27536765
0.53137255 0.6471201 0.28137255
0.55343137 0.6504902 0.28382353
0.57647059 0.6504902 0.2783701
0.59558824 0.65012255 0.27316176
0.61372549 0.64558824 0.26832108
0.63284314 0.64509804 0.26495098
0.65098039 0.64528186 0.26439951
0.67340686 0.65196078 0.27794118
0.7 0.66617647 0.29607843
0.73088235 0.68284314 0.31127451
0.76329657 0.70588235 0.32886029
0.79607843 0.72855392 0.34607843
0.82990196 0.75098039 0.35637255
0.86078431 0.77426471 0.36593137
0.89166667 0.79754902 0.37334559
0.92254902 0.82058824 0.38982843
0.95343137 0.83633578 0.41715686
0.98039216 0.85392157 0.42598039
0.40392157 0.68627451 0.27843137
0.42058824 0.69019608 0.28088235
0.44215686 0.69411765 0.28333333
0.46568627 0.69803922 0.28627451
0.48627451 0.69803922 0.29019608
0.50686275 0.69803922 0.29019608
0.53039216 0.69803922 0.29411765
0.55196078 0.70196078 0.29803922
0.57254902 0.70196078 0.29411765
0.59313725 0.69803922 0.29166667
0.61372549 0.69313725 0.28921569
0.63088235 0.69019608 0.28627451
0.64901961 0.69019608 0.28235294
0.66764706 0.69019608 0.28235294
0.68823529 0.69705882 0.29313725
0.71421569 0.70735294 0.3127451
0.74117647 0.72156863 0.32941176
0.76813725 0.73431373 0.33578431
0.79607843 0.75196078 0.34313725
0.82990196 0.7754902 0.35637255
0.86078431 0.79803922 0.36470588
0.89166667 0.82107843 0.36911765
0.92254902 0.84215686 0.38431373
0.95343137 0.85392157 0.41960784
0.98823529 0.87843137 0.41960784
0.42843137 0.73137255 0.29509804
0.44509804 0.73474265 0.29810049
0.46568627 0.73921569 0.30294118
0.48627451 0.74295343 0.30441176
0.50686275 0.74828431 0.30686275
0.52745098 0.7495098 0.30863971
0.55098039 0.7495098 0.31188725
0.57254902 0.74859069 0.31170343
0.59313725 0.74705882 0.30833333
0.61372549 0.74068627 0.30686275
0.63039216 0.73529412 0.30404412
0.65098039 0.73511029 0.30294118
0.66764706 0.73529412 0.3004902
0.68431373 0.73560049 0.3004902
0.70490196 0.74215686 0.30698529
0.72996324 0.75245098 0.32696078
0.75147059 0.76029412 0.33970588
0.77205882 0.76366422 0.33970588
0.79901961 0.7754902 0.34154412
0.82990196 0.79607843 0.35
0.86078431 0.81740196 0.35955882
0.89136029 0.83872549 0.36568627
0.91862745 0.85539216 0.38627451
0.95098039 0.86813725 0.41568627
0.97794118 0.88480392 0.42352941
0.44901961 0.77745098 0.31078431
0.46568627 0.7810049 0.31360294
0.48627451 0.78455882 0.31887255
0.50686275 0.78823529 0.32340686
0.52745098 0.79215686 0.3254902
0.54803922 0.79607843 0.32745098
0.56862745 0.79534314 0.32745098
0.58921569 0.79068627 0.32647059
0.60980392 0.78431373 0.32352941
0.63039216 0.78039216 0.32254902
0.65098039 0.77647059 0.31960784
0.66764706 0.77647059 0.31960784
0.68431373 0.78039216 0.31715686
0.70098039 0.78137255 0.31470588
0.72156863 0.78504902 0.32083333
0.74509804 0.79362745 0.33688725
0.76568627 0.79901961 0.34509804
0.78235294 0.79901961 0.34264706
0.80196078 0.80367647 0.3372549
0.82990196 0.81666667 0.34105392
0.85833333 0.83627451 0.3504902
0.88762255 0.85245098 0.36973039
0.91470588 0.86666667 0.39338235
0.94460784 0.88088235 0.41715686
0.96862745 0.89509804 0.42843137
0.46568627 0.825 0.325
0.48498775 0.8276348 0.33088235
0.50686275 0.82941176 0.3372549
0.52745098 0.82941176 0.3471201
0.54803922 0.82990196 0.34803922
0.56862745 0.82990196 0.34803922
0.58921569 0.82990196 0.3442402
0.60980392 0.82941176 0.34283088
0.63039216 0.8254902 0.34019608
0.65098039 0.82156863 0.33676471
0.67058824 0.81764706 0.33627451
0.68523284 0.81764706 0.33627451
0.70122549 0.82156863 0.33259804
0.71807598 0.8254902 0.32892157
0.73823529 0.82843137 0.33186275
0.75931373 0.83351716 0.34264706
0.77598039 0.83382353 0.34509804
0.79393382 0.83382353 0.34509804
0.81188725 0.83468137 0.34019608
0.82990196 0.83817402 0.33376225
0.85686275 0.85220588 0.34509804
0.88382353 0.86623775 0.37310049
0.91090686 0.87696078 0.39791667
0.93823529 0.89117647 0.41862745
0.96127451 0.90147059 0.43480392
0.48431373 0.87058824 0.33921569
0.50416667 0.86862745 0.34754902
0.52745098 0.86617647 0.35833333
0.54803922 0.86470588 0.37009804
0.56862745 0.86078431 0.37352941
0.58921569 0.86078431 0.37205882
0.60784314 0.86078431 0.36470588
0.62647059 0.86078431 0.36004902
0.64901961 0.8627451 0.35490196
0.66960784 0.86029412 0.35171569
0.68823529 0.85882353 0.35098039
0.70514706 0.85882353 0.35098039
0.72058824 0.8627451 0.34901961
0.73602941 0.86666667 0.34485294
0.75294118 0.87058824 0.33970588
0.77156863 0.87058824 0.34852941
0.79019608 0.86862745 0.35686275
0.80759804 0.86789216 0.3622549
0.825 0.86862745 0.35294118
0.84215686 0.86862745 0.34926471
0.85980392 0.86960784 0.35392157
0.88333333 0.87892157 0.37573529
0.90686275 0.89117647 0.4
0.93039216 0.90147059 0.42181373
0.95098039 0.91176471 0.4372549
0.51127451 0.8995098 0.36617647
0.52530637 0.89920343 0.36862745
0.54411765 0.89558824 0.37843137
0.56813725 0.89558824 0.39258578
0.5870098 0.89362745 0.39705882
0.60588235 0.89166667 0.39264706
0.62647059 0.89166667 0.38235294
0.64705882 0.89166667 0.37726716
0.66764706 0.89558824 0.37303922
0.68823529 0.8995098 0.36697304
0.70882353 0.89607843 0.36519608
0.72506127 0.8995098 0.36568627
0.73995098 0.8995098 0.36593137
0.75441176 0.8995098 0.36574755
0.77156863 0.8995098 0.36911765
0.78823529 0.8995098 0.371875
0.80833333 0.8995098 0.37794118
0.82518382 0.89932598 0.3776348
0.84203431 0.89558824 0.37892157
0.85882353 0.89558824 0.38596814
0.8752451 0.89558824 0.37965686
0.89209559 0.8995098 0.390625
0.9122549 0.90588235 0.41078431
0.92922794 0.91617647 0.42959559
0.94166667 0.92254902 0.44019608
0.54607843 0.92647059 0.39705882
0.5560049 0.92647059 0.39705882
0.56862745 0.92352941 0.40122549
0.58566176 0.92254902 0.40931373
0.60588235 0.92254902 0.41470588
0.62647059 0.92254902 0.41323529
0.64705882 0.92254902 0.40294118
0.66764706 0.92254902 0.39301471
0.68431373 0.92352941 0.39313725
0.70588235 0.92708333 0.38566176
0.72328431 0.92843137 0.37647059
0.73970588 0.92745098 0.38321078
0.75686275 0.92696078 0.39019608
0.77242647 0.92647059 0.39362745
0.78995098 0.92745098 0.40612745
0.80772059 0.92708333 0.40821078
0.8254902 0.92647059 0.41470588
0.84215686 0.92647059 0.3995098
0.85882353 0.92647059 0.40171569
0.87561275 0.92634804 0.40894608
0.89215686 0.92647059 0.40539216
0.90588235 0.92389706 0.41421569
0.92328431 0.92745098 0.42843137
0.94313725 0.93676471 0.44693627
0.95588235 0.94313725 0.46078431
0.55833333 0.95735294 0.40931373
0.5716299 0.95643382 0.41023284
0.58713235 0.95306373 0.41715686
0.60459559 0.9495098 0.42107843
0.62254902 0.9495098 0.42769608
0.64313725 0.95196078 0.4286152
0.66556373 0.95343137 0.41960784
0.68823529 0.95735294 0.40931373
0.70490196 0.95490196 0.40686275
0.71764706 0.94675245 0.40716912
0.72745098 0.93443627 0.38933824
0.74803922 0.93854167 0.39313725
0.76936275 0.94730392 0.40073529
0.7903799 0.95606618 0.40588235
0.80882353 0.95735294 0.4122549
0.82493873 0.95680147 0.41807598
0.83676471 0.94656863 0.425
0.85882353 0.95680147 0.41470588
0.8754902 0.95735294 0.41090686
0.89246324 0.95735294 0.41715686
0.90735294 0.95343137 0.42573529
0.92352941 0.95196078 0.4372549
0.9377451 0.95196078 0.44901961
0.95343137 0.95588235 0.46231618
0.96862745 0.9622549 0.47598039
0.57254902 0.98823529 0.41960784
0.58529412 0.97794118 0.42352941
0.60098039 0.97254902 0.42745098
0.61862745 0.96911765 0.43137255
0.63529412 0.96862745 0.4372549
0.65588235 0.97254902 0.43921569
0.67941176 0.97647059 0.43235294
0.70490196 0.98186275 0.42352941
0.72156863 0.98039216 0.41568627
0.7254902 0.95980392 0.40931373
0.73039216 0.93921569 0.39509804
0.74803922 0.94068627 0.39558824
0.7745098 0.95490196 0.40588235
0.80098039 0.96960784 0.41568627
0.8254902 0.98627451 0.41960784
0.83676471 0.97745098 0.425
0.84313725 0.96078431 0.43137255
0.87009804 0.97745098 0.425
0.89117647 0.9872549 0.42058824
0.90490196 0.97696078 0.42745098
0.91764706 0.97254902 0.4372549
0.93039216 0.96862745 0.45147059
0.94705882 0.96862745 0.46176471
0.9622549 0.97009804 0.47352941
0.97647059 0.97647059 0.48627451
0.042647059 0.028431373 0.042647059
0.070526961 0.039644608 0.049019608
0.11262255 0.057843137 0.063235294
0.15863971 0.076286765 0.083823529
0.20588235 0.091421569 0.10318627
0.25686275 0.098345588 0.11685049
0.30490196 0.10490196 0.13198529
0.35637255 0.11035539 0.14656863
0.40245098 0.1254902 0.16862745
0.44117647 0.14908088 0.19803922
0.49117647 0.16176471 0.2067402
0.53560049 0.17696078 0.21519608
0.57254902 0.2 0.23455882
0.60980392 0.22077206 0.25196078
0.64767157 0.24264706 0.27254902
0.69068627 0.26176471 0.29313725
0.73186275 0.28235294 0.3122549
0.76421569 0.325 0.31525735
0.79509804 0.35735294 0.32843137
0.82598039 0.38449755 0.34509804
0.85686275 0.40539216 0.36568627
0.88792892 0.42420343 0.38235294
0.92254902 0.44117647 0.39901961
0.95343137 0.46421569 0.41568627
0.96470588 0.47696078 0.4245098
0.056862745 0.045098039 0.049019608
0.076493566 0.047143076 0.052941176
0.11548713 0.06138174 0.067018995
0.15882353 0.079901961 0.084811581
0.20588235 0.092922794 0.10318627
0.25343137 0.10178462 0.11844363
0.30490196 0.11127451 0.13419118
0.35637255 0.12493873 0.14957108
0.4 0.14215686 0.16807598
0.44117647 0.16444547 0.19558824
0.48794424 0.17879902 0.20490196
0.53148744 0.19607843 0.21427696
0.56936275 0.21666667 0.2296875
0.60716912 0.24037224 0.24803922
0.64705882 0.26176471 0.26793811
0.68789062 0.28122702 0.28621324
0.72640931 0.30294118 0.2995098
0.7615579 0.32949602 0.3122549
0.79117647 0.36021752 0.32561275
0.82555913 0.38694853 0.34509804
0.85686275 0.41207108 0.36691176
0.88792892 0.4372549 0.38696385
0.92254902 0.46029412 0.40317096
0.95121017 0.48514859 0.41983762
0.96470588 0.49846814 0.42843137
0.081127451 0.071446078 0.065073529
0.095955882 0.07075674 0.065303309
0.11936275 0.071446078 0.071721814
0.15882353 0.084451593 0.086642157
0.20588235 0.097058824 0.10533088
0.25698529 0.11139706 0.12218137
0.30670956 0.12941176 0.13838848
0.35729167 0.14607843 0.15464154
0.4 0.1627451 0.1692402
0.44117647 0.18402267 0.19258578
0.48627451 0.2 0.20425858
0.52745098 0.21778493 0.21372549
0.56617647 0.24117647 0.22671569
0.6058364 0.26176471 0.24375
0.64359681 0.28235294 0.26351103
