site/assets/luts/sha256-7e3c6f2e3558f0f8882bd253d3b1a143f3c81aa45fa0f2da74e9bfa0cc51cd44.cube
# LUTr-Schema-Version: 2
# LUTr-ID: sha256-7e3c6f2e3558f0f8882bd253d3b1a143f3c81aa45fa0f2da74e9bfa0cc51cd44
# LUTr-Title: super warm rich
# LUTr-Collection: Natron HaldCLUT
# LUTr-Collection-ID: natron-haldclut-presets
# LUTr-Source: https://github.com/NatronGitHub/clut
# LUTr-Retrieved: 2026-07-27
# LUTr-Source-File: submissions/natron-haldclut-presets/various/super_warm_rich.png
# LUTr-Source-Format: HALD-PNG
# LUTr-Source-SHA256: 7e3c6f2e3558f0f8882bd253d3b1a143f3c81aa45fa0f2da74e9bfa0cc51cd44
# LUTr-License: CC-BY-SA-4.0
# LUTr-License-URL: https://github.com/NatronGitHub/clut#license
# LUTr-License-Basis: repo-license-file
# LUTr-Transform-Class: film-emulation
# LUTr-Tags: creative, film, film-emulation, hald-clut, natron, png, warm, cube
# LUTr-Input-Color-Space: srgb
# LUTr-Input-Gamut: rec709
# LUTr-Input-Transfer: srgb
# LUTr-Output-Color-Space: srgb
# LUTr-Output-Gamut: rec709
# LUTr-Output-Transfer: srgb
# LUTr-Color-Space-Confidence: assumed-display-referred
# LUTr-Domain-Normalized: true
# LUTr-Shaper: none
# LUTr-Original-Grid: 64x64x64
# LUTr-Conversion-Grid: 25x25x25
# LUTr-Conversion-Interpolation: trilinear
# LUTr-Conversion-Method: HALD-PNG LUT image decoded at 16-bit and sampled to 25x25x25 3D CUBE
# LUTr-Conversion-Tool: LUTr scripts/convert-all-to-cube.mjs 2.0.0
# LUTr-Conversion-Date: 2026-07-27
# LUTr-Note: Preserve this metadata and the upstream license notices when redistributing.
TITLE "super warm rich"
LUT_3D_SIZE 9
DOMAIN_MIN 0 0 0
DOMAIN_MAX 1 1 1
0.019607843 0.054901961 0.0078431373
0.21617647 0.058823529 0.019607843
0.42058824 0.024509804 0.016666667
0.58872549 0.0093137255 0.011764706
0.71568627 0.029411765 0.01372549
0.81617647 0.02745098 0.011764706
0.88823529 0.011764706 0.012745098
0.94509804 0.0083333333 0.015686275
0.94509804 0.023529412 0.015686275
0.026960784 0.1 0.011764706
0.2127451 0.1004902 0.019607843
0.40539216 0.10441176 0.015686275
0.57352941 0.1004902 0.011764706
0.72181373 0.10269608 0.011764706
0.81881127 0.10079657 0.011764706
0.88431373 0.1004902 0.015686275
0.94166667 0.10435049 0.015686275
0.95294118 0.10441176 0.015686275
0.024509804 0.20098039 0.0049019608
0.20441176 0.2 0.011764706
0.40563725 0.20098039 0.015686275
0.56911765 0.20098039 0.015686275
0.71372549 0.2004902 0.011764706
0.81470588 0.19607843 0.011764706
0.88039216 0.19779412 0.011764706
0.94607843 0.20490196 0.0078431373
0.96078431 0.20784314 0.0078431373
0.015686275 0.30392157 0.006372549
0.20863971 0.30784314 0.0078431373
0.41482843 0.30330882 0.011764706
0.5661152 0.309375 0.015686275
0.70122549 0.30784314 0.015686275
0.81470588 0.3 0.014767157
0.88039216 0.3 0.018137255
0.94166667 0.30539216 0.018137255
0.96470588 0.30931373 0.018137255
0.023529412 0.41960784 0.0098039216
0.21642157 0.41960784 0.0078431373
0.40588235 0.42647059 0.011764706
0.57769608 0.43921569 0.015686275
0.71078431 0.43333333 0.015686275
0.8122549 0.42279412 0.016421569
0.88627451 0.41568627 0.019607843
0.94166667 0.41176471 0.025245098
0.96862745 0.42156863 0.019607843
0.021078431 0.54313725 0.0053921569
0.22273284 0.54068627 0.0078431373
0.40980392 0.54644608 0.011764706
0.58572304 0.55643382 0.011764706
0.71372549 0.55098039 0.012990196
0.8122549 0.54705882 0.015686275
0.89644608 0.54313725 0.011764706
0.94607843 0.54313725 0.011764706
0.97647059 0.54460784 0.0078431373
0.019607843 0.6872549 0.0039215686
0.21666667 0.68235294 0.0078431373
0.41078431 0.6872549 0.015686275
0.5932598 0.68333333 0.011764706
0.71813725 0.67843137 0.011764706
0.81862745 0.67732843 0.015686275
0.88823529 0.6747549 0.011764706
0.94558824 0.67941176 0.0079656863
0.98039216 0.6872549 0.0088235294
0.019117647 0.82598039 0.0078431373
0.22009804 0.82205882 0.0078431373
0.42156863 0.83382353 0.015196078
0.60177696 0.83382353 0.015686275
0.72156863 0.82205882 0.015686275
0.81862745 0.82205882 0.015686275
0.89215686 0.82598039 0.015686275
0.94558824 0.82254902 0.011764706
0.98039216 0.8377451 0.011764706
0 0.98431373 0.0039215686
0.22058824 0.95490196 0.0078431373
0.41862745 0.96960784 0.0078431373
0.58872549 0.96715686 0.018137255
0.71372549 0.9627451 0.021568627
0.80833333 0.95686275 0.015686275
0.89313725 0.97843137 0.0039215686
0.94215686 0.94509804 0.011764706
0.98039216 0.97647059 0.0039215686
0.011764706 0.021078431 0.019607843
0.22009804 0.054963235 0.023468137
0.42806373 0.019362745 0.023161765
0.59264706 0.011458333 0.023039216
0.71936275 0.016176471 0.023284314
0.81599265 0.018443627 0.023345588
0.89203431 0.015318627 0.023529412
0.94558824 0.0078431373 0.023039216
0.95637255 0.023529412 0.026960784
0.020036765 0.096568627 0.023468137
0.21709559 0.1004902 0.023475797
0.4102788 0.10441176 0.023039216
0.58249847 0.1004902 0.026960784
0.7254902 0.10052083 0.026960784
0.82224265 0.1026348 0.030614277
0.88823529 0.10134804 0.030882353
0.94515931 0.10043658 0.026960784
0.96072304 0.1004902 0.030882353
0.017034314 0.19620098 0.027083333
0.20833333 0.19705882 0.024708946
0.41173407 0.20098039 0.021109069
0.57696078 0.19705882 0.026960784
0.71464461 0.19705882 0.029595588
0.81862745 0.19705882 0.026960784
0.88581495 0.19705882 0.027941176
0.94607843 0.20012255 0.023039216
0.96470588 0.20134804 0.023039216
0.021752451 0.30392157 0.023039216
0.20835631 0.30392157 0.023039216
0.42095588 0.30330882 0.017647059
0.56900276 0.30655637 0.023345588
0.70686275 0.30784314 0.026960784
0.81488971 0.30293352 0.023039216
0.88431373 0.3 0.026960784
0.94215686 0.30539216 0.023368566
0.97990196 0.30802696 0.031188725
0.016911765 0.41740196 0.023039216
0.2122549 0.41939338 0.023039216
0.40980392 0.42352941 0.023039216
0.57696078 0.43137255 0.026960784
0.70968137 0.43137255 0.02745098
0.8122549 0.42352941 0.023039216
0.88823529 0.41568627 0.026960784
0.94491422 0.41348039 0.02745098
0.9627451 0.41960784 0.02745098
0.030882353 0.54491422 0.023039216
0.21617647 0.54068627 0.026960784
0.41764706 0.54252451 0.026960784
0.58872549 0.55098039 0.02745098
0.71053922 0.55098039 0.026960784
0.81617647 0.54797794 0.020412071
0.89666054 0.54192708 0.023039216
0.94607843 0.54068627 0.026960784
0.97794118 0.54491422 0.02567402
0.015441176 0.68627451 0.018137255
0.2178462 0.68627451 0.023039216
0.42022059 0.68370098 0.026960784
0.59689032 0.68333333 0.026102941
0.7213848 0.67977941 0.026960784
0.81625306 0.67843137 0.023452819
0.89865196 0.6783701 0.023529412
0.94606311 0.67941176 0.030560662
0.98823529 0.68627451 0.026960784
0.057843137 0.8254902 0.023039216
0.22058824 0.82506127 0.026531863
0.42069547 0.82630208 0.023039216
0.60196078 0.82990196 0.01595435
0.725 0.82598039 0.020036765
0.81862745 0.82205882 0.023039216
0.89607843 0.826731 0.026531863
0.94166667 0.83382353 0.030882353
0.97647059 0.8377451 0.034803922
0.0088235294 0.97941176 0.023529412
0.22009804 0.95686275 0.026960784
0.4245098 0.95968137 0.026960784
0.59246324 0.96868873 0.026960784
0.7252451 0.98161765 0.023529412
0.8122549 0.95147059 0.026960784
0.89705882 0.97757353 0.026960784
0.94172794 0.96470588 0.035232843
0.98039216 0.96127451 0.03872549
0.018627451 0.023529412 0.053921569
0.22794118 0.013235294 0.057843137
0.42941176 0.0125 0.057843137
0.59411765 0.0084558824 0.057230392
0.72009804 0.013235294 0.055392157
0.82009804 0.019362745 0.053921569
0.89436275 0.011764706 0.056862745
0.94558824 0.011764706 0.060416667
0.98039216 0.017647059 0.056862745
0.024632353 0.1004902 0.056495098
0.22041973 0.10404412 0.057843137
0.42159926 0.1004902 0.060416667
0.58909314 0.1004902 0.061151961
0.71813725 0.1004902 0.056862745
0.81752451 0.1004902 0.056862745
0.89607843 0.1004902 0.057843137
0.94607843 0.099678309 0.060891544
0.97561275 0.099509804 0.060784314
0.049019608 0.19705882 0.061764706
0.22046569 0.19705882 0.061764706
0.41372549 0.19705882 0.060784314
0.58299632 0.20070466 0.058578431
0.71997549 0.20245098 0.057843137
0.82009804 0.20490196 0.056862745
0.89215686 0.19705882 0.057781863
0.94693627 0.19681373 0.060784314
0.97647059 0.19705882 0.060784314
0.015318627 0.30147059 0.053921569
0.21617647 0.30392157 0.057230392
0.41666667 0.3 0.060324755
0.58382353 0.30536152 0.057843137
0.72058824 0.30465686 0.054840686
0.81470588 0.30392157 0.056862745
0.88468137 0.30147059 0.060784314
0.94215686 0.30147059 0.061320466
0.98468137 0.30539216 0.060784314
0.017647059 0.41568627 0.053921569
0.21654412 0.41911765 0.055392157
0.41482843 0.41960784 0.057843137
0.59074755 0.41960784 0.057843137
0.71985294 0.42352941 0.057843137
0.81507353 0.42009804 0.061090686
0.88713235 0.41531863 0.059313725
0.94166667 0.41176471 0.063419118
0.96421569 0.41764706 0.061764706
0.021691176 0.54313725 0.057230392
0.22415748 0.54313725 0.062729779
0.42141544 0.54313725 0.061151961
0.59767157 0.54460784 0.060094975
0.71930147 0.54613971 0.058394608
0.8122549 0.5439185 0.064705882
0.89215686 0.53921569 0.057843137
0.94217218 0.53921569 0.057981005
0.96519608 0.54313725 0.061764706
0.022794118 0.68333333 0.053921569
0.22230392 0.68014706 0.060692402
0.4278799 0.67941176 0.056127451
0.59656863 0.67895221 0.056862745
0.71960784 0.68198529 0.059313725
0.81369485 0.67941176 0.064705882
0.89607843 0.68290441 0.063970588
0.94558824 0.68238358 0.061764706
0.9754902 0.6872549 0.061764706
0.016176471 0.82953431 0.053063725
0.220481 0.82608762 0.056495098
0.43134191 0.82594975 0.053063725
0.59656863 0.82598039 0.055897672
0.72567402 0.8254902 0.060784314
0.81617647 0.8310049 0.061764706
0.89503676 0.82892157 0.065471814
0.945481 0.82717525 0.061764706
0.97303922 0.83382353 0.065686275
0.03627451 0.96764706 0.057843137
0.22806373 0.9685049 0.057843137
0.4254902 0.97230392 0.057843137
0.58627451 0.97009804 0.057843137
0.72303922 0.95980392 0.060784314
0.81617647 0.9754902 0.061764706
0.89215686 0.96470588 0.068627451
0.94215686 0.96727941 0.072671569
0.98431373 0.96470588 0.069607843
0.012745098 0.010294118 0.10294118
0.22009804 0.022058824 0.11323529
0.41482843 0.025367647 0.11470588
0.59411765 0.015686275 0.11470588
0.71495098 0.021078431 0.11862745
0.81617647 0.017156863 0.11023284
0.89215686 0.01875 0.10686275
0.94607843 0.020098039 0.11470588
0.98823529 0.06127451 0.1122549
0.0087622549 0.096568627 0.10686275
0.21372549 0.096568627 0.11078431
0.41372549 0.1004902 0.11374081
0.59411765 0.10422794 0.11470588
0.7254902 0.10260417 0.11862745
0.82009804 0.096568627 0.11292892
0.89215686 0.1004902 0.11078431
0.94558824 0.10441176 0.11470588
0.98694853 0.1004902 0.1122549
0.050490196 0.19705882 0.11470588
0.22896752 0.19705882 0.11470588
0.42356005 0.19497549 0.11078431
0.59356618 0.19705882 0.10470282
0.72297794 0.19852941 0.11470588
0.82401961 0.19839154 0.11862745
0.89215686 0.19396446 0.11470588
0.94595588 0.20098039 0.11470588
0.98394608 0.20098039 0.11286765
0.01752451 0.30091912 0.10686275
0.22009804 0.30392157 0.11078431
0.42709865 0.29793199 0.10686275
0.59714308 0.29362745 0.10464154
0.72034314 0.29846814 0.11078431
0.81709559 0.30147059 0.11862745
0.88846507 0.2977788 0.11078431
0.9495098 0.30147059 0.11390165
0.98578431 0.30539216 0.11323529
0.021568627 0.41642157 0.10686275
0.22411152 0.41960784 0.11078431
0.4254902 0.41568627 0.11023284
0.60441176 0.41568627 0.10686275
0.72352941 0.41568627 0.11470588
0.81470588 0.41887255 0.11862745
0.88529412 0.41568627 0.11078431
0.94558824 0.41479779 0.11470588
0.97181373 0.41568627 0.12181373
0.018137255 0.54460784 0.10778186
0.23138021 0.53921569 0.11715686
0.4254902 0.54313725 0.11401654
0.60196078 0.54705882 0.11415441
0.7247549 0.54359681 0.12254902
0.81170343 0.54313725 0.11862745
0.88884804 0.54027267 0.1064951
0.9495098 0.54001991 0.11078431
0.97794118 0.53921569 0.11323529
0.021691176 0.68051471 0.10980392
0.23181679 0.67879902 0.11262255
0.42941176 0.68235294 0.11078431
0.60441176 0.68235294 0.11078431
0.7247549 0.67941176 0.115625
0.81263787 0.68333333 0.11885723
0.89215686 0.68333333 0.11697304
0.94607843 0.68333333 0.11323529
0.99215686 0.68235294 0.10931373
0.020772059 0.82745098 0.11127451
0.23024663 0.81737898 0.11078431
0.43198529 0.82598039 0.11078431
0.60410539 0.82990196 0.11292892
0.72622549 0.82598039 0.11608456
0.81617647 0.82990196 0.12248009
0.89007353 0.83247549 0.11804534
0.94558824 0.82990196 0.10931373
0.9754902 0.82598039 0.11323529
0.047058824 0.9504902 0.11862745
0.23186275 0.93498775 0.12254902
0.4254902 0.95526961 0.11862745
0.59264706 0.96954657 0.11470588
0.7254902 0.96740196 0.11715686
0.81862745 0.96317402 0.11807598
0.88823529 0.97046569 0.11360294
0.94558824 0.97726716 0.11715686
0.98970588 0.97156863 0.11323529
0.01372549 0.0058823529 0.18431373
0.21862745 0.034803922 0.19019608
0.41568627 0.038235294 0.19068627
0.59656863 0.025980392 0.19803922
0.7254902 0.0049019608 0.19117647
0.81617647 0.015686275 0.2
0.88970588 0.042647059 0.19754902
0.94607843 0.014705882 0.19191176
0.96470588 0.011764706 0.19607843
0.019362745 0.1004902 0.19215686
0.21617647 0.10291054 0.19019608
0.42150735 0.1002451 0.19583333
0.59574142 0.1004902 0.20186887
0.72928922 0.1004902 0.19705882
0.82224265 0.09966299 0.20196078
0.89215686 0.1004902 0.1973652
0.94558824 0.10392157 0.19632353
0.98431373 0.1004902 0.20416667
0.025 0.19852941 0.19068627
0.22230392 0.19871324 0.19019608
0.42377451 0.19889706 0.19411765
0.6004902 0.20098039 0.20349265
0.72279412 0.19705882 0.20098039
0.8252451 0.19295343 0.20226716
0.89215686 0.19313725 0.20196078
0.94577206 0.19748775 0.19411765
0.97303922 0.2004902 0.19411765
0.035539216 0.30147059 0.19460784
0.22916667 0.30539216 0.19215686
0.42873775 0.30484069 0.19534314
0.60318627 0.29954044 0.19411765
0.72316176 0.29681373 0.19938725
0.81917892 0.29831495 0.20269608
0.88841912 0.29607843 0.20196078
0.94779412 0.30009191 0.1979473
0.97965686 0.30269608 0.19803922
0.032352941 0.41960784 0.19215686
0.23186275 0.42328431 0.19607843
0.42867647 0.42034314 0.19607843
0.6004902 0.4125 0.19411765
0.72745098 0.41568627 0.19411765
0.81544118 0.41960784 0.19803922
0.88823529 0.41960784 0.20196078
0.94607843 0.41568627 0.20392157
0.98137255 0.41470588 0.20294118
0.024019608 0.54705882 0.19215686
0.22622549 0.54313725 0.20245098
0.43296569 0.54705882 0.19803922
0.6004902 0.54460784 0.19411765
0.7254902 0.54705882 0.19411765
0.82009804 0.55098039 0.19411765
0.89215686 0.54761029 0.19957108
0.95 0.53783701 0.19803922
0.96936275 0.53602941 0.20392157
0.018137255 0.68088235 0.19460784
0.23186275 0.67843137 0.20373775
0.43333333 0.68235294 0.19852941
0.60533088 0.67843137 0.19264706
0.7254902 0.68088235 0.19583333
0.82009804 0.68517157 0.19534314
0.89607843 0.68161765 0.19056373
0.94601716 0.67941176 0.19803922
0.98088235 0.68284314 0.20735294
0.031372549 0.82598039 0.1997549
0.22815564 0.82598039 0.20171569
0.42941176 0.8276348 0.20392157
0.59901961 0.82598039 0.19500613
0.71960784 0.82990196 0.19522059
0.82254902 0.83268995 0.19476103
0.89215686 0.82892157 0.19852941
0.94629289 0.82598039 0.19803922
0.99019608 0.82598039 0.19803922
0.015686275 0.94705882 0.19019608
0.22401961 0.94730392 0.20196078
0.42156863 0.95637255 0.20588235
0.58480392 0.95343137 0.20196078
0.72058824 0.97058824 0.19803922
0.82254902 0.97843137 0.19803922
0.88823529 0.96813725 0.20980392
0.94558824 0.96862745 0.21151961
0.98235294 0.96862745 0.20392157
0.017156863 0.024019608 0.31715686
0.2122549 0.033026961 0.31862745
0.42156863 0.045588235 0.31470588
0.59264706 0.049509804 0.33584559
0.72156863 0.033333333 0.32818627
0.81862745 0.0039215686 0.31568627
0.89031863 0.029901961 0.33382353
0.94558824 0.017647059 0.325
0.96470588 0.011764706 0.31960784
0.01942402 0.1004902 0.31746324
0.21960784 0.1004902 0.313197
0.4254902 0.10004596 0.32222733
0.5963848 0.10029871 0.33756893
0.72352941 0.1004902 0.33268995
0.82009804 0.099938725 0.32029718
0.89215686 0.10071998 0.3212163
0.94215686 0.099019608 0.32481618
0.97254902 0.1004902 0.32352941
0.023529412 0.19705882 0.31715686
0.22401961 0.19705882 0.325
0.4254902 0.20098039 0.32438725
0.59803922 0.20098039 0.34313725
0.71617647 0.19852941 0.33284314
0.82032782 0.19607843 0.32104779
0.88921569 0.19276961 0.32117034
0.94607843 0.19313725 0.32892157
0.9814951 0.19705882 0.31960784
0.054901961 0.29908088 0.32352941
0.22794118 0.30147059 0.33026195
0.42941176 0.30392157 0.32676164
0.59264706 0.30392157 0.33261336
0.71691176 0.30147059 0.32889093
0.81617647 0.30392157 0.31323529
0.88431373 0.30392157 0.31753983
0.94166667 0.30392157 0.32107843
0.98186275 0.30392157 0.32052696
0.045588235 0.41568627 0.32352941
0.23216912 0.41960784 0.33284314
0.42941176 0.42009804 0.32971814
0.59656863 0.41568627 0.32408088
0.7192402 0.41764706 0.31789216
0.81590074 0.42129289 0.32153799
0.8875 0.42352941 0.31746324
0.94215686 0.42230392 0.32809436
0.98284314 0.41838235 0.32892157
0.015318627 0.54405637 0.31623775
0.22321538 0.54313725 0.33106618
0.4254902 0.5435049 0.32653186
0.6004902 0.53829657 0.31807598
0.7247549 0.54705882 0.32107843
0.81770833 0.55006127 0.32199755
0.89215686 0.54382659 0.31323529
0.94988511 0.53928462 0.32107843
0.99362745 0.53976716 0.32352941
0.016053922 0.68125 0.32647059
0.2217065 0.67843137 0.32518382
0.42858456 0.67916667 0.31914828
0.59901961 0.6754902 0.32213542
0.7254902 0.67910539 0.32107843
0.81770833 0.68664216 0.31715686
0.89313725 0.68416054 0.31332721
0.94607843 0.68636642 0.31746324
0.98823529 0.68235294 0.33137255
0.02745098 0.82598039 0.325
0.22058824 0.82598039 0.3228171
0.42130821 0.82598039 0.32467831
0.58450521 0.82205882 0.325
0.72221201 0.82588848 0.325
0.81862745 0.82560509 0.3254902
0.89607843 0.82990196 0.32467831
0.9495098 0.83727788 0.31323529
0.98566176 0.82726716 0.31960784
0.010294118 0.97401961 0.32352941
0.21795343 0.95588235 0.32126225
0.42156863 0.97009804 0.32438725
0.57696078 0.93670343 0.32892157
0.71960784 0.96666667 0.32892157
0.8216299 0.96323529 0.34068627
0.89362745 0.96862745 0.3307598
0.95 0.98235294 0.31960784
0.98039216 0.94068627 0.31960784
0.030392157 0.052941176 0.49313725
0.21617647 0.027941176 0.50085784
0.42769608 0.0053921569 0.49117647
0.59264706 0.015686275 0.50784314
0.72352941 0.011764706 0.49852941
0.81801471 0.015686275 0.50281863
0.89215686 0.0058823529 0.49485294
0.94215686 0.024509804 0.50490196
0.96470588 0.020588235 0.50196078
0.02745098 0.10085784 0.49705882
0.2274663 0.1004902 0.50387561
0.42156863 0.096568627 0.50784314
0.59264706 0.1004902 0.51568627
0.721875 0.097855392 0.50588235
0.82254902 0.1004902 0.4935049
0.89598652 0.096568627 0.50364583
0.94558824 0.096675858 0.49931066
0.9560049 0.096568627 0.49313725
0.019362745 0.19607843 0.49387255
0.23578431 0.19617034 0.50775123
0.42941176 0.19681373 0.50863971
0.59264706 0.19705882 0.51176471
0.71764706 0.19705882 0.5060049
0.82374387 0.19313725 0.49313725
0.89215686 0.19215686 0.49944853
0.94693627 0.19313725 0.49767157
0.97156863 0.19289216 0.49313725
0.01372549 0.30392157 0.48921569
0.22794118 0.30392157 0.50441176
0.42941176 0.30147059 0.50762868
0.58872549 0.30369179 0.5071538
0.72009804 0.30147059 0.50790441
0.8122549 0.3 0.50208333
0.88823529 0.30392157 0.49816176
0.94563419 0.30392157 0.49705882
0.98039216 0.30392157 0.4995098
0.017156863 0.41568627 0.48872549
0.22401961 0.41734069 0.50416667
0.42745098 0.41568627 0.51593137
0.59411765 0.41660539 0.51029412
0.71960784 0.42352941 0.49068627
0.80778186 0.41960784 0.50098039
0.8810049 0.42352941 0.49607843
0.94558824 0.42352941 0.4877451
0.96421569 0.42401961 0.49705882
0.028431373 0.54129902 0.50428922
0.21648284 0.54306066 0.50687806
0.41948529 0.54068627 0.51063113
0.59698223 0.53944547 0.50245098
0.71960784 0.54705882 0.48529412
0.8122549 0.54460784 0.50166973
0.89215686 0.54378064 0.50318627
0.94955576 0.54698223 0.49483762
0.97757353 0.54313725 0.50784314
0.027205882 0.67916667 0.50882353
0.21262255 0.68207721 0.50784314
0.41819853 0.68333333 0.50857843
0.5921875 0.67941176 0.50490196
0.72352941 0.68235294 0.48921569
0.81617647 0.68008578 0.49852941
0.89607843 0.68572304 0.50079657
0.94963235 0.68333333 0.49705882
0.9875 0.67941176 0.49534314
0.022058824 0.82598039 0.49693627
0.22401961 0.82598039 0.49656863
0.42328431 0.83088235 0.49607843
0.58223039 0.82732843 0.49750306
0.72849265 0.82585784 0.49313725
0.81678922 0.82210478 0.49313725
0.89705882 0.82990196 0.49240196
0.94993873 0.82990196 0.48529412
0.99473039 0.82598039 0.48529412
0.045098039 0.95392157 0.49313725
0.22352941 0.96323529 0.49607843
0.42328431 0.97867647 0.49901961
0.58872549 0.95968137 0.50931373
0.71960784 0.97156863 0.49705882
0.82009804 0.96960784 0.50539216
0.89681373 0.97401961 0.49387255
0.94607843 0.96862745 0.48958333
0.99215686 0.98333333 0.5
0.0088235294 0.0044117647 0.71764706
0.22444853 0.016544118 0.71721814
0.42291667 0.02120098 0.7254902
0.596875 0.030392157 0.71636029
0.72377451 0.011764706 0.7254902
0.81617647 0.033088235 0.71979167
0.89215686 0.027818627 0.72634804
0.94172794 0.031801471 0.73333333
0.96127451 0.043137255 0.73333333
0.020526961 0.097487745 0.71807598
0.23186275 0.096568627 0.72151501
0.425 0.1004902 0.71862745
0.59411765 0.098935355 0.71368719
0.7254902 0.098284314 0.72132353
0.82228094 0.1004902 0.71911765
0.89607843 0.1004902 0.72071078
0.94558824 0.1008655 0.71851256
0.95778186 0.096568627 0.72990196
0.045098039 0.2 0.71764706
0.22804841 0.19967831 0.72107843
0.43333333 0.19313725 0.7208027
0.59419424 0.19474571 0.7254902
0.72352941 0.19705882 0.72585784
0.82071078 0.19313725 0.71996017
0.89607843 0.19313725 0.7254902
0.9495098 0.19313725 0.71165748
0.97598039 0.18958333 0.7254902
0.03627451 0.30392157 0.71372549
0.22432598 0.30408241 0.72526808
0.42941176 0.3 0.72487745
0.59184283 0.29754902 0.71764706
0.72352941 0.30147059 0.71436887
0.81537224 0.3 0.72640931
0.89215686 0.3 0.7254902
0.9495098 0.29754902 0.73202359
0.98069853 0.30392157 0.7245098
0.040931373 0.41348039 0.70931373
0.22818627 0.4120098 0.72935049
0.43480392 0.41421569 0.73707108
0.59656863 0.41568627 0.72647059
0.72745098 0.41960784 0.71862745
0.81617647 0.41568627 0.73186275
0.88915441 0.41960784 0.72873775
0.94650735 0.41960784 0.72576593
0.96911765 0.42352941 0.72941176
0.02567402 0.54068627 0.71893382
0.21897212 0.53864124 0.72156863
0.42571998 0.54460784 0.73667279
0.59754136 0.5462546 0.72450214
0.7268076 0.54460784 0.71721814
0.81617647 0.54313725 0.72156863
0.89215686 0.54313725 0.71734069
0.95 0.54313725 0.72595741
0.97254902 0.53921569 0.72941176
0.016053922 0.68333333 0.72156863
0.21623775 0.682644 0.72461703
0.41764706 0.68526348 0.72349877
0.5926011 0.67843137 0.72107843
0.72352941 0.67457108 0.72132353
0.82040441 0.67843137 0.72130821
0.89607843 0.68235294 0.7185049
0.94995404 0.68333333 0.72789522
0.98443627 0.67928922 0.72156863
0.024019608 0.82990196 0.71672794
0.22009804 0.83114277 0.7254902
0.42424939 0.82855392 0.72124694
0.59656863 0.82729013 0.7254902
0.72132353 0.82426471 0.72132353
0.82009804 0.82595741 0.72314645
0.89607843 0.82598039 0.7254902
0.95 0.82598039 0.7254902
0.98823529 0.82990196 0.71764706
0.024019608 0.96372549 0.71764706
0.22401961 0.98590686 0.7254902
0.4254902 0.95392157 0.7254902
0.6004902 0.9627451 0.72530637
0.71593137 0.95906863 0.72205882
0.82009804 0.95098039 0.71911765
0.88921569 0.96115196 0.7254902
0.94607843 0.96470588 0.72156863
0.99264706 0.97696078 0.7254902
0.054901961 0.011764706 0.96078431
0.22401961 0.00049019608 0.975
0.42843137 0.020588235 0.93921569
0.59901961 0.017156863 0.93333333
0.72745098 0.011764706 0.94509804
0.81617647 0.038235294 0.92009804
0.88823529 0.042156863 0.92745098
0.94607843 0.020588235 0.96029412
0.96862745 0.050980392 0.94901961
0.054411765 0.1004902 0.94117647
0.22401961 0.096139706 0.94025735
0.42928922 0.096568627 0.95625
0.6004902 0.096568627 0.95735294
0.7254902 0.096568627 0.9502451
0.82383578 0.10098039 0.95324755
0.89607843 0.097426471 0.96360294
0.94993873 0.096568627 0.93872549
0.97205882 0.096568627 0.95735294
0.0088235294 0.19705882 0.96862745
0.22794118 0.19607843 0.93419118
0.43014706 0.19607843 0.94877451
0.59301471 0.19607843 0.95404412
0.7254902 0.19705882 0.95196078
0.82794118 0.19215686 0.96997549
0.89607843 0.19607843 0.95441176
0.95355392 0.19313725 0.95747549
0.99117647 0.19705882 0.97058824
0.025490196 0.3 0.96029412
0.23057598 0.30392157 0.92530637
0.42830882 0.29816176 0.95625
0.59656863 0.29754902 0.95294118
0.7254902 0.30147059 0.9502451
0.82009804 0.3 0.95300245
0.89215686 0.3 0.94313725
0.9495098 0.29754902 0.94344363
0.99068627 0.30147059 0.9495098
0.035294118 0.41372549 0.94117647
0.23406863 0.41568627 0.95294118
0.43333333 0.41568627 0.95098039
0.59803922 0.41176471 0.93406863
0.72941176 0.41372549 0.93921569
0.82009804 0.41568627 0.94215686
0.89607843 0.41568627 0.95980392
0.95392157 0.41568627 0.95784314
0.98235294 0.41764706 0.95882353
0.012254902 0.54460784 0.96911765
0.22794118 0.53921569 0.94540441
0.4254902 0.54313725 0.95502451
0.6004902 0.54368873 0.94172794
0.72745098 0.53995098 0.96053922
0.82009804 0.54405637 0.93872549
0.89215686 0.54313725 0.94362745
0.94822304 0.54313725 0.95294118
0.97254902 0.54068627 0.95833333
0.056862745 0.68333333 0.95588235
0.22022059 0.67941176 0.95294118
0.42058824 0.67941176 0.93455882
0.59620098 0.67941176 0.95490196
0.725 0.68284314 0.95637255
0.82401961 0.67941176 0.93272059
0.89607843 0.68259804 0.94387255
0.94693627 0.68333333 0.94044118
0.99313725 0.67941176 0.96666667
0.039705882 0.82990196 0.9377451
0.22444853 0.82990196 0.95790441
0.41764706 0.82990196 0.93394608
0.59411765 0.83167892 0.95257353
0.71764706 0.83186275 0.94852941
0.81960784 0.82598039 0.95098039
0.89963235 0.82732843 0.95526961
0.95300245 0.82941176 0.95202206
0.99264706 0.83382353 0.96176471
0.054901961 0.92941176 0.95686275
0.22401961 0.925 0.95686275
0.42156863 0.93823529 0.94019608
0.59656863 0.95392157 0.96176471
0.72352941 0.9745098 0.94901961
0.82009804 0.97892157 0.96862745
0.89215686 0.98039216 0.96862745
0.94166667 0.95588235 0.93284314
0.98823529 0.92941176 0.96470588
