site/assets/luts/sha256-82b0fcc53b1ab2dd4a6fe8b3cd863b30632d4d252eea722fa77d3650fa6db62e.cube
# LUTr-Schema-Version: 2
# LUTr-ID: sha256-82b0fcc53b1ab2dd4a6fe8b3cd863b30632d4d252eea722fa77d3650fa6db62e
# LUTr-Title: kodak ektachrome 100 vs
# LUTr-Collection: Natron HaldCLUT
# LUTr-Collection-ID: natron-haldclut-presets
# LUTr-Source: https://github.com/NatronGitHub/clut
# LUTr-Retrieved: 2026-07-27
# LUTr-Source-File: submissions/natron-haldclut-presets/colorslide/kodak_ektachrome_100_vs.png
# LUTr-Source-Format: HALD-PNG
# LUTr-Source-SHA256: 82b0fcc53b1ab2dd4a6fe8b3cd863b30632d4d252eea722fa77d3650fa6db62e
# LUTr-License: CC-BY-SA-4.0
# LUTr-License-URL: https://github.com/NatronGitHub/clut#license
# LUTr-License-Basis: repo-license-file
# LUTr-Transform-Class: film-emulation
# LUTr-Tags: creative, film, film-emulation, hald-clut, natron, png, cube
# LUTr-Input-Color-Space: srgb
# LUTr-Input-Gamut: rec709
# LUTr-Input-Transfer: srgb
# LUTr-Output-Color-Space: srgb
# LUTr-Output-Gamut: rec709
# LUTr-Output-Transfer: srgb
# LUTr-Color-Space-Confidence: assumed-display-referred
# LUTr-Domain-Normalized: true
# LUTr-Shaper: none
# LUTr-Original-Grid: 64x64x64
# LUTr-Conversion-Grid: 25x25x25
# LUTr-Conversion-Interpolation: trilinear
# LUTr-Conversion-Method: HALD-PNG LUT image decoded at 16-bit and sampled to 25x25x25 3D CUBE
# LUTr-Conversion-Tool: LUTr scripts/convert-all-to-cube.mjs 2.0.0
# LUTr-Conversion-Date: 2026-07-27
# LUTr-Note: Preserve this metadata and the upstream license notices when redistributing.
TITLE "kodak ektachrome 100 vs"
LUT_3D_SIZE 25
DOMAIN_MIN 0 0 0
DOMAIN_MAX 1 1 1
0 0 0
0.016666667 0.0039215686 0.006372549
0.033333333 0.0078431373 0.0088235294
0.05 0.0078431373 0.011764706
0.080392157 0.0058823529 0.0098039216
0.11078431 0.0034313725 0.0039215686
0.14117647 0 0.0029411765
0.17843137 0.0039215686 0.0039215686
0.21960784 0.0078431373 0.0078431373
0.26323529 0.0078431373 0.0078431373
0.31862745 0.0039215686 0.0039215686
0.37745098 0.00049019608 0.00049019608
0.43137255 0.0019607843 0.0019607843
0.48872549 0.0039215686 0.0039215686
0.54313725 0.0039215686 0.0068627451
0.5995098 0.0078431373 0.0078431373
0.65098039 0.0078431373 0.0078431373
0.70245098 0.0039215686 0.011764706
0.75392157 0.0039215686 0.0078431373
0.80931373 0.0039215686 0.0078431373
0.86470588 0.0039215686 0.0039215686
0.92009804 0 0.0039215686
0.97156863 0 0
0.99607843 0 0
0.99607843 0 0
0.012745098 0.016666667 0.010294118
0.023039216 0.016666667 0.010294118
0.041176471 0.020588235 0.014215686
0.061580882 0.020588235 0.015686275
0.089460784 0.017401961 0.012990196
0.11746324 0.014031863 0.0098039216
0.15036765 0.015196078 0.006372549
0.19117647 0.016666667 0.0048406863
0.23235294 0.018137255 0.0078431373
0.27745098 0.018137255 0.0063112745
0.3317402 0.017769608 0.0039215686
0.38805147 0.014522059 0.0026348039
0.44362745 0.012745098 0.0019607843
0.49773284 0.014215686 0.0039215686
0.55232843 0.014215686 0.0068627451
0.60680147 0.014215686 0.0078431373
0.66127451 0.014215686 0.0093137255
0.709375 0.010845588 0.0093137255
0.76029412 0.0074754902 0.0078431373
0.81323529 0.006372549 0.0056985294
0.86862745 0.0051470588 0.0039215686
0.92009804 0.0039215686 0.0034313725
0.97156863 0 0
0.99607843 0 0
0.99607843 0 0
0.029411765 0.045098039 0.024509804
0.035171569 0.041544118 0.020955882
0.045833333 0.041176471 0.021323529
0.066544118 0.041176471 0.023529412
0.096078431 0.035294118 0.022058824
0.12806373 0.033455882 0.020098039
0.16887255 0.040196078 0.01372549
0.20784314 0.037867647 0.010661765
0.24901961 0.033333333 0.0078431373
0.29264706 0.032720588 0.0053921569
0.34705882 0.032352941 0.0039215686
0.40208333 0.028553922 0.0039215686
0.45637255 0.025 0.0039215686
0.51066176 0.024509804 0.0039215686
0.56789216 0.024509804 0.0039215686
0.62009804 0.024509804 0.0078431373
0.67058824 0.024509804 0.0078431373
0.71629902 0.018137255 0.0078431373
0.76568627 0.015686275 0.006127451
0.81715686 0.012745098 0.0039215686
0.86862745 0.0078431373 0.0039215686
0.92107843 0.0039215686 0.0025735294
0.97181373 0 0
0.99215686 0 0
0.99215686 0 0
0.046078431 0.073039216 0.03872549
0.050306373 0.069117647 0.034803922
0.055392157 0.064338235 0.030882353
0.072610294 0.061764706 0.030882353
0.10514706 0.057598039 0.030882353
0.14172794 0.057414216 0.030392157
0.18370098 0.064215686 0.023161765
0.225 0.063909314 0.017830882
0.26960784 0.057352941 0.01127451
0.31078431 0.05 0.0053921569
0.36213235 0.046446078 0.0039215686
0.41617647 0.04307598 0.0039215686
0.46985294 0.038480392 0
0.52702206 0.034803922 0.00091911765
0.57892157 0.034803922 0.0039215686
0.63039216 0.034803922 0.0039215686
0.67794118 0.031372549 0.0044117647
0.72334559 0.028431373 0.0041053922
0.76960784 0.023039216 0.0039215686
0.82107843 0.019178922 0.00091911765
0.87254902 0.013480392 0.00049019608
0.92401961 0.0069240196 0
0.9754902 0.00098039216 0
0.99001225 0 0
0.99215686 0 0
0.060784314 0.10784314 0.052941176
0.065931373 0.10343137 0.049754902
0.071568627 0.098039216 0.046568627
0.08872549 0.098039216 0.043137255
0.12352941 0.096078431 0.041176471
0.1622549 0.094117647 0.037254902
0.2 0.094117647 0.030392157
0.24313725 0.1 0.024754902
0.28627451 0.094117647 0.017647059
0.33063725 0.083823529 0.01372549
0.37941176 0.078431373 0.0098039216
0.43259804 0.073039216 0.0098039216
0.48431373 0.060784314 0.0039215686
0.5377451 0.054656863 0.0019607843
0.58921569 0.052941176 0.0034313725
0.63676471 0.052205882 0.0058823529
0.68431373 0.047058824 0.0058823529
0.73063725 0.03872549 0.0039215686
0.77696078 0.032352941 0.0014705882
0.825 0.025980392 0
0.87254902 0.024509804 0.0019607843
0.92401961 0.019607843 0.0022058824
0.97254902 0.012745098 0.0019607843
0.98823529 0.0098039216 0
0.99215686 0.0098039216 0
0.075490196 0.14705882 0.067156863
0.081862745 0.14313725 0.06372549
0.092279412 0.14362745 0.06372549
0.10980392 0.14362745 0.060232843
0.13995098 0.14313725 0.057598039
0.17898284 0.13921569 0.051470588
0.22058824 0.13541667 0.041176471
0.25998775 0.13382353 0.030392157
0.29901961 0.13088235 0.024019608
0.34656863 0.12745098 0.022242647
0.39669118 0.12352941 0.01997549
0.44558824 0.11617647 0.016176471
0.5004902 0.10808824 0.012254902
0.54846814 0.1004902 0.016176471
0.5995098 0.09620098 0.016176471
0.64705882 0.090870098 0.016176471
0.69460784 0.080392157 0.012254902
0.73970588 0.066360294 0.0083333333
0.78480392 0.051102941 0.0044117647
0.82990196 0.045098039 0.0044117647
0.87696078 0.045098039 0.0083333333
0.92395833 0.042647059 0.0078431373
0.96556373 0.025980392 0.0039215686
0.98970588 0.020098039 0
0.99215686 0.016176471 0
0.092156863 0.18823529 0.081372549
0.10245098 0.18823529 0.080392157
0.11666667 0.18823529 0.080392157
0.13039216 0.18823529 0.076593137
0.15686275 0.18627451 0.073039216
0.19607843 0.18419118 0.065563725
0.2372549 0.18112745 0.057843137
0.27732843 0.17610294 0.04754902
0.31568627 0.17156863 0.03627451
0.36421569 0.16973039 0.038112745
0.41151961 0.16470588 0.034558824
0.45931373 0.16078431 0.02254902
0.51078431 0.15588235 0.02254902
0.56213235 0.15147059 0.026470588
0.60980392 0.14509804 0.026470588
0.65735294 0.13872549 0.026470588
0.70490196 0.1254902 0.025490196
0.74852941 0.11237745 0.021936275
0.79509804 0.1 0.018627451
0.84019608 0.089705882 0.017647059
0.8872549 0.082843137 0.018627451
0.92732843 0.066176471 0.014215686
0.96470588 0.03995098 0.0046568627
0.99362745 0.027083333 0
0.99607843 0.026470588 0
0.10343137 0.23872549 0.10637255
0.11078431 0.23872549 0.10545343
0.12892157 0.23590686 0.10036765
0.1495098 0.23351716 0.093627451
0.17156863 0.22941176 0.086519608
0.2127451 0.22941176 0.081372549
0.25392157 0.22941176 0.077818627
0.29509804 0.22696078 0.069607843
0.33627451 0.22303922 0.061764706
0.38382353 0.22058824 0.057843137
0.42928922 0.21458333 0.049019608
0.47371324 0.2091299 0.040012255
0.52107843 0.20343137 0.035539216
0.5723652 0.1995098 0.036764706
0.62009804 0.19448529 0.036764706
0.66709559 0.18572304 0.036764706
0.71127451 0.17205882 0.036764706
0.75882353 0.16176471 0.036764706
0.80539216 0.15110294 0.033946078
0.8504902 0.13596814 0.030698529
0.89681373 0.12156863 0.028921569
0.93235294 0.1026348 0.024509804
0.9689951 0.073039216 0.012377451
0.99908088 0.045036765 0.0053308824
0.99852941 0.044117647 0.0083333333
0.11372549 0.29411765 0.13333333
0.11372549 0.29019608 0.13333333
0.13137255 0.28921569 0.12843137
0.15931373 0.28284314 0.11813725
0.19411765 0.27843137 0.10588235
0.22941176 0.27843137 0.10539216
0.27058824 0.27843137 0.10196078
0.31176471 0.27696078 0.094117647
0.35294118 0.2745098 0.08627451
0.4004902 0.27205882 0.082352941
0.44313725 0.26666667 0.073529412
0.48823529 0.26323529 0.066666667
0.53529412 0.25686275 0.058823529
0.58235294 0.2504902 0.050980392
0.62745098 0.24411765 0.047058824
0.67401961 0.23382353 0.047058824
0.72156863 0.22352941 0.050980392
0.76666667 0.20931373 0.050980392
0.8127451 0.19901961 0.050980392
0.86029412 0.18872549 0.050980392
0.90588235 0.1745098 0.047058824
0.94264706 0.15980392 0.043137255
0.97352941 0.13529412 0.039215686
0.98970588 0.12009804 0.040686275
0.99215686 0.11764706 0.043137255
0.13039216 0.34166667 0.14754902
0.13192402 0.3401348 0.15147059
0.14852941 0.3377451 0.14901961
0.18970588 0.33400735 0.13658088
0.225 0.32990196 0.12843137
0.25343137 0.32990196 0.12647059
0.28823529 0.32990196 0.12316176
0.32843137 0.32598039 0.11807598
0.36960784 0.32598039 0.11078431
0.4122549 0.32297794 0.10441176
0.45735294 0.32205882 0.098039216
0.50067402 0.31813725 0.091176471
0.54558824 0.31151961 0.082598039
0.59264706 0.30226716 0.075
0.63492647 0.29558824 0.068259804
0.68131127 0.28529412 0.067647059
0.72794118 0.275 0.067647059
0.77395833 0.26623775 0.071568627
0.82022059 0.25686275 0.071568627
0.86685049 0.24442402 0.071568627
0.9129902 0.23235294 0.067647059
0.95508578 0.21764706 0.06372549
0.97156863 0.2057598 0.069117647
0.97941176 0.19852941 0.075490196
0.98823529 0.19215686 0.080392157
0.15588235 0.38823529 0.15686275
0.16629902 0.38639706 0.15747549
0.19044118 0.38431373 0.15784314
0.21727941 0.3817402 0.15526961
0.25196078 0.38137255 0.14705882
0.2814951 0.38137255 0.14705882
0.30906863 0.38137255 0.14387255
0.34509804 0.37806373 0.14166667
0.38529412 0.37745098 0.13529412
0.42647059 0.37745098 0.12745098
0.46862745 0.37352941 0.11862745
0.5127451 0.37009804 0.10833333
0.55784314 0.36372549 0.10392157
0.59901961 0.35747549 0.099509804
0.64387255 0.3502451 0.092401961
0.68921569 0.34068627 0.088848039
0.73431373 0.33137255 0.092156863
0.78125 0.32291667 0.092156863
0.82745098 0.31372549 0.092156863
0.87254902 0.30343137 0.092156863
0.91960784 0.29019608 0.08872549
0.96176471 0.27647059 0.089705882
0.97254902 0.27279412 0.1
0.97892157 0.2692402 0.11029412
0.98529412 0.26470588 0.11666667
0.18627451 0.43333333 0.16421569
0.20557598 0.43284314 0.16421569
0.22879902 0.42941176 0.16507353
0.25245098 0.42941176 0.16807598
0.28112745 0.42892157 0.16421569
0.309375 0.42984069 0.16372549
0.33676471 0.43284314 0.16372549
0.36421569 0.43284314 0.16011029
0.40294118 0.42892157 0.15196078
0.44411765 0.4254902 0.14215686
0.48529412 0.425 0.13578431
0.52647059 0.42156863 0.12892157
0.56813725 0.41887255 0.1245098
0.60931373 0.41317402 0.12009804
0.65343137 0.40625 0.11372549
0.6995098 0.3995098 0.10882353
0.74117647 0.38921569 0.10882353
0.78578431 0.37941176 0.1127451
0.82843137 0.37254902 0.11617647
0.87598039 0.3622549 0.1127451
0.92156863 0.35196078 0.11446078
0.96219363 0.34166667 0.11666667
0.97892157 0.33529412 0.12696078
0.98560049 0.33284314 0.13382353
0.99215686 0.32990196 0.14411765
0.23333333 0.48039216 0.18039216
0.24166667 0.48039216 0.18039216
0.25980392 0.48039216 0.18039216
0.28676471 0.48039216 0.18039216
0.31176471 0.48039216 0.18039216
0.33676471 0.48039216 0.18063725
0.36372549 0.48235294 0.17892157
0.39068627 0.48039216 0.17107843
0.42352941 0.47647059 0.1627451
0.4622549 0.47647059 0.15245098
0.50196078 0.47598039 0.14607843
0.54142157 0.47254902 0.13970588
0.58039216 0.46862745 0.13921569
0.62156863 0.46642157 0.13529412
0.66617647 0.46470588 0.12990196
0.70906863 0.45735294 0.12818627
0.74705882 0.44705882 0.12941176
0.78823529 0.4379902 0.13333333
0.83186275 0.43039216 0.1372549
0.87647059 0.42009804 0.1372549
0.92254902 0.4127451 0.14019608
0.96642157 0.40343137 0.14338235
0.98529412 0.39705882 0.14901961
0.99093137 0.39534314 0.15367647
0.99215686 0.39215686 0.15490196
0.28088235 0.52745098 0.19705882
0.28694853 0.52794118 0.19656863
0.29705882 0.52794118 0.19656863
0.31464461 0.52794118 0.19656863
0.34093137 0.52965686 0.19656863
0.36715686 0.53137255 0.19656863
0.3942402 0.52879902 0.19019608
0.4213848 0.52794118 0.17971814
0.44852941 0.52794118 0.16911765
0.48529412 0.52794118 0.15882353
0.52156863 0.52401961 0.15379902
0.55631127 0.52052696 0.15343137
0.59656863 0.51789216 0.15171569
0.6377451 0.51568627 0.14901961
0.67928922 0.5122549 0.14301471
0.72040441 0.51078431 0.14166667
0.75735294 0.5004902 0.14558824
0.79509804 0.49411765 0.15196078
0.83713235 0.4877451 0.15343137
0.884375 0.47745098 0.1533701
0.92818627 0.46936275 0.15882353
0.97493873 0.46470588 0.16519608
0.99215686 0.45833333 0.16691176
0.99215686 0.45557598 0.16617647
0.99215686 0.45343137 0.16617647
0.32843137 0.5754902 0.21372549
0.33186275 0.5754902 0.21372549
0.33823529 0.57647059 0.2129902
0.35196078 0.57904412 0.21078431
0.37352941 0.57941176 0.21078431
0.39803922 0.57941176 0.21078431
0.42181373 0.57941176 0.20686275
0.44852941 0.57647059 0.19656863
0.47647059 0.57647059 0.18333333
0.50735294 0.57647059 0.17205882
0.54142157 0.57230392 0.16764706
0.57647059 0.56776961 0.16409314
0.6122549 0.56764706 0.16372549
0.65110294 0.56372549 0.15968137
0.69607843 0.56372549 0.15661765
0.7372549 0.55980392 0.15588235
0.7745098 0.55196078 0.15588235
0.81176471 0.54558824 0.15796569
0.85465686 0.53995098 0.15686275
0.89901961 0.53186275 0.15637255
0.94019608 0.52254902 0.16078431
0.97794118 0.51617647 0.16519608
0.99215686 0.50955882 0.18161765
0.99509804 0.50196078 0.19313725
0.99509804 0.50098039 0.19705882
0.37058824 0.62303922 0.23039216
0.3721201 0.62303922 0.23039216
0.37941176 0.62365196 0.23002451
0.39332108 0.6254902 0.22892157
0.40906863 0.62696078 0.22647059
0.42530637 0.62696078 0.225
0.4495098 0.62696078 0.22316176
0.4754902 0.6254902 0.21176471
0.50490196 0.6254902 0.20294118
0.53578431 0.62303922 0.19264706
0.56482843 0.62095588 0.18627451
0.59883578 0.61783088 0.18333333
0.63382353 0.61519608 0.17745098
0.67156863 0.61519608 0.17401961
0.7127451 0.61409314 0.17218137
0.75392157 0.61372549 0.17156863
0.79509804 0.60735294 0.17009804
0.83627451 0.60006127 0.16372549
0.87745098 0.59497549 0.15796569
0.91734069 0.58823529 0.15686275
0.95122549 0.57941176 0.15882353
0.98676471 0.57303922 0.16519608
0.99546569 0.5627451 0.18235294
0.99607843 0.55189951 0.20588235
0.99754902 0.54705882 0.22401961
0.40784314 0.67058824 0.24705882
0.41176471 0.67058824 0.24705882
0.42058824 0.67058824 0.24705882
0.43480392 0.6745098 0.24362745
0.44901961 0.6745098 0.24313725
0.46323529 0.6745098 0.23921569
0.47647059 0.6745098 0.23921569
0.50490196 0.67205882 0.22990196
0.53333333 0.6745098 0.22352941
0.56421569 0.67058824 0.21568627
0.59509804 0.67058824 0.20784314
0.62598039 0.66666667 0.20392157
0.66078431 0.66666667 0.19607843
0.69558824 0.6627451 0.18823529
0.73333333 0.6627451 0.18823529
0.7745098 0.6627451 0.18431373
0.81568627 0.65490196 0.18039216
0.85294118 0.65098039 0.17401961
0.89411765 0.64607843 0.16764706
0.92794118 0.63970588 0.16470588
0.96470588 0.63529412 0.1627451
1 0.63431373 0.16176471
1 0.61764706 0.18627451
0.99852941 0.60637255 0.20686275
1 0.6 0.22745098
0.44509804 0.71813725 0.26519608
0.45147059 0.71813725 0.26519608
0.46176471 0.71960784 0.26372549
0.47334559 0.71960784 0.26372549
0.48504902 0.71960784 0.25980392
0.49803922 0.71960784 0.25716912
0.51188725 0.7185049 0.25404412
0.5372549 0.72052696 0.2504902
0.56421569 0.72205882 0.24411765
0.59509804 0.72205882 0.2377451
0.62303922 0.7192402 0.22843137
0.65686275 0.71813725 0.22107843
0.6877451 0.71813725 0.21470588
0.71881127 0.71421569 0.20588235
0.75392157 0.71421569 0.19914216
0.79509804 0.71029412 0.19705882
0.83235294 0.70637255 0.19068627
0.87107843 0.70245098 0.18431373
0.90735294 0.69754902 0.17794118
0.94215686 0.69117647 0.17285539
0.97696078 0.68676471 0.17107843
0.99626225 0.68235294 0.17156863
1 0.67205882 0.18002451
1 0.66029412 0.19656863
1 0.65147059 0.21470588
0.48235294 0.76568627 0.28333333
0.48872549 0.76568627 0.28333333
0.49901961 0.76470588 0.28039216
0.50833333 0.76470588 0.28039216
0.51862745 0.76470588 0.27941176
0.53039216 0.76470588 0.27634804
0.55098039 0.76470588 0.27181373
0.57267157 0.76507353 0.2682598
0.59901961 0.76862745 0.26372549
0.62598039 0.76862745 0.25625
0.65294118 0.76789216 0.24803922
0.68382353 0.76862745 0.24154412
0.71764706 0.76568627 0.23137255
0.74558824 0.76470588 0.22414216
0.7754902 0.76102941 0.21470588
0.81139706 0.75968137 0.20833333
0.84901961 0.75784314 0.20196078
0.88566176 0.75392157 0.19460784
0.92328431 0.75 0.18504902
0.95735294 0.7435049 0.18051471
0.98333333 0.73872549 0.18137255
0.99264706 0.73039216 0.18137255
0.99607843 0.72352941 0.19019608
0.99938725 0.71360294 0.19178922
1 0.70784314 0.19901961
0.52303922 0.80980392 0.29754902
0.52990196 0.80980392 0.29754902
0.53627451 0.80625 0.29705882
0.54656863 0.80588235 0.29405637
0.55465686 0.80612745 0.29362745
0.56764706 0.8067402 0.29270833
0.58823529 0.8067402 0.28921569
0.60900735 0.80949755 0.28400735
0.63333333 0.81323529 0.28137255
0.65686275 0.81372549 0.27371324
0.68296569 0.81237745 0.26605392
0.71127451 0.80980392 0.25833333
0.74191176 0.80980392 0.25196078
0.76911765 0.80588235 0.24209559
0.7935049 0.80551471 0.23529412
0.82843137 0.80196078 0.22647059
0.86568627 0.80196078 0.21862745
0.90079657 0.80196078 0.20833333
0.94019608 0.80147059 0.19718137
0.97794118 0.79754902 0.1877451
0.98995098 0.79166667 0.1879902
0.99215686 0.78529412 0.19123775
0.99607843 0.77757353 0.18823529
0.99754902 0.76991422 0.18756127
1 0.76568627 0.18529412
0.5745098 0.84509804 0.31176471
0.5745098 0.84705882 0.31053922
0.57892157 0.84705882 0.30931373
0.5877451 0.84705882 0.30784314
0.60392157 0.84509804 0.30784314
0.61397059 0.84705882 0.30563725
0.6254902 0.85 0.30392157
0.64607843 0.85098039 0.29926471
0.66666667 0.85490196 0.29607843
0.68921569 0.85490196 0.29093137
0.71078431 0.85539216 0.28529412
0.7377451 0.85514706 0.27843137
0.76666667 0.85392157 0.26862745
0.78921569 0.85098039 0.2627451
0.8127451 0.8495098 0.25588235
0.84754902 0.84705882 0.2495098
0.88235294 0.84705882 0.23921569
0.91960784 0.84387255 0.22647059
0.95686275 0.84313725 0.21470588
0.9875 0.84313725 0.20245098
0.99215686 0.84215686 0.19509804
0.99436275 0.8372549 0.19362745
0.99607843 0.83333333 0.18529412
0.99877451 0.83063725 0.17696078
1 0.82745098 0.17058824
0.62990196 0.88039216 0.32205882
0.62352941 0.8841299 0.32205882
0.62438725 0.8877451 0.32205882
0.64074755 0.88431373 0.32205882
0.65588235 0.88382353 0.32205882
0.66219363 0.88431373 0.31856618
0.6682598 0.88811275 0.31813725
0.6877451 0.89166667 0.31421569
0.70441176 0.89215686 0.31029412
0.7245098 0.89558824 0.30422794
0.74497549 0.89963235 0.30159314
0.76519608 0.90085784 0.29552696
0.78970588 0.89779412 0.28921569
0.81421569 0.89166667 0.28284314
0.83786765 0.88823529 0.27647059
0.86862745 0.88805147 0.27009804
0.90294118 0.88431373 0.25980392
0.9377451 0.88431373 0.2495098
0.97193627 0.88419118 0.23921569
0.99166667 0.88039216 0.22591912
0.99436275 0.88210784 0.21495098
0.99699755 0.88431373 0.20833333
1 0.88039216 0.19411765
1 0.87990196 0.18400735
1 0.88039216 0.17794118
0.68137255 0.91764706 0.33627451
0.68039216 0.92046569 0.33627451
0.68529412 0.92254902 0.33627451
0.69901961 0.92254902 0.33627451
0.71372549 0.92156863 0.33578431
0.71973039 0.92291667 0.33235294
0.72647059 0.9254902 0.33161765
0.73921569 0.92585784 0.32843137
0.75588235 0.92647059 0.3245098
0.77071078 0.92892157 0.31997549
0.78308824 0.93063725 0.31495098
0.79656863 0.92879902 0.30931373
0.82254902 0.93088235 0.30490196
0.84852941 0.92647059 0.3
0.87573529 0.9254902 0.29607843
0.90134804 0.9254902 0.29068627
0.92745098 0.92254902 0.28333333
0.95833333 0.92254902 0.27401961
0.98284314 0.92230392 0.26348039
0.99203431 0.91776961 0.2495098
0.99607843 0.91813725 0.23921569
1 0.91862745 0.22892157
1 0.91789216 0.22156863
1 0.91764706 0.21629902
1 0.91764706 0.21568627
0.74215686 0.95343137 0.34656863
0.74460784 0.95343137 0.34803922
0.75098039 0.95772059 0.3504902
0.7591299 0.96127451 0.3504902
0.77083333 0.9620098 0.3504902
0.77775735 0.96127451 0.34785539
0.78492647 0.96127451 0.34656863
0.79552696 0.96127451 0.34356618
0.80588235 0.95735294 0.33872549
0.81133578 0.95643382 0.33235294
0.8182598 0.95196078 0.32598039
0.82745098 0.94822304 0.31960784
0.84681373 0.94730392 0.31519608
0.88302696 0.95606618 0.31519608
0.91666667 0.96127451 0.31519608
0.93768382 0.96127451 0.31035539
0.95490196 0.9627451 0.30490196
0.98284314 0.9627451 0.29607843
0.9942402 0.95845588 0.28431373
0.99607843 0.95392157 0.27058824
0.99877451 0.9495098 0.25980392
1 0.95 0.2495098
1 0.95637255 0.24607843
1 0.96421569 0.24123775
1 0.96813725 0.23823529
0.79215686 0.98039216 0.35686275
0.79460784 0.98039216 0.35686275
0.80098039 0.98529412 0.36078431
0.81127451 0.99166667 0.36078431
0.8254902 0.99803922 0.3627451
0.82352941 0.99166667 0.36029412
0.83039216 0.98823529 0.35686275
0.83676471 0.98676471 0.35539216
0.83921569 0.98039216 0.34901961
0.84166667 0.97647059 0.34264706
0.85196078 0.97254902 0.3372549
0.86617647 0.97254902 0.33333333
0.8745098 0.96470588 0.32352941
0.90392157 0.96911765 0.32205882
0.94509804 0.98333333 0.3254902
0.97009804 0.98823529 0.3254902
0.98431373 0.99215686 0.32156863
1 0.99754902 0.31666667
1 0.9872549 0.30098039
1 0.98039216 0.2872549
1 0.97647059 0.27647059
1 0.97647059 0.26617647
1 0.98039216 0.25980392
1 0.98970588 0.25490196
1 1 0.25098039
0.0039215686 0.0039215686 0.018137255
0.012132353 0.0039215686 0.013296569
0.024877451 0.0042892157 0.011764706
0.039705882 0.0053921569 0.015196078
0.070833333 0.0046568627 0.011764706
0.10392157 0.0039215686 0.010294118
0.13823529 0.0039215686 0.010294118
0.17058824 0.0039215686 0.0078431373
0.20931373 0.0053921569 0.0078431373
0.26023284 0.0069240196 0.0078431373
0.31568627 0.006372549 0.0074754902
0.37401961 0.006372549 0.0076593137
0.43014706 0.0031862745 0.006372549
0.48872549 0.0039215686 0.0065563725
0.54411765 0.0039215686 0.0078431373
0.5995098 0.0044730392 0.010294118
0.65098039 0.0053921569 0.011764706
0.70245098 0.0039215686 0.011764706
0.75392157 0.0039215686 0.0078431373
0.80900735 0.0039215686 0.0078431373
0.86348039 0 0.0039215686
0.91636029 0 0.0039215686
0.96911765 0 0.0039215686
0.99607843 0 0.0039215686
0.99607843 0 0.0039215686
0.010294118 0.016666667 0.021507353
0.020588235 0.019692096 0.017585784
0.033333333 0.020588235 0.017447917
0.052259498 0.020588235 0.018137255
0.082843137 0.016636029 0.016176471
0.11372549 0.013472733 0.013036152
0.14708946 0.013434436 0.010523897
0.18480392 0.016666667 0.009375
0.22205882 0.018137255 0.0078431373
0.27375919 0.018137255 0.0078431373
0.32953431 0.017999387 0.006372549
0.38511795 0.014522059 0.006372549
0.43924632 0.010294118 0.006372549
0.49521293 0.010294118 0.0078431373
0.55026042 0.010294118 0.0078431373
0.60588235 0.011764706 0.011764706
0.65882353 0.012683824 0.011764706
0.70882353 0.010294118 0.011764706
0.75807292 0.0064031863 0.0078431373
0.81224724 0.0039215686 0.0078431373
0.86516544 0.0039215686 0.0039215686
0.91783854 0.00080422794 0.0039215686
0.96950061 0 0.002588848
0.99397212 0 0.003002451
0.99607843 0 0.003002451
0.023039216 0.042156863 0.030882353
0.031663603 0.041176471 0.026577819
0.042830882 0.041176471 0.022702206
0.063403799 0.038710172 0.023529412
0.092830882 0.03192402 0.023284314
0.12205882 0.02745098 0.020465686
0.16369485 0.032996324 0.016666667
0.20516238 0.03549326 0.013526348
0.24656863 0.033333333 0.0078431373
0.29264706 0.032352941 0.0064031863
0.34715074 0.031617647 0.0039215686
0.3995098 0.028431373 0.0060661765
0.45318627 0.024509804 0.0048406863
0.50943627 0.022671569 0.0058363971
