site/assets/luts/sha256-214c546be398c45898041f33cb6df2ab6855b996b9a0599c1fdadc086821335d.cube
# LUTr-Schema-Version: 2
# LUTr-ID: sha256-214c546be398c45898041f33cb6df2ab6855b996b9a0599c1fdadc086821335d
# LUTr-Title: polaroid time zero (expired)
# LUTr-Collection: Natron HaldCLUT
# LUTr-Collection-ID: natron-haldclut-presets
# LUTr-Source: https://github.com/NatronGitHub/clut
# LUTr-Retrieved: 2026-07-27
# LUTr-Source-File: submissions/natron-haldclut-presets/instant_consumer/polaroid_time_zero_(expired).png
# LUTr-Source-Format: HALD-PNG
# LUTr-Source-SHA256: 214c546be398c45898041f33cb6df2ab6855b996b9a0599c1fdadc086821335d
# LUTr-License: CC-BY-SA-4.0
# LUTr-License-URL: https://github.com/NatronGitHub/clut#license
# LUTr-License-Basis: repo-license-file
# LUTr-Transform-Class: film-emulation
# LUTr-Tags: creative, film, film-emulation, hald-clut, natron, png, cube
# LUTr-Input-Color-Space: srgb
# LUTr-Input-Gamut: rec709
# LUTr-Input-Transfer: srgb
# LUTr-Output-Color-Space: srgb
# LUTr-Output-Gamut: rec709
# LUTr-Output-Transfer: srgb
# LUTr-Color-Space-Confidence: assumed-display-referred
# LUTr-Domain-Normalized: true
# LUTr-Shaper: none
# LUTr-Original-Grid: 64x64x64
# LUTr-Conversion-Grid: 25x25x25
# LUTr-Conversion-Interpolation: trilinear
# LUTr-Conversion-Method: HALD-PNG LUT image decoded at 16-bit and sampled to 25x25x25 3D CUBE
# LUTr-Conversion-Tool: LUTr scripts/convert-all-to-cube.mjs 2.0.0
# LUTr-Conversion-Date: 2026-07-27
# LUTr-Note: Preserve this metadata and the upstream license notices when redistributing.
TITLE "polaroid time zero (expired)"
LUT_3D_SIZE 25
DOMAIN_MIN 0 0 0
DOMAIN_MAX 1 1 1
0.61568627 0.34901961 0.12941176
0.62205882 0.35294118 0.12941176
0.62843137 0.35686275 0.13039216
0.63529412 0.36029412 0.13333333
0.64313725 0.3627451 0.13333333
0.64754902 0.36519608 0.13333333
0.65490196 0.36862745 0.13333333
0.66029412 0.37254902 0.13333333
0.66666667 0.37254902 0.13333333
0.67696078 0.36862745 0.13578431
0.6872549 0.36470588 0.1372549
0.69411765 0.36078431 0.1372549
0.70392157 0.35686275 0.1372549
0.71372549 0.35294118 0.1372549
0.72352941 0.34901961 0.1372549
0.74019608 0.35294118 0.1372549
0.76078431 0.35294118 0.1372549
0.78137255 0.35686275 0.1372549
0.80196078 0.35686275 0.1372549
0.82598039 0.35686275 0.1372549
0.84705882 0.35882353 0.1372549
0.86715686 0.36519608 0.1372549
0.88431373 0.37156863 0.1372549
0.90490196 0.38186275 0.1372549
0.92156863 0.38823529 0.13333333
0.61960784 0.35539216 0.12941176
0.62297794 0.35631127 0.12941176
0.62843137 0.35747549 0.12941176
0.63529412 0.36078431 0.13302696
0.64117647 0.36470588 0.13333333
0.64754902 0.36519608 0.13333333
0.65428922 0.36862745 0.13333333
0.66029412 0.37254902 0.13333333
0.66666667 0.37254902 0.13333333
0.67696078 0.36862745 0.13333333
0.6872549 0.36470588 0.1372549
0.69381127 0.36127451 0.1372549
0.70392157 0.35808824 0.1372549
0.71421569 0.35294118 0.1372549
0.7245098 0.35294118 0.1372549
0.74172794 0.35386029 0.1372549
0.76078431 0.35686275 0.13480392
0.78137255 0.35931373 0.13480392
0.80294118 0.36078431 0.13333333
0.82647059 0.36292892 0.13333333
0.84705882 0.36519608 0.13406863
0.86764706 0.36893382 0.1372549
0.88823529 0.3754902 0.1372549
0.90735294 0.38186275 0.13578431
0.92156863 0.38823529 0.13333333
0.62352941 0.36470588 0.12941176
0.62414216 0.36176471 0.12941176
0.62843137 0.36176471 0.12941176
0.63492647 0.36176471 0.12941176
0.64117647 0.36470588 0.13235294
0.64754902 0.36862745 0.13333333
0.65392157 0.36862745 0.13333333
0.66029412 0.37254902 0.13333333
0.66666667 0.37254902 0.13333333
0.67696078 0.37009804 0.13333333
0.68333333 0.36764706 0.13333333
0.69362745 0.36470588 0.13590686
0.70392157 0.36078431 0.13627451
0.71433824 0.35784314 0.13333333
0.72843137 0.35784314 0.13333333
0.74411765 0.36078431 0.13296569
0.76078431 0.36176471 0.13235294
0.78137255 0.36470588 0.13235294
0.80294118 0.36568627 0.13235294
0.82647059 0.36948529 0.13235294
0.84705882 0.37352941 0.13333333
0.86862745 0.37745098 0.13333333
0.89215686 0.38112745 0.13333333
0.9127451 0.38639706 0.13333333
0.92647059 0.39215686 0.13333333
0.62352941 0.37205882 0.12941176
0.62745098 0.36991422 0.12941176
0.63137255 0.3685049 0.12941176
0.63529412 0.36813725 0.12941176
0.64117647 0.36813725 0.12941176
0.6471201 0.36862745 0.12947304
0.65392157 0.36862745 0.12990196
0.65882353 0.37254902 0.12990196
0.66666667 0.37254902 0.13333333
0.67303922 0.37254902 0.13333333
0.68333333 0.36862745 0.13333333
0.69362745 0.36470588 0.13333333
0.70392157 0.36446078 0.13333333
0.71813725 0.36427696 0.13333333
0.73223039 0.36470588 0.12990196
0.74656863 0.36470588 0.12941176
0.76421569 0.36813725 0.12941176
0.78137255 0.36862745 0.12598039
0.80551471 0.37218137 0.12683824
0.82647059 0.37598039 0.12941176
0.84877451 0.38014706 0.12941176
0.87156863 0.38431373 0.13033088
0.89215686 0.38811275 0.13333333
0.91636029 0.39185049 0.13333333
0.93676471 0.39607843 0.13333333
0.62745098 0.37843137 0.13333333
0.62867647 0.37720588 0.12941176
0.63186275 0.37598039 0.12941176
0.63529412 0.3745098 0.12941176
0.64117647 0.37352941 0.12941176
0.64705882 0.37254902 0.12941176
0.65098039 0.37254902 0.12941176
0.65637255 0.37254902 0.12941176
0.6627451 0.37254902 0.12941176
0.67303922 0.37254902 0.12941176
0.68333333 0.36862745 0.13137255
0.69362745 0.36862745 0.13137255
0.70784314 0.37058824 0.12941176
0.72205882 0.37254902 0.12941176
0.73578431 0.37254902 0.12794118
0.7504902 0.37254902 0.1254902
0.76470588 0.37254902 0.12352941
0.78333333 0.3745098 0.12352941
0.80588235 0.37843137 0.12401961
0.82647059 0.38235294 0.1254902
0.85 0.38823529 0.12745098
0.87156863 0.39411765 0.12769608
0.89558824 0.39803922 0.12941176
0.91593137 0.40196078 0.13014706
0.92745098 0.40588235 0.12941176
0.62794118 0.38480392 0.13333333
0.63137255 0.38480392 0.13088235
0.63529412 0.38345588 0.12941176
0.63872549 0.38088235 0.12941176
0.64142157 0.38063725 0.12941176
0.64705882 0.37696078 0.12941176
0.65098039 0.37647059 0.12941176
0.65618873 0.37303922 0.12941176
0.6622549 0.37303922 0.12892157
0.66911765 0.37273284 0.12922794
0.68039216 0.37303922 0.12928922
0.69405637 0.37604167 0.12892157
0.70808824 0.37867647 0.12892157
0.72254902 0.38088235 0.1254902
0.73664216 0.38088235 0.1254902
0.75226716 0.38088235 0.12156863
0.76862745 0.37696078 0.12156863
0.78529412 0.38069853 0.11979167
0.80588235 0.38578431 0.12120098
0.82996324 0.39215686 0.12156863
0.85122549 0.39877451 0.12156863
0.8754902 0.40490196 0.125
0.89607843 0.41127451 0.1254902
0.91078431 0.4122549 0.12892157
0.91715686 0.4122549 0.1254902
0.63137255 0.39117647 0.13333333
0.63321078 0.39117647 0.13088235
0.63602941 0.39117647 0.12941176
0.63921569 0.39117647 0.12941176
0.64313725 0.3872549 0.12941176
0.64754902 0.38676471 0.12647059
0.65318627 0.38333333 0.12647059
0.65637255 0.37941176 0.1254902
0.65882353 0.37647059 0.1254902
0.66703431 0.37647059 0.1254902
0.68259804 0.37965686 0.1254902
0.69742647 0.38333333 0.1254902
0.71176471 0.3872549 0.1254902
0.72598039 0.38737745 0.1254902
0.73921569 0.38823529 0.12181373
0.75441176 0.38835784 0.12046569
0.77156863 0.39019608 0.11764706
0.78860294 0.39411765 0.11470588
0.80980392 0.39828431 0.11764706
0.83039216 0.40294118 0.11764706
0.85490196 0.41078431 0.11764706
0.8754902 0.41519608 0.11776961
0.89387255 0.42156863 0.12230392
0.90294118 0.42254902 0.12254902
0.90392157 0.42254902 0.12156863
0.63137255 0.4 0.13186275
0.63529412 0.40147059 0.12849265
0.63958333 0.40183824 0.12340686
0.64313725 0.40294118 0.12028186
0.64705882 0.40147059 0.12009804
0.65116422 0.39883578 0.12009804
0.6560049 0.39571078 0.12009804
0.659375 0.39362745 0.12009804
0.66421569 0.39117647 0.12009804
0.6745098 0.39454657 0.12009804
0.68872549 0.39509804 0.12009804
0.70275735 0.39901961 0.12009804
0.71642157 0.39901961 0.12009804
0.72775735 0.39901961 0.12009804
0.74166667 0.40085784 0.12009804
0.75980392 0.40441176 0.11617647
0.77647059 0.40931373 0.11372549
0.79313725 0.41231618 0.1122549
0.81372549 0.41470588 0.1122549
0.83578431 0.41844363 0.1122549
0.85637255 0.42107843 0.1122549
0.87892157 0.4254902 0.11243873
0.88982843 0.42892157 0.11617647
0.89264706 0.43284314 0.11617647
0.89411765 0.43284314 0.11617647
0.63529412 0.41176471 0.1254902
0.63921569 0.41176471 0.12156863
0.64313725 0.41568627 0.11666667
0.64705882 0.41568627 0.11372549
0.65098039 0.41568627 0.10980392
0.65490196 0.41519608 0.10980392
0.65882353 0.41176471 0.10980392
0.66421569 0.40784314 0.10980392
0.67058824 0.41176471 0.11372549
0.68333333 0.41421569 0.11372549
0.69901961 0.41568627 0.10980392
0.70931373 0.41960784 0.10980392
0.72352941 0.41960784 0.10980392
0.7377451 0.41960784 0.10980392
0.75098039 0.42254902 0.10980392
0.76617647 0.42352941 0.10980392
0.78039216 0.42745098 0.10980392
0.79705882 0.43137255 0.10980392
0.81764706 0.43235294 0.10980392
0.83823529 0.43529412 0.10637255
0.85882353 0.43529412 0.10588235
0.87892157 0.43578431 0.10588235
0.88627451 0.44215686 0.10980392
0.89166667 0.44705882 0.11372549
0.89803922 0.44705882 0.11372549
0.64558824 0.42843137 0.11127451
0.64558824 0.42843137 0.11127451
0.64705882 0.42879902 0.10735294
0.65079657 0.42990196 0.10392157
0.65416667 0.43235294 0.10147059
0.65882353 0.42971814 0.099509804
0.66458333 0.42843137 0.099509804
0.67150735 0.42843137 0.10343137
0.68088235 0.42843137 0.10588235
0.69117647 0.43235294 0.10588235
0.70539216 0.43627451 0.10343137
0.71960784 0.44019608 0.10214461
0.73259804 0.44019608 0.10147059
0.74803922 0.44411765 0.099509804
0.76127451 0.44411765 0.099509804
0.77254902 0.44411765 0.10343137
0.78676471 0.44558824 0.10343137
0.80189951 0.44803922 0.10343137
0.82156863 0.45196078 0.10343137
0.84215686 0.45539216 0.10343137
0.8627451 0.45833333 0.10588235
0.87941176 0.46243873 0.10343137
0.89313725 0.46556373 0.10637255
0.90588235 0.47064951 0.11219363
0.91470588 0.47401961 0.11764706
0.65098039 0.44901961 0.092156863
0.65196078 0.44901961 0.09497549
0.65269608 0.44803922 0.095343137
0.6557598 0.44509804 0.093137255
0.65735294 0.44656863 0.091176471
0.66286765 0.44509804 0.089338235
0.67058824 0.44509804 0.093137255
0.67879902 0.44901961 0.095220588
0.6872549 0.44901961 0.097058824
0.69938725 0.45294118 0.098161765
0.7125 0.45686275 0.096078431
0.72598039 0.46041667 0.092279412
0.74166667 0.46323529 0.08872549
0.75490196 0.46470588 0.088357843
0.76862745 0.46568627 0.089215686
0.78223039 0.46568627 0.093137255
0.79313725 0.46470588 0.097058824
0.80588235 0.46531863 0.098039216
0.8254902 0.47279412 0.10122549
0.84607843 0.47732843 0.10196078
0.86666667 0.48284314 0.10196078
0.88284314 0.48835784 0.10183824
0.89632353 0.49142157 0.1002451
0.90943627 0.49607843 0.1060049
0.92156863 0.5 0.1127451
0.65833333 0.47352941 0.075490196
0.65833333 0.47089461 0.075490196
0.65882353 0.46960784 0.075490196
0.6622549 0.4661152 0.075490196
0.6627451 0.46568627 0.077205882
0.66715686 0.46568627 0.075490196
0.67696078 0.46568627 0.079411765
0.6872549 0.46960784 0.079411765
0.69411765 0.46960784 0.079901961
0.70784314 0.47567402 0.077267157
0.72205882 0.47830882 0.074632353
0.73627451 0.48137255 0.071629902
0.7504902 0.48529412 0.071568627
0.76470588 0.48921569 0.075061275
0.77806373 0.48921569 0.078921569
0.78921569 0.49050245 0.080698529
0.8 0.49264706 0.086764706
0.81372549 0.49264706 0.096568627
0.82928922 0.49669118 0.10159314
0.8495098 0.50398284 0.10196078
0.86666667 0.50857843 0.10196078
0.88284314 0.5127451 0.098039216
0.89705882 0.51654412 0.094240196
0.91127451 0.52028186 0.094607843
0.92156863 0.52058824 0.098529412
0.6627451 0.49607843 0.054901961
0.66470588 0.49411765 0.054901961
0.66666667 0.49215686 0.057352941
0.66862745 0.49019608 0.058823529
0.67156863 0.49215686 0.059803922
0.67696078 0.49191176 0.058823529
0.68382353 0.49019608 0.055392157
0.69362745 0.49093137 0.054166667
0.70392157 0.49411765 0.052941176
0.71421569 0.49803922 0.051715686
0.72892157 0.50196078 0.049019608
0.74436275 0.50563725 0.050980392
0.75784314 0.50882353 0.055882353
0.77132353 0.51372549 0.061029412
0.78529412 0.51568627 0.064705882
0.79632353 0.51838235 0.070098039
0.80980392 0.51960784 0.080392157
0.82401961 0.52352941 0.095098039
0.83823529 0.52598039 0.10245098
0.85416667 0.53088235 0.10392157
0.86960784 0.53431373 0.10098039
0.88504902 0.5375 0.093872549
0.9004902 0.54068627 0.087254902
0.91519608 0.54387255 0.083578431
0.9254902 0.54509804 0.084313725
0.67058824 0.51911765 0.034313725
0.67089461 0.51862745 0.034313725
0.67205882 0.51519608 0.038235294
0.675 0.51819853 0.041727941
0.68063725 0.51862745 0.042156863
0.68633578 0.51862745 0.041727941
0.69362745 0.51519608 0.035294118
0.70214461 0.51519608 0.028921569
0.71029412 0.51862745 0.02254902
0.72040441 0.52126225 0.022058824
0.73566176 0.52389706 0.026593137
0.75202206 0.52996324 0.033823529
0.76495098 0.53455882 0.040441176
0.7778799 0.53915441 0.046997549
0.79166667 0.54264706 0.053431373
0.80557598 0.54656863 0.061580882
0.82009804 0.5504902 0.078431373
0.83284314 0.5526348 0.095098039
0.84558824 0.55441176 0.10686275
0.8622549 0.55827206 0.11029412
0.87671569 0.5620098 0.10612745
0.89074755 0.56268382 0.098039216
0.90404412 0.56605392 0.087745098
0.91930147 0.56617647 0.07567402
0.92941176 0.56960784 0.070098039
0.6745098 0.54313725 0.0098039216
0.67745098 0.54252451 0.01372549
0.68137255 0.54240196 0.018382353
0.68529412 0.54571078 0.021568627
0.68921569 0.54607843 0.021568627
0.69362745 0.54571078 0.021568627
0.70392157 0.54313725 0.017647059
0.71029412 0.54215686 0.01127451
0.71666667 0.54313725 0.0049019608
0.72757353 0.54497549 0.0006127451
0.74289216 0.5502451 0.0098039216
0.75882353 0.55477941 0.01752451
0.77205882 0.56029412 0.026470588
0.78517157 0.56580882 0.032843137
0.79877451 0.56960784 0.039460784
0.81262255 0.57389706 0.054901961
0.82647059 0.57745098 0.075490196
0.84068627 0.58137255 0.095098039
0.85490196 0.58235294 0.11078431
0.86911765 0.58529412 0.11666667
0.88333333 0.58921569 0.11176471
0.89497549 0.59056373 0.10747549
0.90882353 0.59313725 0.098039216
0.92303922 0.59522059 0.089705882
0.93333333 0.59705882 0.090196078
0.68529412 0.56911765 0.0014705882
0.6877451 0.56911765 0.0039215686
0.69166667 0.57156863 0.0078431373
0.69558824 0.57303922 0.0078431373
0.6995098 0.57303922 0.0078431373
0.70392157 0.57285539 0.0078431373
0.71421569 0.56973039 0.0078431373
0.72058824 0.56911765 0.006372549
0.73088235 0.56911765 0.0039215686
0.73872549 0.57064951 0
0.75147059 0.57585784 0.0039215686
0.76550245 0.58069853 0.0076593137
0.77843137 0.58602941 0.012254902
0.79050245 0.59136029 0.018443627
0.80404412 0.59509804 0.025
0.81770833 0.59957108 0.041605392
0.83284314 0.60441176 0.067647059
0.84705882 0.60778186 0.089705882
0.86127451 0.61078431 0.11176471
0.87530637 0.61207108 0.12285539
0.88897059 0.61544118 0.12058824
0.90245098 0.61881127 0.12058824
0.91421569 0.62009804 0.12058824
0.92751225 0.6254902 0.12205882
0.93872549 0.62794118 0.12205882
0.69803922 0.6 0.0078431373
0.7004902 0.59607843 0.0078431373
0.70294118 0.6 0.0078431373
0.70588235 0.6 0.01127451
0.70980392 0.6 0.0078431373
0.71421569 0.6 0.0078431373
0.7245098 0.59607843 0.0078431373
0.73333333 0.59607843 0.0078431373
0.74117647 0.59607843 0.0039215686
0.75147059 0.59607843 0.0039215686
0.76176471 0.60098039 0.0039215686
0.7754902 0.60735294 0.0039215686
0.78627451 0.61176471 0.0039215686
0.79656863 0.61568627 0.0078431373
0.81078431 0.61960784 0.011764706
0.82254902 0.62352941 0.026470588
0.83921569 0.62745098 0.050980392
0.85343137 0.63382353 0.079411765
0.86764706 0.63529412 0.10490196
0.88137255 0.63872549 0.13235294
0.89215686 0.64117647 0.14117647
0.90637255 0.64362745 0.14509804
0.91960784 0.65 0.14901961
0.93088235 0.65245098 0.14901961
0.94117647 0.65490196 0.15294118
0.7122549 0.62696078 0.011764706
0.71470588 0.62696078 0.011764706
0.71617647 0.62696078 0.011764706
0.71991422 0.62843137 0.011764706
0.72328431 0.62843137 0.011764706
0.72843137 0.62696078 0.011580882
0.73480392 0.6245098 0.0084558824
0.74509804 0.62303922 0.0078431373
0.75147059 0.62303922 0.0039215686
0.76176471 0.62395833 0.0039215686
0.77205882 0.62904412 0.0039215686
0.78235294 0.63449755 0.0039215686
0.79656863 0.6375 0.0039215686
0.80686275 0.64264706 0.0039215686
0.81715686 0.64411765 0.0039215686
0.82800245 0.64895833 0.016176471
0.84313725 0.65441176 0.040686275
0.85980392 0.65833333 0.07064951
0.87401961 0.66041667 0.10098039
0.88560049 0.66354167 0.13529412
0.89607843 0.66691176 0.16323529
0.90900735 0.67028186 0.17628676
0.92058824 0.67340686 0.1817402
0.93088235 0.67640931 0.18474265
0.9372549 0.67941176 0.18627451
0.72745098 0.65784314 0.015686275
0.72745098 0.65723039 0.015686275
0.73039216 0.65686275 0.015686275
0.73125 0.65772059 0.015686275
0.73480392 0.65686275 0.01372549
0.73958333 0.65392157 0.011764706
0.74901961 0.65318627 0.011764706
0.75539216 0.65 0.0078431373
0.76568627 0.65 0.0039215686
0.77205882 0.65355392 0.0039215686
0.78235294 0.65490196 0.0039215686
0.79264706 0.66041667 0.0039215686
0.80686275 0.66519608 0.0039215686
0.81617647 0.66875 0.0039215686
0.82647059 0.67181373 0.0039215686
0.8377451 0.67463235 0.010416667
0.85098039 0.67745098 0.034313725
0.86580882 0.68321078 0.06127451
0.87941176 0.68455882 0.093872549
0.88970588 0.68823529 0.1317402
0.90098039 0.69068627 0.16715686
0.91127451 0.69607843 0.19816176
0.9245098 0.69926471 0.21764706
0.93333333 0.70098039 0.22254902
0.93333333 0.70098039 0.22254902
0.74068627 0.68529412 0.019607843
0.74068627 0.68480392 0.019301471
0.74411765 0.68480392 0.015686275
0.74460784 0.68480392 0.015686275
0.74828431 0.68308824 0.015686275
0.7528799 0.68131127 0.011764706
0.75931373 0.68088235 0.011764706
0.76783088 0.68088235 0.0078431373
0.77598039 0.68088235 0.0039215686
0.78596814 0.68088235 0.0039215686
0.79264706 0.68480392 0.0039215686
0.80294118 0.68829657 0.0039215686
0.81323529 0.69093137 0.0039215686
0.82352941 0.69356618 0.0039215686
0.83382353 0.69693627 0.0039215686
0.84430147 0.70067402 0.0058823529
0.85833333 0.70441176 0.024019608
0.87254902 0.70704657 0.050980392
0.88333333 0.70882353 0.086764706
0.89362745 0.71268382 0.13137255
0.90392157 0.71642157 0.16862745
0.91764706 0.72015931 0.20882353
0.92794118 0.72438725 0.2432598
0.93333333 0.72794118 0.25949755
0.93333333 0.7245098 0.25735294
0.75490196 0.71568627 0.021568627
0.75490196 0.71446078 0.020343137
0.75686275 0.71176471 0.018627451
0.75857843 0.71176471 0.015686275
0.75980392 0.70980392 0.014705882
0.76666667 0.70784314 0.011764706
0.77205882 0.70784314 0.011764706
0.77990196 0.70784314 0.0078431373
0.78823529 0.70784314 0.0039215686
0.79656863 0.71102941 0.0039215686
0.80588235 0.71176471 0.0039215686
0.81323529 0.71348039 0.0056372549
0.82352941 0.71666667 0.0078431373
0.83382353 0.71985294 0.0075980392
0.84411765 0.72303922 0.0039215686
0.85441176 0.72622549 0.0039215686
0.86470588 0.72941176 0.011764706
0.87696078 0.73137255 0.040686275
0.88921569 0.73333333 0.082843137
0.8995098 0.7370098 0.13112745
0.90980392 0.74019608 0.17941176
0.92205882 0.74509804 0.2254902
0.93235294 0.74852941 0.26715686
0.9372549 0.74901961 0.29093137
0.9372549 0.74901961 0.29215686
0.76911765 0.74264706 0.023529412
0.76911765 0.74215686 0.023529412
0.76911765 0.73872549 0.018627451
0.76954657 0.73872549 0.012193627
0.77328431 0.73651961 0.011764706
0.7778799 0.73480392 0.011764706
0.78394608 0.73480392 0.011764706
0.79050245 0.73823529 0.0078431373
0.8004902 0.73872549 0.0039215686
0.80704657 0.73872549 0.0039215686
0.81715686 0.73872549 0.0039215686
0.82352941 0.73872549 0.0039215686
0.83382353 0.74240196 0.0056372549
0.84405637 0.74607843 0.0078431373
0.8504902 0.74656863 0.0090686275
0.86078431 0.75018382 0.0044117647
0.87107843 0.75441176 0
0.88480392 0.75784314 0.034803922
0.89522059 0.75784314 0.093504902
0.90588235 0.76133578 0.15147059
0.91617647 0.76397059 0.20759804
0.92947304 0.76617647 0.25392157
0.93676471 0.76960784 0.29129902
0.94295343 0.7713848 0.32028186
0.94509804 0.77352941 0.32696078
0.78235294 0.76960784 0.023529412
0.78296569 0.76666667 0.021078431
0.78333333 0.76568627 0.015686275
0.78333333 0.76568627 0.0091911765
0.78676471 0.7622549 0.0088235294
0.79154412 0.76176471 0.011764706
0.79730392 0.76176471 0.011764706
0.80441176 0.76568627 0.0078431373
0.81078431 0.76568627 0.0039215686
0.82046569 0.76666667 0.0039215686
0.82745098 0.76642157 0.0039215686
0.83382353 0.76654412 0.0039215686
0.84411765 0.76813725 0.0039215686
0.8504902 0.77095588 0.0052696078
0.86078431 0.77352941 0.0085784314
0.86813725 0.7745098 0.011397059
0.87843137 0.7754902 0.016666667
0.88872549 0.77732843 0.058823529
0.90196078 0.78161765 0.1245098
0.91311275 0.78492647 0.18884804
0.92647059 0.7877451 0.24019608
0.93370098 0.79019608 0.2810049
0.94093137 0.79019608 0.31642157
0.94840686 0.79411765 0.34718137
0.95196078 0.79411765 0.36176471
0.79362745 0.79117647 0.028921569
0.79362745 0.79117647 0.02254902
0.79362745 0.79117647 0.014705882
0.79362745 0.78872549 0.0065563725
0.79754902 0.7872549 0.0071078431
0.80196078 0.7872549 0.0081495098
0.80833333 0.7872549 0.011764706
0.81470588 0.79117647 0.0078431373
0.82107843 0.79264706 0.0039215686
0.83137255 0.79509804 0.0015318627
0.83737745 0.79227941 0.0039215686
0.84411765 0.79117647 0.0039215686
0.85367647 0.79387255 0.0039215686
0.86078431 0.79705882 0.0024509804
0.87107843 0.8004902 0.0035539216
0.87745098 0.79754902 0.019669118
0.88382353 0.79117647 0.052941176
0.89564951 0.79362745 0.095098039
0.90894608 0.80392157 0.16139706
0.92254902 0.80814951 0.22647059
0.93284314 0.81078431 0.27303922
0.93903186 0.81078431 0.30637255
0.94620098 0.81078431 0.34056373
0.95349265 0.81470588 0.37653186
0.95833333 0.81862745 0.4004902
0.80392157 0.81176471 0.050980392
0.80392157 0.80784314 0.034313725
0.80392157 0.80784314 0.014705882
0.80392157 0.80784314 0.0044117647
0.80588235 0.80392157 0.0039215686
0.81176471 0.80392157 0.0078431373
0.81568627 0.80686275 0.014705882
0.82352941 0.80931373 0.0078431373
0.83137255 0.81176471 0.0039215686
0.8377451 0.81568627 0
0.84411765 0.81176471 0.0039215686
0.8504902 0.81176471 0.0039215686
0.86078431 0.81176471 0.0039215686
0.86715686 0.81568627 0.0039215686
0.87745098 0.81960784 0.0039215686
0.88382353 0.81421569 0.041176471
0.89019608 0.80784314 0.082352941
0.9004902 0.81029412 0.13235294
0.91568627 0.81764706 0.19509804
0.93235294 0.83088235 0.26372549
0.9372549 0.83137255 0.29607843
0.94166667 0.82745098 0.32696078
0.94901961 0.82745098 0.35784314
0.95833333 0.83137255 0.39803922
0.96470588 0.83529412 0.42745098
0.61568627 0.34901961 0.12941176
0.62205882 0.35294118 0.13094363
0.62843137 0.35686275 0.13333333
0.63529412 0.36029412 0.13333333
0.64191176 0.36151961 0.13455882
0.64754902 0.36470588 0.13578431
0.65490196 0.36862745 0.13578431
0.66029412 0.36917892 0.1372549
0.67058824 0.37009804 0.1372549
0.67696078 0.36862745 0.1372549
0.6872549 0.36470588 0.1372549
0.69411765 0.36078431 0.1372549
0.70392157 0.35686275 0.1372549
0.71372549 0.35294118 0.1372549
0.72352941 0.34901961 0.1372549
0.74019608 0.35294118 0.1372549
0.76078431 0.35294118 0.1372549
0.78137255 0.35686275 0.1372549
0.80196078 0.35686275 0.1372549
0.82598039 0.35686275 0.1372549
0.84705882 0.35686275 0.1372549
0.86501225 0.36488971 0.1372549
0.88186275 0.37156863 0.1372549
0.89705882 0.37886029 0.13817402
0.90882353 0.38431373 0.13970588
0.61960784 0.35539216 0.12941176
0.62297794 0.35631127 0.12941176
0.62843137 0.35724571 0.13223039
0.63487286 0.36078431 0.13333333
0.64117647 0.3627451 0.13333333
0.64754902 0.36482077 0.13444393
0.65428922 0.36862745 0.13578431
0.66029412 0.37067249 0.13578431
0.66758578 0.37254902 0.13633578
0.67696078 0.36862745 0.1372549
0.6872549 0.36470588 0.1372549
0.69400276 0.36109069 0.1372549
0.70392157 0.35686275 0.1372549
0.71421569 0.35294118 0.1372549
0.7245098 0.3527114 0.1372549
0.74172794 0.35386029 0.1372549
0.76078431 0.35686275 0.13480392
0.78137255 0.35931373 0.13537837
0.80477941 0.36078431 0.13466605
0.82647059 0.36292892 0.13344822
0.84705882 0.36519608 0.13406863
0.86764706 0.36893382 0.1372549
0.88575368 0.37438725 0.1372549
0.90006127 0.38016238 0.13817402
0.91127451 0.38578431 0.13970588
0.62352941 0.36176471 0.13002451
0.62414216 0.36176471 0.12941176
0.62843137 0.36176471 0.12987132
