site/assets/luts/sha256-addcac1f81368b76100835ee0b1c4e2671c0bceb328ba9880b677326825399dc.cube
# LUTr-Schema-Version: 2
# LUTr-ID: sha256-addcac1f81368b76100835ee0b1c4e2671c0bceb328ba9880b677326825399dc
# LUTr-Title: vintage brighter
# LUTr-Collection: Natron HaldCLUT
# LUTr-Collection-ID: natron-haldclut-presets
# LUTr-Source: https://github.com/NatronGitHub/clut
# LUTr-Retrieved: 2026-07-27
# LUTr-Source-File: submissions/natron-haldclut-presets/various/vintage_brighter.png
# LUTr-Source-Format: HALD-PNG
# LUTr-Source-SHA256: addcac1f81368b76100835ee0b1c4e2671c0bceb328ba9880b677326825399dc
# LUTr-License: CC-BY-SA-4.0
# LUTr-License-URL: https://github.com/NatronGitHub/clut#license
# LUTr-License-Basis: repo-license-file
# LUTr-Transform-Class: film-emulation
# LUTr-Tags: creative, film, film-emulation, hald-clut, natron, png, vintage, cube
# LUTr-Input-Color-Space: srgb
# LUTr-Input-Gamut: rec709
# LUTr-Input-Transfer: srgb
# LUTr-Output-Color-Space: srgb
# LUTr-Output-Gamut: rec709
# LUTr-Output-Transfer: srgb
# LUTr-Color-Space-Confidence: assumed-display-referred
# LUTr-Domain-Normalized: true
# LUTr-Shaper: none
# LUTr-Original-Grid: 64x64x64
# LUTr-Conversion-Grid: 25x25x25
# LUTr-Conversion-Interpolation: trilinear
# LUTr-Conversion-Method: HALD-PNG LUT image decoded at 16-bit and sampled to 25x25x25 3D CUBE
# LUTr-Conversion-Tool: LUTr scripts/convert-all-to-cube.mjs 2.0.0
# LUTr-Conversion-Date: 2026-07-27
# LUTr-Note: Preserve this metadata and the upstream license notices when redistributing.
TITLE "vintage brighter"
LUT_3D_SIZE 9
DOMAIN_MIN 0 0 0
DOMAIN_MAX 1 1 1
0.0039215686 0.011764706 0.18823529
0.0039215686 0.00049019608 0.15784314
0.16372549 0 0.16470588
0.32990196 0 0.16078431
0.49803922 0 0.16470588
0.66372549 0 0.17794118
0.8254902 0.0039215686 0.18039216
0.97205882 0.0039215686 0.15735294
0.96470588 0.0039215686 0.17647059
0.0039215686 0.030882353 0.16568627
0.01127451 0.042647059 0.16911765
0.16286765 0.029534314 0.16433824
0.32990196 0.038051471 0.16715686
0.49215686 0.029901961 0.16470588
0.66372549 0.029901961 0.1745098
0.82843137 0.037745098 0.19852941
0.98229167 0.006004902 0.16335784
0.99166667 0.0034313725 0.16862745
0.0039215686 0.15882353 0.1754902
0.013848039 0.16409314 0.20343137
0.16372549 0.15980392 0.18333333
0.32843137 0.15196078 0.17046569
0.5 0.17205882 0.17647059
0.66617647 0.1754902 0.17757353
0.82843137 0.16348039 0.17156863
0.94607843 0.16678922 0.17303922
0.98823529 0.16764706 0.17254902
0.0039215686 0.32205882 0.17009804
0.0047181373 0.33235294 0.18480392
0.1627451 0.32879902 0.17647059
0.33235294 0.32113971 0.18039216
0.49803922 0.3252451 0.17843137
0.6622549 0.32990196 0.17647059
0.82267157 0.32990196 0.17046569
0.96158088 0.32990196 0.17156863
0.99607843 0.32843137 0.15392157
0.0039215686 0.48627451 0.17254902
0.0039215686 0.49779412 0.19411765
0.16372549 0.5 0.18676471
0.32990196 0.49411765 0.18039216
0.49313725 0.49215686 0.16372549
0.65833333 0.48946078 0.16936275
0.825 0.48431373 0.17794118
0.98112745 0.49019608 0.16764706
0.99215686 0.48823529 0.19215686
0.0039215686 0.65196078 0.18039216
0.0012867647 0.65588235 0.15833333
0.1627451 0.65833333 0.17438725
0.32843137 0.6622549 0.1716299
0.48823529 0.65833333 0.17205882
0.65349265 0.65196078 0.18186275
0.82058824 0.64803922 0.18039216
0.97205882 0.65196078 0.17383578
0.99362745 0.65441176 0.17892157
0.0078431373 0.83235294 0.16862745
0.01127451 0.82855392 0.16115196
0.16372549 0.8245098 0.17254902
0.32598039 0.81666667 0.17696078
0.48823529 0.82058824 0.17892157
0.6504902 0.81666667 0.18823529
0.82083333 0.81666667 0.17720588
0.96139706 0.8192402 0.17095588
1 0.81176471 0.17843137
0.0078431373 0.93431373 0.18872549
0.01127451 0.93780637 0.19264706
0.15980392 0.96127451 0.17414216
0.32205882 0.96403186 0.18952206
0.48995098 0.96421569 0.20784314
0.65588235 0.97696078 0.17420343
0.8245098 0.95735294 0.20428922
0.97052696 0.93872549 0.19607843
1 0.93872549 0.20392157
0 0.99215686 0.17254902
0 1 0.16127451
0.15588235 0.99607843 0.17254902
0.31813725 1 0.17647059
0.49019608 0.99607843 0.19607843
0.65980392 0.99607843 0.20392157
0.82058824 0.99215686 0.20392157
0.97892157 1 0.16813725
1 1 0.17254902
0 0.015686275 0.28431373
0.01127451 0.011335784 0.27653186
0.16372549 0.0039215686 0.27352941
0.33382353 0.0014705882 0.27254902
0.5 0 0.27254902
0.66764706 0.0039215686 0.27665441
0.83235294 0 0.28088235
0.95876225 0 0.27947304
0.96862745 0 0.27647059
0.0034926471 0.034803922 0.27647059
0.020036765 0.039529718 0.28039216
0.15980392 0.026210172 0.27647059
0.32843137 0.022817096 0.27647059
0.49629289 0.024724265 0.27647059
0.66372549 0.020932904 0.27804841
0.82843137 0.006372549 0.28071385
0.94509804 0.0042432598 0.28431373
0.97990196 0.01127451 0.28382353
0.0039215686 0.16372549 0.28431373
0.014705882 0.17058824 0.28468137
0.15989583 0.16271446 0.28079044
0.32598039 0.15292586 0.27647059
0.49607843 0.16397059 0.278125
0.66372549 0.16969975 0.28431373
0.8245098 0.15827206 0.28823529
0.95772059 0.15980392 0.28823529
0.98688725 0.16372549 0.28431373
0.0039215686 0.32598039 0.28431373
0.011251532 0.34019608 0.28039216
0.15625 0.33212316 0.27817096
0.32843137 0.32058824 0.27910539
0.49607843 0.3252451 0.28054534
0.65833333 0.33204657 0.28823529
0.81671262 0.3256587 0.28645833
0.98056066 0.32469363 0.28823529
0.99822304 0.31844363 0.28792892
0.0039215686 0.48627451 0.28406863
0.01127451 0.50343137 0.28697917
0.15588235 0.5 0.28351716
0.32460172 0.49411765 0.28039216
0.49215686 0.49411765 0.28480392
0.65695466 0.49509804 0.28823529
0.82254902 0.4879902 0.28817402
0.97423407 0.48039216 0.28431373
0.99607843 0.48455882 0.28651961
0.0053921569 0.65833333 0.28480392
0.01127451 0.66334252 0.28082108
0.15980392 0.6622549 0.28039216
0.32205882 0.65840227 0.28039216
0.49396446 0.65833333 0.28431373
0.65833333 0.65521599 0.28431373
0.82058824 0.65441176 0.28039216
0.97401961 0.65588235 0.28431373
0.99607843 0.65802696 0.28431373
0.010416667 0.81176471 0.27647059
0.01127451 0.81617647 0.27990196
0.16348039 0.82316176 0.28039216
0.32598039 0.82446385 0.28431373
0.49215686 0.82101716 0.28431373
0.65833333 0.81666667 0.28039216
0.82071078 0.81755515 0.28039216
0.97352941 0.82538297 0.28491115
0.99607843 0.82794118 0.28909314
0.0039215686 0.93431373 0.28039216
0.0082720588 0.94601716 0.28480392
0.15588235 0.95461091 0.28002451
0.32420343 0.96403186 0.28396906
0.4919424 0.95811887 0.28823529
0.65441176 0.954519 0.28431373
0.82463235 0.96323529 0.28491115
0.99140625 0.98700214 0.2891008
1 0.97352941 0.30441176
0 0.99215686 0.27647059
0.0034313725 0.99564951 0.28039216
0.15490196 0.99215686 0.28039216
0.32058824 0.99754902 0.28039216
0.49215686 0.99607843 0.28431373
0.65098039 0.99460784 0.28431373
0.81678922 0.98823529 0.28566176
0.96960784 0.98131127 0.28823529
1 1 0.29215686
0 0.012745098 0.4
0.00085784314 0.015686275 0.4
0.15980392 0.0056372549 0.39607843
0.32598039 0 0.39607843
0.49068627 0 0.39460784
0.6622549 0 0.38884804
0.8254902 0 0.38921569
0.97696078 0 0.40012255
1 0 0.39607843
0 0.020098039 0.4
0.00085784314 0.015686275 0.40735294
0.15980392 0.015196078 0.39761029
0.32598039 0.0073529412 0.39889706
0.48890931 0.0034313725 0.39981618
0.65883885 0.0073529412 0.39215686
0.82058824 0.0073529412 0.39378064
0.98246017 0 0.40490196
1 0 0.40833333
0 0.16764706 0.40784314
0.011151961 0.17156863 0.40392157
0.15588235 0.16372549 0.4
0.3245098 0.15882353 0.4
0.49607843 0.15514706 0.40392157
0.66556373 0.15269608 0.40710784
0.8245098 0.15196078 0.40465686
0.97941176 0.15490196 0.40098039
1 0.15906863 0.40318627
0.0039215686 0.32990196 0.40428922
0.019117647 0.33664216 0.40111826
0.15588235 0.33005515 0.40281863
0.32382047 0.32205882 0.40392157
0.49803922 0.32058824 0.40765931
0.66349571 0.32659314 0.41282169
0.82389706 0.32196691 0.41078431
0.96412377 0.32058824 0.40134804
0.99607843 0.31997549 0.40784314
0 0.49215686 0.40637255
0.016176471 0.49693627 0.40741422
0.15980392 0.49742647 0.40980392
0.3245098 0.48823529 0.40686275
0.49215686 0.49117647 0.40784314
0.65833333 0.49552696 0.4122549
0.82303922 0.49166667 0.41139706
0.97230392 0.48039216 0.40392157
1 0.49019608 0.40392157
0 0.65257353 0.40245098
0.0044117647 0.6564185 0.40392157
0.15980392 0.6622549 0.41176471
0.32205882 0.65588235 0.40784314
0.49264706 0.65906863 0.40392157
0.65870098 0.66335784 0.41139706
0.8229473 0.65833333 0.40591299
0.97794118 0.6489277 0.40392157
1 0.65833333 0.40392157
0.0039215686 0.8245098 0.4
0.0073529412 0.8216299 0.40382966
0.15606618 0.8245098 0.40778186
0.32205882 0.8245098 0.41176471
0.49252451 0.82058824 0.40784314
0.65787377 0.82058824 0.40784314
0.81838235 0.82058824 0.40392157
0.97064951 0.82058824 0.40392157
0.99509804 0.82622549 0.40392157
0.0039215686 0.97254902 0.40698529
0.0039215686 0.98169424 0.41223958
0.1620098 0.97110907 0.40784314
0.32598039 0.97009804 0.40784314
0.49215686 0.97567402 0.41366422
0.6504902 0.96519608 0.41176471
0.81764706 0.96519608 0.41078431
0.95833333 0.97783395 0.41176471
0.98921569 0.97843137 0.40784314
0 1 0.40686275
0.0034313725 1 0.41127451
0.15955882 0.99926471 0.40392157
0.32561275 0.99791667 0.40637255
0.48823529 1 0.41176471
0.64656863 0.99607843 0.41176471
0.81348039 0.99509804 0.41176471
0.95 0.99252451 0.41176471
0.98431373 1 0.40882353
0 0.0078431373 0.51568627
0.01685049 0.011764706 0.51568627
0.15833333 0.0039215686 0.51568627
0.32113971 0 0.51023284
0.4870098 0 0.5
0.65496324 0 0.49607843
0.82843137 0 0.49754902
0.98186275 0 0.50410539
1 0 0.50392157
0 0.014889706 0.51323529
0.014705882 0.040540748 0.51960784
0.15588235 0.0088694853 0.51568627
0.31905637 0.0013403799 0.51023284
0.4870098 0.0034313725 0.50147059
0.65207567 0.0073529412 0.49754902
0.82058824 0.0073529412 0.50032169
0.97843137 0.0034313725 0.51194853
1 0 0.5091299
0.0068627451 0.16703431 0.51960784
0.01885723 0.17095588 0.51746324
0.15980392 0.16372549 0.51568627
0.32712929 0.15588235 0.51678922
0.49607843 0.15196078 0.51617647
0.66049326 0.15503983 0.51507353
0.82598039 0.14803922 0.50723039
0.96617647 0.15490196 0.50392157
0.99215686 0.15490196 0.50539216
0.0078431373 0.32598039 0.51415441
0.017287071 0.32738205 0.51183364
0.16164216 0.32205882 0.51286765
0.32935049 0.32205882 0.52087163
0.5 0.31966912 0.52745098
0.65980392 0.3245098 0.525
0.82918199 0.32317708 0.517019
0.97756587 0.32462469 0.51294424
0.99362745 0.32542892 0.51660539
0.0078431373 0.49019608 0.51568627
0.015042892 0.48823529 0.51553309
0.16354167 0.49381127 0.52107843
0.32598039 0.48823529 0.52107843
0.49411765 0.48688725 0.52107843
0.66372549 0.49365809 0.52545956
0.82843137 0.4932598 0.52034314
0.97352941 0.48970588 0.51853554
1 0.49093137 0.525
0 0.65833333 0.51623775
0.0029488358 0.65741422 0.51715686
0.15588235 0.6622549 0.5227788
0.32205882 0.65980392 0.51715686
0.49142157 0.66148897 0.51642157
0.65720741 0.66168045 0.52408088
0.8254902 0.65379902 0.52352941
0.98529412 0.6504902 0.51960784
0.99607843 0.6504902 0.51960784
0.0020833333 0.83627451 0.52352941
0.0034313725 0.8245864 0.52192096
0.15196078 0.82843137 0.52107843
0.32035846 0.82774203 0.52107843
0.49019608 0.8245098 0.51715686
0.64767157 0.82058824 0.52591912
0.81510417 0.8127451 0.52545956
0.96568627 0.81282169 0.51715686
0.99215686 0.81482843 0.51568627
0 0.98186275 0.52303922
0.0011259191 0.975 0.52349112
0.15721507 0.97401961 0.517019
0.32598039 0.97401961 0.51715686
0.49215686 0.97515319 0.51902574
0.6504902 0.97684589 0.52745098
0.80882353 0.96715686 0.52855392
0.95690104 0.97306219 0.51742494
0.99068627 0.97843137 0.51715686
0 1 0.51323529
0 1 0.51568627
0.15588235 1 0.51176471
0.32598039 1 0.51476716
0.48823529 1 0.51911765
0.64264706 0.99944853 0.53192402
0.79693627 0.99607843 0.53186275
0.94981618 1 0.51979167
0.98431373 1 0.51715686
0.0039215686 0.0058823529 0.62156863
0.021813725 0.0039215686 0.61985294
0.16470588 0.0039215686 0.6122549
0.31813725 0 0.60588235
0.48039216 0 0.60588235
0.64534314 0.0026960784 0.60588235
0.81911765 0.0078431373 0.60588235
0.97794118 0.0056372549 0.60588235
1 0.0039215686 0.60588235
0 0.0036764706 0.61421569
0.014767157 0.036305147 0.61960784
0.15588235 0.01439951 0.60980392
0.31813725 0.0071078431 0.60588235
0.48431373 0.0034313725 0.60686275
0.65303309 0.0052083333 0.60588235
0.81390931 0.013235294 0.60588235
0.97843137 0.020833333 0.61176471
1 0.020588235 0.60784314
0.011764706 0.16666667 0.61764706
0.025980392 0.16372549 0.62156863
0.16372549 0.15980392 0.61409314
0.32689951 0.15490196 0.60980392
0.49191176 0.15588235 0.6125
0.65410539 0.15931373 0.61280637
0.81813725 0.15735294 0.60539216
0.96568627 0.15998775 0.60392157
0.96960784 0.15980392 0.6
0.015686275 0.32352941 0.6125
0.027205882 0.32598039 0.61372549
0.1661152 0.32598039 0.61372549
0.33382353 0.32297794 0.61007966
0.49607843 0.32132353 0.61470588
0.66179534 0.33235294 0.62009804
0.82873775 0.32990196 0.61102941
0.9861826 0.32735907 0.60906863
0.98676471 0.33112745 0.60514706
0.011764706 0.49019608 0.60686275
0.015318627 0.49019608 0.60980392
0.16740196 0.49509804 0.60588235
0.32916667 0.4932598 0.60833333
0.49460784 0.49068627 0.61470588
0.66102941 0.49411765 0.6254902
0.83235294 0.49485294 0.61715686
0.98161765 0.49252451 0.61372549
0.99803922 0.49803922 0.61372549
0.0039215686 0.67279412 0.61372549
0.0075980392 0.66626838 0.61372549
0.15379902 0.6622549 0.60980392
0.3245098 0.6622549 0.60588235
0.49607843 0.66372549 0.61176471
0.65879289 0.66709559 0.62083333
0.82873775 0.65661765 0.61323529
0.98128064 0.65441176 0.61191789
0.99460784 0.65441176 0.61372549
0 0.83627451 0.62009804
0.0050857843 0.82843137 0.61764706
0.14730392 0.82058824 0.61654412
0.3245098 0.82843137 0.60857843
0.49583333 0.82867647 0.61102941
0.65104167 0.8245098 0.61764706
0.82022059 0.81421569 0.61519608
0.97144608 0.81666667 0.61372549
0.99215686 0.81715686 0.61176471
0 0.97181373 0.6252451
0 0.97230392 0.6252451
0.15625 0.98143382 0.62156863
0.32990196 0.97794118 0.61372549
0.49215686 0.97745098 0.61568627
0.65441176 0.97215074 0.61969975
0.8127451 0.96390931 0.61764706
0.96715686 0.97496936 0.61764706
0.99411765 0.97818627 0.61372549
0.0019607843 1 0.60980392
0.0036764706 1 0.61764706
0.15588235 1 0.61960784
0.32843137 1 0.61127451
0.49117647 1 0.61372549
0.64656863 0.99607843 0.62156863
0.80882353 0.9872549 0.61715686
0.96151961 1 0.61764706
0.99215686 1 0.61372549
0.0078431373 0.011764706 0.70098039
0.02254902 0.0078431373 0.69313725
0.16090686 0.0039215686 0.68737745
0.32506127 0 0.68137255
0.48186275 0.0039215686 0.68137255
0.64411765 0.011764706 0.68529412
0.81556373 0.011764706 0.68529412
0.978125 0.0078431373 0.68106618
1 0.0078431373 0.67892157
0.0041053922 0.014215686 0.69705882
0.008984375 0.011764706 0.69344363
0.15980392 0.013419118 0.68529412
0.32372089 0.021560968 0.68137255
0.48431373 0.014797794 0.68137255
0.64656863 0.029296875 0.68529412
0.81787684 0.050582108 0.68921569
0.98529412 0.057843137 0.68890931
0.99607843 0.055392157 0.68658088
0.0078431373 0.16164216 0.69705882
0.027267157 0.16367953 0.69281556
0.16372549 0.16372549 0.68556985
0.32561275 0.16021752 0.67938113
0.48357843 0.15661765 0.68529412
0.64767157 0.16164216 0.68736213
0.82104779 0.1611826 0.68921569
0.98627451 0.15625 0.69054841
0.98762255 0.16372549 0.68676471
0.0039215686 0.32506127 0.69761029
0.043933824 0.3258655 0.69099265
0.16372549 0.33082108 0.68829657
0.32598039 0.32506127 0.68921569
0.48431373 0.31890319 0.69240196
0.65464154 0.32655484 0.69258578
0.82317708 0.32359069 0.68860294
0.97832414 0.32598039 0.68658088
0.99307598 0.32751225 0.68229167
0.0078431373 0.49338235 0.69313725
0.037653186 0.49402574 0.68422181
0.1713848 0.5 0.68406863
0.32794118 0.49335172 0.68606005
0.48946078 0.48615196 0.69313725
0.66056985 0.49607843 0.68921569
0.82150735 0.49803922 0.68578431
0.97303922 0.49402574 0.69166667
0.99607843 0.49460784 0.68921569
0.010232843 0.66709559 0.69221814
0.035294118 0.66236979 0.69137561
0.15588235 0.6600337 0.69852941
0.32655484 0.65683977 0.68921569
0.49607843 0.65741422 0.68529412
0.66020987 0.66560202 0.68529412
0.82058824 0.66617647 0.68529412
0.96470588 0.66096048 0.68921569
0.99460784 0.65441176 0.68921569
0.0078431373 0.83235294 0.70098039
0.021568627 0.82486213 0.69987745
0.15542279 0.82141544 0.69733456
0.32843137 0.82340686 0.69313725
0.5 0.82640931 0.68578431
0.65833333 0.8245098 0.68529412
0.81976103 0.8245098 0.68590686
0.96657475 0.82058824 0.68529412
0.98823529 0.82058824 0.6870098
0.0039215686 0.94969363 0.7004902
0.0034313725 0.94577206 0.69705882
0.15980392 0.970144 0.69522059
0.32990196 0.98370864 0.69613971
0.49681373 0.97533701 0.69313725
0.66232384 0.96764706 0.69313725
0.82495404 0.97424939 0.69336703
0.97979473 0.97459406 0.69166667
0.98823529 0.97401961 0.6877451
0.0039215686 0.99068627 0.68921569
0.0073529412 0.98823529 0.68921569
0.15919118 0.99963235 0.69313725
0.32990196 1 0.69313725
0.49681373 0.99803922 0.69313725
0.66280637 0.99607843 0.69313725
0.82843137 0.99571078 0.69313725
0.98351716 0.99607843 0.68921569
0.98823529 0.99852941 0.68529412
0.011764706 0 0.75098039
0.049019608 0 0.75392157
0.16838235 0 0.75098039
0.33443627 0 0.74313725
0.48921569 0.0039215686 0.74313725
0.6504902 0.011764706 0.74313725
0.81666667 0.011519608 0.74607843
0.98137255 0 0.75012255
0.99607843 0.0039215686 0.74705882
0.0069852941 0.006372549 0.75098039
0.045465686 0.0073529412 0.75098039
0.15931373 0.0034313725 0.74779412
0.32628676 0.013587623 0.74313725
0.48939951 0.0086397059 0.74313725
0.6504902 0.030392157 0.74607843
0.81764706 0.035876225 0.74313725
0.96335784 0.02510723 0.74607843
0.975 0.040686275 0.74313725
0.0039215686 0.15588235 0.75098039
0.038112745 0.15980392 0.75098039
0.16372549 0.16666667 0.74779412
0.32659314 0.16372549 0.74705882
0.48431373 0.15931373 0.74705882
0.6606924 0.16017157 0.75428922
0.82003676 0.15980392 0.75
0.97794118 0.16372549 0.74990809
0.99607843 0.16764706 0.74705882
0.0039215686 0.32205882 0.75098039
0.044592525 0.32976409 0.74719669
0.16510417 0.33627451 0.74313725
0.32561275 0.32745098 0.74607843
0.48431373 0.31813725 0.74607843
0.65104167 0.31882659 0.75
0.81764706 0.32123162 0.74705882
0.97058824 0.32598039 0.74410233
0.99816176 0.32598039 0.74313725
0.0053921569 0.48431373 0.75098039
0.043137255 0.49258578 0.74620098
0.16605392 0.49534314 0.74571078
0.32689951 0.4870098 0.74264706
0.48946078 0.48039216 0.74607843
0.65410539 0.48651961 0.746875
0.81911765 0.49411765 0.74607843
0.95931373 0.48823529 0.74656863
1 0.48627451 0.74607843
0.011764706 0.65441176 0.75098039
0.031556373 0.65477941 0.74963235
0.15980392 0.65588235 0.75171569
0.32728248 0.65441176 0.74705882
0.49215686 0.65018382 0.7463848
0.6551011 0.65482537 0.74313725
0.82058824 0.66617647 0.74313725
0.96199449 0.65966605 0.74705882
0.99607843 0.65085784 0.74705882
0.0080882353 0.82156863 0.75392157
0.0041360294 0.8245098 0.75171569
0.15588235 0.82886029 0.7533701
0.33235294 0.82659314 0.7502451
0.49767157 0.81666667 0.74705882
0.65539216 0.82058824 0.74313725
0.82058824 0.8278799 0.74313725
0.96590074 0.82414216 0.74240196
0.99215686 0.82058824 0.74313725
0.0088235294 0.98872549 0.76176471
0.0087009804 0.9884038 0.75807292
0.15750613 0.98226103 0.75796569
0.33382353 0.971875 0.75490196
0.49626225 0.9747549 0.75098039
0.66622243 0.97375919 0.74889706
0.82843137 0.97696078 0.74705882
0.98196998 0.97291667 0.74705882
0.99705882 0.96948529 0.74705882
0.0049019608 0.99215686 0.75882353
0.0087009804 0.98921569 0.75882353
0.16691176 0.99926471 0.75882353
0.3377451 0.99938725 0.75490196
0.50392157 1 0.75441176
0.67046569 0.99460784 0.74889706
0.83235294 0.98259804 0.74681373
0.97745098 0.9754902 0.74620098
0.99607843 0.97941176 0.74607843
0.0039215686 0 0.79656863
0.025551471 0.003002451 0.79699755
0.17058824 0.0078431373 0.79656863
0.3377451 0.012254902 0.79313725
0.49215686 0.0078431373 0.78921569
0.6504902 0.0078431373 0.78903186
0.81666667 0.0078431373 0.79007353
0.9745098 0.0039215686 0.7966299
0.99264706 0.0039215686 0.79656863
0.00006127451 0.0082720588 0.79656863
0.018137255 0.012078738 0.7966299
0.16798407 0.023529412 0.79313725
0.32598039 0.020059743 0.79426317
0.48823529 0.029166667 0.78921569
0.6504902 0.030170037 0.78872549
0.81764706 0.017447917 0.78872549
0.95441176 0.02310049 0.78872549
0.97352941 0.018198529 0.78921569
0 0.16678922 0.79656863
0.011657475 0.16689645 0.79929534
0.16053922 0.16639093 0.79656863
0.3245098 0.160769 0.79283088
0.48431373 0.15716912 0.78884804
0.65226716 0.15796569 0.79264706
0.81666667 0.1609375 0.79178922
0.97254902 0.16764706 0.78835784
1 0.16764706 0.79264706
0.0039215686 0.33039216 0.79656863
0.0098039216 0.32892157 0.79675245
0.15894608 0.32879902 0.79656863
0.32316942 0.32286305 0.78879442
0.48627451 0.31920956 0.78872549
0.65196078 0.31813725 0.79264706
0.82058824 0.32205882 0.79264706
0.97058824 0.32598039 0.78870251
1 0.32941176 0.79246324
0.0075980392 0.49044118 0.79656863
0.020159314 0.49586397 0.79463848
0.15980392 0.49215686 0.79485294
0.3245098 0.48627451 0.79050245
0.48848039 0.48235294 0.79264706
0.65523897 0.48308824 0.79656863
0.82058824 0.49019608 0.79264706
0.9786152 0.49016544 0.79656863
0.99803922 0.48627451 0.79264706
0.0078431373 0.65980392 0.8004902
0.0036151961 0.65851716 0.8004902
0.1627451 0.65870098 0.79656863
0.32898284 0.65588235 0.79283088
0.49215686 0.6495098 0.79656863
0.65496324 0.65184589 0.79786305
0.82058824 0.66262255 0.79264706
0.96219363 0.66372549 0.79264706
0.99215686 0.65618873 0.78921569
0.015808824 0.8254902 0.79705882
0.012622549 0.82193627 0.79431679
0.16865809 0.8325674 0.79335172
0.33382353 0.83074449 0.79656863
0.49607843 0.82058824 0.79656863
0.65833333 0.81505821 0.79656863
0.82058824 0.8245098 0.7924326
0.98186275 0.8245098 0.79264706
0.99693627 0.81973039 0.78909314
0.027941176 0.98186275 0.80441176
0.02745098 0.98186275 0.80441176
0.16666667 0.9779565 0.80098039
0.3377451 0.97794118 0.8004902
0.49561887 0.9745098 0.8004902
0.66194853 0.97009804 0.79656863
0.82463235 0.96617647 0.78872549
0.97745098 0.95758272 0.78921569
0.99215686 0.95 0.78872549
0.015686275 0.99656863 0.8004902
0.026960784 0.99650735 0.8004902
0.17058824 1 0.80061275
0.34411765 1 0.8004902
0.4997549 1 0.80098039
0.66354167 0.99460784 0.79656863
0.82941176 0.98480392 0.78872549
0.98137255 0.98088235 0.78872549
0.99215686 0.98039216 0.78872549
0.0078431373 0.0039215686 0.83137255
0.0078431373 0 0.83921569
0.17058824 0.034313725 0.83137255
0.33382353 0.044607843 0.82745098
0.49607843 0.0058823529 0.83333333
0.64803922 0.0039215686 0.82745098
0.82058824 0.0039215686 0.82352941
0.9745098 0.0078431373 0.81568627
1 0.0039215686 0.82352941
0.0078431373 0.03872549 0.82745098
0.011764706 0.042156863 0.83137255
0.16409314 0.057352941 0.83137255
0.32598039 0.060294118 0.83480392
0.48455882 0.055882353 0.82745098
0.6504902 0.03627451 0.82714461
0.8122549 0.0091911765 0.82647059
0.93872549 0.041176471 0.81617647
1 0 0.83480392
0.0039215686 0.17058824 0.81666667
0.0073529412 0.17058824 0.81666667
0.1627451 0.15980392 0.82745098
0.3245098 0.15134804 0.8317402
0.4877451 0.15 0.82352941
0.66262255 0.15196078 0.82352941
0.8127451 0.1627451 0.81102941
0.95735294 0.17022059 0.79620098
1 0.15980392 0.81960784
0.0024509804 0.3377451 0.81813725
0.0073529412 0.3377451 0.81942402
0.16372549 0.32267157 0.82843137
0.32990196 0.31329657 0.82352941
0.49215686 0.31029412 0.81960784
0.65441176 0.31421569 0.82352941
0.81666667 0.32205882 0.81862745
0.96488971 0.32598039 0.80637255
1 0.32205882 0.81568627
0.0039215686 0.49607843 0.8254902
0.0034313725 0.49607843 0.82941176
0.1627451 0.48823529 0.82745098
0.32990196 0.48039216 0.82352941
0.49607843 0.48039216 0.82352941
0.6622549 0.48308824 0.82892157
0.8245098 0.48823529 0.83431373
0.98259804 0.49019608 0.82941176
1 0.48235294 0.82745098
0.0039215686 0.65980392 0.81176471
0.0073529412 0.6622549 0.81323529
0.16090686 0.65441176 0.8189951
0.32843137 0.65588235 0.82598039
0.49534314 0.65588235 0.82745098
0.65680147 0.65343137 0.82199755
0.8245098 0.65980392 0.82745098
0.97530637 0.65588235 0.82745098
0.99215686 0.65196078 0.82352941
0.016666667 0.83333333 0.83137255
0.011887255 0.82585784 0.83517157
0.17254902 0.82843137 0.82843137
0.33811275 0.82843137 0.83137255
0.49215686 0.82647059 0.82745098
0.65833333 0.82843137 0.83137255
0.8252451 0.82843137 0.82352941
0.98394608 0.82107843 0.82352941
0.99215686 0.8254902 0.81960784
0.034803922 0.98529412 0.82352941
0.031372549 0.98186275 0.82352941
0.1745098 0.97058824 0.82745098
0.33529412 0.97696078 0.83529412
0.49215686 0.97843137 0.83210784
0.65441176 0.97303922 0.83382353
0.82144608 0.96629902 0.82365196
0.98431373 0.98278186 0.83572304
0.9877451 0.97009804 0.82401961
0.015686275 1 0.83137255
0.011764706 1 0.83480392
0.17941176 0.99607843 0.83137255
0.34166667 1 0.83529412
0.49215686 1 0.83529412
0.64803922 0.99852941 0.83137255
0.82058824 0.99607843 0.82352941
0.98431373 1 0.83480392
0.98431373 0.99215686 0.82352941
