site/assets/luts/sha256-f298e34b955ee14c69b6fe1bf7215647b490856fd7e68756988d5ddb99cf3f3d.cube
# LUTr-Schema-Version: 2
# LUTr-ID: sha256-f298e34b955ee14c69b6fe1bf7215647b490856fd7e68756988d5ddb99cf3f3d
# LUTr-Title: fuji ilford delta 3200 -
# LUTr-Collection: Natron HaldCLUT
# LUTr-Collection-ID: natron-haldclut-presets
# LUTr-Source: https://github.com/NatronGitHub/clut
# LUTr-Retrieved: 2026-07-27
# LUTr-Source-File: submissions/natron-haldclut-presets/negative_old/fuji_ilford_delta_3200_-.png
# LUTr-Source-Format: HALD-PNG
# LUTr-Source-SHA256: f298e34b955ee14c69b6fe1bf7215647b490856fd7e68756988d5ddb99cf3f3d
# LUTr-License: CC-BY-SA-4.0
# LUTr-License-URL: https://github.com/NatronGitHub/clut#license
# LUTr-License-Basis: repo-license-file
# LUTr-Transform-Class: film-emulation
# LUTr-Tags: creative, film, film-emulation, hald-clut, natron, png, cube
# LUTr-Input-Color-Space: srgb
# LUTr-Input-Gamut: rec709
# LUTr-Input-Transfer: srgb
# LUTr-Output-Color-Space: srgb
# LUTr-Output-Gamut: rec709
# LUTr-Output-Transfer: srgb
# LUTr-Color-Space-Confidence: assumed-display-referred
# LUTr-Domain-Normalized: true
# LUTr-Shaper: none
# LUTr-Original-Grid: 64x64x64
# LUTr-Conversion-Grid: 25x25x25
# LUTr-Conversion-Interpolation: trilinear
# LUTr-Conversion-Method: HALD-PNG LUT image decoded at 16-bit and sampled to 25x25x25 3D CUBE
# LUTr-Conversion-Tool: LUTr scripts/convert-all-to-cube.mjs 2.0.0
# LUTr-Conversion-Date: 2026-07-27
# LUTr-Note: Preserve this metadata and the upstream license notices when redistributing.
TITLE "fuji ilford delta 3200 -"
LUT_3D_SIZE 25
DOMAIN_MIN 0 0 0
DOMAIN_MAX 1 1 1
0.062745098 0.062745098 0.062745098
0.065196078 0.065196078 0.065196078
0.066666667 0.066666667 0.066666667
0.066666667 0.066666667 0.066666667
0.066666667 0.066666667 0.066666667
0.070588235 0.070588235 0.070588235
0.07745098 0.07745098 0.07745098
0.083823529 0.083823529 0.083823529
0.094117647 0.094117647 0.094117647
0.10539216 0.10539216 0.10539216
0.14019608 0.14019608 0.14019608
0.17107843 0.17107843 0.17107843
0.20196078 0.20196078 0.20196078
0.23333333 0.23333333 0.23333333
0.26764706 0.26764706 0.26764706
0.29705882 0.29705882 0.29705882
0.3254902 0.3254902 0.3254902
0.35637255 0.35637255 0.35637255
0.38235294 0.38235294 0.38235294
0.41029412 0.41029412 0.41029412
0.4372549 0.4372549 0.4372549
0.46862745 0.46862745 0.46862745
0.50980392 0.50980392 0.50980392
0.55098039 0.55098039 0.55098039
0.59215686 0.59215686 0.59215686
0.062745098 0.062745098 0.062745098
0.065196078 0.065196078 0.065196078
0.066666667 0.066666667 0.066666667
0.066666667 0.066666667 0.066666667
0.066666667 0.066666667 0.066666667
0.067156863 0.067156863 0.067156863
0.075 0.075 0.075
0.087745098 0.087745098 0.087745098
0.1004902 0.1004902 0.1004902
0.12107843 0.12107843 0.12107843
0.14203431 0.14203431 0.14203431
0.16893382 0.16893382 0.16893382
0.20196078 0.20196078 0.20196078
0.23547794 0.23547794 0.23547794
0.26764706 0.26764706 0.26764706
0.29852941 0.29852941 0.29852941
0.3254902 0.3254902 0.3254902
0.35392157 0.35392157 0.35392157
0.38235294 0.38235294 0.38235294
0.41029412 0.41029412 0.41029412
0.4372549 0.4372549 0.4372549
0.46813725 0.46813725 0.46813725
0.50588235 0.50588235 0.50588235
0.55098039 0.55098039 0.55098039
0.58970588 0.58970588 0.58970588
0.062745098 0.062745098 0.062745098
0.065563725 0.065563725 0.065563725
0.067647059 0.067647059 0.067647059
0.067647059 0.067647059 0.067647059
0.067156863 0.067156863 0.067156863
0.066666667 0.066666667 0.066666667
0.07745098 0.07745098 0.07745098
0.098039216 0.098039216 0.098039216
0.11568627 0.11568627 0.11568627
0.13627451 0.13627451 0.13627451
0.15588235 0.15588235 0.15588235
0.17732843 0.17732843 0.17732843
0.20686275 0.20686275 0.20686275
0.2377451 0.2377451 0.2377451
0.26862745 0.26862745 0.26862745
0.29852941 0.29852941 0.29852941
0.32647059 0.32647059 0.32647059
0.35453431 0.35453431 0.35453431
0.38333333 0.38333333 0.38333333
0.41164216 0.41164216 0.41164216
0.43970588 0.43970588 0.43970588
0.46911765 0.46911765 0.46911765
0.50588235 0.50588235 0.50588235
0.54705882 0.54705882 0.54705882
0.58039216 0.58039216 0.58039216
0.062745098 0.062745098 0.062745098
0.072242647 0.072242647 0.072242647
0.074877451 0.074877451 0.074877451
0.077941176 0.077941176 0.077941176
0.077696078 0.077696078 0.077696078
0.077941176 0.077941176 0.077941176
0.091176471 0.091176471 0.091176471
0.10833333 0.10833333 0.10833333
0.12892157 0.12892157 0.12892157
0.1495098 0.1495098 0.1495098
0.17009804 0.17009804 0.17009804
0.19454657 0.19454657 0.19454657
0.22279412 0.22279412 0.22279412
0.25196078 0.25196078 0.25196078
0.27977941 0.27977941 0.27977941
0.30588235 0.30588235 0.30588235
0.32941176 0.32941176 0.32941176
0.35765931 0.35765931 0.35765931
0.38676471 0.38676471 0.38676471
0.41464461 0.41464461 0.41464461
0.44460784 0.44460784 0.44460784
0.47598039 0.47598039 0.47598039
0.51323529 0.51323529 0.51323529
0.553125 0.553125 0.553125
0.5877451 0.5877451 0.5877451
0.082352941 0.082352941 0.082352941
0.083578431 0.083578431 0.083578431
0.084803922 0.084803922 0.084803922
0.088235294 0.088235294 0.088235294
0.092156863 0.092156863 0.092156863
0.096323529 0.096323529 0.096323529
0.10294118 0.10294118 0.10294118
0.12254902 0.12254902 0.12254902
0.14313725 0.14313725 0.14313725
0.16495098 0.16495098 0.16495098
0.18823529 0.18823529 0.18823529
0.2125 0.2125 0.2125
0.24019608 0.24019608 0.24019608
0.26617647 0.26617647 0.26617647
0.29313725 0.29313725 0.29313725
0.31862745 0.31862745 0.31862745
0.34313725 0.34313725 0.34313725
0.36691176 0.36691176 0.36691176
0.39313725 0.39313725 0.39313725
0.42058824 0.42058824 0.42058824
0.45294118 0.45294118 0.45294118
0.4879902 0.4879902 0.4879902
0.52401961 0.52401961 0.52401961
0.56078431 0.56078431 0.56078431
0.59411765 0.59411765 0.59411765
0.098529412 0.098529412 0.098529412
0.096384804 0.096384804 0.096384804
0.094607843 0.094607843 0.094607843
0.097610294 0.097610294 0.097610294
0.10441176 0.10441176 0.10441176
0.11029412 0.11029412 0.11029412
0.11323529 0.11323529 0.11323529
0.13302696 0.13302696 0.13302696
0.15735294 0.15735294 0.15735294
0.18057598 0.18057598 0.18057598
0.20379902 0.20379902 0.20379902
0.23045343 0.23045343 0.23045343
0.25563725 0.25563725 0.25563725
0.27990196 0.27990196 0.27990196
0.30441176 0.30441176 0.30441176
0.32892157 0.32892157 0.32892157
0.35392157 0.35392157 0.35392157
0.38039216 0.38039216 0.38039216
0.40637255 0.40637255 0.40637255
0.43088235 0.43088235 0.43088235
0.46495098 0.46495098 0.46495098
0.5004902 0.5004902 0.5004902
0.53823529 0.53823529 0.53823529
0.5754902 0.5754902 0.5754902
0.60931373 0.60931373 0.60931373
0.10882353 0.10882353 0.10882353
0.10882353 0.10882353 0.10882353
0.10784314 0.10784314 0.10784314
0.10490196 0.10490196 0.10490196
0.11764706 0.11764706 0.11764706
0.12745098 0.12745098 0.12745098
0.13039216 0.13039216 0.13039216
0.15 0.15 0.15
0.1745098 0.1745098 0.1745098
0.19791667 0.19791667 0.19791667
0.22132353 0.22132353 0.22132353
0.24767157 0.24767157 0.24767157
0.27107843 0.27107843 0.27107843
0.29411765 0.29411765 0.29411765
0.31764706 0.31764706 0.31764706
0.34252451 0.34252451 0.34252451
0.36764706 0.36764706 0.36764706
0.3939951 0.3939951 0.3939951
0.41764706 0.41764706 0.41764706
0.44460784 0.44460784 0.44460784
0.47352941 0.47352941 0.47352941
0.51078431 0.51078431 0.51078431
0.55196078 0.55196078 0.55196078
0.59607843 0.59607843 0.59607843
0.63627451 0.63627451 0.63627451
0.13382353 0.13382353 0.13382353
0.13382353 0.13382353 0.13382353
0.13419118 0.13419118 0.13419118
0.13743873 0.13743873 0.13743873
0.14754902 0.14754902 0.14754902
0.15784314 0.15784314 0.15784314
0.16629902 0.16629902 0.16629902
0.1745098 0.1745098 0.1745098
0.19117647 0.19117647 0.19117647
0.21568627 0.21568627 0.21568627
0.24019608 0.24019608 0.24019608
0.26452206 0.26452206 0.26452206
0.28921569 0.28921569 0.28921569
0.31372549 0.31372549 0.31372549
0.3372549 0.3372549 0.3372549
0.35974265 0.35974265 0.35974265
0.38333333 0.38333333 0.38333333
0.40784314 0.40784314 0.40784314
0.43125 0.43125 0.43125
0.45539216 0.45539216 0.45539216
0.48455882 0.48455882 0.48455882
0.52107843 0.52107843 0.52107843
0.5622549 0.5622549 0.5622549
0.60588235 0.60588235 0.60588235
0.63921569 0.63921569 0.63921569
0.16862745 0.16862745 0.16862745
0.16862745 0.16862745 0.16862745
0.16862745 0.16862745 0.16862745
0.17254902 0.17254902 0.17254902
0.17843137 0.17843137 0.17843137
0.19264706 0.19264706 0.19264706
0.19901961 0.19901961 0.19901961
0.20539216 0.20539216 0.20539216
0.21568627 0.21568627 0.21568627
0.23627451 0.23627451 0.23627451
0.25686275 0.25686275 0.25686275
0.28137255 0.28137255 0.28137255
0.30588235 0.30588235 0.30588235
0.33088235 0.33088235 0.33088235
0.35490196 0.35490196 0.35490196
0.37941176 0.37941176 0.37941176
0.4 0.4 0.4
0.4245098 0.4245098 0.4245098
0.44901961 0.44901961 0.44901961
0.47303922 0.47303922 0.47303922
0.49607843 0.49607843 0.49607843
0.53137255 0.53137255 0.53137255
0.57254902 0.57254902 0.57254902
0.6122549 0.6122549 0.6122549
0.64313725 0.64313725 0.64313725
0.20343137 0.20343137 0.20343137
0.20343137 0.20343137 0.20343137
0.20588235 0.20588235 0.20588235
0.20735294 0.20735294 0.20735294
0.21323529 0.21323529 0.21323529
0.22352941 0.22352941 0.22352941
0.23272059 0.23272059 0.23272059
0.23872549 0.23872549 0.23872549
0.24656863 0.24656863 0.24656863
0.26078431 0.26078431 0.26078431
0.27745098 0.27745098 0.27745098
0.30147059 0.30147059 0.30147059
0.3252451 0.3252451 0.3252451
0.34883578 0.34883578 0.34883578
0.37156863 0.37156863 0.37156863
0.39607843 0.39607843 0.39607843
0.41813725 0.41813725 0.41813725
0.44117647 0.44117647 0.44117647
0.46605392 0.46605392 0.46605392
0.49019608 0.49019608 0.49019608
0.51470588 0.51470588 0.51470588
0.54773284 0.54773284 0.54773284
0.58345588 0.58345588 0.58345588
0.61917892 0.61917892 0.61917892
0.6495098 0.6495098 0.6495098
0.23921569 0.23921569 0.23921569
0.23921569 0.23921569 0.23921569
0.24240196 0.24240196 0.24240196
0.24571078 0.24571078 0.24571078
0.24852941 0.24852941 0.24852941
0.25796569 0.25796569 0.25796569
0.26470588 0.26470588 0.26470588
0.27107843 0.27107843 0.27107843
0.27745098 0.27745098 0.27745098
0.29056373 0.29056373 0.29056373
0.30514706 0.30514706 0.30514706
0.32254902 0.32254902 0.32254902
0.34313725 0.34313725 0.34313725
0.36764706 0.36764706 0.36764706
0.39044118 0.39044118 0.39044118
0.41384804 0.41384804 0.41384804
0.4372549 0.4372549 0.4372549
0.45784314 0.45784314 0.45784314
0.48308824 0.48308824 0.48308824
0.50943627 0.50943627 0.50943627
0.53333333 0.53333333 0.53333333
0.56323529 0.56323529 0.56323529
0.59411765 0.59411765 0.59411765
0.62892157 0.62892157 0.62892157
0.65980392 0.65980392 0.65980392
0.27647059 0.27647059 0.27647059
0.27677696 0.27677696 0.27677696
0.28039216 0.28039216 0.28039216
0.28088235 0.28088235 0.28088235
0.28455882 0.28455882 0.28455882
0.28921569 0.28921569 0.28921569
0.29644608 0.29644608 0.29644608
0.30410539 0.30410539 0.30410539
0.3122549 0.3122549 0.3122549
0.32254902 0.32254902 0.32254902
0.33382353 0.33382353 0.33382353
0.3504902 0.3504902 0.3504902
0.36544118 0.36544118 0.36544118
0.38480392 0.38480392 0.38480392
0.40882353 0.40882353 0.40882353
0.42990196 0.42990196 0.42990196
0.45392157 0.45392157 0.45392157
0.47481618 0.47481618 0.47481618
0.49914216 0.49914216 0.49914216
0.52395833 0.52395833 0.52395833
0.5502451 0.5502451 0.5502451
0.58088235 0.58088235 0.58088235
0.61176471 0.61176471 0.61176471
0.64264706 0.64264706 0.64264706
0.67352941 0.67352941 0.67352941
0.31176471 0.31176471 0.31176471
0.31372549 0.31372549 0.31372549
0.31568627 0.31568627 0.31568627
0.31568627 0.31568627 0.31568627
0.31960784 0.31960784 0.31960784
0.32352941 0.32352941 0.32352941
0.33039216 0.33039216 0.33039216
0.33676471 0.33676471 0.33676471
0.34313725 0.34313725 0.34313725
0.35343137 0.35343137 0.35343137
0.36470588 0.36470588 0.36470588
0.37794118 0.37794118 0.37794118
0.39117647 0.39117647 0.39117647
0.40490196 0.40490196 0.40490196
0.4254902 0.4254902 0.4254902
0.44607843 0.44607843 0.44607843
0.46862745 0.46862745 0.46862745
0.48921569 0.48921569 0.48921569
0.51421569 0.51421569 0.51421569
0.5379902 0.5379902 0.5379902
0.56666667 0.56666667 0.56666667
0.60147059 0.60147059 0.60147059
0.63235294 0.63235294 0.63235294
0.66446078 0.66446078 0.66446078
0.69215686 0.69215686 0.69215686
0.34705882 0.34705882 0.34705882
0.34705882 0.34705882 0.34705882
0.34791667 0.34791667 0.34791667
0.3504902 0.3504902 0.3504902
0.35269608 0.35269608 0.35269608
0.35533088 0.35533088 0.35533088
0.35833333 0.35833333 0.35833333
0.36715686 0.36715686 0.36715686
0.37401961 0.37401961 0.37401961
0.38431373 0.38431373 0.38431373
0.39460784 0.39460784 0.39460784
0.40790441 0.40790441 0.40790441
0.41911765 0.41911765 0.41911765
0.42941176 0.42941176 0.42941176
0.44571078 0.44571078 0.44571078
0.46617647 0.46617647 0.46617647
0.48676471 0.48676471 0.48676471
0.50765931 0.50765931 0.50765931
0.52928922 0.52928922 0.52928922
0.55637255 0.55637255 0.55637255
0.5872549 0.5872549 0.5872549
0.61862745 0.61862745 0.61862745
0.65294118 0.65294118 0.65294118
0.6877451 0.6877451 0.6877451
0.71470588 0.71470588 0.71470588
0.38529412 0.38529412 0.38529412
0.38431373 0.38431373 0.38431373
0.38431373 0.38431373 0.38431373
0.38517157 0.38517157 0.38517157
0.38676471 0.38676471 0.38676471
0.38921569 0.38921569 0.38921569
0.39215686 0.39215686 0.39215686
0.3935049 0.3935049 0.3935049
0.40098039 0.40098039 0.40098039
0.41188725 0.41188725 0.41188725
0.4254902 0.4254902 0.4254902
0.43578431 0.43578431 0.43578431
0.44607843 0.44607843 0.44607843
0.45637255 0.45637255 0.45637255
0.46593137 0.46593137 0.46593137
0.48333333 0.48333333 0.48333333
0.50392157 0.50392157 0.50392157
0.5245098 0.5245098 0.5245098
0.54901961 0.54901961 0.54901961
0.57696078 0.57696078 0.57696078
0.60784314 0.60784314 0.60784314
0.63921569 0.63921569 0.63921569
0.67352941 0.67352941 0.67352941
0.70833333 0.70833333 0.70833333
0.73529412 0.73529412 0.73529412
0.42401961 0.42401961 0.42401961
0.42156863 0.42156863 0.42156863
0.42156863 0.42156863 0.42156863
0.42156863 0.42156863 0.42156863
0.42156863 0.42156863 0.42156863
0.42401961 0.42401961 0.42401961
0.42401961 0.42401961 0.42401961
0.42401961 0.42401961 0.42401961
0.42794118 0.42794118 0.42794118
0.44068627 0.44068627 0.44068627
0.45343137 0.45343137 0.45343137
0.46666667 0.46666667 0.46666667
0.47696078 0.47696078 0.47696078
0.48333333 0.48333333 0.48333333
0.49252451 0.49252451 0.49252451
0.50245098 0.50245098 0.50245098
0.52058824 0.52058824 0.52058824
0.54601716 0.54601716 0.54601716
0.57058824 0.57058824 0.57058824
0.59540441 0.59540441 0.59540441
0.62647059 0.62647059 0.62647059
0.65980392 0.65980392 0.65980392
0.69411765 0.69411765 0.69411765
0.72892157 0.72892157 0.72892157
0.75980392 0.75980392 0.75980392
0.4627451 0.4627451 0.4627451
0.45882353 0.45882353 0.45882353
0.45882353 0.45882353 0.45882353
0.45882353 0.45882353 0.45882353
0.45882353 0.45882353 0.45882353
0.45882353 0.45882353 0.45882353
0.45882353 0.45882353 0.45882353
0.45882353 0.45882353 0.45882353
0.4627451 0.4627451 0.4627451
0.47303922 0.47303922 0.47303922
0.4872549 0.4872549 0.4872549
0.49754902 0.49754902 0.49754902
0.50784314 0.50784314 0.50784314
0.51813725 0.51813725 0.51813725
0.5245098 0.5245098 0.5245098
0.53088235 0.53088235 0.53088235
0.54901961 0.54901961 0.54901961
0.56960784 0.56960784 0.56960784
0.59509804 0.59509804 0.59509804
0.61862745 0.61862745 0.61862745
0.64901961 0.64901961 0.64901961
0.68039216 0.68039216 0.68039216
0.71470588 0.71470588 0.71470588
0.7495098 0.7495098 0.7495098
0.77647059 0.77647059 0.77647059
0.5 0.5 0.5
0.5 0.5 0.5
0.49718137 0.49718137 0.49718137
0.49607843 0.49607843 0.49607843
0.49877451 0.49877451 0.49877451
0.5 0.5 0.5
0.5 0.5 0.5
0.50300245 0.50300245 0.50300245
0.50784314 0.50784314 0.50784314
0.5151348 0.5151348 0.5151348
0.5245098 0.5245098 0.5245098
0.53480392 0.53480392 0.53480392
0.54264706 0.54264706 0.54264706
0.54901961 0.54901961 0.54901961
0.55637255 0.55637255 0.55637255
0.56960784 0.56960784 0.56960784
0.58627451 0.58627451 0.58627451
0.60140931 0.60140931 0.60140931
0.62254902 0.62254902 0.62254902
0.64558824 0.64558824 0.64558824
0.66960784 0.66960784 0.66960784
0.70067402 0.70067402 0.70067402
0.73529412 0.73529412 0.73529412
0.76764706 0.76764706 0.76764706
0.79313725 0.79313725 0.79313725
0.54607843 0.54607843 0.54607843
0.54252451 0.54252451 0.54252451
0.54215686 0.54215686 0.54215686
0.53823529 0.53823529 0.53823529
0.54019608 0.54019608 0.54019608
0.54252451 0.54252451 0.54252451
0.54583333 0.54583333 0.54583333
0.54938725 0.54938725 0.54938725
0.55392157 0.55392157 0.55392157
0.55931373 0.55931373 0.55931373
0.56568627 0.56568627 0.56568627
0.57598039 0.57598039 0.57598039
0.58235294 0.58235294 0.58235294
0.58566176 0.58566176 0.58566176
0.59436275 0.59436275 0.59436275
0.60968137 0.60968137 0.60968137
0.62745098 0.62745098 0.62745098
0.64129902 0.64129902 0.64129902
0.65588235 0.65588235 0.65588235
0.67254902 0.67254902 0.67254902
0.69313725 0.69313725 0.69313725
0.72107843 0.72107843 0.72107843
0.75490196 0.75490196 0.75490196
0.79068627 0.79068627 0.79068627
0.81470588 0.81470588 0.81470588
0.59754902 0.59754902 0.59754902
0.59754902 0.59754902 0.59754902
0.59705882 0.59705882 0.59705882
0.59362745 0.59362745 0.59362745
0.59362745 0.59362745 0.59362745
0.59362745 0.59362745 0.59362745
0.59705882 0.59705882 0.59705882
0.59883578 0.59883578 0.59883578
0.60147059 0.60147059 0.60147059
0.60177696 0.60177696 0.60177696
0.60686275 0.60686275 0.60686275
0.61715686 0.61715686 0.61715686
0.62696078 0.62696078 0.62696078
0.6372549 0.6372549 0.6372549
0.64754902 0.64754902 0.64754902
0.65784314 0.65784314 0.65784314
0.67205882 0.67205882 0.67205882
0.68284314 0.68284314 0.68284314
0.69669118 0.69669118 0.69669118
0.70735294 0.70735294 0.70735294
0.72181373 0.72181373 0.72181373
0.74123775 0.74123775 0.74123775
0.7754902 0.7754902 0.7754902
0.81127451 0.81127451 0.81127451
0.83823529 0.83823529 0.83823529
0.65490196 0.65490196 0.65490196
0.65294118 0.65294118 0.65294118
0.65294118 0.65294118 0.65294118
0.65098039 0.65098039 0.65098039
0.64901961 0.64901961 0.64901961
0.65098039 0.65098039 0.65098039
0.65245098 0.65245098 0.65245098
0.65294118 0.65294118 0.65294118
0.65294118 0.65294118 0.65294118
0.64387255 0.64387255 0.64387255
0.65098039 0.65098039 0.65098039
0.66593137 0.66593137 0.66593137
0.67843137 0.67843137 0.67843137
0.69264706 0.69264706 0.69264706
0.6995098 0.6995098 0.6995098
0.70931373 0.70931373 0.70931373
0.72352941 0.72352941 0.72352941
0.73382353 0.73382353 0.73382353
0.74411765 0.74411765 0.74411765
0.75441176 0.75441176 0.75441176
0.76568627 0.76568627 0.76568627
0.77794118 0.77794118 0.77794118
0.80882353 0.80882353 0.80882353
0.84289216 0.84289216 0.84289216
0.8627451 0.8627451 0.8627451
0.7122549 0.7122549 0.7122549
0.71011029 0.71011029 0.71011029
0.70882353 0.70882353 0.70882353
0.70839461 0.70839461 0.70839461
0.70661765 0.70661765 0.70661765
0.70833333 0.70833333 0.70833333
0.70833333 0.70833333 0.70833333
0.70882353 0.70882353 0.70882353
0.70882353 0.70882353 0.70882353
0.70882353 0.70882353 0.70882353
0.70625 0.70625 0.70625
0.71917892 0.71917892 0.71917892
0.73382353 0.73382353 0.73382353
0.74454657 0.74454657 0.74454657
0.75441176 0.75441176 0.75441176
0.76096814 0.76096814 0.76096814
0.775 0.775 0.775
0.78529412 0.78529412 0.78529412
0.79558824 0.79558824 0.79558824
0.80588235 0.80588235 0.80588235
0.81397059 0.81397059 0.81397059
0.82297794 0.82297794 0.82297794
0.84963235 0.84963235 0.84963235
0.87107843 0.87107843 0.87107843
0.8872549 0.8872549 0.8872549
0.76666667 0.76666667 0.76666667
0.76764706 0.76764706 0.76764706
0.76666667 0.76666667 0.76666667
0.76409314 0.76409314 0.76409314
0.76372549 0.76372549 0.76372549
0.76372549 0.76372549 0.76372549
0.76593137 0.76593137 0.76593137
0.76875 0.76875 0.76875
0.77352941 0.77352941 0.77352941
0.77352941 0.77352941 0.77352941
0.77377451 0.77377451 0.77377451
0.77794118 0.77794118 0.77794118
0.7872549 0.7872549 0.7872549
0.79901961 0.79901961 0.79901961
0.80588235 0.80588235 0.80588235
0.81617647 0.81617647 0.81617647
0.82647059 0.82647059 0.82647059
0.83676471 0.83676471 0.83676471
0.84705882 0.84705882 0.84705882
0.85735294 0.85735294 0.85735294
0.86176471 0.86176471 0.86176471
0.86715686 0.86715686 0.86715686
0.88137255 0.88137255 0.88137255
0.89865196 0.89865196 0.89865196
0.90784314 0.90784314 0.90784314
0.81911765 0.81911765 0.81911765
0.82303922 0.82303922 0.82303922
0.82303922 0.82303922 0.82303922
0.82303922 0.82303922 0.82303922
0.81911765 0.81911765 0.81911765
0.81911765 0.81911765 0.81911765
0.82205882 0.82205882 0.82205882
0.82542892 0.82542892 0.82542892
0.83088235 0.83088235 0.83088235
0.83088235 0.83088235 0.83088235
0.83088235 0.83088235 0.83088235
0.83431373 0.83431373 0.83431373
0.83921569 0.83921569 0.83921569
0.846875 0.846875 0.846875
0.85588235 0.85588235 0.85588235
0.8622549 0.8622549 0.8622549
0.87107843 0.87107843 0.87107843
0.88137255 0.88137255 0.88137255
0.89105392 0.89105392 0.89105392
0.89822304 0.89822304 0.89822304
0.90318627 0.90318627 0.90318627
0.90833333 0.90833333 0.90833333
0.91470588 0.91470588 0.91470588
0.9283701 0.9283701 0.9283701
0.93235294 0.93235294 0.93235294
0.8627451 0.8627451 0.8627451
0.8627451 0.8627451 0.8627451
0.86764706 0.86764706 0.86764706
0.86715686 0.86715686 0.86715686
0.86666667 0.86666667 0.86666667
0.86666667 0.86666667 0.86666667
0.87058824 0.87058824 0.87058824
0.8745098 0.8745098 0.8745098
0.87843137 0.87843137 0.87843137
0.87843137 0.87843137 0.87843137
0.8745098 0.8745098 0.8745098
0.8745098 0.8745098 0.8745098
0.87843137 0.87843137 0.87843137
0.88235294 0.88235294 0.88235294
0.88235294 0.88235294 0.88235294
0.88235294 0.88235294 0.88235294
0.89019608 0.89019608 0.89019608
0.90441176 0.90441176 0.90441176
0.91862745 0.91862745 0.91862745
0.925 0.925 0.925
0.92941176 0.92941176 0.92941176
0.9377451 0.9377451 0.9377451
0.94411765 0.94411765 0.94411765
0.95294118 0.95294118 0.95294118
0.95294118 0.95294118 0.95294118
0.062745098 0.062745098 0.062745098
0.065196078 0.065196078 0.065196078
0.066666667 0.066666667 0.066666667
0.068811275 0.068811275 0.068811275
0.070588235 0.070588235 0.070588235
0.071078431 0.071078431 0.071078431
0.081372549 0.081372549 0.081372549
0.090196078 0.090196078 0.090196078
0.1004902 0.1004902 0.1004902
0.12052696 0.12052696 0.12052696
0.1504902 0.1504902 0.1504902
0.17745098 0.17745098 0.17745098
0.20833333 0.20833333 0.20833333
0.23676471 0.23676471 0.23676471
0.26764706 0.26764706 0.26764706
0.29852941 0.29852941 0.29852941
0.3254902 0.3254902 0.3254902
0.35637255 0.35637255 0.35637255
0.38296569 0.38296569 0.38296569
0.41029412 0.41029412 0.41029412
0.4372549 0.4372549 0.4372549
0.46813725 0.46813725 0.46813725
0.50588235 0.50588235 0.50588235
0.54460784 0.54460784 0.54460784
0.5754902 0.5754902 0.5754902
0.062745098 0.062745098 0.062745098
0.064238664 0.064238664 0.064238664
0.066666667 0.066666667 0.066666667
0.066666667 0.066666667 0.066666667
0.070128676 0.070128676 0.070128676
0.070894608 0.070894608 0.070894608
0.079901961 0.079901961 0.079901961
0.094462316 0.094462316 0.094462316
0.11078431 0.11078431 0.11078431
0.13116575 0.13116575 0.13116575
0.15219056 0.15219056 0.15219056
0.17664675 0.17664675 0.17664675
0.20514706 0.20514706 0.20514706
0.23676471 0.23676471 0.23676471
0.26764706 0.26764706 0.26764706
0.29852941 0.29852941 0.29852941
0.32794118 0.32794118 0.32794118
0.35637255 0.35637255 0.35637255
0.38333333 0.38333333 0.38333333
0.4104856 0.4104856 0.4104856
0.43802083 0.43802083 0.43802083
0.46813725 0.46813725 0.46813725
0.50435049 0.50435049 0.50435049
0.54368873 0.54368873 0.54368873
0.57003676 0.57003676 0.57003676
0.062745098 0.062745098 0.062745098
0.064047181 0.064047181 0.064047181
0.066911765 0.066911765 0.066911765
0.069255515 0.069255515 0.069255515
0.070894608 0.070894608 0.070894608
0.074387255 0.074387255 0.074387255
0.087745098 0.087745098 0.087745098
0.10441176 0.10441176 0.10441176
0.125 0.125 0.125
0.14558824 0.14558824 0.14558824
0.1622549 0.1622549 0.1622549
0.18370098 0.18370098 0.18370098
