site/assets/luts/sha256-df0768f92318032b6cc7e1233dbd529c287d1775ab9bf8bc81f42bca27cf1950.cube
# LUTr-Schema-Version: 2
# LUTr-ID: sha256-df0768f92318032b6cc7e1233dbd529c287d1775ab9bf8bc81f42bca27cf1950
# LUTr-Title: ilford pan f plus 50
# LUTr-Collection: Natron HaldCLUT
# LUTr-Collection-ID: natron-haldclut-presets
# LUTr-Source: https://github.com/NatronGitHub/clut
# LUTr-Retrieved: 2026-07-27
# LUTr-Source-File: submissions/natron-haldclut-presets/bw/ilford_pan_f_plus_50.png
# LUTr-Source-Format: HALD-PNG
# LUTr-Source-SHA256: df0768f92318032b6cc7e1233dbd529c287d1775ab9bf8bc81f42bca27cf1950
# LUTr-License: CC-BY-SA-4.0
# LUTr-License-URL: https://github.com/NatronGitHub/clut#license
# LUTr-License-Basis: repo-license-file
# LUTr-Transform-Class: film-emulation
# LUTr-Tags: creative, film, film-emulation, hald-clut, natron, png, cube
# LUTr-Input-Color-Space: srgb
# LUTr-Input-Gamut: rec709
# LUTr-Input-Transfer: srgb
# LUTr-Output-Color-Space: srgb
# LUTr-Output-Gamut: rec709
# LUTr-Output-Transfer: srgb
# LUTr-Color-Space-Confidence: assumed-display-referred
# LUTr-Domain-Normalized: true
# LUTr-Shaper: none
# LUTr-Original-Grid: 64x64x64
# LUTr-Conversion-Grid: 25x25x25
# LUTr-Conversion-Interpolation: trilinear
# LUTr-Conversion-Method: HALD-PNG LUT image decoded at 16-bit and sampled to 25x25x25 3D CUBE
# LUTr-Conversion-Tool: LUTr scripts/convert-all-to-cube.mjs 2.0.0
# LUTr-Conversion-Date: 2026-07-27
# LUTr-Note: Preserve this metadata and the upstream license notices when redistributing.
TITLE "ilford pan f plus 50"
LUT_3D_SIZE 9
DOMAIN_MIN 0 0 0
DOMAIN_MAX 1 1 1
0.019607843 0.019607843 0.019607843
0.02745098 0.02745098 0.02745098
0.042156863 0.042156863 0.042156863
0.043137255 0.043137255 0.043137255
0.050980392 0.050980392 0.050980392
0.10735294 0.10735294 0.10735294
0.16764706 0.16764706 0.16764706
0.22843137 0.22843137 0.22843137
0.25882353 0.25882353 0.25882353
0.081372549 0.081372549 0.081372549
0.092218137 0.092218137 0.092218137
0.10870098 0.10870098 0.10870098
0.12009804 0.12009804 0.12009804
0.14166667 0.14166667 0.14166667
0.18609069 0.18609069 0.18609069
0.23970588 0.23970588 0.23970588
0.29797794 0.29797794 0.29797794
0.34362745 0.34362745 0.34362745
0.17156863 0.17156863 0.17156863
0.19448529 0.19448529 0.19448529
0.18602941 0.18602941 0.18602941
0.21127451 0.21127451 0.21127451
0.23431373 0.23431373 0.23431373
0.26556373 0.26556373 0.26556373
0.32058824 0.32058824 0.32058824
0.37941176 0.37941176 0.37941176
0.42843137 0.42843137 0.42843137
0.31568627 0.31568627 0.31568627
0.31813725 0.31813725 0.31813725
0.31176471 0.31176471 0.31176471
0.32990196 0.32990196 0.32990196
0.35294118 0.35294118 0.35294118
0.37205882 0.37205882 0.37205882
0.41115196 0.41115196 0.41115196
0.46323529 0.46323529 0.46323529
0.51715686 0.51715686 0.51715686
0.45294118 0.45294118 0.45294118
0.44705882 0.44705882 0.44705882
0.44313725 0.44313725 0.44313725
0.45808824 0.45808824 0.45808824
0.47745098 0.47745098 0.47745098
0.4877451 0.4877451 0.4877451
0.51715686 0.51715686 0.51715686
0.56372549 0.56372549 0.56372549
0.60392157 0.60392157 0.60392157
0.58235294 0.58235294 0.58235294
0.5745098 0.5745098 0.5745098
0.57953431 0.57953431 0.57953431
0.59264706 0.59264706 0.59264706
0.60122549 0.60122549 0.60122549
0.60588235 0.60588235 0.60588235
0.62316176 0.62316176 0.62316176
0.66372549 0.66372549 0.66372549
0.675 0.675 0.675
0.70098039 0.70098039 0.70098039
0.69313725 0.69313725 0.69313725
0.68529412 0.68529412 0.68529412
0.69313725 0.69313725 0.69313725
0.70490196 0.70490196 0.70490196
0.71703431 0.71703431 0.71703431
0.73014706 0.73014706 0.73014706
0.74840686 0.74840686 0.74840686
0.75098039 0.75098039 0.75098039
0.77352941 0.77352941 0.77352941
0.78878676 0.78878676 0.78878676
0.78970588 0.78970588 0.78970588
0.79362745 0.79362745 0.79362745
0.80147059 0.80147059 0.80147059
0.81292892 0.81292892 0.81292892
0.8245098 0.8245098 0.8245098
0.82843137 0.82843137 0.82843137
0.82843137 0.82843137 0.82843137
0.83529412 0.83529412 0.83529412
0.8504902 0.8504902 0.8504902
0.87745098 0.87745098 0.87745098
0.87990196 0.87990196 0.87990196
0.86470588 0.86470588 0.86470588
0.87598039 0.87598039 0.87598039
0.89509804 0.89509804 0.89509804
0.89754902 0.89754902 0.89754902
0.89019608 0.89019608 0.89019608
0.012254902 0.012254902 0.012254902
0.02745098 0.02745098 0.02745098
0.04252451 0.04252451 0.04252451
0.073835784 0.073835784 0.073835784
0.093382353 0.093382353 0.093382353
0.11862745 0.11862745 0.11862745
0.175 0.175 0.175
0.25147059 0.25147059 0.25147059
0.3127451 0.3127451 0.3127451
0.1 0.1 0.1
0.1113894 0.1113894 0.1113894
0.12254902 0.12254902 0.12254902
0.14166667 0.14166667 0.14166667
0.17254902 0.17254902 0.17254902
0.20343137 0.20343137 0.20343137
0.25098039 0.25098039 0.25098039
0.32026654 0.32026654 0.32026654
0.37843137 0.37843137 0.37843137
0.19656863 0.19656863 0.19656863
0.20876225 0.20876225 0.20876225
0.21976103 0.21976103 0.21976103
0.23823529 0.23823529 0.23823529
0.26127451 0.26127451 0.26127451
0.29247855 0.29247855 0.29247855
0.33704044 0.33704044 0.33704044
0.39492953 0.39492953 0.39492953
0.45232843 0.45232843 0.45232843
0.32726716 0.32726716 0.32726716
0.32745098 0.32745098 0.32745098
0.33426777 0.33426777 0.33426777
0.34901961 0.34901961 0.34901961
0.37018995 0.37018995 0.37018995
0.39117647 0.39117647 0.39117647
0.42473958 0.42473958 0.42473958
0.4749617 0.4749617 0.4749617
0.525 0.525 0.525
0.45882353 0.45882353 0.45882353
0.45441176 0.45441176 0.45441176
0.45833333 0.45833333 0.45833333
0.47264093 0.47264093 0.47264093
0.48982843 0.48982843 0.48982843
0.50309436 0.50309436 0.50309436
0.53057598 0.53057598 0.53057598
0.57153799 0.57153799 0.57153799
0.61151961 0.61151961 0.61151961
0.58235294 0.58235294 0.58235294
0.57843137 0.57843137 0.57843137
0.58723958 0.58723958 0.58723958
0.60018382 0.60018382 0.60018382
0.60946691 0.60946691 0.60946691
0.61893382 0.61893382 0.61893382
0.63965993 0.63965993 0.63965993
0.67107843 0.67107843 0.67107843
0.68658088 0.68658088 0.68658088
0.70098039 0.70098039 0.70098039
0.69401042 0.69401042 0.69401042
0.69696691 0.69696691 0.69696691
0.70471814 0.70471814 0.70471814
0.71446078 0.71446078 0.71446078
0.72651654 0.72651654 0.72651654
0.74105392 0.74105392 0.74105392
0.75850184 0.75850184 0.75850184
0.75968137 0.75968137 0.75968137
0.77395833 0.77395833 0.77395833
0.78878676 0.78878676 0.78878676
0.79710478 0.79710478 0.79710478
0.8036152 0.8036152 0.8036152
0.80928309 0.80928309 0.80928309
0.81452206 0.81452206 0.81452206
0.82575061 0.82575061 0.82575061
0.83235294 0.83235294 0.83235294
0.83235294 0.83235294 0.83235294
0.84705882 0.84705882 0.84705882
0.85091912 0.85091912 0.85091912
0.87401961 0.87401961 0.87401961
0.88382353 0.88382353 0.88382353
0.87843137 0.87843137 0.87843137
0.88235294 0.88235294 0.88235294
0.89019608 0.89019608 0.89019608
0.88627451 0.88627451 0.88627451
0.88235294 0.88235294 0.88235294
0.045098039 0.045098039 0.045098039
0.062745098 0.062745098 0.062745098
0.067892157 0.067892157 0.067892157
0.10735294 0.10735294 0.10735294
0.13039216 0.13039216 0.13039216
0.16629902 0.16629902 0.16629902
0.21176471 0.21176471 0.21176471
0.27941176 0.27941176 0.27941176
0.3754902 0.3754902 0.3754902
0.12696078 0.12696078 0.12696078
0.13523284 0.13523284 0.13523284
0.1495098 0.1495098 0.1495098
0.17660846 0.17660846 0.17660846
0.20735294 0.20735294 0.20735294
0.24154412 0.24154412 0.24154412
0.28615196 0.28615196 0.28615196
0.34831495 0.34831495 0.34831495
0.42291667 0.42291667 0.42291667
0.21887255 0.21887255 0.21887255
0.23480392 0.23480392 0.23480392
0.25098039 0.25098039 0.25098039
0.26911765 0.26911765 0.26911765
0.29607843 0.29607843 0.29607843
0.33042279 0.33042279 0.33042279
0.37040441 0.37040441 0.37040441
0.4254902 0.4254902 0.4254902
0.47941176 0.47941176 0.47941176
0.33823529 0.33823529 0.33823529
0.34693627 0.34693627 0.34693627
0.36470588 0.36470588 0.36470588
0.37653186 0.37653186 0.37653186
0.39779412 0.39779412 0.39779412
0.42859988 0.42859988 0.42859988
0.45833333 0.45833333 0.45833333
0.49754902 0.49754902 0.49754902
0.54754902 0.54754902 0.54754902
0.47009804 0.47009804 0.47009804
0.47401961 0.47401961 0.47401961
0.48137255 0.48137255 0.48137255
0.49558824 0.49558824 0.49558824
0.51470588 0.51470588 0.51470588
0.53112745 0.53112745 0.53112745
0.55686275 0.55686275 0.55686275
0.58995098 0.58995098 0.58995098
0.62892157 0.62892157 0.62892157
0.59313725 0.59313725 0.59313725
0.59705882 0.59705882 0.59705882
0.60462623 0.60462623 0.60462623
0.61556373 0.61556373 0.61556373
0.6278799 0.6278799 0.6278799
0.64042586 0.64042586 0.64042586
0.65958946 0.65958946 0.65958946
0.68720895 0.68720895 0.68720895
0.70392157 0.70392157 0.70392157
0.71102941 0.71102941 0.71102941
0.70882353 0.70882353 0.70882353
0.7127451 0.7127451 0.7127451
0.7185049 0.7185049 0.7185049
0.7245098 0.7245098 0.7245098
0.73235294 0.73235294 0.73235294
0.74895833 0.74895833 0.74895833
0.76602328 0.76602328 0.76602328
0.77352941 0.77352941 0.77352941
0.79656863 0.79656863 0.79656863
0.80134804 0.80134804 0.80134804
0.79754902 0.79754902 0.79754902
0.80539216 0.80539216 0.80539216
0.81317402 0.81317402 0.81317402
0.8185815 0.8185815 0.8185815
0.82956495 0.82956495 0.82956495
0.8370864 0.8370864 0.8370864
0.8432598 0.8432598 0.8432598
0.87745098 0.87745098 0.87745098
0.87352941 0.87352941 0.87352941
0.8627451 0.8627451 0.8627451
0.87843137 0.87843137 0.87843137
0.88627451 0.88627451 0.88627451
0.88921569 0.88921569 0.88921569
0.88627451 0.88627451 0.88627451
0.87536765 0.87536765 0.87536765
0.8745098 0.8745098 0.8745098
0.076960784 0.076960784 0.076960784
0.097732843 0.097732843 0.097732843
0.10588235 0.10588235 0.10588235
0.13970588 0.13970588 0.13970588
0.15343137 0.15343137 0.15343137
0.21023284 0.21023284 0.21023284
0.25441176 0.25441176 0.25441176
0.30459559 0.30459559 0.30459559
0.40245098 0.40245098 0.40245098
0.16176471 0.16176471 0.16176471
0.16960784 0.16960784 0.16960784
0.19105392 0.19105392 0.19105392
0.20827206 0.20827206 0.20827206
0.23039216 0.23039216 0.23039216
0.28020833 0.28020833 0.28020833
0.33048407 0.33048407 0.33048407
0.38239124 0.38239124 0.38239124
0.44901961 0.44901961 0.44901961
0.26188725 0.26188725 0.26188725
0.27166054 0.27166054 0.27166054
0.28498775 0.28498775 0.28498775
0.30598958 0.30598958 0.30598958
0.33088235 0.33088235 0.33088235
0.36591605 0.36591605 0.36591605
0.40857843 0.40857843 0.40857843
0.46029412 0.46029412 0.46029412
0.50637255 0.50637255 0.50637255
0.37395833 0.37395833 0.37395833
0.38362439 0.38362439 0.38362439
0.3948989 0.3948989 0.3948989
0.40856311 0.40856311 0.40856311
0.43137255 0.43137255 0.43137255
0.4658318 0.4658318 0.4658318
0.49558824 0.49558824 0.49558824
0.53204657 0.53204657 0.53204657
0.57598039 0.57598039 0.57598039
0.5004902 0.5004902 0.5004902
0.50431985 0.50431985 0.50431985
0.51176471 0.51176471 0.51176471
0.52328431 0.52328431 0.52328431
0.54142157 0.54142157 0.54142157
0.55974265 0.55974265 0.55974265
0.58578431 0.58578431 0.58578431
0.61951593 0.61951593 0.61951593
0.65882353 0.65882353 0.65882353
0.62009804 0.62009804 0.62009804
0.62401961 0.62401961 0.62401961
0.62863051 0.62863051 0.62863051
0.63601409 0.63601409 0.63601409
0.64923407 0.64923407 0.64923407
0.65873928 0.65873928 0.65873928
0.67843137 0.67843137 0.67843137
0.70238971 0.70238971 0.70238971
0.72058824 0.72058824 0.72058824
0.72696078 0.72696078 0.72696078
0.72843137 0.72843137 0.72843137
0.73026961 0.73026961 0.73026961
0.7294424 0.7294424 0.7294424
0.73811275 0.73811275 0.73811275
0.74618566 0.74618566 0.74618566
0.76136642 0.76136642 0.76136642
0.77362132 0.77362132 0.77362132
0.78627451 0.78627451 0.78627451
0.81960784 0.81960784 0.81960784
0.81960784 0.81960784 0.81960784
0.81145833 0.81145833 0.81145833
0.80853248 0.80853248 0.80853248
0.82098652 0.82098652 0.82098652
0.82774203 0.82774203 0.82774203
0.83730086 0.83730086 0.83730086
0.84487592 0.84487592 0.84487592
0.85588235 0.85588235 0.85588235
0.89411765 0.89411765 0.89411765
0.89430147 0.89430147 0.89430147
0.88235294 0.88235294 0.88235294
0.87996324 0.87996324 0.87996324
0.89142157 0.89142157 0.89142157
0.90441176 0.90441176 0.90441176
0.88921569 0.88921569 0.88921569
0.87665441 0.87665441 0.87665441
0.8745098 0.8745098 0.8745098
0.10588235 0.10588235 0.10588235
0.11666667 0.11666667 0.11666667
0.15441176 0.15441176 0.15441176
0.17254902 0.17254902 0.17254902
0.18333333 0.18333333 0.18333333
0.25465686 0.25465686 0.25465686
0.3 0.3 0.3
0.35637255 0.35637255 0.35637255
0.44117647 0.44117647 0.44117647
0.20245098 0.20245098 0.20245098
0.21176471 0.21176471 0.21176471
0.23529412 0.23529412 0.23529412
0.25450368 0.25450368 0.25450368
0.2747549 0.2747549 0.2747549
0.31740196 0.31740196 0.31740196
0.36488971 0.36488971 0.36488971
0.42110907 0.42110907 0.42110907
0.4872549 0.4872549 0.4872549
0.30441176 0.30441176 0.30441176
0.31072304 0.31072304 0.31072304
0.32990196 0.32990196 0.32990196
0.35 0.35 0.35
0.3754902 0.3754902 0.3754902
0.40637255 0.40637255 0.40637255
0.44497549 0.44497549 0.44497549
0.49877451 0.49877451 0.49877451
0.54901961 0.54901961 0.54901961
0.41568627 0.41568627 0.41568627
0.42025123 0.42025123 0.42025123
0.43192402 0.43192402 0.43192402
0.44779412 0.44779412 0.44779412
0.47009804 0.47009804 0.47009804
0.49705882 0.49705882 0.49705882
0.52794118 0.52794118 0.52794118
0.56685049 0.56685049 0.56685049
0.61078431 0.61078431 0.61078431
0.53137255 0.53137255 0.53137255
0.53529412 0.53529412 0.53529412
0.54117647 0.54117647 0.54117647
0.54730392 0.54730392 0.54730392
0.5622549 0.5622549 0.5622549
0.58578431 0.58578431 0.58578431
0.61470588 0.61470588 0.61470588
0.64779412 0.64779412 0.64779412
0.67647059 0.67647059 0.67647059
0.64705882 0.64705882 0.64705882
0.64828431 0.64828431 0.64828431
0.6502451 0.6502451 0.6502451
0.65343137 0.65343137 0.65343137
0.66752451 0.66752451 0.66752451
0.68403799 0.68403799 0.68403799
0.70238971 0.70238971 0.70238971
0.72156863 0.72156863 0.72156863
0.73627451 0.73627451 0.73627451
0.75 0.75 0.75
0.75 0.75 0.75
0.74803922 0.74803922 0.74803922
0.74846814 0.74846814 0.74846814
0.75759804 0.75759804 0.75759804
0.76881127 0.76881127 0.76881127
0.77928922 0.77928922 0.77928922
0.7908701 0.7908701 0.7908701
0.80245098 0.80245098 0.80245098
0.83651961 0.83651961 0.83651961
0.83848039 0.83848039 0.83848039
0.82720588 0.82720588 0.82720588
0.82671569 0.82671569 0.82671569
0.83455882 0.83455882 0.83455882
0.84123775 0.84123775 0.84123775
0.84871324 0.84871324 0.84871324
0.85588235 0.85588235 0.85588235
0.86936275 0.86936275 0.86936275
0.89019608 0.89019608 0.89019608
0.88848039 0.88848039 0.88848039
0.89411765 0.89411765 0.89411765
0.89338235 0.89338235 0.89338235
0.90098039 0.90098039 0.90098039
0.90465686 0.90465686 0.90465686
0.89803922 0.89803922 0.89803922
0.88602941 0.88602941 0.88602941
0.88431373 0.88431373 0.88431373
0.16372549 0.16372549 0.16372549
0.1776348 0.1776348 0.1776348
0.19816176 0.19816176 0.19816176
0.25392157 0.25392157 0.25392157
0.27745098 0.27745098 0.27745098
0.28584559 0.28584559 0.28584559
0.36458333 0.36458333 0.36458333
0.43235294 0.43235294 0.43235294
0.5254902 0.5254902 0.5254902
0.26011029 0.26011029 0.26011029
0.27113971 0.27113971 0.27113971
0.28676471 0.28676471 0.28676471
0.32468597 0.32468597 0.32468597
0.34754902 0.34754902 0.34754902
0.37156863 0.37156863 0.37156863
0.42339154 0.42339154 0.42339154
0.48137255 0.48137255 0.48137255
0.53854167 0.53854167 0.53854167
0.36372549 0.36372549 0.36372549
0.37205882 0.37205882 0.37205882
0.3872549 0.3872549 0.3872549
0.41813725 0.41813725 0.41813725
0.43333333 0.43333333 0.43333333
0.46297488 0.46297488 0.46297488
0.4958027 0.4958027 0.4958027
0.53975184 0.53975184 0.53975184
0.58419118 0.58419118 0.58419118
0.45735294 0.45735294 0.45735294
0.46862745 0.46862745 0.46862745
0.48313419 0.48313419 0.48313419
0.49679841 0.49679841 0.49679841
0.51617647 0.51617647 0.51617647
0.54117647 0.54117647 0.54117647
0.5707261 0.5707261 0.5707261
0.6098652 0.6098652 0.6098652
0.64466912 0.64466912 0.64466912
0.56421569 0.56421569 0.56421569
0.56798407 0.56798407 0.56798407
0.56960784 0.56960784 0.56960784
0.57898284 0.57898284 0.57898284
0.59901961 0.59901961 0.59901961
0.6252451 0.6252451 0.6252451
0.65416667 0.65416667 0.65416667
0.68495711 0.68495711 0.68495711
0.70269608 0.70269608 0.70269608
0.67254902 0.67254902 0.67254902
0.67009804 0.67009804 0.67009804
0.66862745 0.66862745 0.66862745
0.6716299 0.6716299 0.6716299
0.69019608 0.69019608 0.69019608
0.71023284 0.71023284 0.71023284
0.73088235 0.73088235 0.73088235
0.74185815 0.74185815 0.74185815
0.74895833 0.74895833 0.74895833
0.77267157 0.77267157 0.77267157
0.77303922 0.77303922 0.77303922
0.76731005 0.76731005 0.76731005
0.76897978 0.76897978 0.76897978
0.7778799 0.7778799 0.7778799
0.7877451 0.7877451 0.7877451
0.79448529 0.79448529 0.79448529
0.80765931 0.80765931 0.80765931
0.81973039 0.81973039 0.81973039
0.84803922 0.84803922 0.84803922
0.85169271 0.85169271 0.85169271
0.84070159 0.84070159 0.84070159
0.84342831 0.84342831 0.84342831
0.84981618 0.84981618 0.84981618
0.85746783 0.85746783 0.85746783
0.85980392 0.85980392 0.85980392
0.86942402 0.86942402 0.86942402
0.87910539 0.87910539 0.87910539
0.89411765 0.89411765 0.89411765
0.88645833 0.88645833 0.88645833
0.89705882 0.89705882 0.89705882
0.9028799 0.9028799 0.9028799
0.91053922 0.91053922 0.91053922
0.92101716 0.92101716 0.92101716
0.90919118 0.90919118 0.90919118
0.90735294 0.90735294 0.90735294
0.90735294 0.90735294 0.90735294
0.25098039 0.25098039 0.25098039
0.26139706 0.26139706 0.26139706
0.2872549 0.2872549 0.2872549
0.33382353 0.33382353 0.33382353
0.34803922 0.34803922 0.34803922
0.37843137 0.37843137 0.37843137
0.42745098 0.42745098 0.42745098
0.48823529 0.48823529 0.48823529
0.52941176 0.52941176 0.52941176
0.33088235 0.33088235 0.33088235
0.34215686 0.34215686 0.34215686
0.36127451 0.36127451 0.36127451
0.39937194 0.39937194 0.39937194
0.4127451 0.4127451 0.4127451
0.43345588 0.43345588 0.43345588
0.48529412 0.48529412 0.48529412
0.52991728 0.52991728 0.52991728
0.56078431 0.56078431 0.56078431
0.42647059 0.42647059 0.42647059
0.43517157 0.43517157 0.43517157
0.45238971 0.45238971 0.45238971
0.47696078 0.47696078 0.47696078
0.49509804 0.49509804 0.49509804
0.52205882 0.52205882 0.52205882
0.55392157 0.55392157 0.55392157
0.58872549 0.58872549 0.58872549
0.62254902 0.62254902 0.62254902
0.52303922 0.52303922 0.52303922
0.53088235 0.53088235 0.53088235
0.53872549 0.53872549 0.53872549
0.55140931 0.55140931 0.55140931
0.56960784 0.56960784 0.56960784
0.59486826 0.59486826 0.59486826
0.62144608 0.62144608 0.62144608
0.65796569 0.65796569 0.65796569
0.68431373 0.68431373 0.68431373
0.60686275 0.60686275 0.60686275
0.61544118 0.61544118 0.61544118
0.62352941 0.62352941 0.62352941
0.63137255 0.63137255 0.63137255
0.64877451 0.64877451 0.64877451
0.67352941 0.67352941 0.67352941
0.69644608 0.69644608 0.69644608
0.71887255 0.71887255 0.71887255
0.73039216 0.73039216 0.73039216
0.6995098 0.6995098 0.6995098
0.6995098 0.6995098 0.6995098
0.70661765 0.70661765 0.70661765
0.71996017 0.71996017 0.71996017
0.73259804 0.73259804 0.73259804
0.74656863 0.74656863 0.74656863
0.76078431 0.76078431 0.76078431
0.7707261 0.7707261 0.7707261
0.77647059 0.77647059 0.77647059
0.79607843 0.79607843 0.79607843
0.79828431 0.79828431 0.79828431
0.79215686 0.79215686 0.79215686
0.79509804 0.79509804 0.79509804
0.80245098 0.80245098 0.80245098
0.80686275 0.80686275 0.80686275
0.81525735 0.81525735 0.81525735
0.82647059 0.82647059 0.82647059
0.83259804 0.83259804 0.83259804
0.86078431 0.86078431 0.86078431
0.86335784 0.86335784 0.86335784
0.86001838 0.86001838 0.86001838
0.86078431 0.86078431 0.86078431
0.86862745 0.86862745 0.86862745
0.86862745 0.86862745 0.86862745
0.87647059 0.87647059 0.87647059
0.8872549 0.8872549 0.8872549
0.88823529 0.88823529 0.88823529
0.90686275 0.90686275 0.90686275
0.89803922 0.89803922 0.89803922
0.90490196 0.90490196 0.90490196
0.91862745 0.91862745 0.91862745
0.92401961 0.92401961 0.92401961
0.91862745 0.91862745 0.91862745
0.93137255 0.93137255 0.93137255
0.93431373 0.93431373 0.93431373
0.93039216 0.93039216 0.93039216
0.36617647 0.36617647 0.36617647
0.36317402 0.36317402 0.36317402
0.36176471 0.36176471 0.36176471
0.39558824 0.39558824 0.39558824
0.43480392 0.43480392 0.43480392
0.47303922 0.47303922 0.47303922
0.49607843 0.49607843 0.49607843
0.52261029 0.52261029 0.52261029
0.57352941 0.57352941 0.57352941
0.43529412 0.43529412 0.43529412
0.43572304 0.43572304 0.43572304
0.43878676 0.43878676 0.43878676
0.46123621 0.46123621 0.46123621
0.48869485 0.48869485 0.48869485
0.51960784 0.51960784 0.51960784
0.54607843 0.54607843 0.54607843
0.57303922 0.57303922 0.57303922
0.6122549 0.6122549 0.6122549
0.51617647 0.51617647 0.51617647
0.5194087 0.5194087 0.5194087
0.52064951 0.52064951 0.52064951
0.53872549 0.53872549 0.53872549
0.55735294 0.55735294 0.55735294
0.58480392 0.58480392 0.58480392
0.60744485 0.60744485 0.60744485
0.63474265 0.63474265 0.63474265
0.65784314 0.65784314 0.65784314
0.59411765 0.59411765 0.59411765
0.59442402 0.59442402 0.59442402
0.59803922 0.59803922 0.59803922
0.6096201 0.6096201 0.6096201
0.62352941 0.62352941 0.62352941
0.64590227 0.64590227 0.64590227
0.66911765 0.66911765 0.66911765
0.69623928 0.69623928 0.69623928
0.70686275 0.70686275 0.70686275
0.66372549 0.66372549 0.66372549
0.67107843 0.67107843 0.67107843
0.68131127 0.68131127 0.68131127
0.68529412 0.68529412 0.68529412
0.69889706 0.69889706 0.69889706
0.71583946 0.71583946 0.71583946
0.73480392 0.73480392 0.73480392
0.75171569 0.75171569 0.75171569
0.75931373 0.75931373 0.75931373
0.7346201 0.7346201 0.7346201
0.73692555 0.73692555 0.73692555
0.75228248 0.75228248 0.75228248
0.76421569 0.76421569 0.76421569
0.76813725 0.76813725 0.76813725
0.77598039 0.77598039 0.77598039
0.79056373 0.79056373 0.79056373
0.80214461 0.80214461 0.80214461
0.80949755 0.80949755 0.80949755
0.82205882 0.82205882 0.82205882
0.82291667 0.82291667 0.82291667
0.82205882 0.82205882 0.82205882
0.8251685 0.8251685 0.8251685
0.82598039 0.82598039 0.82598039
0.82990196 0.82990196 0.82990196
0.84166667 0.84166667 0.84166667
0.8498315 0.8498315 0.8498315
0.8560049 0.8560049 0.8560049
0.87990196 0.87990196 0.87990196
0.87984069 0.87984069 0.87984069
0.8832261 0.8832261 0.8832261
0.88380055 0.88380055 0.88380055
0.88382353 0.88382353 0.88382353
0.8877451 0.8877451 0.8877451
0.89633885 0.89633885 0.89633885
0.90337776 0.90337776 0.90337776
0.90643382 0.90643382 0.90643382
0.92990196 0.92990196 0.92990196
0.91813725 0.91813725 0.91813725
0.925 0.925 0.925
0.9377451 0.9377451 0.9377451
0.93333333 0.93333333 0.93333333
0.93333333 0.93333333 0.93333333
0.94117647 0.94117647 0.94117647
0.95735294 0.95735294 0.95735294
0.95343137 0.95343137 0.95343137
0.45490196 0.45490196 0.45490196
0.45539216 0.45539216 0.45539216
0.40882353 0.40882353 0.40882353
0.43627451 0.43627451 0.43627451
0.48627451 0.48627451 0.48627451
0.51519608 0.51519608 0.51519608
0.5254902 0.5254902 0.5254902
0.54656863 0.54656863 0.54656863
0.63921569 0.63921569 0.63921569
0.50882353 0.50882353 0.50882353
0.50882353 0.50882353 0.50882353
0.49362745 0.49362745 0.49362745
0.50716912 0.50716912 0.50716912
0.5497549 0.5497549 0.5497549
0.56783088 0.56783088 0.56783088
0.57647059 0.57647059 0.57647059
0.60392157 0.60392157 0.60392157
0.6504902 0.6504902 0.6504902
0.57843137 0.57843137 0.57843137
0.58235294 0.58235294 0.58235294
0.58529412 0.58529412 0.58529412
0.59166667 0.59166667 0.59166667
0.61764706 0.61764706 0.61764706
0.62941176 0.62941176 0.62941176
0.64215686 0.64215686 0.64215686
0.66384804 0.66384804 0.66384804
0.6627451 0.6627451 0.6627451
0.65196078 0.65196078 0.65196078
0.65410539 0.65410539 0.65410539
0.65833333 0.65833333 0.65833333
0.66127451 0.66127451 0.66127451
0.67671569 0.67671569 0.67671569
0.69117647 0.69117647 0.69117647
0.70784314 0.70784314 0.70784314
0.72254902 0.72254902 0.72254902
0.71862745 0.71862745 0.71862745
0.71372549 0.71372549 0.71372549
0.72107843 0.72107843 0.72107843
0.72843137 0.72843137 0.72843137
0.72941176 0.72941176 0.72941176
0.73823529 0.73823529 0.73823529
0.7497549 0.7497549 0.7497549
0.76715686 0.76715686 0.76715686
0.77892157 0.77892157 0.77892157
0.78823529 0.78823529 0.78823529
0.77941176 0.77941176 0.77941176
0.77941176 0.77941176 0.77941176
0.78566176 0.78566176 0.78566176
0.7872549 0.7872549 0.7872549
0.79044118 0.79044118 0.79044118
0.79993873 0.79993873 0.79993873
0.81360294 0.81360294 0.81360294
0.82518382 0.82518382 0.82518382
0.82892157 0.82892157 0.82892157
0.84509804 0.84509804 0.84509804
0.84509804 0.84509804 0.84509804
0.84509804 0.84509804 0.84509804
0.84509804 0.84509804 0.84509804
0.84509804 0.84509804 0.84509804
0.85196078 0.85196078 0.85196078
0.85759804 0.85759804 0.85759804
0.86764706 0.86764706 0.86764706
0.86764706 0.86764706 0.86764706
0.89901961 0.89901961 0.89901961
0.89509804 0.89509804 0.89509804
0.90281863 0.90281863 0.90281863
0.90294118 0.90294118 0.90294118
0.90294118 0.90294118 0.90294118
0.89852941 0.89852941 0.89852941
0.9064951 0.9064951 0.9064951
0.91427696 0.91427696 0.91427696
0.91421569 0.91421569 0.91421569
0.96078431 0.96078431 0.96078431
0.93382353 0.93382353 0.93382353
0.94411765 0.94411765 0.94411765
0.95686275 0.95686275 0.95686275
0.94313725 0.94313725 0.94313725
0.9372549 0.9372549 0.9372549
0.94509804 0.94509804 0.94509804
0.95735294 0.95735294 0.95735294
0.95686275 0.95686275 0.95686275
