site/assets/luts/sha256-3d4e878a5b5ab3093172ac830972b9f343afdb69da57319c05c9875718efca79.cube
# LUTr-Schema-Version: 2
# LUTr-ID: sha256-3d4e878a5b5ab3093172ac830972b9f343afdb69da57319c05c9875718efca79
# LUTr-Title: fade
# LUTr-Collection: Natron HaldCLUT
# LUTr-Collection-ID: natron-haldclut-presets
# LUTr-Source: https://github.com/NatronGitHub/clut
# LUTr-Retrieved: 2026-07-27
# LUTr-Source-File: submissions/natron-haldclut-presets/various/fade.png
# LUTr-Source-Format: HALD-PNG
# LUTr-Source-SHA256: 3d4e878a5b5ab3093172ac830972b9f343afdb69da57319c05c9875718efca79
# LUTr-License: CC-BY-SA-4.0
# LUTr-License-URL: https://github.com/NatronGitHub/clut#license
# LUTr-License-Basis: repo-license-file
# LUTr-Transform-Class: film-emulation
# LUTr-Tags: creative, film, film-emulation, hald-clut, natron, png, cube
# LUTr-Input-Color-Space: srgb
# LUTr-Input-Gamut: rec709
# LUTr-Input-Transfer: srgb
# LUTr-Output-Color-Space: srgb
# LUTr-Output-Gamut: rec709
# LUTr-Output-Transfer: srgb
# LUTr-Color-Space-Confidence: assumed-display-referred
# LUTr-Domain-Normalized: true
# LUTr-Shaper: none
# LUTr-Original-Grid: 64x64x64
# LUTr-Conversion-Grid: 25x25x25
# LUTr-Conversion-Interpolation: trilinear
# LUTr-Conversion-Method: HALD-PNG LUT image decoded at 16-bit and sampled to 25x25x25 3D CUBE
# LUTr-Conversion-Tool: LUTr scripts/convert-all-to-cube.mjs 2.0.0
# LUTr-Conversion-Date: 2026-07-27
# LUTr-Note: Preserve this metadata and the upstream license notices when redistributing.
TITLE "fade"
LUT_3D_SIZE 5
DOMAIN_MIN 0 0 0
DOMAIN_MAX 1 1 1
0.22745098 0.30980392 0.38039216
0.39803922 0.35490196 0.39313725
0.54117647 0.3627451 0.39215686
0.74509804 0.34901961 0.41568627
1 0.36862745 0.41568627
0.28627451 0.52647059 0.39607843
0.42377451 0.54681373 0.41078431
0.58921569 0.5495098 0.43823529
0.80710784 0.55710784 0.44779412
0.99901961 0.57745098 0.48529412
0.31960784 0.70392157 0.45490196
0.45441176 0.70931373 0.44607843
0.62843137 0.73137255 0.46078431
0.84901961 0.74313725 0.47303922
1 0.75490196 0.48039216
0.34117647 0.88627451 0.45588235
0.4872549 0.9 0.47916667
0.67352941 0.93676471 0.48676471
0.90980392 0.93553922 0.50220588
1 0.95686275 0.52156863
0.33333333 0.98823529 0.47058824
0.51960784 1 0.50588235
0.7254902 0.99215686 0.52352941
0.98823529 1 0.5372549
0.99607843 0.99607843 0.5372549
0.28235294 0.31078431 0.49117647
0.39019608 0.31985294 0.50392157
0.53921569 0.34852941 0.52107843
0.75686275 0.36470588 0.53431373
0.94607843 0.37647059 0.54705882
0.2997549 0.52352941 0.52745098
0.4252451 0.53259804 0.54215686
0.58921569 0.55073529 0.55784314
0.81838235 0.56623775 0.57058824
1 0.58823529 0.58235294
0.32941176 0.70294118 0.56029412
0.45833333 0.71936275 0.57598039
0.63529412 0.73161765 0.58529412
0.87303922 0.75147059 0.60159314
1 0.7627451 0.60931373
0.33137255 0.8870098 0.58946078
0.49234069 0.90784314 0.60686275
0.68333333 0.91764706 0.62009804
0.92254902 0.93602941 0.63688725
0.99215686 0.94215686 0.64509804
0.38431373 0.99607843 0.61372549
0.51862745 0.99607843 0.63333333
0.73333333 1 0.65245098
0.9754902 1 0.66397059
0.99607843 0.99215686 0.65980392
0.24509804 0.31764706 0.62352941
0.39656863 0.33137255 0.63921569
0.54313725 0.34901961 0.65686275
0.76470588 0.36862745 0.66666667
0.98235294 0.38235294 0.68039216
0.30588235 0.53431373 0.6622549
0.4377451 0.54828431 0.67389706
0.59215686 0.54117647 0.68308824
0.81862745 0.56568627 0.70122549
0.99852941 0.58284314 0.72058824
0.32058824 0.70294118 0.68823529
0.45661765 0.71960784 0.70343137
0.63921569 0.7372549 0.71176471
0.88039216 0.75098039 0.73333333
1 0.76666667 0.74509804
0.34803922 0.90147059 0.71862745
0.49522059 0.91617647 0.73651961
0.69509804 0.9127451 0.74607843
0.93039216 0.93419118 0.75821078
1 0.975 0.78039216
0.36078431 0.99215686 0.74901961
0.53480392 0.99607843 0.76470588
0.73333333 0.99705882 0.77254902
0.98088235 0.99362745 0.78823529
0.99215686 0.99215686 0.77647059
0.25490196 0.33921569 0.75098039
0.40588235 0.35196078 0.76666667
0.54705882 0.34705882 0.77990196
0.76470588 0.36936275 0.79411765
0.99215686 0.38235294 0.80196078
0.28602941 0.53431373 0.78529412
0.4370098 0.55 0.80098039
0.60343137 0.56323529 0.81311275
0.83259804 0.56470588 0.82156863
0.99607843 0.57843137 0.83333333
0.31372549 0.71323529 0.81372549
0.4622549 0.73137255 0.82941176
0.64926471 0.74362745 0.84117647
0.89178922 0.75490196 0.85257353
1 0.7745098 0.86078431
0.36078431 0.91372549 0.84215686
0.49295343 0.93235294 0.85612745
0.69607843 0.9307598 0.86115196
0.93425245 0.94957108 0.87689951
1 0.98357843 0.90098039
0.39215686 0.99901961 0.87156863
0.53137255 1 0.87941176
0.73333333 1 0.87941176
0.97745098 1 0.89436275
0.99607843 0.99215686 0.88823529
0.23529412 0.31764706 0.86666667
0.40588235 0.3372549 0.8754902
0.55882353 0.4 0.86666667
0.77745098 0.38627451 0.90980392
1 0.38039216 0.9254902
0.32941176 0.53431373 0.88921569
0.4372549 0.54607843 0.88921569
0.60882353 0.55784314 0.91323529
0.83823529 0.58431373 0.91372549
0.99901961 0.59215686 0.93333333
0.3 0.70784314 0.91176471
0.47009804 0.73480392 0.9254902
0.64803922 0.75 0.92941176
0.88823529 0.7627451 0.92941176
1 0.77843137 0.92941176
0.32941176 0.90098039 0.90686275
0.50294118 0.93235294 0.9254902
0.69509804 0.94656863 0.93333333
0.95 0.93921569 0.93333333
1 0.98823529 0.93333333
0.36862745 1 0.93333333
0.51666667 0.99607843 0.92254902
0.72352941 0.99607843 0.93333333
0.99313725 0.99607843 0.93333333
0.99607843 0.98823529 0.92941176
