site/assets/luts/sha256-03399b3211dbb2356f7fbdb0a33e30e2cf495691d253bb79b43ca5c5d06ba21a.cube
# LUTr-Schema-Version: 2
# LUTr-ID: sha256-03399b3211dbb2356f7fbdb0a33e30e2cf495691d253bb79b43ca5c5d06ba21a
# LUTr-Title: fuji fp-3000b negative
# LUTr-Collection: Natron HaldCLUT
# LUTr-Collection-ID: natron-haldclut-presets
# LUTr-Source: https://github.com/NatronGitHub/clut
# LUTr-Retrieved: 2026-07-27
# LUTr-Source-File: submissions/natron-haldclut-presets/instant_pro/fuji_fp-3000b_negative.png
# LUTr-Source-Format: HALD-PNG
# LUTr-Source-SHA256: 03399b3211dbb2356f7fbdb0a33e30e2cf495691d253bb79b43ca5c5d06ba21a
# LUTr-License: CC-BY-SA-4.0
# LUTr-License-URL: https://github.com/NatronGitHub/clut#license
# LUTr-License-Basis: repo-license-file
# LUTr-Transform-Class: film-emulation
# LUTr-Tags: creative, film, film-emulation, hald-clut, natron, png, cube
# LUTr-Input-Color-Space: srgb
# LUTr-Input-Gamut: rec709
# LUTr-Input-Transfer: srgb
# LUTr-Output-Color-Space: srgb
# LUTr-Output-Gamut: rec709
# LUTr-Output-Transfer: srgb
# LUTr-Color-Space-Confidence: assumed-display-referred
# LUTr-Domain-Normalized: true
# LUTr-Shaper: none
# LUTr-Original-Grid: 64x64x64
# LUTr-Conversion-Grid: 25x25x25
# LUTr-Conversion-Interpolation: trilinear
# LUTr-Conversion-Method: HALD-PNG LUT image decoded at 16-bit and sampled to 25x25x25 3D CUBE
# LUTr-Conversion-Tool: LUTr scripts/convert-all-to-cube.mjs 2.0.0
# LUTr-Conversion-Date: 2026-07-27
# LUTr-Note: Preserve this metadata and the upstream license notices when redistributing.
TITLE "fuji fp-3000b negative"
LUT_3D_SIZE 9
DOMAIN_MIN 0 0 0
DOMAIN_MAX 1 1 1
0.054901961 0.054901961 0.054901961
0.070588235 0.070588235 0.070588235
0.092156863 0.092156863 0.092156863
0.15 0.15 0.15
0.25098039 0.25098039 0.25098039
0.36911765 0.36911765 0.36911765
0.47352941 0.47352941 0.47352941
0.5745098 0.5745098 0.5745098
0.6745098 0.6745098 0.6745098
0.07745098 0.07745098 0.07745098
0.097058824 0.097058824 0.097058824
0.13051471 0.13051471 0.13051471
0.18088235 0.18088235 0.18088235
0.27205882 0.27205882 0.27205882
0.37040441 0.37040441 0.37040441
0.48492647 0.48492647 0.48492647
0.58921569 0.58921569 0.58921569
0.6745098 0.6745098 0.6745098
0.13529412 0.13529412 0.13529412
0.13137255 0.13137255 0.13137255
0.18039216 0.18039216 0.18039216
0.24007353 0.24007353 0.24007353
0.32941176 0.32941176 0.32941176
0.42598039 0.42598039 0.42598039
0.52279412 0.52279412 0.52279412
0.62009804 0.62009804 0.62009804
0.70882353 0.70882353 0.70882353
0.22303922 0.22303922 0.22303922
0.21942402 0.21942402 0.21942402
0.2495098 0.2495098 0.2495098
0.30637255 0.30637255 0.30637255
0.38872549 0.38872549 0.38872549
0.47898284 0.47898284 0.47898284
0.56409314 0.56409314 0.56409314
0.64705882 0.64705882 0.64705882
0.72794118 0.72794118 0.72794118
0.35686275 0.35686275 0.35686275
0.36078431 0.36078431 0.36078431
0.36421569 0.36421569 0.36421569
0.39509804 0.39509804 0.39509804
0.45392157 0.45392157 0.45392157
0.53382353 0.53382353 0.53382353
0.61764706 0.61764706 0.61764706
0.69362745 0.69362745 0.69362745
0.7627451 0.7627451 0.7627451
0.48431373 0.48431373 0.48431373
0.48039216 0.48039216 0.48039216
0.48333333 0.48333333 0.48333333
0.5 0.5 0.5
0.5377451 0.5377451 0.5377451
0.59957108 0.59957108 0.59957108
0.6622549 0.6622549 0.6622549
0.73235294 0.73235294 0.73235294
0.79754902 0.79754902 0.79754902
0.60882353 0.60882353 0.60882353
0.61176471 0.61176471 0.61176471
0.60882353 0.60882353 0.60882353
0.62205882 0.62205882 0.62205882
0.64411765 0.64411765 0.64411765
0.67598039 0.67598039 0.67598039
0.71470588 0.71470588 0.71470588
0.77463235 0.77463235 0.77463235
0.84411765 0.84411765 0.84411765
0.74362745 0.74362745 0.74362745
0.7401348 0.7401348 0.7401348
0.74227941 0.74227941 0.74227941
0.74705882 0.74705882 0.74705882
0.75686275 0.75686275 0.75686275
0.77598039 0.77598039 0.77598039
0.81029412 0.81029412 0.81029412
0.84117647 0.84117647 0.84117647
0.87892157 0.87892157 0.87892157
0.86666667 0.86666667 0.86666667
0.84362745 0.84362745 0.84362745
0.86372549 0.86372549 0.86372549
0.83676471 0.83676471 0.83676471
0.84901961 0.84901961 0.84901961
0.87598039 0.87598039 0.87598039
0.89803922 0.89803922 0.89803922
0.91813725 0.91813725 0.91813725
0.91764706 0.91764706 0.91764706
0.061764706 0.061764706 0.061764706
0.097058824 0.097058824 0.097058824
0.12794118 0.12794118 0.12794118
0.17922794 0.17922794 0.17922794
0.27794118 0.27794118 0.27794118
0.38039216 0.38039216 0.38039216
0.47352941 0.47352941 0.47352941
0.5783701 0.5783701 0.5783701
0.67058824 0.67058824 0.67058824
0.08872549 0.08872549 0.08872549
0.11617647 0.11617647 0.11617647
0.15870098 0.15870098 0.15870098
0.21476716 0.21476716 0.21476716
0.28924632 0.28924632 0.28924632
0.39295343 0.39295343 0.39295343
0.48872549 0.48872549 0.48872549
0.59276195 0.59276195 0.59276195
0.68927696 0.68927696 0.68927696
0.1622549 0.1622549 0.1622549
0.16220895 0.16220895 0.16220895
0.21081495 0.21081495 0.21081495
0.26801471 0.26801471 0.26801471
0.34852941 0.34852941 0.34852941
0.43823529 0.43823529 0.43823529
0.52545956 0.52545956 0.52545956
0.6192402 0.6192402 0.6192402
0.70588235 0.70588235 0.70588235
0.27009804 0.27009804 0.27009804
0.27156863 0.27156863 0.27156863
0.27941176 0.27941176 0.27941176
0.33399969 0.33399969 0.33399969
0.40710784 0.40710784 0.40710784
0.48596814 0.48596814 0.48596814
0.57224265 0.57224265 0.57224265
0.65490196 0.65490196 0.65490196
0.72794118 0.72794118 0.72794118
0.40686275 0.40686275 0.40686275
0.39754902 0.39754902 0.39754902
0.38578431 0.38578431 0.38578431
0.4129902 0.4129902 0.4129902
0.46911765 0.46911765 0.46911765
0.54381127 0.54381127 0.54381127
0.62555147 0.62555147 0.62555147
0.69901961 0.69901961 0.69901961
0.76838235 0.76838235 0.76838235
0.51911765 0.51911765 0.51911765
0.51127451 0.51127451 0.51127451
0.50214461 0.50214461 0.50214461
0.51109835 0.51109835 0.51109835
0.54656863 0.54656863 0.54656863
0.60330116 0.60330116 0.60330116
0.66979167 0.66979167 0.66979167
0.74015778 0.74015778 0.74015778
0.80900735 0.80900735 0.80900735
0.64227941 0.64227941 0.64227941
0.63137255 0.63137255 0.63137255
0.61847426 0.61847426 0.61847426
0.62348346 0.62348346 0.62348346
0.64810049 0.64810049 0.64810049
0.68247549 0.68247549 0.68247549
0.72251838 0.72251838 0.72251838
0.78590686 0.78590686 0.78590686
0.84019608 0.84019608 0.84019608
0.76617647 0.76617647 0.76617647
0.7622549 0.7622549 0.7622549
0.74673713 0.74673713 0.74673713
0.74689798 0.74689798 0.74689798
0.76075368 0.76075368 0.76075368
0.78768382 0.78768382 0.78768382
0.81409314 0.81409314 0.81409314
0.85212929 0.85212929 0.85212929
0.88327206 0.88327206 0.88327206
0.87058824 0.87058824 0.87058824
0.85539216 0.85539216 0.85539216
0.8627451 0.8627451 0.8627451
0.84803922 0.84803922 0.84803922
0.86421569 0.86421569 0.86421569
0.88253676 0.88253676 0.88253676
0.89117647 0.89117647 0.89117647
0.92604167 0.92604167 0.92604167
0.93284314 0.93284314 0.93284314
0.13333333 0.13333333 0.13333333
0.16127451 0.16127451 0.16127451
0.19215686 0.19215686 0.19215686
0.24607843 0.24607843 0.24607843
0.31960784 0.31960784 0.31960784
0.41519608 0.41519608 0.41519608
0.50784314 0.50784314 0.50784314
0.60061275 0.60061275 0.60061275
0.67745098 0.67745098 0.67745098
0.13529412 0.13529412 0.13529412
0.16519608 0.16519608 0.16519608
0.19264706 0.19264706 0.19264706
0.25716912 0.25716912 0.25716912
0.32892157 0.32892157 0.32892157
0.43172488 0.43172488 0.43172488
0.52533701 0.52533701 0.52533701
0.61570159 0.61570159 0.61570159
0.6935049 0.6935049 0.6935049
0.19705882 0.19705882 0.19705882
0.21522672 0.21522672 0.21522672
0.25018382 0.25018382 0.25018382
0.30784314 0.30784314 0.30784314
0.38125 0.38125 0.38125
0.47303922 0.47303922 0.47303922
0.55055147 0.55055147 0.55055147
0.63480392 0.63480392 0.63480392
0.71740196 0.71740196 0.71740196
0.33333333 0.33333333 0.33333333
0.33333333 0.33333333 0.33333333
0.32650123 0.32650123 0.32650123
0.3689951 0.3689951 0.3689951
0.43333333 0.43333333 0.43333333
0.51329657 0.51329657 0.51329657
0.58890931 0.58890931 0.58890931
0.67000613 0.67000613 0.67000613
0.74656863 0.74656863 0.74656863
0.4627451 0.4627451 0.4627451
0.45122549 0.45122549 0.45122549
0.42990196 0.42990196 0.42990196
0.43976716 0.43976716 0.43976716
0.49117647 0.49117647 0.49117647
0.56090686 0.56090686 0.56090686
0.63811275 0.63811275 0.63811275
0.71231618 0.71231618 0.71231618
0.77647059 0.77647059 0.77647059
0.56715686 0.56715686 0.56715686
0.5537837 0.5537837 0.5537837
0.5364277 0.5364277 0.5364277
0.53676471 0.53676471 0.53676471
0.5752451 0.5752451 0.5752451
0.6245098 0.6245098 0.6245098
0.6864277 0.6864277 0.6864277
0.75553002 0.75553002 0.75553002
0.81139706 0.81139706 0.81139706
0.67034314 0.67034314 0.67034314
0.66176471 0.66176471 0.66176471
0.65238971 0.65238971 0.65238971
0.65183824 0.65183824 0.65183824
0.67230392 0.67230392 0.67230392
0.69770221 0.69770221 0.69770221
0.74044118 0.74044118 0.74044118
0.80269608 0.80269608 0.80269608
0.84730392 0.84730392 0.84730392
0.77843137 0.77843137 0.77843137
0.77755821 0.77755821 0.77755821
0.77034314 0.77034314 0.77034314
0.76960784 0.76960784 0.76960784
0.77769608 0.77769608 0.77769608
0.79701287 0.79701287 0.79701287
0.82196691 0.82196691 0.82196691
0.86334252 0.86334252 0.86334252
0.89509804 0.89509804 0.89509804
0.85882353 0.85882353 0.85882353
0.8627451 0.8627451 0.8627451
0.8745098 0.8745098 0.8745098
0.86813725 0.86813725 0.86813725
0.86813725 0.86813725 0.86813725
0.87843137 0.87843137 0.87843137
0.90269608 0.90269608 0.90269608
0.92463235 0.92463235 0.92463235
0.95 0.95 0.95
0.24509804 0.24509804 0.24509804
0.26421569 0.26421569 0.26421569
0.30980392 0.30980392 0.30980392
0.33866422 0.33866422 0.33866422
0.39607843 0.39607843 0.39607843
0.47303922 0.47303922 0.47303922
0.54901961 0.54901961 0.54901961
0.63529412 0.63529412 0.63529412
0.7122549 0.7122549 0.7122549
0.25637255 0.25637255 0.25637255
0.27172947 0.27172947 0.27172947
0.31470588 0.31470588 0.31470588
0.34037224 0.34037224 0.34037224
0.39852941 0.39852941 0.39852941
0.49117647 0.49117647 0.49117647
0.56928615 0.56928615 0.56928615
0.65285692 0.65285692 0.65285692
0.72009804 0.72009804 0.72009804
0.28627451 0.28627451 0.28627451
0.28443627 0.28443627 0.28443627
0.33737745 0.33737745 0.33737745
0.38451287 0.38451287 0.38451287
0.43333333 0.43333333 0.43333333
0.5151348 0.5151348 0.5151348
0.59181985 0.59181985 0.59181985
0.66617647 0.66617647 0.66617647
0.73517157 0.73517157 0.73517157
0.3778799 0.3778799 0.3778799
0.38362439 0.38362439 0.38362439
0.39264706 0.39264706 0.39264706
0.42401961 0.42401961 0.42401961
0.47570466 0.47570466 0.47570466
0.55124081 0.55124081 0.55124081
0.62251838 0.62251838 0.62251838
0.68480392 0.68480392 0.68480392
0.75931373 0.75931373 0.75931373
0.52132353 0.52132353 0.52132353
0.51112132 0.51112132 0.51112132
0.4911152 0.4911152 0.4911152
0.49681373 0.49681373 0.49681373
0.53210784 0.53210784 0.53210784
0.59408701 0.59408701 0.59408701
0.66519608 0.66519608 0.66519608
0.72696078 0.72696078 0.72696078
0.78872549 0.78872549 0.78872549
0.61715686 0.61715686 0.61715686
0.60942862 0.60942862 0.60942862
0.59437806 0.59437806 0.59437806
0.5872549 0.5872549 0.5872549
0.60977328 0.60977328 0.60977328
0.65839461 0.65839461 0.65839461
0.70908395 0.70908395 0.70908395
0.76807598 0.76807598 0.76807598
0.82352941 0.82352941 0.82352941
0.71127451 0.71127451 0.71127451
0.70735294 0.70735294 0.70735294
0.6986826 0.6986826 0.6986826
0.68941483 0.68941483 0.68941483
0.69093137 0.69093137 0.69093137
0.72169118 0.72169118 0.72169118
0.75931373 0.75931373 0.75931373
0.81619179 0.81619179 0.81619179
0.85588235 0.85588235 0.85588235
0.80392157 0.80392157 0.80392157
0.80147059 0.80147059 0.80147059
0.78877145 0.78877145 0.78877145
0.79215686 0.79215686 0.79215686
0.79607843 0.79607843 0.79607843
0.80686275 0.80686275 0.80686275
0.83363971 0.83363971 0.83363971
0.86439951 0.86439951 0.86439951
0.89215686 0.89215686 0.89215686
0.88088235 0.88088235 0.88088235
0.87696078 0.87696078 0.87696078
0.86617647 0.86617647 0.86617647
0.87640931 0.87640931 0.87640931
0.88480392 0.88480392 0.88480392
0.88927696 0.88927696 0.88927696
0.89730392 0.89730392 0.89730392
0.91783088 0.91783088 0.91783088
0.92696078 0.92696078 0.92696078
0.38039216 0.38039216 0.38039216
0.39166667 0.39166667 0.39166667
0.43431373 0.43431373 0.43431373
0.48088235 0.48088235 0.48088235
0.51470588 0.51470588 0.51470588
0.55245098 0.55245098 0.55245098
0.60980392 0.60980392 0.60980392
0.68553922 0.68553922 0.68553922
0.75098039 0.75098039 0.75098039
0.38995098 0.38995098 0.38995098
0.40122549 0.40122549 0.40122549
0.44099265 0.44099265 0.44099265
0.48455882 0.48455882 0.48455882
0.50968137 0.50968137 0.50968137
0.54068627 0.54068627 0.54068627
0.61721814 0.61721814 0.61721814
0.69509804 0.69509804 0.69509804
0.75686275 0.75686275 0.75686275
0.40686275 0.40686275 0.40686275
0.4254902 0.4254902 0.4254902
0.45392157 0.45392157 0.45392157
0.49411765 0.49411765 0.49411765
0.52181373 0.52181373 0.52181373
0.56004902 0.56004902 0.56004902
0.63713235 0.63713235 0.63713235
0.70661765 0.70661765 0.70661765
0.7622549 0.7622549 0.7622549
0.45784314 0.45784314 0.45784314
0.46930147 0.46930147 0.46930147
0.46936275 0.46936275 0.46936275
0.51228554 0.51228554 0.51228554
0.55183824 0.55183824 0.55183824
0.6129902 0.6129902 0.6129902
0.66746324 0.66746324 0.66746324
0.7254902 0.7254902 0.7254902
0.78088235 0.78088235 0.78088235
0.53235294 0.53235294 0.53235294
0.53406863 0.53406863 0.53406863
0.54656863 0.54656863 0.54656863
0.56004902 0.56004902 0.56004902
0.57941176 0.57941176 0.57941176
0.63492647 0.63492647 0.63492647
0.69607843 0.69607843 0.69607843
0.75 0.75 0.75
0.79607843 0.79607843 0.79607843
0.6495098 0.6495098 0.6495098
0.65196078 0.65196078 0.65196078
0.65220588 0.65220588 0.65220588
0.64754902 0.64754902 0.64754902
0.65367647 0.65367647 0.65367647
0.68088235 0.68088235 0.68088235
0.73235294 0.73235294 0.73235294
0.78936887 0.78936887 0.78936887
0.83284314 0.83284314 0.83284314
0.73823529 0.73823529 0.73823529
0.74142157 0.74142157 0.74142157
0.7439951 0.7439951 0.7439951
0.73682598 0.73682598 0.73682598
0.73186275 0.73186275 0.73186275
0.74411765 0.74411765 0.74411765
0.7817402 0.7817402 0.7817402
0.82567402 0.82567402 0.82567402
0.86372549 0.86372549 0.86372549
0.82696078 0.82696078 0.82696078
0.82647059 0.82647059 0.82647059
0.82696078 0.82696078 0.82696078
0.82662377 0.82662377 0.82662377
0.81519608 0.81519608 0.81519608
0.81452206 0.81452206 0.81452206
0.84093137 0.84093137 0.84093137
0.86397059 0.86397059 0.86397059
0.89264706 0.89264706 0.89264706
0.91372549 0.91372549 0.91372549
0.9 0.9 0.9
0.90441176 0.90441176 0.90441176
0.89803922 0.89803922 0.89803922
0.90098039 0.90098039 0.90098039
0.89558824 0.89558824 0.89558824
0.90980392 0.90980392 0.90980392
0.91764706 0.91764706 0.91764706
0.9254902 0.9254902 0.9254902
0.52745098 0.52745098 0.52745098
0.53137255 0.53137255 0.53137255
0.55686275 0.55686275 0.55686275
0.6004902 0.6004902 0.6004902
0.6379902 0.6379902 0.6379902
0.66078431 0.66078431 0.66078431
0.67598039 0.67598039 0.67598039
0.72843137 0.72843137 0.72843137
0.79362745 0.79362745 0.79362745
0.53658088 0.53658088 0.53658088
0.54422488 0.54422488 0.54422488
0.56519608 0.56519608 0.56519608
0.60183058 0.60183058 0.60183058
0.63529412 0.63529412 0.63529412
0.66107537 0.66107537 0.66107537
0.67758885 0.67758885 0.67758885
0.73551624 0.73551624 0.73551624
0.79626225 0.79626225 0.79626225
0.54313725 0.54313725 0.54313725
0.55779718 0.55779718 0.55779718
0.58403799 0.58403799 0.58403799
0.61450674 0.61450674 0.61450674
0.64234069 0.64234069 0.64234069
0.66470588 0.66470588 0.66470588
0.68921569 0.68921569 0.68921569
0.74276961 0.74276961 0.74276961
0.79963235 0.79963235 0.79963235
0.55104167 0.55104167 0.55104167
0.55704657 0.55704657 0.55704657
0.5783701 0.5783701 0.5783701
0.6158318 0.6158318 0.6158318
0.65343137 0.65343137 0.65343137
0.68529412 0.68529412 0.68529412
0.72310049 0.72310049 0.72310049
0.76568627 0.76568627 0.76568627
0.80876225 0.80876225 0.80876225
0.60441176 0.60441176 0.60441176
0.59690564 0.59690564 0.59690564
0.60275735 0.60275735 0.60275735
0.63042279 0.63042279 0.63042279
0.6625 0.6625 0.6625
0.69142157 0.69142157 0.69142157
0.73308824 0.73308824 0.73308824
0.78268995 0.78268995 0.78268995
0.825 0.825 0.825
0.68284314 0.68284314 0.68284314
0.68039216 0.68039216 0.68039216
0.68615196 0.68615196 0.68615196
0.69437806 0.69437806 0.69437806
0.70272672 0.70272672 0.70272672
0.72318474 0.72318474 0.72318474
0.75709252 0.75709252 0.75709252
0.80373775 0.80373775 0.80373775
0.84215686 0.84215686 0.84215686
0.76090686 0.76090686 0.76090686
0.75859375 0.75859375 0.75859375
0.76620711 0.76620711 0.76620711
0.77303922 0.77303922 0.77303922
0.77273284 0.77273284 0.77273284
0.77745098 0.77745098 0.77745098
0.80625 0.80625 0.80625
0.84215686 0.84215686 0.84215686
0.8754902 0.8754902 0.8754902
0.84430147 0.84430147 0.84430147
0.84197304 0.84197304 0.84197304
0.84557292 0.84557292 0.84557292
0.84981618 0.84981618 0.84981618
0.84568015 0.84568015 0.84568015
0.84424786 0.84424786 0.84424786
0.85833333 0.85833333 0.85833333
0.88511029 0.88511029 0.88511029
0.91439951 0.91439951 0.91439951
0.92156863 0.92156863 0.92156863
0.92156863 0.92156863 0.92156863
0.91911765 0.91911765 0.91911765
0.91764706 0.91764706 0.91764706
0.91519608 0.91519608 0.91519608
0.91127451 0.91127451 0.91127451
0.91580882 0.91580882 0.91580882
0.93118873 0.93118873 0.93118873
0.95441176 0.95441176 0.95441176
0.65882353 0.65882353 0.65882353
0.66617647 0.66617647 0.66617647
0.68235294 0.68235294 0.68235294
0.72009804 0.72009804 0.72009804
0.75 0.75 0.75
0.77267157 0.77267157 0.77267157
0.77156863 0.77156863 0.77156863
0.76838235 0.76838235 0.76838235
0.81176471 0.81176471 0.81176471
0.67009804 0.67009804 0.67009804
0.6745098 0.6745098 0.6745098
0.68912377 0.68912377 0.68912377
0.71911765 0.71911765 0.71911765
0.7495098 0.7495098 0.7495098
0.76875 0.76875 0.76875
0.77156863 0.77156863 0.77156863
0.78246017 0.78246017 0.78246017
0.81813725 0.81813725 0.81813725
0.67916667 0.67916667 0.67916667
0.68627451 0.68627451 0.68627451
0.7002451 0.7002451 0.7002451
0.71948529 0.71948529 0.71948529
0.74803922 0.74803922 0.74803922
0.76492034 0.76492034 0.76492034
0.77156863 0.77156863 0.77156863
0.78284314 0.78284314 0.78284314
0.8 0.8 0.8
0.67843137 0.67843137 0.67843137
0.68235294 0.68235294 0.68235294
0.68722426 0.68722426 0.68722426
0.71727941 0.71727941 0.71727941
0.74693627 0.74693627 0.74693627
0.76519608 0.76519608 0.76519608
0.77987132 0.77987132 0.77987132
0.80526961 0.80526961 0.80526961
0.83088235 0.83088235 0.83088235
0.69117647 0.69117647 0.69117647
0.68339461 0.68339461 0.68339461
0.68137255 0.68137255 0.68137255
0.71960784 0.71960784 0.71960784
0.75294118 0.75294118 0.75294118
0.77181373 0.77181373 0.77181373
0.7932598 0.7932598 0.7932598
0.83406863 0.83406863 0.83406863
0.85980392 0.85980392 0.85980392
0.73921569 0.73921569 0.73921569
0.73008578 0.73008578 0.73008578
0.73431373 0.73431373 0.73431373
0.74060968 0.74060968 0.74060968
0.76219363 0.76219363 0.76219363
0.776731 0.776731 0.776731
0.80358456 0.80358456 0.80358456
0.84185049 0.84185049 0.84185049
0.87303922 0.87303922 0.87303922
0.78431373 0.78431373 0.78431373
0.78039216 0.78039216 0.78039216
0.79172794 0.79172794 0.79172794
0.79947917 0.79947917 0.79947917
0.80294118 0.80294118 0.80294118
0.81286765 0.81286765 0.81286765
0.83823529 0.83823529 0.83823529
0.86911765 0.86911765 0.86911765
0.89215686 0.89215686 0.89215686
0.85735294 0.85735294 0.85735294
0.85255821 0.85255821 0.85255821
0.86485907 0.86485907 0.86485907
0.87291667 0.87291667 0.87291667
0.87297794 0.87297794 0.87297794
0.8769761 0.8769761 0.8769761
0.89142157 0.89142157 0.89142157
0.91090686 0.91090686 0.91090686
0.92647059 0.92647059 0.92647059
0.93823529 0.93823529 0.93823529
0.93039216 0.93039216 0.93039216
0.9372549 0.9372549 0.9372549
0.9314951 0.9314951 0.9314951
0.93382353 0.93382353 0.93382353
0.94276961 0.94276961 0.94276961
0.94215686 0.94215686 0.94215686
0.95294118 0.95294118 0.95294118
0.96470588 0.96470588 0.96470588
0.79019608 0.79019608 0.79019608
0.7971201 0.7971201 0.7971201
0.80147059 0.80147059 0.80147059
0.81194853 0.81194853 0.81194853
0.83063725 0.83063725 0.83063725
0.85214461 0.85214461 0.85214461
0.85637255 0.85637255 0.85637255
0.85202206 0.85202206 0.85202206
0.86421569 0.86421569 0.86421569
0.79803922 0.79803922 0.79803922
0.80141697 0.80141697 0.80141697
0.80185355 0.80185355 0.80185355
0.81354167 0.81354167 0.81354167
0.83088235 0.83088235 0.83088235
0.85214461 0.85214461 0.85214461
0.85637255 0.85637255 0.85637255
0.86377911 0.86377911 0.86377911
0.87892157 0.87892157 0.87892157
0.79803922 0.79803922 0.79803922
0.79803922 0.79803922 0.79803922
0.80566789 0.80566789 0.80566789
0.81738664 0.81738664 0.81738664
0.83474265 0.83474265 0.83474265
0.85214461 0.85214461 0.85214461
0.85980392 0.85980392 0.85980392
0.86061581 0.86061581 0.86061581
0.86678922 0.86678922 0.86678922
0.80196078 0.80196078 0.80196078
0.80149357 0.80149357 0.80149357
0.80183824 0.80183824 0.80183824
0.81746324 0.81746324 0.81746324
0.83783701 0.83783701 0.83783701
0.85385263 0.85385263 0.85385263
0.86636029 0.86636029 0.86636029
0.87440257 0.87440257 0.87440257
0.88988971 0.88988971 0.88988971
0.80759804 0.80759804 0.80759804
0.80196078 0.80196078 0.80196078
0.796875 0.796875 0.796875
0.81960784 0.81960784 0.81960784
0.84068627 0.84068627 0.84068627
0.85637255 0.85637255 0.85637255
0.87291667 0.87291667 0.87291667
0.89534314 0.89534314 0.89534314
0.9004902 0.9004902 0.9004902
0.82254902 0.82254902 0.82254902
0.81470588 0.81470588 0.81470588
0.80294118 0.80294118 0.80294118
0.8256204 0.8256204 0.8256204
0.84721201 0.84721201 0.84721201
0.85998775 0.85998775 0.85998775
0.87647059 0.87647059 0.87647059
0.89918045 0.89918045 0.89918045
0.91617647 0.91617647 0.91617647
0.85686275 0.85686275 0.85686275
0.84676777 0.84676777 0.84676777
0.84500613 0.84500613 0.84500613
0.84901961 0.84901961 0.84901961
0.85857843 0.85857843 0.85857843
0.8660386 0.8660386 0.8660386
0.87965686 0.87965686 0.87965686
0.90439645 0.90439645 0.90439645
0.92598039 0.92598039 0.92598039
0.90036765 0.90036765 0.90036765
0.88474265 0.88474265 0.88474265
0.88762255 0.88762255 0.88762255
0.89585631 0.89585631 0.89585631
0.8995098 0.8995098 0.8995098
0.90735294 0.90735294 0.90735294
0.91493566 0.91493566 0.91493566
0.93431373 0.93431373 0.93431373
0.9377451 0.9377451 0.9377451
0.94068627 0.94068627 0.94068627
0.94117647 0.94117647 0.94117647
0.94019608 0.94019608 0.94019608
0.93578431 0.93578431 0.93578431
0.9495098 0.9495098 0.9495098
0.95686275 0.95686275 0.95686275
0.96078431 0.96078431 0.96078431
0.96127451 0.96127451 0.96127451
0.96470588 0.96470588 0.96470588
0.89019608 0.89019608 0.89019608
0.85098039 0.85098039 0.85098039
0.89215686 0.89215686 0.89215686
0.8995098 0.8995098 0.8995098
0.90392157 0.90392157 0.90392157
0.92156863 0.92156863 0.92156863
0.93333333 0.93333333 0.93333333
0.93333333 0.93333333 0.93333333
0.94509804 0.94509804 0.94509804
0.90637255 0.90637255 0.90637255
0.8622549 0.8622549 0.8622549
0.9 0.9 0.9
0.90931373 0.90931373 0.90931373
0.91151961 0.91151961 0.91151961
0.9254902 0.9254902 0.9254902
0.93333333 0.93333333 0.93333333
0.9372549 0.9372549 0.9372549
0.95245098 0.95245098 0.95245098
0.89411765 0.89411765 0.89411765
0.89362745 0.89362745 0.89362745
0.90171569 0.90171569 0.90171569
0.90588235 0.90588235 0.90588235
0.91568627 0.91568627 0.91568627
0.92647059 0.92647059 0.92647059
0.92941176 0.92941176 0.92941176
0.92941176 0.92941176 0.92941176
0.93529412 0.93529412 0.93529412
0.89411765 0.89411765 0.89411765
0.89932598 0.89932598 0.89932598
0.90441176 0.90441176 0.90441176
0.90980392 0.90980392 0.90980392
0.9125 0.9125 0.9125
0.90496324 0.90496324 0.90496324
0.92892157 0.92892157 0.92892157
0.93762255 0.93762255 0.93762255
0.9504902 0.9504902 0.9504902
0.89411765 0.89411765 0.89411765
0.89803922 0.89803922 0.89803922
0.89803922 0.89803922 0.89803922
0.90367647 0.90367647 0.90367647
0.91764706 0.91764706 0.91764706
0.92107843 0.92107843 0.92107843
0.94215686 0.94215686 0.94215686
0.94705882 0.94705882 0.94705882
0.93529412 0.93529412 0.93529412
0.90196078 0.90196078 0.90196078
0.89803922 0.89803922 0.89803922
0.90134804 0.90134804 0.90134804
0.90496324 0.90496324 0.90496324
0.92352941 0.92352941 0.92352941
0.93088235 0.93088235 0.93088235
0.93406863 0.93406863 0.93406863
0.9495098 0.9495098 0.9495098
0.96764706 0.96764706 0.96764706
0.91862745 0.91862745 0.91862745
0.90747549 0.90747549 0.90747549
0.91372549 0.91372549 0.91372549
0.91654412 0.91654412 0.91654412
0.92598039 0.92598039 0.92598039
0.93333333 0.93333333 0.93333333
0.94901961 0.94901961 0.94901961
0.95036765 0.95036765 0.95036765
0.96470588 0.96470588 0.96470588
0.93284314 0.93284314 0.93284314
0.93333333 0.93333333 0.93333333
0.92977941 0.92977941 0.92977941
0.94166667 0.94166667 0.94166667
0.94338235 0.94338235 0.94338235
0.94509804 0.94509804 0.94509804
0.95294118 0.95294118 0.95294118
0.95686275 0.95686275 0.95686275
0.96078431 0.96078431 0.96078431
0.97254902 0.97254902 0.97254902
0.95686275 0.95686275 0.95686275
0.94901961 0.94901961 0.94901961
0.96470588 0.96470588 0.96470588
0.97058824 0.97058824 0.97058824
0.96862745 0.96862745 0.96862745
0.98039216 0.98039216 0.98039216
0.97254902 0.97254902 0.97254902
0.96862745 0.96862745 0.96862745
