site/assets/luts/sha256-cf00e8b5c48d192e3c3ecfe562e001b804b63ca397b6aa63cfe58911091e1be6.cube
# LUTr-Schema-Version: 2
# LUTr-ID: sha256-cf00e8b5c48d192e3c3ecfe562e001b804b63ca397b6aa63cfe58911091e1be6
# LUTr-Title: polaroid 690 warm --
# LUTr-Collection: Natron HaldCLUT
# LUTr-Collection-ID: natron-haldclut-presets
# LUTr-Source: https://github.com/NatronGitHub/clut
# LUTr-Retrieved: 2026-07-27
# LUTr-Source-File: submissions/natron-haldclut-presets/instant_pro/polaroid_690_warm_--.png
# LUTr-Source-Format: HALD-PNG
# LUTr-Source-SHA256: cf00e8b5c48d192e3c3ecfe562e001b804b63ca397b6aa63cfe58911091e1be6
# LUTr-License: CC-BY-SA-4.0
# LUTr-License-URL: https://github.com/NatronGitHub/clut#license
# LUTr-License-Basis: repo-license-file
# LUTr-Transform-Class: film-emulation
# LUTr-Tags: creative, film, film-emulation, hald-clut, natron, png, warm, cube
# LUTr-Input-Color-Space: srgb
# LUTr-Input-Gamut: rec709
# LUTr-Input-Transfer: srgb
# LUTr-Output-Color-Space: srgb
# LUTr-Output-Gamut: rec709
# LUTr-Output-Transfer: srgb
# LUTr-Color-Space-Confidence: assumed-display-referred
# LUTr-Domain-Normalized: true
# LUTr-Shaper: none
# LUTr-Original-Grid: 64x64x64
# LUTr-Conversion-Grid: 25x25x25
# LUTr-Conversion-Interpolation: trilinear
# LUTr-Conversion-Method: HALD-PNG LUT image decoded at 16-bit and sampled to 25x25x25 3D CUBE
# LUTr-Conversion-Tool: LUTr scripts/convert-all-to-cube.mjs 2.0.0
# LUTr-Conversion-Date: 2026-07-27
# LUTr-Note: Preserve this metadata and the upstream license notices when redistributing.
TITLE "polaroid 690 warm --"
LUT_3D_SIZE 5
DOMAIN_MIN 0 0 0
DOMAIN_MAX 1 1 1
0 0 0
0.29509804 0.0088235294 0.0078431373
0.57058824 0 0.0039215686
0.82745098 0 0
0.99607843 0 0
0.0039215686 0.24607843 0
0.29828431 0.25294118 0.0039215686
0.67303922 0.19509804 0
0.88431373 0.027941176 0
0.99607843 0.0039215686 0
0.0078431373 0.52352941 0
0.24117647 0.52352941 0
0.60490196 0.5372549 0.0029411765
0.89215686 0.5495098 0.00049019608
0.99803922 0.52745098 0.0039215686
0.19313725 0.72941176 0
0.33137255 0.7254902 0
0.56960784 0.73431373 0
0.84705882 0.76470588 0.0039215686
0.99215686 0.7872549 0.010784314
0.53333333 0.96078431 0.13333333
0.58431373 0.95784314 0.091176471
0.72745098 0.95490196 0.0078431373
0.89705882 0.96176471 0
0.99607843 0.97254902 0
0.019607843 0.0078431373 0.24019608
0.28210784 0 0.26004902
0.57156863 0 0.2004902
0.79142157 0 0.15980392
0.98137255 0 0.1
0.078676471 0.25294118 0.24411765
0.33897059 0.27156863 0.27254902
0.62254902 0.19816176 0.23431373
0.8435049 0.023590686 0.171875
0.99607843 0.0039215686 0.099019608
0.1504902 0.54460784 0.2372549
0.33272059 0.54607843 0.22022059
0.62352941 0.55563725 0.19240196
0.89522059 0.56115196 0.23762255
1 0.5377451 0.22598039
0.26372549 0.74019608 0.2002451
0.37824755 0.73627451 0.1754902
0.57352941 0.73198529 0.10392157
0.84761029 0.76544118 0.089338235
0.99607843 0.79509804 0.15588235
0.51862745 0.96078431 0.29117647
0.57083333 0.95612745 0.26764706
0.7122549 0.95735294 0.22156863
0.88823529 0.96372549 0.15367647
1 0.98333333 0
0 0.025490196 0.5745098
0.22156863 0.0088235294 0.59166667
0.6372549 0.011764706 0.6127451
0.81960784 0.0098039216 0.50245098
0.98431373 0.0039215686 0.44509804
0.12647059 0.26813725 0.56078431
0.3435049 0.28333333 0.58811275
0.6497549 0.31446078 0.61568627
0.81727941 0.24264706 0.50441176
0.99117647 0.0044117647 0.44313725
0.26666667 0.55294118 0.56568627
0.40294118 0.56323529 0.58039216
0.64705882 0.5754902 0.59215686
0.85563725 0.52377451 0.54705882
0.99607843 0.39411765 0.43921569
0.35686275 0.77352941 0.56127451
0.43639706 0.77107843 0.55012255
0.6 0.75490196 0.50980392
0.84215686 0.77193627 0.51029412
0.99607843 0.79901961 0.55882353
0.46470588 0.95490196 0.55882353
0.53921569 0.96666667 0.54754902
0.67254902 0.95294118 0.50882353
0.86764706 0.96617647 0.47254902
0.99607843 0.97843137 0.46470588
0.048039216 0.10980392 0.82352941
0.32671569 0.11568627 0.83504902
0.64166667 0.14901961 0.85588235
0.90122549 0.20882353 0.85
0.99607843 0.19509804 0.78137255
0.24828431 0.30294118 0.80784314
0.38370098 0.31568627 0.82781863
0.65379902 0.35122549 0.85232843
0.89705882 0.37922794 0.85784314
0.99509804 0.3370098 0.78235294
0.22794118 0.50784314 0.76666667
0.36115196 0.51813725 0.77843137
0.62598039 0.56470588 0.81862745
0.88051471 0.60796569 0.84301471
0.99068627 0.52156863 0.77647059
0.40122549 0.76789216 0.80073529
0.4745098 0.76819853 0.80220588
0.64558824 0.7754902 0.81127451
0.85367647 0.79142157 0.82683824
0.99607843 0.72083333 0.76323529
0.5745098 0.95980392 0.83137255
0.61053922 0.96470588 0.83529412
0.7 0.95637255 0.80931373
0.82818627 0.94313725 0.77181373
0.99215686 0.98039216 0.78137255
0.47843137 0.30980392 0.98039216
0.57156863 0.33137255 0.99509804
0.72352941 0.35490196 0.98823529
0.91666667 0.40882353 0.99215686
0.99607843 0.47058824 0.99215686
0.5127451 0.4254902 0.98823529
0.57745098 0.43627451 0.99191176
0.73039216 0.44656863 0.98970588
0.91568627 0.49901961 0.99509804
1 0.54803922 0.99607843
0.47254902 0.59019608 0.99019608
0.54803922 0.59313725 0.98970588
0.70490196 0.60196078 0.98039216
0.89901961 0.65784314 0.98823529
0.99607843 0.7 0.99215686
0.41568627 0.76862745 0.95686275
0.47377451 0.77083333 0.96985294
0.63431373 0.76470588 0.97598039
0.86078431 0.8 0.98137255
0.99607843 0.84313725 0.97843137
0.66666667 0.98039216 0.98431373
0.67941176 0.97058824 0.9754902
0.75882353 0.95686275 0.95882353
0.8754902 0.97647059 0.98431373
0.99607843 0.99215686 0.99215686
