site/assets/luts/sha256-3d01b9cb1d3ba324206d9597c82f960551e1a409902bece5adb65212c18f963c.cube
# LUTr-Schema-Version: 2
# LUTr-ID: sha256-3d01b9cb1d3ba324206d9597c82f960551e1a409902bece5adb65212c18f963c
# LUTr-Title: polaroid px-680 warm -
# LUTr-Collection: Natron HaldCLUT
# LUTr-Collection-ID: natron-haldclut-presets
# LUTr-Source: https://github.com/NatronGitHub/clut
# LUTr-Retrieved: 2026-07-27
# LUTr-Source-File: submissions/natron-haldclut-presets/instant_consumer/polaroid_px-680_warm_-.png
# LUTr-Source-Format: HALD-PNG
# LUTr-Source-SHA256: 3d01b9cb1d3ba324206d9597c82f960551e1a409902bece5adb65212c18f963c
# LUTr-License: CC-BY-SA-4.0
# LUTr-License-URL: https://github.com/NatronGitHub/clut#license
# LUTr-License-Basis: repo-license-file
# LUTr-Transform-Class: film-emulation
# LUTr-Tags: creative, film, film-emulation, hald-clut, natron, png, warm, cube
# LUTr-Input-Color-Space: srgb
# LUTr-Input-Gamut: rec709
# LUTr-Input-Transfer: srgb
# LUTr-Output-Color-Space: srgb
# LUTr-Output-Gamut: rec709
# LUTr-Output-Transfer: srgb
# LUTr-Color-Space-Confidence: assumed-display-referred
# LUTr-Domain-Normalized: true
# LUTr-Shaper: none
# LUTr-Original-Grid: 64x64x64
# LUTr-Conversion-Grid: 25x25x25
# LUTr-Conversion-Interpolation: trilinear
# LUTr-Conversion-Method: HALD-PNG LUT image decoded at 16-bit and sampled to 25x25x25 3D CUBE
# LUTr-Conversion-Tool: LUTr scripts/convert-all-to-cube.mjs 2.0.0
# LUTr-Conversion-Date: 2026-07-27
# LUTr-Note: Preserve this metadata and the upstream license notices when redistributing.
TITLE "polaroid px-680 warm -"
LUT_3D_SIZE 5
DOMAIN_MIN 0 0 0
DOMAIN_MAX 1 1 1
0.16470588 0.14509804 0.0078431373
0.23627451 0.14509804 0.0049019608
0.54901961 0.15294118 0.0039215686
0.87058824 0.27745098 0.0029411765
1 0.43137255 0.047058824
0.15392157 0.21764706 0.0049019608
0.24436275 0.22941176 0.00098039216
0.5754902 0.26176471 0
0.86764706 0.36789216 0
0.99607843 0.48921569 0.02254902
0.092156863 0.43921569 0.0039215686
0.23333333 0.45196078 0.0039215686
0.55980392 0.50980392 0
0.83235294 0.55343137 0.0039215686
0.97058824 0.60392157 0.011764706
0.13921569 0.67058824 0.019607843
0.27843137 0.67352941 0.03627451
0.52009804 0.69901961 0.074509804
0.7872549 0.74803922 0.14240196
0.94313725 0.77843137 0.27156863
0.59215686 0.85098039 0.42352941
0.63431373 0.85882353 0.44607843
0.70588235 0.85098039 0.46470588
0.8254902 0.85882353 0.50392157
0.9254902 0.87058824 0.57647059
0.17647059 0.14901961 0.080392157
0.25294118 0.16078431 0.083333333
0.55882353 0.14901961 0.11813725
0.86960784 0.31446078 0.20098039
0.98431373 0.53529412 0.32058824
0.19117647 0.24117647 0.11151961
0.30122549 0.26593137 0.11746324
0.61188725 0.2932598 0.13002451
0.8658701 0.41789216 0.19613971
0.98455882 0.56176471 0.30955882
0.23235294 0.45784314 0.12647059
0.3182598 0.46997549 0.13480392
0.59656863 0.52303922 0.12647059
0.84411765 0.55686275 0.11691176
0.97401961 0.63382353 0.24901961
0.27745098 0.68137255 0.1752451
0.35428922 0.68137255 0.1870098
0.54901961 0.70588235 0.23578431
0.79730392 0.74803922 0.29344363
0.94632353 0.78529412 0.37279412
0.59313725 0.84803922 0.44019608
0.61985294 0.84730392 0.44411765
0.71421569 0.85147059 0.49264706
0.82156863 0.85098039 0.51544118
0.92843137 0.87058824 0.59215686
0.25686275 0.2 0.32941176
0.40196078 0.23627451 0.33529412
0.6372549 0.30588235 0.3745098
0.84803922 0.33921569 0.42303922
0.98431373 0.54117647 0.49411765
0.26568627 0.30098039 0.34852941
0.4254902 0.32830882 0.37941176
0.66764706 0.42671569 0.40612745
0.85735294 0.44901961 0.44644608
0.96862745 0.61960784 0.51862745
0.29607843 0.47843137 0.34901961
0.41127451 0.49240196 0.3622549
0.6745098 0.57352941 0.43382353
0.84289216 0.6254902 0.46470588
0.95098039 0.71176471 0.52352941
0.42598039 0.67794118 0.37941176
0.49558824 0.68872549 0.39669118
0.62818627 0.71495098 0.42205882
0.81519608 0.7627451 0.47352941
0.94019608 0.7745098 0.50147059
0.62352941 0.84901961 0.50980392
0.64362745 0.84803922 0.51078431
0.72058824 0.85196078 0.53431373
0.82892157 0.85490196 0.58284314
0.93333333 0.87254902 0.64313725
0.50196078 0.33921569 0.59215686
0.6 0.36102941 0.60294118
0.7745098 0.52598039 0.61421569
0.86078431 0.64705882 0.61470588
0.94117647 0.64215686 0.63333333
0.49803922 0.40490196 0.59901961
0.60098039 0.45435049 0.60294118
0.76985294 0.58186275 0.61617647
0.86372549 0.68651961 0.62922794
0.9372549 0.67254902 0.6372549
0.38431373 0.55490196 0.56813725
0.50502451 0.56372549 0.57928922
0.73112745 0.64240196 0.60637255
0.86078431 0.73296569 0.63860294
0.91568627 0.73235294 0.6495098
0.41102941 0.69411765 0.53308824
0.459375 0.69338235 0.53363971
0.63823529 0.72009804 0.57218137
0.83854167 0.77916667 0.63039216
0.93333333 0.80588235 0.65465686
0.57058824 0.85686275 0.59607843
0.58186275 0.83995098 0.58995098
0.71470588 0.85098039 0.62058824
0.83333333 0.85196078 0.65392157
0.94509804 0.86372549 0.7
0.76078431 0.64705882 0.76078431
0.79215686 0.66666667 0.76176471
0.85294118 0.72352941 0.75686275
0.90196078 0.78431373 0.74803922
0.92941176 0.80784314 0.74901961
0.75392157 0.6745098 0.76470588
0.77622549 0.68039216 0.75686275
0.84901961 0.73676471 0.75735294
0.90588235 0.79215686 0.75269608
0.9372549 0.81862745 0.75686275
0.71176471 0.7254902 0.76666667
0.73921569 0.7245098 0.76176471
0.82058824 0.75490196 0.75588235
0.89901961 0.80490196 0.75539216
0.94509804 0.83137255 0.76862745
0.57352941 0.79313725 0.75686275
0.60490196 0.78848039 0.75269608
0.71715686 0.79068627 0.76029412
0.86078431 0.81985294 0.7625
0.94901961 0.85098039 0.78039216
0.65098039 0.87843137 0.77254902
0.65588235 0.87156863 0.75784314
0.72352941 0.87058824 0.76862745
0.82941176 0.85490196 0.74215686
0.94509804 0.86666667 0.79215686
