site/assets/luts/sha256-453c49142c0e8c77dd64f9479f73b83ef509d59a51bf12920ae95a42497d6e72.cube
# LUTr-Schema-Version: 2
# LUTr-ID: sha256-453c49142c0e8c77dd64f9479f73b83ef509d59a51bf12920ae95a42497d6e72
# LUTr-Title: 60's faded alt
# LUTr-Collection: Natron HaldCLUT
# LUTr-Collection-ID: natron-haldclut-presets
# LUTr-Source: https://github.com/NatronGitHub/clut
# LUTr-Retrieved: 2026-07-27
# LUTr-Source-File: submissions/natron-haldclut-presets/various/60's_faded_alt.png
# LUTr-Source-Format: HALD-PNG
# LUTr-Source-SHA256: 453c49142c0e8c77dd64f9479f73b83ef509d59a51bf12920ae95a42497d6e72
# LUTr-License: CC-BY-SA-4.0
# LUTr-License-URL: https://github.com/NatronGitHub/clut#license
# LUTr-License-Basis: repo-license-file
# LUTr-Transform-Class: film-emulation
# LUTr-Tags: creative, film, film-emulation, hald-clut, natron, png, vintage, cube
# LUTr-Input-Color-Space: srgb
# LUTr-Input-Gamut: rec709
# LUTr-Input-Transfer: srgb
# LUTr-Output-Color-Space: srgb
# LUTr-Output-Gamut: rec709
# LUTr-Output-Transfer: srgb
# LUTr-Color-Space-Confidence: assumed-display-referred
# LUTr-Domain-Normalized: true
# LUTr-Shaper: none
# LUTr-Original-Grid: 64x64x64
# LUTr-Conversion-Grid: 25x25x25
# LUTr-Conversion-Interpolation: trilinear
# LUTr-Conversion-Method: HALD-PNG LUT image decoded at 16-bit and sampled to 25x25x25 3D CUBE
# LUTr-Conversion-Tool: LUTr scripts/convert-all-to-cube.mjs 2.0.0
# LUTr-Conversion-Date: 2026-07-27
# LUTr-Note: Preserve this metadata and the upstream license notices when redistributing.
TITLE "60's faded alt"
LUT_3D_SIZE 5
DOMAIN_MIN 0 0 0
DOMAIN_MAX 1 1 1
0.32941176 0.1254902 0.062745098
0.39411765 0.16568627 0.066666667
0.60196078 0.18627451 0.1
0.75980392 0.19901961 0.085294118
0.7254902 0.23137255 0.12156863
0.36862745 0.38921569 0.11470588
0.49926471 0.40686275 0.093382353
0.7122549 0.46372549 0.10637255
0.85588235 0.53014706 0.1502451
0.8127451 0.55588235 0.20490196
0.45098039 0.61960784 0.14313725
0.63480392 0.6622549 0.14901961
0.80196078 0.70490196 0.20490196
0.89607843 0.74362745 0.275
0.85294118 0.77058824 0.32352941
0.59803922 0.79803922 0.19411765
0.75122549 0.82941176 0.27303922
0.86911765 0.84901961 0.34313725
0.93039216 0.87181373 0.42990196
0.91078431 0.89901961 0.46862745
0.65098039 0.75686275 0.31372549
0.79705882 0.83529412 0.38823529
0.90980392 0.85098039 0.48431373
0.96078431 0.85294118 0.5372549
0.93333333 0.8627451 0.5372549
0.27352941 0.22647059 0.14019608
0.42647059 0.23431373 0.18602941
0.61421569 0.24607843 0.21960784
0.76887255 0.25563725 0.25808824
0.82647059 0.2745098 0.28431373
0.30245098 0.37892157 0.21813725
0.54528186 0.44583333 0.27426471
0.75992647 0.5060049 0.33823529
0.88756127 0.57567402 0.39583333
0.90784314 0.62769608 0.46102941
0.43382353 0.61911765 0.29901961
0.68995098 0.6935049 0.38664216
0.83504902 0.73529412 0.45392157
0.9245098 0.77218137 0.51911765
0.93186275 0.81323529 0.5754902
0.58578431 0.78823529 0.4004902
0.7872549 0.85196078 0.50386029
0.89031863 0.87254902 0.56973039
0.95294118 0.88860294 0.62800245
0.94019608 0.91764706 0.66470588
0.69019608 0.79901961 0.51666667
0.82892157 0.83529412 0.60416667
0.92647059 0.85784314 0.66764706
0.96862745 0.86691176 0.69607843
0.96470588 0.89705882 0.70490196
0.26470588 0.21372549 0.2372549
0.43921569 0.21960784 0.30735294
0.62058824 0.2254902 0.34313725
0.78284314 0.24362745 0.40343137
0.84117647 0.34901961 0.49215686
0.28088235 0.38382353 0.35147059
0.59313725 0.47708333 0.46960784
0.77745098 0.53995098 0.52818627
0.89264706 0.60183824 0.58737745
0.92009804 0.66862745 0.6495098
0.47843137 0.64411765 0.4872549
0.72622549 0.71691176 0.58186275
0.85245098 0.75686275 0.62941176
0.9372549 0.79583333 0.68897059
0.94607843 0.84901961 0.74705882
0.63529412 0.81127451 0.59117647
0.80686275 0.85784314 0.6627451
0.90784314 0.88431373 0.72352941
0.95392157 0.8995098 0.75588235
0.96470588 0.92058824 0.79068627
0.72941176 0.82941176 0.67058824
0.86078431 0.90343137 0.73921569
0.93137255 0.89019608 0.78431373
0.96813725 0.88823529 0.81323529
0.96078431 0.89215686 0.80784314
0.23823529 0.15588235 0.30294118
0.46102941 0.23137255 0.43308824
0.6495098 0.25 0.49656863
0.8370098 0.29828431 0.60759804
0.86568627 0.35490196 0.64509804
0.33504902 0.41593137 0.50759804
0.62647059 0.51035539 0.64313725
0.79509804 0.57058824 0.70245098
0.89411765 0.60863971 0.73192402
0.90735294 0.66053922 0.76642157
0.52107843 0.66470588 0.66176471
0.74460784 0.73492647 0.73627451
0.86862745 0.77892157 0.7747549
0.93970588 0.80404412 0.8057598
0.91568627 0.84411765 0.84313725
0.64926471 0.81495098 0.71936275
0.81642157 0.86507353 0.79019608
0.91568627 0.89362745 0.83517157
0.95686275 0.90686275 0.84528186
0.92941176 0.90980392 0.85122549
0.76372549 0.84705882 0.80392157
0.83627451 0.83210784 0.82230392
0.91764706 0.84803922 0.85343137
0.96078431 0.84852941 0.87132353
0.93431373 0.86078431 0.86960784
0.39607843 0.26666667 0.5254902
0.51960784 0.28529412 0.59117647
0.71764706 0.34313725 0.69019608
0.83627451 0.3627451 0.74803922
0.85882353 0.45882353 0.79607843
0.5254902 0.5 0.73039216
0.65686275 0.53823529 0.80931373
0.80833333 0.58823529 0.82647059
0.89730392 0.63161765 0.8502451
0.88921569 0.65098039 0.86470588
0.64509804 0.71960784 0.8254902
0.76862745 0.75833333 0.87107843
0.88039216 0.7872549 0.89117647
0.9372549 0.81764706 0.89509804
0.88431373 0.82156863 0.91372549
0.77843137 0.86470588 0.8754902
0.83823529 0.87622549 0.89705882
0.9127451 0.89558824 0.9122549
0.95710784 0.90857843 0.9254902
0.9254902 0.90686275 0.92156863
0.85490196 0.94901961 0.92156863
0.86176471 0.94313725 0.89117647
0.92352941 0.95294118 0.90588235
0.95980392 0.95686275 0.91470588
0.90980392 0.95686275 0.91372549
