site/assets/luts/sha256-0e73f4e285129ee944a7dae6645a7ecd6b830ee667946979fed35f16c241eb73.cube
# LUTr-Schema-Version: 2
# LUTr-ID: sha256-0e73f4e285129ee944a7dae6645a7ecd6b830ee667946979fed35f16c241eb73
# LUTr-Title: fuji fp-100c negative +++
# LUTr-Collection: Natron HaldCLUT
# LUTr-Collection-ID: natron-haldclut-presets
# LUTr-Source: https://github.com/NatronGitHub/clut
# LUTr-Retrieved: 2026-07-27
# LUTr-Source-File: submissions/natron-haldclut-presets/instant_pro/fuji_fp-100c_negative_+++.png
# LUTr-Source-Format: HALD-PNG
# LUTr-Source-SHA256: 0e73f4e285129ee944a7dae6645a7ecd6b830ee667946979fed35f16c241eb73
# LUTr-License: CC-BY-SA-4.0
# LUTr-License-URL: https://github.com/NatronGitHub/clut#license
# LUTr-License-Basis: repo-license-file
# LUTr-Transform-Class: film-emulation
# LUTr-Tags: creative, film, film-emulation, hald-clut, natron, png, cube
# LUTr-Input-Color-Space: srgb
# LUTr-Input-Gamut: rec709
# LUTr-Input-Transfer: srgb
# LUTr-Output-Color-Space: srgb
# LUTr-Output-Gamut: rec709
# LUTr-Output-Transfer: srgb
# LUTr-Color-Space-Confidence: assumed-display-referred
# LUTr-Domain-Normalized: true
# LUTr-Shaper: none
# LUTr-Original-Grid: 64x64x64
# LUTr-Conversion-Grid: 25x25x25
# LUTr-Conversion-Interpolation: trilinear
# LUTr-Conversion-Method: HALD-PNG LUT image decoded at 16-bit and sampled to 25x25x25 3D CUBE
# LUTr-Conversion-Tool: LUTr scripts/convert-all-to-cube.mjs 2.0.0
# LUTr-Conversion-Date: 2026-07-27
# LUTr-Note: Preserve this metadata and the upstream license notices when redistributing.
TITLE "fuji fp-100c negative +++"
LUT_3D_SIZE 25
DOMAIN_MIN 0 0 0
DOMAIN_MAX 1 1 1
0.20392157 0.14901961 0.21960784
0.20392157 0.14901961 0.21960784
0.20882353 0.14901961 0.21960784
0.22303922 0.14901961 0.22303922
0.23333333 0.14901961 0.22352941
0.24754902 0.14901961 0.22352941
0.26078431 0.14901961 0.22352941
0.28137255 0.15441176 0.22352941
0.30588235 0.16078431 0.22352941
0.33676471 0.15686275 0.22352941
0.37156863 0.15294118 0.21960784
0.40980392 0.15294118 0.21960784
0.46470588 0.15294118 0.21960784
0.52058824 0.15294118 0.21960784
0.5754902 0.15490196 0.21960784
0.63088235 0.17009804 0.22352941
0.69019608 0.18431373 0.22745098
0.74166667 0.21127451 0.225
0.79313725 0.24215686 0.21960784
0.8372549 0.26911765 0.21960784
0.87843137 0.3 0.21960784
0.91960784 0.33480392 0.21960784
0.96470588 0.36568627 0.21568627
0.98186275 0.40196078 0.22107843
1 0.43921569 0.22352941
0.20637255 0.15686275 0.22352941
0.20637255 0.15686275 0.22352941
0.20882353 0.15747549 0.22352941
0.22303922 0.15931373 0.22352941
0.23529412 0.15808824 0.22352941
0.24785539 0.15539216 0.22352941
0.26360294 0.15539216 0.22352941
0.28137255 0.15594363 0.22352941
0.30588235 0.16078431 0.22352941
0.33921569 0.15778186 0.22352941
0.37218137 0.1564951 0.21960784
0.41568627 0.15753676 0.21960784
0.47107843 0.16127451 0.22352941
0.52665441 0.16323529 0.22352941
0.57941176 0.16678922 0.22205882
0.6338848 0.17254902 0.22352941
0.69264706 0.18431373 0.22745098
0.74166667 0.21127451 0.22408088
0.79313725 0.24215686 0.21960784
0.83756127 0.26942402 0.21960784
0.87647059 0.30318627 0.22328431
0.91715686 0.3377451 0.21960784
0.95723039 0.37205882 0.21813725
0.98278186 0.40533088 0.21960784
0.99607843 0.42892157 0.22107843
0.20784314 0.16568627 0.22745098
0.20784314 0.16470588 0.2245098
0.2127451 0.16568627 0.2252451
0.22303922 0.16568627 0.22745098
0.23480392 0.16568627 0.22745098
0.25147059 0.16568627 0.2245098
0.26568627 0.1625 0.22352941
0.28137255 0.16139706 0.22352941
0.30588235 0.16078431 0.22352941
0.34411765 0.16421569 0.22352941
0.38137255 0.16960784 0.22352941
0.42598039 0.17058824 0.22352941
0.47745098 0.17352941 0.22598039
0.53284314 0.17757353 0.22352941
0.58431373 0.18137255 0.22352941
0.63970588 0.18566176 0.22352941
0.69411765 0.19509804 0.22647059
0.74558824 0.21862745 0.22291667
0.79803922 0.24289216 0.21862745
0.84117647 0.27401961 0.2182598
0.87647059 0.31078431 0.21960784
0.91568627 0.34767157 0.21948529
0.95686275 0.38235294 0.21568627
0.99068627 0.41531863 0.21568627
0.99313725 0.42254902 0.21568627
0.20784314 0.17205882 0.22745098
0.20784314 0.17205882 0.22745098
0.2127451 0.17218137 0.22745098
0.22303922 0.17555147 0.22745098
0.23333333 0.17598039 0.22745098
0.24761029 0.17598039 0.22745098
0.26470588 0.17291667 0.2245098
0.28137255 0.17205882 0.22352941
0.30980392 0.1754902 0.22352941
0.35067402 0.178125 0.22352941
0.39166667 0.18382353 0.22352941
0.43627451 0.1872549 0.22653186
0.48406863 0.1875 0.22745098
0.53970588 0.19166667 0.22352941
0.59460784 0.19546569 0.22352941
0.64626225 0.20226716 0.22352941
0.69754902 0.22205882 0.22352941
0.74901961 0.24264706 0.21960784
0.80098039 0.26421569 0.21568627
0.84117647 0.29160539 0.21568627
0.87647059 0.32843137 0.21789216
0.91568627 0.36519608 0.2161152
0.95686275 0.39644608 0.21568627
0.99393382 0.42432598 0.21519608
0.99607843 0.43039216 0.21568627
0.20784314 0.18235294 0.23137255
0.21176471 0.17843137 0.23137255
0.21421569 0.17941176 0.23137255
0.22303922 0.18578431 0.23137255
0.22941176 0.18627451 0.22745098
0.24387255 0.18627451 0.22745098
0.26421569 0.18970588 0.2245098
0.28529412 0.19215686 0.22352941
0.31764706 0.19607843 0.22352941
0.35686275 0.19607843 0.22352941
0.39803922 0.2004902 0.22352941
0.44289216 0.20392157 0.22352941
0.49411765 0.20784314 0.22352941
0.54754902 0.21004902 0.22352941
0.60245098 0.21176471 0.22009804
0.65367647 0.2245098 0.21960784
0.70196078 0.24901961 0.21960784
0.75343137 0.27352941 0.21715686
0.80147059 0.29509804 0.21568627
0.84117647 0.32205882 0.21568627
0.87941176 0.35 0.21568627
0.91740196 0.38186275 0.21568627
0.95196078 0.41421569 0.21568627
0.98137255 0.44215686 0.21838235
0.99019608 0.45294118 0.21960784
0.20784314 0.19313725 0.23137255
0.21029412 0.19264706 0.23137255
0.21580882 0.19313725 0.23186275
0.22303922 0.19613971 0.23143382
0.22745098 0.19656863 0.22941176
0.24019608 0.19754902 0.22745098
0.26372549 0.20784314 0.22352941
0.28676471 0.2127451 0.22303922
0.32205882 0.21666667 0.22352941
0.36323529 0.21666667 0.22352941
0.40441176 0.21666667 0.21960784
0.44944853 0.22052696 0.21960784
0.5004902 0.22696078 0.22303922
0.55238971 0.23682598 0.21960784
0.60723039 0.24362745 0.21960784
0.65882353 0.25931373 0.21942402
0.71029412 0.27990196 0.21568627
0.7591299 0.3004902 0.21519608
0.80428922 0.32598039 0.21519608
0.84509804 0.35294118 0.21568627
0.88284314 0.37622549 0.21568627
0.91911765 0.40245098 0.21568627
0.94607843 0.43333333 0.21960784
0.97518382 0.46292892 0.21979167
0.99264706 0.48382353 0.22352941
0.20392157 0.20686275 0.23137255
0.21029412 0.20833333 0.23321078
0.21887255 0.21446078 0.23529412
0.22352941 0.21764706 0.23566176
0.23088235 0.21666667 0.23431373
0.24411765 0.22107843 0.23002451
0.26470588 0.22769608 0.22426471
0.28786765 0.23443627 0.21960784
0.32843137 0.2372549 0.22352941
0.36960784 0.24117647 0.22352941
0.41176471 0.24313725 0.21960784
0.45931373 0.24656863 0.21960784
0.51078431 0.25784314 0.21960784
0.5622549 0.26813725 0.21960784
0.61372549 0.27843137 0.21960784
0.66580882 0.29595588 0.21568627
0.71666667 0.31078431 0.2127451
0.76629902 0.32843137 0.20992647
0.80784314 0.35612745 0.21176471
0.84546569 0.38382353 0.21176471
0.88627451 0.40882353 0.21176471
0.91911765 0.42990196 0.21311275
0.94681373 0.45710784 0.21642157
0.97303922 0.48664216 0.21997549
0.99901961 0.51470588 0.22352941
0.20784314 0.23186275 0.23676471
0.21421569 0.23431373 0.23829657
0.22058824 0.23970588 0.24068627
0.22843137 0.24215686 0.24068627
0.23602941 0.24485294 0.24068627
0.2495098 0.25018382 0.23658088
0.26862745 0.25539216 0.23284314
0.29215686 0.265625 0.22745098
0.32941176 0.27254902 0.22352941
0.36666667 0.27892157 0.22352941
0.41421569 0.28529412 0.22254902
0.46568627 0.29344363 0.21960784
0.51911765 0.29877451 0.21960784
0.57432598 0.30422794 0.21942402
0.62794118 0.31433824 0.21629902
0.6754902 0.33431373 0.21329657
0.72303922 0.35098039 0.21029412
0.77205882 0.36911765 0.20692402
0.81115196 0.38884804 0.20637255
0.84901961 0.41488971 0.20784314
0.88627451 0.43970588 0.21029412
0.92089461 0.46078431 0.21176471
0.95147059 0.48664216 0.21421569
0.9754902 0.51176471 0.21868873
0.99068627 0.52843137 0.22352941
0.21176471 0.26666667 0.24313725
0.21813725 0.26666667 0.24705882
0.2245098 0.27058824 0.24803922
0.23137255 0.27058824 0.24705882
0.23921569 0.27058824 0.24705882
0.25196078 0.275 0.24313725
0.27254902 0.28529412 0.24313725
0.29852941 0.2995098 0.2377451
0.32941176 0.30980392 0.22745098
0.36519608 0.31617647 0.22352941
0.42058824 0.33039216 0.22254902
0.47598039 0.34411765 0.21617647
0.52941176 0.34901961 0.21568627
0.58333333 0.34901961 0.21568627
0.63823529 0.35882353 0.2127451
0.68431373 0.37941176 0.21029412
0.73333333 0.4 0.20784314
0.77843137 0.42205882 0.20392157
0.81470588 0.43333333 0.2
0.8495098 0.45343137 0.20343137
0.88823529 0.47058824 0.20392157
0.92696078 0.49509804 0.20784314
0.95784314 0.51568627 0.21078431
0.97009804 0.53088235 0.21715686
0.98039216 0.54509804 0.22352941
0.21421569 0.29754902 0.25098039
0.22113971 0.3 0.25343137
0.22806373 0.30147059 0.25343137
0.23480392 0.30147059 0.25343137
0.24117647 0.29632353 0.25343137
0.25459559 0.30226716 0.25098039
0.27892157 0.31911765 0.25098039
0.30637255 0.33523284 0.24803922
0.33578431 0.34705882 0.2377451
0.37401961 0.36072304 0.23082108
0.43370098 0.37892157 0.22254902
0.49019608 0.39589461 0.21354167
0.54166667 0.40171569 0.20931373
0.59068627 0.40471814 0.21176471
0.64215686 0.41372549 0.21176471
0.69215686 0.43088235 0.20692402
0.73970588 0.45147059 0.20392157
0.78235294 0.46960784 0.2
0.81752451 0.47990196 0.19718137
0.85324755 0.48903186 0.19362745
0.89142157 0.50539216 0.19681373
0.92714461 0.52598039 0.20177696
0.95637255 0.54362745 0.21078431
0.96862745 0.55392157 0.21660539
0.97647059 0.56176471 0.22205882
0.21568627 0.32843137 0.25882353
0.22303922 0.33296569 0.25980392
0.23235294 0.3375 0.26078431
0.23970588 0.33823529 0.26372549
0.24607843 0.33431373 0.25980392
0.26078431 0.33823529 0.25980392
0.28529412 0.35882353 0.25980392
0.31127451 0.3754902 0.25772059
0.34117647 0.38823529 0.24803922
0.38088235 0.40490196 0.24166667
0.44117647 0.4254902 0.23039216
0.4995098 0.44607843 0.21323529
0.55098039 0.45686275 0.20637255
0.59852941 0.46372549 0.20784314
0.64705882 0.47058824 0.20784314
0.70183824 0.48480392 0.20392157
0.74901961 0.50196078 0.2
0.78664216 0.51617647 0.19718137
0.82279412 0.52328431 0.19436275
0.85821078 0.52941176 0.18872549
0.89607843 0.53872549 0.1877451
0.92303922 0.55686275 0.2004902
0.95294118 0.57352941 0.21470588
0.97438725 0.58872549 0.22352941
0.98529412 0.59509804 0.22745098
0.21960784 0.37009804 0.26617647
0.22598039 0.37665441 0.27009804
0.23627451 0.38235294 0.27107843
0.24307598 0.38235294 0.27401961
0.25637255 0.38186275 0.27009804
0.27107843 0.38284314 0.27009804
0.29203431 0.39705882 0.26715686
0.31666667 0.41305147 0.26617647
0.34117647 0.42941176 0.2622549
0.38088235 0.44264706 0.25539216
0.44117647 0.46323529 0.24154412
0.4995098 0.47990196 0.22745098
0.54754902 0.49460784 0.21691176
0.59810049 0.50484069 0.21176471
0.64656863 0.51764706 0.21139706
0.70165441 0.53253676 0.20606618
0.74901961 0.54705882 0.2
0.7877451 0.55735294 0.19969363
0.82352941 0.56764706 0.19595588
0.86078431 0.57359069 0.19172794
0.89607843 0.57818627 0.19362745
0.92303922 0.59074755 0.20398284
0.95 0.60526961 0.21470588
0.9754902 0.61960784 0.225
0.99166667 0.62990196 0.23137255
0.21568627 0.41568627 0.2745098
0.22598039 0.42205882 0.27647059
0.23627451 0.4245098 0.28039216
0.2502451 0.42745098 0.28210784
0.2627451 0.42647059 0.28039216
0.2752451 0.42377451 0.28014706
0.29558824 0.43382353 0.27647059
0.32132353 0.44926471 0.27647059
0.34705882 0.46470588 0.27254902
0.38088235 0.47818627 0.26813725
0.43872549 0.49558824 0.25784314
0.49558824 0.5129902 0.24387255
0.54411765 0.52843137 0.23137255
0.59044118 0.54558824 0.22132353
0.64362745 0.55882353 0.21617647
0.69754902 0.5747549 0.20833333
0.74901961 0.59019608 0.2
0.7870098 0.60245098 0.2
0.82352941 0.61029412 0.19803922
0.86102941 0.61568627 0.19803922
0.89607843 0.62058824 0.20098039
0.92671569 0.62818627 0.20833333
0.95245098 0.64019608 0.21862745
0.97622549 0.6504902 0.22892157
0.99803922 0.65882353 0.23921569
0.21176471 0.45294118 0.27892157
0.22598039 0.46078431 0.28498775
0.24019608 0.46862745 0.28762255
0.25091912 0.46862745 0.29068627
0.26862745 0.46862745 0.29068627
0.28290441 0.46470588 0.28676471
0.3 0.47071078 0.2872549
0.33449755 0.4872549 0.2872549
0.36568627 0.50392157 0.29068627
0.39656863 0.51421569 0.28480392
0.44056373 0.52928922 0.2745098
0.49166667 0.54607843 0.26421569
0.54093137 0.56446078 0.24632353
0.58627451 0.58284314 0.23229167
0.63811275 0.59963235 0.22156863
0.69509804 0.61666667 0.21078431
0.74901961 0.63333333 0.2004902
0.7903799 0.64362745 0.2
0.82781863 0.65392157 0.2
0.86176471 0.65686275 0.20349265
0.89828431 0.66078431 0.20392157
0.93131127 0.66862745 0.20833333
0.95490196 0.67512255 0.22205882
0.975 0.68118873 0.24313725
0.99166667 0.68382353 0.25980392
0.2254902 0.50392157 0.29607843
0.23394608 0.50490196 0.29607843
0.24313725 0.50980392 0.29705882
0.25392157 0.51360294 0.29705882
0.27352941 0.51127451 0.29901961
0.29705882 0.5127451 0.30134804
0.32132353 0.51960784 0.30686275
0.35147059 0.52696078 0.30784314
0.38235294 0.54117647 0.30784314
0.41421569 0.55245098 0.30392157
0.44828431 0.56568627 0.29583333
0.49166667 0.5807598 0.2877451
0.53921569 0.59852941 0.27352941
0.58627451 0.61715686 0.25931373
0.63504902 0.63137255 0.24607843
0.69215686 0.65098039 0.22941176
0.74607843 0.67156863 0.21372549
0.79595588 0.68480392 0.20110294
0.83357843 0.69411765 0.20073529
0.86813725 0.69767157 0.21029412
0.90147059 0.69901961 0.21372549
0.93431373 0.70294118 0.21764706
0.95196078 0.70367647 0.23921569
0.97156863 0.70686275 0.26372549
0.98823529 0.71078431 0.28333333
0.24607843 0.55637255 0.3127451
0.25637255 0.55637255 0.3127451
0.26360294 0.55637255 0.3127451
0.27205882 0.55637255 0.3127451
0.29191176 0.55955882 0.31666667
0.31372549 0.56060049 0.31911765
0.34117647 0.56715686 0.32242647
0.37113971 0.5745098 0.32751225
0.39656863 0.57843137 0.32843137
0.42990196 0.59117647 0.32506127
0.46470588 0.60392157 0.31960784
0.49773284 0.61715686 0.30931373
0.5372549 0.63455882 0.29901961
0.58284314 0.64822304 0.28645833
0.63431373 0.6622549 0.27990196
0.68578431 0.67794118 0.26568627
0.73970588 0.69705882 0.24509804
0.79362745 0.71764706 0.22058824
0.83823529 0.72990196 0.21531863
0.87040441 0.72990196 0.23137255
0.90465686 0.72990196 0.24558824
0.94001225 0.72990196 0.25343137
0.95919118 0.72990196 0.26911765
0.97303922 0.73290441 0.28970588
0.98823529 0.73627451 0.30637255
0.2745098 0.60392157 0.33333333
0.28480392 0.60147059 0.33578431
0.29901961 0.6 0.3372549
0.30931373 0.60343137 0.3372549
0.32352941 0.60392157 0.3372549
0.34215686 0.60784314 0.3377451
0.36568627 0.61176471 0.34411765
0.39656863 0.61568627 0.3504902
0.42745098 0.61960784 0.35294118
0.45588235 0.62990196 0.3504902
0.48529412 0.64411765 0.34411765
0.51617647 0.65833333 0.3377451
0.54705882 0.66862745 0.32941176
0.58627451 0.67941176 0.325
0.63039216 0.69313725 0.31470588
0.67794118 0.70735294 0.30441176
0.72941176 0.7254902 0.28627451
0.78088235 0.73823529 0.27205882
0.83137255 0.75 0.26666667
0.87254902 0.75686275 0.27009804
0.90980392 0.75686275 0.28431373
0.94656863 0.75686275 0.29019608
0.96764706 0.76078431 0.30098039
0.98186275 0.76078431 0.32058824
0.99215686 0.76470588 0.3372549
0.31960784 0.64754902 0.36029412
0.32990196 0.64509804 0.36121324
0.33921569 0.64754902 0.36176471
0.34442402 0.64883578 0.36047794
0.35759804 0.6502451 0.36176471
0.37726716 0.65294118 0.36439951
0.4 0.65294118 0.3692402
0.42653186 0.65833333 0.37653186
0.45441176 0.66470588 0.37745098
0.48284314 0.6716299 0.37598039
0.51335784 0.67953431 0.3745098
0.54099265 0.69166667 0.37205882
0.57156863 0.70269608 0.37058824
0.60294118 0.71243873 0.36617647
0.64056373 0.72401961 0.35588235
0.68137255 0.73578431 0.34558824
0.72156863 0.74607843 0.3377451
0.76966912 0.75637255 0.32898284
0.81813725 0.76703431 0.32169118
0.86617647 0.77696078 0.32205882
0.91372549 0.78455882 0.32034314
0.95686275 0.7877451 0.32156863
0.9814951 0.7877451 0.33186275
0.99215686 0.78921569 0.34754902
0.99607843 0.78921569 0.35147059
0.36078431 0.69019608 0.38333333
0.37107843 0.69019608 0.38688725
0.38161765 0.69338235 0.38823529
0.38529412 0.69411765 0.3872549
0.39362745 0.69411765 0.38578431
0.41666667 0.69313725 0.39166667
0.4379902 0.69411765 0.39828431
0.46176471 0.69705882 0.40441176
0.48529412 0.70098039 0.40686275
0.5122549 0.70551471 0.40784314
0.53897059 0.71372549 0.41078431
0.56531863 0.72401961 0.40686275
0.59068627 0.73431373 0.40686275
0.62303922 0.7432598 0.40343137
0.66078431 0.75098039 0.39632353
0.69803922 0.76127451 0.39105392
0.72745098 0.77058824 0.38529412
0.76666667 0.77794118 0.37892157
0.81568627 0.79117647 0.37352941
0.86335784 0.79803922 0.37009804
0.91176471 0.80784314 0.36519608
0.96188725 0.81421569 0.36078431
0.99460784 0.81862745 0.3620098
0.99607843 0.81764706 0.36666667
0.99607843 0.81470588 0.36666667
0.4122549 0.72794118 0.41372549
0.42303922 0.73137255 0.41764706
0.43345588 0.73137255 0.42169118
0.44362745 0.73137255 0.42506127
0.45392157 0.73137255 0.4254902
0.46476716 0.73137255 0.42941176
0.48235294 0.73137255 0.43284314
0.50294118 0.73137255 0.4377451
0.52352941 0.73186275 0.44166667
0.54803922 0.73823529 0.44540441
0.57352941 0.74460784 0.44889706
0.59748775 0.75490196 0.44509804
0.6254902 0.76127451 0.44509804
0.65012255 0.77113971 0.44509804
0.68223039 0.77806373 0.44117647
0.71715686 0.78823529 0.43707108
0.74411765 0.79509804 0.43333333
0.77156863 0.80490196 0.42910539
0.8127451 0.81433824 0.425
0.86029412 0.81862745 0.41807598
0.90808824 0.82647059 0.41348039
0.9588848 0.83137255 0.40582108
0.99166667 0.83737745 0.40539216
0.99607843 0.83480392 0.40539216
0.99607843 0.83431373 0.40539216
0.48627451 0.76470588 0.45490196
0.48553922 0.76666667 0.45882353
0.49509804 0.76666667 0.4627451
0.50539216 0.76666667 0.4627451
0.5127451 0.76666667 0.46568627
0.52205882 0.76666667 0.46691176
0.53039216 0.76813725 0.47058824
0.54803922 0.76862745 0.4752451
0.56862745 0.77058824 0.47843137
0.59117647 0.77254902 0.48357843
0.61421569 0.7754902 0.48676471
0.64166667 0.78210784 0.48651961
0.67058824 0.78921569 0.48627451
0.6870098 0.79828431 0.48627451
0.70882353 0.80539216 0.48627451
0.73970588 0.81446078 0.48553922
0.76666667 0.82156863 0.48235294
0.79632353 0.82867647 0.47598039
0.825 0.83235294 0.47058824
0.8627451 0.8370098 0.46887255
0.90784314 0.84215686 0.46470588
0.95073529 0.84730392 0.46029412
0.98333333 0.8504902 0.45833333
0.99607843 0.85098039 0.45808824
0.99607843 0.85098039 0.45686275
0.56029412 0.79803922 0.49607843
0.55637255 0.80147059 0.49822304
0.55723039 0.80159314 0.5
0.56366422 0.80196078 0.50343137
0.57352941 0.80147059 0.50392157
0.58039216 0.80147059 0.50435049
0.59068627 0.80147059 0.50772059
0.60490196 0.80275735 0.51127451
0.62647059 0.80490196 0.51519608
0.64754902 0.80539216 0.51783088
0.67193627 0.80637255 0.52303922
0.69215686 0.80931373 0.52653186
0.7122549 0.81887255 0.52720588
0.725 0.82542892 0.5278799
0.73872549 0.83272059 0.53088235
0.76893382 0.83805147 0.52726716
0.80588235 0.84411765 0.52303922
0.8341299 0.84803922 0.51568627
0.85833333 0.85196078 0.51568627
0.88235294 0.85582108 0.51568627
0.91029412 0.85980392 0.51617647
0.94656863 0.86329657 0.51133578
0.98125 0.86629902 0.50784314
0.99607843 0.86764706 0.50606618
0.99607843 0.86764706 0.50392157
0.63627451 0.83235294 0.53431373
0.63284314 0.83235294 0.5372549
0.63039216 0.83627451 0.53823529
0.63088235 0.83627451 0.54080882
0.64509804 0.83235294 0.54117647
0.65551471 0.83235294 0.54215686
0.66666667 0.83235294 0.54436275
0.67806373 0.83235294 0.54607843
0.69509804 0.83235294 0.54901961
0.7185049 0.83480392 0.55355392
0.73946078 0.83627451 0.55710784
0.75428922 0.84019608 0.56041667
0.76911765 0.84460784 0.56176471
0.78296569 0.85208333 0.56482843
0.79632353 0.85588235 0.56568627
0.81764706 0.86078431 0.56176471
0.84705882 0.86470588 0.56078431
0.87046569 0.86862745 0.55686275
0.89240196 0.87254902 0.55686275
0.91372549 0.87340686 0.55686275
0.92892157 0.87696078 0.55392157
0.94914216 0.88039216 0.55245098
0.97745098 0.88357843 0.54607843
0.99607843 0.88431373 0.54509804
0.99607843 0.88431373 0.54509804
0.71764706 0.86323529 0.57303922
0.71764706 0.86323529 0.5745098
0.71482843 0.86323529 0.5745098
0.71372549 0.86323529 0.5745098
0.72745098 0.86323529 0.57843137
0.73627451 0.86323529 0.57843137
0.74656863 0.86176471 0.58026961
0.75686275 0.86231618 0.58143382
0.76862745 0.86323529 0.58480392
0.7877451 0.86323529 0.58780637
0.80404412 0.86715686 0.59080882
0.81617647 0.86930147 0.59264706
0.83039216 0.87107843 0.59656863
0.84460784 0.87745098 0.59803922
0.85404412 0.87757353 0.59632353
0.86268382 0.87990196 0.59215686
0.88823529 0.88921569 0.59656863
0.90533088 0.88719363 0.59154412
0.92757353 0.89276961 0.59375
0.93970588 0.89295343 0.58872549
0.95269608 0.89509804 0.5875
0.96832108 0.90098039 0.59001225
0.98419118 0.90098039 0.58627451
0.99362745 0.90189951 0.58627451
0.99754902 0.90490196 0.58627451
0.78431373 0.89019608 0.60392157
0.79705882 0.89264706 0.61029412
0.79117647 0.89019608 0.60784314
0.78823529 0.88627451 0.60441176
0.79411765 0.88627451 0.60784314
0.8 0.88627451 0.60784314
0.80686275 0.88627451 0.60784314
0.81715686 0.88627451 0.61176471
0.83137255 0.88627451 0.61568627
0.8495098 0.89019608 0.61960784
0.85588235 0.89019608 0.61960784
0.86617647 0.89019608 0.61960784
0.88039216 0.89411765 0.62352941
0.89901961 0.89852941 0.62794118
0.90294118 0.89803922 0.6254902
0.89362745 0.89117647 0.61127451
0.92156863 0.90196078 0.62352941
0.9372549 0.90392157 0.62254902
0.95294118 0.90588235 0.62254902
0.96029412 0.90588235 0.61568627
0.97254902 0.91176471 0.61764706
0.98823529 0.91764706 0.61960784
0.99215686 0.91764706 0.61960784
0.99607843 0.91764706 0.61960784
1 0.91764706 0.62352941
0.20784314 0.15294118 0.22598039
0.20729167 0.15147059 0.22598039
0.21237745 0.15147059 0.22352941
0.22303922 0.15147059 0.22352941
0.23333333 0.14901961 0.22352941
0.24754902 0.14901961 0.22352941
0.26078431 0.14901961 0.22352941
0.27984069 0.15349265 0.22352941
0.30833333 0.15686275 0.22352941
0.34068627 0.15686275 0.22352941
0.37401961 0.15294118 0.22205882
0.41354167 0.15508578 0.22205882
0.46789216 0.15931373 0.22598039
0.52401961 0.15667892 0.22598039
0.57904412 0.15894608 0.22598039
0.6338848 0.17254902 0.22653186
0.69264706 0.18431373 0.22745098
0.74166667 0.21127451 0.22745098
0.78921569 0.24117647 0.22745098
0.83480392 0.26911765 0.22598039
0.8745098 0.3 0.22598039
0.91930147 0.33137255 0.22598039
0.95539216 0.36568627 0.22781863
0.97640931 0.40104167 0.23137255
0.99362745 0.43137255 0.23382353
0.20784314 0.15686275 0.22689951
0.20784314 0.15686275 0.22632506
0.21260723 0.15686275 0.22575061
0.22303922 0.15686275 0.22506127
0.23379289 0.1573223 0.22506127
0.24754902 0.15539216 0.22352941
0.26222426 0.15539216 0.22352941
0.28137255 0.15594363 0.22352941
0.30680147 0.1598652 0.22352941
0.34068627 0.15686275 0.22352941
0.37545956 0.1564951 0.22274816
0.41679688 0.15845588 0.22205882
0.47153799 0.1625 0.2247549
0.52745864 0.16580116 0.22598039
0.58163297 0.1700674 0.22598039
0.63668045 0.17555147 0.22745098
0.69564951 0.18431373 0.22745098
0.74293045 0.21127451 0.22745098
0.79290748 0.24131434 0.22598039
0.8372549 0.26911765 0.22598039
0.87573529 0.30318627 0.23036152
0.91568627 0.33743873 0.22598039
0.95124081 0.37205882 0.22781863
0.97675398 0.40441176 0.22990196
0.99215686 0.42800245 0.23082108
0.20845588 0.16568627 0.22745098
0.20960478 0.16568627 0.22745098
0.2127451 0.16568627 0.22745098
0.22303922 0.16568627 0.22745098
0.2338848 0.16568627 0.22745098
0.24900429 0.16568627 0.22745098
0.26522672 0.1625 0.22662377
0.28198529 0.16139706 0.22352941
0.3064951 0.16139706 0.22352941
0.34480699 0.16458333 0.22352941
0.38382353 0.16822917 0.22398897
0.42628676 0.16960784 0.22352941
0.47555147 0.17230392 0.22689951
0.53037684 0.17780331 0.22630208
0.5879902 0.18363971 0.22708333
0.64301471 0.18875613 0.22745098
