site/assets/luts/sha256-49a6064e834cb7151e0472e2a185c339a1f67378faf5094b60ab6781b1523f54.cube
# LUTr-Schema-Version: 2
# LUTr-ID: sha256-49a6064e834cb7151e0472e2a185c339a1f67378faf5094b60ab6781b1523f54
# LUTr-Title: Tension 1 warm
# LUTr-Collection: ChristophWurst Hald
# LUTr-Collection-ID: christophwurst-haldclut
# LUTr-Source: https://github.com/ChristophWurst/haldclut
# LUTr-Retrieved: 2026-07-27
# LUTr-Source-File: submissions/christophwurst-haldclut/Tension 1 warm.tif
# LUTr-Source-Format: HALD-TIF
# LUTr-Source-SHA256: 49a6064e834cb7151e0472e2a185c339a1f67378faf5094b60ab6781b1523f54
# LUTr-License: CC-BY-SA-4.0
# LUTr-License-URL: https://github.com/ChristophWurst/haldclut/blob/master/LICENSE
# LUTr-License-Basis: repo-license-file
# LUTr-Transform-Class: creative-look
# LUTr-Tags: creative, hald-clut, rawtherapee, tif, warm, cube
# LUTr-Input-Color-Space: srgb
# LUTr-Input-Gamut: rec709
# LUTr-Input-Transfer: srgb
# LUTr-Output-Color-Space: srgb
# LUTr-Output-Gamut: rec709
# LUTr-Output-Transfer: srgb
# LUTr-Color-Space-Confidence: assumed-display-referred
# LUTr-Domain-Normalized: true
# LUTr-Shaper: none
# LUTr-Original-Grid: 144x144x144
# LUTr-Conversion-Grid: 25x25x25
# LUTr-Conversion-Interpolation: trilinear
# LUTr-Conversion-Method: HALD-TIF LUT image decoded at 16-bit and sampled to 25x25x25 3D CUBE
# LUTr-Conversion-Tool: LUTr scripts/convert-all-to-cube.mjs 2.0.0
# LUTr-Conversion-Date: 2026-07-27
# LUTr-Note: Preserve this metadata and the upstream license notices when redistributing.
TITLE "Tension 1 warm"
LUT_3D_SIZE 9
DOMAIN_MIN 0 0 0
DOMAIN_MAX 1 1 1
0 0 0
0.065909438 0 0
0.16211948 0 0
0.34328222 0.000040054932 0
0.58398566 0.000015259022 0
0.8012665 0.000057221332 0
0.96293584 0.000095368887 0
0.99615473 0.00010681315 0
0.99615473 0.00010681315 0
0.007316701 0.058121614 0.000055313954
0.06547837 0.058085374 0
0.17378691 0.053847658 0
0.35886931 0.000024795911 0
0.5957351 0.000022888533 0
0.80517472 0.000068665599 0
0.96680781 0.000080109865 0
0.99615473 0.00010681315 0
0.99615473 0.00010681315 0
0 0.16995117 0.000072480354
0.020383192 0.17374208 0.000047684443
0.1854715 0.17679866 0.000011444266
0.38800307 0.16899796 0
0.61517891 0.12852674 0
0.81151532 0.081760224 0
0.96288529 0.11435111 0
0.99603933 0.20677739 0
0.99601358 0.25790799 0
0 0.37065118 0.00019645991
0 0.37283751 0.00019645991
0.14031338 0.37850719 0.00014019226
0.40167301 0.38241612 0
0.62679389 0.38095865 0
0.80894203 0.38636583 0
0.95099136 0.40590715 0
0.99591773 0.43765068 0
0.99591249 0.46061456 0
0 0.58407721 0.00028992142
0 0.58407721 0.00028992142
0.0085717556 0.58408293 0.00022125582
0.41062505 0.58410582 0.000052452888
0.6286183 0.58411917 0
0.79951362 0.58413443 0
0.93529793 0.59244678 0
0.995799 0.60786221 0
0.99577325 0.61738766 0
0 0.74131189 0.00037575341
0 0.74131189 0.00037575341
0.18568942 0.74135672 0.00027275502
0.45375944 0.73744945 0.000099183642
0.64299802 0.73355745 0.000043869688
0.79946403 0.73360442 0.0000035763333
0.92257525 0.73358988 0
0.99577897 0.73993858 0
0.99579995 0.74386969 0
0.016487373 0.85659571 0.00042725261
0.19487964 0.8566186 0.00030327306
0.36607538 0.85269512 0.00018120089
0.52890536 0.84880074 0.00015592813
0.67640002 0.84491684 0.000053406577
0.8072509 0.84101911 0.000034332799
0.9185874 0.84105535 0
0.99571984 0.84104295 0
0.99570459 0.84201572 0
0.39504273 0.93819905 0.00022125582
0.43025483 0.93478079 0.00022888533
0.50995127 0.93429322 0.00023031586
0.6122189 0.9303676 0.00013470855
0.7226978 0.92648966 0.000034332799
0.82919432 0.92258383 0.000025272755
0.92243315 0.91868515 0.0000028610666
0.99571794 0.91872473 0
0.99571794 0.91872473 0
0.55428397 0.99632258 0.011978332
0.57373159 0.99630732 0.019153887
0.62361334 0.99632258 0.030437934
0.68955138 0.99238766 0.050898375
0.77109941 0.98846418 0.078202487
0.85260929 0.98849088 0.10546464
0.93028916 0.98459983 0.13381781
0.99575799 0.98068208 0.16408026
0.99577325 0.98066682 0.17964446
0.000013351644 0 0.050207904
0.06597405 0.000003337911 0.050272517
0.16599908 0.000011444266 0.050221256
0.35090481 0.000027895399 0.046242704
0.58793202 0.000046730755 0.038035973
0.8037418 0.00005054551 0.01690938
0.96680781 0.000080109865 0
0.99615473 0.00010681315 0
0.99615473 0.00010681315 0
0.0078181029 0.058084659 0.050274662
0.065429762 0.058135979 0.050332629
0.17776558 0.051164156 0.050210706
0.3660589 0.00001770285 0.046214034
0.59964237 0.000026703288 0.030468452
0.80763011 0.000062705043 0.003369204
0.96680781 0.000080109865 0
0.99615473 0.00010681315 0
0.99615473 0.00010681315 0
0 0.16993019 0.038633936
0.028254106 0.17382798 0.035686143
0.19230838 0.17779204 0.031746157
0.39362346 0.16718738 0.019581796
0.61906424 0.12703517 0
0.81455985 0.081738587 0
0.96288052 0.11459621 0
0.99603933 0.20764525 0
0.99599832 0.25888838 0
0 0.37065118 0.00019645991
0 0.37425386 0.00020960293
0.15244985 0.37848573 0.00011408503
0.40929432 0.382438 0
0.63069257 0.38096914 0
0.81135843 0.38634914 0
0.95196019 0.40592217 0
0.99591773 0.43765068 0
0.99591249 0.46061456 0
0 0.58407721 0.00028992142
0 0.58407721 0.00028992142
0.043381638 0.58409438 0.00023198482
0.41575875 0.58412966 0.00011635004
0.63057145 0.5841268 0
0.80101282 0.58486687 0
0.93529793 0.59244678 0
0.995799 0.60786221 0
0.99577325 0.61738766 0
0 0.74131189 0.00037575341
0 0.74131189 0.00037575341
0.19605828 0.74135761 0.00022608387
0.45767123 0.73747616 0.00010109102
0.64493114 0.73354505 0.000036240177
0.79946403 0.73360442 0.0000035763333
0.92257525 0.73358988 0
0.99577897 0.73993858 0
0.99577707 0.74534028 0
0.03565938 0.85659094 0.00038242924
0.2022755 0.85659571 0.00030756466
0.36754025 0.85269512 0.00020695048
0.52890536 0.84880074 0.00015592813
0.67640002 0.84491684 0.000053406577
0.8072509 0.84101911 0.000034332799
0.9185874 0.84105535 0
0.99571984 0.84104295 0
0.99570459 0.84201572 0
0.39553483 0.93820287 0.00023460746
0.43025578 0.93428249 0.00022817006
0.50736772 0.93427319 0.00016021973
0.6119173 0.93037118 0.00013232433
0.7224825 0.92648632 0.000036001755
0.82708309 0.92260052 0.0000085831998
0.92243315 0.91868515 0.0000028610666
0.99571043 0.9187264 0.00046855926
0.99568456 0.9187233 0.020849784
0.55427825 0.99628824 0.16328489
0.57378882 0.99625391 0.16718738
0.61973421 0.9962706 0.171077
0.68958906 0.99237931 0.17522436
0.77110513 0.98847467 0.18659781
0.85267772 0.98847443 0.20006056
0.93037118 0.98458791 0.21779393
0.99572342 0.98067874 0.23736815
0.99571984 0.9806363 0.24553674
0.000068665599 0 0.13575189
0.055146582 0.0038939117 0.13573186
0.17292668 0.0000057221332 0.13857004
0.36282187 0.0000047684443 0.13849136
0.59920081 0.000024795911 0.13838216
0.80914635 0.000060082399 0.13435187
0.96684119 0.000056267643 0.13041505
0.99618143 0.000064850843 0.11763943
0.99613565 0.000034332799 0.10982681
0.000070572976 0.058099203 0.13873693
0.057739185 0.058097653 0.13863948
0.1849347 0.047910348 0.13963698
0.37788568 0.0000041723888 0.14202257
0.60936666 0.000027656977 0.13838622
0.813056 0.000040054932 0.13435187
0.96906329 0.000037193866 0.12620642
0.99613565 0.000034332799 0.10982681
0.99617762 0.000076295109 0.10110628
0.0000028610666 0.17286755 0.14267567
0.024921917 0.17381743 0.14266661
0.20112416 0.1770366 0.14259985
0.40565931 0.16505994 0.13854775
0.62696078 0.12601663 0.1341001
0.81936012 0.081102059 0.12288007
0.96681282 0.11823072 0.10677548
0.99606508 0.21066105 0.084519484
0.99606603 0.26183242 0.069739452
0 0.37066835 0.11984054
0 0.37454986 0.11977951
0.17149794 0.37845974 0.11578057
0.42089336 0.38241219 0.10789607
0.63853499 0.38093671 0.095076104
0.8152896 0.38635438 0.074718543
0.95432176 0.40590643 0.046220412
0.99592757 0.44052105 0.015521286
0.99591964 0.46057307 0.006764992
0 0.58408103 0.027639811
0 0.58406624 0.024273766
0.0974341 0.58409819 0.01967174
0.42593867 0.58411059 0.0093940738
0.63646906 0.58412299 0
0.80345426 0.58612097 0
0.93527504 0.59391737 0
0.99581903 0.60954452 0
0.99577325 0.61738766 0
0 0.74131189 0.00037575341
0 0.74131189 0.00037575341
0.21376912 0.74138008 0.00023854143
0.4615568 0.73747997 0.00011444266
0.64688048 0.73356413 0.000014305333
0.79946403 0.73360442 0.0000035763333
0.92145943 0.73360704 0
0.99576216 0.7399545 0.0052625744
0.99579423 0.74534886 0.022621023
0.069913024 0.85657664 0.050406271
0.21055757 0.85366789 0.051056926
0.37073415 0.85270681 0.05549444
0.52893802 0.84880264 0.06299115
0.67641337 0.84491207 0.07593986
0.80591335 0.8410234 0.092852102
0.91471661 0.84102317 0.11346466
0.99578338 0.84102936 0.13799663
0.99580663 0.84201286 0.1524815
0.39172627 0.93813087 0.19615043
0.42984885 0.93421907 0.19614018
0.50736689 0.93423481 0.19744733
0.61049922 0.93034698 0.20388491
0.71932865 0.92642052 0.21035039
0.8237487 0.92252446 0.22069994
0.9186284 0.91862352 0.23585834
0.99580568 0.91864509 0.25154068
0.99579042 0.91863174 0.26053492
0.55047684 0.99622721 0.30675593
0.56966602 0.99623293 0.31073234
0.6158999 0.99624437 0.31070706
0.68572471 0.99234188 0.3145819
0.76723697 0.98844892 0.3184081
0.84880121 0.98847705 0.32622454
0.92645628 0.98454452 0.33786908
0.99579232 0.98067445 0.34959945
0.9958381 0.98064775 0.35445945
0.00010872053 0 0.29001297
0.00010872053 0 0.29001297
0.15553044 0 0.29238622
0.37071555 0 0.29619097
0.60878729 0.0000057221332 0.2975309
0.81309892 0.000014305333 0.30134565
0.96985866 0.000053406577 0.30519045
0.99627298 0.0000171664 0.30761807
0.99629015 0 0.30911727
0.000077248798 0.058067493 0.29396839
0.000096024548 0.055708752 0.29610955
0.1726873 0.039182188 0.29634117
0.38635605 0 0.30009346
0.61926928 0.0000085831998 0.30146582
0.81702621 0.0000064373999 0.30376612
0.96988012 0.000027180133 0.30761282
0.99627298 0.0000171664 0.30761807
0.99627298 0.0000171664 0.30761807
0.000047207599 0.17380598 0.3042668
0.000044346532 0.17671139 0.30427396
0.19631566 0.17672761 0.30418157
0.41479028 0.16113217 0.30554677
0.63483015 0.11982886 0.30783384
0.82091249 0.081072018 0.30771326
0.96589454 0.12308714 0.3076921
0.99615657 0.21541453 0.30774377
0.99611563 0.26628996 0.30774157
0 0.37451648 0.30827039
0 0.37451648 0.30827039
0.176605 0.37843954 0.30820208
0.42915025 0.3823581 0.30806806
0.64254466 0.38091669 0.30642894
0.81541853 0.38723723 0.30398776
0.95111462 0.40681131 0.30391853
0.99605587 0.4415195 0.30392371
0.99601596 0.46352998 0.30781548
0 0.58403143 0.30445182
0 0.58403143 0.30445182
0.12243815 0.58404002 0.30444133
0.43297057 0.58406589 0.30424332
0.63855859 0.58406624 0.30414473
0.80359898 0.58603668 0.30408739
0.93151298 0.59388018 0.30524338
0.99596327 0.60948825 0.30933649
0.99596208 0.62120623 0.31179618
0 0.74126397 0.31141899
0 0.74126397 0.31141899
0.22475669 0.74128728 0.31223344
0.46562309 0.73739834 0.31212234
0.64554043 0.73349928 0.31426957
0.79572002 0.73351361 0.31732695
0.9158332 0.73353528 0.32293699
0.9959228 0.74007433 0.32926558
0.99593109 0.74526017 0.3353182
0.076888781 0.85358873 0.34066529
0.21338103 0.85359654 0.34061815
0.37084692 0.85264661 0.34346497
0.52773649 0.84876563 0.34437341
0.67232085 0.84485485 0.34816796
0.79956708 0.84095778 0.35205991
0.90798202 0.84096344 0.35934401
0.9958772 0.84095855 0.3675412
0.99588722 0.84197232 0.37253996
0.38793631 0.93420596 0.39088154
0.42418525 0.93422119 0.39211982
0.50229958 0.93420679 0.39227697
0.60425277 0.93030254 0.39464218
0.71299568 0.9263925 0.3984915
0.81762709 0.92248754 0.40370007
0.91090925 0.91859288 0.40987551
0.99218112 0.91862528 0.4191816
0.9958784 0.91856665 0.42328622
0.54270809 0.99620813 0.45039292
0.5622034 0.99621004 0.4503624
0.60913825 0.99621958 0.45037003
0.67798481 0.99229944 0.4542134
0.75950542 0.98842412 0.45564584
0.84102841 0.98452974 0.46196355
0.91871185 0.9845264 0.46583314
0.98850447 0.98063749 0.47355635
0.99584573 0.98059815 0.4775082
0.00022888533 0 0.48436713
0.00022888533 0 0.48436713
0.055394064 0 0.48625353
0.36936465 0 0.48809987
0.61351568 0 0.4899443
0.81176852 0 0.49375429
0.96310559 0 0.49756809
0.99629206 0 0.50143435
0.99629206 0 0.50143435
0.00014877546 0.053625925 0.48632124
0.00016284237 0.048228523 0.48829788
0.10101496 0.01902657 0.49016461
0.38558511 0 0.49003419
0.62327764 0 0.49384298
0.81566815 0.0000028610666 0.49569505
0.96308938 0 0.49932431
0.99629206 0 0.50143435
0.99629206 0 0.50143435
0.00014305333 0.17375257 0.49422446
0.000097276265 0.17668803 0.49421874
0.15528058 0.17340209 0.496108
0.4155673 0.15456173 0.49774763
0.63882086 0.11179808 0.49779507
0.81953655 0.080531395 0.4996016
0.95915398 0.12976225 0.4999423
0.9962017 0.22317869 0.50157931
0.99617189 0.27203593 0.50157359
0.000042915999 0.37693599 0.50017357
0.000054360266 0.37838655 0.50014782
0.15220278 0.38083968 0.50009775
0.43168059 0.38232671 0.49994886
0.64260986 0.38162528 0.49983978
0.81157611 0.38926957 0.49977481
0.9439405 0.40971499 0.50166204
0.99610847 0.44507467 0.50167468
0.99610132 0.46589132 0.5036202
0.0000038147555 0.58399329 0.50028229
0.0000038147555 0.58399329 0.50028229
0.12006847 0.58398947 0.50020409
0.43426366 0.58403668 0.50003338
0.63519493 0.58403716 0.49994659
0.79584812 0.58600652 0.50182679
0.92381075 0.59407568 0.50275139
0.99603599 0.60969568 0.50565347
0.99600977 0.62119097 0.50762188
0 0.7412356 0.50621519
0 0.7412356 0.50621519
0.2283875 0.73734908 0.5060874
0.46178664 0.73737602 0.50597391
0.64049744 0.73348974 0.50782645
0.7879654 0.73349951 0.50845159
0.907398 0.73348402 0.51160687
0.99599737 0.74132334 0.51545071
0.99596304 0.74521153 0.51743343
0.079869535 0.85259022 0.52039559
0.21034824 0.85261907 0.5203038
0.36702144 0.84970006 0.52059157
0.52131733 0.84870513 0.52208386
0.66487659 0.84483101 0.52347314
0.79184691 0.84093113 0.52640168
0.89924754 0.840939 0.52974222
0.98860151 0.84093876 0.5337582
0.99596017 0.84189364 0.53602655
0.38381685 0.93415923 0.54710365
0.41830963 0.93416674 0.54708851
0.49576205 0.93027485 0.54705215
0.59650092 0.93029393 0.54750956
0.70513418 0.92637856 0.55086833
0.80776339 0.92247606 0.55127186
0.89978041 0.91858859 0.55515159
0.98078794 0.91858835 0.56073484
0.99597257 0.91859121 0.56292058
0.53495079 0.99619287 0.57831693
0.55616369 0.99617189 0.57831502
0.60278859 0.99325933 0.5797303
0.67017433 0.99229324 0.58214408
0.75174334 0.98839933 0.58211261
0.83202678 0.98448348 0.5859865
0.90896849 0.98449874 0.5883917
0.98078126 0.98059434 0.59375143
0.99588006 0.98057527 0.59567407
0.00029182879 0 0.65133707
0.00026894026 0 0.65279049
0.00023079271 0 0.65521286
0.36942473 0 0.65506981
0.61819066 0 0.65496777
0.80935497 0 0.658752
0.95833143 0 0.65868191
0.99641604 0 0.65867094
0.99641604 0 0.65867094
0.00028610666 0.03828131 0.65527581
0.0002350247 0.028708538 0.65523706
0.00023079271 0 0.65521286
0.38873154 0 0.65511052
0.62723926 0 0.6588817
0.81306807 0 0.65874878
0.95537022 0 0.65868763
0.99641604 0 0.65867094
0.99641604 0 0.65867094
0.00020075151 0.17556935 0.6592298
0.00020075151 0.17369535 0.65922265
0.11242537 0.16885216 0.65918927
0.4195235 0.14480895 0.65906004
0.6389167 0.10243691 0.65889601
0.81569975 0.081419757 0.65881423
0.95141289 0.13916645 0.65876905
0.99626899 0.2312196 0.65878818
0.99623198 0.28160096 0.6587892
0.000073434043 0.37834792 0.65935259
0.000073434043 0.37834792 0.65935259
0.14447135 0.38225882 0.65928166
0.43711438 0.38083005 0.65913062
0.64269129 0.38230776 0.65902988
0.80621468 0.39105547 0.658947
0.93562767 0.41359597 0.65886925
0.9962017 0.44894331 0.65802005
0.9961471 0.46976425 0.65745975
0.0000057221332 0.58395895 0.65549992
0.0000057221332 0.58395895 0.65549992
0.14686284 0.58396897 0.65548061
0.44092124 0.58400223 0.65533267
0.63478008 0.58400616 0.65520905
0.79128805 0.58598077 0.65516232
0.91553154 0.59624151 0.65508507
0.99608415 0.61337453 0.65504597
0.996108 0.62383078 0.65505455
0 0.74121557 0.65560292
0 0.73974427 0.65557932
0.24438939 0.73730771 0.6554669
0.4657575 0.73531206 0.65535472
0.63665706 0.73344122 0.65528439
0.78020643 0.73345493 0.65518869
0.89759593 0.7334687 0.65837738
0.99260507 0.74131741 0.65903617
0.99605268 0.74517481 0.65904169
0.12146897 0.8525659 0.66233406
0.2266196 0.85257037 0.66227243
0.37179704 0.84866484 0.6622009
0.52138099 0.84574816 0.66324197
0.66004282 0.8418586 0.66310893
0.78407012 0.84090831 0.66305725
0.88857993 0.8408974 0.6655915
0.97693933 0.84093429 0.66687672
0.99599641 0.8418698 0.66750687
0.38540618 0.93413682 0.67377475
0.42034129 0.93415368 0.67371327
0.49463735 0.93025638 0.67498802
0.59262658 0.92636237 0.67494376
0.6993199 0.92438261 0.67517798
0.79988505 0.92247135 0.67731827
0.8914686 0.91856141 0.67867164
0.96939836 0.91857702 0.68125173
0.99598712 0.91855569 0.68255417
0.53493744 0.99618143 0.69058328
0.55406367 0.99618119 0.69066124
0.59652094 0.99226415 0.69303235
0.66579809 0.99227226 0.69300898
0.74399176 0.98838312 0.69294652
0.82166352 0.9844718 0.69437896
0.89925612 0.98446965 0.69675937
0.96914364 0.9805736 0.69851844
0.99594682 0.98057336 0.70068093
0.00031280995 0 0.78221561
0.00031280995 0 0.78221561
0.00031567102 0 0.78295663
0.39778363 0 0.78299191
0.63122377 0 0.78291562
0.81334354 0 0.78277638
0.95445945 0 0.78270008
0.99645228 0 0.78272679
0.99645228 0 0.78272679
0.00033331426 0.0058680476 0.783227
0.0003166247 0 0.78320363
0.024864934 0 0.78320971
0.41438562 0 0.78300276
0.63943384 0 0.78288462
0.81576829 0 0.78275015
0.95151827 0 0.78270294
0.99645228 0 0.78272679
0.99644465 0 0.78175784
0.00025940337 0.1727369 0.78325227
0.00026131075 0.16882677 0.78327325
0.15772965 0.15764787 0.78320888
0.44435547 0.13153789 0.78302088
0.6507167 0.092214084 0.78291609
0.81571858 0.088190352 0.78280308
0.94675507 0.151946 0.78182507
0.99632985 0.24399498 0.78181077
0.99629015 0.29097906 0.77892729
0.0001544976 0.38220846 0.78338293
0.0001544976 0.38220846 0.78338293
0.20216869 0.38224756 0.78325513
0.46021043 0.3808237 0.78216834
0.65054241 0.38229286 0.78208186
0.80531586 0.39404493 0.77909758
0.93084528 0.41800577 0.77840491
0.99619979 0.45313978 0.77799363
0.99619049 0.47424277 0.77619116
0.000080109865 0.58393416 0.77862974
0.000080109865 0.58393416 0.77862974
0.21695897 0.58394369 0.7784514
0.46049916 0.5839704 0.77687734
0.64069581 0.5839704 0.77535763
0.78815352 0.58791366 0.77525463
0.90937047 0.59770018 0.77423228
0.99615353 0.61380679 0.77419986
0.99615282 0.62503624 0.7742504
0.0000071526665 0.73726635 0.77474393
0.0000071526665 0.73726635 0.77474393
0.28605814 0.73730461 0.77459683
0.48050827 0.7334107 0.77155981
0.64061165 0.7334194 0.77152857
0.77786941 0.73343985 0.77142802
0.89158978 0.73589351 0.7714003
0.98357581 0.74156605 0.77132621
0.99608082 0.74762198 0.77133783
0.1940013 0.84961566 0.77172599
0.26883345 0.84867437 0.7717385
0.3937345 0.8486305 0.77170143
0.52921292 0.84475364 0.7716355
0.66071899 0.8418555 0.77225814
0.78021954 0.8408875 0.77443589
0.88081822 0.84088178 0.77438773
0.96921147 0.84088691 0.77431561
0.99602789 0.84478904 0.77427806
0.40318914 0.93022192 0.77852436
0.43398709 0.93023343 0.77853962
0.5033335 0.93024159 0.7785029
0.59548458 0.9263419 0.77850069
0.69743482 0.92242218 0.77841588
0.79433926 0.92244 0.77835985
0.88374437 0.9185266 0.77843328
0.96134872 0.9185027 0.77958581
0.99603122 0.91854877 0.78220274
0.53891432 0.99223697 0.78630503
0.55545033 0.99224317 0.78634031
0.60045396 0.99224651 0.78628691
0.66247377 0.98835832 0.78623445
0.74008164 0.98835927 0.78619059
0.81774672 0.98444152 0.78619631
0.89151694 0.98444438 0.79004063
0.96134079 0.98057765 0.79006256
0.9959678 0.98055238 0.78995575
0.00035667964 0 0.87944991
0.00035667964 0 0.87944991
0.15907864 0 0.87934882
0.45203684 0 0.87914688
0.65879015 0 0.87903315
0.82361906 0 0.87896663
0.95547942 0 0.87891299
0.996458 0 0.87892348
0.99649805 0 0.87504005
0.00035667964 0 0.87944991
0.00035667964 0 0.87944991
0.20301324 0 0.87931681
0.46519775 0 0.8791216
0.66470016 0 0.87908274
0.82748627 0 0.8789981
0.95450904 0 0.87893683
0.99651141 0 0.87553216
0.99644489 0.043369955 0.87498093
0.00029659724 0.16100032 0.87946517
0.00028467613 0.15711357 0.8794995
0.26567185 0.14440054 0.87934143
0.48960116 0.11550722 0.87917436
0.67247129 0.085332265 0.87907845
0.82357584 0.099263812 0.87904108
0.94659235 0.17115902 0.87510276
0.99634457 0.25929322 0.87515593
0.99633831 0.30565681 0.87169451
0.00022864691 0.38222348 0.87742189
0.00022864691 0.38222348 0.87742189
0.29672587 0.38223307 0.87603678
0.49988845 0.38227864 0.87540484
0.66851742 0.3861857 0.87531591
0.81183674 0.39888168 0.87314078
0.92902111 0.42528307 0.87129921
0.99625322 0.46059882 0.87130291
0.99626678 0.4814219 0.86759723
0.000071526665 0.5839189 0.87179465
0.00028682193 0.58392057 0.87180049
0.30626812 0.5839282 0.87171764
0.49586099 0.58394369 0.86880794
0.65646172 0.58507095 0.86759079
0.79528842 0.58984703 0.86756206
0.90780928 0.60156405 0.86750114
0.99619395 0.61726546 0.86357242
0.99615568 0.62892157 0.8635462
0.00094772831 0.73724537 0.86411388
0.17847962 0.73726396 0.86402408
0.35047374 0.73581549 0.86389334
0.50920077 0.73340191 0.86380724
0.65628088 0.73340093 0.86373503
0.78049721 0.73341139 0.86240493
0.88830545 0.73732065 0.85999388
0.97709728 0.74385494 0.85970802
0.99612492 0.74904679 0.8597076
0.27974508 0.84861191 0.86009527
0.33002606 0.84864517 0.86010189
0.4294058 0.84570232 0.86002494
0.54895327 0.84475811 0.8600303
0.67039106 0.84085102 0.85992862
0.78108281 0.8408453 0.85983706
0.87986858 0.84088285 0.85980726
0.96141327 0.84087719 0.85980088
0.99610418 0.84477712 0.85972763
0.43450971 0.93018354 0.86002542
0.46137059 0.93019644 0.86005429
0.52291077 0.92630566 0.86000277
0.60707792 0.92633811 0.85996271
0.70134971 0.92241741 0.85992874
0.79434689 0.91852293 0.85986502
0.87984283 0.91850627 0.85983736
0.95748693 0.91854505 0.85982502
0.99215853 0.91856355 0.85978509
0.5506714 0.99225795 0.86400778
0.56973754 0.99223697 0.86394126
0.60830138 0.99222457 0.86391432
0.66690223 0.98835975 0.86390717
0.7401503 0.98639944 0.86383612
0.81388023 0.98443794 0.86380894
0.88765354 0.98051423 0.86375124
0.95740277 0.98056835 0.86371405
0.98820859 0.98060006 0.86371786
0.00044251164 0 0.95317006
0.010643168 0 0.95308995
0.32170977 0 0.95299077
0.52330053 0 0.95282292
0.69570459 0 0.95278859
0.84316205 0 0.95272755
0.9623331 0 0.95260166
0.99649042 0 0.9487602
0.99649042 0 0.9487602
0.00038147555 0 0.95704585
0.118544 0 0.9530251
0.34458495 0 0.95294118
0.53261234 0 0.9528439
0.69960327 0 0.95273518
0.84316205 0 0.95272755
0.95936904 0 0.95268177
0.99649042 0 0.9487602
0.99647326 0.11125734 0.948785
0.059933623 0.14827573 0.95317769
0.2093142 0.14047742 0.95307136
0.38023289 0.12488365 0.95294594
0.54818799 0.099978065 0.9528625
0.70350195 0.08486305 0.95280575
0.83922141 0.11856641 0.94986028
0.95077726 0.19133383 0.94881933
0.9964189 0.2778892 0.94498407
0.99633021 0.32127108 0.94499123
0.15256542 0.38224231 0.94938582
0.2495439 0.3822199 0.94925374
0.39669833 0.38224565 0.94919175
0.55196269 0.38468757 0.94908279
0.69700256 0.39008354 0.94906062
0.82644365 0.40572023 0.9450854
0.93478342 0.43305772 0.94502413
0.99629301 0.46839785 0.94111639
0.99626535 0.48923857 0.94116884
0.175906 0.58391699 0.94162661
0.26280232 0.58390269 0.94154078
0.39657816 0.58393416 0.94145113
0.54409953 0.5839704 0.94142061
0.68373388 0.58591592 0.94132143
0.80699626 0.59374189 0.93738937
0.91128977 0.60543984 0.93728542
0.99624628 0.62159342 0.93730831
0.99626154 0.63281453 0.93340963
0.25298695 0.73582055 0.93378347
0.31323911 0.73581102 0.93372292
0.421458 0.73341011 0.93373388
0.54940681 0.7333772 0.93363875
0.6758135 0.73339532 0.93361086
0.79203837 0.73339437 0.93355673
0.89167382 0.73731689 0.93201915
0.97712887 0.74514262 0.92958009
0.99612421 0.75149538 0.92950332
0.36423285 0.84565499 0.92987716
0.39989939 0.84568217 0.92984474
0.47657645 0.84473278 0.9298352
0.57949712 0.84183499 0.92979372
0.68752193 0.84085412 0.92973983
0.78871452 0.84085079 0.92967308
0.87986763 0.8408608 0.92570382
0.96145333 0.84182069 0.92563849
0.99607462 0.84475853 0.92563134
0.47700465 0.92626841 0.92590791
0.50000834 0.9262901 0.92594677
0.55027752 0.92630083 0.92596561
0.62775211 0.92240191 0.92589027
0.71286812 0.92241646 0.92586309
0.79830386 0.91850109 0.92578226
0.87980802 0.91850252 0.92574912
0.95357848 0.91854472 0.92572862
0.98825437 0.91855688 0.92575723
0.57415122 0.99226368 0.92593271
0.58930724 0.99218929 0.92588312
0.62395285 0.98834592 0.92589456
0.67819867 0.98831731 0.92587549
0.74798199 0.98444343 0.92583352
0.81779011 0.98443389 0.9257763
0.88769741 0.9805333 0.92581827
0.95360685 0.98052377 0.92570764
0.98818952 0.98057527 0.9257496
