site/assets/luts/sha256-bf6187f15c6d420c58514794827036308eee56842fdad838671a14abe54b41c1.cube
# LUTr-Schema-Version: 2
# LUTr-ID: sha256-bf6187f15c6d420c58514794827036308eee56842fdad838671a14abe54b41c1
# LUTr-Title: polaroid 690 ++
# LUTr-Collection: Natron HaldCLUT
# LUTr-Collection-ID: natron-haldclut-presets
# LUTr-Source: https://github.com/NatronGitHub/clut
# LUTr-Retrieved: 2026-07-27
# LUTr-Source-File: submissions/natron-haldclut-presets/instant_pro/polaroid_690_++.png
# LUTr-Source-Format: HALD-PNG
# LUTr-Source-SHA256: bf6187f15c6d420c58514794827036308eee56842fdad838671a14abe54b41c1
# LUTr-License: CC-BY-SA-4.0
# LUTr-License-URL: https://github.com/NatronGitHub/clut#license
# LUTr-License-Basis: repo-license-file
# LUTr-Transform-Class: film-emulation
# LUTr-Tags: creative, film, film-emulation, hald-clut, natron, png, cube
# LUTr-Input-Color-Space: srgb
# LUTr-Input-Gamut: rec709
# LUTr-Input-Transfer: srgb
# LUTr-Output-Color-Space: srgb
# LUTr-Output-Gamut: rec709
# LUTr-Output-Transfer: srgb
# LUTr-Color-Space-Confidence: assumed-display-referred
# LUTr-Domain-Normalized: true
# LUTr-Shaper: none
# LUTr-Original-Grid: 64x64x64
# LUTr-Conversion-Grid: 25x25x25
# LUTr-Conversion-Interpolation: trilinear
# LUTr-Conversion-Method: HALD-PNG LUT image decoded at 16-bit and sampled to 25x25x25 3D CUBE
# LUTr-Conversion-Tool: LUTr scripts/convert-all-to-cube.mjs 2.0.0
# LUTr-Conversion-Date: 2026-07-27
# LUTr-Note: Preserve this metadata and the upstream license notices when redistributing.
TITLE "polaroid 690 ++"
LUT_3D_SIZE 9
DOMAIN_MIN 0 0 0
DOMAIN_MAX 1 1 1
0.32156863 0.26666667 0.22352941
0.34509804 0.27058824 0.23137255
0.36764706 0.26666667 0.23137255
0.44264706 0.2627451 0.22990196
0.52745098 0.25098039 0.2254902
0.64901961 0.23137255 0.22352941
0.77647059 0.20196078 0.22352941
0.88823529 0.16813725 0.21960784
1 0.14117647 0.20784314
0.32941176 0.28970588 0.23137255
0.34460784 0.28670343 0.23137255
0.37843137 0.28186275 0.23529412
0.45147059 0.28186275 0.22745098
0.55588235 0.27769608 0.22352941
0.6723652 0.25814951 0.22352941
0.79558824 0.2372549 0.21862745
0.91911765 0.21421569 0.21268382
0.96519608 0.20686275 0.21176471
0.33333333 0.32254902 0.22745098
0.34460784 0.32254902 0.22745098
0.38627451 0.32745098 0.22745098
0.47941176 0.3377451 0.22745098
0.59117647 0.34215686 0.22352941
0.72156863 0.34571078 0.21960784
0.84044118 0.32916667 0.21176471
0.94865196 0.31372549 0.20490196
0.97647059 0.31764706 0.20098039
0.33970588 0.41127451 0.22892157
0.36029412 0.41127451 0.23137255
0.39987745 0.40343137 0.22352941
0.49215686 0.41911765 0.21715686
0.61764706 0.4379902 0.2125
0.76029412 0.45533088 0.20300245
0.88884804 0.4622549 0.20208333
0.97156863 0.45931373 0.2
0.99607843 0.45539216 0.19852941
0.34509804 0.50196078 0.21176471
0.37205882 0.50980392 0.21911765
0.41323529 0.49901961 0.20980392
0.49362745 0.5129902 0.20073529
0.61960784 0.5372549 0.19019608
0.75367647 0.56421569 0.17696078
0.89019608 0.59068627 0.16666667
0.98848039 0.60196078 0.19460784
0.99607843 0.60392157 0.22745098
0.35686275 0.6122549 0.19460784
0.38529412 0.6122549 0.20245098
0.43088235 0.60588235 0.19460784
0.50686275 0.61317402 0.18915441
0.62107843 0.6377451 0.17769608
0.74313725 0.66231618 0.15
0.8745098 0.68382353 0.14644608
0.97303922 0.69852941 0.17156863
0.99754902 0.69852941 0.19460784
0.40098039 0.72156863 0.18431373
0.42058824 0.72071078 0.17647059
0.46691176 0.71372549 0.18112745
0.53627451 0.71666667 0.16678922
0.63676471 0.72647059 0.15490196
0.75306373 0.74522059 0.15
0.87034314 0.76053922 0.14019608
0.96960784 0.77463235 0.15661765
0.99509804 0.77843137 0.16764706
0.5 0.825 0.21568627
0.51170343 0.82156863 0.2004902
0.5495098 0.81764706 0.18921569
0.61011029 0.81501225 0.18088235
0.69485294 0.81911765 0.17745098
0.7877451 0.82892157 0.17469363
0.8817402 0.84068627 0.18468137
0.96525735 0.8528799 0.19846814
0.99607843 0.85980392 0.20931373
0.62745098 0.92941176 0.32941176
0.63529412 0.92598039 0.32205882
0.65392157 0.91470588 0.31470588
0.7004902 0.91764706 0.30343137
0.76470588 0.91764706 0.29607843
0.83676471 0.9254902 0.30196078
0.90098039 0.93431373 0.31960784
0.96127451 0.94166667 0.34558824
0.98823529 0.94901961 0.35686275
0.32941176 0.27058824 0.25441176
0.34460784 0.27794118 0.24705882
0.37806373 0.27414216 0.24656863
0.44019608 0.25882353 0.24264706
0.53137255 0.24509804 0.24264706
0.64558824 0.22254902 0.24264706
0.76470588 0.1877451 0.24007353
0.89307598 0.14859069 0.23431373
0.95637255 0.10441176 0.22696078
0.33333333 0.28970588 0.25441176
0.34460784 0.28627451 0.24705882
0.37843137 0.28196998 0.24957108
0.45484069 0.2790671 0.24286918
0.55094975 0.26449142 0.23878676
0.66905637 0.24528186 0.23854167
0.79209559 0.21813725 0.23405331
0.91132813 0.18333333 0.2278799
0.9754902 0.15251225 0.22696078
0.33333333 0.32058824 0.24276961
0.34852941 0.32706801 0.24656863
0.39411765 0.33223039 0.24754902
0.47941176 0.33497243 0.24522059
0.6004902 0.34607843 0.24393382
0.7254902 0.33333333 0.23872549
0.83434436 0.30931373 0.23480392
0.94162071 0.28633578 0.22696078
0.98026961 0.27843137 0.22303922
0.3372549 0.41341912 0.25147059
0.35637255 0.41481311 0.24656863
0.40744485 0.41384804 0.24620098
0.49607843 0.4254902 0.23772978
0.6234375 0.43995098 0.2390625
0.76354933 0.46078431 0.23560049
0.88088235 0.45183824 0.22696078
0.96786918 0.43815104 0.22647059
0.99607843 0.43235294 0.22156863
0.34338235 0.51960784 0.24068627
0.36663603 0.51547181 0.23872549
0.4122549 0.50373775 0.23327206
0.50392157 0.52205882 0.2268076
0.62267157 0.54779412 0.21703431
0.76136642 0.57205882 0.21289828
0.89558824 0.59019608 0.21519608
0.98088235 0.58872549 0.23066789
0.99607843 0.59803922 0.25
0.36617647 0.6276348 0.2254902
0.38137255 0.6218367 0.225
0.42659314 0.6158701 0.22107843
0.50605852 0.62090227 0.21427696
0.61715686 0.64142157 0.20294118
0.74841452 0.66623775 0.19008119
0.87437194 0.68579963 0.19430147
0.97696078 0.69518229 0.21734069
0.99607843 0.69852941 0.25539216
0.39840686 0.72843137 0.21470588
0.42585784 0.72568934 0.22029718
0.46372549 0.72058824 0.20392157
0.54264706 0.72112439 0.20254289
0.63676471 0.73039216 0.19001225
0.75490196 0.74742647 0.19068627
0.87374387 0.76446078 0.18345588
0.97401961 0.77463235 0.20392157
0.99607843 0.7745098 0.21519608
0.49558824 0.825 0.24656863
0.51084559 0.82156863 0.24051777
0.54880515 0.81839767 0.22913603
0.61399357 0.82107843 0.2189568
0.69705882 0.82303922 0.21960784
0.78921569 0.82892157 0.21268382
0.88507966 0.84390319 0.21911765
0.96525735 0.85599724 0.24405637
0.99607843 0.86029412 0.25441176
0.61568627 0.925 0.35980392
0.61182598 0.91072304 0.33333333
0.6504902 0.91384804 0.33382353
0.70392157 0.92628676 0.33511029
0.75882353 0.90612745 0.30539216
0.83186275 0.92089461 0.32401961
0.90392157 0.91568627 0.3182598
0.96127451 0.94552696 0.375
0.98823529 0.94852941 0.37892157
0.32941176 0.27058824 0.28921569
0.34460784 0.2745098 0.29215686
0.38333333 0.27230392 0.29901961
0.44767157 0.26666667 0.30012255
0.53333333 0.25196078 0.29068627
0.64754902 0.22107843 0.29460784
0.74828431 0.17769608 0.28431373
0.87781863 0.032843137 0.26127451
0.98529412 0.0039215686 0.26078431
0.33333333 0.28627451 0.29215686
0.34497549 0.28578431 0.29505208
0.39010417 0.28578431 0.30637255
0.4569087 0.28186275 0.30133272
0.54877451 0.26378676 0.29607843
0.65796569 0.23293505 0.29125306
0.7689951 0.19852941 0.28431373
0.89301471 0.088587623 0.26556373
0.97794118 0.068504902 0.26127451
0.33161765 0.33455882 0.30196078
0.3495098 0.33109681 0.30392157
0.4033701 0.33529412 0.31470588
0.4919424 0.34215686 0.31078431
0.59301471 0.32144608 0.30294118
0.70686275 0.29289216 0.29117647
0.81807598 0.26740196 0.28259804
0.92598039 0.23578431 0.26853554
0.99607843 0.2129902 0.25686275
0.33186275 0.41764706 0.31078431
0.35637255 0.423269 0.31862745
0.41335784 0.42441789 0.31271446
0.51023284 0.43074449 0.31470588
0.62935049 0.44080882 0.31470588
0.77029718 0.44852941 0.31231618
0.87322304 0.43431373 0.30174632
0.96804534 0.40343137 0.28541667
1 0.39497549 0.27254902
0.34117647 0.53823529 0.31470588
0.3598652 0.534375 0.31862745
0.41556373 0.52303922 0.30698529
0.496875 0.52818627 0.29773284
0.62622549 0.55294118 0.30098039
0.76691176 0.57328431 0.30030637
0.88982843 0.57647059 0.30502451
0.97745098 0.58627451 0.33045343
1 0.57647059 0.32843137
0.34754902 0.63872549 0.30294118
0.37207414 0.63538603 0.30410539
0.42303922 0.63097426 0.29188113
0.50939032 0.63370098 0.29404105
0.61746324 0.64846814 0.27849265
0.75304841 0.66623775 0.28125
0.88529412 0.68737745 0.28333333
0.98223039 0.69491422 0.32757353
1 0.70490196 0.3689951
0.39191176 0.74019608 0.29803922
0.41323529 0.73820466 0.28851103
0.46372549 0.7286152 0.28431373
0.5379902 0.72981005 0.27895221
0.63737745 0.73382353 0.27144608
0.75257353 0.75134804 0.26945466
0.87745098 0.76666667 0.28406863
0.97401961 0.77463235 0.30303309
0.99583333 0.7745098 0.31862745
0.48431373 0.82928922 0.31617647
0.50300245 0.82928922 0.31127451
0.54460784 0.82426471 0.30735294
0.60245098 0.82107843 0.28711703
0.68541667 0.82126225 0.29221814
0.78331801 0.83039216 0.29113051
0.88137255 0.8421875 0.29558824
0.96568627 0.85245098 0.31041667
0.99215686 0.86029412 0.35477941
0.61078431 0.92843137 0.42058824
0.60490196 0.91115196 0.40110294
0.64828431 0.9245098 0.40563725
0.69203431 0.91997549 0.39289216
0.75686275 0.91911765 0.38186275
0.82426471 0.91654412 0.37965686
0.88921569 0.91838235 0.39019608
0.95355392 0.9377451 0.43296569
0.99607843 0.95980392 0.46666667
0.3254902 0.2745098 0.38235294
0.34460784 0.27322304 0.38627451
0.38811275 0.2627451 0.39742647
0.47800245 0.2651348 0.4216299
0.56372549 0.25367647 0.41176471
0.66476716 0.23290441 0.40441176
0.76654412 0.19203431 0.37843137
0.88020833 0.091666667 0.3745098
0.97156863 0.0039215686 0.35882353
0.3254902 0.28578431 0.38756127
0.34460784 0.28578431 0.3901348
0.40177696 0.28578431 0.41488971
0.48401501 0.28395374 0.42352941
0.57901348 0.27205882 0.41795343
0.66978401 0.25539216 0.38890165
0.77843137 0.21518076 0.38137255
0.88643536 0.12661612 0.37101716
0.97107843 0.0039215686 0.35520833
0.33088235 0.33321078 0.39767157
0.34803922 0.33118873 0.39595588
0.40196078 0.33921569 0.4169424
0.50617341 0.34313725 0.44454657
0.59901961 0.32922794 0.42463235
0.69473039 0.30098039 0.40326287
0.80257353 0.2489277 0.37242647
0.90637255 0.17965686 0.34768689
0.99509804 0.03370098 0.32205882
0.33333333 0.42156863 0.4122549
0.35851716 0.42941176 0.4276348
0.41297488 0.42918199 0.42310049
0.51176471 0.43782935 0.43578431
0.6245098 0.42601103 0.42843137
0.73439798 0.39846814 0.40539216
0.84460784 0.37032782 0.38921569
0.9433364 0.33217678 0.36354933
1 0.30386029 0.34797794
0.34754902 0.54754902 0.44240196
0.36403186 0.54764093 0.44304534
0.42922794 0.55392157 0.44754902
0.51204044 0.54782475 0.43943015
0.63651961 0.56433824 0.44093137
0.78069853 0.58189338 0.4495098
0.89546569 0.57928922 0.45477941
0.97637868 0.55661765 0.43235294
1 0.54019608 0.4127451
0.34601716 0.66568627 0.43578431
0.37567402 0.66176471 0.43498009
0.43056066 0.65669424 0.42440257
0.51470588 0.65034467 0.42032782
0.62745098 0.65811887 0.41320466
0.75455729 0.67800245 0.41170343
0.88613664 0.69129902 0.43529412
0.97928156 0.70017616 0.47321538
0.99607843 0.70245098 0.50631127
0.39019608 0.75379902 0.42438725
0.40531556 0.75196078 0.42028186
0.46666667 0.75003064 0.41323529
0.5377451 0.74264706 0.40196078
0.62843137 0.73897059 0.38106618
0.75490196 0.75526961 0.3877451
0.87389706 0.76666667 0.40922181
0.96470588 0.77354473 0.4397212
0.99705882 0.78296569 0.48578431
0.46960784 0.83676471 0.43382353
0.4877068 0.83676471 0.43425245
0.5317402 0.83498775 0.4217065
0.59319853 0.8316636 0.41029412
0.67215074 0.825 0.39558824
0.77107843 0.83020833 0.39607843
0.87394301 0.84031863 0.41090686
0.95784314 0.8528799 0.43839614
0.99607843 0.86029412 0.46715686
0.58970588 0.92156863 0.52107843
0.60245098 0.92647059 0.51060049
0.61078431 0.90196078 0.47892157
0.67640931 0.91764706 0.48823529
0.73995098 0.91642157 0.4752451
0.81078431 0.91764706 0.47401961
0.88529412 0.93039216 0.49705882
0.94607843 0.9372549 0.51354167
0.98431373 0.93872549 0.51862745
0.31764706 0.27254902 0.52745098
0.34828431 0.2745098 0.53112745
0.40735294 0.26519608 0.54607843
0.51568627 0.25367647 0.58872549
0.62941176 0.24215686 0.60588235
0.71740196 0.23137255 0.56960784
0.80196078 0.21715686 0.51960784
0.89779412 0.14534314 0.50784314
0.98431373 0.019607843 0.50196078
0.31593137 0.28970588 0.53137255
0.34411765 0.28970588 0.53137255
0.40980392 0.28584559 0.55392157
0.51764706 0.28186275 0.58765319
0.6372549 0.27401961 0.60784314
0.72196691 0.26896446 0.56176471
0.80857843 0.24754902 0.52064951
0.90514706 0.17380515 0.50196078
0.98995098 0.038480392 0.49215686
0.30980392 0.33235294 0.52745098
0.33658088 0.33756127 0.53529412
0.40772059 0.34313725 0.55563725
0.52352941 0.34656863 0.59810049
0.64117647 0.34411765 0.61372549
0.72898284 0.33480392 0.56231618
0.81973039 0.30208333 0.52916667
0.91256127 0.2442402 0.49957108
0.99117647 0.12254902 0.48039216
0.31691176 0.41911765 0.5372549
0.34387255 0.43005515 0.55116422
0.40398284 0.42696078 0.55294118
0.51023284 0.44209559 0.58357843
0.64509804 0.45784314 0.60759804
0.73624387 0.4348652 0.56868873
0.84050245 0.38560049 0.52843137
0.92974877 0.31510417 0.48636642
0.99215686 0.21715686 0.44852941
0.34509804 0.54705882 0.57352941
0.36397059 0.55098039 0.57254902
0.43063725 0.55661765 0.58186275
0.52487745 0.56531863 0.59313725
0.64558824 0.58137255 0.60245098
0.76004902 0.5557598 0.58357843
0.8629902 0.51936275 0.55416667
0.95 0.46421569 0.51519608
0.99607843 0.43039216 0.4754902
0.36544118 0.67573529 0.59093137
0.4 0.67876838 0.59083946
0.45153186 0.67181373 0.58596814
0.53872549 0.67846201 0.58872549
0.64509804 0.67622549 0.58284314
0.76761642 0.68949142 0.58452819
0.8877451 0.69852941 0.60588235
0.96829044 0.69454657 0.6268076
0.99607843 0.66053922 0.61053922
0.40882353 0.77107843 0.59362745
0.43333333 0.76979167 0.58627451
0.47536765 0.76727941 0.57990196
0.553125 0.76519608 0.57009804
0.6377451 0.75637255 0.54436275
0.74705882 0.75900735 0.53970588
0.86862745 0.77340686 0.56507353
0.95980392 0.78045343 0.59730392
0.99607843 0.79068627 0.64411765
0.47279412 0.85245098 0.59509804
0.49509804 0.84656863 0.59411765
0.53878676 0.84675245 0.58529412
0.60196078 0.84132966 0.57083333
0.67230392 0.83762255 0.55147059
0.76029412 0.83627451 0.51945466
0.86194853 0.84295343 0.54681373
0.95021446 0.85637255 0.58112745
0.99632353 0.86813725 0.61372549
0.60196078 0.93529412 0.64705882
0.60514706 0.92916667 0.6372549
0.625 0.92156863 0.62598039
0.66593137 0.91666667 0.61470588
0.71960784 0.90490196 0.58333333
0.77843137 0.88553922 0.55098039
0.8745098 0.93333333 0.60490196
0.93235294 0.94166667 0.62794118
0.98039216 0.93333333 0.63921569
0.31764706 0.26666667 0.69362745
0.34803922 0.27058824 0.69362745
0.41813725 0.2627451 0.70441176
0.53137255 0.26029412 0.72990196
0.66593137 0.2379902 0.77107843
0.78382353 0.23382353 0.75882353
0.85870098 0.21776961 0.7127451
0.93596814 0.21127451 0.67107843
0.98431373 0.19117647 0.64656863
0.31372549 0.29099265 0.69362745
0.3411152 0.29362745 0.69705882
0.4127451 0.28970588 0.7004902
0.52726716 0.28186275 0.73370864
0.66862745 0.27843137 0.77000613
0.78939185 0.27089461 0.76666667
0.86585478 0.25525429 0.71911765
0.94148284 0.24072457 0.67612592
0.99607843 0.19607843 0.65410539
0.29411765 0.33529412 0.68970588
0.33235294 0.34313725 0.69448529
0.40784314 0.34313725 0.70922181
0.52391238 0.35075061 0.73627451
0.66593137 0.35784314 0.76127451
0.79189645 0.36286765 0.76421569
0.86433824 0.3463848 0.72156863
0.94007353 0.30931373 0.67843137
0.99007353 0.25882353 0.64656863
0.30196078 0.42696078 0.67702206
0.32696078 0.42537531 0.68431373
0.40166973 0.43088235 0.69301471
0.51119026 0.44362745 0.71960784
0.66078431 0.47469363 0.76078431
0.78740043 0.48543964 0.76217065
0.86715686 0.4477788 0.72095588
0.94362745 0.396875 0.66924786
0.99215686 0.34411765 0.63866422
0.30955882 0.5377451 0.68088235
0.3370098 0.53651961 0.68734681
0.40441176 0.5370098 0.68480392
0.50272672 0.54708946 0.70321691
0.64178922 0.57965686 0.73198529
0.78434436 0.60661765 0.76519608
0.85839461 0.56268382 0.71372549
0.94543505 0.49249387 0.65392157
0.99411765 0.41176471 0.60882353
0.36911765 0.66623775 0.71176471
0.39841452 0.67107843 0.7164905
0.46271446 0.67218137 0.72144608
0.54944853 0.67800245 0.72932751
0.65836397 0.68238358 0.73063725
0.78627451 0.70541513 0.75449602
0.87647059 0.69940257 0.74816176
0.94908088 0.63859528 0.70042126
0.99607843 0.56660539 0.65588235
0.49019608 0.78235294 0.74644608
0.5 0.78051471 0.73953738
0.5411152 0.77833946 0.73578431
0.60588235 0.77941176 0.74183517
0.68560049 0.77518382 0.73737745
0.77104779 0.77506127 0.72487745
0.87117034 0.78443627 0.73697917
0.95415135 0.79411765 0.7615962
0.99362745 0.79056373 0.77536765
0.54050245 0.85606618 0.74362745
0.55768229 0.85588235 0.736803
0.58835784 0.85245098 0.73570772
0.63736979 0.85202972 0.72984069
0.70137868 0.84917279 0.72303922
0.76305147 0.84430147 0.70245864
0.85392157 0.84620098 0.69731924
0.94035692 0.85653339 0.72156863
0.9877451 0.87156863 0.75226716
0.62647059 0.9372549 0.77303922
0.62794118 0.92334559 0.75667892
0.65539216 0.93480392 0.76384804
0.6911152 0.92941176 0.75098039
0.73872549 0.93014706 0.74191176
0.79117647 0.92457108 0.72990196
0.85747549 0.91421569 0.71813725
0.91844363 0.93186275 0.73823529
0.96470588 0.95980392 0.7627451
0.34215686 0.27058824 0.83137255
0.37794118 0.27193627 0.83002451
0.43823529 0.26838235 0.83406863
0.54803922 0.2627451 0.84497549
0.6754902 0.26421569 0.86372549
0.80980392 0.25870098 0.87647059
0.90490196 0.2745098 0.86470588
0.97058824 0.25686275 0.84362745
0.99313725 0.25294118 0.82156863
0.32879902 0.29362745 0.83431373
0.36997549 0.29754902 0.82745098
0.4375 0.28970588 0.83538603
0.54411765 0.29379596 0.85
0.67647059 0.29319853 0.86764706
0.81358762 0.31127451 0.8765625
0.90873162 0.31568627 0.86528799
0.97380515 0.30304841 0.84967831
0.99215686 0.29571078 0.81519608
0.32745098 0.34803922 0.82254902
0.35680147 0.34800858 0.82647059
0.42647059 0.35196078 0.82965686
0.5435049 0.35701593 0.84862132
0.6745098 0.37009804 0.86752451
0.80588235 0.39304534 0.87417279
0.90588235 0.40857843 0.86642157
0.97303922 0.38621324 0.84313725
0.98357843 0.37426471 0.81053922
0.29803922 0.42696078 0.80931373
0.33615196 0.42794118 0.80873162
0.40655637 0.42990196 0.82438725
0.52712929 0.44938725 0.84068627
0.6620098 0.47487745 0.85753676
0.79859069 0.50640319 0.87394301
0.90079657 0.52095588 0.87490809
0.96605392 0.49068627 0.84215686
0.99607843 0.46911765 0.80784314
0.26519608 0.51519608 0.78578431
0.30863971 0.52334559 0.79160539
0.38480392 0.52928922 0.79411765
0.49362745 0.53792892 0.8122549
0.63946078 0.56911765 0.84191176
0.78553922 0.61666667 0.85637255
0.89227941 0.63370098 0.86678922
0.95416667 0.59252451 0.83333333
0.99607843 0.53921569 0.79313725
0.33676471 0.65012255 0.8004902
0.35379902 0.65232843 0.80441176
0.41004902 0.64583333 0.8036152
0.50196078 0.64842218 0.81124387
0.61819853 0.66329657 0.82261029
0.77806373 0.70183824 0.84264706
0.88137255 0.71580882 0.8515625
0.94571078 0.67063419 0.8207261
0.99215686 0.61470588 0.77205882
0.4745098 0.76691176 0.82745098
0.48655025 0.76666667 0.82647059
0.53449755 0.76746324 0.83431373
0.60612745 0.76583946 0.83431373
0.68541667 0.76666667 0.83578431
0.79264706 0.78216912 0.84856005
0.87665441 0.79491422 0.853125
0.94215686 0.77671569 0.8393076
0.99117647 0.72328431 0.79289216
0.6370098 0.86286765 0.85294118
0.62696078 0.85637255 0.84607843
0.65309436 0.85588235 0.84607843
0.71341912 0.85980392 0.85214461
0.75949755 0.85637255 0.84595588
0.81372549 0.85992647 0.84192708
0.86887255 0.85980392 0.84175858
0.93382353 0.86148897 0.83028493
0.97990196 0.88382353 0.85257353
0.7 0.93333333 0.85686275
0.70343137 0.92892157 0.85686275
0.71568627 0.92941176 0.84901961
0.7377451 0.92990196 0.84901961
0.77941176 0.93088235 0.84509804
0.81813725 0.93333333 0.83786765
0.85759804 0.9379902 0.83357843
0.91029412 0.94166667 0.82598039
0.95196078 0.96372549 0.84803922
0.42598039 0.30294118 0.91813725
0.44803922 0.29460784 0.91862745
0.50539216 0.28676471 0.91519608
0.59656863 0.28756127 0.9223652
0.70686275 0.29558824 0.92990196
0.81666667 0.30030637 0.94166667
0.92058824 0.37598039 0.9377451
0.98529412 0.37506127 0.9216299
1 0.37892157 0.92205882
0.41764706 0.31470588 0.92598039
0.44460784 0.32211244 0.91862745
0.50963542 0.3254902 0.91432292
0.59656863 0.32894455 0.91727941
0.70707721 0.33210784 0.92990196
0.82205882 0.36982996 0.93039216
0.92463235 0.40232843 0.93742341
0.98131127 0.42370558 0.92941176
1 0.40055147 0.92297794
0.41335784 0.37120098 0.92169118
0.44036458 0.37941176 0.91438419
0.49803922 0.37941176 0.91384804
0.58970588 0.38333333 0.92023591
0.69926471 0.39779412 0.93002451
0.81456801 0.4217065 0.93382353
0.92058824 0.49019608 0.93382353
0.98082108 0.49669118 0.92576593
0.99607843 0.47794118 0.91433824
0.37383578 0.44883578 0.91096814
0.40471814 0.45275735 0.90688572
0.47463235 0.45516238 0.90819547
0.57959559 0.4732307 0.91518842
0.69166667 0.49632353 0.92215074
0.80625766 0.53418352 0.92598039
0.91176471 0.58056066 0.93086703
0.97745098 0.58180147 0.92156863
0.99607843 0.56176471 0.91207108
0.33627451 0.54607843 0.89313725
0.35707721 0.54411765 0.89359681
0.43394608 0.54626225 0.89356618
0.54534314 0.55539216 0.90441176
0.66973039 0.58394608 0.90882353
0.8004902 0.6229473 0.91421569
0.90526961 0.66617647 0.92205882
0.96764706 0.66740196 0.9122549
0.99607843 0.64828431 0.90245098
0.29491422 0.64295343 0.88854167
0.32751225 0.64136029 0.88727788
0.37489277 0.63431373 0.8877451
0.47329963 0.63890931 0.89117647
0.63961397 0.66397059 0.89273897
0.77911305 0.69538909 0.90441176
0.89166667 0.73394608 0.91421569
0.96133578 0.74826134 0.91599265
0.98284314 0.73088235 0.90637255
0.44852941 0.75980392 0.89117647
0.47493873 0.75980392 0.89503676
0.49877451 0.75294118 0.89181985
0.57077206 0.74901961 0.89483762
0.65226716 0.74767157 0.89509804
0.75563725 0.75972733 0.89852941
0.87490809 0.7924326 0.90955882
0.94865196 0.80245098 0.90669424
0.98137255 0.79019608 0.89754902
0.62205882 0.84852941 0.89852941
0.62854626 0.85238971 0.89859069
0.65556066 0.85153186 0.89854473
0.70253523 0.84852941 0.89852941
0.76666667 0.85245098 0.90245098
0.83290441 0.86029412 0.90245098
0.88468137 0.86372549 0.90245098
0.9377451 0.86851256 0.90594363
0.97506127 0.86170343 0.89460784
0.76813725 0.93676471 0.90588235
0.76078431 0.93284314 0.9028799
0.76764706 0.93235294 0.90245098
0.79068627 0.92941176 0.90245098
0.82156863 0.9370098 0.90220588
0.84852941 0.94117647 0.89852941
0.88088235 0.94129902 0.89460784
0.91862745 0.94944853 0.89460784
0.9372549 0.96470588 0.89852941
0.56078431 0.35686275 0.96862745
0.57205882 0.35294118 0.96470588
0.61078431 0.35686275 0.96176471
0.67794118 0.36323529 0.96323529
0.75490196 0.36470588 0.95686275
0.83970588 0.4122549 0.95833333
0.92352941 0.46862745 0.96078431
0.98480392 0.52647059 0.95686275
0.99607843 0.54117647 0.95294118
0.56813725 0.3877451 0.96470588
0.57647059 0.3877451 0.96470588
0.62022059 0.39031863 0.96727941
0.66727941 0.38756127 0.95294118
0.74485294 0.39901961 0.95294118
0.84773284 0.44166667 0.96096814
0.92843137 0.48639706 0.95686275
0.98915441 0.5528799 0.95594363
0.99607843 0.55637255 0.95294118
0.55686275 0.44901961 0.96078431
0.56384804 0.4442402 0.95735294
0.62132353 0.44583333 0.96151961
0.67401961 0.45257353 0.95686275
0.76078431 0.4745098 0.96078431
0.83970588 0.50196078 0.95686275
0.92352941 0.55514706 0.95367647
0.98480392 0.60502451 0.95294118
0.98921569 0.58235294 0.94509804
0.5504902 0.52254902 0.95686275
0.55392157 0.5223652 0.95294118
0.60588235 0.525 0.95294118
0.67941176 0.53921569 0.95686275
0.75735294 0.55833333 0.95294118
0.84454657 0.58676471 0.95294118
0.91568627 0.61127451 0.94448529
0.97843137 0.66127451 0.94509804
0.99215686 0.64264706 0.94117647
0.53333333 0.60392157 0.94901961
0.55441176 0.61176471 0.95269608
0.58970588 0.61078431 0.94901961
0.6622549 0.62205882 0.94828431
0.75490196 0.63921569 0.94901961
0.83455882 0.65784314 0.94509804
0.91568627 0.69019608 0.94264706
0.97083333 0.71372549 0.9372549
0.99411765 0.72352941 0.94117647
0.50735294 0.68676471 0.94509804
0.51280637 0.68155637 0.94332108
0.55955882 0.68529412 0.94509804
0.62941176 0.6901348 0.94454657
0.72401961 0.69901961 0.9372549
0.81133578 0.71121324 0.92996324
0.9 0.74509804 0.9372549
0.96176471 0.77990196 0.9372549
0.98431373 0.78872549 0.93333333
0.57352941 0.77843137 0.94019608
0.53210784 0.76507353 0.92941176
0.57279412 0.76470588 0.93259804
0.63835784 0.76580882 0.93541667
0.7127451 0.76372549 0.93676471
0.80012255 0.7745098 0.93333333
0.9 0.80392157 0.93406863
0.9495098 0.82904412 0.92941176
0.98039216 0.85686275 0.93333333
0.6872549 0.86323529 0.93284314
0.68639706 0.86029412 0.92898284
0.69938725 0.86029412 0.92941176
0.71715686 0.85373775 0.925
0.77401961 0.85637255 0.9254902
0.8254902 0.85637255 0.9254902
0.88039216 0.85588235 0.92156863
0.93425245 0.87205882 0.9254902
0.97205882 0.91421569 0.92892157
0.74901961 0.91372549 0.9254902
0.77647059 0.92941176 0.92941176
0.7872549 0.93627451 0.9254902
0.80539216 0.93235294 0.92156863
0.84509804 0.95098039 0.9254902
0.86813725 0.94117647 0.92156863
0.89901961 0.95294118 0.91764706
0.92598039 0.95784314 0.92156863
0.9372549 0.96862745 0.92156863
