site/assets/luts/sha256-cf7b092db252aa90cad344bf7acbac57345d510e8977b1251feb7e514811abe4.cube
# LUTr-Schema-Version: 2
# LUTr-ID: sha256-cf7b092db252aa90cad344bf7acbac57345d510e8977b1251feb7e514811abe4
# LUTr-Title: fuji fp-100c cool ++
# LUTr-Collection: Natron HaldCLUT
# LUTr-Collection-ID: natron-haldclut-presets
# LUTr-Source: https://github.com/NatronGitHub/clut
# LUTr-Retrieved: 2026-07-27
# LUTr-Source-File: submissions/natron-haldclut-presets/instant_pro/fuji_fp-100c_cool_++.png
# LUTr-Source-Format: HALD-PNG
# LUTr-Source-SHA256: cf7b092db252aa90cad344bf7acbac57345d510e8977b1251feb7e514811abe4
# LUTr-License: CC-BY-SA-4.0
# LUTr-License-URL: https://github.com/NatronGitHub/clut#license
# LUTr-License-Basis: repo-license-file
# LUTr-Transform-Class: film-emulation
# LUTr-Tags: creative, film, film-emulation, hald-clut, natron, png, cool, cube
# LUTr-Input-Color-Space: srgb
# LUTr-Input-Gamut: rec709
# LUTr-Input-Transfer: srgb
# LUTr-Output-Color-Space: srgb
# LUTr-Output-Gamut: rec709
# LUTr-Output-Transfer: srgb
# LUTr-Color-Space-Confidence: assumed-display-referred
# LUTr-Domain-Normalized: true
# LUTr-Shaper: none
# LUTr-Original-Grid: 64x64x64
# LUTr-Conversion-Grid: 25x25x25
# LUTr-Conversion-Interpolation: trilinear
# LUTr-Conversion-Method: HALD-PNG LUT image decoded at 16-bit and sampled to 25x25x25 3D CUBE
# LUTr-Conversion-Tool: LUTr scripts/convert-all-to-cube.mjs 2.0.0
# LUTr-Conversion-Date: 2026-07-27
# LUTr-Note: Preserve this metadata and the upstream license notices when redistributing.
TITLE "fuji fp-100c cool ++"
LUT_3D_SIZE 5
DOMAIN_MIN 0 0 0
DOMAIN_MAX 1 1 1
0.16470588 0.12941176 0.16078431
0.20294118 0.12941176 0.15784314
0.45686275 0.10392157 0.16078431
0.74607843 0.052941176 0.14901961
0.97647059 0.14509804 0.15294118
0.16568627 0.19803922 0.16078431
0.24411765 0.20882353 0.15318627
0.53039216 0.23137255 0.14803922
0.78651961 0.24632353 0.15220588
0.98529412 0.30196078 0.15686275
0.050980392 0.43529412 0.15686275
0.23039216 0.43676471 0.15980392
0.49705882 0.48823529 0.084313725
0.79411765 0.51617647 0.080882353
0.98431373 0.54901961 0.22745098
0.0078431373 0.68235294 0.21764706
0.22377451 0.67058824 0.21372549
0.46764706 0.67794118 0.18137255
0.73651961 0.7127451 0.0071078431
0.97156863 0.73529412 0.031372549
0.49803922 0.90196078 0.49803922
0.54705882 0.89803922 0.49803922
0.6627451 0.88627451 0.49411765
0.82647059 0.89901961 0.46078431
0.97647059 0.92156863 0.43921569
0.16078431 0.1254902 0.21470588
0.26691176 0.10294118 0.25980392
0.45784314 0.074019608 0.25098039
0.74607843 0.016421569 0.25490196
0.96470588 0.12647059 0.25588235
0.14142157 0.20882353 0.25661765
0.2661152 0.23039216 0.27377451
0.53468137 0.23443627 0.27401961
0.78406863 0.23474265 0.26905637
0.99289216 0.30588235 0.2745098
0.026960784 0.50245098 0.3127451
0.24571078 0.48443627 0.30098039
0.52843137 0.51078431 0.25784314
0.80980392 0.53958333 0.29473039
0.98088235 0.55294118 0.34264706
0.011029412 0.7 0.32181373
0.23137255 0.68848039 0.31433824
0.48884804 0.69080882 0.30514706
0.75159314 0.72132353 0.22726716
0.98039216 0.74705882 0.27769608
0.45980392 0.89117647 0.52843137
0.53039216 0.89779412 0.53431373
0.66813725 0.89411765 0.5495098
0.83504902 0.91446078 0.55220588
0.9872549 0.9254902 0.50392157
0.14313725 0.10588235 0.48627451
0.30882353 0.040196078 0.52352941
0.65098039 0.0039215686 0.59411765
0.71568627 0.17401961 0.51960784
0.95098039 0.15882353 0.51372549
0.038235294 0.20686275 0.49411765
0.27794118 0.21286765 0.54485294
0.66470588 0.19240196 0.62156863
0.73590686 0.32389706 0.53823529
0.96568627 0.28480392 0.51078431
0.10784314 0.50490196 0.56078431
0.27745098 0.53235294 0.57843137
0.5995098 0.57843137 0.61911765
0.79166667 0.56960784 0.58431373
0.95882353 0.53627451 0.54411765
0.23578431 0.75147059 0.60686275
0.32941176 0.74901961 0.58860294
0.53676471 0.73161765 0.56397059
0.77156863 0.7439951 0.52892157
0.97107843 0.76715686 0.57647059
0.46862745 0.91372549 0.66470588
0.50245098 0.90686275 0.65196078
0.6627451 0.90882353 0.66568627
0.81862745 0.90245098 0.65686275
0.98431373 0.92941176 0.64313725
0.19117647 0.069607843 0.75294118
0.35857843 0.00073529412 0.77941176
0.68382353 0.0039215686 0.82058824
0.92867647 0.0068627451 0.83529412
0.95490196 0.36078431 0.76862745
0.13627451 0.20490196 0.75686275
0.32322304 0.18118873 0.76844363
0.65196078 0.12745098 0.81985294
0.93357843 0.21764706 0.85392157
0.94338235 0.44901961 0.78112745
0.0053921569 0.44019608 0.69460784
0.1627451 0.45772059 0.71372549
0.55392157 0.50294118 0.78382353
0.86188725 0.58982843 0.8307598
0.92156863 0.625 0.79117647
0.29166667 0.7252451 0.77867647
0.3817402 0.72689951 0.78014706
0.58970588 0.76041667 0.80637255
0.82279412 0.79901961 0.83449755
0.94117647 0.7872549 0.81544118
0.54607843 0.92156863 0.86176471
0.58014706 0.91764706 0.85294118
0.67156863 0.92009804 0.84019608
0.81960784 0.91397059 0.82647059
0.97352941 0.93039216 0.81862745
0.49411765 0.18431373 0.98039216
0.57156863 0.14803922 0.98529412
0.74705882 0.017647059 0.98431373
0.97058824 0.0078431373 0.98823529
1 0.2627451 0.98823529
0.4745098 0.31862745 0.97647059
0.54901961 0.30882353 0.97916667
0.72990196 0.27058824 0.97941176
0.95882353 0.2379902 0.99117647
0.99901961 0.42058824 0.96666667
0.33529412 0.54313725 0.9627451
0.41568627 0.52647059 0.95588235
0.66078431 0.53333333 0.96960784
0.90343137 0.56862745 0.97843137
0.99607843 0.62745098 0.98039216
0.31372549 0.75588235 0.94117647
0.36764706 0.75196078 0.93823529
0.55343137 0.74509804 0.94754902
0.82009804 0.76372549 0.97303922
0.98823529 0.80686275 0.97745098
0.6 0.90588235 0.96470588
0.63137255 0.90784314 0.96372549
0.70588235 0.90980392 0.95490196
0.83823529 0.92941176 0.96470588
0.98039216 0.92156863 0.98039216
