site/assets/luts/sha256-f213fc9f60c087427658d79298a2a01a20e06a50eab89cacb3b015ac617196a8.cube
# LUTr-Schema-Version: 2
# LUTr-ID: sha256-f213fc9f60c087427658d79298a2a01a20e06a50eab89cacb3b015ac617196a8
# LUTr-Title: REDlogFilm to REDgamma2
# LUTr-Collection: RED Conversion
# LUTr-Collection-ID: videovillage-red-conversion-luts
# LUTr-Source: https://github.com/videovillage/RED-Conversion-LUTs
# LUTr-Retrieved: 2026-07-27
# LUTr-Source-File: submissions/videovillage-red-conversion-luts/Masters/REDlogFilm_to_REDgamma2.cube
# LUTr-Source-Format: CUBE
# LUTr-Source-SHA256: f213fc9f60c087427658d79298a2a01a20e06a50eab89cacb3b015ac617196a8
# LUTr-License: MIT
# LUTr-License-URL: https://github.com/videovillage/RED-Conversion-LUTs/blob/master/LICENSE.md
# LUTr-License-Basis: repo-license-file
# LUTr-Transform-Class: camera-transform
# LUTr-Tags: technical, camera, red, redlogfilm, redgamma, cube
# LUTr-Input-Color-Space: 
# LUTr-Input-Gamut: unspecified
# LUTr-Input-Transfer: unspecified
# LUTr-Output-Color-Space: 
# LUTr-Output-Gamut: unspecified
# LUTr-Output-Transfer: unspecified
# LUTr-Color-Space-Confidence: unverified
# LUTr-Domain-Normalized: true
# LUTr-Shaper: none
# LUTr-Original-Grid: 1024
# LUTr-Conversion-Grid: 33x33x33
# LUTr-Conversion-Interpolation: linear
# LUTr-Conversion-Method: Source 1D CUBE sampled to browser-compatible 33x33x33 3D CUBE
# LUTr-Conversion-Tool: LUTr scripts/convert-all-to-cube.mjs 2.0.0
# LUTr-Conversion-Date: 2026-07-27
# LUTr-Conversion-Warning: A 1024-sample 1D CUBE was sampled to 33x33x33 for browser-compatible 3D CUBE hosting.
# LUTr-Note: Preserve this metadata and the upstream license notices when redistributing.
# LUTr-Upstream-Comment: Created by Tashi Trieu and Greg Cotten
TITLE "REDlogFilm to REDgamma2"
LUT_3D_SIZE 5
DOMAIN_MIN 0 0 0
DOMAIN_MAX 1 1 1
0.056122682 0.056122682 0.056122682
0.15694755 0.056122682 0.056122682
0.48635089 0.056122682 0.056122682
0.88240173 0.056122682 0.056122682
0.98835737 0.056122682 0.056122682
0.056122682 0.15694755 0.056122682
0.15694755 0.15694755 0.056122682
0.48635089 0.15694755 0.056122682
0.88240173 0.15694755 0.056122682
0.98835737 0.15694755 0.056122682
0.056122682 0.48635089 0.056122682
0.15694755 0.48635089 0.056122682
0.48635089 0.48635089 0.056122682
0.88240173 0.48635089 0.056122682
0.98835737 0.48635089 0.056122682
0.056122682 0.88240173 0.056122682
0.15694755 0.88240173 0.056122682
0.48635089 0.88240173 0.056122682
0.88240173 0.88240173 0.056122682
0.98835737 0.88240173 0.056122682
0.056122682 0.98835737 0.056122682
0.15694755 0.98835737 0.056122682
0.48635089 0.98835737 0.056122682
0.88240173 0.98835737 0.056122682
0.98835737 0.98835737 0.056122682
0.056122682 0.056122682 0.15694755
0.15694755 0.056122682 0.15694755
0.48635089 0.056122682 0.15694755
0.88240173 0.056122682 0.15694755
0.98835737 0.056122682 0.15694755
0.056122682 0.15694755 0.15694755
0.15694755 0.15694755 0.15694755
0.48635089 0.15694755 0.15694755
0.88240173 0.15694755 0.15694755
0.98835737 0.15694755 0.15694755
0.056122682 0.48635089 0.15694755
0.15694755 0.48635089 0.15694755
0.48635089 0.48635089 0.15694755
0.88240173 0.48635089 0.15694755
0.98835737 0.48635089 0.15694755
0.056122682 0.88240173 0.15694755
0.15694755 0.88240173 0.15694755
0.48635089 0.88240173 0.15694755
0.88240173 0.88240173 0.15694755
0.98835737 0.88240173 0.15694755
0.056122682 0.98835737 0.15694755
0.15694755 0.98835737 0.15694755
0.48635089 0.98835737 0.15694755
0.88240173 0.98835737 0.15694755
0.98835737 0.98835737 0.15694755
0.056122682 0.056122682 0.48635089
0.15694755 0.056122682 0.48635089
0.48635089 0.056122682 0.48635089
0.88240173 0.056122682 0.48635089
0.98835737 0.056122682 0.48635089
0.056122682 0.15694755 0.48635089
0.15694755 0.15694755 0.48635089
0.48635089 0.15694755 0.48635089
0.88240173 0.15694755 0.48635089
0.98835737 0.15694755 0.48635089
0.056122682 0.48635089 0.48635089
0.15694755 0.48635089 0.48635089
0.48635089 0.48635089 0.48635089
0.88240173 0.48635089 0.48635089
0.98835737 0.48635089 0.48635089
0.056122682 0.88240173 0.48635089
0.15694755 0.88240173 0.48635089
0.48635089 0.88240173 0.48635089
0.88240173 0.88240173 0.48635089
0.98835737 0.88240173 0.48635089
0.056122682 0.98835737 0.48635089
0.15694755 0.98835737 0.48635089
0.48635089 0.98835737 0.48635089
0.88240173 0.98835737 0.48635089
0.98835737 0.98835737 0.48635089
0.056122682 0.056122682 0.88240173
0.15694755 0.056122682 0.88240173
0.48635089 0.056122682 0.88240173
0.88240173 0.056122682 0.88240173
0.98835737 0.056122682 0.88240173
0.056122682 0.15694755 0.88240173
0.15694755 0.15694755 0.88240173
0.48635089 0.15694755 0.88240173
0.88240173 0.15694755 0.88240173
0.98835737 0.15694755 0.88240173
0.056122682 0.48635089 0.88240173
0.15694755 0.48635089 0.88240173
0.48635089 0.48635089 0.88240173
0.88240173 0.48635089 0.88240173
0.98835737 0.48635089 0.88240173
0.056122682 0.88240173 0.88240173
0.15694755 0.88240173 0.88240173
0.48635089 0.88240173 0.88240173
0.88240173 0.88240173 0.88240173
0.98835737 0.88240173 0.88240173
0.056122682 0.98835737 0.88240173
0.15694755 0.98835737 0.88240173
0.48635089 0.98835737 0.88240173
0.88240173 0.98835737 0.88240173
0.98835737 0.98835737 0.88240173
0.056122682 0.056122682 0.98835737
0.15694755 0.056122682 0.98835737
0.48635089 0.056122682 0.98835737
0.88240173 0.056122682 0.98835737
0.98835737 0.056122682 0.98835737
0.056122682 0.15694755 0.98835737
0.15694755 0.15694755 0.98835737
0.48635089 0.15694755 0.98835737
0.88240173 0.15694755 0.98835737
0.98835737 0.15694755 0.98835737
0.056122682 0.48635089 0.98835737
0.15694755 0.48635089 0.98835737
0.48635089 0.48635089 0.98835737
0.88240173 0.48635089 0.98835737
0.98835737 0.48635089 0.98835737
0.056122682 0.88240173 0.98835737
0.15694755 0.88240173 0.98835737
0.48635089 0.88240173 0.98835737
0.88240173 0.88240173 0.98835737
0.98835737 0.88240173 0.98835737
0.056122682 0.98835737 0.98835737
0.15694755 0.98835737 0.98835737
0.48635089 0.98835737 0.98835737
0.88240173 0.98835737 0.98835737
0.98835737 0.98835737 0.98835737
