site/assets/luts/sha256-0e73f4e285129ee944a7dae6645a7ecd6b830ee667946979fed35f16c241eb73.cube
# LUTr-Schema-Version: 2
# LUTr-ID: sha256-0e73f4e285129ee944a7dae6645a7ecd6b830ee667946979fed35f16c241eb73
# LUTr-Title: fuji fp-100c negative +++
# LUTr-Collection: Natron HaldCLUT
# LUTr-Collection-ID: natron-haldclut-presets
# LUTr-Source: https://github.com/NatronGitHub/clut
# LUTr-Retrieved: 2026-07-27
# LUTr-Source-File: submissions/natron-haldclut-presets/instant_pro/fuji_fp-100c_negative_+++.png
# LUTr-Source-Format: HALD-PNG
# LUTr-Source-SHA256: 0e73f4e285129ee944a7dae6645a7ecd6b830ee667946979fed35f16c241eb73
# LUTr-License: CC-BY-SA-4.0
# LUTr-License-URL: https://github.com/NatronGitHub/clut#license
# LUTr-License-Basis: repo-license-file
# LUTr-Transform-Class: film-emulation
# LUTr-Tags: creative, film, film-emulation, hald-clut, natron, png, cube
# LUTr-Input-Color-Space: srgb
# LUTr-Input-Gamut: rec709
# LUTr-Input-Transfer: srgb
# LUTr-Output-Color-Space: srgb
# LUTr-Output-Gamut: rec709
# LUTr-Output-Transfer: srgb
# LUTr-Color-Space-Confidence: assumed-display-referred
# LUTr-Domain-Normalized: true
# LUTr-Shaper: none
# LUTr-Original-Grid: 64x64x64
# LUTr-Conversion-Grid: 25x25x25
# LUTr-Conversion-Interpolation: trilinear
# LUTr-Conversion-Method: HALD-PNG LUT image decoded at 16-bit and sampled to 25x25x25 3D CUBE
# LUTr-Conversion-Tool: LUTr scripts/convert-all-to-cube.mjs 2.0.0
# LUTr-Conversion-Date: 2026-07-27
# LUTr-Note: Preserve this metadata and the upstream license notices when redistributing.
TITLE "fuji fp-100c negative +++"
LUT_3D_SIZE 5
DOMAIN_MIN 0 0 0
DOMAIN_MAX 1 1 1
0.20392157 0.14901961 0.21960784
0.26078431 0.14901961 0.22352941
0.46470588 0.15294118 0.21960784
0.79313725 0.24215686 0.21960784
1 0.43921569 0.22352941
0.20392157 0.20686275 0.23137255
0.26470588 0.22769608 0.22426471
0.51078431 0.25784314 0.21960784
0.80784314 0.35612745 0.21176471
0.99901961 0.51470588 0.22352941
0.21568627 0.41568627 0.2745098
0.29558824 0.43382353 0.27647059
0.54411765 0.52843137 0.23137255
0.82352941 0.61029412 0.19803922
0.99803922 0.65882353 0.23921569
0.36078431 0.69019608 0.38333333
0.4379902 0.69411765 0.39828431
0.59068627 0.73431373 0.40686275
0.81568627 0.79117647 0.37352941
0.99607843 0.81470588 0.36666667
0.78431373 0.89019608 0.60392157
0.80686275 0.88627451 0.60784314
0.88039216 0.89411765 0.62352941
0.95294118 0.90588235 0.62254902
1 0.91764706 0.62352941
0.21568627 0.14509804 0.25392157
0.27328431 0.15980392 0.25784314
0.50980392 0.16470588 0.28235294
0.81372549 0.22843137 0.30073529
0.99705882 0.43921569 0.33823529
0.21568627 0.22132353 0.27647059
0.28946078 0.24019608 0.28357843
0.54117647 0.27745098 0.29007353
0.82328431 0.36017157 0.30465686
0.99607843 0.49583333 0.33039216
0.28039216 0.4495098 0.33284314
0.34019608 0.45992647 0.33406863
0.56764706 0.54632353 0.31838235
0.83137255 0.60294118 0.30490196
0.98088235 0.64509804 0.34803922
0.39313725 0.69411765 0.42843137
0.46691176 0.70753676 0.44338235
0.61470588 0.73823529 0.46384804
0.81979167 0.79117647 0.43964461
1 0.81372549 0.44901961
0.78431373 0.89019608 0.61078431
0.8127451 0.89117647 0.61568627
0.87843137 0.89019608 0.62745098
0.95465686 0.90588235 0.63431373
1 0.9245098 0.63823529
0.30980392 0.13333333 0.40588235
0.42598039 0.14313725 0.42303922
0.62745098 0.23529412 0.45196078
0.88431373 0.31666667 0.50294118
0.99607843 0.49019608 0.53529412
0.22843137 0.20980392 0.42156863
0.39203431 0.2432598 0.44963235
0.64313725 0.37058824 0.48161765
0.87879902 0.44840686 0.52058824
0.99607843 0.55539216 0.54558824
0.23039216 0.44117647 0.45
0.34705882 0.47230392 0.4625
0.63333333 0.57745098 0.51519608
0.84828431 0.62254902 0.52377451
0.99607843 0.6872549 0.55392157
0.4745098 0.70931373 0.5372549
0.54142157 0.72095588 0.54093137
0.66568627 0.74852941 0.55612745
0.86017157 0.79877451 0.55980392
0.99215686 0.81372549 0.56960784
0.80196078 0.89411765 0.63137255
0.81862745 0.89215686 0.63333333
0.87352941 0.88823529 0.64313725
0.96764706 0.90294118 0.65931373
1 0.92352941 0.66666667
0.57254902 0.011764706 0.63039216
0.66936275 0.029411765 0.63823529
0.84362745 0.28480392 0.65686275
0.93529412 0.55784314 0.64901961
0.99607843 0.66078431 0.65196078
0.50269608 0.2 0.62328431
0.63192402 0.21721814 0.64509804
0.825 0.40208333 0.65330882
0.94644608 0.64295343 0.65269608
1 0.7 0.65808824
0.017156863 0.40392157 0.60980392
0.19767157 0.42414216 0.61568627
0.71764706 0.55294118 0.64338235
0.94215686 0.73419118 0.65686275
1 0.77647059 0.67205882
0.31691176 0.67818627 0.60196078
0.39460784 0.68848039 0.60882353
0.60980392 0.72720588 0.62843137
0.91151961 0.80533088 0.65367647
0.99607843 0.82647059 0.66789216
0.73235294 0.89705882 0.66764706
0.76176471 0.89411765 0.66764706
0.86127451 0.89313725 0.6754902
0.98039216 0.90588235 0.69901961
1 0.91862745 0.7127451
0.8627451 0.23137255 0.78039216
0.88529412 0.2872549 0.77156863
0.95882353 0.49803922 0.76666667
1 0.7127451 0.75686275
0.99607843 0.79215686 0.74901961
0.8127451 0.32745098 0.77254902
0.8502451 0.39142157 0.76936275
0.9504902 0.56176471 0.76715686
0.99926471 0.74607843 0.76470588
1 0.81862745 0.75686275
0.59411765 0.41568627 0.7745098
0.69558824 0.47598039 0.77156863
0.87254902 0.62254902 0.76568627
0.99068627 0.77647059 0.7627451
1 0.84705882 0.76078431
0.0039215686 0.70686275 0.76078431
0.021323529 0.67720588 0.72720588
0.2745098 0.67745098 0.77352941
0.95171569 0.79901961 0.77254902
1 0.88627451 0.78039216
0.65882353 0.89019608 0.77647059
0.70196078 0.89705882 0.7872549
0.78627451 0.89607843 0.78431373
0.8872549 0.88039216 0.78137255
1 0.92941176 0.80392157
