site/assets/luts/sha256-df0768f92318032b6cc7e1233dbd529c287d1775ab9bf8bc81f42bca27cf1950.cube
# LUTr-Schema-Version: 2
# LUTr-ID: sha256-df0768f92318032b6cc7e1233dbd529c287d1775ab9bf8bc81f42bca27cf1950
# LUTr-Title: ilford pan f plus 50
# LUTr-Collection: Natron HaldCLUT
# LUTr-Collection-ID: natron-haldclut-presets
# LUTr-Source: https://github.com/NatronGitHub/clut
# LUTr-Retrieved: 2026-07-27
# LUTr-Source-File: submissions/natron-haldclut-presets/bw/ilford_pan_f_plus_50.png
# LUTr-Source-Format: HALD-PNG
# LUTr-Source-SHA256: df0768f92318032b6cc7e1233dbd529c287d1775ab9bf8bc81f42bca27cf1950
# LUTr-License: CC-BY-SA-4.0
# LUTr-License-URL: https://github.com/NatronGitHub/clut#license
# LUTr-License-Basis: repo-license-file
# LUTr-Transform-Class: film-emulation
# LUTr-Tags: creative, film, film-emulation, hald-clut, natron, png, cube
# LUTr-Input-Color-Space: srgb
# LUTr-Input-Gamut: rec709
# LUTr-Input-Transfer: srgb
# LUTr-Output-Color-Space: srgb
# LUTr-Output-Gamut: rec709
# LUTr-Output-Transfer: srgb
# LUTr-Color-Space-Confidence: assumed-display-referred
# LUTr-Domain-Normalized: true
# LUTr-Shaper: none
# LUTr-Original-Grid: 64x64x64
# LUTr-Conversion-Grid: 25x25x25
# LUTr-Conversion-Interpolation: trilinear
# LUTr-Conversion-Method: HALD-PNG LUT image decoded at 16-bit and sampled to 25x25x25 3D CUBE
# LUTr-Conversion-Tool: LUTr scripts/convert-all-to-cube.mjs 2.0.0
# LUTr-Conversion-Date: 2026-07-27
# LUTr-Note: Preserve this metadata and the upstream license notices when redistributing.
TITLE "ilford pan f plus 50"
LUT_3D_SIZE 5
DOMAIN_MIN 0 0 0
DOMAIN_MAX 1 1 1
0.019607843 0.019607843 0.019607843
0.042156863 0.042156863 0.042156863
0.050980392 0.050980392 0.050980392
0.16764706 0.16764706 0.16764706
0.25882353 0.25882353 0.25882353
0.17156863 0.17156863 0.17156863
0.18602941 0.18602941 0.18602941
0.23431373 0.23431373 0.23431373
0.32058824 0.32058824 0.32058824
0.42843137 0.42843137 0.42843137
0.45294118 0.45294118 0.45294118
0.44313725 0.44313725 0.44313725
0.47745098 0.47745098 0.47745098
0.51715686 0.51715686 0.51715686
0.60392157 0.60392157 0.60392157
0.70098039 0.70098039 0.70098039
0.68529412 0.68529412 0.68529412
0.70490196 0.70490196 0.70490196
0.73014706 0.73014706 0.73014706
0.75098039 0.75098039 0.75098039
0.83529412 0.83529412 0.83529412
0.87745098 0.87745098 0.87745098
0.86470588 0.86470588 0.86470588
0.89509804 0.89509804 0.89509804
0.89019608 0.89019608 0.89019608
0.045098039 0.045098039 0.045098039
0.067892157 0.067892157 0.067892157
0.13039216 0.13039216 0.13039216
0.21176471 0.21176471 0.21176471
0.3754902 0.3754902 0.3754902
0.21887255 0.21887255 0.21887255
0.25098039 0.25098039 0.25098039
0.29607843 0.29607843 0.29607843
0.37040441 0.37040441 0.37040441
0.47941176 0.47941176 0.47941176
0.47009804 0.47009804 0.47009804
0.48137255 0.48137255 0.48137255
0.51470588 0.51470588 0.51470588
0.55686275 0.55686275 0.55686275
0.62892157 0.62892157 0.62892157
0.71102941 0.71102941 0.71102941
0.7127451 0.7127451 0.7127451
0.7245098 0.7245098 0.7245098
0.74895833 0.74895833 0.74895833
0.77352941 0.77352941 0.77352941
0.87745098 0.87745098 0.87745098
0.8627451 0.8627451 0.8627451
0.88627451 0.88627451 0.88627451
0.88627451 0.88627451 0.88627451
0.8745098 0.8745098 0.8745098
0.10588235 0.10588235 0.10588235
0.15441176 0.15441176 0.15441176
0.18333333 0.18333333 0.18333333
0.3 0.3 0.3
0.44117647 0.44117647 0.44117647
0.30441176 0.30441176 0.30441176
0.32990196 0.32990196 0.32990196
0.3754902 0.3754902 0.3754902
0.44497549 0.44497549 0.44497549
0.54901961 0.54901961 0.54901961
0.53137255 0.53137255 0.53137255
0.54117647 0.54117647 0.54117647
0.5622549 0.5622549 0.5622549
0.61470588 0.61470588 0.61470588
0.67647059 0.67647059 0.67647059
0.75 0.75 0.75
0.74803922 0.74803922 0.74803922
0.75759804 0.75759804 0.75759804
0.77928922 0.77928922 0.77928922
0.80245098 0.80245098 0.80245098
0.89019608 0.89019608 0.89019608
0.89411765 0.89411765 0.89411765
0.90098039 0.90098039 0.90098039
0.89803922 0.89803922 0.89803922
0.88431373 0.88431373 0.88431373
0.25098039 0.25098039 0.25098039
0.2872549 0.2872549 0.2872549
0.34803922 0.34803922 0.34803922
0.42745098 0.42745098 0.42745098
0.52941176 0.52941176 0.52941176
0.42647059 0.42647059 0.42647059
0.45238971 0.45238971 0.45238971
0.49509804 0.49509804 0.49509804
0.55392157 0.55392157 0.55392157
0.62254902 0.62254902 0.62254902
0.60686275 0.60686275 0.60686275
0.62352941 0.62352941 0.62352941
0.64877451 0.64877451 0.64877451
0.69644608 0.69644608 0.69644608
0.73039216 0.73039216 0.73039216
0.79607843 0.79607843 0.79607843
0.79215686 0.79215686 0.79215686
0.80245098 0.80245098 0.80245098
0.81525735 0.81525735 0.81525735
0.83259804 0.83259804 0.83259804
0.90686275 0.90686275 0.90686275
0.90490196 0.90490196 0.90490196
0.92401961 0.92401961 0.92401961
0.93137255 0.93137255 0.93137255
0.93039216 0.93039216 0.93039216
0.45490196 0.45490196 0.45490196
0.40882353 0.40882353 0.40882353
0.48627451 0.48627451 0.48627451
0.5254902 0.5254902 0.5254902
0.63921569 0.63921569 0.63921569
0.57843137 0.57843137 0.57843137
0.58529412 0.58529412 0.58529412
0.61764706 0.61764706 0.61764706
0.64215686 0.64215686 0.64215686
0.6627451 0.6627451 0.6627451
0.71372549 0.71372549 0.71372549
0.72843137 0.72843137 0.72843137
0.73823529 0.73823529 0.73823529
0.76715686 0.76715686 0.76715686
0.78823529 0.78823529 0.78823529
0.84509804 0.84509804 0.84509804
0.84509804 0.84509804 0.84509804
0.84509804 0.84509804 0.84509804
0.85759804 0.85759804 0.85759804
0.86764706 0.86764706 0.86764706
0.96078431 0.96078431 0.96078431
0.94411765 0.94411765 0.94411765
0.94313725 0.94313725 0.94313725
0.94509804 0.94509804 0.94509804
0.95686275 0.95686275 0.95686275
