site/assets/luts/sha256-5a34154e30364fd07f633cf214406bbfa3e07dc8c69e89391a43e4c39f78224d.cube
# LUTr-Schema-Version: 2
# LUTr-ID: sha256-5a34154e30364fd07f633cf214406bbfa3e07dc8c69e89391a43e4c39f78224d
# LUTr-Title: kodak portra 160 vc -
# LUTr-Collection: Natron HaldCLUT
# LUTr-Collection-ID: natron-haldclut-presets
# LUTr-Source: https://github.com/NatronGitHub/clut
# LUTr-Retrieved: 2026-07-27
# LUTr-Source-File: submissions/natron-haldclut-presets/negative_old/kodak_portra_160_vc_-.png
# LUTr-Source-Format: HALD-PNG
# LUTr-Source-SHA256: 5a34154e30364fd07f633cf214406bbfa3e07dc8c69e89391a43e4c39f78224d
# LUTr-License: CC-BY-SA-4.0
# LUTr-License-URL: https://github.com/NatronGitHub/clut#license
# LUTr-License-Basis: repo-license-file
# LUTr-Transform-Class: film-emulation
# LUTr-Tags: creative, film, film-emulation, hald-clut, natron, png, cube
# LUTr-Input-Color-Space: srgb
# LUTr-Input-Gamut: rec709
# LUTr-Input-Transfer: srgb
# LUTr-Output-Color-Space: srgb
# LUTr-Output-Gamut: rec709
# LUTr-Output-Transfer: srgb
# LUTr-Color-Space-Confidence: assumed-display-referred
# LUTr-Domain-Normalized: true
# LUTr-Shaper: none
# LUTr-Original-Grid: 64x64x64
# LUTr-Conversion-Grid: 25x25x25
# LUTr-Conversion-Interpolation: trilinear
# LUTr-Conversion-Method: HALD-PNG LUT image decoded at 16-bit and sampled to 25x25x25 3D CUBE
# LUTr-Conversion-Tool: LUTr scripts/convert-all-to-cube.mjs 2.0.0
# LUTr-Conversion-Date: 2026-07-27
# LUTr-Note: Preserve this metadata and the upstream license notices when redistributing.
TITLE "kodak portra 160 vc -"
LUT_3D_SIZE 25
DOMAIN_MIN 0 0 0
DOMAIN_MAX 1 1 1
0.0039215686 0.019607843 0.0078431373
0.014215686 0.013235294 0.0078431373
0.025490196 0.0068627451 0.0068627451
0.03872549 0.00049019608 0.00049019608
0.088235294 0.011764706 0.0039215686
0.13970588 0.024019608 0.0078431373
0.19117647 0.030392157 0.0039215686
0.24558824 0.035294118 0
0.31372549 0.031372549 0.0039215686
0.38186275 0.025 0.0078431373
0.44901961 0.014705882 0.0068627451
0.51078431 0.0083333333 0.0039215686
0.56862745 0 0.0019607843
0.62647059 0 0
0.68137255 0 0
0.72745098 0.0039215686 0
0.77254902 0.0039215686 0
0.81764706 0.0078431373 0
0.85784314 0.028431373 0
0.88872549 0.07254902 0.0034313725
0.92352941 0.10980392 0.0039215686
0.95441176 0.13823529 0.0039215686
0.98529412 0.15882353 0
1 0.17009804 0
1 0.17254902 0
0.0039215686 0.019607843 0.0053921569
0.014215686 0.015686275 0.01182598
0.028431373 0.01875 0.01372549
0.044607843 0.027757353 0.0078431373
0.088235294 0.031617647 0.010294118
0.13970588 0.03627451 0.010294118
0.19301471 0.03627451 0.0045343137
0.2471201 0.037745098 0
0.31372549 0.03627451 0.0039215686
0.38186275 0.033823529 0.0078431373
0.44607843 0.023529412 0.0039215686
0.50735294 0.013235294 0.0039215686
0.56862745 0.0085784314 0
0.62647059 0.0047794118 0
0.68382353 0.00098039216 0
0.7283701 0.0087622549 0
0.775 0.025490196 0
0.82101716 0.044607843 0
0.85882353 0.063112745 0
0.89479167 0.097365196 0
0.92745098 0.13235294 0.0039215686
0.95833333 0.15490196 0.0039215686
0.98345588 0.1754902 0.0039215686
0.9966299 0.19313725 0.0039215686
0.99754902 0.19705882 0.0039215686
0 0.019607843 0.0029411765
0.016666667 0.028553922 0.0078431373
0.032598039 0.043137255 0.012009804
0.050857843 0.057352941 0.015318627
0.092156863 0.061764706 0.016666667
0.14362745 0.061764706 0.015318627
0.19509804 0.064705882 0.012745098
0.25404412 0.066666667 0.0088235294
0.31862745 0.062745098 0.0088235294
0.38431373 0.055392157 0.0082107843
0.44926471 0.049019608 0.0039215686
0.51090686 0.046936275 0.0039215686
0.57254902 0.053431373 0
0.63039216 0.043137255 0
0.68529412 0.026470588 0
0.73345588 0.045220588 0
0.77745098 0.071568627 0
0.82156863 0.092156863 0
0.8620098 0.10686275 0
0.9 0.11973039 0
0.93137255 0.14852941 0.0019607843
0.95428922 0.17291667 0.0040441176
0.97745098 0.19901961 0.0078431373
0.99264706 0.21727941 0.0039215686
0.99607843 0.2254902 0.0039215686
0.0034313725 0.052941176 0.01127451
0.010784314 0.063051471 0.01372549
0.029044118 0.074019608 0.016544118
0.050061275 0.087745098 0.019546569
0.094117647 0.090686275 0.019607843
0.14362745 0.092647059 0.019607843
0.19889706 0.096446078 0.019240196
0.25735294 0.10177696 0.015686275
0.32892157 0.1 0.015196078
0.39460784 0.093627451 0.011764706
0.45637255 0.084313725 0.0068627451
0.51470588 0.087745098 0.0039215686
0.57254902 0.098039216 0.0039215686
0.63382353 0.095098039 0.0039215686
0.68529412 0.087377451 0.0034313725
0.73658088 0.098529412 0
0.78382353 0.11960784 0
0.82518382 0.1377451 0
0.8627451 0.14803922 0
0.9004902 0.15490196 0
0.92941176 0.17107843 0.0019607843
0.95 0.19607843 0.0044117647
0.97107843 0.22046569 0.0078431373
0.98627451 0.23970588 0.006372549
0.99607843 0.25343137 0.0039215686
0.0039215686 0.10196078 0.025490196
0.0090686275 0.10588235 0.025490196
0.014215686 0.1122549 0.023039216
0.026470588 0.11911765 0.023284314
0.074509804 0.12352941 0.023529412
0.13970588 0.12598039 0.023529412
0.19656863 0.13284314 0.022058824
0.25661765 0.13995098 0.019607843
0.33333333 0.1372549 0.015686275
0.40490196 0.13333333 0.011764706
0.46568627 0.13235294 0.0078431373
0.51715686 0.13872549 0.0041666667
0.57647059 0.14411765 0.0039215686
0.63602941 0.14877451 0.0039215686
0.68921569 0.14313725 0.0039215686
0.73676471 0.15 0
0.78235294 0.16666667 0.0019607843
0.82230392 0.17696078 0.0039215686
0.8622549 0.18676471 0.0039215686
0.9 0.19558824 0.0039215686
0.92941176 0.20686275 0.0039215686
0.9497549 0.22647059 0.0078431373
0.96715686 0.24705882 0.0078431373
0.98259804 0.26495098 0.006372549
0.99215686 0.2745098 0
0 0.15196078 0.040196078
0.0021446078 0.15177696 0.03627451
0.0034313725 0.15526961 0.031372549
0.0034313725 0.15490196 0.027941176
0.045833333 0.16102941 0.023529412
0.11176471 0.17156863 0.018627451
0.17340686 0.1814951 0.015196078
0.24656863 0.18431373 0.015379902
0.32941176 0.1877451 0.015686275
0.40539216 0.1877451 0.0093137255
0.46764706 0.1872549 0.0078431373
0.51911765 0.19025735 0.0078431373
0.57622549 0.19460784 0.006127451
0.63339461 0.19460784 0.0039215686
0.68921569 0.19460784 0
0.73921569 0.2 0
0.78039216 0.20980392 0.0039215686
0.81893382 0.21617647 0.006372549
0.85882353 0.22598039 0.0069852941
0.89650735 0.23284314 0.0039215686
0.92720588 0.24313725 0.0039215686
0.94650735 0.25778186 0.0078431373
0.96666667 0.27757353 0.0078431373
0.98008578 0.29264706 0.0060661765
0.98431373 0.29901961 0.0039215686
0 0.20980392 0.060784314
0 0.20980392 0.05625
0 0.20906863 0.049019608
0 0.2060049 0.048039216
0.034803922 0.21176471 0.031372549
0.087254902 0.21911765 0.0083333333
0.15416667 0.22867647 0.0049019608
0.24129902 0.24375 0.011764706
0.32941176 0.25686275 0.011764706
0.40355392 0.25980392 0.0082107843
0.46078431 0.25196078 0.0078431373
0.51617647 0.24509804 0.0078431373
0.57303922 0.24362745 0.0078431373
0.63002451 0.24215686 0.0039215686
0.68848039 0.24215686 0.00098039216
0.73811275 0.24460784 0.00036764706
0.77647059 0.24803922 0.0039215686
0.81470588 0.25551471 0.0045343137
0.85490196 0.2629902 0.0078431373
0.8935049 0.27022059 0.0068627451
0.9254902 0.27892157 0.0068627451
0.95 0.29166667 0.0078431373
0.96740196 0.30588235 0.0078431373
0.97463235 0.31323529 0.0039215686
0.97745098 0.31960784 0.0039215686
0 0.26764706 0.072058824
0 0.26764706 0.069607843
0.0014705882 0.26764706 0.075
0.0073529412 0.26764706 0.077634804
0.03627451 0.27083333 0.058823529
0.067034314 0.27205882 0.039215686
0.14509804 0.28419118 0.022303922
0.23382353 0.30441176 0.01807598
0.32647059 0.32107843 0.013235294
0.39362745 0.32254902 0.0083946078
0.44607843 0.30833333 0.0078431373
0.50539216 0.30147059 0.0078431373
0.56593137 0.29828431 0.0058823529
0.62628676 0.29724265 0.0039215686
0.68321078 0.2939951 0.0039215686
0.72990196 0.28915441 0.0039215686
0.77107843 0.28823529 0.0039215686
0.80980392 0.29368873 0.0039215686
0.85098039 0.30061275 0.0078431373
0.89068627 0.30606618 0.013051471
0.92205882 0.31372549 0.0098039216
0.95 0.32432598 0.0039215686
0.96470588 0.33345588 0.0039215686
0.96954657 0.3377451 0.0039215686
0.97254902 0.34019608 0.0039215686
0 0.32156863 0.082352941
0.0024509804 0.3254902 0.096568627
0.0039215686 0.3254902 0.10588235
0.0039215686 0.32892157 0.10588235
0.0058823529 0.32941176 0.10588235
0.023529412 0.33382353 0.097058824
0.11666667 0.34411765 0.076470588
0.20931373 0.35441176 0.050490196
0.29803922 0.36470588 0.023529412
0.37156863 0.37009804 0.0078431373
0.42941176 0.35980392 0.0039215686
0.49460784 0.35686275 0.0039215686
0.56666667 0.35294118 0.0039215686
0.62205882 0.35245098 0.0039215686
0.67352941 0.34607843 0.0039215686
0.71960784 0.3372549 0.006372549
0.76470588 0.33333333 0.0039215686
0.80588235 0.33333333 0.0039215686
0.84705882 0.3372549 0.0039215686
0.88431373 0.34117647 0.01127451
0.91960784 0.34705882 0.0098039216
0.95 0.35735294 0.0039215686
0.96764706 0.36372549 0.0039215686
0.97009804 0.36862745 0
0.97254902 0.36862745 0
0.0039215686 0.37303922 0.12745098
0.0039215686 0.3778799 0.13474265
0.0039215686 0.38088235 0.14375
0.0060661765 0.38302696 0.14705882
0.006372549 0.38480392 0.14068627
0.0077205882 0.38498775 0.13186275
0.085784314 0.39313725 0.11017157
0.18088235 0.3995098 0.085294118
0.26568627 0.40588235 0.049019608
0.34859069 0.41525735 0.0087009804
0.41617647 0.4122549 0.006372549
0.48431373 0.40863971 0.0099877451
0.55637255 0.40833333 0.0090686275
0.61568627 0.40814951 0.0044117647
0.66605392 0.40110294 0.0072303922
0.71078431 0.39117647 0.0078431373
0.75833333 0.38088235 0.0078431373
0.7995098 0.38088235 0.0048406863
0.84068627 0.38026961 0.0039215686
0.88039216 0.37843137 0.0039215686
0.91838235 0.38112745 0.0053921569
0.95030637 0.38823529 0.0039215686
0.9682598 0.39558824 0.00036764706
0.97254902 0.39558824 0
0.97254902 0.39558824 0
0.0078431373 0.42058824 0.16470588
0.0078431373 0.42414216 0.17107843
0.0046568627 0.43161765 0.18431373
0.006495098 0.43492647 0.18823529
0.0078431373 0.43578431 0.17892157
0.012867647 0.43492647 0.16776961
0.079656863 0.43602941 0.15490196
0.175 0.44313725 0.14166667
0.2627451 0.44705882 0.11372549
0.3377451 0.45281863 0.069117647
0.40196078 0.45563725 0.03995098
0.47046569 0.45882353 0.028063725
0.54215686 0.46372549 0.015196078
0.60931373 0.46360294 0.0074754902
0.65612745 0.45294118 0.0071078431
0.70012255 0.44264706 0.0078431373
0.74705882 0.43627451 0.0078431373
0.79313725 0.43333333 0.0078431373
0.83431373 0.43137255 0.0071078431
0.87291667 0.42463235 0.0039215686
0.9127451 0.42058824 0.0039215686
0.94963235 0.42352941 0.0025735294
0.97181373 0.42965686 0
0.97254902 0.42647059 0
0.97254902 0.42647059 0
0.0078431373 0.46813725 0.20245098
0.0078431373 0.46844363 0.20490196
0.0077205882 0.47352941 0.21176471
0.0073529412 0.47990196 0.22205882
0.01495098 0.48039216 0.22156863
0.044607843 0.47647059 0.20545343
0.10931373 0.47941176 0.20196078
0.19117647 0.48431373 0.19626225
0.26617647 0.48823529 0.18235294
0.32892157 0.48854167 0.13756127
0.39154412 0.49227941 0.10098039
0.45637255 0.49650735 0.086887255
0.52647059 0.50612745 0.043137255
0.59209559 0.51170343 0.010845588
0.64362745 0.50441176 0.0044117647
0.68872549 0.49540441 0.0044117647
0.73382353 0.49166667 0.0078431373
0.78284314 0.49166667 0.01127451
0.82401961 0.48676471 0.0078431373
0.86519608 0.48033088 0.0074142157
0.90416667 0.47401961 0.0039215686
0.94356618 0.46813725 0.003002451
0.97169118 0.46556373 0
0.97254902 0.46470588 0
0.97254902 0.46078431 0
0.0078431373 0.50980392 0.23529412
0.0078431373 0.5129902 0.2372549
0.0078431373 0.51372549 0.23676471
0.0041666667 0.51544118 0.2370098
0.0098039216 0.51960784 0.24019608
0.058578431 0.51813725 0.23529412
0.13382353 0.52156863 0.2372549
0.20833333 0.52426471 0.23186275
0.26862745 0.5254902 0.21372549
0.32328431 0.52867647 0.19264706
0.38235294 0.53039216 0.15931373
0.44607843 0.53676471 0.13455882
0.50882353 0.54313725 0.088235294
0.57377451 0.55343137 0.036519608
0.63235294 0.55588235 0.0053921569
0.67843137 0.55098039 0.0098039216
0.72745098 0.54705882 0.01372549
0.77696078 0.54387255 0.015686275
0.81960784 0.53823529 0.011764706
0.85882353 0.53186275 0.0078431373
0.89607843 0.5254902 0.0068627451
0.93333333 0.51936275 0.0039215686
0.96078431 0.51421569 0
0.96862745 0.51102941 0
0.96862745 0.50980392 0
0.0078431373 0.55098039 0.26029412
0.0078431373 0.55490196 0.26372549
0.0047794118 0.55539216 0.26421569
0.0079044118 0.55539216 0.26078431
0.006127451 0.55882353 0.25637255
0.072487745 0.55882353 0.26078431
0.15110294 0.55882353 0.26801471
0.21746324 0.56243873 0.26666667
0.2745098 0.5627451 0.24901961
0.31960784 0.56881127 0.23449755
0.36997549 0.57156863 0.21519608
0.43186275 0.57751225 0.18088235
0.49705882 0.58014706 0.13431373
0.55839461 0.58627451 0.091727941
0.61372549 0.5935049 0.05747549
0.66930147 0.59773284 0.028370098
0.72107843 0.59460784 0.016176471
0.77254902 0.59460784 0.015379902
0.81433824 0.58970588 0.010416667
0.84944853 0.58333333 0.0078431373
0.88627451 0.57696078 0.0078431373
0.92297794 0.57058824 0.0039215686
0.94656863 0.56421569 0.0013480392
0.96439951 0.55931373 0.00049019608
0.96470588 0.55931373 0
0.0049019608 0.59215686 0.2872549
0.0067401961 0.59607843 0.28823529
0.010784314 0.6 0.29142157
0.03002451 0.6 0.29129902
0.062745098 0.6 0.2872549
0.11887255 0.6 0.29166667
0.18995098 0.6 0.29803922
0.23860294 0.6 0.29754902
0.28431373 0.60098039 0.28333333
0.32941176 0.60453431 0.27022059
0.36838235 0.6120098 0.25882353
0.42144608 0.6127451 0.23492647
0.48039216 0.6127451 0.20098039
0.53823529 0.61715686 0.16715686
0.59313725 0.62352941 0.13627451
0.65 0.62990196 0.096078431
0.71078431 0.63921569 0.045098039
0.76617647 0.64607843 0.012867647
0.80784314 0.64117647 0.0085784314
0.84252451 0.63443627 0.011642157
0.88235294 0.62696078 0.0078431373
0.91605392 0.61948529 0.0035539216
0.9370098 0.61568627 0
0.9564951 0.60968137 0.0039215686
0.96862745 0.60392157 0.0029411765
0.0014705882 0.63333333 0.31029412
0.022916667 0.6348652 0.31366422
0.053431373 0.63615196 0.31813725
0.08560049 0.63939951 0.32058824
0.12181373 0.6372549 0.31813725
0.1713848 0.64117647 0.32077206
0.22622549 0.64007353 0.32561275
0.26072304 0.63670343 0.32598039
0.30098039 0.63578431 0.31568627
0.34460784 0.63878676 0.30238971
0.3872549 0.64362745 0.2939951
0.42696078 0.64362745 0.28480392
0.47328431 0.64632353 0.26617647
0.52107843 0.64932598 0.24589461
0.57365196 0.6564951 0.21531863
0.62794118 0.66378676 0.18143382
0.68578431 0.67107843 0.14264706
0.74846814 0.68137255 0.078370098
0.79852941 0.68284314 0.038480392
0.83970588 0.67696078 0.028492647
0.87965686 0.6752451 0.0073529412
0.91323529 0.66991422 0
0.93247549 0.66507353 0.0033088235
0.95827206 0.65594363 0.0063112745
0.97794118 0.64901961 0.0039215686
0.058823529 0.67058824 0.34117647
0.074019608 0.67058824 0.34362745
0.10882353 0.6745098 0.34509804
0.14313725 0.6745098 0.34509804
0.1745098 0.67843137 0.34509804
0.21764706 0.67843137 0.34901961
0.25196078 0.6754902 0.35196078
0.28284314 0.67303922 0.35294118
0.31764706 0.67058824 0.34901961
0.35882353 0.67303922 0.3372549
0.40294118 0.6745098 0.33235294
0.44117647 0.67843137 0.32598039
0.48235294 0.68039216 0.31568627
0.52009804 0.68284314 0.30098039
0.57156863 0.69019608 0.27745098
0.62303922 0.69803922 0.24656863
0.67058824 0.70588235 0.21960784
0.72205882 0.70980392 0.18382353
0.78137255 0.71372549 0.13235294
0.82892157 0.71372549 0.095588235
0.8745098 0.71568627 0.054901961
0.91127451 0.71372549 0.02745098
0.93823529 0.70686275 0.02745098
0.96519608 0.7004902 0.022058824
0.98823529 0.69411765 0.011764706
0.14117647 0.70784314 0.37990196
0.14846814 0.70784314 0.37843137
0.17058824 0.70992647 0.37990196
0.20490196 0.71305147 0.37990196
0.23504902 0.71568627 0.37990196
0.26078431 0.7153799 0.38235294
0.28921569 0.70992647 0.38529412
0.315625 0.70876225 0.38327206
0.33921569 0.70539216 0.38235294
0.3754902 0.70784314 0.37843137
0.41776961 0.71176471 0.37352941
0.45569853 0.7153799 0.36930147
0.49509804 0.71642157 0.35808824
0.53627451 0.71979167 0.34607843
0.58186275 0.72463235 0.32438725
0.63033088 0.73039216 0.2995098
0.67058824 0.73676471 0.27745098
0.71176471 0.74068627 0.25202206
0.76715686 0.74558824 0.21813725
0.81862745 0.75067402 0.18578431
0.86544118 0.75490196 0.15588235
0.90098039 0.75226716 0.12677696
0.93431373 0.74742647 0.10355392
0.96519608 0.74166667 0.08872549
0.98823529 0.73529412 0.072058824
0.22843137 0.74509804 0.41960784
0.23137255 0.74509804 0.41678922
0.2370098 0.74583333 0.41470588
0.26323529 0.74889706 0.41470588
0.29215686 0.75196078 0.41911765
0.3127451 0.74889706 0.42352941
0.33848039 0.74583333 0.42745098
0.36078431 0.74301471 0.42352941
0.38039216 0.74117647 0.42352941
0.40735294 0.74411765 0.41960784
0.4370098 0.74828431 0.41568627
0.47095588 0.75281863 0.41311275
0.51078431 0.75441176 0.40196078
0.55147059 0.75588235 0.38872549
0.58921569 0.75882353 0.3754902
0.63333333 0.76372549 0.35526961
0.66666667 0.76764706 0.33529412
0.70294118 0.77120098 0.31470588
0.75294118 0.77622549 0.28529412
0.80441176 0.78284314 0.25796569
0.85588235 0.78921569 0.23431373
0.89509804 0.79080882 0.21066176
0.93014706 0.78823529 0.18553922
0.96127451 0.78431373 0.16470588
0.98823529 0.78039216 0.14411765
0.31715686 0.78284314 0.45686275
0.31715686 0.78284314 0.45686275
0.31384804 0.78284314 0.45208333
0.32242647 0.78584559 0.44944853
0.34656863 0.78627451 0.45490196
0.36715686 0.78284314 0.46127451
0.3877451 0.78247549 0.46776961
0.40490196 0.77873775 0.46685049
0.42156863 0.77843137 0.46470588
0.44246324 0.77892157 0.46207108
0.46715686 0.78370098 0.46066176
0.49117647 0.78676471 0.45686275
0.5247549 0.79019608 0.4504902
0.56176471 0.79019608 0.44019608
0.5995098 0.79068627 0.42696078
0.63578431 0.79460784 0.41029412
0.6627451 0.79852941 0.39313725
0.69411765 0.80098039 0.37303922
0.73921569 0.80637255 0.34791667
0.79368873 0.81072304 0.32352941
0.84387255 0.81838235 0.30465686
0.88480392 0.82205882 0.28572304
0.92561275 0.8254902 0.26213235
0.96256127 0.8254902 0.23676471
0.98823529 0.8254902 0.22009804
0.38823529 0.81960784 0.50392157
0.38823529 0.81960784 0.50269608
0.3872549 0.81960784 0.49901961
0.38431373 0.81764706 0.49240196
0.39803922 0.81764706 0.49803922
0.41813725 0.81764706 0.50441176
0.43529412 0.81764706 0.5127451
0.4504902 0.81691176 0.51176471
0.4627451 0.81568627 0.50980392
0.47818627 0.81568627 0.50588235
0.49852941 0.81764706 0.50392157
0.52254902 0.81764706 0.50196078
0.54705882 0.82156863 0.49901961
0.57205882 0.82156863 0.49166667
0.60588235 0.82303922 0.48137255
0.63897059 0.82622549 0.46446078
0.66666667 0.82941176 0.44901961
0.69558824 0.83333333 0.43284314
0.73039216 0.8372549 0.41568627
0.78357843 0.84117647 0.39509804
0.83333333 0.84705882 0.37647059
0.87034314 0.85294118 0.3620098
0.91176471 0.85833333 0.33970588
0.95563725 0.86544118 0.31397059
0.99411765 0.87058824 0.28823529
0.45 0.85245098 0.55539216
0.45 0.85245098 0.55294118
0.44901961 0.85245098 0.5504902
0.4495098 0.84901961 0.54754902
0.45588235 0.84852941 0.54754902
0.47009804 0.84852941 0.55189951
0.48688725 0.84852941 0.55796569
0.4995098 0.84852941 0.55882353
0.5122549 0.84852941 0.55539216
0.52469363 0.84852941 0.55539216
0.5372549 0.84852941 0.55539216
0.55778186 0.85196078 0.55147059
0.57818627 0.85245098 0.54583333
0.59852941 0.85294118 0.5401348
0.61568627 0.85637255 0.53321078
0.64852941 0.86029412 0.52303922
0.67990196 0.86078431 0.50931373
0.71421569 0.86421569 0.4963848
0.74105392 0.86813725 0.4807598
0.77457108 0.87205882 0.46666667
0.82132353 0.87794118 0.44877451
0.86078431 0.88382353 0.43382353
0.90196078 0.88688725 0.41409314
0.94656863 0.89528186 0.38939951
0.97156863 0.89901961 0.37696078
0.50784314 0.88627451 0.60686275
0.50882353 0.8872549 0.60441176
0.50784314 0.88333333 0.5997549
0.51127451 0.88333333 0.59901961
0.51568627 0.87941176 0.59901961
0.525 0.87941176 0.5995098
0.53921569 0.87941176 0.60612745
0.5495098 0.88051471 0.60686275
0.56372549 0.88235294 0.60980392
0.57401961 0.88186275 0.60833333
0.58357843 0.87941176 0.60588235
0.59546569 0.88284314 0.60551471
0.61568627 0.88333333 0.60245098
0.63627451 0.8872549 0.59803922
0.65686275 0.88946078 0.59411765
0.67598039 0.89227941 0.58872549
0.70392157 0.89509804 0.57745098
0.73480392 0.89754902 0.56360294
0.76078431 0.9 0.54828431
0.78529412 0.90379902 0.53492647
0.81715686 0.90735294 0.52205882
0.85686275 0.91213235 0.50625
0.89803922 0.91764706 0.49117647
0.93370098 0.92291667 0.47696078
0.94411765 0.92352941 0.46960784
0.56568627 0.91813725 0.65441176
0.56813725 0.91813725 0.65441176
0.5685049 0.91715686 0.6504902
0.57175245 0.91421569 0.6504902
0.5754902 0.91421569 0.6504902
0.58167892 0.91029412 0.6504902
0.59068627 0.91029412 0.65232843
0.60245098 0.91421569 0.65925245
0.61519608 0.91421569 0.6622549
0.6254902 0.91421569 0.65980392
0.6314951 0.91323529 0.65625
0.64068627 0.91029412 0.65441176
0.65686275 0.91617647 0.65906863
0.67745098 0.91862745 0.65980392
0.69509804 0.92205882 0.65477941
0.71231618 0.92352941 0.64803922
0.73382353 0.92990196 0.64411765
0.7598652 0.92990196 0.63229167
0.78137255 0.92990196 0.61470588
0.80410539 0.93204657 0.59883578
0.83161765 0.93848039 0.59803922
0.86029412 0.9403799 0.57996324
0.89509804 0.94852941 0.57745098
0.91617647 0.9495098 0.56770833
0.91862745 0.9495098 0.56470588
0.61176471 0.94509804 0.69411765
0.61568627 0.94509804 0.69411765
0.61568627 0.94117647 0.69313725
0.61911765 0.94117647 0.69019608
0.62352941 0.93921569 0.69019608
0.62745098 0.9372549 0.69019608
0.63431373 0.9372549 0.69313725
0.64460784 0.94117647 0.69803922
0.6627451 0.94509804 0.70588235
0.66666667 0.94264706 0.70343137
0.66764706 0.9372549 0.69411765
0.67794118 0.9372549 0.69411765
0.69411765 0.93921569 0.7
0.71421569 0.94901961 0.70980392
0.72843137 0.94901961 0.70294118
0.74264706 0.94901961 0.69656863
0.76078431 0.95294118 0.69411765
0.78137255 0.95931373 0.69019608
0.79803922 0.95294118 0.66470588
0.81862745 0.95637255 0.65882353
0.84313725 0.96470588 0.6627451
0.86421569 0.95392157 0.6245098
0.89509804 0.9745098 0.64607843
0.90196078 0.97254902 0.64166667
0.90196078 0.97254902 0.63529412
0.006372549 0.015686275 0.030882353
0.015747549 0.012316176 0.030882353
0.028431373 0.0078431373 0.030882353
0.048223039 0.010294118 0.030882353
0.092156863 0.01495098 0.028186275
0.14362745 0.023835784 0.02254902
0.1939951 0.030392157 0.011887255
0.24895833 0.033823529 0.003370098
0.32009804 0.02745098 0.012745098
0.38823529 0.020159314 0.019117647
0.45294118 0.015686275 0.018137255
0.51470588 0.014215686 0.020281863
0.57181373 0.011519608 0.021813725
0.62990196 0.0060661765 0.0080269608
0.68492647 0.0006127451 0
0.72745098 0.0039215686 0.0078431373
0.77254902 0.006372549 0.012745098
0.81764706 0.013357843 0.012745098
0.85784314 0.039093137 0.0057598039
0.8908701 0.084987745 0.0039215686
0.92352941 0.11887255 0.0039215686
0.95441176 0.14491422 0.0066789216
0.97990196 0.17095588 0.013848039
0.99509804 0.18676471 0.0049019608
1 0.19313725 0
0.006372549 0.015686275 0.030882353
0.016321998 0.016643689 0.032758885
0.031632966 0.019898897 0.033823529
0.053071385 0.026654412 0.030882353
0.092922794 0.031617647 0.026960784
0.14362745 0.035470282 0.021086091
0.19509804 0.034742647 0.0098039216
0.24895833 0.034949449 0.00091911765
0.31764706 0.033823529 0.0072916667
0.38520987 0.032352941 0.011557904
0.45147059 0.028753064 0.0085324755
0.51323529 0.023223039 0.010585172
0.57058824 0.015931373 0.01495098
0.62888327 0.0084788603 0.0058823529
0.68137255 0 0
0.72745098 0.0087622549 0.003002451
0.77346814 0.027941176 0.0072916667
0.81856618 0.047977941 0.0051853554
0.85859375 0.069347426 0.00091911765
0.89479167 0.098705576 0
0.92653186 0.13066789 0.0026960784
0.95521599 0.15501685 0.0050321691
0.98276654 0.17941176 0.006372549
0.99397212 0.19944853 0.0039215686
0.99607843 0.21127451 0.0039215686
0.006372549 0.025 0.031495098
0.019898897 0.030989583 0.030882353
0.038143382 0.04286152 0.030729167
0.060784314 0.053431373 0.028431373
0.094117647 0.061458333 0.024203431
0.14362745 0.061764706 0.021691176
0.19583333 0.061764706 0.013817402
0.25580576 0.063848039 0.01127451
0.32254902 0.062132353 0.010661765
0.38722426 0.055392157 0.012132353
0.45211397 0.046660539 0.0039215686
0.51470588 0.043014706 0.00018382353
