site/assets/luts/sha256-934877b7e436022220435d7b0ac6009d270750d7254ca0ebf6996a05105d880d.cube
# LUTr-Schema-Version: 2
# LUTr-ID: sha256-934877b7e436022220435d7b0ac6009d270750d7254ca0ebf6996a05105d880d
# LUTr-Title: ilford hps 800
# LUTr-Collection: Natron HaldCLUT
# LUTr-Collection-ID: natron-haldclut-presets
# LUTr-Source: https://github.com/NatronGitHub/clut
# LUTr-Retrieved: 2026-07-27
# LUTr-Source-File: submissions/natron-haldclut-presets/bw/ilford_hps_800.png
# LUTr-Source-Format: HALD-PNG
# LUTr-Source-SHA256: 934877b7e436022220435d7b0ac6009d270750d7254ca0ebf6996a05105d880d
# LUTr-License: CC-BY-SA-4.0
# LUTr-License-URL: https://github.com/NatronGitHub/clut#license
# LUTr-License-Basis: repo-license-file
# LUTr-Transform-Class: film-emulation
# LUTr-Tags: creative, film, film-emulation, hald-clut, natron, png, cube
# LUTr-Input-Color-Space: srgb
# LUTr-Input-Gamut: rec709
# LUTr-Input-Transfer: srgb
# LUTr-Output-Color-Space: srgb
# LUTr-Output-Gamut: rec709
# LUTr-Output-Transfer: srgb
# LUTr-Color-Space-Confidence: assumed-display-referred
# LUTr-Domain-Normalized: true
# LUTr-Shaper: none
# LUTr-Original-Grid: 64x64x64
# LUTr-Conversion-Grid: 25x25x25
# LUTr-Conversion-Interpolation: trilinear
# LUTr-Conversion-Method: HALD-PNG LUT image decoded at 16-bit and sampled to 25x25x25 3D CUBE
# LUTr-Conversion-Tool: LUTr scripts/convert-all-to-cube.mjs 2.0.0
# LUTr-Conversion-Date: 2026-07-27
# LUTr-Note: Preserve this metadata and the upstream license notices when redistributing.
TITLE "ilford hps 800"
LUT_3D_SIZE 5
DOMAIN_MIN 0 0 0
DOMAIN_MAX 1 1 1
0.011764706 0.011764706 0.011764706
0.020588235 0.020588235 0.020588235
0.090196078 0.090196078 0.090196078
0.19215686 0.19215686 0.19215686
0.43529412 0.43529412 0.43529412
0.099019608 0.099019608 0.099019608
0.10588235 0.10588235 0.10588235
0.19803922 0.19803922 0.19803922
0.32254902 0.32254902 0.32254902
0.51568627 0.51568627 0.51568627
0.27254902 0.27254902 0.27254902
0.27401961 0.27401961 0.27401961
0.34803922 0.34803922 0.34803922
0.43921569 0.43921569 0.43921569
0.59607843 0.59607843 0.59607843
0.49803922 0.49803922 0.49803922
0.51666667 0.51666667 0.51666667
0.56813725 0.56813725 0.56813725
0.63137255 0.63137255 0.63137255
0.72058824 0.72058824 0.72058824
0.77647059 0.77647059 0.77647059
0.76764706 0.76764706 0.76764706
0.78823529 0.78823529 0.78823529
0.83529412 0.83529412 0.83529412
0.89803922 0.89803922 0.89803922
0.057843137 0.057843137 0.057843137
0.076470588 0.076470588 0.076470588
0.16862745 0.16862745 0.16862745
0.31544118 0.31544118 0.31544118
0.49313725 0.49313725 0.49313725
0.15784314 0.15784314 0.15784314
0.18823529 0.18823529 0.18823529
0.25294118 0.25294118 0.25294118
0.38633578 0.38633578 0.38633578
0.53995098 0.53995098 0.53995098
0.31372549 0.31372549 0.31372549
0.34693627 0.34693627 0.34693627
0.40122549 0.40122549 0.40122549
0.50735294 0.50735294 0.50735294
0.64068627 0.64068627 0.64068627
0.54313725 0.54313725 0.54313725
0.56348039 0.56348039 0.56348039
0.60098039 0.60098039 0.60098039
0.66348039 0.66348039 0.66348039
0.76642157 0.76642157 0.76642157
0.79411765 0.79411765 0.79411765
0.79779412 0.79779412 0.79779412
0.81960784 0.81960784 0.81960784
0.8502451 0.8502451 0.8502451
0.89901961 0.89901961 0.89901961
0.11372549 0.11372549 0.11372549
0.18823529 0.18823529 0.18823529
0.29411765 0.29411765 0.29411765
0.40441176 0.40441176 0.40441176
0.58627451 0.58627451 0.58627451
0.2745098 0.2745098 0.2745098
0.31115196 0.31115196 0.31115196
0.37867647 0.37867647 0.37867647
0.47867647 0.47867647 0.47867647
0.62352941 0.62352941 0.62352941
0.4372549 0.4372549 0.4372549
0.46544118 0.46544118 0.46544118
0.51176471 0.51176471 0.51176471
0.59387255 0.59387255 0.59387255
0.69705882 0.69705882 0.69705882
0.62843137 0.62843137 0.62843137
0.65294118 0.65294118 0.65294118
0.68651961 0.68651961 0.68651961
0.75012255 0.75012255 0.75012255
0.81960784 0.81960784 0.81960784
0.8372549 0.8372549 0.8372549
0.84117647 0.84117647 0.84117647
0.85882353 0.85882353 0.85882353
0.89607843 0.89607843 0.89607843
0.94117647 0.94117647 0.94117647
0.3254902 0.3254902 0.3254902
0.37058824 0.37058824 0.37058824
0.45196078 0.45196078 0.45196078
0.54117647 0.54117647 0.54117647
0.6754902 0.6754902 0.6754902
0.44730392 0.44730392 0.44730392
0.4786152 0.4786152 0.4786152
0.53541667 0.53541667 0.53541667
0.61507353 0.61507353 0.61507353
0.70686275 0.70686275 0.70686275
0.58872549 0.58872549 0.58872549
0.61409314 0.61409314 0.61409314
0.6502451 0.6502451 0.6502451
0.70882353 0.70882353 0.70882353
0.7877451 0.7877451 0.7877451
0.74926471 0.74926471 0.74926471
0.75784314 0.75784314 0.75784314
0.78443627 0.78443627 0.78443627
0.83529412 0.83529412 0.83529412
0.88039216 0.88039216 0.88039216
0.89215686 0.89215686 0.89215686
0.90686275 0.90686275 0.90686275
0.91470588 0.91470588 0.91470588
0.92647059 0.92647059 0.92647059
0.94117647 0.94117647 0.94117647
0.5372549 0.5372549 0.5372549
0.57843137 0.57843137 0.57843137
0.64901961 0.64901961 0.64901961
0.69607843 0.69607843 0.69607843
0.74509804 0.74509804 0.74509804
0.6254902 0.6254902 0.6254902
0.66372549 0.66372549 0.66372549
0.69117647 0.69117647 0.69117647
0.75098039 0.75098039 0.75098039
0.8254902 0.8254902 0.8254902
0.75098039 0.75098039 0.75098039
0.76176471 0.76176471 0.76176471
0.79313725 0.79313725 0.79313725
0.8245098 0.8245098 0.8245098
0.88039216 0.88039216 0.88039216
0.87254902 0.87254902 0.87254902
0.8754902 0.8754902 0.8754902
0.86764706 0.86764706 0.86764706
0.89313725 0.89313725 0.89313725
0.94215686 0.94215686 0.94215686
0.98039216 0.98039216 0.98039216
0.97745098 0.97745098 0.97745098
0.96078431 0.96078431 0.96078431
0.99215686 0.99215686 0.99215686
0.96470588 0.96470588 0.96470588
