site/assets/luts/sha256-71ed9843721e3697acced2623749c1f390b4db226900fcc6257157a907b99315.cube
# LUTr-Schema-Version: 2
# LUTr-ID: sha256-71ed9843721e3697acced2623749c1f390b4db226900fcc6257157a907b99315
# LUTr-Title: polaroid time zero (expired) ---
# LUTr-Collection: Natron HaldCLUT
# LUTr-Collection-ID: natron-haldclut-presets
# LUTr-Source: https://github.com/NatronGitHub/clut
# LUTr-Retrieved: 2026-07-27
# LUTr-Source-File: submissions/natron-haldclut-presets/instant_consumer/polaroid_time_zero_(expired)_---.png
# LUTr-Source-Format: HALD-PNG
# LUTr-Source-SHA256: 71ed9843721e3697acced2623749c1f390b4db226900fcc6257157a907b99315
# LUTr-License: CC-BY-SA-4.0
# LUTr-License-URL: https://github.com/NatronGitHub/clut#license
# LUTr-License-Basis: repo-license-file
# LUTr-Transform-Class: film-emulation
# LUTr-Tags: creative, film, film-emulation, hald-clut, natron, png, cube
# LUTr-Input-Color-Space: srgb
# LUTr-Input-Gamut: rec709
# LUTr-Input-Transfer: srgb
# LUTr-Output-Color-Space: srgb
# LUTr-Output-Gamut: rec709
# LUTr-Output-Transfer: srgb
# LUTr-Color-Space-Confidence: assumed-display-referred
# LUTr-Domain-Normalized: true
# LUTr-Shaper: none
# LUTr-Original-Grid: 64x64x64
# LUTr-Conversion-Grid: 25x25x25
# LUTr-Conversion-Interpolation: trilinear
# LUTr-Conversion-Method: HALD-PNG LUT image decoded at 16-bit and sampled to 25x25x25 3D CUBE
# LUTr-Conversion-Tool: LUTr scripts/convert-all-to-cube.mjs 2.0.0
# LUTr-Conversion-Date: 2026-07-27
# LUTr-Note: Preserve this metadata and the upstream license notices when redistributing.
TITLE "polaroid time zero (expired) ---"
LUT_3D_SIZE 25
DOMAIN_MIN 0 0 0
DOMAIN_MAX 1 1 1
0.11764706 0.02745098 0.023529412
0.12401961 0.02745098 0.025980392
0.13039216 0.02745098 0.028431373
0.13676471 0.024019608 0.034803922
0.14313725 0.023529412 0.035294118
0.1622549 0.023529412 0.035294118
0.19313725 0.020588235 0.031372549
0.22401961 0.014215686 0.02745098
0.25098039 0.0078431373 0.023529412
0.28186275 0.0014705882 0.019607843
0.33529412 0 0.019607843
0.39705882 0 0.019607843
0.45490196 0 0.019607843
0.51666667 0 0.015686275
0.57843137 0 0.015686275
0.63872549 0 0.015686275
0.68627451 0 0.015686275
0.7377451 0.0039215686 0.011764706
0.77941176 0.0078431373 0.020588235
0.81029412 0.011764706 0.034313725
0.84117647 0.015686275 0.050980392
0.87205882 0.015686275 0.067156863
0.90294118 0.015686275 0.081372549
0.93382353 0.029411765 0.097058824
0.96470588 0.11764706 0.11372549
0.11764706 0.02745098 0.023529412
0.12401961 0.02745098 0.025980392
0.13039216 0.02745098 0.028431373
0.13939951 0.02745098 0.031372549
0.14828431 0.029901961 0.032843137
0.16568627 0.029901961 0.031372549
0.19313725 0.024142157 0.031372549
0.22401961 0.017218137 0.02745098
0.25490196 0.010294118 0.023529412
0.29460784 0.010294118 0.019607843
0.34914216 0.0057598039 0.019607843
0.40765931 0.00030637255 0.019607843
0.46838235 0 0.019607843
0.53088235 0 0.015686275
0.58970588 0 0.015686275
0.63872549 0 0.018137255
0.68627451 0 0.011764706
0.7377451 0.003002451 0.011764706
0.78002451 0.0088235294 0.017647059
0.81292892 0.011764706 0.030882353
0.84362745 0.011764706 0.042647059
0.87205882 0.013541667 0.057352941
0.90294118 0.015686275 0.077941176
0.93382353 0.034252451 0.097058824
0.96470588 0.12009804 0.11372549
0.11764706 0.02745098 0.02254902
0.12401961 0.02745098 0.023529412
0.13137255 0.029166667 0.02745098
0.14166667 0.034926471 0.02745098
0.15147059 0.035294118 0.02745098
0.16568627 0.036151961 0.02745098
0.19313725 0.029411765 0.02745098
0.22830882 0.019117647 0.02745098
0.26372549 0.016666667 0.023529412
0.30882353 0.02120098 0.017156863
0.36372549 0.016666667 0.015686275
0.4254902 0.0093137255 0.015686275
0.48431373 0 0.015686275
0.54460784 0 0.015686275
0.59534314 0 0.018872549
0.64117647 0 0.019607843
0.68627451 0 0.011764706
0.7377451 0.0024509804 0.010784314
0.78039216 0.0078431373 0.016666667
0.81421569 0.011764706 0.026960784
0.84509804 0.011764706 0.037254902
0.87598039 0.011642157 0.047916667
0.90686275 0.014705882 0.06372549
0.9377451 0.057843137 0.088235294
0.96568627 0.13921569 0.10490196
0.11372549 0.02745098 0.019607843
0.12401961 0.033333333 0.020098039
0.13517157 0.03872549 0.023529412
0.14803922 0.042156863 0.023529412
0.15490196 0.042647059 0.023529412
0.16568627 0.042647059 0.023529412
0.19313725 0.035784314 0.023529412
0.2341299 0.030698529 0.023529412
0.27794118 0.030392157 0.020098039
0.31911765 0.034620098 0.013235294
0.37401961 0.029901961 0.011764706
0.43878676 0.015747549 0.015196078
0.49926471 0 0.015686275
0.55140931 0 0.019178922
0.59865196 0 0.022181373
0.64264706 0 0.021752451
0.68970588 0 0.011764706
0.7377451 0.00030637255 0.0078431373
0.78039216 0.0078431373 0.012745098
0.81421569 0.011764706 0.023529412
0.84509804 0.015441176 0.033823529
0.87640931 0.014767157 0.043627451
0.91078431 0.011642157 0.050490196
0.94117647 0.08872549 0.075490196
0.97205882 0.17058824 0.094607843
0.12745098 0.066666667 0.019607843
0.13382353 0.066666667 0.019607843
0.14411765 0.066666667 0.019607843
0.15441176 0.066666667 0.019607843
0.16470588 0.061764706 0.019607843
0.17328431 0.058578431 0.019607843
0.20686275 0.056862745 0.017647059
0.24901961 0.058088235 0.01495098
0.29215686 0.056862745 0.0098039216
0.33014706 0.051715686 0.0066176471
0.38333333 0.041176471 0.0078431373
0.45171569 0.024509804 0.011764706
0.51176471 0.0078431373 0.016666667
0.55710784 0.0053921569 0.021813725
0.60343137 0 0.026960784
0.64705882 0 0.022794118
0.69019608 0 0.015686275
0.73529412 0 0.0078431373
0.78039216 0.0049019608 0.0068627451
0.81421569 0.016911765 0.019117647
0.84509804 0.03627451 0.030392157
0.87990196 0.051470588 0.0375
0.90735294 0.070098039 0.044117647
0.9377451 0.1379902 0.069117647
0.9627451 0.19803922 0.082352941
0.14166667 0.1122549 0.015686275
0.14803922 0.11176471 0.015686275
0.15441176 0.11176471 0.015686275
0.16470588 0.10876225 0.015686275
0.17745098 0.10612745 0.015686275
0.19901961 0.10441176 0.015686275
0.23284314 0.10441176 0.012622549
0.27352941 0.10441176 0.0099877451
0.31470588 0.1004902 0.0078431373
0.35588235 0.098345588 0.0039215686
0.40330882 0.092156863 0.0078431373
0.46770833 0.078002451 0.011764706
0.52426471 0.06004902 0.015686275
0.56715686 0.045098039 0.023529412
0.61139706 0.027941176 0.02745098
0.65343137 0.025183824 0.02567402
0.69852941 0.02254902 0.015686275
0.73970588 0.016482843 0.009129902
0.77990196 0.012009804 0.00098039216
0.81421569 0.051960784 0.01127451
0.84509804 0.087254902 0.021323529
0.87598039 0.11372549 0.030943627
0.90686275 0.13431373 0.037745098
0.9372549 0.18676471 0.057352941
0.95637255 0.22941176 0.066176471
0.15490196 0.15980392 0.015686275
0.15943627 0.15686275 0.015686275
0.16838235 0.15588235 0.012745098
0.18137255 0.15588235 0.011764706
0.20147059 0.15441176 0.012745098
0.22990196 0.15294118 0.012622549
0.26078431 0.15367647 0.0095588235
0.29705882 0.15294118 0.0067401961
0.33921569 0.15490196 0.0049019608
0.38223039 0.15490196 0.0078431373
0.42941176 0.15392157 0.0078431373
0.48529412 0.14276961 0.011764706
0.53970588 0.12843137 0.015686275
0.58137255 0.11372549 0.020098039
0.62254902 0.1 0.024509804
0.66703431 0.098039216 0.022058824
0.70882353 0.095098039 0.012745098
0.75 0.094117647 0.0072303922
0.78627451 0.099019608 0.0039215686
0.81715686 0.12095588 0.0073529412
0.84803922 0.1504902 0.014705882
0.87855392 0.1754902 0.021078431
0.90686275 0.19607843 0.02745098
0.93382353 0.23566176 0.043504902
0.95 0.26372549 0.049019608
0.16617647 0.20735294 0.011764706
0.17254902 0.20735294 0.011764706
0.18321078 0.20343137 0.010294118
0.20324755 0.20343137 0.011764706
0.22916667 0.20343137 0.011764706
0.25931373 0.20343137 0.0099877451
0.29019608 0.20343137 0.0078431373
0.3216299 0.20343137 0.0039215686
0.36127451 0.20735294 0.0039215686
0.40735294 0.21035539 0.0078431373
0.45208333 0.21127451 0.0078431373
0.50245098 0.20539216 0.01127451
0.55441176 0.19583333 0.01372549
0.59558824 0.18756127 0.018321078
0.63676471 0.17928922 0.021446078
0.67794118 0.17647059 0.018137255
0.72303922 0.17647059 0.011764706
0.76121324 0.17647059 0.0078431373
0.79117647 0.18137255 0.0050245098
0.81960784 0.19540441 0.0039215686
0.84901961 0.21740196 0.0090686275
0.87990196 0.2372549 0.010784314
0.90894608 0.2567402 0.016053922
0.93627451 0.28327206 0.025980392
0.94509804 0.29852941 0.032352941
0.18039216 0.2627451 0.0078431373
0.18676471 0.25882353 0.0078431373
0.20196078 0.25784314 0.0078431373
0.22647059 0.25490196 0.0078431373
0.25490196 0.25490196 0.011764706
0.28382353 0.25490196 0.0078431373
0.31470588 0.25490196 0.0078431373
0.34705882 0.25490196 0.0039215686
0.38823529 0.2627451 0.0078431373
0.43186275 0.26666667 0.0078431373
0.47843137 0.27058824 0.0078431373
0.52352941 0.27058824 0.0078431373
0.57058824 0.26470588 0.011764706
0.60980392 0.2627451 0.015686275
0.64803922 0.25980392 0.015686275
0.69215686 0.25735294 0.015686275
0.73333333 0.25098039 0.011764706
0.76813725 0.25343137 0.0093137255
0.79509804 0.2627451 0.0078431373
0.82254902 0.27009804 0.0039215686
0.84901961 0.28235294 0.0039215686
0.87990196 0.29852941 0.0039215686
0.91078431 0.3127451 0.0039215686
0.93872549 0.33088235 0.0078431373
0.94117647 0.3372549 0.011764706
0.19068627 0.31813725 0.0039215686
0.20251225 0.3151348 0.0039215686
0.22708333 0.31029412 0.006004902
0.253125 0.30667892 0.0078431373
0.28137255 0.30637255 0.0078431373
0.31078431 0.30637255 0.0078431373
0.33921569 0.30637255 0.0078431373
0.37310049 0.30637255 0.0078431373
0.41519608 0.31421569 0.0078431373
0.45729167 0.32205882 0.0078431373
0.50183824 0.32843137 0.0078431373
0.54785539 0.33235294 0.0078431373
0.58921569 0.33357843 0.0078431373
0.62990196 0.33235294 0.011764706
0.66580882 0.32843137 0.011764706
0.70245098 0.3278799 0.012683824
0.73970588 0.32303922 0.011764706
0.77205882 0.3278799 0.011764706
0.79901961 0.33235294 0.0078431373
0.82628676 0.33596814 0.0044117647
0.85220588 0.34215686 0.0039215686
0.87990196 0.35422794 0.0039215686
0.91078431 0.36813725 0.0028186275
0.93572304 0.37598039 0.0048406863
0.93970588 0.37696078 0.0078431373
0.21176471 0.37745098 0.00098039216
0.23431373 0.37107843 0.0028186275
0.25710784 0.36495098 0.0039215686
0.28137255 0.36176471 0.0078431373
0.30882353 0.35784314 0.0078431373
0.33762255 0.35784314 0.0078431373
0.36470588 0.35392157 0.0078431373
0.39889706 0.35784314 0.0078431373
0.44117647 0.36568627 0.0078431373
0.48517157 0.37598039 0.0078431373
0.52916667 0.38627451 0.0078431373
0.57254902 0.39276961 0.0078431373
0.61176471 0.39313725 0.0078431373
0.64656863 0.38921569 0.0078431373
0.68039216 0.38529412 0.0078431373
0.71519608 0.38284314 0.011764706
0.74901961 0.38823529 0.011764706
0.77806373 0.38529412 0.011764706
0.80612745 0.38848039 0.010784314
0.83125 0.38921569 0.0078431373
0.85686275 0.39509804 0.006372549
0.88382353 0.40539216 0.0074754902
0.91078431 0.41495098 0.0071078431
0.93235294 0.41997549 0.0093137255
0.94117647 0.42058824 0.011764706
0.25980392 0.425 0.0039215686
0.27567402 0.42107843 0.0039215686
0.29558824 0.41715686 0.0040441176
0.31917892 0.41329657 0.0078431373
0.34019608 0.40955882 0.0078431373
0.36427696 0.40882353 0.0078431373
0.39166667 0.40539216 0.0078431373
0.4245098 0.40686275 0.0056985294
0.46911765 0.41715686 0.0078431373
0.51292892 0.42745098 0.0078431373
0.55551471 0.43688725 0.0078431373
0.59362745 0.44417892 0.0078431373
0.63039216 0.44485294 0.0078431373
0.66323529 0.44019608 0.0044117647
0.69411765 0.43382353 0.0069852941
0.7254902 0.43284314 0.0093137255
0.75637255 0.43333333 0.015686275
0.78511029 0.43676471 0.013051471
0.81335784 0.43676471 0.010784314
0.8377451 0.44025735 0.0078431373
0.8622549 0.44656863 0.0078431373
0.8872549 0.45643382 0.0078431373
0.91078431 0.45980392 0.0078431373
0.93235294 0.46439951 0.011764706
0.94509804 0.46470588 0.015686275
0.30392157 0.47058824 0.0039215686
0.31348039 0.46666667 0.0039215686
0.33088235 0.46421569 0.0039215686
0.35 0.46078431 0.0056372549
0.36960784 0.45686275 0.0078431373
0.39142157 0.45465686 0.0078431373
0.41715686 0.45294118 0.0044117647
0.45294118 0.45563725 0.0046568627
0.49607843 0.46470588 0.0078431373
0.53848039 0.475 0.0078431373
0.57794118 0.48284314 0.0078431373
0.61593137 0.4879902 0.0078431373
0.64705882 0.49019608 0.0039215686
0.67598039 0.4879902 0.0039215686
0.70490196 0.48284314 0.0039215686
0.73578431 0.47965686 0.0078431373
0.76666667 0.47843137 0.01372549
0.79240196 0.48235294 0.013235294
0.81960784 0.48431373 0.0078431373
0.84411765 0.4879902 0.006127451
0.86666667 0.49411765 0.0039215686
0.88921569 0.49803922 0.0083333333
0.91176471 0.50490196 0.0098039216
0.93431373 0.50857843 0.010539216
0.95098039 0.51176471 0.011764706
0.31372549 0.51568627 0.00049019608
0.33676471 0.51176471 0.0026348039
0.35772059 0.50784314 0.0039215686
0.38088235 0.50484069 0.0039215686
0.40147059 0.50392157 0.0039215686
0.42205882 0.5004902 0.0039215686
0.44522059 0.5 0.0039215686
0.48137255 0.50410539 0.0039215686
0.52254902 0.5122549 0.0039215686
0.56372549 0.52205882 0.0078431373
0.6 0.52745098 0.0078431373
0.63431373 0.53045343 0.0078431373
0.66151961 0.53137255 0.0039215686
0.68866422 0.53088235 0.0039215686
0.71654412 0.52745098 0.0039215686
0.74607843 0.52616422 0.0039215686
0.77647059 0.52401961 0.0078431373
0.80147059 0.52745098 0.012071078
0.82598039 0.5314951 0.0068627451
0.85042892 0.53572304 0.0034313725
0.87107843 0.53921569 0.0041666667
0.89166667 0.53921569 0.013235294
0.91568627 0.54607843 0.012745098
0.93805147 0.55245098 0.0076593137
0.95735294 0.55882353 0.0078431373
0.3754902 0.55588235 0.0039215686
0.38578431 0.55294118 0.0039215686
0.3997549 0.55294118 0.0039215686
0.41617647 0.55196078 0.0039215686
0.43235294 0.54901961 0.0039215686
0.44987745 0.54803922 0.0039215686
0.47279412 0.54509804 0.0039215686
0.50588235 0.55012255 0.0039215686
0.54705882 0.55980392 0.0039215686
0.58431373 0.56470588 0.006372549
0.61691176 0.56862745 0.0078431373
0.64767157 0.56862745 0.0078431373
0.675 0.56862745 0.0053921569
0.70245098 0.56862745 0.0039215686
0.72941176 0.56862745 0.0039215686
0.75637255 0.57193627 0.0024509804
0.78333333 0.57254902 0.00098039216
0.81066176 0.57438725 0.012745098
0.83333333 0.57720588 0.019362745
0.85428922 0.58039216 0.021446078
0.8745098 0.58039216 0.025980392
0.89803922 0.58039216 0.03872549
0.91936275 0.5872549 0.035294118
0.94313725 0.59362745 0.025
0.96176471 0.60098039 0.021568627
0.39656863 0.59264706 0
0.40931373 0.59264706 0
0.42928922 0.59264706 0.0039215686
0.44656863 0.59393382 0.0039215686
0.46397059 0.59411765 0.0039215686
0.47990196 0.59411765 0.0039215686
0.49901961 0.59056373 0.0028186275
0.53039216 0.59558824 0.0039215686
0.56764706 0.60196078 0.0039215686
0.60098039 0.60588235 0.0039215686
0.63186275 0.60588235 0.0078431373
0.65900735 0.60588235 0.0078431373
0.68848039 0.60710784 0.0078431373
0.71636029 0.60833333 0.0078431373
0.74362745 0.60833333 0.0042892157
0.77058824 0.60980392 0.0039215686
0.79754902 0.6122549 0.0014705882
0.81966912 0.61525735 0.020710784
0.84264706 0.61862745 0.084191176
0.86323529 0.62156863 0.096078431
0.87990196 0.62156863 0.096568627
0.9004902 0.62334559 0.096875
0.92291667 0.62732843 0.092156863
0.94411765 0.63186275 0.08872549
0.95931373 0.63333333 0.091176471
0.43137255 0.62352941 0
0.44411765 0.62745098 0
0.46078431 0.62745098 0.00098039216
0.47794118 0.63137255 0.0039215686
0.49607843 0.63333333 0.0019607843
0.51029412 0.63529412 0
0.5245098 0.63529412 0
0.55098039 0.63921569 0.0014705882
0.58431373 0.63921569 0.0039215686
0.61519608 0.64313725 0.0039215686
0.64607843 0.64313725 0.0078431373
0.67303922 0.64313725 0.0078431373
0.70196078 0.64313725 0.0078431373
0.73039216 0.64313725 0.0078431373
0.75784314 0.64313725 0.0078431373
0.78088235 0.64705882 0.0078431373
0.80392157 0.65098039 0.0039215686
0.82843137 0.65343137 0
0.84901961 0.65588235 0.096078431
0.86960784 0.6627451 0.15588235
0.88627451 0.6627451 0.16078431
0.90294118 0.6627451 0.16078431
0.92352941 0.66666667 0.16078431
0.94411765 0.66666667 0.16078431
0.95686275 0.66666667 0.15686275
0.47254902 0.65833333 0
0.47984069 0.6598652 0.0039215686
0.49558824 0.66286765 0.0039215686
0.51256127 0.66599265 0.0039215686
0.53014706 0.66936275 0.0012254902
0.54509804 0.67254902 0
0.55539216 0.67254902 0
0.57254902 0.67401961 0.0014705882
0.60245098 0.67647059 0.0039215686
0.63186275 0.67738971 0.0039215686
0.66029412 0.67794118 0.0078431373
0.68970588 0.67794118 0.0078431373
0.71740196 0.67794118 0.0078431373
0.74460784 0.67794118 0.0078431373
0.76875 0.67977941 0.0078431373
0.79117647 0.68186275 0.0078431373
0.81421569 0.68186275 0.006372549
0.83480392 0.68578431 0.01127451
0.85539216 0.69031863 0.081862745
0.87352941 0.69705882 0.16323529
0.88946078 0.70073529 0.20735294
0.90686275 0.70147059 0.22432598
0.92634804 0.70147059 0.22892157
0.94411765 0.70147059 0.22892157
0.95294118 0.70392157 0.22892157
0.50980392 0.69313725 0
0.51801471 0.69411765 0.0039215686
0.53357843 0.69730392 0.0039215686
0.54840686 0.70098039 0.0039215686
0.56568627 0.70490196 0.0039215686
0.57598039 0.70588235 0.0039215686
0.58627451 0.70882353 0.0039215686
0.60196078 0.70882353 0.0039215686
0.6254902 0.70980392 0.0039215686
0.65245098 0.70980392 0.0039215686
0.67843137 0.70980392 0.0078431373
0.70551471 0.70980392 0.0078431373
0.73088235 0.71127451 0.0078431373
0.75539216 0.7127451 0.0079656863
0.77941176 0.7127451 0.011764706
0.8 0.71482843 0.011764706
0.82058824 0.71666667 0.012745098
0.84411765 0.71666667 0.021568627
0.86176471 0.72230392 0.081372549
0.87879902 0.72806373 0.15637255
0.89509804 0.73284314 0.21421569
0.91164216 0.73639706 0.26629902
0.92916667 0.7372549 0.29093137
0.94693627 0.7372549 0.29644608
0.95294118 0.74019608 0.29705882
0.54754902 0.72794118 0
0.55735294 0.73008578 0.0039215686
0.5689951 0.73186275 0.0039215686
0.58535539 0.73572304 0.0039215686
0.59656863 0.73921569 0.0039215686
0.60686275 0.73970588 0.0039215686
0.61715686 0.74227941 0.0039215686
0.63155637 0.74362745 0.0039215686
0.65 0.74362745 0.0039215686
0.67303922 0.74362745 0.0039215686
0.69901961 0.74362745 0.0049019608
0.72352941 0.74362745 0.0078431373
0.74803922 0.74362745 0.0078431373
0.76525735 0.74405637 0.011764706
0.78627451 0.74754902 0.014338235
0.81029412 0.74754902 0.015686275
0.83088235 0.75098039 0.015686275
0.85147059 0.75147059 0.024509804
0.8685049 0.75539216 0.083946078
0.88572304 0.76231618 0.15042892
0.90171569 0.76519608 0.2122549
0.91813725 0.76764706 0.27352941
0.93492647 0.77107843 0.3314951
0.9504902 0.7745098 0.36305147
0.95294118 0.7745098 0.36519608
0.58627451 0.76470588 0
0.59460784 0.76593137 0.0039215686
0.60539216 0.76666667 0.0058823529
0.61715686 0.77034314 0.0041666667
0.62745098 0.77058824 0.0039215686
0.63578431 0.7745098 0.0039215686
0.64754902 0.7745098 0.0039215686
0.65906863 0.77720588 0.0039215686
0.6745098 0.77843137 0.0039215686
0.69509804 0.77843137 0.0039215686
0.71960784 0.77843137 0.0039215686
0.74191176 0.77843137 0.0073529412
0.76176471 0.7745098 0.0078431373
0.77916667 0.7747549 0.011764706
0.79607843 0.77843137 0.011764706
0.81666667 0.78235294 0.01372549
0.83921569 0.78235294 0.01372549
0.86176471 0.78357843 0.02254902
0.87843137 0.78872549 0.079411765
0.89509804 0.79362745 0.14583333
0.90980392 0.79607843 0.21176471
0.9245098 0.79852941 0.27573529
0.94166667 0.80196078 0.34460784
0.95637255 0.80588235 0.3997549
0.95882353 0.80588235 0.40784314
0.625 0.80147059 0
0.63155637 0.80147059 0.0039215686
0.6377451 0.80147059 0.0078431373
0.64411765 0.80147059 0.0044117647
0.65441176 0.80539216 0.0039215686
0.66470588 0.80631127 0.0039215686
0.675 0.80931373 0.0039215686
0.68529412 0.80980392 0.0039215686
0.69901961 0.81323529 0.0039215686
0.71568627 0.81323529 0.0039215686
0.73627451 0.81323529 0.0039215686
0.76029412 0.81023284 0.0039215686
0.7752451 0.80735294 0.0078431373
0.78970588 0.80496324 0.0078431373
0.81029412 0.80845588 0.011642157
0.82726716 0.81078431 0.011764706
0.84754902 0.81323529 0.01127451
0.86813725 0.81715686 0.015870098
0.88737745 0.82107843 0.073651961
0.90189951 0.82408088 0.14650735
0.91813725 0.825 0.2247549
0.93431373 0.82892157 0.29944853
0.94852941 0.8314951 0.36764706
0.9627451 0.8341299 0.41862745
0.96519608 0.83676471 0.43676471
0.65980392 0.83529412 0
0.66617647 0.83627451 0.0039215686
0.67156863 0.83529412 0.0078431373
0.675 0.83492647 0.0044117647
0.68186275 0.83627451 0.0039215686
0.69166667 0.84019608 0.0039215686
0.70196078 0.84240196 0.0039215686
0.71262255 0.84411765 0.0039215686
0.72352941 0.84705882 0.0039215686
0.73737745 0.84803922 0.0039215686
0.75686275 0.84803922 0.0039215686
0.77487745 0.84448529 0.0039215686
0.78921569 0.83823529 0.0049019608
0.80392157 0.83284314 0.0074754902
0.82352941 0.84019608 0.0071078431
0.84117647 0.84411765 0.0099264706
0.86078431 0.84705882 0.011764706
0.87843137 0.84803922 0.022916667
0.89509804 0.85122549 0.1
0.91213235 0.85453431 0.18235294
0.92843137 0.85588235 0.26470588
0.94203431 0.85980392 0.33296569
0.95563725 0.85980392 0.38897059
0.96911765 0.86372549 0.43921569
0.9754902 0.86764706 0.46764706
0.69460784 0.86862745 0
0.69852941 0.86715686 0.0039215686
0.69852941 0.86568627 0.0078431373
0.70098039 0.86323529 0.0044117647
0.70686275 0.86642157 0.0039215686
0.71715686 0.86979167 0.0039215686
0.72745098 0.87107843 0.0039215686
0.7377451 0.875 0.0039215686
0.74803922 0.87892157 0.0039215686
0.75925245 0.88284314 0.00091911765
0.77352941 0.88284314 0
0.79050245 0.87910539 0.0037377451
0.80343137 0.86911765 0.0039215686
0.81421569 0.85490196 0.0039215686
0.83627451 0.87009804 0.0039215686
0.85631127 0.87947304 0.0039215686
0.87598039 0.88284314 0.017156863
0.89264706 0.88376225 0.08872549
0.90931373 0.88676471 0.17107843
0.92598039 0.88694853 0.25085784
0.9379902 0.88676471 0.30833333
0.95098039 0.88676471 0.35980392
0.96311275 0.88860294 0.41127451
0.9754902 0.89160539 0.46219363
0.98578431 0.89705882 0.49852941
0.72156863 0.89411765 0
0.72156863 0.89166667 0.0039215686
0.72058824 0.88627451 0.0078431373
0.72107843 0.88627451 0.0044117647
0.7254902 0.88627451 0.0039215686
0.73382353 0.89068627 0.0034313725
0.74411765 0.89411765 0
0.75441176 0.89803922 0
0.76470588 0.90196078 0
0.77892157 0.90588235 0
0.79019608 0.91470588 0
0.80343137 0.90637255 0
0.81372549 0.89019608 0.0019607843
0.82107843 0.8754902 0.0039215686
0.84509804 0.89215686 0
0.86960784 0.90735294 0
0.88627451 0.90980392 0.031372549
0.89901961 0.90147059 0.12352941
0.92254902 0.92058824 0.23921569
0.93284314 0.91372549 0.28382353
0.94313725 0.90980392 0.33137255
0.95735294 0.90980392 0.37892157
0.97058824 0.90980392 0.43039216
0.98186275 0.91372549 0.48186275
0.99215686 0.91764706 0.52156863
0.12156863 0.025 0.029901961
0.1254902 0.025 0.029901961
0.13039216 0.025 0.031372549
0.13676471 0.023529412 0.035110294
0.14313725 0.023529412 0.037254902
0.1622549 0.020894608 0.037438725
0.19313725 0.017769608 0.034191176
0.22401961 0.012683824 0.030821078
0.25343137 0.0078431373 0.02745098
0.29068627 0.003002451 0.029901961
0.34497549 0 0.031740196
0.40343137 0 0.028615196
0.46519608 0 0.024754902
0.52696078 0 0.022058824
0.58933824 0 0.020220588
0.64117647 0 0.022058824
0.69019608 0 0.022058824
0.73866422 0.0054534314 0.025428922
0.77941176 0.0078431373 0.03370098
0.81029412 0.0093137255 0.047242647
0.84117647 0.011764706 0.059313725
0.87205882 0.013235294 0.069791667
0.90294118 0.012132353 0.084926471
0.93382353 0.025428922 0.099509804
0.96470588 0.11519608 0.11372549
0.12156863 0.025 0.029901961
0.12493873 0.025 0.029901961
0.13039216 0.025382966 0.031372549
0.1368796 0.024448529 0.035110294
0.14586397 0.024448529 0.035294118
0.1622549 0.02433364 0.035179228
0.19313725 0.020358456 0.0328125
0.22497702 0.014215686 0.030821078
0.25643382 0.0078431373 0.02745098
0.2995098 0.0048406863 0.026554841
0.35551471 0.0039215686 0.02689951
0.41372549 0.0024509804 0.025980392
0.4754902 0 0.022058824
0.5372549 0 0.019607843
0.59270833 0 0.019607843
0.64209559 0 0.022058824
0.69019608 0 0.022058824
0.73866422 0.0054534314 0.023935355
0.77941176 0.0078431373 0.033333333
0.81354933 0.0092447917 0.044178922
0.84509804 0.010998775 0.057843137
0.87439491 0.011573223 0.068688725
0.90447304 0.0093137255 0.08114277
0.93439798 0.026348039 0.097633272
