site/assets/luts/sha256-3c266d163bc5c99fd9cfbfe79b8c25b05ecccd5ce35c3745a77d1c0350799509.cube
# LUTr-Schema-Version: 2
# LUTr-ID: sha256-3c266d163bc5c99fd9cfbfe79b8c25b05ecccd5ce35c3745a77d1c0350799509
# LUTr-Title: kodak t-max 100
# LUTr-Collection: Natron HaldCLUT
# LUTr-Collection-ID: natron-haldclut-presets
# LUTr-Source: https://github.com/NatronGitHub/clut
# LUTr-Retrieved: 2026-07-27
# LUTr-Source-File: submissions/natron-haldclut-presets/bw/kodak_t-max_100.png
# LUTr-Source-Format: HALD-PNG
# LUTr-Source-SHA256: 3c266d163bc5c99fd9cfbfe79b8c25b05ecccd5ce35c3745a77d1c0350799509
# LUTr-License: CC-BY-SA-4.0
# LUTr-License-URL: https://github.com/NatronGitHub/clut#license
# LUTr-License-Basis: repo-license-file
# LUTr-Transform-Class: film-emulation
# LUTr-Tags: creative, film, film-emulation, hald-clut, natron, png, cube
# LUTr-Input-Color-Space: srgb
# LUTr-Input-Gamut: rec709
# LUTr-Input-Transfer: srgb
# LUTr-Output-Color-Space: srgb
# LUTr-Output-Gamut: rec709
# LUTr-Output-Transfer: srgb
# LUTr-Color-Space-Confidence: assumed-display-referred
# LUTr-Domain-Normalized: true
# LUTr-Shaper: none
# LUTr-Original-Grid: 64x64x64
# LUTr-Conversion-Grid: 25x25x25
# LUTr-Conversion-Interpolation: trilinear
# LUTr-Conversion-Method: HALD-PNG LUT image decoded at 16-bit and sampled to 25x25x25 3D CUBE
# LUTr-Conversion-Tool: LUTr scripts/convert-all-to-cube.mjs 2.0.0
# LUTr-Conversion-Date: 2026-07-27
# LUTr-Note: Preserve this metadata and the upstream license notices when redistributing.
TITLE "kodak t-max 100"
LUT_3D_SIZE 9
DOMAIN_MIN 0 0 0
DOMAIN_MAX 1 1 1
0.0039215686 0.0039215686 0.0039215686
0.023529412 0.023529412 0.023529412
0.024509804 0.024509804 0.024509804
0.029901961 0.029901961 0.029901961
0.050980392 0.050980392 0.050980392
0.10098039 0.10098039 0.10098039
0.15784314 0.15784314 0.15784314
0.18480392 0.18480392 0.18480392
0.20392157 0.20392157 0.20392157
0.073039216 0.073039216 0.073039216
0.080882353 0.080882353 0.080882353
0.087867647 0.087867647 0.087867647
0.103125 0.103125 0.103125
0.12598039 0.12598039 0.12598039
0.16617647 0.16617647 0.16617647
0.21960784 0.21960784 0.21960784
0.26182598 0.26182598 0.26182598
0.30098039 0.30098039 0.30098039
0.15392157 0.15392157 0.15392157
0.15098039 0.15098039 0.15098039
0.15882353 0.15882353 0.15882353
0.17696078 0.17696078 0.17696078
0.2 0.2 0.2
0.24264706 0.24264706 0.24264706
0.28529412 0.28529412 0.28529412
0.3245098 0.3245098 0.3245098
0.3627451 0.3627451 0.3627451
0.2504902 0.2504902 0.2504902
0.24656863 0.24656863 0.24656863
0.24901961 0.24901961 0.24901961
0.26378676 0.26378676 0.26378676
0.2877451 0.2877451 0.2877451
0.31078431 0.31078431 0.31078431
0.34595588 0.34595588 0.34595588
0.39234069 0.39234069 0.39234069
0.42843137 0.42843137 0.42843137
0.34901961 0.34901961 0.34901961
0.34901961 0.34901961 0.34901961
0.36617647 0.36617647 0.36617647
0.37573529 0.37573529 0.37573529
0.39313725 0.39313725 0.39313725
0.41053922 0.41053922 0.41053922
0.43431373 0.43431373 0.43431373
0.46936275 0.46936275 0.46936275
0.50196078 0.50196078 0.50196078
0.47254902 0.47254902 0.47254902
0.47254902 0.47254902 0.47254902
0.48431373 0.48431373 0.48431373
0.48823529 0.48823529 0.48823529
0.49852941 0.49852941 0.49852941
0.51476716 0.51476716 0.51476716
0.53419118 0.53419118 0.53419118
0.55392157 0.55392157 0.55392157
0.58480392 0.58480392 0.58480392
0.58823529 0.58823529 0.58823529
0.59117647 0.59117647 0.59117647
0.59607843 0.59607843 0.59607843
0.59963235 0.59963235 0.59963235
0.60588235 0.60588235 0.60588235
0.62352941 0.62352941 0.62352941
0.64240196 0.64240196 0.64240196
0.65919118 0.65919118 0.65919118
0.68137255 0.68137255 0.68137255
0.71176471 0.71176471 0.71176471
0.70392157 0.70392157 0.70392157
0.70784314 0.70784314 0.70784314
0.72224265 0.72224265 0.72224265
0.73529412 0.73529412 0.73529412
0.74313725 0.74313725 0.74313725
0.7557598 0.7557598 0.7557598
0.76715686 0.76715686 0.76715686
0.78970588 0.78970588 0.78970588
0.81176471 0.81176471 0.81176471
0.80784314 0.80784314 0.80784314
0.81078431 0.81078431 0.81078431
0.82990196 0.82990196 0.82990196
0.84313725 0.84313725 0.84313725
0.85098039 0.85098039 0.85098039
0.85098039 0.85098039 0.85098039
0.86323529 0.86323529 0.86323529
0.89803922 0.89803922 0.89803922
0.057352941 0.057352941 0.057352941
0.046997549 0.046997549 0.046997549
0.050490196 0.050490196 0.050490196
0.068321078 0.068321078 0.068321078
0.089460784 0.089460784 0.089460784
0.13008578 0.13008578 0.13008578
0.16507353 0.16507353 0.16507353
0.22303922 0.22303922 0.22303922
0.26960784 0.26960784 0.26960784
0.08872549 0.08872549 0.08872549
0.096997549 0.096997549 0.096997549
0.10865502 0.10865502 0.10865502
0.12647059 0.12647059 0.12647059
0.14901961 0.14901961 0.14901961
0.18578431 0.18578431 0.18578431
0.22706801 0.22706801 0.22706801
0.28137255 0.28137255 0.28137255
0.32009804 0.32009804 0.32009804
0.16531863 0.16531863 0.16531863
0.17271752 0.17271752 0.17271752
0.18161765 0.18161765 0.18161765
0.19745711 0.19745711 0.19745711
0.21911765 0.21911765 0.21911765
0.25392157 0.25392157 0.25392157
0.29264706 0.29264706 0.29264706
0.34330576 0.34330576 0.34330576
0.37536765 0.37536765 0.37536765
0.25569853 0.25569853 0.25569853
0.25784314 0.25784314 0.25784314
0.26870404 0.26870404 0.26870404
0.28089001 0.28089001 0.28089001
0.29837623 0.29837623 0.29837623
0.32212776 0.32212776 0.32212776
0.35476409 0.35476409 0.35476409
0.40523131 0.40523131 0.40523131
0.43186275 0.43186275 0.43186275
0.34901961 0.34901961 0.34901961
0.35202206 0.35202206 0.35202206
0.36985294 0.36985294 0.36985294
0.3872549 0.3872549 0.3872549
0.40073529 0.40073529 0.40073529
0.41813725 0.41813725 0.41813725
0.44301471 0.44301471 0.44301471
0.48455882 0.48455882 0.48455882
0.51127451 0.51127451 0.51127451
0.47598039 0.47598039 0.47598039
0.47647059 0.47647059 0.47647059
0.48818934 0.48818934 0.48818934
0.49430147 0.49430147 0.49430147
0.50621936 0.50621936 0.50621936
0.52029718 0.52029718 0.52029718
0.53783701 0.53783701 0.53783701
0.56911765 0.56911765 0.56911765
0.6 0.6 0.6
0.59215686 0.59215686 0.59215686
0.59607843 0.59607843 0.59607843
0.6 0.6 0.6
0.60387561 0.60387561 0.60387561
0.61127451 0.61127451 0.61127451
0.62495404 0.62495404 0.62495404
0.64240196 0.64240196 0.64240196
0.6622549 0.6622549 0.6622549
0.68933824 0.68933824 0.68933824
0.71568627 0.71568627 0.71568627
0.71176471 0.71176471 0.71176471
0.71401654 0.71401654 0.71401654
0.72379749 0.72379749 0.72379749
0.72987132 0.72987132 0.72987132
0.74460784 0.74460784 0.74460784
0.75850184 0.75850184 0.75850184
0.76972273 0.76972273 0.76972273
0.78670343 0.78670343 0.78670343
0.82303922 0.82303922 0.82303922
0.81911765 0.81911765 0.81911765
0.81176471 0.81176471 0.81176471
0.83382353 0.83382353 0.83382353
0.84901961 0.84901961 0.84901961
0.86029412 0.86029412 0.86029412
0.8622549 0.8622549 0.8622549
0.87015931 0.87015931 0.87015931
0.875 0.875 0.875
0.033333333 0.033333333 0.033333333
0.058333333 0.058333333 0.058333333
0.081372549 0.081372549 0.081372549
0.097058824 0.097058824 0.097058824
0.11862745 0.11862745 0.11862745
0.16237745 0.16237745 0.16237745
0.20392157 0.20392157 0.20392157
0.27757353 0.27757353 0.27757353
0.3372549 0.3372549 0.3372549
0.11127451 0.11127451 0.11127451
0.11954657 0.11954657 0.11954657
0.14313725 0.14313725 0.14313725
0.15490196 0.15490196 0.15490196
0.17610294 0.17610294 0.17610294
0.21335784 0.21335784 0.21335784
0.25490196 0.25490196 0.25490196
0.31000306 0.31000306 0.31000306
0.34840686 0.34840686 0.34840686
0.19313725 0.19313725 0.19313725
0.19705882 0.19705882 0.19705882
0.20392157 0.20392157 0.20392157
0.22414216 0.22414216 0.22414216
0.24215686 0.24215686 0.24215686
0.2745098 0.2745098 0.2745098
0.31666667 0.31666667 0.31666667
0.36666667 0.36666667 0.36666667
0.40098039 0.40098039 0.40098039
0.27303922 0.27303922 0.27303922
0.28065257 0.28065257 0.28065257
0.29558824 0.29558824 0.29558824
0.30464154 0.30464154 0.30464154
0.31721814 0.31721814 0.31721814
0.33933824 0.33933824 0.33933824
0.38198529 0.38198529 0.38198529
0.43186275 0.43186275 0.43186275
0.46066176 0.46066176 0.46066176
0.36862745 0.36862745 0.36862745
0.37395833 0.37395833 0.37395833
0.38872549 0.38872549 0.38872549
0.40416667 0.40416667 0.40416667
0.41813725 0.41813725 0.41813725
0.43327206 0.43327206 0.43327206
0.46470588 0.46470588 0.46470588
0.50765931 0.50765931 0.50765931
0.53970588 0.53970588 0.53970588
0.48823529 0.48823529 0.48823529
0.49171262 0.49171262 0.49171262
0.50137868 0.50137868 0.50137868
0.51075368 0.51075368 0.51075368
0.52126225 0.52126225 0.52126225
0.53492647 0.53492647 0.53492647
0.55735294 0.55735294 0.55735294
0.59479167 0.59479167 0.59479167
0.6254902 0.6254902 0.6254902
0.60392157 0.60392157 0.60392157
0.60631127 0.60631127 0.60631127
0.61452206 0.61452206 0.61452206
0.61908701 0.61908701 0.61908701
0.62647059 0.62647059 0.62647059
0.63805147 0.63805147 0.63805147
0.6533701 0.6533701 0.6533701
0.68480392 0.68480392 0.68480392
0.69926471 0.69926471 0.69926471
0.72659314 0.72659314 0.72659314
0.72352941 0.72352941 0.72352941
0.73039216 0.73039216 0.73039216
0.73426777 0.73426777 0.73426777
0.73768382 0.73768382 0.73768382
0.75009191 0.75009191 0.75009191
0.75873162 0.75873162 0.75873162
0.77472426 0.77472426 0.77472426
0.78186275 0.78186275 0.78186275
0.85 0.85 0.85
0.83480392 0.83480392 0.83480392
0.83333333 0.83333333 0.83333333
0.84178922 0.84178922 0.84178922
0.8504902 0.8504902 0.8504902
0.85098039 0.85098039 0.85098039
0.85980392 0.85980392 0.85980392
0.87205882 0.87205882 0.87205882
0.87352941 0.87352941 0.87352941
0.050980392 0.050980392 0.050980392
0.084313725 0.084313725 0.084313725
0.10441176 0.10441176 0.10441176
0.12009804 0.12009804 0.12009804
0.14093137 0.14093137 0.14093137
0.18278186 0.18278186 0.18278186
0.22794118 0.22794118 0.22794118
0.29754902 0.29754902 0.29754902
0.34509804 0.34509804 0.34509804
0.13609069 0.13609069 0.13609069
0.14650735 0.14650735 0.14650735
0.16617647 0.16617647 0.16617647
0.1787454 0.1787454 0.1787454
0.20465686 0.20465686 0.20465686
0.23823529 0.23823529 0.23823529
0.27904412 0.27904412 0.27904412
0.33202359 0.33202359 0.33202359
0.3745098 0.3745098 0.3745098
0.22120098 0.22120098 0.22120098
0.23051471 0.23051471 0.23051471
0.23918505 0.23918505 0.23918505
0.25 0.25 0.25
0.26911765 0.26911765 0.26911765
0.30300245 0.30300245 0.30300245
0.34362745 0.34362745 0.34362745
0.39313725 0.39313725 0.39313725
0.42340686 0.42340686 0.42340686
0.29908088 0.29908088 0.29908088
0.3091299 0.3091299 0.3091299
0.32329963 0.32329963 0.32329963
0.33382353 0.33382353 0.33382353
0.34433211 0.34433211 0.34433211
0.36848192 0.36848192 0.36848192
0.41115196 0.41115196 0.41115196
0.4591299 0.4591299 0.4591299
0.49454657 0.49454657 0.49454657
0.38946078 0.38946078 0.38946078
0.39656863 0.39656863 0.39656863
0.41145833 0.41145833 0.41145833
0.42401961 0.42401961 0.42401961
0.43713235 0.43713235 0.43713235
0.45566789 0.45566789 0.45566789
0.49166667 0.49166667 0.49166667
0.53259804 0.53259804 0.53259804
0.57181373 0.57181373 0.57181373
0.50545343 0.50545343 0.50545343
0.50998775 0.50998775 0.50998775
0.51790748 0.51790748 0.51790748
0.52955729 0.52955729 0.52955729
0.5370098 0.5370098 0.5370098
0.55343137 0.55343137 0.55343137
0.58431373 0.58431373 0.58431373
0.62303922 0.62303922 0.62303922
0.64852941 0.64852941 0.64852941
0.62536765 0.62536765 0.62536765
0.62144608 0.62144608 0.62144608
0.62873775 0.62873775 0.62873775
0.64022672 0.64022672 0.64022672
0.64558824 0.64558824 0.64558824
0.65415135 0.65415135 0.65415135
0.67696078 0.67696078 0.67696078
0.70784314 0.70784314 0.70784314
0.72205882 0.72205882 0.72205882
0.74528186 0.74528186 0.74528186
0.72963388 0.72963388 0.72963388
0.74669118 0.74669118 0.74669118
0.75624234 0.75624234 0.75624234
0.76488971 0.76488971 0.76488971
0.7650046 0.7650046 0.7650046
0.77728248 0.77728248 0.77728248
0.79656863 0.79656863 0.79656863
0.80606618 0.80606618 0.80606618
0.84705882 0.84705882 0.84705882
0.84313725 0.84313725 0.84313725
0.86421569 0.86421569 0.86421569
0.85098039 0.85098039 0.85098039
0.85490196 0.85490196 0.85490196
0.85882353 0.85882353 0.85882353
0.87879902 0.87879902 0.87879902
0.88333333 0.88333333 0.88333333
0.89264706 0.89264706 0.89264706
0.11372549 0.11372549 0.11372549
0.13284314 0.13284314 0.13284314
0.14901961 0.14901961 0.14901961
0.15612745 0.15612745 0.15612745
0.1872549 0.1872549 0.1872549
0.21642157 0.21642157 0.21642157
0.24313725 0.24313725 0.24313725
0.30686275 0.30686275 0.30686275
0.36666667 0.36666667 0.36666667
0.17328431 0.17328431 0.17328431
0.18848039 0.18848039 0.18848039
0.2028799 0.2028799 0.2028799
0.21185662 0.21185662 0.21185662
0.23823529 0.23823529 0.23823529
0.27303922 0.27303922 0.27303922
0.30784314 0.30784314 0.30784314
0.35882353 0.35882353 0.35882353
0.40563725 0.40563725 0.40563725
0.25833333 0.25833333 0.25833333
0.26593137 0.26593137 0.26593137
0.27438725 0.27438725 0.27438725
0.28112745 0.28112745 0.28112745
0.30392157 0.30392157 0.30392157
0.33872549 0.33872549 0.33872549
0.37781863 0.37781863 0.37781863
0.42009804 0.42009804 0.42009804
0.43921569 0.43921569 0.43921569
0.34338235 0.34338235 0.34338235
0.34264706 0.34264706 0.34264706
0.35343137 0.35343137 0.35343137
0.3622549 0.3622549 0.3622549
0.38026961 0.38026961 0.38026961
0.40686275 0.40686275 0.40686275
0.44767157 0.44767157 0.44767157
0.48970588 0.48970588 0.48970588
0.51911765 0.51911765 0.51911765
0.42941176 0.42941176 0.42941176
0.43909314 0.43909314 0.43909314
0.44705882 0.44705882 0.44705882
0.45490196 0.45490196 0.45490196
0.47156863 0.47156863 0.47156863
0.4932598 0.4932598 0.4932598
0.52843137 0.52843137 0.52843137
0.56519608 0.56519608 0.56519608
0.59705882 0.59705882 0.59705882
0.53186275 0.53186275 0.53186275
0.5375 0.5375 0.5375
0.54362745 0.54362745 0.54362745
0.55147059 0.55147059 0.55147059
0.56066176 0.56066176 0.56066176
0.58039216 0.58039216 0.58039216
0.61127451 0.61127451 0.61127451
0.64534314 0.64534314 0.64534314
0.66446078 0.66446078 0.66446078
0.64901961 0.64901961 0.64901961
0.64803922 0.64803922 0.64803922
0.64497549 0.64497549 0.64497549
0.65925245 0.65925245 0.65925245
0.66715686 0.66715686 0.66715686
0.67941176 0.67941176 0.67941176
0.6995098 0.6995098 0.6995098
0.72689951 0.72689951 0.72689951
0.74019608 0.74019608 0.74019608
0.76862745 0.76862745 0.76862745
0.76470588 0.76470588 0.76470588
0.75882353 0.75882353 0.75882353
0.77034314 0.77034314 0.77034314
0.77708333 0.77708333 0.77708333
0.78391544 0.78391544 0.78391544
0.79417892 0.79417892 0.79417892
0.81544118 0.81544118 0.81544118
0.82892157 0.82892157 0.82892157
0.86666667 0.86666667 0.86666667
0.8745098 0.8745098 0.8745098
0.86519608 0.86519608 0.86519608
0.86470588 0.86470588 0.86470588
0.85686275 0.85686275 0.85686275
0.8627451 0.8627451 0.8627451
0.875 0.875 0.875
0.89852941 0.89852941 0.89852941
0.90980392 0.90980392 0.90980392
0.15833333 0.15833333 0.15833333
0.18235294 0.18235294 0.18235294
0.22107843 0.22107843 0.22107843
0.22647059 0.22647059 0.22647059
0.23872549 0.23872549 0.23872549
0.27107843 0.27107843 0.27107843
0.29865196 0.29865196 0.29865196
0.38216912 0.38216912 0.38216912
0.43823529 0.43823529 0.43823529
0.22371324 0.22371324 0.22371324
0.23298866 0.23298866 0.23298866
0.24754902 0.24754902 0.24754902
0.26335018 0.26335018 0.26335018
0.28480392 0.28480392 0.28480392
0.3158701 0.3158701 0.3158701
0.34803922 0.34803922 0.34803922
0.40686275 0.40686275 0.40686275
0.45980392 0.45980392 0.45980392
0.29693627 0.29693627 0.29693627
0.30428922 0.30428922 0.30428922
0.31700368 0.31700368 0.31700368
0.32369792 0.32369792 0.32369792
0.34656863 0.34656863 0.34656863
0.37892157 0.37892157 0.37892157
0.41344975 0.41344975 0.41344975
0.45098039 0.45098039 0.45098039
0.49509804 0.49509804 0.49509804
0.38192402 0.38192402 0.38192402
0.38284314 0.38284314 0.38284314
0.39437806 0.39437806 0.39437806
0.40132506 0.40132506 0.40132506
0.42101716 0.42101716 0.42101716
0.44763327 0.44763327 0.44763327
0.48117341 0.48117341 0.48117341
0.51930147 0.51930147 0.51930147
0.5466299 0.5466299 0.5466299
0.47401961 0.47401961 0.47401961
0.47858456 0.47858456 0.47858456
0.48425245 0.48425245 0.48425245
0.49166667 0.49166667 0.49166667
0.5067402 0.5067402 0.5067402
0.52693015 0.52693015 0.52693015
0.55735294 0.55735294 0.55735294
0.59151348 0.59151348 0.59151348
0.62107843 0.62107843 0.62107843
0.57058824 0.57058824 0.57058824
0.5745098 0.5745098 0.5745098
0.57967218 0.57967218 0.57967218
0.58570006 0.58570006 0.58570006
0.59139093 0.59139093 0.59139093
0.60735294 0.60735294 0.60735294
0.63823529 0.63823529 0.63823529
0.6636106 0.6636106 0.6636106
0.67892157 0.67892157 0.67892157
0.67953431 0.67953431 0.67953431
0.675 0.675 0.675
0.68238358 0.68238358 0.68238358
0.6877451 0.6877451 0.6877451
0.69460784 0.69460784 0.69460784
0.70660233 0.70660233 0.70660233
0.72224265 0.72224265 0.72224265
0.74496017 0.74496017 0.74496017
0.75306373 0.75306373 0.75306373
0.78596814 0.78596814 0.78596814
0.77945006 0.77945006 0.77945006
0.79064032 0.79064032 0.79064032
0.79558824 0.79558824 0.79558824
0.79754902 0.79754902 0.79754902
0.80294118 0.80294118 0.80294118
0.80968137 0.80968137 0.80968137
0.82123928 0.82123928 0.82123928
0.82892157 0.82892157 0.82892157
0.8627451 0.8627451 0.8627451
0.85882353 0.85882353 0.85882353
0.88529412 0.88529412 0.88529412
0.88082108 0.88082108 0.88082108
0.86985294 0.86985294 0.86985294
0.87990196 0.87990196 0.87990196
0.88480392 0.88480392 0.88480392
0.92040441 0.92040441 0.92040441
0.91519608 0.91519608 0.91519608
0.21078431 0.21078431 0.21078431
0.22598039 0.22598039 0.22598039
0.23210784 0.23210784 0.23210784
0.29411765 0.29411765 0.29411765
0.28823529 0.28823529 0.28823529
0.31078431 0.31078431 0.31078431
0.35122549 0.35122549 0.35122549
0.41813725 0.41813725 0.41813725
0.49411765 0.49411765 0.49411765
0.27892157 0.27892157 0.27892157
0.28687194 0.28687194 0.28687194
0.29889706 0.29889706 0.29889706
0.32005208 0.32005208 0.32005208
0.33627451 0.33627451 0.33627451
0.36649816 0.36649816 0.36649816
0.40321691 0.40321691 0.40321691
0.45330882 0.45330882 0.45330882
0.51029412 0.51029412 0.51029412
0.35588235 0.35588235 0.35588235
0.35971201 0.35971201 0.35971201
0.36856618 0.36856618 0.36856618
0.38085172 0.38085172 0.38085172
0.40232843 0.40232843 0.40232843
0.43284314 0.43284314 0.43284314
0.46372549 0.46372549 0.46372549
0.50284926 0.50284926 0.50284926
0.55220588 0.55220588 0.55220588
0.42892157 0.42892157 0.42892157
0.43645833 0.43645833 0.43645833
0.44543505 0.44543505 0.44543505
0.45637255 0.45637255 0.45637255
0.47303922 0.47303922 0.47303922
0.49754902 0.49754902 0.49754902
0.52760417 0.52760417 0.52760417
0.56331189 0.56331189 0.56331189
0.59803922 0.59803922 0.59803922
0.51372549 0.51372549 0.51372549
0.52101716 0.52101716 0.52101716
0.52928922 0.52928922 0.52928922
0.54068627 0.54068627 0.54068627
0.54852941 0.54852941 0.54852941
0.56991422 0.56991422 0.56991422
0.59411765 0.59411765 0.59411765
0.6254902 0.6254902 0.6254902
0.65392157 0.65392157 0.65392157
0.60539216 0.60539216 0.60539216
0.60931373 0.60931373 0.60931373
0.62034314 0.62034314 0.62034314
0.62712929 0.62712929 0.62712929
0.63229167 0.63229167 0.63229167
0.6464614 0.6464614 0.6464614
0.66326593 0.66326593 0.66326593
0.68074449 0.68074449 0.68074449
0.69411765 0.69411765 0.69411765
0.70588235 0.70588235 0.70588235
0.70980392 0.70980392 0.70980392
0.71740196 0.71740196 0.71740196
0.72156863 0.72156863 0.72156863
0.7254902 0.7254902 0.7254902
0.73333333 0.73333333 0.73333333
0.74607843 0.74607843 0.74607843
0.76507353 0.76507353 0.76507353
0.77254902 0.77254902 0.77254902
0.80232843 0.80232843 0.80232843
0.80637255 0.80637255 0.80637255
0.81029412 0.81029412 0.81029412
0.81715686 0.81715686 0.81715686
0.81960784 0.81960784 0.81960784
0.82928922 0.82928922 0.82928922
0.8377451 0.8377451 0.8377451
0.84509804 0.84509804 0.84509804
0.8495098 0.8495098 0.8495098
0.87156863 0.87156863 0.87156863
0.88198529 0.88198529 0.88198529
0.89093137 0.89093137 0.89093137
0.89509804 0.89509804 0.89509804
0.89509804 0.89509804 0.89509804
0.90502451 0.90502451 0.90502451
0.92352941 0.92352941 0.92352941
0.92205882 0.92205882 0.92205882
0.9254902 0.9254902 0.9254902
0.30784314 0.30784314 0.30784314
0.30735294 0.30735294 0.30735294
0.30735294 0.30735294 0.30735294
0.35098039 0.35098039 0.35098039
0.34607843 0.34607843 0.34607843
0.37254902 0.37254902 0.37254902
0.41421569 0.41421569 0.41421569
0.45343137 0.45343137 0.45343137
0.51862745 0.51862745 0.51862745
0.35294118 0.35294118 0.35294118
0.35343137 0.35343137 0.35343137
0.36115196 0.36115196 0.36115196
0.38939951 0.38939951 0.38939951
0.39849877 0.39849877 0.39849877
0.42892157 0.42892157 0.42892157
0.46539522 0.46539522 0.46539522
0.50294118 0.50294118 0.50294118
0.54901961 0.54901961 0.54901961
0.4189951 0.4189951 0.4189951
0.42636336 0.42636336 0.42636336
0.43431373 0.43431373 0.43431373
0.44852941 0.44852941 0.44852941
0.46715686 0.46715686 0.46715686
0.49068627 0.49068627 0.49068627
0.52178309 0.52178309 0.52178309
0.55681679 0.55681679 0.55681679
0.59068627 0.59068627 0.59068627
0.49479167 0.49479167 0.49479167
0.50026808 0.50026808 0.50026808
0.50752145 0.50752145 0.50752145
0.51439951 0.51439951 0.51439951
0.52941176 0.52941176 0.52941176
0.55226716 0.55226716 0.55226716
0.57910539 0.57910539 0.57910539
0.61002604 0.61002604 0.61002604
0.64246324 0.64246324 0.64246324
0.57352941 0.57352941 0.57352941
0.57745098 0.57745098 0.57745098
0.58088235 0.58088235 0.58088235
0.58832721 0.58832721 0.58832721
0.59693627 0.59693627 0.59693627
0.6122549 0.6122549 0.6122549
0.63247549 0.63247549 0.63247549
0.66764706 0.66764706 0.66764706
0.69289216 0.69289216 0.69289216
0.65245098 0.65245098 0.65245098
0.65618873 0.65618873 0.65618873
0.6600337 0.6600337 0.6600337
0.6694087 0.6694087 0.6694087
0.67876838 0.67876838 0.67876838
0.68645067 0.68645067 0.68645067
0.7 0.7 0.7
0.72898284 0.72898284 0.72898284
0.73939951 0.73939951 0.73939951
0.73676471 0.73676471 0.73676471
0.74068627 0.74068627 0.74068627
0.74460784 0.74460784 0.74460784
0.75436581 0.75436581 0.75436581
0.7620098 0.7620098 0.7620098
0.76599265 0.76599265 0.76599265
0.78066789 0.78066789 0.78066789
0.7995098 0.7995098 0.7995098
0.7995098 0.7995098 0.7995098
0.82892157 0.82892157 0.82892157
0.83241422 0.83241422 0.83241422
0.83365502 0.83365502 0.83365502
0.84117647 0.84117647 0.84117647
0.84877451 0.84877451 0.84877451
0.85682445 0.85682445 0.85682445
0.8685815 0.8685815 0.8685815
0.87598039 0.87598039 0.87598039
0.87598039 0.87598039 0.87598039
0.89852941 0.89852941 0.89852941
0.90588235 0.90588235 0.90588235
0.91421569 0.91421569 0.91421569
0.92205882 0.92205882 0.92205882
0.92205882 0.92205882 0.92205882
0.9254902 0.9254902 0.9254902
0.93039216 0.93039216 0.93039216
0.94558824 0.94558824 0.94558824
0.94166667 0.94166667 0.94166667
0.38431373 0.38431373 0.38431373
0.39215686 0.39215686 0.39215686
0.38039216 0.38039216 0.38039216
0.40245098 0.40245098 0.40245098
0.40392157 0.40392157 0.40392157
0.41862745 0.41862745 0.41862745
0.47647059 0.47647059 0.47647059
0.52598039 0.52598039 0.52598039
0.57647059 0.57647059 0.57647059
0.41470588 0.41470588 0.41470588
0.41911765 0.41911765 0.41911765
0.40821078 0.40821078 0.40821078
0.42696078 0.42696078 0.42696078
0.45588235 0.45588235 0.45588235
0.47892157 0.47892157 0.47892157
0.5254902 0.5254902 0.5254902
0.56078431 0.56078431 0.56078431
0.5877451 0.5877451 0.5877451
0.48039216 0.48039216 0.48039216
0.48811275 0.48811275 0.48811275
0.49534314 0.49534314 0.49534314
0.49693627 0.49693627 0.49693627
0.52303922 0.52303922 0.52303922
0.54705882 0.54705882 0.54705882
0.5754902 0.5754902 0.5754902
0.60735294 0.60735294 0.60735294
0.61372549 0.61372549 0.61372549
0.55 0.55 0.55
0.55784314 0.55784314 0.55784314
0.56360294 0.56360294 0.56360294
0.57598039 0.57598039 0.57598039
0.58406863 0.58406863 0.58406863
0.59761029 0.59761029 0.59761029
0.60735294 0.60735294 0.60735294
0.63823529 0.63823529 0.63823529
0.67156863 0.67156863 0.67156863
0.61960784 0.61960784 0.61960784
0.62352941 0.62352941 0.62352941
0.63088235 0.63088235 0.63088235
0.63529412 0.63529412 0.63529412
0.64803922 0.64803922 0.64803922
0.65343137 0.65343137 0.65343137
0.65588235 0.65588235 0.65588235
0.69289216 0.69289216 0.69289216
0.71960784 0.71960784 0.71960784
0.69313725 0.69313725 0.69313725
0.69705882 0.69705882 0.69705882
0.69852941 0.69852941 0.69852941
0.70582108 0.70582108 0.70582108
0.72132353 0.72132353 0.72132353
0.72843137 0.72843137 0.72843137
0.73382353 0.73382353 0.73382353
0.76421569 0.76421569 0.76421569
0.77156863 0.77156863 0.77156863
0.7745098 0.7745098 0.7745098
0.7754902 0.7754902 0.7754902
0.77941176 0.77941176 0.77941176
0.7872549 0.7872549 0.7872549
0.79411765 0.79411765 0.79411765
0.79901961 0.79901961 0.79901961
0.81544118 0.81544118 0.81544118
0.82941176 0.82941176 0.82941176
0.8254902 0.8254902 0.8254902
0.85637255 0.85637255 0.85637255
0.86029412 0.86029412 0.86029412
0.86813725 0.86813725 0.86813725
0.87205882 0.87205882 0.87205882
0.87205882 0.87205882 0.87205882
0.87303922 0.87303922 0.87303922
0.87941176 0.87941176 0.87941176
0.89901961 0.89901961 0.89901961
0.89901961 0.89901961 0.89901961
0.9254902 0.9254902 0.9254902
0.93284314 0.93284314 0.93284314
0.94803922 0.94803922 0.94803922
0.9504902 0.9504902 0.9504902
0.93333333 0.93333333 0.93333333
0.92156863 0.92156863 0.92156863
0.9372549 0.9372549 0.9372549
0.97303922 0.97303922 0.97303922
0.97254902 0.97254902 0.97254902
