site/assets/luts/sha256-35e29f51c4f95b31ff45d370becd970a284feba213383e4a156d862d2952df3b.cube
# LUTr-Schema-Version: 2
# LUTr-ID: sha256-35e29f51c4f95b31ff45d370becd970a284feba213383e4a156d862d2952df3b
# LUTr-Title: fuji fp-3000b +++
# LUTr-Collection: Natron HaldCLUT
# LUTr-Collection-ID: natron-haldclut-presets
# LUTr-Source: https://github.com/NatronGitHub/clut
# LUTr-Retrieved: 2026-07-27
# LUTr-Source-File: submissions/natron-haldclut-presets/instant_pro/fuji_fp-3000b_+++.png
# LUTr-Source-Format: HALD-PNG
# LUTr-Source-SHA256: 35e29f51c4f95b31ff45d370becd970a284feba213383e4a156d862d2952df3b
# LUTr-License: CC-BY-SA-4.0
# LUTr-License-URL: https://github.com/NatronGitHub/clut#license
# LUTr-License-Basis: repo-license-file
# LUTr-Transform-Class: film-emulation
# LUTr-Tags: creative, film, film-emulation, hald-clut, natron, png, cube
# LUTr-Input-Color-Space: srgb
# LUTr-Input-Gamut: rec709
# LUTr-Input-Transfer: srgb
# LUTr-Output-Color-Space: srgb
# LUTr-Output-Gamut: rec709
# LUTr-Output-Transfer: srgb
# LUTr-Color-Space-Confidence: assumed-display-referred
# LUTr-Domain-Normalized: true
# LUTr-Shaper: none
# LUTr-Original-Grid: 64x64x64
# LUTr-Conversion-Grid: 25x25x25
# LUTr-Conversion-Interpolation: trilinear
# LUTr-Conversion-Method: HALD-PNG LUT image decoded at 16-bit and sampled to 25x25x25 3D CUBE
# LUTr-Conversion-Tool: LUTr scripts/convert-all-to-cube.mjs 2.0.0
# LUTr-Conversion-Date: 2026-07-27
# LUTr-Note: Preserve this metadata and the upstream license notices when redistributing.
TITLE "fuji fp-3000b +++"
LUT_3D_SIZE 9
DOMAIN_MIN 0 0 0
DOMAIN_MAX 1 1 1
0.31764706 0.31764706 0.31764706
0.31372549 0.31372549 0.31372549
0.32843137 0.32843137 0.32843137
0.35147059 0.35147059 0.35147059
0.3745098 0.3745098 0.3745098
0.40931373 0.40931373 0.40931373
0.46862745 0.46862745 0.46862745
0.55784314 0.55784314 0.55784314
0.65882353 0.65882353 0.65882353
0.32156863 0.32156863 0.32156863
0.325 0.325 0.325
0.33198529 0.33198529 0.33198529
0.35147059 0.35147059 0.35147059
0.37058824 0.37058824 0.37058824
0.42598039 0.42598039 0.42598039
0.48468137 0.48468137 0.48468137
0.57352941 0.57352941 0.57352941
0.65490196 0.65490196 0.65490196
0.32941176 0.32941176 0.32941176
0.33321078 0.33321078 0.33321078
0.34093137 0.34093137 0.34093137
0.37009804 0.37009804 0.37009804
0.40441176 0.40441176 0.40441176
0.45686275 0.45686275 0.45686275
0.52352941 0.52352941 0.52352941
0.60428922 0.60428922 0.60428922
0.64117647 0.64117647 0.64117647
0.35147059 0.35147059 0.35147059
0.34381127 0.34381127 0.34381127
0.35441176 0.35441176 0.35441176
0.38829657 0.38829657 0.38829657
0.44166667 0.44166667 0.44166667
0.49503676 0.49503676 0.49503676
0.56188725 0.56188725 0.56188725
0.65735294 0.65735294 0.65735294
0.71078431 0.71078431 0.71078431
0.37843137 0.37843137 0.37843137
0.37279412 0.37279412 0.37279412
0.36813725 0.36813725 0.36813725
0.41470588 0.41470588 0.41470588
0.47647059 0.47647059 0.47647059
0.58014706 0.58014706 0.58014706
0.64313725 0.64313725 0.64313725
0.71691176 0.71691176 0.71691176
0.7745098 0.7745098 0.7745098
0.43823529 0.43823529 0.43823529
0.42254902 0.42254902 0.42254902
0.41801471 0.41801471 0.41801471
0.44166667 0.44166667 0.44166667
0.52107843 0.52107843 0.52107843
0.62156863 0.62156863 0.62156863
0.71862745 0.71862745 0.71862745
0.77628676 0.77628676 0.77628676
0.81323529 0.81323529 0.81323529
0.51666667 0.51666667 0.51666667
0.50980392 0.50980392 0.50980392
0.49877451 0.49877451 0.49877451
0.48431373 0.48431373 0.48431373
0.57254902 0.57254902 0.57254902
0.66519608 0.66519608 0.66519608
0.75980392 0.75980392 0.75980392
0.81323529 0.81323529 0.81323529
0.85588235 0.85588235 0.85588235
0.6377451 0.6377451 0.6377451
0.62598039 0.62598039 0.62598039
0.61519608 0.61519608 0.61519608
0.59901961 0.59901961 0.59901961
0.64240196 0.64240196 0.64240196
0.72959559 0.72959559 0.72959559
0.80686275 0.80686275 0.80686275
0.85588235 0.85588235 0.85588235
0.88235294 0.88235294 0.88235294
0.77647059 0.77647059 0.77647059
0.77647059 0.77647059 0.77647059
0.77254902 0.77254902 0.77254902
0.76862745 0.76862745 0.76862745
0.76078431 0.76078431 0.76078431
0.79656863 0.79656863 0.79656863
0.85980392 0.85980392 0.85980392
0.88284314 0.88284314 0.88284314
0.90196078 0.90196078 0.90196078
0.3254902 0.3254902 0.3254902
0.3254902 0.3254902 0.3254902
0.33333333 0.33333333 0.33333333
0.35147059 0.35147059 0.35147059
0.37622549 0.37622549 0.37622549
0.41292892 0.41292892 0.41292892
0.47303922 0.47303922 0.47303922
0.56617647 0.56617647 0.56617647
0.64313725 0.64313725 0.64313725
0.32941176 0.32941176 0.32941176
0.32941176 0.32941176 0.32941176
0.33950674 0.33950674 0.33950674
0.35839461 0.35839461 0.35839461
0.38621324 0.38621324 0.38621324
0.42205882 0.42205882 0.42205882
0.49162071 0.49162071 0.49162071
0.58218444 0.58218444 0.58218444
0.67401961 0.67401961 0.67401961
0.33590686 0.33590686 0.33590686
0.34090074 0.34090074 0.34090074
0.34877451 0.34877451 0.34877451
0.3777114 0.3777114 0.3777114
0.40882353 0.40882353 0.40882353
0.45828738 0.45828738 0.45828738
0.53112745 0.53112745 0.53112745
0.61568627 0.61568627 0.61568627
0.69669118 0.69669118 0.69669118
0.3627451 0.3627451 0.3627451
0.35904565 0.35904565 0.35904565
0.36372549 0.36372549 0.36372549
0.39786305 0.39786305 0.39786305
0.45147059 0.45147059 0.45147059
0.51365656 0.51365656 0.51365656
0.5754902 0.5754902 0.5754902
0.65735294 0.65735294 0.65735294
0.72383578 0.72383578 0.72383578
0.38970588 0.38970588 0.38970588
0.39163603 0.39163603 0.39163603
0.38792892 0.38792892 0.38792892
0.4231924 0.4231924 0.4231924
0.50257353 0.50257353 0.50257353
0.59093137 0.59093137 0.59093137
0.6533701 0.6533701 0.6533701
0.72625613 0.72625613 0.72625613
0.77843137 0.77843137 0.77843137
0.45735294 0.45735294 0.45735294
0.45081955 0.45081955 0.45081955
0.43426777 0.43426777 0.43426777
0.44692862 0.44692862 0.44692862
0.52377451 0.52377451 0.52377451
0.62537531 0.62537531 0.62537531
0.72732843 0.72732843 0.72732843
0.7786152 0.7786152 0.7786152
0.81715686 0.81715686 0.81715686
0.53541667 0.53541667 0.53541667
0.52913603 0.52913603 0.52913603
0.51789216 0.51789216 0.51789216
0.51078431 0.51078431 0.51078431
0.58210784 0.58210784 0.58210784
0.67303922 0.67303922 0.67303922
0.76372549 0.76372549 0.76372549
0.81372549 0.81372549 0.81372549
0.86066176 0.86066176 0.86066176
0.66121324 0.66121324 0.66121324
0.6533701 0.6533701 0.6533701
0.64117647 0.64117647 0.64117647
0.63302696 0.63302696 0.63302696
0.65784314 0.65784314 0.65784314
0.73480392 0.73480392 0.73480392
0.81078431 0.81078431 0.81078431
0.85980392 0.85980392 0.85980392
0.88584559 0.88584559 0.88584559
0.78823529 0.78823529 0.78823529
0.79215686 0.79215686 0.79215686
0.78382353 0.78382353 0.78382353
0.77616422 0.77616422 0.77616422
0.71985294 0.71985294 0.71985294
0.78872549 0.78872549 0.78872549
0.86764706 0.86764706 0.86764706
0.88284314 0.88284314 0.88284314
0.90588235 0.90588235 0.90588235
0.34019608 0.34019608 0.34019608
0.3372549 0.3372549 0.3372549
0.34877451 0.34877451 0.34877451
0.36078431 0.36078431 0.36078431
0.39166667 0.39166667 0.39166667
0.44509804 0.44509804 0.44509804
0.50294118 0.50294118 0.50294118
0.58382353 0.58382353 0.58382353
0.66960784 0.66960784 0.66960784
0.34019608 0.34019608 0.34019608
0.3372549 0.3372549 0.3372549
0.34877451 0.34877451 0.34877451
0.36986826 0.36986826 0.36986826
0.39932598 0.39932598 0.39932598
0.44162071 0.44162071 0.44162071
0.51133578 0.51133578 0.51133578
0.59607843 0.59607843 0.59607843
0.68480392 0.68480392 0.68480392
0.35171569 0.35171569 0.35171569
0.35643382 0.35643382 0.35643382
0.36427696 0.36427696 0.36427696
0.39044118 0.39044118 0.39044118
0.42352941 0.42352941 0.42352941
0.47083333 0.47083333 0.47083333
0.53878676 0.53878676 0.53878676
0.62784926 0.62784926 0.62784926
0.69705882 0.69705882 0.69705882
0.38970588 0.38970588 0.38970588
0.38769914 0.38769914 0.38769914
0.38563113 0.38563113 0.38563113
0.41213235 0.41213235 0.41213235
0.46060049 0.46060049 0.46060049
0.52378983 0.52378983 0.52378983
0.5854473 0.5854473 0.5854473
0.66398591 0.66398591 0.66398591
0.73823529 0.73823529 0.73823529
0.42647059 0.42647059 0.42647059
0.43357843 0.43357843 0.43357843
0.42254902 0.42254902 0.42254902
0.43431373 0.43431373 0.43431373
0.51372549 0.51372549 0.51372549
0.59761029 0.59761029 0.59761029
0.6622549 0.6622549 0.6622549
0.73057598 0.73057598 0.73057598
0.78627451 0.78627451 0.78627451
0.49938725 0.49938725 0.49938725
0.49568015 0.49568015 0.49568015
0.48360907 0.48360907 0.48360907
0.47352941 0.47352941 0.47352941
0.54632353 0.54632353 0.54632353
0.64148284 0.64148284 0.64148284
0.7301777 0.7301777 0.7301777
0.78181679 0.78181679 0.78181679
0.82218137 0.82218137 0.82218137
0.57745098 0.57745098 0.57745098
0.57745098 0.57745098 0.57745098
0.56887255 0.56887255 0.56887255
0.55217525 0.55217525 0.55217525
0.59080882 0.59080882 0.59080882
0.68088235 0.68088235 0.68088235
0.76053922 0.76053922 0.76053922
0.81372549 0.81372549 0.81372549
0.85906863 0.85906863 0.85906863
0.68639706 0.68639706 0.68639706
0.68639706 0.68639706 0.68639706
0.67876838 0.67876838 0.67876838
0.66469056 0.66469056 0.66469056
0.68088235 0.68088235 0.68088235
0.75012255 0.75012255 0.75012255
0.81066176 0.81066176 0.81066176
0.84803922 0.84803922 0.84803922
0.88284314 0.88284314 0.88284314
0.80686275 0.80686275 0.80686275
0.81078431 0.81078431 0.81078431
0.79607843 0.79607843 0.79607843
0.7872549 0.7872549 0.7872549
0.79509804 0.79509804 0.79509804
0.82107843 0.82107843 0.82107843
0.85588235 0.85588235 0.85588235
0.88284314 0.88284314 0.88284314
0.90980392 0.90980392 0.90980392
0.35539216 0.35539216 0.35539216
0.36666667 0.36666667 0.36666667
0.38137255 0.38137255 0.38137255
0.38829657 0.38829657 0.38829657
0.41617647 0.41617647 0.41617647
0.47205882 0.47205882 0.47205882
0.53835784 0.53835784 0.53835784
0.62352941 0.62352941 0.62352941
0.69803922 0.69803922 0.69803922
0.36323529 0.36323529 0.36323529
0.37042739 0.37042739 0.37042739
0.38564645 0.38564645 0.38564645
0.39968597 0.39968597 0.39968597
0.42784926 0.42784926 0.42784926
0.48444393 0.48444393 0.48444393
0.55597426 0.55597426 0.55597426
0.63511029 0.63511029 0.63511029
0.70833333 0.70833333 0.70833333
0.38186275 0.38186275 0.38186275
0.37892157 0.37892157 0.37892157
0.39289216 0.39289216 0.39289216
0.41744792 0.41744792 0.41744792
0.45441176 0.45441176 0.45441176
0.51029412 0.51029412 0.51029412
0.57086397 0.57086397 0.57086397
0.64159007 0.64159007 0.64159007
0.72009804 0.72009804 0.72009804
0.41911765 0.41911765 0.41911765
0.42058824 0.42058824 0.42058824
0.42303922 0.42303922 0.42303922
0.44622396 0.44622396 0.44622396
0.48970588 0.48970588 0.48970588
0.55112592 0.55112592 0.55112592
0.61098346 0.61098346 0.61098346
0.68039216 0.68039216 0.68039216
0.74307598 0.74307598 0.74307598
0.48259804 0.48259804 0.48259804
0.47515319 0.47515319 0.47515319
0.47922794 0.47922794 0.47922794
0.48550858 0.48550858 0.48550858
0.53627451 0.53627451 0.53627451
0.60640319 0.60640319 0.60640319
0.67518382 0.67518382 0.67518382
0.7379902 0.7379902 0.7379902
0.78235294 0.78235294 0.78235294
0.55833333 0.55833333 0.55833333
0.55833333 0.55833333 0.55833333
0.55654105 0.55654105 0.55654105
0.5314568 0.5314568 0.5314568
0.56890319 0.56890319 0.56890319
0.66170343 0.66170343 0.66170343
0.74238664 0.74238664 0.74238664
0.78805147 0.78805147 0.78805147
0.82800245 0.82800245 0.82800245
0.64705882 0.64705882 0.64705882
0.64705882 0.64705882 0.64705882
0.64329044 0.64329044 0.64329044
0.6245864 0.6245864 0.6245864
0.62892157 0.62892157 0.62892157
0.70519301 0.70519301 0.70519301
0.78268995 0.78268995 0.78268995
0.825 0.825 0.825
0.86372549 0.86372549 0.86372549
0.75147059 0.75147059 0.75147059
0.74454657 0.74454657 0.74454657
0.74015012 0.74015012 0.74015012
0.72064951 0.72064951 0.72064951
0.71813725 0.71813725 0.71813725
0.7585095 0.7585095 0.7585095
0.82023591 0.82023591 0.82023591
0.858678 0.858678 0.858678
0.89068627 0.89068627 0.89068627
0.82745098 0.82745098 0.82745098
0.82598039 0.82598039 0.82598039
0.82303922 0.82303922 0.82303922
0.81421569 0.81421569 0.81421569
0.81495098 0.81495098 0.81495098
0.83137255 0.83137255 0.83137255
0.86335784 0.86335784 0.86335784
0.88284314 0.88284314 0.88284314
0.90833333 0.90833333 0.90833333
0.39215686 0.39215686 0.39215686
0.40955882 0.40955882 0.40955882
0.42745098 0.42745098 0.42745098
0.4502451 0.4502451 0.4502451
0.47058824 0.47058824 0.47058824
0.51666667 0.51666667 0.51666667
0.59901961 0.59901961 0.59901961
0.68553922 0.68553922 0.68553922
0.72156863 0.72156863 0.72156863
0.40392157 0.40392157 0.40392157
0.41476716 0.41476716 0.41476716
0.425 0.425 0.425
0.45318627 0.45318627 0.45318627
0.48014706 0.48014706 0.48014706
0.52515319 0.52515319 0.52515319
0.61029412 0.61029412 0.61029412
0.69117647 0.69117647 0.69117647
0.74852941 0.74852941 0.74852941
0.41862745 0.41862745 0.41862745
0.43259804 0.43259804 0.43259804
0.45147059 0.45147059 0.45147059
0.47843137 0.47843137 0.47843137
0.50686275 0.50686275 0.50686275
0.5471201 0.5471201 0.5471201
0.6254902 0.6254902 0.6254902
0.69920343 0.69920343 0.69920343
0.7627451 0.7627451 0.7627451
0.45661765 0.45661765 0.45661765
0.46078431 0.46078431 0.46078431
0.47077206 0.47077206 0.47077206
0.49825368 0.49825368 0.49825368
0.53382353 0.53382353 0.53382353
0.58970588 0.58970588 0.58970588
0.65539216 0.65539216 0.65539216
0.71715686 0.71715686 0.71715686
0.7627451 0.7627451 0.7627451
0.53235294 0.53235294 0.53235294
0.51973039 0.51973039 0.51973039
0.53063725 0.53063725 0.53063725
0.54117647 0.54117647 0.54117647
0.57696078 0.57696078 0.57696078
0.62904412 0.62904412 0.62904412
0.68651961 0.68651961 0.68651961
0.74607843 0.74607843 0.74607843
0.79607843 0.79607843 0.79607843
0.6252451 0.6252451 0.6252451
0.61902574 0.61902574 0.61902574
0.61421569 0.61421569 0.61421569
0.61179534 0.61179534 0.61179534
0.62414216 0.62414216 0.62414216
0.68143382 0.68143382 0.68143382
0.75110294 0.75110294 0.75110294
0.79430147 0.79430147 0.79430147
0.83602941 0.83602941 0.83602941
0.70882353 0.70882353 0.70882353
0.71029412 0.71029412 0.71029412
0.70098039 0.70098039 0.70098039
0.69908088 0.69908088 0.69908088
0.69485294 0.69485294 0.69485294
0.72279412 0.72279412 0.72279412
0.78946078 0.78946078 0.78946078
0.83112745 0.83112745 0.83112745
0.86372549 0.86372549 0.86372549
0.79117647 0.79117647 0.79117647
0.78339461 0.78339461 0.78339461
0.77941176 0.77941176 0.77941176
0.77754289 0.77754289 0.77754289
0.77291667 0.77291667 0.77291667
0.77239583 0.77239583 0.77239583
0.81727941 0.81727941 0.81727941
0.86026348 0.86026348 0.86026348
0.89068627 0.89068627 0.89068627
0.84509804 0.84509804 0.84509804
0.84901961 0.84901961 0.84901961
0.84901961 0.84901961 0.84901961
0.84656863 0.84656863 0.84656863
0.8372549 0.8372549 0.8372549
0.8497549 0.8497549 0.8497549
0.85833333 0.85833333 0.85833333
0.88848039 0.88848039 0.88848039
0.91176471 0.91176471 0.91176471
0.46470588 0.46470588 0.46470588
0.47843137 0.47843137 0.47843137
0.50208333 0.50208333 0.50208333
0.53535539 0.53535539 0.53535539
0.57107843 0.57107843 0.57107843
0.60196078 0.60196078 0.60196078
0.63590686 0.63590686 0.63590686
0.72714461 0.72714461 0.72714461
0.79901961 0.79901961 0.79901961
0.49166667 0.49166667 0.49166667
0.4990579 0.4990579 0.4990579
0.51724877 0.51724877 0.51724877
0.54460018 0.54460018 0.54460018
0.57628676 0.57628676 0.57628676
0.60636489 0.60636489 0.60636489
0.6560049 0.6560049 0.6560049
0.73839614 0.73839614 0.73839614
0.79901961 0.79901961 0.79901961
0.51862745 0.51862745 0.51862745
0.5192402 0.5192402 0.5192402
0.53103554 0.53103554 0.53103554
0.55919118 0.55919118 0.55919118
0.59362745 0.59362745 0.59362745
0.62058824 0.62058824 0.62058824
0.67356005 0.67356005 0.67356005
0.74701287 0.74701287 0.74701287
0.81384804 0.81384804 0.81384804
0.52444853 0.52444853 0.52444853
0.52486979 0.52486979 0.52486979
0.55398284 0.55398284 0.55398284
0.58186275 0.58186275 0.58186275
0.61544118 0.61544118 0.61544118
0.65931373 0.65931373 0.65931373
0.70110294 0.70110294 0.70110294
0.76096048 0.76096048 0.76096048
0.79754902 0.79754902 0.79754902
0.57352941 0.57352941 0.57352941
0.56960784 0.56960784 0.56960784
0.58333333 0.58333333 0.58333333
0.60220588 0.60220588 0.60220588
0.64620098 0.64620098 0.64620098
0.69215686 0.69215686 0.69215686
0.72806373 0.72806373 0.72806373
0.78284314 0.78284314 0.78284314
0.81838235 0.81838235 0.81838235
0.65294118 0.65294118 0.65294118
0.65679381 0.65679381 0.65679381
0.6644761 0.6644761 0.6644761
0.66954657 0.66954657 0.66954657
0.68627451 0.68627451 0.68627451
0.73041513 0.73041513 0.73041513
0.77009804 0.77009804 0.77009804
0.80520833 0.80520833 0.80520833
0.84607843 0.84607843 0.84607843
0.75882353 0.75882353 0.75882353
0.75245098 0.75245098 0.75245098
0.74852941 0.74852941 0.74852941
0.74669118 0.74669118 0.74669118
0.75030637 0.75030637 0.75030637
0.76176471 0.76176471 0.76176471
0.80753676 0.80753676 0.80753676
0.84215686 0.84215686 0.84215686
0.86764706 0.86764706 0.86764706
0.81685049 0.81685049 0.81685049
0.81813725 0.81813725 0.81813725
0.81813725 0.81813725 0.81813725
0.82205882 0.82205882 0.82205882
0.82567402 0.82567402 0.82567402
0.81550245 0.81550245 0.81550245
0.83431373 0.83431373 0.83431373
0.87126225 0.87126225 0.87126225
0.89068627 0.89068627 0.89068627
0.87058824 0.87058824 0.87058824
0.8745098 0.8745098 0.8745098
0.87095588 0.87095588 0.87095588
0.86813725 0.86813725 0.86813725
0.85882353 0.85882353 0.85882353
0.86329657 0.86329657 0.86329657
0.87598039 0.87598039 0.87598039
0.89589461 0.89589461 0.89589461
0.91519608 0.91519608 0.91519608
0.59607843 0.59607843 0.59607843
0.60392157 0.60392157 0.60392157
0.60882353 0.60882353 0.60882353
0.63737745 0.63737745 0.63737745
0.67254902 0.67254902 0.67254902
0.70735294 0.70735294 0.70735294
0.73333333 0.73333333 0.73333333
0.76764706 0.76764706 0.76764706
0.80392157 0.80392157 0.80392157
0.61911765 0.61911765 0.61911765
0.62035846 0.62035846 0.62035846
0.63014706 0.63014706 0.63014706
0.65294118 0.65294118 0.65294118
0.68296569 0.68296569 0.68296569
0.71421569 0.71421569 0.71421569
0.74901961 0.74901961 0.74901961
0.78284314 0.78284314 0.78284314
0.79705882 0.79705882 0.79705882
0.63823529 0.63823529 0.63823529
0.63823529 0.63823529 0.63823529
0.64926471 0.64926471 0.64926471
0.67205882 0.67205882 0.67205882
0.69509804 0.69509804 0.69509804
0.72205882 0.72205882 0.72205882
0.74901961 0.74901961 0.74901961
0.77950368 0.77950368 0.77950368
0.82058824 0.82058824 0.82058824
0.65159314 0.65159314 0.65159314
0.653125 0.653125 0.653125
0.66712623 0.66712623 0.66712623
0.68664216 0.68664216 0.68664216
0.71341912 0.71341912 0.71341912
0.74411765 0.74411765 0.74411765
0.76127451 0.76127451 0.76127451
0.78039216 0.78039216 0.78039216
0.81911765 0.81911765 0.81911765
0.6627451 0.6627451 0.6627451
0.66648284 0.66648284 0.66648284
0.68333333 0.68333333 0.68333333
0.69969363 0.69969363 0.69969363
0.73210784 0.73210784 0.73210784
0.77040441 0.77040441 0.77040441
0.78517157 0.78517157 0.78517157
0.81556373 0.81556373 0.81556373
0.84215686 0.84215686 0.84215686
0.70686275 0.70686275 0.70686275
0.711106 0.711106 0.711106
0.71862745 0.71862745 0.71862745
0.72884498 0.72884498 0.72884498
0.75723039 0.75723039 0.75723039
0.78820466 0.78820466 0.78820466
0.80824142 0.80824142 0.80824142
0.84223346 0.84223346 0.84223346
0.86482843 0.86482843 0.86482843
0.76397059 0.76397059 0.76397059
0.77634804 0.77634804 0.77634804
0.7872549 0.7872549 0.7872549
0.79117647 0.79117647 0.79117647
0.79901961 0.79901961 0.79901961
0.81565564 0.81565564 0.81565564
0.83823529 0.83823529 0.83823529
0.86476716 0.86476716 0.86476716
0.87622549 0.87622549 0.87622549
0.83333333 0.83333333 0.83333333
0.84460784 0.84460784 0.84460784
0.84901961 0.84901961 0.84901961
0.84820772 0.84820772 0.84820772
0.85416667 0.85416667 0.85416667
0.86029412 0.86029412 0.86029412
0.86878064 0.86878064 0.86878064
0.88295037 0.88295037 0.88295037
0.89852941 0.89852941 0.89852941
0.89019608 0.89019608 0.89019608
0.8872549 0.8872549 0.8872549
0.88627451 0.88627451 0.88627451
0.8872549 0.8872549 0.8872549
0.87990196 0.87990196 0.87990196
0.87941176 0.87941176 0.87941176
0.89191176 0.89191176 0.89191176
0.90196078 0.90196078 0.90196078
0.91666667 0.91666667 0.91666667
0.72745098 0.72745098 0.72745098
0.734375 0.734375 0.734375
0.74215686 0.74215686 0.74215686
0.75735294 0.75735294 0.75735294
0.77205882 0.77205882 0.77205882
0.79852941 0.79852941 0.79852941
0.81764706 0.81764706 0.81764706
0.82892157 0.82892157 0.82892157
0.84754902 0.84754902 0.84754902
0.73964461 0.73964461 0.73964461
0.74575674 0.74575674 0.74575674
0.75747549 0.75747549 0.75747549
0.76268382 0.76268382 0.76268382
0.77990196 0.77990196 0.77990196
0.80664063 0.80664063 0.80664063
0.82536765 0.82536765 0.82536765
0.84014246 0.84014246 0.84014246
0.84754902 0.84754902 0.84754902
0.75477941 0.75477941 0.75477941
0.75747549 0.75747549 0.75747549
0.7705576 0.7705576 0.7705576
0.77696078 0.77696078 0.77696078
0.79460784 0.79460784 0.79460784
0.81470588 0.81470588 0.81470588
0.8372549 0.8372549 0.8372549
0.84754902 0.84754902 0.84754902
0.84803922 0.84803922 0.84803922
0.77009804 0.77009804 0.77009804
0.7740579 0.7740579 0.7740579
0.77794118 0.77794118 0.77794118
0.78523284 0.78523284 0.78523284
0.80318627 0.80318627 0.80318627
0.81483609 0.81483609 0.81483609
0.83272059 0.83272059 0.83272059
0.84025735 0.84025735 0.84025735
0.85410539 0.85410539 0.85410539
0.77009804 0.77009804 0.77009804
0.77401961 0.77401961 0.77401961
0.78529412 0.78529412 0.78529412
0.79592525 0.79592525 0.79592525
0.81311275 0.81311275 0.81311275
0.82892157 0.82892157 0.82892157
0.84589461 0.84589461 0.84589461
0.86176471 0.86176471 0.86176471
0.8752451 0.8752451 0.8752451
0.77941176 0.77941176 0.77941176
0.7872549 0.7872549 0.7872549
0.79273897 0.79273897 0.79273897
0.80870864 0.80870864 0.80870864
0.82515319 0.82515319 0.82515319
0.84155178 0.84155178 0.84155178
0.85539216 0.85539216 0.85539216
0.87285539 0.87285539 0.87285539
0.87892157 0.87892157 0.87892157
0.81764706 0.81764706 0.81764706
0.83022365 0.83022365 0.83022365
0.83783701 0.83783701 0.83783701
0.82941176 0.82941176 0.82941176
0.84099265 0.84099265 0.84099265
0.85422794 0.85422794 0.85422794
0.86911765 0.86911765 0.86911765
0.88676471 0.88676471 0.88676471
0.88762255 0.88762255 0.88762255
0.86715686 0.86715686 0.86715686
0.8754902 0.8754902 0.8754902
0.87892157 0.87892157 0.87892157
0.8754902 0.8754902 0.8754902
0.88183211 0.88183211 0.88183211
0.88333333 0.88333333 0.88333333
0.8872549 0.8872549 0.8872549
0.89541973 0.89541973 0.89541973
0.9028799 0.9028799 0.9028799
0.89362745 0.89362745 0.89362745
0.89803922 0.89803922 0.89803922
0.89803922 0.89803922 0.89803922
0.90196078 0.90196078 0.90196078
0.90588235 0.90588235 0.90588235
0.90196078 0.90196078 0.90196078
0.90208333 0.90208333 0.90208333
0.90980392 0.90980392 0.90980392
0.91372549 0.91372549 0.91372549
0.85490196 0.85490196 0.85490196
0.84313725 0.84313725 0.84313725
0.85098039 0.85098039 0.85098039
0.85098039 0.85098039 0.85098039
0.85686275 0.85686275 0.85686275
0.87598039 0.87598039 0.87598039
0.87843137 0.87843137 0.87843137
0.87843137 0.87843137 0.87843137
0.89803922 0.89803922 0.89803922
0.84705882 0.84705882 0.84705882
0.83872549 0.83872549 0.83872549
0.85563725 0.85563725 0.85563725
0.85490196 0.85490196 0.85490196
0.86446078 0.86446078 0.86446078
0.86666667 0.86666667 0.86666667
0.88186275 0.88186275 0.88186275
0.88584559 0.88584559 0.88584559
0.89803922 0.89803922 0.89803922
0.85 0.85 0.85
0.85526961 0.85526961 0.85526961
0.85490196 0.85490196 0.85490196
0.85845588 0.85845588 0.85845588
0.86078431 0.86078431 0.86078431
0.85919118 0.85919118 0.85919118
0.88651961 0.88651961 0.88651961
0.89019608 0.89019608 0.89019608
0.89411765 0.89411765 0.89411765
0.84166667 0.84166667 0.84166667
0.85637255 0.85637255 0.85637255
0.85208333 0.85208333 0.85208333
0.86758578 0.86758578 0.86758578
0.86593137 0.86593137 0.86593137
0.86127451 0.86127451 0.86127451
0.87904412 0.87904412 0.87904412
0.89442402 0.89442402 0.89442402
0.9004902 0.9004902 0.9004902
0.85490196 0.85490196 0.85490196
0.8627451 0.8627451 0.8627451
0.85539216 0.85539216 0.85539216
0.85882353 0.85882353 0.85882353
0.8754902 0.8754902 0.8754902
0.87916667 0.87916667 0.87916667
0.89607843 0.89607843 0.89607843
0.89632353 0.89632353 0.89632353
0.9 0.9 0.9
0.8627451 0.8627451 0.8627451
0.85882353 0.85882353 0.85882353
0.85490196 0.85490196 0.85490196
0.85790441 0.85790441 0.85790441
0.87058824 0.87058824 0.87058824
0.88719363 0.88719363 0.88719363
0.88909314 0.88909314 0.88909314
0.89803922 0.89803922 0.89803922
0.89411765 0.89411765 0.89411765
0.86764706 0.86764706 0.86764706
0.87156863 0.87156863 0.87156863
0.8754902 0.8754902 0.8754902
0.8754902 0.8754902 0.8754902
0.88480392 0.88480392 0.88480392
0.88333333 0.88333333 0.88333333
0.89509804 0.89509804 0.89509804
0.90196078 0.90196078 0.90196078
0.90196078 0.90196078 0.90196078
0.88676471 0.88676471 0.88676471
0.89025735 0.89025735 0.89025735
0.88639706 0.88639706 0.88639706
0.89019608 0.89019608 0.89019608
0.89460784 0.89460784 0.89460784
0.89411765 0.89411765 0.89411765
0.90196078 0.90196078 0.90196078
0.90680147 0.90680147 0.90680147
0.91764706 0.91764706 0.91764706
0.91372549 0.91372549 0.91372549
0.90588235 0.90588235 0.90588235
0.89803922 0.89803922 0.89803922
0.9004902 0.9004902 0.9004902
0.90196078 0.90196078 0.90196078
0.90196078 0.90196078 0.90196078
0.90294118 0.90294118 0.90294118
0.91029412 0.91029412 0.91029412
0.9254902 0.9254902 0.9254902
