site/assets/luts/sha256-d5c3de0a39d1dcb6a64bcc1bbec8a058ccc25ccbd77b8ef19aa58d3b2b0760df.cube
# LUTr-Schema-Version: 2
# LUTr-ID: sha256-d5c3de0a39d1dcb6a64bcc1bbec8a058ccc25ccbd77b8ef19aa58d3b2b0760df
# LUTr-Title: polaroid px-680 warm ++
# LUTr-Collection: Natron HaldCLUT
# LUTr-Collection-ID: natron-haldclut-presets
# LUTr-Source: https://github.com/NatronGitHub/clut
# LUTr-Retrieved: 2026-07-27
# LUTr-Source-File: submissions/natron-haldclut-presets/instant_consumer/polaroid_px-680_warm_++.png
# LUTr-Source-Format: HALD-PNG
# LUTr-Source-SHA256: d5c3de0a39d1dcb6a64bcc1bbec8a058ccc25ccbd77b8ef19aa58d3b2b0760df
# LUTr-License: CC-BY-SA-4.0
# LUTr-License-URL: https://github.com/NatronGitHub/clut#license
# LUTr-License-Basis: repo-license-file
# LUTr-Transform-Class: film-emulation
# LUTr-Tags: creative, film, film-emulation, hald-clut, natron, png, warm, cube
# LUTr-Input-Color-Space: srgb
# LUTr-Input-Gamut: rec709
# LUTr-Input-Transfer: srgb
# LUTr-Output-Color-Space: srgb
# LUTr-Output-Gamut: rec709
# LUTr-Output-Transfer: srgb
# LUTr-Color-Space-Confidence: assumed-display-referred
# LUTr-Domain-Normalized: true
# LUTr-Shaper: none
# LUTr-Original-Grid: 64x64x64
# LUTr-Conversion-Grid: 25x25x25
# LUTr-Conversion-Interpolation: trilinear
# LUTr-Conversion-Method: HALD-PNG LUT image decoded at 16-bit and sampled to 25x25x25 3D CUBE
# LUTr-Conversion-Tool: LUTr scripts/convert-all-to-cube.mjs 2.0.0
# LUTr-Conversion-Date: 2026-07-27
# LUTr-Note: Preserve this metadata and the upstream license notices when redistributing.
TITLE "polaroid px-680 warm ++"
LUT_3D_SIZE 5
DOMAIN_MIN 0 0 0
DOMAIN_MAX 1 1 1
0.36078431 0.27843137 0.13333333
0.36470588 0.27058824 0.12941176
0.49215686 0.27647059 0.12156863
0.85 0.32352941 0.083333333
0.98823529 0.4627451 0.16078431
0.35686275 0.3 0.12941176
0.38333333 0.29926471 0.12941176
0.55 0.32598039 0.10441176
0.83921569 0.38039216 0.064705882
0.98137255 0.50882353 0.18039216
0.32745098 0.43529412 0.10392157
0.37107843 0.44901961 0.10392157
0.55882353 0.49411765 0.051960784
0.82009804 0.54117647 0.0058823529
0.95686275 0.59019608 0.1372549
0.31568627 0.63921569 0.11176471
0.36470588 0.64583333 0.11568627
0.53823529 0.66715686 0.15637255
0.77083333 0.72058824 0.225
0.91372549 0.76372549 0.33333333
0.6 0.85098039 0.41176471
0.60686275 0.83529412 0.40294118
0.68823529 0.84705882 0.44509804
0.79411765 0.86666667 0.50392157
0.88627451 0.88235294 0.56862745
0.35686275 0.2745098 0.14117647
0.37941176 0.2745098 0.15196078
0.52254902 0.26372549 0.1622549
0.85073529 0.33921569 0.21176471
0.96862745 0.51960784 0.31764706
0.36151961 0.30490196 0.1620098
0.39093137 0.30655637 0.16219363
0.59632353 0.33627451 0.17401961
0.85318627 0.42352941 0.21764706
0.95784314 0.54313725 0.30906863
0.34803922 0.4622549 0.16666667
0.40134804 0.4689951 0.17058824
0.60147059 0.52034314 0.16715686
0.8317402 0.54313725 0.17352941
0.94509804 0.60882353 0.27205882
0.35612745 0.64828431 0.1872549
0.42291667 0.65759804 0.21023284
0.57843137 0.67892157 0.2564951
0.77469363 0.72132353 0.31807598
0.90980392 0.77156863 0.38627451
0.57647059 0.83137255 0.40686275
0.60906863 0.83504902 0.42058824
0.68627451 0.84509804 0.46470588
0.80196078 0.87083333 0.53431373
0.88921569 0.88921569 0.60196078
0.38431373 0.27647059 0.27647059
0.44901961 0.28627451 0.30147059
0.60588235 0.35490196 0.33921569
0.82794118 0.35441176 0.38872549
0.9627451 0.54313725 0.47647059
0.37892157 0.32647059 0.31911765
0.45330882 0.34693627 0.33308824
0.66642157 0.42696078 0.3745098
0.84252451 0.45686275 0.42156863
0.95 0.6004902 0.49803922
0.38039216 0.47745098 0.32352941
0.44754902 0.4872549 0.3370098
0.66568627 0.54705882 0.40098039
0.82941176 0.61911765 0.4502451
0.93529412 0.7 0.51666667
0.47941176 0.65539216 0.36372549
0.52696078 0.66397059 0.37254902
0.6495098 0.68823529 0.4125
0.79718137 0.72806373 0.45882353
0.91372549 0.77303922 0.49411765
0.6254902 0.84705882 0.49803922
0.63235294 0.84656863 0.49019608
0.69607843 0.85098039 0.51568627
0.80196078 0.87058824 0.57696078
0.88235294 0.89019608 0.64509804
0.48627451 0.34019608 0.56470588
0.58504902 0.37352941 0.57230392
0.7627451 0.50784314 0.59117647
0.84509804 0.63063725 0.60392157
0.9245098 0.62647059 0.62941176
0.49411765 0.41495098 0.57156863
0.57665441 0.43768382 0.5754902
0.75416667 0.56372549 0.59473039
0.84411765 0.66213235 0.61096814
0.9245098 0.65612745 0.63333333
0.41617647 0.53921569 0.54460784
0.48933824 0.54411765 0.54644608
0.73063725 0.6245098 0.59313725
0.83970588 0.71960784 0.62941176
0.90686275 0.71715686 0.64166667
0.4497549 0.66397059 0.50784314
0.50465686 0.66734069 0.50784314
0.66458333 0.69338235 0.54901961
0.81893382 0.76764706 0.62015931
0.9002451 0.81764706 0.67867647
0.54313725 0.83137255 0.56960784
0.59313725 0.84338235 0.5745098
0.68137255 0.84558824 0.5995098
0.80196078 0.87965686 0.65710784
0.90588235 0.89509804 0.73137255
0.74509804 0.61568627 0.77647059
0.7754902 0.63529412 0.77254902
0.83333333 0.69607843 0.75882353
0.88627451 0.78137255 0.76372549
0.90196078 0.82352941 0.76470588
0.74215686 0.64705882 0.77254902
0.76691176 0.65784314 0.76936275
0.83578431 0.71911765 0.77254902
0.88235294 0.79705882 0.76862745
0.90588235 0.83823529 0.77647059
0.69607843 0.70392157 0.78039216
0.71323529 0.69901961 0.76911765
0.80588235 0.73627451 0.77352941
0.87303922 0.8127451 0.76519608
0.89803922 0.84313725 0.77058824
0.56862745 0.78921569 0.76666667
0.58333333 0.75808824 0.72647059
0.68970588 0.77843137 0.77156863
0.84901961 0.82622549 0.78137255
0.90588235 0.87941176 0.79215686
0.58431373 0.87058824 0.76078431
0.60686275 0.8745098 0.76470588
0.67843137 0.86862745 0.77058824
0.79411765 0.88529412 0.77941176
0.90196078 0.88627451 0.78039216
