site/assets/luts/sha256-b1027d8067a6372b0a7758af5e2442dd2be07fc7e060f9071b5ab5cd022aa9eb.cube
# LUTr-Schema-Version: 2
# LUTr-ID: sha256-b1027d8067a6372b0a7758af5e2442dd2be07fc7e060f9071b5ab5cd022aa9eb
# LUTr-Title: polaroid px-100uv+ cold +++
# LUTr-Collection: Natron HaldCLUT
# LUTr-Collection-ID: natron-haldclut-presets
# LUTr-Source: https://github.com/NatronGitHub/clut
# LUTr-Retrieved: 2026-07-27
# LUTr-Source-File: submissions/natron-haldclut-presets/instant_consumer/polaroid_px-100uv+_cold_+++.png
# LUTr-Source-Format: HALD-PNG
# LUTr-Source-SHA256: b1027d8067a6372b0a7758af5e2442dd2be07fc7e060f9071b5ab5cd022aa9eb
# LUTr-License: CC-BY-SA-4.0
# LUTr-License-URL: https://github.com/NatronGitHub/clut#license
# LUTr-License-Basis: repo-license-file
# LUTr-Transform-Class: film-emulation
# LUTr-Tags: creative, film, film-emulation, hald-clut, natron, png, cool, cube
# LUTr-Input-Color-Space: srgb
# LUTr-Input-Gamut: rec709
# LUTr-Input-Transfer: srgb
# LUTr-Output-Color-Space: srgb
# LUTr-Output-Gamut: rec709
# LUTr-Output-Transfer: srgb
# LUTr-Color-Space-Confidence: assumed-display-referred
# LUTr-Domain-Normalized: true
# LUTr-Shaper: none
# LUTr-Original-Grid: 64x64x64
# LUTr-Conversion-Grid: 25x25x25
# LUTr-Conversion-Interpolation: trilinear
# LUTr-Conversion-Method: HALD-PNG LUT image decoded at 16-bit and sampled to 25x25x25 3D CUBE
# LUTr-Conversion-Tool: LUTr scripts/convert-all-to-cube.mjs 2.0.0
# LUTr-Conversion-Date: 2026-07-27
# LUTr-Note: Preserve this metadata and the upstream license notices when redistributing.
TITLE "polaroid px-100uv+ cold +++"
LUT_3D_SIZE 5
DOMAIN_MIN 0 0 0
DOMAIN_MAX 1 1 1
0.38039216 0.41176471 0.41176471
0.39215686 0.42352941 0.41960784
0.40392157 0.43137255 0.42745098
0.48333333 0.50686275 0.4872549
0.61960784 0.62745098 0.57647059
0.39509804 0.42352941 0.42254902
0.39607843 0.42745098 0.42352941
0.41372549 0.44117647 0.4372549
0.49191176 0.51176471 0.49117647
0.60784314 0.61568627 0.56862745
0.43333333 0.46078431 0.44901961
0.43333333 0.45931373 0.44901961
0.45 0.4745098 0.46372549
0.51470588 0.53480392 0.50882353
0.65686275 0.66078431 0.59803922
0.53137255 0.54803922 0.51862745
0.52352941 0.54313725 0.51544118
0.54607843 0.56470588 0.53088235
0.61495098 0.62352941 0.57058824
0.72352941 0.71960784 0.63235294
0.75294118 0.74509804 0.64705882
0.75294118 0.74509804 0.64705882
0.75686275 0.74901961 0.65098039
0.78431373 0.77352941 0.6627451
0.79215686 0.78039216 0.66666667
0.39509804 0.42254902 0.42254902
0.4 0.43039216 0.42647059
0.43088235 0.45686275 0.44901961
0.52254902 0.53897059 0.51372549
0.64607843 0.65 0.58823529
0.41151961 0.44215686 0.4375
0.41023284 0.43823529 0.43357843
0.44803922 0.47230392 0.46029412
0.52965686 0.5466299 0.51764706
0.66397059 0.66936275 0.5997549
0.45588235 0.48333333 0.46764706
0.45784314 0.48333333 0.46764706
0.47745098 0.5002451 0.48259804
0.55453431 0.56764706 0.53382353
0.65294118 0.65735294 0.59411765
0.58137255 0.59411765 0.55
0.57800245 0.5901348 0.54926471
0.58382353 0.59558824 0.55392157
0.65300245 0.6591299 0.59393382
0.74534314 0.73823529 0.64313725
0.75784314 0.75 0.65098039
0.76078431 0.75294118 0.65098039
0.76470588 0.75686275 0.65392157
0.78823529 0.78039216 0.66495098
0.80392157 0.79215686 0.67058824
0.45294118 0.47647059 0.46862745
0.4745098 0.49558824 0.48039216
0.50686275 0.5254902 0.50196078
0.57696078 0.58823529 0.54852941
0.71176471 0.70784314 0.6254902
0.46666667 0.49166667 0.47843137
0.48737745 0.50735294 0.49117647
0.51323529 0.53161765 0.50833333
0.60318627 0.61470588 0.56556373
0.73529412 0.73088235 0.63921569
0.51372549 0.53333333 0.50882353
0.50980392 0.53088235 0.50882353
0.56568627 0.57794118 0.54313725
0.64068627 0.64730392 0.5872549
0.74019608 0.73529412 0.64019608
0.6504902 0.65588235 0.59215686
0.64705882 0.65416667 0.58970588
0.66740196 0.67034314 0.6
0.69620098 0.69730392 0.61519608
0.76519608 0.75735294 0.65147059
0.79411765 0.78235294 0.66666667
0.78823529 0.77647059 0.6627451
0.7872549 0.77647059 0.6627451
0.8 0.78823529 0.67058824
0.80784314 0.79607843 0.6745098
0.63921569 0.64607843 0.58235294
0.65318627 0.65612745 0.58995098
0.68137255 0.68137255 0.60735294
0.72941176 0.72843137 0.63627451
0.77254902 0.76470588 0.65490196
0.65392157 0.66176471 0.59411765
0.66550245 0.66862745 0.59803922
0.69031863 0.69178922 0.61629902
0.71838235 0.71666667 0.62843137
0.78137255 0.77254902 0.65882353
0.67352941 0.67745098 0.60588235
0.6807598 0.68431373 0.60980392
0.70441176 0.70514706 0.62083333
0.74754902 0.7435049 0.64375
0.78431373 0.77352941 0.65980392
0.72769608 0.7252451 0.63333333
0.71476716 0.71470588 0.62714461
0.75857843 0.75294118 0.64889706
0.78308824 0.77506127 0.66109069
0.8002451 0.78602941 0.66838235
0.8127451 0.79705882 0.6754902
0.80392157 0.79215686 0.67058824
0.81568627 0.8 0.67843137
0.81568627 0.8 0.67843137
0.81568627 0.8 0.67843137
0.81568627 0.8 0.67843137
0.79117647 0.77941176 0.66568627
0.80392157 0.79019608 0.67058824
0.81862745 0.80294118 0.67843137
0.80392157 0.78823529 0.67058824
0.77941176 0.77156863 0.66176471
0.81470588 0.80073529 0.67843137
0.79558824 0.78235294 0.66666667
0.81568627 0.8 0.67843137
0.82254902 0.80686275 0.67843137
0.80588235 0.79215686 0.67058824
0.81176471 0.79607843 0.6745098
0.80392157 0.79215686 0.67058824
0.81176471 0.8 0.6745098
0.82352941 0.80784314 0.67843137
0.80392157 0.79215686 0.67058824
0.81102941 0.8 0.6745098
0.81960784 0.80441176 0.67843137
0.82745098 0.81176471 0.68235294
0.83235294 0.81568627 0.68627451
0.8 0.78823529 0.67058824
0.82254902 0.80686275 0.67843137
0.82745098 0.81176471 0.68235294
0.83431373 0.81568627 0.68627451
0.83137255 0.81176471 0.68627451
