site/assets/luts/sha256-1d3a43816efba5471f1e34be9ea7c2f77720c1f984b1e1e84a3f685350bb090b.cube
# LUTr-Schema-Version: 2
# LUTr-ID: sha256-1d3a43816efba5471f1e34be9ea7c2f77720c1f984b1e1e84a3f685350bb090b
# LUTr-Title: fuji fp-100c negative -
# LUTr-Collection: Natron HaldCLUT
# LUTr-Collection-ID: natron-haldclut-presets
# LUTr-Source: https://github.com/NatronGitHub/clut
# LUTr-Retrieved: 2026-07-27
# LUTr-Source-File: submissions/natron-haldclut-presets/instant_pro/fuji_fp-100c_negative_-.png
# LUTr-Source-Format: HALD-PNG
# LUTr-Source-SHA256: 1d3a43816efba5471f1e34be9ea7c2f77720c1f984b1e1e84a3f685350bb090b
# LUTr-License: CC-BY-SA-4.0
# LUTr-License-URL: https://github.com/NatronGitHub/clut#license
# LUTr-License-Basis: repo-license-file
# LUTr-Transform-Class: film-emulation
# LUTr-Tags: creative, film, film-emulation, hald-clut, natron, png, cube
# LUTr-Input-Color-Space: srgb
# LUTr-Input-Gamut: rec709
# LUTr-Input-Transfer: srgb
# LUTr-Output-Color-Space: srgb
# LUTr-Output-Gamut: rec709
# LUTr-Output-Transfer: srgb
# LUTr-Color-Space-Confidence: assumed-display-referred
# LUTr-Domain-Normalized: true
# LUTr-Shaper: none
# LUTr-Original-Grid: 64x64x64
# LUTr-Conversion-Grid: 25x25x25
# LUTr-Conversion-Interpolation: trilinear
# LUTr-Conversion-Method: HALD-PNG LUT image decoded at 16-bit and sampled to 25x25x25 3D CUBE
# LUTr-Conversion-Tool: LUTr scripts/convert-all-to-cube.mjs 2.0.0
# LUTr-Conversion-Date: 2026-07-27
# LUTr-Note: Preserve this metadata and the upstream license notices when redistributing.
TITLE "fuji fp-100c negative -"
LUT_3D_SIZE 9
DOMAIN_MIN 0 0 0
DOMAIN_MAX 1 1 1
0.0039215686 0.11372549 0.094117647
0.045588235 0.10980392 0.094117647
0.16666667 0.10588235 0.097058824
0.3377451 0.081372549 0.094117647
0.51960784 0.056862745 0.098039216
0.69362745 0.0073529412 0.098039216
0.82058824 0.14607843 0.11862745
0.92745098 0.29264706 0.16960784
0.99607843 0.42745098 0.2
0.01127451 0.12843137 0.10147059
0.049448529 0.125 0.10104167
0.18419118 0.12855392 0.10245098
0.35392157 0.12205882 0.09442402
0.54068627 0.1002451 0.098039216
0.69185049 0.13302696 0.10588235
0.81862745 0.21323529 0.13480392
0.93523284 0.33039216 0.14908088
0.99215686 0.44656863 0.21519608
0.015686275 0.19313725 0.13235294
0.060784314 0.1939951 0.13235294
0.1872549 0.21740196 0.10784314
0.38480392 0.23909314 0.097426471
0.56960784 0.24509804 0.097058824
0.70784314 0.26323529 0.10551471
0.81862745 0.32132353 0.13823529
0.92696078 0.41421569 0.1622549
0.98921569 0.49019608 0.2372549
0.014215686 0.30637255 0.18529412
0.093627451 0.31029412 0.1877451
0.22107843 0.3439951 0.18198529
0.38578431 0.39901961 0.13872549
0.59019608 0.43431373 0.05122549
0.71268382 0.42254902 0.093198529
0.82647059 0.45882353 0.12647059
0.93039216 0.50637255 0.18805147
0.98676471 0.55637255 0.23382353
0.050980392 0.44509804 0.24901961
0.15539216 0.45122549 0.26642157
0.24852941 0.46176471 0.26519608
0.36911765 0.49852941 0.24460784
0.55098039 0.53823529 0.2
0.71960784 0.58112745 0.12867647
0.83039216 0.59068627 0.15735294
0.93529412 0.61029412 0.19656863
0.99411765 0.64705882 0.25686275
0.21519608 0.55882353 0.3377451
0.26764706 0.56519608 0.35294118
0.34362745 0.57414216 0.36127451
0.41868873 0.58964461 0.37542892
0.5375 0.62205882 0.34901961
0.67738971 0.65931373 0.30637255
0.82990196 0.70588235 0.2567402
0.94675245 0.72794118 0.27156863
0.99068627 0.73382353 0.31666667
0.36568627 0.66666667 0.43823529
0.3942402 0.67316176 0.44607843
0.44019608 0.67818627 0.45392157
0.50551471 0.68529412 0.46360294
0.57941176 0.70735294 0.45637255
0.68431373 0.74166667 0.43590686
0.80171569 0.77647059 0.41078431
0.92352941 0.80735294 0.39264706
0.98823529 0.82254902 0.4
0.50539216 0.79411765 0.53970588
0.52352941 0.78627451 0.54705882
0.5627451 0.78970588 0.55490196
0.60686275 0.8004902 0.56488971
0.67009804 0.81544118 0.57254902
0.73921569 0.83431373 0.56323529
0.82647059 0.86078431 0.5557598
0.91911765 0.88382353 0.53621324
0.99215686 0.89852941 0.53578431
0.70588235 0.90588235 0.68627451
0.69362745 0.89411765 0.67058824
0.7254902 0.89509804 0.68235294
0.77745098 0.90588235 0.70588235
0.82745098 0.91372549 0.72352941
0.85245098 0.91519608 0.70980392
0.89607843 0.92941176 0.71470588
0.94607843 0.9372549 0.70980392
0.98823529 0.94509804 0.71372549
0.015686275 0.10588235 0.12156863
0.041176471 0.10980392 0.11666667
0.17156863 0.10588235 0.12365196
0.35196078 0.073529412 0.13235294
0.54068627 0.036029412 0.15196078
0.69215686 0.09754902 0.17628676
0.81568627 0.19031863 0.19558824
0.92702206 0.31219363 0.22996324
0.99215686 0.43137255 0.26911765
0.012745098 0.12892157 0.13976716
0.048583027 0.12892157 0.13578431
0.19293811 0.13492647 0.13175551
0.36636029 0.13171722 0.14344363
0.54656863 0.13434436 0.16127451
0.7 0.16568627 0.17628676
0.81862745 0.24422488 0.19901961
0.92745098 0.34994638 0.23039216
0.98823529 0.44705882 0.27696078
0.015686275 0.19227941 0.16703431
0.087300858 0.20477941 0.16671262
0.20968137 0.22215074 0.16176471
0.40453431 0.24509804 0.15428922
0.57352941 0.25147059 0.16366422
0.71021752 0.27719056 0.17213542
0.81862745 0.33287377 0.19911152
0.92712929 0.4254902 0.23431373
0.99607843 0.50061275 0.27610294
0.065686275 0.31783088 0.2158701
0.12941176 0.32914369 0.22371324
0.22397365 0.34526654 0.21946998
0.40369945 0.39920343 0.18921569
0.59298407 0.42132353 0.16348039
0.71721814 0.42009804 0.17873775
0.82550551 0.45098039 0.19558824
0.93088235 0.51378676 0.23404565
0.99558824 0.57941176 0.29509804
0.10588235 0.45661765 0.27720588
0.1828125 0.46271446 0.29142157
0.28167892 0.47567402 0.29730392
0.38661152 0.49852941 0.28970588
0.55772059 0.54313725 0.24607843
0.70710784 0.56813725 0.21994485
0.83284314 0.58676471 0.23676471
0.93872549 0.61222426 0.25980392
0.99387255 0.64289216 0.30637255
0.26403186 0.56911765 0.36862745
0.29068627 0.56911765 0.37254902
0.35404412 0.57634804 0.38333333
0.43480392 0.59025735 0.38959099
0.53676471 0.62196691 0.37028186
0.68412224 0.66170343 0.33787531
0.83414522 0.70686275 0.30850184
0.94248621 0.72205882 0.32575827
0.99234069 0.72616422 0.34540441
0.37904412 0.67316176 0.45
0.40206801 0.67708333 0.45724571
0.45147059 0.67843137 0.4682598
0.50980392 0.68529412 0.47719056
0.58265931 0.71078431 0.47438725
0.68529412 0.74166667 0.45957414
0.81620711 0.78495711 0.43382353
0.9466299 0.82126225 0.40814951
0.99607843 0.82647059 0.42806373
0.51617647 0.79411765 0.55140931
0.51917892 0.79754902 0.55097273
0.5622549 0.79803922 0.56499694
0.61421569 0.80196078 0.57412684
0.66835172 0.81326593 0.58186275
0.73921569 0.8345818 0.57665441
0.82391238 0.86127451 0.56570159
0.91954657 0.87990196 0.5504902
0.99558824 0.89509804 0.53878676
0.71372549 0.90980392 0.69362745
0.71421569 0.90588235 0.68976716
0.73688725 0.90551471 0.69375
0.78627451 0.91109069 0.71090686
0.82328431 0.91348039 0.71936275
0.85735294 0.91893382 0.71893382
0.89375 0.92438725 0.70723039
0.9495098 0.9372549 0.71715686
0.98872549 0.9372549 0.69852941
0.046078431 0.10196078 0.20882353
0.11335784 0.10196078 0.20306373
0.20588235 0.11053922 0.20784314
0.36801471 0.098529412 0.22095588
0.57156863 0.044607843 0.24411765
0.71715686 0.085416667 0.27095588
0.82671569 0.22647059 0.31151961
0.93088235 0.34522059 0.34852941
0.99215686 0.44803922 0.38431373
0.019117647 0.12892157 0.22303922
0.09051777 0.13278186 0.23039216
0.22009804 0.14791667 0.2270527
0.39486826 0.14068627 0.24117647
0.56960784 0.14699755 0.26617647
0.71127451 0.18573836 0.28488051
0.82328431 0.27941176 0.31470588
0.93088235 0.38082108 0.34558824
0.99571078 0.47267157 0.38823529
0.014705882 0.2 0.24191176
0.069607843 0.20870098 0.25775123
0.24595588 0.24025735 0.26102941
0.42478554 0.26697304 0.27159926
0.57990196 0.28627451 0.29068627
0.7057598 0.31642157 0.30655637
0.82052696 0.37352941 0.3278799
0.93023897 0.4495098 0.35343137
0.99509804 0.50980392 0.38333333
0.14375 0.34166667 0.31029412
0.18619792 0.34719669 0.3098652
0.29476103 0.37098652 0.31470588
0.44889706 0.4123315 0.29833027
0.59234069 0.425 0.30251225
0.71176471 0.44365809 0.31727941
0.81878064 0.47291667 0.33002451
0.92696078 0.52611826 0.3564185
0.99215686 0.57647059 0.39669118
0.25098039 0.47352941 0.36764706
0.26966912 0.47769608 0.36740196
0.33321078 0.48909314 0.37156863
0.43063725 0.51029412 0.37156863
0.57818627 0.54509804 0.3502451
0.71268382 0.57083333 0.33921569
0.82745098 0.58921569 0.3432598
0.93480392 0.61807598 0.35955882
0.99607843 0.64705882 0.40098039
0.32843137 0.57990196 0.42414216
0.34208027 0.58080576 0.42155331
0.39154412 0.58428309 0.42916667
0.46946998 0.59620098 0.44019608
0.56194853 0.62506127 0.43560049
0.69509804 0.66770833 0.41176471
0.84178922 0.71421569 0.3916973
0.93872549 0.72205882 0.40134804
0.99215686 0.72598039 0.41605392
0.40294118 0.68235294 0.48431373
0.42043505 0.68235294 0.4872549
0.46348039 0.68235294 0.49375
0.52677696 0.69203431 0.5057598
0.60098039 0.71262255 0.51115196
0.69313725 0.74558824 0.50101103
0.81176471 0.78357843 0.48235294
0.93535539 0.81963848 0.46878064
0.99215686 0.82647059 0.49044118
0.5122549 0.79791667 0.56568627
0.52696078 0.79808517 0.56956189
0.56112132 0.80196078 0.5763174
0.61470588 0.80196078 0.58783701
0.67947304 0.81348039 0.60318627
0.74287684 0.83823529 0.60471814
0.83030025 0.86078431 0.59292279
0.91997549 0.88380821 0.59238664
0.99166667 0.89509804 0.59656863
0.72352941 0.91666667 0.70392157
0.71421569 0.90637255 0.69448529
0.74019608 0.90514706 0.70098039
0.78468137 0.91164216 0.71666667
0.82598039 0.91176471 0.72745098
0.86029412 0.91764706 0.7254902
0.89583333 0.92132353 0.71323529
0.94595588 0.93333333 0.71666667
0.98431373 0.94117647 0.7254902
0.11568627 0.094117647 0.3377451
0.18756127 0.087745098 0.34558824
0.32745098 0.083823529 0.35698529
0.44852941 0.13431373 0.36127451
0.60955882 0.16102941 0.38676471
0.74859069 0.1995098 0.40980392
0.86029412 0.25453431 0.425
0.95490196 0.35851716 0.45882353
0.98431373 0.43823529 0.48578431
0.073345588 0.12469363 0.35704657
0.17790288 0.12843137 0.36123621
0.32441789 0.14571078 0.3754902
0.46226256 0.18615962 0.38186275
0.6013174 0.22107843 0.40098039
0.73892463 0.26580116 0.42431066
0.84857537 0.30758272 0.43541667
0.9495098 0.39103094 0.46127451
0.99215686 0.46979167 0.49577206
0.0039215686 0.20539216 0.37022059
0.014185049 0.20111826 0.37414216
0.28201593 0.24427083 0.40015319
0.48180147 0.28970588 0.41842831
0.6036152 0.33823529 0.4254902
0.72487745 0.37990196 0.44643076
0.82907475 0.41286765 0.46053922
0.9408701 0.46928615 0.47414216
0.99215686 0.5245098 0.50208333
0.036764706 0.334375 0.38627451
0.13609069 0.34656863 0.4004902
0.28443627 0.37352941 0.42058824
0.45769761 0.42779565 0.43766085
0.60514706 0.45857843 0.44362745
0.7057981 0.47459406 0.45778186
0.81885723 0.5033701 0.46862745
0.93199295 0.54048713 0.47843137
0.99607843 0.57506127 0.50055147
0.23088235 0.47132353 0.44289216
0.29846814 0.48602941 0.44518995
0.37420343 0.49846814 0.45949755
0.47104779 0.5294424 0.46905637
0.58848039 0.55968137 0.46678922
0.71568627 0.58235294 0.4620098
0.82873775 0.59099265 0.46078431
0.93308824 0.62221201 0.47696078
0.99607843 0.65147059 0.5
0.4028799 0.59264706 0.4971201
0.42052696 0.59393382 0.50129442
0.45637255 0.6004902 0.50307904
0.51023284 0.61378676 0.50498621
0.59414828 0.63627451 0.51029412
0.70415135 0.6714231 0.49567249
0.84385723 0.71176471 0.49117647
0.94442402 0.71832108 0.49117647
0.99607843 0.72990196 0.49754902
0.45392157 0.68921569 0.54129902
0.46560968 0.68664216 0.53933824
0.49617034 0.69595588 0.54175858
0.54512868 0.70827206 0.54480699
0.62303922 0.72058824 0.56323529
0.70381434 0.7495098 0.55980392
0.82717525 0.78823529 0.54485294
0.94509804 0.82254902 0.53566176
0.99607843 0.82291667 0.55441176
0.53204657 0.80196078 0.60214461
0.54211857 0.80196078 0.60245098
0.56706495 0.8058364 0.60392157
0.62303922 0.80802696 0.61568627
0.6877451 0.81936275 0.63318015
0.75557598 0.83823529 0.63743873
0.83912377 0.86283701 0.63167892
0.92350643 0.87990196 0.62794118
0.99185049 0.89509804 0.63186275
0.70147059 0.90294118 0.69901961
0.73020833 0.91501225 0.71715686
0.72745098 0.90281863 0.70526961
0.78468137 0.91372549 0.72493873
0.82426471 0.90980392 0.73210784
0.86905637 0.91519608 0.73970588
0.91139706 0.92941176 0.73970588
0.95343137 0.93333333 0.73694853
0.99607843 0.94362745 0.74215686
0.25490196 0.066666667 0.47843137
0.28235294 0.054901961 0.48627451
0.42058824 0.060294118 0.50196078
0.56593137 0.16985294 0.52009804
0.6627451 0.24901961 0.51862745
0.7375 0.30441176 0.525
0.87696078 0.37892157 0.56813725
0.97303922 0.42622549 0.58627451
0.99411765 0.4745098 0.6
0.20563725 0.11838235 0.48627451
0.2752451 0.11838235 0.49166667
0.41930147 0.13014706 0.50778186
0.5768076 0.22273284 0.52726716
0.6495098 0.31740196 0.52941176
0.74264706 0.35548407 0.54307598
0.88161765 0.41035539 0.57855392
0.975 0.46541054 0.59806985
0.99607843 0.5127451 0.60759804
0.037745098 0.18823529 0.49607843
0.19908088 0.20833333 0.50514706
0.38345588 0.24473039 0.51911765
0.55318627 0.32120098 0.53406863
0.63823529 0.39387255 0.53897059
0.7377451 0.43872549 0.55582108
0.86875 0.47352941 0.57904412
0.96617647 0.50245098 0.59411765
0.99607843 0.51519608 0.59754902
0.0078431373 0.31617647 0.49534314
0.01752451 0.32466299 0.5
0.23780637 0.36292892 0.5153799
0.49068627 0.43676471 0.54166667
0.63933824 0.50759804 0.55882353
0.74044118 0.5245098 0.56862745
0.85514706 0.54632353 0.58498775
0.96020221 0.55557598 0.59044118
0.99607843 0.6002451 0.60906863
0.18431373 0.46176471 0.50098039
0.24044118 0.47745098 0.50857843
0.34436275 0.49215686 0.52843137
0.47181373 0.52855392 0.54693627
0.6127451 0.57058824 0.56568627
0.72941176 0.59227941 0.56936275
0.84264706 0.61519608 0.57965686
0.94252451 0.63590686 0.58664216
0.99607843 0.66666667 0.60490196
0.34191176 0.57965686 0.54142157
0.38514093 0.5854473 0.54445466
0.45079657 0.60018382 0.55839461
0.53308824 0.61862745 0.56936275
0.62745098 0.64877451 0.58284314
0.73033088 0.68385417 0.5877451
0.84607843 0.70876225 0.58504902
0.94592525 0.71519608 0.58710172
0.98823529 0.72990196 0.59681373
0.45490196 0.68578431 0.59117647
0.475 0.68921569 0.59166667
0.51470588 0.7002451 0.59546569
0.58511029 0.71666667 0.60643382
0.64534314 0.72745098 0.61593137
0.72322304 0.75490196 0.61911765
0.83823529 0.79509804 0.61911765
0.95012255 0.81868873 0.61476716
0.99509804 0.81862745 0.625
0.54852941 0.79803922 0.64607843
0.56075368 0.80582108 0.65021446
0.57726716 0.80980392 0.65
0.63538603 0.81372549 0.65196078
0.69154412 0.82598039 0.66262255
0.76488971 0.84166667 0.67107843
0.84276961 0.86488971 0.68137255
0.93869485 0.88768382 0.67769608
0.98823529 0.89705882 0.6754902
0.71764706 0.90588235 0.72745098
0.73063725 0.90759804 0.73088235
0.74901961 0.90980392 0.73137255
0.78137255 0.91691176 0.73529412
0.83235294 0.92254902 0.74607843
0.85784314 0.91053922 0.74264706
0.91715686 0.92647059 0.76078431
0.96151961 0.93333333 0.75490196
0.99607843 0.94117647 0.76078431
0.36127451 0.012745098 0.59019608
0.40882353 0.0090073529 0.59393382
0.51568627 0.006127451 0.60441176
0.64558824 0.15294118 0.62310049
0.74485294 0.34264706 0.64044118
0.80343137 0.42941176 0.64362745
0.8560049 0.4495098 0.64852941
0.97665441 0.51519608 0.68970588
1 0.55343137 0.69705882
0.35784314 0.087254902 0.6004902
0.40637255 0.09230239 0.59991575
0.51591605 0.12460172 0.61136642
0.64215686 0.22401961 0.62647059
0.74617034 0.37224265 0.64543505
0.80588235 0.45245098 0.64901961
0.85882353 0.47879902 0.65098039
0.97620251 0.53676471 0.69362745
1 0.58645833 0.70618873
0.27843137 0.2 0.59656863
0.34381127 0.20477941 0.60396752
0.4754902 0.24509804 0.61645221
0.62418811 0.32058824 0.63393076
0.7278799 0.44509804 0.64754902
0.80094975 0.50810355 0.65686275
0.86927083 0.53226103 0.66384804
0.98382353 0.58590686 0.70147059
0.99607843 0.62696078 0.70784314
0.0050245098 0.28829657 0.58872549
0.094569547 0.3053845 0.59019608
0.36089154 0.35833333 0.60813419
0.57015931 0.42289369 0.63373928
0.70588235 0.50928309 0.65101103
0.79524357 0.57346814 0.66449908
0.8828125 0.60551471 0.68419118
0.9653799 0.63413756 0.69718903
0.99607843 0.66121324 0.71666667
0.0098039216 0.44240196 0.58088235
0.053829657 0.44754902 0.58014706
0.22904412 0.4622549 0.59356618
0.4239277 0.50006127 0.6127451
0.64816176 0.56531863 0.64681373
0.77009804 0.63039216 0.67015931
0.87205882 0.66666667 0.69136029
0.96632966 0.69313725 0.70695466
1 0.6995098 0.70906863
0.29019608 0.56819853 0.58572304
0.30124081 0.57292433 0.59246324
0.37630208 0.58295037 0.60542279
0.49460784 0.60481771 0.61654412
0.60266544 0.63431373 0.6471201
0.75063572 0.69492953 0.67704504
0.86029412 0.71948529 0.68359375
0.95784314 0.74969363 0.69208793
0.99460784 0.75343137 0.69460784
0.40502451 0.67205882 0.62205882
0.41155025 0.67630208 0.62561275
0.47668505 0.68547794 0.63308824
0.55110294 0.70297181 0.6495098
0.64295343 0.72892157 0.66685049
0.74633885 0.76703431 0.68696385
0.84408701 0.79675245 0.69522059
0.95477941 0.80992647 0.69411765
0.98541667 0.81801471 0.69558824
0.49460784 0.78627451 0.67745098
0.51448376 0.79626225 0.68335631
0.55214461 0.80196078 0.68480392
0.62420343 0.80883119 0.69479167
0.70753676 0.82622549 0.70425858
0.78333333 0.84430147 0.71489737
0.86421569 0.86470588 0.7254902
0.94623928 0.89074755 0.72941176
0.99607843 0.90147059 0.73137255
0.70539216 0.90588235 0.75294118
0.70698529 0.90716912 0.74656863
0.74460784 0.90980392 0.75343137
0.77647059 0.90980392 0.75441176
0.8254902 0.91568627 0.75955882
0.8716299 0.91519608 0.76672794
0.92855392 0.9254902 0.78186275
0.96482843 0.92542892 0.77542892
0.99215686 0.93333333 0.77156863
0.52647059 0.0078431373 0.69705882
0.57254902 0.011764706 0.70098039
0.64509804 0.0088235294 0.71176471
0.74460784 0.17254902 0.72512255
0.83578431 0.35441176 0.74166667
0.89607843 0.49705882 0.74705882
0.93161765 0.56470588 0.74387255
0.97892157 0.59080882 0.74448529
1 0.63529412 0.76176471
0.52708333 0.045710784 0.70196078
0.56842831 0.070098039 0.70565257
0.64053309 0.13697917 0.7127451
0.73841912 0.24224877 0.72414216
0.83014706 0.38823529 0.74166667
0.89656863 0.51479779 0.74803922
0.93599877 0.57876838 0.74604779
0.97455576 0.60632659 0.74754902
0.99656863 0.65625 0.7692402
0.46544118 0.19289216 0.69803922
0.52806373 0.21617647 0.70490196
0.60759804 0.25710784 0.71574755
0.71323529 0.32732843 0.72843137
0.81580882 0.44558824 0.74166667
0.88851103 0.56614583 0.7544424
0.93069853 0.6221201 0.74803922
0.97046569 0.63333333 0.75134804
0.99583333 0.68333333 0.76960784
0.28884804 0.30330882 0.69129902
0.37628676 0.32267157 0.69522059
0.49889706 0.35931373 0.70471814
0.65398284 0.41617647 0.72303922
0.78167892 0.50398284 0.74019608
0.873269 0.60894608 0.75196078
0.93627451 0.67953431 0.75882353
0.97438725 0.69322917 0.76087623
0.99963235 0.73872549 0.78026961
0.0068627451 0.40245098 0.67156863
0.021384804 0.41268382 0.67395833
0.14583333 0.43529412 0.67977941
0.48204657 0.4872549 0.70165441
0.69362745 0.55392157 0.72916667
0.83811275 0.64558824 0.74914216
0.92156863 0.72598039 0.7627451
0.97310049 0.74491422 0.76617647
0.99558824 0.77745098 0.78039216
0.021446078 0.55 0.65845588
0.050505515 0.55392157 0.66176471
0.18924632 0.56130515 0.66835172
0.34227941 0.57205882 0.68169424
0.51421569 0.59785539 0.70257353
0.77953431 0.68374694 0.74682904
0.9122549 0.76053922 0.76666667
0.97369792 0.79708946 0.77843137
0.99669118 0.81372549 0.78125
0.27254902 0.65465686 0.66887255
0.32221201 0.65873162 0.66951593
0.37408088 0.66623775 0.67775735
0.46204044 0.68363971 0.69105392
0.59362745 0.71066176 0.70943627
0.73223039 0.74926471 0.73624387
0.87708333 0.80729167 0.76372549
0.96675858 0.83823529 0.77058824
0.99607843 0.83823529 0.7754902
0.38933824 0.77487745 0.71176471
0.40027574 0.77879902 0.71476716
0.44280025 0.78541667 0.71568627
0.52420343 0.79379596 0.72352941
0.63995098 0.81305147 0.7370098
0.77745098 0.83711703 0.75441176
0.88673407 0.86470588 0.76985294
0.96237745 0.8877451 0.77896752
0.99963235 0.89901961 0.77928922
0.6245098 0.90784314 0.77254902
0.62291667 0.90318627 0.77083333
0.68161765 0.91593137 0.77818627
0.72340686 0.91262255 0.77745098
0.79460784 0.9122549 0.78333333
0.88186275 0.91911765 0.79669118
0.91960784 0.90980392 0.80196078
0.98088235 0.93370098 0.82843137
0.99607843 0.94117647 0.82941176
0.72058824 0.017156863 0.80147059
0.74270833 0.021936275 0.80539216
0.78382353 0.12512255 0.80882353
0.8495098 0.26881127 0.8127451
0.90686275 0.39387255 0.81666667
0.96991422 0.52843137 0.81452206
0.99620098 0.64705882 0.81973039
1 0.69957108 0.81323529
1 0.70343137 0.81323529
0.70189951 0.089276961 0.80539216
0.72647825 0.12336091 0.80539216
0.77781863 0.20802696 0.807644
0.83619026 0.31243873 0.80931373
0.89901961 0.42423407 0.81081495
0.96479013 0.54358915 0.81711857
0.99607843 0.66487439 0.82106311
0.99613205 0.69994638 0.81623775
0.99613971 0.71519608 0.81623775
0.66531863 0.23333333 0.80147059
0.6946538 0.245481 0.80539216
0.74598652 0.3015625 0.80490196
0.81288297 0.38370098 0.80931373
0.89001225 0.47107843 0.81366422
0.95718444 0.57843137 0.82063419
0.98826593 0.69166667 0.82365196
0.98872549 0.72689951 0.81666667
0.99215686 0.74166667 0.81703431
0.54607843 0.32598039 0.79362745
0.59180453 0.34852941 0.79754902
0.667019 0.38249081 0.79754902
0.76341912 0.44215686 0.80619638
0.85916054 0.52077206 0.8127451
0.93609069 0.61793811 0.81721814
0.98872549 0.72045037 0.82107843
0.99479167 0.76889553 0.82434896
0.99607843 0.78204657 0.82058824
0.087009804 0.36838235 0.78235294
0.21139706 0.38259804 0.78753064
0.42052696 0.42726716 0.78946078
0.62484681 0.48480392 0.79754902
0.77745098 0.55845588 0.80710784
0.90171569 0.65499387 0.81685049
0.97696078 0.75919118 0.8245098
0.99607843 0.79901961 0.8247549
1 0.81813725 0.83210784
0.013541667 0.51715686 0.76862745
0.015257353 0.52461703 0.76881127
0.0075520833 0.53498775 0.76881127
0.13272059 0.54093903 0.77156863
0.56127451 0.58676471 0.78912377
0.81918658 0.66980699 0.80656403
0.94852941 0.78088235 0.82571998
0.99699755 0.84509804 0.84166667
1 0.84901961 0.84019608
0.016544118 0.66973039 0.75882353
0.010753676 0.67107843 0.7627451
0.018014706 0.67300858 0.75882353
0.18687194 0.6761489 0.76617647
0.38664216 0.68192402 0.77751225
0.60026042 0.69664522 0.79068627
0.89549632 0.79558824 0.81764706
0.98382353 0.86732537 0.84068627
0.99620098 0.87990196 0.84852941
0.225 0.77457108 0.76182598
0.25722273 0.77494638 0.76224724
0.33290441 0.77542892 0.7622549
0.39661458 0.78496477 0.77254902
0.53976716 0.79754902 0.77401961
0.69366575 0.81436121 0.78282016
0.8301011 0.8338848 0.81646752
0.96960784 0.89509804 0.84068627
0.99607843 0.91078431 0.8598652
0.49313725 0.89803922 0.80882353
0.50147059 0.89944853 0.81231618
0.52328431 0.88909314 0.81139706
0.59656863 0.90735294 0.82040441
0.70220588 0.91764706 0.82622549
0.79558824 0.91029412 0.82843137
0.88480392 0.91017157 0.84019608
0.9778799 0.93382353 0.87156863
0.9995098 0.9372549 0.87941176
0.83921569 0.29019608 0.89019608
0.85833333 0.32058824 0.89411765
0.87843137 0.35882353 0.89117647
0.91617647 0.4245098 0.89019608
0.9627451 0.51176471 0.89411765
0.98823529 0.60833333 0.88872549
1 0.7127451 0.89411765
0.99607843 0.79264706 0.88235294
1 0.80784314 0.8745098
0.83186275 0.32843137 0.89411765
0.84215686 0.3348652 0.88927696
0.86666667 0.375 0.8872549
0.90735294 0.4408701 0.89050245
0.95490196 0.52132353 0.89019608
0.98578431 0.6096201 0.88235294
1 0.71654412 0.88933824
0.99607843 0.8004902 0.88235294
1 0.82647059 0.87794118
0.8127451 0.38235294 0.89803922
0.81360294 0.38676471 0.88639706
0.84730392 0.4254902 0.89117647
0.88468137 0.47843137 0.88627451
0.93137255 0.53431373 0.87696078
0.98639706 0.63823529 0.88933824
1 0.73823529 0.89313725
1 0.81176471 0.88235294
1 0.83039216 0.87843137
0.74019608 0.42205882 0.89019608
0.73921569 0.42941176 0.88204657
0.79019608 0.46311275 0.88909314
0.85582108 0.52107843 0.89558824
0.91397059 0.58553922 0.89411765
0.97150735 0.66960784 0.89074755
0.99705882 0.75441176 0.89203431
1 0.82352941 0.87794118
1 0.85245098 0.88627451
0.57254902 0.45294118 0.89215686
0.5752451 0.45441176 0.88431373
0.67205882 0.49264706 0.89215686
0.76789216 0.54142157 0.89656863
0.85098039 0.60392157 0.89019608
0.94558824 0.69460784 0.89460784
0.9877451 0.77352941 0.89068627
1 0.83627451 0.89264706
1 0.84901961 0.88431373
0.015686275 0.53431373 0.88088235
0.0073529412 0.53302696 0.89136029
0.082843137 0.52769608 0.89031863
0.46966912 0.53247549 0.89436275
0.71666667 0.60980392 0.89362745
0.88192402 0.70300245 0.89313725
0.97352941 0.79264706 0.88578431
0.99871324 0.853125 0.87892157
1 0.88137255 0.8995098
0.0039215686 0.71666667 0.87745098
0.0039215686 0.71017157 0.87843137
0.0056372549 0.69509804 0.86470588
0.010661765 0.67843137 0.86776961
0.10098039 0.66960784 0.88872549
0.64031863 0.70833333 0.89080882
0.91029412 0.79901961 0.89730392
0.99865196 0.87892157 0.90931373
1 0.91372549 0.90980392
0.032843137 0.81764706 0.875
0.034803922 0.81758578 0.87843137
0.078431373 0.81458333 0.88125
0.19822304 0.81715686 0.89117647
0.40686275 0.81372549 0.9
0.54197304 0.80821078 0.91145833
0.74264706 0.8129902 0.89080882
0.98609069 0.89074755 0.90931373
1 0.92941176 0.91372549
0.49803922 0.90196078 0.90196078
0.54754902 0.90931373 0.91323529
0.55784314 0.90882353 0.90686275
0.59803922 0.90833333 0.89509804
0.69803922 0.91568627 0.91764706
0.76421569 0.9127451 0.90882353
0.85784314 0.92156863 0.91862745
0.95833333 0.92941176 0.90196078
1 0.94901961 0.94117647
