site/assets/luts/sha256-09958e9fd017f75b4847c0c6b0271a2b78e7a3ce698303309e9a63586b6a59e7.cube
# LUTr-Schema-Version: 2
# LUTr-ID: sha256-09958e9fd017f75b4847c0c6b0271a2b78e7a3ce698303309e9a63586b6a59e7
# LUTr-Title: fuji3510 constlmap
# LUTr-Collection: Natron HaldCLUT
# LUTr-Collection-ID: natron-haldclut-presets
# LUTr-Source: https://github.com/NatronGitHub/clut
# LUTr-Retrieved: 2026-07-27
# LUTr-Source-File: submissions/natron-haldclut-presets/print/fuji3510_constlmap.png
# LUTr-Source-Format: HALD-PNG
# LUTr-Source-SHA256: 09958e9fd017f75b4847c0c6b0271a2b78e7a3ce698303309e9a63586b6a59e7
# LUTr-License: CC-BY-SA-4.0
# LUTr-License-URL: https://github.com/NatronGitHub/clut#license
# LUTr-License-Basis: repo-license-file
# LUTr-Transform-Class: film-emulation
# LUTr-Tags: creative, film, film-emulation, hald-clut, natron, png, cube
# LUTr-Input-Color-Space: srgb
# LUTr-Input-Gamut: rec709
# LUTr-Input-Transfer: srgb
# LUTr-Output-Color-Space: srgb
# LUTr-Output-Gamut: rec709
# LUTr-Output-Transfer: srgb
# LUTr-Color-Space-Confidence: assumed-display-referred
# LUTr-Domain-Normalized: true
# LUTr-Shaper: none
# LUTr-Original-Grid: 64x64x64
# LUTr-Conversion-Grid: 25x25x25
# LUTr-Conversion-Interpolation: trilinear
# LUTr-Conversion-Method: HALD-PNG LUT image decoded at 16-bit and sampled to 25x25x25 3D CUBE
# LUTr-Conversion-Tool: LUTr scripts/convert-all-to-cube.mjs 2.0.0
# LUTr-Conversion-Date: 2026-07-27
# LUTr-Note: Preserve this metadata and the upstream license notices when redistributing.
TITLE "fuji3510 constlmap"
LUT_3D_SIZE 5
DOMAIN_MIN 0 0 0
DOMAIN_MAX 1 1 1
0.0078431373 0.0039215686 0.0039215686
0.07254902 0.030392157 0.018627451
0.31764706 0.076470588 0.0078431373
0.47058824 0.08627451 0.012745098
0.52941176 0.094117647 0.011764706
0.015686275 0.10392157 0.052941176
0.080637255 0.11789216 0.047058824
0.39803922 0.17941176 0.011764706
0.60196078 0.19117647 0.0017156863
0.65294118 0.22843137 0.020588235
0.015686275 0.28627451 0.13529412
0.0029411765 0.32009804 0.10196078
0.49901961 0.43921569 0.0058823529
0.7377451 0.47352941 0.029901961
0.8 0.50784314 0.0078431373
0.019607843 0.43235294 0.19215686
0.018382353 0.50588235 0.13946078
0.5754902 0.67156863 0.0078431373
0.84705882 0.73995098 0.045098039
0.91862745 0.75784314 0.06372549
0 0.49411765 0.23921569
0.15784314 0.63137255 0.031372549
0.65882353 0.77647059 0.0058823529
0.89509804 0.80294118 0.078431373
0.98039216 0.83137255 0.098039216
0.015686275 0.02745098 0.07745098
0.075490196 0.035294118 0.084313725
0.35735294 0.03872549 0.090196078
0.55294118 0.032352941 0.097058824
0.61666667 0.039215686 0.082352941
0.012745098 0.12745098 0.12965686
0.10459559 0.13670343 0.13333333
0.44558824 0.18333333 0.12843137
0.69607843 0.14381127 0.076531863
0.76764706 0.16078431 0.07377451
0.015686275 0.32009804 0.21666667
0.14019608 0.36605392 0.22598039
0.54656863 0.48921569 0.20098039
0.83737745 0.51862745 0.15
0.91176471 0.53529412 0
0.011764706 0.48627451 0.32745098
0.077083333 0.55747549 0.29785539
0.61642157 0.74901961 0.17389706
0.9278799 0.80808824 0.25091912
0.99142157 0.82132353 0.15098039
0.0039215686 0.58431373 0.42745098
0.015931373 0.68504902 0.41764706
0.64411765 0.83431373 0.36127451
0.97083333 0.88921569 0.34142157
1 0.88921569 0.43627451
0.0058823529 0.10784314 0.24705882
0.076960784 0.036764706 0.31176471
0.39215686 0.043137255 0.35
0.58823529 0.035784314 0.36176471
0.64509804 0.043137255 0.37843137
0.0039215686 0.19019608 0.31421569
0.10294118 0.1995098 0.36507353
0.47352941 0.2252451 0.44754902
0.73823529 0.15735294 0.46323529
0.80196078 0.14558824 0.48431373
0.015686275 0.41666667 0.46666667
0.19803922 0.46764706 0.50343137
0.56421569 0.56078431 0.5745098
0.88431373 0.58112745 0.56862745
0.94117647 0.61372549 0.58823529
0.0039215686 0.58970588 0.57058824
0.099142157 0.65245098 0.60404412
0.56053922 0.84460784 0.65808824
0.95453431 0.90159314 0.67781863
0.99607843 0.90980392 0.68578431
0 0.67843137 0.67647059
0 0.7622549 0.72745098
0.57941176 0.89803922 0.76470588
0.95539216 0.95490196 0.77205882
1 0.95882353 0.79803922
0.015686275 0.16862745 0.33921569
0.063235294 0.052205882 0.47083333
0.40833333 0.055392157 0.54705882
0.61446078 0.055637255 0.55882353
0.67156863 0.044117647 0.58235294
0.0031862745 0.25784314 0.45882353
0.051531863 0.24877451 0.5408701
0.49852941 0.20392157 0.71286765
0.75533088 0.18535539 0.72064951
0.80931373 0.15122549 0.7372549
0.0093137255 0.47892157 0.62058824
0.12291667 0.51556373 0.66875
0.53970588 0.60196078 0.84705882
0.88039216 0.62132353 0.86862745
0.93529412 0.64656863 0.87892157
0.0058823529 0.63921569 0.71397059
0.115625 0.70563725 0.7754902
0.51335784 0.8872549 0.91727941
0.93627451 0.94779412 0.93529412
1 0.95490196 0.94240196
0.014705882 0.70686275 0.77745098
0.03995098 0.78995098 0.85122549
0.54019608 0.92745098 0.94411765
0.93235294 0.98431373 0.9620098
0.99607843 0.98823529 0.95392157
0 0.2 0.4
0.052941176 0.10882353 0.53823529
0.44705882 0.011764706 0.65882353
0.67843137 0.078431373 0.67843137
0.7254902 0.074509804 0.68235294
0 0.30392157 0.51666667
0.0039215686 0.3 0.58235294
0.50392157 0.25294118 0.79901961
0.78112745 0.20784314 0.81691176
0.8372549 0.25392157 0.82941176
0 0.49019608 0.64705882
0.0093137255 0.53578431 0.72352941
0.51568627 0.6254902 0.91078431
0.87647059 0.63970588 0.93333333
0.9372549 0.66078431 0.93921569
0.0039215686 0.64411765 0.7372549
0.030392157 0.71740196 0.80686275
0.46127451 0.89754902 0.9627451
0.93921569 0.95490196 0.98823529
0.99215686 0.95784314 0.98823529
0.035294118 0.69411765 0.77647059
0.011764706 0.79803922 0.86862745
0.48823529 0.92941176 0.96862745
0.93529412 0.98823529 0.99215686
1 1 1
