site/assets/luts/sha256-5848ce860dd9911629f8dcb0beccfe2d2b930be1ff9d9840ee2bd58405a22b74.cube
# LUTr-Schema-Version: 2
# LUTr-ID: sha256-5848ce860dd9911629f8dcb0beccfe2d2b930be1ff9d9840ee2bd58405a22b74
# LUTr-Title: fuji 800z -
# LUTr-Collection: Natron HaldCLUT
# LUTr-Collection-ID: natron-haldclut-presets
# LUTr-Source: https://github.com/NatronGitHub/clut
# LUTr-Retrieved: 2026-07-27
# LUTr-Source-File: submissions/natron-haldclut-presets/negative_new/fuji_800z_-.png
# LUTr-Source-Format: HALD-PNG
# LUTr-Source-SHA256: 5848ce860dd9911629f8dcb0beccfe2d2b930be1ff9d9840ee2bd58405a22b74
# LUTr-License: CC-BY-SA-4.0
# LUTr-License-URL: https://github.com/NatronGitHub/clut#license
# LUTr-License-Basis: repo-license-file
# LUTr-Transform-Class: film-emulation
# LUTr-Tags: creative, film, film-emulation, hald-clut, natron, png, cube
# LUTr-Input-Color-Space: srgb
# LUTr-Input-Gamut: rec709
# LUTr-Input-Transfer: srgb
# LUTr-Output-Color-Space: srgb
# LUTr-Output-Gamut: rec709
# LUTr-Output-Transfer: srgb
# LUTr-Color-Space-Confidence: assumed-display-referred
# LUTr-Domain-Normalized: true
# LUTr-Shaper: none
# LUTr-Original-Grid: 64x64x64
# LUTr-Conversion-Grid: 25x25x25
# LUTr-Conversion-Interpolation: trilinear
# LUTr-Conversion-Method: HALD-PNG LUT image decoded at 16-bit and sampled to 25x25x25 3D CUBE
# LUTr-Conversion-Tool: LUTr scripts/convert-all-to-cube.mjs 2.0.0
# LUTr-Conversion-Date: 2026-07-27
# LUTr-Note: Preserve this metadata and the upstream license notices when redistributing.
TITLE "fuji 800z -"
LUT_3D_SIZE 25
DOMAIN_MIN 0 0 0
DOMAIN_MAX 1 1 1
0.0078431373 0.0039215686 0.0039215686
0.041176471 0.014215686 0.011764706
0.074509804 0.024509804 0.021568627
0.10833333 0.027941176 0.027941176
0.14313725 0.017647059 0.01372549
0.17794118 0.0073529412 0.0073529412
0.22647059 0.0068627451 0.0068627451
0.2872549 0.0078431373 0.0078431373
0.34509804 0.0078431373 0.011764706
0.40294118 0.0014705882 0.0078431373
0.45588235 0 0.0078431373
0.51127451 0 0.0078431373
0.5627451 0 0.0039215686
0.61029412 0 0
0.65490196 0.0029411765 0
0.69607843 0.0039215686 0.0039215686
0.7372549 0.0078431373 0.0078431373
0.7745098 0.0078431373 0.011764706
0.81176471 0.0078431373 0.010784314
0.84901961 0.0044117647 0.0044117647
0.88431373 0.0019607843 0.0019607843
0.91911765 0.00049019608 0
0.94607843 0.0078431373 0
0.97156863 0.015686275 0
0.99215686 0.019607843 0
0.018137255 0.034803922 0.018137255
0.037193627 0.032352941 0.014215686
0.067156863 0.03872549 0.017769608
0.10147059 0.041973039 0.019791667
0.13676471 0.035539216 0.01372549
0.1745098 0.039031863 0.011764706
0.22647059 0.034313725 0.010294118
0.28578431 0.022120098 0.011764706
0.34509804 0.012745098 0.010294118
0.39957108 0.0014705882 0.0078431373
0.45404412 0 0.0078431373
0.50735294 0.0021446078 0.0078431373
0.5627451 0.0039215686 0.0039215686
0.61372549 0 0
0.65882353 0 0.0029411765
0.7 0.0039215686 0.0048406863
0.73970588 0.0039215686 0.0078431373
0.77751225 0.0069240196 0.011764706
0.81176471 0.0078431373 0.017156863
0.84901961 0.0065563725 0.0081495098
0.88431373 0.0019607843 0.0019607843
0.91911765 0.00049019608 0
0.94607843 0.012622549 0.0018382353
0.9721201 0.022058824 0.0024509804
0.99362745 0.030882353 0.0024509804
0.023529412 0.065686275 0.032352941
0.037745098 0.061151961 0.022426471
0.056617647 0.058578431 0.015686275
0.087622549 0.060784314 0.015686275
0.13137255 0.064705882 0.016176471
0.17843137 0.074877451 0.019607843
0.22647059 0.070588235 0.016666667
0.28578431 0.055882353 0.015686275
0.34117647 0.039215686 0.011764706
0.39620098 0.016789216 0.0078431373
0.45098039 0.0078431373 0.0078431373
0.5060049 0.0099264706 0.0078431373
0.55882353 0.0053921569 0.0044117647
0.61029412 0 0
0.65490196 0 0.0036764706
0.70036765 0 0.0078431373
0.74215686 0 0.0078431373
0.77843137 0.0039215686 0.015196078
0.81176471 0.0078431373 0.024509804
0.84901961 0.0088235294 0.021078431
0.88431373 0.006372549 0.0098039216
0.91911765 0.0058823529 0
0.94607843 0.031862745 0.0039215686
0.96862745 0.056985294 0.0068627451
0.98823529 0.076470588 0.0068627451
0.020098039 0.092647059 0.035294118
0.036458333 0.090196078 0.028921569
0.051960784 0.084803922 0.018627451
0.076531863 0.084375 0.014828431
0.12745098 0.098529412 0.017647059
0.175 0.10833333 0.019607843
0.22683824 0.10539216 0.016666667
0.28363971 0.098039216 0.015686275
0.3377451 0.087745098 0.015196078
0.39264706 0.076654412 0.0093137255
0.44546569 0.066666667 0.0042892157
0.49993873 0.052941176 0.0039215686
0.55490196 0.031127451 0.0039215686
0.60637255 0.006004902 0
0.65490196 0 0.0029411765
0.7036152 0 0.0078431373
0.74509804 0.0034313725 0.011764706
0.77843137 0.0073529412 0.021875
0.81176471 0.01127451 0.032230392
0.84601716 0.025061275 0.028370098
0.88259804 0.038480392 0.011764706
0.91568627 0.045098039 0.0034926471
0.94607843 0.076838235 0.0068627451
0.97156863 0.11127451 0.0060661765
0.99215686 0.13431373 0.00049019608
0.01372549 0.11764706 0.029411765
0.028431373 0.11887255 0.02745098
0.049019608 0.12156863 0.025490196
0.075 0.1252451 0.022058824
0.12156863 0.13529412 0.02254902
0.16666667 0.14338235 0.019607843
0.21960784 0.14852941 0.016666667
0.27671569 0.14509804 0.016421569
0.33137255 0.14117647 0.01372549
0.38676471 0.13284314 0.0053921569
0.44264706 0.12745098 0
0.49558824 0.10857843 0.0034313725
0.55098039 0.088235294 0.0039215686
0.60416667 0.070343137 0.0039215686
0.6504902 0.067647059 0.0039215686
0.69681373 0.068627451 0.0078431373
0.73921569 0.074509804 0.011764706
0.77401961 0.080882353 0.016911765
0.80735294 0.087745098 0.021568627
0.84166667 0.10490196 0.016176471
0.87647059 0.11568627 0.0078431373
0.91127451 0.11838235 0.0098039216
0.94215686 0.13872549 0.0098039216
0.96838235 0.16838235 0.0090686275
0.98823529 0.18235294 0.0039215686
0.00049019608 0.14362745 0.024509804
0.026960784 0.15343137 0.031862745
0.052941176 0.16372549 0.035784314
0.077022059 0.16666667 0.032352941
0.11127451 0.17230392 0.025490196
0.15 0.17843137 0.019117647
0.20232843 0.18480392 0.015686275
0.26323529 0.18627451 0.011764706
0.3254902 0.1872549 0.0078431373
0.3872549 0.19117647 0.0039215686
0.44411765 0.18627451 0.00049019608
0.49558824 0.17297794 0.0034926471
0.54877451 0.15637255 0.0039215686
0.60153186 0.1411152 0.0039828431
0.64571078 0.13982843 0.0078431373
0.68952206 0.14607843 0.0078431373
0.73284314 0.15294118 0.0083333333
0.76795343 0.16292892 0.015502451
0.80294118 0.17303922 0.011642157
0.8372549 0.18284314 0.0044117647
0.87034314 0.1872549 0.0058823529
0.90386029 0.19215686 0.015686275
0.93823529 0.20588235 0.015686275
0.96372549 0.21960784 0.011764706
0.98431373 0.22941176 0.0039215686
0.0039215686 0.19117647 0.041176471
0.023406863 0.19571078 0.044607843
0.050735294 0.20392157 0.046078431
0.080882353 0.20784314 0.042279412
0.10588235 0.21176471 0.030392157
0.13627451 0.21188725 0.015318627
0.18970588 0.21887255 0.011764706
0.25625 0.23186275 0.011764706
0.32254902 0.24215686 0.0078431373
0.39117647 0.25330882 0.0042892157
0.44411765 0.24803922 0.0039215686
0.49558824 0.24068627 0.0039215686
0.54705882 0.22647059 0.0039215686
0.59509804 0.21654412 0.0078431373
0.63995098 0.21495098 0.0078431373
0.68247549 0.22205882 0.0078431373
0.72647059 0.23235294 0.0078431373
0.76311275 0.23627451 0.010661765
0.79681373 0.2375 0.0085784314
0.8307598 0.23566176 0.0039215686
0.86519608 0.24019608 0.0078431373
0.89963235 0.2504902 0.015686275
0.93357843 0.26078431 0.015686275
0.96372549 0.26997549 0.010661765
0.98431373 0.27745098 0.0039215686
0.0039215686 0.23480392 0.053921569
0.018198529 0.2372549 0.056372549
0.04497549 0.24362745 0.059681373
0.076960784 0.24509804 0.055514706
0.10661765 0.24509804 0.044117647
0.13498775 0.24540441 0.031372549
0.18272059 0.25772059 0.017892157
0.24601716 0.27310049 0.012132353
0.30686275 0.28431373 0.0039215686
0.37892157 0.29944853 0.0039215686
0.44301471 0.30428922 0.0039215686
0.49558824 0.30147059 0.0039215686
0.54436275 0.29387255 0.0039215686
0.58890931 0.28854167 0.0078431373
0.63321078 0.2872549 0.010784314
0.67555147 0.29025735 0.011764706
0.71764706 0.29754902 0.0078431373
0.75582108 0.29362745 0.0078431373
0.79178922 0.28933824 0.0078431373
0.82579657 0.28578431 0.0078431373
0.85931373 0.28897059 0.010539216
0.89197304 0.29803922 0.011764706
0.92830882 0.30686275 0.010661765
0.96127451 0.31623775 0.0078431373
0.98578431 0.32352941 0.0039215686
0.0039215686 0.27843137 0.066666667
0.0088235294 0.27843137 0.066666667
0.039215686 0.27843137 0.070588235
0.076470588 0.27843137 0.070588235
0.10980392 0.27843137 0.070588235
0.14313725 0.28235294 0.058333333
0.1872549 0.29313725 0.041176471
0.23333333 0.30882353 0.016666667
0.28627451 0.3254902 0
0.35588235 0.33333333 0.0039215686
0.4254902 0.33823529 0.0078431373
0.4872549 0.34509804 0.0078431373
0.53921569 0.34313725 0.0098039216
0.58284314 0.34509804 0.011764706
0.62745098 0.34509804 0.011764706
0.66862745 0.34509804 0.0078431373
0.70980392 0.34901961 0.0078431373
0.75098039 0.34264706 0.0078431373
0.7872549 0.3372549 0.0078431373
0.82156863 0.33333333 0.01127451
0.85294118 0.3372549 0.011764706
0.8877451 0.34558824 0.011764706
0.92156863 0.35294118 0.0078431373
0.95735294 0.3622549 0.0039215686
0.99215686 0.36862745 0
0.010294118 0.31323529 0.076960784
0.011213235 0.31323529 0.074509804
0.027941176 0.31323529 0.074509804
0.066176471 0.31194853 0.080392157
0.11053922 0.31176471 0.085539216
0.1495098 0.3158701 0.082352941
0.19215686 0.32794118 0.061764706
0.23241422 0.340625 0.039705882
0.2745098 0.35392157 0.019117647
0.34172794 0.36819853 0.013357843
0.4067402 0.3754902 0.0096813725
0.46666667 0.38235294 0.0078431373
0.51862745 0.38431373 0.0098039216
0.57254902 0.38890931 0.011764706
0.62107843 0.39264706 0.0099264706
0.66170343 0.39656863 0.006372549
0.70196078 0.39411765 0.0078431373
0.74160539 0.38927696 0.0078431373
0.78088235 0.38419118 0.0078431373
0.81176471 0.37873775 0.0078431373
0.84583333 0.37965686 0.0093137255
0.87745098 0.38676471 0.0078431373
0.9122549 0.39705882 0.0042892157
0.94705882 0.40343137 0.0024509804
0.97401961 0.40735294 0
0.021568627 0.34803922 0.084313725
0.017034314 0.34803922 0.080392157
0.015196078 0.34803922 0.077205882
0.060784314 0.34803922 0.086764706
0.10588235 0.34803922 0.091666667
0.14693627 0.34816176 0.09497549
0.18333333 0.35490196 0.085294118
0.22352941 0.36629902 0.065686275
0.27058824 0.37941176 0.046078431
0.33137255 0.39718137 0.029166667
0.38946078 0.41495098 0.016911765
0.44252451 0.42303922 0.0039215686
0.49852941 0.42794118 0.0053921569
0.55747549 0.43541667 0.0078431373
0.61372549 0.44240196 0.0071078431
0.65588235 0.44411765 0.0039215686
0.69411765 0.44313725 0.0039215686
0.73468137 0.43737745 0.0078431373
0.77230392 0.43137255 0.01004902
0.80539216 0.4245098 0.0078431373
0.83627451 0.4245098 0.0053921569
0.86813725 0.42879902 0.0039215686
0.90196078 0.43529412 0.0039215686
0.93676471 0.44252451 0.0039215686
0.95980392 0.44607843 0.0039215686
0.042156863 0.38284314 0.10490196
0.041666667 0.38284314 0.10098039
0.046691176 0.3814951 0.10098039
0.072487745 0.37892157 0.10098039
0.10980392 0.37892157 0.10367647
0.14656863 0.38284314 0.10533088
0.17487745 0.38578431 0.098529412
0.20686275 0.39215686 0.087745098
0.25980392 0.40637255 0.073039216
0.3245098 0.42322304 0.071813725
0.37401961 0.44019608 0.038357843
0.42156863 0.45729167 0.014705882
0.48333333 0.46715686 0.0073529412
0.54460784 0.47696078 0.0078431373
0.60343137 0.49068627 0.0039215686
0.6495098 0.49430147 0.00018382353
0.69019608 0.49166667 0.0039215686
0.72794118 0.48560049 0.0078431373
0.76764706 0.47990196 0.0078431373
0.79895833 0.47598039 0.0039828431
0.82990196 0.47598039 0.0039215686
0.86121324 0.47555147 0.0039215686
0.89546569 0.4754902 0.0039215686
0.9286152 0.47824755 0.0039215686
0.9495098 0.48431373 0.0039215686
0.068627451 0.41764706 0.1254902
0.066666667 0.41764706 0.12156863
0.074019608 0.41372549 0.12156863
0.096568627 0.41004902 0.12156863
0.1254902 0.40980392 0.12156863
0.15612745 0.41372549 0.12107843
0.18333333 0.41519608 0.11421569
0.20833333 0.41838235 0.10980392
0.25098039 0.43137255 0.10784314
0.30759804 0.44803922 0.095098039
0.36127451 0.46372549 0.078921569
0.41127451 0.47794118 0.059803922
0.46960784 0.49019608 0.041176471
0.53039216 0.50637255 0.032843137
0.58872549 0.52058824 0.02254902
0.63921569 0.53210784 0.012990196
0.68039216 0.53333333 0.0058823529
0.72156863 0.53210784 0.0039215686
0.76176471 0.52892157 0.0034313725
0.79264706 0.52573529 0.00024509804
0.8254902 0.52254902 0.0029411765
0.85833333 0.51764706 0.0039215686
0.89117647 0.51372549 0.0039215686
0.92132353 0.51764706 0.0039215686
0.94313725 0.52156863 0.0039215686
0.091176471 0.44901961 0.14215686
0.091176471 0.44852941 0.14166667
0.1 0.44754902 0.14166667
0.11764706 0.44460784 0.14209559
0.13995098 0.44068627 0.14215686
0.17009804 0.44068627 0.13823529
0.19460784 0.44068627 0.13823529
0.22058824 0.44430147 0.1346201
0.25539216 0.45588235 0.13431373
0.29871324 0.46881127 0.13823529
0.34901961 0.48431373 0.12536765
0.4004902 0.49803922 0.10055147
0.45612745 0.51078431 0.079901961
0.51519608 0.52352941 0.067647059
0.56960784 0.53982843 0.057352941
0.62205882 0.55147059 0.04754902
0.66617647 0.5622549 0.029411765
0.71341912 0.57205882 0.010968137
0.75539216 0.5745098 0.00049019608
0.78676471 0.57107843 0.0044117647
0.82132353 0.56691176 0.0088235294
0.8528799 0.56231618 0.012254902
0.88676471 0.55882353 0.0083333333
0.91636029 0.55882353 0.0065563725
0.93676471 0.5627451 0.0039215686
0.10784314 0.48333333 0.15882353
0.10784314 0.48272059 0.15588235
0.12058824 0.47916667 0.15661765
0.13823529 0.4754902 0.15882353
0.15539216 0.47303922 0.15882353
0.18039216 0.47156863 0.15882353
0.20490196 0.47156863 0.15882353
0.23088235 0.47009804 0.15882353
0.2627451 0.48039216 0.15490196
0.3 0.49362745 0.15588235
0.3375 0.50490196 0.15367647
0.38382353 0.51862745 0.13529412
0.43872549 0.52941176 0.1127451
0.49460784 0.54375 0.10159314
0.54901961 0.55784314 0.094362745
0.60147059 0.57205882 0.08872549
0.64901961 0.58627451 0.081372549
0.69656863 0.59656863 0.059803922
0.73995098 0.60588235 0.040441176
0.77990196 0.60882353 0.038235294
0.81470588 0.60833333 0.039215686
0.84865196 0.6064951 0.032843137
0.88259804 0.60392157 0.019607843
0.91421569 0.60330882 0.0096813725
0.93333333 0.60392157 0.0068627451
0.1245098 0.51421569 0.17009804
0.12303922 0.51421569 0.17009804
0.13823529 0.51029412 0.17218137
0.15882353 0.50655637 0.1754902
0.1754902 0.50637255 0.17867647
0.19215686 0.50245098 0.1754902
0.21519608 0.49852941 0.1754902
0.23670343 0.49761029 0.17401961
0.26666667 0.50490196 0.17156863
0.30238971 0.51519608 0.17248775
0.33664216 0.52696078 0.16727941
0.37107843 0.53970588 0.16029412
0.42009804 0.55 0.14754902
0.47598039 0.56421569 0.13743873
0.53419118 0.57745098 0.13088235
0.58235294 0.59264706 0.12689951
0.63235294 0.60686275 0.12352941
0.67892157 0.62107843 0.11862745
0.72254902 0.62745098 0.10379902
0.76734069 0.63382353 0.090379902
0.80637255 0.63897059 0.087009804
0.84332108 0.64362745 0.072855392
0.87732843 0.64509804 0.044117647
0.91329657 0.64509804 0.016053922
0.93333333 0.64509804 0.0078431373
0.15294118 0.54509804 0.19215686
0.15294118 0.54509804 0.19215686
0.1627451 0.54411765 0.19215686
0.18333333 0.54117647 0.19607843
0.2 0.5372549 0.2
0.21617647 0.53676471 0.1995098
0.23039216 0.52941176 0.19313725
0.24460784 0.5254902 0.19068627
0.26666667 0.52941176 0.18823529
0.30392157 0.53970588 0.18823529
0.34117647 0.55 0.18431373
0.375 0.56029412 0.18088235
0.41568627 0.57058824 0.17843137
0.46911765 0.58480392 0.17205882
0.52352941 0.59803922 0.16568627
0.57205882 0.61323529 0.16078431
0.61960784 0.62745098 0.16078431
0.66470588 0.64166667 0.15833333
0.70980392 0.65098039 0.14803922
0.75441176 0.65833333 0.1377451
0.79607843 0.66470588 0.13333333
0.8372549 0.6745098 0.12794118
0.87156863 0.67843137 0.094117647
0.91029412 0.68235294 0.056862745
0.93333333 0.68627451 0.043137255
0.18627451 0.57598039 0.21519608
0.18927696 0.57598039 0.21666667
0.19840686 0.57598039 0.21666667
0.20814951 0.57469363 0.21666667
0.2245098 0.57205882 0.21666667
0.24068627 0.56813725 0.21666667
0.25098039 0.56311275 0.21372549
0.26127451 0.55790441 0.20882353
0.27401961 0.55490196 0.20735294
0.31121324 0.5627451 0.20882353
0.3504902 0.5745098 0.21127451
0.38529412 0.58480392 0.2091299
0.42598039 0.59436275 0.20612745
0.46341912 0.60539216 0.20343137
0.50784314 0.6192402 0.20012255
0.55784314 0.63382353 0.19803922
0.60931373 0.64803922 0.19558824
0.65594363 0.6622549 0.19258578
0.6995098 0.67316176 0.18737745
0.74197304 0.68284314 0.18235294
0.7870098 0.69166667 0.17843137
0.83088235 0.70226716 0.1754902
0.86875 0.71115196 0.15490196
0.90300245 0.71715686 0.13278186
0.92696078 0.72352941 0.1254902
0.21960784 0.60784314 0.24117647
0.22536765 0.60784314 0.24117647
0.23210784 0.60784314 0.24117647
0.23786765 0.60686275 0.2377451
0.24705882 0.60686275 0.23627451
0.26139706 0.60257353 0.23345588
0.27622549 0.59681373 0.23651961
0.29068627 0.59178922 0.23823529
0.30882353 0.59117647 0.2372549
0.33578431 0.59571078 0.23823529
0.36568627 0.60294118 0.23823529
0.39178922 0.6067402 0.23468137
0.43235294 0.61666667 0.23431373
0.46960784 0.63088235 0.23431373
0.50710784 0.64338235 0.2375
0.55245098 0.6564951 0.23529412
0.60392157 0.66960784 0.23431373
0.64901961 0.68345588 0.22892157
0.69093137 0.69705882 0.22647059
0.73431373 0.70833333 0.22352941
0.77941176 0.72156863 0.22352941
0.82193627 0.73284314 0.22745098
0.86348039 0.74387255 0.22303922
0.89889706 0.75441176 0.20931373
0.92647059 0.76372549 0.20294118
0.25343137 0.64166667 0.26519608
0.26109069 0.64166667 0.26568627
0.26875 0.64166667 0.26568627
0.27254902 0.64166667 0.26519608
0.27818627 0.64117647 0.26446078
0.28970588 0.6372549 0.26176471
0.30637255 0.63345588 0.26519608
0.32156863 0.62941176 0.26764706
0.33970588 0.62598039 0.26519608
0.36666667 0.63204657 0.26911765
0.38921569 0.63382353 0.2682598
0.40980392 0.6372549 0.26519608
0.44436275 0.64583333 0.26519608
0.48333333 0.65790441 0.26868873
0.51813725 0.67205882 0.2754902
0.55459559 0.68235294 0.2786152
0.6 0.69656863 0.27254902
0.64540441 0.70735294 0.27009804
0.68676471 0.72120098 0.26862745
0.73137255 0.73186275 0.26470588
0.77083333 0.74387255 0.26813725
0.81421569 0.75680147 0.26862745
0.85539216 0.77316176 0.27254902
0.9 0.78970588 0.27579657
0.92941176 0.80196078 0.27156863
0.29215686 0.67843137 0.29215686
0.30245098 0.67965686 0.29926471
0.3127451 0.68235294 0.30686275
0.32303922 0.68602941 0.31176471
0.33137255 0.68529412 0.31470588
0.33553922 0.67794118 0.30735294
0.34215686 0.67156863 0.30196078
0.35122549 0.66666667 0.29803922
0.37058824 0.66470588 0.29607843
0.39240196 0.66789216 0.3
0.41421569 0.66911765 0.29803922
0.43627451 0.67058824 0.29803922
0.45980392 0.6754902 0.29705882
0.49411765 0.6870098 0.3004902
0.53137255 0.69901961 0.3127451
0.56593137 0.71323529 0.32401961
0.6 0.72156863 0.31372549
0.64436275 0.73382353 0.30980392
0.68431373 0.74607843 0.30833333
0.7254902 0.75833333 0.30980392
0.76666667 0.76960784 0.30980392
0.80784314 0.78284314 0.3120098
0.84901961 0.79803922 0.31519608
0.88946078 0.81397059 0.31911765
0.91372549 0.8254902 0.3254902
0.34362745 0.71568627 0.33970588
0.35392157 0.72205882 0.34785539
0.36421569 0.72745098 0.35637255
0.37800245 0.73094363 0.36366422
0.38284314 0.72941176 0.36519608
0.38676471 0.72003676 0.35490196
0.38933824 0.7127451 0.34803922
0.39430147 0.70784314 0.3377451
0.40196078 0.70392157 0.33137255
0.41813725 0.70392157 0.33118873
0.44276961 0.70796569 0.33541667
0.46415441 0.71176471 0.33970588
0.48235294 0.7122549 0.33431373
0.5088848 0.71709559 0.3411152
0.5439951 0.73345588 0.35747549
0.57892157 0.74509804 0.37009804
0.61323529 0.75490196 0.35980392
0.64411765 0.76145833 0.34981618
0.68284314 0.77512255 0.35551471
0.72401961 0.78878676 0.35974265
0.76495098 0.7995098 0.35980392
0.80196078 0.80980392 0.35582108
0.83933824 0.82267157 0.35882353
0.86011029 0.82971814 0.3627451
0.87254902 0.83578431 0.36323529
0.39509804 0.75686275 0.39117647
0.40539216 0.76323529 0.40147059
0.41887255 0.77181373 0.41078431
0.42990196 0.77634804 0.4185049
0.43431373 0.77205882 0.41666667
0.43823529 0.76421569 0.40637255
0.43823529 0.75392157 0.39313725
0.43921569 0.74791667 0.38284314
0.44607843 0.74509804 0.3754902
0.46568627 0.75196078 0.3877451
0.4872549 0.75686275 0.39411765
0.50882353 0.75980392 0.39803922
0.52843137 0.76176471 0.40098039
0.55343137 0.76813725 0.40539216
0.58431373 0.77916667 0.41666667
0.61617647 0.79154412 0.425
0.64803922 0.8 0.41764706
0.675 0.80931373 0.41764706
0.70220588 0.8127451 0.41838235
0.7372549 0.82696078 0.42156863
0.775 0.8372549 0.42156863
0.81139706 0.84460784 0.41752451
0.84019608 0.85171569 0.41593137
0.85735294 0.85698529 0.41875
0.86372549 0.85882353 0.42058824
0.45196078 0.80196078 0.44656863
0.46078431 0.80833333 0.45294118
0.47205882 0.81580882 0.46323529
0.48529412 0.82285539 0.47352941
0.48578431 0.81568627 0.46666667
0.48431373 0.80392157 0.45214461
0.48039216 0.79362745 0.43823529
0.4838848 0.7877451 0.43290441
0.50294118 0.79558824 0.44166667
0.52352941 0.80588235 0.45588235
0.54375 0.8127451 0.46519608
0.55931373 0.81127451 0.46734069
0.57598039 0.81519608 0.47230392
0.5995098 0.81960784 0.47745098
0.62928922 0.82990196 0.48333333
0.65140931 0.8372549 0.48333333
0.67892157 0.84509804 0.4872549
0.70588235 0.85539216 0.48872549
0.72855392 0.85894608 0.48627451
0.75802696 0.86636029 0.48707108
0.79240196 0.87843137 0.49191176
0.82254902 0.88302696 0.4846201
0.8495098 0.8872549 0.48088235
0.87947304 0.89754902 0.49019608
0.89460784 0.90392157 0.49656863
0.50196078 0.83921569 0.49411765
0.50833333 0.84313725 0.49803922
0.51862745 0.85196078 0.50686275
0.52892157 0.8622549 0.51715686
0.52352941 0.84901961 0.50392157
0.52107843 0.83480392 0.48970588
0.52156863 0.82843137 0.48333333
0.53235294 0.83284314 0.4877451
0.55294118 0.83921569 0.50196078
0.57598039 0.85588235 0.51862745
0.59215686 0.86176471 0.52843137
0.5995098 0.85490196 0.52156863
0.61960784 0.85882353 0.52941176
0.64362745 0.87009804 0.54460784
0.65784314 0.86666667 0.53431373
0.67745098 0.87058824 0.52941176
0.70196078 0.88235294 0.5372549
0.72892157 0.89264706 0.54509804
0.75098039 0.89019608 0.53627451
0.775 0.89754902 0.54019608
0.80784314 0.91372549 0.55294118
0.83284314 0.91764706 0.54852941
0.85980392 0.92156863 0.54509804
0.89068627 0.93088235 0.5504902
0.91764706 0.94117647 0.56078431
0.015686275 0.028431373 0.028431373
0.042647059 0.028431373 0.031801471
0.074509804 0.033333333 0.033333333
0.10833333 0.034313725 0.036458333
0.14436275 0.021568627 0.030392157
0.18088235 0.010784314 0.024509804
0.23223039 0.0072303922 0.024509804
0.28878676 0.0078431373 0.024509804
0.34509804 0.0078431373 0.020588235
0.40294118 0.003002451 0.017585784
0.45588235 0 0.015196078
0.51078431 0 0.015196078
0.56151961 0 0.012009804
0.61029412 0 0.0073529412
0.65490196 0.0029411765 0.0084558824
0.69761029 0.0039215686 0.010294118
0.7372549 0.0078431373 0.014215686
0.77751225 0.0078431373 0.017218137
0.81176471 0.0078431373 0.017156863
0.84901961 0.0044117647 0.010294118
0.88431373 0.0031862745 0.0031862745
0.91911765 0.00049019608 0
0.94607843 0.0096813725 0.0024509804
0.97303922 0.015686275 0
0.99460784 0.019607843 0
0.018137255 0.036642157 0.031801471
0.041383272 0.03872549 0.032352941
0.071078431 0.042279412 0.03627451
0.1051011 0.044117647 0.034129902
0.14240196 0.038235294 0.031617647
0.18088235 0.036205576 0.027941176
0.23186275 0.029411765 0.024509804
0.28878676 0.020243566 0.024509804
0.34509804 0.010294118 0.020588235
0.40014553 0.003002451 0.017011336
0.45366115 0 0.015196078
0.50735294 0.0013403799 0.016000306
0.55882353 0.0036458333 0.015655637
0.61029412 0.0026271446 0.012561275
0.65784314 0 0.0097426471
0.7 0.0033471201 0.010294118
0.740625 0.0039215686 0.010845588
0.77843137 0.0078431373 0.016666667
0.81176471 0.0078431373 0.021308211
0.84901961 0.0065563725 0.011894914
0.88431373 0.0019607843 0.0019607843
0.91911765 0.00049019608 0
0.94607843 0.012622549 0.0036764706
0.97303922 0.022058824 0.0034083946
0.99515931 0.030882353 0.00091911765
0.021078431 0.062867647 0.042647059
0.039047181 0.061764706 0.037423407
