site/assets/luts/sha256-db60a3882733319b9496d11493ced91585dbe462756543d95b478f326eb824cd.cube
# LUTr-Schema-Version: 2
# LUTr-ID: sha256-db60a3882733319b9496d11493ced91585dbe462756543d95b478f326eb824cd
# LUTr-Title: agfa precisa 100
# LUTr-Collection: Natron HaldCLUT
# LUTr-Collection-ID: natron-haldclut-presets
# LUTr-Source: https://github.com/NatronGitHub/clut
# LUTr-Retrieved: 2026-07-27
# LUTr-Source-File: submissions/natron-haldclut-presets/colorslide/agfa_precisa_100.png
# LUTr-Source-Format: HALD-PNG
# LUTr-Source-SHA256: db60a3882733319b9496d11493ced91585dbe462756543d95b478f326eb824cd
# LUTr-License: CC-BY-SA-4.0
# LUTr-License-URL: https://github.com/NatronGitHub/clut#license
# LUTr-License-Basis: repo-license-file
# LUTr-Transform-Class: film-emulation
# LUTr-Tags: creative, film, film-emulation, hald-clut, natron, png, cube
# LUTr-Input-Color-Space: srgb
# LUTr-Input-Gamut: rec709
# LUTr-Input-Transfer: srgb
# LUTr-Output-Color-Space: srgb
# LUTr-Output-Gamut: rec709
# LUTr-Output-Transfer: srgb
# LUTr-Color-Space-Confidence: assumed-display-referred
# LUTr-Domain-Normalized: true
# LUTr-Shaper: none
# LUTr-Original-Grid: 64x64x64
# LUTr-Conversion-Grid: 25x25x25
# LUTr-Conversion-Interpolation: trilinear
# LUTr-Conversion-Method: HALD-PNG LUT image decoded at 16-bit and sampled to 25x25x25 3D CUBE
# LUTr-Conversion-Tool: LUTr scripts/convert-all-to-cube.mjs 2.0.0
# LUTr-Conversion-Date: 2026-07-27
# LUTr-Note: Preserve this metadata and the upstream license notices when redistributing.
TITLE "agfa precisa 100"
LUT_3D_SIZE 9
DOMAIN_MIN 0 0 0
DOMAIN_MAX 1 1 1
0 0 0
0.085294118 0.012254902 0.012254902
0.17352941 0.025490196 0.032352941
0.28039216 0.023529412 0.033823529
0.41176471 0.035294118 0.064705882
0.55637255 0.060294118 0.099509804
0.71372549 0.087254902 0.13921569
0.84901961 0.10637255 0.17696078
0.96862745 0.12156863 0.21176471
0.069607843 0.096568627 0.030882353
0.1122549 0.1004902 0.039460784
0.19558824 0.10428922 0.045588235
0.30735294 0.11617647 0.052267157
0.43308824 0.12034314 0.045343137
0.57156863 0.12009804 0.089215686
0.72156863 0.098039216 0.13958333
0.8495098 0.11764706 0.17696078
0.96911765 0.12892157 0.20833333
0.097058824 0.20490196 0.073529412
0.14705882 0.20784314 0.081372549
0.21960784 0.20784314 0.081372549
0.32745098 0.2185049 0.081372549
0.45637255 0.22401961 0.076960784
0.59914216 0.21960784 0.075
0.73333333 0.20294118 0.11495098
0.86372549 0.16862745 0.16666667
0.98333333 0.1372549 0.21176471
0.13186275 0.33137255 0.12254902
0.15196078 0.32745098 0.12009804
0.24656863 0.34105392 0.12647059
0.34558824 0.34166667 0.13431373
0.47696078 0.35220588 0.13431373
0.6254902 0.35882353 0.1216299
0.76323529 0.35306373 0.090563725
0.88235294 0.31194853 0.13155637
0.99068627 0.25539216 0.18186275
0.14901961 0.48039216 0.17647059
0.19313725 0.48431373 0.17867647
0.27352941 0.49215686 0.17647059
0.37843137 0.49215686 0.16666667
0.51470588 0.50392157 0.17058824
0.65490196 0.52156863 0.13823529
0.79068627 0.52009804 0.090196078
0.91348039 0.50318627 0.079166667
0.99607843 0.47254902 0.10980392
0.19656863 0.62941176 0.25147059
0.24509804 0.63694853 0.26470588
0.32696078 0.64840686 0.25931373
0.42843137 0.64993873 0.25147059
0.55171569 0.66421569 0.23921569
0.68278186 0.68186275 0.18333333
0.80784314 0.69117647 0.11813725
0.92714461 0.69117647 0.062561275
0.99607843 0.69411765 0.040196078
0.30098039 0.77352941 0.36470588
0.32892157 0.77340686 0.35980392
0.40318627 0.78259804 0.35196078
0.48443627 0.79068627 0.34571078
0.58823529 0.80637255 0.33872549
0.70490196 0.81568627 0.3004902
0.82279412 0.83627451 0.22843137
0.94313725 0.86678922 0.054166667
0.98039216 0.8627451 0.02745098
0.44166667 0.88039216 0.50392157
0.45729167 0.88339461 0.48872549
0.49497549 0.89031863 0.48088235
0.56354167 0.90343137 0.47322304
0.64656863 0.91495098 0.46151961
0.74626225 0.93560049 0.43676471
0.85061275 0.94313725 0.37794118
0.94705882 0.96617647 0.25980392
1 0.99607843 0.028921569
0.58431373 0.97647059 0.64705882
0.58823529 0.97254902 0.63578431
0.62156863 0.97941176 0.63431373
0.66127451 0.98186275 0.62892157
0.7254902 0.98627451 0.62156863
0.80833333 0.99362745 0.62107843
0.88823529 0.99607843 0.57843137
0.96176471 0.99607843 0.50490196
1 1 0.3372549
0.0088235294 0.0083333333 0.058333333
0.084803922 0.015686275 0.069607843
0.16188725 0.0082107843 0.061764706
0.27647059 0.015379902 0.053615196
0.4120098 0.041421569 0.068627451
0.56029412 0.068137255 0.10343137
0.70980392 0.083333333 0.14215686
0.84908088 0.10637255 0.17696078
0.97254902 0.1254902 0.21176471
0.061764706 0.1004902 0.096568627
0.10446538 0.096568627 0.096515012
0.18872549 0.1004902 0.092647059
0.29969363 0.10833333 0.092378983
0.43112745 0.11645221 0.08872549
0.57532935 0.12530637 0.099042586
0.7185049 0.12058824 0.13448223
0.85680913 0.12929688 0.17304687
0.98045343 0.12941176 0.21182598
0.094485294 0.20490196 0.13529412
0.13154105 0.19742647 0.13529412
0.21188725 0.20392157 0.13051471
0.32259498 0.2118413 0.12745098
0.45196078 0.21292892 0.11960784
0.59901961 0.21605392 0.10845588
0.7379902 0.21164216 0.12208946
0.86727941 0.18313419 0.16531863
0.98382353 0.13676471 0.21519608
0.12058824 0.32745098 0.17432598
0.15602788 0.32771906 0.16693474
0.23529412 0.32990196 0.16617647
0.34558824 0.33705576 0.15913756
0.47892157 0.34371936 0.15073529
0.62408854 0.3536152 0.13732384
0.76384804 0.3495098 0.10837929
0.89019608 0.31731771 0.13535539
0.9713848 0.2786152 0.17058824
0.14142157 0.47083333 0.22647059
0.19117647 0.47276348 0.21691176
0.26789216 0.48259804 0.21648284
0.37662377 0.49338235 0.21862745
0.51666667 0.5 0.19705882
0.65637255 0.50995711 0.1625
0.79264706 0.5122549 0.12941176
0.91323529 0.5049326 0.1
0.99215686 0.47647059 0.11348039
0.20177696 0.62696078 0.29754902
0.24144455 0.63045343 0.29264706
0.31862745 0.64287684 0.28307292
0.42481618 0.65605852 0.28186275
0.5504902 0.66593137 0.2754902
0.68186275 0.67960325 0.23859528
0.80784314 0.69015012 0.16041667
0.93077512 0.69883578 0.080392157
0.99626225 0.703125 0.039522059
0.29718137 0.76862745 0.38676471
0.32365196 0.76374081 0.38382353
0.39607843 0.77558211 0.38639706
0.4915288 0.78823529 0.38471201
0.59215686 0.80539216 0.36452206
0.70098039 0.81960784 0.33858762
0.82288603 0.83244485 0.26519608
0.93916973 0.85931373 0.11312806
0.99215686 0.87156863 0.01127451
0.44166667 0.87604167 0.51960784
0.45686275 0.8721201 0.51563266
0.49805453 0.88676471 0.50392157
0.56350337 0.89997702 0.49328278
0.65003064 0.9166973 0.48823529
0.73658088 0.9303079 0.46764706
0.84039522 0.94607843 0.41564032
0.94689032 0.96133578 0.30275735
0.99607843 0.98186275 0.058762255
0.58872549 0.97696078 0.65882353
0.59221814 0.97352941 0.64754902
0.61911765 0.97598039 0.64840686
0.66372549 0.98039216 0.64509804
0.72916667 0.99166667 0.64828431
0.80441176 0.99215686 0.63743873
0.88566176 0.99252451 0.60232843
0.96960784 0.9995098 0.56421569
1 1 0.42205882
0.02254902 0.011764706 0.13529412
0.066666667 0.011764706 0.13529412
0.15710784 0.011764706 0.13039216
0.27144608 0.019607843 0.12745098
0.40686275 0.026960784 0.12352941
0.56029412 0.055269608 0.13676471
0.71764706 0.090196078 0.14828431
0.85208333 0.11017157 0.18002451
0.97647059 0.12843137 0.21176471
0.050490196 0.092647059 0.16519608
0.089705882 0.08872549 0.1622549
0.17729779 0.095833333 0.16099877
0.29178922 0.10441176 0.15721507
0.4276348 0.11053922 0.14852941
0.57941176 0.12068015 0.13872549
0.72634804 0.12855392 0.14512868
0.861106 0.13252145 0.17696078
0.98468137 0.13284314 0.21213235
0.084558824 0.19534314 0.19926471
0.11715686 0.19607843 0.19684436
0.20171569 0.19571078 0.19552696
0.30949755 0.20009191 0.19004289
0.45085784 0.21139706 0.18051471
0.59742647 0.22334559 0.17300858
0.74191176 0.22199755 0.15980392
0.87613358 0.19613971 0.16531863
0.99019608 0.14191176 0.21397059
0.10196078 0.31715686 0.23480392
0.14148284 0.32352941 0.23578431
0.22331495 0.32625613 0.23541667
0.34097733 0.33137255 0.23393076
0.47745098 0.34313725 0.22083333
0.62156863 0.35343137 0.20796569
0.76813725 0.3495098 0.17107843
0.89817708 0.33872549 0.14126838
0.98884804 0.28909314 0.17438725
0.10931373 0.47254902 0.28823529
0.16985294 0.47254902 0.28468137
0.25 0.48039216 0.28370098
0.37034314 0.48431373 0.28186275
0.50833333 0.49509804 0.27352941
0.65275735 0.50857843 0.25245098
0.79117647 0.51421569 0.20490196
0.92279412 0.51372549 0.12886029
0.97794118 0.49019608 0.11960784
0.19080882 0.62156863 0.35931373
0.22009804 0.6254902 0.35507047
0.30294118 0.63088235 0.35147059
0.41335784 0.6432598 0.35147059
0.54387255 0.65808824 0.34068627
0.67401961 0.6694087 0.31202512
0.80428922 0.68210784 0.24914216
0.92009804 0.69215686 0.16150429
0.99117647 0.69117647 0.061642157
0.28627451 0.76176471 0.43529412
0.325 0.75303309 0.43722426
0.38823529 0.76397059 0.44019608
0.48526348 0.7810049 0.43973652
0.58713235 0.79644608 0.42401961
0.70098039 0.80836397 0.40416667
0.81740196 0.82395833 0.35563725
0.9299326 0.84356618 0.24068627
0.99215686 0.86372549 0.050980392
0.43125 0.87647059 0.55784314
0.45255821 0.86813725 0.55428922
0.49126838 0.88357843 0.54552696
0.5620864 0.90355392 0.54149816
0.6502451 0.90588235 0.54031863
0.73872549 0.92058824 0.52754289
0.83970588 0.93088235 0.48385417
0.94324449 0.95189951 0.38578431
0.99644608 0.98272059 0.17855392
0.55882353 0.95392157 0.66666667
0.58970588 0.96666667 0.68198529
0.63137255 0.98235294 0.69411765
0.66911765 0.98394608 0.68602941
0.7254902 0.98529412 0.68137255
0.80441176 0.99607843 0.68247549
0.88112745 0.99117647 0.63137255
0.96973039 0.99620098 0.61703431
1 1 0.5
0.019607843 0.0093137255 0.20882353
0.045588235 0.009497549 0.20508578
0.13578431 0.0078431373 0.20490196
0.25386029 0.021139706 0.21127451
0.3995098 0.020343137 0.20147059
0.56029412 0.045159314 0.1877451
0.71764706 0.080882353 0.15784314
0.85686275 0.11158088 0.18872549
0.975 0.12941176 0.21421569
0.054227941 0.084987745 0.24607843
0.074509804 0.077144608 0.24577206
0.16104473 0.089828431 0.24215686
0.27071844 0.092647059 0.2460095
0.41109069 0.099264706 0.24126838
0.56783088 0.11483609 0.23173254
0.72383578 0.11685049 0.19811581
0.86452206 0.12506127 0.19101562
0.97254902 0.13333333 0.21421569
0.077818627 0.18247549 0.27904412
0.11515012 0.18800551 0.28088235
0.1841299 0.1916973 0.28005515
0.29523591 0.1942402 0.28088235
0.42990196 0.20122549 0.27622549
0.5810049 0.20885417 0.26280637
0.7372549 0.21259191 0.23970588
0.88333333 0.20623468 0.18088235
0.98578431 0.16617647 0.20784314
0.095036765 0.31660539 0.31868873
0.13101256 0.31323529 0.31568627
0.21066176 0.31983762 0.31960784
0.32710631 0.32297794 0.32056526
0.45885417 0.33137255 0.31813725
0.61014859 0.34682904 0.30153186
0.76032475 0.34738051 0.26911765
0.89931066 0.33206189 0.19755668
0.99215686 0.30582108 0.16764706
0.08627451 0.46470588 0.36421569
0.14206495 0.46544118 0.36813725
0.2370098 0.47254902 0.36813725
0.36151961 0.48039216 0.37178309
0.49166667 0.48541667 0.36936275
0.63976716 0.49923407 0.35143995
0.77573529 0.50465686 0.31262255
0.90530025 0.49932598 0.24525123
0.98823529 0.49019608 0.15490196
0.16905637 0.6161152 0.43045343
0.20060509 0.6161152 0.43045343
0.29742647 0.62280944 0.43713235
0.40882353 0.6314568 0.44074755
0.52935049 0.64338235 0.43682598
0.66429994 0.658678 0.42303922
0.79076287 0.66617647 0.38126532
0.90846354 0.67248775 0.2960095
0.990625 0.67604167 0.15588235
0.27696078 0.74901961 0.50588235
0.30245098 0.74803922 0.50629596
0.37699142 0.75713848 0.51210172
0.47022059 0.77231924 0.51764706
0.57720588 0.78400735 0.51145833
0.6901348 0.79607843 0.49901961
0.80867034 0.80992647 0.46605392
0.92366728 0.82904412 0.38786765
0.99644608 0.84987745 0.18566176
0.41832108 0.87990196 0.60294118
0.44509804 0.8651348 0.60686275
0.48627451 0.87936581 0.59901961
0.55539216 0.88481158 0.60820313
0.64626225 0.89329044 0.61078431
0.73480392 0.91029412 0.59835325
0.83265931 0.9317402 0.57218137
0.93502604 0.94656863 0.51035539
0.99215686 0.9591299 0.36764706
0.58186275 0.9622549 0.72401961
0.58921569 0.96078431 0.71991422
0.61764706 0.96764706 0.72156863
0.66127451 0.97254902 0.72101716
0.72352941 0.98039216 0.72647059
0.79564951 0.98639706 0.71439951
0.88039216 0.99362745 0.71519608
0.95784314 0.99822304 0.68118873
1 0.99607843 0.60735294
0.0098039216 0.01372549 0.30196078
0.05 0.0078431373 0.30392157
0.11862745 0.0073529412 0.3
0.2372549 0.010539216 0.30588235
0.38039216 0.01372549 0.30196078
0.54926471 0.022058824 0.27696078
0.70882353 0.065686275 0.25637255
0.85465686 0.1002451 0.20073529
0.96666667 0.12156863 0.22941176
0.033088235 0.065441176 0.33872549
0.06127451 0.069117647 0.34068627
0.14411765 0.075245098 0.34632353
0.25441176 0.080392157 0.34852941
0.39558824 0.089828431 0.34828431
0.55514706 0.10318627 0.33480392
0.71470588 0.10667892 0.30300245
0.8625 0.12303922 0.25392157
0.98039216 0.1254902 0.22352941
0.06372549 0.17107843 0.37156863
0.10177696 0.17303922 0.36960784
0.17071078 0.18039216 0.37732843
0.2754902 0.18823529 0.38651961
0.4127451 0.19240196 0.3872549
0.56734069 0.19908088 0.37904412
0.7245098 0.19705882 0.35588235
0.87015931 0.19436275 0.2875
0.98088235 0.17696078 0.22107843
0.081617647 0.29534314 0.40955882
0.11862745 0.30229779 0.40955882
0.18970588 0.31268382 0.41887255
0.30367647 0.3176777 0.42647059
0.43713235 0.32242647 0.42990196
0.59019608 0.3330576 0.42496936
0.73841912 0.33333333 0.39748775
0.88235294 0.32156863 0.33226103
0.99411765 0.29509804 0.22573529
0.074509804 0.44901961 0.46078431
0.097671569 0.45294118 0.46078431
0.21568627 0.46348039 0.46446078
0.33982843 0.46666667 0.47218137
0.47254902 0.47303922 0.4754902
0.62071078 0.48897059 0.47610294
0.76151961 0.4877451 0.44240196
0.89865196 0.48627451 0.38480392
0.99411765 0.47647059 0.26764706
0.10955882 0.60269608 0.51862745
0.16323529 0.60343137 0.52049632
0.27224265 0.6161152 0.52647059
0.38921569 0.61911765 0.53431373
0.51164216 0.62463235 0.53431373
0.6504902 0.64114583 0.53039216
0.77469363 0.65018382 0.50147059
0.90612745 0.65539216 0.43985907
0.99681373 0.6625 0.30980392
0.24607843 0.7377451 0.58235294
0.28431373 0.74509804 0.58480392
0.35882353 0.75441176 0.59166667
0.45490196 0.76078431 0.59656863
0.56372549 0.76691176 0.59215686
0.68082108 0.77916667 0.59276961
0.79742647 0.79460784 0.57242647
0.90906863 0.80686275 0.52849265
0.98970588 0.81666667 0.41470588
0.40294118 0.86666667 0.66421569
0.43553922 0.86813725 0.66813725
0.48088235 0.8716299 0.66813725
0.54739583 0.8786152 0.67141544
0.62867647 0.88186275 0.67598039
0.72981005 0.89632353 0.67254902
0.82726716 0.91740196 0.65367647
0.92349877 0.93655025 0.61838235
0.99215686 0.94534314 0.50931373
0.58039216 0.96078431 0.77058824
0.57230392 0.94534314 0.75318627
0.62303922 0.96666667 0.7745098
0.66985294 0.97328431 0.77990196
0.71372549 0.96372549 0.76372549
0.79191176 0.97843137 0.77058824
0.87352941 0.99215686 0.77009804
0.94656863 0.99215686 0.73284314
0.99607843 0.99607843 0.69607843
0.011764706 0.029901961 0.42254902
0.017647059 0.0078431373 0.4254902
0.095710784 0.0078431373 0.41372549
0.22009804 0.022058824 0.43333333
0.36911765 0.015686275 0.42426471
0.52800245 0.0093137255 0.41072304
0.6872549 0.026960784 0.39129902
0.84540441 0.060784314 0.35226716
0.97941176 0.12156863 0.23921569
0.0052083333 0.053921569 0.43547794
0.036764706 0.060784314 0.44442402
0.12058824 0.069255515 0.45245098
0.23529412 0.073230699 0.46366422
0.37729779 0.076623775 0.46813725
0.53745404 0.085983456 0.46292126
0.69754902 0.091314338 0.44652267
0.84773284 0.087584252 0.38921569
0.98633578 0.11458333 0.2689951
0.045710784 0.16470588 0.47009804
0.075045956 0.1691636 0.47530637
0.14068627 0.17941176 0.48688725
0.25833333 0.18039216 0.5001685
0.39767157 0.18602941 0.50667892
0.55428922 0.18884804 0.51188725
0.70677083 0.18057598 0.4935049
0.84901961 0.17205882 0.43921569
0.97254902 0.17205882 0.36090686
0.067585784 0.29068627 0.50490196
0.086090686 0.29411765 0.51256127
0.15957414 0.30614277 0.52058824
0.27653186 0.31176471 0.53535539
0.42356005 0.31176471 0.54635417
0.57303922 0.31666667 0.5495098
0.71963848 0.3162837 0.5333027
0.86243107 0.30851716 0.48633578
0.96960784 0.28584559 0.42696078
0.053431373 0.44656863 0.55147059
0.053431373 0.44901961 0.55530025
0.17310049 0.45686275 0.56323529
0.31032475 0.45686275 0.57380515
0.45490196 0.46470588 0.58321078
0.60392157 0.47647059 0.58676471
0.73982843 0.47935049 0.5754902
0.88161765 0.46740196 0.53382353
0.98357843 0.45539216 0.45857843
0.050061275 0.59503676 0.6004902
0.10772825 0.59944087 0.6028799
0.23800551 0.60680147 0.60957414
0.36272212 0.61127451 0.62007506
0.50343137 0.61519608 0.62696078
0.63480392 0.62938879 0.6278799
0.76401654 0.63872549 0.62045037
0.88805147 0.63706342 0.58694087
0.98431373 0.63088235 0.51617647
0.20294118 0.73002451 0.65588235
0.25035233 0.73711703 0.65957414
0.33676471 0.74473039 0.66792279
0.43442096 0.74901961 0.67225797
0.55061275 0.75716912 0.67879902
0.66999081 0.76770833 0.6794424
0.78759191 0.78109681 0.67696078
0.9 0.79105392 0.6506587
0.99546569 0.79889706 0.57647059
0.38970588 0.84491422 0.72420343
0.4127451 0.858678 0.72990196
0.46242341 0.86813725 0.73279718
0.53627451 0.86765472 0.73743873
0.61626838 0.86822917 0.7377451
0.72041207 0.8830193 0.73990502
0.81568627 0.90404412 0.73921569
0.91437653 0.91764706 0.71911765
0.99430147 0.92910539 0.64068627
0.55931373 0.94117647 0.80147059
0.5745098 0.94607843 0.80655637
0.61078431 0.95294118 0.81323529
0.66035539 0.96078431 0.82254902
0.70980392 0.95686275 0.81470588
0.78480392 0.96862745 0.81917892
0.86470588 0.98431373 0.82647059
0.93480392 0.97824755 0.79050245
0.97892157 0.98823529 0.78088235
0 0 0.50588235
0.011642157 0.011764706 0.52928922
0.059803922 0.0039215686 0.5245098
0.19375 0.019240196 0.55477941
0.33186275 0.0068627451 0.55294118
0.50441176 0.027818627 0.56997549
0.66446078 0.020343137 0.54509804
0.82892157 0.020588235 0.51176471
0.99117647 0.096078431 0.33235294
0.0078431373 0.069240196 0.53970588
0.024800858 0.059926471 0.54754902
0.08973652 0.069577206 0.55922181
0.20833333 0.06127451 0.575
0.35343137 0.073468137 0.5877451
0.5158701 0.068995098 0.5998315
0.67405025 0.07533701 0.58651961
0.82855392 0.057827819 0.54368873
0.96384804 0.07120098 0.4567402
0.024754902 0.16078431 0.57058824
0.053431373 0.16862745 0.57815564
0.10588235 0.1747549 0.59019608
0.22843137 0.17585784 0.60833333
0.38247549 0.17928922 0.62365196
0.53887868 0.18823529 0.63186275
0.68939951 0.1754902 0.63333333
0.83339461 0.15245098 0.59546569
0.95661765 0.13553922 0.54117647
0.036764706 0.29852941 0.60539216
0.054840686 0.29215686 0.60539216
0.10735294 0.30784314 0.62009804
0.23419118 0.3105239 0.63584559
0.39993873 0.31568627 0.65153186
0.5571538 0.31421569 0.66237745
0.70196078 0.30637255 0.66740196
0.845144 0.28982843 0.63426777
0.97254902 0.25686275 0.59558824
0.02745098 0.44852941 0.64019608
0.025061275 0.44901961 0.64411765
0.10686275 0.45294118 0.65196078
0.27009804 0.45686275 0.66764706
0.42941176 0.46470588 0.6754902
0.58370098 0.47254902 0.69417892
0.72267157 0.47438725 0.69718137
0.85919118 0.46421569 0.68278186
0.98333333 0.43137255 0.63676471
0.013235294 0.5877451 0.67830882
0.044240196 0.59411765 0.67988664
0.18072917 0.59914216 0.68998162
0.32964154 0.60721507 0.7022212
0.48180147 0.61397059 0.7129902
0.61591605 0.626731 0.71983762
0.7495098 0.63088235 0.73026961
0.87780331 0.6307598 0.72169118
0.98982843 0.61629902 0.6754902
0.14705882 0.72156863 0.72867647
0.19460784 0.72539828 0.72928922
0.30122549 0.73333333 0.7338848
0.41577819 0.74316789 0.7448223
0.5310049 0.75294118 0.75367647
0.65355392 0.76078431 0.76452206
0.77328431 0.76960784 0.76960784
0.88719363 0.7765625 0.75744485
0.97573529 0.77647059 0.71960784
0.3745098 0.84767157 0.78333333
0.38835784 0.84808517 0.78209252
0.4479473 0.85615809 0.79509804
0.52169118 0.86412377 0.79509804
0.60667892 0.86960784 0.79852941
0.70637255 0.87745098 0.81248468
0.80343137 0.89175858 0.81862745
0.90032169 0.89865196 0.81519608
0.9877451 0.9060049 0.78480392
0.56078431 0.94117647 0.84509804
0.5689951 0.94117647 0.85159314
0.59901961 0.94509804 0.85588235
0.63872549 0.94362745 0.85833333
0.70245098 0.95147059 0.86421569
0.78235294 0.96764706 0.87941176
0.86004902 0.97941176 0.88333333
0.92696078 0.97990196 0.8754902
0.96862745 0.9872549 0.87156863
0.0039215686 0.0078431373 0.62156863
0.0039215686 0.011764706 0.63192402
0.030392157 0.0039215686 0.63284314
0.16862745 0.011764706 0.65539216
0.31348039 0.015686275 0.68039216
0.47107843 0.02745098 0.69607843
0.64105392 0.019607843 0.69522059
0.80147059 0.0039215686 0.66519608
0.90147059 0.026960784 0.60735294
0.0039215686 0.065625 0.64019608
0.0078431373 0.060784314 0.640625
0.06372549 0.061764706 0.65588235
0.17587316 0.06127451 0.67794118
0.32674632 0.071323529 0.70189951
0.48872549 0.073345588 0.716322
0.6488511 0.066053922 0.72663909
0.79836091 0.049080882 0.7115962
0.925 0.019056373 0.67261029
0.0039215686 0.16470588 0.6627451
0.030713848 0.17254902 0.66645221
0.080177696 0.17889093 0.67794118
0.18912377 0.18399203 0.70098039
0.34583333 0.18841912 0.72794118
0.51384804 0.18762255 0.75009191
0.67117034 0.17941176 0.75977328
0.81640625 0.14460784 0.74301471
0.94362745 0.099019608 0.72598039
0.022058824 0.3 0.68970588
0.030453431 0.29607843 0.69362745
0.063357843 0.31139706 0.70453431
0.19097733 0.31421569 0.72530637
0.36078431 0.31960784 0.74779412
0.52843137 0.31960784 0.77401961
0.67899816 0.30651042 0.78849571
0.825 0.28627451 0.78306526
0.94705882 0.25931373 0.76176471
0.019362745 0.44509804 0.71666667
0.017218137 0.44509804 0.72058824
0.034191176 0.45294118 0.73272059
0.20465686 0.46004902 0.74675245
0.40036765 0.46470588 0.77009804
0.55784314 0.46470588 0.79420956
0.70006127 0.46403186 0.80784314
0.8426777 0.46228554 0.81522672
0.95882353 0.42745098 0.8
0.0078431373 0.58627451 0.74754902
0.0080039828 0.591322 0.74754902
0.085554534 0.59558824 0.75968137
0.27598039 0.60196078 0.78137255
0.44558824 0.61053922 0.80196078
0.59117647 0.62303922 0.81459099
0.72745098 0.62303922 0.82745098
0.85795037 0.62254902 0.8346201
0.95441176 0.60735294 0.82567402
0.046078431 0.7245098 0.78713235
0.13321078 0.72156863 0.78590686
0.22159926 0.73039216 0.7979473
0.36862745 0.73707108 0.80588235
0.50189951 0.75269608 0.82254902
0.63394608 0.7569087 0.84448529
0.75392157 0.76492034 0.85238971
0.87578125 0.76433824 0.85735294
0.97169118 0.76029412 0.85392157
0.30876225 0.84411765 0.83284314
0.33468903 0.84019608 0.83278952
0.41450674 0.85202206 0.84068627
0.48366268 0.85664063 0.84695159
0.59188113 0.86204044 0.85594363
0.68790594 0.87598039 0.86987592
0.79705882 0.88350184 0.88394608
0.89607843 0.89215686 0.89221048
0.95882353 0.88823529 0.88823529
0.52598039 0.92990196 0.87941176
0.53192402 0.92892157 0.87892157
0.58051471 0.93860294 0.88688725
0.628125 0.94460784 0.89460784
0.68995098 0.94901961 0.90245098
0.76519608 0.95814951 0.91176471
0.85428922 0.97561275 0.93039216
0.91819853 0.95251225 0.91464461
0.99215686 0.98039216 0.91078431
0 0.0078431373 0.70980392
0.0039215686 0.011764706 0.71372549
0.023529412 0.0078431373 0.72843137
0.13382353 0.014215686 0.75294118
0.28823529 0.015686275 0.78627451
0.45196078 0.0078431373 0.80784314
0.62941176 0.0098039216 0.80392157
0.775 0.0078431373 0.82303922
0.92941176 0 0.74117647
0.0039215686 0.060784314 0.70245098
0.0078431373 0.065134804 0.70545343
0.024509804 0.073529412 0.74362745
0.15098039 0.07432598 0.76060049
0.30367647 0.080637255 0.79411765
0.46176471 0.080698529 0.81911765
0.62843137 0.068627451 0.8504902
0.78284314 0.033272059 0.86721814
0.91813725 0.010294118 0.85539216
0 0.17254902 0.73921569
0.011151961 0.17647059 0.74448529
0.055882353 0.18504902 0.75906863
0.14889706 0.18823529 0.78039216
0.3127451 0.19607843 0.80196078
0.48627451 0.19509804 0.83492647
0.65857843 0.17941176 0.83014706
0.80098039 0.14411765 0.85551471
0.91568627 0.10196078 0.88627451
0.0078431373 0.30392157 0.75686275
0.011764706 0.30392157 0.76666667
0.043627451 0.31360294 0.76862745
0.15435049 0.31813725 0.78431373
0.3372549 0.3247549 0.81029412
0.50447304 0.32745098 0.85490196
0.66372549 0.31715686 0.87267157
0.81617647 0.29411765 0.87352941
0.93578431 0.25784314 0.89803922
0.0039215686 0.44509804 0.77843137
0.0039215686 0.44901961 0.78578431
0.01127451 0.45441176 0.77107843
0.11838235 0.46078431 0.8129902
0.34901961 0.46568627 0.84607843
0.53088235 0.47254902 0.86421569
0.68137255 0.47254902 0.89068627
0.82794118 0.46470588 0.92034314
0.95882353 0.43529412 0.93333333
0.0039215686 0.58627451 0.79215686
0.011458333 0.58627451 0.7995098
0.026470588 0.59522059 0.8122549
0.17297794 0.5995098 0.83621324
0.38455882 0.60661765 0.85833333
0.55784314 0.62303922 0.88921569
0.70796569 0.62696078 0.91017157
0.84264706 0.62677696 0.92941176
0.93872549 0.61519608 0.9372549
0.015686275 0.72156863 0.82156863
0.03872549 0.72242647 0.83198529
0.10514706 0.72941176 0.84632353
0.30085784 0.73333333 0.85943627
0.46911765 0.74509804 0.87745098
0.61286765 0.75686275 0.89914216
0.74215686 0.76495098 0.9127451
0.86433824 0.76568627 0.93088235
0.96470588 0.75784314 0.94901961
0.26029412 0.84117647 0.85931373
0.29019608 0.84117647 0.85931373
0.3622549 0.84497549 0.87009804
0.4403799 0.85116422 0.88676471
0.56642157 0.85686275 0.9004902
0.66470588 0.87598039 0.91960784
0.77745098 0.88382353 0.93468137
0.88131127 0.8877451 0.94460784
0.97647059 0.89166667 0.95343137
0.5372549 0.9372549 0.89411765
0.53676471 0.93676471 0.89754902
0.55294118 0.93235294 0.90392157
0.6127451 0.94264706 0.9254902
0.68235294 0.95882353 0.93921569
0.73088235 0.93186275 0.92941176
0.85 0.96862745 0.94215686
0.91470588 0.96862745 0.95343137
0.99607843 0.99607843 0.99607843
