site/assets/luts/sha256-a52eb7902d918bbb770dafd44a01d7e441ad375567940b7b00803603058983d5.cube
# LUTr-Schema-Version: 2
# LUTr-ID: sha256-a52eb7902d918bbb770dafd44a01d7e441ad375567940b7b00803603058983d5
# LUTr-Title: kodak portra 160 ++
# LUTr-Collection: Natron HaldCLUT
# LUTr-Collection-ID: natron-haldclut-presets
# LUTr-Source: https://github.com/NatronGitHub/clut
# LUTr-Retrieved: 2026-07-27
# LUTr-Source-File: submissions/natron-haldclut-presets/negative_new/kodak_portra_160_++.png
# LUTr-Source-Format: HALD-PNG
# LUTr-Source-SHA256: a52eb7902d918bbb770dafd44a01d7e441ad375567940b7b00803603058983d5
# LUTr-License: CC-BY-SA-4.0
# LUTr-License-URL: https://github.com/NatronGitHub/clut#license
# LUTr-License-Basis: repo-license-file
# LUTr-Transform-Class: film-emulation
# LUTr-Tags: creative, film, film-emulation, hald-clut, natron, png, cube
# LUTr-Input-Color-Space: srgb
# LUTr-Input-Gamut: rec709
# LUTr-Input-Transfer: srgb
# LUTr-Output-Color-Space: srgb
# LUTr-Output-Gamut: rec709
# LUTr-Output-Transfer: srgb
# LUTr-Color-Space-Confidence: assumed-display-referred
# LUTr-Domain-Normalized: true
# LUTr-Shaper: none
# LUTr-Original-Grid: 64x64x64
# LUTr-Conversion-Grid: 25x25x25
# LUTr-Conversion-Interpolation: trilinear
# LUTr-Conversion-Method: HALD-PNG LUT image decoded at 16-bit and sampled to 25x25x25 3D CUBE
# LUTr-Conversion-Tool: LUTr scripts/convert-all-to-cube.mjs 2.0.0
# LUTr-Conversion-Date: 2026-07-27
# LUTr-Note: Preserve this metadata and the upstream license notices when redistributing.
TITLE "kodak portra 160 ++"
LUT_3D_SIZE 25
DOMAIN_MIN 0 0 0
DOMAIN_MAX 1 1 1
0.15294118 0.10980392 0.082352941
0.15931373 0.099509804 0.08627451
0.16568627 0.089215686 0.08627451
0.17205882 0.078921569 0.08627451
0.18627451 0.07254902 0.088235294
0.2254902 0.082843137 0.082352941
0.26666667 0.08627451 0.082352941
0.30784314 0.075490196 0.080882353
0.34901961 0.050980392 0.078431373
0.40294118 0.039215686 0.075980392
0.46372549 0.039215686 0.065686275
0.52254902 0.039215686 0.055392157
0.58039216 0.033333333 0.041176471
0.63382353 0.019117647 0.030392157
0.68529412 0.0088235294 0.016666667
0.73529412 0.0053921569 0.0039215686
0.77647059 0.019607843 0.0039215686
0.81372549 0.033823529 0.0039215686
0.85098039 0.044117647 0.0029411765
0.88480392 0.065196078 0
0.91176471 0.10980392 0
0.94264706 0.15490196 0
0.96666667 0.17941176 0
0.97941176 0.18578431 0
0.99215686 0.18823529 0
0.14656863 0.11764706 0.079901961
0.15294118 0.10980392 0.082352941
0.16115196 0.099509804 0.083823529
0.17205882 0.091360294 0.08627451
0.19264706 0.092401961 0.081862745
0.22518382 0.099509804 0.075980392
0.26421569 0.10686275 0.072058824
0.30784314 0.092156863 0.074509804
0.35294118 0.074019608 0.078431373
0.4098652 0.066176471 0.065686275
0.4682598 0.066176471 0.055392157
0.52677696 0.060294118 0.045098039
0.58235294 0.049264706 0.036029412
0.63627451 0.034313725 0.024509804
0.6877451 0.022916667 0.012745098
0.73529412 0.018198529 0.0015318627
0.77647059 0.03872549 0.0039215686
0.81372549 0.061764706 0.0039215686
0.85036765 0.078431373 0.0029411765
0.88480392 0.095098039 0
0.91568627 0.12132353 0
0.9463848 0.16078431 0
0.96727941 0.18296569 0
0.97886029 0.18823529 0
0.98186275 0.18823529 0
0.14019608 0.12647059 0.074509804
0.14656863 0.12009804 0.078063725
0.15882353 0.11176471 0.079411765
0.17647059 0.11531863 0.082352941
0.20098039 0.11568627 0.076470588
0.22585784 0.11997549 0.069117647
0.2627451 0.12720588 0.061764706
0.30539216 0.11213235 0.068137255
0.35784314 0.10490196 0.069607843
0.41507353 0.098529412 0.052941176
0.47254902 0.093137255 0.041176471
0.53051471 0.085784314 0.035661765
0.58627451 0.076960784 0.042156863
0.6377451 0.071568627 0.021691176
0.68921569 0.071568627 0.0095588235
0.73529412 0.073651961 0.0045343137
0.77647059 0.083333333 0.0039215686
0.81409314 0.099019608 0.0039215686
0.85 0.11960784 0
0.88088235 0.13627451 0
0.91568627 0.15245098 0
0.95061275 0.17193627 0
0.96838235 0.18529412 0.00073529412
0.97156863 0.18921569 0.0039215686
0.97156863 0.18921569 0.0039215686
0.12990196 0.13676471 0.070588235
0.14234069 0.13253676 0.073223039
0.15882353 0.13590686 0.079411765
0.17640931 0.13927696 0.085355392
0.20245098 0.14019608 0.07622549
0.23192402 0.14019608 0.062254902
0.25980392 0.14313725 0.052328431
0.30900735 0.13578431 0.060784314
0.36421569 0.13186275 0.059313725
0.41832108 0.12941176 0.042647059
0.4754902 0.12745098 0.031862745
0.53088235 0.12696078 0.028370098
0.58627451 0.12696078 0.02377451
0.64117647 0.12696078 0.016115196
0.68921569 0.12696078 0.011764706
0.73529412 0.13216912 0.0078431373
0.77647059 0.13480392 0.0039215686
0.81519608 0.14166667 0
0.85 0.15723039 0
0.88088235 0.17444853 0
0.91568627 0.19044118 0.0017156863
0.9504902 0.20637255 0.0034926471
0.97120098 0.21029412 0.0073529412
0.97254902 0.21390931 0.01127451
0.97598039 0.21421569 0.01127451
0.12352941 0.14705882 0.064705882
0.13897059 0.15343137 0.073039216
0.15637255 0.15931373 0.079411765
0.17181373 0.1627451 0.08627451
0.19215686 0.16176471 0.08627451
0.22303922 0.16495098 0.071568627
0.25882353 0.17156863 0.057352941
0.30931373 0.1745098 0.058823529
0.36470588 0.1745098 0.062745098
0.42009804 0.1745098 0.042156863
0.47794118 0.175 0.026470588
0.53455882 0.17843137 0.021813725
0.59019608 0.17941176 0.017647059
0.64338235 0.18235294 0.011764706
0.69019608 0.18431373 0.0083333333
0.73137255 0.18627451 0.0078431373
0.77254902 0.18627451 0.0039215686
0.81372549 0.19019608 0.00073529412
0.85 0.1995098 0.0024509804
0.88088235 0.21519608 0.0039215686
0.91568627 0.23137255 0.0039215686
0.94632353 0.24362745 0.0078431373
0.96911765 0.24852941 0.01127451
0.98112745 0.25098039 0.017156863
0.98627451 0.25098039 0.021568627
0.12156863 0.19068627 0.067156863
0.13400735 0.19283088 0.074816176
0.14963235 0.19460784 0.08370098
0.16715686 0.19460784 0.089767157
0.18431373 0.19411765 0.089705882
0.21758578 0.20245098 0.077512255
0.25490196 0.2127451 0.070955882
0.30667892 0.22175245 0.061580882
0.36470588 0.22205882 0.058333333
0.42254902 0.22205882 0.037745098
0.47941176 0.22598039 0.02254902
0.53523284 0.22598039 0.016176471
0.59240196 0.23186275 0.0098039216
0.64601716 0.2377451 0.0039215686
0.69019608 0.2377451 0.0037990196
0.73137255 0.2377451 0.0039215686
0.77254902 0.23382353 0.0039215686
0.81127451 0.24019608 0.0039215686
0.84693627 0.24656863 0.0039215686
0.88088235 0.25680147 0.0074142157
0.91348039 0.27230392 0.0078431373
0.94258578 0.28088235 0.0087622549
0.96666667 0.28431373 0.015686275
0.98333333 0.2877451 0.021078431
0.99215686 0.2877451 0.023529412
0.1245098 0.24215686 0.07745098
0.13186275 0.24215686 0.080882353
0.14387255 0.24142157 0.087254902
0.16078431 0.23921569 0.083823529
0.18088235 0.23529412 0.079411765
0.21372549 0.24362745 0.075367647
0.25490196 0.25392157 0.080392157
0.30294118 0.26176471 0.072426471
0.36176471 0.27352941 0.048039216
0.42254902 0.27647059 0.031372549
0.47941176 0.27745098 0.015931373
0.53566176 0.27745098 0.011887255
0.59411765 0.28333333 0.006372549
0.64901961 0.28921569 0.0029411765
0.69019608 0.28921569 0.0036764706
0.73137255 0.28921569 0.0039215686
0.77254902 0.28529412 0.0039215686
0.80980392 0.28921569 0.0039215686
0.84607843 0.29485294 0.0041666667
0.88051471 0.30147059 0.0078431373
0.91176471 0.31176471 0.0078431373
0.94215686 0.3189951 0.012254902
0.9627451 0.32254902 0.018627451
0.98223039 0.32365196 0.01997549
0.99215686 0.3254902 0.020588235
0.10686275 0.28039216 0.06127451
0.11715686 0.28192402 0.066727941
0.1377451 0.28431373 0.071568627
0.15459559 0.28039216 0.068137255
0.17377451 0.27647059 0.06372549
0.20851716 0.28333333 0.065686275
0.25392157 0.29264706 0.074877451
0.30202206 0.30539216 0.07254902
0.36078431 0.32107843 0.045588235
0.41954657 0.33376225 0.017708333
0.47830882 0.33615196 0.0057598039
0.53480392 0.33431373 0.0060661765
0.59215686 0.33553922 0.0078431373
0.64381127 0.34068627 0.0078431373
0.68982843 0.34068627 0.0093137255
0.73137255 0.34068627 0.0093137255
0.77254902 0.33676471 0.0078431373
0.80980392 0.33829657 0.0053921569
0.84607843 0.34129902 0.0039215686
0.88088235 0.34675245 0.0060661765
0.91176471 0.35294118 0.0078431373
0.93823529 0.35753676 0.012254902
0.96127451 0.36066176 0.018137255
0.97941176 0.36127451 0.016666667
0.99215686 0.36127451 0.014215686
0.090196078 0.31764706 0.047058824
0.11078431 0.32401961 0.050980392
0.13137255 0.3254902 0.050980392
0.14803922 0.32205882 0.050980392
0.16470588 0.31568627 0.047058824
0.20637255 0.32598039 0.054901961
0.25392157 0.33921569 0.054901961
0.30539216 0.3504902 0.049509804
0.35686275 0.36470588 0.031372549
0.41470588 0.38137255 0.010784314
0.47647059 0.39215686 0
0.53431373 0.39215686 0.0039215686
0.59019608 0.39411765 0.0078431373
0.64117647 0.39607843 0.011764706
0.68627451 0.39215686 0.014705882
0.73137255 0.39215686 0.015686275
0.76862745 0.38823529 0.011764706
0.80980392 0.38823529 0.011764706
0.84607843 0.38921569 0.0078431373
0.88088235 0.39215686 0.0078431373
0.91176471 0.39411765 0.0058823529
0.93480392 0.39607843 0.0083333333
0.95882353 0.39901961 0.011764706
0.97941176 0.4 0.0078431373
0.99215686 0.4 0.0039215686
0.1004902 0.36911765 0.043137255
0.11078431 0.36911765 0.040686275
0.12107843 0.37058824 0.036764706
0.13921569 0.36930147 0.036764706
0.16911765 0.36764706 0.041911765
0.20196078 0.36960784 0.045098039
0.24460784 0.38137255 0.050980392
0.29509804 0.39166667 0.045588235
0.34656863 0.40588235 0.028921569
0.40496324 0.41764706 0.0093137255
0.46617647 0.42892157 0.0028186275
0.52794118 0.44675245 0.0039215686
0.58627451 0.45392157 0.0078431373
0.63480392 0.45147059 0.011764706
0.6817402 0.44754902 0.015686275
0.72745098 0.44362745 0.018137255
0.76862745 0.43578431 0.015686275
0.80980392 0.43578431 0.011764706
0.84607843 0.43786765 0.011764706
0.87696078 0.43970588 0.0081495098
0.90931373 0.43970588 0.0039215686
0.93694853 0.43988971 0.0056985294
0.96066176 0.44117647 0.0078431373
0.98094363 0.44509804 0.0069240196
0.99215686 0.44362745 0.0039215686
0.11078431 0.41666667 0.038235294
0.11654412 0.41666667 0.03247549
0.11936275 0.41666667 0.025735294
0.13553922 0.41568627 0.023039216
0.17107843 0.41666667 0.032352941
0.20539216 0.41703431 0.038235294
0.24019608 0.42279412 0.042892157
0.28480392 0.43002451 0.043504902
0.33627451 0.44215686 0.026470588
0.39166667 0.45061275 0.010784314
0.45098039 0.46372549 0.0039215686
0.5127451 0.48039216 0.0039215686
0.57254902 0.49460784 0.010294118
0.625 0.49803922 0.015686275
0.67254902 0.49803922 0.015686275
0.71862745 0.49473039 0.015686275
0.76372549 0.49117647 0.015686275
0.80428922 0.4872549 0.015073529
0.84044118 0.4872549 0.011764706
0.87205882 0.4872549 0.0082107843
0.90735294 0.48627451 0.006372549
0.93835784 0.48627451 0.0039215686
0.9627451 0.48627451 0.0075980392
0.98333333 0.48627451 0.0057598039
0.99215686 0.48627451 0.0039215686
0.11372549 0.46470588 0.027941176
0.11764706 0.46439951 0.027634804
0.12598039 0.46078431 0.023529412
0.1466299 0.46035539 0.020098039
0.1745098 0.45710784 0.022058824
0.2088848 0.46078431 0.024938725
0.24019608 0.46470588 0.034803922
0.27794118 0.46881127 0.038051471
0.32941176 0.47696078 0.02745098
0.37745098 0.4846201 0.012928922
0.43039216 0.49375 0
0.49215686 0.50784314 0.0073529412
0.55 0.51862745 0.01372549
0.60778186 0.52892157 0.016115196
0.6622549 0.53872549 0.019607843
0.70833333 0.54295343 0.015686275
0.75343137 0.53921569 0.015686275
0.79215686 0.53872549 0.011764706
0.82794118 0.53786765 0.0082107843
0.86519608 0.53480392 0.0078431373
0.90220588 0.53137255 0.0078431373
0.93529412 0.53131127 0.0039215686
0.96568627 0.53088235 0.0039215686
0.98578431 0.53088235 0.0039215686
0.99215686 0.52745098 0.0039215686
0.11372549 0.50980392 0.017647059
0.11495098 0.50857843 0.018872549
0.13333333 0.50588235 0.019607843
0.15784314 0.50196078 0.017892157
0.17941176 0.49803922 0.011764706
0.20955882 0.49828431 0.012009804
0.24558824 0.50147059 0.020588235
0.28161765 0.50392157 0.024754902
0.32745098 0.50784314 0.017647059
0.37377451 0.51813725 0.0085784314
0.42058824 0.5245098 0.0039215686
0.47401961 0.53480392 0.0073529412
0.53333333 0.54509804 0.010784314
0.59093137 0.55931373 0.01372549
0.64607843 0.56960784 0.015196078
0.69485294 0.58186275 0.01372549
0.74117647 0.58627451 0.0098039216
0.78039216 0.58627451 0.0058823529
0.81764706 0.58382353 0.0058823529
0.85539216 0.58039216 0.0078431373
0.89411765 0.57745098 0.0078431373
0.93112745 0.57622549 0.0039215686
0.96568627 0.57254902 0.0039215686
0.98970588 0.57254902 0.0031862745
0.99607843 0.57254902 0
0.12745098 0.5504902 0.020098039
0.12745098 0.54675245 0.020098039
0.14803922 0.54571078 0.020098039
0.17254902 0.53964461 0.016666667
0.19313725 0.53504902 0.010539216
0.21856618 0.53480392 0.0093137255
0.25588235 0.53517157 0.016544118
0.2872549 0.53480392 0.010294118
0.3254902 0.53872549 0.0039215686
0.37322304 0.54656863 0.0081495098
0.42095588 0.55539216 0.011764706
0.46862745 0.56519608 0.0087622549
0.51911765 0.57598039 0.0078431373
0.57401961 0.58627451 0.0073529412
0.6254902 0.59914216 0.0077205882
0.67745098 0.61207108 0.0078431373
0.72843137 0.625 0.0044117647
0.77009804 0.62922794 0.0039215686
0.80735294 0.6254902 0.0039215686
0.84460784 0.62248775 0.0039215686
0.88186275 0.62156863 0.0039215686
0.92303922 0.61807598 0.0039215686
0.96421569 0.61470588 0.0035539216
0.99393382 0.60980392 0
0.99607843 0.61323529 0
0.16176471 0.58137255 0.034313725
0.16470588 0.58137255 0.030392157
0.17254902 0.57965686 0.026470588
0.19313725 0.57659314 0.023529412
0.21568627 0.57107843 0.025980392
0.24129902 0.56875 0.029411765
0.27058824 0.56960784 0.029411765
0.30110294 0.56960784 0.020098039
0.33235294 0.56960784 0.010784314
0.37806373 0.57745098 0.011764706
0.42352941 0.58553922 0.015686275
0.4682598 0.59264706 0.012132353
0.51372549 0.60294118 0.0078431373
0.55992647 0.61458333 0.0035539216
0.61102941 0.62745098 0.006127451
0.66323529 0.63872549 0.0078431373
0.71176471 0.64901961 0.0039215686
0.75294118 0.65870098 0.0039215686
0.79705882 0.66666667 0.0039215686
0.83431373 0.66666667 0.0039215686
0.87303922 0.66666667 0.0039215686
0.9127451 0.6622549 0.0039215686
0.95392157 0.65588235 0.0039215686
0.98823529 0.65098039 0.0035539216
0.99313725 0.65490196 0.0039215686
0.19656863 0.6122549 0.042156863
0.19656863 0.6122549 0.038235294
0.19718137 0.61556373 0.027573529
0.21372549 0.6122549 0.029718137
0.23823529 0.60710784 0.039460784
0.26145833 0.60441176 0.044607843
0.28688725 0.60441176 0.044607843
0.31421569 0.60441176 0.031372549
0.33872549 0.6004902 0.011764706
0.37843137 0.60686275 0.010294118
0.42352941 0.61323529 0.015686275
0.46470588 0.61991422 0.012254902
0.50906863 0.62990196 0.0078431373
0.55343137 0.64050245 0.0039215686
0.60147059 0.65294118 0.0068627451
0.64607843 0.66078431 0.010294118
0.69117647 0.67107843 0
0.73719363 0.68474265 0.0048406863
0.78345588 0.6995098 0.0033088235
0.82794118 0.70784314 0
0.86519608 0.70710784 0.0019607843
0.90392157 0.70343137 0.0039215686
0.94362745 0.69705882 0.0050245098
0.9754902 0.69515931 0.0093137255
0.98823529 0.69460784 0.0078431373
0.22745098 0.64705882 0.070588235
0.22745098 0.6495098 0.064215686
0.22843137 0.65 0.054901961
0.24215686 0.64705882 0.058823529
0.2627451 0.64117647 0.074509804
0.28333333 0.63921569 0.073039216
0.30392157 0.63529412 0.051960784
0.32843137 0.6377451 0.041666667
0.34901961 0.63529412 0.023529412
0.38235294 0.63529412 0.022058824
0.42352941 0.64313725 0.023529412
0.46470588 0.6504902 0.016176471
0.50196078 0.65686275 0.0058823529
0.54705882 0.66715686 0.0073529412
0.58823529 0.67745098 0.0058823529
0.62941176 0.68382353 0.010294118
0.6745098 0.69411765 0.0078431373
0.72205882 0.71078431 0.018137255
0.76960784 0.72647059 0.02254902
0.81715686 0.74068627 0.019607843
0.85882353 0.74509804 0.0058823529
0.9 0.74117647 0.0039215686
0.93431373 0.7372549 0.0078431373
0.96519608 0.73578431 0.015686275
0.98823529 0.73333333 0.0078431373
0.25833333 0.68823529 0.09754902
0.25833333 0.68823529 0.092095588
0.26568627 0.68431373 0.093627451
0.27726716 0.68057598 0.099509804
0.29362745 0.67720588 0.10073529
0.31029412 0.67383578 0.091360294
0.32696078 0.67254902 0.074509804
0.34417892 0.6716299 0.059865196
0.37352941 0.67009804 0.066176471
0.4004902 0.67009804 0.065625
0.43676471 0.67401961 0.060784314
0.475 0.68137255 0.053431373
0.51544118 0.6877451 0.052205882
0.55735294 0.69803922 0.051470588
0.59460784 0.70833333 0.058333333
0.63333333 0.71470588 0.062683824
0.67058824 0.72254902 0.059313725
0.71421569 0.73621324 0.066605392
0.75833333 0.75098039 0.071078431
0.80343137 0.76127451 0.07567402
0.84852941 0.77401961 0.081127451
0.89313725 0.77990196 0.041421569
0.92757353 0.77843137 0.036029412
0.96366422 0.7745098 0.03002451
0.98823529 0.7745098 0.0078431373
0.29313725 0.7254902 0.12647059
0.29019608 0.72487745 0.12071078
0.30196078 0.72132353 0.13039216
0.3122549 0.71678922 0.13811275
0.32647059 0.71323529 0.14166667
0.34068627 0.70980392 0.13247549
0.35490196 0.70980392 0.11642157
0.37242647 0.70882353 0.10502451
0.39509804 0.70588235 0.10490196
0.42144608 0.70588235 0.10490196
0.44779412 0.70661765 0.1002451
0.48529412 0.71237745 0.098039216
0.52647059 0.72107843 0.1004902
0.56715686 0.72977941 0.10208333
0.60196078 0.73921569 0.10906863
0.63394608 0.74411765 0.11372549
0.66960784 0.75098039 0.11078431
0.70784314 0.7622549 0.11715686
0.74901961 0.77254902 0.1245098
0.79313725 0.78578431 0.13737745
0.83823529 0.79754902 0.15539216
0.88333333 0.80992647 0.16544118
0.92083333 0.81372549 0.14754902
0.95845588 0.81470588 0.10392157
0.98431373 0.81176471 0.057843137
0.33137255 0.7627451 0.18137255
0.33137255 0.76060049 0.18137255
0.33627451 0.75796569 0.17892157
0.34313725 0.75490196 0.18529412
0.35735294 0.75098039 0.18431373
0.37156863 0.75098039 0.17401961
0.38578431 0.74803922 0.16335784
0.4 0.74705882 0.14558824
0.41862745 0.74362745 0.13970588
0.44528186 0.74313725 0.14313725
0.47120098 0.74705882 0.14571078
0.49993873 0.74748775 0.14307598
0.54044118 0.75686275 0.14509804
0.57745098 0.76372549 0.15055147
0.60833333 0.77009804 0.15735294
0.63921569 0.775 0.15833333
0.67009804 0.77892157 0.16176471
0.70520833 0.78578431 0.16862745
0.74166667 0.79607843 0.17892157
0.78284314 0.80637255 0.18921569
0.82622549 0.81666667 0.2
0.87003676 0.82745098 0.21378676
0.91421569 0.84117647 0.22671569
0.9536152 0.8495098 0.21550245
0.98039216 0.84901961 0.16764706
0.37254902 0.79803922 0.24117647
0.375 0.79803922 0.23921569
0.37892157 0.79558824 0.2372549
0.38382353 0.79215686 0.23382353
0.39019608 0.79117647 0.22156863
0.40245098 0.78995098 0.21348039
0.41666667 0.78823529 0.20490196
0.43161765 0.7875 0.19411765
0.44901961 0.78627451 0.19411765
0.47352941 0.78627451 0.19534314
0.49852941 0.78823529 0.19705882
0.52058824 0.78627451 0.18676471
0.55098039 0.79215686 0.1872549
0.58602941 0.79852941 0.19656863
0.61862745 0.80490196 0.20882353
0.65147059 0.81053922 0.21715686
0.68431373 0.81568627 0.22745098
0.71446078 0.81764706 0.22745098
0.74705882 0.82254902 0.23235294
0.78431373 0.82916667 0.24068627
0.81960784 0.83627451 0.25098039
0.86102941 0.8497549 0.26127451
0.90588235 0.86323529 0.27205882
0.94632353 0.87598039 0.27794118
0.98431373 0.88627451 0.2745098
0.41372549 0.83333333 0.29705882
0.41764706 0.83676471 0.29705882
0.42169118 0.83333333 0.29558824
0.42591912 0.83333333 0.28229167
0.43137255 0.82941176 0.26936275
0.43682598 0.82941176 0.25343137
0.4504902 0.82941176 0.25428922
0.46764706 0.82941176 0.26194853
0.4877451 0.82941176 0.2622549
0.50833333 0.82941176 0.2596201
0.52536765 0.82941176 0.25208333
0.54215686 0.82598039 0.23878676
0.5620098 0.82720588 0.23088235
0.59852941 0.83290441 0.25055147
0.63321078 0.83970588 0.26764706
0.66764706 0.84479167 0.27910539
0.69852941 0.85245098 0.28921569
0.72598039 0.85245098 0.28921569
0.75735294 0.85637255 0.29276961
0.79117647 0.86029412 0.29705882
0.82598039 0.86838235 0.30686275
0.86121324 0.87647059 0.31666667
0.90196078 0.88933824 0.32438725
0.94246324 0.90098039 0.33382353
0.96764706 0.91078431 0.34019608
0.45882353 0.8745098 0.35588235
0.46237745 0.8745098 0.35490196
0.46593137 0.8745098 0.35098039
0.47046569 0.8745098 0.33982843
0.4745098 0.87058824 0.32598039
0.475 0.86409314 0.3129902
0.48823529 0.86985294 0.31936275
0.50588235 0.87058824 0.32683824
0.5254902 0.87352941 0.33039216
0.5442402 0.87058824 0.32855392
0.5620098 0.87058824 0.32156863
0.57683824 0.87058824 0.31127451
0.59313725 0.86666667 0.30637255
0.61911765 0.87071078 0.31911765
0.65294118 0.87745098 0.33259804
0.68480392 0.88272059 0.34460784
0.71568627 0.8872549 0.35392157
0.74264706 0.8872549 0.35098039
0.77058824 0.88823529 0.35196078
0.80147059 0.89497549 0.3622549
0.83627451 0.90245098 0.37058824
0.86715686 0.90735294 0.375
0.8997549 0.91470588 0.38235294
0.92647059 0.92352941 0.39166667
0.94411765 0.92745098 0.39901961
0.50539216 0.91568627 0.41127451
0.50784314 0.91568627 0.41127451
0.51176471 0.91568627 0.40784314
0.51176471 0.9122549 0.39626225
0.51029412 0.90441176 0.38186275
0.5127451 0.9004902 0.37794118
0.52941176 0.90747549 0.38639706
0.54368873 0.91084559 0.39068627
0.5627451 0.91568627 0.39705882
0.58033088 0.91476716 0.39552696
0.59791667 0.91176471 0.39460784
0.61176471 0.91176471 0.38872549
0.6247549 0.90710784 0.38284314
0.64852941 0.91047794 0.39117647
0.67487745 0.91531863 0.40147059
0.70147059 0.92052696 0.41029412
0.73235294 0.92598039 0.41813725
0.75839461 0.92052696 0.41029412
0.78419118 0.92303922 0.41470588
0.81568627 0.93333333 0.42922794
0.84656863 0.9377451 0.43627451
0.87352941 0.94166667 0.43627451
0.90294118 0.94460784 0.44203431
0.93290441 0.95098039 0.45343137
0.95441176 0.95735294 0.46372549
0.54509804 0.94901961 0.45490196
0.54509804 0.95147059 0.45735294
0.54901961 0.95196078 0.45784314
0.54509804 0.94166667 0.44362745
0.54313725 0.93529412 0.43529412
0.5495098 0.93382353 0.43578431
0.56372549 0.94019608 0.44313725
0.5754902 0.94117647 0.44460784
0.59607843 0.94901961 0.45098039
0.61029412 0.94901961 0.45490196
0.6245098 0.94509804 0.45490196
0.63872549 0.94509804 0.45490196
0.65490196 0.94117647 0.45490196
0.67205882 0.94509804 0.45539216
0.69607843 0.94803922 0.45882353
0.72205882 0.9504902 0.46421569
0.74901961 0.96078431 0.47843137
0.76960784 0.9504902 0.46176471
0.79509804 0.95098039 0.46568627
0.82598039 0.96764706 0.48921569
0.85294118 0.96470588 0.48627451
0.87941176 0.96470588 0.48284314
0.90686275 0.96764706 0.48921569
0.93382353 0.97401961 0.50343137
0.96470588 0.98823529 0.5254902
0.1504902 0.10343137 0.099019608
0.15778186 0.096507353 0.093566176
0.16470588 0.086764706 0.089828431
0.17205882 0.075183824 0.08872549
0.18431373 0.07254902 0.088235294
0.2254902 0.082843137 0.08627451
0.26666667 0.08627451 0.088112745
0.30784314 0.071568627 0.083884804
0.35147059 0.048529412 0.082352941
0.40294118 0.036764706 0.075980392
0.46372549 0.035784314 0.06875
0.52254902 0.029105392 0.063909314
0.57843137 0.019117647 0.057107843
0.63382353 0.013051471 0.047855392
0.68529412 0.0078431373 0.041544118
0.73529412 0.0053921569 0.039705882
0.77254902 0.019607843 0.030882353
0.81035539 0.03627451 0.020588235
0.85036765 0.04375 0.0072303922
0.88480392 0.063112745 0
0.91176471 0.11102941 0
0.93872549 0.15410539 0
0.9627451 0.17303922 0
0.97941176 0.1848652 0
0.99215686 0.18823529 0
0.14411765 0.1122549 0.095098039
0.15236673 0.1064568 0.091383272
0.16000306 0.098039216 0.08872549
0.1707644 0.091360294 0.0863894
0.19142157 0.091176471 0.083854167
0.2254902 0.099318321 0.080882353
0.26666667 0.10363051 0.082215074
0.30784314 0.088786765 0.080307904
0.35294118 0.07064951 0.080882353
0.4098652 0.063380821 0.070588235
0.4682598 0.056985294 0.064828431
0.52658548 0.049080882 0.060179228
0.58235294 0.038511029 0.053921569
0.63726256 0.027941176 0.046078431
0.68921569 0.020098039 0.039093137
0.7343367 0.016092218 0.033540135
0.77254902 0.035723039 0.024509804
0.81219363 0.059313725 0.014790135
0.85 0.079963235 0.0042432598
0.88223805 0.097663909 0
0.91495098 0.12374387 0
0.94227175 0.15703891 0
0.96380208 0.17621017 0.0011488971
0.97828585 0.18731618 0.0015318627
0.98431373 0.19068627 0.0015318627
0.13664216 0.12254902 0.091176471
0.14656863 0.1189951 0.088357843
0.15793505 0.11568627 0.088449755
