site/assets/luts/sha256-1f6bcecb26484be2cf8689111da4038ce1a1b65201028e57bc4fde15c563ca63.cube
# LUTr-Schema-Version: 2
# LUTr-ID: sha256-1f6bcecb26484be2cf8689111da4038ce1a1b65201028e57bc4fde15c563ca63
# LUTr-Title: kodak portra 160 +
# LUTr-Collection: Natron HaldCLUT
# LUTr-Collection-ID: natron-haldclut-presets
# LUTr-Source: https://github.com/NatronGitHub/clut
# LUTr-Retrieved: 2026-07-27
# LUTr-Source-File: submissions/natron-haldclut-presets/negative_new/kodak_portra_160_+.png
# LUTr-Source-Format: HALD-PNG
# LUTr-Source-SHA256: 1f6bcecb26484be2cf8689111da4038ce1a1b65201028e57bc4fde15c563ca63
# LUTr-License: CC-BY-SA-4.0
# LUTr-License-URL: https://github.com/NatronGitHub/clut#license
# LUTr-License-Basis: repo-license-file
# LUTr-Transform-Class: film-emulation
# LUTr-Tags: creative, film, film-emulation, hald-clut, natron, png, cube
# LUTr-Input-Color-Space: srgb
# LUTr-Input-Gamut: rec709
# LUTr-Input-Transfer: srgb
# LUTr-Output-Color-Space: srgb
# LUTr-Output-Gamut: rec709
# LUTr-Output-Transfer: srgb
# LUTr-Color-Space-Confidence: assumed-display-referred
# LUTr-Domain-Normalized: true
# LUTr-Shaper: none
# LUTr-Original-Grid: 64x64x64
# LUTr-Conversion-Grid: 25x25x25
# LUTr-Conversion-Interpolation: trilinear
# LUTr-Conversion-Method: HALD-PNG LUT image decoded at 16-bit and sampled to 25x25x25 3D CUBE
# LUTr-Conversion-Tool: LUTr scripts/convert-all-to-cube.mjs 2.0.0
# LUTr-Conversion-Date: 2026-07-27
# LUTr-Note: Preserve this metadata and the upstream license notices when redistributing.
TITLE "kodak portra 160 +"
LUT_3D_SIZE 9
DOMAIN_MIN 0 0 0
DOMAIN_MAX 1 1 1
0.02745098 0.054901961 0.043137255
0.092647059 0.043137255 0.059803922
0.21372549 0.028431373 0.038235294
0.38333333 0.0078431373 0.05245098
0.56470588 0 0.0078431373
0.73921569 0 0
0.84705882 0 0.0039215686
0.9504902 0.0078431373 0
0.99607843 0.14117647 0
0.020098039 0.089215686 0.027941176
0.085784314 0.11574755 0.059803922
0.21862745 0.12365196 0.013235294
0.39852941 0.10490196 0.015870098
0.57622549 0.073284314 0.0078431373
0.73400735 0.047732843 0.0039215686
0.84607843 0.07254902 0.0078431373
0.94215686 0.10882353 0.0034313725
0.99607843 0.19068627 0
0.016666667 0.22352941 0.020588235
0.065563725 0.21470588 0.01875
0.20392157 0.24607843 0.018627451
0.39852941 0.25490196 0.0020833333
0.5872549 0.25686275 0.0024509804
0.72745098 0.24901961 0.0039215686
0.84313725 0.25686275 0.00098039216
0.94656863 0.25833333 0.0073529412
0.98039216 0.2872549 0.0039215686
0.0024509804 0.35343137 0.0024509804
0.052634804 0.36127451 0.015870098
0.19509804 0.37352941 0.012132353
0.35680147 0.4004902 0
0.55661765 0.42279412 0
0.72310049 0.42009804 0
0.8307598 0.41801471 0.0039215686
0.94460784 0.41648284 0
0.97401961 0.41372549 0.0039215686
0.0039215686 0.49019608 0.0078431373
0.039460784 0.49019608 0.0080882353
0.20392157 0.49019608 0.0024509804
0.34754902 0.50514706 0.0039215686
0.51176471 0.53627451 0.0039215686
0.66936275 0.55686275 0
0.81372549 0.56078431 0.0039215686
0.92720588 0.55661765 0
0.98627451 0.55098039 0.0019607843
0.069117647 0.60980392 0.0039215686
0.14430147 0.60441176 0.012254902
0.23860294 0.59693627 0.0089460784
0.35637255 0.6004902 0.0048406863
0.49215686 0.61813725 0.0078431373
0.64117647 0.64846814 0.0078431373
0.78566176 0.67389706 0.016789216
0.90998775 0.68676471 0.011458333
0.99460784 0.68431373 0.0039215686
0.24901961 0.71764706 0.096078431
0.27757353 0.71372549 0.093504902
0.32352941 0.70514706 0.076715686
0.39252451 0.69595588 0.054411765
0.50539216 0.70882353 0.030392157
0.62254902 0.72843137 0.051348039
0.74509804 0.75196078 0.05
0.8872549 0.79068627 0.047794118
0.99313725 0.8 0
0.39509804 0.82156863 0.23039216
0.40588235 0.81372549 0.22745098
0.43676471 0.81078431 0.21862745
0.48314951 0.80196078 0.20067402
0.56029412 0.80563725 0.19068627
0.65686275 0.82156863 0.20490196
0.76041667 0.83419118 0.23921569
0.86862745 0.86035539 0.27009804
0.95686275 0.8872549 0.29362745
0.56078431 0.93333333 0.41960784
0.56078431 0.9254902 0.41176471
0.59019608 0.93235294 0.41568627
0.63186275 0.93284314 0.42009804
0.67254902 0.92352941 0.40588235
0.74019608 0.92941176 0.41960784
0.81470588 0.94607843 0.4372549
0.89117647 0.94901961 0.45098039
0.96470588 0.96470588 0.4745098
0.046568627 0.050980392 0.10441176
0.088296569 0.046568627 0.095588235
0.21470588 0.028063725 0.095220588
0.38676471 0.0037377451 0.097365196
0.57426471 0.015441176 0.097794118
0.73529412 0.0039215686 0.075796569
0.85 0 0.055882353
0.95533088 0.0034313725 0.028431373
0.99607843 0.090686275 0.0039215686
0.020098039 0.12745098 0.10484069
0.091842831 0.11525735 0.099946385
0.22254902 0.13181679 0.10392157
0.39810049 0.1 0.088128064
0.58011642 0.06372549 0.080453431
0.73137255 0.047732843 0.064215686
0.84705882 0.072870711 0.047931985
0.95042892 0.1048943 0.030369179
0.99258578 0.17935049 0.015257353
0 0.24558824 0.099142157
0.07745098 0.2464614 0.10773591
0.21878064 0.2528799 0.096354167
0.4127451 0.26176471 0.04754902
0.59607843 0.25147059 0.028676471
0.73471201 0.24131434 0.011014093
0.84705882 0.25036765 0.0034313725
0.9504902 0.26580882 0.0072457108
0.99080882 0.28958333 0.0039215686
0.0024509804 0.38596814 0.10569853
0.059535846 0.38041513 0.1
0.21421569 0.38319547 0.089231005
0.3722886 0.40323223 0.056196385
0.57334559 0.43627451 0.0023590686
0.72077206 0.41874234 0.0028186275
0.83855699 0.40747549 0.0080116422
0.94604013 0.40833333 0.0039215686
0.98560049 0.42156863 0.0078431373
0.0078431373 0.50931373 0.097794118
0.064981618 0.50539216 0.087285539
0.22487745 0.50147059 0.083455882
0.36063113 0.51372549 0.067310049
0.53063725 0.54105392 0.040196078
0.68587623 0.56773897 0.0086703431
0.81734069 0.56372549 0.00091911765
0.92503064 0.55119485 0.0039215686
0.99019608 0.55490196 0.0039215686
0.10980392 0.61979167 0.11715686
0.17469363 0.61356464 0.11350337
0.25828738 0.60788909 0.092769608
0.36421569 0.60441176 0.083762255
0.49981618 0.62420343 0.085294118
0.64590227 0.65294118 0.070779718
0.79129902 0.68953738 0.036810662
0.90606618 0.69166667 0.0053691789
0.99234069 0.68088235 0.0060661765
0.2622549 0.72144608 0.16862745
0.28878676 0.71752451 0.17029718
0.33219975 0.71053922 0.15670956
0.39724265 0.6989277 0.13088235
0.5127451 0.71446078 0.14117647
0.62941176 0.73324142 0.14744179
0.75395221 0.75686275 0.16740196
0.88687194 0.79068627 0.17814032
0.975 0.79509804 0.079779412
0.40196078 0.81764706 0.26770833
0.42107843 0.82156863 0.27903646
0.45153186 0.81683517 0.26127451
0.49311428 0.80980392 0.24810049
0.56663603 0.81323529 0.24509804
0.66207108 0.82303922 0.2622549
0.76164216 0.83811275 0.28002451
0.86421569 0.85294118 0.29172794
0.96470588 0.87990196 0.32052696
0.56029412 0.9254902 0.43480392
0.57653186 0.93731618 0.44319853
0.58382353 0.92512255 0.42745098
0.62028186 0.92530637 0.42677696
0.6745098 0.92941176 0.43088235
0.74460784 0.94148284 0.44558824
0.81764706 0.9442402 0.45061275
0.89552696 0.95778186 0.47843137
0.96911765 0.96960784 0.49460784
0.0019607843 0.05 0.23823529
0.080392157 0.058823529 0.24865196
0.22941176 0.049019608 0.25392157
0.40588235 0.013235294 0.26715686
0.59901961 0.0083333333 0.25294118
0.74362745 0.0078431373 0.25232843
0.85392157 0.0039215686 0.22622549
0.95710784 0.0033088235 0.22242647
0.99607843 0.12843137 0.2245098
0.015686275 0.15134804 0.25257353
0.08872549 0.14742647 0.25004596
0.23753064 0.13970588 0.25392157
0.41335784 0.103125 0.24901961
0.59466912 0.069607843 0.24522059
0.74273897 0.0081188725 0.23043811
0.85318627 0.046813725 0.22196691
0.95091912 0.12029718 0.21807598
0.99215686 0.16678922 0.21862745
0.010539216 0.26960784 0.24926471
0.072273284 0.26764706 0.24488358
0.24509804 0.27628676 0.24981618
0.41847426 0.26792279 0.24463848
0.59362745 0.2567402 0.2310049
0.73137255 0.25039828 0.22156863
0.85 0.25710784 0.19491422
0.94322917 0.27794118 0.18915441
0.99534314 0.30416667 0.17671569
0.0096813725 0.41666667 0.24754902
0.054901961 0.42103248 0.24518995
0.25128676 0.40490196 0.25294118
0.41565564 0.40957414 0.24163603
0.58976716 0.42383578 0.20808824
0.72745098 0.41950061 0.15773591
0.84705882 0.40900735 0.13219975
0.94607843 0.41377145 0.12219669
0.99607843 0.43333333 0.13321078
0.10686275 0.5495098 0.26323529
0.16960784 0.54234069 0.26078431
0.26862745 0.52487745 0.25686275
0.40343137 0.52849265 0.24564951
0.55122549 0.5504902 0.24852941
0.69460784 0.56194853 0.21801471
0.82941176 0.5504902 0.14411765
0.93890931 0.54264706 0.066727941
0.99215686 0.55294118 0.069607843
0.20085784 0.6432598 0.27463235
0.25085784 0.63872549 0.2676011
0.30474877 0.62821691 0.25931373
0.39388787 0.61996017 0.24607843
0.51672794 0.63363971 0.25
0.65686275 0.66433824 0.25908395
0.79068627 0.68676471 0.24534314
0.90980392 0.68071385 0.1558364
0.99460784 0.6689951 0.020710784
0.30686275 0.73529412 0.29877451
0.32981005 0.73137255 0.29436275
0.36372549 0.72193627 0.28259804
0.4245098 0.70863971 0.26145833
0.52352941 0.71421569 0.26348039
0.63333333 0.73345588 0.27276348
0.75723039 0.75980392 0.28688725
0.89090074 0.78829657 0.29669118
0.97916667 0.79289216 0.25196078
0.42990196 0.83284314 0.37022059
0.44019608 0.82892157 0.36023284
0.46277574 0.82156863 0.34941789
0.50586703 0.81288297 0.33809743
0.56397059 0.8091299 0.32205882
0.66095282 0.82262561 0.32815564
0.76461397 0.83820466 0.35039828
0.86862745 0.8567402 0.37189032
0.97512255 0.88762255 0.40551471
0.57156863 0.93627451 0.48431373
0.57120098 0.9254902 0.47647059
0.59534314 0.93112745 0.48137255
0.61960784 0.92487745 0.47009804
0.67058824 0.92352941 0.46568627
0.74019608 0.93394608 0.47352941
0.81446078 0.94509804 0.49215686
0.8877451 0.94558824 0.49754902
0.95686275 0.95294118 0.50784314
0 0.08872549 0.44068627
0.034007353 0.08872549 0.43823529
0.25477941 0.095098039 0.43823529
0.43676471 0.041115196 0.43823529
0.625 0.01372549 0.44607843
0.7754902 0.090196078 0.44705882
0.87242647 0.065686275 0.42156863
0.95784314 0.093811275 0.40275735
0.99215686 0.17745098 0.4004902
0.0041053922 0.15931373 0.42824755
0.050145527 0.16116728 0.430553
0.26320466 0.16911765 0.43636642
0.44283088 0.16508119 0.44215686
0.62441789 0.1643076 0.44077819
0.76819853 0.17585018 0.44349724
0.86439951 0.17120098 0.42046569
0.95474112 0.18578431 0.40271906
0.99981618 0.22334559 0.39509804
0.010784314 0.29166667 0.42585784
0.050857843 0.29313725 0.43181679
0.27107843 0.29558824 0.43446691
0.44852941 0.30735294 0.43431373
0.6122549 0.31764706 0.44730392
0.7481924 0.31715686 0.43327206
0.85716912 0.31678922 0.41096814
0.94643076 0.32022059 0.39995404
0.99901961 0.32928922 0.39509804
0.0063112745 0.45392157 0.42647059
0.030974265 0.4585095 0.4348652
0.28999694 0.45036765 0.43039216
0.45147059 0.44887408 0.42892157
0.59754902 0.45300245 0.43676471
0.72768076 0.43823529 0.41043964
0.83924632 0.42493873 0.38742341
0.93609069 0.4358992 0.36420803
0.99215686 0.44509804 0.36219363
0.13897059 0.59117647 0.42254902
0.21795343 0.57720588 0.43186275
0.32898284 0.57175245 0.43039216
0.44362745 0.56004902 0.43140319
0.57107843 0.56433824 0.42794118
0.71253064 0.5666973 0.40297181
0.82892157 0.55778186 0.36893382
0.93161765 0.55431985 0.34108456
0.99019608 0.55808824 0.31985294
0.275 0.67745098 0.42248775
0.31978401 0.67304687 0.43008578
0.38687194 0.66905637 0.43186275
0.44486826 0.64607843 0.4098269
0.53777574 0.64065564 0.40321691
0.66937806 0.66715686 0.40833333
0.80059743 0.68823529 0.41343444
0.91550245 0.67647059 0.36065411
0.97738971 0.66862745 0.31519608
0.38002451 0.75735294 0.44754902
0.38765319 0.75477941 0.4365962
0.42132353 0.74730392 0.42610294
0.46882659 0.73258272 0.40931373
0.53946078 0.72665441 0.39852941
0.64117647 0.73676471 0.40196078
0.77156863 0.76764706 0.42647059
0.89171262 0.78399203 0.41897978
0.98639706 0.78970588 0.39558824
0.45735294 0.84313725 0.47156863
0.46838235 0.84256281 0.46519608
0.49313725 0.83187806 0.45784314
0.52689951 0.8261106 0.43792892
0.58293505 0.81994485 0.42965686
0.66758578 0.82537531 0.4346201
0.76475184 0.8377451 0.43690257
0.87640931 0.86029412 0.47355239
0.97205882 0.88333333 0.48480392
0.58186275 0.94264706 0.55
0.59295343 0.94215686 0.55128676
0.60245098 0.93970588 0.54460784
0.63474265 0.93817402 0.53768382
0.67720588 0.93333333 0.53039216
0.72898284 0.92303922 0.52009804
0.80870098 0.93823529 0.53382353
0.8872549 0.94166667 0.5504902
0.95294118 0.95441176 0.56715686
0 0.11568627 0.59607843
0.076960784 0.11936275 0.59607843
0.28627451 0.13284314 0.60343137
0.46519608 0.12769608 0.59803922
0.63039216 0.11176471 0.60686275
0.7745098 0.15955882 0.60833333
0.89313725 0.26568627 0.60392157
0.96348039 0.32132353 0.59362745
0.98823529 0.31176471 0.57647059
0.0039215686 0.19215686 0.58848039
0.098253676 0.19414828 0.5921875
0.29803922 0.20147059 0.60147059
0.46485907 0.22009804 0.60652574
0.62634804 0.23137255 0.60588235
0.76994485 0.26372549 0.60260417
0.88094363 0.32591912 0.60098039
0.96197917 0.34607843 0.58970588
0.98823529 0.35612745 0.57230392
0.00049019608 0.31029412 0.58627451
0.11243873 0.32107843 0.59019608
0.31997549 0.3307598 0.5995098
0.47303922 0.34509804 0.60784314
0.62671569 0.35931373 0.60416667
0.76109069 0.38903186 0.60520833
0.8627451 0.41139706 0.59485294
0.95140931 0.41023284 0.57928922
0.99264706 0.41960784 0.575
0.0125 0.45931373 0.57647059
0.12303922 0.45554534 0.57647059
0.31813725 0.46917892 0.58651961
0.47303922 0.48918505 0.59635417
0.60992647 0.49522059 0.59362745
0.73872549 0.49831495 0.5916973
0.84362745 0.49332108 0.57536765
0.93553922 0.49034926 0.55441176
0.98431373 0.48578431 0.5497549
0.099019608 0.6127451 0.58137255
0.20710784 0.61642157 0.58517157
0.34632353 0.61078431 0.58602941
0.48688725 0.60428922 0.58370098
0.59411765 0.59362745 0.57647059
0.71531863 0.59178922 0.5682598
0.81911765 0.57892157 0.54779412
0.91813725 0.57647059 0.52806373
0.99411765 0.57058824 0.52156863
0.35343137 0.71740196 0.5745098
0.38348652 0.71470588 0.57901348
0.44136029 0.70330882 0.57647059
0.51770833 0.69356618 0.57208946
0.58431373 0.67757353 0.55514706
0.68872549 0.67843137 0.55220588
0.80980392 0.6870098 0.54289216
0.91878064 0.67156863 0.51176471
0.99019608 0.66715686 0.49215686
0.44362745 0.78529412 0.58039216
0.4504902 0.78431373 0.57824755
0.48835784 0.78063725 0.56862745
0.53406863 0.76678922 0.55729167
0.58872549 0.75539216 0.54044118
0.65784314 0.74552696 0.52843137
0.77696078 0.76911765 0.54509804
0.89852941 0.78823529 0.55655637
0.99656863 0.7872549 0.50539216
0.4995098 0.86004902 0.58480392
0.51253064 0.85833333 0.58480392
0.53897059 0.85484069 0.57677696
0.57025123 0.84656863 0.5591299
0.61004902 0.83602941 0.54019608
0.65980392 0.825 0.51657475
0.76384804 0.83719363 0.54044118
0.88360907 0.86400123 0.57699142
0.95392157 0.87181373 0.56764706
0.6 0.95098039 0.63333333
0.60367647 0.94852941 0.6254902
0.61666667 0.9372549 0.62156863
0.63897059 0.93186275 0.61102941
0.68235294 0.93529412 0.6
0.72647059 0.92622549 0.58504902
0.79411765 0.9127451 0.57990196
0.8872549 0.93382353 0.60612745
0.95882353 0.95098039 0.6254902
0.045588235 0.17303922 0.71813725
0.16979167 0.17285539 0.71960784
0.3317402 0.17990196 0.71960784
0.49270833 0.20404412 0.72598039
0.6379902 0.24436275 0.72745098
0.7627451 0.27401961 0.73382353
0.87806373 0.30931373 0.72352941
0.96844363 0.40833333 0.72205882
0.99362745 0.47156863 0.72205882
0.11813725 0.24068627 0.71568627
0.2004902 0.24460784 0.71421569
0.34865196 0.24889706 0.71946998
0.5013557 0.27843137 0.72297794
0.6379902 0.31501225 0.72671569
0.76403952 0.33756127 0.72598039
0.87063419 0.36674326 0.72316176
0.95449602 0.44482996 0.71960784
0.99607843 0.49705882 0.71930147
0.18186275 0.3564951 0.70784314
0.25643382 0.36194853 0.71216299
0.37598039 0.37120098 0.71541054
0.51231618 0.39039522 0.71836703
0.63529412 0.41666667 0.72022059
0.75551471 0.43468137 0.72414216
0.86228554 0.47009804 0.71960784
0.95539216 0.51216299 0.7192402
0.99362745 0.53333333 0.71384804
0.19313725 0.47009804 0.69607843
0.26979167 0.47922794 0.69515931
0.36925551 0.48970588 0.69856005
0.50931373 0.51153493 0.70807292
0.62938113 0.52769608 0.71176471
0.74221814 0.54720435 0.71325827
0.84644608 0.567356 0.71752451
0.93823529 0.57774969 0.70753676
0.9966299 0.59025735 0.71078431
0.23578431 0.59534314 0.68553922
0.28961397 0.6010723 0.68645833
0.39068627 0.60324755 0.69123775
0.51911765 0.61372549 0.69561887
0.62659314 0.61936275 0.69595588
0.73014706 0.63207721 0.70392157
0.83308824 0.63792892 0.70171569
0.9236826 0.63504902 0.68351716
0.97254902 0.63308824 0.67990196
0.33272059 0.73382353 0.69460784
0.39944853 0.71991422 0.68823529
0.46398591 0.71637561 0.69068627
0.55 0.71029412 0.69011183
0.63042279 0.70710784 0.68431373
0.72352941 0.70876225 0.69068627
0.81992953 0.71254596 0.68748468
0.91863511 0.69669884 0.66287531
0.97892157 0.69068627 0.65294118
0.50906863 0.81519608 0.69460784
0.51934743 0.81139706 0.69215686
0.55971201 0.81409314 0.69261642
0.59618566 0.80232843 0.68823529
0.65006127 0.79019608 0.68400735
0.70870098 0.77758885 0.6683364
0.78973652 0.7745098 0.65824142
0.89888174 0.7814951 0.65252757
0.99215686 0.78039216 0.63762255
0.55245098 0.88088235 0.69068627
0.56158088 0.88088235 0.69068627
0.58284314 0.87731311 0.68431373
0.6213848 0.87303922 0.68431373
0.6625 0.86167279 0.67279412
0.70030637 0.84478401 0.64883578
0.77334559 0.84505208 0.64598652
0.88186275 0.86394761 0.6598652
0.96292892 0.87745098 0.67156863
0.61176471 0.95980392 0.70637255
0.62567402 0.94969363 0.70998775
0.62953431 0.93995098 0.70441176
0.67604167 0.95686275 0.71182598
0.70465686 0.94191176 0.69460784
0.74656863 0.93578431 0.67745098
0.80931373 0.94742647 0.67389706
0.89166667 0.94117647 0.68707108
0.96470588 0.95931373 0.70882353
0.26960784 0.25392157 0.81862745
0.33713235 0.26654412 0.81862745
0.42352941 0.27058824 0.81862745
0.53970588 0.31041667 0.81862745
0.66323529 0.35 0.81862745
0.76519608 0.38909314 0.82156863
0.86862745 0.41593137 0.81862745
0.95 0.46617647 0.81470588
0.97941176 0.51764706 0.81470588
0.32058824 0.3189951 0.81862745
0.34803922 0.32303922 0.81470588
0.43529412 0.32515319 0.81862745
0.54109988 0.34816176 0.81862745
0.65735294 0.38707108 0.81819853
0.7627451 0.42841605 0.81507353
0.86568627 0.45327819 0.81862745
0.95441176 0.47683824 0.81470588
0.9807598 0.50894608 0.81470588
0.34411765 0.41078431 0.80784314
0.37095588 0.41001838 0.8106924
0.46096814 0.42493873 0.81078431
0.55177696 0.44178922 0.81176471
0.65539216 0.47156863 0.81151961
0.75772059 0.50217525 0.81470588
0.86176471 0.52738971 0.81599265
0.94552696 0.54558824 0.81470588
0.99509804 0.59313725 0.81764706
0.33970588 0.50845588 0.79546569
0.3941636 0.52169118 0.7993413
0.46776961 0.52696078 0.80294118
0.55833333 0.54448529 0.80441176
0.65784314 0.56427696 0.80686275
0.75441176 0.59411765 0.81470588
0.84800858 0.6166973 0.81847426
0.93449755 0.6245098 0.81078431
0.99215686 0.65 0.81678922
0.32745098 0.59901961 0.78186275
0.38039216 0.60661765 0.78382353
0.45588235 0.6185049 0.7872549
0.55802696 0.62818627 0.79491422
0.65098039 0.64215686 0.79509804
0.75343137 0.66550245 0.80367647
0.8442402 0.68394608 0.81078431
0.92738971 0.69166667 0.80539216
0.97745098 0.69019608 0.7995098
0.40747549 0.72205882 0.78517157
0.4426011 0.720144 0.78443627
0.48198529 0.72325368 0.7872549
0.56141238 0.7222886 0.79117647
0.64546569 0.71813725 0.7872549
0.74296875 0.72918199 0.79209559
0.83704044 0.74509804 0.79852941
0.92303922 0.73979779 0.79394914
0.98247549 0.73186275 0.78284314
0.49191176 0.82647059 0.7872549
0.51240809 0.82582721 0.78734681
0.55882353 0.81862745 0.7872549
0.61424632 0.81470588 0.79117647
0.67303922 0.81041667 0.79154412
0.75870098 0.80968137 0.79371936
0.81329657 0.79901961 0.78039216
0.9111826 0.79564951 0.77435662
0.98406863 0.79142157 0.76446078
0.62708333 0.90686275 0.79509804
0.6243413 0.90294118 0.79117647
0.64733456 0.90101103 0.79117647
0.68026961 0.895144 0.79509804
0.71770833 0.88474265 0.78970588
0.7685049 0.88105086 0.78471201
0.80367647 0.86081495 0.75848652
0.90396752 0.87651654 0.77244179
0.99117647 0.89154412 0.77156863
0.65392157 0.95392157 0.78823529
0.6685049 0.96813725 0.79117647
0.6747549 0.95612745 0.79509804
0.71213235 0.96568627 0.79901961
0.74509804 0.95441176 0.79509804
0.77990196 0.95686275 0.78578431
0.82426471 0.95588235 0.77156863
0.9004902 0.95036765 0.77941176
0.9745098 0.97058824 0.78823529
0.43382353 0.38284314 0.90343137
0.45637255 0.38976716 0.90300245
0.51323529 0.37928922 0.90343137
0.59656863 0.4122549 0.90294118
0.68088235 0.43455882 0.90343137
0.77303922 0.48676471 0.90343137
0.85821078 0.53970588 0.90686275
0.94558824 0.54356618 0.90294118
0.99656863 0.56519608 0.8995098
0.44552696 0.41966912 0.90294118
0.46421569 0.4122549 0.89993873
0.52472426 0.42723652 0.89993873
0.60002298 0.44313725 0.90294118
0.68501838 0.4778799 0.89993873
0.76960784 0.50800398 0.90294118
0.85784314 0.55136336 0.90338542
0.9386106 0.57041973 0.9033701
0.98866422 0.58045343 0.8995098
0.46078431 0.48186275 0.8995098
0.48370098 0.48186275 0.89526654
0.53655025 0.49954044 0.89558824
0.60943627 0.51211703 0.89558824
0.68658088 0.53780637 0.8995098
0.77536765 0.56925551 0.8995098
0.86090686 0.6004902 0.8995098
0.93561581 0.61997549 0.8995098
0.99080882 0.63137255 0.89901961
0.47254902 0.57322304 0.88921569
0.50192249 0.57085631 0.89166667
0.54852941 0.57833946 0.89166667
0.61764706 0.59767923 0.89166667
0.69411765 0.60931373 0.89558824
0.77745098 0.63841912 0.89901961
0.85735294 0.66265319 0.89901961
0.93039216 0.67254902 0.89558824
0.99215686 0.68020833 0.90165441
0.46887255 0.64803922 0.88014706
0.48949142 0.64803922 0.88210784
0.53921569 0.65196078 0.87990196
0.60701593 0.6658701 0.88373162
0.68995098 0.67610294 0.8877451
0.77352941 0.69460784 0.89166667
0.85428922 0.71145833 0.89509804
0.93431373 0.72668505 0.89166667
0.98039216 0.73382353 0.89534314
0.46960784 0.72254902 0.87598039
0.48763787 0.72598039 0.87598039
0.54148284 0.73296569 0.87598039
0.60244332 0.73313419 0.87598039
0.66798407 0.73299632 0.87598039
0.76439951 0.75392157 0.88474265
0.85392157 0.77259498 0.89166667
0.92722886 0.78382353 0.89558824
0.99411765 0.79166667 0.90165441
0.50980392 0.82169118 0.87696078
0.53943015 0.82254902 0.87990196
0.57438725 0.82254902 0.87990196
0.61862745 0.81876532 0.8782935
0.68480392 0.80686275 0.87598039
0.74705882 0.80824142 0.87784926
0.84264706 0.82303922 0.88458946
0.92293199 0.83071385 0.88414522
0.97647059 0.83688725 0.88296569
0.59411765 0.91127451 0.8877451
0.60195312 0.90778186 0.88382353
0.63625919 0.90686275 0.87990196
0.67401961 0.9071921 0.88382353
0.74411765 0.90343137 0.88581495
0.80340839 0.90294118 0.89166667
0.86127451 0.89595588 0.88823529
0.92271752 0.89123775 0.87990196
0.96078431 0.89123775 0.87647059
0.70098039 0.97647059 0.8877451
0.68235294 0.96862745 0.88039216
0.72781863 0.97634804 0.88247549
0.7372549 0.96832108 0.88382353
0.78259804 0.95171569 0.8877451
0.82107843 0.97254902 0.89166667
0.86470588 0.97512255 0.8877451
0.92303922 0.96764706 0.88382353
0.98039216 0.96862745 0.88382353
0.55686275 0.50588235 0.98039216
0.57205882 0.51372549 0.98088235
0.60588235 0.5254902 0.97647059
0.66372549 0.54117647 0.97647059
0.72745098 0.55882353 0.98235294
0.79117647 0.57794118 0.97254902
0.86470588 0.62058824 0.97647059
0.93431373 0.65147059 0.97647059
0.99607843 0.66666667 0.98039216
0.56421569 0.53284314 0.97647059
0.56470588 0.52156863 0.96911765
0.60980392 0.54362745 0.97683824
0.66764706 0.56029412 0.97990196
0.72303922 0.56764706 0.96813725
0.79852941 0.60343137 0.975
0.86470588 0.62009804 0.96433824
0.93431373 0.65839461 0.97205882
0.99215686 0.64607843 0.95637255
0.58039216 0.58627451 0.97745098
0.58333333 0.57414216 0.96556373
0.62328431 0.59117647 0.9745098
0.66727941 0.59558824 0.9682598
0.72401961 0.60196078 0.95980392
0.79656863 0.63688725 0.97009804
0.86495098 0.66568627 0.97181373
0.93125 0.69056373 0.97218137
0.97745098 0.69705882 0.96960784
0.59607843 0.64558824 0.97401961
0.59822304 0.63805147 0.96862745
0.63578431 0.64987745 0.97438725
0.6745098 0.65680147 0.97009804
0.73578431 0.66617647 0.97107843
0.79901961 0.68088235 0.96525735
0.86470588 0.70502451 0.96862745
0.93039216 0.72843137 0.96911765
0.975 0.71519608 0.95196078
0.59411765 0.7 0.96862745
0.60955882 0.70588235 0.97279412
0.63823529 0.70686275 0.96960784
0.65367647 0.69681373 0.94411765
0.73333333 0.72058824 0.96862745
0.80294118 0.73333333 0.96862745
0.86911765 0.75147059 0.97647059
0.93431373 0.76911765 0.97083333
0.95882353 0.76470588 0.9627451
0.57107843 0.75588235 0.96617647
0.59381127 0.75980392 0.9745098
0.61862745 0.76164216 0.96470588
0.65980392 0.75980392 0.96470588
0.73333333 0.77156863 0.96862745
0.80294118 0.78333333 0.97101716
0.86973039 0.79509804 0.96580882
0.93253676 0.81501225 0.97254902
0.96078431 0.81470588 0.95441176
0.58431373 0.83039216 0.96470588
0.5939951 0.83039216 0.97218137
0.62352941 0.83039216 0.97328431
0.65980392 0.82941176 0.9495098
0.71568627 0.82401961 0.96568627
0.77107843 0.8247549 0.93333333
0.86397059 0.84828431 0.96862745
0.93039216 0.86115196 0.97156863
0.99509804 0.87941176 0.98333333
0.63578431 0.91519608 0.97598039
0.63970588 0.91519608 0.96519608
0.6622549 0.90735294 0.96078431
0.69362745 0.91096814 0.96568627
0.74191176 0.91102941 0.9629902
0.7995098 0.90735294 0.96893382
0.86605392 0.90735294 0.97254902
0.93039216 0.91127451 0.97340686
0.96862745 0.92647059 0.97696078
0.6627451 0.96078431 0.96862745
0.67009804 0.97598039 0.96862745
0.70098039 0.98823529 0.96862745
0.73186275 0.98039216 0.9622549
0.77647059 0.98627451 0.9745098
0.825 0.98970588 0.98186275
0.88039216 0.99411765 0.98235294
0.93039216 0.95245098 0.96960784
0.98823529 0.98823529 0.97647059
