site/assets/luts/sha256-d5c3de0a39d1dcb6a64bcc1bbec8a058ccc25ccbd77b8ef19aa58d3b2b0760df.cube
# LUTr-Schema-Version: 2
# LUTr-ID: sha256-d5c3de0a39d1dcb6a64bcc1bbec8a058ccc25ccbd77b8ef19aa58d3b2b0760df
# LUTr-Title: polaroid px-680 warm ++
# LUTr-Collection: Natron HaldCLUT
# LUTr-Collection-ID: natron-haldclut-presets
# LUTr-Source: https://github.com/NatronGitHub/clut
# LUTr-Retrieved: 2026-07-27
# LUTr-Source-File: submissions/natron-haldclut-presets/instant_consumer/polaroid_px-680_warm_++.png
# LUTr-Source-Format: HALD-PNG
# LUTr-Source-SHA256: d5c3de0a39d1dcb6a64bcc1bbec8a058ccc25ccbd77b8ef19aa58d3b2b0760df
# LUTr-License: CC-BY-SA-4.0
# LUTr-License-URL: https://github.com/NatronGitHub/clut#license
# LUTr-License-Basis: repo-license-file
# LUTr-Transform-Class: film-emulation
# LUTr-Tags: creative, film, film-emulation, hald-clut, natron, png, warm, cube
# LUTr-Input-Color-Space: srgb
# LUTr-Input-Gamut: rec709
# LUTr-Input-Transfer: srgb
# LUTr-Output-Color-Space: srgb
# LUTr-Output-Gamut: rec709
# LUTr-Output-Transfer: srgb
# LUTr-Color-Space-Confidence: assumed-display-referred
# LUTr-Domain-Normalized: true
# LUTr-Shaper: none
# LUTr-Original-Grid: 64x64x64
# LUTr-Conversion-Grid: 25x25x25
# LUTr-Conversion-Interpolation: trilinear
# LUTr-Conversion-Method: HALD-PNG LUT image decoded at 16-bit and sampled to 25x25x25 3D CUBE
# LUTr-Conversion-Tool: LUTr scripts/convert-all-to-cube.mjs 2.0.0
# LUTr-Conversion-Date: 2026-07-27
# LUTr-Note: Preserve this metadata and the upstream license notices when redistributing.
TITLE "polaroid px-680 warm ++"
LUT_3D_SIZE 25
DOMAIN_MIN 0 0 0
DOMAIN_MAX 1 1 1
0.36078431 0.27843137 0.13333333
0.36078431 0.27843137 0.13333333
0.36078431 0.27745098 0.13333333
0.36078431 0.2745098 0.13333333
0.36470588 0.2745098 0.13333333
0.36470588 0.2745098 0.12941176
0.36470588 0.27058824 0.12941176
0.36911765 0.27058824 0.12941176
0.39607843 0.2745098 0.12941176
0.42058824 0.2745098 0.12941176
0.44509804 0.2745098 0.1254902
0.46568627 0.2745098 0.1254902
0.49215686 0.27647059 0.12156863
0.56372549 0.27892157 0.11764706
0.62941176 0.28235294 0.11764706
0.69362745 0.2877451 0.11617647
0.74901961 0.29803922 0.10588235
0.8004902 0.3122549 0.093137255
0.85 0.32352941 0.083333333
0.87696078 0.34019608 0.089705882
0.90196078 0.35686275 0.090196078
0.92696078 0.37303922 0.090196078
0.95098039 0.39705882 0.10784314
0.96764706 0.43186275 0.13627451
0.98823529 0.4627451 0.16078431
0.36078431 0.28088235 0.13333333
0.36078431 0.27843137 0.13333333
0.36078431 0.27843137 0.13333333
0.36078431 0.27843137 0.13333333
0.3627451 0.27696078 0.13333333
0.36470588 0.2745098 0.12941176
0.36470588 0.2745098 0.12941176
0.37401961 0.2745098 0.12941176
0.39852941 0.27696078 0.12941176
0.42395833 0.27843137 0.12941176
0.44754902 0.27843137 0.1254902
0.46813725 0.27843137 0.12205882
0.50882353 0.28161765 0.12156863
0.57009804 0.28658088 0.11764706
0.63296569 0.29166667 0.11409314
0.69454657 0.29411765 0.1122549
0.74901961 0.30441176 0.10196078
0.8004902 0.31317402 0.091666667
0.85 0.32352941 0.082965686
0.87696078 0.34283088 0.089705882
0.90318627 0.36323529 0.093382353
0.92696078 0.37990196 0.097058824
0.95098039 0.40343137 0.11360294
0.97064951 0.43431373 0.13627451
0.98823529 0.4627451 0.15686275
0.36078431 0.28235294 0.13333333
0.36078431 0.28235294 0.13333333
0.36078431 0.28235294 0.13333333
0.36078431 0.27977941 0.13333333
0.3627451 0.27843137 0.13333333
0.36470588 0.27843137 0.12941176
0.36862745 0.27843137 0.12941176
0.38039216 0.27843137 0.12941176
0.40392157 0.27941176 0.12941176
0.42732843 0.28125 0.12696078
0.45294118 0.28235294 0.1254902
0.47794118 0.28235294 0.12205882
0.5245098 0.28676471 0.11960784
0.58394608 0.2942402 0.11715686
0.64215686 0.29877451 0.11372549
0.69852941 0.30441176 0.10833333
0.75392157 0.31470588 0.098039216
0.80441176 0.32107843 0.087745098
0.84705882 0.33529412 0.08627451
0.87745098 0.35294118 0.091053922
0.90392157 0.37156863 0.098529412
0.92696078 0.39019608 0.10735294
0.95098039 0.41372549 0.11985294
0.97156863 0.43921569 0.14019608
0.98823529 0.4627451 0.15686275
0.36078431 0.28627451 0.13333333
0.36078431 0.28578431 0.13333333
0.36078431 0.28235294 0.13333333
0.36078431 0.28235294 0.13333333
0.3627451 0.28235294 0.13333333
0.36519608 0.28186275 0.13284314
0.37242647 0.28186275 0.13333333
0.38676471 0.28235294 0.13155637
0.40784314 0.28235294 0.12941176
0.43186275 0.28578431 0.12567402
0.45392157 0.28627451 0.1254902
0.48088235 0.28627451 0.12156863
0.53308824 0.29191176 0.11789216
0.59460784 0.29846814 0.11415441
0.65245098 0.30453431 0.10992647
0.70539216 0.31127451 0.10441176
0.75686275 0.32107843 0.094607843
0.80441176 0.33511029 0.087745098
0.84607843 0.34644608 0.087254902
0.88088235 0.36323529 0.093627451
0.90588235 0.37990196 0.10171569
0.93039216 0.4004902 0.11372549
0.95441176 0.42107843 0.12438725
0.97028186 0.44430147 0.14019608
0.98039216 0.45882353 0.15294118
0.35686275 0.28823529 0.13333333
0.35686275 0.28627451 0.13333333
0.35931373 0.28627451 0.13333333
0.36078431 0.28455882 0.13161765
0.3627451 0.28431373 0.12941176
0.36911765 0.28431373 0.13333333
0.37745098 0.28431373 0.13333333
0.39313725 0.28627451 0.13186275
0.41568627 0.28823529 0.12941176
0.43627451 0.29019608 0.1254902
0.45686275 0.29019608 0.1245098
0.48088235 0.29019608 0.12156863
0.53921569 0.29803922 0.11666667
0.60098039 0.30441176 0.11151961
0.65980392 0.31127451 0.10686275
0.71053922 0.32107843 0.1004902
0.75882353 0.33137255 0.092156863
0.80514706 0.34558824 0.081862745
0.84313725 0.35686275 0.085294118
0.88063725 0.37009804 0.091666667
0.90588235 0.39019608 0.099019608
0.93063725 0.41078431 0.11053922
0.95441176 0.43284314 0.1254902
0.96617647 0.44852941 0.13995098
0.97058824 0.45882353 0.14901961
0.35686275 0.29068627 0.13284314
0.35686275 0.29019608 0.13284314
0.35686275 0.28664216 0.13198529
0.36029412 0.28627451 0.12941176
0.3627451 0.28627451 0.12941176
0.36954657 0.28676471 0.13290441
0.37941176 0.28933824 0.13333333
0.39509804 0.29215686 0.13155637
0.41568627 0.29852941 0.12892157
0.43890931 0.29883578 0.1254902
0.46090686 0.30245098 0.12144608
0.48964461 0.30594363 0.11721814
0.54166667 0.3122549 0.11127451
0.60294118 0.31819853 0.10539216
0.66164216 0.32242647 0.10159314
0.71145833 0.33186275 0.092647059
0.76078431 0.34215686 0.082352941
0.80618873 0.35588235 0.074019608
0.84558824 0.36715686 0.075367647
0.87303922 0.38382353 0.080943627
0.8997549 0.39852941 0.083333333
0.92297794 0.41764706 0.094117647
0.94656863 0.44460784 0.1185049
0.96764706 0.47028186 0.1495098
0.97696078 0.48382353 0.16568627
0.35686275 0.3 0.12941176
0.35686275 0.29522059 0.12941176
0.35686275 0.29019608 0.12941176
0.35686275 0.28933824 0.12941176
0.3627451 0.28970588 0.12941176
0.37303922 0.29362745 0.12941176
0.38333333 0.29926471 0.12941176
0.39509804 0.30428922 0.12830882
0.41568627 0.30882353 0.1254902
0.43909314 0.3127451 0.12193627
0.46470588 0.31740196 0.11691176
0.50294118 0.32316176 0.11115196
0.55 0.32598039 0.10441176
0.60294118 0.33272059 0.098897059
0.65784314 0.33921569 0.092156863
0.70931373 0.34852941 0.085784314
0.75784314 0.35882353 0.075490196
0.80833333 0.36617647 0.065196078
0.83921569 0.38039216 0.064705882
0.86654412 0.39460784 0.067647059
0.89607843 0.40882353 0.067647059
0.91960784 0.42794118 0.080759804
0.94019608 0.45490196 0.11397059
0.96188725 0.48370098 0.1495098
0.98137255 0.50882353 0.18039216
0.35294118 0.31127451 0.12794118
0.35294118 0.30490196 0.12941176
0.3557598 0.29889706 0.12941176
0.35686275 0.29473039 0.12941176
0.36397059 0.3002451 0.12867647
0.37285539 0.30784314 0.12794118
0.37941176 0.31458333 0.1254902
0.39509804 0.31966912 0.12401961
0.41568627 0.32303922 0.12009804
0.43627451 0.32696078 0.11672794
0.46813725 0.33186275 0.11164216
0.51305147 0.33970588 0.10490196
0.55833333 0.34338235 0.098529412
0.60637255 0.34675245 0.092156863
0.65453431 0.3560049 0.081862745
0.70539216 0.36911765 0.071568627
0.75686275 0.3754902 0.06127451
0.80196078 0.38578431 0.053431373
0.83394608 0.39889706 0.055514706
0.86158088 0.41372549 0.057352941
0.89068627 0.4245098 0.057352941
0.91470588 0.44313725 0.074693627
0.93529412 0.46727941 0.11041667
0.95680147 0.49607843 0.14705882
0.975 0.51911765 0.17647059
0.34901961 0.32156863 0.1254902
0.35147059 0.31764706 0.1254902
0.35294118 0.31764706 0.1254902
0.35294118 0.32156863 0.1254902
0.3627451 0.32156863 0.1254902
0.36911765 0.32205882 0.125
0.37941176 0.32941176 0.12156863
0.39509804 0.33333333 0.12009804
0.41568627 0.3372549 0.11764706
0.43627451 0.33970588 0.11372549
0.4754902 0.35 0.10490196
0.52303922 0.36372549 0.098039216
0.57058824 0.3745098 0.088235294
0.61372549 0.38039216 0.077941176
0.65490196 0.38333333 0.067647059
0.70539216 0.38970588 0.053431373
0.75686275 0.4 0.043137255
0.79558824 0.40637255 0.041666667
0.82647059 0.42058824 0.044117647
0.85735294 0.43088235 0.047058824
0.88431373 0.44509804 0.049019608
0.91078431 0.46323529 0.068137255
0.93137255 0.48431373 0.10588235
0.95196078 0.50637255 0.14558824
0.96862745 0.52941176 0.17647059
0.34509804 0.33186275 0.12156863
0.34901961 0.33676471 0.12303922
0.34938725 0.34497549 0.12303922
0.35294118 0.35196078 0.12303922
0.35882353 0.35122549 0.12230392
0.36881127 0.34852941 0.12126225
0.3754902 0.34607843 0.11801471
0.39509804 0.35392157 0.11519608
0.41568627 0.36029412 0.11127451
0.43872549 0.36758578 0.10827206
0.48394608 0.38186275 0.097058824
0.5372549 0.40490196 0.084313725
0.58406863 0.41642157 0.074019608
0.62401961 0.42156863 0.06127451
0.66519608 0.42156863 0.049509804
0.71029412 0.41911765 0.036764706
0.75686275 0.42058824 0.02254902
0.78921569 0.43088235 0.028002451
0.82071078 0.44117647 0.031004902
0.85343137 0.45147059 0.032843137
0.88235294 0.46372549 0.035539216
0.90686275 0.48039216 0.061764706
0.92745098 0.50098039 0.099509804
0.9495098 0.52303922 0.14068627
0.96617647 0.54215686 0.17401961
0.34019608 0.36372549 0.11666667
0.34301471 0.36654412 0.11764706
0.34583333 0.37254902 0.12058824
0.34901961 0.37941176 0.12058824
0.35637255 0.38039216 0.11911765
0.36519608 0.37953431 0.11666667
0.3754902 0.38039216 0.11372549
0.39901961 0.38970588 0.11164216
0.41960784 0.4 0.10882353
0.44362745 0.4057598 0.10245098
0.48406863 0.41642157 0.092156863
0.54031863 0.43627451 0.078063725
0.58921569 0.45098039 0.061764706
0.63431373 0.45931373 0.044117647
0.6754902 0.4627451 0.030392157
0.71629902 0.45882353 0.020465686
0.75294118 0.45882353 0.018627451
0.7877451 0.45882353 0.018627451
0.81862745 0.46348039 0.018627451
0.85208333 0.47205882 0.015073529
0.88235294 0.48235294 0.018627451
0.90294118 0.5 0.050490196
0.92352941 0.51666667 0.081372549
0.94522059 0.53762255 0.12585784
0.96372549 0.55784314 0.15980392
0.33382353 0.39852941 0.11029412
0.33596814 0.40067402 0.11029412
0.33872549 0.40723039 0.11372549
0.34466912 0.41329657 0.11421569
0.35147059 0.41421569 0.11372549
0.36519608 0.41764706 0.11029412
0.3754902 0.41801471 0.10992647
0.39901961 0.42696078 0.10618873
0.42352941 0.4372549 0.10245098
0.45 0.44381127 0.096078431
0.4814951 0.44571078 0.085784314
0.52359069 0.45686275 0.075
0.57328431 0.47328431 0.055392157
0.63474265 0.49405637 0.026531863
0.68578431 0.50392157 0.0089460784
0.71813725 0.5 0.009620098
0.75294118 0.5 0.015686275
0.7877451 0.5 0.012254902
0.81862745 0.5 0.011764706
0.84993873 0.50392157 0.0079044118
0.87892157 0.50637255 0.0080882353
0.89901961 0.51415441 0.029473039
0.91960784 0.52794118 0.056862745
0.94166667 0.55275735 0.10392157
0.96078431 0.5754902 0.1495098
0.32745098 0.43529412 0.10392157
0.32745098 0.43651961 0.10392157
0.33137255 0.44166667 0.10392157
0.33504902 0.44681373 0.10588235
0.34803922 0.44901961 0.10784314
0.35931373 0.44901961 0.10563725
0.37107843 0.44901961 0.10392157
0.39313725 0.45833333 0.1
0.42156863 0.47058824 0.098039216
0.44852941 0.47647059 0.091666667
0.47941176 0.47696078 0.081372549
0.51004902 0.48039216 0.069117647
0.55882353 0.49411765 0.051960784
0.62254902 0.51862745 0.032107843
0.68137255 0.53627451 0.0093137255
0.71813725 0.54117647 0.0078431373
0.75098039 0.54117647 0.011764706
0.7870098 0.54117647 0.0078431373
0.82009804 0.54117647 0.0058823529
0.84583333 0.54117647 0.0041666667
0.87058824 0.54117647 0.011764706
0.89313725 0.54093137 0.021813725
0.91568627 0.54264706 0.027941176
0.93627451 0.56323529 0.079901961
0.95686275 0.59019608 0.1372549
0.32107843 0.47205882 0.09754902
0.32107843 0.47469363 0.09754902
0.32107843 0.47732843 0.09754902
0.32843137 0.47990196 0.09754902
0.33872549 0.47990196 0.09754902
0.34901961 0.47598039 0.09754902
0.36188725 0.47598039 0.09497549
0.38253676 0.48480392 0.093627451
0.41127451 0.49509804 0.090196078
0.44234069 0.50196078 0.087561275
0.47303922 0.50428922 0.07879902
0.50435049 0.50735294 0.071507353
0.54485294 0.51715686 0.069117647
0.60196078 0.53621324 0.05189951
0.66041667 0.55686275 0.034681373
0.70471814 0.57126225 0.021262255
0.74901961 0.57843137 0.0083333333
0.78596814 0.57843137 0.0078431373
0.81458333 0.57843137 0.01127451
0.84123775 0.58186275 0.0053921569
0.86446078 0.58014706 0.019607843
0.8872549 0.57751225 0.04564951
0.91127451 0.57708333 0.062745098
0.92696078 0.58333333 0.079901961
0.93676471 0.59705882 0.11421569
0.31078431 0.50686275 0.090196078
0.31078431 0.50870098 0.090563725
0.31372549 0.51397059 0.090196078
0.32107843 0.51470588 0.091053922
0.33235294 0.51078431 0.092647059
0.34166667 0.50686275 0.090196078
0.3497549 0.50294118 0.087990196
0.37120098 0.5064951 0.08627451
0.40490196 0.51862745 0.08627451
0.43578431 0.52990196 0.084436275
0.46568627 0.53504902 0.079166667
0.50012255 0.54080882 0.07745098
0.54117647 0.54803922 0.081372549
0.5877451 0.56237745 0.072058824
0.63946078 0.57965686 0.057843137
0.6877451 0.59497549 0.042156863
0.73921569 0.60980392 0.021568627
0.78382353 0.61960784 0.013357843
0.81004902 0.61642157 0.034068627
0.83517157 0.61311275 0.052083333
0.85980392 0.6127451 0.069607843
0.88333333 0.61262255 0.090196078
0.90392157 0.61470588 0.10857843
0.92120098 0.62107843 0.12953431
0.92941176 0.62843137 0.14803922
0.29901961 0.53921569 0.080882353
0.30140931 0.54166667 0.080882353
0.31078431 0.54558824 0.087254902
0.32107843 0.54558824 0.093627451
0.33137255 0.54436275 0.094117647
0.33988971 0.54295343 0.090196078
0.34803922 0.53921569 0.090196078
0.36911765 0.54313725 0.089276961
0.4 0.55098039 0.08627451
0.4278799 0.56035539 0.082352941
0.4567402 0.56911765 0.07879902
0.49607843 0.57432598 0.083639706
0.5372549 0.58088235 0.088970588
0.57873775 0.58952206 0.087254902
0.62781863 0.60526961 0.074509804
0.67199755 0.61856618 0.071446078
0.72254902 0.63431373 0.058333333
0.76764706 0.64460784 0.063786765
0.80147059 0.6497549 0.080514706
0.83235294 0.64773284 0.10079657
0.85735294 0.64754902 0.11960784
0.87794118 0.64901961 0.13988971
0.89852941 0.65294118 0.15833333
0.91666667 0.66078431 0.18284314
0.92941176 0.66862745 0.1995098
0.28627451 0.57254902 0.070588235
0.29656863 0.57254902 0.076960784
0.30686275 0.57254902 0.08627451
0.31715686 0.57254902 0.093627451
0.32745098 0.57647059 0.094117647
0.3377451 0.58039216 0.094117647
0.34803922 0.58039216 0.091176471
0.37303922 0.58186275 0.090196078
0.4 0.58823529 0.090196078
0.42696078 0.59215686 0.090196078
0.45490196 0.59705882 0.095098039
0.49264706 0.60343137 0.098039216
0.53333333 0.60980392 0.098039216
0.5745098 0.61960784 0.09754902
0.61568627 0.63039216 0.091176471
0.65833333 0.64068627 0.099509804
0.70196078 0.65490196 0.10980392
0.74705882 0.66519608 0.11862745
0.78431373 0.6754902 0.13137255
0.8254902 0.68235294 0.14460784
0.85098039 0.68627451 0.1627451
0.87156863 0.69019608 0.18578431
0.89215686 0.69411765 0.20980392
0.9127451 0.6995098 0.23431373
0.92941176 0.70588235 0.25098039
0.29509804 0.60588235 0.083333333
0.29748775 0.60343137 0.080882353
0.30625 0.60343137 0.08627451
0.31470588 0.60343137 0.090196078
0.32622549 0.60735294 0.094117647
0.3377451 0.61127451 0.094117647
0.34803922 0.61519608 0.094117647
0.37303922 0.61519608 0.098039216
0.39754902 0.61519608 0.10441176
0.42359069 0.61911765 0.1098652
0.45882353 0.62401961 0.11568627
0.49607843 0.63039216 0.12469363
0.53333333 0.6375 0.125
0.57303922 0.64705882 0.1213848
0.61176471 0.65379902 0.12830882
0.64901961 0.66427696 0.14215686
0.69166667 0.6754902 0.15490196
0.73284314 0.68578431 0.16856618
0.77401961 0.69607843 0.17941176
0.81519608 0.70637255 0.18970588
0.84264706 0.71666667 0.20588235
0.86519608 0.72285539 0.23039216
0.88578431 0.72794118 0.25392157
0.90637255 0.73131127 0.2754902
0.92156863 0.73676471 0.29215686
0.31568627 0.63921569 0.11176471
0.31568627 0.63639706 0.10245098
0.31176471 0.63431373 0.095098039
0.31090686 0.63431373 0.09129902
0.3245098 0.6377451 0.094117647
0.34669118 0.64215686 0.10796569
0.36470588 0.64583333 0.11568627
0.38137255 0.64509804 0.11960784
0.39705882 0.64607843 0.11960784
0.42156863 0.64791667 0.12561275
0.45980392 0.65318627 0.13651961
0.50098039 0.65772059 0.15012255
0.53823529 0.66715686 0.15637255
0.5754902 0.67401961 0.16041667
0.61568627 0.68112745 0.17156863
0.64963235 0.69031863 0.18578431
0.69019608 0.7 0.19607843
0.73039216 0.71029412 0.21029412
0.77083333 0.72058824 0.225
0.80539216 0.73088235 0.23517157
0.83235294 0.7377451 0.25196078
0.85882353 0.74754902 0.27291667
0.87941176 0.75563725 0.29607843
0.9 0.76127451 0.31666667
0.91372549 0.76372549 0.33333333
0.33970588 0.67303922 0.13970588
0.33627451 0.67040441 0.13204657
0.33578431 0.66776961 0.12389706
0.33921569 0.66519608 0.12310049
0.34926471 0.66715686 0.12377451
0.3651348 0.67003676 0.13284314
0.38529412 0.67303922 0.14276961
0.40196078 0.67303922 0.14540441
0.42205882 0.67303922 0.15098039
0.44246324 0.67696078 0.15863971
0.47352941 0.6810049 0.16776961
0.51084559 0.68823529 0.17843137
0.54656863 0.69460784 0.18872549
0.58229167 0.70441176 0.19552696
0.6192402 0.71127451 0.21188725
0.65539216 0.71764706 0.22696078
0.69019608 0.72401961 0.2372549
0.72745098 0.73088235 0.24785539
0.76421569 0.74117647 0.26311275
0.79509804 0.75147059 0.27941176
0.82205882 0.76176471 0.29779412
0.84852941 0.77205882 0.31666667
0.87205882 0.78235294 0.34105392
0.89362745 0.79215686 0.36176471
0.90980392 0.79460784 0.37794118
0.3627451 0.70784314 0.16862745
0.36862745 0.70392157 0.16862745
0.37745098 0.70147059 0.17058824
0.38578431 0.7 0.17058824
0.38823529 0.7 0.16666667
0.38651961 0.7 0.16078431
0.40539216 0.7 0.16764706
0.43186275 0.70392157 0.18455882
0.45882353 0.70784314 0.19803922
0.47818627 0.70784314 0.20588235
0.49901961 0.70882353 0.20833333
0.52794118 0.71568627 0.21519608
0.56078431 0.7254902 0.22352941
0.59215686 0.73161765 0.2379902
0.62941176 0.73823529 0.25686275
0.66519608 0.74460784 0.27205882
0.69607843 0.75098039 0.27843137
0.725 0.75612745 0.28602941
0.75539216 0.76519608 0.30392157
0.78480392 0.77205882 0.32279412
0.81176471 0.78235294 0.34117647
0.83823529 0.79264706 0.36176471
0.8627451 0.80294118 0.38235294
0.8872549 0.81715686 0.40294118
0.90392157 0.8254902 0.42352941
0.41470588 0.74264706 0.22254902
0.41862745 0.73890931 0.22254902
0.42598039 0.73529412 0.22254902
0.42990196 0.73529412 0.2221201
0.43382353 0.73504902 0.21862745
0.43431373 0.73480392 0.21470588
0.45147059 0.73529412 0.2245098
0.47334559 0.73890931 0.23707108
0.5 0.73921569 0.25
0.51421569 0.74136029 0.25392157
0.52941176 0.74264706 0.25747549
0.56078431 0.74699755 0.26519608
0.59166667 0.75637255 0.27892157
0.61813725 0.75925245 0.28970588
0.64558824 0.76531863 0.30379902
0.67598039 0.77371324 0.31764706
0.70686275 0.77794118 0.32794118
0.73743873 0.78400735 0.33823529
0.76017157 0.78933824 0.35343137
0.78682598 0.7966299 0.37009804
0.8122549 0.80514706 0.38897059
0.83670343 0.81323529 0.4033701
0.85686275 0.81960784 0.41666667
0.87745098 0.83118873 0.43400735
0.89754902 0.84019608 0.45196078
0.47647059 0.77745098 0.2872549
0.48039216 0.77463235 0.28431373
0.48137255 0.77254902 0.28406863
0.48517157 0.77254902 0.28333333
0.48872549 0.77107843 0.28039216
0.48970588 0.76862745 0.27647059
0.50367647 0.77181373 0.2872549
0.52463235 0.77647059 0.30147059
0.54411765 0.77647059 0.31078431
0.55894608 0.77647059 0.31421569
0.57352941 0.77671569 0.31666667
0.59852941 0.78125 0.32696078
0.6245098 0.7872549 0.3372549
0.64938725 0.79313725 0.34803922
0.67426471 0.79705882 0.36176471
0.69840686 0.80245098 0.37303922
0.72745098 0.80882353 0.38627451
0.75196078 0.8127451 0.39362745
0.77034314 0.81446078 0.40490196
0.79411765 0.82144608 0.42463235
0.81911765 0.83039216 0.44215686
0.84276961 0.8372549 0.45821078
0.85759804 0.84093137 0.46176471
0.87352941 0.84656863 0.46813725
0.89117647 0.85392157 0.47941176
0.54215686 0.81617647 0.35147059
0.54215686 0.81280637 0.35
0.54215686 0.80980392 0.34607843
0.54460784 0.80851716 0.34607843
0.54338235 0.80514706 0.34019608
0.54509804 0.80196078 0.33823529
0.55870098 0.80735294 0.34901961
0.57892157 0.81280637 0.36323529
0.59558824 0.81372549 0.37352941
0.60741422 0.81617647 0.37745098
0.62071078 0.81617647 0.38137255
0.64381127 0.81979167 0.39001225
0.66323529 0.82279412 0.39901961
0.68204657 0.8245098 0.40784314
0.7004902 0.83088235 0.41960784
0.72408088 0.83578431 0.43290441
0.74803922 0.83970588 0.44411765
0.765625 0.84123775 0.45140931
0.78382353 0.84362745 0.46078431
0.80441176 0.8495098 0.47696078
0.82622549 0.85588235 0.49362745
0.84932598 0.86323529 0.51323529
0.86507353 0.86507353 0.52120098
0.8783701 0.86960784 0.52702206
0.89019608 0.86960784 0.52107843
0.6 0.85098039 0.41176471
0.59215686 0.84313725 0.40147059
0.58823529 0.83921569 0.39607843
0.58823529 0.83921569 0.39607843
0.59019608 0.83529412 0.39215686
0.59656863 0.83529412 0.39607843
0.60686275 0.83529412 0.40294118
0.62107843 0.84068627 0.41323529
0.63529412 0.84705882 0.42352941
0.64803922 0.84705882 0.42990196
0.66470588 0.85196078 0.44117647
0.67794118 0.85098039 0.44313725
0.68823529 0.84705882 0.44509804
0.70294118 0.85098039 0.45147059
0.72352941 0.85490196 0.46568627
0.74558824 0.86421569 0.48382353
0.76470588 0.86666667 0.49019608
0.77892157 0.8627451 0.49656863
0.79411765 0.86666667 0.50392157
0.81470588 0.87009804 0.52058824
0.83529412 0.87647059 0.5372549
0.85539216 0.88578431 0.55735294
0.86960784 0.88529412 0.56764706
0.88529412 0.89019608 0.58970588
0.88627451 0.88235294 0.56862745
0.36078431 0.27843137 0.1372549
0.36078431 0.27843137 0.13633578
0.36078431 0.27745098 0.13333333
0.36421569 0.2745098 0.13333333
0.36470588 0.2745098 0.13333333
0.36470588 0.2745098 0.13333333
0.36470588 0.27120098 0.13333333
0.37310049 0.27058824 0.13333333
0.39607843 0.2745098 0.13186275
0.4221201 0.2745098 0.13033088
0.44509804 0.27696078 0.12941176
0.46783088 0.27665441 0.12579657
0.50882353 0.27843137 0.1254902
0.57009804 0.27892157 0.12156863
0.63296569 0.28235294 0.1182598
0.6966299 0.28627451 0.11617647
0.74901961 0.29803922 0.10833333
0.8004902 0.31078431 0.098039216
0.84644608 0.32536765 0.095098039
0.87959559 0.34411765 0.098713235
0.90514706 0.36004902 0.10171569
0.93039216 0.37990196 0.11158088
0.94742647 0.40441176 0.12843137
0.96764706 0.43578431 0.1504902
0.98431373 0.4627451 0.17107843
0.36078431 0.28088235 0.13578431
0.36078431 0.27843137 0.1348269
0.36078431 0.27843137 0.13333333
0.36292892 0.27843137 0.13333333
0.36470588 0.27769608 0.13333333
0.36470588 0.2745098 0.13333333
0.3682598 0.2745098 0.13333333
0.37759651 0.2745098 0.13220741
0.39852941 0.2745098 0.13186275
0.42395833 0.2778799 0.12941176
0.44791667 0.27843137 0.12904412
0.47420343 0.27843137 0.12560509
0.51666667 0.28161765 0.1247549
0.57647059 0.28510263 0.12058058
0.6386489 0.28913909 0.11764706
0.69846814 0.29411765 0.11280637
0.75147059 0.30441176 0.10496324
0.80106464 0.3122549 0.097464767
0.84774816 0.32643995 0.095098039
0.87959559 0.34564951 0.096568627
0.90514706 0.36596201 0.10367647
0.93039216 0.38627451 0.11169577
0.94849877 0.41017157 0.13157169
0.96856618 0.43976716 0.15294118
0.98578431 0.4627451 0.17015931
0.36078431 0.28235294 0.13333333
0.36078431 0.28235294 0.13333333
0.36078431 0.28235294 0.13333333
0.36292892 0.28138787 0.13333333
0.36470588 0.27892157 0.13333333
0.36766238 0.27843137 0.13333333
0.37172181 0.27843137 0.13333333
0.38154105 0.27843137 0.13278186
0.40392157 0.27879902 0.13002451
0.42732843 0.2801011 0.12941176
