site/assets/luts/sha256-453c49142c0e8c77dd64f9479f73b83ef509d59a51bf12920ae95a42497d6e72.cube
# LUTr-Schema-Version: 2
# LUTr-ID: sha256-453c49142c0e8c77dd64f9479f73b83ef509d59a51bf12920ae95a42497d6e72
# LUTr-Title: 60's faded alt
# LUTr-Collection: Natron HaldCLUT
# LUTr-Collection-ID: natron-haldclut-presets
# LUTr-Source: https://github.com/NatronGitHub/clut
# LUTr-Retrieved: 2026-07-27
# LUTr-Source-File: submissions/natron-haldclut-presets/various/60's_faded_alt.png
# LUTr-Source-Format: HALD-PNG
# LUTr-Source-SHA256: 453c49142c0e8c77dd64f9479f73b83ef509d59a51bf12920ae95a42497d6e72
# LUTr-License: CC-BY-SA-4.0
# LUTr-License-URL: https://github.com/NatronGitHub/clut#license
# LUTr-License-Basis: repo-license-file
# LUTr-Transform-Class: film-emulation
# LUTr-Tags: creative, film, film-emulation, hald-clut, natron, png, vintage, cube
# LUTr-Input-Color-Space: srgb
# LUTr-Input-Gamut: rec709
# LUTr-Input-Transfer: srgb
# LUTr-Output-Color-Space: srgb
# LUTr-Output-Gamut: rec709
# LUTr-Output-Transfer: srgb
# LUTr-Color-Space-Confidence: assumed-display-referred
# LUTr-Domain-Normalized: true
# LUTr-Shaper: none
# LUTr-Original-Grid: 64x64x64
# LUTr-Conversion-Grid: 25x25x25
# LUTr-Conversion-Interpolation: trilinear
# LUTr-Conversion-Method: HALD-PNG LUT image decoded at 16-bit and sampled to 25x25x25 3D CUBE
# LUTr-Conversion-Tool: LUTr scripts/convert-all-to-cube.mjs 2.0.0
# LUTr-Conversion-Date: 2026-07-27
# LUTr-Note: Preserve this metadata and the upstream license notices when redistributing.
TITLE "60's faded alt"
LUT_3D_SIZE 9
DOMAIN_MIN 0 0 0
DOMAIN_MAX 1 1 1
0.32941176 0.1254902 0.062745098
0.34803922 0.14460784 0.058333333
0.39411765 0.16568627 0.066666667
0.4754902 0.14754902 0.055392157
0.60196078 0.18627451 0.1
0.69558824 0.20588235 0.098039216
0.75980392 0.19901961 0.085294118
0.78382353 0.22990196 0.11421569
0.7254902 0.23137255 0.12156863
0.325 0.23333333 0.053921569
0.37800245 0.26378676 0.074019608
0.44362745 0.27205882 0.078431373
0.56292892 0.29822304 0.11617647
0.66176471 0.32107843 0.11544118
0.75686275 0.34411765 0.11813725
0.81973039 0.36323529 0.12254902
0.80631127 0.37003676 0.12481618
0.77401961 0.38039216 0.12892157
0.36862745 0.38921569 0.11470588
0.4185049 0.39914216 0.09497549
0.49926471 0.40686275 0.093382353
0.61323529 0.43321078 0.10821078
0.7122549 0.46372549 0.10637255
0.78933824 0.49460784 0.11666667
0.85588235 0.53014706 0.1502451
0.83529412 0.53382353 0.15122549
0.8127451 0.55588235 0.20490196
0.38823529 0.50931373 0.10539216
0.47794118 0.52745098 0.12696078
0.55526961 0.54215686 0.089338235
0.67107843 0.57003676 0.14338235
0.7625 0.59607843 0.13995098
0.82892157 0.62303922 0.17199755
0.87732843 0.64901961 0.21507353
0.88590686 0.66305147 0.25698529
0.82303922 0.67009804 0.2495098
0.45098039 0.61960784 0.14313725
0.55367647 0.64681373 0.14779412
0.63480392 0.6622549 0.14901961
0.725 0.68431373 0.16323529
0.80196078 0.70490196 0.20490196
0.85980392 0.725 0.23480392
0.89607843 0.74362745 0.275
0.89117647 0.75073529 0.31593137
0.85294118 0.77058824 0.32352941
0.54264706 0.72990196 0.15196078
0.61341912 0.7377451 0.16096814
0.69411765 0.76029412 0.19803922
0.77830882 0.76948529 0.23566176
0.83676471 0.78455882 0.27181373
0.88137255 0.79748775 0.30539216
0.91801471 0.80931373 0.33627451
0.928125 0.82401961 0.39448529
0.88529412 0.83823529 0.38382353
0.59803922 0.79803922 0.19411765
0.67830882 0.82205882 0.23223039
0.75122549 0.82941176 0.27303922
0.81507353 0.83823529 0.31507353
0.86911765 0.84901961 0.34313725
0.90379902 0.86188725 0.38284314
0.93039216 0.87181373 0.42990196
0.93492647 0.87769608 0.45453431
0.91078431 0.89901961 0.46862745
0.64852941 0.85245098 0.31421569
0.72849265 0.87800245 0.30539216
0.78688725 0.86678922 0.35514706
0.84822304 0.89491422 0.39436275
0.89264706 0.90171569 0.42230392
0.92303922 0.91011029 0.47598039
0.94509804 0.90588235 0.50784314
0.9372549 0.91072304 0.50245098
0.93970588 0.93039216 0.53578431
0.65098039 0.75686275 0.31372549
0.7254902 0.79019608 0.35294118
0.79705882 0.83529412 0.38823529
0.85735294 0.81372549 0.4377451
0.90980392 0.85098039 0.48431373
0.93872549 0.83480392 0.50490196
0.96078431 0.85294118 0.5372549
0.95245098 0.8495098 0.53578431
0.93333333 0.8627451 0.5372549
0.30539216 0.2495098 0.091666667
0.35104167 0.25251225 0.10073529
0.41801471 0.25208333 0.11703431
0.52346814 0.25747549 0.1411152
0.63823529 0.2622549 0.17818627
0.69356618 0.23823529 0.16237745
0.79473039 0.25379902 0.19215686
0.82193627 0.2754902 0.2028799
0.77107843 0.29852941 0.21715686
0.27689951 0.23125 0.10784314
0.3932598 0.2765242 0.14057138
0.46939338 0.30300245 0.15409007
0.5807981 0.31405484 0.17320006
0.68679534 0.34313725 0.1921875
0.77044271 0.35978094 0.21062347
0.84100797 0.39244792 0.23026961
0.87689185 0.41275276 0.24106924
0.8598652 0.45796569 0.28247549
0.32720588 0.37610294 0.14129902
0.43717831 0.41862745 0.170144
0.52107843 0.43066789 0.18186275
0.62794118 0.46015625 0.19584865
0.72990196 0.49068627 0.22647059
0.81470588 0.51764706 0.2489277
0.87022059 0.55343137 0.28026961
0.90228248 0.57587316 0.31855086
0.88431373 0.61004902 0.35085784
0.38327206 0.50441176 0.178125
0.50551471 0.5439568 0.21564798
0.60098039 0.56416973 0.2165288
0.69381127 0.59178156 0.2408701
0.78391544 0.61911765 0.27582721
0.8414905 0.65147059 0.30864737
0.90147059 0.67081801 0.34509804
0.92123928 0.68937653 0.37753523
0.90992647 0.71329657 0.40949755
0.45490196 0.6245098 0.21372549
0.59684436 0.67058824 0.26148897
0.66721814 0.67947304 0.26599265
0.75465686 0.70842525 0.29834559
0.82107843 0.71936275 0.32941176
0.87328431 0.7395527 0.3640625
0.91446078 0.75759804 0.40772059
0.92303922 0.76841299 0.4372549
0.91862745 0.81029412 0.48651961
0.55226716 0.73039216 0.27254902
0.66096814 0.75980392 0.31062347
0.72173713 0.76867341 0.332981
0.79589461 0.78607537 0.36831342
0.85196078 0.80147059 0.39852941
0.89774816 0.81059283 0.43125766
0.92735907 0.82340686 0.46818321
0.93872549 0.83404565 0.49705882
0.92273284 0.86911765 0.54313725
0.62046569 0.81519608 0.33578431
0.71378676 0.83284314 0.37604167
0.775 0.84074755 0.40294118
0.83069853 0.85235907 0.4377451
0.87935049 0.86446078 0.4723652
0.91714154 0.86959252 0.50735294
0.94485294 0.88094363 0.53823529
0.95669424 0.88843444 0.56776961
0.94068627 0.90110294 0.58590686
0.67555147 0.87064951 0.39166667
0.75638021 0.88719363 0.43431373
0.80943627 0.87973346 0.4682598
0.86025582 0.90481771 0.50606618
0.90242034 0.90637255 0.54436275
0.93088235 0.92081036 0.56915594
0.94989277 0.9256587 0.59339767
0.95631893 0.92124694 0.60942862
0.95294118 0.9377451 0.62647059
0.71911765 0.86029412 0.45098039
0.76256127 0.82371324 0.48370098
0.83762255 0.86176471 0.53566176
0.88694853 0.8497549 0.5689951
0.92279412 0.8875 0.59705882
0.93823529 0.89068627 0.58823529
0.9564951 0.85906863 0.61115196
0.96421569 0.88443627 0.63884804
0.95980392 0.86568627 0.63382353
0.27352941 0.22647059 0.14019608
0.33406863 0.23026961 0.15392157
0.42647059 0.23431373 0.18602941
0.51188725 0.21887255 0.18897059
0.61421569 0.24607843 0.21960784
0.71335784 0.25992647 0.25
0.76887255 0.25563725 0.25808824
0.80281863 0.26102941 0.2620098
0.82647059 0.2745098 0.28431373
0.25612745 0.24264706 0.17242647
0.38491115 0.28655025 0.21606924
0.47833946 0.2995098 0.22879902
0.58921569 0.3254902 0.25062806
0.69675245 0.34834559 0.27745098
0.78363971 0.37527574 0.30735294
0.84460784 0.4060049 0.32953431
0.90772059 0.43578431 0.35294118
0.87463235 0.49583333 0.40465686
0.30245098 0.37892157 0.21813725
0.39690564 0.41749387 0.24034926
0.54528186 0.44583333 0.27426471
0.65628064 0.47990196 0.30343137
0.75992647 0.5060049 0.33823529
0.83318015 0.54120711 0.36519608
0.88756127 0.57567402 0.39583333
0.92598039 0.60245098 0.42990196
0.90784314 0.62769608 0.46102941
0.34828431 0.50490196 0.25882353
0.49545037 0.54912684 0.30079657
0.6286152 0.58658088 0.33088235
0.7192402 0.61335784 0.35637255
0.80226716 0.63658088 0.39136029
0.85637255 0.65980392 0.42529105
0.91096814 0.68921569 0.46403186
0.92648591 0.70744485 0.48431373
0.92990196 0.74313725 0.52953431
0.43382353 0.61911765 0.29901961
0.58627451 0.67199755 0.35539216
0.68995098 0.6935049 0.38664216
0.77359069 0.71942402 0.42328431
0.83504902 0.73529412 0.45392157
0.88125 0.75637255 0.48780637
0.9245098 0.77218137 0.51911765
0.93970588 0.78817402 0.54252451
0.93186275 0.81323529 0.5754902
0.53480392 0.7247549 0.35747549
0.65409007 0.76190257 0.41164216
0.73936887 0.77824755 0.4432598
0.81646752 0.79486826 0.48013174
0.86568627 0.81133578 0.50563725
0.90490196 0.82193627 0.53872549
0.93933824 0.83897059 0.57647059
0.95700061 0.85209865 0.60344669
0.95294118 0.88308824 0.6435049
0.58578431 0.78823529 0.4004902
0.71467525 0.83655025 0.47022059
0.7872549 0.85196078 0.50386029
0.84509804 0.86262255 0.53872549
0.89031863 0.87254902 0.56973039
0.9270527 0.88287377 0.60413603
0.95294118 0.88860294 0.62800245
0.96470588 0.89509804 0.65404412
0.94019608 0.91764706 0.66470588
0.65196078 0.86421569 0.46164216
0.7605239 0.88284314 0.52757353
0.82129289 0.89917279 0.56106005
0.87316176 0.90637255 0.59656863
0.91176471 0.91795343 0.62941176
0.93333333 0.92303922 0.64673713
0.95698529 0.92205882 0.66617647
0.95980392 0.92293199 0.68039216
0.95245098 0.94031863 0.68946078
0.69019608 0.79901961 0.51666667
0.76495098 0.82316176 0.56139706
0.82892157 0.83529412 0.60416667
0.89301471 0.85379902 0.64522059
0.92647059 0.85784314 0.66764706
0.95281863 0.89436275 0.69718137
0.96862745 0.86691176 0.69607843
0.96764706 0.88284314 0.70073529
0.96470588 0.89705882 0.70490196
0.28235294 0.22892157 0.19754902
0.34932598 0.24019608 0.22414216
0.42622549 0.23872549 0.24129902
0.56243873 0.24522059 0.29479167
0.66470588 0.2620098 0.32181373
0.69522059 0.24393382 0.30753676
0.82634804 0.27794118 0.37267157
0.84252451 0.30765931 0.37677696
0.81617647 0.31960784 0.39313725
0.25410539 0.2473652 0.22561275
0.38382353 0.29569547 0.28213082
0.49485294 0.31286765 0.30514706
0.60036765 0.33989737 0.33069853
0.70318627 0.36685049 0.36176471
0.79166667 0.38553922 0.39270833
0.85948223 0.42156863 0.42696078
0.8978171 0.44659161 0.44806219
0.87990196 0.503125 0.50018382
0.31213235 0.39129902 0.29754902
0.43468137 0.43302696 0.33818934
0.56813725 0.46332721 0.37303922
0.67058824 0.48682598 0.39856005
0.7682598 0.51862745 0.43088235
0.83333333 0.55094975 0.46176471
0.88005515 0.58529412 0.49191176
0.91764706 0.61349571 0.5212163
0.9004902 0.6432598 0.55208333
0.38376225 0.51997549 0.34344363
0.51023284 0.56207108 0.38952206
0.63872549 0.59636949 0.4294424
0.73661918 0.63282016 0.46813725
0.81421569 0.64929534 0.49411765
0.86479013 0.683678 0.52892157
0.90539216 0.70075061 0.5504902
0.9346201 0.71998315 0.57745098
0.91047794 0.75686275 0.61758578
0.46936275 0.63897059 0.39656863
0.58504902 0.67990196 0.44411765
0.70563725 0.70416667 0.48805147
0.78651961 0.72990196 0.52156863
0.84571078 0.74926471 0.54730392
0.890625 0.76786152 0.575
0.92254902 0.78602941 0.60122549
0.93995098 0.8 0.62809436
0.92058824 0.82181373 0.65931373
0.52493873 0.72101716 0.43572304
0.65784314 0.76734069 0.49846814
0.75683211 0.78664216 0.54057904
0.8245098 0.80516238 0.56903339
0.87570466 0.82012868 0.59310662
0.9149663 0.83523284 0.62591912
0.94695159 0.85038297 0.65879289
0.95490196 0.86341146 0.68118873
0.95539216 0.89411765 0.71715686
0.63321078 0.8182598 0.51335784
0.72941176 0.83982843 0.55723039
0.79571078 0.84901961 0.59264706
0.85363051 0.8682598 0.62463235
0.90079657 0.87824755 0.65226716
0.93046875 0.88869485 0.67794118
0.95392157 0.89509804 0.70015319
0.95880821 0.8990962 0.71176471
0.93872549 0.91862745 0.72647059
0.67463235 0.87365196 0.55471814
0.76797641 0.88719363 0.60517004
0.83730086 0.88982843 0.65062806
0.88021599 0.9122549 0.68216912
0.91323529 0.92058824 0.70278799
0.93990502 0.91506587 0.72303922
0.95698529 0.92647059 0.73102022
0.96425398 0.92154565 0.73431373
0.96029412 0.94166667 0.74362745
0.70637255 0.81715686 0.60245098
0.79632353 0.84914216 0.65208333
0.84767157 0.85294118 0.68088235
0.89803922 0.86734069 0.71617647
0.92990196 0.87794118 0.73235294
0.95778186 0.88933824 0.75245098
0.96985294 0.89485294 0.76384804
0.96648284 0.8817402 0.74785539
0.96862745 0.88921569 0.75882353
0.26470588 0.21372549 0.2372549
0.32598039 0.18897059 0.25269608
0.43921569 0.21960784 0.30735294
0.54607843 0.24681373 0.33602941
0.62058824 0.2254902 0.34313725
0.7252451 0.24852941 0.39338235
0.78284314 0.24362745 0.40343137
0.8497549 0.29411765 0.45073529
0.84117647 0.34901961 0.49215686
0.27303922 0.27622549 0.31078431
0.38014706 0.30808824 0.35931373
0.51121324 0.33033088 0.3879902
0.61914828 0.35416667 0.41106005
0.70968137 0.37794118 0.44362745
0.79598652 0.39469975 0.4768076
0.85778186 0.42009804 0.50753676
0.8879902 0.46151961 0.54145221
0.8875 0.49289216 0.55931373
0.28088235 0.38382353 0.35147059
0.45741422 0.45085784 0.42034314
0.59313725 0.47708333 0.46960784
0.69381127 0.50588235 0.50067402
0.77745098 0.53995098 0.52818627
0.8372549 0.56372549 0.5504902
0.89264706 0.60183824 0.58737745
0.91262255 0.61875 0.60220588
0.92009804 0.66862745 0.6495098
0.40833333 0.54485294 0.44583333
0.53449755 0.57794118 0.48431373
0.65471814 0.60563725 0.52745098
0.74828431 0.6377451 0.55879289
0.82720588 0.66703431 0.58933824
0.87359069 0.68578431 0.60787377
0.9182598 0.71102941 0.63131127
0.92852328 0.72745098 0.6484375
0.92156863 0.76544118 0.69240196
0.47843137 0.64411765 0.4872549
0.61985294 0.68970588 0.54632353
0.72622549 0.71691176 0.58186275
0.79607843 0.73946078 0.60833333
0.85245098 0.75686275 0.62941176
0.89865196 0.77720588 0.65992647
0.9372549 0.79583333 0.68897059
0.93921569 0.80833333 0.70539216
0.94607843 0.84901961 0.74705882
0.54436275 0.73676471 0.54166667
0.66715686 0.77647059 0.57941176
0.76501225 0.79730392 0.62064951
0.83382353 0.81424632 0.64705882
0.88480392 0.82941176 0.67708333
0.92331495 0.84261642 0.70143995
0.94901961 0.85471814 0.72340686
0.94690564 0.86314338 0.73921569
0.93357843 0.89166667 0.76617647
0.63529412 0.81127451 0.59117647
0.73419118 0.84246324 0.63186275
0.80686275 0.85784314 0.6627451
0.86078431 0.8723652 0.69460784
0.90784314 0.88431373 0.72352941
0.93278186 0.89528186 0.73897059
0.95392157 0.8995098 0.75588235
0.96133578 0.90349265 0.76789216
0.96470588 0.92058824 0.79068627
0.68235294 0.86151961 0.61960784
0.7794424 0.89411765 0.67279412
0.83737745 0.91053922 0.70165441
0.88121936 0.90940564 0.7388174
0.91568627 0.91642157 0.75232843
0.94010417 0.91813725 0.76780025
0.95392157 0.93406863 0.7752451
0.96424632 0.93354779 0.78526348
0.94338235 0.95073529 0.79607843
0.72941176 0.82941176 0.67058824
0.79705882 0.85073529 0.70808824
0.86078431 0.90343137 0.73921569
0.88946078 0.89460784 0.75808824
0.93137255 0.89019608 0.78431373
0.95637255 0.89877451 0.7995098
0.96813725 0.88823529 0.81323529
0.97230392 0.87867647 0.80808824
0.96078431 0.89215686 0.80784314
0.22892157 0.15686275 0.24705882
0.34007353 0.20098039 0.31029412
0.43419118 0.20833333 0.34571078
0.53063725 0.20925245 0.36936275
0.63088235 0.21838235 0.40833333
0.73143382 0.23376225 0.45539216
0.77328431 0.21348039 0.45894608
0.85091912 0.28602941 0.52199755
0.83578431 0.30735294 0.53872549
0.24393382 0.24656863 0.33676471
0.42254902 0.32696078 0.43409161
0.52830882 0.34353554 0.46456801
0.6366345 0.36084559 0.49558824
0.72901348 0.37999387 0.53039216
0.8068704 0.41084559 0.5613894
0.85931373 0.43717831 0.59033395
0.91176471 0.47383578 0.62352941
0.91470588 0.53707108 0.6713848
0.34693627 0.42867647 0.46311275
0.46790748 0.46519608 0.50845588
0.60753676 0.49617034 0.55551471
0.70735294 0.53235294 0.58823529
0.78333333 0.54828431 0.61317402
0.84509804 0.57650123 0.63175551
0.89457721 0.60392157 0.65824142
0.92169118 0.62859988 0.67887561
0.9125 0.67156863 0.71568627
0.36256127 0.51666667 0.48566176
0.55294118 0.59590227 0.57462469
0.68186275 0.62768076 0.62401961
0.76519608 0.65686275 0.64852941
0.82671569 0.67794118 0.66887255
0.88102788 0.69752604 0.68621324
0.92647059 0.71882659 0.70551471
0.92794118 0.73003217 0.71526501
0.93823529 0.79209559 0.77107843
0.49215686 0.65196078 0.57083333
0.62867647 0.70474877 0.62686887
0.73504902 0.72647059 0.66029412
0.80955882 0.74874387 0.68425245
0.85919118 0.77034314 0.70490196
0.90566789 0.7823223 0.72794118
0.93952206 0.79852941 0.75030637
0.9372549 0.8122549 0.76191789
0.9372549 0.83455882 0.78063725
0.56519608 0.74411765 0.62064951
0.68451287 0.78284314 0.66285999
0.77601103 0.80196078 0.6944087
0.83944547 0.81770833 0.71364124
0.8877451 0.83431373 0.74408701
0.92866115 0.8466299 0.76519608
0.94901961 0.85807292 0.78088235
0.9455193 0.86599265 0.792356
0.94810049 0.88768382 0.8122549
0.64203431 0.81911765 0.65857843
0.73529412 0.84509804 0.69791667
0.81106005 0.86078431 0.73097426
0.86078431 0.87624081 0.745481
0.90857843 0.8877451 0.7776348
0.93624387 0.89961703 0.78762255
0.95294118 0.90294118 0.80364583
0.95124081 0.90686275 0.81167279
0.94362745 0.92316176 0.825
0.7254902 0.8817402 0.70680147
0.78373928 0.89023437 0.73627451
0.83743873 0.90254289 0.76318934
0.88351716 0.91783088 0.78627451
0.91617647 0.93014706 0.79877451
0.94117647 0.92842371 0.81782322
0.95396752 0.92561275 0.82645527
0.95686275 0.92794118 0.82892157
0.9495098 0.94381127 0.82352941
0.78382353 0.88627451 0.76862745
0.81078431 0.8598652 0.76654412
0.86482843 0.88676471 0.8
0.91427696 0.90943627 0.82555147
0.93382353 0.89215686 0.82671569
0.95931373 0.88731618 0.8495098
0.96862745 0.87365196 0.85073529
0.96501225 0.88958333 0.84589461
0.97254902 0.86666667 0.8504902
0.23823529 0.15588235 0.30294118
0.37279412 0.23786765 0.40772059
0.46102941 0.23137255 0.43308824
0.55882353 0.2307598 0.46127451
0.6495098 0.25 0.49656863
0.7307598 0.25870098 0.52830882
0.8370098 0.29828431 0.60759804
0.8375 0.30772059 0.59044118
0.86568627 0.35490196 0.64509804
0.27965686 0.27720588 0.42426471
0.44094669 0.33921569 0.51335784
0.54929534 0.3588848 0.54751838
0.65775123 0.37648591 0.58765319
0.7370098 0.39607843 0.61648284
0.81332721 0.43088235 0.65422794
0.86326593 0.45367647 0.68002451
0.89761029 0.47958027 0.69569547
0.875 0.53713235 0.73321078
0.33504902 0.41593137 0.50759804
0.51115196 0.47892157 0.60045956
0.62647059 0.51035539 0.64313725
0.72175245 0.53651961 0.67401961
0.79509804 0.57058824 0.70245098
0.85294118 0.59142157 0.72028186
0.89411765 0.60863971 0.73192402
0.9122549 0.63186275 0.73765319
0.90735294 0.66053922 0.76642157
0.45012255 0.5567402 0.60134804
0.57550551 0.61066176 0.67009804
0.68823529 0.64056373 0.70291054
0.77363664 0.66882659 0.73193934
0.83805147 0.69338235 0.746875
0.88641238 0.71139706 0.75840993
0.92046569 0.72205882 0.76911765
0.92958027 0.73676471 0.77659314
0.90392157 0.775 0.81458333
0.52107843 0.66470588 0.66176471
0.65349265 0.71390931 0.71813725
0.74460784 0.73492647 0.73627451
0.81292892 0.75447304 0.75686275
0.86862745 0.77892157 0.7747549
0.91035539 0.79123775 0.79215686
0.93970588 0.80404412 0.8057598
0.93541667 0.81568627 0.81605392
0.91568627 0.84411765 0.84313725
0.59142157 0.74656863 0.69105392
0.70196078 0.78907782 0.7410386
0.77990196 0.80759804 0.76323529
0.8495098 0.82254902 0.78235294
0.89393382 0.84099265 0.80539216
0.92843137 0.85577512 0.82349877
0.95294118 0.86629902 0.83489583
0.94082414 0.86783088 0.83435968
0.95477941 0.88811275 0.85294118
0.64926471 0.81495098 0.71936275
0.75775123 0.85294118 0.76715686
0.81642157 0.86507353 0.79019608
0.86636029 0.88223039 0.80931373
0.91568627 0.89362745 0.83517157
0.93872549 0.90303309 0.84145221
0.95686275 0.90686275 0.84528186
0.95637255 0.90848652 0.85220588
0.92941176 0.90980392 0.85122549
0.71813725 0.87120098 0.76078431
0.79558824 0.89895833 0.79411765
0.85027574 0.90171569 0.81639093
0.88743873 0.9245098 0.829856
0.92107843 0.91905637 0.84675245
0.94264706 0.93198529 0.86158088
0.95686275 0.93872549 0.86375613
0.95637255 0.93252145 0.86420037
0.92892157 0.94595588 0.86507353
0.76372549 0.84705882 0.80392157
0.80526961 0.84791667 0.80943627
0.83627451 0.83210784 0.82230392
0.88566176 0.84387255 0.84142157
0.91764706 0.84803922 0.85343137
0.93958333 0.84448529 0.85870098
0.96078431 0.84852941 0.87132353
0.96776961 0.85943627 0.88210784
0.93431373 0.86078431 0.86960784
0.25784314 0.16127451 0.37205882
0.37156863 0.21115196 0.44675245
0.46997549 0.23284314 0.48982843
0.58210784 0.25980392 0.54650735
0.66446078 0.26495098 0.57156863
0.75655637 0.29901961 0.62732843
0.81151961 0.31936275 0.66262255
0.84522059 0.33345588 0.67150735
0.87892157 0.3754902 0.73578431
0.31115196 0.2911152 0.50526961
0.45375306 0.35392157 0.59024969
0.56470588 0.3692402 0.62598039
0.66868873 0.39168964 0.67107843
0.75196078 0.41498162 0.70909926
0.81911765 0.44168964 0.73262102
0.87460172 0.47210478 0.76426164
0.8696155 0.48340227 0.76127451
0.86783088 0.53143382 0.78676471
0.41605392 0.45122549 0.62107843
0.53578431 0.49716605 0.68550858
0.64684436 0.52852328 0.73250613
0.73987439 0.55459559 0.76547181
0.80588235 0.58137255 0.78137255
0.86478248 0.60802696 0.80396752
0.89574142 0.62365196 0.80784314
0.90560662 0.63480392 0.80724571
0.89240196 0.64779412 0.81372549
0.52022059 0.59362745 0.71011029
0.60824908 0.62986366 0.75855545
0.70392157 0.65330882 0.7817402
0.78401501 0.67254902 0.8006204
0.84558824 0.7002451 0.81617647
0.89086244 0.72174479 0.82696078
0.91715686 0.73187806 0.83088235
0.91840533 0.74362745 0.83431373
0.89669118 0.76004902 0.85661765
0.56397059 0.68161765 0.74901961
0.67598039 0.72717525 0.79460784
0.75882353 0.7504902 0.80686275
0.82803309 0.76608456 0.82588848
0.8745098 0.78345588 0.83627451
0.91216299 0.80358456 0.85147059
0.93498775 0.81758578 0.86176471
0.91838235 0.81565564 0.86084559
0.89779412 0.82794118 0.87769608
0.66470588 0.78314951 0.80177696
0.72589614 0.79944853 0.81405484
0.78382353 0.81372549 0.82781863
0.85343137 0.83284314 0.8471201
0.9 0.85196078 0.86234681
0.93235294 0.86176471 0.87292433
0.94509804 0.86813725 0.87910539
0.95265012 0.87383578 0.88284314
0.90723039 0.87107843 0.88627451
0.70085784 0.83443627 0.80404412
0.78207721 0.86035539 0.83590686
0.82288603 0.86862745 0.84702819
0.87268689 0.8872549 0.86626838
0.91568627 0.89901961 0.87892157
0.93872549 0.90686275 0.88310355
0.95447304 0.91078431 0.88875613
0.95453431 0.91335784 0.89851409
0.90294118 0.89901961 0.8877451
0.76464461 0.88823529 0.83082108
0.81875 0.90883119 0.85582874
0.8504902 0.90594363 0.86646752
0.88759957 0.91403186 0.87922794
0.9252451 0.91813725 0.88682598
0.94509804 0.93096661 0.89525888
0.95784314 0.92489277 0.90019914
0.94890472 0.92990196 0.90202206
0.93921569 0.93682598 0.90545343
0.79019608 0.82892157 0.85588235
0.81323529 0.86911765 0.85392157
0.83848039 0.82512255 0.8689951
0.87892157 0.83743873 0.87677696
0.91446078 0.83970588 0.8872549
0.94050245 0.83939951 0.8942402
0.95686275 0.82132353 0.89987745
0.9588848 0.81482843 0.89944853
0.94264706 0.80686275 0.89558824
0.39607843 0.26666667 0.5254902
0.45833333 0.29803922 0.59411765
0.51960784 0.28529412 0.59117647
0.60196078 0.27156863 0.60735294
0.71764706 0.34313725 0.69019608
0.7745098 0.36960784 0.71666667
0.83627451 0.3627451 0.74803922
0.85539216 0.38333333 0.75098039
0.85882353 0.45882353 0.79607843
0.44215686 0.35392157 0.64117647
0.51078431 0.37052696 0.68082108
0.59215686 0.38627451 0.69852941
0.68088235 0.4 0.74001225
0.75784314 0.42671569 0.75735294
0.82990196 0.45998775 0.82898284
0.88186275 0.49166667 0.85110294
0.88621324 0.49901961 0.81464461
0.8745098 0.51176471 0.83186275
0.5254902 0.5 0.73039216
0.59068627 0.52071078 0.77561275
0.65686275 0.53823529 0.80931373
0.74264706 0.5622549 0.80870098
0.80833333 0.58823529 0.82647059
0.87218137 0.61862745 0.86433824
0.89730392 0.63161765 0.8502451
0.90441176 0.64019608 0.84669118
0.88921569 0.65098039 0.86470588
0.60980392 0.63872549 0.81666667
0.67616422 0.66243873 0.84889706
0.7127451 0.67156863 0.83737745
0.79019608 0.69068627 0.86372549
0.84754902 0.70784314 0.86617647
0.89803922 0.72892157 0.87996324
0.925 0.7435049 0.8814951
0.92009804 0.74491422 0.87726716
0.8745098 0.76029412 0.89656863
0.64509804 0.71960784 0.8254902
0.72941176 0.74754902 0.86176471
0.76862745 0.75833333 0.87107843
0.82647059 0.76666667 0.86029412
0.88039216 0.7872549 0.89117647
0.91715686 0.80539216 0.89730392
0.9372549 0.81764706 0.89509804
0.93137255 0.81789216 0.9004902
0.88431373 0.82156863 0.91372549
0.74313725 0.81029412 0.875
0.76550245 0.81844363 0.87806373
0.80159314 0.82365196 0.87953431
0.86127451 0.83970588 0.8877451
0.90784314 0.85318627 0.90784314
0.93719363 0.86476716 0.91519608
0.94840686 0.87022059 0.91372549
0.94705882 0.87205882 0.92530637
0.91519608 0.86960784 0.91911765
0.77843137 0.86470588 0.8754902
0.79362745 0.86862745 0.87058824
0.83823529 0.87622549 0.89705882
0.87585784 0.8872549 0.9064951
0.9127451 0.89558824 0.9122549
0.94264706 0.90686275 0.92941176
0.95710784 0.90857843 0.9254902
0.94865196 0.91078431 0.92990196
0.9254902 0.90686275 0.92156863
0.81617647 0.91029412 0.89019608
0.83137255 0.91464461 0.89411765
0.85441176 0.91433824 0.89938725
0.88903186 0.91813725 0.90441176
0.92352941 0.92598039 0.92107843
0.94136029 0.93903186 0.92677696
0.95772059 0.9372549 0.92892157
0.95294118 0.9377451 0.9372549
0.94068627 0.9377451 0.94068627
0.85490196 0.94901961 0.92156863
0.84362745 0.94117647 0.89852941
0.86176471 0.94313725 0.89117647
0.89656863 0.94754902 0.90441176
0.92352941 0.95294118 0.90588235
0.94656863 0.95539216 0.91372549
0.95980392 0.95686275 0.91470588
0.94803922 0.95294118 0.92156863
0.90980392 0.95686275 0.91372549
