site/assets/luts/sha256-57b39e5b4cb84ba54ecd3712c434b1d9969af3e82cbfe1eb7d3f892489345c31.cube
# LUTr-Schema-Version: 2
# LUTr-ID: sha256-57b39e5b4cb84ba54ecd3712c434b1d9969af3e82cbfe1eb7d3f892489345c31
# LUTr-Title: fuji ilford delta 3200 +
# LUTr-Collection: Natron HaldCLUT
# LUTr-Collection-ID: natron-haldclut-presets
# LUTr-Source: https://github.com/NatronGitHub/clut
# LUTr-Retrieved: 2026-07-27
# LUTr-Source-File: submissions/natron-haldclut-presets/negative_old/fuji_ilford_delta_3200_+.png
# LUTr-Source-Format: HALD-PNG
# LUTr-Source-SHA256: 57b39e5b4cb84ba54ecd3712c434b1d9969af3e82cbfe1eb7d3f892489345c31
# LUTr-License: CC-BY-SA-4.0
# LUTr-License-URL: https://github.com/NatronGitHub/clut#license
# LUTr-License-Basis: repo-license-file
# LUTr-Transform-Class: film-emulation
# LUTr-Tags: creative, film, film-emulation, hald-clut, natron, png, cube
# LUTr-Input-Color-Space: srgb
# LUTr-Input-Gamut: rec709
# LUTr-Input-Transfer: srgb
# LUTr-Output-Color-Space: srgb
# LUTr-Output-Gamut: rec709
# LUTr-Output-Transfer: srgb
# LUTr-Color-Space-Confidence: assumed-display-referred
# LUTr-Domain-Normalized: true
# LUTr-Shaper: none
# LUTr-Original-Grid: 64x64x64
# LUTr-Conversion-Grid: 25x25x25
# LUTr-Conversion-Interpolation: trilinear
# LUTr-Conversion-Method: HALD-PNG LUT image decoded at 16-bit and sampled to 25x25x25 3D CUBE
# LUTr-Conversion-Tool: LUTr scripts/convert-all-to-cube.mjs 2.0.0
# LUTr-Conversion-Date: 2026-07-27
# LUTr-Note: Preserve this metadata and the upstream license notices when redistributing.
TITLE "fuji ilford delta 3200 +"
LUT_3D_SIZE 5
DOMAIN_MIN 0 0 0
DOMAIN_MAX 1 1 1
0.10980392 0.10980392 0.10980392
0.1127451 0.1127451 0.1127451
0.18431373 0.18431373 0.18431373
0.36372549 0.36372549 0.36372549
0.58823529 0.58823529 0.58823529
0.11764706 0.11764706 0.11764706
0.15220588 0.15220588 0.15220588
0.2495098 0.2495098 0.2495098
0.39779412 0.39779412 0.39779412
0.63823529 0.63823529 0.63823529
0.28431373 0.28431373 0.28431373
0.3 0.3 0.3
0.36176471 0.36176471 0.36176471
0.51666667 0.51666667 0.51666667
0.71764706 0.71764706 0.71764706
0.54313725 0.54313725 0.54313725
0.55294118 0.55294118 0.55294118
0.60245098 0.60245098 0.60245098
0.68014706 0.68014706 0.68014706
0.8254902 0.8254902 0.8254902
0.85098039 0.85098039 0.85098039
0.86960784 0.86960784 0.86960784
0.86862745 0.86862745 0.86862745
0.90980392 0.90980392 0.90980392
0.93333333 0.93333333 0.93333333
0.10196078 0.10196078 0.10196078
0.13553922 0.13553922 0.13553922
0.23039216 0.23039216 0.23039216
0.39485294 0.39485294 0.39485294
0.61176471 0.61176471 0.61176471
0.15784314 0.15784314 0.15784314
0.2 0.2 0.2
0.29571078 0.29571078 0.29571078
0.44001225 0.44001225 0.44001225
0.66151961 0.66151961 0.66151961
0.33431373 0.33431373 0.33431373
0.35392157 0.35392157 0.35392157
0.40784314 0.40784314 0.40784314
0.55098039 0.55098039 0.55098039
0.73676471 0.73676471 0.73676471
0.57941176 0.57941176 0.57941176
0.59773284 0.59773284 0.59773284
0.63627451 0.63627451 0.63627451
0.69270833 0.69270833 0.69270833
0.84117647 0.84117647 0.84117647
0.88137255 0.88137255 0.88137255
0.88578431 0.88578431 0.88578431
0.8877451 0.8877451 0.8877451
0.91446078 0.91446078 0.91446078
0.93627451 0.93627451 0.93627451
0.20588235 0.20588235 0.20588235
0.24362745 0.24362745 0.24362745
0.30196078 0.30196078 0.30196078
0.44803922 0.44803922 0.44803922
0.68627451 0.68627451 0.68627451
0.25980392 0.25980392 0.25980392
0.30784314 0.30784314 0.30784314
0.3754902 0.3754902 0.3754902
0.51409314 0.51409314 0.51409314
0.70784314 0.70784314 0.70784314
0.37843137 0.37843137 0.37843137
0.41176471 0.41176471 0.41176471
0.5254902 0.5254902 0.5254902
0.64166667 0.64166667 0.64166667
0.78235294 0.78235294 0.78235294
0.65147059 0.65147059 0.65147059
0.68186275 0.68186275 0.68186275
0.70637255 0.70637255 0.70637255
0.75637255 0.75637255 0.75637255
0.86862745 0.86862745 0.86862745
0.88627451 0.88627451 0.88627451
0.88676471 0.88676471 0.88676471
0.9 0.9 0.9
0.91568627 0.91568627 0.91568627
0.94117647 0.94117647 0.94117647
0.39607843 0.39607843 0.39607843
0.44215686 0.44215686 0.44215686
0.51813725 0.51813725 0.51813725
0.60588235 0.60588235 0.60588235
0.72941176 0.72941176 0.72941176
0.45882353 0.45882353 0.45882353
0.50784314 0.50784314 0.50784314
0.58051471 0.58051471 0.58051471
0.64926471 0.64926471 0.64926471
0.7629902 0.7629902 0.7629902
0.51372549 0.51372549 0.51372549
0.57095588 0.57095588 0.57095588
0.66789216 0.66789216 0.66789216
0.72671569 0.72671569 0.72671569
0.82794118 0.82794118 0.82794118
0.66372549 0.66372549 0.66372549
0.68848039 0.68848039 0.68848039
0.75294118 0.75294118 0.75294118
0.83137255 0.83137255 0.83137255
0.89215686 0.89215686 0.89215686
0.90196078 0.90196078 0.90196078
0.90563725 0.90563725 0.90563725
0.90784314 0.90784314 0.90784314
0.93431373 0.93431373 0.93431373
0.94901961 0.94901961 0.94901961
0.76078431 0.76078431 0.76078431
0.78039216 0.78039216 0.78039216
0.81568627 0.81568627 0.81568627
0.86666667 0.86666667 0.86666667
0.88627451 0.88627451 0.88627451
0.77941176 0.77941176 0.77941176
0.79044118 0.79044118 0.79044118
0.83284314 0.83284314 0.83284314
0.86446078 0.86446078 0.86446078
0.89411765 0.89411765 0.89411765
0.81176471 0.81176471 0.81176471
0.8245098 0.8245098 0.8245098
0.84803922 0.84803922 0.84803922
0.8877451 0.8877451 0.8877451
0.91764706 0.91764706 0.91764706
0.81666667 0.81666667 0.81666667
0.81862745 0.81862745 0.81862745
0.86127451 0.86127451 0.86127451
0.91078431 0.91078431 0.91078431
0.94607843 0.94607843 0.94607843
0.89019608 0.89019608 0.89019608
0.90882353 0.90882353 0.90882353
0.9254902 0.9254902 0.9254902
0.93823529 0.93823529 0.93823529
0.95686275 0.95686275 0.95686275
