site/assets/luts/sha256-3a78ef2f6880a58654df44701d61623229ad38ac1e34bf71e7e0fe00334981d1.cube
# LUTr-Schema-Version: 2
# LUTr-ID: sha256-3a78ef2f6880a58654df44701d61623229ad38ac1e34bf71e7e0fe00334981d1
# LUTr-Title: vintage alt
# LUTr-Collection: Natron HaldCLUT
# LUTr-Collection-ID: natron-haldclut-presets
# LUTr-Source: https://github.com/NatronGitHub/clut
# LUTr-Retrieved: 2026-07-27
# LUTr-Source-File: submissions/natron-haldclut-presets/various/vintage_alt.png
# LUTr-Source-Format: HALD-PNG
# LUTr-Source-SHA256: 3a78ef2f6880a58654df44701d61623229ad38ac1e34bf71e7e0fe00334981d1
# LUTr-License: CC-BY-SA-4.0
# LUTr-License-URL: https://github.com/NatronGitHub/clut#license
# LUTr-License-Basis: repo-license-file
# LUTr-Transform-Class: film-emulation
# LUTr-Tags: creative, film, film-emulation, hald-clut, natron, png, vintage, cube
# LUTr-Input-Color-Space: srgb
# LUTr-Input-Gamut: rec709
# LUTr-Input-Transfer: srgb
# LUTr-Output-Color-Space: srgb
# LUTr-Output-Gamut: rec709
# LUTr-Output-Transfer: srgb
# LUTr-Color-Space-Confidence: assumed-display-referred
# LUTr-Domain-Normalized: true
# LUTr-Shaper: none
# LUTr-Original-Grid: 64x64x64
# LUTr-Conversion-Grid: 25x25x25
# LUTr-Conversion-Interpolation: trilinear
# LUTr-Conversion-Method: HALD-PNG LUT image decoded at 16-bit and sampled to 25x25x25 3D CUBE
# LUTr-Conversion-Tool: LUTr scripts/convert-all-to-cube.mjs 2.0.0
# LUTr-Conversion-Date: 2026-07-27
# LUTr-Note: Preserve this metadata and the upstream license notices when redistributing.
TITLE "vintage alt"
LUT_3D_SIZE 5
DOMAIN_MIN 0 0 0
DOMAIN_MAX 1 1 1
0.12156863 0 0.12156863
0.33431373 0.012745098 0.18823529
0.55490196 0.021568627 0.13333333
0.77254902 0.012745098 0.13431373
0.98823529 0.0039215686 0.11764706
0.14607843 0.24705882 0.14215686
0.33823529 0.23137255 0.15686275
0.56078431 0.24313725 0.15196078
0.78039216 0.25098039 0.14289216
0.97156863 0.25490196 0.15392157
0.16470588 0.49019608 0.14313725
0.3372549 0.49068627 0.1245098
0.56078431 0.50196078 0.14313725
0.77941176 0.49803922 0.14852941
0.97254902 0.49411765 0.15098039
0.12843137 0.74509804 0.12843137
0.34117647 0.7372549 0.14901961
0.5504902 0.74509804 0.15735294
0.76862745 0.74509804 0.16838235
0.98039216 0.74509804 0.16176471
0.12941176 0.98039216 0.16862745
0.34117647 0.97352941 0.14411765
0.54509804 0.9627451 0.18431373
0.76470588 0.96470588 0.16372549
0.97647059 0.98039216 0.18823529
0.13235294 0.0068627451 0.30686275
0.3497549 0.019607843 0.31078431
0.55686275 0.010294118 0.30735294
0.76862745 0.019362745 0.30294118
0.92941176 0.044117647 0.30294118
0.14117647 0.24705882 0.31470588
0.34117647 0.23866422 0.31470588
0.55147059 0.25098039 0.30686275
0.76470588 0.25808824 0.30294118
0.95980392 0.24313725 0.31078431
0.14558824 0.49019608 0.31862745
0.33431373 0.49019608 0.30147059
0.55196078 0.49803922 0.29901961
0.76776961 0.49595588 0.30686275
0.95294118 0.48235294 0.31470588
0.14583333 0.7372549 0.30686275
0.33805147 0.7411152 0.30294118
0.55686275 0.7372549 0.30294118
0.7754902 0.72941176 0.30294118
0.96568627 0.72941176 0.31078431
0.19215686 0.94607843 0.30686275
0.34215686 0.97377451 0.31078431
0.55441176 0.95245098 0.31078431
0.77622549 0.96887255 0.30294118
0.98627451 0.98529412 0.30686275
0.13921569 0.019607843 0.49607843
0.33970588 0.049019608 0.49607843
0.55098039 0.015686275 0.48823529
0.77156863 0.030392157 0.48823529
0.9627451 0.021568627 0.49215686
0.14019608 0.25098039 0.49460784
0.34215686 0.24313725 0.5
0.55098039 0.23921569 0.49215686
0.77156863 0.24705882 0.48823529
0.95490196 0.24313725 0.49215686
0.16176471 0.49803922 0.49215686
0.33823529 0.49338235 0.49019608
0.55588235 0.4877451 0.49068627
0.76764706 0.50196078 0.49215686
0.92745098 0.4872549 0.49215686
0.16421569 0.7372549 0.48823529
0.34215686 0.74068627 0.48823529
0.56078431 0.7372549 0.49215686
0.77561275 0.73921569 0.48823529
0.95539216 0.73921569 0.48431373
0.14705882 0.96078431 0.49607843
0.34901961 0.94509804 0.49607843
0.56078431 0.96862745 0.49607843
0.77990196 0.95735294 0.4877451
0.94901961 0.94117647 0.48039216
0.12745098 0.0088235294 0.67647059
0.34534314 0.048039216 0.66960784
0.55686275 0.028921569 0.66960784
0.77867647 0.021813725 0.67058824
0.95980392 0.031372549 0.67745098
0.14509804 0.25098039 0.68137255
0.34142157 0.24607843 0.68131127
0.55294118 0.24754902 0.67732843
0.7754902 0.24871324 0.67720588
0.95686275 0.23529412 0.67745098
0.15490196 0.4995098 0.67745098
0.34080882 0.48627451 0.68137255
0.55294118 0.49411765 0.68137255
0.77156863 0.50183824 0.6754902
0.97352941 0.49411765 0.67745098
0.1375 0.73627451 0.68137255
0.34044118 0.73333333 0.67352941
0.55686275 0.74509804 0.67928922
0.7747549 0.74901961 0.67352941
0.9627451 0.74509804 0.66568627
0.15882353 0.95588235 0.67647059
0.34191176 0.96176471 0.68039216
0.55294118 0.96862745 0.68137255
0.77254902 0.96862745 0.67352941
0.93039216 0.93333333 0.67058824
0.12941176 0.0078431373 0.83921569
0.34117647 0.017647059 0.85
0.55490196 0.015686275 0.83921569
0.76372549 0.019607843 0.85
0.96078431 0.0078431373 0.85490196
0.17156863 0.25 0.84705882
0.35490196 0.24313725 0.82426471
0.5495098 0.23921569 0.82352941
0.76470588 0.23921569 0.82647059
0.98137255 0.24705882 0.85980392
0.18431373 0.49019608 0.8372549
0.33823529 0.48627451 0.84362745
0.54117647 0.48627451 0.83039216
0.77254902 0.49803922 0.85245098
0.96862745 0.49411765 0.84117647
0.15098039 0.7372549 0.83627451
0.33406863 0.73431373 0.83308824
0.55539216 0.74117647 0.8622549
0.76764706 0.74509804 0.85416667
0.97254902 0.74803922 0.84411765
0.13333333 0.97647059 0.80392157
0.33823529 0.95294118 0.83529412
0.55490196 0.9745098 0.85294118
0.77156863 0.95490196 0.82941176
0.98823529 0.98823529 0.86666667
