site/assets/luts/sha256-f0a86dcf58188e0191d1c2e2230ca8133d9e8e459c4646f7a6c08884fe623830.cube
# LUTr-Schema-Version: 2
# LUTr-ID: sha256-f0a86dcf58188e0191d1c2e2230ca8133d9e8e459c4646f7a6c08884fe623830
# LUTr-Title: kodak bw 400 cn
# LUTr-Collection: Natron HaldCLUT
# LUTr-Collection-ID: natron-haldclut-presets
# LUTr-Source: https://github.com/NatronGitHub/clut
# LUTr-Retrieved: 2026-07-27
# LUTr-Source-File: submissions/natron-haldclut-presets/bw/kodak_bw_400_cn.png
# LUTr-Source-Format: HALD-PNG
# LUTr-Source-SHA256: f0a86dcf58188e0191d1c2e2230ca8133d9e8e459c4646f7a6c08884fe623830
# LUTr-License: CC-BY-SA-4.0
# LUTr-License-URL: https://github.com/NatronGitHub/clut#license
# LUTr-License-Basis: repo-license-file
# LUTr-Transform-Class: film-emulation
# LUTr-Tags: creative, film, film-emulation, hald-clut, natron, png, black-and-white, cube
# LUTr-Input-Color-Space: srgb
# LUTr-Input-Gamut: rec709
# LUTr-Input-Transfer: srgb
# LUTr-Output-Color-Space: srgb
# LUTr-Output-Gamut: rec709
# LUTr-Output-Transfer: srgb
# LUTr-Color-Space-Confidence: assumed-display-referred
# LUTr-Domain-Normalized: true
# LUTr-Shaper: none
# LUTr-Original-Grid: 64x64x64
# LUTr-Conversion-Grid: 25x25x25
# LUTr-Conversion-Interpolation: trilinear
# LUTr-Conversion-Method: HALD-PNG LUT image decoded at 16-bit and sampled to 25x25x25 3D CUBE
# LUTr-Conversion-Tool: LUTr scripts/convert-all-to-cube.mjs 2.0.0
# LUTr-Conversion-Date: 2026-07-27
# LUTr-Note: Preserve this metadata and the upstream license notices when redistributing.
TITLE "kodak bw 400 cn"
LUT_3D_SIZE 9
DOMAIN_MIN 0 0 0
DOMAIN_MAX 1 1 1
0.019607843 0.019607843 0.019607843
0.014705882 0.014705882 0.014705882
0.071568627 0.071568627 0.071568627
0.060294118 0.060294118 0.060294118
0.11764706 0.11764706 0.11764706
0.17941176 0.17941176 0.17941176
0.23333333 0.23333333 0.23333333
0.28333333 0.28333333 0.28333333
0.33333333 0.33333333 0.33333333
0.096568627 0.096568627 0.096568627
0.10392157 0.10392157 0.10392157
0.12696078 0.12696078 0.12696078
0.13609069 0.13609069 0.13609069
0.1752451 0.1752451 0.1752451
0.22420343 0.22420343 0.22420343
0.27463235 0.27463235 0.27463235
0.3372549 0.3372549 0.3372549
0.40294118 0.40294118 0.40294118
0.18235294 0.18235294 0.18235294
0.18615196 0.18615196 0.18615196
0.2002451 0.2002451 0.2002451
0.21335784 0.21335784 0.21335784
0.24705882 0.24705882 0.24705882
0.27794118 0.27794118 0.27794118
0.32254902 0.32254902 0.32254902
0.38468137 0.38468137 0.38468137
0.44509804 0.44509804 0.44509804
0.27009804 0.27009804 0.27009804
0.27401961 0.27401961 0.27401961
0.28186275 0.28186275 0.28186275
0.29754902 0.29754902 0.29754902
0.31911765 0.31911765 0.31911765
0.34754902 0.34754902 0.34754902
0.38125 0.38125 0.38125
0.4372549 0.4372549 0.4372549
0.49656863 0.49656863 0.49656863
0.36862745 0.36862745 0.36862745
0.36666667 0.36666667 0.36666667
0.3745098 0.3745098 0.3745098
0.39534314 0.39534314 0.39534314
0.41176471 0.41176471 0.41176471
0.43480392 0.43480392 0.43480392
0.46568627 0.46568627 0.46568627
0.50294118 0.50294118 0.50294118
0.54901961 0.54901961 0.54901961
0.48431373 0.48431373 0.48431373
0.48039216 0.48039216 0.48039216
0.4872549 0.4872549 0.4872549
0.50153186 0.50153186 0.50153186
0.51495098 0.51495098 0.51495098
0.52892157 0.52892157 0.52892157
0.55980392 0.55980392 0.55980392
0.58890931 0.58890931 0.58890931
0.60833333 0.60833333 0.60833333
0.60392157 0.60392157 0.60392157
0.60477941 0.60477941 0.60477941
0.61176471 0.61176471 0.61176471
0.62205882 0.62205882 0.62205882
0.63088235 0.63088235 0.63088235
0.63921569 0.63921569 0.63921569
0.66666667 0.66666667 0.66666667
0.69705882 0.69705882 0.69705882
0.70490196 0.70490196 0.70490196
0.72745098 0.72745098 0.72745098
0.72745098 0.72745098 0.72745098
0.73529412 0.73529412 0.73529412
0.73921569 0.73921569 0.73921569
0.74485294 0.74485294 0.74485294
0.75226716 0.75226716 0.75226716
0.77107843 0.77107843 0.77107843
0.78578431 0.78578431 0.78578431
0.79754902 0.79754902 0.79754902
0.82745098 0.82745098 0.82745098
0.83480392 0.83480392 0.83480392
0.83921569 0.83921569 0.83921569
0.83137255 0.83137255 0.83137255
0.83529412 0.83529412 0.83529412
0.84705882 0.84705882 0.84705882
0.85882353 0.85882353 0.85882353
0.85931373 0.85931373 0.85931373
0.8745098 0.8745098 0.8745098
0.054411765 0.054411765 0.054411765
0.050980392 0.050980392 0.050980392
0.069117647 0.069117647 0.069117647
0.1 0.1 0.1
0.13872549 0.13872549 0.13872549
0.1754902 0.1754902 0.1754902
0.22977941 0.22977941 0.22977941
0.28241422 0.28241422 0.28241422
0.30294118 0.30294118 0.30294118
0.11617647 0.11617647 0.11617647
0.12052696 0.12052696 0.12052696
0.13524816 0.13524816 0.13524816
0.1591299 0.1591299 0.1591299
0.19286152 0.19286152 0.19286152
0.23155637 0.23155637 0.23155637
0.27591912 0.27591912 0.27591912
0.33768382 0.33768382 0.33768382
0.40245098 0.40245098 0.40245098
0.19007353 0.19007353 0.19007353
0.19635417 0.19635417 0.19635417
0.20873162 0.20873162 0.20873162
0.23051471 0.23051471 0.23051471
0.25882353 0.25882353 0.25882353
0.29313725 0.29313725 0.29313725
0.33324142 0.33324142 0.33324142
0.39203431 0.39203431 0.39203431
0.44987745 0.44987745 0.44987745
0.28137255 0.28137255 0.28137255
0.28186275 0.28186275 0.28186275
0.28674939 0.28674939 0.28674939
0.30392157 0.30392157 0.30392157
0.32824755 0.32824755 0.32824755
0.3591299 0.3591299 0.3591299
0.39370404 0.39370404 0.39370404
0.44509804 0.44509804 0.44509804
0.50294118 0.50294118 0.50294118
0.38014706 0.38014706 0.38014706
0.38014706 0.38014706 0.38014706
0.38553922 0.38553922 0.38553922
0.40294118 0.40294118 0.40294118
0.41544118 0.41544118 0.41544118
0.43979779 0.43979779 0.43979779
0.46942402 0.46942402 0.46942402
0.5098652 0.5098652 0.5098652
0.55661765 0.55661765 0.55661765
0.49197304 0.49197304 0.49197304
0.49213388 0.49213388 0.49213388
0.49987745 0.49987745 0.49987745
0.51158088 0.51158088 0.51158088
0.51951593 0.51951593 0.51951593
0.53411458 0.53411458 0.53411458
0.56426164 0.56426164 0.56426164
0.59648437 0.59648437 0.59648437
0.62009804 0.62009804 0.62009804
0.61176471 0.61176471 0.61176471
0.61476716 0.61476716 0.61476716
0.62218137 0.62218137 0.62218137
0.63137255 0.63137255 0.63137255
0.63517157 0.63517157 0.63517157
0.64064032 0.64064032 0.64064032
0.67221201 0.67221201 0.67221201
0.70140931 0.70140931 0.70140931
0.71617647 0.71617647 0.71617647
0.73137255 0.73137255 0.73137255
0.73517923 0.73517923 0.73517923
0.74178922 0.74178922 0.74178922
0.74699755 0.74699755 0.74699755
0.75070466 0.75070466 0.75070466
0.75490196 0.75490196 0.75490196
0.77542892 0.77542892 0.77542892
0.79319853 0.79319853 0.79319853
0.80490196 0.80490196 0.80490196
0.83137255 0.83137255 0.83137255
0.84264706 0.84264706 0.84264706
0.8432598 0.8432598 0.8432598
0.83529412 0.83529412 0.83529412
0.83897059 0.83897059 0.83897059
0.85245098 0.85245098 0.85245098
0.86654412 0.86654412 0.86654412
0.86715686 0.86715686 0.86715686
0.88578431 0.88578431 0.88578431
0.078431373 0.078431373 0.078431373
0.078431373 0.078431373 0.078431373
0.1 0.1 0.1
0.12696078 0.12696078 0.12696078
0.16813725 0.16813725 0.16813725
0.19656863 0.19656863 0.19656863
0.24803922 0.24803922 0.24803922
0.31372549 0.31372549 0.31372549
0.37352941 0.37352941 0.37352941
0.13921569 0.13921569 0.13921569
0.1430913 0.1430913 0.1430913
0.15870098 0.15870098 0.15870098
0.18457414 0.18457414 0.18457414
0.21960784 0.21960784 0.21960784
0.25081189 0.25081189 0.25081189
0.29411765 0.29411765 0.29411765
0.35588235 0.35588235 0.35588235
0.41372549 0.41372549 0.41372549
0.2127451 0.2127451 0.2127451
0.21657475 0.21657475 0.21657475
0.2276348 0.2276348 0.2276348
0.2513174 0.2513174 0.2513174
0.27990196 0.27990196 0.27990196
0.31433824 0.31433824 0.31433824
0.35490196 0.35490196 0.35490196
0.40367647 0.40367647 0.40367647
0.46176471 0.46176471 0.46176471
0.29754902 0.29754902 0.29754902
0.29656863 0.29656863 0.29656863
0.30122549 0.30122549 0.30122549
0.32140012 0.32140012 0.32140012
0.34969363 0.34969363 0.34969363
0.3807598 0.3807598 0.3807598
0.41666667 0.41666667 0.41666667
0.46078431 0.46078431 0.46078431
0.50784314 0.50784314 0.50784314
0.39754902 0.39754902 0.39754902
0.39754902 0.39754902 0.39754902
0.40294118 0.40294118 0.40294118
0.41335784 0.41335784 0.41335784
0.43186275 0.43186275 0.43186275
0.45735294 0.45735294 0.45735294
0.48517157 0.48517157 0.48517157
0.52530637 0.52530637 0.52530637
0.56568627 0.56568627 0.56568627
0.50784314 0.50784314 0.50784314
0.51078431 0.51078431 0.51078431
0.51908701 0.51908701 0.51908701
0.52745098 0.52745098 0.52745098
0.53406863 0.53406863 0.53406863
0.54644608 0.54644608 0.54644608
0.57775735 0.57775735 0.57775735
0.61617647 0.61617647 0.61617647
0.6504902 0.6504902 0.6504902
0.62328431 0.62328431 0.62328431
0.62745098 0.62745098 0.62745098
0.63357843 0.63357843 0.63357843
0.64304534 0.64304534 0.64304534
0.64534314 0.64534314 0.64534314
0.65465686 0.65465686 0.65465686
0.68627451 0.68627451 0.68627451
0.71188725 0.71188725 0.71188725
0.73921569 0.73921569 0.73921569
0.73909314 0.73909314 0.73909314
0.74296875 0.74296875 0.74296875
0.74705882 0.74705882 0.74705882
0.75464154 0.75464154 0.75464154
0.75870098 0.75870098 0.75870098
0.767019 0.767019 0.767019
0.78651961 0.78651961 0.78651961
0.80183824 0.80183824 0.80183824
0.82107843 0.82107843 0.82107843
0.83921569 0.83921569 0.83921569
0.83835784 0.83835784 0.83835784
0.81838235 0.81838235 0.81838235
0.83676471 0.83676471 0.83676471
0.85245098 0.85245098 0.85245098
0.85490196 0.85490196 0.85490196
0.8627451 0.8627451 0.8627451
0.87879902 0.87879902 0.87879902
0.90686275 0.90686275 0.90686275
0.10686275 0.10686275 0.10686275
0.1026348 0.1026348 0.1026348
0.13039216 0.13039216 0.13039216
0.14368873 0.14368873 0.14368873
0.19068627 0.19068627 0.19068627
0.23229167 0.23229167 0.23229167
0.28970588 0.28970588 0.28970588
0.34068627 0.34068627 0.34068627
0.42352941 0.42352941 0.42352941
0.16832108 0.16832108 0.16832108
0.16987592 0.16987592 0.16987592
0.18739277 0.18739277 0.18739277
0.20784314 0.20784314 0.20784314
0.24264706 0.24264706 0.24264706
0.27903646 0.27903646 0.27903646
0.3254902 0.3254902 0.3254902
0.37910539 0.37910539 0.37910539
0.43872549 0.43872549 0.43872549
0.23970588 0.23970588 0.23970588
0.2435049 0.2435049 0.2435049
0.25621936 0.25621936 0.25621936
0.27745098 0.27745098 0.27745098
0.30196078 0.30196078 0.30196078
0.33921569 0.33921569 0.33921569
0.37892157 0.37892157 0.37892157
0.42103248 0.42103248 0.42103248
0.46237745 0.46237745 0.46237745
0.32352941 0.32352941 0.32352941
0.32733609 0.32733609 0.32733609
0.33039216 0.33039216 0.33039216
0.34705882 0.34705882 0.34705882
0.37447917 0.37447917 0.37447917
0.40398284 0.40398284 0.40398284
0.44362745 0.44362745 0.44362745
0.48369332 0.48369332 0.48369332
0.50294118 0.50294118 0.50294118
0.42083333 0.42083333 0.42083333
0.42279412 0.42279412 0.42279412
0.42653186 0.42653186 0.42653186
0.43823529 0.43823529 0.43823529
0.45637255 0.45637255 0.45637255
0.48066789 0.48066789 0.48066789
0.51464461 0.51464461 0.51464461
0.55122549 0.55122549 0.55122549
0.56446078 0.56446078 0.56446078
0.52598039 0.52598039 0.52598039
0.52990196 0.52990196 0.52990196
0.53751532 0.53751532 0.53751532
0.54616268 0.54616268 0.54616268
0.55251225 0.55251225 0.55251225
0.56519608 0.56519608 0.56519608
0.60392157 0.60392157 0.60392157
0.64264706 0.64264706 0.64264706
0.675 0.675 0.675
0.63713235 0.63713235 0.63713235
0.64082414 0.64082414 0.64082414
0.64834559 0.64834559 0.64834559
0.65804228 0.65804228 0.65804228
0.66458333 0.66458333 0.66458333
0.67320772 0.67320772 0.67320772
0.70076593 0.70076593 0.70076593
0.72745098 0.72745098 0.72745098
0.75098039 0.75098039 0.75098039
0.74920343 0.74920343 0.74920343
0.75098039 0.75098039 0.75098039
0.7542739 0.7542739 0.7542739
0.76378676 0.76378676 0.76378676
0.77273284 0.77273284 0.77273284
0.78278186 0.78278186 0.78278186
0.79348958 0.79348958 0.79348958
0.80582108 0.80582108 0.80582108
0.82058824 0.82058824 0.82058824
0.85490196 0.85490196 0.85490196
0.85686275 0.85686275 0.85686275
0.82487745 0.82487745 0.82487745
0.84895833 0.84895833 0.84895833
0.86862745 0.86862745 0.86862745
0.8627451 0.8627451 0.8627451
0.86556373 0.86556373 0.86556373
0.86029412 0.86029412 0.86029412
0.88235294 0.88235294 0.88235294
0.14705882 0.14705882 0.14705882
0.15245098 0.15245098 0.15245098
0.18627451 0.18627451 0.18627451
0.18872549 0.18872549 0.18872549
0.21176471 0.21176471 0.21176471
0.25465686 0.25465686 0.25465686
0.31323529 0.31323529 0.31323529
0.35612745 0.35612745 0.35612745
0.4372549 0.4372549 0.4372549
0.20490196 0.20490196 0.20490196
0.20661765 0.20661765 0.20661765
0.22843137 0.22843137 0.22843137
0.24534314 0.24534314 0.24534314
0.26960784 0.26960784 0.26960784
0.30441176 0.30441176 0.30441176
0.35502451 0.35502451 0.35502451
0.40196078 0.40196078 0.40196078
0.46029412 0.46029412 0.46029412
0.2745098 0.2745098 0.2745098
0.27726716 0.27726716 0.27726716
0.29129902 0.29129902 0.29129902
0.31102941 0.31102941 0.31102941
0.33529412 0.33529412 0.33529412
0.36856618 0.36856618 0.36856618
0.4127451 0.4127451 0.4127451
0.45588235 0.45588235 0.45588235
0.48529412 0.48529412 0.48529412
0.35441176 0.35441176 0.35441176
0.35833333 0.35833333 0.35833333
0.3622549 0.3622549 0.3622549
0.38039216 0.38039216 0.38039216
0.40343137 0.40343137 0.40343137
0.43624387 0.43624387 0.43624387
0.47843137 0.47843137 0.47843137
0.52107843 0.52107843 0.52107843
0.53627451 0.53627451 0.53627451
0.45098039 0.45098039 0.45098039
0.45098039 0.45098039 0.45098039
0.45171569 0.45171569 0.45171569
0.46458333 0.46458333 0.46458333
0.48431373 0.48431373 0.48431373
0.51127451 0.51127451 0.51127451
0.54852941 0.54852941 0.54852941
0.58676471 0.58676471 0.58676471
0.61078431 0.61078431 0.61078431
0.55294118 0.55294118 0.55294118
0.55220588 0.55220588 0.55220588
0.55594363 0.55594363 0.55594363
0.56547181 0.56547181 0.56547181
0.57536765 0.57536765 0.57536765
0.59215686 0.59215686 0.59215686
0.62640931 0.62640931 0.62640931
0.66504289 0.66504289 0.66504289
0.70098039 0.70098039 0.70098039
0.65686275 0.65686275 0.65686275
0.65686275 0.65686275 0.65686275
0.66372549 0.66372549 0.66372549
0.67383578 0.67383578 0.67383578
0.68455882 0.68455882 0.68455882
0.69025735 0.69025735 0.69025735
0.71372549 0.71372549 0.71372549
0.74387255 0.74387255 0.74387255
0.75882353 0.75882353 0.75882353
0.76838235 0.76838235 0.76838235
0.76642157 0.76642157 0.76642157
0.77205882 0.77205882 0.77205882
0.77533701 0.77533701 0.77533701
0.78492647 0.78492647 0.78492647
0.78970588 0.78970588 0.78970588
0.80588235 0.80588235 0.80588235
0.81865809 0.81865809 0.81865809
0.82426471 0.82426471 0.82426471
0.85686275 0.85686275 0.85686275
0.85073529 0.85073529 0.85073529
0.86715686 0.86715686 0.86715686
0.86593137 0.86593137 0.86593137
0.87058824 0.87058824 0.87058824
0.87647059 0.87647059 0.87647059
0.87352941 0.87352941 0.87352941
0.86838235 0.86838235 0.86838235
0.87647059 0.87647059 0.87647059
0.17794118 0.17794118 0.17794118
0.18137255 0.18137255 0.18137255
0.21115196 0.21115196 0.21115196
0.22352941 0.22352941 0.22352941
0.25784314 0.25784314 0.25784314
0.28970588 0.28970588 0.28970588
0.36078431 0.36078431 0.36078431
0.39607843 0.39607843 0.39607843
0.46421569 0.46421569 0.46421569
0.23970588 0.23970588 0.23970588
0.24303002 0.24303002 0.24303002
0.26188725 0.26188725 0.26188725
0.28137255 0.28137255 0.28137255
0.30710784 0.30710784 0.30710784
0.33976716 0.33976716 0.33976716
0.38676471 0.38676471 0.38676471
0.43834252 0.43834252 0.43834252
0.49509804 0.49509804 0.49509804
0.30931373 0.30931373 0.30931373
0.31420037 0.31420037 0.31420037
0.32830882 0.32830882 0.32830882
0.34747243 0.34747243 0.34747243
0.37009804 0.37009804 0.37009804
0.40490196 0.40490196 0.40490196
0.44754902 0.44754902 0.44754902
0.49068627 0.49068627 0.49068627
0.53492647 0.53492647 0.53492647
0.38921569 0.38921569 0.38921569
0.38921569 0.38921569 0.38921569
0.3950674 0.3950674 0.3950674
0.41308977 0.41308977 0.41308977
0.43578431 0.43578431 0.43578431
0.47058824 0.47058824 0.47058824
0.50931373 0.50931373 0.50931373
0.55196078 0.55196078 0.55196078
0.58339461 0.58339461 0.58339461
0.48578431 0.48578431 0.48578431
0.48186275 0.48186275 0.48186275
0.48186275 0.48186275 0.48186275
0.49408701 0.49408701 0.49408701
0.51519608 0.51519608 0.51519608
0.54439338 0.54439338 0.54439338
0.58088235 0.58088235 0.58088235
0.61789216 0.61789216 0.61789216
0.65637255 0.65637255 0.65637255
0.58327206 0.58327206 0.58327206
0.58235294 0.58235294 0.58235294
0.5817402 0.5817402 0.5817402
0.5875383 0.5875383 0.5875383
0.6 0.6 0.6
0.62303922 0.62303922 0.62303922
0.65453431 0.65453431 0.65453431
0.69037224 0.69037224 0.69037224
0.71182598 0.71182598 0.71182598
0.6877451 0.6877451 0.6877451
0.68676471 0.68676471 0.68676471
0.68345588 0.68345588 0.68345588
0.68944547 0.68944547 0.68944547
0.69779412 0.69779412 0.69779412
0.71121324 0.71121324 0.71121324
0.73088235 0.73088235 0.73088235
0.75667892 0.75667892 0.75667892
0.7627451 0.7627451 0.7627451
0.78333333 0.78333333 0.78333333
0.78284314 0.78284314 0.78284314
0.7872549 0.7872549 0.7872549
0.79069393 0.79069393 0.79069393
0.79371936 0.79371936 0.79371936
0.80386029 0.80386029 0.80386029
0.8191636 0.8191636 0.8191636
0.83300398 0.83300398 0.83300398
0.84019608 0.84019608 0.84019608
0.85490196 0.85490196 0.85490196
0.85882353 0.85882353 0.85882353
0.86997549 0.86997549 0.86997549
0.87990196 0.87990196 0.87990196
0.87916667 0.87916667 0.87916667
0.89019608 0.89019608 0.89019608
0.88455882 0.88455882 0.88455882
0.90704657 0.90704657 0.90704657
0.8995098 0.8995098 0.8995098
0.23431373 0.23431373 0.23431373
0.22892157 0.22892157 0.22892157
0.24509804 0.24509804 0.24509804
0.26678922 0.26678922 0.26678922
0.30784314 0.30784314 0.30784314
0.35147059 0.35147059 0.35147059
0.40122549 0.40122549 0.40122549
0.44509804 0.44509804 0.44509804
0.50784314 0.50784314 0.50784314
0.2872549 0.2872549 0.2872549
0.28697917 0.28697917 0.28697917
0.30122549 0.30122549 0.30122549
0.3220435 0.3220435 0.3220435
0.35502451 0.35502451 0.35502451
0.38982843 0.38982843 0.38982843
0.42472426 0.42472426 0.42472426
0.47598039 0.47598039 0.47598039
0.52598039 0.52598039 0.52598039
0.35514706 0.35514706 0.35514706
0.35579044 0.35579044 0.35579044
0.36838235 0.36838235 0.36838235
0.38759191 0.38759191 0.38759191
0.41164216 0.41164216 0.41164216
0.44414828 0.44414828 0.44414828
0.48069853 0.48069853 0.48069853
0.52242647 0.52242647 0.52242647
0.57156863 0.57156863 0.57156863
0.42794118 0.42794118 0.42794118
0.4277114 0.4277114 0.4277114
0.43379289 0.43379289 0.43379289
0.44901961 0.44901961 0.44901961
0.47156863 0.47156863 0.47156863
0.50539216 0.50539216 0.50539216
0.53973652 0.53973652 0.53973652
0.57941176 0.57941176 0.57941176
0.62941176 0.62941176 0.62941176
0.52058824 0.52058824 0.52058824
0.51666667 0.51666667 0.51666667
0.51740196 0.51740196 0.51740196
0.53106618 0.53106618 0.53106618
0.54926471 0.54926471 0.54926471
0.57941176 0.57941176 0.57941176
0.61176471 0.61176471 0.61176471
0.64417892 0.64417892 0.64417892
0.68529412 0.68529412 0.68529412
0.61752451 0.61752451 0.61752451
0.6138174 0.6138174 0.6138174
0.61323529 0.61323529 0.61323529
0.61674326 0.61674326 0.61674326
0.63425245 0.63425245 0.63425245
0.6567402 0.6567402 0.6567402
0.68753064 0.68753064 0.68753064
0.71421569 0.71421569 0.71421569
0.73223039 0.73223039 0.73223039
0.71764706 0.71764706 0.71764706
0.71372549 0.71372549 0.71372549
0.70980392 0.70980392 0.70980392
0.70980392 0.70980392 0.70980392
0.71960784 0.71960784 0.71960784
0.73835784 0.73835784 0.73835784
0.76170343 0.76170343 0.76170343
0.7754902 0.7754902 0.7754902
0.77941176 0.77941176 0.77941176
0.80625 0.80625 0.80625
0.80635723 0.80635723 0.80635723
0.81029412 0.81029412 0.81029412
0.80968137 0.80968137 0.80968137
0.80974265 0.80974265 0.80974265
0.82575061 0.82575061 0.82575061
0.83278186 0.83278186 0.83278186
0.84831495 0.84831495 0.84831495
0.85343137 0.85343137 0.85343137
0.87156863 0.87156863 0.87156863
0.8754902 0.8754902 0.8754902
0.8870098 0.8870098 0.8870098
0.88970588 0.88970588 0.88970588
0.89068627 0.89068627 0.89068627
0.9120098 0.9120098 0.9120098
0.90588235 0.90588235 0.90588235
0.91764706 0.91764706 0.91764706
0.91372549 0.91372549 0.91372549
0.30735294 0.30735294 0.30735294
0.29509804 0.29509804 0.29509804
0.31507353 0.31507353 0.31507353
0.32647059 0.32647059 0.32647059
0.35539216 0.35539216 0.35539216
0.39411765 0.39411765 0.39411765
0.425 0.425 0.425
0.47205882 0.47205882 0.47205882
0.54607843 0.54607843 0.54607843
0.35294118 0.35294118 0.35294118
0.34509804 0.34509804 0.34509804
0.35723039 0.35723039 0.35723039
0.37612592 0.37612592 0.37612592
0.40196078 0.40196078 0.40196078
0.43627451 0.43627451 0.43627451
0.46882659 0.46882659 0.46882659
0.5107307 0.5107307 0.5107307
0.56421569 0.56421569 0.56421569
0.41078431 0.41078431 0.41078431
0.40686275 0.40686275 0.40686275
0.42156863 0.42156863 0.42156863
0.43877145 0.43877145 0.43877145
0.45545343 0.45545343 0.45545343
0.48762255 0.48762255 0.48762255
0.52156863 0.52156863 0.52156863
0.55605086 0.55605086 0.55605086
0.60392157 0.60392157 0.60392157
0.48020833 0.48020833 0.48020833
0.47630974 0.47630974 0.47630974
0.48333333 0.48333333 0.48333333
0.49993107 0.49993107 0.49993107
0.51289828 0.51289828 0.51289828
0.54529718 0.54529718 0.54529718
0.58026961 0.58026961 0.58026961
0.61464461 0.61464461 0.61464461
0.65931373 0.65931373 0.65931373
0.55931373 0.55931373 0.55931373
0.55588235 0.55588235 0.55588235
0.55968137 0.55968137 0.55968137
0.57931985 0.57931985 0.57931985
0.59705882 0.59705882 0.59705882
0.62377451 0.62377451 0.62377451
0.65465686 0.65465686 0.65465686
0.68161765 0.68161765 0.68161765
0.71421569 0.71421569 0.71421569
0.65765931 0.65765931 0.65765931
0.6521829 0.6521829 0.6521829
0.65067402 0.65067402 0.65067402
0.66354933 0.66354933 0.66354933
0.68177083 0.68177083 0.68177083
0.69676011 0.69676011 0.69676011
0.72598039 0.72598039 0.72598039
0.74901961 0.74901961 0.74901961
0.77077206 0.77077206 0.77077206
0.74889706 0.74889706 0.74889706
0.7446538 0.7446538 0.7446538
0.73875613 0.73875613 0.73875613
0.74705882 0.74705882 0.74705882
0.76378676 0.76378676 0.76378676
0.77611826 0.77611826 0.77611826
0.79068627 0.79068627 0.79068627
0.81029412 0.81029412 0.81029412
0.82254902 0.82254902 0.82254902
0.83241422 0.83241422 0.83241422
0.82941176 0.82941176 0.82941176
0.83164828 0.83164828 0.83164828
0.83235294 0.83235294 0.83235294
0.84411765 0.84411765 0.84411765
0.85196078 0.85196078 0.85196078
0.85212929 0.85212929 0.85212929
0.87168352 0.87168352 0.87168352
0.87990196 0.87990196 0.87990196
0.91029412 0.91029412 0.91029412
0.90202206 0.90202206 0.90202206
0.89803922 0.89803922 0.89803922
0.89803922 0.89803922 0.89803922
0.90196078 0.90196078 0.90196078
0.90637255 0.90637255 0.90637255
0.90808824 0.90808824 0.90808824
0.92990196 0.92990196 0.92990196
0.93333333 0.93333333 0.93333333
0.38039216 0.38039216 0.38039216
0.35980392 0.35980392 0.35980392
0.37745098 0.37745098 0.37745098
0.37254902 0.37254902 0.37254902
0.38627451 0.38627451 0.38627451
0.425 0.425 0.425
0.44803922 0.44803922 0.44803922
0.49166667 0.49166667 0.49166667
0.59215686 0.59215686 0.59215686
0.41911765 0.41911765 0.41911765
0.40251225 0.40251225 0.40251225
0.41776961 0.41776961 0.41776961
0.41862745 0.41862745 0.41862745
0.43627451 0.43627451 0.43627451
0.47254902 0.47254902 0.47254902
0.50588235 0.50588235 0.50588235
0.55300245 0.55300245 0.55300245
0.61127451 0.61127451 0.61127451
0.46960784 0.46960784 0.46960784
0.46078431 0.46078431 0.46078431
0.4754902 0.4754902 0.4754902
0.48431373 0.48431373 0.48431373
0.49264706 0.49264706 0.49264706
0.525 0.525 0.525
0.5629902 0.5629902 0.5629902
0.58566176 0.58566176 0.58566176
0.66372549 0.66372549 0.66372549
0.52794118 0.52794118 0.52794118
0.52647059 0.52647059 0.52647059
0.53431373 0.53431373 0.53431373
0.54761029 0.54761029 0.54761029
0.55906863 0.55906863 0.55906863
0.58621324 0.58621324 0.58621324
0.61862745 0.61862745 0.61862745
0.65165441 0.65165441 0.65165441
0.69656863 0.69656863 0.69656863
0.59607843 0.59607843 0.59607843
0.59803922 0.59803922 0.59803922
0.60539216 0.60539216 0.60539216
0.62794118 0.62794118 0.62794118
0.64901961 0.64901961 0.64901961
0.66102941 0.66102941 0.66102941
0.69705882 0.69705882 0.69705882
0.71421569 0.71421569 0.71421569
0.73137255 0.73137255 0.73137255
0.70784314 0.70784314 0.70784314
0.69460784 0.69460784 0.69460784
0.69705882 0.69705882 0.69705882
0.70974265 0.70974265 0.70974265
0.72328431 0.72328431 0.72328431
0.734375 0.734375 0.734375
0.75588235 0.75588235 0.75588235
0.77598039 0.77598039 0.77598039
0.79901961 0.79901961 0.79901961
0.7745098 0.7745098 0.7745098
0.7745098 0.7745098 0.7745098
0.7754902 0.7754902 0.7754902
0.78627451 0.78627451 0.78627451
0.79656863 0.79656863 0.79656863
0.80196078 0.80196078 0.80196078
0.81470588 0.81470588 0.81470588
0.83382353 0.83382353 0.83382353
0.85686275 0.85686275 0.85686275
0.84803922 0.84803922 0.84803922
0.84852941 0.84852941 0.84852941
0.85502451 0.85502451 0.85502451
0.86403186 0.86403186 0.86403186
0.86764706 0.86764706 0.86764706
0.8622549 0.8622549 0.8622549
0.87254902 0.87254902 0.87254902
0.89908088 0.89908088 0.89908088
0.91029412 0.91029412 0.91029412
0.92156863 0.92156863 0.92156863
0.91372549 0.91372549 0.91372549
0.91764706 0.91764706 0.91764706
0.93578431 0.93578431 0.93578431
0.93137255 0.93137255 0.93137255
0.91372549 0.91372549 0.91372549
0.92647059 0.92647059 0.92647059
0.96127451 0.96127451 0.96127451
0.96470588 0.96470588 0.96470588
