site/assets/luts/sha256-3a78ef2f6880a58654df44701d61623229ad38ac1e34bf71e7e0fe00334981d1.cube
# LUTr-Schema-Version: 2
# LUTr-ID: sha256-3a78ef2f6880a58654df44701d61623229ad38ac1e34bf71e7e0fe00334981d1
# LUTr-Title: vintage alt
# LUTr-Collection: Natron HaldCLUT
# LUTr-Collection-ID: natron-haldclut-presets
# LUTr-Source: https://github.com/NatronGitHub/clut
# LUTr-Retrieved: 2026-07-27
# LUTr-Source-File: submissions/natron-haldclut-presets/various/vintage_alt.png
# LUTr-Source-Format: HALD-PNG
# LUTr-Source-SHA256: 3a78ef2f6880a58654df44701d61623229ad38ac1e34bf71e7e0fe00334981d1
# LUTr-License: CC-BY-SA-4.0
# LUTr-License-URL: https://github.com/NatronGitHub/clut#license
# LUTr-License-Basis: repo-license-file
# LUTr-Transform-Class: film-emulation
# LUTr-Tags: creative, film, film-emulation, hald-clut, natron, png, vintage, cube
# LUTr-Input-Color-Space: srgb
# LUTr-Input-Gamut: rec709
# LUTr-Input-Transfer: srgb
# LUTr-Output-Color-Space: srgb
# LUTr-Output-Gamut: rec709
# LUTr-Output-Transfer: srgb
# LUTr-Color-Space-Confidence: assumed-display-referred
# LUTr-Domain-Normalized: true
# LUTr-Shaper: none
# LUTr-Original-Grid: 64x64x64
# LUTr-Conversion-Grid: 25x25x25
# LUTr-Conversion-Interpolation: trilinear
# LUTr-Conversion-Method: HALD-PNG LUT image decoded at 16-bit and sampled to 25x25x25 3D CUBE
# LUTr-Conversion-Tool: LUTr scripts/convert-all-to-cube.mjs 2.0.0
# LUTr-Conversion-Date: 2026-07-27
# LUTr-Note: Preserve this metadata and the upstream license notices when redistributing.
TITLE "vintage alt"
LUT_3D_SIZE 25
DOMAIN_MIN 0 0 0
DOMAIN_MAX 1 1 1
0.12156863 0 0.12156863
0.15882353 0.024509804 0.14215686
0.19509804 0.041176471 0.15784314
0.22990196 0.050980392 0.16862745
0.2627451 0.041176471 0.1745098
0.2995098 0.026470588 0.18431373
0.33431373 0.012745098 0.18823529
0.37303922 0.011764706 0.17352941
0.41176471 0.011764706 0.15294118
0.44901961 0.0078431373 0.13235294
0.48235294 0.018627451 0.13137255
0.51960784 0.053431373 0.15196078
0.55490196 0.021568627 0.13333333
0.59362745 0.017156863 0.12598039
0.62843137 0.048039216 0.13627451
0.66323529 0.059803922 0.15
0.70196078 0.035294118 0.13333333
0.73676471 0.0044117647 0.12303922
0.77254902 0.012745098 0.13431373
0.80980392 0.023039216 0.14460784
0.84509804 0.021568627 0.15490196
0.87990196 0.011764706 0.16470588
0.91372549 0.011764706 0.16176471
0.9495098 0.011764706 0.14068627
0.98823529 0.0039215686 0.11764706
0.14215686 0.045098039 0.13970588
0.1627451 0.049019608 0.13517157
0.19509804 0.065318627 0.14509804
0.22959559 0.071568627 0.15196078
0.2627451 0.057843137 0.16176471
0.2995098 0.046384804 0.17058824
0.33431373 0.039705882 0.18088235
0.37303922 0.041176471 0.16960784
0.41176471 0.041176471 0.14901961
0.44656863 0.044546569 0.13480392
0.48235294 0.05 0.13039216
0.51960784 0.064338235 0.13952206
0.55686275 0.047058824 0.13063725
0.59362745 0.045772059 0.1276348
0.62843137 0.068627451 0.12879902
0.66323529 0.084313725 0.13480392
0.69803922 0.055882353 0.12941176
0.73676471 0.045098039 0.13186275
0.7754902 0.045465686 0.13615196
0.81029412 0.052634804 0.14460784
0.84509804 0.053676471 0.15490196
0.87990196 0.045098039 0.16470588
0.91372549 0.045098039 0.16176471
0.95006127 0.045098039 0.14552696
0.98039216 0.045098039 0.14215686
0.16176471 0.08627451 0.15490196
0.17659314 0.08627451 0.14117647
0.19583333 0.090196078 0.12916667
0.22941176 0.089583333 0.13566176
0.26323529 0.085784314 0.14803922
0.2995098 0.082230392 0.16164216
0.33431373 0.077696078 0.1745098
0.37242647 0.078431373 0.16507353
0.40784314 0.082352941 0.14901961
0.44509804 0.084191176 0.13590686
0.48235294 0.087009804 0.1245098
0.51960784 0.089215686 0.12928922
0.55686275 0.087745098 0.13333333
0.59362745 0.08627451 0.12941176
0.62818627 0.091421569 0.1254902
0.66078431 0.10036765 0.1245098
0.69803922 0.090196078 0.13039216
0.73737745 0.090196078 0.14007353
0.7754902 0.08627451 0.14215686
0.81115196 0.090073529 0.14852941
0.84509804 0.091666667 0.15686275
0.87990196 0.08627451 0.16127451
0.91470588 0.08627451 0.16470588
0.9495098 0.08627451 0.16384804
0.97647059 0.085294118 0.16666667
0.16862745 0.12745098 0.16127451
0.18284314 0.12745098 0.14411765
0.19803922 0.12352941 0.12438725
0.22941176 0.12352941 0.12892157
0.26470588 0.12181373 0.14142157
0.3 0.11917892 0.15435049
0.3372549 0.11568627 0.17071078
0.37273284 0.11746324 0.1596201
0.40784314 0.11960784 0.14509804
0.44509804 0.12352941 0.13106618
0.48235294 0.12352941 0.12120098
0.51960784 0.12352941 0.12849265
0.55686275 0.12352941 0.13308824
0.59362745 0.12401961 0.13241422
0.62830882 0.12659314 0.12647059
0.66292892 0.12745098 0.12254902
0.70147059 0.13137255 0.13333333
0.73921569 0.13137255 0.14117647
0.77647059 0.13125 0.14852941
0.81372549 0.13088235 0.14901961
0.84705882 0.13137255 0.15686275
0.88039216 0.13137255 0.16127451
0.91727941 0.12745098 0.16470588
0.9495098 0.12745098 0.16881127
0.97647059 0.12352941 0.17254902
0.1627451 0.16470588 0.15686275
0.17622549 0.16470588 0.14019608
0.19901961 0.16470588 0.13137255
0.22990196 0.16127451 0.13308824
0.26666667 0.16078431 0.13921569
0.30171569 0.15686275 0.15171569
0.3372549 0.15294118 0.16519608
0.37303922 0.15563725 0.15539216
0.40784314 0.15882353 0.14117647
0.44509804 0.16078431 0.13210784
0.48235294 0.16470588 0.12794118
0.51960784 0.16470588 0.13480392
0.55784314 0.1627451 0.13921569
0.59411765 0.16470588 0.13897059
0.62990196 0.16764706 0.13382353
0.66789216 0.16936275 0.13137255
0.70392157 0.17254902 0.13333333
0.74068627 0.17254902 0.14044118
0.77647059 0.17254902 0.14754902
0.81372549 0.17254902 0.15294118
0.84901961 0.17254902 0.15686275
0.88382353 0.17034314 0.16102941
0.91764706 0.16862745 0.16470588
0.9495098 0.16862745 0.16666667
0.97254902 0.16862745 0.16666667
0.15637255 0.20588235 0.15245098
0.17089461 0.20588235 0.13872549
0.19901961 0.20453431 0.1372549
0.23333333 0.20196078 0.14074755
0.26862745 0.19803922 0.14338235
0.30343137 0.19411765 0.1495098
0.33823529 0.19117647 0.15980392
0.3745098 0.19411765 0.15147059
0.41176471 0.19754902 0.14117647
0.44656863 0.19803922 0.13511029
0.48235294 0.20196078 0.13468137
0.52009804 0.20539216 0.14074755
0.55882353 0.20196078 0.14534314
0.59754902 0.20245098 0.14466912
0.63272059 0.20882353 0.14129902
0.67126225 0.20980392 0.1377451
0.70980392 0.20980392 0.1372549
0.74460784 0.20980392 0.13970588
0.77953431 0.20980392 0.14595588
0.81421569 0.20980392 0.15202206
0.84901961 0.20980392 0.15465686
0.88382353 0.20980392 0.16029412
0.91470588 0.20980392 0.16078431
0.94558824 0.21011029 0.16078431
0.96862745 0.20980392 0.16029412
0.14607843 0.24705882 0.14215686
0.16519608 0.24705882 0.13762255
0.19607843 0.24313725 0.13823529
0.23333333 0.23933824 0.14375
0.26862745 0.2377451 0.14656863
0.30379902 0.23529412 0.1495098
0.33823529 0.23137255 0.15686275
0.3745098 0.23235294 0.14963235
0.41176471 0.23529412 0.14117647
0.44840686 0.23811275 0.1372549
0.48529412 0.24093137 0.13823529
0.52009804 0.24313725 0.14497549
0.56078431 0.24313725 0.15196078
0.59791667 0.24620098 0.15159314
0.63529412 0.25 0.14583333
0.67254902 0.25098039 0.14473039
0.70980392 0.25098039 0.14117647
0.74705882 0.25098039 0.14117647
0.78039216 0.25098039 0.14289216
0.81421569 0.25098039 0.14865196
0.84901961 0.25098039 0.15147059
0.88382353 0.25098039 0.15392157
0.91691176 0.25490196 0.15392157
0.94742647 0.25490196 0.15392157
0.97156863 0.25490196 0.15392157
0.13578431 0.28823529 0.13578431
0.15882353 0.28578431 0.13278186
0.19509804 0.28333333 0.13823529
0.22990196 0.28039216 0.14460784
0.26789216 0.27647059 0.14901961
0.30392157 0.27469363 0.15294118
0.33823529 0.27254902 0.15294118
0.37696078 0.27254902 0.14754902
0.41176471 0.27254902 0.14117647
0.44901961 0.27647059 0.14117647
0.48566176 0.28039216 0.1432598
0.52352941 0.28431373 0.15030637
0.56078431 0.28431373 0.15759804
0.59803922 0.28823529 0.15655637
0.63566176 0.29154412 0.15294118
0.675 0.29215686 0.1504902
0.71372549 0.29215686 0.14656863
0.74761029 0.29123775 0.14356618
0.78333333 0.28823529 0.14117647
0.81421569 0.29068627 0.14491422
0.84901961 0.29215686 0.14828431
0.88382353 0.29215686 0.14901961
0.91862745 0.29509804 0.14791667
0.95098039 0.29607843 0.1466299
0.97401961 0.29607843 0.14509804
0.12156863 0.33333333 0.12156863
0.15490196 0.32696078 0.12794118
0.19215686 0.3245098 0.13823529
0.22941176 0.32156863 0.14460784
0.26666667 0.31764706 0.14705882
0.30392157 0.31372549 0.14901961
0.33823529 0.31372549 0.14901961
0.37696078 0.31372549 0.14509804
0.41176471 0.31372549 0.14117647
0.44901961 0.31764706 0.14362745
0.48627451 0.32156863 0.14901961
0.52352941 0.3254902 0.15637255
0.56078431 0.32745098 0.16078431
0.59803922 0.32990196 0.16029412
0.63627451 0.33333333 0.15784314
0.675 0.33333333 0.15539216
0.70980392 0.33333333 0.15294118
0.74705882 0.32941176 0.14656863
0.78333333 0.32941176 0.14117647
0.81421569 0.32941176 0.14117647
0.84901961 0.32941176 0.14313725
0.88382353 0.33333333 0.14509804
0.91862745 0.33333333 0.14509804
0.95343137 0.33480392 0.1372549
0.98039216 0.33333333 0.1372549
0.12794118 0.37205882 0.12401961
0.15735294 0.37058824 0.12886029
0.1939951 0.36666667 0.13431373
0.22990196 0.3627451 0.1408701
0.26666667 0.36004902 0.14387255
0.30343137 0.35833333 0.14509804
0.33823529 0.35490196 0.1432598
0.37542892 0.35490196 0.14117647
0.41176471 0.35735294 0.14117647
0.44901961 0.35882353 0.14509804
0.48627451 0.3627451 0.15
0.52352941 0.36666667 0.15655637
0.56078431 0.37058824 0.16078431
0.59803922 0.3745098 0.16109069
0.63627451 0.3745098 0.16176471
0.675 0.3745098 0.15839461
0.70980392 0.3745098 0.15294118
0.74705882 0.37359069 0.14901961
0.7814951 0.37058824 0.14301471
0.81764706 0.37058824 0.1372549
0.8502451 0.37058824 0.1372549
0.88382353 0.37077206 0.13872549
0.91862745 0.37389706 0.13762255
0.95490196 0.3745098 0.13241422
0.98676471 0.37205882 0.12696078
0.14313725 0.41176471 0.13333333
0.16911765 0.40894608 0.13333333
0.2 0.40784314 0.14215686
0.23345588 0.40392157 0.14313725
0.26666667 0.40392157 0.13872549
0.30343137 0.40085784 0.14019608
0.33823529 0.4 0.1379902
0.3745098 0.4 0.13664216
0.41176471 0.40098039 0.14019608
0.44901961 0.40392157 0.14411765
0.48602941 0.40784314 0.14583333
0.52352941 0.41139706 0.15159314
0.56078431 0.41568627 0.15588235
0.59803922 0.41666667 0.15723039
0.63921569 0.41960784 0.15686275
0.67536765 0.41666667 0.15477941
0.71078431 0.41568627 0.15196078
0.74705882 0.41568627 0.14656863
0.78039216 0.41495098 0.14338235
0.81764706 0.41176471 0.1372549
0.85294118 0.41176471 0.13186275
0.88382353 0.41176471 0.13468137
0.91838235 0.41176471 0.1372549
0.95490196 0.41176471 0.13284314
0.9872549 0.41176471 0.12745098
0.15637255 0.4495098 0.14068627
0.17941176 0.44901961 0.1372549
0.21029412 0.44901961 0.13737745
0.23817402 0.44552696 0.13866422
0.26862745 0.44852941 0.13529412
0.30343137 0.44509804 0.12990196
0.33823529 0.44460784 0.12990196
0.3745098 0.44479167 0.13333333
0.41176471 0.44509804 0.1372549
0.44901961 0.44883578 0.13988971
0.48529412 0.45 0.14129902
0.52352941 0.45594363 0.14552696
0.56078431 0.45857843 0.14926471
0.60104167 0.46078431 0.1495098
0.63921569 0.46078431 0.15294118
0.67647059 0.46078431 0.14932598
0.71372549 0.46078431 0.14901961
0.74705882 0.45686275 0.14509804
0.78039216 0.45686275 0.14375
0.81464461 0.45294118 0.14074755
0.84901961 0.45098039 0.14068627
0.88382353 0.44901961 0.14460784
0.91764706 0.45208333 0.14460784
0.95343137 0.45294118 0.14442402
0.97696078 0.45294118 0.14068627
0.16470588 0.49019608 0.14313725
0.18970588 0.49019608 0.14313725
0.22058824 0.48921569 0.14117647
0.24779412 0.48627451 0.1372549
0.2754902 0.49019608 0.13137255
0.30343137 0.49215686 0.12303922
0.3372549 0.49068627 0.1245098
0.3745098 0.49019608 0.12941176
0.41176471 0.49019608 0.13333333
0.44656863 0.49142157 0.13529412
0.48235294 0.49460784 0.13578431
0.52009804 0.49803922 0.13921569
0.56078431 0.50196078 0.14313725
0.59803922 0.50196078 0.14509804
0.63921569 0.50196078 0.14705882
0.67573529 0.50196078 0.14901961
0.71176471 0.50196078 0.14901961
0.74705882 0.4995098 0.14901961
0.77941176 0.49803922 0.14852941
0.81421569 0.49411765 0.14705882
0.84901961 0.49215686 0.15
0.88039216 0.49019608 0.15122549
0.91470588 0.49019608 0.15490196
0.9495098 0.49411765 0.15343137
0.97254902 0.49411765 0.15098039
0.16862745 0.53137255 0.14509804
0.19607843 0.53137255 0.14509804
0.22647059 0.52745098 0.14117647
0.25343137 0.52745098 0.1372549
0.27818627 0.52745098 0.13137255
0.30343137 0.53094363 0.12555147
0.33737745 0.53137255 0.12598039
0.37303922 0.53137255 0.12726716
0.40784314 0.53186275 0.12941176
0.44509804 0.53529412 0.12941176
0.48235294 0.53627451 0.13026961
0.51960784 0.53921569 0.13327206
0.56053922 0.54313725 0.1372549
0.59803922 0.54313725 0.14166667
0.63615196 0.54313725 0.14546569
0.67469363 0.54313725 0.14920343
0.70980392 0.54313725 0.15294118
0.74460784 0.54068627 0.15324755
0.77941176 0.53921569 0.15343137
0.81372549 0.53529412 0.15643382
0.84705882 0.53529412 0.15735294
0.88382353 0.53137255 0.16084559
0.91507353 0.53137255 0.16127451
0.9495098 0.53265931 0.16127451
0.96862745 0.53529412 0.16127451
0.16862745 0.57254902 0.14509804
0.19558824 0.57009804 0.14509804
0.22254902 0.56862745 0.14117647
0.24705882 0.56862745 0.1372549
0.27303922 0.56862745 0.13284314
0.30343137 0.56862745 0.13235294
0.33823529 0.57181373 0.13235294
0.37303922 0.57254902 0.13235294
0.40784314 0.57647059 0.12941176
0.44509804 0.57647059 0.1254902
0.48235294 0.57745098 0.1254902
0.51960784 0.58039216 0.12904412
0.55735294 0.58431373 0.13529412
0.59767157 0.58431373 0.14166667
0.63529412 0.58431373 0.14803922
0.67144608 0.58431373 0.15294118
0.70686275 0.58431373 0.15686275
0.7435049 0.58186275 0.15870098
0.77720588 0.58039216 0.16004902
0.81372549 0.57647059 0.16335784
0.84705882 0.57647059 0.16421569
0.88382353 0.57512255 0.16776961
0.91838235 0.57254902 0.17083333
0.9495098 0.57254902 0.17046569
0.96862745 0.57647059 0.16764706
0.16323529 0.61372549 0.14509804
0.1877451 0.61372549 0.14209559
0.21323529 0.60980392 0.13909314
0.24019608 0.60637255 0.13382353
0.27058824 0.60588235 0.13480392
0.30392157 0.60637255 0.13743873
0.33933824 0.60980392 0.13762255
0.3745098 0.61372549 0.13633578
0.41176471 0.61764706 0.13333333
0.44564951 0.61764706 0.12696078
0.48198529 0.61764706 0.12009804
0.51832108 0.62156863 0.12910539
0.55612745 0.6254902 0.1379902
0.59393382 0.6254902 0.14528186
0.63137255 0.6254902 0.15196078
0.66862745 0.6254902 0.15686275
0.70588235 0.6254902 0.16078431
0.74068627 0.62156863 0.16378676
0.77610294 0.62156863 0.16507353
0.81029412 0.61813725 0.16832108
0.84705882 0.61764706 0.17132353
0.88382353 0.61764706 0.17273284
0.91862745 0.61764706 0.17585784
0.95251225 0.61764706 0.17647059
0.97401961 0.61764706 0.17401961
0.15686275 0.65882353 0.14117647
0.17745098 0.65490196 0.1372549
0.20294118 0.65098039 0.1372549
0.23382353 0.65098039 0.1372549
0.27058824 0.64705882 0.14117647
0.30392157 0.65098039 0.14117647
0.34117647 0.65098039 0.14117647
0.37696078 0.65490196 0.14117647
0.41176471 0.65882353 0.1372549
0.44509804 0.65882353 0.13333333
0.48137255 0.6627451 0.13333333
0.51568627 0.6627451 0.13676471
0.55294118 0.66470588 0.14313725
0.59019608 0.66666667 0.14901961
0.62745098 0.66666667 0.15588235
0.66470588 0.66666667 0.16078431
0.70196078 0.66666667 0.16470588
0.73921569 0.6627451 0.16862745
0.7754902 0.6627451 0.16960784
0.81029412 0.6627451 0.17254902
0.84705882 0.65882353 0.17647059
0.88382353 0.65882353 0.17647059
0.91862745 0.65882353 0.18039216
0.95343137 0.65882353 0.18039216
0.98039216 0.65882353 0.18039216
0.14264706 0.7 0.13480392
0.16568627 0.69754902 0.13333333
0.19718137 0.69571078 0.13431373
0.23333333 0.69215686 0.13939951
0.26862745 0.69215686 0.14313725
0.30392157 0.69215686 0.14509804
0.34117647 0.69509804 0.14509804
0.37696078 0.69754902 0.14454657
0.41176471 0.7 0.14117647
0.44509804 0.7 0.14117647
0.47843137 0.70392157 0.14362745
0.51568627 0.70392157 0.14491422
0.55098039 0.70392157 0.14828431
0.58756127 0.70784314 0.15294118
0.6245098 0.70784314 0.15686275
0.66170343 0.70784314 0.16170343
0.69803922 0.70392157 0.16470588
0.73584559 0.70392157 0.16862745
0.77193627 0.70392157 0.17254902
0.80765931 0.70392157 0.17383578
0.84387255 0.7 0.17647059
0.88039216 0.7 0.17665441
0.91764706 0.70183824 0.17977941
0.95343137 0.70245098 0.18094363
0.98284314 0.70245098 0.18431373
0.12843137 0.74509804 0.12843137
0.1560049 0.74117647 0.13002451
0.19215686 0.7379902 0.1372549
0.22990196 0.7372549 0.14117647
0.26813725 0.7372549 0.14509804
0.30392157 0.7372549 0.14901961
0.34117647 0.7372549 0.14901961
0.37696078 0.7372549 0.14791667
0.41176471 0.74019608 0.14607843
0.44509804 0.74117647 0.15
0.47843137 0.74509804 0.15073529
0.51568627 0.74509804 0.15392157
0.5504902 0.74509804 0.15735294
0.58627451 0.74509804 0.15784314
0.62352941 0.74509804 0.16078431
0.66041667 0.74509804 0.16286765
0.69705882 0.74509804 0.16568627
0.73284314 0.74509804 0.16862745
0.76862745 0.74509804 0.16838235
0.80588235 0.74509804 0.16470588
0.84117647 0.74509804 0.16372549
0.87647059 0.74509804 0.15968137
0.91446078 0.74509804 0.15882353
0.95098039 0.74509804 0.15784314
0.98039216 0.74509804 0.16176471
0.12107843 0.78627451 0.12843137
0.15490196 0.78253676 0.13314951
0.19215686 0.78235294 0.13823529
0.22984069 0.77886029 0.14460784
0.26666667 0.77843137 0.14705882
0.30392157 0.77843137 0.14901961
0.34203431 0.77843137 0.14901961
0.37696078 0.77843137 0.15030637
0.41176471 0.77843137 0.15637255
0.44509804 0.78235294 0.15686275
0.47843137 0.78627451 0.16029412
0.5122549 0.78627451 0.16378676
0.54901961 0.78627451 0.16421569
0.58578431 0.78584559 0.16470588
0.62058824 0.78284314 0.16470588
0.65716912 0.78627451 0.16470588
0.69411765 0.78627451 0.16862745
0.73137255 0.78627451 0.16862745
0.76764706 0.78627451 0.1685049
0.80245098 0.78627451 0.16127451
0.83921569 0.78627451 0.15686275
0.87604167 0.78627451 0.14944853
0.91372549 0.78627451 0.14264706
0.9495098 0.78627451 0.13431373
0.98039216 0.78627451 0.13088235
0.12941176 0.82352941 0.15294118
0.15759804 0.82352941 0.14656863
0.19362745 0.82352941 0.14313725
0.23161765 0.81960784 0.14509804
0.26960784 0.81960784 0.14607843
0.30735294 0.81960784 0.14901961
0.34215686 0.81666667 0.14901961
0.37696078 0.81568627 0.15367647
0.41176471 0.81764706 0.1627451
0.44509804 0.82205882 0.16470588
0.47843137 0.82401961 0.16715686
0.5122549 0.82745098 0.17034314
0.54901961 0.82352941 0.17156863
0.58578431 0.82352941 0.17254902
0.62009804 0.82352941 0.17254902
0.65612745 0.82352941 0.17058824
0.69411765 0.8254902 0.16862745
0.72892157 0.82671569 0.16862745
0.76764706 0.82745098 0.16764706
0.80245098 0.82745098 0.16470588
0.83921569 0.82745098 0.15686275
0.87598039 0.82745098 0.14877451
0.91078431 0.82745098 0.14215686
0.94828431 0.82745098 0.13186275
0.97843137 0.82745098 0.12941176
0.13333333 0.86078431 0.16911765
0.16029412 0.86078431 0.16305147
0.19607843 0.86078431 0.15294118
0.23339461 0.86078431 0.14515931
0.27058824 0.86078431 0.14509804
0.30784314 0.86078431 0.14509804
0.34509804 0.85686275 0.14889706
0.37696078 0.85275735 0.15833333
0.41176471 0.85637255 0.16862745
0.44509804 0.86292892 0.16911765
0.47843137 0.86470588 0.17267157
0.5122549 0.86470588 0.17604167
0.54705882 0.86470588 0.17647059
0.58235294 0.86421569 0.17696078
0.6192402 0.86029412 0.17696078
0.65508578 0.85814951 0.17518382
0.69019608 0.86078431 0.17254902
0.72745098 0.86452206 0.16862745
0.76470588 0.86470588 0.16470588
0.80245098 0.86470588 0.16121324
0.83921569 0.86642157 0.15686275
0.87604167 0.86862745 0.15202206
0.91115196 0.86862745 0.14252451
0.94705882 0.86862745 0.14185049
0.97598039 0.86862745 0.14607843
0.13333333 0.90196078 0.17647059
0.1627451 0.90196078 0.17009804
0.19901961 0.90196078 0.1627451
0.23382353 0.90196078 0.14987745
0.27058824 0.90196078 0.14117647
0.30784314 0.90196078 0.14129902
0.34509804 0.89583333 0.14803922
0.37696078 0.89019608 0.15943627
0.41176471 0.89411765 0.17156863
0.44509804 0.90196078 0.1754902
0.47843137 0.90588235 0.17647059
0.5122549 0.90588235 0.17941176
0.54705882 0.90441176 0.18039216
0.58186275 0.89889706 0.18039216
0.61666667 0.89215686 0.18039216
0.65294118 0.89227941 0.17830882
0.69019608 0.89509804 0.17254902
0.72745098 0.90085784 0.16862745
0.76470588 0.90367647 0.16397059
0.80245098 0.90588235 0.16078431
0.84117647 0.90588235 0.15490196
0.87647059 0.9060049 0.14901961
0.91372549 0.90686275 0.1502451
0.94558824 0.90980392 0.15698529
0.97254902 0.90980392 0.16372549
0.13333333 0.94313725 0.17254902
0.16029412 0.94313725 0.16770833
0.19901961 0.93921569 0.16262255
0.2372549 0.94264706 0.15343137
0.27058824 0.94509804 0.13921569
0.30735294 0.94442402 0.13596814
0.34215686 0.93627451 0.14411765
0.37696078 0.93137255 0.15980392
0.41176471 0.93137255 0.17254902
0.44656863 0.94166667 0.17947304
0.47843137 0.94669118 0.18039216
0.5122549 0.94215686 0.18186275
0.54705882 0.9377451 0.18431373
0.58186275 0.93204657 0.18431373
0.61629902 0.92598039 0.18431373
0.65294118 0.92506127 0.18039216
0.69019608 0.92990196 0.17647059
0.72745098 0.93382353 0.17009804
0.76470588 0.93872549 0.16372549
0.80588235 0.94528186 0.15735294
0.84313725 0.94705882 0.15220588
0.87990196 0.94705882 0.15098039
0.91372549 0.94705882 0.16127451
0.94797794 0.94705882 0.17156863
0.97401961 0.95098039 0.17794118
0.12941176 0.98039216 0.16862745
0.16029412 0.97401961 0.16470588
0.19901961 0.97254902 0.15980392
0.2372549 0.97254902 0.1495098
0.27058824 0.97843137 0.13921569
0.30392157 0.9872549 0.12647059
0.34117647 0.97352941 0.14411765
0.37696078 0.96470588 0.15980392
0.41176471 0.96470588 0.17254902
0.44656863 0.975 0.18284314
0.47843137 0.9754902 0.18431373
0.5122549 0.96911765 0.18431373
0.54509804 0.9627451 0.18431373
0.58186275 0.95637255 0.18431373
0.61568627 0.95 0.18431373
0.65147059 0.94901961 0.18039216
0.69019608 0.95294118 0.17647059
0.72745098 0.95931373 0.17009804
0.76470588 0.96470588 0.16372549
0.80588235 0.97205882 0.15735294
0.84313725 0.98235294 0.15098039
0.87990196 0.97990196 0.15735294
0.91470588 0.97647059 0.16764706
0.9495098 0.97647059 0.18186275
0.97647059 0.98039216 0.18823529
0.14215686 0.018137255 0.15637255
0.1627451 0.016605392 0.15974265
0.19509804 0.029901961 0.17267157
0.22959559 0.030882353 0.18265931
0.2627451 0.028921569 0.18284314
0.2995098 0.022732843 0.18431373
0.33431373 0.010294118 0.18823529
0.3745098 0.0093137255 0.17352941
0.41176471 0.011764706 0.15931373
0.44901961 0.013296569 0.15545343
0.48529412 0.017034314 0.15637255
0.51991422 0.037071078 0.16862745
0.55686275 0.015686275 0.15441176
0.59362745 0.016360294 0.15245098
0.62843137 0.038112745 0.15355392
0.66323529 0.053431373 0.1627451
0.70196078 0.025 0.15245098
0.73529412 0.010845588 0.15245098
0.77193627 0.017647059 0.15637255
0.80980392 0.030882353 0.15998775
0.84509804 0.025490196 0.1625
0.88020833 0.0088235294 0.16519608
0.91470588 0.010784314 0.16176471
0.94313725 0.019056373 0.15637255
0.96764706 0.024509804 0.15245098
0.13762255 0.048468137 0.15729167
0.16421569 0.049364277 0.15994945
0.19722733 0.057000613 0.16629902
0.22990196 0.05692402 0.17004442
0.26351103 0.05223652 0.16936275
0.2995098 0.046078431 0.17444087
0.33431373 0.038648897 0.182644
0.37303922 0.039644608 0.17261029
0.41176471 0.042095588 0.16176471
0.44714308 0.045098039 0.15637255
0.48235294 0.049019608 0.15304841
0.51960784 0.056678922 0.15901501
0.55686275 0.045833333 0.15245098
0.59362745 0.046461397 0.15245098
0.62843137 0.059558824 0.15245098
0.66323529 0.072487745 0.15204504
0.69803922 0.051960784 0.15245098
0.73529412 0.045098039 0.15432751
0.77254902 0.047778799 0.15712316
0.80991881 0.060363051 0.16158088
0.84509804 0.056096814 0.16295956
0.88001685 0.045098039 0.16501225
0.91470588 0.045098039 0.16605392
0.94613971 0.047143076 0.16086857
0.97310049 0.049019608 0.15428922
0.14509804 0.08627451 0.16813725
0.16905637 0.08973652 0.1615962
0.19782475 0.089215686 0.1560049
0.22990196 0.08760723 0.1560049
0.26470588 0.085784314 0.15980392
0.29963235 0.081862745 0.16764706
0.33431373 0.075490196 0.17794118
0.37058824 0.078431373 0.16960784
0.40784314 0.082352941 0.16176471
0.44509804 0.085294118 0.15438113
0.48235294 0.08627451 0.15193015
0.51960784 0.08627451 0.15179228
