site/assets/luts/sha256-3d4e878a5b5ab3093172ac830972b9f343afdb69da57319c05c9875718efca79.cube
# LUTr-Schema-Version: 2
# LUTr-ID: sha256-3d4e878a5b5ab3093172ac830972b9f343afdb69da57319c05c9875718efca79
# LUTr-Title: fade
# LUTr-Collection: Natron HaldCLUT
# LUTr-Collection-ID: natron-haldclut-presets
# LUTr-Source: https://github.com/NatronGitHub/clut
# LUTr-Retrieved: 2026-07-27
# LUTr-Source-File: submissions/natron-haldclut-presets/various/fade.png
# LUTr-Source-Format: HALD-PNG
# LUTr-Source-SHA256: 3d4e878a5b5ab3093172ac830972b9f343afdb69da57319c05c9875718efca79
# LUTr-License: CC-BY-SA-4.0
# LUTr-License-URL: https://github.com/NatronGitHub/clut#license
# LUTr-License-Basis: repo-license-file
# LUTr-Transform-Class: film-emulation
# LUTr-Tags: creative, film, film-emulation, hald-clut, natron, png, cube
# LUTr-Input-Color-Space: srgb
# LUTr-Input-Gamut: rec709
# LUTr-Input-Transfer: srgb
# LUTr-Output-Color-Space: srgb
# LUTr-Output-Gamut: rec709
# LUTr-Output-Transfer: srgb
# LUTr-Color-Space-Confidence: assumed-display-referred
# LUTr-Domain-Normalized: true
# LUTr-Shaper: none
# LUTr-Original-Grid: 64x64x64
# LUTr-Conversion-Grid: 25x25x25
# LUTr-Conversion-Interpolation: trilinear
# LUTr-Conversion-Method: HALD-PNG LUT image decoded at 16-bit and sampled to 25x25x25 3D CUBE
# LUTr-Conversion-Tool: LUTr scripts/convert-all-to-cube.mjs 2.0.0
# LUTr-Conversion-Date: 2026-07-27
# LUTr-Note: Preserve this metadata and the upstream license notices when redistributing.
TITLE "fade"
LUT_3D_SIZE 25
DOMAIN_MIN 0 0 0
DOMAIN_MAX 1 1 1
0.22745098 0.30980392 0.38039216
0.25686275 0.32254902 0.38431373
0.29313725 0.34215686 0.38529412
0.32401961 0.33431373 0.39166667
0.35294118 0.32352941 0.39803922
0.37745098 0.33431373 0.3995098
0.39803922 0.35490196 0.39313725
0.42254902 0.37156863 0.38284314
0.44313725 0.38431373 0.37254902
0.46764706 0.37794118 0.38676471
0.49215686 0.37156863 0.39607843
0.51666667 0.36519608 0.39607843
0.54117647 0.3627451 0.39215686
0.57009804 0.36078431 0.39264706
0.60490196 0.36078431 0.40294118
0.64117647 0.36078431 0.40931373
0.6745098 0.35686275 0.41176471
0.70931373 0.3504902 0.41568627
0.74509804 0.34901961 0.41568627
0.78970588 0.35294118 0.41568627
0.83137255 0.35686275 0.41568627
0.87254902 0.35686275 0.41176471
0.91666667 0.35980392 0.41078431
0.96813725 0.36470588 0.41568627
1 0.36862745 0.41568627
0.23382353 0.33284314 0.37401961
0.26323529 0.3495098 0.37947304
0.3004902 0.37009804 0.38186275
0.33431373 0.375 0.38529412
0.35931373 0.36397059 0.39411765
0.37990196 0.36323529 0.4
0.40196078 0.37610294 0.39669118
0.425 0.39068627 0.38921569
0.44705882 0.40490196 0.38284314
0.47101716 0.39068627 0.39705882
0.49313725 0.3807598 0.40281863
0.51666667 0.37156863 0.40245098
0.54117647 0.36519608 0.39338235
0.57040441 0.36354167 0.39264706
0.60784314 0.3689951 0.40294118
0.64454657 0.37352941 0.40931373
0.68088235 0.37352941 0.41568627
0.71721814 0.37542892 0.41813725
0.75539216 0.37879902 0.42022059
0.79656863 0.38363971 0.42205882
0.84166667 0.3877451 0.42205882
0.88284314 0.38805147 0.41844363
0.92401961 0.3935049 0.42389706
0.97058824 0.39803922 0.42898284
0.99607843 0.3995098 0.42990196
0.24509804 0.36862745 0.36862745
0.27598039 0.38566176 0.375
0.30980392 0.40416667 0.37941176
0.34460784 0.41556373 0.37904412
0.36568627 0.41176471 0.38627451
0.38529412 0.40784314 0.39522059
0.40588235 0.41004902 0.39607843
0.42647059 0.42046569 0.39460784
0.45098039 0.43529412 0.38823529
0.47254902 0.42009804 0.39852941
0.49803922 0.40612745 0.40318627
0.52414216 0.3995098 0.40392157
0.54803922 0.39313725 0.39901961
0.58014706 0.39240196 0.40514706
0.61176471 0.39313725 0.40318627
0.65 0.39938725 0.41323529
0.69117647 0.40686275 0.41960784
0.72843137 0.41139706 0.42414216
0.76642157 0.41568627 0.42745098
0.80686275 0.41948529 0.42843137
0.85196078 0.42254902 0.42843137
0.89313725 0.42389706 0.43247549
0.93137255 0.42965686 0.43627451
0.97303922 0.43468137 0.44056373
0.99215686 0.43529412 0.44411765
0.29362745 0.45245098 0.36862745
0.30275735 0.44148284 0.37628676
0.32401961 0.44215686 0.37904412
0.35147059 0.45294118 0.37604167
0.37230392 0.45098039 0.38627451
0.38921569 0.44859069 0.39264706
0.40980392 0.44546569 0.3995098
0.43039216 0.45490196 0.39589461
0.45441176 0.46568627 0.39166667
0.47922794 0.45459559 0.39822304
0.50477941 0.44154412 0.40477941
0.53143382 0.43425245 0.41127451
0.55833333 0.42769608 0.40735294
0.58523284 0.42107843 0.40343137
0.61911765 0.4245098 0.41029412
0.66029412 0.43480392 0.41697304
0.70147059 0.44166667 0.42352941
0.73872549 0.44773284 0.42745098
0.77990196 0.45306373 0.4310049
0.82107843 0.45643382 0.434375
0.8622549 0.45906863 0.4370098
0.90343137 0.46170343 0.44613971
0.94166667 0.46507353 0.4495098
0.9754902 0.47040441 0.45441176
0.99215686 0.47254902 0.45441176
0.29803922 0.47843137 0.38235294
0.31151961 0.47720588 0.38357843
0.32745098 0.475 0.38627451
0.35147059 0.47990196 0.38627451
0.37254902 0.48039216 0.39117647
0.39509804 0.48431373 0.39436275
0.41715686 0.48627451 0.39607843
0.43823529 0.49019608 0.39681373
0.46078431 0.49019608 0.40196078
0.48651961 0.48578431 0.40833333
0.5122549 0.47794118 0.41421569
0.5379902 0.4745098 0.41764706
0.56764706 0.46862745 0.41764706
0.5995098 0.46446078 0.41960784
0.63529412 0.46666667 0.42156863
0.6745098 0.4752451 0.42622549
0.71176471 0.47843137 0.42745098
0.74901961 0.48357843 0.42990196
0.79019608 0.48823529 0.43235294
0.83137255 0.49191176 0.43897059
0.87254902 0.49509804 0.44705882
0.91372549 0.49828431 0.45710784
0.95196078 0.50343137 0.46078431
0.98063725 0.50661765 0.46470588
0.99215686 0.50784314 0.46470588
0.29362745 0.4995098 0.39264706
0.30814951 0.50294118 0.39264706
0.32708333 0.50306373 0.39264706
0.34803922 0.50729167 0.39564951
0.37254902 0.50906863 0.39828431
0.39705882 0.51176471 0.4004902
0.42058824 0.5189951 0.4004902
0.44393382 0.52432598 0.40226716
0.46715686 0.52303922 0.40833333
0.49166667 0.51930147 0.41832108
0.51715686 0.51556373 0.42095588
0.54797794 0.51176471 0.42401961
0.57892157 0.51176471 0.42794118
0.61372549 0.50784314 0.43186275
0.64767157 0.50784314 0.43186275
0.68511029 0.51176471 0.43186275
0.72205882 0.51519608 0.43186275
0.75900735 0.51783088 0.43137255
0.8004902 0.52316176 0.43676471
0.84166667 0.52738971 0.44748775
0.88284314 0.53112745 0.46127451
0.92401961 0.5348652 0.46764706
0.96519608 0.53872549 0.47107843
0.98970588 0.54264706 0.475
0.99264706 0.54264706 0.475
0.28627451 0.52647059 0.39607843
0.3 0.52745098 0.39607843
0.32352941 0.53063725 0.39681373
0.34803922 0.53431373 0.40257353
0.37254902 0.53823529 0.40392157
0.39742647 0.54227941 0.40686275
0.42377451 0.54681373 0.41078431
0.44938725 0.55036765 0.41580882
0.47352941 0.55392157 0.42156863
0.49865196 0.55392157 0.425
0.52426471 0.55294118 0.42818627
0.55784314 0.55294118 0.43394608
0.58921569 0.5495098 0.43823529
0.62401961 0.54852941 0.43921569
0.65882353 0.54828431 0.44142157
0.69571078 0.55 0.44105392
0.73235294 0.55 0.43823529
0.76605392 0.55 0.43431373
0.80710784 0.55710784 0.44779412
0.85196078 0.56164216 0.46127451
0.89313725 0.56715686 0.47303922
0.93468137 0.56997549 0.47794118
0.97622549 0.57352941 0.48431373
0.99546569 0.57745098 0.48529412
0.99901961 0.57745098 0.48529412
0.27696078 0.55343137 0.39460784
0.29454657 0.55735294 0.39607843
0.32058824 0.56127451 0.40098039
0.34754902 0.56470588 0.40753676
0.3752451 0.56642157 0.4125
0.40116422 0.56942402 0.41715686
0.42879902 0.57267157 0.42107843
0.45447304 0.57604167 0.42647059
0.47843137 0.57941176 0.43284314
0.50441176 0.58088235 0.434375
0.53235294 0.58480392 0.43676471
0.56323529 0.58480392 0.43890931
0.59681373 0.58480392 0.44191176
0.62910539 0.58088235 0.44313725
0.66482843 0.58088235 0.44313725
0.70091912 0.58088235 0.44705882
0.7372549 0.58480392 0.44705882
0.77297794 0.58480392 0.44705882
0.81323529 0.58970588 0.46017157
0.85686275 0.59607843 0.4754902
0.90073529 0.6004902 0.4877451
0.94460784 0.60441176 0.49019608
0.98823529 0.60833333 0.4935049
1 0.60925245 0.49411765
1 0.61078431 0.49411765
0.2627451 0.58431373 0.38823529
0.29362745 0.58823529 0.39852941
0.32352941 0.59215686 0.40784314
0.35147059 0.59215686 0.41519608
0.37843137 0.59411765 0.41960784
0.40539216 0.59607843 0.42401961
0.43333333 0.59901961 0.43431373
0.45931373 0.60147059 0.43676471
0.48627451 0.60784314 0.44313725
0.51078431 0.61029412 0.44313725
0.54019608 0.61568627 0.44313725
0.57107843 0.61568627 0.44313725
0.60196078 0.61568627 0.44313725
0.63333333 0.61176471 0.44313725
0.66764706 0.61176471 0.44607843
0.70637255 0.61323529 0.45098039
0.74117647 0.61568627 0.45098039
0.77990196 0.61813725 0.45735294
0.81960784 0.62058824 0.46862745
0.86078431 0.62696078 0.48186275
0.90392157 0.63137255 0.49019608
0.94705882 0.63529412 0.49019608
0.98529412 0.63823529 0.49019608
1 0.63921569 0.49019608
1 0.63921569 0.49019608
0.28333333 0.61519608 0.4127451
0.30091912 0.61764706 0.40882353
0.32806373 0.61911765 0.4127451
0.35784314 0.62040441 0.41942402
0.38480392 0.62303922 0.4254902
0.41145833 0.62303922 0.43088235
0.43909314 0.62598039 0.44448529
0.46476716 0.62935049 0.44405637
0.49264706 0.63235294 0.44705882
0.51960784 0.63780637 0.4495098
0.54656863 0.64264706 0.45098039
0.57745098 0.64264706 0.45098039
0.60833333 0.64411765 0.44828431
0.63939951 0.6463848 0.44313725
0.67512255 0.64509804 0.44313725
0.71121324 0.64656863 0.45098039
0.74754902 0.64656863 0.45490196
0.78627451 0.6504902 0.46372549
0.82598039 0.65441176 0.47438725
0.86470588 0.65784314 0.48204657
0.90588235 0.65906863 0.48235294
0.94442402 0.66243873 0.48382353
0.98431373 0.66617647 0.48382353
1 0.67009804 0.48382353
1 0.66764706 0.48382353
0.29901961 0.64607843 0.43235294
0.31568627 0.64607843 0.42659314
0.3372549 0.64901961 0.42058824
0.36421569 0.64901961 0.42352941
0.39068627 0.65 0.42794118
0.41678922 0.65 0.43578431
0.44436275 0.65367647 0.44313725
0.46997549 0.65502451 0.44705882
0.49803922 0.66078431 0.45098039
0.525 0.66531863 0.45098039
0.55294118 0.66960784 0.45490196
0.58382353 0.66960784 0.45490196
0.61470588 0.67303922 0.45147059
0.64852941 0.67401961 0.44669118
0.68039216 0.67745098 0.44240196
0.71629902 0.67745098 0.45098039
0.75392157 0.67745098 0.45882353
0.79117647 0.68137255 0.46458333
0.83137255 0.68455882 0.47058824
0.86960784 0.68529412 0.47352941
0.90637255 0.68921569 0.47401961
0.94656863 0.69313725 0.47352941
0.98431373 0.69607843 0.47352941
1 0.69705882 0.47352941
1 0.69705882 0.47745098
0.30931373 0.67696078 0.44656863
0.32598039 0.67696078 0.44234069
0.35012255 0.67696078 0.43382353
0.37107843 0.67696078 0.4278799
0.39583333 0.67720588 0.42941176
0.42401961 0.68088235 0.43578431
0.44889706 0.68088235 0.44607843
0.47481618 0.68265931 0.45098039
0.50196078 0.68872549 0.45098039
0.52892157 0.69295343 0.45098039
0.55931373 0.69656863 0.45490196
0.59019608 0.69705882 0.45839461
0.62107843 0.7004902 0.45490196
0.6528799 0.70441176 0.45392157
0.68970588 0.70490196 0.4504902
0.7254902 0.70833333 0.45459559
0.76029412 0.70833333 0.45882353
0.79932598 0.7122549 0.46488971
0.83872549 0.71237745 0.46752451
0.87598039 0.71617647 0.47058824
0.91323529 0.71838235 0.47058824
0.9504902 0.72058824 0.47101716
0.9877451 0.72438725 0.47022059
1 0.72794118 0.47058824
1 0.7245098 0.47401961
0.31960784 0.70392157 0.45490196
0.33627451 0.70392157 0.45098039
0.36078431 0.70392157 0.44656863
0.38137255 0.70588235 0.4377451
0.40294118 0.70784314 0.43137255
0.42867647 0.70784314 0.43578431
0.45441176 0.70931373 0.44607843
0.47818627 0.71176471 0.44901961
0.50392157 0.71568627 0.44705882
0.53284314 0.72205882 0.4495098
0.56372549 0.72401961 0.45490196
0.59656863 0.72745098 0.45882353
0.62843137 0.73137255 0.46078431
0.6622549 0.73529412 0.46078431
0.69705882 0.73529412 0.46078431
0.73578431 0.73529412 0.46151961
0.7745098 0.73921569 0.46470588
0.81176471 0.73921569 0.46985294
0.84901961 0.74313725 0.47303922
0.88651961 0.74656863 0.47647059
0.9254902 0.74901961 0.48627451
0.96053922 0.75098039 0.48406863
0.99019608 0.75441176 0.48039216
1 0.75490196 0.48039216
1 0.75490196 0.48039216
0.32990196 0.73088235 0.45441176
0.34656863 0.73088235 0.45098039
0.36715686 0.7317402 0.44742647
0.3877451 0.73474265 0.44362745
0.41176471 0.73676471 0.4375
0.43327206 0.73872549 0.43627451
0.45992647 0.73872549 0.4435049
0.48314951 0.74264706 0.44754902
0.50637255 0.74656863 0.44754902
0.53547794 0.75079657 0.44626225
0.56911765 0.75453431 0.45588235
0.60637255 0.75833333 0.46231618
0.6377451 0.7625 0.46691176
0.67261029 0.76617647 0.46715686
0.71029412 0.76617647 0.46715686
0.74626225 0.76617647 0.46715686
0.78480392 0.76960784 0.47058824
0.82205882 0.77009804 0.4745098
0.85968137 0.77365196 0.47990196
0.90098039 0.77745098 0.50147059
0.93578431 0.77794118 0.50122549
0.96666667 0.78186275 0.49068627
0.99117647 0.78186275 0.49068627
0.99969363 0.78578431 0.49019608
1 0.78578431 0.49068627
0.33627451 0.75882353 0.44803922
0.35294118 0.76066176 0.44705882
0.37058824 0.76176471 0.45245098
0.39375 0.76262255 0.4504902
0.41568627 0.76764706 0.4495098
0.43933824 0.76960784 0.45294118
0.46446078 0.76960784 0.45367647
0.49031863 0.77352941 0.45784314
0.51666667 0.77745098 0.45784314
0.54362745 0.78382353 0.45784314
0.57843137 0.78848039 0.4620098
0.61323529 0.79301471 0.46654412
0.64803922 0.79656863 0.47352941
0.68333333 0.79705882 0.4745098
0.72058824 0.79705882 0.4745098
0.75784314 0.79705882 0.47352941
0.79509804 0.79705882 0.4745098
0.83382353 0.80098039 0.47696078
0.87352941 0.80490196 0.49044118
0.90833333 0.80490196 0.49779412
0.94215686 0.80882353 0.49803922
0.97267157 0.80931373 0.49705882
0.99338235 0.8127451 0.50122549
0.99644608 0.81311275 0.49705882
1 0.81666667 0.49705882
0.34117647 0.78872549 0.4377451
0.35931373 0.78872549 0.44558824
0.37953431 0.79264706 0.45343137
0.39901961 0.79393382 0.46011029
0.41960784 0.79852941 0.46421569
0.44430147 0.8004902 0.46813725
0.46973039 0.80441176 0.46813725
0.49552696 0.80588235 0.46813725
0.52303922 0.80980392 0.46813725
0.55392157 0.81617647 0.47205882
0.58480392 0.82218137 0.46911765
0.61942402 0.8276348 0.47420343
0.65294118 0.83063725 0.47843137
0.68970588 0.83186275 0.47990196
0.72941176 0.82941176 0.47990196
0.76813725 0.82941176 0.47843137
0.80539216 0.83186275 0.4745098
0.84411765 0.83186275 0.48088235
0.87990196 0.83186275 0.49019608
0.9158701 0.83578431 0.49411765
0.9497549 0.8377451 0.5
0.97922794 0.84001225 0.49852941
0.99509804 0.84362745 0.50012255
0.9966299 0.84362745 0.50196078
1 0.84754902 0.50343137
0.34509804 0.81960784 0.44313725
0.36176471 0.81960784 0.4495098
0.38235294 0.82352941 0.45588235
0.40294118 0.82696078 0.4627451
0.42352941 0.82941176 0.46862745
0.44803922 0.83137255 0.47401961
0.4754902 0.83529412 0.47058824
0.50245098 0.83921569 0.4745098
0.53333333 0.84313725 0.47843137
0.56029412 0.8495098 0.48235294
0.59117647 0.85588235 0.48137255
0.62598039 0.8622549 0.47843137
0.65882353 0.86666667 0.48235294
0.69607843 0.86666667 0.48235294
0.73431373 0.8627451 0.48235294
0.7745098 0.8627451 0.48235294
0.81568627 0.8627451 0.48235294
0.85441176 0.8627451 0.48627451
0.89019608 0.8627451 0.49509804
0.92401961 0.86617647 0.49803922
0.95882353 0.86862745 0.5
0.98872549 0.87107843 0.50196078
0.99901961 0.8745098 0.50196078
1 0.87598039 0.50588235
1 0.88235294 0.50980392
0.34509804 0.85294118 0.45098039
0.36721814 0.85594363 0.45980392
0.38627451 0.85625 0.46127451
0.40686275 0.85655637 0.4627451
0.42745098 0.85833333 0.46544118
0.45067402 0.8622549 0.46813725
0.47941176 0.86617647 0.47242647
0.50882353 0.87156863 0.48235294
0.53970588 0.87794118 0.48872549
0.56905637 0.88186275 0.49172794
0.60147059 0.88970588 0.48872549
0.63235294 0.89577206 0.48498775
0.66519608 0.90073529 0.48553922
0.70245098 0.90128676 0.48627451
0.74178922 0.89754902 0.48811275
0.78480392 0.89754902 0.48927696
0.82598039 0.9 0.49264706
0.86470588 0.9 0.49356618
0.8995098 0.89754902 0.49693627
0.93167892 0.89754902 0.50294118
0.96519608 0.90073529 0.5
0.99528186 0.90539216 0.49981618
1 0.90723039 0.50490196
1 0.91231618 0.51280637
1 0.91715686 0.51617647
0.34117647 0.88627451 0.45588235
0.36813725 0.89203431 0.46973039
0.39117647 0.89411765 0.47254902
0.41176471 0.89056373 0.4689951
0.43235294 0.89019608 0.46421569
0.45735294 0.89313725 0.46813725
0.4872549 0.9 0.47916667
0.51519608 0.90490196 0.49056373
0.54509804 0.90882353 0.49411765
0.57598039 0.91519608 0.49411765
0.60710784 0.92156863 0.49411765
0.63872549 0.92794118 0.49154412
0.67352941 0.93676471 0.48676471
0.7122549 0.93627451 0.49117647
0.75 0.93259804 0.49509804
0.79509804 0.93272059 0.49901961
0.83627451 0.9372549 0.49803922
0.87745098 0.9372549 0.49865196
0.90980392 0.93553922 0.50220588
0.94068627 0.93247549 0.50294118
0.9745098 0.93186275 0.50294118
1 0.93088235 0.50343137
1 0.93823529 0.52205882
1 0.94595588 0.52561275
1 0.95686275 0.52156863
0.33382353 0.92352941 0.4622549
0.36323529 0.92647059 0.47285539
0.39889706 0.93272059 0.48664216
0.42205882 0.93137255 0.48578431
0.44264706 0.92598039 0.47965686
0.46372549 0.92401961 0.47843137
0.49460784 0.93088235 0.48872549
0.521875 0.9372549 0.49411765
0.54901961 0.93970588 0.49411765
0.57990196 0.94607843 0.49411765
0.61164216 0.95147059 0.49411765
0.64552696 0.95582108 0.49411765
0.68014706 0.95637255 0.49362745
0.71954657 0.95680147 0.49803922
0.76029412 0.95980392 0.50183824
0.80539216 0.96501225 0.50539216
0.84656863 0.97107843 0.50539216
0.8877451 0.97469363 0.50196078
0.92009804 0.97009804 0.50588235
0.94754902 0.96029412 0.50974265
0.97622549 0.9504902 0.51323529
1 0.94509804 0.51372549
1 0.95882353 0.52438725
1 0.97794118 0.52971814
1 0.99803922 0.5254902
0.32352941 0.95686275 0.4627451
0.35882353 0.9620098 0.47745098
0.3995098 0.96911765 0.49558824
0.42843137 0.96887255 0.5004902
0.45098039 0.95784314 0.49509804
0.47401961 0.95147059 0.49215686
0.50098039 0.96029412 0.49460784
0.5252451 0.96813725 0.49411765
0.55294118 0.97058824 0.49215686
0.58504902 0.9745098 0.49338235
0.62058824 0.97254902 0.49656863
0.65514706 0.97058824 0.5
0.68921569 0.96470588 0.50294118
0.72941176 0.96495098 0.50612745
0.77352941 0.97009804 0.51078431
0.81568627 0.97990196 0.51176471
0.85882353 0.98627451 0.51176471
0.89877451 0.99215686 0.51102941
0.9254902 0.98921569 0.51568627
0.95171569 0.97892157 0.51936275
0.97647059 0.96666667 0.52254902
0.99632353 0.96151961 0.52377451
1 0.97843137 0.52892157
1 0.99485294 0.53137255
1 1 0.52941176
0.31078431 0.98823529 0.45931373
0.35490196 0.98609069 0.47892157
0.4 0.98480392 0.49473039
0.43382353 0.98431373 0.50196078
0.45882353 0.97696078 0.50196078
0.48339461 0.97702206 0.49803922
0.50821078 0.98382353 0.49803922
0.53020833 0.99283088 0.49313725
0.55343137 1 0.48676471
0.59215686 0.99393382 0.49656863
0.62830882 0.98480392 0.50330882
0.66519608 0.97745098 0.50637255
0.69852941 0.97279412 0.51004902
0.73970588 0.97261029 0.51378676
0.78382353 0.97683824 0.51801471
0.82745098 0.98609069 0.51813725
0.87107843 0.99215686 0.51813725
0.9122549 0.99479167 0.52205882
0.94019608 0.99252451 0.52990196
0.96078431 0.98829657 0.52990196
0.98088235 0.98235294 0.52990196
0.99607843 0.9783701 0.53339461
0.99607843 0.99166667 0.53382353
0.9973652 0.99754902 0.53363971
1 1 0.53333333
0.3245098 0.98823529 0.46666667
0.35845588 0.99007353 0.47659314
0.4 0.99117647 0.48823529
0.43382353 0.99117647 0.49852941
0.46421569 0.9872549 0.50196078
0.49019608 0.99031863 0.49840686
0.51397059 0.99509804 0.51372549
0.53627451 1 0.49828431
0.56078431 1 0.49411765
0.60098039 0.99938725 0.50159314
0.63897059 0.99411765 0.50906863
0.6754902 0.9877451 0.51360294
0.70882353 0.98137255 0.51666667
0.75 0.97953431 0.52058824
0.79411765 0.98406863 0.52377451
0.83835784 0.99154412 0.52659314
0.88137255 0.99215686 0.52843137
0.92254902 0.99607843 0.53235294
0.95784314 0.99583333 0.5370098
0.97745098 0.99129902 0.53370098
0.99313725 0.9872549 0.53627451
0.99607843 0.99252451 0.5372549
0.99607843 0.99607843 0.5372549
0.99607843 0.99754902 0.5372549
0.99705882 1 0.53627451
0.33088235 0.98823529 0.47058824
0.3627451 0.99068627 0.47696078
0.40110294 0.99215686 0.4872549
0.43743873 0.99607843 0.49362745
0.46862745 0.99754902 0.49803922
0.49509804 1 0.50196078
0.5189951 1 0.50196078
0.54019608 1 0.50196078
0.56617647 1 0.4995098
0.60588235 1 0.50496324
0.6442402 0.99607843 0.51188725
0.68216912 0.99264706 0.51734069
0.71911765 0.9877451 0.52156863
0.75686275 0.98578431 0.5254902
0.80330882 0.98933824 0.52879902
0.84656863 0.99215686 0.53180147
0.89166667 0.99607843 0.53480392
0.93284314 0.99607843 0.5372549
0.97303922 0.99718137 0.5372549
0.99313725 0.99607843 0.5372549
0.99681373 0.99607843 0.53995098
0.99607843 0.99607843 0.54117647
0.99607843 0.99607843 0.54117647
0.99607843 0.99607843 0.5372549
0.99607843 1 0.5372549
0.33333333 0.98823529 0.47058824
0.36666667 0.99068627 0.48088235
0.40392157 0.99215686 0.4872549
0.4377451 0.99607843 0.49411765
0.46862745 1 0.5
0.49558824 1 0.50245098
0.51960784 1 0.50588235
0.54411765 1 0.50196078
0.56862745 1 0.50196078
0.60588235 1 0.50833333
0.64705882 0.99607843 0.51372549
0.68431373 0.99607843 0.51764706
0.7254902 0.99215686 0.52352941
0.76666667 0.99215686 0.52941176
0.81176471 0.99215686 0.53235294
0.85686275 0.99607843 0.53480392
0.89803922 0.99607843 0.5372549
0.94313725 0.99852941 0.5372549
0.98823529 1 0.5372549
1 1 0.54068627
1 1 0.54117647
0.99607843 0.9995098 0.54117647
0.99607843 0.99607843 0.54117647
0.99607843 0.99607843 0.53970588
0.99607843 0.99607843 0.5372549
0.22745098 0.30588235 0.38039216
0.25533088 0.31948529 0.38431373
0.28958333 0.32696078 0.38884804
0.32156863 0.32696078 0.39215686
0.35098039 0.32034314 0.39803922
0.37401961 0.33186275 0.39981618
0.39803922 0.35098039 0.39852941
0.42101716 0.36672794 0.39705882
0.44313725 0.37794118 0.3995098
0.46464461 0.37401961 0.40735294
0.48860294 0.36556373 0.4127451
0.5127451 0.35882353 0.4127451
0.5379902 0.35441176 0.40808824
0.57009804 0.35686275 0.40753676
0.60490196 0.35686275 0.4127451
0.63970588 0.35594363 0.41721814
0.6745098 0.35294118 0.41813725
0.70931373 0.34748775 0.41813725
0.74215686 0.34362745 0.41629902
0.78970588 0.35551471 0.42205882
0.83504902 0.36960784 0.42818627
0.87254902 0.36060049 0.4245098
0.91482843 0.3622549 0.42634804
0.96568627 0.36715686 0.43088235
0.99362745 0.37107843 0.43235294
0.2338848 0.32892157 0.37892157
0.26323529 0.34501379 0.38376225
0.29882047 0.35790441 0.38792892
0.33039216 0.36176471 0.39068627
0.35778186 0.36001838 0.39610907
0.37756587 0.35833333 0.40256587
0.40159314 0.36796875 0.40268076
0.42254902 0.38131127 0.40343137
0.44558824 0.38823529 0.40435049
0.46764706 0.38488817 0.41127451
0.49146752 0.37725184 0.41666667
0.51548713 0.36979167 0.41403952
0.53848039 0.36204044 0.40762868
0.57040441 0.36354167 0.40753676
0.6067402 0.36862745 0.41458333
0.64454657 0.37261029 0.42001379
0.68088235 0.37205882 0.42359069
0.71568627 0.3745098 0.42416513
0.75539216 0.37843137 0.42526042
0.79656863 0.38352482 0.4292356
0.84240196 0.39227941 0.43400735
0.88284314 0.38939185 0.43088235
0.92218137 0.39244792 0.43466605
0.96836703 0.39803922 0.43907016
0.99362745 0.39803922 0.44264706
0.24178922 0.35906863 0.37708333
0.26931679 0.37218137 0.38368566
0.30906863 0.39414828 0.38946078
0.34068627 0.40243566 0.39299939
0.36488971 0.40147059 0.39932598
0.38331801 0.39742647 0.40548407
0.40294118 0.39335172 0.40744485
0.42254902 0.3879902 0.40435049
0.44313725 0.38664216 0.40343137
0.46894914 0.39136029 0.41113664
0.49632353 0.39929534 0.41875
0.52149203 0.39901961 0.41778493
0.54803922 0.39485294 0.41372549
0.58112745 0.39681373 0.41905637
0.61246936 0.39427083 0.41712623
0.65153186 0.40110294 0.42487745
0.69117647 0.40747549 0.42941176
0.72843137 0.41162684 0.43203125
0.76804534 0.41568627 0.43452819
0.80784314 0.41948529 0.43821998
0.85196078 0.42408088 0.44172794
0.89313725 0.42558211 0.44168199
0.93137255 0.42965686 0.44620098
0.97189032 0.43468137 0.45071998
0.99215686 0.43529412 0.45294118
0.24276961 0.3963848 0.37941176
0.27726716 0.41121324 0.3872549
0.31407782 0.43198529 0.39560355
0.34509804 0.43890931 0.39703585
0.36862745 0.43890931 0.40294118
0.38890931 0.43635876 0.40898438
0.40931373 0.43443627 0.41230086
0.42727482 0.42071844 0.4078508
0.446875 0.41256127 0.40686275
