site/assets/luts/sha256-5a34154e30364fd07f633cf214406bbfa3e07dc8c69e89391a43e4c39f78224d.cube
# LUTr-Schema-Version: 2
# LUTr-ID: sha256-5a34154e30364fd07f633cf214406bbfa3e07dc8c69e89391a43e4c39f78224d
# LUTr-Title: kodak portra 160 vc -
# LUTr-Collection: Natron HaldCLUT
# LUTr-Collection-ID: natron-haldclut-presets
# LUTr-Source: https://github.com/NatronGitHub/clut
# LUTr-Retrieved: 2026-07-27
# LUTr-Source-File: submissions/natron-haldclut-presets/negative_old/kodak_portra_160_vc_-.png
# LUTr-Source-Format: HALD-PNG
# LUTr-Source-SHA256: 5a34154e30364fd07f633cf214406bbfa3e07dc8c69e89391a43e4c39f78224d
# LUTr-License: CC-BY-SA-4.0
# LUTr-License-URL: https://github.com/NatronGitHub/clut#license
# LUTr-License-Basis: repo-license-file
# LUTr-Transform-Class: film-emulation
# LUTr-Tags: creative, film, film-emulation, hald-clut, natron, png, cube
# LUTr-Input-Color-Space: srgb
# LUTr-Input-Gamut: rec709
# LUTr-Input-Transfer: srgb
# LUTr-Output-Color-Space: srgb
# LUTr-Output-Gamut: rec709
# LUTr-Output-Transfer: srgb
# LUTr-Color-Space-Confidence: assumed-display-referred
# LUTr-Domain-Normalized: true
# LUTr-Shaper: none
# LUTr-Original-Grid: 64x64x64
# LUTr-Conversion-Grid: 25x25x25
# LUTr-Conversion-Interpolation: trilinear
# LUTr-Conversion-Method: HALD-PNG LUT image decoded at 16-bit and sampled to 25x25x25 3D CUBE
# LUTr-Conversion-Tool: LUTr scripts/convert-all-to-cube.mjs 2.0.0
# LUTr-Conversion-Date: 2026-07-27
# LUTr-Note: Preserve this metadata and the upstream license notices when redistributing.
TITLE "kodak portra 160 vc -"
LUT_3D_SIZE 9
DOMAIN_MIN 0 0 0
DOMAIN_MAX 1 1 1
0.0039215686 0.019607843 0.0078431373
0.03872549 0.00049019608 0.00049019608
0.19117647 0.030392157 0.0039215686
0.38186275 0.025 0.0078431373
0.56862745 0 0.0019607843
0.72745098 0.0039215686 0
0.85784314 0.028431373 0
0.95441176 0.13823529 0.0039215686
1 0.17254902 0
0.0034313725 0.052941176 0.01127451
0.050061275 0.087745098 0.019546569
0.19889706 0.096446078 0.019240196
0.39460784 0.093627451 0.011764706
0.57254902 0.098039216 0.0039215686
0.73658088 0.098529412 0
0.8627451 0.14803922 0
0.95 0.19607843 0.0044117647
0.99607843 0.25343137 0.0039215686
0 0.20980392 0.060784314
0 0.2060049 0.048039216
0.15416667 0.22867647 0.0049019608
0.40355392 0.25980392 0.0082107843
0.57303922 0.24362745 0.0078431373
0.73811275 0.24460784 0.00036764706
0.85490196 0.2629902 0.0078431373
0.95 0.29166667 0.0078431373
0.97745098 0.31960784 0.0039215686
0.0039215686 0.37303922 0.12745098
0.0060661765 0.38302696 0.14705882
0.085784314 0.39313725 0.11017157
0.34859069 0.41525735 0.0087009804
0.55637255 0.40833333 0.0090686275
0.71078431 0.39117647 0.0078431373
0.84068627 0.38026961 0.0039215686
0.95030637 0.38823529 0.0039215686
0.97254902 0.39558824 0
0.0078431373 0.50980392 0.23529412
0.0041666667 0.51544118 0.2370098
0.13382353 0.52156863 0.2372549
0.32328431 0.52867647 0.19264706
0.50882353 0.54313725 0.088235294
0.67843137 0.55098039 0.0098039216
0.81960784 0.53823529 0.011764706
0.93333333 0.51936275 0.0039215686
0.96862745 0.50980392 0
0.0014705882 0.63333333 0.31029412
0.08560049 0.63939951 0.32058824
0.22622549 0.64007353 0.32561275
0.34460784 0.63878676 0.30238971
0.47328431 0.64632353 0.26617647
0.62794118 0.66378676 0.18143382
0.79852941 0.68284314 0.038480392
0.91323529 0.66991422 0
0.97794118 0.64901961 0.0039215686
0.22843137 0.74509804 0.41960784
0.26323529 0.74889706 0.41470588
0.33848039 0.74583333 0.42745098
0.40735294 0.74411765 0.41960784
0.51078431 0.75441176 0.40196078
0.63333333 0.76372549 0.35526961
0.75294118 0.77622549 0.28529412
0.89509804 0.79080882 0.21066176
0.98823529 0.78039216 0.14411765
0.45 0.85245098 0.55539216
0.4495098 0.84901961 0.54754902
0.48688725 0.84852941 0.55796569
0.52469363 0.84852941 0.55539216
0.57818627 0.85245098 0.54583333
0.64852941 0.86029412 0.52303922
0.74105392 0.86813725 0.4807598
0.86078431 0.88382353 0.43382353
0.97156863 0.89901961 0.37696078
0.61176471 0.94509804 0.69411765
0.61911765 0.94117647 0.69019608
0.63431373 0.9372549 0.69313725
0.66666667 0.94264706 0.70343137
0.69411765 0.93921569 0.7
0.74264706 0.94901961 0.69656863
0.79803922 0.95294118 0.66470588
0.86421569 0.95392157 0.6245098
0.90196078 0.97254902 0.63529412
0.011764706 0.0083333333 0.092647059
0.06127451 0.019117647 0.092647059
0.2067402 0.017156863 0.081862745
0.39117647 0.0044117647 0.054411765
0.5745098 0.017892157 0.087990196
0.72922794 0.0071691176 0.072058824
0.85392157 0.077818627 0.063602941
0.94656863 0.17745098 0.06372549
0.99656863 0.23088235 0.051470588
0.011764706 0.084313725 0.10735294
0.066176471 0.091237745 0.09564951
0.20588235 0.076531863 0.07958027
0.40087316 0.082375919 0.062561275
0.57990196 0.095098039 0.062071078
0.73525582 0.12005974 0.062745098
0.85882353 0.16335784 0.058823529
0.96226256 0.20680147 0.039261642
0.99558824 0.26029412 0.051531863
0.0078431373 0.22634804 0.14509804
0.013005515 0.23382353 0.14129902
0.19068627 0.24166667 0.10101103
0.40997243 0.25203738 0.06997549
0.57892157 0.25343137 0.054534314
0.73561581 0.2479473 0.038710172
0.85490196 0.27205882 0.031985294
0.95294118 0.29903493 0.023851103
0.97732843 0.3192402 0.02254902
0.014215686 0.4 0.21519608
0.015035233 0.3942019 0.21407016
0.17316176 0.39649203 0.19973958
0.37794118 0.40980392 0.13689491
0.5745098 0.41602328 0.053982843
0.72382047 0.3872549 0.006372549
0.83921569 0.38613664 0.015379902
0.94581036 0.39569547 0.0090686275
0.97892157 0.40949755 0.0049019608
0.0044117647 0.525 0.27745098
0.03973652 0.52527574 0.27916667
0.19209559 0.52542892 0.28112745
0.34396446 0.53308824 0.2502451
0.51715686 0.54877451 0.17843137
0.68676471 0.55628064 0.094761029
0.82156863 0.53651961 0.016727941
0.92720588 0.53066789 0.012990196
0.98602941 0.52156863 0.0019607843
0.065502451 0.64332108 0.33805147
0.14871324 0.6437883 0.35098039
0.26176471 0.64332108 0.35667892
0.35576746 0.64110754 0.34215686
0.48186275 0.65220588 0.30327819
0.64080116 0.66862745 0.24117647
0.80373775 0.68720895 0.15202206
0.91960784 0.66470588 0.05557598
0.98970588 0.65079657 0.015992647
0.26360294 0.74889706 0.43860294
0.2993413 0.75363051 0.43872549
0.35833333 0.75196078 0.44886642
0.42726716 0.74857537 0.44203431
0.5060049 0.75588235 0.42457108
0.62156863 0.76372549 0.38711703
0.7629902 0.77647059 0.32833946
0.89810049 0.78731618 0.26176471
0.97205882 0.78431373 0.20343137
0.44607843 0.85245098 0.55925245
0.46813725 0.85594363 0.5618796
0.49117647 0.84852941 0.56230086
0.53578431 0.84852941 0.57015931
0.59733456 0.85245098 0.56691176
0.65637255 0.86029412 0.54838388
0.74977022 0.86901042 0.51007966
0.85766697 0.87952665 0.45342371
0.9754902 0.8995098 0.41078431
0.61568627 0.94166667 0.69803922
0.63088235 0.94859069 0.70539216
0.62659314 0.9307598 0.68676471
0.66470588 0.9372549 0.70410539
0.70171569 0.94068627 0.71102941
0.73658088 0.93903186 0.69178922
0.80196078 0.96421569 0.69252451
0.86856618 0.96421569 0.65294118
0.95196078 0.98382353 0.64607843
0.00098039216 0.037254902 0.23333333
0.035416667 0.019117647 0.2372549
0.21838235 0.017401961 0.2372549
0.39901961 0.010294118 0.23296569
0.57303922 0.0098039216 0.225
0.72892157 0.017034314 0.225
0.85098039 0.15563725 0.24779412
0.94705882 0.24252451 0.25686275
1 0.27941176 0.25392157
0.0039215686 0.11421569 0.2495098
0.012362132 0.12169118 0.24865196
0.21602328 0.10808824 0.24166667
0.40159314 0.074509804 0.23025429
0.58823529 0.042279412 0.22230392
0.73529412 0.16179534 0.25309436
0.84806985 0.21973039 0.25637255
0.94973958 0.27512255 0.25686275
0.99215686 0.30343137 0.25686275
0.0078431373 0.27156863 0.27745098
0.024080882 0.26461397 0.2734375
0.22769608 0.26862745 0.27181373
0.42193627 0.25551471 0.25625
0.58161765 0.2747549 0.2564951
0.73529412 0.2950674 0.25367647
0.85098039 0.31764706 0.24564951
0.9504902 0.34485294 0.24099265
0.99117647 0.36372549 0.24338235
0.034926471 0.41519608 0.3182598
0.13904718 0.41531863 0.32241115
0.26295956 0.41556373 0.31887255
0.40804228 0.41727941 0.29784007
0.57279412 0.41292892 0.26029412
0.71715686 0.39914216 0.22575061
0.83949142 0.40744485 0.22107843
0.9408701 0.42254902 0.21323529
0.9939951 0.44558824 0.21421569
0.1877451 0.5372549 0.36568627
0.21593137 0.54117647 0.37058824
0.28872549 0.54411765 0.36605392
0.38431373 0.54117647 0.35753676
0.55 0.55612745 0.30931373
0.69074755 0.54503676 0.26421569
0.82156863 0.52708333 0.20343137
0.93676471 0.5254902 0.18480392
0.98921569 0.52745098 0.16666667
0.24301471 0.65477941 0.41960784
0.26053922 0.65588235 0.4127451
0.32843137 0.65257353 0.42058824
0.40438113 0.64888174 0.41398591
0.51029412 0.65416667 0.38958333
0.65519301 0.67149203 0.34195772
0.80245098 0.67585784 0.28970588
0.91527267 0.66220895 0.22892157
0.99178922 0.64901961 0.17536765
0.35490196 0.75980392 0.49901961
0.36623775 0.75588235 0.49509804
0.41121324 0.75588235 0.49509804
0.46050858 0.75376838 0.49393382
0.53688725 0.75588235 0.48125
0.63811275 0.76372549 0.44745711
0.76617647 0.77647059 0.40686275
0.89166667 0.78746936 0.35983456
0.9745098 0.78455882 0.32647059
0.48762255 0.85637255 0.59607843
0.49558824 0.85245098 0.59345895
0.52576593 0.85245098 0.60327819
0.56475184 0.85245098 0.60882353
0.61421569 0.85245098 0.59810049
0.66755515 0.85845588 0.58419118
0.75686275 0.86902574 0.55318627
0.85675551 0.88114277 0.51286765
0.97647059 0.89914216 0.46568627
0.63137255 0.94411765 0.7127451
0.64313725 0.94644608 0.72071078
0.65392157 0.94411765 0.71985294
0.68088235 0.94509804 0.72732843
0.70784314 0.9372549 0.71960784
0.75098039 0.94656863 0.72389706
0.80906863 0.96102941 0.71372549
0.87193627 0.96078431 0.67303922
0.93627451 0.97254902 0.66176471
0 0.043137255 0.42254902
0.010110294 0.069730392 0.41470588
0.24656863 0.087745098 0.41507353
0.41954657 0.071568627 0.4004902
0.5620098 0.033333333 0.37034314
0.71862745 0.0048406863 0.35098039
0.85098039 0.016666667 0.34313725
0.94589461 0.11421569 0.35226716
1 0.31078431 0.39607843
0.0012867647 0.16764706 0.41470588
0.0053079044 0.16501225 0.42759651
0.27231924 0.18026961 0.42383578
0.43558517 0.17144608 0.40648744
0.5861826 0.13887868 0.38373162
0.72408088 0.10196078 0.36459099
0.85436581 0.13477328 0.35326287
0.94215686 0.2618413 0.38164063
0.99607843 0.35557598 0.40588235
0.0078431373 0.31801471 0.43762255
0.018566176 0.31377145 0.43541667
0.27242647 0.31764706 0.44154412
0.45392157 0.31678922 0.43042279
0.58596814 0.29436275 0.40637255
0.72768076 0.28835784 0.39338235
0.84705882 0.32401961 0.39509804
0.94607843 0.3792739 0.41078431
0.99215686 0.41973039 0.41617647
0.016053922 0.45147059 0.44509804
0.13504136 0.44743413 0.44332108
0.29790135 0.44068627 0.44571078
0.44454657 0.43878676 0.43220741
0.58066789 0.42748162 0.41813725
0.71472886 0.42794118 0.40741422
0.83053002 0.4432598 0.40588235
0.93438266 0.4661152 0.39834559
0.99215686 0.49215686 0.40980392
0.21053922 0.55808824 0.45906863
0.27328431 0.56504289 0.47965686
0.35447304 0.55949755 0.47469363
0.44212623 0.55248162 0.46421569
0.5627451 0.55220588 0.44178922
0.69607843 0.55931373 0.41348039
0.81960784 0.53946078 0.37941176
0.92809436 0.54387255 0.36960784
0.99264706 0.55539216 0.37230392
0.35827206 0.66623775 0.52009804
0.3783701 0.66715686 0.51954657
0.40931373 0.66922488 0.51614583
0.46954657 0.65908395 0.50925245
0.54090074 0.65539216 0.49779412
0.67704504 0.67107843 0.4622549
0.80245098 0.6705576 0.41937806
0.91776195 0.65403646 0.38088235
0.97702206 0.64810049 0.36574755
0.44595588 0.76617647 0.57647059
0.46115196 0.76372549 0.57794118
0.47371324 0.76372549 0.56789216
0.51764706 0.75611213 0.56617647
0.57843137 0.75196078 0.56378676
0.67107843 0.76372549 0.53823529
0.77613358 0.77941176 0.49996936
0.90151654 0.79192708 0.46073836
0.9685049 0.78247549 0.43823529
0.53382353 0.86421569 0.6473652
0.54773284 0.86029412 0.65343137
0.56421569 0.86029412 0.65490196
0.59502911 0.85363051 0.6536152
0.64117647 0.85260417 0.65392157
0.69668352 0.85644148 0.63950674
0.76636029 0.86813725 0.61372549
0.8687883 0.88033088 0.58295037
0.97971814 0.89773284 0.54068627
0.65588235 0.95539216 0.74607843
0.6536152 0.94381127 0.74234069
0.66911765 0.94607843 0.74571078
0.69264706 0.94417892 0.75
0.72745098 0.94191176 0.75220588
0.76862745 0.94656863 0.75539216
0.81372549 0.95686275 0.74264706
0.88204657 0.96862745 0.71813725
0.94901961 0.97009804 0.68872549
0.0078431373 0.14313725 0.57647059
0.0053921569 0.14117647 0.58627451
0.28872549 0.1754902 0.57843137
0.48088235 0.22401961 0.57205882
0.61764706 0.22941176 0.55882353
0.70784314 0.16911765 0.52401961
0.8372549 0.14117647 0.49754902
0.93872549 0.16421569 0.47254902
1 0.23333333 0.46862745
0.011764706 0.22941176 0.58235294
0.053002451 0.23140319 0.58621324
0.30477941 0.24877451 0.5841299
0.48382353 0.28988971 0.5770527
0.61691176 0.27512255 0.55477941
0.7153799 0.24411765 0.52598039
0.8411152 0.22113971 0.50257353
0.94411765 0.24044118 0.4799326
0.99607843 0.29019608 0.48357843
0.013235294 0.37156863 0.60147059
0.15079657 0.36764706 0.59957108
0.32757353 0.36666667 0.59019608
0.48872549 0.38382353 0.58848039
0.60465686 0.36960784 0.56691176
0.72395833 0.35772059 0.54136029
0.83529412 0.3307598 0.51213235
0.93223039 0.36078431 0.50857843
0.99803922 0.39754902 0.51666667
0.0014705882 0.49289216 0.59411765
0.10128676 0.48921569 0.59028799
0.31893382 0.48051471 0.58627451
0.48235294 0.48382353 0.58746936
0.60698529 0.47953431 0.57254902
0.72156863 0.45958946 0.54996936
0.82769608 0.44803922 0.52794118
0.92696078 0.48308824 0.53814338
0.98455882 0.51936275 0.55171569
0.17058824 0.5872549 0.58137255
0.25772059 0.59215686 0.58823529
0.35588235 0.5875 0.58627451
0.47156863 0.58039216 0.58333333
0.58137255 0.575 0.57843137
0.70098039 0.56862745 0.55931373
0.81789216 0.55735294 0.52941176
0.92303922 0.58627451 0.5442402
0.99019608 0.59117647 0.54313725
0.34387255 0.68284314 0.59877451
0.37784926 0.68602941 0.60735294
0.4495098 0.68480392 0.60753676
0.51859681 0.67723652 0.60343137
0.58848039 0.67242647 0.5995098
0.68357843 0.66715686 0.58431373
0.80747549 0.66384804 0.54436275
0.92068015 0.65343137 0.50735294
0.96446078 0.66176471 0.51421569
0.4872549 0.77352941 0.65098039
0.49797794 0.77156863 0.65073529
0.52843137 0.77340686 0.65159314
0.57303922 0.77322304 0.65349265
0.62598039 0.76764706 0.65
0.69117647 0.76390931 0.64074755
0.79901961 0.78186275 0.60098039
0.90122549 0.7838848 0.56862745
0.99313725 0.77892157 0.53627451
0.58578431 0.86446078 0.71470588
0.59166667 0.86421569 0.71106005
0.60447304 0.86421569 0.71115196
0.6370098 0.86210172 0.71363358
0.67254902 0.85919118 0.71078431
0.71583946 0.86029412 0.70716912
0.79436275 0.86856618 0.68302696
0.88207721 0.88403799 0.66204044
0.97818627 0.89558824 0.63137255
0.67647059 0.94901961 0.77843137
0.68848039 0.95710784 0.78651961
0.69607843 0.94754902 0.78284314
0.71102941 0.94705882 0.78039216
0.74215686 0.94215686 0.78235294
0.78382353 0.95147059 0.78946078
0.82745098 0.95931373 0.78382353
0.88553922 0.96519608 0.76078431
0.94117647 0.9745098 0.74705882
0.006372549 0.22647059 0.71960784
0.12009804 0.23676471 0.72745098
0.34362745 0.26372549 0.72352941
0.51721814 0.30343137 0.72199755
0.64852941 0.35073529 0.70392157
0.75098039 0.3495098 0.68823529
0.83039216 0.30294118 0.66164216
0.93069853 0.28970588 0.62794118
0.99460784 0.31176471 0.61127451
0.045036765 0.30098039 0.72352941
0.18452053 0.30514706 0.72986366
0.36600797 0.32679228 0.72438725
0.52481618 0.36096814 0.72107843
0.6518076 0.38832721 0.70523897
0.75195313 0.39466912 0.68431373
0.84117647 0.34990809 0.66127451
0.93082108 0.32387408 0.63431373
1 0.33419118 0.61127451
0.14154412 0.41164216 0.72990196
0.24332108 0.41420037 0.73137255
0.38219975 0.42254902 0.72441789
0.52169118 0.43535539 0.72352941
0.6504902 0.45772059 0.71519608
0.74088542 0.45620404 0.6928462
0.82647059 0.42037377 0.66519608
0.92193627 0.40992647 0.6345435
0.98823529 0.41176471 0.62267157
0.10490196 0.52702206 0.71715686
0.24381127 0.53039216 0.7210095
0.37843137 0.52291667 0.71715686
0.50317096 0.51917892 0.72205882
0.6375 0.5330576 0.71053922
0.73625153 0.53635876 0.69699755
0.82218137 0.5127451 0.67303922
0.91942402 0.50117953 0.64754902
0.99454657 0.51623775 0.65055147
0.19803922 0.61666667 0.70392157
0.29231005 0.62303922 0.70784314
0.3745098 0.61911765 0.70422794
0.49586397 0.61127451 0.70784314
0.61127451 0.60943627 0.70392157
0.7208027 0.62328431 0.69699755
0.81544118 0.59607843 0.67757353
0.91519608 0.59803922 0.66715686
0.98823529 0.60588235 0.66593137
0.33431373 0.70245098 0.69754902
0.36949295 0.70392157 0.7
0.45526961 0.70392157 0.70692402
0.53033088 0.70245098 0.71029412
0.62696078 0.69534314 0.70560662
0.70392157 0.69158241 0.70300245
0.80225184 0.68846507 0.69154412
0.9068704 0.69135263 0.6689951
0.99123775 0.69368873 0.66715686
0.47941176 0.79056373 0.7254902
0.49571078 0.7872549 0.72696078
0.54623162 0.78872549 0.73272059
0.60700061 0.78872549 0.73088235
0.66078431 0.7846201 0.72696078
0.72303922 0.77977941 0.72696078
0.79718137 0.7814951 0.71829044
0.89964767 0.7910386 0.69117647
0.99276961 0.78088235 0.66078431
0.60196078 0.87598039 0.77647059
0.61276808 0.87598039 0.76862745
0.63583027 0.87406556 0.77254902
0.67805607 0.87567402 0.77647059
0.71666667 0.86960784 0.77254902
0.75814951 0.87094822 0.77077206
0.79992341 0.87205882 0.76029412
0.89123775 0.88429075 0.73856464
0.99295343 0.8995098 0.71421569
0.72009804 0.96323529 0.83284314
0.70949755 0.95686275 0.82647059
0.72904412 0.9557598 0.83284314
0.75202206 0.95594363 0.83039216
0.76887255 0.9504902 0.82647059
0.80539216 0.94993873 0.825
0.8372549 0.94791667 0.81715686
0.89509804 0.96893382 0.81715686
0.95294118 0.97647059 0.80294118
0.2254902 0.34117647 0.83823529
0.3004902 0.35196078 0.83431373
0.43039216 0.38235294 0.83431373
0.55196078 0.39362745 0.82647059
0.67156863 0.42696078 0.82254902
0.77401961 0.46862745 0.81078431
0.85882353 0.47769608 0.79509804
0.93835784 0.44754902 0.77205882
0.99215686 0.42843137 0.75686275
0.25245098 0.3814951 0.83431373
0.31568627 0.38627451 0.83039216
0.43318015 0.40162377 0.83431373
0.55294118 0.42794118 0.82651654
0.67677696 0.46060049 0.8213848
0.78155637 0.51337316 0.81078431
0.85719975 0.49754902 0.79154412
0.93186275 0.46323529 0.76911765
0.99264706 0.45441176 0.75
0.28333333 0.46176471 0.83431373
0.35122549 0.47316176 0.83039216
0.44920343 0.47745098 0.83118873
0.56063113 0.49776348 0.82401961
0.67352941 0.52659314 0.81507353
0.77892157 0.56295956 0.81351103
0.84607843 0.53584559 0.7879902
0.9151348 0.50775123 0.76813725
0.99215686 0.50392157 0.75686275
0.37757353 0.57696078 0.82647059
0.39620098 0.57401961 0.82305453
0.45952819 0.56645221 0.82254902
0.56017157 0.57310049 0.82254902
0.67408088 0.59552696 0.81893382
0.76640625 0.61655944 0.81078431
0.84607843 0.62117034 0.79901961
0.91127451 0.58517157 0.7786152
0.99007353 0.56531863 0.76078431
0.33627451 0.65588235 0.81666667
0.35692402 0.65784314 0.8153799
0.43872549 0.65098039 0.81360294
0.54215686 0.6497549 0.81323529
0.65931373 0.65833333 0.81127451
0.75955882 0.68033088 0.81078431
0.83860294 0.67867647 0.79901961
0.91519608 0.65778186 0.78431373
0.98578431 0.64166667 0.77254902
0.39117647 0.73333333 0.81176471
0.42106311 0.7314951 0.81360294
0.4685049 0.73370098 0.80968137
0.54313725 0.72826287 0.80686275
0.65 0.72977941 0.80686275
0.74264706 0.73933824 0.80784314
0.82791054 0.73823529 0.79929534
0.90917586 0.73333333 0.78823529
0.98431373 0.72193627 0.77696078
0.49387255 0.81004902 0.81470588
0.50922181 0.81078431 0.81568627
0.55042892 0.81176471 0.81936275
0.60686275 0.80784314 0.81568627
0.66703431 0.80612745 0.81397059
0.74145221 0.80355392 0.81305147
0.81942402 0.79901961 0.80349265
0.90821078 0.79252451 0.78802083
0.98431373 0.80612745 0.79705882
0.60196078 0.88860294 0.8377451
0.61279105 0.89117647 0.8377451
0.64362745 0.89129902 0.8377451
0.68216912 0.88860294 0.83517157
0.72647059 0.88425245 0.83382353
0.78394608 0.88030025 0.84166667
0.83455882 0.87962623 0.83088235
0.8959712 0.88382353 0.82216605
0.97990196 0.8995098 0.80870098
0.70196078 0.95784314 0.86862745
0.71715686 0.96470588 0.87156863
0.72867647 0.96176471 0.87156863
0.7557598 0.96213235 0.87254902
0.78676471 0.96323529 0.8754902
0.81678922 0.93762255 0.86789216
0.86176471 0.95784314 0.87254902
0.90784314 0.96862745 0.87205882
0.97254902 0.9872549 0.86078431
0.39852941 0.4495098 0.91519608
0.44460784 0.45686275 0.91476716
0.50833333 0.47242647 0.91078431
0.59920343 0.49050245 0.90686275
0.70857843 0.52892157 0.90294118
0.80098039 0.56519608 0.89509804
0.88835784 0.62365196 0.89154412
0.95 0.60631127 0.88768382
0.98823529 0.58676471 0.87205882
0.41856618 0.4877451 0.91470588
0.45550705 0.49080116 0.91083793
0.52005208 0.49771752 0.91515012
0.61182598 0.52107843 0.91078431
0.70854779 0.55563725 0.90343137
0.80704657 0.59826134 0.89509804
0.88206189 0.63333333 0.89117647
0.95 0.61678156 0.89504442
0.99215686 0.59019608 0.87640931
0.43676471 0.54117647 0.91127451
0.47440257 0.54840686 0.91862745
0.53284314 0.55637255 0.91078431
0.62147672 0.5745098 0.90698529
0.71053922 0.60539216 0.90294118
0.80490196 0.63333333 0.89558824
0.88060662 0.66691176 0.89509804
0.94183517 0.65539216 0.89117647
0.98137255 0.62879902 0.87610294
0.46372549 0.61636029 0.90735294
0.50931373 0.62810202 0.91096814
0.54852941 0.62415748 0.90712316
0.62274816 0.63596814 0.90343137
0.7122549 0.65490196 0.90294118
0.80343137 0.67782629 0.90324755
0.87303922 0.70128676 0.89117647
0.93474265 0.69542739 0.88887102
0.97628676 0.68155637 0.87616422
0.475 0.70073529 0.90343137
0.48973652 0.70052083 0.90686275
0.54479167 0.70079657 0.90165441
0.61553309 0.70220588 0.90122549
0.70661765 0.70943627 0.90318627
0.79436275 0.72696078 0.89730392
0.87316176 0.74442402 0.89926471
0.93039216 0.73872549 0.88924632
0.98382353 0.71936275 0.87598039
0.48284314 0.77205882 0.90324755
0.48235294 0.77205882 0.90327053
0.54460784 0.76813725 0.89932598
0.60882353 0.76599265 0.89558824
0.69623162 0.76838235 0.8995098
0.78001685 0.78137255 0.89558824
0.86409314 0.79411765 0.89816176
0.92692249 0.78257506 0.88768382
0.98805147 0.76911765 0.88204657
0.54056373 0.8377451 0.8995098
0.54754902 0.8377451 0.8995098
0.57766544 0.83869485 0.8995098
0.61911765 0.83480392 0.89558824
0.68406863 0.83382353 0.89558824
0.7622549 0.83720895 0.89612439
0.84895833 0.84080882 0.89558824
0.92964154 0.84203431 0.8877451
0.98431373 0.84215686 0.88737745
0.6028799 0.90392157 0.90386029
0.60893842 0.89999234 0.8995098
0.65844056 0.90735294 0.9075674
0.69368873 0.90708487 0.90498621
0.73780637 0.90386029 0.90689338
0.79226409 0.90343137 0.91127451
0.85735294 0.90075061 0.90735294
0.92647059 0.90343137 0.90337776
0.9877451 0.90392157 0.90300245
0.70980392 0.97647059 0.92254902
0.71323529 0.97604167 0.91862745
0.72843137 0.97254902 0.91862745
0.75539216 0.97126225 0.92205882
0.79411765 0.97254902 0.92254902
0.83302696 0.96862745 0.93039216
0.89215686 0.97647059 0.93517157
0.92947304 0.96979167 0.92898284
0.96862745 0.98088235 0.92696078
0.55686275 0.58039216 0.98039216
0.56862745 0.58039216 0.97647059
0.61372549 0.59509804 0.97254902
0.68186275 0.61029412 0.97254902
0.76078431 0.63529412 0.97058824
0.82794118 0.64607843 0.9504902
0.91176471 0.70588235 0.97156863
0.96862745 0.73333333 0.96078431
0.99607843 0.72941176 0.96862745
0.56470588 0.59607843 0.97696078
0.58290441 0.5995098 0.97996324
0.63419118 0.62034314 0.98517157
0.68921569 0.62941176 0.97647059
0.76053922 0.65245098 0.97254902
0.83431373 0.67941176 0.96470588
0.90392157 0.70772059 0.96078431
0.96911765 0.74552696 0.9651348
0.99607843 0.73284314 0.96078431
0.59117647 0.64215686 0.98431373
0.59595588 0.64215686 0.97781863
0.63014706 0.64901961 0.97647059
0.69080882 0.65992647 0.97254902
0.7627451 0.68186275 0.97254902
0.83308824 0.69497549 0.95723039
0.8995098 0.71568627 0.94803922
0.96568627 0.76078431 0.96470588
0.98137255 0.75980392 0.96078431
0.60245098 0.69509804 0.98039216
0.6091299 0.69246324 0.97647059
0.64460784 0.69901961 0.97647059
0.69901961 0.70594363 0.97647059
0.76666667 0.71813725 0.97377451
0.83578431 0.73186275 0.96323529
0.9 0.74816176 0.95294118
0.95735294 0.7776348 0.96292892
0.97647059 0.78676471 0.95931373
0.61764706 0.75686275 0.98039216
0.62916667 0.76078431 0.97867647
0.65343137 0.75686275 0.97647059
0.6997549 0.75294118 0.97647059
0.76078431 0.75882353 0.97254902
0.83112745 0.77132353 0.96862745
0.89509804 0.78235294 0.95490196
0.95759804 0.8122549 0.9627451
0.9745098 0.81764706 0.96078431
0.58039216 0.81078431 0.98039216
0.5995098 0.80931373 0.97647059
0.63615196 0.81262255 0.98039216
0.68578431 0.80686275 0.97647059
0.75147059 0.80882353 0.98039216
0.8098652 0.80594363 0.94926471
0.89007353 0.825 0.96372549
0.95 0.84509804 0.96127451
0.97401961 0.85392157 0.96470588
0.60490196 0.86862745 0.97254902
0.61139706 0.87352941 0.98051471
0.62916667 0.87156863 0.97941176
0.67009804 0.86862745 0.97647059
0.7254902 0.86519608 0.97156863
0.80686275 0.86862745 0.97647059
0.87647059 0.86936275 0.96176471
0.94607843 0.8877451 0.96997549
0.97647059 0.89117647 0.95980392
0.65588235 0.93431373 0.98039216
0.6588848 0.92990196 0.97254902
0.68235294 0.93002451 0.97598039
0.71323529 0.92647059 0.97254902
0.75539216 0.93039216 0.98210784
0.80735294 0.92647059 0.97647059
0.87254902 0.93039216 0.98039216
0.93817402 0.92990196 0.97199755
0.99166667 0.95343137 0.98382353
0.71372549 0.98823529 0.98039216
0.71764706 0.98872549 0.97696078
0.72843137 0.97647059 0.94509804
0.75931373 0.98676471 0.97107843
0.79019608 0.9745098 0.96078431
0.84068627 0.99068627 0.98676471
0.87254902 0.96078431 0.98333333
0.94166667 0.98823529 0.98382353
0.96862745 0.98039216 0.94901961
