site/assets/luts/sha256-1f6bcecb26484be2cf8689111da4038ce1a1b65201028e57bc4fde15c563ca63.cube
# LUTr-Schema-Version: 2
# LUTr-ID: sha256-1f6bcecb26484be2cf8689111da4038ce1a1b65201028e57bc4fde15c563ca63
# LUTr-Title: kodak portra 160 +
# LUTr-Collection: Natron HaldCLUT
# LUTr-Collection-ID: natron-haldclut-presets
# LUTr-Source: https://github.com/NatronGitHub/clut
# LUTr-Retrieved: 2026-07-27
# LUTr-Source-File: submissions/natron-haldclut-presets/negative_new/kodak_portra_160_+.png
# LUTr-Source-Format: HALD-PNG
# LUTr-Source-SHA256: 1f6bcecb26484be2cf8689111da4038ce1a1b65201028e57bc4fde15c563ca63
# LUTr-License: CC-BY-SA-4.0
# LUTr-License-URL: https://github.com/NatronGitHub/clut#license
# LUTr-License-Basis: repo-license-file
# LUTr-Transform-Class: film-emulation
# LUTr-Tags: creative, film, film-emulation, hald-clut, natron, png, cube
# LUTr-Input-Color-Space: srgb
# LUTr-Input-Gamut: rec709
# LUTr-Input-Transfer: srgb
# LUTr-Output-Color-Space: srgb
# LUTr-Output-Gamut: rec709
# LUTr-Output-Transfer: srgb
# LUTr-Color-Space-Confidence: assumed-display-referred
# LUTr-Domain-Normalized: true
# LUTr-Shaper: none
# LUTr-Original-Grid: 64x64x64
# LUTr-Conversion-Grid: 25x25x25
# LUTr-Conversion-Interpolation: trilinear
# LUTr-Conversion-Method: HALD-PNG LUT image decoded at 16-bit and sampled to 25x25x25 3D CUBE
# LUTr-Conversion-Tool: LUTr scripts/convert-all-to-cube.mjs 2.0.0
# LUTr-Conversion-Date: 2026-07-27
# LUTr-Note: Preserve this metadata and the upstream license notices when redistributing.
TITLE "kodak portra 160 +"
LUT_3D_SIZE 5
DOMAIN_MIN 0 0 0
DOMAIN_MAX 1 1 1
0.02745098 0.054901961 0.043137255
0.21372549 0.028431373 0.038235294
0.56470588 0 0.0078431373
0.84705882 0 0.0039215686
0.99607843 0.14117647 0
0.016666667 0.22352941 0.020588235
0.20392157 0.24607843 0.018627451
0.5872549 0.25686275 0.0024509804
0.84313725 0.25686275 0.00098039216
0.98039216 0.2872549 0.0039215686
0.0039215686 0.49019608 0.0078431373
0.20392157 0.49019608 0.0024509804
0.51176471 0.53627451 0.0039215686
0.81372549 0.56078431 0.0039215686
0.98627451 0.55098039 0.0019607843
0.24901961 0.71764706 0.096078431
0.32352941 0.70514706 0.076715686
0.50539216 0.70882353 0.030392157
0.74509804 0.75196078 0.05
0.99313725 0.8 0
0.56078431 0.93333333 0.41960784
0.59019608 0.93235294 0.41568627
0.67254902 0.92352941 0.40588235
0.81470588 0.94607843 0.4372549
0.96470588 0.96470588 0.4745098
0.0019607843 0.05 0.23823529
0.22941176 0.049019608 0.25392157
0.59901961 0.0083333333 0.25294118
0.85392157 0.0039215686 0.22622549
0.99607843 0.12843137 0.2245098
0.010539216 0.26960784 0.24926471
0.24509804 0.27628676 0.24981618
0.59362745 0.2567402 0.2310049
0.85 0.25710784 0.19491422
0.99534314 0.30416667 0.17671569
0.10686275 0.5495098 0.26323529
0.26862745 0.52487745 0.25686275
0.55122549 0.5504902 0.24852941
0.82941176 0.5504902 0.14411765
0.99215686 0.55294118 0.069607843
0.30686275 0.73529412 0.29877451
0.36372549 0.72193627 0.28259804
0.52352941 0.71421569 0.26348039
0.75723039 0.75980392 0.28688725
0.97916667 0.79289216 0.25196078
0.57156863 0.93627451 0.48431373
0.59534314 0.93112745 0.48137255
0.67058824 0.92352941 0.46568627
0.81446078 0.94509804 0.49215686
0.95686275 0.95294118 0.50784314
0 0.11568627 0.59607843
0.28627451 0.13284314 0.60343137
0.63039216 0.11176471 0.60686275
0.89313725 0.26568627 0.60392157
0.98823529 0.31176471 0.57647059
0.00049019608 0.31029412 0.58627451
0.31997549 0.3307598 0.5995098
0.62671569 0.35931373 0.60416667
0.8627451 0.41139706 0.59485294
0.99264706 0.41960784 0.575
0.099019608 0.6127451 0.58137255
0.34632353 0.61078431 0.58602941
0.59411765 0.59362745 0.57647059
0.81911765 0.57892157 0.54779412
0.99411765 0.57058824 0.52156863
0.44362745 0.78529412 0.58039216
0.48835784 0.78063725 0.56862745
0.58872549 0.75539216 0.54044118
0.77696078 0.76911765 0.54509804
0.99656863 0.7872549 0.50539216
0.6 0.95098039 0.63333333
0.61666667 0.9372549 0.62156863
0.68235294 0.93529412 0.6
0.79411765 0.9127451 0.57990196
0.95882353 0.95098039 0.6254902
0.26960784 0.25392157 0.81862745
0.42352941 0.27058824 0.81862745
0.66323529 0.35 0.81862745
0.86862745 0.41593137 0.81862745
0.97941176 0.51764706 0.81470588
0.34411765 0.41078431 0.80784314
0.46096814 0.42493873 0.81078431
0.65539216 0.47156863 0.81151961
0.86176471 0.52738971 0.81599265
0.99509804 0.59313725 0.81764706
0.32745098 0.59901961 0.78186275
0.45588235 0.6185049 0.7872549
0.65098039 0.64215686 0.79509804
0.8442402 0.68394608 0.81078431
0.97745098 0.69019608 0.7995098
0.49191176 0.82647059 0.7872549
0.55882353 0.81862745 0.7872549
0.67303922 0.81041667 0.79154412
0.81329657 0.79901961 0.78039216
0.98406863 0.79142157 0.76446078
0.65392157 0.95392157 0.78823529
0.6747549 0.95612745 0.79509804
0.74509804 0.95441176 0.79509804
0.82426471 0.95588235 0.77156863
0.9745098 0.97058824 0.78823529
0.55686275 0.50588235 0.98039216
0.60588235 0.5254902 0.97647059
0.72745098 0.55882353 0.98235294
0.86470588 0.62058824 0.97647059
0.99607843 0.66666667 0.98039216
0.58039216 0.58627451 0.97745098
0.62328431 0.59117647 0.9745098
0.72401961 0.60196078 0.95980392
0.86495098 0.66568627 0.97181373
0.97745098 0.69705882 0.96960784
0.59411765 0.7 0.96862745
0.63823529 0.70686275 0.96960784
0.73333333 0.72058824 0.96862745
0.86911765 0.75147059 0.97647059
0.95882353 0.76470588 0.9627451
0.58431373 0.83039216 0.96470588
0.62352941 0.83039216 0.97328431
0.71568627 0.82401961 0.96568627
0.86397059 0.84828431 0.96862745
0.99509804 0.87941176 0.98333333
0.6627451 0.96078431 0.96862745
0.70098039 0.98823529 0.96862745
0.77647059 0.98627451 0.9745098
0.88039216 0.99411765 0.98235294
0.98823529 0.98823529 0.97647059
