site/assets/luts/sha256-cf00e8b5c48d192e3c3ecfe562e001b804b63ca397b6aa63cfe58911091e1be6.cube
# LUTr-Schema-Version: 2
# LUTr-ID: sha256-cf00e8b5c48d192e3c3ecfe562e001b804b63ca397b6aa63cfe58911091e1be6
# LUTr-Title: polaroid 690 warm --
# LUTr-Collection: Natron HaldCLUT
# LUTr-Collection-ID: natron-haldclut-presets
# LUTr-Source: https://github.com/NatronGitHub/clut
# LUTr-Retrieved: 2026-07-27
# LUTr-Source-File: submissions/natron-haldclut-presets/instant_pro/polaroid_690_warm_--.png
# LUTr-Source-Format: HALD-PNG
# LUTr-Source-SHA256: cf00e8b5c48d192e3c3ecfe562e001b804b63ca397b6aa63cfe58911091e1be6
# LUTr-License: CC-BY-SA-4.0
# LUTr-License-URL: https://github.com/NatronGitHub/clut#license
# LUTr-License-Basis: repo-license-file
# LUTr-Transform-Class: film-emulation
# LUTr-Tags: creative, film, film-emulation, hald-clut, natron, png, warm, cube
# LUTr-Input-Color-Space: srgb
# LUTr-Input-Gamut: rec709
# LUTr-Input-Transfer: srgb
# LUTr-Output-Color-Space: srgb
# LUTr-Output-Gamut: rec709
# LUTr-Output-Transfer: srgb
# LUTr-Color-Space-Confidence: assumed-display-referred
# LUTr-Domain-Normalized: true
# LUTr-Shaper: none
# LUTr-Original-Grid: 64x64x64
# LUTr-Conversion-Grid: 25x25x25
# LUTr-Conversion-Interpolation: trilinear
# LUTr-Conversion-Method: HALD-PNG LUT image decoded at 16-bit and sampled to 25x25x25 3D CUBE
# LUTr-Conversion-Tool: LUTr scripts/convert-all-to-cube.mjs 2.0.0
# LUTr-Conversion-Date: 2026-07-27
# LUTr-Note: Preserve this metadata and the upstream license notices when redistributing.
TITLE "polaroid 690 warm --"
LUT_3D_SIZE 25
DOMAIN_MIN 0 0 0
DOMAIN_MAX 1 1 1
0 0 0
0.033333333 0.006372549 0.0039215686
0.065686275 0.012745098 0.0078431373
0.1 0.019117647 0.0078431373
0.16078431 0.017647059 0.0078431373
0.22696078 0.015686275 0.011764706
0.29509804 0.0088235294 0.0078431373
0.34705882 0.0078431373 0.0039215686
0.38823529 0.0078431373 0.0039215686
0.43333333 0.0039215686 0.0014705882
0.47843137 0 0
0.52352941 0 0.0034313725
0.57058824 0 0.0039215686
0.61421569 0 0.0039215686
0.66176471 0 0.00098039216
0.70392157 0 0
0.74509804 0 0
0.78627451 0 0
0.82745098 0 0
0.86519608 0 0
0.90588235 0 0
0.94264706 0 0
0.98039216 0 0
0.99607843 0 0
0.99607843 0 0
0.014215686 0.024509804 0.006372549
0.035723039 0.021507353 0.006372549
0.065686275 0.018137255 0.0078431373
0.1 0.019117647 0.0078431373
0.1627451 0.018872549 0.0078431373
0.23039216 0.01752451 0.0078431373
0.29607843 0.0088235294 0.006004902
0.34705882 0.0053921569 0.0039215686
0.39215686 0.0078431373 0.0039215686
0.43823529 0.006372549 0.006372549
0.48872549 0.0057598039 0.0057598039
0.53382353 0 0.0060661765
0.57892157 0 0.0090686275
0.62432598 0 0.0078431373
0.67095588 0 0.0039215686
0.71029412 0 0
0.74754902 0 0
0.78872549 0 0
0.82745098 0 0
0.86862745 0 0
0.90588235 0 0
0.94558824 0 0
0.98137255 0.0018382353 0
0.99362745 0 0
0.99362745 0 0
0.029411765 0.05 0.014705882
0.044852941 0.048161765 0.010784314
0.069607843 0.043137255 0.0078431373
0.10477941 0.040196078 0.0087009804
0.16519608 0.033333333 0.0078431373
0.23039216 0.021813725 0.0073529412
0.29215686 0.0051470588 0.0031862745
0.34742647 0.0014705882 0.0033088235
0.39705882 0.0088235294 0.0078431373
0.44852941 0.012745098 0.012745098
0.5 0.010784314 0.011764706
0.54889706 0.0039215686 0.0078431373
0.59411765 0 0.0093137255
0.63958333 0 0.0077205882
0.68431373 0 0.0039215686
0.72303922 0 0
0.75392157 0 0
0.79117647 0 0
0.83137255 0 0
0.87254902 0 0
0.91421569 0.0024509804 0
0.9504902 0.0039215686 0
0.97843137 0.0039215686 0
0.99215686 0.0028186275 0
0.99215686 0 0
0.016176471 0.084803922 0.0044117647
0.03872549 0.084313725 0.0065563725
0.070465686 0.091666667 0.011397059
0.11427696 0.095098039 0.015196078
0.17034314 0.083823529 0.011519608
0.23382353 0.059313725 0.0077818627
0.29558824 0.034436275 0.00098039216
0.35557598 0.023406863 0.0017769608
0.41078431 0.02254902 0.011764706
0.4622549 0.020404412 0.021568627
0.51372549 0.014338235 0.02120098
0.56568627 0.0044117647 0.0083333333
0.61470588 0 0.006127451
0.65980392 0 0.0039215686
0.70098039 0 0.00012254902
0.73676471 0 0
0.77156863 0 0
0.80490196 0 0
0.84607843 0 0
0.88382353 0 0
0.92132353 0.0039215686 0
0.95441176 0.0039215686 0
0.97585784 0.0047794118 0
0.98823529 0.0039215686 0
0.99215686 0.0034313725 0
0.0078431373 0.1254902 0
0.034803922 0.13578431 0.006372549
0.07254902 0.14362745 0.012745098
0.12303922 0.14362745 0.019607843
0.17843137 0.14019608 0.016666667
0.23823529 0.12671569 0.0078431373
0.30147059 0.11617647 0.00098039216
0.36764706 0.10294118 0.0014705882
0.4254902 0.08627451 0.0058823529
0.47892157 0.070833333 0.012254902
0.53039216 0.042156863 0.01127451
0.58357843 0.01495098 0.0080882353
0.6372549 0 0.0029411765
0.68014706 0 0
0.71617647 0 0
0.75343137 0.0026960784 0
0.78823529 0 0
0.82230392 0 0
0.8622549 0 0
0.89632353 0.0017156863 0
0.92745098 0.0039215686 0
0.95808824 0.006127451 0
0.97794118 0.0078431373 0
0.98823529 0.0039215686 0
0.99215686 0.0039215686 0
0.0039215686 0.19117647 0
0.013112745 0.19460784 0.0021446078
0.062745098 0.19852941 0.0083333333
0.11464461 0.19852941 0.014767157
0.17205882 0.19460784 0.01372549
0.23731618 0.19417892 0.0073529412
0.30637255 0.19117647 0.0013480392
0.375 0.18235294 0
0.43627451 0.16813725 0.0039215686
0.49540441 0.1504902 0.0060661765
0.55098039 0.13590686 0.0073529412
0.60637255 0.10238971 0.0039215686
0.65539216 0.058578431 0
0.69613971 0.035723039 0
0.73382353 0.025 0
0.76979167 0.019546569 0
0.80490196 0.0058823529 0
0.83952206 0 0
0.87401961 0.00012254902 0
0.90490196 0.0074142157 0
0.93578431 0.0039215686 0
0.9627451 0.0079044118 0
0.98639706 0.0088235294 0
0.99215686 0.006372549 0
0.99607843 0.0039215686 0
0.0039215686 0.24607843 0
0.0069852941 0.24791667 0
0.042156863 0.25 0.0049019608
0.094485294 0.25 0.01127451
0.15196078 0.24901961 0.010294118
0.22046569 0.2495098 0.006495098
0.29828431 0.25294118 0.0039215686
0.37205882 0.24754902 0.0039215686
0.44705882 0.24411765 0.0039215686
0.51115196 0.23566176 0.0039215686
0.56862745 0.22720588 0.00098039216
0.62745098 0.22181373 0.00012254902
0.67303922 0.19509804 0
0.70980392 0.15539216 0
0.74803922 0.13431373 0
0.78676471 0.1245098 0
0.82156863 0.083333333 0
0.85343137 0.040073529 0
0.88431373 0.027941176 0
0.91519608 0.018382353 0
0.94411765 0.0039215686 0
0.97267157 0.0079656863 0
0.99411765 0.0088235294 0
0.99362745 0.0099264706 0
0.99607843 0.0039215686 0
0.0039215686 0.30147059 0.0024509804
0.0072916667 0.30147059 0.0015318627
0.020220588 0.30147059 0.0039215686
0.06372549 0.30147059 0.006372549
0.13308824 0.30416667 0.0051470588
0.21207108 0.31109069 0.0078431373
0.29301471 0.31470588 0.0078431373
0.36415441 0.30931373 0.0048406863
0.44019608 0.30539216 0.0039215686
0.50343137 0.29901961 0.0039215686
0.55919118 0.29080882 0
0.61550245 0.28578431 0
0.67107843 0.28063725 0
0.71832108 0.26243873 0
0.76519608 0.25245098 0
0.80490196 0.2401348 0
0.83676471 0.20196078 0
0.86280637 0.16715686 0
0.89313725 0.14509804 0
0.92401961 0.11256127 0
0.95441176 0.085294118 0
0.97941176 0.056862745 0
0.99963235 0.033088235 0
0.99607843 0.034313725 0
0.99852941 0.024509804 0
0.0039215686 0.34901961 0
0.0039215686 0.35294118 0
0.0039215686 0.35392157 0
0.03627451 0.35686275 0.0034313725
0.11764706 0.36078431 0.0039215686
0.2 0.36470588 0.0078431373
0.27941176 0.36862745 0.0078431373
0.34754902 0.35931373 0.006372549
0.42352941 0.35686275 0.0039215686
0.48529412 0.3504902 0.0014705882
0.54215686 0.34411765 0
0.60098039 0.34117647 0
0.66078431 0.3372549 0.0039215686
0.7122549 0.3372549 0
0.76372549 0.34019608 0
0.81372549 0.3372549 0
0.84313725 0.31764706 0
0.87156863 0.28676471 0
0.90098039 0.26960784 0
0.93529412 0.25588235 0
0.96470588 0.23137255 0
0.98480392 0.19852941 0
0.99509804 0.16960784 0
0.99607843 0.18186275 0
0.99607843 0.18823529 0
0.006372549 0.39803922 0.0024509804
0.0048406863 0.39957108 0
0.0035539216 0.40196078 0
0.028247549 0.40441176 0
0.10465686 0.40588235 0.0039215686
0.18155637 0.40637255 0.0039215686
0.25490196 0.40980392 0.0039215686
0.32696078 0.40925245 0.0039215686
0.4004902 0.40441176 0.0014705882
0.46317402 0.4004902 0
0.525 0.39656863 0
0.58805147 0.39656863 0.0037377451
0.64852941 0.39901961 0.0039215686
0.70196078 0.39607843 0.0039215686
0.75379902 0.38909314 0
0.80189951 0.38627451 0
0.84313725 0.38872549 0
0.87794118 0.38394608 0
0.90882353 0.37156863 0
0.93970588 0.36127451 0
0.9745098 0.34852941 0
0.98480392 0.32922794 0
0.99117647 0.30183824 0
0.99607843 0.30796569 0
1 0.30735294 0
0.010784314 0.44411765 0.0039215686
0.010784314 0.44411765 0.0039215686
0.0078431373 0.44730392 0.0022058824
0.034926471 0.44840686 0
0.10392157 0.44803922 0.0029411765
0.17193627 0.45098039 0.0039215686
0.23921569 0.45098039 0.0029411765
0.31029412 0.45490196 0.0029411765
0.37843137 0.45196078 0
0.44411765 0.45196078 0
0.50980392 0.45196078 0.0039215686
0.57512255 0.45196078 0.0039215686
0.63578431 0.45343137 0.0039215686
0.69068627 0.44362745 0.0039215686
0.74215686 0.43627451 0
0.78860294 0.4377451 0
0.83039216 0.44411765 0
0.87156863 0.44803922 0
0.90490196 0.43848039 0
0.93835784 0.42598039 0
0.96960784 0.41617647 0
0.98480392 0.41029412 0
0.99215686 0.39705882 0
0.99607843 0.38615196 0
1 0.38039216 0
0.0078431373 0.48823529 0
0.0078431373 0.48823529 0
0.0073529412 0.48958333 0
0.035723039 0.49221814 0
0.10343137 0.48872549 0
0.17113971 0.48872549 0
0.23590686 0.49129902 0
0.3004902 0.49411765 0
0.36127451 0.49656863 0
0.42726716 0.49607843 0
0.49276961 0.49607843 0.0039215686
0.55876225 0.49607843 0.0039215686
0.62058824 0.49607843 0.0039215686
0.67745098 0.48817402 0.0034313725
0.7254902 0.48431373 0
0.77285539 0.49136029 0
0.81617647 0.49215686 0
0.86127451 0.49803922 0
0.89840686 0.49546569 0
0.93229167 0.4877451 0
0.96666667 0.48137255 0
0.98480392 0.47849265 0
0.99215686 0.47205882 0
0.99607843 0.46145833 0
1 0.45539216 0
0.0078431373 0.52352941 0
0.0078431373 0.5247549 0
0.0068627451 0.5254902 0
0.044117647 0.5254902 0
0.1127451 0.52352941 0
0.17745098 0.52132353 0
0.24117647 0.52352941 0
0.30294118 0.52352941 0
0.36078431 0.52745098 0
0.41544118 0.53137255 0
0.47647059 0.53578431 0
0.54191176 0.5372549 0.0017156863
0.60490196 0.5372549 0.0029411765
0.65931373 0.53308824 0
0.70931373 0.53431373 0
0.75563725 0.5372549 0
0.80196078 0.53921569 0
0.8495098 0.54436275 0
0.89215686 0.5495098 0.00049019608
0.92965686 0.54754902 0.00024509804
0.96470588 0.54509804 0
0.98112745 0.54117647 0
0.99509804 0.53823529 0
0.99754902 0.53259804 0.00073529412
0.99803922 0.52745098 0.0039215686
0.0078431373 0.55833333 0
0.0056985294 0.55833333 0
0.0013480392 0.5622549 0
0.052022059 0.55882353 0
0.11838235 0.55465686 0
0.18376225 0.55398284 0
0.24509804 0.55355392 0
0.30539216 0.55441176 0
0.36078431 0.55833333 0
0.4122549 0.5622549 0
0.4685049 0.57009804 0
0.52604167 0.57444853 0
0.5872549 0.57843137 0
0.64417892 0.57542892 0
0.69215686 0.57843137 0
0.74019608 0.58235294 0
0.7877451 0.58235294 0.00049019608
0.83890931 0.58627451 0.0017769608
0.88186275 0.59105392 0.0039215686
0.92303922 0.59411765 0.0039215686
0.95588235 0.59411765 0.0039215686
0.97303922 0.59803922 0.0039215686
0.99068627 0.60110294 0.0039215686
0.99607843 0.59724265 0.0083333333
0.99607843 0.59068627 0.0078431373
0.0078431373 0.58921569 0
0.018014706 0.58921569 0
0.041421569 0.59313725 0
0.079901961 0.59313725 0
0.13823529 0.58872549 0
0.19362745 0.58529412 0
0.24583333 0.58529412 0
0.30294118 0.58529412 0
0.36078431 0.58921569 0
0.4122549 0.59203431 0
0.46764706 0.59803922 0
0.51997549 0.60833333 0
0.575 0.61421569 0
0.62696078 0.61960784 0
0.67843137 0.61960784 0
0.72659314 0.62352941 0.0039215686
0.77745098 0.62352941 0.0039215686
0.82647059 0.62634804 0.0039215686
0.87156863 0.62916667 0.0046568627
0.9127451 0.63137255 0.0068627451
0.94215686 0.63382353 0.0053921569
0.9627451 0.63664216 0.0039215686
0.98039216 0.64240196 0.0098039216
0.99068627 0.64705882 0.015686275
0.99607843 0.64607843 0.0078431373
0.034803922 0.62156863 0
0.060294118 0.62401961 0
0.092279412 0.62794118 0
0.12175245 0.62794118 0
0.16985294 0.62401961 0
0.22077206 0.62009804 0
0.26678922 0.6182598 0
0.31170343 0.61764706 0
0.36078431 0.62009804 0
0.41133578 0.62254902 0
0.46262255 0.62892157 0
0.51764706 0.63578431 0
0.57058824 0.64485294 0
0.62028186 0.65147059 0
0.6685049 0.65502451 0.0029411765
0.71868873 0.65931373 0.0039215686
0.76715686 0.66078431 0.0039215686
0.81617647 0.66415441 0.0078431373
0.86164216 0.66715686 0.0078431373
0.9026348 0.66715686 0.0078431373
0.93259804 0.66985294 0.0078431373
0.95637255 0.67518382 0.0080269608
0.97009804 0.68002451 0.011764706
0.98278186 0.68523284 0.009375
0.99607843 0.68823529 0.0039215686
0.090196078 0.65882353 0
0.11323529 0.65882353 0
0.13921569 0.6627451 0
0.16372549 0.65882353 0
0.19803922 0.65882353 0
0.24558824 0.65490196 0
0.29019608 0.65490196 0
0.33137255 0.65490196 0
0.37647059 0.65490196 0
0.41372549 0.65490196 0
0.45980392 0.65882353 0
0.51470588 0.66617647 0
0.56666667 0.67254902 0
0.61764706 0.67892157 0
0.66568627 0.68529412 0.0029411765
0.71323529 0.6877451 0.0039215686
0.76078431 0.69019608 0.0039215686
0.80833333 0.69656863 0.0078431373
0.85490196 0.70196078 0.0078431373
0.89656863 0.70196078 0.0078431373
0.93137255 0.70588235 0.0078431373
0.95 0.71029412 0.0083333333
0.96666667 0.71372549 0.0088235294
0.98186275 0.71911765 0.0078431373
0.99215686 0.72156863 0.0078431373
0.14411765 0.69362745 0
0.16617647 0.69607843 0
0.19007353 0.69607843 0
0.20735294 0.69393382 0
0.22892157 0.69289216 0
0.26960784 0.68970588 0
0.31078431 0.68970588 0
0.35196078 0.68970588 0
0.39068627 0.68823529 0
0.42886029 0.68823529 0
0.46911765 0.69031863 0
0.51550245 0.69705882 0
0.56666667 0.70343137 0
0.61421569 0.70931373 0
0.66213235 0.71323529 0
0.70839461 0.71715686 0.0039215686
0.75441176 0.72107843 0.0039215686
0.8028799 0.72745098 0.0048406863
0.85098039 0.73284314 0.0078431373
0.89234069 0.73676471 0.0041053922
0.92745098 0.74068627 0.0066176471
0.95 0.74460784 0.0078431373
0.96948529 0.74816176 0.0078431373
0.9848652 0.75245098 0.0078431373
0.99215686 0.75490196 0.0078431373
0.19313725 0.72941176 0
0.21556373 0.73235294 0
0.23848039 0.73333333 0.00024509804
0.25502451 0.72977941 0
0.26862745 0.72745098 0
0.29117647 0.7254902 0
0.33137255 0.7254902 0
0.36862745 0.72512255 0
0.40588235 0.7245098 0
0.4442402 0.72156863 0
0.48431373 0.7254902 0
0.52843137 0.72928922 0
0.56960784 0.73431373 0
0.61372549 0.74019608 0
0.65882353 0.74313725 0
0.70392157 0.74620098 0.0039215686
0.75294118 0.75196078 0.0039215686
0.8004902 0.75870098 0.0039215686
0.84705882 0.76470588 0.0039215686
0.88823529 0.7685049 0.0039215686
0.92352941 0.77352941 0.0039215686
0.95392157 0.77683824 0.0069852941
0.97230392 0.78235294 0.0078431373
0.98676471 0.78480392 0.0078431373
0.99215686 0.7872549 0.010784314
0.24411765 0.76666667 0
0.26158088 0.76911765 0
0.28235294 0.77058824 0
0.30245098 0.77058824 0
0.31715686 0.76838235 0
0.33578431 0.76666667 0.0039215686
0.36066176 0.76286765 0.0034313725
0.3877451 0.76145833 0
0.42254902 0.75931373 0
0.45980392 0.75882353 0
0.50196078 0.76372549 0.0034313725
0.54650735 0.76752451 0.0043504902
0.5872549 0.77083333 0.0034313725
0.62794118 0.7745098 0
0.66311275 0.775 0
0.70753676 0.77892157 0.0039215686
0.75294118 0.78627451 0.0039215686
0.79803922 0.79283088 0.0039215686
0.84411765 0.79852941 0.0039215686
0.88823529 0.80238971 0.0039215686
0.92352941 0.80637255 0.0039215686
0.95441176 0.81029412 0.0039215686
0.97806373 0.81421569 0.0069852941
0.99185049 0.81813725 0.0078431373
0.99215686 0.81813725 0.0078431373
0.30588235 0.80784314 0.0039215686
0.31740196 0.80784314 0.0019607843
0.33333333 0.80980392 0.0019607843
0.3504902 0.80980392 0.0019607843
0.36764706 0.80980392 0.0039215686
0.3872549 0.80784314 0.0044117647
0.40637255 0.80490196 0.006372549
0.42647059 0.8 0.0039215686
0.44705882 0.79607843 0
0.47843137 0.79607843 0.0012254902
0.52401961 0.79852941 0.0039215686
0.57034314 0.80367647 0.0039215686
0.61372549 0.80686275 0.0039215686
0.65245098 0.80980392 0.0036764706
0.68333333 0.81127451 0.00049019608
0.71960784 0.81446078 0.0026960784
0.76078431 0.81960784 0.0039215686
0.80196078 0.8247549 0.0039215686
0.84558824 0.83039216 0.0039215686
0.88823529 0.83676471 0.0022058824
0.92352941 0.83921569 0.0019607843
0.95490196 0.84166667 0.0019607843
0.98431373 0.84803922 0.0034313725
0.99607843 0.84901961 0.0039215686
0.99607843 0.84901961 0.0039215686
0.36372549 0.84901961 0.0039215686
0.37352941 0.84901961 0.0039215686
0.3877451 0.84901961 0.00085784314
0.40104167 0.84901961 0.00042892157
0.41764706 0.84901961 0.0039215686
0.43480392 0.84901961 0.0083333333
0.45490196 0.84595588 0.0079656863
0.471875 0.84117647 0.0039215686
0.49215686 0.8372549 0.0039215686
0.51911765 0.83480392 0.0044117647
0.5557598 0.8372549 0.0039215686
0.59993873 0.8411152 0.0039215686
0.64460784 0.84509804 0.0039215686
0.67745098 0.84852941 0.0039215686
0.70833333 0.84889706 0.0039215686
0.74264706 0.85030637 0.0039215686
0.77745098 0.85637255 0
0.8122549 0.86060049 0.0034313725
0.85147059 0.86433824 0.0025735294
0.89215686 0.86856618 0
0.92352941 0.87205882 0
0.95790441 0.87598039 0
0.99276961 0.87941176 0
0.99607843 0.87990196 0
0.99607843 0.87990196 0
0.41862745 0.89019608 0.0039215686
0.42892157 0.89019608 0.0014705882
0.43921569 0.89019608 0
0.4495098 0.88762255 0
0.46421569 0.89019608 0.0039215686
0.48235294 0.89019608 0.011397059
0.50294118 0.88627451 0.0088235294
0.51960784 0.88235294 0.00098039216
0.54019608 0.87843137 0.0039215686
0.56531863 0.87843137 0.0078431373
0.59534314 0.87843137 0.0078431373
0.63688725 0.88186275 0.0044117647
0.6754902 0.88627451 0.0039215686
0.70796569 0.88627451 0.0042892157
0.73529412 0.88627451 0.0078431373
0.76715686 0.88835784 0.0057598039
0.79803922 0.89117647 0
0.83284314 0.89509804 0
0.86764706 0.89901961 0
0.8995098 0.90294118 0
0.92696078 0.90294118 0
0.95833333 0.90686275 0
0.98333333 0.90392157 0
0.99607843 0.91078431 0
0.99607843 0.91470588 0
0.47696078 0.92745098 0.018627451
0.48578431 0.93290441 0.019546569
0.49178922 0.9310049 0.014338235
0.49577206 0.92598039 0.013909314
0.51176471 0.92990196 0.0056372549
0.52990196 0.93118873 0.013602941
0.54938725 0.92745098 0.0091911765
0.56715686 0.92745098 0.0029411765
0.5877451 0.92352941 0.0068627451
0.61170343 0.92352941 0.013235294
0.63737745 0.92107843 0.010784314
0.67058824 0.92352941 0.0044117647
0.70686275 0.92671569 0.0039215686
0.73511029 0.92334559 0.0078431373
0.76115196 0.92205882 0.010784314
0.78927696 0.92205882 0.0024509804
0.81862745 0.9245098 0
0.85196078 0.92843137 0
0.88284314 0.93419118 0
0.91372549 0.93903186 0
0.93872549 0.93921569 0
0.96127451 0.93363971 0
0.97732843 0.92659314 0
0.99215686 0.93529412 0
0.99607843 0.94705882 0
0.53333333 0.96078431 0.13333333
0.54362745 0.96470588 0.12941176
0.54411765 0.95980392 0.11470588
0.54068627 0.95294118 0.098039216
0.55882353 0.95882353 0.1
0.58333333 0.96764706 0.11568627
0.58431373 0.95784314 0.091176471
0.60931373 0.95931373 0.081862745
0.63137255 0.95686275 0.074509804
0.64803922 0.95294118 0.056372549
0.67352941 0.95686275 0.029411765
0.70441176 0.96421569 0.0049019608
0.72745098 0.95490196 0.0078431373
0.75392157 0.94901961 0.0078431373
0.77843137 0.94607843 0.0078431373
0.80441176 0.94509804 0.0024509804
0.83529412 0.94901961 0
0.86617647 0.95539216 0
0.89705882 0.96176471 0
0.92794118 0.97205882 0
0.94705882 0.97058824 0
0.96127451 0.96029412 0
0.9754902 0.95 0
0.98578431 0.95588235 0
0.99607843 0.97254902 0
0.014215686 0.010294118 0.016666667
0.037254902 0.011213235 0.020588235
0.069607843 0.015686275 0.019607843
0.1026348 0.019607843 0.015379902
0.15637255 0.016421569 0.017401961
0.21617647 0.013051471 0.022365196
0.27941176 0.011764706 0.020955882
0.33186275 0.011764706 0.015747549
0.37941176 0.0078431373 0.010294118
0.42941176 0.0048406863 0.006372549
0.47843137 0 0.0006127451
0.52352941 0 0.0058823529
0.57058824 0 0.0083333333
0.61764706 0 0.0060661765
0.6627451 0 0.00098039216
0.70392157 0 0
0.74509804 0 0
0.78627451 0 0
0.82745098 0 0
0.86519608 0 0
0.90392157 0 0.0024509804
0.94050245 0 0.006372549
0.975 0 0.0045343137
0.990625 0 0.0024509804
0.99215686 0 0.0024509804
0.026654412 0.021507353 0.019056373
0.045404412 0.021507353 0.020013787
0.071829044 0.02020527 0.018918505
0.10129442 0.019607843 0.015265012
0.15833333 0.018137255 0.016942402
0.22101716 0.020166973 0.019056373
0.28209252 0.014583333 0.017677696
0.33396906 0.011420037 0.013871017
0.38431373 0.010294118 0.01182598
0.43674173 0.0084175858 0.0091681985
0.48895527 0.0035539216 0.0088235294
0.53370864 0 0.010110294
0.57619485 0 0.015900735
0.62439491 0 0.012323836
0.67205882 0 0.0043045343
0.7127451 0 0
0.74846814 0 0
0.78872549 0 0
0.82745098 0 0
0.86600031 0 0
0.90542279 0 0.001685049
0.94276195 0 0.0024509804
0.975 0 0.0024509804
0.98633578 0 0.00091911765
0.98878676 0 0.00091911765
0.025490196 0.047058824 0.021078431
0.045787377 0.047058824 0.019286152
0.074264706 0.045588235 0.016666667
0.10735294 0.044117647 0.016528799
0.16550245 0.037928922 0.013664216
0.225 0.031326593 0.015778186
0.28639706 0.017892157 0.013020833
0.34051777 0.012745098 0.012745098
0.39460784 0.014583333 0.014215686
0.44852941 0.013465074 0.019347426
0.5 0.0055759804 0.018137255
0.54813113 0.0029564951 0.014215686
0.59234069 0 0.016237745
0.63720895 0 0.013189338
0.68406863 0 0.0045343137
0.72303922 0 0.00038296569
0.75392157 0 0
0.79117647 0 0
0.83137255 0 0
0.86960784 0 0
0.90925245 0.0015318627 0
0.94656863 0.0039215686 0
0.97205882 0.0039215686 0
0.98333333 0.00036764706 0
0.98578431 0 0
0.028676471 0.088541667 0.018137255
0.044845282 0.090686275 0.0167356
0.075612745 0.092509191 0.016988358
0.11715686 0.095588235 0.019263174
0.1745098 0.08716299 0.014859069
0.23586091 0.070182292 0.013763787
0.29558824 0.050612745 0.0096354167
0.35244332 0.035232843 0.011473652
0.40735294 0.029901961 0.020281863
0.45882353 0.021070772 0.029526654
0.51372549 0.010799632 0.025
0.56535692 0.0043504902 0.012071078
0.61348039 0 0.0083333333
0.65739124 0 0.0079503676
0.70098039 0 0.0030330882
0.73542433 0 0
0.76813725 0 0
0.80490196 0 0
0.84257047 0 0
0.88006281 0.0037377451 0
0.91617647 0.0039215686 0
0.94991575 0.0039215686 0
0.97205882 0.0039215686 0
0.98186275 0.0039215686 0
0.98578431 0.0034313725 0
0.012254902 0.1370098 0.015441176
0.026960784 0.14166667 0.0083333333
0.072242647 0.14313725 0.016115196
0.12515319 0.14313725 0.023529412
0.18259804 0.14019608 0.018627451
0.24338235 0.13602941 0.0075980392
0.30569853 0.12408088 0.0024509804
0.36541054 0.10977328 0.0039215686
0.42156863 0.091421569 0.012254902
0.47818627 0.066115196 0.02254902
0.53039216 0.037316176 0.017034314
0.58553922 0.012683824 0.0080882353
0.63529412 0.0006127451 0.0039215686
0.67711397 0.00064338235 0.0029411765
0.71617647 0 0
0.75098039 0 0
0.78627451 0 0
0.82107843 0 0
0.85710784 0.0017156863 0
0.89197304 0.0040747549 0
0.92487745 0.0039215686 0
0.95465686 0.0039215686 0
0.97285539 0.0046568627 0
0.9830576 0.0039215686 0
0.9870098 0.0039215686 0
0 0.19117647 0.00030637255
0.01183364 0.1919807 0.0015318627
0.063051471 0.19505208 0.010968137
0.11770833 0.19525888 0.019224877
0.17579657 0.19491422 0.016758578
0.239928 0.19460784 0.0073529412
0.30721507 0.19332108 0.0004442402
0.37756587 0.18235294 0.00091911765
0.43627451 0.16862745 0.0039215686
0.49540441 0.15196078 0.0086933211
0.5489277 0.11911765 0.0078431373
0.60257353 0.08839614 0.0039215686
0.65220588 0.054810049 0
0.69422488 0.024854473 0
0.73221507 0.013189338 0
0.76746324 0.014698223 0
0.80226716 0.0050857843 0
0.83647365 0.0029411765 0
0.870144 0.005346201 0
0.90229013 0.0065793505 0
0.93348652 0.0035845588 0
0.9596201 0.0041436887 0
0.97905944 0.0078431373 0
0.98689491 0.0075520833 0
0.99001225 0.0042279412 0
0.0029411765 0.24791667 0.0035539216
0.0081341912 0.24722733 0.0024509804
0.048069853 0.24972426 0.0068933824
0.10096507 0.25 0.012561275
0.16029412 0.25183824 0.011519608
0.22647059 0.2519761 0.0077205882
0.30128676 0.25477941 0.0043811275
0.37205882 0.24901961 0.0036917892
0.44705882 0.24767157 0.00098039216
0.5118413 0.23768382 0.0039215686
0.56314338 0.22288603 0.0045343137
0.62045037 0.20782782 0.0039215686
