site/assets/luts/sha256-4fd68ff1fcbc9fe8c5fa6ee3dd018887729c39181ea289006c7a7ae45dfc2df3.cube
# LUTr-Schema-Version: 2
# LUTr-ID: sha256-4fd68ff1fcbc9fe8c5fa6ee3dd018887729c39181ea289006c7a7ae45dfc2df3
# LUTr-Title: fuji superia 800 ++
# LUTr-Collection: Natron HaldCLUT
# LUTr-Collection-ID: natron-haldclut-presets
# LUTr-Source: https://github.com/NatronGitHub/clut
# LUTr-Retrieved: 2026-07-27
# LUTr-Source-File: submissions/natron-haldclut-presets/negative_old/fuji_superia_800_++.png
# LUTr-Source-Format: HALD-PNG
# LUTr-Source-SHA256: 4fd68ff1fcbc9fe8c5fa6ee3dd018887729c39181ea289006c7a7ae45dfc2df3
# LUTr-License: CC-BY-SA-4.0
# LUTr-License-URL: https://github.com/NatronGitHub/clut#license
# LUTr-License-Basis: repo-license-file
# LUTr-Transform-Class: film-emulation
# LUTr-Tags: creative, film, film-emulation, hald-clut, natron, png, cube
# LUTr-Input-Color-Space: srgb
# LUTr-Input-Gamut: rec709
# LUTr-Input-Transfer: srgb
# LUTr-Output-Color-Space: srgb
# LUTr-Output-Gamut: rec709
# LUTr-Output-Transfer: srgb
# LUTr-Color-Space-Confidence: assumed-display-referred
# LUTr-Domain-Normalized: true
# LUTr-Shaper: none
# LUTr-Original-Grid: 64x64x64
# LUTr-Conversion-Grid: 25x25x25
# LUTr-Conversion-Interpolation: trilinear
# LUTr-Conversion-Method: HALD-PNG LUT image decoded at 16-bit and sampled to 25x25x25 3D CUBE
# LUTr-Conversion-Tool: LUTr scripts/convert-all-to-cube.mjs 2.0.0
# LUTr-Conversion-Date: 2026-07-27
# LUTr-Note: Preserve this metadata and the upstream license notices when redistributing.
TITLE "fuji superia 800 ++"
LUT_3D_SIZE 5
DOMAIN_MIN 0 0 0
DOMAIN_MAX 1 1 1
0.074509804 0.18823529 0.19215686
0.17745098 0.18431373 0.18431373
0.45882353 0.18823529 0.18431373
0.79215686 0.20490196 0.15588235
0.98431373 0.25490196 0.1254902
0.0098039216 0.29117647 0.19607843
0.19436275 0.3002451 0.18137255
0.5377451 0.31470588 0.17647059
0.81397059 0.31470588 0.14828431
0.98921569 0.36176471 0.11372549
0.0039215686 0.61960784 0.24901961
0.13382353 0.64705882 0.25245098
0.61176471 0.63921569 0.1627451
0.84803922 0.57254902 0.14215686
0.99411765 0.55686275 0.17058824
0.38627451 0.82254902 0.48333333
0.48627451 0.82254902 0.48627451
0.63627451 0.82205882 0.4622549
0.84289216 0.8254902 0.38431373
0.99215686 0.80784314 0.37254902
0.76470588 0.9372549 0.73333333
0.76862745 0.93333333 0.72254902
0.80196078 0.93333333 0.72352941
0.86470588 0.93333333 0.69411765
0.95686275 0.94117647 0.69411765
0.074509804 0.18039216 0.24607843
0.17745098 0.18431373 0.26004902
0.47892157 0.14754902 0.25637255
0.79044118 0.094852941 0.22941176
0.99901961 0.2127451 0.20196078
0.03627451 0.27720588 0.28333333
0.20465686 0.29019608 0.29632353
0.54546569 0.27573529 0.26617647
0.81170343 0.28651961 0.24669118
0.99583333 0.32647059 0.2120098
0.043627451 0.61470588 0.38529412
0.28676471 0.63137255 0.39901961
0.60147059 0.62279412 0.33063725
0.83088235 0.5627451 0.29460784
0.98431373 0.56078431 0.29509804
0.50416667 0.82254902 0.56176471
0.55514706 0.82181373 0.5627451
0.67254902 0.82291667 0.55294118
0.85030637 0.81862745 0.49509804
0.98848039 0.80784314 0.46764706
0.78627451 0.94019608 0.75882353
0.77843137 0.93235294 0.74387255
0.82156863 0.9372549 0.75588235
0.87230392 0.9372549 0.73627451
0.94509804 0.94117647 0.72058824
0.068627451 0.17647059 0.46666667
0.23480392 0.17696078 0.48186275
0.48431373 0.1745098 0.48627451
0.79019608 0.16029412 0.49019608
0.98627451 0.062745098 0.4372549
0.0049019608 0.25686275 0.51176471
0.22830882 0.28333333 0.52058824
0.53455882 0.29362745 0.51911765
0.80735294 0.33480392 0.51629902
0.99607843 0.21764706 0.43431373
0.091176471 0.57352941 0.56764706
0.34509804 0.57671569 0.57990196
0.5877451 0.56911765 0.56176471
0.82181373 0.53897059 0.52009804
0.96568627 0.54411765 0.48823529
0.62156863 0.81078431 0.69411765
0.65196078 0.81078431 0.68823529
0.73112745 0.80980392 0.67941176
0.84644608 0.81115196 0.64558824
0.98235294 0.80147059 0.61764706
0.81176471 0.93529412 0.80196078
0.81960784 0.93333333 0.80196078
0.84803922 0.93823529 0.80490196
0.88578431 0.93578431 0.79460784
0.94313725 0.93137255 0.76078431
0.21176471 0.18039216 0.71372549
0.34117647 0.15784314 0.7127451
0.56029412 0.16029412 0.70735294
0.8 0.20686275 0.70882353
0.97647059 0.39117647 0.72058824
0.15808824 0.25294118 0.72058824
0.34044118 0.26685049 0.72843137
0.56960784 0.28480392 0.71666667
0.80055147 0.34276961 0.71801471
0.97279412 0.49142157 0.73161765
0.019607843 0.475 0.7245098
0.16776961 0.47071078 0.72352941
0.55931373 0.50857843 0.7245098
0.8 0.57708333 0.72843137
0.96813725 0.65833333 0.75343137
0.55882353 0.78333333 0.77843137
0.60612745 0.78333333 0.77886029
0.70980392 0.77598039 0.77732843
0.82383578 0.77512255 0.76354167
0.9745098 0.76764706 0.7372549
0.83137255 0.9254902 0.85588235
0.84705882 0.92941176 0.85980392
0.87401961 0.93235294 0.8627451
0.89926471 0.91862745 0.84534314
0.95686275 0.91372549 0.8254902
0.4745098 0.23921569 0.90196078
0.50588235 0.22352941 0.86764706
0.69607843 0.28823529 0.89215686
0.87647059 0.40196078 0.89803922
0.99607843 0.53333333 0.90196078
0.47745098 0.32647059 0.90588235
0.53946078 0.33039216 0.90220588
0.70392157 0.37794118 0.90392157
0.87254902 0.47916667 0.89877451
0.98431373 0.53823529 0.86470588
0.39803922 0.49803922 0.90588235
0.4877451 0.50784314 0.90441176
0.66862745 0.54313725 0.89411765
0.85686275 0.6127451 0.88970588
0.95294118 0.65490196 0.85882353
0.44019608 0.73823529 0.88823529
0.48504902 0.72254902 0.89509804
0.60490196 0.72254902 0.90294118
0.8254902 0.75588235 0.89730392
0.94509804 0.79803922 0.89509804
0.8 0.93333333 0.91764706
0.82745098 0.92647059 0.89803922
0.84313725 0.92941176 0.91764706
0.90294118 0.9372549 0.91764706
0.96078431 0.94509804 0.9254902
