site/assets/luts/sha256-402b47e6c7f01575867f1e7ddd16500d97d450d386983c30d620a9e705dd948d.cube
# LUTr-Schema-Version: 2
# LUTr-ID: sha256-402b47e6c7f01575867f1e7ddd16500d97d450d386983c30d620a9e705dd948d
# LUTr-Title: fuji ilford hp5 -
# LUTr-Collection: Natron HaldCLUT
# LUTr-Collection-ID: natron-haldclut-presets
# LUTr-Source: https://github.com/NatronGitHub/clut
# LUTr-Retrieved: 2026-07-27
# LUTr-Source-File: submissions/natron-haldclut-presets/negative_new/fuji_ilford_hp5_-.png
# LUTr-Source-Format: HALD-PNG
# LUTr-Source-SHA256: 402b47e6c7f01575867f1e7ddd16500d97d450d386983c30d620a9e705dd948d
# LUTr-License: CC-BY-SA-4.0
# LUTr-License-URL: https://github.com/NatronGitHub/clut#license
# LUTr-License-Basis: repo-license-file
# LUTr-Transform-Class: film-emulation
# LUTr-Tags: creative, film, film-emulation, hald-clut, natron, png, cube
# LUTr-Input-Color-Space: srgb
# LUTr-Input-Gamut: rec709
# LUTr-Input-Transfer: srgb
# LUTr-Output-Color-Space: srgb
# LUTr-Output-Gamut: rec709
# LUTr-Output-Transfer: srgb
# LUTr-Color-Space-Confidence: assumed-display-referred
# LUTr-Domain-Normalized: true
# LUTr-Shaper: none
# LUTr-Original-Grid: 64x64x64
# LUTr-Conversion-Grid: 25x25x25
# LUTr-Conversion-Interpolation: trilinear
# LUTr-Conversion-Method: HALD-PNG LUT image decoded at 16-bit and sampled to 25x25x25 3D CUBE
# LUTr-Conversion-Tool: LUTr scripts/convert-all-to-cube.mjs 2.0.0
# LUTr-Conversion-Date: 2026-07-27
# LUTr-Note: Preserve this metadata and the upstream license notices when redistributing.
TITLE "fuji ilford hp5 -"
LUT_3D_SIZE 5
DOMAIN_MIN 0 0 0
DOMAIN_MAX 1 1 1
0.031372549 0.031372549 0.031372549
0.073529412 0.073529412 0.073529412
0.24117647 0.24117647 0.24117647
0.39411765 0.39411765 0.39411765
0.57254902 0.57254902 0.57254902
0.14215686 0.14215686 0.14215686
0.20686275 0.20686275 0.20686275
0.34852941 0.34852941 0.34852941
0.46666667 0.46666667 0.46666667
0.6372549 0.6372549 0.6372549
0.36666667 0.36666667 0.36666667
0.38921569 0.38921569 0.38921569
0.48235294 0.48235294 0.48235294
0.60294118 0.60294118 0.60294118
0.75294118 0.75294118 0.75294118
0.58823529 0.58823529 0.58823529
0.59215686 0.59215686 0.59215686
0.63333333 0.63333333 0.63333333
0.73333333 0.73333333 0.73333333
0.85294118 0.85294118 0.85294118
0.85098039 0.85098039 0.85098039
0.85980392 0.85980392 0.85980392
0.8627451 0.8627451 0.8627451
0.90980392 0.90980392 0.90980392
0.94117647 0.94117647 0.94117647
0.13823529 0.13823529 0.13823529
0.15857843 0.15857843 0.15857843
0.29705882 0.29705882 0.29705882
0.41593137 0.41593137 0.41593137
0.55980392 0.55980392 0.55980392
0.22328431 0.22328431 0.22328431
0.26660539 0.26660539 0.26660539
0.36764706 0.36764706 0.36764706
0.4745098 0.4745098 0.4745098
0.5745098 0.5745098 0.5745098
0.4245098 0.4245098 0.4245098
0.43235294 0.43235294 0.43235294
0.50147059 0.50147059 0.50147059
0.62071078 0.62071078 0.62071078
0.75343137 0.75343137 0.75343137
0.61078431 0.61078431 0.61078431
0.61917892 0.61917892 0.61917892
0.64718137 0.64718137 0.64718137
0.73333333 0.73333333 0.73333333
0.86078431 0.86078431 0.86078431
0.85392157 0.85392157 0.85392157
0.84705882 0.84705882 0.84705882
0.87843137 0.87843137 0.87843137
0.91470588 0.91470588 0.91470588
0.9245098 0.9245098 0.9245098
0.32156863 0.32156863 0.32156863
0.35 0.35 0.35
0.40784314 0.40784314 0.40784314
0.50588235 0.50588235 0.50588235
0.62941176 0.62941176 0.62941176
0.35784314 0.35784314 0.35784314
0.41139706 0.41139706 0.41139706
0.45808824 0.45808824 0.45808824
0.55 0.55 0.55
0.6504902 0.6504902 0.6504902
0.48235294 0.48235294 0.48235294
0.50465686 0.50465686 0.50465686
0.56078431 0.56078431 0.56078431
0.63504902 0.63504902 0.63504902
0.75588235 0.75588235 0.75588235
0.67401961 0.67401961 0.67401961
0.67904412 0.67904412 0.67904412
0.70147059 0.70147059 0.70147059
0.7745098 0.7745098 0.7745098
0.88137255 0.88137255 0.88137255
0.88235294 0.88235294 0.88235294
0.89411765 0.89411765 0.89411765
0.88529412 0.88529412 0.88529412
0.91764706 0.91764706 0.91764706
0.95294118 0.95294118 0.95294118
0.54117647 0.54117647 0.54117647
0.54901961 0.54901961 0.54901961
0.60882353 0.60882353 0.60882353
0.6502451 0.6502451 0.6502451
0.73529412 0.73529412 0.73529412
0.56691176 0.56691176 0.56691176
0.58308824 0.58308824 0.58308824
0.62745098 0.62745098 0.62745098
0.6692402 0.6692402 0.6692402
0.75098039 0.75098039 0.75098039
0.59705882 0.59705882 0.59705882
0.62990196 0.62990196 0.62990196
0.67745098 0.67745098 0.67745098
0.73137255 0.73137255 0.73137255
0.8127451 0.8127451 0.8127451
0.71838235 0.71838235 0.71838235
0.7245098 0.7245098 0.7245098
0.77095588 0.77095588 0.77095588
0.81623775 0.81623775 0.81623775
0.88897059 0.88897059 0.88897059
0.90980392 0.90980392 0.90980392
0.91960784 0.91960784 0.91960784
0.92401961 0.92401961 0.92401961
0.95 0.95 0.95
0.97254902 0.97254902 0.97254902
0.80392157 0.80392157 0.80392157
0.80784314 0.80784314 0.80784314
0.83529412 0.83529412 0.83529412
0.86372549 0.86372549 0.86372549
0.90588235 0.90588235 0.90588235
0.82647059 0.82647059 0.82647059
0.80588235 0.80588235 0.80588235
0.84068627 0.84068627 0.84068627
0.87941176 0.87941176 0.87941176
0.89803922 0.89803922 0.89803922
0.83137255 0.83137255 0.83137255
0.86176471 0.86176471 0.86176471
0.86568627 0.86568627 0.86568627
0.89705882 0.89705882 0.89705882
0.90784314 0.90784314 0.90784314
0.87647059 0.87647059 0.87647059
0.8754902 0.8754902 0.8754902
0.88627451 0.88627451 0.88627451
0.92352941 0.92352941 0.92352941
0.95686275 0.95686275 0.95686275
0.9372549 0.9372549 0.9372549
0.91862745 0.91862745 0.91862745
0.95098039 0.95098039 0.95098039
0.93823529 0.93823529 0.93823529
0.97254902 0.97254902 0.97254902
