site/assets/luts/sha256-cd0143760e87245efb546d40d63a9d471d0b42e8fd520544163762d9015c2672.cube
# LUTr-Schema-Version: 2
# LUTr-ID: sha256-cd0143760e87245efb546d40d63a9d471d0b42e8fd520544163762d9015c2672
# LUTr-Title: kodak elite chrome 400
# LUTr-Collection: Natron HaldCLUT
# LUTr-Collection-ID: natron-haldclut-presets
# LUTr-Source: https://github.com/NatronGitHub/clut
# LUTr-Retrieved: 2026-07-27
# LUTr-Source-File: submissions/natron-haldclut-presets/colorslide/kodak_elite_chrome_400.png
# LUTr-Source-Format: HALD-PNG
# LUTr-Source-SHA256: cd0143760e87245efb546d40d63a9d471d0b42e8fd520544163762d9015c2672
# LUTr-License: CC-BY-SA-4.0
# LUTr-License-URL: https://github.com/NatronGitHub/clut#license
# LUTr-License-Basis: repo-license-file
# LUTr-Transform-Class: film-emulation
# LUTr-Tags: creative, film, film-emulation, hald-clut, natron, png, cube
# LUTr-Input-Color-Space: srgb
# LUTr-Input-Gamut: rec709
# LUTr-Input-Transfer: srgb
# LUTr-Output-Color-Space: srgb
# LUTr-Output-Gamut: rec709
# LUTr-Output-Transfer: srgb
# LUTr-Color-Space-Confidence: assumed-display-referred
# LUTr-Domain-Normalized: true
# LUTr-Shaper: none
# LUTr-Original-Grid: 64x64x64
# LUTr-Conversion-Grid: 25x25x25
# LUTr-Conversion-Interpolation: trilinear
# LUTr-Conversion-Method: HALD-PNG LUT image decoded at 16-bit and sampled to 25x25x25 3D CUBE
# LUTr-Conversion-Tool: LUTr scripts/convert-all-to-cube.mjs 2.0.0
# LUTr-Conversion-Date: 2026-07-27
# LUTr-Note: Preserve this metadata and the upstream license notices when redistributing.
TITLE "kodak elite chrome 400"
LUT_3D_SIZE 9
DOMAIN_MIN 0 0 0
DOMAIN_MAX 1 1 1
0 0 0
0.074019608 0.020588235 0.024509804
0.14117647 0.0068627451 0.0068627451
0.25931373 0.014215686 0.019607843
0.40588235 0.023529412 0.0058823529
0.54068627 0.031372549 0
0.67058824 0.047058824 0
0.78627451 0.063235294 0
0.89803922 0.078431373 0
0.084803922 0.092647059 0.047058824
0.10091912 0.081372549 0.024080882
0.18835784 0.092647059 0.033823529
0.29558824 0.086580882 0.031372549
0.42745098 0.07745098 0.0039215686
0.55490196 0.060294118 0.0039215686
0.6745098 0.048039216 0
0.79405637 0.066666667 0
0.90588235 0.078431373 0
0.11372549 0.20392157 0.081372549
0.14620098 0.20392157 0.091176471
0.22352941 0.18921569 0.061764706
0.32647059 0.18333333 0.045098039
0.45539216 0.17352941 0.028431373
0.58529412 0.15 0.015686275
0.7 0.11985294 0.0075980392
0.8057598 0.081372549 0
0.89215686 0.08627451 0
0.15392157 0.34558824 0.12254902
0.19607843 0.35196078 0.14577206
0.2689951 0.33382353 0.11568627
0.38033088 0.33627451 0.09810049
0.4997549 0.32254902 0.078186275
0.62346814 0.28382353 0.042647059
0.73088235 0.24693627 0.018137255
0.83529412 0.18333333 0.015196078
0.93823529 0.090196078 0
0.21764706 0.50588235 0.1627451
0.27941176 0.50416667 0.1877451
0.35245098 0.5 0.15980392
0.44656863 0.50906863 0.1497549
0.54803922 0.49803922 0.12941176
0.65416667 0.48161765 0.08995098
0.76176471 0.45392157 0.059803922
0.87230392 0.40416667 0.019117647
0.97254902 0.28039216 0
0.36813725 0.63333333 0.25392157
0.38155637 0.63333333 0.25
0.43664216 0.6372549 0.23786765
0.51464461 0.6372549 0.21127451
0.60098039 0.63137255 0.17745098
0.69215686 0.62156863 0.15196078
0.79080882 0.6254902 0.10306373
0.89705882 0.59509804 0.045098039
0.98578431 0.54901961 0.0039215686
0.48137255 0.74901961 0.35
0.48529412 0.75196078 0.34901961
0.51960784 0.75686275 0.34019608
0.58333333 0.76078431 0.31482843
0.65294118 0.75735294 0.29215686
0.73480392 0.75968137 0.25159314
0.82745098 0.76004902 0.16838235
0.92401961 0.75343137 0.095098039
0.98137255 0.73039216 0.035294118
0.57794118 0.86421569 0.45245098
0.58186275 0.86770833 0.44852941
0.61127451 0.87205882 0.44080882
0.65343137 0.87598039 0.42941176
0.72254902 0.87647059 0.41568627
0.78400735 0.87990196 0.39313725
0.86531863 0.87647059 0.32892157
0.94221814 0.8838848 0.18088235
1 0.88823529 0.021568627
0.67843137 0.96470588 0.56078431
0.68970588 0.97205882 0.55686275
0.70980392 0.97352941 0.55
0.73186275 0.96715686 0.53088235
0.79019608 0.99019608 0.53137255
0.83823529 0.98186275 0.51372549
0.90784314 0.99901961 0.49117647
0.97352941 0.99215686 0.42990196
1 0.99607843 0.32156863
0.0078431373 0.0078431373 0.061764706
0.054840686 0.0087622549 0.050980392
0.15036765 0.023529412 0.050122549
0.24001225 0.0037377451 0.026470588
0.39436275 0.019607843 0.0095588235
0.53155637 0.027634804 0.0039215686
0.6627451 0.044117647 0
0.78627451 0.062745098 0
0.89411765 0.074509804 0
0.069607843 0.092647059 0.1004902
0.096629902 0.084857537 0.085294118
0.17745098 0.089108456 0.076960784
0.28208487 0.081349571 0.059129902
0.42892157 0.079411765 0.036029412
0.55459559 0.065364583 0.030392157
0.67440257 0.051838235 0.0061734069
0.79282322 0.066666667 0
0.88192402 0.078431373 0.003002451
0.1127451 0.2 0.13137255
0.13535539 0.20134804 0.12005208
0.21875 0.19301471 0.11240809
0.31996017 0.18933824 0.099387255
0.45392157 0.17009804 0.074877451
0.58186275 0.14754902 0.051731005
0.69620098 0.11311275 0.021078431
0.8057598 0.081372549 0
0.90392157 0.082720588 0
0.12598039 0.34197304 0.17647059
0.17900582 0.3495098 0.16488971
0.26416973 0.34033395 0.15994179
0.3754902 0.33719363 0.14656863
0.49295343 0.32539828 0.11853554
0.61617647 0.29344363 0.084183517
0.72696078 0.25870098 0.051960784
0.83529412 0.19724265 0.021300551
0.93529412 0.096568627 0
0.2254902 0.49436275 0.23406863
0.26246936 0.49632353 0.2221201
0.33676471 0.50392157 0.20802696
0.43872549 0.50784314 0.19852941
0.54522059 0.49583333 0.17132353
0.65128676 0.46534926 0.1377451
0.75784314 0.44319853 0.091666667
0.86666667 0.37938113 0.047794118
0.96838235 0.29191176 0.0056372549
0.35520833 0.62941176 0.30147059
0.36835937 0.62941176 0.29319853
0.42642463 0.63627451 0.28832721
0.50127145 0.63333333 0.26998315
0.59059436 0.62613358 0.24050245
0.68830423 0.62518382 0.1982307
0.79264706 0.61942402 0.14082414
0.89313725 0.58500306 0.081862745
0.98872549 0.53903186 0.013848039
0.46580882 0.75294118 0.39019608
0.48089767 0.75294118 0.38236826
0.51960784 0.75686275 0.37484681
0.57556679 0.75686275 0.36325061
0.64515931 0.75686275 0.33382353
0.73088235 0.75686275 0.3004902
0.82352941 0.7495098 0.22745098
0.92408088 0.75032169 0.11712623
0.99362745 0.73431373 0.038480392
0.57058824 0.86862745 0.4872549
0.58180913 0.86862745 0.48333333
0.61519608 0.87242647 0.4765625
0.65523131 0.87270987 0.46734069
0.71541054 0.87647059 0.44607843
0.78039216 0.87647059 0.41584712
0.85441176 0.87647059 0.36415441
0.94705116 0.88039216 0.27493873
0.99607843 0.87996324 0.057598039
0.68627451 0.97598039 0.57254902
0.68033088 0.96317402 0.55919118
0.70147059 0.96813725 0.55943627
0.73921569 0.97334559 0.55539216
0.78039216 0.97843137 0.54852941
0.83694853 0.98547794 0.53039216
0.89742647 0.98970588 0.50931373
0.96660539 0.984375 0.44215686
1 0.98823529 0.35294118
0.011764706 0.0078431373 0.12352941
0.039705882 0.0079656863 0.11617647
0.11495098 0.0049019608 0.10171569
0.22647059 0.0084558824 0.086397059
0.37745098 0.012254902 0.07254902
0.54313725 0.01997549 0.059313725
0.6627451 0.039460784 0.021568627
0.77941176 0.05625 0.014705882
0.89117647 0.074509804 0.0068627451
0.047058824 0.092647059 0.17303922
0.080560662 0.084803922 0.16170343
0.15398284 0.07745098 0.15294118
0.26384804 0.07745098 0.13480392
0.40612745 0.072058824 0.11060049
0.55307904 0.048085172 0.069255515
0.66666667 0.039460784 0.032598039
0.78627451 0.05926777 0.018627451
0.89411765 0.075367647 0.0039215686
0.093872549 0.19681373 0.21078431
0.12107843 0.19607843 0.20392157
0.20073529 0.19215686 0.19509804
0.30759804 0.18550858 0.17585784
0.43946078 0.17058824 0.14705882
0.57769608 0.14316789 0.10851716
0.68866422 0.1127451 0.065502451
0.80122549 0.07377451 0.027941176
0.90955882 0.078431373 0.0039215686
0.10698529 0.34007353 0.25294118
0.16272978 0.34166667 0.25330882
0.25110294 0.3388174 0.24509804
0.35796569 0.33313419 0.23203125
0.48118873 0.32254902 0.2
0.61009498 0.28843444 0.16104473
0.71645221 0.24071691 0.11424632
0.82584252 0.19117647 0.07254902
0.93517157 0.10392157 0.006372549
0.19019608 0.49362745 0.31568627
0.23161765 0.49993873 0.31470588
0.32267157 0.50404412 0.30759804
0.42279412 0.49852941 0.29901961
0.53186275 0.49803922 0.26176471
0.64375 0.47254902 0.22156863
0.74779412 0.44031863 0.17647059
0.85471814 0.37696078 0.11176471
0.9627451 0.28676471 0.026470588
0.33345588 0.63051471 0.38370098
0.35845588 0.63333333 0.38039216
0.41338848 0.6354473 0.37264093
0.49042586 0.6372549 0.36294424
0.57665441 0.62941176 0.33449755
0.67352941 0.62156863 0.29313725
0.77720588 0.61029412 0.24129902
0.88792892 0.59413297 0.15269608
0.96715686 0.53370098 0.091176471
0.4502451 0.75686275 0.4620098
0.46170343 0.75294118 0.44810049
0.50545343 0.75686275 0.44632353
0.56289828 0.75686275 0.4359375
0.63345588 0.75294118 0.41764706
0.71519608 0.74901961 0.38995098
0.81176471 0.74822304 0.33357843
0.9051777 0.73783701 0.2513174
0.99117647 0.72647059 0.12303922
0.55490196 0.86813725 0.53284314
0.56737132 0.86781556 0.52977941
0.60453431 0.86862745 0.525
0.63871017 0.86813725 0.51666667
0.70557598 0.87555147 0.50539216
0.76960784 0.87509191 0.48039216
0.84368873 0.87254902 0.44574142
0.93627451 0.87659314 0.36917892
0.99620098 0.87659314 0.2307598
0.67058824 0.96470588 0.61372549
0.68186275 0.96813725 0.61078431
0.70906863 0.97647059 0.60759804
0.73039216 0.96470588 0.59803922
0.7745098 0.97254902 0.59411765
0.82647059 0.98039216 0.57696078
0.88823529 0.98137255 0.55465686
0.95490196 0.98517157 0.50686275
0.99607843 0.96862745 0.38235294
0.0093137255 0.0078431373 0.21372549
0.026960784 0.0078431373 0.20637255
0.10196078 0.0096813725 0.19558824
0.21035539 0.012683824 0.18382353
0.35882353 0.011029412 0.15563725
0.51170343 0.016237745 0.12990196
0.64852941 0.031740196 0.072426471
0.77058824 0.051470588 0.033333333
0.87843137 0.066666667 0.015686275
0.031066176 0.092647059 0.26390931
0.063212316 0.0848269 0.25998775
0.13515625 0.076960784 0.24620098
0.24852941 0.073529412 0.22745098
0.38268995 0.071476716 0.20171569
0.53154871 0.048529412 0.17647059
0.65467218 0.049525123 0.1222886
0.78235294 0.060539216 0.057843137
0.89626225 0.070588235 0.015686275
0.063235294 0.20637255 0.31372549
0.098039216 0.19785539 0.30824142
0.17720588 0.19607843 0.30058211
0.28858762 0.1932598 0.28382353
0.42444853 0.17058824 0.25055147
0.56282169 0.14178922 0.21441483
0.67463235 0.10652574 0.16565564
0.78965993 0.071338848 0.09888174
0.90882353 0.072058824 0.037377451
0.068688725 0.34411765 0.36035539
0.12598039 0.34166667 0.35980392
0.22061887 0.3377451 0.35232843
0.3377451 0.3399663 0.34466912
0.47303922 0.32405025 0.31078431
0.59564951 0.29411765 0.27542892
0.701731 0.24767157 0.2245098
0.81335018 0.19136029 0.16085325
0.92794118 0.096078431 0.056862745
0.15098039 0.49485294 0.41519608
0.20367647 0.49672181 0.4145527
0.29319853 0.5 0.41158088
0.39905025 0.49852941 0.40539216
0.51740196 0.5 0.37647059
0.62791054 0.47696078 0.3377451
0.73057598 0.44509804 0.29779412
0.83676471 0.37916667 0.23495711
0.94191176 0.29607843 0.13848039
0.30686275 0.62996324 0.48088235
0.33216912 0.62941176 0.47352941
0.39140625 0.62941176 0.46280637
0.47506127 0.63186275 0.45585937
0.55784314 0.62864583 0.4424326
0.65775888 0.62003676 0.41127451
0.75943627 0.61288297 0.37470895
0.86294424 0.5835095 0.30893842
0.98431373 0.5348652 0.18829657
0.43468137 0.75588235 0.53235294
0.45343137 0.75240502 0.52843137
0.48887868 0.75196078 0.5245098
0.5490962 0.75294118 0.51556373
0.61856618 0.75294118 0.50465686
0.7009038 0.75225184 0.48333333
0.79335172 0.74310662 0.4484375
0.88811275 0.73328738 0.39117647
0.97990196 0.71617647 0.29754902
0.54442402 0.86991422 0.59411765
0.55835631 0.86443781 0.59068627
0.59224877 0.86386336 0.59411765
0.63400735 0.86844363 0.59276195
0.68759191 0.87034314 0.57598039
0.75521599 0.87254902 0.55827206
0.83872549 0.86862745 0.52806373
0.91917892 0.86862745 0.4821921
0.98400735 0.86519608 0.41176471
0.68529412 0.98186275 0.67696078
0.68841912 0.97843137 0.67156863
0.69558824 0.97009804 0.66372549
0.72794118 0.97101716 0.65980392
0.76936275 0.97647059 0.65514706
0.8216299 0.98131127 0.64264706
0.87745098 0.97352941 0.61519608
0.95214461 0.98676471 0.58106618
0.99852941 0.99705882 0.51176471
0.0039215686 0.015686275 0.33529412
0.01372549 0.0078431373 0.31789216
0.083333333 0.011764706 0.31519608
0.18431373 0.0078431373 0.29362745
0.33333333 0.0078431373 0.26078431
0.48970588 0.013235294 0.26029412
0.63382353 0.025490196 0.21617647
0.77279412 0.045588235 0.11397059
0.90392157 0.070588235 0.019607843
0.017156863 0.084803922 0.38553922
0.045618873 0.083088235 0.37205882
0.1122549 0.07567402 0.36764706
0.23039216 0.07745098 0.34430147
0.36801471 0.07622549 0.3185049
0.50989583 0.042830882 0.29166667
0.63504902 0.031372549 0.25
0.76519608 0.037745098 0.18290441
0.89215686 0.060784314 0.08504902
0.051960784 0.20392157 0.42647059
0.070465686 0.20294118 0.42156863
0.14705882 0.1995098 0.41764706
0.26734069 0.190625 0.40735294
0.40294118 0.17083333 0.38137255
0.53627451 0.14068627 0.35612745
0.65551471 0.10882353 0.30747549
0.77156863 0.05747549 0.23805147
0.89901961 0.055392157 0.13627451
0.03872549 0.34558824 0.46960784
0.063235294 0.34558824 0.47034314
0.17426471 0.34166667 0.46446078
0.30386029 0.34558824 0.45661765
0.45036765 0.33308824 0.43431373
0.57230392 0.29558824 0.41519608
0.68284314 0.2526348 0.36960784
0.79460784 0.18391544 0.30998775
0.89852941 0.11715686 0.22769608
0.085294118 0.49117647 0.51568627
0.17377451 0.4872549 0.5120098
0.26176471 0.49362745 0.51372549
0.36875 0.50196078 0.50919118
0.49754902 0.49313725 0.49411765
0.60441176 0.48284314 0.47267157
0.71127451 0.44926471 0.43578431
0.82132353 0.39534314 0.38394608
0.92058824 0.29313725 0.30588235
0.28259804 0.62696078 0.5629902
0.30882353 0.62941176 0.55824142
0.375 0.62830882 0.55906863
0.44856005 0.62671569 0.55245098
0.54240196 0.62585784 0.54019608
0.64387255 0.61672794 0.52107843
0.74215686 0.60612745 0.48823529
0.8495098 0.57941176 0.45278799
0.96372549 0.53259804 0.38014706
0.41715686 0.75196078 0.60735294
0.42928922 0.74901961 0.60735294
0.46617647 0.74509804 0.60428922
0.52867647 0.74901961 0.60055147
0.60122549 0.75294118 0.59142157
0.68872549 0.74932598 0.57892157
0.78137255 0.74044118 0.55196078
0.8747549 0.73296569 0.52101716
0.95392157 0.71078431 0.46715686
0.52965686 0.86053922 0.65588235
0.54114583 0.86421569 0.66222426
0.575 0.86078431 0.66764706
0.63014706 0.86862745 0.66764706
0.67867647 0.86862745 0.65294118
0.74647672 0.86927083 0.63970588
0.82941176 0.86862745 0.62003676
0.91197917 0.86470588 0.57913603
0.96519608 0.85906863 0.55196078
0.68039216 0.97843137 0.73529412
0.67034314 0.96642157 0.72941176
0.69068627 0.96764706 0.72892157
0.72598039 0.97328431 0.72696078
0.76176471 0.97352941 0.71960784
0.80686275 0.96470588 0.70318627
0.87843137 0.99166667 0.69852941
0.94607843 0.98431373 0.66789216
0.99607843 0.98431373 0.60588235
0.011764706 0.050980392 0.47107843
0.011764706 0.019791667 0.43382353
0.060784314 0.0082107843 0.44620098
0.16182598 0.0078431373 0.42751225
0.31421569 0.015686275 0.40661765
0.465625 0.011764706 0.38088235
0.61029412 0.0045343137 0.34056373
0.75343137 0.027757353 0.26501225
0.8745098 0.048529412 0.17205882
0.011764706 0.098039216 0.49540441
0.032536765 0.095833333 0.48596814
0.090196078 0.084849877 0.47843137
0.19215686 0.068313419 0.47814032
0.34289216 0.072395833 0.45661765
0.48627451 0.049869792 0.43143382
0.61813725 0.029901961 0.39656863
0.74166667 0.016444547 0.33823529
0.86421569 0.03560049 0.25686275
0.032843137 0.21176471 0.52892157
0.060784314 0.20352328 0.52905944
0.12974877 0.20784314 0.52794118
0.23728554 0.19496017 0.52218137
0.38321078 0.175 0.51096814
0.51715686 0.14186581 0.48970588
0.63449755 0.10214461 0.45441176
0.75039828 0.058823529 0.39362745
0.85759804 0.037745098 0.32708333
0.017156863 0.35882353 0.57064951
0.04564951 0.35209099 0.56802237
0.13468137 0.35384498 0.56764706
0.27621017 0.35343137 0.55980392
0.42647059 0.34316789 0.55122549
0.5504902 0.30882353 0.53065257
0.66090686 0.25980392 0.50723039
0.76900276 0.18792892 0.45434283
0.87144608 0.089276961 0.39417892
0.037745098 0.49338235 0.60563725
0.086427696 0.48823529 0.60376838
0.21372549 0.49215686 0.60833333
0.34212623 0.49439338 0.60122549
0.47009804 0.49289216 0.59068627
0.58529412 0.48357843 0.57622549
0.69381127 0.44754902 0.55741422
0.80373775 0.40373775 0.52598039
0.90245098 0.28823529 0.46544118
0.24411765 0.6254902 0.64509804
0.26783088 0.62640931 0.64509804
0.34362745 0.62830882 0.64509804
0.42542892 0.62156863 0.64152114
0.525 0.62352941 0.63333333
0.62457108 0.61911765 0.623269
0.73051471 0.60660233 0.60389093
0.8346201 0.58333333 0.57677696
0.91819853 0.54460784 0.53039216
0.40245098 0.74803922 0.68664216
0.41125919 0.74803922 0.68828125
0.44518995 0.74901961 0.68835784
0.50833333 0.74901961 0.68405331
0.57910539 0.75294118 0.67990196
0.67395833 0.74901961 0.67267157
0.76531863 0.74117647 0.65272672
0.86230086 0.72904412 0.62090993
0.96421569 0.70539216 0.57647059
0.53008578 0.86078431 0.73480392
0.52990196 0.86078431 0.73694853
0.55868566 0.86029412 0.7372549
0.60490196 0.86463695 0.73399969
0.6627451 0.86853554 0.72622549
0.73033088 0.87205882 0.72045803
0.80625 0.87054228 0.70499387
0.89852941 0.86035539 0.67189798
0.98020833 0.85294118 0.64246324
0.65637255 0.9622549 0.79264706
0.67009804 0.97224265 0.79528186
0.68088235 0.96176471 0.79117647
0.70594363 0.95931373 0.78633578
0.75294118 0.97058824 0.78333333
0.80839461 0.98192402 0.78186275
0.86470588 0.98284314 0.76764706
0.93480392 0.98088235 0.74362745
0.97892157 0.97647059 0.71568627
0.0078431373 0.034313725 0.55980392
0.014705882 0.031372549 0.55588235
0.029166667 0.0125 0.55196078
0.12855392 0.0049019608 0.54117647
0.28921569 0.01127451 0.5372549
0.45833333 0.011764706 0.53823529
0.59509804 0.0078431373 0.49411765
0.72696078 0.012254902 0.44803922
0.86372549 0.02254902 0.36078431
0.011764706 0.11617647 0.59068627
0.023253676 0.1004902 0.58558517
0.062254902 0.088970588 0.58284314
0.16181066 0.080882353 0.57924326
0.31029412 0.069791667 0.57279412
0.47144608 0.041053922 0.55971201
0.59500613 0.018137255 0.53140319
0.71862745 0.010799632 0.48965993
0.84178922 0.018627451 0.43529412
0.011764706 0.2245098 0.6254902
0.03002451 0.22257966 0.62135417
0.078063725 0.21868873 0.61764706
0.20245098 0.20723039 0.61764706
0.35551471 0.19411765 0.60980392
0.49411765 0.15738358 0.59849877
0.61390931 0.11427696 0.5776348
0.72941176 0.051256127 0.54362745
0.79607843 0.016421569 0.52279412
0.023529412 0.36127451 0.65637255
0.023207721 0.36314338 0.65637255
0.055269608 0.36727941 0.65471814
0.23688725 0.36556373 0.65245098
0.39558824 0.35569853 0.64460784
0.5317402 0.32470895 0.6355239
0.64234069 0.27254902 0.61734069
0.75335478 0.19607843 0.58590686
0.84595588 0.11605392 0.55355392
0.044607843 0.49803922 0.69117647
0.034987745 0.49785539 0.69123775
0.13786765 0.49852941 0.69473039
0.30441176 0.50196078 0.68976716
0.44313725 0.50196078 0.68112745
0.56133578 0.48694853 0.67156863
0.67156863 0.45833333 0.65943627
0.78688725 0.40686275 0.63756127
0.88823529 0.29705882 0.60196078
0.16384804 0.6254902 0.72990196
0.20793505 0.62193627 0.72982537
0.30318627 0.6254902 0.73072917
0.38993566 0.62872243 0.72990196
0.49944853 0.6254902 0.72083333
0.60111826 0.62156863 0.71398591
0.70591299 0.60698529 0.69963235
0.8189951 0.58186275 0.68267463
0.92340686 0.52745098 0.64852941
0.3504902 0.74338235 0.76936275
0.37034314 0.7450674 0.76936275
0.42113971 0.74803922 0.76544118
0.48529412 0.74901961 0.76544118
0.55980392 0.75294118 0.76397059
0.65245098 0.75174632 0.76124387
0.74411765 0.74411765 0.74828431
0.84509804 0.72512255 0.72634804
0.95 0.70294118 0.69436275
0.4995098 0.86078431 0.81433824
0.50392157 0.86078431 0.81433824
0.54129902 0.86050858 0.80836397
0.57806373 0.86456801 0.80776654
0.64411765 0.86470588 0.8064951
0.71332721 0.86862745 0.80280331
0.79044118 0.86470588 0.78811275
0.87941176 0.85729167 0.77473958
0.95992647 0.84938725 0.75392157
0.64607843 0.95980392 0.85686275
0.66127451 0.96470588 0.86078431
0.67377451 0.96495098 0.85686275
0.70833333 0.96960784 0.86078431
0.74264706 0.96421569 0.84901961
0.7872549 0.96801471 0.84509804
0.85294118 0.97254902 0.83431373
0.9254902 0.98982843 0.83284314
0.9872549 0.98333333 0.80686275
0 0.0073529412 0.64460784
0.0039215686 0.020036765 0.64852941
0.022916667 0.015563725 0.64852941
0.11519608 0.023529412 0.65637255
0.26029412 0.01372549 0.64093137
0.425 0.0036151961 0.62714461
0.56776961 0.0078431373 0.62022059
0.6995098 0.0078431373 0.59362745
0.81127451 0.0078431373 0.575
0.0039215686 0.12009804 0.6754902
0.01439185 0.12401961 0.67941176
0.047303922 0.11752451 0.6754902
0.1286152 0.10222886 0.67156863
0.29093137 0.083333333 0.66764706
0.44803922 0.056104473 0.65980392
0.57870711 0.023039216 0.64718137
0.6995098 0.014820772 0.62407322
0.82254902 0.0039215686 0.58976716
0.0078431373 0.24754902 0.71409314
0.021844363 0.2439951 0.71029412
0.064859069 0.23970588 0.71029412
0.15186887 0.23146446 0.71029412
0.32573529 0.22150735 0.70563725
0.47285539 0.19080882 0.69719669
0.60159314 0.13903186 0.68198529
0.71148897 0.05713848 0.66323529
0.80355392 0.01127451 0.63578431
0.013909314 0.37873775 0.74509804
0.015196078 0.3821921 0.74509804
0.033333333 0.38276654 0.74117647
0.18402267 0.37961091 0.7372549
0.36715686 0.36936275 0.73897059
0.5088848 0.34050245 0.73186275
0.62855392 0.29558824 0.71570159
0.73768382 0.22910539 0.69411765
0.84117647 0.12530637 0.67089461
0.028431373 0.50588235 0.77990196
0.007567402 0.50266544 0.7794424
0.040196078 0.50545343 0.77990196
0.24166667 0.50851716 0.77573529
0.41237745 0.50980392 0.77205882
0.53676471 0.49068627 0.76421569
0.65067402 0.46770833 0.75637255
0.77205882 0.43406863 0.74240196
0.87818627 0.34779412 0.71936275
0.076960784 0.6254902 0.81029412
0.13314951 0.6254902 0.81078431
0.25085784 0.62585784 0.81421569
0.35379136 0.62983303 0.81078431
0.46780025 0.63333333 0.80686275
0.57647825 0.6254902 0.79901961
0.68664216 0.61037071 0.79411765
0.79728094 0.58972886 0.77941176
0.90147059 0.54264706 0.75980392
0.28431373 0.74117647 0.84522059
0.32593444 0.74852941 0.84901961
0.38933824 0.74901961 0.84558824
0.45147059 0.74901961 0.84252451
0.53284314 0.74901961 0.84252451
0.62941176 0.74509804 0.83860294
0.72512255 0.74019608 0.83247549
0.82550551 0.72512255 0.81776961
0.91813725 0.70686275 0.80245098
0.46084559 0.85680147 0.8877451
0.4886106 0.86072304 0.8877451
0.51470588 0.85997243 0.88157169
0.55351562 0.85686275 0.88049939
0.62107843 0.86078431 0.88082108
0.68988971 0.86470588 0.88023131
0.77598039 0.861106 0.87287071
0.86465227 0.85294118 0.86115962
0.94068627 0.84209559 0.84601716
0.63431373 0.95637255 0.92254902
0.65 0.96470588 0.92647059
0.64656863 0.95379902 0.91862745
0.66893382 0.94901961 0.91862745
0.72745098 0.96078431 0.91862745
0.77892157 0.96470588 0.91488971
0.84509804 0.97941176 0.9189951
0.90686275 0.96470588 0.9033701
0.96911765 0.96127451 0.89166667
0 0.011764706 0.70588235
0 0.0044117647 0.73676471
0.00098039216 0.01372549 0.72843137
0.088235294 0.015686275 0.73186275
0.23529412 0.011764706 0.73529412
0.41127451 0 0.73039216
0.54803922 0.0068627451 0.69607843
0.66862745 0.0039215686 0.70980392
0.79215686 0.0039215686 0.70980392
0 0.14264706 0.74460784
0.0039215686 0.13921569 0.75637255
0.019852941 0.13529412 0.74436275
0.095588235 0.13872549 0.75637255
0.25833333 0.11176471 0.75416667
0.42518382 0.071568627 0.75098039
0.56421569 0.025612745 0.72009804
0.68431373 0.018198529 0.72058824
0.80343137 0 0.71372549
0 0.27058824 0.7872549
0.0078431373 0.27058824 0.79105392
0.025490196 0.26666667 0.79411765
0.087132353 0.26997549 0.79117647
0.27352941 0.24264706 0.78333333
0.44375 0.20992647 0.78872549
0.57941176 0.15857843 0.77377451
0.69865196 0.076102941 0.77193627
0.79313725 0.016666667 0.7372549
0.0024509804 0.39558824 0.82745098
0.011764706 0.39411765 0.81599265
0.020220588 0.39411765 0.81568627
0.10392157 0.39411765 0.81715686
0.32254902 0.38872549 0.81617647
0.47892157 0.36764706 0.8151348
0.60392157 0.31801471 0.80821078
0.72334559 0.23823529 0.79068627
0.82990196 0.15588235 0.78529412
0.0098039216 0.50980392 0.84901961
0.0078431373 0.50784314 0.81372549
0.0083333333 0.51764706 0.85686275
0.16764706 0.51764706 0.84264706
0.39509804 0.51372549 0.82941176
0.51764706 0.50196078 0.84117647
0.63333333 0.48235294 0.83333333
0.74901961 0.42279412 0.82892157
0.86666667 0.36666667 0.82156863
0.013235294 0.62941176 0.8877451
0.037377451 0.63333333 0.88529412
0.1252451 0.63333333 0.88835784
0.31390931 0.63572304 0.86654412
0.43676471 0.64117647 0.88210784
0.55245098 0.63241422 0.87990196
0.66029412 0.62267157 0.8810049
0.77598039 0.59491422 0.85980392
0.89019608 0.56176471 0.85882353
0.21568627 0.74509804 0.91862745
0.25392157 0.74889706 0.91862745
0.3254902 0.74901961 0.91470588
0.39558824 0.74754902 0.91139706
0.50196078 0.75245098 0.90980392
0.60183824 0.74509804 0.91139706
0.70367647 0.74485294 0.90980392
0.80735294 0.73026961 0.89816176
0.89901961 0.71372549 0.89215686
0.41911765 0.84852941 0.94509804
0.45294118 0.85594363 0.94466912
0.49080882 0.86029412 0.94693627
0.53645833 0.85637255 0.94509804
0.59803922 0.85686275 0.94338235
0.66715686 0.85784314 0.94528186
0.75294118 0.86862745 0.95379902
0.85686275 0.85686275 0.93823529
0.92990196 0.85343137 0.94166667
0.60784314 0.94901961 0.96470588
0.63431373 0.96421569 0.96862745
0.64509804 0.96372549 0.9872549
0.66764706 0.95539216 0.97647059
0.71568627 0.95490196 0.96666667
0.75980392 0.94901961 0.95294118
0.81470588 0.94705882 0.95882353
0.90294118 0.97647059 0.98431373
0.99215686 0.99215686 0.99215686
