site/assets/luts/sha256-13cde68fb576831b901197bc8ac87fe6435e7a794b031e55ca286459bde91a94.cube
# LUTr-Schema-Version: 2
# LUTr-ID: sha256-13cde68fb576831b901197bc8ac87fe6435e7a794b031e55ca286459bde91a94
# LUTr-Title: fuji neopan 1600 ++
# LUTr-Collection: Natron HaldCLUT
# LUTr-Collection-ID: natron-haldclut-presets
# LUTr-Source: https://github.com/NatronGitHub/clut
# LUTr-Retrieved: 2026-07-27
# LUTr-Source-File: submissions/natron-haldclut-presets/negative_old/fuji_neopan_1600_++.png
# LUTr-Source-Format: HALD-PNG
# LUTr-Source-SHA256: 13cde68fb576831b901197bc8ac87fe6435e7a794b031e55ca286459bde91a94
# LUTr-License: CC-BY-SA-4.0
# LUTr-License-URL: https://github.com/NatronGitHub/clut#license
# LUTr-License-Basis: repo-license-file
# LUTr-Transform-Class: film-emulation
# LUTr-Tags: creative, film, film-emulation, hald-clut, natron, png, black-and-white, cube
# LUTr-Input-Color-Space: srgb
# LUTr-Input-Gamut: rec709
# LUTr-Input-Transfer: srgb
# LUTr-Output-Color-Space: srgb
# LUTr-Output-Gamut: rec709
# LUTr-Output-Transfer: srgb
# LUTr-Color-Space-Confidence: assumed-display-referred
# LUTr-Domain-Normalized: true
# LUTr-Shaper: none
# LUTr-Original-Grid: 64x64x64
# LUTr-Conversion-Grid: 25x25x25
# LUTr-Conversion-Interpolation: trilinear
# LUTr-Conversion-Method: HALD-PNG LUT image decoded at 16-bit and sampled to 25x25x25 3D CUBE
# LUTr-Conversion-Tool: LUTr scripts/convert-all-to-cube.mjs 2.0.0
# LUTr-Conversion-Date: 2026-07-27
# LUTr-Note: Preserve this metadata and the upstream license notices when redistributing.
TITLE "fuji neopan 1600 ++"
LUT_3D_SIZE 9
DOMAIN_MIN 0 0 0
DOMAIN_MAX 1 1 1
0.15294118 0.15294118 0.15294118
0.16078431 0.16078431 0.16078431
0.16078431 0.16078431 0.16078431
0.16323529 0.16323529 0.16323529
0.18431373 0.18431373 0.18431373
0.21470588 0.21470588 0.21470588
0.26470588 0.26470588 0.26470588
0.35098039 0.35098039 0.35098039
0.48235294 0.48235294 0.48235294
0.15294118 0.15294118 0.15294118
0.16029412 0.16029412 0.16029412
0.16421569 0.16421569 0.16421569
0.17009804 0.17009804 0.17009804
0.20147059 0.20147059 0.20147059
0.23645833 0.23645833 0.23645833
0.28517157 0.28517157 0.28517157
0.37303922 0.37303922 0.37303922
0.50196078 0.50196078 0.50196078
0.16764706 0.16764706 0.16764706
0.1754902 0.1754902 0.1754902
0.18333333 0.18333333 0.18333333
0.2122549 0.2122549 0.2122549
0.25686275 0.25686275 0.25686275
0.30085784 0.30085784 0.30085784
0.35980392 0.35980392 0.35980392
0.44117647 0.44117647 0.44117647
0.53137255 0.53137255 0.53137255
0.20245098 0.20245098 0.20245098
0.22058824 0.22058824 0.22058824
0.23566176 0.23566176 0.23566176
0.27009804 0.27009804 0.27009804
0.31862745 0.31862745 0.31862745
0.39215686 0.39215686 0.39215686
0.46703431 0.46703431 0.46703431
0.54901961 0.54901961 0.54901961
0.66323529 0.66323529 0.66323529
0.29411765 0.29411765 0.29411765
0.29215686 0.29215686 0.29215686
0.30490196 0.30490196 0.30490196
0.34166667 0.34166667 0.34166667
0.39019608 0.39019608 0.39019608
0.45857843 0.45857843 0.45857843
0.55637255 0.55637255 0.55637255
0.6745098 0.6745098 0.6745098
0.76470588 0.76470588 0.76470588
0.3995098 0.3995098 0.3995098
0.40196078 0.40196078 0.40196078
0.41017157 0.41017157 0.41017157
0.43823529 0.43823529 0.43823529
0.48823529 0.48823529 0.48823529
0.55 0.55 0.55
0.65147059 0.65147059 0.65147059
0.75079657 0.75079657 0.75079657
0.83039216 0.83039216 0.83039216
0.57058824 0.57058824 0.57058824
0.57058824 0.57058824 0.57058824
0.57843137 0.57843137 0.57843137
0.59656863 0.59656863 0.59656863
0.6245098 0.6245098 0.6245098
0.68235294 0.68235294 0.68235294
0.74313725 0.74313725 0.74313725
0.81911765 0.81911765 0.81911765
0.8872549 0.8872549 0.8872549
0.76764706 0.76764706 0.76764706
0.76421569 0.76421569 0.76421569
0.76764706 0.76764706 0.76764706
0.77922794 0.77922794 0.77922794
0.7872549 0.7872549 0.7872549
0.81697304 0.81697304 0.81697304
0.85747549 0.85747549 0.85747549
0.89957108 0.89957108 0.89957108
0.94166667 0.94166667 0.94166667
0.91372549 0.91372549 0.91372549
0.90980392 0.90980392 0.90980392
0.91372549 0.91372549 0.91372549
0.92009804 0.92009804 0.92009804
0.92352941 0.92352941 0.92352941
0.94117647 0.94117647 0.94117647
0.96078431 0.96078431 0.96078431
0.96519608 0.96519608 0.96519608
0.98431373 0.98431373 0.98431373
0.15686275 0.15686275 0.15686275
0.16078431 0.16078431 0.16078431
0.16078431 0.16078431 0.16078431
0.16844363 0.16844363 0.16844363
0.1879902 0.1879902 0.1879902
0.22892157 0.22892157 0.22892157
0.27218137 0.27218137 0.27218137
0.35392157 0.35392157 0.35392157
0.42696078 0.42696078 0.42696078
0.15637255 0.15637255 0.15637255
0.16078431 0.16078431 0.16078431
0.16470588 0.16470588 0.16470588
0.18621324 0.18621324 0.18621324
0.21253064 0.21253064 0.21253064
0.24427849 0.24427849 0.24427849
0.2993413 0.2993413 0.2993413
0.38093597 0.38093597 0.38093597
0.4901348 0.4901348 0.4901348
0.17794118 0.17794118 0.17794118
0.18235294 0.18235294 0.18235294
0.19439338 0.19439338 0.19439338
0.22441789 0.22441789 0.22441789
0.26446078 0.26446078 0.26446078
0.30508578 0.30508578 0.30508578
0.36372549 0.36372549 0.36372549
0.44929534 0.44929534 0.44929534
0.55784314 0.55784314 0.55784314
0.22420343 0.22420343 0.22420343
0.23535539 0.23535539 0.23535539
0.24313725 0.24313725 0.24313725
0.28529412 0.28529412 0.28529412
0.32735907 0.32735907 0.32735907
0.4 0.4 0.4
0.47420343 0.47420343 0.47420343
0.55479473 0.55479473 0.55479473
0.65618873 0.65618873 0.65618873
0.31127451 0.31127451 0.31127451
0.31868873 0.31868873 0.31868873
0.33045343 0.33045343 0.33045343
0.35471814 0.35471814 0.35471814
0.40257353 0.40257353 0.40257353
0.4745098 0.4745098 0.4745098
0.57303922 0.57303922 0.57303922
0.67815564 0.67815564 0.67815564
0.75735294 0.75735294 0.75735294
0.41911765 0.41911765 0.41911765
0.43409161 0.43409161 0.43409161
0.44093137 0.44093137 0.44093137
0.46194087 0.46194087 0.46194087
0.50416667 0.50416667 0.50416667
0.56549479 0.56549479 0.56549479
0.67077206 0.67077206 0.67077206
0.76096814 0.76096814 0.76096814
0.84068627 0.84068627 0.84068627
0.58970588 0.58970588 0.58970588
0.59394914 0.59394914 0.59394914
0.60147059 0.60147059 0.60147059
0.62071078 0.62071078 0.62071078
0.65214461 0.65214461 0.65214461
0.69759498 0.69759498 0.69759498
0.75094975 0.75094975 0.75094975
0.82303922 0.82303922 0.82303922
0.88823529 0.88823529 0.88823529
0.7754902 0.7754902 0.7754902
0.77419577 0.77419577 0.77419577
0.77977941 0.77977941 0.77977941
0.78684896 0.78684896 0.78684896
0.80980392 0.80980392 0.80980392
0.83088235 0.83088235 0.83088235
0.86116728 0.86116728 0.86116728
0.8995098 0.8995098 0.8995098
0.93780637 0.93780637 0.93780637
0.92156863 0.92156863 0.92156863
0.92064951 0.92064951 0.92064951
0.92058824 0.92058824 0.92058824
0.92610294 0.92610294 0.92610294
0.9254902 0.9254902 0.9254902
0.93743873 0.93743873 0.93743873
0.95392157 0.95392157 0.95392157
0.96740196 0.96740196 0.96740196
0.97696078 0.97696078 0.97696078
0.15686275 0.15686275 0.15686275
0.16078431 0.16078431 0.16078431
0.17083333 0.17083333 0.17083333
0.19117647 0.19117647 0.19117647
0.2127451 0.2127451 0.2127451
0.24362745 0.24362745 0.24362745
0.29901961 0.29901961 0.29901961
0.36911765 0.36911765 0.36911765
0.42745098 0.42745098 0.42745098
0.16335784 0.16335784 0.16335784
0.16856618 0.16856618 0.16856618
0.18229167 0.18229167 0.18229167
0.19803922 0.19803922 0.19803922
0.23186275 0.23186275 0.23186275
0.27058824 0.27058824 0.27058824
0.31838235 0.31838235 0.31838235
0.3995098 0.3995098 0.3995098
0.46176471 0.46176471 0.46176471
0.1870098 0.1870098 0.1870098
0.19264706 0.19264706 0.19264706
0.21795343 0.21795343 0.21795343
0.2504902 0.2504902 0.2504902
0.28308824 0.28308824 0.28308824
0.32000613 0.32000613 0.32000613
0.37941176 0.37941176 0.37941176
0.45637255 0.45637255 0.45637255
0.5754902 0.5754902 0.5754902
0.25098039 0.25098039 0.25098039
0.25744485 0.25744485 0.25744485
0.27316176 0.27316176 0.27316176
0.31170343 0.31170343 0.31170343
0.35931373 0.35931373 0.35931373
0.42084865 0.42084865 0.42084865
0.49047181 0.49047181 0.49047181
0.56769301 0.56769301 0.56769301
0.675 0.675 0.675
0.34215686 0.34215686 0.34215686
0.35465686 0.35465686 0.35465686
0.36237745 0.36237745 0.36237745
0.39044118 0.39044118 0.39044118
0.44142157 0.44142157 0.44142157
0.50631127 0.50631127 0.50631127
0.60392157 0.60392157 0.60392157
0.69362745 0.69362745 0.69362745
0.74607843 0.74607843 0.74607843
0.45098039 0.45098039 0.45098039
0.47941176 0.47941176 0.47941176
0.48664216 0.48664216 0.48664216
0.49564951 0.49564951 0.49564951
0.53560049 0.53560049 0.53560049
0.59546569 0.59546569 0.59546569
0.68762255 0.68762255 0.68762255
0.77156863 0.77156863 0.77156863
0.84509804 0.84509804 0.84509804
0.61666667 0.61666667 0.61666667
0.62279412 0.62279412 0.62279412
0.63823529 0.63823529 0.63823529
0.64776348 0.64776348 0.64776348
0.67291667 0.67291667 0.67291667
0.71421569 0.71421569 0.71421569
0.76862745 0.76862745 0.76862745
0.8254902 0.8254902 0.8254902
0.89583333 0.89583333 0.89583333
0.78284314 0.78284314 0.78284314
0.78579963 0.78579963 0.78579963
0.79068627 0.79068627 0.79068627
0.80245098 0.80245098 0.80245098
0.81004902 0.81004902 0.81004902
0.83872549 0.83872549 0.83872549
0.86758578 0.86758578 0.86758578
0.89995404 0.89995404 0.89995404
0.94203431 0.94203431 0.94203431
0.9254902 0.9254902 0.9254902
0.92071078 0.92071078 0.92071078
0.91544118 0.91544118 0.91544118
0.90343137 0.90343137 0.90343137
0.92254902 0.92254902 0.92254902
0.94509804 0.94509804 0.94509804
0.95759804 0.95759804 0.95759804
0.97941176 0.97941176 0.97941176
0.98431373 0.98431373 0.98431373
0.16862745 0.16862745 0.16862745
0.16685049 0.16685049 0.16685049
0.19178922 0.19178922 0.19178922
0.20729167 0.20729167 0.20729167
0.23308824 0.23308824 0.23308824
0.28327206 0.28327206 0.28327206
0.34166667 0.34166667 0.34166667
0.4 0.4 0.4
0.50441176 0.50441176 0.50441176
0.18284314 0.18284314 0.18284314
0.19754902 0.19754902 0.19754902
0.21164216 0.21164216 0.21164216
0.23094363 0.23094363 0.23094363
0.25499387 0.25499387 0.25499387
0.30227482 0.30227482 0.30227482
0.35597426 0.35597426 0.35597426
0.42412684 0.42412684 0.42412684
0.52775735 0.52775735 0.52775735
0.19178922 0.19178922 0.19178922
0.2245098 0.2245098 0.2245098
0.25119485 0.25119485 0.25119485
0.2877451 0.2877451 0.2877451
0.31832108 0.31832108 0.31832108
0.35075061 0.35075061 0.35075061
0.4067402 0.4067402 0.4067402
0.47659314 0.47659314 0.47659314
0.58762255 0.58762255 0.58762255
0.26525735 0.26525735 0.26525735
0.28020067 0.28020067 0.28020067
0.30588235 0.30588235 0.30588235
0.35230545 0.35230545 0.35230545
0.39803922 0.39803922 0.39803922
0.4504902 0.4504902 0.4504902
0.51617647 0.51617647 0.51617647
0.58873315 0.58873315 0.58873315
0.68278186 0.68278186 0.68278186
0.36004902 0.36004902 0.36004902
0.38382353 0.38382353 0.38382353
0.40637255 0.40637255 0.40637255
0.44384191 0.44384191 0.44384191
0.48958333 0.48958333 0.48958333
0.55637255 0.55637255 0.55637255
0.628125 0.628125 0.628125
0.70254289 0.70254289 0.70254289
0.77573529 0.77573529 0.77573529
0.51813725 0.51813725 0.51813725
0.53411458 0.53411458 0.53411458
0.54875919 0.54875919 0.54875919
0.55833333 0.55833333 0.55833333
0.58848039 0.58848039 0.58848039
0.63949908 0.63949908 0.63949908
0.71816789 0.71816789 0.71816789
0.79167433 0.79167433 0.79167433
0.85392157 0.85392157 0.85392157
0.67365196 0.67365196 0.67365196
0.68135723 0.68135723 0.68135723
0.68541667 0.68541667 0.68541667
0.69215686 0.69215686 0.69215686
0.70098039 0.70098039 0.70098039
0.73687194 0.73687194 0.73687194
0.78786765 0.78786765 0.78786765
0.83809743 0.83809743 0.83809743
0.89607843 0.89607843 0.89607843
0.8122549 0.8122549 0.8122549
0.81256127 0.81256127 0.81256127
0.81911765 0.81911765 0.81911765
0.82401961 0.82401961 0.82401961
0.82794118 0.82794118 0.82794118
0.85042126 0.85042126 0.85042126
0.87696078 0.87696078 0.87696078
0.90655637 0.90655637 0.90655637
0.95471814 0.95471814 0.95471814
0.93333333 0.93333333 0.93333333
0.928125 0.928125 0.928125
0.92794118 0.92794118 0.92794118
0.93676471 0.93676471 0.93676471
0.9377451 0.9377451 0.9377451
0.94509804 0.94509804 0.94509804
0.96115196 0.96115196 0.96115196
0.96617647 0.96617647 0.96617647
0.97647059 0.97647059 0.97647059
0.20980392 0.20980392 0.20980392
0.21544118 0.21544118 0.21544118
0.23823529 0.23823529 0.23823529
0.275 0.275 0.275
0.31862745 0.31862745 0.31862745
0.31862745 0.31862745 0.31862745
0.37843137 0.37843137 0.37843137
0.46029412 0.46029412 0.46029412
0.57647059 0.57647059 0.57647059
0.22696078 0.22696078 0.22696078
0.23213848 0.23213848 0.23213848
0.26507353 0.26507353 0.26507353
0.29240196 0.29240196 0.29240196
0.32573529 0.32573529 0.32573529
0.34362745 0.34362745 0.34362745
0.4088848 0.4088848 0.4088848
0.48655025 0.48655025 0.48655025
0.59191176 0.59191176 0.59191176
0.25441176 0.25441176 0.25441176
0.27689951 0.27689951 0.27689951
0.30931373 0.30931373 0.30931373
0.34558824 0.34558824 0.34558824
0.38897059 0.38897059 0.38897059
0.41176471 0.41176471 0.41176471
0.46703431 0.46703431 0.46703431
0.54068627 0.54068627 0.54068627
0.64068627 0.64068627 0.64068627
0.28921569 0.28921569 0.28921569
0.3138174 0.3138174 0.3138174
0.33988971 0.33988971 0.33988971
0.41253064 0.41253064 0.41253064
0.46286765 0.46286765 0.46286765
0.48995098 0.48995098 0.48995098
0.55710784 0.55710784 0.55710784
0.60980392 0.60980392 0.60980392
0.67671569 0.67671569 0.67671569
0.38529412 0.38529412 0.38529412
0.39252451 0.39252451 0.39252451
0.42328431 0.42328431 0.42328431
0.49056373 0.49056373 0.49056373
0.54705882 0.54705882 0.54705882
0.59901961 0.59901961 0.59901961
0.65367647 0.65367647 0.65367647
0.7057598 0.7057598 0.7057598
0.75686275 0.75686275 0.75686275
0.53480392 0.53480392 0.53480392
0.55211397 0.55211397 0.55211397
0.57346814 0.57346814 0.57346814
0.6205576 0.6205576 0.6205576
0.64791667 0.64791667 0.64791667
0.69065564 0.69065564 0.69065564
0.74166667 0.74166667 0.74166667
0.80147059 0.80147059 0.80147059
0.85539216 0.85539216 0.85539216
0.70196078 0.70196078 0.70196078
0.72077206 0.72077206 0.72077206
0.72561275 0.72561275 0.72561275
0.73848039 0.73848039 0.73848039
0.75343137 0.75343137 0.75343137
0.77107843 0.77107843 0.77107843
0.80882353 0.80882353 0.80882353
0.85974265 0.85974265 0.85974265
0.91323529 0.91323529 0.91323529
0.83529412 0.83529412 0.83529412
0.84313725 0.84313725 0.84313725
0.84050245 0.84050245 0.84050245
0.85 0.85 0.85
0.85882353 0.85882353 0.85882353
0.86617647 0.86617647 0.86617647
0.88676471 0.88676471 0.88676471
0.92178309 0.92178309 0.92178309
0.95171569 0.95171569 0.95171569
0.93921569 0.93921569 0.93921569
0.9375 0.9375 0.9375
0.94509804 0.94509804 0.94509804
0.93553922 0.93553922 0.93553922
0.95 0.95 0.95
0.95441176 0.95441176 0.95441176
0.96372549 0.96372549 0.96372549
0.96127451 0.96127451 0.96127451
0.99411765 0.99411765 0.99411765
0.25637255 0.25637255 0.25637255
0.26960784 0.26960784 0.26960784
0.30784314 0.30784314 0.30784314
0.34656863 0.34656863 0.34656863
0.42205882 0.42205882 0.42205882
0.45588235 0.45588235 0.45588235
0.46323529 0.46323529 0.46323529
0.52775735 0.52775735 0.52775735
0.64607843 0.64607843 0.64607843
0.29234069 0.29234069 0.29234069
0.29985447 0.29985447 0.29985447
0.32696078 0.32696078 0.32696078
0.37738205 0.37738205 0.37738205
0.44834559 0.44834559 0.44834559
0.46844363 0.46844363 0.46844363
0.4682598 0.4682598 0.4682598
0.5526348 0.5526348 0.5526348
0.66145833 0.66145833 0.66145833
0.33639706 0.33639706 0.33639706
0.34848346 0.34848346 0.34848346
0.38186275 0.38186275 0.38186275
0.42935049 0.42935049 0.42935049
0.49473039 0.49473039 0.49473039
0.52262561 0.52262561 0.52262561
0.5245098 0.5245098 0.5245098
0.6064951 0.6064951 0.6064951
0.69901961 0.69901961 0.69901961
0.34552696 0.34552696 0.34552696
0.38186275 0.38186275 0.38186275
0.43676471 0.43676471 0.43676471
0.48740043 0.48740043 0.48740043
0.5504902 0.5504902 0.5504902
0.58872549 0.58872549 0.58872549
0.61058517 0.61058517 0.61058517
0.671875 0.671875 0.671875
0.74810049 0.74810049 0.74810049
0.4127451 0.4127451 0.4127451
0.43716299 0.43716299 0.43716299
0.47377451 0.47377451 0.47377451
0.53336397 0.53336397 0.53336397
0.61017157 0.61017157 0.61017157
0.66519608 0.66519608 0.66519608
0.68633578 0.68633578 0.68633578
0.73832721 0.73832721 0.73832721
0.78259804 0.78259804 0.78259804
0.54068627 0.54068627 0.54068627
0.55392157 0.55392157 0.55392157
0.57366728 0.57366728 0.57366728
0.62159161 0.62159161 0.62159161
0.68357843 0.68357843 0.68357843
0.73471967 0.73471967 0.73471967
0.77009804 0.77009804 0.77009804
0.81011795 0.81011795 0.81011795
0.84460784 0.84460784 0.84460784
0.70441176 0.70441176 0.70441176
0.70686275 0.70686275 0.70686275
0.71461397 0.71461397 0.71461397
0.74713542 0.74713542 0.74713542
0.77892157 0.77892157 0.77892157
0.80503983 0.80503983 0.80503983
0.84077819 0.84077819 0.84077819
0.88169424 0.88169424 0.88169424
0.92781863 0.92781863 0.92781863
0.8372549 0.8372549 0.8372549
0.83970588 0.83970588 0.83970588
0.84505208 0.84505208 0.84505208
0.85882353 0.85882353 0.85882353
0.87598039 0.87598039 0.87598039
0.8891008 0.8891008 0.8891008
0.90926777 0.90926777 0.90926777
0.94001225 0.94001225 0.94001225
0.96519608 0.96519608 0.96519608
0.93333333 0.93333333 0.93333333
0.95098039 0.95098039 0.95098039
0.94117647 0.94117647 0.94117647
0.94901961 0.94901961 0.94901961
0.95294118 0.95294118 0.95294118
0.96317402 0.96317402 0.96317402
0.97647059 0.97647059 0.97647059
0.98186275 0.98186275 0.98186275
0.98823529 0.98823529 0.98823529
0.37254902 0.37254902 0.37254902
0.38529412 0.38529412 0.38529412
0.41176471 0.41176471 0.41176471
0.45980392 0.45980392 0.45980392
0.52990196 0.52990196 0.52990196
0.61286765 0.61286765 0.61286765
0.62622549 0.62622549 0.62622549
0.60968137 0.60968137 0.60968137
0.71568627 0.71568627 0.71568627
0.39656863 0.39656863 0.39656863
0.40398284 0.40398284 0.40398284
0.44252451 0.44252451 0.44252451
0.48884804 0.48884804 0.48884804
0.55814951 0.55814951 0.55814951
0.63184743 0.63184743 0.63184743
0.64525123 0.64525123 0.64525123
0.62922794 0.62922794 0.62922794
0.72598039 0.72598039 0.72598039
0.4375 0.4375 0.4375
0.46911765 0.46911765 0.46911765
0.49607843 0.49607843 0.49607843
0.53835784 0.53835784 0.53835784
0.59767157 0.59767157 0.59767157
0.66580882 0.66580882 0.66580882
0.67843137 0.67843137 0.67843137
0.67466299 0.67466299 0.67466299
0.74828431 0.74828431 0.74828431
0.51151961 0.51151961 0.51151961
0.52464767 0.52464767 0.52464767
0.55294118 0.55294118 0.55294118
0.59845282 0.59845282 0.59845282
0.64705882 0.64705882 0.64705882
0.70890012 0.70890012 0.70890012
0.72071078 0.72071078 0.72071078
0.72247243 0.72247243 0.72247243
0.79105392 0.79105392 0.79105392
0.47205882 0.47205882 0.47205882
0.51568627 0.51568627 0.51568627
0.55355392 0.55355392 0.55355392
0.6379902 0.6379902 0.6379902
0.69313725 0.69313725 0.69313725
0.74656863 0.74656863 0.74656863
0.77303922 0.77303922 0.77303922
0.77928922 0.77928922 0.77928922
0.8254902 0.8254902 0.8254902
0.58884804 0.58884804 0.58884804
0.60042892 0.60042892 0.60042892
0.62647059 0.62647059 0.62647059
0.67365196 0.67365196 0.67365196
0.72702206 0.72702206 0.72702206
0.78745404 0.78745404 0.78745404
0.81764706 0.81764706 0.81764706
0.84448529 0.84448529 0.84448529
0.85686275 0.85686275 0.85686275
0.69901961 0.69901961 0.69901961
0.70643382 0.70643382 0.70643382
0.72058824 0.72058824 0.72058824
0.75992647 0.75992647 0.75992647
0.80098039 0.80098039 0.80098039
0.83578431 0.83578431 0.83578431
0.8721201 0.8721201 0.8721201
0.90147059 0.90147059 0.90147059
0.9370098 0.9370098 0.9370098
0.8377451 0.8377451 0.8377451
0.82941176 0.82941176 0.82941176
0.8372549 0.8372549 0.8372549
0.85890012 0.85890012 0.85890012
0.88817402 0.88817402 0.88817402
0.90980392 0.90980392 0.90980392
0.93164828 0.93164828 0.93164828
0.95784314 0.95784314 0.95784314
0.97401961 0.97401961 0.97401961
0.91666667 0.91666667 0.91666667
0.93284314 0.93284314 0.93284314
0.94926471 0.94926471 0.94926471
0.95465686 0.95465686 0.95465686
0.95441176 0.95441176 0.95441176
0.97647059 0.97647059 0.97647059
0.97647059 0.97647059 0.97647059
0.98823529 0.98823529 0.98823529
0.99215686 0.99215686 0.99215686
0.54901961 0.54901961 0.54901961
0.55680147 0.55680147 0.55680147
0.5932598 0.5932598 0.5932598
0.6276348 0.6276348 0.6276348
0.67916667 0.67916667 0.67916667
0.75 0.75 0.75
0.79852941 0.79852941 0.79852941
0.80153186 0.80153186 0.80153186
0.80196078 0.80196078 0.80196078
0.58333333 0.58333333 0.58333333
0.58671109 0.58671109 0.58671109
0.61205576 0.61205576 0.61205576
0.65383732 0.65383732 0.65383732
0.69610907 0.69610907 0.69610907
0.75762102 0.75762102 0.75762102
0.80588235 0.80588235 0.80588235
0.80637255 0.80637255 0.80637255
0.80631127 0.80631127 0.80631127
0.61372549 0.61372549 0.61372549
0.62892157 0.62892157 0.62892157
0.65058211 0.65058211 0.65058211
0.68235294 0.68235294 0.68235294
0.72034314 0.72034314 0.72034314
0.77117034 0.77117034 0.77117034
0.82172181 0.82172181 0.82172181
0.82058824 0.82058824 0.82058824
0.83970588 0.83970588 0.83970588
0.64852941 0.64852941 0.64852941
0.67134651 0.67134651 0.67134651
0.69234069 0.69234069 0.69234069
0.72058824 0.72058824 0.72058824
0.75318627 0.75318627 0.75318627
0.79209559 0.79209559 0.79209559
0.83717831 0.83717831 0.83717831
0.84867494 0.84867494 0.84867494
0.85637255 0.85637255 0.85637255
0.65980392 0.65980392 0.65980392
0.675 0.675 0.675
0.71292892 0.71292892 0.71292892
0.74338235 0.74338235 0.74338235
0.78884804 0.78884804 0.78884804
0.82058824 0.82058824 0.82058824
0.85900735 0.85900735 0.85900735
0.86032475 0.86032475 0.86032475
0.87009804 0.87009804 0.87009804
0.66470588 0.66470588 0.66470588
0.67979473 0.67979473 0.67979473
0.70931373 0.70931373 0.70931373
0.73118873 0.73118873 0.73118873
0.78970588 0.78970588 0.78970588
0.83933058 0.83933058 0.83933058
0.88209252 0.88209252 0.88209252
0.89863664 0.89863664 0.89863664
0.91666667 0.91666667 0.91666667
0.76115196 0.76115196 0.76115196
0.761106 0.761106 0.761106
0.77950368 0.77950368 0.77950368
0.79840686 0.79840686 0.79840686
0.82794118 0.82794118 0.82794118
0.86631434 0.86631434 0.86631434
0.90968137 0.90968137 0.90968137
0.93561581 0.93561581 0.93561581
0.95392157 0.95392157 0.95392157
0.84117647 0.84117647 0.84117647
0.84999234 0.84999234 0.84999234
0.85654105 0.85654105 0.85654105
0.87295496 0.87295496 0.87295496
0.90125613 0.90125613 0.90125613
0.9245098 0.9245098 0.9245098
0.95085784 0.95085784 0.95085784
0.96960784 0.96960784 0.96960784
0.98039216 0.98039216 0.98039216
0.94901961 0.94901961 0.94901961
0.94117647 0.94117647 0.94117647
0.94901961 0.94901961 0.94901961
0.95539216 0.95539216 0.95539216
0.96323529 0.96323529 0.96323529
0.97824755 0.97824755 0.97824755
0.98039216 0.98039216 0.98039216
0.98823529 0.98823529 0.98823529
0.98823529 0.98823529 0.98823529
0.75294118 0.75294118 0.75294118
0.7872549 0.7872549 0.7872549
0.79607843 0.79607843 0.79607843
0.80637255 0.80637255 0.80637255
0.8254902 0.8254902 0.8254902
0.86421569 0.86421569 0.86421569
0.89117647 0.89117647 0.89117647
0.93431373 0.93431373 0.93431373
0.9254902 0.9254902 0.9254902
0.77990196 0.77990196 0.77990196
0.77604167 0.77604167 0.77604167
0.79485294 0.79485294 0.79485294
0.81207108 0.81207108 0.81207108
0.83480392 0.83480392 0.83480392
0.86550245 0.86550245 0.86550245
0.89852941 0.89852941 0.89852941
0.91323529 0.91323529 0.91323529
0.93382353 0.93382353 0.93382353
0.80196078 0.80196078 0.80196078
0.79215686 0.79215686 0.79215686
0.80588235 0.80588235 0.80588235
0.81752451 0.81752451 0.81752451
0.85245098 0.85245098 0.85245098
0.87536765 0.87536765 0.87536765
0.90147059 0.90147059 0.90147059
0.92928922 0.92928922 0.92928922
0.93235294 0.93235294 0.93235294
0.78431373 0.78431373 0.78431373
0.81470588 0.81470588 0.81470588
0.81237745 0.81237745 0.81237745
0.83866422 0.83866422 0.83866422
0.86078431 0.86078431 0.86078431
0.8877451 0.8877451 0.8877451
0.92365196 0.92365196 0.92365196
0.93756127 0.93756127 0.93756127
0.94509804 0.94509804 0.94509804
0.81568627 0.81568627 0.81568627
0.81740196 0.81740196 0.81740196
0.8122549 0.8122549 0.8122549
0.85073529 0.85073529 0.85073529
0.87352941 0.87352941 0.87352941
0.89558824 0.89558824 0.89558824
0.92745098 0.92745098 0.92745098
0.94387255 0.94387255 0.94387255
0.95882353 0.95882353 0.95882353
0.80147059 0.80147059 0.80147059
0.79656863 0.79656863 0.79656863
0.81176471 0.81176471 0.81176471
0.8504902 0.8504902 0.8504902
0.87916667 0.87916667 0.87916667
0.90735294 0.90735294 0.90735294
0.94276961 0.94276961 0.94276961
0.95686275 0.95686275 0.95686275
0.96862745 0.96862745 0.96862745
0.83333333 0.83333333 0.83333333
0.81433824 0.81433824 0.81433824
0.84509804 0.84509804 0.84509804
0.85294118 0.85294118 0.85294118
0.87745098 0.87745098 0.87745098
0.9254902 0.9254902 0.9254902
0.95 0.95 0.95
0.96470588 0.96470588 0.96470588
0.97254902 0.97254902 0.97254902
0.89460784 0.89460784 0.89460784
0.90637255 0.90637255 0.90637255
0.90686275 0.90686275 0.90686275
0.92107843 0.92107843 0.92107843
0.93406863 0.93406863 0.93406863
0.95098039 0.95098039 0.95098039
0.96605392 0.96605392 0.96605392
0.98088235 0.98088235 0.98088235
0.98431373 0.98431373 0.98431373
0.96470588 0.96470588 0.96470588
0.93676471 0.93676471 0.93676471
0.96078431 0.96078431 0.96078431
0.96078431 0.96078431 0.96078431
0.96862745 0.96862745 0.96862745
0.98039216 0.98039216 0.98039216
0.98039216 0.98039216 0.98039216
0.98823529 0.98823529 0.98823529
0.98823529 0.98823529 0.98823529
