site/assets/luts/sha256-ecee18fddd881d07e84aa1f7a3f486c2c7b83ab63d117804b2ed9a9315b1cb25.cube
# LUTr-Schema-Version: 2
# LUTr-ID: sha256-ecee18fddd881d07e84aa1f7a3f486c2c7b83ab63d117804b2ed9a9315b1cb25
# LUTr-Title: ilford fp4 plus 125
# LUTr-Collection: Natron HaldCLUT
# LUTr-Collection-ID: natron-haldclut-presets
# LUTr-Source: https://github.com/NatronGitHub/clut
# LUTr-Retrieved: 2026-07-27
# LUTr-Source-File: submissions/natron-haldclut-presets/bw/ilford_fp4_plus_125.png
# LUTr-Source-Format: HALD-PNG
# LUTr-Source-SHA256: ecee18fddd881d07e84aa1f7a3f486c2c7b83ab63d117804b2ed9a9315b1cb25
# LUTr-License: CC-BY-SA-4.0
# LUTr-License-URL: https://github.com/NatronGitHub/clut#license
# LUTr-License-Basis: repo-license-file
# LUTr-Transform-Class: film-emulation
# LUTr-Tags: creative, film, film-emulation, hald-clut, natron, png, cube
# LUTr-Input-Color-Space: srgb
# LUTr-Input-Gamut: rec709
# LUTr-Input-Transfer: srgb
# LUTr-Output-Color-Space: srgb
# LUTr-Output-Gamut: rec709
# LUTr-Output-Transfer: srgb
# LUTr-Color-Space-Confidence: assumed-display-referred
# LUTr-Domain-Normalized: true
# LUTr-Shaper: none
# LUTr-Original-Grid: 64x64x64
# LUTr-Conversion-Grid: 25x25x25
# LUTr-Conversion-Interpolation: trilinear
# LUTr-Conversion-Method: HALD-PNG LUT image decoded at 16-bit and sampled to 25x25x25 3D CUBE
# LUTr-Conversion-Tool: LUTr scripts/convert-all-to-cube.mjs 2.0.0
# LUTr-Conversion-Date: 2026-07-27
# LUTr-Note: Preserve this metadata and the upstream license notices when redistributing.
TITLE "ilford fp4 plus 125"
LUT_3D_SIZE 9
DOMAIN_MIN 0 0 0
DOMAIN_MAX 1 1 1
0.035294118 0.035294118 0.035294118
0.037745098 0.037745098 0.037745098
0.07745098 0.07745098 0.07745098
0.10833333 0.10833333 0.10833333
0.13921569 0.13921569 0.13921569
0.14901961 0.14901961 0.14901961
0.22254902 0.22254902 0.22254902
0.30294118 0.30294118 0.30294118
0.37254902 0.37254902 0.37254902
0.13186275 0.13186275 0.13186275
0.12401961 0.12401961 0.12401961
0.1557598 0.1557598 0.1557598
0.17352941 0.17352941 0.17352941
0.19681373 0.19681373 0.19681373
0.22530637 0.22530637 0.22530637
0.2754902 0.2754902 0.2754902
0.34509804 0.34509804 0.34509804
0.40686275 0.40686275 0.40686275
0.23235294 0.23235294 0.23235294
0.23492647 0.23492647 0.23492647
0.2252451 0.2252451 0.2252451
0.24509804 0.24509804 0.24509804
0.26666667 0.26666667 0.26666667
0.30477941 0.30477941 0.30477941
0.34509804 0.34509804 0.34509804
0.40686275 0.40686275 0.40686275
0.46078431 0.46078431 0.46078431
0.32892157 0.32892157 0.32892157
0.325 0.325 0.325
0.32107843 0.32107843 0.32107843
0.32892157 0.32892157 0.32892157
0.34656863 0.34656863 0.34656863
0.37745098 0.37745098 0.37745098
0.41262255 0.41262255 0.41262255
0.47009804 0.47009804 0.47009804
0.52647059 0.52647059 0.52647059
0.42156863 0.42156863 0.42156863
0.42156863 0.42156863 0.42156863
0.41960784 0.41960784 0.41960784
0.42867647 0.42867647 0.42867647
0.44411765 0.44411765 0.44411765
0.47009804 0.47009804 0.47009804
0.49901961 0.49901961 0.49901961
0.54191176 0.54191176 0.54191176
0.58823529 0.58823529 0.58823529
0.51960784 0.51960784 0.51960784
0.52352941 0.52352941 0.52352941
0.52745098 0.52745098 0.52745098
0.53382353 0.53382353 0.53382353
0.54240196 0.54240196 0.54240196
0.56666667 0.56666667 0.56666667
0.58970588 0.58970588 0.58970588
0.63235294 0.63235294 0.63235294
0.67107843 0.67107843 0.67107843
0.63039216 0.63039216 0.63039216
0.63517157 0.63517157 0.63517157
0.63921569 0.63921569 0.63921569
0.64497549 0.64497549 0.64497549
0.64852941 0.64852941 0.64852941
0.66323529 0.66323529 0.66323529
0.67843137 0.67843137 0.67843137
0.71323529 0.71323529 0.71323529
0.74313725 0.74313725 0.74313725
0.73921569 0.73921569 0.73921569
0.74264706 0.74264706 0.74264706
0.74656863 0.74656863 0.74656863
0.74656863 0.74656863 0.74656863
0.75269608 0.75269608 0.75269608
0.7622549 0.7622549 0.7622549
0.76715686 0.76715686 0.76715686
0.79362745 0.79362745 0.79362745
0.80490196 0.80490196 0.80490196
0.82745098 0.82745098 0.82745098
0.83137255 0.83137255 0.83137255
0.84019608 0.84019608 0.84019608
0.82745098 0.82745098 0.82745098
0.83529412 0.83529412 0.83529412
0.84705882 0.84705882 0.84705882
0.84803922 0.84803922 0.84803922
0.87009804 0.87009804 0.87009804
0.85882353 0.85882353 0.85882353
0.089215686 0.089215686 0.089215686
0.089644608 0.089644608 0.089644608
0.11703431 0.11703431 0.11703431
0.13903186 0.13903186 0.13903186
0.17352941 0.17352941 0.17352941
0.20833333 0.20833333 0.20833333
0.25502451 0.25502451 0.25502451
0.31911765 0.31911765 0.31911765
0.39558824 0.39558824 0.39558824
0.16666667 0.16666667 0.16666667
0.17015931 0.17015931 0.17015931
0.17879902 0.17879902 0.17879902
0.19442402 0.19442402 0.19442402
0.22594975 0.22594975 0.22594975
0.25849418 0.25849418 0.25849418
0.30862439 0.30862439 0.30862439
0.36814491 0.36814491 0.36814491
0.43039216 0.43039216 0.43039216
0.25147059 0.25147059 0.25147059
0.25539216 0.25539216 0.25539216
0.25548407 0.25548407 0.25548407
0.26776961 0.26776961 0.26776961
0.28970588 0.28970588 0.28970588
0.32843137 0.32843137 0.32843137
0.375 0.375 0.375
0.43337929 0.43337929 0.43337929
0.47352941 0.47352941 0.47352941
0.34411765 0.34411765 0.34411765
0.34411765 0.34411765 0.34411765
0.34019608 0.34019608 0.34019608
0.34803922 0.34803922 0.34803922
0.36960784 0.36960784 0.36960784
0.4004902 0.4004902 0.4004902
0.43958333 0.43958333 0.43958333
0.48790594 0.48790594 0.48790594
0.53039216 0.53039216 0.53039216
0.43504902 0.43504902 0.43504902
0.43333333 0.43333333 0.43333333
0.43284314 0.43284314 0.43284314
0.44313725 0.44313725 0.44313725
0.45857843 0.45857843 0.45857843
0.48553922 0.48553922 0.48553922
0.52009804 0.52009804 0.52009804
0.55514706 0.55514706 0.55514706
0.59779412 0.59779412 0.59779412
0.52959559 0.52959559 0.52959559
0.52959559 0.52959559 0.52959559
0.53671875 0.53671875 0.53671875
0.542356 0.542356 0.542356
0.55382966 0.55382966 0.55382966
0.57794118 0.57794118 0.57794118
0.60882353 0.60882353 0.60882353
0.63627451 0.63627451 0.63627451
0.67107843 0.67107843 0.67107843
0.63786765 0.63786765 0.63786765
0.63909314 0.63909314 0.63909314
0.64571078 0.64571078 0.64571078
0.64986213 0.64986213 0.64986213
0.65998775 0.65998775 0.65998775
0.67539828 0.67539828 0.67539828
0.69791667 0.69791667 0.69791667
0.72106311 0.72106311 0.72106311
0.74313725 0.74313725 0.74313725
0.74656863 0.74656863 0.74656863
0.74662224 0.74662224 0.74662224
0.74656863 0.74656863 0.74656863
0.7468367 0.7468367 0.7468367
0.76026348 0.76026348 0.76026348
0.77371324 0.77371324 0.77371324
0.78541667 0.78541667 0.78541667
0.80098039 0.80098039 0.80098039
0.80882353 0.80882353 0.80882353
0.83480392 0.83480392 0.83480392
0.825 0.825 0.825
0.83627451 0.83627451 0.83627451
0.83137255 0.83137255 0.83137255
0.84313725 0.84313725 0.84313725
0.85490196 0.85490196 0.85490196
0.85490196 0.85490196 0.85490196
0.8627451 0.8627451 0.8627451
0.8622549 0.8622549 0.8622549
0.14019608 0.14019608 0.14019608
0.13664216 0.13664216 0.13664216
0.15490196 0.15490196 0.15490196
0.18639706 0.18639706 0.18639706
0.2127451 0.2127451 0.2127451
0.2564951 0.2564951 0.2564951
0.30098039 0.30098039 0.30098039
0.3377451 0.3377451 0.3377451
0.41960784 0.41960784 0.41960784
0.20845588 0.20845588 0.20845588
0.20931373 0.20931373 0.20931373
0.215625 0.215625 0.215625
0.23872549 0.23872549 0.23872549
0.2627451 0.2627451 0.2627451
0.30539216 0.30539216 0.30539216
0.34730392 0.34730392 0.34730392
0.39117647 0.39117647 0.39117647
0.45343137 0.45343137 0.45343137
0.28627451 0.28627451 0.28627451
0.28627451 0.28627451 0.28627451
0.28627451 0.28627451 0.28627451
0.30621936 0.30621936 0.30621936
0.3310049 0.3310049 0.3310049
0.36433824 0.36433824 0.36433824
0.40686275 0.40686275 0.40686275
0.45572917 0.45572917 0.45572917
0.48357843 0.48357843 0.48357843
0.37107843 0.37107843 0.37107843
0.36773897 0.36773897 0.36773897
0.3705576 0.3705576 0.3705576
0.38261336 0.38261336 0.38261336
0.40410539 0.40410539 0.40410539
0.43261336 0.43261336 0.43261336
0.47156863 0.47156863 0.47156863
0.51421569 0.51421569 0.51421569
0.52647059 0.52647059 0.52647059
0.46372549 0.46372549 0.46372549
0.46372549 0.46372549 0.46372549
0.46764706 0.46764706 0.46764706
0.4754902 0.4754902 0.4754902
0.49019608 0.49019608 0.49019608
0.51617647 0.51617647 0.51617647
0.54705882 0.54705882 0.54705882
0.57990196 0.57990196 0.57990196
0.6 0.6 0.6
0.55637255 0.55637255 0.55637255
0.55998775 0.55998775 0.55998775
0.56813725 0.56813725 0.56813725
0.57297794 0.57297794 0.57297794
0.58241422 0.58241422 0.58241422
0.59987745 0.59987745 0.59987745
0.62794118 0.62794118 0.62794118
0.65735294 0.65735294 0.65735294
0.67953431 0.67953431 0.67953431
0.65686275 0.65686275 0.65686275
0.66050858 0.66050858 0.66050858
0.66397059 0.66397059 0.66397059
0.67144608 0.67144608 0.67144608
0.68431373 0.68431373 0.68431373
0.69617034 0.69617034 0.69617034
0.71648284 0.71648284 0.71648284
0.73866422 0.73866422 0.73866422
0.75392157 0.75392157 0.75392157
0.75735294 0.75735294 0.75735294
0.75736826 0.75736826 0.75736826
0.75122549 0.75122549 0.75122549
0.75796569 0.75796569 0.75796569
0.77199755 0.77199755 0.77199755
0.78547794 0.78547794 0.78547794
0.79715074 0.79715074 0.79715074
0.80952819 0.80952819 0.80952819
0.82095588 0.82095588 0.82095588
0.85 0.85 0.85
0.84313725 0.84313725 0.84313725
0.83921569 0.83921569 0.83921569
0.83921569 0.83921569 0.83921569
0.84705882 0.84705882 0.84705882
0.85490196 0.85490196 0.85490196
0.8620098 0.8620098 0.8620098
0.87487745 0.87487745 0.87487745
0.88529412 0.88529412 0.88529412
0.19313725 0.19313725 0.19313725
0.2004902 0.2004902 0.2004902
0.22242647 0.22242647 0.22242647
0.23572304 0.23572304 0.23572304
0.24362745 0.24362745 0.24362745
0.30196078 0.30196078 0.30196078
0.35134804 0.35134804 0.35134804
0.38363971 0.38363971 0.38363971
0.43382353 0.43382353 0.43382353
0.25851716 0.25851716 0.25851716
0.25882353 0.25882353 0.25882353
0.26580882 0.26580882 0.26580882
0.28615962 0.28615962 0.28615962
0.31161152 0.31161152 0.31161152
0.34331342 0.34331342 0.34331342
0.39076287 0.39076287 0.39076287
0.42945006 0.42945006 0.42945006
0.47647059 0.47647059 0.47647059
0.3317402 0.3317402 0.3317402
0.3317402 0.3317402 0.3317402
0.33302696 0.33302696 0.33302696
0.35943627 0.35943627 0.35943627
0.38192402 0.38192402 0.38192402
0.40833333 0.40833333 0.40833333
0.44460784 0.44460784 0.44460784
0.48333333 0.48333333 0.48333333
0.50625 0.50625 0.50625
0.40980392 0.40980392 0.40980392
0.4122549 0.4122549 0.4122549
0.41764706 0.41764706 0.41764706
0.42736673 0.42736673 0.42736673
0.44583333 0.44583333 0.44583333
0.47493873 0.47493873 0.47493873
0.50245098 0.50245098 0.50245098
0.5346201 0.5346201 0.5346201
0.53823529 0.53823529 0.53823529
0.49852941 0.49852941 0.49852941
0.49960172 0.49960172 0.49960172
0.50992647 0.50992647 0.50992647
0.51421569 0.51421569 0.51421569
0.52365196 0.52365196 0.52365196
0.54901961 0.54901961 0.54901961
0.57598039 0.57598039 0.57598039
0.5981924 0.5981924 0.5981924
0.6004902 0.6004902 0.6004902
0.5872549 0.5872549 0.5872549
0.59068627 0.59068627 0.59068627
0.59901961 0.59901961 0.59901961
0.60539216 0.60539216 0.60539216
0.61470588 0.61470588 0.61470588
0.62738971 0.62738971 0.62738971
0.65343137 0.65343137 0.65343137
0.67702206 0.67702206 0.67702206
0.69313725 0.69313725 0.69313725
0.67745098 0.67745098 0.67745098
0.68382353 0.68382353 0.68382353
0.6877451 0.6877451 0.6877451
0.69428615 0.69428615 0.69428615
0.70508578 0.70508578 0.70508578
0.717356 0.717356 0.717356
0.7346201 0.7346201 0.7346201
0.75200674 0.75200674 0.75200674
0.76911765 0.76911765 0.76911765
0.76862745 0.76862745 0.76862745
0.77254902 0.77254902 0.77254902
0.76996017 0.76996017 0.76996017
0.77909773 0.77909773 0.77909773
0.78685662 0.78685662 0.78685662
0.79636949 0.79636949 0.79636949
0.80890012 0.80890012 0.80890012
0.82134651 0.82134651 0.82134651
0.83627451 0.83627451 0.83627451
0.85490196 0.85490196 0.85490196
0.85098039 0.85098039 0.85098039
0.84313725 0.84313725 0.84313725
0.85435049 0.85435049 0.85435049
0.86127451 0.86127451 0.86127451
0.86758578 0.86758578 0.86758578
0.8745098 0.8745098 0.8745098
0.8745098 0.8745098 0.8745098
0.87205882 0.87205882 0.87205882
0.2372549 0.2372549 0.2372549
0.2502451 0.2502451 0.2502451
0.28529412 0.28529412 0.28529412
0.31372549 0.31372549 0.31372549
0.32058824 0.32058824 0.32058824
0.35588235 0.35588235 0.35588235
0.39068627 0.39068627 0.39068627
0.42671569 0.42671569 0.42671569
0.49215686 0.49215686 0.49215686
0.30490196 0.30490196 0.30490196
0.30640319 0.30640319 0.30640319
0.33180147 0.33180147 0.33180147
0.34460784 0.34460784 0.34460784
0.36568627 0.36568627 0.36568627
0.40122549 0.40122549 0.40122549
0.43529412 0.43529412 0.43529412
0.47257966 0.47257966 0.47257966
0.525 0.525 0.525
0.37843137 0.37843137 0.37843137
0.37843137 0.37843137 0.37843137
0.38210784 0.38210784 0.38210784
0.40588235 0.40588235 0.40588235
0.43504902 0.43504902 0.43504902
0.4622549 0.4622549 0.4622549
0.49313725 0.49313725 0.49313725
0.52867647 0.52867647 0.52867647
0.55980392 0.55980392 0.55980392
0.45318627 0.45318627 0.45318627
0.45318627 0.45318627 0.45318627
0.46176471 0.46176471 0.46176471
0.47886029 0.47886029 0.47886029
0.49705882 0.49705882 0.49705882
0.52598039 0.52598039 0.52598039
0.55245098 0.55245098 0.55245098
0.58250613 0.58250613 0.58250613
0.59264706 0.59264706 0.59264706
0.53333333 0.53333333 0.53333333
0.53811275 0.53811275 0.53811275
0.54607843 0.54607843 0.54607843
0.55453431 0.55453431 0.55453431
0.56813725 0.56813725 0.56813725
0.59264706 0.59264706 0.59264706
0.61544118 0.61544118 0.61544118
0.63529412 0.63529412 0.63529412
0.63921569 0.63921569 0.63921569
0.61813725 0.61813725 0.61813725
0.62205882 0.62205882 0.62205882
0.62990196 0.62990196 0.62990196
0.6370098 0.6370098 0.6370098
0.65245098 0.65245098 0.65245098
0.66985294 0.66985294 0.66985294
0.68743873 0.68743873 0.68743873
0.703125 0.703125 0.703125
0.71151961 0.71151961 0.71151961
0.70196078 0.70196078 0.70196078
0.70814951 0.70814951 0.70814951
0.71470588 0.71470588 0.71470588
0.72218137 0.72218137 0.72218137
0.73480392 0.73480392 0.73480392
0.74509804 0.74509804 0.74509804
0.75343137 0.75343137 0.75343137
0.77254902 0.77254902 0.77254902
0.78431373 0.78431373 0.78431373
0.7877451 0.7877451 0.7877451
0.79534314 0.79534314 0.79534314
0.79166667 0.79166667 0.79166667
0.80165441 0.80165441 0.80165441
0.81213235 0.81213235 0.81213235
0.81862745 0.81862745 0.81862745
0.82328431 0.82328431 0.82328431
0.83823529 0.83823529 0.83823529
0.84362745 0.84362745 0.84362745
0.87647059 0.87647059 0.87647059
0.86102941 0.86102941 0.86102941
0.85490196 0.85490196 0.85490196
0.86593137 0.86593137 0.86593137
0.87647059 0.87647059 0.87647059
0.8745098 0.8745098 0.8745098
0.88431373 0.88431373 0.88431373
0.87205882 0.87205882 0.87205882
0.85490196 0.85490196 0.85490196
0.30637255 0.30637255 0.30637255
0.29938725 0.29938725 0.29938725
0.33921569 0.33921569 0.33921569
0.3754902 0.3754902 0.3754902
0.40098039 0.40098039 0.40098039
0.42702206 0.42702206 0.42702206
0.45245098 0.45245098 0.45245098
0.50214461 0.50214461 0.50214461
0.55833333 0.55833333 0.55833333
0.3627451 0.3627451 0.3627451
0.36666667 0.36666667 0.36666667
0.38235294 0.38235294 0.38235294
0.40851716 0.40851716 0.40851716
0.43030025 0.43030025 0.43030025
0.45882353 0.45882353 0.45882353
0.48926164 0.48926164 0.48926164
0.53789062 0.53789062 0.53789062
0.58284314 0.58284314 0.58284314
0.43627451 0.43627451 0.43627451
0.43627451 0.43627451 0.43627451
0.44914216 0.44914216 0.44914216
0.46441483 0.46441483 0.46441483
0.49240196 0.49240196 0.49240196
0.51770833 0.51770833 0.51770833
0.54705882 0.54705882 0.54705882
0.58481924 0.58481924 0.58481924
0.62156863 0.62156863 0.62156863
0.50588235 0.50588235 0.50588235
0.50821844 0.50821844 0.50821844
0.51372549 0.51372549 0.51372549
0.53543964 0.53543964 0.53543964
0.55416667 0.55416667 0.55416667
0.57794118 0.57794118 0.57794118
0.60696998 0.60696998 0.60696998
0.63878676 0.63878676 0.63878676
0.66329657 0.66329657 0.66329657
0.58137255 0.58137255 0.58137255
0.58431373 0.58431373 0.58431373
0.59460784 0.59460784 0.59460784
0.60735294 0.60735294 0.60735294
0.61985294 0.61985294 0.61985294
0.6416973 0.6416973 0.6416973
0.66182598 0.66182598 0.66182598
0.68504902 0.68504902 0.68504902
0.7120098 0.7120098 0.7120098
0.66170343 0.66170343 0.66170343
0.665625 0.665625 0.665625
0.67346814 0.67346814 0.67346814
0.68488817 0.68488817 0.68488817
0.69776348 0.69776348 0.69776348
0.70876225 0.70876225 0.70876225
0.72303922 0.72303922 0.72303922
0.73963695 0.73963695 0.73963695
0.76519608 0.76519608 0.76519608
0.74276961 0.74276961 0.74276961
0.74655331 0.74655331 0.74655331
0.75199142 0.75199142 0.75199142
0.75698529 0.75698529 0.75698529
0.76758578 0.76758578 0.76758578
0.77414216 0.77414216 0.77414216
0.77962623 0.77962623 0.77962623
0.79603248 0.79603248 0.79603248
0.81519608 0.81519608 0.81519608
0.82598039 0.82598039 0.82598039
0.82205882 0.82205882 0.82205882
0.81813725 0.81813725 0.81813725
0.82598039 0.82598039 0.82598039
0.83504902 0.83504902 0.83504902
0.83675705 0.83675705 0.83675705
0.84024203 0.84024203 0.84024203
0.85214461 0.85214461 0.85214461
0.85980392 0.85980392 0.85980392
0.88235294 0.88235294 0.88235294
0.87598039 0.87598039 0.87598039
0.87058824 0.87058824 0.87058824
0.87843137 0.87843137 0.87843137
0.87990196 0.87990196 0.87990196
0.88082108 0.88082108 0.88082108
0.89620098 0.89620098 0.89620098
0.89901961 0.89901961 0.89901961
0.88529412 0.88529412 0.88529412
0.39509804 0.39509804 0.39509804
0.39117647 0.39117647 0.39117647
0.40980392 0.40980392 0.40980392
0.45036765 0.45036765 0.45036765
0.47941176 0.47941176 0.47941176
0.50539216 0.50539216 0.50539216
0.53651961 0.53651961 0.53651961
0.57107843 0.57107843 0.57107843
0.60980392 0.60980392 0.60980392
0.43762255 0.43762255 0.43762255
0.44117647 0.44117647 0.44117647
0.45683211 0.45683211 0.45683211
0.47406556 0.47406556 0.47406556
0.49705882 0.49705882 0.49705882
0.5245098 0.5245098 0.5245098
0.56020221 0.56020221 0.56020221
0.59803922 0.59803922 0.59803922
0.63186275 0.63186275 0.63186275
0.49901961 0.49901961 0.49901961
0.5067402 0.5067402 0.5067402
0.52230392 0.52230392 0.52230392
0.53223039 0.53223039 0.53223039
0.55098039 0.55098039 0.55098039
0.57463235 0.57463235 0.57463235
0.60508578 0.60508578 0.60508578
0.64096201 0.64096201 0.64096201
0.67377451 0.67377451 0.67377451
0.56764706 0.56764706 0.56764706
0.57156863 0.57156863 0.57156863
0.58244485 0.58244485 0.58244485
0.595481 0.595481 0.595481
0.61133578 0.61133578 0.61133578
0.63411458 0.63411458 0.63411458
0.65965074 0.65965074 0.65965074
0.68681066 0.68681066 0.68681066
0.70330882 0.70330882 0.70330882
0.6372549 0.6372549 0.6372549
0.63854167 0.63854167 0.63854167
0.64852941 0.64852941 0.64852941
0.66078431 0.66078431 0.66078431
0.67230392 0.67230392 0.67230392
0.68848039 0.68848039 0.68848039
0.70992647 0.70992647 0.70992647
0.73112745 0.73112745 0.73112745
0.74803922 0.74803922 0.74803922
0.71188725 0.71188725 0.71188725
0.71462929 0.71462929 0.71462929
0.72193627 0.72193627 0.72193627
0.72647059 0.72647059 0.72647059
0.73186275 0.73186275 0.73186275
0.74509804 0.74509804 0.74509804
0.76011029 0.76011029 0.76011029
0.77518382 0.77518382 0.77518382
0.79460784 0.79460784 0.79460784
0.7872549 0.7872549 0.7872549
0.7872549 0.7872549 0.7872549
0.78627451 0.78627451 0.78627451
0.78333333 0.78333333 0.78333333
0.79705882 0.79705882 0.79705882
0.80686275 0.80686275 0.80686275
0.80686275 0.80686275 0.80686275
0.81908701 0.81908701 0.81908701
0.82941176 0.82941176 0.82941176
0.84767157 0.84767157 0.84767157
0.84499081 0.84499081 0.84499081
0.84117647 0.84117647 0.84117647
0.84505208 0.84505208 0.84505208
0.85159314 0.85159314 0.85159314
0.85281863 0.85281863 0.85281863
0.85952819 0.85952819 0.85952819
0.86862745 0.86862745 0.86862745
0.87156863 0.87156863 0.87156863
0.89509804 0.89509804 0.89509804
0.8942402 0.8942402 0.8942402
0.89117647 0.89117647 0.89117647
0.8872549 0.8872549 0.8872549
0.89264706 0.89264706 0.89264706
0.89411765 0.89411765 0.89411765
0.90612745 0.90612745 0.90612745
0.92169118 0.92169118 0.92169118
0.92254902 0.92254902 0.92254902
0.49166667 0.49166667 0.49166667
0.4838848 0.4838848 0.4838848
0.47892157 0.47892157 0.47892157
0.52371324 0.52371324 0.52371324
0.56029412 0.56029412 0.56029412
0.59068627 0.59068627 0.59068627
0.61813725 0.61813725 0.61813725
0.640625 0.640625 0.640625
0.65539216 0.65539216 0.65539216
0.53382353 0.53382353 0.53382353
0.53039216 0.53039216 0.53039216
0.53999694 0.53999694 0.53999694
0.55327053 0.55327053 0.55327053
0.57156863 0.57156863 0.57156863
0.60245098 0.60245098 0.60245098
0.63284314 0.63284314 0.63284314
0.65980392 0.65980392 0.65980392
0.68676471 0.68676471 0.68676471
0.58382353 0.58382353 0.58382353
0.59074755 0.59074755 0.59074755
0.59941789 0.59941789 0.59941789
0.60589767 0.60589767 0.60589767
0.61936275 0.61936275 0.61936275
0.63644301 0.63644301 0.63644301
0.66338848 0.66338848 0.66338848
0.69057904 0.69057904 0.69057904
0.71470588 0.71470588 0.71470588
0.63351716 0.63351716 0.63351716
0.64090839 0.64090839 0.64090839
0.65232843 0.65232843 0.65232843
0.66078431 0.66078431 0.66078431
0.67239583 0.67239583 0.67239583
0.68959099 0.68959099 0.68959099
0.70890012 0.70890012 0.70890012
0.72150735 0.72150735 0.72150735
0.7341299 0.7341299 0.7341299
0.69509804 0.69509804 0.69509804
0.69509804 0.69509804 0.69509804
0.70686275 0.70686275 0.70686275
0.71446078 0.71446078 0.71446078
0.7192402 0.7192402 0.7192402
0.73676471 0.73676471 0.73676471
0.75196078 0.75196078 0.75196078
0.76547181 0.76547181 0.76547181
0.7752451 0.7752451 0.7752451
0.76421569 0.76421569 0.76421569
0.76439951 0.76439951 0.76439951
0.76844363 0.76844363 0.76844363
0.76813725 0.76813725 0.76813725
0.77337623 0.77337623 0.77337623
0.78474265 0.78474265 0.78474265
0.79840686 0.79840686 0.79840686
0.81184896 0.81184896 0.81184896
0.82941176 0.82941176 0.82941176
0.81801471 0.81801471 0.81801471
0.81366422 0.81366422 0.81366422
0.81642157 0.81642157 0.81642157
0.8180913 0.8180913 0.8180913
0.82481618 0.82481618 0.82481618
0.83316483 0.83316483 0.83316483
0.83697917 0.83697917 0.83697917
0.84895833 0.84895833 0.84895833
0.85637255 0.85637255 0.85637255
0.86813725 0.86813725 0.86813725
0.86502757 0.86502757 0.86502757
0.86421569 0.86421569 0.86421569
0.86388634 0.86388634 0.86388634
0.87181373 0.87181373 0.87181373
0.88118873 0.88118873 0.88118873
0.88333333 0.88333333 0.88333333
0.88382353 0.88382353 0.88382353
0.8995098 0.8995098 0.8995098
0.91813725 0.91813725 0.91813725
0.92205882 0.92205882 0.92205882
0.91507353 0.91507353 0.91507353
0.89822304 0.89822304 0.89822304
0.9120098 0.9120098 0.9120098
0.92254902 0.92254902 0.92254902
0.91715686 0.91715686 0.91715686
0.92647059 0.92647059 0.92647059
0.95343137 0.95343137 0.95343137
0.56862745 0.56862745 0.56862745
0.56862745 0.56862745 0.56862745
0.57941176 0.57941176 0.57941176
0.61029412 0.61029412 0.61029412
0.63921569 0.63921569 0.63921569
0.65882353 0.65882353 0.65882353
0.66666667 0.66666667 0.66666667
0.68235294 0.68235294 0.68235294
0.69411765 0.69411765 0.69411765
0.5995098 0.5995098 0.5995098
0.60643382 0.60643382 0.60643382
0.6189951 0.6189951 0.6189951
0.63088235 0.63088235 0.63088235
0.65245098 0.65245098 0.65245098
0.67028186 0.67028186 0.67028186
0.68970588 0.68970588 0.68970588
0.71372549 0.71372549 0.71372549
0.73284314 0.73284314 0.73284314
0.64509804 0.64509804 0.64509804
0.65257353 0.65257353 0.65257353
0.66176471 0.66176471 0.66176471
0.66752451 0.66752451 0.66752451
0.68333333 0.68333333 0.68333333
0.70036765 0.70036765 0.70036765
0.70122549 0.70122549 0.70122549
0.72156863 0.72156863 0.72156863
0.76078431 0.76078431 0.76078431
0.69509804 0.69509804 0.69509804
0.69901961 0.69901961 0.69901961
0.70686275 0.70686275 0.70686275
0.7098652 0.7098652 0.7098652
0.72132353 0.72132353 0.72132353
0.73578431 0.73578431 0.73578431
0.73578431 0.73578431 0.73578431
0.74773284 0.74773284 0.74773284
0.76078431 0.76078431 0.76078431
0.74901961 0.74901961 0.74901961
0.75294118 0.75294118 0.75294118
0.75490196 0.75490196 0.75490196
0.75490196 0.75490196 0.75490196
0.75784314 0.75784314 0.75784314
0.77328431 0.77328431 0.77328431
0.78039216 0.78039216 0.78039216
0.79215686 0.79215686 0.79215686
0.80392157 0.80392157 0.80392157
0.80539216 0.80539216 0.80539216
0.80931373 0.80931373 0.80931373
0.80183824 0.80183824 0.80183824
0.79754902 0.79754902 0.79754902
0.80294118 0.80294118 0.80294118
0.82009804 0.82009804 0.82009804
0.8310049 0.8310049 0.8310049
0.84099265 0.84099265 0.84099265
0.8627451 0.8627451 0.8627451
0.8372549 0.8372549 0.8372549
0.83627451 0.83627451 0.83627451
0.84019608 0.84019608 0.84019608
0.84019608 0.84019608 0.84019608
0.84852941 0.84852941 0.84852941
0.86580882 0.86580882 0.86580882
0.85980392 0.85980392 0.85980392
0.85931373 0.85931373 0.85931373
0.8872549 0.8872549 0.8872549
0.8872549 0.8872549 0.8872549
0.8872549 0.8872549 0.8872549
0.89117647 0.89117647 0.89117647
0.88069853 0.88069853 0.88069853
0.89289216 0.89289216 0.89289216
0.91047794 0.91047794 0.91047794
0.89803922 0.89803922 0.89803922
0.8877451 0.8877451 0.8877451
0.91862745 0.91862745 0.91862745
0.94509804 0.94509804 0.94509804
0.95245098 0.95245098 0.95245098
0.93039216 0.93039216 0.93039216
0.90588235 0.90588235 0.90588235
0.92352941 0.92352941 0.92352941
0.96372549 0.96372549 0.96372549
0.95196078 0.95196078 0.95196078
0.94558824 0.94558824 0.94558824
0.95686275 0.95686275 0.95686275
