site/assets/luts/sha256-bd040f24477d1e58881951a99c2af45cc812c3c561af66c26cc12a0bada9e1e2.cube
# LUTr-Schema-Version: 2
# LUTr-ID: sha256-bd040f24477d1e58881951a99c2af45cc812c3c561af66c26cc12a0bada9e1e2
# LUTr-Title: fuji fp-100c negative
# LUTr-Collection: Natron HaldCLUT
# LUTr-Collection-ID: natron-haldclut-presets
# LUTr-Source: https://github.com/NatronGitHub/clut
# LUTr-Retrieved: 2026-07-27
# LUTr-Source-File: submissions/natron-haldclut-presets/instant_pro/fuji_fp-100c_negative.png
# LUTr-Source-Format: HALD-PNG
# LUTr-Source-SHA256: bd040f24477d1e58881951a99c2af45cc812c3c561af66c26cc12a0bada9e1e2
# LUTr-License: CC-BY-SA-4.0
# LUTr-License-URL: https://github.com/NatronGitHub/clut#license
# LUTr-License-Basis: repo-license-file
# LUTr-Transform-Class: film-emulation
# LUTr-Tags: creative, film, film-emulation, hald-clut, natron, png, cube
# LUTr-Input-Color-Space: srgb
# LUTr-Input-Gamut: rec709
# LUTr-Input-Transfer: srgb
# LUTr-Output-Color-Space: srgb
# LUTr-Output-Gamut: rec709
# LUTr-Output-Transfer: srgb
# LUTr-Color-Space-Confidence: assumed-display-referred
# LUTr-Domain-Normalized: true
# LUTr-Shaper: none
# LUTr-Original-Grid: 64x64x64
# LUTr-Conversion-Grid: 25x25x25
# LUTr-Conversion-Interpolation: trilinear
# LUTr-Conversion-Method: HALD-PNG LUT image decoded at 16-bit and sampled to 25x25x25 3D CUBE
# LUTr-Conversion-Tool: LUTr scripts/convert-all-to-cube.mjs 2.0.0
# LUTr-Conversion-Date: 2026-07-27
# LUTr-Note: Preserve this metadata and the upstream license notices when redistributing.
TITLE "fuji fp-100c negative"
LUT_3D_SIZE 5
DOMAIN_MIN 0 0 0
DOMAIN_MAX 1 1 1
0.054901961 0.10588235 0.082352941
0.12941176 0.10196078 0.078431373
0.44705882 0.037254902 0.070588235
0.8 0.042156863 0.089215686
1 0.40784314 0.16470588
0.047058824 0.13235294 0.090196078
0.15784314 0.16004902 0.079411765
0.50833333 0.19068627 0.052941176
0.81176471 0.28431373 0.055882353
0.99509804 0.49215686 0.21078431
0.035294118 0.39803922 0.19607843
0.22647059 0.41862745 0.21813725
0.53823529 0.53137255 0.10784314
0.81666667 0.58627451 0.1004902
0.99019608 0.65294118 0.3
0.33627451 0.68627451 0.42843137
0.41764706 0.69411765 0.45098039
0.57303922 0.73039216 0.45980392
0.80294118 0.79436275 0.42083333
0.99607843 0.83039216 0.45686275
0.75294118 0.91372549 0.71764706
0.76764706 0.90588235 0.71764706
0.84509804 0.90980392 0.73333333
0.92058824 0.93235294 0.74215686
0.99607843 0.94117647 0.74117647
0.069607843 0.10196078 0.13921569
0.14705882 0.099019608 0.13529412
0.5127451 0.010294118 0.18382353
0.82352941 0.1245098 0.26151961
1 0.42843137 0.35980392
0.048039216 0.15171569 0.17426471
0.19313725 0.1747549 0.19901961
0.53394608 0.20477941 0.23541667
0.81960784 0.31905637 0.28253676
0.99509804 0.51078431 0.38333333
0.20784314 0.43480392 0.33039216
0.29019608 0.45122549 0.33186275
0.55735294 0.54215686 0.31029412
0.81642157 0.59522059 0.32107843
0.97156863 0.63823529 0.39754902
0.37941176 0.69803922 0.48504902
0.43946078 0.70079657 0.49191176
0.59705882 0.73431373 0.52156863
0.80392157 0.79117647 0.49644608
0.98823529 0.82941176 0.51691176
0.73333333 0.90588235 0.71372549
0.76446078 0.90661765 0.72058824
0.83823529 0.90784314 0.7377451
0.91960784 0.92720588 0.74607843
0.99607843 0.94117647 0.75196078
0.18823529 0.052941176 0.41960784
0.3754902 0.023529412 0.45196078
0.6245098 0.15490196 0.48529412
0.88627451 0.29019608 0.5622549
0.99607843 0.42745098 0.58627451
0.028431373 0.14019608 0.45588235
0.32389706 0.1692402 0.48529412
0.6375 0.33897059 0.525
0.87254902 0.45110294 0.58419118
0.99852941 0.55735294 0.61372549
0.1245098 0.42745098 0.48627451
0.29019608 0.46446078 0.51102941
0.60980392 0.5754902 0.57058824
0.82279412 0.62058824 0.59362745
0.99411765 0.68235294 0.63137255
0.44264706 0.70686275 0.60392157
0.51482843 0.71875 0.61176471
0.64264706 0.74583333 0.63235294
0.82892157 0.79546569 0.64117647
0.99607843 0.8254902 0.66764706
0.75686275 0.90980392 0.74313725
0.77303922 0.90931373 0.74460784
0.84509804 0.91470588 0.75686275
0.9372549 0.92745098 0.77647059
1 0.94117647 0.78039216
0.50490196 0.0039215686 0.69803922
0.61691176 0.00098039216 0.7127451
0.82254902 0.24509804 0.74558824
0.92843137 0.55 0.74632353
0.99313725 0.64313725 0.75882353
0.44215686 0.079166667 0.70514706
0.58333333 0.13155637 0.71593137
0.80416667 0.39656863 0.7495098
0.91917892 0.62622549 0.74797794
1 0.70294118 0.76568627
0.014215686 0.36862745 0.68382353
0.076470588 0.3935049 0.69031863
0.68872549 0.55122549 0.7375
0.92156863 0.73137255 0.76421569
0.99607843 0.77941176 0.77794118
0.23651961 0.67058824 0.68039216
0.34705882 0.68786765 0.69289216
0.58688725 0.72904412 0.72107843
0.87058824 0.81096814 0.76666667
0.99705882 0.85294118 0.78308824
0.6627451 0.90980392 0.78039216
0.68333333 0.90392157 0.78112745
0.825 0.91568627 0.79313725
0.94215686 0.92132353 0.82058824
0.99607843 0.9372549 0.8372549
0.82745098 0.18039216 0.89019608
0.85784314 0.26666667 0.88627451
0.94509804 0.48823529 0.87843137
0.99607843 0.70882353 0.86568627
1 0.80392157 0.87058824
0.7745098 0.29313725 0.88235294
0.82647059 0.38333333 0.88627451
0.91960784 0.54754902 0.87941176
1 0.72941176 0.87254902
1 0.82843137 0.8754902
0.54509804 0.41176471 0.88627451
0.64705882 0.47254902 0.88431373
0.84019608 0.61960784 0.88921569
0.99852941 0.78235294 0.89019608
1 0.85882353 0.88039216
0.0058823529 0.70490196 0.87745098
0.015686275 0.67254902 0.85171569
0.074019608 0.67254902 0.87794118
0.9127451 0.80686275 0.89509804
1 0.91372549 0.90980392
0.58039216 0.90980392 0.90588235
0.6372549 0.91764706 0.91764706
0.72745098 0.91568627 0.91372549
0.88529412 0.91470588 0.8745098
0.99215686 0.9372549 0.90196078
