site/assets/luts/sha256-da515d4d54478001c23c9a8e989838a75c4f6c50f1eb468832902736d1d3ccdc.cube
# LUTr-Schema-Version: 2
# LUTr-ID: sha256-da515d4d54478001c23c9a8e989838a75c4f6c50f1eb468832902736d1d3ccdc
# LUTr-Title: polaroid px-100uv+ warm
# LUTr-Collection: Natron HaldCLUT
# LUTr-Collection-ID: natron-haldclut-presets
# LUTr-Source: https://github.com/NatronGitHub/clut
# LUTr-Retrieved: 2026-07-27
# LUTr-Source-File: submissions/natron-haldclut-presets/instant_consumer/polaroid_px-100uv+_warm.png
# LUTr-Source-Format: HALD-PNG
# LUTr-Source-SHA256: da515d4d54478001c23c9a8e989838a75c4f6c50f1eb468832902736d1d3ccdc
# LUTr-License: CC-BY-SA-4.0
# LUTr-License-URL: https://github.com/NatronGitHub/clut#license
# LUTr-License-Basis: repo-license-file
# LUTr-Transform-Class: film-emulation
# LUTr-Tags: creative, film, film-emulation, hald-clut, natron, png, warm, cube
# LUTr-Input-Color-Space: srgb
# LUTr-Input-Gamut: rec709
# LUTr-Input-Transfer: srgb
# LUTr-Output-Color-Space: srgb
# LUTr-Output-Gamut: rec709
# LUTr-Output-Transfer: srgb
# LUTr-Color-Space-Confidence: assumed-display-referred
# LUTr-Domain-Normalized: true
# LUTr-Shaper: none
# LUTr-Original-Grid: 64x64x64
# LUTr-Conversion-Grid: 25x25x25
# LUTr-Conversion-Interpolation: trilinear
# LUTr-Conversion-Method: HALD-PNG LUT image decoded at 16-bit and sampled to 25x25x25 3D CUBE
# LUTr-Conversion-Tool: LUTr scripts/convert-all-to-cube.mjs 2.0.0
# LUTr-Conversion-Date: 2026-07-27
# LUTr-Note: Preserve this metadata and the upstream license notices when redistributing.
TITLE "polaroid px-100uv+ warm"
LUT_3D_SIZE 25
DOMAIN_MIN 0 0 0
DOMAIN_MAX 1 1 1
0.29019608 0.27058824 0.2745098
0.29019608 0.27058824 0.27058824
0.29019608 0.27058824 0.27156863
0.29411765 0.27794118 0.27794118
0.30196078 0.28431373 0.28431373
0.30588235 0.29019608 0.29068627
0.30980392 0.29411765 0.29705882
0.31372549 0.29803922 0.30196078
0.31764706 0.30196078 0.30588235
0.33186275 0.31862745 0.32254902
0.35490196 0.33921569 0.34313725
0.3754902 0.36323529 0.36715686
0.39607843 0.38431373 0.38823529
0.41666667 0.40539216 0.4127451
0.4372549 0.4254902 0.43039216
0.45637255 0.44607843 0.45
0.4745098 0.46666667 0.47058824
0.49509804 0.4872549 0.48872549
0.51568627 0.50392157 0.50686275
0.53627451 0.5245098 0.5245098
0.55686275 0.54509804 0.54313725
0.57745098 0.56568627 0.56176471
0.59803922 0.58235294 0.57843137
0.61862745 0.60294118 0.59754902
0.63529412 0.61960784 0.61176471
0.29019608 0.27058824 0.27058824
0.29019608 0.27058824 0.27058824
0.29019608 0.27058824 0.27058824
0.29381127 0.27579657 0.27794118
0.3 0.28308824 0.28431373
0.30588235 0.29019608 0.29068627
0.30980392 0.29411765 0.29705882
0.31372549 0.29803922 0.2995098
0.31764706 0.30196078 0.30588235
0.33039216 0.31770833 0.3216299
0.35306373 0.33921569 0.34313725
0.3754902 0.36323529 0.36715686
0.39607843 0.38431373 0.38823529
0.41666667 0.40520833 0.40931373
0.4372549 0.42647059 0.43333333
0.45637255 0.44607843 0.45
0.4745098 0.46666667 0.47058824
0.49509804 0.4872549 0.48780637
0.51568627 0.50392157 0.50784314
0.53627451 0.5245098 0.5245098
0.55686275 0.54509804 0.54313725
0.57745098 0.56568627 0.56176471
0.59803922 0.58333333 0.57843137
0.61862745 0.60294118 0.59754902
0.63529412 0.61960784 0.61176471
0.28627451 0.26666667 0.27058824
0.28627451 0.26666667 0.26997549
0.2870098 0.26740196 0.26985294
0.29276961 0.27401961 0.27401961
0.29803922 0.28039216 0.28186275
0.30588235 0.28676471 0.29019608
0.30980392 0.29313725 0.29411765
0.31372549 0.29803922 0.2995098
0.31764706 0.30196078 0.30490196
0.33039216 0.31470588 0.31862745
0.35196078 0.33921569 0.34313725
0.3754902 0.36323529 0.36715686
0.39607843 0.38431373 0.38823529
0.41666667 0.40490196 0.40882353
0.4372549 0.4254902 0.42941176
0.45637255 0.44607843 0.45
0.4745098 0.46666667 0.47058824
0.49509804 0.48480392 0.4872549
0.51568627 0.50392157 0.50686275
0.53627451 0.5245098 0.5245098
0.55686275 0.54509804 0.54313725
0.57745098 0.56568627 0.56176471
0.59803922 0.58553922 0.57843137
0.61862745 0.60294118 0.59901961
0.63921569 0.62352941 0.61568627
0.28627451 0.26666667 0.26666667
0.28627451 0.26666667 0.26666667
0.28627451 0.26666667 0.26666667
0.28976716 0.27015931 0.27101716
0.29632353 0.28039216 0.28039216
0.30588235 0.28676471 0.290625
0.31237745 0.2939951 0.29705882
0.31501225 0.29932598 0.30324755
0.32107843 0.30539216 0.30588235
0.33382353 0.31844363 0.32205882
0.35490196 0.33921569 0.34313725
0.3754902 0.36323529 0.36672794
0.39607843 0.38431373 0.38823529
0.41666667 0.40490196 0.40882353
0.4372549 0.4254902 0.42941176
0.45637255 0.44607843 0.45
0.4745098 0.46666667 0.47058824
0.49509804 0.48480392 0.4872549
0.51482843 0.50392157 0.50428922
0.53627451 0.5245098 0.5245098
0.55686275 0.54509804 0.54142157
0.57745098 0.56525735 0.56176471
0.59803922 0.58247549 0.57843137
0.61862745 0.60294118 0.59901961
0.63578431 0.62009804 0.6122549
0.28823529 0.26862745 0.26862745
0.28627451 0.26666667 0.26666667
0.28235294 0.2627451 0.2627451
0.28970588 0.27009804 0.27181373
0.3 0.28235294 0.28431373
0.31029412 0.29240196 0.29460784
0.31715686 0.2995098 0.30294118
0.325 0.30857843 0.31127451
0.33137255 0.31568627 0.31960784
0.34558824 0.32990196 0.33382353
0.35980392 0.34509804 0.34901961
0.37745098 0.36397059 0.36789216
0.39607843 0.38431373 0.38823529
0.41666667 0.40490196 0.40882353
0.4372549 0.4254902 0.42941176
0.45392157 0.44607843 0.45
0.4745098 0.46666667 0.47058824
0.49509804 0.48406863 0.4872549
0.51176471 0.50392157 0.50392157
0.53235294 0.52254902 0.52279412
0.55294118 0.54117647 0.54117647
0.57377451 0.56176471 0.55955882
0.59754902 0.58235294 0.57843137
0.61862745 0.60294118 0.59754902
0.63529412 0.61960784 0.61176471
0.29901961 0.28284314 0.28333333
0.29901961 0.27941176 0.28069853
0.29901961 0.27941176 0.27941176
0.29901961 0.27941176 0.28284314
0.30612745 0.28848039 0.28872549
0.31421569 0.29503676 0.29852941
0.32107843 0.30490196 0.30882353
0.33480392 0.31568627 0.31960784
0.34558824 0.32990196 0.33382353
0.35980392 0.34411765 0.34803922
0.37022059 0.35833333 0.3622549
0.38431373 0.3721201 0.37604167
0.4004902 0.38872549 0.39264706
0.41709559 0.40882353 0.4127451
0.4372549 0.42941176 0.43333333
0.45422794 0.44607843 0.45
0.4745098 0.46666667 0.47058824
0.49479167 0.48333333 0.4872549
0.51176471 0.50294118 0.50392157
0.53192402 0.52058824 0.52058824
0.55245098 0.54093137 0.53897059
0.57352941 0.56176471 0.55784314
0.59411765 0.58235294 0.57843137
0.61862745 0.60324755 0.59773284
0.63529412 0.61960784 0.61176471
0.31666667 0.3 0.3
0.31666667 0.3 0.3
0.31960784 0.3 0.3
0.31960784 0.3 0.30392157
0.31813725 0.3 0.30098039
0.31813725 0.29852941 0.30245098
0.32745098 0.30882353 0.3125
0.34276961 0.32598039 0.32990196
0.35588235 0.34019608 0.34411765
0.37009804 0.35686275 0.36017157
0.38357843 0.36936275 0.37254902
0.39460784 0.38284314 0.38676471
0.40882353 0.39705882 0.40098039
0.42316176 0.41262255 0.41654412
0.4379902 0.42941176 0.43333333
0.45637255 0.44607843 0.45
0.4745098 0.46666667 0.47058824
0.49154412 0.48333333 0.4872549
0.51176471 0.5 0.50318627
0.52843137 0.51801471 0.52058824
0.54901961 0.5372549 0.5372549
0.57009804 0.55784314 0.55784314
0.59705882 0.58235294 0.57843137
0.62254902 0.60686275 0.59901961
0.63823529 0.62254902 0.61176471
0.33627451 0.31911765 0.32058824
0.33627451 0.31911765 0.32058824
0.33627451 0.32058824 0.32058824
0.33627451 0.31911765 0.32058824
0.33480392 0.31666667 0.32058824
0.33235294 0.31292892 0.31685049
0.33921569 0.32144608 0.32536765
0.35435049 0.3377451 0.34166667
0.37009804 0.35441176 0.35833333
0.38284314 0.36862745 0.3716299
0.39460784 0.38284314 0.38676471
0.40833333 0.39656863 0.39834559
0.41911765 0.40735294 0.41127451
0.43204657 0.42156863 0.4254902
0.44362745 0.43541667 0.43933824
0.45876225 0.45 0.45392157
0.4745098 0.46666667 0.47058824
0.49172794 0.48333333 0.4872549
0.51078431 0.5 0.50294118
0.52843137 0.51666667 0.51930147
0.54754902 0.53651961 0.5372549
0.56979167 0.55784314 0.55441176
0.60098039 0.58529412 0.58137255
0.62794118 0.6122549 0.60386029
0.64460784 0.62745098 0.61715686
0.35294118 0.3372549 0.34117647
0.35294118 0.3372549 0.34117647
0.35294118 0.3372549 0.34117647
0.35294118 0.3372549 0.34117647
0.35294118 0.3372549 0.3372549
0.35343137 0.3372549 0.34117647
0.35980392 0.34117647 0.34411765
0.37009804 0.35196078 0.35441176
0.38039216 0.36470588 0.36862745
0.39313725 0.37892157 0.38284314
0.40490196 0.39313725 0.39705882
0.41519608 0.40343137 0.40735294
0.42745098 0.41764706 0.42156863
0.43970588 0.42843137 0.43186275
0.45 0.44215686 0.44607843
0.46421569 0.45392157 0.45784314
0.47843137 0.47058824 0.4745098
0.49509804 0.4872549 0.48872549
0.51176471 0.50294118 0.50392157
0.52843137 0.51715686 0.52058824
0.54509804 0.53529412 0.53529412
0.57009804 0.55833333 0.55784314
0.60490196 0.58921569 0.58529412
0.63186275 0.61470588 0.60686275
0.65098039 0.63137255 0.62352941
0.36960784 0.35784314 0.35784314
0.36960784 0.35784314 0.35784314
0.36960784 0.35539216 0.35784314
0.36960784 0.35392157 0.35784314
0.37352941 0.35784314 0.35857843
0.37401961 0.35784314 0.36176471
0.37855392 0.36176471 0.36568627
0.38584559 0.37107843 0.37254902
0.39460784 0.37892157 0.38284314
0.40490196 0.38921569 0.39313725
0.41519608 0.40343137 0.40379902
0.4254902 0.41372549 0.41734069
0.43333333 0.42401961 0.42794118
0.44393382 0.43449755 0.43841912
0.45637255 0.44791667 0.45
0.46905637 0.46121324 0.46329657
0.48480392 0.47696078 0.47843137
0.50147059 0.49209559 0.49417892
0.51752451 0.50747549 0.50931373
0.53480392 0.52322304 0.52322304
0.55147059 0.53970588 0.53970588
0.57401961 0.56047794 0.55833333
0.60490196 0.59166667 0.58529412
0.63523284 0.61862745 0.60686275
0.65245098 0.63529412 0.62352941
0.38921569 0.3745098 0.37843137
0.38921569 0.3745098 0.37843137
0.38946078 0.3745098 0.37843137
0.39289216 0.37855392 0.3814951
0.39019608 0.37647059 0.37843137
0.39411765 0.37855392 0.38235294
0.39803922 0.38235294 0.38627451
0.40343137 0.3877451 0.39166667
0.40980392 0.39705882 0.39803922
0.41911765 0.40441176 0.40772059
0.4254902 0.41372549 0.41691176
0.43186275 0.42316176 0.42401961
0.44215686 0.43039216 0.43431373
0.45147059 0.44068627 0.44460784
0.4625 0.45392157 0.45710784
0.4745098 0.46629902 0.47022059
0.49117647 0.48235294 0.48333333
0.50784314 0.49754902 0.5
0.5245098 0.51495098 0.51568627
0.54117647 0.52990196 0.52990196
0.55784314 0.54754902 0.54607843
0.57843137 0.56568627 0.56176471
0.60784314 0.59313725 0.58529412
0.63431373 0.61862745 0.60686275
0.65098039 0.63137255 0.61960784
0.40686275 0.39509804 0.39901961
0.40686275 0.39509804 0.39901961
0.40698529 0.39522059 0.39901961
0.40735294 0.39515931 0.39901961
0.41078431 0.39705882 0.39901961
0.41470588 0.3995098 0.40294118
0.41776961 0.40294118 0.4060049
0.42254902 0.40833333 0.41078431
0.42647059 0.41470588 0.41519608
0.43302696 0.42107843 0.42285539
0.43835784 0.42659314 0.42794118
0.44264706 0.43431373 0.43480392
0.4504902 0.44068627 0.44460784
0.45882353 0.45098039 0.45490196
0.46911765 0.46127451 0.46519608
0.48333333 0.4754902 0.47726716
0.49803922 0.48970588 0.49362745
0.51599265 0.50637255 0.50784314
0.53394608 0.52303922 0.52218137
0.55147059 0.53970588 0.53670343
0.56813725 0.55637255 0.55269608
0.58480392 0.57303922 0.56868873
0.60882353 0.5939951 0.58627451
0.63431373 0.61715686 0.60686275
0.64754902 0.63137255 0.61960784
0.42352941 0.41372549 0.41568627
0.42352941 0.4129902 0.41568627
0.42598039 0.41568627 0.41764706
0.42745098 0.41568627 0.41960784
0.43039216 0.41764706 0.41960784
0.43357843 0.41985294 0.42352941
0.43529412 0.42352941 0.425
0.43995098 0.42745098 0.42892157
0.44313725 0.43137255 0.43333333
0.44828431 0.43651961 0.43848039
0.45343137 0.44166667 0.44362745
0.45661765 0.44681373 0.4504902
0.4627451 0.45294118 0.45588235
0.46862745 0.45906863 0.4629902
0.4754902 0.46764706 0.47156863
0.49117647 0.48333333 0.48578431
0.50784314 0.5 0.5
0.5245098 0.51421569 0.51421569
0.54117647 0.53088235 0.52941176
0.55833333 0.54656863 0.54607843
0.57647059 0.56372549 0.55980392
0.59509804 0.58112745 0.5752451
0.61421569 0.59852941 0.59068627
0.63431373 0.61715686 0.60686275
0.65098039 0.63137255 0.61960784
0.44019608 0.43235294 0.43627451
0.44234069 0.43235294 0.43627451
0.44411765 0.43321078 0.43627451
0.4471201 0.43627451 0.43927696
0.44803922 0.43627451 0.43995098
0.45153186 0.43670343 0.44019608
0.45453431 0.44019608 0.44276961
0.45716912 0.44540441 0.44773284
0.46323529 0.44803922 0.45196078
0.4658701 0.45441176 0.45569853
0.46862745 0.45943627 0.46066176
0.47457108 0.46366422 0.46672794
0.47916667 0.46960784 0.47156863
0.48376225 0.47591912 0.47898284
0.49019608 0.48235294 0.48578431
0.50410539 0.49607843 0.49607843
0.51862745 0.51029412 0.51029412
0.53498775 0.5245098 0.5245098
0.55134804 0.53970588 0.53835784
0.56813725 0.55637255 0.5528799
0.58455882 0.57083333 0.56666667
0.60098039 0.58572304 0.58088235
0.61764706 0.60208333 0.59154412
0.63480392 0.61862745 0.60716912
0.65490196 0.63529412 0.62352941
0.45686275 0.44901961 0.45294118
0.46078431 0.45294118 0.45686275
0.46470588 0.45294118 0.45686275
0.46470588 0.45637255 0.45686275
0.46862745 0.45686275 0.45686275
0.46862745 0.45686275 0.45698529
0.47181373 0.45980392 0.46078431
0.47463235 0.46286765 0.46470588
0.48039216 0.46862745 0.46862745
0.48431373 0.47254902 0.475
0.48823529 0.47745098 0.48039216
0.49215686 0.48382353 0.48394608
0.49656863 0.48823529 0.48872549
0.50134804 0.49264706 0.4935049
0.51078431 0.49926471 0.50073529
0.5192402 0.50931373 0.50968137
0.53529412 0.52352941 0.52058824
0.54840686 0.53664216 0.53480392
0.56397059 0.55220588 0.54828431
0.57794118 0.56580882 0.55931373
0.59264706 0.57892157 0.57352941
0.60772059 0.59215686 0.58394608
0.6245098 0.60882353 0.59803922
0.64411765 0.6254902 0.61372549
0.66176471 0.64215686 0.63039216
0.48823529 0.47892157 0.48137255
0.48676471 0.47800245 0.47892157
0.48676471 0.47745098 0.47855392
0.48676471 0.47745098 0.47745098
0.48529412 0.47352941 0.47745098
0.48560049 0.47383578 0.47616422
0.48921569 0.47745098 0.47745098
0.49313725 0.48137255 0.48229167
0.49705882 0.48529412 0.4877451
0.50343137 0.49166667 0.49313725
0.50772059 0.49705882 0.49705882
0.51096814 0.50079657 0.50079657
0.51593137 0.50490196 0.50490196
0.52107843 0.5127451 0.51145833
0.52745098 0.51629902 0.51629902
0.5377451 0.52598039 0.52542892
0.5504902 0.53627451 0.53627451
0.56378676 0.55202206 0.54901961
0.57928922 0.56531863 0.56139706
0.59442402 0.58106618 0.57481618
0.61004902 0.59632353 0.5877451
0.62352941 0.60784314 0.5995098
0.64117647 0.6245098 0.61335784
0.66078431 0.64117647 0.62702206
0.67598039 0.65392157 0.64068627
0.52156863 0.50980392 0.50980392
0.51764706 0.50588235 0.50588235
0.51372549 0.50196078 0.50196078
0.51029412 0.50196078 0.50196078
0.50784314 0.49607843 0.49607843
0.50588235 0.49411765 0.49411765
0.50588235 0.49411765 0.49411765
0.51127451 0.4995098 0.4995098
0.51764706 0.50588235 0.50588235
0.52156863 0.5122549 0.5122549
0.5254902 0.51470588 0.51372549
0.52941176 0.51764706 0.51764706
0.53333333 0.52156863 0.52156863
0.5377451 0.52941176 0.52598039
0.54803922 0.53627451 0.53333333
0.55686275 0.54264706 0.54264706
0.56862745 0.55294118 0.54901961
0.58137255 0.56715686 0.56323529
0.59705882 0.58235294 0.57745098
0.61127451 0.59901961 0.59117647
0.62941176 0.61372549 0.60392157
0.64411765 0.62794118 0.61617647
0.66078431 0.64215686 0.63039216
0.68137255 0.66029412 0.64460784
0.69411765 0.6745098 0.65490196
0.55245098 0.53676471 0.53431373
0.54852941 0.53676471 0.53339461
0.54460784 0.53223039 0.53002451
0.54068627 0.52677696 0.52518382
0.53357843 0.52181373 0.51985294
0.52628676 0.51452206 0.51452206
0.5254902 0.51372549 0.51372549
0.53186275 0.52009804 0.52009804
0.53823529 0.52647059 0.52647059
0.54215686 0.53039216 0.52947304
0.54607843 0.53431373 0.53186275
0.54607843 0.53560049 0.53431373
0.55073529 0.54019608 0.53823529
0.55833333 0.54656863 0.54264706
0.56678922 0.55294118 0.55110294
0.575 0.56231618 0.55839461
0.58529412 0.56960784 0.56568627
0.5995098 0.58382353 0.57898284
0.61470588 0.59901961 0.59227941
0.63137255 0.61568627 0.60569853
0.64803922 0.63235294 0.61936275
0.66470588 0.64852941 0.63302696
0.68137255 0.6627451 0.64705882
0.7004902 0.68088235 0.66182598
0.7122549 0.69117647 0.67156863
0.58235294 0.56666667 0.55980392
0.57941176 0.56372549 0.55919118
0.5754902 0.55980392 0.55563725
0.57156863 0.55588235 0.55196078
0.56568627 0.5504902 0.54803922
0.56066176 0.54767157 0.54411765
0.55759804 0.54509804 0.54117647
0.56017157 0.54803922 0.54411765
0.56372549 0.55196078 0.54803922
0.56764706 0.55379902 0.55098039
0.56764706 0.55514706 0.55098039
0.56764706 0.55588235 0.55196078
0.57058824 0.55882353 0.55490196
0.57892157 0.56678922 0.5627451
0.58921569 0.5745098 0.56960784
0.6004902 0.58480392 0.57990196
0.61078431 0.59509804 0.59019608
0.62291667 0.60539216 0.59754902
0.63602941 0.61887255 0.61078431
0.65208333 0.63370098 0.6245098
0.66862745 0.65098039 0.6372549
0.68529412 0.6682598 0.65257353
0.70367647 0.68333333 0.66666667
0.72107843 0.70085784 0.68088235
0.73137255 0.70784314 0.68823529
0.61029412 0.59460784 0.58676471
0.61029412 0.5908701 0.5846201
0.60637255 0.59068627 0.58284314
0.6028799 0.58676471 0.57984069
0.60196078 0.58627451 0.57892157
0.59803922 0.58278186 0.575
0.59546569 0.58235294 0.575
0.59460784 0.58235294 0.575
0.59803922 0.58284314 0.5754902
0.59852941 0.5841299 0.57892157
0.59852941 0.58284314 0.57892157
0.59852941 0.58627451 0.57892157
0.6002451 0.58676471 0.58088235
0.60686275 0.59117647 0.58682598
0.61715686 0.60147059 0.59411765
0.62892157 0.61194853 0.60441176
0.64166667 0.62598039 0.61470588
0.64981618 0.63235294 0.62107843
0.6622549 0.64313725 0.63137255
0.67604167 0.65729167 0.64509804
0.69093137 0.67328431 0.65784314
0.7088848 0.68970588 0.67058824
0.72647059 0.70686275 0.6872549
0.74166667 0.71832108 0.69852941
0.74803922 0.725 0.70490196
0.64313725 0.6254902 0.61372549
0.64313725 0.62352941 0.61372549
0.64313725 0.62352941 0.61372549
0.64117647 0.62352941 0.61372549
0.63921569 0.62156863 0.60980392
0.63529412 0.61936275 0.60931373
0.63382353 0.61764706 0.60588235
0.63259804 0.61568627 0.60588235
0.63333333 0.61764706 0.60588235
0.63333333 0.61764706 0.60588235
0.63333333 0.61764706 0.60588235
0.63333333 0.61764706 0.60931373
0.63823529 0.62254902 0.61176471
0.64142157 0.62573529 0.61421569
0.65 0.63284314 0.62156863
0.66102941 0.64264706 0.63088235
0.67254902 0.65294118 0.64117647
0.67892157 0.66078431 0.64754902
0.68921569 0.66960784 0.65588235
0.70122549 0.68186275 0.66617647
0.71666667 0.69705882 0.68039216
0.73235294 0.7125 0.69289216
0.7495098 0.72843137 0.70784314
0.7622549 0.74117647 0.71764706
0.76470588 0.74509804 0.71960784
0.68039216 0.66029412 0.64460784
0.68039216 0.66029412 0.64460784
0.68039216 0.66029412 0.64460784
0.67996324 0.66029412 0.64460784
0.67622549 0.65686275 0.64093137
0.67254902 0.65594363 0.64068627
0.67254902 0.65294118 0.63811275
0.67077206 0.65245098 0.63676471
0.66862745 0.65245098 0.63676471
0.66832108 0.65245098 0.63676471
0.66862745 0.65257353 0.63688725
0.67248775 0.65594363 0.64068627
0.67622549 0.65857843 0.64460784
0.68039216 0.66121324 0.64852941
0.6872549 0.6685049 0.65281863
0.69705882 0.67745098 0.66176471
0.70343137 0.68382353 0.66813725
0.70998775 0.69019608 0.67420343
0.71911765 0.69914216 0.6807598
0.72990196 0.71029412 0.69068627
0.74240196 0.72279412 0.70122549
0.75839461 0.73878676 0.71525735
0.77303922 0.75294118 0.72941176
0.78314951 0.76176471 0.73578431
0.78529412 0.76176471 0.73823529
0.71764706 0.69803922 0.67941176
0.71764706 0.69803922 0.67941176
0.71764706 0.69730392 0.67916667
0.71764706 0.69509804 0.6754902
0.71372549 0.69264706 0.67352941
0.71066176 0.69105392 0.67156863
0.70980392 0.69019608 0.67156863
0.70686275 0.6872549 0.67009804
0.70588235 0.68627451 0.66764706
0.70588235 0.68627451 0.66764706
0.70759804 0.6879902 0.67156863
0.71066176 0.69117647 0.67414216
0.71421569 0.69460784 0.6754902
0.71776961 0.69816176 0.67941176
0.7247549 0.70514706 0.68627451
0.73186275 0.71188725 0.69154412
0.73823529 0.71470588 0.69607843
0.74215686 0.72144608 0.70183824
0.75 0.72745098 0.70784314
0.75735294 0.7377451 0.71519608
0.77009804 0.74852941 0.7254902
0.78590686 0.76360294 0.73970588
0.8 0.77720588 0.75
0.80588235 0.78235294 0.75490196
0.80588235 0.78235294 0.75490196
0.75343137 0.73235294 0.70882353
0.75343137 0.72990196 0.70882353
0.75343137 0.72990196 0.70882353
0.75343137 0.72990196 0.70667892
0.7502451 0.72867647 0.70637255
0.74920343 0.72726716 0.70245098
0.74558824 0.72303922 0.70134804
0.74019608 0.71966912 0.69705882
0.73627451 0.71421569 0.69313725
0.73382353 0.71366422 0.69221814
0.74056373 0.71911765 0.69803922
0.74901961 0.72579657 0.70459559
0.75220588 0.73063725 0.70833333
0.75520833 0.73529412 0.71078431
0.76176471 0.74068627 0.71715686
0.76519608 0.74258578 0.71905637
0.76764706 0.74558824 0.72205882
0.77156863 0.74895833 0.72542892
0.77794118 0.75625 0.73272059
0.78676471 0.76470588 0.73970588
0.79852941 0.77622549 0.75
0.8127451 0.78952206 0.76207108
0.8254902 0.80196078 0.7745098
0.82647059 0.80294118 0.7754902
0.82647059 0.80294118 0.7754902
0.77647059 0.75294118 0.72941176
0.77647059 0.75294118 0.72941176
0.77745098 0.75392157 0.72941176
0.78039216 0.75686275 0.72941176
0.78431373 0.76078431 0.73333333
0.77647059 0.75294118 0.72892157
0.76960784 0.74607843 0.72254902
0.76323529 0.74117647 0.71764706
0.76078431 0.7372549 0.71372549
0.75931373 0.7372549 0.71372549
0.76470588 0.74215686 0.71862745
0.77205882 0.74852941 0.725
0.77843137 0.75686275 0.73137255
0.78872549 0.76519608 0.7377451
0.78921569 0.76568627 0.74117647
0.78823529 0.76470588 0.74117647
0.78823529 0.76470588 0.74117647
0.79215686 0.77107843 0.74362745
0.8 0.77745098 0.75
0.80735294 0.7877451 0.76029412
0.82156863 0.79803922 0.77058824
0.83578431 0.8122549 0.78088235
0.84607843 0.82254902 0.79215686
0.84313725 0.81960784 0.78823529
0.84313725 0.81960784 0.78823529
0.29019608 0.27058824 0.2745098
0.29019608 0.27058824 0.2745098
0.29301471 0.27340686 0.2745098
0.29411765 0.27794118 0.27843137
0.30196078 0.28431373 0.28431373
0.30588235 0.29019608 0.29068627
0.30980392 0.29411765 0.29705882
0.31519608 0.2995098 0.3028799
0.32401961 0.30833333 0.3122549
0.33915441 0.325 0.32892157
0.35735294 0.34558824 0.3495098
0.37794118 0.36617647 0.37009804
0.39852941 0.38676471 0.39068627
0.41666667 0.40882353 0.4127451
0.4372549 0.4254902 0.42941176
0.45637255 0.44607843 0.45
0.4745098 0.46666667 0.47058824
0.49509804 0.48572304 0.4872549
0.51568627 0.50392157 0.50686275
0.53627451 0.5245098 0.5245098
0.55686275 0.54509804 0.54313725
0.57745098 0.56568627 0.56176471
0.59803922 0.58627451 0.57904412
0.61862745 0.60294118 0.59754902
0.63529412 0.61960784 0.61176471
0.29019608 0.27058824 0.2745098
0.29019608 0.27058824 0.27393536
0.29042586 0.27340686 0.2745098
0.29411765 0.27794118 0.27805607
0.3 0.28431373 0.28431373
0.30588235 0.29019608 0.29068627
0.30980392 0.29411765 0.29705882
0.31464461 0.29895833 0.3028799
0.32401961 0.30833333 0.3122549
0.33857996 0.325 0.32892157
0.35735294 0.34313725 0.34705882
0.37794118 0.36452972 0.36764706
0.39776348 0.38599877 0.38992034
0.41666667 0.40735294 0.41127451
0.4372549 0.4254902 0.42941176
0.45637255 0.44607843 0.45
0.4745098 0.46666667 0.47058824
0.49509804 0.48514859 0.4872549
0.51568627 0.50392157 0.50686275
0.53627451 0.5245098 0.5245098
0.55686275 0.54509804 0.54313725
0.57745098 0.56568627 0.56176471
0.59803922 0.58627451 0.57941176
0.61862745 0.60562194 0.59881281
0.63529412 0.61960784 0.61176471
0.29019608 0.27058824 0.27242647
0.28982843 0.27058824 0.27127757
0.28992034 0.27058824 0.27242647
0.29362745 0.27446385 0.27611826
0.3 0.28216912 0.28357843
0.30618873 0.29019608 0.29068627
0.31026348 0.29457721 0.29721201
0.31516544 0.29947917 0.3028799
0.32401961 0.30833333 0.3122549
0.33823529 0.325 0.32708333
0.35735294 0.34313725 0.34705882
0.37794118 0.36372549 0.36764706
0.39607843 0.38431373 0.38823529
0.41666667 0.40735294 0.41127451
0.4372549 0.4254902 0.42941176
0.45637255 0.44607843 0.45
0.4745098 0.46666667 0.47058824
0.49509804 0.4838848 0.4872549
0.51568627 0.50392157 0.50686275
0.53627451 0.5245098 0.5245098
0.55686275 0.54509804 0.54313725
