site/assets/luts/sha256-a52eb7902d918bbb770dafd44a01d7e441ad375567940b7b00803603058983d5.cube
# LUTr-Schema-Version: 2
# LUTr-ID: sha256-a52eb7902d918bbb770dafd44a01d7e441ad375567940b7b00803603058983d5
# LUTr-Title: kodak portra 160 ++
# LUTr-Collection: Natron HaldCLUT
# LUTr-Collection-ID: natron-haldclut-presets
# LUTr-Source: https://github.com/NatronGitHub/clut
# LUTr-Retrieved: 2026-07-27
# LUTr-Source-File: submissions/natron-haldclut-presets/negative_new/kodak_portra_160_++.png
# LUTr-Source-Format: HALD-PNG
# LUTr-Source-SHA256: a52eb7902d918bbb770dafd44a01d7e441ad375567940b7b00803603058983d5
# LUTr-License: CC-BY-SA-4.0
# LUTr-License-URL: https://github.com/NatronGitHub/clut#license
# LUTr-License-Basis: repo-license-file
# LUTr-Transform-Class: film-emulation
# LUTr-Tags: creative, film, film-emulation, hald-clut, natron, png, cube
# LUTr-Input-Color-Space: srgb
# LUTr-Input-Gamut: rec709
# LUTr-Input-Transfer: srgb
# LUTr-Output-Color-Space: srgb
# LUTr-Output-Gamut: rec709
# LUTr-Output-Transfer: srgb
# LUTr-Color-Space-Confidence: assumed-display-referred
# LUTr-Domain-Normalized: true
# LUTr-Shaper: none
# LUTr-Original-Grid: 64x64x64
# LUTr-Conversion-Grid: 25x25x25
# LUTr-Conversion-Interpolation: trilinear
# LUTr-Conversion-Method: HALD-PNG LUT image decoded at 16-bit and sampled to 25x25x25 3D CUBE
# LUTr-Conversion-Tool: LUTr scripts/convert-all-to-cube.mjs 2.0.0
# LUTr-Conversion-Date: 2026-07-27
# LUTr-Note: Preserve this metadata and the upstream license notices when redistributing.
TITLE "kodak portra 160 ++"
LUT_3D_SIZE 9
DOMAIN_MIN 0 0 0
DOMAIN_MAX 1 1 1
0.15294118 0.10980392 0.082352941
0.17205882 0.078921569 0.08627451
0.26666667 0.08627451 0.082352941
0.40294118 0.039215686 0.075980392
0.58039216 0.033333333 0.041176471
0.73529412 0.0053921569 0.0039215686
0.85098039 0.044117647 0.0029411765
0.94264706 0.15490196 0
0.99215686 0.18823529 0
0.12990196 0.13676471 0.070588235
0.17640931 0.13927696 0.085355392
0.25980392 0.14313725 0.052328431
0.41832108 0.12941176 0.042647059
0.58627451 0.12696078 0.02377451
0.73529412 0.13216912 0.0078431373
0.85 0.15723039 0
0.9504902 0.20637255 0.0034926471
0.97598039 0.21421569 0.01127451
0.1245098 0.24215686 0.07745098
0.16078431 0.23921569 0.083823529
0.25490196 0.25392157 0.080392157
0.42254902 0.27647059 0.031372549
0.59411765 0.28333333 0.006372549
0.73137255 0.28921569 0.0039215686
0.84607843 0.29485294 0.0041666667
0.94215686 0.3189951 0.012254902
0.99215686 0.3254902 0.020588235
0.1004902 0.36911765 0.043137255
0.13921569 0.36930147 0.036764706
0.24460784 0.38137255 0.050980392
0.40496324 0.41764706 0.0093137255
0.58627451 0.45392157 0.0078431373
0.72745098 0.44362745 0.018137255
0.84607843 0.43786765 0.011764706
0.93694853 0.43988971 0.0056985294
0.99215686 0.44362745 0.0039215686
0.11372549 0.50980392 0.017647059
0.15784314 0.50196078 0.017892157
0.24558824 0.50147059 0.020588235
0.37377451 0.51813725 0.0085784314
0.53333333 0.54509804 0.010784314
0.69485294 0.58186275 0.01372549
0.81764706 0.58382353 0.0058823529
0.93112745 0.57622549 0.0039215686
0.99607843 0.57254902 0
0.19656863 0.6122549 0.042156863
0.21372549 0.6122549 0.029718137
0.28688725 0.60441176 0.044607843
0.37843137 0.60686275 0.010294118
0.50906863 0.62990196 0.0078431373
0.64607843 0.66078431 0.010294118
0.78345588 0.6995098 0.0033088235
0.90392157 0.70343137 0.0039215686
0.98823529 0.69460784 0.0078431373
0.29313725 0.7254902 0.12647059
0.3122549 0.71678922 0.13811275
0.35490196 0.70980392 0.11642157
0.42144608 0.70588235 0.10490196
0.52647059 0.72107843 0.1004902
0.63394608 0.74411765 0.11372549
0.74901961 0.77254902 0.1245098
0.88333333 0.80992647 0.16544118
0.98431373 0.81176471 0.057843137
0.41372549 0.83333333 0.29705882
0.42591912 0.83333333 0.28229167
0.4504902 0.82941176 0.25428922
0.50833333 0.82941176 0.2596201
0.5620098 0.82720588 0.23088235
0.66764706 0.84479167 0.27910539
0.75735294 0.85637255 0.29276961
0.86121324 0.87647059 0.31666667
0.96764706 0.91078431 0.34019608
0.54509804 0.94901961 0.45490196
0.54509804 0.94166667 0.44362745
0.56372549 0.94019608 0.44313725
0.61029412 0.94901961 0.45490196
0.65490196 0.94117647 0.45490196
0.72205882 0.9504902 0.46421569
0.79509804 0.95098039 0.46568627
0.87941176 0.96470588 0.48284314
0.96470588 0.98823529 0.5254902
0.1372549 0.086764706 0.14019608
0.16813725 0.078002451 0.134375
0.27708333 0.075 0.13970588
0.41207108 0.0058823529 0.12156863
0.58235294 0.01004902 0.11960784
0.73529412 0.0041053922 0.11421569
0.84963235 0.013112745 0.091053922
0.94558824 0.12052696 0.071139706
0.98872549 0.17352941 0.044117647
0.12941176 0.14797794 0.12886029
0.17892157 0.14449295 0.13578431
0.270481 0.14019608 0.13970588
0.42195159 0.125 0.12156863
0.59019608 0.10171569 0.10251225
0.73137255 0.10343137 0.090686275
0.85 0.14499081 0.07544424
0.94270067 0.1919807 0.05245098
0.99607843 0.22647059 0.030821078
0.12340686 0.2504902 0.12401961
0.16335784 0.24882047 0.13615196
0.25545343 0.2546875 0.12778799
0.43247549 0.27152267 0.095572917
0.60563725 0.28302696 0.063909314
0.73890931 0.28443627 0.037484681
0.84237132 0.28967525 0.031464461
0.93835784 0.31421569 0.027022059
0.99607843 0.3254902 0.020588235
0.099019608 0.39344363 0.12371324
0.147572 0.39028033 0.12714461
0.25084252 0.38938419 0.11812194
0.41323529 0.42149969 0.087438725
0.5861826 0.45294118 0.021905637
0.73418352 0.43830423 0.010477941
0.84220282 0.4319087 0.0078431373
0.93665748 0.43337163 0.0039215686
0.99577206 0.44509804 0
0.10955882 0.52107843 0.11372549
0.17916667 0.51151961 0.12398897
0.26041667 0.50955882 0.11151961
0.3859375 0.52205882 0.094209559
0.54276961 0.55379902 0.075857843
0.69788603 0.5895527 0.0072610294
0.82022059 0.57622549 0.01127451
0.93088235 0.56495098 0.0071384804
0.99387255 0.57254902 0
0.20410539 0.62009804 0.14117647
0.23676471 0.61775429 0.14068627
0.29689032 0.61034007 0.12789522
0.39136029 0.61518842 0.12346814
0.51176471 0.63382353 0.11568627
0.65238971 0.66715686 0.10558364
0.78676471 0.69595588 0.089215686
0.909375 0.69822304 0.013380821
0.98578431 0.69607843 0.0078431373
0.30968137 0.7245098 0.20539216
0.31960784 0.72189032 0.19620098
0.36920956 0.72022059 0.19448529
0.42352941 0.70588235 0.16675858
0.5245098 0.72426471 0.17696078
0.6372549 0.74719669 0.19901961
0.74803922 0.77156863 0.21029412
0.87941176 0.80637255 0.23071385
0.97977941 0.81213235 0.12867647
0.41372549 0.83719363 0.30790441
0.42897518 0.83333333 0.31176471
0.45490196 0.83333333 0.29618566
0.50040594 0.8254902 0.27794118
0.56939338 0.82720588 0.27748162
0.65637255 0.8408701 0.30100337
0.75637255 0.85772059 0.32843137
0.85299479 0.87598039 0.34270833
0.96378676 0.90343137 0.37408088
0.54460784 0.94852941 0.47352941
0.55147059 0.95104167 0.46868873
0.57941176 0.95343137 0.47830882
0.60851716 0.94509804 0.46488971
0.65318627 0.94313725 0.46053922
0.71341912 0.94185049 0.46017157
0.79901961 0.96090686 0.49509804
0.87598039 0.96470588 0.50496324
0.95686275 0.98039216 0.52892157
0.11470588 0.097058824 0.25392157
0.17169118 0.087622549 0.26617647
0.28848039 0.079411765 0.27058824
0.43431373 0.048529412 0.26470588
0.61029412 0.019117647 0.26764706
0.74852941 0.0053921569 0.26715686
0.85098039 0.017647059 0.24117647
0.94656863 0.080514706 0.2372549
0.97647059 0.14313725 0.23333333
0.10992647 0.15453431 0.26041667
0.17297794 0.16248468 0.26959252
0.28345588 0.15441176 0.26862745
0.44154412 0.14367341 0.27254902
0.60882353 0.11023284 0.26384804
0.74742647 0.06875 0.24949449
0.85073529 0.11498162 0.24080882
0.9459712 0.18350184 0.22559743
0.9877451 0.22487745 0.2245098
0.058333333 0.28112745 0.26176471
0.1495098 0.27751225 0.26593137
0.28082108 0.28039216 0.27034314
0.46078431 0.28823529 0.25275735
0.61605392 0.27892157 0.24154412
0.74028799 0.27647059 0.23333333
0.84607843 0.28946078 0.22702206
0.94044118 0.31418505 0.20686275
0.98995098 0.3254902 0.20122549
0.028921569 0.43480392 0.25502451
0.1495098 0.42634804 0.26752451
0.27647059 0.41960784 0.26351103
0.42843137 0.43555453 0.25686275
0.59215686 0.44362745 0.23014706
0.72889093 0.44339767 0.20036765
0.83823529 0.43333333 0.17512255
0.93466605 0.43632047 0.1439951
0.98823529 0.44509804 0.16102941
0.15882353 0.55735294 0.27401961
0.21672794 0.54626225 0.28026961
0.3 0.53443627 0.26666667
0.40833333 0.53676471 0.26145833
0.55318627 0.56617647 0.25980392
0.69503676 0.57444853 0.22794118
0.82156863 0.5685049 0.17328431
0.93572304 0.55686275 0.07689951
0.99607843 0.55735294 0.086764706
0.24264706 0.6504902 0.29129902
0.28325674 0.64656863 0.29460784
0.33688725 0.63170956 0.27389706
0.41329657 0.62654718 0.2654565
0.52457108 0.63866422 0.26715686
0.65238971 0.66715686 0.27683824
0.78676471 0.6919424 0.27190564
0.91286765 0.68855699 0.19010417
0.99215686 0.68431373 0.070710784
0.33137255 0.73921569 0.31764706
0.35416667 0.73921569 0.31764706
0.38854167 0.73161765 0.30367647
0.44901961 0.72362132 0.2932598
0.53235294 0.72647059 0.29215686
0.63697917 0.74558824 0.31507353
0.74932598 0.76936275 0.32745098
0.88333333 0.80925245 0.3479473
0.98431373 0.80784314 0.29338235
0.43186275 0.83676471 0.39068627
0.44342831 0.84100797 0.39162071
0.47086397 0.83982843 0.37941176
0.50851716 0.82918199 0.36243873
0.56985294 0.82634804 0.35545343
0.65203738 0.83702512 0.36776961
0.76029412 0.86041667 0.41470588
0.85909926 0.87990196 0.42156863
0.95943627 0.90330882 0.44607843
0.53333333 0.93333333 0.49705882
0.55637255 0.94852941 0.51176471
0.57573529 0.94534314 0.50588235
0.60343137 0.93578431 0.49460784
0.64509804 0.93039216 0.47990196
0.71875 0.94754902 0.5125
0.7997549 0.96642157 0.5370098
0.87598039 0.96213235 0.54031863
0.95686275 0.97647059 0.55980392
0.041176471 0.10343137 0.43676471
0.15441176 0.11636029 0.43823529
0.30343137 0.10147059 0.44607843
0.46421569 0.088786765 0.45545343
0.63529412 0.064460784 0.46176471
0.77303922 0.12052696 0.459375
0.86813725 0.1497549 0.43970588
0.95177696 0.18008578 0.41844363
0.99607843 0.2122549 0.40686275
0.061764706 0.17303922 0.43645833
0.16372549 0.175 0.44558824
0.30343137 0.18625919 0.45392157
0.46868873 0.18843444 0.46176471
0.64077819 0.19509804 0.46504289
0.76764706 0.20227482 0.45490196
0.86421569 0.21515012 0.44002757
0.94607843 0.23845741 0.41668964
0.99607843 0.29068627 0.42254902
0.021568627 0.29411765 0.43431373
0.14477635 0.30307904 0.43823529
0.30343137 0.31519608 0.45
0.4689185 0.32156863 0.45430453
0.62867647 0.32457108 0.4533701
0.75232843 0.33970588 0.44742647
0.84669118 0.34004289 0.43195466
0.93578431 0.33823529 0.41292892
0.98063725 0.35330882 0.41078431
0.024509804 0.46176471 0.44552696
0.11047028 0.47352941 0.45
0.29705882 0.46914828 0.45392157
0.45839461 0.45839461 0.43356311
0.61323529 0.45857843 0.42916667
0.73751532 0.46568627 0.42254902
0.83431373 0.45030637 0.40477941
0.9267693 0.44773284 0.39784007
0.99215686 0.46170343 0.39810049
0.18014706 0.59656863 0.43823529
0.26029412 0.59558824 0.44754902
0.35545343 0.58474265 0.44430147
0.46102941 0.57745098 0.43458946
0.57242647 0.58394608 0.43370098
0.70738358 0.57591912 0.41666667
0.81966912 0.57647059 0.39901961
0.92696078 0.56862745 0.36832108
0.98308824 0.56519608 0.36740196
0.30643382 0.68382353 0.44901961
0.33596814 0.68089001 0.44754902
0.39411765 0.67113971 0.44454657
0.4529182 0.65449602 0.4254902
0.54093137 0.6504902 0.41890319
0.66415441 0.6785769 0.44270833
0.79644608 0.69160539 0.43105086
0.91029412 0.6917356 0.40827972
0.98278186 0.68431373 0.35980392
0.39509804 0.76617647 0.46531863
0.40281863 0.76617647 0.46813725
0.44001225 0.75833333 0.45425858
0.48098958 0.74264706 0.43394608
0.54607843 0.73235294 0.42101716
0.63878676 0.74811581 0.43126532
0.76617647 0.7754902 0.46066176
0.88676471 0.8069087 0.47401961
0.98137255 0.80686275 0.42340686
0.4745098 0.85900735 0.50900735
0.47843137 0.85884651 0.50490196
0.49560355 0.85130208 0.48324142
0.53167892 0.83999694 0.47352941
0.57567402 0.82745098 0.44877451
0.65214461 0.83584559 0.45471814
0.75672488 0.85703125 0.48578431
0.86470588 0.88253676 0.52099418
0.95441176 0.90343137 0.5377451
0.5622549 0.9504902 0.57745098
0.56734069 0.9495098 0.57254902
0.58333333 0.94509804 0.5692402
0.61427696 0.94908088 0.56574755
0.64509804 0.92794118 0.54068627
0.70882353 0.93633578 0.54846814
0.79509804 0.95 0.56776961
0.87598039 0.95686275 0.58137255
0.96323529 0.98676471 0.61911765
0.0078431373 0.11568627 0.61372549
0.17965686 0.15 0.60392157
0.325 0.14362745 0.61078431
0.48921569 0.18259804 0.62205882
0.64607843 0.15490196 0.62058824
0.7745098 0.19191176 0.62671569
0.87598039 0.27843137 0.61323529
0.95392157 0.33970588 0.60563725
0.99607843 0.35686275 0.59215686
0.043137255 0.20637255 0.60808824
0.1879902 0.21204044 0.60370711
0.33020833 0.22009804 0.60735294
0.48872549 0.24004289 0.62352941
0.63921569 0.26593137 0.62144608
0.76994485 0.29381127 0.61593137
0.86960784 0.32867647 0.60667892
0.95634191 0.36620711 0.60021446
0.9747549 0.37598039 0.59215686
0.054901961 0.32107843 0.59901961
0.18143382 0.32867647 0.60477941
0.33431373 0.34301471 0.61360294
0.48480392 0.3620098 0.61176471
0.63161765 0.37598039 0.61985294
0.75772059 0.41219363 0.61911765
0.86262255 0.44105392 0.61678922
0.93823529 0.43511029 0.59803922
0.97794118 0.45 0.58823529
0.016176471 0.46960784 0.59730392
0.16504289 0.48170956 0.60235907
0.33627451 0.48161765 0.60514706
0.48572304 0.49215686 0.60934436
0.62071078 0.50171569 0.61311275
0.74041054 0.51966912 0.60931373
0.84215686 0.51617647 0.59742647
0.92833946 0.49984681 0.58097426
0.96666667 0.49852941 0.58308824
0.18333333 0.61960784 0.59509804
0.29681373 0.6245098 0.59987745
0.38161765 0.61568627 0.60392157
0.49436275 0.60539216 0.59215686
0.5995098 0.60098039 0.60098039
0.7192402 0.60821078 0.58651961
0.8245098 0.59754902 0.56544118
0.91911765 0.60110294 0.5627451
0.98039216 0.60196078 0.55980392
0.37941176 0.72647059 0.59607843
0.38636642 0.71740196 0.59427083
0.45018382 0.71151961 0.59197304
0.5129902 0.69880515 0.5877451
0.58590686 0.68137255 0.57696078
0.69586397 0.70052083 0.58768382
0.80484069 0.69068627 0.56409314
0.91544118 0.68676471 0.54191176
0.98578431 0.68602941 0.52843137
0.44901961 0.79852941 0.59705882
0.45998775 0.79681373 0.59803922
0.49767157 0.78995098 0.59742647
0.54068627 0.775 0.5877451
0.57892157 0.75269608 0.55686275
0.66078431 0.75827206 0.56188725
0.76764706 0.77904412 0.57622549
0.89117647 0.79172794 0.57591912
0.9745098 0.8 0.55490196
0.50735294 0.87990196 0.6125
0.5046875 0.87576593 0.60251225
0.53854167 0.87009804 0.60441176
0.56853554 0.8622549 0.59583333
0.60085784 0.84779412 0.56727941
0.65833333 0.84215686 0.55392157
0.75588235 0.85729167 0.5754902
0.86835172 0.88011642 0.60098039
0.96838235 0.8995098 0.61838235
0.58627451 0.96470588 0.65882353
0.58627451 0.95490196 0.64926471
0.60392157 0.95735294 0.65
0.63063725 0.95833333 0.64656863
0.66666667 0.95392157 0.63431373
0.72205882 0.95710784 0.62696078
0.79264706 0.95539216 0.63235294
0.87941176 0.96642157 0.65490196
0.94901961 0.97254902 0.67254902
0.16029412 0.19264706 0.73137255
0.24754902 0.18351716 0.7377451
0.36335784 0.20490196 0.7377451
0.50784314 0.22591912 0.73921569
0.64632353 0.26593137 0.74166667
0.76427696 0.30931373 0.74166667
0.86960784 0.33026961 0.74313725
0.95245098 0.43431373 0.73952206
0.99754902 0.49754902 0.73676471
0.20104167 0.25373775 0.73529412
0.26930147 0.25245098 0.73382353
0.37098652 0.26715686 0.73198529
0.50753676 0.30496324 0.7377451
0.63676471 0.33854167 0.7377451
0.75746783 0.36911765 0.74166667
0.8647212 0.39126838 0.74166667
0.94665288 0.46029412 0.74162837
0.98970588 0.50784314 0.73921569
0.23529412 0.37156863 0.72990196
0.28688725 0.37210478 0.72990196
0.38679534 0.38213848 0.72745098
0.51323529 0.40890012 0.73026961
0.63621324 0.43707108 0.73382353
0.75056679 0.4560049 0.74051777
0.85281863 0.49117647 0.74166667
0.94119179 0.52726716 0.74558824
1 0.5567402 0.74203431
0.24356618 0.49509804 0.71868873
0.29614737 0.49362745 0.71660539
0.3944087 0.50154718 0.71813725
0.51266085 0.51807598 0.72018229
0.63210784 0.54365809 0.72867647
0.74166667 0.56023284 0.73506434
0.83929228 0.57536765 0.734375
0.92665441 0.5861443 0.73229167
0.99215686 0.59362745 0.725
0.26960784 0.61102941 0.71029412
0.33219975 0.61960784 0.71421569
0.4122549 0.61599265 0.71329657
0.50640319 0.61127451 0.70952819
0.62169118 0.62696078 0.71617647
0.72913603 0.64730392 0.72352941
0.82273284 0.65 0.71838235
0.91397059 0.65009191 0.71969975
0.98946078 0.64754902 0.71323529
0.38627451 0.73529412 0.70784314
0.40158548 0.73137255 0.71421569
0.47487745 0.72990196 0.71421569
0.53670343 0.72522978 0.71268382
0.63553922 0.72444853 0.71522672
0.72079504 0.72205882 0.71421569
0.815625 0.72352941 0.70654105
0.90435049 0.71194087 0.69577206
0.99552696 0.69846814 0.68039216
0.49203431 0.82254902 0.71029412
0.52189032 0.82830882 0.71568627
0.54754902 0.82018995 0.71813725
0.58125 0.81141238 0.71568627
0.64803922 0.80416667 0.70416667
0.69002757 0.78137255 0.68748468
0.7870098 0.79028799 0.68924632
0.89595588 0.79901961 0.68471201
0.98639706 0.79460784 0.66813725
0.54099265 0.89920343 0.70784314
0.55198376 0.89920343 0.71045496
0.58534007 0.89299939 0.71813725
0.61488205 0.88884038 0.71065411
0.65220588 0.87925858 0.69589461
0.69656863 0.86421569 0.67745864
0.7643076 0.86127451 0.67611826
0.86862745 0.88151808 0.69515931
0.95618873 0.89411765 0.69509804
0.61323529 0.96862745 0.73627451
0.62322304 0.97254902 0.74166667
0.63970588 0.97193627 0.74166667
0.64166667 0.94901961 0.72598039
0.69166667 0.96470588 0.72720588
0.73382353 0.95778186 0.71121324
0.79227941 0.95723039 0.70245098
0.87990196 0.95882353 0.71844363
0.9372549 0.97254902 0.73235294
0.29411765 0.27058824 0.83431373
0.34803922 0.27536765 0.8372549
0.43455882 0.29313725 0.83823529
0.53443627 0.31973039 0.83823529
0.64558824 0.36176471 0.83431373
0.75343137 0.4127451 0.83823529
0.85465686 0.44705882 0.83823529
0.9504902 0.46556373 0.84215686
0.97156863 0.50490196 0.8372549
0.31973039 0.32696078 0.83039216
0.36237745 0.33915441 0.83431373
0.44166667 0.34895833 0.83431373
0.54051777 0.37683824 0.83431373
0.64901961 0.41476716 0.83431373
0.7495098 0.45085784 0.83823529
0.85401348 0.47545956 0.83823529
0.94264706 0.50392157 0.83823529
0.99166667 0.5495098 0.83823529
0.35465686 0.4254902 0.82647059
0.38933824 0.43030025 0.82809436
0.45686275 0.44136029 0.83039216
0.5495098 0.46360294 0.83137255
0.6497549 0.49117647 0.83357843
0.74338235 0.52205882 0.83348652
0.84197304 0.55704657 0.83823529
0.93143382 0.57303922 0.83823529
0.99215686 0.59215686 0.83431373
0.36801471 0.54166667 0.81617647
0.40491728 0.53293505 0.8189951
0.46875 0.53872549 0.81862745
0.55487132 0.55796569 0.81996017
0.65147059 0.57892157 0.82647059
0.74558824 0.60519301 0.83039216
0.83587623 0.62328431 0.83431373
0.92400429 0.63860294 0.83431373
0.99215686 0.65539216 0.83247549
0.35735294 0.61960784 0.80294118
0.40202206 0.62990196 0.81078431
0.45588235 0.62218137 0.80686275
0.55018382 0.63553922 0.80735294
0.64607843 0.65220588 0.8122549
0.74019608 0.67604167 0.82224265
0.83431373 0.69509804 0.82879902
0.92303922 0.70539216 0.83609069
0.98823529 0.7245098 0.84068627
0.4127451 0.73382353 0.80686275
0.43592218 0.73137255 0.81078431
0.48520221 0.73336397 0.81078431
0.55882353 0.73137255 0.81119792
0.64191176 0.72401961 0.81047794
0.7377451 0.74097733 0.81470588
0.83039216 0.76176471 0.82647059
0.91519608 0.77550551 0.82708333
0.98823529 0.77990196 0.82990196
0.48112745 0.83823529 0.81470588
0.49310662 0.83927696 0.81862745
0.54473039 0.82647059 0.81525735
0.60968137 0.83039216 0.81789216
0.67941176 0.83002451 0.81862745
0.74776348 0.82564338 0.81470588
0.81789216 0.82328431 0.81078431
0.90670956 0.82647059 0.80358456
0.99117647 0.82328431 0.79509804
0.59129902 0.91605392 0.81213235
0.60012255 0.91470588 0.81470588
0.63443627 0.91583946 0.81764706
0.6754902 0.91515012 0.81862745
0.71838235 0.91390931 0.81960784
0.75390625 0.90030637 0.80784314
0.80392157 0.88480392 0.79316789
0.88748468 0.89488358 0.79833027
0.97610294 0.8877451 0.7877451
0.64509804 0.97941176 0.81862745
0.65294118 0.97610294 0.81862745
0.66862745 0.97745098 0.81936275
0.6817402 0.95061275 0.80723039
0.72745098 0.97352941 0.81862745
0.77107843 0.97009804 0.81078431
0.81862745 0.96862745 0.80196078
0.88382353 0.95980392 0.7942402
0.95588235 0.98137255 0.81176471
0.42990196 0.39411765 0.91911765
0.45980392 0.39411765 0.91862745
0.50551471 0.39852941 0.91776961
0.58431373 0.42598039 0.91648284
0.67083333 0.45833333 0.91862745
0.75735294 0.50459559 0.91911765
0.84215686 0.54852941 0.92303922
0.9151348 0.57800245 0.9221201
0.95294118 0.58235294 0.91519608
0.44117647 0.43143382 0.91868873
0.46421569 0.43315717 0.91868873
0.51410846 0.44100797 0.92222733
0.58845741 0.4622549 0.91862745
0.66936275 0.48921569 0.91887255
0.75735294 0.52794118 0.91911765
0.84203431 0.57069547 0.92254902
0.92641697 0.59314491 0.92254902
0.97598039 0.59754902 0.91862745
0.46078431 0.50183824 0.91384804
0.48627451 0.50833333 0.91519608
0.53272059 0.51691176 0.91519608
0.59617034 0.5308364 0.91501225
0.67628676 0.55349265 0.91862745
0.75779718 0.58480392 0.91862745
0.83823529 0.61568627 0.91911765
0.92299326 0.6317402 0.91911765
0.9942402 0.63566176 0.92156863
0.47616422 0.58627451 0.90882353
0.50949755 0.59422488 0.91096814
0.54446998 0.59434743 0.90767463
0.60851716 0.60741422 0.90815717
0.68480392 0.62735907 0.91096814
0.76421569 0.64479167 0.91470588
0.84129902 0.67345282 0.91551777
0.91497396 0.68796722 0.91835937
0.98039216 0.69981618 0.91519608
0.46911765 0.65980392 0.89362745
0.50539216 0.66764706 0.90143995
0.54558824 0.67003676 0.90128676
0.60618873 0.6776348 0.90309436
0.68504902 0.69007353 0.90723039
0.76568627 0.70784314 0.90808824
0.84522059 0.7286152 0.91470588
0.91933211 0.7416973 0.91862745
0.99019608 0.75171569 0.92254902
0.47089461 0.73167892 0.89166667
0.48856464 0.73747702 0.89525888
0.53417586 0.74189645 0.89558824
0.59803922 0.74901195 0.8955193
0.67254902 0.74877451 0.89852941
0.75637255 0.76721814 0.9042356
0.84522059 0.79166667 0.91605392
0.91954657 0.80392157 0.91893382
0.9877451 0.81519608 0.92254902
0.52745098 0.8435049 0.8995098
0.53604473 0.83823529 0.90036765
0.56623775 0.83431373 0.8995098
0.60932904 0.8345435 0.89914216
0.67990196 0.83302696 0.90036765
0.74027267 0.81907169 0.8995098
0.83440564 0.84607843 0.90695466
0.915625 0.86007966 0.90778186
0.98480392 0.86421569 0.91029412
0.58529412 0.93045343 0.90343137
0.59362745 0.92647059 0.90294118
0.61600797 0.92696078 0.90692402
0.65533088 0.92677696 0.90922947
0.72129289 0.92083333 0.90300245
0.78850337 0.91127451 0.90498621
0.84526654 0.91519608 0.91035539
0.91519608 0.91518842 0.91035539
0.984375 0.91127451 0.89601716
0.70147059 0.98823529 0.90343137
0.70490196 0.98731618 0.90251225
0.71066176 0.97696078 0.8995098
0.74920343 0.98823529 0.90343137
0.78014706 0.97279412 0.90514706
0.81715686 0.97824755 0.90686275
0.85245098 0.97941176 0.90245098
0.90435049 0.96029412 0.89215686
0.98480392 0.95588235 0.89901961
0.54901961 0.53333333 0.99215686
0.56813725 0.5372549 0.98823529
0.59803922 0.54019608 0.98823529
0.64803922 0.55931373 0.99068627
0.71176471 0.58235294 0.99215686
0.77303922 0.5872549 0.97401961
0.85 0.62941176 0.98137255
0.91862745 0.66323529 0.98431373
0.94509804 0.67843137 0.98431373
0.55637255 0.55245098 0.98431373
0.57248775 0.55729167 0.98823529
0.60637255 0.56421569 0.98823529
0.65196078 0.5745098 0.98431373
0.70980392 0.58553922 0.98014706
0.77941176 0.61666667 0.98382353
0.85294118 0.65061275 0.98431373
0.915625 0.675 0.98088235
0.95637255 0.68578431 0.98431373
0.57352941 0.60294118 0.98137255
0.58823529 0.60588235 0.98566176
0.61078431 0.60588235 0.98210784
0.66066176 0.61911765 0.98223039
0.72156863 0.63921569 0.9872549
0.78333333 0.65392157 0.98039216
0.84901961 0.67083333 0.97058824
0.92254902 0.70465686 0.98370098
0.98627451 0.71666667 0.98431373
0.59754902 0.66519608 0.98970588
0.60949755 0.66746324 0.98823529
0.62830882 0.65980392 0.98039216
0.67401961 0.67310049 0.98376225
0.72941176 0.6872549 0.98431373
0.79117647 0.7004902 0.98186275
0.85294118 0.71078431 0.96654412
0.91862745 0.73363971 0.97273284
0.98039216 0.75 0.97892157
0.59803922 0.72156863 0.98039216
0.61151961 0.72181373 0.98651961
0.63823529 0.72352941 0.98676471
0.67818627 0.72867647 0.98357843
0.72941176 0.73529412 0.9745098
0.78529412 0.73676471 0.96029412
0.86078431 0.76813725 0.98137255
0.92254902 0.78259804 0.98039216
0.96862745 0.79411765 0.98039216
0.57647059 0.7754902 0.97401961
0.59197304 0.77401961 0.98020833
0.61715686 0.77156863 0.97536765
0.65680147 0.7754902 0.96862745
0.71372549 0.77941176 0.96740196
0.78572304 0.79264706 0.97156863
0.85968137 0.81752451 0.97892157
0.92647059 0.83676471 0.9841299
0.98676471 0.84852941 0.98676471
0.58431373 0.84607843 0.97058824
0.59571078 0.84607843 0.96862745
0.62254902 0.84509804 0.97279412
0.65796569 0.84215686 0.97254902
0.7127451 0.84362745 0.9745098
0.7745098 0.84509804 0.95980392
0.85294118 0.86397059 0.97181373
0.93039216 0.88039216 0.97990196
0.98823529 0.88039216 0.96176471
0.62058824 0.93088235 0.97352941
0.63143382 0.92647059 0.96862745
0.65441176 0.92659314 0.97990196
0.68560049 0.92303922 0.98039216
0.7377451 0.92303922 0.9747549
0.79166667 0.92254902 0.98039216
0.85428922 0.92647059 0.97107843
0.93039216 0.93431373 0.97647059
0.98823529 0.94264706 0.98480392
0.6745098 0.99607843 0.98039216
0.67843137 0.99215686 0.98039216
0.70490196 0.98529412 0.95490196
0.73186275 0.99215686 0.98431373
0.76078431 0.98627451 0.98235294
0.83284314 0.98823529 0.96617647
0.87156863 0.98039216 0.98137255
0.93823529 0.99558824 0.99166667
0.98823529 0.96078431 0.98431373
