site/assets/luts/sha256-1bd0d648c99034a0b5b76597b0bd83773f311dc4cb1b4f389565e4ec39f1e3bd.cube
# LUTr-Schema-Version: 2
# LUTr-ID: sha256-1bd0d648c99034a0b5b76597b0bd83773f311dc4cb1b4f389565e4ec39f1e3bd
# LUTr-Title: kodak portra 400 uc ++
# LUTr-Collection: Natron HaldCLUT
# LUTr-Collection-ID: natron-haldclut-presets
# LUTr-Source: https://github.com/NatronGitHub/clut
# LUTr-Retrieved: 2026-07-27
# LUTr-Source-File: submissions/natron-haldclut-presets/negative_old/kodak_portra_400_uc_++.png
# LUTr-Source-Format: HALD-PNG
# LUTr-Source-SHA256: 1bd0d648c99034a0b5b76597b0bd83773f311dc4cb1b4f389565e4ec39f1e3bd
# LUTr-License: CC-BY-SA-4.0
# LUTr-License-URL: https://github.com/NatronGitHub/clut#license
# LUTr-License-Basis: repo-license-file
# LUTr-Transform-Class: film-emulation
# LUTr-Tags: creative, film, film-emulation, hald-clut, natron, png, cube
# LUTr-Input-Color-Space: srgb
# LUTr-Input-Gamut: rec709
# LUTr-Input-Transfer: srgb
# LUTr-Output-Color-Space: srgb
# LUTr-Output-Gamut: rec709
# LUTr-Output-Transfer: srgb
# LUTr-Color-Space-Confidence: assumed-display-referred
# LUTr-Domain-Normalized: true
# LUTr-Shaper: none
# LUTr-Original-Grid: 64x64x64
# LUTr-Conversion-Grid: 25x25x25
# LUTr-Conversion-Interpolation: trilinear
# LUTr-Conversion-Method: HALD-PNG LUT image decoded at 16-bit and sampled to 25x25x25 3D CUBE
# LUTr-Conversion-Tool: LUTr scripts/convert-all-to-cube.mjs 2.0.0
# LUTr-Conversion-Date: 2026-07-27
# LUTr-Note: Preserve this metadata and the upstream license notices when redistributing.
TITLE "kodak portra 400 uc ++"
LUT_3D_SIZE 9
DOMAIN_MIN 0 0 0
DOMAIN_MAX 1 1 1
0.094117647 0.10980392 0.066666667
0.13235294 0.10588235 0.078431373
0.20588235 0.10196078 0.059803922
0.35196078 0.12156863 0.044607843
0.5627451 0.098039216 0.01372549
0.76813725 0.11764706 0
0.89607843 0.12745098 0
0.97745098 0.20833333 0.0039215686
0.99215686 0.22352941 0.0078431373
0.086764706 0.12401961 0.066176471
0.12107843 0.12542892 0.062745098
0.2192402 0.14448529 0.066666667
0.37107843 0.16323529 0.035477941
0.58161765 0.15931373 0.0022058824
0.76813725 0.1723652 0.0034313725
0.88921569 0.19558824 0.0039215686
0.99172794 0.22702206 0
0.99215686 0.22745098 0.00049019608
0.02254902 0.2127451 0.070588235
0.07120098 0.22316176 0.071446078
0.17181373 0.22671569 0.048284314
0.37352941 0.27022059 0.0035539216
0.62794118 0.28627451 0
0.77169118 0.28921569 0.0039215686
0.88921569 0.29583333 0.0068627451
0.98088235 0.31470588 0.0039215686
0.99215686 0.31470588 0.0039215686
0.0014705882 0.35735294 0.060294118
0.0039215686 0.37285539 0.070588235
0.034558824 0.37598039 0.048651961
0.31268382 0.41470588 0.017156863
0.5995098 0.45122549 0
0.77297794 0.43970588 0
0.87892157 0.43578431 0.0039215686
0.98400735 0.42567402 0
0.99607843 0.43333333 0
0 0.51960784 0.060784314
0 0.53897059 0.090196078
0.017156863 0.5372549 0.083823529
0.15098039 0.55147059 0.043137255
0.47745098 0.57745098 0.0039215686
0.68137255 0.58431373 0.006372549
0.84901961 0.58431373 0.0058823529
0.95196078 0.56838235 0.0078431373
0.98823529 0.5627451 0.0078431373
0 0.65294118 0.15686275
0 0.65931373 0.17303922
0.0068627451 0.66078431 0.18284314
0.045588235 0.66415441 0.18921569
0.37941176 0.67696078 0.12132353
0.60680147 0.69368873 0.073039216
0.81507353 0.7185049 0.029411765
0.925 0.6995098 0.0044117647
0.98970588 0.69215686 0.0039215686
0.0078431373 0.75980392 0.30784314
0.0044117647 0.75588235 0.31470588
0.020588235 0.75980392 0.3254902
0.073529412 0.76164216 0.32610294
0.38137255 0.76764706 0.31372549
0.55490196 0.77487745 0.29889706
0.73308824 0.79019608 0.26960784
0.88639706 0.8060049 0.24056373
0.97843137 0.80686275 0.13627451
0.21078431 0.85245098 0.47352941
0.21421569 0.84852941 0.47352941
0.25441176 0.84803922 0.47745098
0.38823529 0.84852941 0.49558824
0.48872549 0.84852941 0.49117647
0.60422794 0.85245098 0.49313725
0.72254902 0.85992647 0.48431373
0.82892157 0.86856618 0.47352941
0.93137255 0.88676471 0.47745098
0.57254902 0.92941176 0.65098039
0.54019608 0.92107843 0.63088235
0.58333333 0.9254902 0.65
0.61911765 0.9254902 0.65735294
0.67058824 0.93137255 0.6745098
0.71666667 0.92941176 0.66519608
0.77156863 0.93333333 0.65490196
0.84411765 0.9372549 0.64215686
0.92156863 0.95686275 0.66666667
0.098039216 0.094607843 0.089705882
0.13235294 0.098039216 0.093566176
0.2245098 0.10196078 0.10098039
0.35196078 0.081372549 0.08314951
0.57034314 0.064215686 0.078921569
0.7627451 0.061458333 0.040992647
0.88627451 0.12352941 0.017279412
0.96960784 0.18970588 0.0074142157
0.99558824 0.22352941 0.0039215686
0.094117647 0.14019608 0.1127451
0.13229933 0.14411765 0.10795803
0.21962316 0.14797794 0.10453431
0.37892157 0.14803922 0.082659314
0.59270833 0.15496324 0.059803922
0.7714614 0.1588848 0.016030944
0.89388787 0.1842065 0.0039215686
0.97745098 0.22261029 0.014223346
0.99607843 0.25392157 0.0034926471
0.056862745 0.23235294 0.1245098
0.09096201 0.24226409 0.12303922
0.19690564 0.24666054 0.10563725
0.40448836 0.27205882 0.059987745
0.628125 0.28529412 0.012990196
0.77843137 0.2814185 0.0069546569
0.89313725 0.28734681 0.014644608
0.97696078 0.30735294 0.0044117647
0.99607843 0.32598039 0.0049019608
0.018443627 0.38253676 0.13400735
0.017156863 0.38284314 0.13776808
0.067172181 0.39148284 0.12677696
0.33683364 0.42549786 0.066674326
0.60481005 0.44607843 0.030208333
0.77224265 0.43754596 0.0039215686
0.88716299 0.42794118 0.0078431373
0.97729013 0.42941176 0.0073529412
0.99607843 0.43333333 0.0039215686
0 0.53088235 0.15441176
0.0039215686 0.54810049 0.17619485
0.0052083333 0.54859069 0.16317402
0.18489583 0.55995711 0.14068627
0.50147059 0.58602941 0.062377451
0.72270221 0.5986826 0.0075061275
0.86194853 0.58229167 0.0043504902
0.95609681 0.55906863 0.0078431373
0.99215686 0.55882353 0.0058823529
0 0.65539216 0.20490196
0.0017386642 0.66323529 0.23390778
0.010416667 0.66524203 0.24330576
0.053439032 0.66704197 0.2328508
0.39745711 0.68088235 0.2145527
0.6323606 0.70153186 0.15213695
0.81421569 0.70935968 0.088740809
0.92984069 0.69558824 0.014322917
0.99215686 0.68823529 0.011764706
0.0083333333 0.75588235 0.34019608
0.0048406863 0.75980392 0.35228248
0.021783088 0.75980392 0.35615809
0.18399203 0.76372549 0.36153493
0.40349265 0.76911765 0.36078431
0.57268689 0.77645527 0.34787071
0.74019608 0.78651961 0.32037377
0.8714614 0.79590993 0.29238664
0.97205882 0.80428922 0.22512255
0.2497549 0.85245098 0.49264706
0.26750153 0.8520144 0.4926394
0.32651654 0.84852941 0.50036765
0.39532016 0.84460784 0.50788143
0.5 0.84503676 0.51268382
0.61715686 0.85214461 0.51207108
0.72461703 0.86024816 0.50424326
0.83283548 0.87156863 0.49302237
0.93229167 0.88033088 0.47352941
0.56421569 0.92892157 0.64656863
0.57120098 0.92892157 0.6504902
0.59546569 0.9254902 0.65833333
0.62193627 0.92518382 0.65998775
0.66936275 0.925 0.67328431
0.72009804 0.93302696 0.6776348
0.77389706 0.93112745 0.6560049
0.84852941 0.94117647 0.65533088
0.91862745 0.95392157 0.66764706
0.099019608 0.10588235 0.2
0.13970588 0.10453431 0.18676471
0.21740196 0.10514706 0.18823529
0.37058824 0.075367647 0.19607843
0.55784314 0.0068627451 0.18431373
0.76519608 0.0073529412 0.17512255
0.89019608 0.077696078 0.16764706
0.97696078 0.1745098 0.14656863
0.99901961 0.22745098 0.13529412
0.068627451 0.1439951 0.19522059
0.12823223 0.14803922 0.20070466
0.22637868 0.1544424 0.20876225
0.39068627 0.14154412 0.20330882
0.60189951 0.051715686 0.18082108
0.77616422 0.08046875 0.171875
0.89313725 0.16185662 0.16121324
0.98255208 0.21873468 0.14215686
1 0.28039216 0.13431373
0.042156863 0.23921569 0.19607843
0.10297181 0.25033701 0.20811887
0.2254902 0.26060049 0.2247549
0.43088235 0.26908701 0.21213235
0.63419118 0.27303922 0.17647059
0.78235294 0.28602941 0.15998775
0.89313725 0.29632353 0.14191176
0.97303922 0.31758578 0.12892157
1 0.35294118 0.10490196
0.0053921569 0.40735294 0.25343137
0.0099417892 0.42156863 0.26017157
0.1700674 0.42686887 0.26559436
0.40006127 0.44656863 0.25147059
0.62009804 0.44319853 0.19307598
0.78272059 0.42947304 0.12195159
0.89485294 0.42340686 0.086121324
0.96783088 0.43760723 0.098697917
0.99607843 0.44056373 0.077941176
0.01372549 0.55980392 0.31372549
0.00042892157 0.56764706 0.31348039
0.025980392 0.56617647 0.29019608
0.29166667 0.5723652 0.2942402
0.54019608 0.59436275 0.26862745
0.73480392 0.59705882 0.20612745
0.87463235 0.56421569 0.092034314
0.96930147 0.54509804 0.010232843
0.99607843 0.55294118 0.030882353
0.0028186275 0.67009804 0.3495098
0.0030790441 0.67794118 0.35980392
0.014797794 0.67573529 0.34463848
0.2214614 0.6761489 0.35458027
0.44558824 0.68480392 0.34264706
0.6435049 0.70355392 0.32591912
0.82772672 0.72135417 0.29099265
0.93583027 0.69563419 0.17438725
0.99460784 0.67107843 0.035784314
0.025490196 0.76666667 0.42352941
0.03716299 0.76764706 0.42141544
0.1622549 0.76764706 0.42647059
0.30894608 0.76593137 0.43838848
0.45085784 0.76911765 0.44595588
0.59923407 0.77659314 0.43235294
0.75232843 0.7903799 0.42745098
0.88964461 0.80726103 0.40857843
0.95686275 0.8 0.33848039
0.34080882 0.85245098 0.53737745
0.34264706 0.84852941 0.54074755
0.40318627 0.84852941 0.54203431
0.46536458 0.84852941 0.55022978
0.54411765 0.84803922 0.55042892
0.63193934 0.8522212 0.55338542
0.73602941 0.85992647 0.54846814
0.83573836 0.87156863 0.54537377
0.93835784 0.88676471 0.54816176
0.58039216 0.9254902 0.66568627
0.57634804 0.91764706 0.65870098
0.60735294 0.92696078 0.67034314
0.63921569 0.9254902 0.67708333
0.68039216 0.92941176 0.69019608
0.7245098 0.92941176 0.68872549
0.7754902 0.92328431 0.66593137
0.85196078 0.9372549 0.67218137
0.90392157 0.93921569 0.65980392
0.053921569 0.10833333 0.34411765
0.087071078 0.10980392 0.35018382
0.24656863 0.10686275 0.3627451
0.40484069 0.078002451 0.37941176
0.5879902 0.010539216 0.37352941
0.75637255 0.0039215686 0.34803922
0.87953431 0.012132353 0.32745098
0.98137255 0.020710784 0.28860294
1 0.24558824 0.31813725
0.0042279412 0.1504902 0.34803922
0.054005821 0.15261183 0.35980392
0.24215686 0.16328125 0.38578431
0.40343137 0.15227482 0.38460478
0.59411765 0.098529412 0.37230392
0.75392157 0.049088542 0.34608609
0.8877451 0.020618873 0.31279105
0.98425245 0.10541513 0.30120251
1 0.32371324 0.34920343
0.0006127451 0.25845588 0.35098039
0.018734681 0.26919424 0.37928922
0.20530025 0.27873775 0.40269608
0.44699755 0.28607537 0.4217065
0.62604167 0.27702206 0.39283088
0.77297794 0.25355392 0.3600337
0.88792892 0.2926777 0.35278799
0.96568627 0.33439032 0.34162071
1 0.41470588 0.36286765
0.00055147059 0.41617647 0.38088235
0.013909314 0.4330193 0.40648744
0.20022978 0.4432598 0.42654718
0.45953585 0.46268382 0.43431373
0.63063725 0.46130515 0.41568627
0.76966912 0.45040594 0.38921569
0.8821538 0.44816176 0.36202512
0.9609758 0.46441483 0.34498315
0.99607843 0.47738971 0.34564951
0.0078431373 0.56740196 0.42573529
0.07567402 0.58740809 0.44166667
0.32843137 0.58823529 0.46482843
0.44163603 0.58722426 0.45735294
0.60183824 0.60183824 0.45134804
0.74828431 0.6004902 0.41568627
0.86691176 0.58284314 0.36495098
0.95539216 0.56446078 0.33406863
0.99411765 0.56911765 0.32205882
0.28572304 0.68676471 0.49803922
0.31440717 0.68676471 0.49737286
0.37257966 0.68676471 0.5011489
0.41217065 0.68676471 0.48578431
0.53428309 0.69041054 0.48578431
0.68866422 0.709375 0.48131127
0.82506127 0.70931373 0.44192708
0.93425245 0.6830193 0.37805607
0.99215686 0.67107843 0.32015931
0.38186275 0.77058824 0.54901961
0.37856924 0.76764706 0.54019608
0.40490196 0.77058824 0.53514093
0.44509804 0.77058824 0.53088235
0.53192402 0.77003676 0.53382353
0.64532782 0.77879902 0.53241422
0.77074142 0.79056373 0.52515319
0.89015012 0.80390625 0.5037837
0.97941176 0.80294118 0.46507353
0.46881127 0.84852941 0.60085784
0.48823529 0.84879749 0.60686275
0.48676471 0.84803922 0.59460784
0.52186734 0.84852941 0.5963848
0.58740809 0.84675245 0.60784314
0.65863971 0.84981618 0.60637255
0.75428922 0.85980392 0.60791973
0.84852941 0.8716299 0.60310202
0.93578431 0.8872549 0.60998775
0.61323529 0.91911765 0.69264706
0.6245098 0.9254902 0.696875
0.63321078 0.9254902 0.69656863
0.66072304 0.93033088 0.70140931
0.69338235 0.92622549 0.70588235
0.73229167 0.92205882 0.70729167
0.79203431 0.93235294 0.70563725
0.85618873 0.94117647 0.71194853
0.90735294 0.94656863 0.70441176
0.0019607843 0.11372549 0.5254902
0.015196078 0.11960784 0.52352941
0.20147059 0.12058824 0.53872549
0.43039216 0.096323529 0.55882353
0.61960784 0.048039216 0.56666667
0.7495098 0.0039215686 0.53627451
0.85441176 0.02254902 0.49705882
0.96029412 0.092401961 0.4625
0.99607843 0.19803922 0.4627451
0.0039215686 0.1620098 0.5252451
0.0058823529 0.16740196 0.53504902
0.20392157 0.16911765 0.55612745
0.44460784 0.16911765 0.57377451
0.6372549 0.1620098 0.57843137
0.75677083 0.14509804 0.54862132
0.86574755 0.14099265 0.50618873
0.95680147 0.19071691 0.47230392
0.99607843 0.2622549 0.46666667
0.0039215686 0.27205882 0.53039216
0.0071078431 0.27205882 0.54460784
0.11838235 0.27794118 0.56421569
0.4286152 0.30251225 0.57469363
0.63504902 0.31764706 0.57990196
0.75324755 0.31617647 0.5495098
0.86237745 0.3127451 0.51458333
0.95269608 0.32959559 0.4870098
0.99313725 0.37843137 0.49509804
0.0039215686 0.4122549 0.52401961
0.016758578 0.42588848 0.54289216
0.062867647 0.43063725 0.55318627
0.43731618 0.45055147 0.57965686
0.62414216 0.47107843 0.58357843
0.75070466 0.47696078 0.56642157
0.85784314 0.48063725 0.53970588
0.94500613 0.48155637 0.52279412
0.98823529 0.50661765 0.53063725
0.017647059 0.56470588 0.54019608
0.040441176 0.57941176 0.55171569
0.24534314 0.5877451 0.5627451
0.46642157 0.59276961 0.57965686
0.63480392 0.61470588 0.59852941
0.75183824 0.61593137 0.57696078
0.85367647 0.60073529 0.54681373
0.93651961 0.59816176 0.53909314
0.99411765 0.6127451 0.5254902
0.23504902 0.69460784 0.57009804
0.29607843 0.69083946 0.57598039
0.4125 0.69142157 0.58670343
0.53489583 0.69852941 0.60300245
0.60833333 0.70245098 0.59840686
0.71617647 0.71590074 0.60465686
0.8348652 0.70245098 0.57273284
0.92141544 0.70588235 0.54901961
0.99362745 0.6872549 0.50710784
0.45 0.77843137 0.62303922
0.46697304 0.77867647 0.61764706
0.51519608 0.7754902 0.62769608
0.56703431 0.77843137 0.62720588
0.61519608 0.77843137 0.62647059
0.6848652 0.78235294 0.62647059
0.78676471 0.79411765 0.62254902
0.88713235 0.79901961 0.60355392
0.97401961 0.79607843 0.58039216
0.55833333 0.85245098 0.6754902
0.56816789 0.85196078 0.67181373
0.59031863 0.85196078 0.67113971
0.61185662 0.85196078 0.66724877
0.64411765 0.85208333 0.66568627
0.69564951 0.85196078 0.66871936
0.76844363 0.85980392 0.66366422
0.85661765 0.87555147 0.66443015
0.95220588 0.89313725 0.67181373
0.66862745 0.93137255 0.74117647
0.66029412 0.92107843 0.73137255
0.67009804 0.92009804 0.73137255
0.68553922 0.92279412 0.73137255
0.71470588 0.9254902 0.73529412
0.75318627 0.93063725 0.74705882
0.79754902 0.92352941 0.72941176
0.86372549 0.94509804 0.74142157
0.90392157 0.93921569 0.73333333
0 0.15588235 0.64509804
0 0.14675245 0.66060049
0.17267157 0.13872549 0.6754902
0.42107843 0.13535539 0.68921569
0.62990196 0.1622549 0.7004902
0.77113971 0.13676471 0.69460784
0.86862745 0.16715686 0.66911765
0.93694853 0.24117647 0.625
0.99215686 0.33137255 0.61764706
0.0039215686 0.18302696 0.65655637
0.0042279412 0.18823529 0.66452206
0.17728248 0.18837316 0.67794118
0.42052696 0.19785539 0.68676471
0.62469363 0.22794118 0.69485294
0.77604167 0.2348652 0.69552696
0.86582414 0.24232537 0.66421569
0.93714767 0.29803922 0.63273591
0.99215686 0.36519608 0.62401961
0 0.27879902 0.65980392
0.0039215686 0.2865962 0.66300551
0.14322917 0.29659926 0.675
0.4129136 0.31072304 0.68137255
0.62916667 0.3533701 0.69601716
0.77317708 0.37127757 0.69368873
0.86568627 0.37622549 0.66875
0.92647059 0.40793505 0.64407169
0.99105392 0.43529412 0.63125
0.0014705882 0.41219363 0.64117647
0.006372549 0.42842371 0.65176164
0.14689032 0.4292739 0.66354167
0.41811428 0.4502068 0.67687653
0.62594975 0.48235294 0.69414828
0.76387102 0.51470588 0.69334406
0.8386489 0.50686275 0.66764706
0.92156863 0.50852482 0.64901961
0.99068627 0.52009804 0.64117647
0.011029412 0.55098039 0.64166667
0.018627451 0.55949755 0.64754902
0.13314951 0.55398284 0.64938725
0.40833333 0.57156863 0.66026348
0.60147059 0.59852941 0.6814951
0.75220588 0.62696078 0.69313725
0.83002451 0.62285539 0.67346814
0.91151961 0.61847426 0.65652574
0.98284314 0.63333333 0.65147059
0.071568627 0.68284314 0.65055147
0.19171262 0.68510263 0.65447304
0.34877451 0.68924632 0.65825674
0.48278186 0.68972886 0.66937806
0.61372549 0.69537377 0.68060662
0.74296875 0.71779259 0.69761029
0.83333333 0.71568627 0.68287377
0.91109069 0.71421569 0.66924786
0.98039216 0.71176471 0.65202206
0.40686275 0.78125 0.67512255
0.42594975 0.77843137 0.67843137
0.49852941 0.78235294 0.67521446
0.58754596 0.78517157 0.68941483
0.66703431 0.78627451 0.70196078
0.72814032 0.79019608 0.70513174
0.81593137 0.79509804 0.70079657
0.90245098 0.79803922 0.68345588
0.97512255 0.79901961 0.66960784
0.5627451 0.85588235 0.71979167
0.5740579 0.85606618 0.72156863
0.60831801 0.8542739 0.7213848
0.66115962 0.85245098 0.72782629
0.70851716 0.85637255 0.73314951
0.74068627 0.85637255 0.72941176
0.79901961 0.86470588 0.73026961
0.87285539 0.87248775 0.72894455
0.94117647 0.88382353 0.72892157
0.68137255 0.92696078 0.77156863
0.69607843 0.92941176 0.77794118
0.69276961 0.91911765 0.76764706
0.72696078 0.92941176 0.77849265
0.74705882 0.93333333 0.7747549
0.7754902 0.92996324 0.7754902
0.8127451 0.93443627 0.77904412
0.86372549 0.93596814 0.77273284
0.9254902 0.94656863 0.7754902
0.0039215686 0.20098039 0.75196078
0.0014705882 0.18333333 0.76323529
0.2247549 0.18921569 0.77156863
0.42144608 0.19411765 0.77340686
0.60882353 0.22205882 0.77892157
0.77242647 0.30245098 0.78664216
0.87352941 0.32769608 0.78235294
0.94558824 0.35379902 0.76286765
0.98431373 0.40098039 0.72843137
0.0039215686 0.22365196 0.75588235
0.0049019608 0.21758578 0.76372549
0.19730392 0.23529412 0.77058824
0.42352941 0.24362745 0.77193627
0.61151961 0.28039216 0.77892157
0.77339154 0.34796262 0.78681066
0.86960784 0.36458333 0.7754902
0.94258578 0.38402267 0.76409314
0.98431373 0.42928922 0.73627451
0.0039215686 0.31151961 0.75196078
0.0031556373 0.30784314 0.75931373
0.18333333 0.31997549 0.76372549
0.43363971 0.33872549 0.77120098
0.61801471 0.38137255 0.77585784
0.77303922 0.43697917 0.78627451
0.86887255 0.45980392 0.77941176
0.93452819 0.47000613 0.76323529
0.98039216 0.50098039 0.74509804
0.0082107843 0.4372549 0.74019608
0.018121936 0.43333333 0.74932598
0.20257353 0.42904412 0.75343137
0.43419118 0.45160846 0.76026348
0.61930147 0.49001225 0.77058824
0.76536458 0.54221814 0.77464767
0.85940564 0.56691176 0.7745098
0.92071078 0.55870098 0.75949755
0.96764706 0.57303922 0.75196078
0.01372549 0.5627451 0.73578431
0.026960784 0.55294118 0.73627451
0.069362745 0.54117647 0.73039216
0.39368873 0.55808824 0.74338235
0.59117647 0.58014706 0.75833333
0.74509804 0.62935049 0.7745098
0.84522059 0.65870098 0.77120098
0.90122549 0.64607843 0.75196078
0.95441176 0.65588235 0.74803922
0.0024509804 0.66715686 0.72745098
0.023514093 0.6606924 0.72879902
0.20147059 0.66372549 0.72843137
0.38460478 0.66372549 0.73621324
0.55514706 0.67009804 0.74172794
0.71678922 0.70286458 0.76366422
0.83869485 0.74071691 0.77769608
0.90294118 0.73088235 0.75980392
0.96666667 0.7254902 0.75196078
0.28259804 0.76372549 0.7370098
0.34071691 0.77156863 0.73921569
0.41550245 0.77058824 0.74019608
0.52732843 0.7754902 0.74678309
0.63223039 0.77414216 0.75698529
0.73746936 0.79019608 0.76648284
0.82904412 0.80588235 0.7786152
0.90294118 0.80980392 0.77444853
0.96936275 0.80367647 0.76053922
0.52855392 0.85637255 0.76237745
0.54162071 0.85980392 0.76360294
0.57598039 0.85637255 0.76323529
0.632981 0.85637255 0.77291667
0.7028799 0.86243873 0.77794118
0.76433824 0.86372549 0.78578431
0.82840074 0.87254902 0.79448529
0.89462316 0.8796875 0.79460784
0.95392157 0.88333333 0.79105392
0.66666667 0.93333333 0.80490196
0.66960784 0.93333333 0.80490196
0.67696078 0.92279412 0.80514706
0.71017157 0.9254902 0.8127451
0.75784314 0.93186275 0.81666667
0.79754902 0.93333333 0.81764706
0.8372549 0.94044118 0.82132353
0.88296569 0.94656863 0.82193627
0.92058824 0.95294118 0.8245098
0.057843137 0.25735294 0.84852941
0.17254902 0.27689951 0.84803922
0.33002451 0.27953431 0.85110294
0.49215686 0.29883578 0.85196078
0.63063725 0.33210784 0.8502451
0.76109069 0.38970588 0.85373775
0.87352941 0.4627451 0.85588235
0.94607843 0.48872549 0.85196078
0.98039216 0.48872549 0.82892157
0.095588235 0.30343137 0.84803922
0.15723805 0.31127451 0.84809283
0.34211091 0.31078431 0.84863664
0.49231771 0.34117647 0.84852941
0.63431373 0.36078431 0.85196078
0.76323529 0.43529412 0.85373775
0.87267157 0.49362745 0.85588235
0.94215686 0.51906403 0.84771752
0.97647059 0.51078431 0.82892157
0.12046569 0.36384804 0.84203431
0.20185355 0.38333333 0.84411765
0.35340074 0.38676471 0.84460784
0.49241728 0.40516238 0.84411765
0.64411765 0.44411765 0.84810049
0.7691636 0.49215686 0.84803922
0.86960784 0.56155025 0.85588235
0.93823529 0.56551777 0.84454657
0.9817402 0.56078431 0.82892157
0.125 0.47009804 0.83431373
0.19154412 0.47385876 0.83645833
0.33333333 0.47299326 0.83676471
0.49196538 0.4895144 0.84068627
0.63299632 0.51804534 0.84411765
0.7627451 0.56764706 0.84430147
0.86176471 0.6191636 0.84829963
0.93012408 0.62785692 0.84411765
0.96911765 0.63363971 0.83658088
0.034313725 0.56348039 0.82107843
0.11436887 0.56810662 0.82303922
0.2971201 0.57285539 0.825
0.44828431 0.575 0.83079044
0.61151961 0.59681373 0.83566176
0.74852941 0.63897059 0.84411765
0.8495098 0.6807598 0.84442402
0.91470588 0.69901961 0.84065564
0.93970588 0.70294118 0.83676471
0.027757353 0.66734069 0.81176471
0.0082490809 0.65969669 0.81323529
0.084773284 0.65165441 0.80931373
0.36874234 0.65844822 0.81335018
0.54445466 0.67205882 0.81642157
0.70803462 0.69472273 0.83154871
0.83284314 0.73596814 0.84019608
0.91078431 0.75664062 0.84417892
0.9504902 0.75667892 0.83890931
0.14620098 0.76078431 0.80882353
0.22472426 0.76083027 0.80931373
0.32377451 0.76372549 0.80931373
0.43365502 0.76006434 0.80931373
0.55085784 0.7560049 0.81366422
0.67567402 0.76911765 0.8191636
0.79813113 0.79019608 0.8296875
0.90810355 0.82291667 0.85174632
0.96213235 0.82169118 0.8442402
0.45484069 0.85686275 0.81715686
0.47952665 0.8602405 0.82456342
0.50315564 0.85605086 0.825
0.57116268 0.8562117 0.82687653
0.65977328 0.86029412 0.82892157
0.74011183 0.86078431 0.83284314
0.80635723 0.86421569 0.84068627
0.90251225 0.8877451 0.8598652
0.97199755 0.89509804 0.85245098
0.61078431 0.92941176 0.84362745
0.63872549 0.93731618 0.84803922
0.66654412 0.94203431 0.85196078
0.68921569 0.93627451 0.85177696
0.73651961 0.94142157 0.85784314
0.78284314 0.93529412 0.85949755
0.83284314 0.94522059 0.87107843
0.89558824 0.95238971 0.87156863
0.96372549 0.96764706 0.87892157
0.45882353 0.44313725 0.9254902
0.47009804 0.44313725 0.91813725
0.52352941 0.45098039 0.91764706
0.61666667 0.46666667 0.92156863
0.70980392 0.49411765 0.92156863
0.80294118 0.53480392 0.91764706
0.88137255 0.58333333 0.91470588
0.95 0.62205882 0.91078431
0.99607843 0.65490196 0.92156863
0.44460784 0.45931373 0.92205882
0.48872549 0.47303922 0.9254902
0.55220588 0.4870098 0.92806373
0.60343137 0.47647059 0.91158088
0.70367647 0.50490196 0.91151961
0.79528186 0.5504902 0.91372549
0.87745098 0.60061275 0.91372549
0.94607843 0.64656863 0.91764706
0.97303922 0.65441176 0.91372549
0.45980392 0.5127451 0.92156863
0.4939951 0.51997549 0.92463235
0.53946078 0.51666667 0.91789216
0.62438725 0.53909314 0.91862745
0.71421569 0.56568627 0.91862745
0.79264706 0.58664216 0.90980392
0.88039216 0.63235294 0.91397059
0.94693627 0.67316176 0.91715686
0.99117647 0.68823529 0.91764706
0.46568627 0.57892157 0.91911765
0.48008578 0.57726716 0.91764706
0.52401961 0.57414216 0.91262255
0.61372549 0.59558824 0.91617647
0.7129902 0.61985294 0.91887255
0.78964461 0.63137255 0.90496324
0.87683824 0.67683824 0.91580882
0.93823529 0.696875 0.90735294
0.99215686 0.71617647 0.91617647
0.47254902 0.65882353 0.91568627
0.48186275 0.65367647 0.91617647
0.5127451 0.64901961 0.91078431
0.56544118 0.63651961 0.89803922
0.67058824 0.65784314 0.90392157
0.77622549 0.68161765 0.90367647
0.86372549 0.71666667 0.90931373
0.93455882 0.7495098 0.91421569
0.96078431 0.75686275 0.91372549
0.33235294 0.71666667 0.90588235
0.37181373 0.71685049 0.90998775
0.44289216 0.71666667 0.90870098
0.53143382 0.71421569 0.90588235
0.65073529 0.72181373 0.90784314
0.74656863 0.72935049 0.90833333
0.84791667 0.75931373 0.90698529
0.92628676 0.78756127 0.91715686
0.97598039 0.8 0.91323529
0.34803922 0.8 0.90294118
0.36862745 0.79546569 0.90588235
0.41960784 0.79509804 0.90588235
0.51629902 0.79117647 0.90588235
0.58921569 0.78872549 0.90735294
0.70147059 0.78676471 0.90441176
0.81470588 0.80294118 0.89681373
0.91384804 0.83247549 0.92156863
0.98333333 0.85294118 0.9245098
0.49166667 0.88333333 0.90245098
0.51519608 0.8872549 0.91666667
0.53284314 0.88247549 0.90980392
0.58645833 0.87971814 0.90802696
0.64583333 0.87401961 0.90073529
0.7004902 0.87598039 0.91439951
0.79901961 0.87683824 0.89448529
0.8995098 0.89117647 0.90196078
0.95343137 0.90294118 0.90637255
0.61176471 0.96862745 0.92941176
0.61127451 0.95637255 0.91715686
0.63039216 0.96372549 0.9254902
0.65980392 0.95392157 0.91715686
0.70588235 0.96666667 0.93137255
0.76911765 0.94656863 0.89264706
0.81372549 0.9627451 0.93137255
0.89166667 0.94509804 0.90980392
0.98431373 0.97647059 0.94509804
