site/assets/luts/sha256-c10865277882beebb1fa1bcd0d01322217c90d1b294b301726e1473e0b1a374a.cube
# LUTr-Schema-Version: 2
# LUTr-ID: sha256-c10865277882beebb1fa1bcd0d01322217c90d1b294b301726e1473e0b1a374a
# LUTr-Title: extreme
# LUTr-Collection: Natron HaldCLUT
# LUTr-Collection-ID: natron-haldclut-presets
# LUTr-Source: https://github.com/NatronGitHub/clut
# LUTr-Retrieved: 2026-07-27
# LUTr-Source-File: submissions/natron-haldclut-presets/various/extreme.png
# LUTr-Source-Format: HALD-PNG
# LUTr-Source-SHA256: c10865277882beebb1fa1bcd0d01322217c90d1b294b301726e1473e0b1a374a
# LUTr-License: CC-BY-SA-4.0
# LUTr-License-URL: https://github.com/NatronGitHub/clut#license
# LUTr-License-Basis: repo-license-file
# LUTr-Transform-Class: film-emulation
# LUTr-Tags: creative, film, film-emulation, hald-clut, natron, png, cube
# LUTr-Input-Color-Space: srgb
# LUTr-Input-Gamut: rec709
# LUTr-Input-Transfer: srgb
# LUTr-Output-Color-Space: srgb
# LUTr-Output-Gamut: rec709
# LUTr-Output-Transfer: srgb
# LUTr-Color-Space-Confidence: assumed-display-referred
# LUTr-Domain-Normalized: true
# LUTr-Shaper: none
# LUTr-Original-Grid: 64x64x64
# LUTr-Conversion-Grid: 25x25x25
# LUTr-Conversion-Interpolation: trilinear
# LUTr-Conversion-Method: HALD-PNG LUT image decoded at 16-bit and sampled to 25x25x25 3D CUBE
# LUTr-Conversion-Tool: LUTr scripts/convert-all-to-cube.mjs 2.0.0
# LUTr-Conversion-Date: 2026-07-27
# LUTr-Note: Preserve this metadata and the upstream license notices when redistributing.
TITLE "extreme"
LUT_3D_SIZE 5
DOMAIN_MIN 0 0 0
DOMAIN_MAX 1 1 1
0.0039215686 0.011764706 0.023529412
0.1245098 0.0039215686 0.02745098
0.50196078 0.0039215686 0.011764706
0.74019608 0.0049019608 0.065686275
0.98039216 0 0.011764706
0 0.10294118 0.021568627
0.10857843 0.095833333 0.024264706
0.48872549 0.10392157 0.034313725
0.7372549 0.091176471 0.018627451
0.95490196 0.10490196 0.040196078
0 0.49019608 0.0039215686
0.10196078 0.48529412 0.044117647
0.49215686 0.49019608 0.031372549
0.72990196 0.49019608 0.054901961
0.96470588 0.48039216 0.035294118
0.0039215686 0.73823529 0.018627451
0.093382353 0.73333333 0.02745098
0.49019608 0.7372549 0.035784314
0.73431373 0.74142157 0.029411765
0.9745098 0.7372549 0.016666667
0 0.98039216 0.035294118
0.093137255 0.92745098 0.023529412
0.49411765 0.9627451 0.031372549
0.74215686 0.9754902 0.012745098
0.93333333 0.9372549 0.031372549
0 0.0039215686 0.4254902
0.10784314 0 0.46372549
0.48823529 0.0039215686 0.46372549
0.73039216 0 0.4247549
0.97156863 0.0039215686 0.44019608
0 0.10490196 0.44313725
0.10116422 0.094362745 0.45686275
0.49865196 0.090686275 0.45294118
0.73339461 0.10526961 0.44234069
0.95906863 0.093137255 0.4497549
0 0.4877451 0.45392157
0.093504902 0.48284314 0.44240196
0.48970588 0.48504902 0.45171569
0.73333333 0.49534314 0.44938725
0.9495098 0.48235294 0.42892157
0 0.74117647 0.43823529
0.091176471 0.73964461 0.45606618
0.49227941 0.74117647 0.43872549
0.73596814 0.73651961 0.44099265
0.94215686 0.74509804 0.45637255
0 0.97843137 0.46078431
0.09877451 0.96078431 0.41838235
0.49117647 0.93529412 0.43578431
0.72941176 0.95686275 0.43651961
0.96960784 0.9745098 0.45490196
0.0039215686 0 0.070588235
0.087254902 0.0019607843 0.093137255
0.49313725 0 0.082352941
0.73921569 0 0.079411765
0.97843137 0 0.098039216
0 0.093137255 0.11862745
0.086519608 0.087254902 0.10759804
0.49705882 0.083823529 0.084558824
0.73406863 0.096936275 0.089460784
0.95686275 0.096568627 0.10588235
0 0.49019608 0.097058824
0.088970588 0.49117647 0.085784314
0.49166667 0.48872549 0.10833333
0.73676471 0.49093137 0.080637255
0.97058824 0.48921569 0.089215686
0 0.73823529 0.098039216
0.087254902 0.7377451 0.11397059
0.49583333 0.73872549 0.092401961
0.73333333 0.74460784 0.072916667
0.97205882 0.74019608 0.092647059
0 0.9745098 0.098039216
0.084803922 0.98529412 0.090686275
0.49019608 0.96862745 0.099019608
0.74117647 0.96715686 0.073039216
0.95294118 0.98039216 0.07254902
0 0.0049019608 0.90882353
0.10882353 0 0.90098039
0.49460784 0 0.88676471
0.73308824 0 0.91078431
0.97156863 0.0039215686 0.92647059
0 0.097058824 0.89117647
0.097610294 0.10416667 0.92101716
0.49779412 0.092156863 0.89497549
0.73333333 0.09564951 0.92126225
0.95171569 0.10906863 0.91102941
0 0.48088235 0.89607843
0.093872549 0.48823529 0.89718137
0.48186275 0.48970588 0.91568627
0.73247549 0.48713235 0.91911765
0.94264706 0.48921569 0.92990196
0 0.74117647 0.92083333
0.09877451 0.74117647 0.90477941
0.49620098 0.7372549 0.89791667
0.73333333 0.74117647 0.91170343
0.9627451 0.7372549 0.89191176
0 0.95 0.89509804
0.1002451 0.97573529 0.89583333
0.49803922 0.96470588 0.89460784
0.73333333 0.9627451 0.91127451
0.97254902 0.96372549 0.90392157
0 0.0039215686 0.9254902
0.096078431 0.0039215686 0.93235294
0.50196078 0.0039215686 0.95490196
0.74117647 0 0.91568627
0.96078431 0.0039215686 0.96470588
0.0039215686 0.10588235 0.92352941
0.092892157 0.094117647 0.95196078
0.49411765 0.090196078 0.92892157
0.73259804 0.092156863 0.93627451
0.97647059 0.090196078 0.8872549
0.0039215686 0.48431373 0.9254902
0.093137255 0.4872549 0.91568627
0.49215686 0.49019608 0.93823529
0.7377451 0.48627451 0.94313725
0.97254902 0.48039216 0.93921569
0.0039215686 0.74411765 0.94803922
0.090196078 0.74117647 0.90955882
0.49313725 0.74117647 0.92941176
0.74117647 0.74191176 0.96666667
0.96666667 0.7372549 0.95196078
0 0.98823529 0.97647059
0.088235294 0.98333333 0.95
0.49215686 0.95686275 0.92941176
0.7372549 0.96568627 0.93627451
0.98823529 0.97254902 0.94509804
