site/assets/luts/sha256-8e5efda97e44d046be111c04878df7871fa85e8c74f2eb49669efe2353f9d34e.cube
# LUTr-Schema-Version: 2
# LUTr-ID: sha256-8e5efda97e44d046be111c04878df7871fa85e8c74f2eb49669efe2353f9d34e
# LUTr-Title: polaroid time zero (expired) cold ---
# LUTr-Collection: Natron HaldCLUT
# LUTr-Collection-ID: natron-haldclut-presets
# LUTr-Source: https://github.com/NatronGitHub/clut
# LUTr-Retrieved: 2026-07-27
# LUTr-Source-File: submissions/natron-haldclut-presets/instant_consumer/polaroid_time_zero_(expired)_cold_---.png
# LUTr-Source-Format: HALD-PNG
# LUTr-Source-SHA256: 8e5efda97e44d046be111c04878df7871fa85e8c74f2eb49669efe2353f9d34e
# LUTr-License: CC-BY-SA-4.0
# LUTr-License-URL: https://github.com/NatronGitHub/clut#license
# LUTr-License-Basis: repo-license-file
# LUTr-Transform-Class: film-emulation
# LUTr-Tags: creative, film, film-emulation, hald-clut, natron, png, cool, cube
# LUTr-Input-Color-Space: srgb
# LUTr-Input-Gamut: rec709
# LUTr-Input-Transfer: srgb
# LUTr-Output-Color-Space: srgb
# LUTr-Output-Gamut: rec709
# LUTr-Output-Transfer: srgb
# LUTr-Color-Space-Confidence: assumed-display-referred
# LUTr-Domain-Normalized: true
# LUTr-Shaper: none
# LUTr-Original-Grid: 64x64x64
# LUTr-Conversion-Grid: 25x25x25
# LUTr-Conversion-Interpolation: trilinear
# LUTr-Conversion-Method: HALD-PNG LUT image decoded at 16-bit and sampled to 25x25x25 3D CUBE
# LUTr-Conversion-Tool: LUTr scripts/convert-all-to-cube.mjs 2.0.0
# LUTr-Conversion-Date: 2026-07-27
# LUTr-Note: Preserve this metadata and the upstream license notices when redistributing.
TITLE "polaroid time zero (expired) cold ---"
LUT_3D_SIZE 25
DOMAIN_MIN 0 0 0
DOMAIN_MAX 1 1 1
0.12941176 0.031372549 0.039215686
0.13186275 0.031372549 0.035294118
0.13333333 0.031372549 0.031372549
0.1372549 0.02745098 0.034803922
0.14313725 0.019607843 0.037254902
0.1622549 0.015686275 0.03872549
0.19607843 0.015686275 0.032352941
0.23186275 0.015686275 0.025980392
0.2745098 0.015686275 0.023529412
0.31568627 0.013235294 0.023529412
0.36078431 0.011764706 0.019607843
0.40196078 0.0078431373 0.019607843
0.44509804 0.0058823529 0.015686275
0.48431373 0 0.011764706
0.53235294 0 0.021568627
0.58382353 0 0.034313725
0.63137255 0 0.047058824
0.67254902 0.0039215686 0.044607843
0.7127451 0.0039215686 0.038235294
0.75098039 0.0078431373 0.042647059
0.78627451 0.0039215686 0.058823529
0.82156863 0.0039215686 0.075
0.85980392 0.0039215686 0.088235294
0.89558824 0.0088235294 0.099509804
0.90980392 0.058823529 0.11372549
0.12941176 0.031372549 0.039215686
0.13186275 0.031372549 0.035294118
0.13333333 0.031372549 0.031372549
0.1372549 0.030085784 0.031066176
0.14705882 0.022794118 0.034068627
0.16832108 0.017830882 0.034987745
0.19705882 0.015686275 0.031372549
0.23186275 0.015686275 0.024448529
0.2745098 0.015686275 0.023529412
0.31813725 0.015686275 0.023529412
0.36078431 0.014215686 0.019607843
0.40569853 0.014215686 0.017463235
0.44705882 0.010294118 0.015686275
0.49117647 0.0073529412 0.015992647
0.53872549 0.0006127451 0.019240196
0.58382353 0 0.025551471
0.63137255 0 0.034313725
0.67401961 0.003002451 0.034313725
0.71335784 0.0039215686 0.031740196
0.75098039 0.0078431373 0.040196078
0.7875 0.0071078431 0.055637255
0.82371324 0.0039215686 0.071262255
0.85980392 0.0014705882 0.086397059
0.89552696 0.032720588 0.10189951
0.93039216 0.12303922 0.12401961
0.12941176 0.032352941 0.038235294
0.13186275 0.035294118 0.032843137
0.13333333 0.034558824 0.029656863
0.13676471 0.031495098 0.02745098
0.15 0.02745098 0.028921569
0.17757353 0.024509804 0.02745098
0.20196078 0.020588235 0.02745098
0.23186275 0.01629902 0.023529412
0.2745098 0.016666667 0.023529412
0.3185049 0.020588235 0.019607843
0.36102941 0.02377451 0.015686275
0.40588235 0.024509804 0.014705882
0.45098039 0.020098039 0.011764706
0.49754902 0.012254902 0.017156863
0.54607843 0.0039215686 0.024509804
0.58835784 0.0006127451 0.020220588
0.63137255 0 0.02254902
0.67647059 0 0.02254902
0.71372549 0.0049019608 0.02745098
0.75147059 0.0078431373 0.034803922
0.79019608 0.0078431373 0.05
0.8254902 0.0075980392 0.06629902
0.8627451 0.012009804 0.081127451
0.8942402 0.063848039 0.10245098
0.9245098 0.14705882 0.1245098
0.13284314 0.046078431 0.031862745
0.13333333 0.043933824 0.031372549
0.13333333 0.03872549 0.02745098
0.13719363 0.035723039 0.023590686
0.15833333 0.036519608 0.02377451
0.18529412 0.038664216 0.023529412
0.21311275 0.037867647 0.023529412
0.23921569 0.035968137 0.023529412
0.27794118 0.033823529 0.019607843
0.32175245 0.034313725 0.019607843
0.36470588 0.030882353 0.012132353
0.4088848 0.031372549 0.0083333333
0.45465686 0.028921569 0.01004902
0.50392157 0.018198529 0.020098039
0.55539216 0.0049019608 0.030392157
0.59411765 0.0039215686 0.025490196
0.63529412 0 0.015686275
0.67647059 0 0.012254902
0.71372549 0.0049019608 0.021078431
0.75490196 0.0048406863 0.027879902
0.79191176 0.0078431373 0.043382353
0.8254902 0.03125 0.060294118
0.85980392 0.067769608 0.080392157
0.89068627 0.11096814 0.10116422
0.91764706 0.175 0.12156863
0.1372549 0.076470588 0.025490196
0.13921569 0.076470588 0.025490196
0.14362745 0.070588235 0.025
0.15245098 0.068627451 0.021813725
0.1745098 0.071568627 0.019607843
0.20147059 0.078431373 0.019607843
0.22892157 0.078431373 0.019607843
0.25931373 0.078431373 0.019607843
0.29411765 0.074509804 0.015686275
0.33529412 0.066666667 0.013235294
0.37401961 0.055882353 0.0093137255
0.41176471 0.043872549 0.0041666667
0.45882353 0.038235294 0.0058823529
0.51029412 0.032598039 0.018137255
0.56029412 0.02254902 0.030392157
0.60122549 0.018382353 0.026715686
0.63921569 0.019607843 0.019607843
0.67916667 0.027205882 0.011764706
0.71764706 0.030882353 0.018627451
0.75686275 0.022058824 0.023529412
0.79215686 0.040196078 0.035294118
0.825 0.084313725 0.057843137
0.85931373 0.1254902 0.076960784
0.89068627 0.16544118 0.097794118
0.91372549 0.21176471 0.12156863
0.14166667 0.10735294 0.014705882
0.14803922 0.11127451 0.017647059
0.15882353 0.11580882 0.019240196
0.17303922 0.11960784 0.019178922
0.19313725 0.12009804 0.017401961
0.21813725 0.12052696 0.019117647
0.24595588 0.12352941 0.019117647
0.27598039 0.12352941 0.015686275
0.31421569 0.11617647 0.011764706
0.35165441 0.10931373 0.009129902
0.38921569 0.099509804 0.0039215686
0.42990196 0.093137255 0.00091911765
0.47132353 0.095343137 0.0039215686
0.51709559 0.093627451 0.0082720588
0.56813725 0.087132353 0.018137255
0.60851716 0.084497549 0.015196078
0.64754902 0.078431373 0.015196078
0.68216912 0.078615196 0.015686275
0.72156863 0.089215686 0.019607843
0.7588848 0.085784314 0.023039216
0.79411765 0.10122549 0.027205882
0.8254902 0.13823529 0.047058824
0.85980392 0.17941176 0.067647059
0.88921569 0.22009804 0.090012255
0.91323529 0.25245098 0.11323529
0.14803922 0.14215686 0.00098039216
0.16188725 0.14791667 0.0073529412
0.17941176 0.15784314 0.012745098
0.19362745 0.1685049 0.015686275
0.21372549 0.17156863 0.012745098
0.23823529 0.16862745 0.012745098
0.26348039 0.16862745 0.015686275
0.29301471 0.1682598 0.012377451
0.33137255 0.16372549 0.0088235294
0.36862745 0.15625 0.006004902
0.40661765 0.15490196 0.0039215686
0.44705882 0.15833333 0.0039215686
0.48676471 0.15882353 0.0039215686
0.5307598 0.16176471 0.0039215686
0.5754902 0.16176471 0.0049019608
0.61666667 0.16139706 0.0049019608
0.65392157 0.15392157 0.0088235294
0.68762255 0.14607843 0.014583333
0.7252451 0.15416667 0.019607843
0.7627451 0.15747549 0.019607843
0.79558824 0.16960784 0.020098039
0.82892157 0.19607843 0.030269608
0.85980392 0.23431373 0.047058824
0.88676471 0.26715686 0.074142157
0.91372549 0.29019608 0.10588235
0.15833333 0.19705882 0
0.17254902 0.20042892 0.0015318627
0.19166667 0.20833333 0.0045343137
0.2122549 0.21488971 0.0076593137
0.23039216 0.22303922 0.010294118
0.25539216 0.22040441 0.0078431373
0.28235294 0.21911765 0.0067401961
0.31023284 0.21672794 0.006372549
0.34803922 0.2127451 0.0039215686
0.38621324 0.2127451 0.0039215686
0.42610294 0.21666667 0.0039215686
0.46372549 0.21666667 0.0052083333
0.50343137 0.21985294 0.0078431373
0.54607843 0.22107843 0.0039215686
0.58578431 0.2245098 0.0039215686
0.62156863 0.2245098 0.0039215686
0.65882353 0.22205882 0.0078431373
0.69270833 0.21721814 0.011764706
0.72843137 0.21911765 0.015318627
0.76323529 0.22941176 0.014215686
0.79803922 0.23970588 0.011029412
0.83302696 0.25343137 0.009620098
0.86372549 0.28566176 0.030882353
0.89215686 0.30686275 0.066237745
0.92156863 0.32745098 0.098039216
0.16470588 0.25490196 0
0.18137255 0.26127451 0
0.20196078 0.26666667 0.0039215686
0.21862745 0.27401961 0.0039215686
0.24117647 0.27843137 0.0039215686
0.27156863 0.27401961 0.0039215686
0.29901961 0.27058824 0.0039215686
0.32990196 0.26813725 0.0014705882
0.36470588 0.27058824 0.0039215686
0.40588235 0.2745098 0.0039215686
0.44313725 0.27843137 0.0039215686
0.48039216 0.27843137 0.0073529412
0.51764706 0.27843137 0.0078431373
0.55833333 0.28235294 0.0039215686
0.59313725 0.28235294 0.0039215686
0.6254902 0.27843137 0.0039215686
0.6627451 0.27843137 0.0078431373
0.69754902 0.28235294 0.0078431373
0.73235294 0.28627451 0.011764706
0.76666667 0.29362745 0.0078431373
0.8 0.30392157 0.0058823529
0.83676471 0.31421569 0.00049019608
0.86764706 0.32745098 0.023529412
0.89852941 0.34803922 0.063235294
0.92941176 0.36470588 0.094117647
0.17254902 0.31666667 0
0.18829657 0.31966912 0
0.20833333 0.3254902 0.0039215686
0.22647059 0.33363971 0.0039215686
0.25269608 0.33186275 0.0039215686
0.28235294 0.3254902 0.0039215686
0.31213235 0.31911765 0.0039215686
0.34319853 0.31960784 0.0039215686
0.38137255 0.32990196 0.0039215686
0.42101716 0.33627451 0.0039215686
0.45919118 0.34019608 0.0039215686
0.49491422 0.33805147 0.0075367647
0.53063725 0.33627451 0.0078431373
0.56519608 0.33627451 0.0078431373
0.5995098 0.33382353 0.0078431373
0.63094363 0.32990196 0.0078431373
0.66666667 0.32990196 0.0078431373
0.70300245 0.33627451 0.0078431373
0.73872549 0.34166667 0.0078431373
0.77089461 0.34901961 0.0078431373
0.80514706 0.35539216 0.0039215686
0.83676471 0.36519608 0.0065563725
0.86323529 0.37316176 0.022426471
0.89761029 0.38829657 0.044056373
0.92990196 0.40343137 0.086764706
0.17745098 0.37352941 0
0.19411765 0.37806373 0
0.21495098 0.38210784 0.0039215686
0.24007353 0.3817402 0.0039215686
0.26617647 0.37892157 0.0039215686
0.29620098 0.37340686 0.0039215686
0.3245098 0.36960784 0.0039215686
0.35870098 0.37107843 0.0039215686
0.39705882 0.38137255 0.0049019608
0.43468137 0.39448529 0.0039215686
0.47156863 0.40098039 0.0039215686
0.50539216 0.39448529 0.0039215686
0.54019608 0.39019608 0.0039215686
0.5754902 0.39019608 0.0042892157
0.60980392 0.38921569 0.0075980392
0.64068627 0.38529412 0.0078431373
0.6754902 0.38529412 0.0078431373
0.70992647 0.38811275 0.0078431373
0.74509804 0.39411765 0.0078431373
0.77892157 0.40061275 0.0078431373
0.80980392 0.40735294 0.0078431373
0.83762255 0.41323529 0.0078431373
0.86764706 0.42058824 0.0078431373
0.89816176 0.43039216 0.014828431
0.9245098 0.44411765 0.071568627
0.18382353 0.42892157 0
0.2004902 0.43284314 0
0.22855392 0.43198529 0.0039215686
0.2533701 0.42898284 0.0039215686
0.28161765 0.4252451 0.0039215686
0.30686275 0.42064951 0.0039215686
0.3377451 0.41715686 0.0039215686
0.37383578 0.42254902 0.0075367647
0.41127451 0.43284314 0.0078431373
0.44852941 0.44313725 0.0078431373
0.48186275 0.44509804 0.0068627451
0.51568627 0.44509804 0.0039215686
0.5504902 0.44460784 0.0039215686
0.58878676 0.44460784 0.0039215686
0.62267157 0.44460784 0.0039215686
0.65459559 0.44068627 0.0078431373
0.68529412 0.44019608 0.0078431373
0.71697304 0.44068627 0.0056985294
0.75281863 0.44558824 0.0078431373
0.78627451 0.45245098 0.0078431373
0.81348039 0.45833333 0.0078431373
0.84068627 0.46427696 0.01127451
0.86764706 0.46727941 0.01127451
0.89607843 0.47401961 0.024877451
0.92598039 0.48431373 0.063235294
0.19607843 0.47843137 0
0.21666667 0.47843137 0
0.24215686 0.47598039 0.0039215686
0.26936275 0.4745098 0.0039215686
0.29509804 0.47058824 0.0039215686
0.32303922 0.46666667 0.0039215686
0.35392157 0.46617647 0.0039215686
0.38946078 0.47401961 0.0078431373
0.4254902 0.48235294 0.0078431373
0.46029412 0.48627451 0.0078431373
0.49362745 0.48627451 0.0078431373
0.52598039 0.48970588 0.0039215686
0.5627451 0.49313725 0.0039215686
0.5997549 0.49828431 0.0036764706
0.63431373 0.5 0.0034313725
0.66519608 0.49607843 0.0085784314
0.69607843 0.49215686 0.0098039216
0.72622549 0.49215686 0.0039215686
0.75980392 0.49705882 0.0039215686
0.79068627 0.50343137 0.0073529412
0.81568627 0.50686275 0.012745098
0.84044118 0.50980392 0.015686275
0.86764706 0.51127451 0.015686275
0.89583333 0.51519608 0.019852941
0.91764706 0.51960784 0.045098039
0.2245098 0.51960784 0
0.24117647 0.51697304 0
0.26311275 0.51568627 0.00098039216
0.28627451 0.51568627 0.0039215686
0.31053922 0.51593137 0.0039215686
0.33578431 0.5122549 0.0039215686
0.37009804 0.51519608 0.0039215686
0.40490196 0.5213848 0.0078431373
0.43970588 0.52352941 0.0078431373
0.47322304 0.52726716 0.0078431373
0.50551471 0.52745098 0.0078431373
0.540625 0.53088235 0.0048406863
0.57696078 0.53529412 0.0039215686
0.61372549 0.53964461 0.0039215686
0.64460784 0.54313725 0.0039215686
0.6754902 0.54313725 0.0088235294
0.70637255 0.53970588 0.023039216
0.73333333 0.54313725 0.010968137
0.76421569 0.54448529 0.00024509804
0.79160539 0.5504902 0.016176471
0.81789216 0.55098039 0.030882353
0.84460784 0.55140931 0.036335784
0.87169118 0.55490196 0.026470588
0.90245098 0.55637255 0.0098039216
0.92156863 0.55882353 0.014215686
0.24901961 0.56078431 0
0.26568627 0.55686275 0
0.28627451 0.55686275 0
0.30428922 0.55943627 0.00098039216
0.3245098 0.56078431 0.00098039216
0.35245098 0.56066176 0.0039215686
0.38406863 0.5629902 0.0039215686
0.4185049 0.56470588 0.0042892157
0.45294118 0.56470588 0.0078431373
0.48664216 0.56470588 0.0078431373
0.51960784 0.56495098 0.0078431373
0.55428922 0.56948529 0.0078431373
0.58921569 0.5745098 0.0039215686
0.62401961 0.57781863 0.0039215686
0.65490196 0.58112745 0.0039215686
0.68578431 0.58431373 0.0039215686
0.7127451 0.58431373 0.0088235294
0.74362745 0.58676471 0.062377451
0.77352941 0.58823529 0.046078431
0.80147059 0.58823529 0.06372549
0.82647059 0.59068627 0.082352941
0.85147059 0.59215686 0.087745098
0.87867647 0.59289216 0.07745098
0.90637255 0.59644608 0.058578431
0.92156863 0.59705882 0.054901961
0.26960784 0.60196078 0
0.28627451 0.59803922 0
0.30588235 0.59803922 0
0.32352941 0.60147059 0
0.34019608 0.60588235 0
0.36519608 0.60588235 0
0.39852941 0.60588235 0.0039215686
0.43333333 0.60588235 0.0039215686
0.46568627 0.60441176 0.006372549
0.49901961 0.60196078 0.0078431373
0.53198529 0.60257353 0.0078431373
0.56470588 0.60802696 0.0078431373
0.5995098 0.61102941 0.0053921569
0.63039216 0.61403186 0.0073529412
0.66311275 0.61948529 0.0039215686
0.69307598 0.62156863 0.0039215686
0.72303922 0.62401961 0
0.75392157 0.6254902 0.04307598
0.78088235 0.62830882 0.10808824
0.80833333 0.62941176 0.12941176
0.83480392 0.62941176 0.14411765
0.86127451 0.62971814 0.1495098
0.88578431 0.63333333 0.13921569
0.909375 0.63333333 0.13186275
0.9254902 0.63578431 0.13333333
0.30588235 0.63529412 0
0.31617647 0.63529412 0
0.33431373 0.63529412 0
0.35196078 0.63921569 0
0.36862745 0.64313725 0
0.38529412 0.64705882 0
0.4127451 0.64313725 0
0.44754902 0.64313725 0.0039215686
0.47843137 0.63921569 0.0039215686
0.51176471 0.63921569 0.0039215686
0.54411765 0.64019608 0.0068627451
0.57843137 0.64313725 0.0039215686
0.60980392 0.64705882 0.0078431373
0.64068627 0.65147059 0.0078431373
0.6745098 0.65490196 0.0078431373
0.70637255 0.65882353 0.0039215686
0.73333333 0.65490196 0.0039215686
0.76421569 0.66127451 0.048529412
0.79117647 0.66666667 0.11960784
0.81813725 0.66666667 0.18186275
0.84509804 0.66666667 0.20392157
0.86813725 0.67058824 0.20735294
0.89215686 0.67058824 0.20392157
0.9127451 0.67058824 0.20784314
0.93333333 0.67058824 0.20784314
0.35343137 0.67009804 0
0.35735294 0.67009804 0
0.36973039 0.67009804 0
0.38707108 0.67383578 0
0.40269608 0.67794118 0
0.41832108 0.67794118 0
0.43676471 0.67794118 0
0.46329657 0.67794118 0.00055147059
0.49264706 0.67647059 0.0039215686
0.52352941 0.67401961 0.0039215686
0.55502451 0.67683824 0.0039215686
0.58921569 0.68039216 0.0039215686
0.62009804 0.68431373 0.0078431373
0.65098039 0.68609069 0.0078431373
0.68296569 0.68970588 0.0078431373
0.71666667 0.68970588 0.0039215686
0.74362745 0.68970588 0.0078431373
0.7745098 0.69215686 0.05
0.80085784 0.69754902 0.12058824
0.82843137 0.70147059 0.18890931
0.85343137 0.70392157 0.2504902
0.8754902 0.70539216 0.26354167
0.89791667 0.70539216 0.26678922
0.91966912 0.70784314 0.27199755
0.9372549 0.70931373 0.275
0.40098039 0.70588235 0.0039215686
0.40490196 0.70588235 0.00098039216
0.4127451 0.70588235 0
0.42561275 0.70845588 0
0.43676471 0.70931373 0
0.45183824 0.7127451 0
0.46789216 0.7127451 0
0.48431373 0.7127451 0
0.50784314 0.7127451 0
0.5377451 0.70980392 0.0035539216
0.56862745 0.7129902 0.0039215686
0.5995098 0.71666667 0.0039215686
0.63039216 0.72058824 0.0078431373
0.66127451 0.72058824 0.0078431373
0.69289216 0.72058824 0.0068627451
0.72303922 0.72058824 0.0039215686
0.75392157 0.72058824 0.0078431373
0.78480392 0.7245098 0.042647059
0.81078431 0.72843137 0.10980392
0.83872549 0.73235294 0.17634804
0.86323529 0.73627451 0.24852941
0.88382353 0.73676471 0.3002451
0.90098039 0.74019608 0.31666667
0.92267157 0.74019608 0.32401961
0.94117647 0.74019608 0.32647059
0.4377451 0.73970588 0.00049019608
0.4403799 0.73970588 0.00018382353
0.44656863 0.73970588 0
0.4598652 0.74270833 0
0.47107843 0.74362745 0
0.48572304 0.74362745 0
0.4995098 0.74362745 0
0.51519608 0.74491422 0
0.53186275 0.74705882 0
0.55147059 0.74705882 0
0.57892157 0.74840686 0.0013480392
0.60980392 0.75147059 0.0039215686
0.64411765 0.75318627 0.0039215686
0.6754902 0.75490196 0.0039215686
0.70637255 0.75490196 0.006495098
0.73578431 0.75490196 0.0044117647
0.76421569 0.75490196 0.0078431373
0.79509804 0.75539216 0.023835784
0.82107843 0.75931373 0.08627451
0.84558824 0.76323529 0.16519608
0.87205882 0.76715686 0.24166667
0.8911152 0.76721814 0.30441176
0.91127451 0.77107843 0.34816176
0.93057598 0.77107843 0.371875
0.94509804 0.77107843 0.37794118
0.46862745 0.7745098 0
0.47107843 0.7745098 0
0.48137255 0.7745098 0
0.49338235 0.7745098 0
0.50588235 0.77745098 0
0.52009804 0.77843137 0
0.53382353 0.77843137 0
0.54852941 0.77843137 0
0.5627451 0.77843137 0
0.57622549 0.77843137 0
0.6004902 0.78235294 0
0.62990196 0.78602941 0.0039215686
0.66078431 0.78627451 0.0039215686
0.69166667 0.78823529 0.0039215686
0.72254902 0.78627451 0.0039215686
0.7495098 0.78627451 0.0039215686
0.77843137 0.78627451 0.0019607843
0.80612745 0.78627451 0.0088235294
0.83137255 0.7872549 0.074509804
0.85588235 0.79191176 0.15490196
0.88039216 0.79607843 0.23529412
0.90098039 0.79803922 0.29877451
0.92156863 0.80098039 0.35490196
0.94068627 0.80196078 0.40392157
0.95490196 0.80392157 0.42941176
0.4995098 0.80980392 0
0.50606618 0.80931373 0
0.51617647 0.80931373 0
0.52696078 0.80974265 0
0.54068627 0.81323529 0
0.55189951 0.81366422 0
0.56556373 0.81323529 0
0.57959559 0.81323529 0
0.59362745 0.81323529 0
0.60784314 0.80931373 0
0.62794118 0.81421569 0
0.65490196 0.81758578 0.003002451
0.68529412 0.82107843 0.0039215686
0.71617647 0.82107843 0.0039215686
0.74313725 0.82107843 0.0039215686
0.77009804 0.81715686 0.0039215686
0.79705882 0.81715686 0.0044117647
0.82371324 0.81746324 0.018137255
0.84607843 0.82107843 0.090318627
0.86666667 0.82150735 0.16231618
0.89068627 0.825 0.23235294
0.91127451 0.82892157 0.2971201
0.93186275 0.82892157 0.35588235
0.95245098 0.83284314 0.41354167
0.96519608 0.83284314 0.45931373
0.5372549 0.84411765 0
0.54178922 0.8435049 0
0.55098039 0.84338235 0
0.56127451 0.84411765 0
0.575 0.84803922 0
0.58578431 0.84803922 0
0.6 0.84803922 0
0.61360294 0.84767157 0
0.6245098 0.84411765 0
0.64117647 0.84019608 0
0.66176471 0.84509804 0
0.68235294 0.85147059 0
0.70931373 0.85539216 0.0024509804
0.73676471 0.85588235 0.0039215686
0.76446078 0.85514706 0.0039215686
0.78958333 0.85159314 0.0072303922
0.81372549 0.85098039 0.010784314
0.83884804 0.85196078 0.030269608
0.8629902 0.85490196 0.10588235
0.88431373 0.85588235 0.18982843
0.90490196 0.85784314 0.25588235
0.92536765 0.85980392 0.31727941
0.94289216 0.85980392 0.37352941
0.96127451 0.85980392 0.42781863
0.97254902 0.85980392 0.46568627
0.58382353 0.88039216 0
0.58627451 0.87947304 0
0.58872549 0.875 0
0.59234069 0.875 0
0.60710784 0.88357843 0
0.62058824 0.88431373 0
0.63382353 0.88321078 0
0.64509804 0.87892157 0
0.65931373 0.875 0
0.67205882 0.87107843 0
0.69264706 0.87561275 0
0.71323529 0.88235294 0
0.73382353 0.88676471 0
0.75863971 0.89068627 0.00030637255
0.78529412 0.88713235 0.0039215686
0.80833333 0.88376225 0.0078431373
0.83039216 0.88284314 0.010294118
0.85643382 0.88676471 0.031311275
0.87941176 0.88676471 0.11323529
0.90214461 0.88676471 0.21764706
0.92058824 0.88921569 0.28210784
0.93970588 0.89068627 0.33872549
0.95637255 0.88921569 0.39264706
0.97064951 0.88676471 0.43872549
0.98186275 0.88676471 0.47598039
0.63137255 0.92156863 0
0.61715686 0.90343137 0
0.61176471 0.89411765 0.0039215686
0.61519608 0.89754902 0.0039215686
0.63137255 0.90588235 0
0.65147059 0.92107843 0
0.66176471 0.91078431 0
0.67205882 0.90588235 0
0.68627451 0.90196078 0
0.70294118 0.90196078 0
0.71960784 0.90294118 0
0.73627451 0.90588235 0
0.75686275 0.91176471 0
0.77745098 0.91813725 0
0.80098039 0.91470588 0.0039215686
0.82254902 0.90980392 0.0039215686
0.84313725 0.90980392 0.0039215686
0.86764706 0.9122549 0.028921569
0.89215686 0.90980392 0.1245098
0.9127451 0.90980392 0.2377451
0.93333333 0.90980392 0.30196078
0.95 0.91372549 0.35882353
0.96372549 0.90980392 0.40392157
0.97794118 0.90588235 0.44901961
0.98823529 0.90980392 0.48627451
0.12941176 0.028921569 0.041666667
0.13186275 0.031372549 0.038296569
0.13431373 0.028553922 0.037132353
0.1372549 0.025306373 0.035294118
0.14313725 0.018382353 0.039215686
0.15882353 0.015686275 0.03872549
0.19607843 0.015686275 0.032352941
0.23333333 0.015686275 0.025980392
0.2745098 0.015686275 0.023529412
0.31905637 0.011764706 0.023529412
0.36360294 0.011151961 0.025980392
0.40588235 0.0078431373 0.025980392
0.4495098 0.0039215686 0.025980392
0.49117647 0.0021446078 0.032352941
0.53872549 0 0.035906863
0.5877451 0 0.043137255
0.63529412 0 0.053431373
0.67254902 0.0039215686 0.050061275
0.70980392 0.0067401961 0.052941176
0.74754902 0.0078431373 0.063235294
0.78431373 0.0078431373 0.075490196
0.82156863 0.0078431373 0.089522059
0.85980392 0.0067401961 0.10490196
0.89460784 0.036764706 0.12009804
0.9122549 0.079411765 0.13039216
0.12941176 0.030453431 0.039215686
0.13186275 0.031372549 0.036994485
0.13408395 0.031372549 0.033440564
0.1372549 0.027826287 0.032291667
0.14586397 0.022794118 0.035294118
0.16518842 0.017830882 0.035294118
0.19682904 0.015686275 0.031372549
0.23163297 0.015686275 0.025405944
0.2745098 0.015686275 0.023529412
0.31905637 0.012109375 0.023529412
0.36360294 0.011764706 0.025980392
0.40588235 0.0090226716 0.025980392
0.45070466 0.0078431373 0.025980392
0.49578738 0.0039215686 0.028615196
0.5432598 0.00038296569 0.032352941
0.58927696 0 0.03772212
0.63529412 0 0.043137255
0.67401961 0.0039215686 0.044094669
0.71205576 0.0074295343 0.049019608
0.74883578 0.0078431373 0.056977635
0.78581495 0.0078431373 0.072303922
0.82156863 0.0061810662 0.08560049
0.85980392 0.0059895833 0.099142157
0.89460784 0.049364277 0.11764706
0.92401961 0.12444853 0.13823529
0.12696078 0.031372549 0.039215686
0.12941176 0.031740196 0.035064338
0.13333333 0.031648284 0.030851716
0.13720895 0.031372549 0.02745098
0.15 0.025980392 0.030392157
0.17596507 0.024509804 0.030254289
0.20150123 0.017647059 0.02745098
0.22941176 0.015686275 0.023529412
0.27058824 0.015686275 0.023529412
0.31813725 0.016053922 0.023161765
0.36387868 0.014491422 0.025735294
0.40939032 0.018137255 0.022288603
0.45465686 0.015441176 0.025061275
0.50303309 0.0078584559 0.028079044
0.54920343 0.00098039216 0.03036152
0.59301471 0 0.031969975
0.63529412 0 0.033455882
0.67493873 0.003370098 0.03627451
