site/assets/luts/sha256-3bcef7bc32404876a4469119b6714b8ba936fa5357e81b80d23a6ea2acfe5ecd.cube
# LUTr-Schema-Version: 2
# LUTr-ID: sha256-3bcef7bc32404876a4469119b6714b8ba936fa5357e81b80d23a6ea2acfe5ecd
# LUTr-Title: blue mono
# LUTr-Collection: Natron HaldCLUT
# LUTr-Collection-ID: natron-haldclut-presets
# LUTr-Source: https://github.com/NatronGitHub/clut
# LUTr-Retrieved: 2026-07-27
# LUTr-Source-File: submissions/natron-haldclut-presets/various/blue_mono.png
# LUTr-Source-Format: HALD-PNG
# LUTr-Source-SHA256: 3bcef7bc32404876a4469119b6714b8ba936fa5357e81b80d23a6ea2acfe5ecd
# LUTr-License: CC-BY-SA-4.0
# LUTr-License-URL: https://github.com/NatronGitHub/clut#license
# LUTr-License-Basis: repo-license-file
# LUTr-Transform-Class: film-emulation
# LUTr-Tags: creative, film, film-emulation, hald-clut, natron, png, black-and-white, cool, cube
# LUTr-Input-Color-Space: srgb
# LUTr-Input-Gamut: rec709
# LUTr-Input-Transfer: srgb
# LUTr-Output-Color-Space: srgb
# LUTr-Output-Gamut: rec709
# LUTr-Output-Transfer: srgb
# LUTr-Color-Space-Confidence: assumed-display-referred
# LUTr-Domain-Normalized: true
# LUTr-Shaper: none
# LUTr-Original-Grid: 64x64x64
# LUTr-Conversion-Grid: 25x25x25
# LUTr-Conversion-Interpolation: trilinear
# LUTr-Conversion-Method: HALD-PNG LUT image decoded at 16-bit and sampled to 25x25x25 3D CUBE
# LUTr-Conversion-Tool: LUTr scripts/convert-all-to-cube.mjs 2.0.0
# LUTr-Conversion-Date: 2026-07-27
# LUTr-Note: Preserve this metadata and the upstream license notices when redistributing.
TITLE "blue mono"
LUT_3D_SIZE 25
DOMAIN_MIN 0 0 0
DOMAIN_MAX 1 1 1
0.023529412 0.035294118 0.10980392
0.033823529 0.051960784 0.15490196
0.044117647 0.068627451 0.19607843
0.054411765 0.085784314 0.2372549
0.064705882 0.10196078 0.27843137
0.075 0.11862745 0.32352941
0.085294118 0.13921569 0.36470588
0.094117647 0.15441176 0.40588235
0.10196078 0.17254902 0.44313725
0.12254902 0.19558824 0.47647059
0.13921569 0.22156863 0.50980392
0.15588235 0.24558824 0.54362745
0.17254902 0.26666667 0.5745098
0.18921569 0.29166667 0.60931373
0.20980392 0.31568627 0.64313725
0.22647059 0.34166667 0.67892157
0.24313725 0.36862745 0.70588235
0.25980392 0.38921569 0.72892157
0.27647059 0.41470588 0.75490196
0.29705882 0.43823529 0.78284314
0.31372549 0.4627451 0.80784314
0.33186275 0.48970588 0.83284314
0.37647059 0.56176471 0.85980392
0.4122549 0.61911765 0.88137255
0.44313725 0.6627451 0.90196078
0.02745098 0.043137255 0.12794118
0.034742647 0.054963235 0.15827206
0.044117647 0.070465686 0.19852941
0.054411765 0.085294118 0.2372549
0.064705882 0.10196078 0.27843137
0.075 0.11862745 0.31979167
0.085294118 0.13627451 0.3622549
0.091666667 0.15441176 0.40196078
0.10196078 0.16862745 0.43921569
0.12254902 0.19558824 0.47647059
0.13921569 0.22156863 0.51164216
0.15851716 0.24607843 0.54577206
0.17573529 0.27058824 0.57843137
0.19295343 0.29509804 0.61194853
0.20980392 0.3192402 0.64411765
0.22892157 0.34503676 0.67892157
0.24705882 0.37107843 0.70588235
0.26372549 0.39558824 0.73039216
0.28039216 0.42009804 0.75772059
0.2973652 0.44430147 0.78314951
0.31495098 0.46789216 0.80906863
0.3377451 0.4995098 0.83498775
0.38223039 0.56813725 0.86078431
0.41917892 0.62941176 0.88529412
0.44313725 0.6627451 0.90196078
0.031372549 0.047058824 0.13823529
0.038112745 0.057352941 0.16703431
0.044852941 0.071568627 0.20294118
0.054411765 0.085294118 0.23737745
0.060784314 0.099509804 0.2745098
0.071568627 0.11862745 0.31875
0.085294118 0.13529412 0.36078431
0.095588235 0.15477941 0.40196078
0.10588235 0.17254902 0.44411765
0.12291667 0.19767157 0.4807598
0.14313725 0.22328431 0.51666667
0.15980392 0.2495098 0.54852941
0.17647059 0.27303922 0.58235294
0.19313725 0.29558824 0.61458333
0.21372549 0.32254902 0.64803922
0.23039216 0.34840686 0.67892157
0.25098039 0.37647059 0.70588235
0.26764706 0.40159314 0.73321078
0.28504902 0.42647059 0.75980392
0.30232843 0.45085784 0.78676471
0.32156863 0.47745098 0.8122549
0.34411765 0.51115196 0.83762255
0.38823529 0.57843137 0.86397059
0.42463235 0.63786765 0.8877451
0.44313725 0.66372549 0.90196078
0.035294118 0.050980392 0.14509804
0.041360294 0.061090686 0.17205882
0.047916667 0.072426471 0.20686275
0.054411765 0.085784314 0.2377451
0.060784314 0.098039216 0.27058824
0.074571078 0.11862745 0.31568627
0.085294118 0.13884804 0.36078431
0.096875 0.15588235 0.40588235
0.10980392 0.17647059 0.44705882
0.12647059 0.20079657 0.48560049
0.14313725 0.2254902 0.52022059
0.16329657 0.25 0.55447304
0.18014706 0.2745098 0.58627451
0.19699755 0.29944853 0.61758578
0.21458333 0.32610294 0.65147059
0.23431373 0.35324755 0.68235294
0.25441176 0.38039216 0.70980392
0.27156863 0.40704657 0.73645833
0.29080882 0.43382353 0.7627451
0.30839461 0.46078431 0.79025735
0.32892157 0.4877451 0.81544118
0.35098039 0.52401961 0.84068627
0.39215686 0.58578431 0.86727941
0.42794118 0.64117647 0.88921569
0.44705882 0.67009804 0.90196078
0.035294118 0.050980392 0.14313725
0.041666667 0.06127451 0.17205882
0.048039216 0.07254902 0.20686275
0.054656863 0.085784314 0.24313725
0.064705882 0.10196078 0.28039216
0.075 0.11862745 0.31960784
0.08872549 0.13921569 0.36372549
0.1002451 0.15980392 0.40735294
0.11372549 0.18039216 0.45098039
0.12916667 0.20220588 0.48897059
0.14656863 0.22647059 0.5245098
0.16372549 0.25171569 0.55735294
0.18039216 0.27647059 0.59019608
0.20073529 0.30343137 0.62132353
0.21813725 0.33088235 0.65392157
0.23823529 0.35857843 0.68406863
0.25686275 0.38627451 0.71176471
0.2754902 0.41397059 0.73823529
0.29558824 0.44166667 0.76519608
0.31470588 0.46936275 0.79093137
0.33333333 0.49803922 0.81764706
0.35686275 0.53039216 0.84411765
0.39607843 0.59215686 0.86813725
0.43186275 0.64705882 0.89044118
0.45098039 0.67647059 0.90392157
0.035294118 0.047058824 0.13676471
0.04185049 0.059803922 0.16844363
0.051102941 0.075490196 0.21176471
0.058333333 0.089705882 0.25343137
0.068627451 0.10612745 0.29289216
0.078921569 0.12297794 0.33186275
0.089705882 0.14313725 0.36911765
0.10343137 0.16029412 0.41029412
0.11764706 0.18088235 0.45490196
0.13057598 0.20490196 0.49393382
0.14705882 0.22941176 0.52892157
0.16464461 0.25349265 0.56323529
0.18431373 0.28063725 0.59411765
0.20447304 0.30778186 0.625
0.22169118 0.33566176 0.65637255
0.24215686 0.36158088 0.68707108
0.25931373 0.39215686 0.71421569
0.27990196 0.41960784 0.74215686
0.3 0.44914216 0.76764706
0.31758578 0.47702206 0.79460784
0.3372549 0.50416667 0.81960784
0.36231618 0.53676471 0.84460784
0.4 0.59816176 0.8689951
0.43578431 0.65441176 0.89313725
0.45539216 0.68676471 0.90637255
0.035294118 0.047058824 0.13627451
0.045588235 0.059803922 0.17058824
0.051960784 0.076470588 0.21642157
0.062254902 0.093504902 0.26066176
0.071568627 0.10980392 0.30490196
0.082843137 0.12647059 0.34178922
0.093137255 0.14632353 0.37965686
0.1067402 0.16372549 0.41666667
0.11764706 0.18431373 0.45784314
0.13186275 0.20490196 0.5
0.15073529 0.23014706 0.53529412
0.16764706 0.25735294 0.56617647
0.1877451 0.28431373 0.59803922
0.20747549 0.31127451 0.62892157
0.2254902 0.33897059 0.65980392
0.2439951 0.36703431 0.69068627
0.2627451 0.39509804 0.72058824
0.28333333 0.42598039 0.74571078
0.30392157 0.45392157 0.77132353
0.32352941 0.48382353 0.79509804
0.34117647 0.51078431 0.82156863
0.3627451 0.5439951 0.84803922
0.40098039 0.60196078 0.87156863
0.43970588 0.65943627 0.89644608
0.46568627 0.7 0.9127451
0.039215686 0.05245098 0.14803922
0.045588235 0.062193627 0.17598039
0.051960784 0.079411765 0.21776961
0.062254902 0.094914216 0.26421569
0.07254902 0.11176471 0.30588235
0.082843137 0.12990196 0.34313725
0.093137255 0.14705882 0.38039216
0.10735294 0.16764706 0.42156863
0.12156863 0.18823529 0.4627451
0.13578431 0.20882353 0.50784314
0.15245098 0.23370098 0.54019608
0.17156863 0.26127451 0.57107843
0.19093137 0.28823529 0.60269608
0.21011029 0.31519608 0.63431373
0.22941176 0.34252451 0.66764706
0.24607843 0.36911765 0.69552696
0.2627451 0.39607843 0.72303922
0.28333333 0.42696078 0.74908088
0.30392157 0.45784314 0.77487745
0.3245098 0.48872549 0.79901961
0.34509804 0.51642157 0.82352941
0.36636029 0.54773284 0.84803922
0.40392157 0.60588235 0.87254902
0.44117647 0.66280637 0.89705882
0.47205882 0.71127451 0.91764706
0.039215686 0.054901961 0.16078431
0.045588235 0.067647059 0.1877451
0.054901961 0.080392157 0.22254902
0.062254902 0.097058824 0.26470588
0.07254902 0.11372549 0.30588235
0.082843137 0.13039216 0.34313725
0.096078431 0.14803922 0.38039216
0.10735294 0.16764706 0.42156863
0.12156863 0.18823529 0.4627451
0.13823529 0.2127451 0.50784314
0.15490196 0.2372549 0.54411765
0.1754902 0.26176471 0.575
0.19215686 0.29019608 0.60980392
0.2127451 0.31862745 0.64068627
0.23333333 0.34607843 0.67156863
0.24852941 0.37156863 0.70098039
0.26666667 0.39607843 0.72941176
0.28333333 0.42696078 0.75392157
0.30392157 0.45784314 0.77941176
0.3245098 0.48872549 0.80294118
0.34509804 0.51960784 0.82745098
0.37401961 0.55882353 0.85196078
0.40784314 0.61078431 0.8754902
0.44509804 0.66764706 0.89852941
0.4745098 0.71372549 0.91764706
0.039215686 0.058823529 0.16617647
0.045588235 0.069117647 0.19258578
0.055882353 0.083333333 0.22745098
0.062254902 0.09754902 0.26519608
0.07254902 0.11495098 0.30588235
0.082843137 0.13253676 0.34656863
0.097058824 0.15098039 0.38431373
0.10882353 0.17156863 0.4254902
0.12401961 0.19215686 0.46911765
0.14123775 0.21666667 0.50876225
0.15882353 0.24117647 0.54693627
0.17794118 0.26550245 0.58137255
0.19607843 0.29215686 0.61617647
0.21648284 0.31911765 0.64724265
0.23394608 0.34669118 0.67941176
0.25 0.37156863 0.70582108
0.26666667 0.39607843 0.73333333
0.28333333 0.42303922 0.759375
0.30392157 0.45392157 0.78517157
0.32794118 0.48872549 0.80900735
0.35220588 0.52794118 0.83137255
0.38039216 0.56960784 0.85441176
0.41458333 0.6182598 0.87647059
0.44846814 0.67401961 0.90098039
0.4745098 0.70980392 0.91764706
0.039215686 0.058823529 0.16568627
0.045588235 0.069117647 0.19166667
0.055882353 0.083578431 0.22745098
0.063235294 0.10098039 0.26862745
0.07254902 0.11764706 0.30980392
0.086764706 0.13517157 0.35061275
0.097058824 0.15490196 0.38921569
0.11164216 0.1754902 0.4314951
0.12647059 0.19705882 0.4745098
0.14607843 0.22156863 0.51213235
0.1627451 0.24607843 0.54901961
0.1807598 0.27046569 0.58627451
0.2 0.29607843 0.62205882
0.22022059 0.32267157 0.65637255
0.2372549 0.34779412 0.68504902
0.25245098 0.37303922 0.71090686
0.26666667 0.4 0.73823529
0.28370098 0.4245098 0.76629902
0.30416667 0.45416667 0.79117647
0.32928922 0.49313725 0.81176471
0.35931373 0.53627451 0.83382353
0.38933824 0.57977941 0.85588235
0.42058824 0.62745098 0.87965686
0.45208333 0.67745098 0.90098039
0.4745098 0.71078431 0.91764706
0.042647059 0.062254902 0.17598039
0.046875 0.071262255 0.19901961
0.055882353 0.084313725 0.23137255
0.066176471 0.10140931 0.27205882
0.076470588 0.11936275 0.31348039
0.086764706 0.13823529 0.35490196
0.1 0.15882353 0.39607843
0.11488971 0.17941176 0.44068627
0.12941176 0.20343137 0.47843137
0.14969363 0.22794118 0.51697304
0.16666667 0.25245098 0.55281863
0.18376225 0.27653186 0.58976716
0.20392157 0.2997549 0.62720588
0.22359069 0.32604167 0.66372549
0.23823529 0.35085784 0.69080882
0.25373775 0.37677696 0.71764706
0.27058824 0.4 0.74460784
0.28694853 0.42665441 0.77156863
0.30870098 0.45882353 0.79411765
0.33578431 0.5 0.81470588
0.36617647 0.54460784 0.83529412
0.39362745 0.58970588 0.859375
0.4245098 0.63480392 0.88039216
0.45539216 0.68253676 0.90098039
0.47843137 0.71372549 0.91764706
0.043137255 0.064705882 0.18235294
0.049509804 0.074264706 0.20539216
0.055882353 0.087254902 0.23823529
0.064460784 0.10147059 0.27279412
0.074509804 0.12156863 0.31470588
0.087009804 0.14215686 0.36470588
0.10098039 0.1627451 0.40588235
0.11666667 0.18529412 0.44705882
0.13333333 0.20980392 0.48627451
0.15196078 0.23235294 0.52230392
0.17058824 0.25539216 0.55833333
0.1875 0.27941176 0.59436275
0.20686275 0.30490196 0.63333333
0.2245098 0.32867647 0.66813725
0.24117647 0.35245098 0.69509804
0.25637255 0.37818627 0.71936275
0.27058824 0.40392157 0.74509804
0.2879902 0.42965686 0.77279412
0.31078431 0.46470588 0.79656863
0.33970588 0.50759804 0.81862745
0.37058824 0.55196078 0.83921569
0.3995098 0.59656863 0.86004902
0.43039216 0.64411765 0.88382353
0.46053922 0.6875 0.90490196
0.48235294 0.71960784 0.91960784
0.043137255 0.066666667 0.18431373
0.049509804 0.076960784 0.21158088
0.055882353 0.088602941 0.24264706
0.062745098 0.10189951 0.27653186
0.074754902 0.12156863 0.31960784
0.090686275 0.14607843 0.37150735
0.10134804 0.16703431 0.41617647
0.11697304 0.19117647 0.45735294
0.1372549 0.2122549 0.49460784
0.15392157 0.23676471 0.52941176
0.17095588 0.26090686 0.56519608
0.19117647 0.2848652 0.60245098
0.20784314 0.30808824 0.6377451
0.2245098 0.33131127 0.66862745
0.24215686 0.35784314 0.69901961
0.25814951 0.38118873 0.72469363
0.2745098 0.40784314 0.7495098
0.29166667 0.43511029 0.77616422
0.31666667 0.47107843 0.79852941
0.34411765 0.51525735 0.82254902
0.375 0.55931373 0.84313725
0.40588235 0.60637255 0.86421569
0.43676471 0.65147059 0.88823529
0.46746324 0.69656863 0.90882353
0.49019608 0.72990196 0.92205882
0.043137255 0.06372549 0.18431373
0.049509804 0.076960784 0.21372549
0.055882353 0.091176471 0.24828431
0.062745098 0.10490196 0.27953431
0.076470588 0.125 0.32352941
0.090686275 0.14914216 0.37794118
0.10465686 0.17058824 0.42647059
0.12058824 0.19448529 0.46764706
0.1372549 0.21862745 0.50490196
0.15723039 0.24203431 0.53860294
0.1745098 0.26544118 0.5747549
0.19154412 0.28921569 0.60931373
0.20980392 0.31323529 0.64411765
0.22794118 0.33737745 0.67205882
0.24509804 0.36102941 0.6997549
0.26176471 0.38664216 0.72781863
0.27843137 0.41176471 0.75294118
0.29693627 0.44166667 0.77928922
0.32279412 0.47843137 0.80269608
0.3504902 0.52254902 0.8254902
0.38137255 0.56813725 0.84705882
0.41323529 0.61666667 0.87058824
0.44411765 0.66176471 0.89117647
0.47401961 0.70686275 0.91237745
0.49705882 0.73627451 0.92843137
0.043137255 0.062745098 0.18284314
0.049509804 0.076960784 0.21372549
0.058823529 0.091544118 0.25147059
0.062745098 0.10539216 0.28088235
0.076470588 0.12622549 0.32892157
0.090686275 0.1504902 0.38431373
0.10490196 0.17561275 0.43578431
0.12058824 0.19901961 0.47647059
0.14117647 0.22352941 0.51127451
0.15784314 0.24656863 0.54761029
0.17781863 0.27071078 0.58480392
0.19509804 0.29460784 0.61960784
0.2125 0.31838235 0.6504902
0.22843137 0.34234069 0.67726716
0.24607843 0.36605392 0.70502451
0.26476716 0.39172794 0.73290441
0.27990196 0.41715686 0.75833333
0.30202206 0.44748775 0.78284314
0.32781863 0.4877451 0.80625
0.35686275 0.52892157 0.83039216
0.3877451 0.57598039 0.85245098
0.41862745 0.62334559 0.87303922
0.4495098 0.66997549 0.89607843
0.48039216 0.71323529 0.91666667
0.50343137 0.74901961 0.93088235
0.039215686 0.058823529 0.17647059
0.049509804 0.079411765 0.21764706
0.058823529 0.095098039 0.25392157
0.062745098 0.10539216 0.28480392
0.076470588 0.12941176 0.33529412
0.091176471 0.15392157 0.38676471
0.10490196 0.17745098 0.43823529
0.12058824 0.19901961 0.47892157
0.1372549 0.22352941 0.51372549
0.15784314 0.24656863 0.55098039
0.17843137 0.27352941 0.59215686
0.19901961 0.30098039 0.62990196
0.21568627 0.32352941 0.65686275
0.23235294 0.34656863 0.68333333
0.24901961 0.37058824 0.70784314
0.26568627 0.39509804 0.73627451
0.28235294 0.41960784 0.76078431
0.30539216 0.45294118 0.7877451
0.33235294 0.49411765 0.80980392
0.36323529 0.53872549 0.83431373
0.39019608 0.58235294 0.85686275
0.425 0.62990196 0.87941176
0.45588235 0.67745098 0.9
0.48529412 0.71960784 0.92058824
0.50588235 0.75294118 0.93333333
0.041666667 0.062745098 0.18284314
0.051960784 0.079411765 0.22310049
0.059803922 0.095710784 0.26237745
0.066176471 0.10931373 0.29509804
0.077696078 0.12941176 0.33848039
0.091176471 0.15392157 0.38676471
0.10490196 0.17561275 0.43431373
0.11966912 0.19901961 0.47738971
0.13480392 0.21960784 0.51372549
0.15392157 0.24656863 0.55343137
0.17843137 0.27352941 0.59215686
0.19901961 0.30098039 0.62959559
0.21568627 0.3254902 0.65686275
0.23235294 0.35 0.68596814
0.25 0.37414216 0.71139706
0.26905637 0.39810049 0.73927696
0.28627451 0.42352941 0.76715686
0.30931373 0.45931373 0.79074755
0.33811275 0.50085784 0.81433824
0.36715686 0.54558824 0.83823529
0.39656863 0.58946078 0.8620098
0.42745098 0.63363971 0.88333333
0.45588235 0.68026961 0.90281863
0.48621324 0.72297794 0.92058824
0.50833333 0.75539216 0.93333333
0.047058824 0.070588235 0.19803922
0.053431373 0.083333333 0.23039216
0.062990196 0.099264706 0.27058824
0.070220588 0.11409314 0.30882353
0.080882353 0.13333333 0.35
0.094607843 0.15404412 0.39117647
0.10563725 0.1754902 0.43529412
0.11911765 0.19509804 0.47647059
0.12941176 0.21568627 0.51372549
0.15392157 0.24656863 0.55208333
0.1745098 0.27352941 0.59044118
0.19509804 0.3004902 0.62463235
0.21568627 0.32745098 0.65686275
0.23321078 0.3504902 0.6872549
0.25294118 0.37745098 0.71470588
0.26960784 0.40110294 0.74227941
0.2872549 0.42745098 0.76960784
0.31360294 0.46531863 0.79595588
0.34338235 0.50759804 0.81862745
0.37205882 0.55196078 0.84301471
0.40196078 0.59705882 0.86666667
0.42990196 0.64215686 0.88811275
0.46078431 0.68553922 0.90563725
0.49068627 0.72843137 0.92340686
0.51372549 0.76176471 0.9372549
0.050490196 0.077941176 0.21470588
0.057352941 0.086948529 0.24197304
0.06629902 0.10379902 0.2817402
0.074019608 0.12015931 0.31954657
0.084313725 0.1372549 0.36372549
0.09810049 0.15784314 0.40539216
0.10882353 0.17843137 0.44656863
0.12040441 0.19901961 0.48253676
0.13333333 0.21960784 0.51764706
0.15392157 0.24656863 0.55245098
0.1745098 0.27352941 0.5872549
0.19509804 0.3004902 0.62205882
0.21568627 0.32745098 0.65686275
0.23578431 0.35392157 0.68425245
0.25294118 0.37830882 0.71470588
0.27175245 0.40422794 0.74558824
0.29019608 0.43137255 0.77598039
0.31715686 0.47205882 0.79920343
0.34791667 0.51715686 0.82242647
0.37843137 0.56182598 0.84607843
0.40588235 0.60392157 0.87058824
0.43627451 0.64859069 0.89117647
0.46715686 0.69362745 0.90870098
0.49460784 0.73529412 0.92665441
0.51764706 0.76862745 0.94117647
0.054901961 0.084313725 0.23333333
0.06004902 0.091911765 0.25318627
0.067647059 0.10735294 0.29019608
0.077941176 0.1245098 0.33308824
0.088235294 0.14313725 0.37745098
0.10073529 0.16176471 0.41960784
0.1127451 0.18235294 0.45539216
0.12573529 0.20367647 0.48872549
0.13921569 0.2254902 0.52352941
0.15784314 0.24926471 0.55759804
0.17647059 0.27647059 0.59117647
0.19534314 0.30098039 0.62205882
0.21568627 0.32745098 0.65588235
0.23602941 0.35392157 0.68578431
0.25294118 0.37843137 0.71470588
0.27352941 0.40441176 0.74558824
0.29019608 0.43137255 0.77647059
0.32107843 0.47254902 0.80098039
0.35 0.52009804 0.8254902
0.37916667 0.56617647 0.8497549
0.40980392 0.60882353 0.87254902
0.43872549 0.65318627 0.89289216
0.46813725 0.69803922 0.91176471
0.49705882 0.73921569 0.92843137
0.51764706 0.76862745 0.94117647
0.050980392 0.077941176 0.21519608
0.057352941 0.08872549 0.24509804
0.067647059 0.10784314 0.29019608
0.078370098 0.125 0.33529412
0.092156863 0.14509804 0.38431373
0.10294118 0.16568627 0.425
0.11703431 0.18627451 0.45894608
0.13106618 0.20735294 0.49246324
0.14509804 0.23137255 0.5254902
0.16176471 0.25441176 0.56060049
0.17879902 0.27781863 0.59509804
0.19901961 0.30447304 0.62598039
0.21789216 0.32965686 0.65735294
0.23627451 0.35441176 0.6877451
0.25428922 0.38137255 0.71862745
0.27352941 0.40441176 0.74803922
0.29019608 0.43137255 0.77598039
0.32107843 0.47254902 0.80098039
0.35196078 0.52156863 0.8254902
0.38284314 0.56709559 0.85
0.4120098 0.6120098 0.8745098
0.44068627 0.65686275 0.89460784
0.47156863 0.69803922 0.91176471
0.49705882 0.7377451 0.92696078
0.51372549 0.76421569 0.9372549
0.050980392 0.074509804 0.20784314
0.057352941 0.087622549 0.24117647
0.067647059 0.10784314 0.29019608
0.081740196 0.125 0.33529412
0.092156863 0.14509804 0.38235294
0.10294118 0.16568627 0.425
0.11960784 0.18921569 0.45980392
0.13590686 0.21078431 0.49460784
0.14901961 0.23431373 0.52941176
0.16507353 0.25772059 0.56421569
0.18235294 0.28112745 0.59828431
0.20196078 0.30747549 0.62990196
0.21960784 0.33284314 0.66078431
0.23884804 0.35784314 0.69166667
0.25686275 0.38137255 0.71936275
0.27352941 0.40441176 0.74803922
0.29019608 0.43137255 0.77254902
0.32107843 0.47254902 0.80098039
0.35196078 0.52230392 0.82622549
0.38284314 0.57009804 0.85
0.41372549 0.61568627 0.8745098
0.44411765 0.65992647 0.89509804
0.47156863 0.69828431 0.91176471
0.4935049 0.73419118 0.92696078
0.51078431 0.76078431 0.9372549
0.047058824 0.070588235 0.19852941
0.057352941 0.08872549 0.24209559
0.067647059 0.10784314 0.28909314
0.081862745 0.125 0.33511029
0.092156863 0.14509804 0.38039216
0.10294118 0.16568627 0.42156863
0.11960784 0.18921569 0.45943627
0.13627451 0.2122549 0.49607843
0.15294118 0.23676471 0.53333333
0.16960784 0.26072304 0.56813725
0.18627451 0.28468137 0.60330882
0.20441176 0.31011029 0.63529412
0.22352941 0.33406863 0.66544118
0.23970588 0.35784314 0.69295343
0.25686275 0.38137255 0.71960784
0.27352941 0.40441176 0.74803922
0.29019608 0.43137255 0.77254902
0.32107843 0.475 0.80098039
0.35196078 0.52254902 0.82647059
0.38284314 0.57009804 0.85
0.41372549 0.61568627 0.8745098
0.44411765 0.66060049 0.89460784
0.46862745 0.69803922 0.91176471
0.49313725 0.73382353 0.92604167
0.50980392 0.75686275 0.9372549
0.047058824 0.074509804 0.20392157
0.057352941 0.091176471 0.24362745
0.068627451 0.10784314 0.29019608
0.081862745 0.12843137 0.33529412
0.092156863 0.14509804 0.38039216
0.10294118 0.16568627 0.42156863
0.11960784 0.18921569 0.45882353
0.13627451 0.2122549 0.49607843
0.15294118 0.23921569 0.53333333
0.17352941 0.26372549 0.57058824
0.19019608 0.28921569 0.61078431
0.20735294 0.3127451 0.64166667
0.22352941 0.3372549 0.66862745
0.23970588 0.35784314 0.69509804
0.25686275 0.38137255 0.71960784
0.27352941 0.40441176 0.74803922
0.29019608 0.43137255 0.77254902
0.32107843 0.475 0.80098039
0.35196078 0.52254902 0.82647059
0.38284314 0.57009804 0.85
0.41372549 0.61568627 0.8745098
0.44411765 0.65686275 0.89460784
0.46862745 0.69803922 0.91176471
0.49313725 0.72990196 0.9245098
0.50980392 0.75686275 0.93333333
0.02745098 0.041666667 0.12401961
0.034742647 0.054963235 0.15827206
0.044117647 0.072181373 0.20245098
0.054411765 0.087928922 0.24362745
0.064705882 0.10318627 0.28235294
0.075 0.1223652 0.32616422
0.085294118 0.13921569 0.36862745
0.095588235 0.15588235 0.40925245
0.10833333 0.175 0.44558824
0.12254902 0.19705882 0.48131127
0.13921569 0.22156863 0.51335784
0.15637255 0.24607843 0.54607843
0.1745098 0.26985294 0.57843137
0.19136029 0.29166667 0.61176471
0.20980392 0.31862745 0.64411765
0.22647059 0.34503676 0.67892157
0.24705882 0.37107843 0.70833333
0.26280637 0.39313725 0.73192402
0.28039216 0.4182598 0.75772059
0.29705882 0.44215686 0.78333333
0.31495098 0.46789216 0.80980392
0.33903186 0.50294118 0.83627451
0.37757353 0.5627451 0.86078431
0.41525735 0.62156863 0.884375
0.43676471 0.65245098 0.89803922
0.029901961 0.046507353 0.13431373
0.037400429 0.05714614 0.16276808
0.045266544 0.072181373 0.20314032
0.054411765 0.087928922 0.24148284
0.064705882 0.10318627 0.28143382
0.075 0.12136949 0.32464001
0.085294118 0.13921569 0.36715686
0.095588235 0.15588235 0.40775888
0.10588235 0.175 0.44558824
0.12254902 0.19801624 0.48096661
0.14174326 0.22241115 0.51542586
0.15932138 0.24741881 0.5488894
0.17619485 0.27058824 0.58180147
0.19313725 0.29509804 0.61342678
0.21018689 0.31960784 0.64790135
0.23018536 0.34654565 0.67892157
0.24705882 0.37254902 0.70980392
0.26594669 0.39780944 0.73506434
0.2833027 0.42333027 0.76095282
0.30049786 0.44734988 0.78695619
0.31917892 0.47276348 0.81253064
0.34369638 0.50931373 0.83658088
0.38261336 0.56980699 0.86262255
0.42009804 0.62814798 0.88529412
0.4401348 0.65974265 0.89803922
0.032352941 0.049877451 0.1439951
0.038112745 0.060033701 0.17012868
0.047058824 0.073008578 0.20603554
0.054411765 0.085784314 0.24019608
0.064705882 0.10177696 0.27843137
0.075 0.11862745 0.32219669
0.085294118 0.13921569 0.36470588
0.095818015 0.15626532 0.40833333
0.10870098 0.17647059 0.44767157
0.12578125 0.20056679 0.48385417
