site/assets/luts/sha256-10fc17c11b7077a71e468d64f36fc8b813e3e5c7852b2a1efc9b346fc94683bd.cube
# LUTr-Schema-Version: 2
# LUTr-ID: sha256-10fc17c11b7077a71e468d64f36fc8b813e3e5c7852b2a1efc9b346fc94683bd
# LUTr-Title: kodak portra 160 vc
# LUTr-Collection: Natron HaldCLUT
# LUTr-Collection-ID: natron-haldclut-presets
# LUTr-Source: https://github.com/NatronGitHub/clut
# LUTr-Retrieved: 2026-07-27
# LUTr-Source-File: submissions/natron-haldclut-presets/negative_old/kodak_portra_160_vc.png
# LUTr-Source-Format: HALD-PNG
# LUTr-Source-SHA256: 10fc17c11b7077a71e468d64f36fc8b813e3e5c7852b2a1efc9b346fc94683bd
# LUTr-License: CC-BY-SA-4.0
# LUTr-License-URL: https://github.com/NatronGitHub/clut#license
# LUTr-License-Basis: repo-license-file
# LUTr-Transform-Class: film-emulation
# LUTr-Tags: creative, film, film-emulation, hald-clut, natron, png, cube
# LUTr-Input-Color-Space: srgb
# LUTr-Input-Gamut: rec709
# LUTr-Input-Transfer: srgb
# LUTr-Output-Color-Space: srgb
# LUTr-Output-Gamut: rec709
# LUTr-Output-Transfer: srgb
# LUTr-Color-Space-Confidence: assumed-display-referred
# LUTr-Domain-Normalized: true
# LUTr-Shaper: none
# LUTr-Original-Grid: 64x64x64
# LUTr-Conversion-Grid: 25x25x25
# LUTr-Conversion-Interpolation: trilinear
# LUTr-Conversion-Method: HALD-PNG LUT image decoded at 16-bit and sampled to 25x25x25 3D CUBE
# LUTr-Conversion-Tool: LUTr scripts/convert-all-to-cube.mjs 2.0.0
# LUTr-Conversion-Date: 2026-07-27
# LUTr-Note: Preserve this metadata and the upstream license notices when redistributing.
TITLE "kodak portra 160 vc"
LUT_3D_SIZE 9
DOMAIN_MIN 0 0 0
DOMAIN_MAX 1 1 1
0 0 0
0.13137255 0.020098039 0.019607843
0.25098039 0.0078431373 0.015686275
0.37058824 0.011764706 0.0039215686
0.4745098 0.023529412 0.021568627
0.59558824 0.023529412 0.018137255
0.7372549 0.03627451 0.011764706
0.86862745 0.054901961 0.015686275
0.99607843 0.070588235 0.015686275
0.065686275 0.11960784 0.034313725
0.15925245 0.11960784 0.050490196
0.27144608 0.11188725 0.039705882
0.38235294 0.10441176 0.02567402
0.48995098 0.09877451 0.02745098
0.60802696 0.062254902 0.021568627
0.73431373 0.042769608 0.011764706
0.86862745 0.055392157 0.015686275
0.98137255 0.070588235 0.015686275
0.12941176 0.23529412 0.10588235
0.18615196 0.23529412 0.093995098
0.28946078 0.22843137 0.090931373
0.40134804 0.22352941 0.074632353
0.50735294 0.20784314 0.06127451
0.6254902 0.17892157 0.057352941
0.75269608 0.12745098 0.033578431
0.8745098 0.064828431 0.012132353
0.94705882 0.074509804 0.015686275
0.15931373 0.34705882 0.13578431
0.2245098 0.34705882 0.14803922
0.30870098 0.34852941 0.13137255
0.41672794 0.34552696 0.12401961
0.5254902 0.33529412 0.10490196
0.64810049 0.31029412 0.082352941
0.7877451 0.27794118 0.039705882
0.90441176 0.21452206 0.019607843
0.99754902 0.10441176 0.015686275
0.22745098 0.4627451 0.19411765
0.25588235 0.4625 0.19387255
0.3372549 0.4627451 0.18480392
0.43284314 0.46078431 0.16862745
0.54313725 0.45294118 0.15588235
0.67205882 0.44166667 0.13382353
0.81372549 0.43676471 0.10490196
0.96102941 0.40098039 0.032107843
0.99803922 0.31568627 0.015686275
0.26813725 0.59558824 0.24068627
0.29068627 0.59166667 0.23823529
0.35637255 0.59411765 0.23431373
0.45140931 0.58235294 0.22346814
0.56617647 0.57990196 0.20220588
0.6966299 0.57990196 0.18578431
0.8377451 0.57843137 0.14068627
0.97892157 0.55588235 0.071568627
0.99215686 0.53823529 0.056372549
0.28333333 0.7254902 0.2754902
0.32463235 0.7254902 0.28517157
0.3754902 0.72156863 0.28431373
0.475 0.71764706 0.26801471
0.58921569 0.72254902 0.2504902
0.72058824 0.72647059 0.23517157
0.85980392 0.7254902 0.19215686
0.98872549 0.71078431 0.11029412
0.99705882 0.6872549 0.038235294
0.32598039 0.84117647 0.33431373
0.34117647 0.85245098 0.3495098
0.40147059 0.84509804 0.33921569
0.50147059 0.84117647 0.32254902
0.61421569 0.83308824 0.30098039
0.74883578 0.84607843 0.28186275
0.87990196 0.86078431 0.25392157
0.99215686 0.86813725 0.15140931
1 0.86568627 0.019607843
0.36470588 0.94901961 0.38823529
0.37205882 0.96470588 0.39215686
0.43529412 0.96666667 0.38823529
0.51715686 0.95539216 0.39068627
0.64313725 0.93333333 0.35490196
0.7745098 0.93872549 0.33333333
0.90196078 0.98235294 0.32941176
0.99607843 0.98431373 0.26862745
1 0.98823529 0.10980392
0.012254902 0.011764706 0.097058824
0.11660539 0.023529412 0.096568627
0.23933824 0.037254902 0.093627451
0.34901961 0.015686275 0.07745098
0.46666667 0.023529412 0.063235294
0.59430147 0.025 0.041666667
0.7372549 0.039215686 0.025980392
0.86862745 0.054901961 0.015686275
0.98431373 0.070098039 0.015686275
0.066176471 0.12702206 0.13131127
0.15490196 0.12745098 0.13137255
0.25845588 0.11973039 0.12320772
0.36292892 0.11149663 0.11145833
0.47493873 0.1041973 0.095863971
0.59846814 0.070281863 0.076960784
0.73463542 0.050490196 0.049019608
0.87254902 0.055392157 0.026156556
0.98137255 0.070588235 0.019607843
0.11188725 0.23921569 0.17316176
0.17810968 0.24007353 0.16688113
0.27555147 0.23529412 0.15842525
0.37994792 0.23088235 0.15159314
0.49368873 0.21372549 0.13633578
0.61724877 0.18837316 0.10980392
0.75196078 0.13529412 0.068137255
0.8790288 0.074264706 0.031096814
0.97598039 0.070588235 0.019240196
0.15324755 0.34460784 0.20882353
0.20569853 0.34460784 0.20884651
0.29701287 0.3435049 0.1941636
0.40067402 0.34694393 0.19313725
0.51403186 0.34093137 0.1754902
0.64067862 0.321875 0.14643842
0.77156863 0.28480392 0.1100337
0.89503676 0.2221201 0.065602022
0.98952206 0.15569853 0.029901961
0.20245098 0.4627451 0.25196078
0.24411765 0.46053922 0.24632353
0.31715686 0.45955882 0.23498775
0.41666667 0.4627451 0.22720588
0.5375 0.45870098 0.2127451
0.66960784 0.45073529 0.18204657
0.81029412 0.44019608 0.13670343
0.9372549 0.39730392 0.088480392
0.99044118 0.33897059 0.050490196
0.24509804 0.59822304 0.28676471
0.27314645 0.59414062 0.28302696
0.34073223 0.59019608 0.27892157
0.43669577 0.58451287 0.26770833
0.55441176 0.58235294 0.24935662
0.68516391 0.58216146 0.22555147
0.83195466 0.5814185 0.17708333
0.96503523 0.55588235 0.12172947
0.99607843 0.525 0.060110294
0.27291667 0.7254902 0.32291667
0.30637255 0.72679228 0.31766238
0.36737132 0.72156863 0.31372549
0.45975797 0.7185049 0.30646446
0.57401961 0.72205882 0.29859069
0.70681679 0.72647059 0.27749694
0.8513174 0.72254902 0.23039216
0.96980699 0.71029412 0.16323529
1 0.69473039 0.068137255
0.30680147 0.84852941 0.37254902
0.33382353 0.84820772 0.36127451
0.39754902 0.84477635 0.35735294
0.48658088 0.84724265 0.35863971
0.60903799 0.85686275 0.34877451
0.74381127 0.86078431 0.32369026
0.875 0.86384804 0.29335172
0.97310049 0.86127451 0.20184589
0.99699755 0.85876225 0.04620098
0.3377451 0.95245098 0.42254902
0.3598652 0.95300245 0.41911765
0.42058824 0.94852941 0.41482843
0.5213848 0.97530637 0.40863971
0.63970588 0.95857843 0.39142157
0.77058824 0.96176471 0.3754902
0.89546569 0.98088235 0.3627451
0.98921569 0.98872549 0.30392157
1 0.96519608 0.097058824
0.018627451 0.034313725 0.19607843
0.10012255 0.01997549 0.18578431
0.21568627 0.019607843 0.18210784
0.3317402 0.011764706 0.17352941
0.44558824 0.029901961 0.16372549
0.57990196 0.026348039 0.12892157
0.72647059 0.033088235 0.085294118
0.86948529 0.051470588 0.029411765
0.98921569 0.066666667 0.026470588
0.062254902 0.13823529 0.22401961
0.12924326 0.1314185 0.21585478
0.23259804 0.13137255 0.20833333
0.34108456 0.12071078 0.20833333
0.45453431 0.10588235 0.19405637
0.57928922 0.074509804 0.16757047
0.71960784 0.05747549 0.13042279
0.86605392 0.055223652 0.065364583
0.98039216 0.066666667 0.023529412
0.1127451 0.24779412 0.25490196
0.14852941 0.24439338 0.24803922
0.25569853 0.24411765 0.24332108
0.36075368 0.23949142 0.23921569
0.47487745 0.22156863 0.2254902
0.60196078 0.19460784 0.19852941
0.73278186 0.14926471 0.16176471
0.86988358 0.085814951 0.1046875
0.96348039 0.080392157 0.054656863
0.13786765 0.35036765 0.28223039
0.175 0.34852941 0.28284314
0.27218137 0.35098039 0.27794118
0.37835478 0.35166973 0.27009804
0.50147059 0.34871324 0.25833333
0.62892157 0.32804841 0.23448223
0.76075368 0.29754902 0.19681373
0.89080882 0.22558211 0.138894
0.99460784 0.1560049 0.078921569
0.16568627 0.46666667 0.31372549
0.20980392 0.45882353 0.31372549
0.29203431 0.45882353 0.30882353
0.39675245 0.46666667 0.30116422
0.52058824 0.46348039 0.28946078
0.65165441 0.45453431 0.27107843
0.78419118 0.43664216 0.23664216
0.92696078 0.40931373 0.17696078
0.98872549 0.36666667 0.12892157
0.20637255 0.59227941 0.34068627
0.24852941 0.59019608 0.34460784
0.32107843 0.58636642 0.34414828
0.41686581 0.588894 0.33394608
0.53541667 0.59019608 0.32224265
0.66963848 0.58696385 0.29957108
0.81495098 0.57910539 0.27466299
0.94545037 0.55588235 0.22002145
0.99607843 0.52438725 0.14460784
0.24117647 0.72156863 0.37647059
0.27977941 0.72254902 0.37815564
0.34803922 0.72420343 0.37677696
0.44460784 0.72647059 0.36400123
0.55845588 0.72647059 0.36335784
0.69304534 0.72941176 0.3497549
0.84044118 0.72647059 0.31844363
0.95909926 0.71078431 0.25891544
0.99607843 0.69583333 0.17058824
0.27598039 0.84901961 0.43333333
0.30272672 0.84889706 0.42559743
0.37634804 0.85291054 0.42156863
0.47156863 0.85294118 0.41470588
0.58970588 0.85686275 0.41072304
0.72803309 0.8623315 0.39754902
0.86868873 0.86164216 0.36568627
0.95343137 0.86078431 0.30196078
0.9877451 0.85208333 0.2127451
0.30294118 0.95392157 0.48039216
0.3442402 0.94901961 0.47254902
0.40514706 0.9627451 0.47254902
0.50392157 0.95931373 0.46115196
0.62352941 0.97843137 0.46029412
0.75306373 0.97757353 0.45085784
0.88259804 0.97181373 0.42769608
0.96519608 0.97512255 0.36813725
0.99607843 0.97156863 0.25392157
0.006372549 0.024509804 0.28186275
0.085784314 0.027144608 0.28186275
0.20036765 0.024509804 0.28186275
0.31078431 0.017156863 0.27457108
0.42034314 0.0053921569 0.26029412
0.5533701 0.014154412 0.24362745
0.70232843 0.02745098 0.2
0.84705882 0.047242647 0.13118873
0.98676471 0.066666667 0.050980392
0.055698529 0.15343137 0.31060049
0.10784314 0.14558824 0.30490196
0.21145833 0.14203431 0.30098039
0.32568934 0.12653186 0.29883578
0.43382353 0.11259191 0.29828431
0.55599724 0.085968137 0.27843137
0.69656863 0.057797181 0.24241728
0.84313725 0.03939951 0.18596814
0.96550245 0.056678922 0.093627451
0.087745098 0.2622549 0.3372549
0.1251685 0.25833333 0.33340993
0.22892157 0.25379902 0.32794118
0.33722426 0.24522059 0.32794118
0.45484069 0.23063725 0.32401961
0.57915135 0.20166973 0.30686275
0.71311275 0.15563725 0.27178309
0.85039828 0.093014706 0.22311581
0.98284314 0.059681373 0.13982843
0.099509804 0.35974265 0.359375
0.13970588 0.35790441 0.36040901
0.24780944 0.35752145 0.35882353
0.35824908 0.3591682 0.3533701
0.4745098 0.3497549 0.34509804
0.60735294 0.33290441 0.33529412
0.73869485 0.29796262 0.30280331
0.87254902 0.24099265 0.25434283
0.97738971 0.17696078 0.20686275
0.13480392 0.46004902 0.3872549
0.17254902 0.46666667 0.38578431
0.26893382 0.46666667 0.38848039
0.37521446 0.47058824 0.38425245
0.49362745 0.47058824 0.37794118
0.62965686 0.4627451 0.36936275
0.76421569 0.44656863 0.34485294
0.89917279 0.40744485 0.30661765
0.99411765 0.34509804 0.23848039
0.16372549 0.5877451 0.41666667
0.20301011 0.59019608 0.42058824
0.29143689 0.59019608 0.41421569
0.39893536 0.59599418 0.41666667
0.51666667 0.60196078 0.40882353
0.65438879 0.59769455 0.40251225
0.79584865 0.58852635 0.38690257
0.92549786 0.56403186 0.34803922
0.98094363 0.53823529 0.30931373
0.1995098 0.72610294 0.4557598
0.23333333 0.72647059 0.45908395
0.31715686 0.7254902 0.45548407
0.42009804 0.72899816 0.45147059
0.540625 0.72941176 0.44460784
0.67984069 0.73002451 0.43578431
0.82487745 0.72175245 0.41927083
0.94682904 0.71421569 0.3863511
0.99264706 0.70686275 0.36115196
0.23480392 0.84901961 0.51158088
0.25784314 0.85202206 0.50765931
0.34558824 0.85245098 0.4988511
0.45098039 0.85294118 0.49331342
0.57074142 0.85686275 0.49240196
0.71072304 0.8622549 0.47433364
0.84563419 0.86862745 0.4569087
0.96341912 0.87081036 0.42156863
0.97696078 0.86127451 0.39656863
0.26813725 0.94117647 0.56029412
0.29607843 0.94332108 0.55637255
0.375 0.95441176 0.55061275
0.47849265 0.95686275 0.54460784
0.60392157 0.9627451 0.53431373
0.73376225 0.98284314 0.53529412
0.86703431 0.98333333 0.51911765
0.96127451 0.97598039 0.46715686
0.99607843 0.98333333 0.39656863
0.041176471 0.070588235 0.37647059
0.06004902 0.028431373 0.36862745
0.17794118 0.050490196 0.37745098
0.29289216 0.031617647 0.37205882
0.40392157 0.02254902 0.36666667
0.53014706 0.025490196 0.35343137
0.68137255 0.017156863 0.31862745
0.82769608 0.031617647 0.25563725
0.9627451 0.050980392 0.18627451
0.0375 0.17107843 0.38995098
0.086764706 0.16078431 0.39166667
0.19001225 0.15729167 0.39362745
0.30588235 0.14568015 0.39362745
0.41642157 0.12745098 0.39362745
0.5377451 0.10661765 0.38324142
0.67696078 0.068566176 0.35582108
0.81960784 0.034834559 0.31393995
0.91470588 0.0375 0.26715686
0.039705882 0.27156863 0.41862745
0.090686275 0.26764706 0.41666667
0.19485294 0.26568627 0.41666667
0.31090686 0.26096814 0.42058824
0.43235294 0.24730392 0.42230392
0.56158088 0.21936275 0.40827206
0.69558824 0.16862745 0.39019608
0.83039216 0.096139706 0.35539216
0.93431373 0.044117647 0.31078431
0.035294118 0.36813725 0.44240196
0.0875 0.36544118 0.44166667
0.21011029 0.36544118 0.44362745
0.32941176 0.36571691 0.44509804
0.4502451 0.36053922 0.44240196
0.58477328 0.34044118 0.4323223
0.72328431 0.309375 0.41764706
0.85343137 0.24411765 0.39019608
0.97303922 0.15220588 0.35343137
0.074509804 0.46862745 0.47058824
0.10245098 0.47132353 0.4745098
0.22916667 0.47058824 0.47377451
0.34705882 0.47610294 0.47328431
0.47058824 0.47941176 0.47107843
0.60796569 0.47279412 0.46629902
0.74754902 0.45416667 0.45073529
0.88235294 0.42083333 0.4310049
0.97745098 0.35588235 0.39215686
0.084313725 0.59019608 0.50686275
0.13030025 0.59200368 0.50539216
0.23995098 0.59859069 0.50931373
0.37009804 0.60438113 0.50778186
0.49289216 0.60588235 0.50539216
0.63676471 0.60588235 0.50147059
0.77843137 0.59828431 0.48890931
0.90333946 0.57147672 0.45980392
0.97794118 0.54460784 0.43431373
0.10588235 0.72794118 0.54803922
0.16746324 0.72775735 0.54411765
0.27365196 0.73186275 0.54411765
0.38976716 0.73333333 0.54411765
0.51446078 0.73186275 0.54117647
0.66219363 0.73633578 0.53425245
0.80294118 0.73688725 0.52205882
0.92640931 0.7216299 0.49246324
0.99313725 0.70931373 0.47156863
0.16102941 0.84852941 0.59313725
0.20147059 0.84901961 0.59117647
0.30300245 0.85294118 0.59117647
0.41617647 0.85686275 0.59068627
0.54362745 0.86078431 0.58897059
0.6841299 0.8625 0.57852328
0.82426471 0.86470588 0.56519608
0.94463848 0.86663603 0.53946078
0.99191176 0.85686275 0.51470588
0.20196078 0.93137255 0.6372549
0.23872549 0.95441176 0.64313725
0.33186275 0.95294118 0.64117647
0.44313725 0.96151961 0.64117647
0.57254902 0.96176471 0.63431373
0.6995098 0.94901961 0.62083333
0.84117647 0.97843137 0.61666667
0.95882353 0.975 0.58382353
0.99607843 0.9745098 0.55686275
0.010294118 0.049509804 0.44607843
0.035784314 0.046262255 0.45147059
0.15931373 0.073897059 0.46715686
0.27346814 0.053002451 0.46862745
0.38676471 0.039215686 0.46323529
0.51868873 0.039215686 0.45055147
0.65833333 0.02254902 0.43835784
0.80098039 0.022242647 0.40508578
0.93823529 0.033823529 0.35
0.018137255 0.17843137 0.47303922
0.067608762 0.16840533 0.47477788
0.1611826 0.17487745 0.48627451
0.27647059 0.15918352 0.48627451
0.39803922 0.14117647 0.48627451
0.52341452 0.11341146 0.4792356
0.65922181 0.069515931 0.47051164
0.79426317 0.037094056 0.44362745
0.92616422 0.026164216 0.40508578
0.014583333 0.28480392 0.50147059
0.072594975 0.28056066 0.50508578
0.16372549 0.28088235 0.50931373
0.28537071 0.2794424 0.51323529
0.41341912 0.26366422 0.51531863
0.54345895 0.23529412 0.51078431
0.6786152 0.19641544 0.50174632
0.80379902 0.12794118 0.47634804
0.89583333 0.058823529 0.45625
0.010294118 0.37990196 0.53627451
0.03939185 0.38082108 0.5377451
0.16531863 0.37621017 0.54019608
0.29440104 0.37598039 0.54224112
0.42797181 0.3745098 0.54503676
0.56785386 0.35882353 0.53740043
0.70700061 0.32715993 0.52781863
0.83823529 0.28314951 0.51324295
0.93731618 0.20441176 0.484375
0.020588235 0.47990196 0.57107843
0.042156863 0.48691789 0.57107843
0.17426471 0.48719363 0.575
0.30762868 0.48504902 0.57454044
0.44460784 0.49056373 0.58039216
0.58207721 0.47935049 0.57153799
0.72598039 0.46194853 0.55980392
0.86412377 0.42876838 0.54117647
0.96495098 0.38480392 0.52156863
0.021139706 0.60251225 0.60588235
0.064889706 0.60588235 0.60643382
0.18907782 0.61311275 0.60980392
0.32506127 0.61372549 0.60735294
0.46081495 0.61372549 0.60980392
0.60680147 0.60922947 0.60622702
0.75294118 0.60134804 0.59604779
0.8846201 0.57038909 0.57156863
0.98584559 0.54460784 0.55637255
0.0078431373 0.73235294 0.64460784
0.066528799 0.73333333 0.64460784
0.18498775 0.7372549 0.64231005
0.34679841 0.74117647 0.64068627
0.48308824 0.7372549 0.64068627
0.63431373 0.73748468 0.64105392
0.77625613 0.7372549 0.63333333
0.89938725 0.72616422 0.61127451
0.98284314 0.71470588 0.5932598
0.049019608 0.84901961 0.68382353
0.10343137 0.85261183 0.68382353
0.23408395 0.85275735 0.67990196
0.37359069 0.85508578 0.6828508
0.50882353 0.86185662 0.6861826
0.65557598 0.86212469 0.68511029
0.7970435 0.86470588 0.67348346
0.92589614 0.86423866 0.65294118
0.99656863 0.85686275 0.63020833
0.071568627 0.90343137 0.70392157
0.13137255 0.94460784 0.72990196
0.24656863 0.94509804 0.72598039
0.39454657 0.95238971 0.72990196
0.53578431 0.96078431 0.73382353
0.67254902 0.9622549 0.72598039
0.81568627 0.98186275 0.72254902
0.94313725 0.98057598 0.7
0.98284314 0.96470588 0.68431373
0.010784314 0.092156863 0.54313725
0.020955882 0.074264706 0.5439951
0.13235294 0.069852941 0.54828431
0.25343137 0.056372549 0.55882353
0.36764706 0.047058824 0.56029412
0.49509804 0.037132353 0.5564951
0.63137255 0.022794118 0.55588235
0.76960784 0.019240196 0.5495098
0.88529412 0.019607843 0.51764706
0.0078431373 0.20245098 0.56801471
0.028553922 0.19803922 0.575
0.12487745 0.1879902 0.57981005
0.25196078 0.18155637 0.58676471
0.37352941 0.17052696 0.59068627
0.50868566 0.14264706 0.58762255
0.64365809 0.10257353 0.57947304
0.77316176 0.041835172 0.56410846
0.88223039 0.019607843 0.54068627
0.0078431373 0.30294118 0.59803922
0.018780637 0.30294118 0.60738358
0.10153186 0.2997549 0.61397059
0.24941789 0.29607843 0.61372549
0.38480392 0.29522059 0.62205882
0.52411152 0.27009804 0.62218137
0.6625 0.23057598 0.61078431
0.78584559 0.16700368 0.59852941
0.89656863 0.038480392 0.5754902
0.0039215686 0.39656863 0.63676471
0.010416667 0.39624694 0.64122243
0.089828431 0.39056373 0.6435049
0.25343137 0.38788297 0.64166667
0.39117647 0.38664216 0.6497549
0.53523284 0.38147978 0.65134804
0.6776348 0.34690564 0.6385723
0.81127451 0.30819547 0.62941176
0.90919118 0.24411765 0.60637255
0.0039215686 0.49901961 0.67156863
0.031801471 0.50238971 0.675
0.08627451 0.49816176 0.67598039
0.25343137 0.49803922 0.67794118
0.4 0.49485294 0.67941176
0.55073529 0.48995098 0.68131127
0.69362745 0.47058824 0.66862745
0.834375 0.4411152 0.6598652
0.94901961 0.39901961 0.64117647
0.015686275 0.61470588 0.70245098
0.043014706 0.61764706 0.70637255
0.098560049 0.62156863 0.70983456
0.25568321 0.62480086 0.71029412
0.41715686 0.62193627 0.71029412
0.57107843 0.61617647 0.71029412
0.71911765 0.60569853 0.70735294
0.85742953 0.58399203 0.69741115
0.96862745 0.54852941 0.67990196
0.011764706 0.7372549 0.7372549
0.011764706 0.7372549 0.74117647
0.090992647 0.73964461 0.74117647
0.27147672 0.74509804 0.7372549
0.4432598 0.74546569 0.74509804
0.5995098 0.74117647 0.74142157
0.74901961 0.7372549 0.74136029
0.86951593 0.73026961 0.73431373
0.96764706 0.71078431 0.71862745
0.0044117647 0.85245098 0.77634804
0.011657475 0.85245098 0.77598039
0.12925858 0.84901961 0.77227328
0.29964767 0.85637255 0.77628676
0.46593137 0.85686275 0.78039216
0.62647059 0.86078431 0.78382353
0.77227328 0.8625 0.77925858
0.90341605 0.86862745 0.76432292
0.9872549 0.85992647 0.7495098
0.023529412 0.94019608 0.81764706
0.033455882 0.94154412 0.81862745
0.15784314 0.93333333 0.81078431
0.33394608 0.94754902 0.81862745
0.50490196 0.96323529 0.8245098
0.64558824 0.9622549 0.82009804
0.79117647 0.96862745 0.81862745
0.91813725 0.97561275 0.80686275
0.99313725 0.98137255 0.79509804
0 0.13676471 0.65245098
0.014215686 0.12156863 0.64852941
0.11335784 0.13039216 0.65294118
0.22892157 0.12665441 0.66685049
0.34289216 0.11053922 0.67205882
0.46991422 0.055392157 0.66470588
0.60477941 0.032720588 0.66470588
0.74356618 0.035723039 0.66862745
0.87058824 0.0078431373 0.64509804
0.0039215686 0.22990196 0.67248775
0.01127451 0.22517616 0.67892157
0.092049632 0.21910233 0.67945772
0.21726409 0.22689951 0.68785233
0.34632353 0.22009804 0.69166667
0.4837163 0.18008578 0.69166667
0.62267157 0.13921569 0.69166667
0.75392157 0.092103248 0.68376225
0.87009804 0.030882353 0.66421569
0.0039215686 0.31875 0.69852941
0.0077971814 0.32303922 0.70589767
0.059926471 0.32696078 0.71421569
0.19612439 0.32659314 0.71813725
0.35220588 0.31715686 0.72205882
0.49497549 0.29388787 0.72598039
0.63584559 0.26553309 0.72254902
0.77261029 0.21470588 0.71862745
0.8745098 0.10343137 0.70686275
0.0039215686 0.41519608 0.73363971
0.0073912377 0.41568627 0.73676471
0.054028799 0.41176471 0.74109988
0.19853707 0.40765165 0.74509804
0.35392157 0.40373775 0.74911152
0.50490196 0.39734988 0.75686275
0.64718137 0.37106311 0.74938725
0.78839614 0.34313725 0.7495098
0.88235294 0.28284314 0.73903186
0.0039215686 0.52181373 0.76421569
0.0078431373 0.51813725 0.76792279
0.020098039 0.51421569 0.77071078
0.19322917 0.51421569 0.77401961
0.35416667 0.51421569 0.77818627
0.5127451 0.51029412 0.78103554
0.66341912 0.49197304 0.78039216
0.81127451 0.46666667 0.7796875
0.91740196 0.42794118 0.76862745
0.0052083333 0.62971814 0.79509804
0.01127451 0.63204657 0.79901961
0.0095435049 0.63235294 0.80294118
0.17715993 0.64117647 0.80294118
0.37264093 0.64166667 0.81078431
0.53609835 0.63124234 0.81078431
0.68823529 0.61844363 0.8089614
0.83464308 0.59849112 0.80762102
0.94540441 0.56911765 0.80165441
0.0078431373 0.74509804 0.82990196
0.011642157 0.7442402 0.82941176
0.04028799 0.74488358 0.82990196
0.20343137 0.75499387 0.83382353
0.39172794 0.75441176 0.83419118
0.56470588 0.74901961 0.84105392
0.71519608 0.74972426 0.8377451
0.85257353 0.74091605 0.8377451
0.96041667 0.71605392 0.83394608
0.0043504902 0.85245098 0.86470588
0.0073529412 0.85599724 0.86470588
0.053125 0.85637255 0.86481311
0.23629749 0.86029412 0.86862745
0.41348039 0.85857843 0.86862745
0.58887102 0.86045496 0.8720818
0.74215686 0.86856618 0.87647059
0.87260263 0.87211244 0.86906403
0.97990196 0.86470588 0.86911765
0.011764706 0.92941176 0.8877451
0.019117647 0.92935049 0.89117647
0.06752451 0.94522059 0.90306373
0.28088235 0.94509804 0.8995098
0.44828431 0.94485294 0.89558824
0.61207108 0.9560049 0.90294118
0.76029412 0.95637255 0.90294118
0.89564951 0.9848652 0.91133578
0.94803922 0.97647059 0.89607843
0 0.17254902 0.73333333
0 0.16127451 0.74509804
0.087254902 0.1872549 0.74117647
0.19803922 0.17401961 0.75833333
0.32156863 0.12745098 0.76666667
0.45294118 0.091176471 0.77254902
0.59313725 0.082352941 0.76960784
0.72745098 0.050490196 0.78823529
0.80392157 0.035294118 0.7254902
0 0.26519608 0.76813725
0.0039215686 0.25343137 0.76764706
0.065196078 0.26176471 0.77242647
0.16960784 0.26911765 0.78596814
0.31764706 0.25882353 0.79166667
0.46617647 0.22224265 0.7877451
0.60747549 0.19963235 0.7995098
0.73829657 0.11421569 0.79215686
0.83088235 0.039215686 0.77107843
0.00098039216 0.33823529 0.77647059
0.0039215686 0.34558824 0.79460784
0.030392157 0.34607843 0.7997549
0.14227941 0.34705882 0.80784314
0.31764706 0.34264706 0.80784314
0.47009804 0.32708333 0.82009804
0.62352941 0.30196078 0.81764706
0.75784314 0.23639706 0.80931373
0.86960784 0.12156863 0.78137255
0 0.43088235 0.82352941
0.0039215686 0.43088235 0.81421569
0 0.42941176 0.825
0.12598039 0.42696078 0.82653186
0.30661765 0.425 0.83186275
0.47248775 0.41764706 0.84705882
0.62843137 0.40637255 0.85526961
0.77254902 0.3754902 0.85686275
0.88088235 0.29705882 0.82843137
0.0039215686 0.53529412 0.83333333
0.0036764706 0.53921569 0.84509804
0.0083333333 0.53921569 0.84607843
0.093382353 0.5372549 0.85882353
0.31666667 0.54117647 0.86470588
0.48651961 0.53259804 0.87181373
0.64411765 0.51764706 0.87058824
0.79215686 0.49730392 0.87647059
0.91176471 0.45686275 0.88627451
0 0.64754902 0.87598039
0.0014705882 0.64754902 0.87843137
0.012622549 0.65294118 0.8877451
0.084252451 0.65539216 0.88229167
0.31960784 0.65686275 0.9
0.50294118 0.65202206 0.90098039
0.66519608 0.64019608 0.89852941
0.81390931 0.62677696 0.90392157
0.88382353 0.62156863 0.91372549
0 0.75980392 0.91372549
0.0039215686 0.75294118 0.90686275
0.017892157 0.75980392 0.90906863
0.088602941 0.76764706 0.91188725
0.34411765 0.75637255 0.90196078
0.52990196 0.75196078 0.91127451
0.68823529 0.76151961 0.91936275
0.82647059 0.76029412 0.92990196
0.93529412 0.74117647 0.90490196
0 0.85245098 0.92990196
0 0.86078431 0.9377451
0.019117647 0.86323529 0.91593137
0.11421569 0.86390931 0.93511029
0.37696078 0.85637255 0.92205882
0.56078431 0.85686275 0.93560049
0.70735294 0.86948529 0.94558824
0.84601716 0.87598039 0.94859069
0.96862745 0.86519608 0.92303922
0 0.94117647 0.96470588
0 0.89460784 0.94509804
0.052941176 0.93235294 0.93627451
0.19852941 0.93872549 0.95441176
0.41568627 0.93921569 0.95490196
0.58382353 0.96078431 0.975
0.73431373 0.96960784 0.97745098
0.86862745 0.97254902 0.96421569
0.98431373 0.96862745 0.98431373
