site/assets/luts/sha256-675520eaae3a7e416d4631a1848d05034da100c9e9adeff2d4c3abf1939247b7.cube
# LUTr-Schema-Version: 2
# LUTr-ID: sha256-675520eaae3a7e416d4631a1848d05034da100c9e9adeff2d4c3abf1939247b7
# LUTr-Title: polaroid 665 negative +
# LUTr-Collection: Natron HaldCLUT
# LUTr-Collection-ID: natron-haldclut-presets
# LUTr-Source: https://github.com/NatronGitHub/clut
# LUTr-Retrieved: 2026-07-27
# LUTr-Source-File: submissions/natron-haldclut-presets/instant_pro/polaroid_665_negative_+.png
# LUTr-Source-Format: HALD-PNG
# LUTr-Source-SHA256: 675520eaae3a7e416d4631a1848d05034da100c9e9adeff2d4c3abf1939247b7
# LUTr-License: CC-BY-SA-4.0
# LUTr-License-URL: https://github.com/NatronGitHub/clut#license
# LUTr-License-Basis: repo-license-file
# LUTr-Transform-Class: film-emulation
# LUTr-Tags: creative, film, film-emulation, hald-clut, natron, png, cube
# LUTr-Input-Color-Space: srgb
# LUTr-Input-Gamut: rec709
# LUTr-Input-Transfer: srgb
# LUTr-Output-Color-Space: srgb
# LUTr-Output-Gamut: rec709
# LUTr-Output-Transfer: srgb
# LUTr-Color-Space-Confidence: assumed-display-referred
# LUTr-Domain-Normalized: true
# LUTr-Shaper: none
# LUTr-Original-Grid: 64x64x64
# LUTr-Conversion-Grid: 25x25x25
# LUTr-Conversion-Interpolation: trilinear
# LUTr-Conversion-Method: HALD-PNG LUT image decoded at 16-bit and sampled to 25x25x25 3D CUBE
# LUTr-Conversion-Tool: LUTr scripts/convert-all-to-cube.mjs 2.0.0
# LUTr-Conversion-Date: 2026-07-27
# LUTr-Note: Preserve this metadata and the upstream license notices when redistributing.
TITLE "polaroid 665 negative +"
LUT_3D_SIZE 5
DOMAIN_MIN 0 0 0
DOMAIN_MAX 1 1 1
0.20392157 0.20392157 0.20392157
0.24607843 0.24607843 0.24607843
0.30980392 0.30980392 0.30980392
0.42156863 0.42156863 0.42156863
0.56078431 0.56078431 0.56078431
0.25980392 0.25980392 0.25980392
0.2747549 0.2747549 0.2747549
0.35392157 0.35392157 0.35392157
0.45588235 0.45588235 0.45588235
0.5872549 0.5872549 0.5872549
0.42941176 0.42941176 0.42941176
0.41372549 0.41372549 0.41372549
0.4372549 0.4372549 0.4372549
0.52156863 0.52156863 0.52156863
0.64117647 0.64117647 0.64117647
0.61078431 0.61078431 0.61078431
0.60686275 0.60686275 0.60686275
0.6 0.6 0.6
0.64705882 0.64705882 0.64705882
0.72254902 0.72254902 0.72254902
0.78039216 0.78039216 0.78039216
0.77647059 0.77647059 0.77647059
0.7745098 0.7745098 0.7745098
0.79215686 0.79215686 0.79215686
0.80784314 0.80784314 0.80784314
0.27647059 0.27647059 0.27647059
0.28823529 0.28823529 0.28823529
0.35588235 0.35588235 0.35588235
0.46372549 0.46372549 0.46372549
0.54803922 0.54803922 0.54803922
0.33014706 0.33014706 0.33014706
0.33296569 0.33296569 0.33296569
0.39987745 0.39987745 0.39987745
0.48627451 0.48627451 0.48627451
0.59803922 0.59803922 0.59803922
0.49019608 0.49019608 0.49019608
0.46568627 0.46568627 0.46568627
0.48284314 0.48284314 0.48284314
0.55343137 0.55343137 0.55343137
0.65637255 0.65637255 0.65637255
0.64509804 0.64509804 0.64509804
0.63314951 0.63314951 0.63314951
0.61973039 0.61973039 0.61973039
0.65367647 0.65367647 0.65367647
0.71568627 0.71568627 0.71568627
0.79901961 0.79901961 0.79901961
0.79117647 0.79117647 0.79117647
0.78431373 0.78431373 0.78431373
0.78014706 0.78014706 0.78014706
0.81568627 0.81568627 0.81568627
0.45686275 0.45686275 0.45686275
0.45441176 0.45441176 0.45441176
0.4754902 0.4754902 0.4754902
0.5372549 0.5372549 0.5372549
0.64901961 0.64901961 0.64901961
0.46764706 0.46764706 0.46764706
0.47941176 0.47941176 0.47941176
0.49754902 0.49754902 0.49754902
0.55906863 0.55906863 0.55906863
0.6622549 0.6622549 0.6622549
0.55490196 0.55490196 0.55490196
0.55906863 0.55906863 0.55906863
0.56323529 0.56323529 0.56323529
0.61593137 0.61593137 0.61593137
0.70196078 0.70196078 0.70196078
0.68627451 0.68627451 0.68627451
0.68284314 0.68284314 0.68284314
0.68284314 0.68284314 0.68284314
0.69105392 0.69105392 0.69105392
0.74411765 0.74411765 0.74411765
0.80392157 0.80392157 0.80392157
0.80637255 0.80637255 0.80637255
0.80588235 0.80588235 0.80588235
0.8 0.8 0.8
0.81960784 0.81960784 0.81960784
0.63431373 0.63431373 0.63431373
0.64583333 0.64583333 0.64583333
0.66715686 0.66715686 0.66715686
0.66176471 0.66176471 0.66176471
0.69411765 0.69411765 0.69411765
0.64607843 0.64607843 0.64607843
0.65 0.65 0.65
0.67254902 0.67254902 0.67254902
0.69215686 0.69215686 0.69215686
0.72573529 0.72573529 0.72573529
0.67843137 0.67843137 0.67843137
0.68443627 0.68443627 0.68443627
0.69632353 0.69632353 0.69632353
0.71176471 0.71176471 0.71176471
0.75 0.75 0.75
0.72916667 0.72916667 0.72916667
0.73939951 0.73939951 0.73939951
0.73933824 0.73933824 0.73933824
0.75159314 0.75159314 0.75159314
0.78161765 0.78161765 0.78161765
0.8245098 0.8245098 0.8245098
0.81960784 0.81960784 0.81960784
0.83627451 0.83627451 0.83627451
0.82916667 0.82916667 0.82916667
0.83921569 0.83921569 0.83921569
0.79607843 0.79607843 0.79607843
0.78137255 0.78137255 0.78137255
0.80784314 0.80784314 0.80784314
0.81176471 0.81176471 0.81176471
0.82745098 0.82745098 0.82745098
0.81078431 0.81078431 0.81078431
0.79607843 0.79607843 0.79607843
0.80735294 0.80735294 0.80735294
0.81568627 0.81568627 0.81568627
0.81568627 0.81568627 0.81568627
0.80980392 0.80980392 0.80980392
0.8 0.8 0.8
0.80490196 0.80490196 0.80490196
0.82352941 0.82352941 0.82352941
0.83529412 0.83529412 0.83529412
0.82058824 0.82058824 0.82058824
0.81568627 0.81568627 0.81568627
0.82058824 0.82058824 0.82058824
0.81666667 0.81666667 0.81666667
0.82352941 0.82352941 0.82352941
0.8627451 0.8627451 0.8627451
0.83431373 0.83431373 0.83431373
0.85294118 0.85294118 0.85294118
0.85882353 0.85882353 0.85882353
0.85490196 0.85490196 0.85490196
