site/assets/luts/sha256-7e3c6f2e3558f0f8882bd253d3b1a143f3c81aa45fa0f2da74e9bfa0cc51cd44.cube
# LUTr-Schema-Version: 2
# LUTr-ID: sha256-7e3c6f2e3558f0f8882bd253d3b1a143f3c81aa45fa0f2da74e9bfa0cc51cd44
# LUTr-Title: super warm rich
# LUTr-Collection: Natron HaldCLUT
# LUTr-Collection-ID: natron-haldclut-presets
# LUTr-Source: https://github.com/NatronGitHub/clut
# LUTr-Retrieved: 2026-07-27
# LUTr-Source-File: submissions/natron-haldclut-presets/various/super_warm_rich.png
# LUTr-Source-Format: HALD-PNG
# LUTr-Source-SHA256: 7e3c6f2e3558f0f8882bd253d3b1a143f3c81aa45fa0f2da74e9bfa0cc51cd44
# LUTr-License: CC-BY-SA-4.0
# LUTr-License-URL: https://github.com/NatronGitHub/clut#license
# LUTr-License-Basis: repo-license-file
# LUTr-Transform-Class: film-emulation
# LUTr-Tags: creative, film, film-emulation, hald-clut, natron, png, warm, cube
# LUTr-Input-Color-Space: srgb
# LUTr-Input-Gamut: rec709
# LUTr-Input-Transfer: srgb
# LUTr-Output-Color-Space: srgb
# LUTr-Output-Gamut: rec709
# LUTr-Output-Transfer: srgb
# LUTr-Color-Space-Confidence: assumed-display-referred
# LUTr-Domain-Normalized: true
# LUTr-Shaper: none
# LUTr-Original-Grid: 64x64x64
# LUTr-Conversion-Grid: 25x25x25
# LUTr-Conversion-Interpolation: trilinear
# LUTr-Conversion-Method: HALD-PNG LUT image decoded at 16-bit and sampled to 25x25x25 3D CUBE
# LUTr-Conversion-Tool: LUTr scripts/convert-all-to-cube.mjs 2.0.0
# LUTr-Conversion-Date: 2026-07-27
# LUTr-Note: Preserve this metadata and the upstream license notices when redistributing.
TITLE "super warm rich"
LUT_3D_SIZE 25
DOMAIN_MIN 0 0 0
DOMAIN_MAX 1 1 1
0.019607843 0.054901961 0.0078431373
0.073529412 0.054901961 0.011764706
0.14411765 0.055882353 0.015686275
0.21617647 0.058823529 0.019607843
0.28039216 0.052941176 0.019607843
0.34852941 0.03872549 0.019607843
0.42058824 0.024509804 0.016666667
0.49117647 0.011764706 0.015686275
0.54117647 0.011764706 0.015686275
0.58872549 0.0093137255 0.011764706
0.63921569 0.0088235294 0.011764706
0.67696078 0.019117647 0.011764706
0.71568627 0.029411765 0.01372549
0.7504902 0.035294118 0.015686275
0.78529412 0.032352941 0.015686275
0.81617647 0.02745098 0.011764706
0.84313725 0.015686275 0.011764706
0.86764706 0.0078431373 0.011764706
0.88823529 0.011764706 0.012745098
0.90882353 0.015686275 0.015686275
0.92941176 0.01372549 0.015686275
0.94509804 0.0083333333 0.015686275
0.94509804 0.014705882 0.015686275
0.94509804 0.019607843 0.015686275
0.94509804 0.023529412 0.015686275
0.017156863 0.058823529 0.0078431373
0.073529412 0.058823529 0.011764706
0.14411765 0.058823529 0.015686275
0.21617647 0.060968137 0.019607843
0.28235294 0.055392157 0.019607843
0.34852941 0.04932598 0.019607843
0.41813725 0.041176471 0.016666667
0.48480392 0.037254902 0.015686275
0.53480392 0.03872549 0.015686275
0.58327206 0.034803922 0.011764706
0.63382353 0.034803922 0.011764706
0.68039216 0.040012255 0.011764706
0.72083333 0.05 0.011764706
0.75704657 0.060110294 0.013235294
0.78921569 0.05870098 0.012132353
0.81954657 0.049019608 0.011764706
0.84313725 0.03872549 0.011764706
0.86764706 0.034803922 0.011764706
0.88823529 0.03872549 0.015686275
0.90882353 0.03872549 0.015686275
0.9254902 0.03872549 0.015686275
0.94295343 0.034803922 0.015686275
0.94693627 0.038112745 0.015686275
0.94901961 0.040196078 0.015686275
0.94901961 0.042647059 0.015686275
0.016666667 0.065686275 0.0078431373
0.073529412 0.069240196 0.011764706
0.14411765 0.07254902 0.015686275
0.21617647 0.07254902 0.019607843
0.27990196 0.073529412 0.019607843
0.34411765 0.073529412 0.019607843
0.41176471 0.073529412 0.015686275
0.47732843 0.069607843 0.015686275
0.52941176 0.069607843 0.015686275
0.57806373 0.069607843 0.011764706
0.63063725 0.069607843 0.011764706
0.67904412 0.069607843 0.011764706
0.72205882 0.075490196 0.011764706
0.7622549 0.084803922 0.011764706
0.79313725 0.082107843 0.011764706
0.82009804 0.073161765 0.011764706
0.84313725 0.069607843 0.011764706
0.86556373 0.067769608 0.011764706
0.88651961 0.069607843 0.015686275
0.90490196 0.073039216 0.015686275
0.9254902 0.070098039 0.015686275
0.94166667 0.069607843 0.015686275
0.94901961 0.069607843 0.015686275
0.94901961 0.069607843 0.015686275
0.94901961 0.073529412 0.015686275
0.026960784 0.1 0.011764706
0.076960784 0.10030637 0.011764706
0.14411765 0.1004902 0.015686275
0.2127451 0.1004902 0.019607843
0.27843137 0.10441176 0.019607843
0.34019608 0.10441176 0.019117647
0.40539216 0.10441176 0.015686275
0.47156863 0.10422794 0.015686275
0.5254902 0.1004902 0.015686275
0.57352941 0.1004902 0.011764706
0.625 0.1004902 0.011764706
0.67598039 0.1004902 0.011764706
0.72181373 0.10269608 0.011764706
0.7627451 0.10839461 0.011764706
0.79411765 0.10490196 0.011764706
0.81881127 0.10079657 0.011764706
0.84313725 0.1004902 0.011764706
0.86372549 0.1004902 0.013909314
0.88431373 0.1004902 0.015686275
0.90490196 0.10441176 0.015686275
0.9254902 0.10441176 0.015686275
0.94166667 0.10435049 0.015686275
0.94901961 0.10428922 0.015686275
0.95245098 0.10441176 0.015686275
0.95294118 0.10441176 0.015686275
0.031372549 0.13333333 0.011764706
0.080147059 0.13137255 0.011764706
0.14313725 0.13137255 0.015686275
0.20882353 0.13137255 0.017647059
0.2745098 0.13529412 0.019607843
0.33676471 0.13529412 0.015686275
0.40196078 0.13921569 0.015686275
0.46691176 0.13529412 0.015686275
0.52156863 0.13529412 0.015686275
0.57107843 0.13529412 0.011764706
0.62058824 0.13529412 0.011764706
0.67034314 0.13529412 0.011764706
0.71764706 0.13137255 0.011764706
0.7627451 0.12941176 0.0078431373
0.79362745 0.13088235 0.0078431373
0.81740196 0.13137255 0.011764706
0.83921569 0.13333333 0.011764706
0.86176471 0.13529412 0.012990196
0.88431373 0.13529412 0.015686275
0.90490196 0.13529412 0.01372549
0.9254902 0.13921569 0.01372549
0.94215686 0.13921569 0.013480392
0.95245098 0.13921569 0.011764706
0.95490196 0.13921569 0.011764706
0.95490196 0.13921569 0.011764706
0.030882353 0.16617647 0.0078431373
0.07745098 0.16617647 0.011580882
0.14007353 0.16617647 0.012622549
0.20490196 0.16617647 0.015686275
0.27254902 0.16617647 0.015686275
0.33719363 0.16617647 0.015686275
0.40196078 0.17009804 0.015686275
0.46617647 0.17009804 0.015686275
0.51764706 0.17009804 0.015686275
0.56911765 0.16666667 0.011764706
0.62058824 0.16654412 0.011764706
0.66862745 0.16617647 0.011764706
0.71740196 0.16617647 0.011764706
0.75876225 0.1622549 0.011335784
0.79313725 0.1622549 0.010906863
0.81470588 0.1622549 0.011764706
0.83921569 0.16617647 0.011764706
0.85980392 0.16617647 0.012071078
0.88039216 0.16617647 0.014338235
0.90484069 0.17009804 0.011764706
0.9254902 0.17009804 0.011764706
0.94564951 0.17401961 0.011764706
0.95686275 0.17401961 0.01127451
0.95686275 0.17401961 0.01127451
0.95686275 0.17401961 0.01127451
0.024509804 0.20098039 0.0049019608
0.073529412 0.2 0.0078431373
0.1370098 0.2 0.0095588235
0.20441176 0.2 0.011764706
0.27254902 0.19705882 0.015686275
0.34019608 0.19754902 0.015686275
0.40563725 0.20098039 0.015686275
0.46617647 0.20098039 0.012377451
0.51764706 0.20098039 0.011764706
0.56911765 0.20098039 0.015686275
0.62058824 0.20098039 0.014705882
0.6682598 0.20098039 0.014705882
0.71372549 0.2004902 0.011764706
0.75196078 0.19705882 0.011764706
0.78921569 0.19607843 0.011764706
0.81470588 0.19607843 0.011764706
0.83921569 0.19705882 0.011764706
0.85980392 0.19705882 0.011764706
0.88039216 0.19779412 0.011764706
0.90098039 0.20098039 0.011764706
0.9254902 0.20294118 0.011764706
0.94607843 0.20490196 0.0078431373
0.96053922 0.20490196 0.0078431373
0.96078431 0.2060049 0.0078431373
0.96078431 0.20784314 0.0078431373
0.0088235294 0.23186275 0.0024509804
0.069607843 0.23278186 0.0039215686
0.13627451 0.23333333 0.0078431373
0.20441176 0.23333333 0.01127451
0.27328431 0.23186275 0.011764706
0.34197304 0.23186275 0.014215686
0.40980392 0.23186275 0.011764706
0.46856618 0.23333333 0.011764706
0.52156863 0.23333333 0.015686275
0.56911765 0.23578431 0.015686275
0.61813725 0.23578431 0.015686275
0.66323529 0.23578431 0.015686275
0.70441176 0.23186275 0.015686275
0.74558824 0.23155637 0.013051471
0.78676471 0.22794118 0.011764706
0.81470588 0.22794118 0.011764706
0.8377451 0.22794118 0.011764706
0.85980392 0.22886029 0.011764706
0.88039216 0.23186275 0.011764706
0.90098039 0.23314951 0.011764706
0.92279412 0.23578431 0.011764706
0.94607843 0.23756127 0.011458333
0.95980392 0.23970588 0.0093137255
0.96078431 0.23970588 0.0093137255
0.96078431 0.23970588 0.0093137255
0.011764706 0.26666667 0.0039215686
0.072058824 0.27058824 0.0039215686
0.13921569 0.27058824 0.0078431373
0.20833333 0.27058824 0.0078431373
0.27647059 0.26666667 0.011764706
0.34460784 0.26666667 0.011764706
0.41372549 0.26666667 0.011764706
0.47009804 0.26666667 0.011764706
0.51764706 0.26666667 0.015686275
0.56519608 0.27058824 0.015686275
0.61176471 0.27058824 0.015686275
0.65637255 0.27058824 0.015686275
0.69803922 0.26666667 0.015686275
0.74313725 0.26666667 0.015196078
0.78431373 0.2627451 0.011764706
0.81470588 0.2627451 0.011764706
0.83529412 0.2627451 0.011764706
0.85980392 0.2627451 0.015686275
0.88039216 0.26666667 0.015686275
0.90098039 0.26666667 0.015686275
0.92156863 0.27058824 0.015686275
0.94215686 0.27058824 0.015196078
0.95588235 0.27352941 0.011764706
0.96078431 0.2745098 0.015686275
0.96470588 0.2745098 0.015686275
0.015686275 0.30392157 0.006372549
0.073529412 0.30692402 0.0078431373
0.14019608 0.30784314 0.0078431373
0.20863971 0.30784314 0.0078431373
0.27769608 0.30465686 0.011764706
0.34803922 0.30392157 0.011764706
0.41482843 0.30330882 0.011764706
0.47009804 0.30539216 0.011764706
0.51764706 0.30784314 0.015686275
0.5661152 0.309375 0.015686275
0.61176471 0.31176471 0.015686275
0.65667892 0.31047794 0.015686275
0.70122549 0.30784314 0.015686275
0.74313725 0.30735294 0.015196078
0.78431373 0.30392157 0.011764706
0.81470588 0.3 0.014767157
0.83921569 0.29754902 0.015686275
0.85980392 0.29754902 0.015686275
0.88039216 0.3 0.018137255
0.90098039 0.30147059 0.018137255
0.92156863 0.30465686 0.018137255
0.94166667 0.30539216 0.018137255
0.95343137 0.30723039 0.01629902
0.9622549 0.30931373 0.018137255
0.96470588 0.30931373 0.018137255
0.019607843 0.34117647 0.0088235294
0.075980392 0.34301471 0.0078431373
0.14313725 0.34436275 0.0095588235
0.20968137 0.3442402 0.011764706
0.27892157 0.34264706 0.011764706
0.34803922 0.34117647 0.011764706
0.4127451 0.34411765 0.011764706
0.47009804 0.34901961 0.011764706
0.52156863 0.35294118 0.015686275
0.56948529 0.35294118 0.015686275
0.61593137 0.35294118 0.015686275
0.66078431 0.35294118 0.015686275
0.70588235 0.3495098 0.015686275
0.74705882 0.34852941 0.015686275
0.78431373 0.34436275 0.015686275
0.81470588 0.34080882 0.015686275
0.83921569 0.3372549 0.015686275
0.85980392 0.33627451 0.019607843
0.88063725 0.33406863 0.019607843
0.90196078 0.33627451 0.020588235
0.92156863 0.3372549 0.020588235
0.94080882 0.34019608 0.020588235
0.95196078 0.34093137 0.019852941
0.9622549 0.34448529 0.019607843
0.96470588 0.34509804 0.020588235
0.023529412 0.38235294 0.011764706
0.077267157 0.38235294 0.011764706
0.1439951 0.38235294 0.011764706
0.2122549 0.38235294 0.0083333333
0.28039216 0.37892157 0.0083333333
0.34803922 0.38235294 0.011764706
0.40980392 0.38529412 0.011764706
0.47009804 0.39019608 0.011764706
0.5254902 0.39411765 0.015686275
0.57303922 0.39411765 0.015686275
0.62046569 0.39411765 0.015686275
0.66470588 0.39411765 0.015686275
0.70955882 0.39215686 0.015686275
0.74705882 0.38970588 0.015686275
0.7817402 0.38333333 0.015686275
0.81470588 0.38088235 0.015686275
0.83921569 0.37843137 0.019117647
0.86323529 0.3745098 0.019607843
0.88431373 0.3745098 0.020588235
0.90490196 0.37107843 0.023529412
0.9252451 0.37107843 0.023529412
0.93823529 0.3745098 0.023529412
0.95196078 0.375 0.023529412
0.9622549 0.38020833 0.021752451
0.96813725 0.38235294 0.023529412
0.023529412 0.41960784 0.0098039216
0.07745098 0.41960784 0.0098039216
0.14754902 0.41960784 0.0078431373
0.21642157 0.41960784 0.0078431373
0.28333333 0.41862745 0.0078431373
0.34779412 0.42009804 0.0080882353
0.40588235 0.42647059 0.011764706
0.46764706 0.43137255 0.011764706
0.5254902 0.43529412 0.015686275
0.57769608 0.43921569 0.015686275
0.62598039 0.43921569 0.015686275
0.67058824 0.43529412 0.015686275
0.71078431 0.43333333 0.015686275
0.74705882 0.43088235 0.015686275
0.78137255 0.42745098 0.015686275
0.8122549 0.42279412 0.016421569
0.84313725 0.41960784 0.019607843
0.86372549 0.41715686 0.019607843
0.88627451 0.41568627 0.019607843
0.90686275 0.4122549 0.023284314
0.9254902 0.41176471 0.024509804
0.94166667 0.41176471 0.025245098
0.95196078 0.41519608 0.022058824
0.9622549 0.41960784 0.019607843
0.96862745 0.42156863 0.019607843
0.019117647 0.46078431 0.0078431373
0.075980392 0.46029412 0.0078431373
0.15196078 0.45686275 0.0077205882
0.22401961 0.45686275 0.0039215686
0.28627451 0.45686275 0.0075980392
0.34761029 0.46127451 0.0078431373
0.40588235 0.46764706 0.011642157
0.46764706 0.47254902 0.011764706
0.5254902 0.47647059 0.011764706
0.58088235 0.48020833 0.011764706
0.62879902 0.47941176 0.015318627
0.67303922 0.47647059 0.015686275
0.71372549 0.47254902 0.015686275
0.7466299 0.47248775 0.015686275
0.78137255 0.46862745 0.015686275
0.8122549 0.46470588 0.019607843
0.84313725 0.46078431 0.019607843
0.86764706 0.46078431 0.019301471
0.88872549 0.45686275 0.019117647
0.90931373 0.45686275 0.019607843
0.92745098 0.45318627 0.023039216
0.94215686 0.45294118 0.022610294
0.95588235 0.4560049 0.019240196
0.96617647 0.46078431 0.015686275
0.97254902 0.46078431 0.015686275
0.0058823529 0.49803922 0.0039215686
0.077818627 0.49803922 0.0039215686
0.15196078 0.49803922 0.0039215686
0.22794118 0.49803922 0.0039215686
0.28823529 0.49803922 0.0058823529
0.34803922 0.50196078 0.0078431373
0.40906863 0.50588235 0.010784314
0.46764706 0.51017157 0.011764706
0.5254902 0.51470588 0.011764706
0.58480392 0.51764706 0.011764706
0.63455882 0.51764706 0.011764706
0.67647059 0.51507353 0.011764706
0.71372549 0.51372549 0.015686275
0.74705882 0.51066176 0.015686275
0.78137255 0.50980392 0.015686275
0.8122549 0.50588235 0.019607843
0.84313725 0.50196078 0.016666667
0.87009804 0.50196078 0.015686275
0.89215686 0.5002451 0.015686275
0.9127451 0.49803922 0.015686275
0.92941176 0.49803922 0.016666667
0.94558824 0.49803922 0.016666667
0.95955882 0.49803922 0.015686275
0.97009804 0.50196078 0.012745098
0.97254902 0.50196078 0.012745098
0.021078431 0.54313725 0.0053921569
0.080453431 0.54313725 0.0078431373
0.15196078 0.54313725 0.0078431373
0.22273284 0.54068627 0.0078431373
0.2875 0.54191176 0.0078431373
0.34803922 0.54313725 0.0093137255
0.40980392 0.54644608 0.011764706
0.46856618 0.54852941 0.011764706
0.52941176 0.55343137 0.011764706
0.58572304 0.55643382 0.011764706
0.63737745 0.5567402 0.011764706
0.68039216 0.55490196 0.011764706
0.71372549 0.55098039 0.012990196
0.74705882 0.55098039 0.015686275
0.78137255 0.55098039 0.015686275
0.8122549 0.54705882 0.015686275
0.84313725 0.54705882 0.015686275
0.87009804 0.54313725 0.015686275
0.89644608 0.54313725 0.011764706
0.91666667 0.54313725 0.014215686
0.93014706 0.54191176 0.015686275
0.94607843 0.54313725 0.011764706
0.9627451 0.54313725 0.010661765
0.97493873 0.54552696 0.0078431373
0.97647059 0.54460784 0.0078431373
0.023529412 0.58823529 0.0078431373
0.081372549 0.58823529 0.0078431373
0.15098039 0.58823529 0.0078431373
0.22009804 0.58823529 0.0078431373
0.28627451 0.58823529 0.011764706
0.34803922 0.58823529 0.011764706
0.40980392 0.59117647 0.011764706
0.47009804 0.59215686 0.011764706
0.52941176 0.59215686 0.011764706
0.5872549 0.59460784 0.0093137255
0.64313725 0.59607843 0.0078431373
0.68088235 0.59264706 0.011764706
0.71372549 0.59215686 0.011764706
0.74705882 0.59215686 0.012254902
0.78137255 0.59215686 0.015686275
0.8122549 0.58823529 0.015686275
0.84313725 0.58823529 0.015686275
0.87009804 0.58578431 0.011764706
0.89607843 0.58431373 0.011764706
0.91666667 0.5877451 0.011764706
0.93137255 0.58823529 0.011764706
0.94607843 0.58480392 0.011764706
0.96372549 0.58823529 0.0078431373
0.98039216 0.59215686 0.0039215686
0.98039216 0.58823529 0.0039215686
0.022058824 0.63578431 0.0078431373
0.079901961 0.63425245 0.0078431373
0.14987745 0.63333333 0.0078431373
0.21666667 0.63333333 0.0078431373
0.28308824 0.63651961 0.012990196
0.34803922 0.63970588 0.015686275
0.40980392 0.63786765 0.015686275
0.47009804 0.6372549 0.013296569
0.52941176 0.63578431 0.011764706
0.58970588 0.6372549 0.0093137255
0.64669118 0.6372549 0.0078431373
0.68088235 0.63363971 0.0099877451
0.71495098 0.63333333 0.011764706
0.7504902 0.63333333 0.011764706
0.78321078 0.63333333 0.015686275
0.81617647 0.63333333 0.015686275
0.84313725 0.63186275 0.015686275
0.87156863 0.62941176 0.011764706
0.89215686 0.63002451 0.011764706
0.91403186 0.63314951 0.009620098
0.93137255 0.63333333 0.0093137255
0.94607843 0.63186275 0.011948529
0.96311275 0.63517157 0.0088235294
0.97794118 0.6372549 0.0078431373
0.98039216 0.63578431 0.0078431373
0.019607843 0.6872549 0.0039215686
0.083823529 0.68333333 0.0039215686
0.15122549 0.68235294 0.0039215686
0.21666667 0.68235294 0.0078431373
0.28235294 0.68480392 0.01372549
0.34803922 0.6872549 0.015686275
0.41078431 0.6872549 0.015686275
0.47254902 0.68688725 0.015686275
0.53333333 0.68333333 0.011764706
0.5932598 0.68333333 0.011764706
0.64313725 0.68333333 0.011764706
0.68431373 0.67941176 0.011764706
0.71813725 0.67843137 0.011764706
0.75441176 0.67843137 0.012254902
0.78848039 0.67843137 0.015686275
0.81862745 0.67732843 0.015686275
0.84607843 0.6754902 0.015686275
0.86764706 0.6745098 0.011764706
0.88823529 0.6747549 0.011764706
0.9127451 0.67806373 0.011764706
0.93137255 0.67941176 0.0078431373
0.94558824 0.67941176 0.0079656863
0.95955882 0.68161765 0.0095588235
0.97401961 0.68664216 0.0078431373
0.98039216 0.6872549 0.0088235294
0.0088235294 0.73480392 0.00049019608
0.080208333 0.73106618 0.0014705882
0.15196078 0.73088235 0.0039215686
0.21966912 0.73088235 0.0078431373
0.28602941 0.73137255 0.012009804
0.35153186 0.7348652 0.015686275
0.41715686 0.73529412 0.015686275
0.47892157 0.73480392 0.015686275
0.54068627 0.73480392 0.015196078
0.59656863 0.73480392 0.011764706
0.64313725 0.73125 0.011764706
0.68431373 0.72745098 0.011764706
0.72132353 0.7252451 0.011764706
0.75790441 0.72352941 0.015686275
0.78921569 0.72352941 0.015686275
0.81862745 0.72303922 0.015686275
0.84313725 0.72303922 0.015686275
0.86764706 0.72303922 0.015379902
0.88921569 0.72303922 0.011764706
0.9127451 0.72653186 0.011764706
0.92941176 0.7252451 0.011764706
0.94215686 0.72702206 0.011764706
0.95625 0.73088235 0.011764706
0.971875 0.73480392 0.011764706
0.98039216 0.73529412 0.011764706
0.011764706 0.78039216 0.0019607843
0.078431373 0.77720588 0.0039215686
0.15196078 0.7745098 0.0039215686
0.22009804 0.7745098 0.0073529412
0.28823529 0.77745098 0.011764706
0.35416667 0.78235294 0.015686275
0.42107843 0.78431373 0.015686275
0.48406863 0.78431373 0.015686275
0.54705882 0.78627451 0.015686275
0.6004902 0.78431373 0.015686275
0.64313725 0.78235294 0.015686275
0.68431373 0.77843137 0.015686275
0.72352941 0.77352941 0.015686275
0.75857843 0.77058824 0.015686275
0.78970588 0.76862745 0.015686275
0.81862745 0.77058824 0.015686275
0.84313725 0.77058824 0.015686275
0.86887255 0.7745098 0.015686275
0.89215686 0.7745098 0.015686275
0.9127451 0.7745098 0.012009804
0.92941176 0.7745098 0.011764706
0.94558824 0.775 0.011764706
0.95588235 0.78137255 0.011764706
0.97009804 0.78627451 0.011764706
0.98039216 0.78627451 0.011764706
0.019117647 0.82598039 0.0078431373
0.079595588 0.82334559 0.0078431373
0.15061275 0.82205882 0.0078431373
0.22009804 0.82205882 0.0078431373
0.28823529 0.82598039 0.0095588235
0.35594363 0.83339461 0.011764706
0.42156863 0.83382353 0.015196078
0.4872549 0.83382353 0.015686275
0.54901961 0.83382353 0.015686275
0.60177696 0.83382353 0.015686275
0.64313725 0.83284314 0.015686275
0.68431373 0.82689951 0.015686275
0.72156863 0.82205882 0.015686275
0.75876225 0.81807598 0.015686275
0.78921569 0.81813725 0.015686275
0.81862745 0.82205882 0.015686275
0.84313725 0.82254902 0.015686275
0.87009804 0.82598039 0.015686275
0.89215686 0.82598039 0.015686275
0.9127451 0.82598039 0.015196078
0.92941176 0.82401961 0.013480392
0.94558824 0.82254902 0.011764706
0.95894608 0.82977941 0.011764706
0.97156863 0.83529412 0.011764706
0.98039216 0.8377451 0.011764706
0.019607843 0.87352941 0.0078431373
0.07745098 0.87242647 0.0078431373
0.14803922 0.87352941 0.0078431373
0.22009804 0.87352941 0.0078431373
0.28823529 0.87745098 0.0078431373
0.35637255 0.88529412 0.011764706
0.4245098 0.88529412 0.011764706
0.4872549 0.88198529 0.013848039
0.54607843 0.88137255 0.015686275
0.59865196 0.88198529 0.015686275
0.64313725 0.88504902 0.015686275
0.6817402 0.88137255 0.018627451
0.72009804 0.8754902 0.019607843
0.75539216 0.86911765 0.018259804
0.78627451 0.86568627 0.015686275
0.81617647 0.87107843 0.015686275
0.84313725 0.87745098 0.011764706
0.87009804 0.87745098 0.011764706
0.89215686 0.87745098 0.011764706
0.9127451 0.87745098 0.011764706
0.92941176 0.87401961 0.011764706
0.94558824 0.87009804 0.011764706
0.95980392 0.87745098 0.011764706
0.97401961 0.88529412 0.0078431373
0.98039216 0.88529412 0.0088235294
0.018137255 0.92647059 0.006372549
0.075980392 0.91378676 0.0078431373
0.15196078 0.92708333 0.006372549
0.22009804 0.92205882 0.0078431373
0.29093137 0.92818627 0.0078431373
0.35980392 0.93676471 0.0078431373
0.42156863 0.93566176 0.010784314
0.48278186 0.93045343 0.013235294
0.53970588 0.92745098 0.015686275
0.59509804 0.93137255 0.018137255
0.64166667 0.93468137 0.019607843
0.68039216 0.92941176 0.019607843
0.71691176 0.92426471 0.019607843
0.75079657 0.92058824 0.019607843
0.78382353 0.91715686 0.016666667
0.8122549 0.91715686 0.015686275
0.83921569 0.92352941 0.011764706
0.86917892 0.9283701 0.0087622549
0.8942402 0.93284314 0.0078431373
0.9127451 0.92941176 0.0078431373
0.92745098 0.91764706 0.011764706
0.94558824 0.9122549 0.011764706
0.95980392 0.92254902 0.0088235294
0.97457108 0.93431373 0.0078431373
0.98039216 0.93529412 0.0078431373
0 0.98431373 0.0039215686
0.075980392 0.94313725 0.0078431373
0.15196078 0.97254902 0.0039215686
0.22058824 0.95490196 0.0078431373
0.29215686 0.96470588 0.0078431373
0.35980392 0.97990196 0.0044117647
0.41862745 0.96960784 0.0078431373
0.47794118 0.96470588 0.011764706
0.53333333 0.96470588 0.015686275
0.58872549 0.96715686 0.018137255
0.63921569 0.97254902 0.019607843
0.67696078 0.96862745 0.019607843
0.71372549 0.9627451 0.021568627
0.7504902 0.96029412 0.019607843
0.78137255 0.95686275 0.019607843
0.80833333 0.95686275 0.015686275
0.83921569 0.96078431 0.011764706
0.86617647 0.96715686 0.0093137255
0.89313725 0.97843137 0.0039215686
0.9127451 0.96617647 0.0073529412
0.92745098 0.94901961 0.0098039216
0.94215686 0.94509804 0.011764706
0.95980392 0.95490196 0.0078431373
0.9754902 0.97696078 0.0039215686
0.98039216 0.97647059 0.0039215686
0.017156863 0.058823529 0.0078431373
0.072610294 0.057352941 0.011764706
0.14411765 0.058823529 0.015686275
0.21617647 0.058823529 0.019607843
0.28235294 0.052941176 0.019607843
0.35067402 0.038235294 0.019607843
0.42058824 0.021568627 0.016666667
0.49117647 0.010294118 0.015686275
0.54117647 0.0093137255 0.015686275
0.59172794 0.0083946078 0.012683824
0.63921569 0.006004902 0.011764706
0.68039216 0.016666667 0.011764706
0.71568627 0.024264706 0.01495098
0.7504902 0.029227941 0.015686275
0.78284314 0.028921569 0.015686275
0.81372549 0.023529412 0.014215686
0.84313725 0.013235294 0.011764706
0.87156863 0.0048406863 0.011764706
0.88823529 0.0099264706 0.012745098
0.90882353 0.015379902 0.015686275
0.92818627 0.011764706 0.015686275
0.94509804 0.0080269608 0.015686275
0.94509804 0.012867647 0.015686275
0.94509804 0.019607843 0.015686275
0.94509804 0.023529412 0.018137255
0.013235294 0.058823529 0.0078431373
0.072058824 0.058616728 0.011764706
0.14450061 0.058823529 0.015686275
0.21793811 0.058823529 0.019607843
0.28235294 0.055392157 0.019607843
0.34933364 0.047663909 0.019607843
0.41852022 0.040119485 0.016666667
0.48480392 0.034803922 0.015686275
0.53633578 0.034803922 0.015686275
