site/assets/luts/sha256-bf39a80166e06d587845717a56866a573da0ec4cf25959e9145572f27cf283ff.cube
# LUTr-Schema-Version: 2
# LUTr-ID: sha256-bf39a80166e06d587845717a56866a573da0ec4cf25959e9145572f27cf283ff
# LUTr-Title: polaroid 690 cold
# LUTr-Collection: Natron HaldCLUT
# LUTr-Collection-ID: natron-haldclut-presets
# LUTr-Source: https://github.com/NatronGitHub/clut
# LUTr-Retrieved: 2026-07-27
# LUTr-Source-File: submissions/natron-haldclut-presets/instant_pro/polaroid_690_cold.png
# LUTr-Source-Format: HALD-PNG
# LUTr-Source-SHA256: bf39a80166e06d587845717a56866a573da0ec4cf25959e9145572f27cf283ff
# LUTr-License: CC-BY-SA-4.0
# LUTr-License-URL: https://github.com/NatronGitHub/clut#license
# LUTr-License-Basis: repo-license-file
# LUTr-Transform-Class: film-emulation
# LUTr-Tags: creative, film, film-emulation, hald-clut, natron, png, cool, cube
# LUTr-Input-Color-Space: srgb
# LUTr-Input-Gamut: rec709
# LUTr-Input-Transfer: srgb
# LUTr-Output-Color-Space: srgb
# LUTr-Output-Gamut: rec709
# LUTr-Output-Transfer: srgb
# LUTr-Color-Space-Confidence: assumed-display-referred
# LUTr-Domain-Normalized: true
# LUTr-Shaper: none
# LUTr-Original-Grid: 64x64x64
# LUTr-Conversion-Grid: 25x25x25
# LUTr-Conversion-Interpolation: trilinear
# LUTr-Conversion-Method: HALD-PNG LUT image decoded at 16-bit and sampled to 25x25x25 3D CUBE
# LUTr-Conversion-Tool: LUTr scripts/convert-all-to-cube.mjs 2.0.0
# LUTr-Conversion-Date: 2026-07-27
# LUTr-Note: Preserve this metadata and the upstream license notices when redistributing.
TITLE "polaroid 690 cold"
LUT_3D_SIZE 5
DOMAIN_MIN 0 0 0
DOMAIN_MAX 1 1 1
0 0.13333333 0.12156863
0.13039216 0.13333333 0.13333333
0.40784314 0.070588235 0.14117647
0.74607843 0.0039215686 0.13333333
1 0 0.10196078
0.0039215686 0.23627451 0.1372549
0.14632353 0.23210784 0.12941176
0.52941176 0.23872549 0.12401961
0.82941176 0.14191176 0.10906863
0.99607843 0.056862745 0.095098039
0 0.48039216 0.098039216
0.088235294 0.47009804 0.090196078
0.53627451 0.53137255 0.011764706
0.86078431 0.57941176 0.0088235294
1 0.58823529 0.039215686
0 0.74411765 0.0039215686
0.15416667 0.7372549 0.0039215686
0.51764706 0.74558824 0.0024509804
0.81960784 0.77156863 0.0017156863
0.99215686 0.78333333 0.0049019608
0.45490196 0.9254902 0.23529412
0.53627451 0.93333333 0.23529412
0.67647059 0.93137255 0.19411765
0.84509804 0.94509804 0.20784314
0.96470588 0.96862745 0.23137255
0 0.14411765 0.24019608
0.093627451 0.14117647 0.25882353
0.40882353 0.091666667 0.24166667
0.73063725 0 0.22745098
0.97352941 0 0.20490196
0 0.24411765 0.26985294
0.14705882 0.24411765 0.27199755
0.50036765 0.20784314 0.26262255
0.80294118 0.022058824 0.22377451
0.99142157 0.011029412 0.19705882
0 0.51470588 0.27254902
0.081985294 0.51421569 0.25870098
0.54485294 0.53921569 0.23235294
0.86421569 0.58541667 0.25245098
0.99607843 0.55882353 0.28039216
0.011764706 0.75882353 0.23823529
0.1528799 0.75661765 0.21004902
0.51752451 0.75306373 0.17610294
0.81960784 0.7745098 0.17426471
0.98823529 0.79019608 0.29215686
0.46372549 0.94117647 0.38921569
0.50882353 0.92867647 0.36176471
0.66323529 0.93333333 0.34558824
0.83357843 0.93651961 0.33039216
0.97352941 0.96862745 0.38137255
0.0039215686 0.15686275 0.55686275
0.017156863 0.13382353 0.58921569
0.55294118 0.031372549 0.64607843
0.76862745 0.0053921569 0.5377451
0.97647059 0 0.50588235
0.0039215686 0.25196078 0.5627451
0.061029412 0.25171569 0.60343137
0.57867647 0.24656863 0.65686275
0.79313725 0.14301471 0.54803922
0.97205882 0.0039215686 0.47745098
0.0039215686 0.55098039 0.60686275
0.12598039 0.55465686 0.61715686
0.57107843 0.59166667 0.64607843
0.82598039 0.49558824 0.56985294
0.99411765 0.38921569 0.47647059
0.062254902 0.78627451 0.60735294
0.27610294 0.78284314 0.60318627
0.52818627 0.76789216 0.5629902
0.81715686 0.78235294 0.58259804
0.98088235 0.79411765 0.64803922
0.45098039 0.94117647 0.65686275
0.5 0.9372549 0.63578431
0.63823529 0.94509804 0.61372549
0.80882353 0.93921569 0.58333333
0.95882353 0.97843137 0.64509804
0.0049019608 0.16078431 0.87352941
0.093627451 0.14436275 0.88137255
0.58529412 0.028431373 0.90931373
0.87745098 0.10196078 0.90955882
1 0.051960784 0.84411765
0.011764706 0.27647059 0.8502451
0.10177696 0.26470588 0.87745098
0.59620098 0.29105392 0.90208333
0.87132353 0.35214461 0.909375
0.98823529 0.31004902 0.83627451
0.0039215686 0.51078431 0.82941176
0.019117647 0.50404412 0.84117647
0.55588235 0.57843137 0.87745098
0.83284314 0.63676471 0.89607843
0.95735294 0.55882353 0.83137255
0.25906863 0.78627451 0.86176471
0.38161765 0.78235294 0.8625
0.61519608 0.78872549 0.87107843
0.81335784 0.79430147 0.88112745
0.95980392 0.73921569 0.83504902
0.58627451 0.94901961 0.88431373
0.61372549 0.95196078 0.88431373
0.68431373 0.94901961 0.87794118
0.79411765 0.95514706 0.84705882
0.92941176 0.9754902 0.86568627
0.42352941 0.28627451 0.99607843
0.48627451 0.27647059 0.99313725
0.69019608 0.32745098 0.99607843
0.87745098 0.45784314 0.99607843
0.99607843 0.55686275 0.99607843
0.43627451 0.40882353 0.99705882
0.51176471 0.41642157 0.99607843
0.68823529 0.45539216 0.99607843
0.86568627 0.55784314 0.99607843
0.98039216 0.61960784 0.99607843
0.41176471 0.6254902 0.99607843
0.46519608 0.61911765 0.99166667
0.66078431 0.64117647 0.98431373
0.85392157 0.70294118 0.98872549
0.97254902 0.71960784 0.98235294
0.43921569 0.7872549 0.98431373
0.47573529 0.78333333 0.98333333
0.57794118 0.76764706 0.96127451
0.83504902 0.81078431 0.98529412
0.96470588 0.85784314 0.98823529
0.69411765 0.96862745 0.98039216
0.69803922 0.95784314 0.97254902
0.75882353 0.95490196 0.98039216
0.83627451 0.95 0.97254902
0.9254902 0.98431373 0.95686275
