site/assets/luts/sha256-6b54b9859d6f497fb9c89e84109a82281fb6dd60f5c8ae909f0a9c7bbc851fc0.cube
# LUTr-Schema-Version: 2
# LUTr-ID: sha256-6b54b9859d6f497fb9c89e84109a82281fb6dd60f5c8ae909f0a9c7bbc851fc0
# LUTr-Title: fuji3510 cuspclip
# LUTr-Collection: Natron HaldCLUT
# LUTr-Collection-ID: natron-haldclut-presets
# LUTr-Source: https://github.com/NatronGitHub/clut
# LUTr-Retrieved: 2026-07-27
# LUTr-Source-File: submissions/natron-haldclut-presets/print/fuji3510_cuspclip.png
# LUTr-Source-Format: HALD-PNG
# LUTr-Source-SHA256: 6b54b9859d6f497fb9c89e84109a82281fb6dd60f5c8ae909f0a9c7bbc851fc0
# LUTr-License: CC-BY-SA-4.0
# LUTr-License-URL: https://github.com/NatronGitHub/clut#license
# LUTr-License-Basis: repo-license-file
# LUTr-Transform-Class: film-emulation
# LUTr-Tags: creative, film, film-emulation, hald-clut, natron, png, cube
# LUTr-Input-Color-Space: srgb
# LUTr-Input-Gamut: rec709
# LUTr-Input-Transfer: srgb
# LUTr-Output-Color-Space: srgb
# LUTr-Output-Gamut: rec709
# LUTr-Output-Transfer: srgb
# LUTr-Color-Space-Confidence: assumed-display-referred
# LUTr-Domain-Normalized: true
# LUTr-Shaper: none
# LUTr-Original-Grid: 64x64x64
# LUTr-Conversion-Grid: 25x25x25
# LUTr-Conversion-Interpolation: trilinear
# LUTr-Conversion-Method: HALD-PNG LUT image decoded at 16-bit and sampled to 25x25x25 3D CUBE
# LUTr-Conversion-Tool: LUTr scripts/convert-all-to-cube.mjs 2.0.0
# LUTr-Conversion-Date: 2026-07-27
# LUTr-Note: Preserve this metadata and the upstream license notices when redistributing.
TITLE "fuji3510 cuspclip"
LUT_3D_SIZE 25
DOMAIN_MIN 0 0 0
DOMAIN_MAX 1 1 1
0.0039215686 0 0.0039215686
0.011764706 0.0078431373 0.010294118
0.020588235 0.011764706 0.011764706
0.026960784 0.015686275 0.015686275
0.033333333 0.017647059 0.015686275
0.04754902 0.020098039 0.015686275
0.057843137 0.026470588 0.015686275
0.092156863 0.032843137 0.017156863
0.12941176 0.039215686 0.019607843
0.16764706 0.043137255 0.017156863
0.2254902 0.043137255 0.011764706
0.27745098 0.040196078 0.0078431373
0.31176471 0.023529412 0.0019607843
0.35588235 0.015686275 0
0.41764706 0.012745098 0
0.46715686 0.011764706 0
0.49019608 0.0078431373 0
0.51078431 0.0014705882 0
0.52745098 0 0
0.54803922 0 0
0.56078431 0 0
0.56862745 0 0
0.57745098 0.0058823529 0
0.60245098 0.016666667 0
0.58823529 0 0
0.010294118 0.016666667 0.014215686
0.015134804 0.018137255 0.014215686
0.022426471 0.020588235 0.018137255
0.027267157 0.018443627 0.018137255
0.035294118 0.020098039 0.018137255
0.051776961 0.026470588 0.019607843
0.067156863 0.036764706 0.022058824
0.098529412 0.043137255 0.022058824
0.13333333 0.049509804 0.023529412
0.17941176 0.053431373 0.018688725
0.23480392 0.051960784 0.011151961
0.28333333 0.046568627 0.0056985294
0.32328431 0.03504902 0.0019607843
0.37175245 0.025490196 0
0.42107843 0.01629902 0
0.46715686 0.011764706 0
0.49264706 0.010294118 0
0.51727941 0.0094362745 0
0.54264706 0.0042892157 0
0.56715686 0.0024509804 0
0.58259804 0.0039215686 0
0.58578431 0.0037377451 0
0.59215686 0.0068627451 0
0.60729167 0.023897059 0
0.60882353 0.033333333 0
0.015686275 0.032352941 0.020588235
0.018504902 0.032352941 0.022426471
0.025245098 0.033333333 0.024509804
0.031004902 0.033333333 0.024509804
0.040196078 0.034803922 0.024509804
0.059803922 0.041544118 0.024509804
0.07745098 0.047303922 0.02745098
0.10245098 0.053431373 0.02745098
0.13823529 0.059803922 0.02745098
0.19215686 0.06372549 0.021078431
0.24583333 0.063970588 0.010784314
0.29656863 0.06127451 0.0044117647
0.34313725 0.050490196 0.0019607843
0.38860294 0.040686275 0
0.43333333 0.031127451 0
0.47732843 0.028921569 0
0.50784314 0.038235294 0
0.53897059 0.046691176 0
0.5627451 0.038480392 0
0.58333333 0.028921569 0
0.59656863 0.02745098 0
0.60502451 0.024632353 0
0.6127451 0.03627451 0
0.62634804 0.056004902 0
0.63235294 0.066666667 0
0.019607843 0.046078431 0.030882353
0.022058824 0.046568627 0.030882353
0.028431373 0.046568627 0.030882353
0.034803922 0.046568627 0.030882353
0.043382353 0.048529412 0.031372549
0.063664216 0.054901961 0.031372549
0.084313725 0.060906863 0.031372549
0.10637255 0.065870098 0.031372549
0.14117647 0.070098039 0.030882353
0.19871324 0.074019608 0.021078431
0.25551471 0.07879902 0.010784314
0.30686275 0.077941176 0.0039215686
0.35637255 0.069607843 0.00024509804
0.40539216 0.061703431 0
0.45686275 0.06127451 0
0.50147059 0.066176471 0
0.52843137 0.073039216 0
0.55637255 0.080882353 0
0.57745098 0.080392157 0
0.59803922 0.076470588 0
0.61642157 0.072303922 0
0.62696078 0.079901961 0
0.6372549 0.10098039 0
0.64607843 0.10998775 0
0.64656863 0.10784314 0
0.017647059 0.060784314 0.035294118
0.020833333 0.060784314 0.035294118
0.027941176 0.060784314 0.035294118
0.034803922 0.060784314 0.033333333
0.043137255 0.060784314 0.033333333
0.065686275 0.067156863 0.035539216
0.088235294 0.074509804 0.037254902
0.11151961 0.079901961 0.035294118
0.15098039 0.08627451 0.031372549
0.20882353 0.090196078 0.021078431
0.26568627 0.094607843 0.010784314
0.31715686 0.098039216 0.00049019608
0.37058824 0.093137255 0
0.42598039 0.094362745 0
0.47745098 0.096078431 0
0.5254902 0.10147059 0
0.55882353 0.10784314 0
0.58063725 0.11176471 0
0.60441176 0.11617647 0
0.6247549 0.11764706 0
0.6372549 0.12156863 0
0.64754902 0.13014706 0
0.65441176 0.14068627 0
0.65955882 0.14387255 0
0.6627451 0.14509804 0
0.0078431373 0.075490196 0.039215686
0.013909314 0.075490196 0.039215686
0.020098039 0.079411765 0.039705882
0.030392157 0.075980392 0.039276961
0.03872549 0.077696078 0.039215686
0.06372549 0.087745098 0.039215686
0.088235294 0.095465686 0.039705882
0.11439951 0.10490196 0.039031863
0.16127451 0.11127451 0.031372549
0.22089461 0.11470588 0.020588235
0.27647059 0.11875 0.010784314
0.33186275 0.12261029 0.00049019608
0.38921569 0.12696078 0
0.44264706 0.12702206 0
0.49375 0.13088235 0
0.54148284 0.13498775 0
0.57696078 0.13921569 0
0.60177696 0.14528186 0
0.62745098 0.15196078 0
0.64754902 0.15490196 0
0.65563725 0.15833333 0
0.66421569 0.16268382 0.00049019608
0.67193627 0.16911765 0.0039215686
0.67745098 0.1754902 0.0039215686
0.68333333 0.18235294 0
0.00098039216 0.092156863 0.043137255
0.0073529412 0.096078431 0.043137255
0.012745098 0.1 0.046078431
0.016666667 0.1 0.046078431
0.024509804 0.10196078 0.046078431
0.050490196 0.11127451 0.046078431
0.083578431 0.12156863 0.043872549
0.11862745 0.13247549 0.037745098
0.1754902 0.13823529 0.02745098
0.23333333 0.14105392 0.017156863
0.29730392 0.14779412 0.0093137255
0.35245098 0.15735294 0.0039215686
0.40784314 0.16176471 0
0.46237745 0.16176471 0
0.50857843 0.16470588 0
0.5557598 0.16715686 0
0.5872549 0.17352941 0
0.62107843 0.18284314 0
0.65098039 0.19313725 0
0.66470588 0.19264706 0
0.67156863 0.18921569 0
0.68088235 0.19313725 0.00049019608
0.69583333 0.19705882 0.0068627451
0.70392157 0.20747549 0.0045343137
0.70784314 0.21960784 0
0 0.13137255 0.056372549
0 0.13137255 0.054840686
0.0039215686 0.12745098 0.05245098
0.0060661765 0.12598039 0.05245098
0.0075980392 0.1252451 0.05245098
0.026654412 0.13302696 0.050490196
0.075980392 0.14816176 0.044117647
0.1216299 0.16035539 0.037745098
0.18186275 0.16519608 0.02745098
0.240625 0.16672794 0.013235294
0.30330882 0.17401961 0.0057598039
0.36323529 0.1877451 0.0039215686
0.42647059 0.2 0
0.47598039 0.20196078 0
0.5245098 0.20196078 0
0.57052696 0.20490196 0
0.60833333 0.21764706 0
0.64558824 0.22794118 0
0.67659314 0.2372549 0
0.68498775 0.23204657 0
0.68921569 0.2247549 0
0.69754902 0.22401961 0.00030637255
0.71139706 0.23235294 0.0035539216
0.72297794 0.24656863 0.0039215686
0.73235294 0.25833333 0
0 0.17254902 0.070588235
0 0.17254902 0.070588235
0 0.16862745 0.066666667
0 0.16470588 0.062745098
0 0.15882353 0.060784314
0.01372549 0.16127451 0.054411765
0.064705882 0.1754902 0.044117647
0.12647059 0.18578431 0.037745098
0.18431373 0.19215686 0.023529412
0.24215686 0.19852941 0.0093137255
0.3127451 0.20980392 0.0039215686
0.38137255 0.22647059 0.0039215686
0.44509804 0.24117647 0
0.5004902 0.24705882 0
0.54803922 0.25098039 0
0.59411765 0.26029412 0.0039215686
0.63529412 0.26666667 0.0039215686
0.67254902 0.27303922 0
0.70294118 0.27843137 0
0.70931373 0.2745098 0
0.71176471 0.26862745 0
0.71813725 0.26715686 0.00049019608
0.72843137 0.27745098 0.0039215686
0.73872549 0.29166667 0.0039215686
0.74901961 0.30588235 0
0 0.21372549 0.084803922
0 0.21219363 0.083884804
0 0.20919118 0.080514706
0 0.20588235 0.076960784
0.0031862745 0.20514706 0.067892157
0.011764706 0.20569853 0.056556373
0.031495098 0.20637255 0.044117647
0.10006127 0.22297794 0.030821078
0.1754902 0.2372549 0.015686275
0.24613971 0.24607843 0.0044730392
0.32512255 0.26029412 0.0039215686
0.39901961 0.271875 0.0017769608
0.46372549 0.28553922 0
0.52107843 0.29246324 0
0.57254902 0.30441176 0.0018382353
0.61862745 0.3151348 0.0039215686
0.65588235 0.32058824 0.006372549
0.69460784 0.32359069 0.0039215686
0.72352941 0.32598039 0.0024509804
0.72775735 0.32598039 0.0060661765
0.73553922 0.3245098 0.0051470588
0.74607843 0.32843137 0.0042279412
0.75183824 0.33529412 0.0067401961
0.75839461 0.34313725 0.0039215686
0.76568627 0.35098039 0
0 0.25882353 0.1
0 0.25306373 0.09754902
0 0.24681373 0.091911765
0.0034313725 0.24754902 0.083823529
0.0058823529 0.25637255 0.076470588
0.011764706 0.25453431 0.063235294
0.021568627 0.2497549 0.045343137
0.084313725 0.2627451 0.024509804
0.16862745 0.27843137 0.0068627451
0.25098039 0.29607843 0.0039215686
0.33259804 0.31176471 0.0039215686
0.40539216 0.32205882 0
0.47696078 0.32843137 0
0.53676471 0.33884804 0.00012254902
0.58823529 0.35367647 0.0039215686
0.63578431 0.36715686 0.006004902
0.67647059 0.37352941 0.0088235294
0.71372549 0.37708333 0.0099264706
0.73553922 0.37745098 0.011764706
0.74558824 0.37745098 0.012745098
0.7627451 0.38431373 0.0068627451
0.76973039 0.38615196 0.0079656863
0.77279412 0.38823529 0.0125
0.78112745 0.40012255 0.014583333
0.78627451 0.40588235 0.0098039216
0.0034313725 0.31078431 0.12794118
0.0034313725 0.30490196 0.12530637
0 0.29816176 0.11911765
0.0034313725 0.29944853 0.10539216
0.0041666667 0.30514706 0.089460784
0.012254902 0.30735294 0.072610294
0.028921569 0.30428922 0.046078431
0.071078431 0.30686275 0.024509804
0.16127451 0.32696078 0.0078431373
0.26078431 0.34540441 0.0039215686
0.34362745 0.36323529 0
0.41868873 0.37696078 0
0.49117647 0.3870098 0
0.55919118 0.40104167 0
0.61323529 0.41519608 0.0039215686
0.65588235 0.4245098 0.0056985294
0.69656863 0.425 0.011764706
0.73186275 0.425 0.015502451
0.7495098 0.42892157 0.019117647
0.76280637 0.42843137 0.019117647
0.78333333 0.44264706 0.016911765
0.7872549 0.440625 0.015196078
0.79019608 0.44227941 0.018259804
0.80441176 0.4591299 0.024509804
0.81078431 0.46764706 0.026470588
0.0039215686 0.36666667 0.16078431
0.0039215686 0.35906863 0.15441176
0.0034313725 0.35098039 0.14411765
0.0036764706 0.35661765 0.13921569
0.0039215686 0.35686275 0.11666667
0.012745098 0.35661765 0.08872549
0.031372549 0.35196078 0.055882353
0.057352941 0.35269608 0.024509804
0.15294118 0.3745098 0.0078431373
0.27303922 0.39387255 0
0.35392157 0.41568627 0
0.43161765 0.43455882 0
0.50882353 0.44901961 0
0.57941176 0.46372549 0
0.64362745 0.48088235 0.0039215686
0.68284314 0.48235294 0.0039215686
0.72156863 0.48823529 0.0078431373
0.75637255 0.49142157 0.018137255
0.77990196 0.49607843 0.023529412
0.79877451 0.50122549 0.023529412
0.80196078 0.49803922 0.029411765
0.81593137 0.50612745 0.029411765
0.82058824 0.50931373 0.025490196
0.82941176 0.52107843 0.033333333
0.83137255 0.5254902 0.035294118
0.0073529412 0.41323529 0.18480392
0.0039215686 0.40343137 0.175
0.0039215686 0.40208333 0.16862745
0.0039215686 0.40588235 0.16268382
0.0039215686 0.40808824 0.15220588
0.0088235294 0.40637255 0.12156863
0.021323529 0.40637255 0.082965686
0.017953431 0.40637255 0.032169118
0.10343137 0.42205882 0.0034313725
0.27463235 0.45098039 0
0.36090686 0.47156863 0
0.44405637 0.49215686 0
0.52843137 0.51053922 0
0.59558824 0.52493873 0
0.64705882 0.53223039 0
0.69852941 0.53756127 0
0.74215686 0.54362745 0.0039215686
0.77910539 0.55392157 0.018443627
0.80943627 0.55931373 0.026838235
0.81709559 0.55980392 0.02254902
0.82107843 0.55588235 0.026470588
0.83284314 0.56029412 0.030882353
0.84705882 0.57401961 0.034681373
0.85196078 0.57941176 0.035294118
0.84803922 0.57892157 0.039215686
0.0039215686 0.45098039 0.19901961
0.0039215686 0.44460784 0.19227941
0.0039215686 0.44705882 0.18921569
0.0039215686 0.45098039 0.18627451
0.00049019608 0.45392157 0.17990196
0.0079656863 0.45404412 0.15294118
0.013970588 0.46004902 0.096568627
0.0006127451 0.45784314 0.038235294
0.060784314 0.46960784 0
0.25036765 0.50477941 0.0029411765
0.36642157 0.52941176 0
0.46041667 0.55 0
0.54852941 0.56715686 0
0.62009804 0.58284314 0
0.67745098 0.59387255 0
0.72781863 0.60098039 0.0011029412
0.76568627 0.59901961 0.010784314
0.80085784 0.61090686 0.026102941
0.82279412 0.61176471 0.029411765
0.84031863 0.61470588 0.0091911765
0.85 0.61764706 0.0078431373
0.85514706 0.61985294 0.01495098
0.86372549 0.6254902 0.017401961
0.87438725 0.63615196 0.031740196
0.87254902 0.63431373 0.03627451
0.0024509804 0.48676471 0.21323529
0 0.48431373 0.2098652
0.0020833333 0.48884804 0.20686275
0.0017769608 0.49215686 0.20324755
0.00073529412 0.49460784 0.2002451
0.00018382353 0.49724265 0.1723652
0.0029411765 0.50355392 0.10931373
0.0049632353 0.50637255 0.044546569
0.075490196 0.51960784 0.0039215686
0.26329657 0.5504902 0.00091911765
0.38345588 0.57745098 0
0.48137255 0.60245098 0
0.56764706 0.62181373 0
0.64264706 0.63707108 0
0.70870098 0.65526961 0.0014705882
0.76084559 0.6622549 0.0077818627
0.79264706 0.65980392 0.021078431
0.81568627 0.6622549 0.031372549
0.83590686 0.66078431 0.036151961
0.85196078 0.66078431 0.026960784
0.86495098 0.66078431 0.018627451
0.86991422 0.66519608 0.010294118
0.87647059 0.67156863 0.0091911765
0.88976716 0.68186275 0.024019608
0.90098039 0.68823529 0.035294118
0.0039215686 0.51764706 0.22745098
0.006372549 0.51617647 0.22352941
0.0078431373 0.52156863 0.22254902
0.0083333333 0.5254902 0.21617647
0.0019607843 0.52156863 0.20392157
0.0039215686 0.52205882 0.18235294
0.0039215686 0.53235294 0.12058824
0.0078431373 0.5372549 0.048529412
0.090196078 0.55294118 0.0039215686
0.2877451 0.5877451 0
0.39803922 0.61470588 0
0.49411765 0.64215686 0
0.58235294 0.6627451 0
0.65784314 0.67941176 0.0039215686
0.71568627 0.69313725 0.0078431373
0.76813725 0.6995098 0.013235294
0.80392157 0.70196078 0.02745098
0.8377451 0.70735294 0.039215686
0.84901961 0.69803922 0.044117647
0.86617647 0.69803922 0.043627451
0.87843137 0.7 0.037254902
0.88676471 0.70588235 0.031372549
0.89705882 0.70882353 0.034313725
0.90588235 0.72009804 0.043137255
0.90588235 0.72156863 0.047058824
0.020588235 0.53823529 0.2377451
0.023590686 0.53976716 0.23382353
0.022671569 0.54264706 0.2314951
0.0044117647 0.53578431 0.22009804
0.0019607843 0.53897059 0.20392157
0.0039215686 0.54656863 0.18363971
0.0014705882 0.55539216 0.14693627
0.0049019608 0.56176471 0.066176471
0.075490196 0.57990196 0.006372549
0.2528799 0.61078431 0.0039215686
0.39117647 0.64105392 0.0024509804
0.49626225 0.66648284 0.0024509804
0.58872549 0.6872549 0.0039215686
0.67401961 0.70980392 0.0081495098
0.72401961 0.72009804 0.013602941
0.77150735 0.73039216 0.019607843
0.81176471 0.73676471 0.02745098
0.84019608 0.73676471 0.041666667
0.86286765 0.73468137 0.051593137
0.88247549 0.73756127 0.056862745
0.89068627 0.73284314 0.052696078
0.90729167 0.74197304 0.054534314
0.91580882 0.7442402 0.058823529
0.9122549 0.74852941 0.060355392
0.9122549 0.75245098 0.06372549
0.033333333 0.55784314 0.24313725
0.03247549 0.55845588 0.24227941
0.017892157 0.55392157 0.23529412
0.0019607843 0.54754902 0.22120098
0.0053921569 0.55490196 0.20539216
0.0034313725 0.5622549 0.18321078
0 0.5754902 0.16421569
0.0047794118 0.58284314 0.070588235
0.084313725 0.59803922 0.0039215686
0.29203431 0.63284314 0.0011029412
0.40980392 0.6620098 0.0017156863
0.50625 0.6872549 0.0039215686
0.59509804 0.71176471 0.0078431373
0.68492647 0.73578431 0.0091911765
0.7372549 0.74607843 0.016421569
0.78333333 0.75428922 0.025980392
0.8245098 0.75882353 0.03627451
0.84901961 0.75882353 0.046568627
0.87254902 0.75955882 0.059068627
0.88676471 0.7627451 0.063602941
0.90098039 0.76323529 0.067647059
0.91384804 0.76666667 0.067647059
0.92303922 0.77058824 0.067647059
0.92254902 0.77058824 0.071568627
0.92647059 0.77058824 0.071568627
0.0093137255 0.56078431 0.23970588
0.019117647 0.56685049 0.24577206
0.023406863 0.57205882 0.24558824
0.015686275 0.57113971 0.23137255
0.015196078 0.57181373 0.21740196
0.0098651961 0.57598039 0.18841912
0.0034313725 0.58284314 0.13137255
0.0072916667 0.59442402 0.063296569
0.11519608 0.61862745 0.010784314
0.31691176 0.65 0
0.42095588 0.67953431 0.0013480392
0.51666667 0.70435049 0.0039215686
0.60514706 0.73063725 0.0078431373
0.68921569 0.75294118 0.012254902
0.74754902 0.76666667 0.022058824
0.79491422 0.77303922 0.033823529
0.83137255 0.77598039 0.042647059
0.86060049 0.77726716 0.056862745
0.88284314 0.77941176 0.063602941
0.90006127 0.78333333 0.070526961
0.91127451 0.78382353 0.074509804
0.925 0.7872549 0.077941176
0.9314951 0.7872549 0.077941176
0.93069853 0.7872549 0.079718137
0.93676471 0.7877451 0.081862745
0.0098039216 0.57058824 0.24705882
0.022058824 0.57647059 0.24852941
0.025490196 0.57892157 0.24460784
0.016666667 0.57867647 0.23235294
0.0078431373 0.57843137 0.2127451
0.01127451 0.58676471 0.1752451
0.00098039216 0.59019608 0.10637255
0.026470588 0.61053922 0.061519608
0.12941176 0.62941176 0.0058823529
0.29411765 0.66421569 0.0039215686
0.42941176 0.69509804 0.0039215686
0.53039216 0.71862745 0
0.62058824 0.74313725 0.0058823529
0.6995098 0.76764706 0.014705882
0.76323529 0.78284314 0.031372549
0.80980392 0.78897059 0.044607843
0.84117647 0.79215686 0.052941176
0.86887255 0.79215686 0.063235294
0.89068627 0.79509804 0.071078431
0.91078431 0.79803922 0.07622549
0.9254902 0.79803922 0.079411765
0.93578431 0.8002451 0.080637255
0.94068627 0.80196078 0.083823529
0.93921569 0.80196078 0.088235294
0.94117647 0.80196078 0.088235294
0.019607843 0.58480392 0.25931373
0.032843137 0.58265931 0.25294118
0.033823529 0.58480392 0.2435049
0.024448529 0.58958333 0.2401348
0.0058823529 0.59093137 0.2120098
0.0034313725 0.60006127 0.15618873
0 0.60306373 0.096078431
0.063848039 0.62175245 0.039338235
0.16764706 0.64803922 0.0044117647
0.32959559 0.68155637 0.0039215686
0.44571078 0.70968137 0.0039215686
0.54172794 0.73284314 0.00049019608
0.63235294 0.75367647 0.0041666667
0.70716912 0.77444853 0.021078431
0.77487745 0.79411765 0.038602941
0.83026961 0.80655637 0.054595588
0.85539216 0.80441176 0.059313725
0.88253676 0.80441176 0.069117647
0.90355392 0.80833333 0.075490196
0.92107843 0.80833333 0.08192402
0.9377451 0.80857843 0.082843137
0.95 0.81231618 0.08627451
0.95392157 0.81237745 0.08627451
0.95343137 0.8122549 0.084313725
0.95392157 0.8127451 0.081862745
0.0058823529 0.59509804 0.26960784
0.012254902 0.59509804 0.26433824
0.021568627 0.59362745 0.24803922
0.017156863 0.59816176 0.22647059
0.0078431373 0.60637255 0.20980392
0.0046568627 0.61115196 0.15551471
0.018382353 0.61887255 0.071568627
0.091176471 0.6377451 0.018382353
0.22352941 0.66862745 0.0058823529
0.37254902 0.6995098 0.0039215686
0.47745098 0.72328431 0.0039215686
0.57009804 0.74705882 0.0039215686
0.65245098 0.76764706 0.012745098
0.71666667 0.78382353 0.02745098
0.77622549 0.79509804 0.042156863
0.82941176 0.80894608 0.056372549
0.86568627 0.81470588 0.065686275
0.89411765 0.81470588 0.073039216
0.91470588 0.81495098 0.079166667
0.9317402 0.81862745 0.085784314
0.94803922 0.82058824 0.089215686
0.96421569 0.82561275 0.090196078
0.96862745 0.82647059 0.086519608
0.96556373 0.82254902 0.074019608
0.97058824 0.82647059 0.067647059
0.0068627451 0.60539216 0.27990196
0.0083946078 0.60539216 0.27352941
0.019607843 0.60183824 0.24840686
0.019607843 0.61636029 0.22806373
0.017156863 0.61911765 0.14656863
0.0011029412 0.62567402 0.14258578
0.017769608 0.63713235 0.050490196
0.12414216 0.65594363 0.0099877451
0.28480392 0.68529412 0.0039215686
0.40502451 0.71133578 0.0039215686
0.50085784 0.73345588 0.0035539216
0.59117647 0.75735294 0.0073529412
0.66029412 0.77671569 0.015441176
0.721875 0.79001225 0.026654412
0.77879902 0.80012255 0.037132353
0.83235294 0.81323529 0.047058824
0.8745098 0.81960784 0.059803922
0.89993873 0.82107843 0.072487745
0.92107843 0.82169118 0.083823529
0.94166667 0.825 0.082659314
0.95637255 0.82745098 0.087745098
0.97089461 0.83186275 0.083639706
0.97647059 0.83235294 0.084926471
0.9716299 0.8283701 0.073468137
0.97794118 0.83137255 0.079901961
0.023529412 0.61568627 0.29019608
0.019607843 0.61568627 0.27990196
0.019607843 0.61666667 0.26764706
0.019607843 0.62352941 0.22647059
0.0098039216 0.63137255 0.12745098
0.0034313725 0.63333333 0.10637255
0.0029411765 0.65294118 0.010784314
0.13578431 0.66960784 0.025490196
0.35686275 0.70196078 0
0.42990196 0.72009804 0.0024509804
0.51372549 0.74019608 0.0029411765
0.6004902 0.76372549 0.0034313725
0.67058824 0.78627451 0.0058823529
0.72794118 0.79607843 0.020588235
0.78235294 0.80196078 0.035294118
0.83872549 0.81715686 0.036764706
0.88235294 0.82352941 0.043137255
0.90686275 0.825 0.06372549
0.92647059 0.8245098 0.082352941
0.94411765 0.82745098 0.085784314
0.96078431 0.83137255 0.096078431
0.97696078 0.83578431 0.07254902
0.98039216 0.83529412 0.079411765
0.975 0.83137255 0.07254902
0.98431373 0.83529412 0.098039216
0.010294118 0.0078431373 0.011764706
0.015134804 0.011213235 0.011764706
0.022426471 0.01629902 0.015686275
0.029595588 0.01942402 0.018137255
0.037254902 0.019607843 0.019607843
0.045772059 0.023529412 0.017830882
0.05502451 0.024632353 0.015686275
0.09307598 0.032843137 0.016237745
0.13578431 0.039215686 0.017156863
0.18094363 0.045588235 0.016237745
0.23186275 0.045955882 0.010784314
0.28302696 0.039889706 0.0041053922
0.32328431 0.027941176 0
0.37205882 0.01942402 0
0.425 0.015686275 0
0.47052696 0.011764706 0
0.5004902 0.011764706 0.0024509804
0.52598039 0.010294118 0.003002451
0.54558824 0.0018382353 0
0.56470588 0 0
0.57745098 0 0
0.58578431 0.0026348039 0
0.59276961 0.0093137255 0
0.60882353 0.018137255 0
0.60637255 0.0039215686 0
0.013296569 0.017585784 0.015134804
0.016643689 0.018137255 0.016436887
0.023115809 0.022058824 0.019056373
0.029595588 0.022058824 0.019538909
0.037254902 0.023284314 0.021139706
0.050068934 0.030093444 0.021254596
0.064935662 0.035661765 0.022058824
0.098874081 0.042792586 0.022058824
0.14215686 0.049509804 0.022610294
0.18915441 0.053431373 0.019952512
0.24117647 0.053431373 0.010784314
0.28939951 0.046377145 0.0041053922
0.33480392 0.036550245 0.0019607843
0.38204657 0.028056066 0
0.42699142 0.016911765 0
0.46960784 0.011764706 0
0.50257353 0.015686275 0.00091911765
0.52990196 0.015196078 0.00034466912
0.55179228 0.0077665441 0
0.5733992 0.0012254902 0
0.58651961 0 0
0.59344363 0.0025199142 0
0.60245098 0.0089307598 0
0.6127451 0.029901961 0
0.61366422 0.030882353 0
0.016666667 0.029411765 0.020588235
0.019990809 0.032352941 0.023912377
0.025245098 0.032720588 0.024509804
0.031770833 0.033333333 0.024509804
0.041666667 0.036580882 0.027205882
0.056862745 0.041544118 0.028063725
0.076838235 0.048498775 0.028063725
0.10660233 0.053814338 0.027833946
0.14754902 0.059803922 0.02745098
0.19676777 0.06372549 0.021078431
0.25147059 0.063817402 0.013235294
0.30294118 0.061197917 0.0044117647
0.35098039 0.050796569 0.0019607843
0.39754902 0.040686275 0
0.43961397 0.031280637 0
0.48042279 0.027864583 0
0.51458333 0.036397059 0
0.54509804 0.04463848 0
0.56829044 0.037622549 0
0.58884804 0.027711397 0
0.60220588 0.024203431 0
0.60837929 0.027083333 0
0.61685049 0.041482843 0
0.62810968 0.06260723 0
0.63296569 0.067279412 0
0.019607843 0.046078431 0.030882353
0.023345588 0.046384804 0.030882353
0.028431373 0.046568627 0.030882353
0.034803922 0.046568627 0.030882353
0.045098039 0.050398284 0.032444853
0.060232843 0.054901961 0.033678002
0.083823529 0.06127451 0.034803922
0.11236979 0.066176471 0.034321385
0.15116422 0.070098039 0.031372549
0.20497089 0.075359988 0.021269914
