site/assets/luts/sha256-18bb16d2887680d97cd5f68b3e486dee9d7caf4d7c88ac77b67da1fe5942305e.cube
# LUTr-Schema-Version: 2
# LUTr-ID: sha256-18bb16d2887680d97cd5f68b3e486dee9d7caf4d7c88ac77b67da1fe5942305e
# LUTr-Title: warm highlight
# LUTr-Collection: Natron HaldCLUT
# LUTr-Collection-ID: natron-haldclut-presets
# LUTr-Source: https://github.com/NatronGitHub/clut
# LUTr-Retrieved: 2026-07-27
# LUTr-Source-File: submissions/natron-haldclut-presets/various/warm_highlight.png
# LUTr-Source-Format: HALD-PNG
# LUTr-Source-SHA256: 18bb16d2887680d97cd5f68b3e486dee9d7caf4d7c88ac77b67da1fe5942305e
# LUTr-License: CC-BY-SA-4.0
# LUTr-License-URL: https://github.com/NatronGitHub/clut#license
# LUTr-License-Basis: repo-license-file
# LUTr-Transform-Class: film-emulation
# LUTr-Tags: creative, film, film-emulation, hald-clut, natron, png, warm, cube
# LUTr-Input-Color-Space: srgb
# LUTr-Input-Gamut: rec709
# LUTr-Input-Transfer: srgb
# LUTr-Output-Color-Space: srgb
# LUTr-Output-Gamut: rec709
# LUTr-Output-Transfer: srgb
# LUTr-Color-Space-Confidence: assumed-display-referred
# LUTr-Domain-Normalized: true
# LUTr-Shaper: none
# LUTr-Original-Grid: 64x64x64
# LUTr-Conversion-Grid: 25x25x25
# LUTr-Conversion-Interpolation: trilinear
# LUTr-Conversion-Method: HALD-PNG LUT image decoded at 16-bit and sampled to 25x25x25 3D CUBE
# LUTr-Conversion-Tool: LUTr scripts/convert-all-to-cube.mjs 2.0.0
# LUTr-Conversion-Date: 2026-07-27
# LUTr-Note: Preserve this metadata and the upstream license notices when redistributing.
TITLE "warm highlight"
LUT_3D_SIZE 5
DOMAIN_MIN 0 0 0
DOMAIN_MAX 1 1 1
0.047058824 0.035294118 0.023529412
0.24215686 0.068627451 0.049019608
0.7372549 0.062745098 0.043137255
0.95882353 0.060784314 0.045098039
1 0.058823529 0.043137255
0.055882353 0.16372549 0.028431373
0.21740196 0.17622549 0.032843137
0.7377451 0.20784314 0.046078431
0.96078431 0.19852941 0.040441176
1 0.21372549 0.045098039
0.066666667 0.59411765 0.037254902
0.23921569 0.61323529 0.044607843
0.74509804 0.62254902 0.055882353
0.96078431 0.60588235 0.044607843
1 0.59411765 0.043137255
0.067647059 0.93039216 0.042156863
0.27205882 0.93529412 0.064460784
0.76617647 0.93235294 0.07745098
0.95808824 0.92058824 0.031127451
1 0.94313725 0.081372549
0.10196078 1 0.082352941
0.27254902 1 0.064705882
0.77058824 1 0.070588235
0.96176471 1 0.058823529
1 1 0.035294118
0.11372549 0.098039216 0.19019608
0.34117647 0.125 0.21102941
0.79558824 0.13137255 0.22156863
0.97058824 0.12769608 0.2245098
1 0.1254902 0.22352941
0.12573529 0.2747549 0.19313725
0.33903186 0.29080882 0.20606618
0.80343137 0.30968137 0.23088235
0.96905637 0.30845588 0.22205882
1 0.27352941 0.19240196
0.11960784 0.67254902 0.18872549
0.34019608 0.69313725 0.21384804
0.78970588 0.69387255 0.22867647
0.96188725 0.68492647 0.20281863
1 0.67009804 0.18676471
0.12328431 0.94093137 0.19411765
0.34117647 0.94313725 0.21905637
0.79117647 0.9439951 0.23909314
0.96960784 0.94313725 0.21501225
1 0.94289216 0.19509804
0.12941176 0.99607843 0.19803922
0.35294118 1 0.23137255
0.79754902 1 0.23480392
0.96887255 1 0.23333333
1 1 0.18823529
0.16078431 0.13529412 0.52352941
0.36127451 0.1372549 0.50931373
0.80294118 0.13333333 0.51764706
0.96960784 0.13333333 0.51470588
1 0.16666667 0.50588235
0.17352941 0.30882353 0.51666667
0.35526961 0.30821078 0.50882353
0.78946078 0.31593137 0.51004902
0.96568627 0.32071078 0.5310049
1 0.31568627 0.51176471
0.15588235 0.69803922 0.52647059
0.37352941 0.70392157 0.50759804
0.79607843 0.69705882 0.52990196
0.96617647 0.69117647 0.52181373
0.99803922 0.69705882 0.53235294
0.15441176 0.94705882 0.52401961
0.35257353 0.94595588 0.53039216
0.7870098 0.94387255 0.53406863
0.96666667 0.94693627 0.5254902
0.99607843 0.93137255 0.50294118
0.1745098 0.99607843 0.52156863
0.35980392 0.99754902 0.52941176
0.80196078 1 0.53823529
0.96568627 1 0.54607843
1 0.99803922 0.49607843
0.12254902 0.1 0.88627451
0.3379902 0.11960784 0.88406863
0.79754902 0.13529412 0.89705882
0.96642157 0.13308824 0.89509804
1 0.14509804 0.88627451
0.12647059 0.26642157 0.89313725
0.33946078 0.29564951 0.89761029
0.80514706 0.30588235 0.89362745
0.96960784 0.31568627 0.8879902
1 0.31004902 0.90122549
0.1127451 0.67009804 0.89558824
0.33627451 0.68578431 0.89460784
0.80490196 0.68602941 0.89705882
0.96666667 0.69105392 0.89840686
1 0.66715686 0.88088235
0.1129902 0.94019608 0.89313725
0.33137255 0.94632353 0.90153186
0.80122549 0.94448529 0.89485294
0.96550245 0.94197304 0.89019608
1 0.93823529 0.89240196
0.1245098 0.99607843 0.88921569
0.34901961 1 0.89877451
0.77254902 1 0.89166667
0.95882353 1 0.88946078
1 0.99607843 0.88921569
0.047058824 0.039215686 1
0.26176471 0.075490196 1
0.74509804 0.060784314 1
0.9627451 0.064705882 1
1 0.062745098 1
0.054901961 0.17058824 1
0.22377451 0.18039216 1
0.75098039 0.21470588 1
0.96176471 0.22377451 1
1 0.20196078 1
0.058823529 0.59019608 1
0.25784314 0.62598039 1
0.74607843 0.60980392 1
0.95882353 0.60882353 1
1 0.59215686 1
0.075490196 0.92745098 1
0.24877451 0.93333333 1
0.78431373 0.93921569 1
0.95784314 0.91960784 0.99803922
0.99607843 0.92647059 0.96764706
0.12941176 1 1
0.24019608 1 1
0.78823529 1 0.99411765
0.96176471 0.99607843 0.98333333
0.99607843 0.99607843 0.98823529
