site/assets/luts/sha256-33c0ec3aa0b5a9c2e486e30c80bce72eba92d240003f09d36f488a1d26158fbd.cube
# LUTr-Schema-Version: 2
# LUTr-ID: sha256-33c0ec3aa0b5a9c2e486e30c80bce72eba92d240003f09d36f488a1d26158fbd
# LUTr-Title: polaroid px-70
# LUTr-Collection: Natron HaldCLUT
# LUTr-Collection-ID: natron-haldclut-presets
# LUTr-Source: https://github.com/NatronGitHub/clut
# LUTr-Retrieved: 2026-07-27
# LUTr-Source-File: submissions/natron-haldclut-presets/instant_consumer/polaroid_px-70.png
# LUTr-Source-Format: HALD-PNG
# LUTr-Source-SHA256: 33c0ec3aa0b5a9c2e486e30c80bce72eba92d240003f09d36f488a1d26158fbd
# LUTr-License: CC-BY-SA-4.0
# LUTr-License-URL: https://github.com/NatronGitHub/clut#license
# LUTr-License-Basis: repo-license-file
# LUTr-Transform-Class: film-emulation
# LUTr-Tags: creative, film, film-emulation, hald-clut, natron, png, cube
# LUTr-Input-Color-Space: srgb
# LUTr-Input-Gamut: rec709
# LUTr-Input-Transfer: srgb
# LUTr-Output-Color-Space: srgb
# LUTr-Output-Gamut: rec709
# LUTr-Output-Transfer: srgb
# LUTr-Color-Space-Confidence: assumed-display-referred
# LUTr-Domain-Normalized: true
# LUTr-Shaper: none
# LUTr-Original-Grid: 64x64x64
# LUTr-Conversion-Grid: 25x25x25
# LUTr-Conversion-Interpolation: trilinear
# LUTr-Conversion-Method: HALD-PNG LUT image decoded at 16-bit and sampled to 25x25x25 3D CUBE
# LUTr-Conversion-Tool: LUTr scripts/convert-all-to-cube.mjs 2.0.0
# LUTr-Conversion-Date: 2026-07-27
# LUTr-Note: Preserve this metadata and the upstream license notices when redistributing.
TITLE "polaroid px-70"
LUT_3D_SIZE 25
DOMAIN_MIN 0 0 0
DOMAIN_MAX 1 1 1
0 0.17254902 0.20784314
0 0.17254902 0.20784314
0 0.17156863 0.20784314
0 0.16862745 0.20784314
0 0.16470588 0.20784314
0.0039215686 0.16421569 0.20392157
0.0039215686 0.16078431 0.20392157
0.0078431373 0.15686275 0.20392157
0.058823529 0.16078431 0.20392157
0.11176471 0.16078431 0.20392157
0.1754902 0.16470588 0.20490196
0.24411765 0.16862745 0.20784314
0.31176471 0.17254902 0.20784314
0.41666667 0.18872549 0.20392157
0.5127451 0.20294118 0.20392157
0.60392157 0.21323529 0.2
0.68627451 0.22352941 0.19607843
0.76617647 0.24460784 0.19215686
0.83333333 0.3127451 0.18823529
0.88431373 0.35147059 0.18088235
0.9254902 0.38039216 0.17254902
0.94215686 0.4254902 0.18872549
0.95882353 0.47058824 0.20588235
0.97794118 0.51960784 0.22254902
0.99215686 0.55294118 0.23529412
0 0.17254902 0.20784314
0 0.17254902 0.20784314
0 0.17254902 0.20784314
0 0.16893382 0.20784314
0 0.16789216 0.20784314
0.0039215686 0.16470588 0.20735294
0.0057598039 0.16470588 0.20392157
0.023468137 0.16715686 0.20392157
0.075490196 0.16715686 0.20392157
0.12604167 0.16715686 0.20392157
0.18823529 0.17169118 0.20392157
0.26292892 0.17843137 0.20784314
0.33553922 0.18480392 0.20784314
0.43302696 0.19773284 0.20735294
0.52941176 0.2122549 0.20392157
0.61813725 0.22352941 0.2
0.69803922 0.23627451 0.19607843
0.76709559 0.25876225 0.18970588
0.83039216 0.3127451 0.18578431
0.88167892 0.35392157 0.17696078
0.91960784 0.39313725 0.17573529
0.94215686 0.43186275 0.18498775
0.95882353 0.47634804 0.20232843
0.97794118 0.52261029 0.21954657
0.99215686 0.55294118 0.23137255
0 0.17352941 0.20784314
0 0.17254902 0.20784314
0 0.17254902 0.20784314
0 0.17254902 0.20784314
0 0.16960784 0.20784314
0.0044117647 0.16960784 0.20784314
0.014705882 0.17352941 0.20392157
0.04252451 0.17745098 0.20392157
0.096078431 0.17745098 0.20392157
0.15 0.17745098 0.20392157
0.20955882 0.18210784 0.20392157
0.28480392 0.18872549 0.20772059
0.3627451 0.19558824 0.20784314
0.45245098 0.20931373 0.2064951
0.54534314 0.22254902 0.20392157
0.63088235 0.23627451 0.2
0.70294118 0.25588235 0.19215686
0.77107843 0.27708333 0.18578431
0.83308824 0.31936275 0.18259804
0.87683824 0.35980392 0.18039216
0.91519608 0.40686275 0.17745098
0.94215686 0.44656863 0.18480392
0.95980392 0.48333333 0.19730392
0.97794118 0.52745098 0.21262255
0.99215686 0.55784314 0.22352941
0 0.17647059 0.20784314
0 0.17647059 0.20784314
0 0.17598039 0.20784314
0 0.17254902 0.20784314
0.0019607843 0.17598039 0.20784314
0.0048406863 0.18033088 0.20784314
0.022426471 0.18382353 0.20392157
0.055208333 0.1877451 0.20392157
0.1127451 0.1877451 0.20392157
0.16715686 0.1877451 0.20392157
0.22205882 0.18872549 0.20392157
0.29754902 0.19515931 0.20392157
0.38161765 0.20759804 0.20441176
0.46966912 0.21960784 0.20392157
0.55931373 0.23284314 0.20392157
0.64117647 0.2495098 0.19852941
0.70931373 0.27009804 0.19215686
0.78137255 0.29068627 0.18216912
0.83786765 0.32634804 0.17696078
0.87303922 0.37352941 0.18039216
0.91004902 0.42083333 0.18039216
0.94215686 0.46372549 0.18137255
0.9627451 0.49803922 0.1942402
0.97941176 0.53088235 0.20557598
0.99215686 0.56421569 0.21617647
0 0.18627451 0.20784314
0 0.18431373 0.20784314
0 0.18382353 0.20784314
0 0.18235294 0.20784314
0 0.18529412 0.20784314
0.0044117647 0.19068627 0.20759804
0.017647059 0.19705882 0.20392157
0.059803922 0.19803922 0.20392157
0.12156863 0.19803922 0.20392157
0.175 0.19411765 0.20269608
0.22941176 0.19460784 0.2004902
0.30735294 0.20514706 0.20196078
0.39705882 0.21960784 0.20392157
0.48455882 0.23382353 0.20392157
0.57058824 0.24607843 0.2004902
0.65073529 0.26053922 0.19852941
0.71960784 0.28823529 0.18823529
0.78651961 0.3127451 0.17916667
0.83872549 0.34705882 0.17647059
0.8747549 0.39362745 0.1745098
0.91372549 0.43823529 0.1745098
0.94803922 0.48210784 0.175
0.96519608 0.51323529 0.18872549
0.98063725 0.54166667 0.1995098
0.99411765 0.57058824 0.20784314
0 0.20882353 0.20784314
0 0.20539216 0.20784314
0 0.20539216 0.20784314
0 0.20496324 0.20784314
0 0.20122549 0.20784314
0.00042892157 0.20441176 0.20392157
0.013235294 0.20747549 0.20392157
0.059803922 0.20833333 0.20392157
0.12205882 0.2122549 0.20392157
0.18118873 0.2127451 0.2
0.23921569 0.21335784 0.2
0.3216299 0.22408088 0.2
0.41053922 0.24068627 0.2
0.49852941 0.25686275 0.2
0.58088235 0.27107843 0.19963235
0.65765931 0.29068627 0.19411765
0.7254902 0.31519608 0.18431373
0.78743873 0.34607843 0.17647059
0.83921569 0.38186275 0.17647059
0.87738971 0.41960784 0.17254902
0.91593137 0.45612745 0.16838235
0.95042892 0.49656863 0.16862745
0.96764706 0.52708333 0.18198529
0.98137255 0.55637255 0.19362745
0.99166667 0.58039216 0.20392157
0 0.23627451 0.20784314
0 0.23443627 0.20784314
0 0.23308824 0.20784314
0 0.23235294 0.20784314
0 0.22843137 0.20784314
0 0.22107843 0.20392157
0.006127451 0.21862745 0.20392157
0.063112745 0.22303922 0.20392157
0.12843137 0.23333333 0.20392157
0.19595588 0.24203431 0.2
0.26372549 0.24901961 0.2
0.34215686 0.25919118 0.2
0.42598039 0.27303922 0.19705882
0.50882353 0.2877451 0.19705882
0.58897059 0.30416667 0.19387255
0.66421569 0.32156863 0.18676471
0.73235294 0.34607843 0.17745098
0.79166667 0.37696078 0.17291667
0.83995098 0.41666667 0.17254902
0.88039216 0.4504902 0.16997549
0.91764706 0.48235294 0.16519608
0.95085784 0.51286765 0.16139706
0.96372549 0.53823529 0.17843137
0.975 0.56666667 0.19362745
0.98431373 0.5872549 0.20392157
0 0.26715686 0.20784314
0 0.26323529 0.20784314
0 0.26115196 0.20784314
0 0.25931373 0.20784314
0 0.25931373 0.20784314
0.00018382353 0.25526961 0.20753676
0.0094362745 0.25159314 0.20539216
0.070588235 0.25980392 0.20392157
0.14411765 0.26862745 0.20392157
0.21617647 0.27800245 0.2
0.28823529 0.28492647 0.19791667
0.36372549 0.29411765 0.19607843
0.44460784 0.30441176 0.19607843
0.52303922 0.31862745 0.19430147
0.59852941 0.33578431 0.1877451
0.67205882 0.35637255 0.17892157
0.74656863 0.37843137 0.17107843
0.79411765 0.41029412 0.16715686
0.83529412 0.4432598 0.16715686
0.87518382 0.47598039 0.16501225
0.91029412 0.50686275 0.16078431
0.94068627 0.53333333 0.16470588
0.95551471 0.55392157 0.17512255
0.96862745 0.57843137 0.19362745
0.97647059 0.59754902 0.20784314
0 0.29803922 0.20784314
0 0.29803922 0.20784314
0 0.29313725 0.20784314
0 0.28627451 0.20784314
0 0.28431373 0.20784314
0.0039215686 0.30147059 0.20784314
0.01372549 0.29411765 0.20784314
0.074509804 0.2995098 0.20392157
0.15294118 0.31372549 0.20392157
0.23137255 0.31764706 0.2
0.30882353 0.32156863 0.19607843
0.38431373 0.32892157 0.19215686
0.45882353 0.33921569 0.19215686
0.53676471 0.35392157 0.18823529
0.60882353 0.3745098 0.18137255
0.68480392 0.39509804 0.17107843
0.75686275 0.41960784 0.16470588
0.79166667 0.43872549 0.16078431
0.82745098 0.46568627 0.16078431
0.86519608 0.49656863 0.16078431
0.9 0.5254902 0.16078431
0.93039216 0.55392157 0.16127451
0.94803922 0.5745098 0.17156863
0.9622549 0.59509804 0.19117647
0.97254902 0.61568627 0.21568627
0.0024509804 0.34558824 0.20784314
0.0024509804 0.34466912 0.20784314
0.0024509804 0.33737745 0.20784314
0.00030637255 0.32677696 0.20784314
0 0.32254902 0.20784314
0.0034313725 0.34852941 0.20753676
0.0018382353 0.33161765 0.20392157
0.07935049 0.34460784 0.20392157
0.16568627 0.36127451 0.20147059
0.24558824 0.36911765 0.19846814
0.32365196 0.36911765 0.1932598
0.40116422 0.37628676 0.18841912
0.47745098 0.39387255 0.18504902
0.55373775 0.41176471 0.18008578
0.63186275 0.43235294 0.17463235
0.70300245 0.45294118 0.16770833
0.75931373 0.47107843 0.16078431
0.79558824 0.48045343 0.15833333
0.82708333 0.49803922 0.15833333
0.86127451 0.52009804 0.15686275
0.89485294 0.54411765 0.15367647
0.92665441 0.57058824 0.15441176
0.94411765 0.59117647 0.16127451
0.95588235 0.60784314 0.18180147
0.96617647 0.62205882 0.20539216
0.0049019608 0.40588235 0.20686275
0.0049019608 0.40306373 0.20392157
0.0049019608 0.39803922 0.20392157
0.0049019608 0.39154412 0.20392157
0.0039215686 0.39117647 0.20392157
0.0040441176 0.40416667 0.20392157
0.015686275 0.39901961 0.20392157
0.089338235 0.40404412 0.2
0.17745098 0.41372549 0.19901961
0.26017157 0.42058824 0.19546569
0.33921569 0.42230392 0.19019608
0.42071078 0.43186275 0.18345588
0.5 0.4504902 0.17941176
0.58235294 0.47254902 0.17512255
0.65808824 0.49338235 0.16936275
0.71421569 0.50833333 0.16433824
0.76568627 0.52254902 0.15588235
0.8004902 0.53039216 0.15294118
0.83357843 0.54215686 0.15196078
0.8622549 0.55625 0.15196078
0.89215686 0.57205882 0.14901961
0.92303922 0.58811275 0.14497549
0.93946078 0.60490196 0.15490196
0.94620098 0.6185049 0.17512255
0.95196078 0.63235294 0.19117647
0.01127451 0.46372549 0.20392157
0.011764706 0.46372549 0.20392157
0.010416667 0.45980392 0.2004902
0.0078431373 0.45931373 0.2004902
0.0075980392 0.45931373 0.2
0.0049632353 0.46029412 0.2004902
0.02254902 0.46323529 0.2004902
0.096384804 0.46783088 0.19656863
0.18823529 0.47205882 0.19607843
0.27745098 0.47579657 0.19001225
0.35894608 0.47953431 0.18345588
0.43823529 0.48719363 0.17738971
0.51887255 0.50686275 0.17279412
0.60294118 0.5283701 0.16905637
0.67585784 0.54938725 0.16862745
0.7245098 0.55980392 0.16109069
0.77254902 0.57401961 0.15294118
0.80735294 0.58186275 0.14901961
0.8377451 0.58333333 0.1442402
0.865625 0.59362745 0.14466912
0.89583333 0.60808824 0.14509804
0.91911765 0.61862745 0.14901961
0.93370098 0.62892157 0.16311275
0.94136029 0.63970588 0.1776348
0.94558824 0.65 0.19215686
0.01372549 0.52156863 0.2
0.018382353 0.52034314 0.2
0.011764706 0.51764706 0.19803922
0.013480392 0.52132353 0.19803922
0.01372549 0.52058824 0.19607843
0.0058823529 0.51740196 0.19607843
0.01127451 0.51568627 0.19411765
0.099264706 0.52034314 0.19338235
0.21960784 0.5254902 0.19215686
0.30735294 0.53063725 0.1870098
0.38137255 0.53578431 0.17941176
0.45318627 0.54264706 0.17083333
0.53431373 0.56078431 0.16862745
0.61127451 0.57916667 0.16862745
0.68382353 0.59803922 0.16862745
0.73137255 0.60735294 0.1620098
0.77647059 0.61960784 0.15098039
0.81127451 0.6247549 0.14583333
0.84117647 0.62745098 0.14019608
0.86911765 0.62916667 0.13529412
0.89411765 0.63921569 0.14019608
0.9127451 0.6495098 0.16176471
0.92794118 0.65980392 0.18088235
0.9372549 0.66617647 0.19362745
0.94117647 0.67058824 0.19803922
0.011764706 0.57941176 0.19558824
0.021752451 0.57696078 0.19607843
0.010416667 0.575 0.19215686
0.015625 0.57849265 0.19215686
0.017892157 0.57892157 0.19215686
0.025796569 0.57542892 0.19215686
0.062990196 0.5745098 0.19227941
0.18314951 0.58118873 0.19215686
0.28039216 0.58284314 0.19215686
0.34822304 0.58284314 0.18841912
0.41531863 0.58370098 0.18382353
0.48088235 0.58976716 0.18088235
0.54215686 0.60196078 0.175
0.60778186 0.61770833 0.17297794
0.67634804 0.63186275 0.17254902
0.72892157 0.64264706 0.16734069
0.77254902 0.65294118 0.15735294
0.80686275 0.66029412 0.15343137
0.8377451 0.66421569 0.14865196
0.86862745 0.66421569 0.14258578
0.89019608 0.67009804 0.1504902
0.90680147 0.68033088 0.17401961
0.92352941 0.68762255 0.19497549
0.93480392 0.69528186 0.20980392
0.94117647 0.69901961 0.21617647
0.00098039216 0.64117647 0.18921569
0.014093137 0.63541667 0.19215686
0.0046568627 0.62941176 0.18823529
0.018259804 0.63039216 0.18909314
0.035294118 0.63431373 0.18970588
0.11789216 0.63333333 0.19522059
0.20367647 0.6379902 0.19607843
0.26458333 0.63884804 0.19803922
0.31862745 0.63431373 0.19509804
0.38223039 0.63039216 0.19509804
0.44926471 0.63063725 0.19509804
0.51213235 0.6377451 0.19154412
0.56764706 0.64509804 0.1872549
0.62009804 0.65539216 0.18284314
0.67328431 0.66642157 0.17573529
0.72892157 0.67696078 0.17107843
0.76960784 0.6872549 0.16470588
0.8004902 0.69117647 0.16666667
0.83137255 0.69509804 0.16960784
0.8622549 0.69509804 0.17303922
0.88676471 0.70098039 0.17990196
0.90379902 0.70735294 0.19375
0.92058824 0.71470588 0.20955882
0.93480392 0.72107843 0.22401961
0.9372549 0.72352941 0.22647059
0.096078431 0.69362745 0.19901961
0.098406863 0.68970588 0.19901961
0.11519608 0.68578431 0.19509804
0.14644608 0.68578431 0.19852941
0.18848039 0.6877451 0.20294118
0.25012255 0.68970588 0.20539216
0.30122549 0.68529412 0.2122549
0.32843137 0.67591912 0.21862745
0.36960784 0.675 0.21470588
0.42113971 0.67647059 0.2098652
0.48296569 0.67892157 0.20539216
0.54656863 0.68529412 0.20196078
0.59583333 0.69485294 0.19901961
0.64197304 0.7004902 0.1963848
0.68921569 0.70686275 0.18970588
0.73468137 0.71268382 0.18143382
0.76862745 0.71813725 0.18480392
0.79558824 0.72150735 0.19117647
0.82647059 0.72267157 0.19718137
0.85735294 0.72598039 0.20245098
0.88235294 0.72990196 0.20882353
0.90116422 0.73645833 0.21911765
0.9185049 0.74129902 0.23088235
0.93241422 0.74650735 0.24209559
0.93578431 0.74803922 0.24509804
0.2627451 0.73333333 0.22352941
0.26764706 0.73333333 0.22107843
0.29019608 0.73333333 0.21568627
0.30490196 0.73333333 0.21960784
0.32745098 0.73137255 0.22352941
0.35784314 0.73284314 0.22401961
0.37843137 0.72647059 0.23039216
0.39901961 0.71617647 0.24068627
0.43137255 0.71372549 0.23921569
0.47892157 0.71764706 0.23284314
0.52647059 0.72647059 0.22254902
0.5745098 0.73333333 0.21911765
0.61960784 0.73529412 0.22352941
0.66470588 0.7377451 0.22745098
0.70980392 0.74411765 0.22745098
0.74411765 0.74509804 0.22745098
0.77254902 0.74509804 0.22745098
0.79705882 0.74901961 0.22745098
0.8254902 0.75294118 0.22745098
0.85343137 0.75294118 0.22745098
0.87843137 0.75882353 0.23333333
0.89852941 0.76470588 0.24362745
0.9127451 0.76862745 0.26078431
0.92696078 0.77254902 0.27745098
0.92941176 0.77254902 0.28627451
0.37598039 0.76813725 0.2504902
0.38088235 0.76813725 0.2504902
0.38676471 0.76360294 0.2504902
0.3877451 0.75814951 0.2504902
0.40857843 0.75784314 0.25441176
0.42598039 0.75784314 0.25441176
0.44767157 0.7567402 0.25882353
0.46862745 0.75245098 0.26464461
0.49460784 0.74852941 0.26617647
0.53186275 0.75245098 0.25980392
0.56997549 0.7567402 0.25404412
0.60196078 0.75998775 0.25655637
0.64019608 0.76617647 0.2627451
0.68529412 0.77205882 0.27126225
0.72463235 0.77561275 0.27254902
0.75104167 0.77506127 0.27107843
0.77892157 0.77598039 0.27745098
0.80098039 0.77689951 0.26862745
0.82647059 0.77806373 0.26470588
0.85343137 0.78137255 0.26256127
0.87843137 0.78529412 0.26078431
0.89246324 0.78921569 0.275
0.9060049 0.79276961 0.29448529
0.91966912 0.79705882 0.3122549
0.92696078 0.7995098 0.32352941
0.48431373 0.80196078 0.27843137
0.48247549 0.7995098 0.27843137
0.4754902 0.79313725 0.28039216
0.46960784 0.78627451 0.28137255
0.47941176 0.78284314 0.28529412
0.49264706 0.78333333 0.28480392
0.51348039 0.78333333 0.28504902
0.53431373 0.78333333 0.29031863
0.55490196 0.78333333 0.29313725
0.57904412 0.78333333 0.29313725
0.60661765 0.78333333 0.29338235
0.63419118 0.78590686 0.29754902
0.66960784 0.79215686 0.30392157
0.70968137 0.79938725 0.31372549
0.73651961 0.80196078 0.31446078
0.75686275 0.80196078 0.31164216
0.78039216 0.80196078 0.30882353
0.80490196 0.80196078 0.30588235
0.82941176 0.80294118 0.30416667
0.85343137 0.80588235 0.30294118
0.8745098 0.80637255 0.30637255
0.89105392 0.81029412 0.31556373
0.90490196 0.81666667 0.33137255
0.91519608 0.81973039 0.34987745
0.9254902 0.82254902 0.36372549
0.54607843 0.82254902 0.32303922
0.54234069 0.81881127 0.31960784
0.54080882 0.81372549 0.31568627
0.5377451 0.80735294 0.31525735
0.54754902 0.80686275 0.32156863
0.55876225 0.80686275 0.31960784
0.57512255 0.80943627 0.31960784
0.59264706 0.81029412 0.325
0.61323529 0.80686275 0.32745098
0.63008578 0.80686275 0.32745098
0.64362745 0.80772059 0.3314951
0.66813725 0.81078431 0.33872549
0.69877451 0.81642157 0.34509804
0.73290441 0.82254902 0.35104167
0.75134804 0.82254902 0.35110294
0.76930147 0.82647059 0.34754902
0.7877451 0.82598039 0.34362745
0.80863971 0.82628676 0.34313725
0.82941176 0.82647059 0.34411765
0.85 0.82990196 0.35006127
0.8745098 0.83039216 0.35441176
0.89068627 0.8338848 0.3627451
0.90490196 0.83811275 0.37352941
0.91648284 0.84215686 0.38792892
0.9254902 0.84607843 0.40196078
0.60392157 0.83921569 0.36470588
0.60196078 0.8379902 0.36078431
0.60245098 0.83529412 0.35686275
0.60931373 0.83137255 0.35686275
0.61960784 0.83137255 0.35882353
0.62965686 0.83137255 0.36078431
0.63823529 0.83137255 0.36421569
0.6504902 0.83137255 0.36862745
0.6627451 0.83137255 0.36862745
0.67303922 0.83137255 0.36862745
0.67990196 0.83137255 0.36960784
0.69901961 0.83308824 0.37598039
0.72352941 0.8372549 0.38333333
0.75 0.84142157 0.38823529
0.76715686 0.84313725 0.38676471
0.78455882 0.84460784 0.38431373
0.8 0.84705882 0.38235294
0.81544118 0.84705882 0.38284314
0.82941176 0.85098039 0.38921569
0.85 0.85269608 0.39779412
0.87058824 0.85490196 0.40196078
0.89068627 0.85539216 0.40833333
0.90392157 0.85882353 0.41862745
0.91666667 0.8627451 0.42892157
0.92941176 0.86666667 0.4372549
0.66127451 0.85980392 0.40539216
0.65784314 0.85588235 0.40196078
0.66262255 0.85588235 0.39803922
0.6721201 0.85588235 0.39803922
0.67843137 0.85588235 0.39803922
0.68431373 0.85196078 0.40196078
0.68860294 0.85196078 0.40453431
0.69754902 0.85196078 0.40949755
0.70784314 0.85196078 0.40980392
0.71176471 0.85196078 0.40980392
0.72046569 0.85196078 0.40980392
0.73082108 0.85539216 0.41372549
0.74828431 0.85784314 0.42132353
0.76666667 0.86023284 0.42506127
0.78688725 0.86372549 0.4254902
0.80245098 0.86372549 0.42371324
0.81666667 0.86764706 0.42205882
0.83039216 0.86764706 0.42156863
0.84068627 0.87120098 0.42647059
0.85441176 0.87457108 0.43676471
0.87107843 0.8754902 0.44705882
0.8872549 0.87941176 0.4533701
0.90392157 0.87941176 0.45931373
0.91697304 0.88333333 0.46421569
0.92941176 0.88333333 0.46813725
0.7127451 0.87647059 0.44313725
0.7127451 0.87647059 0.44313725
0.71372549 0.87647059 0.43921569
0.71752451 0.87647059 0.43921569
0.71960784 0.87303922 0.43921569
0.72585784 0.87254902 0.43933824
0.73235294 0.87254902 0.44313725
0.74117647 0.87254902 0.44705882
0.74607843 0.87254902 0.44803922
0.75183824 0.87254902 0.44803922
0.75857843 0.87254902 0.45098039
0.76556373 0.87340686 0.45196078
0.7754902 0.87647059 0.45588235
0.7872549 0.88039216 0.46017157
0.80490196 0.88431373 0.4627451
0.82120098 0.88431373 0.4627451
0.83431373 0.88823529 0.4627451
0.8439951 0.88823529 0.4627451
0.85392157 0.88848039 0.46691176
0.86519608 0.89215686 0.475
0.87941176 0.89607843 0.48529412
0.89068627 0.89705882 0.4872549
0.90490196 0.9 0.49019608
0.91911765 0.90036765 0.49509804
0.93235294 0.90392157 0.49901961
0.75882353 0.89705882 0.48039216
0.75882353 0.89705882 0.48039216
0.75919118 0.89705882 0.48039216
0.76029412 0.89705882 0.48039216
0.7627451 0.89460784 0.47843137
0.76844363 0.89313725 0.48039216
0.7745098 0.89313725 0.48394608
0.77935049 0.89313725 0.48431373
0.78235294 0.89313725 0.48431373
0.78633578 0.89221814 0.48284314
0.78933824 0.89166667 0.48284314
0.79479167 0.89166667 0.48498775
0.80245098 0.89558824 0.4879902
0.8127451 0.89969363 0.49479167
0.8254902 0.90453431 0.49963235
0.840625 0.90490196 0.5
0.85 0.90882353 0.50245098
0.859375 0.90882353 0.50245098
0.86911765 0.90882353 0.50392157
0.87941176 0.91096814 0.50980392
0.88970588 0.9127451 0.51421569
0.9 0.91519608 0.51685049
0.91029412 0.91666667 0.52107843
0.92359069 0.92058824 0.52598039
0.93480392 0.92058824 0.52990196
0.78823529 0.90980392 0.50588235
0.79068627 0.90980392 0.50588235
0.79313725 0.91078431 0.50980392
0.7995098 0.91372549 0.51372549
0.80392157 0.91372549 0.51764706
0.80392157 0.91372549 0.51372549
0.80392157 0.90980392 0.51372549
0.80784314 0.90980392 0.51372549
0.80784314 0.90588235 0.50980392
0.80784314 0.90343137 0.50343137
0.80784314 0.90196078 0.50196078
0.81127451 0.90196078 0.50196078
0.81960784 0.90588235 0.50784314
0.83186275 0.91029412 0.51813725
0.84607843 0.92058824 0.52843137
0.85637255 0.92401961 0.53333333
0.8627451 0.92156863 0.52941176
0.86911765 0.92156863 0.52941176
0.87941176 0.92156863 0.53039216
0.88970588 0.9254902 0.53333333
0.9 0.9254902 0.5372549
0.90637255 0.92941176 0.5377451
0.91666667 0.92941176 0.54411765
0.92843137 0.93480392 0.5504902
0.9372549 0.9372549 0.55686275
0 0.17254902 0.20784314
0 0.17254902 0.20784314
0 0.17254902 0.20784314
0 0.16862745 0.20784314
0 0.16666667 0.20784314
0.0017769608 0.16470588 0.20784314
0.0039215686 0.16078431 0.20453431
0.01807598 0.16078431 0.20392157
0.069117647 0.16078431 0.20637255
0.1245098 0.16415441 0.20637255
0.18578431 0.1692402 0.20784314
0.25441176 0.17254902 0.20784314
0.32598039 0.17696078 0.20784314
0.42696078 0.18921569 0.20784314
0.52879902 0.20588235 0.20637255
0.61721814 0.21715686 0.2033701
0.7004902 0.22990196 0.2
0.77254902 0.25784314 0.19515931
0.83970588 0.31629902 0.19215686
0.89068627 0.35753676 0.18351716
0.92156863 0.39068627 0.18602941
0.94215686 0.43186275 0.19509804
0.95882353 0.47414216 0.20870098
0.97886029 0.51960784 0.22254902
0.99215686 0.55294118 0.23529412
0 0.17254902 0.20784314
0 0.17254902 0.20784314
0 0.17254902 0.20784314
0 0.16862745 0.20784314
0 0.16862745 0.20784314
0.0039215686 0.16470588 0.20784314
0.0072457108 0.16470588 0.20591299
0.027389706 0.16619945 0.20392157
0.079411765 0.16715686 0.20392157
0.13275888 0.16868873 0.20637255
0.19566483 0.17492341 0.20784314
0.26685049 0.18106618 0.20784314
0.33918505 0.18480392 0.20784314
0.4372549 0.19773284 0.20784314
0.53664216 0.21041667 0.2067402
0.62751225 0.22352941 0.20392157
0.70533088 0.23719363 0.2
0.77310049 0.26717984 0.19385723
0.83901654 0.31928615 0.19109988
0.8881204 0.36146599 0.18676471
0.92110907 0.40098039 0.18648897
0.94215686 0.4403799 0.19509804
0.95980392 0.48065257 0.20580576
0.97941176 0.52352941 0.22050398
0.99215686 0.55631127 0.23137255
0 0.17254902 0.20784314
0 0.17254902 0.20784314
0 0.17254902 0.20784314
0 0.17094056 0.20784314
0 0.1689951 0.20784314
0.0044117647 0.16960784 0.20784314
0.013970588 0.17291667 0.20701593
0.043627451 0.17591912 0.20392157
0.097916667 0.17745098 0.20392157
0.15147059 0.17745098 0.20507047
0.21504289 0.18373162 0.2075674
0.28480392 0.18916973 0.20784314
0.35955882 0.19699755 0.20784314
0.44987745 0.20931373 0.20765931
0.54776348 0.22071078 0.20438113
0.63797488 0.23529412 0.20314032
0.70931373 0.25588235 0.19607843
0.77748162 0.28212316 0.19071691
0.83900123 0.32438725 0.18759191
0.8819087 0.36746324 0.18676471
0.91752451 0.41372549 0.1879902
0.94460784 0.45330882 0.19509804
0.9627451 0.49041054 0.20539216
0.97886029 0.52982537 0.21609988
0.99215686 0.55968137 0.22647059
0 0.17616422 0.20784314
0 0.17604933 0.20784314
0 0.17254902 0.20784314
0 0.17254902 0.20784314
0.0019607843 0.17426471 0.20784314
0.0082720588 0.17990196 0.20784314
0.018933824 0.18321078 0.20784314
0.055392157 0.18621324 0.20392157
