site/assets/luts/sha256-c33ad38b2786500152248245dd47d337df87ec7a8ea3d7348b0b32c1e2a1fff7.cube
# LUTr-Schema-Version: 2
# LUTr-ID: sha256-c33ad38b2786500152248245dd47d337df87ec7a8ea3d7348b0b32c1e2a1fff7
# LUTr-Title: polaroid px-100uv+ cold +
# LUTr-Collection: Natron HaldCLUT
# LUTr-Collection-ID: natron-haldclut-presets
# LUTr-Source: https://github.com/NatronGitHub/clut
# LUTr-Retrieved: 2026-07-27
# LUTr-Source-File: submissions/natron-haldclut-presets/instant_consumer/polaroid_px-100uv+_cold_+.png
# LUTr-Source-Format: HALD-PNG
# LUTr-Source-SHA256: c33ad38b2786500152248245dd47d337df87ec7a8ea3d7348b0b32c1e2a1fff7
# LUTr-License: CC-BY-SA-4.0
# LUTr-License-URL: https://github.com/NatronGitHub/clut#license
# LUTr-License-Basis: repo-license-file
# LUTr-Transform-Class: film-emulation
# LUTr-Tags: creative, film, film-emulation, hald-clut, natron, png, cool, cube
# LUTr-Input-Color-Space: srgb
# LUTr-Input-Gamut: rec709
# LUTr-Input-Transfer: srgb
# LUTr-Output-Color-Space: srgb
# LUTr-Output-Gamut: rec709
# LUTr-Output-Transfer: srgb
# LUTr-Color-Space-Confidence: assumed-display-referred
# LUTr-Domain-Normalized: true
# LUTr-Shaper: none
# LUTr-Original-Grid: 64x64x64
# LUTr-Conversion-Grid: 25x25x25
# LUTr-Conversion-Interpolation: trilinear
# LUTr-Conversion-Method: HALD-PNG LUT image decoded at 16-bit and sampled to 25x25x25 3D CUBE
# LUTr-Conversion-Tool: LUTr scripts/convert-all-to-cube.mjs 2.0.0
# LUTr-Conversion-Date: 2026-07-27
# LUTr-Note: Preserve this metadata and the upstream license notices when redistributing.
TITLE "polaroid px-100uv+ cold +"
LUT_3D_SIZE 9
DOMAIN_MIN 0 0 0
DOMAIN_MAX 1 1 1
0.23529412 0.30196078 0.30980392
0.24264706 0.30980392 0.32107843
0.25098039 0.31764706 0.3254902
0.3004902 0.35686275 0.36470588
0.3372549 0.38823529 0.39215686
0.40686275 0.44460784 0.44852941
0.45588235 0.48333333 0.4872549
0.51862745 0.54215686 0.53431373
0.57254902 0.59215686 0.57647059
0.2504902 0.31715686 0.325
0.25098039 0.31715686 0.3254902
0.2692402 0.33198529 0.34019608
0.30441176 0.35931373 0.36715686
0.34877451 0.39754902 0.40196078
0.40294118 0.4408701 0.44460784
0.46433824 0.49215686 0.49215686
0.54264706 0.5661152 0.55343137
0.58039216 0.6 0.58039216
0.28431373 0.34411765 0.35196078
0.28529412 0.3439951 0.35196078
0.28137255 0.34019608 0.3497549
0.31580882 0.37071078 0.37855392
0.36421569 0.40882353 0.41519608
0.40870098 0.44362745 0.44754902
0.47254902 0.50098039 0.49607843
0.54914216 0.56997549 0.55772059
0.60294118 0.62254902 0.59901961
0.31617647 0.36862745 0.37647059
0.32616422 0.375 0.38627451
0.33333333 0.38284314 0.39068627
0.35300245 0.39797794 0.40582108
0.38553922 0.42156863 0.42941176
0.43284314 0.4627451 0.46666667
0.48284314 0.50747549 0.5057598
0.55441176 0.57401961 0.56176471
0.62990196 0.64558824 0.61960784
0.38627451 0.4254902 0.43137255
0.37843137 0.41960784 0.4254902
0.38235294 0.42303922 0.42941176
0.40637255 0.44166667 0.44632353
0.42745098 0.45980392 0.46372549
0.46372549 0.48970588 0.48970588
0.50735294 0.52892157 0.5245098
0.56813725 0.5875 0.57156863
0.64117647 0.65686275 0.62745098
0.45245098 0.47990196 0.47990196
0.44754902 0.47745098 0.47745098
0.44362745 0.475 0.475
0.45637255 0.4877451 0.48627451
0.48333333 0.51004902 0.50808824
0.51421569 0.5377451 0.53143382
0.54852941 0.57107843 0.55637255
0.60655637 0.62598039 0.60245098
0.66813725 0.68382353 0.64852941
0.5372549 0.55980392 0.54705882
0.5372549 0.55980392 0.54803922
0.53627451 0.56053922 0.54730392
0.52598039 0.54742647 0.54068627
0.55147059 0.57254902 0.56078431
0.58664216 0.60625 0.58737745
0.60392157 0.62328431 0.59901961
0.64914216 0.66605392 0.63419118
0.71176471 0.72745098 0.68333333
0.64509804 0.66421569 0.63235294
0.64466912 0.66421569 0.62935049
0.63676471 0.65343137 0.62463235
0.63333333 0.64901961 0.62352941
0.64289216 0.65857843 0.63063725
0.66960784 0.68529412 0.64981618
0.69264706 0.70833333 0.66862745
0.72003676 0.73529412 0.69166667
0.76127451 0.77352941 0.72205882
0.7372549 0.75294118 0.70196078
0.74509804 0.76078431 0.70931373
0.7372549 0.75 0.70196078
0.74117647 0.75539216 0.70588235
0.74509804 0.75686275 0.70980392
0.75686275 0.76862745 0.71764706
0.78039216 0.79215686 0.7372549
0.78431373 0.79607843 0.74117647
0.80784314 0.81568627 0.75686275
0.25441176 0.31764706 0.32892157
0.26568627 0.32849265 0.33676471
0.27794118 0.33982843 0.34852941
0.3158701 0.37077206 0.37647059
0.36421569 0.40955882 0.41519608
0.42254902 0.45998775 0.46029412
0.48296569 0.50772059 0.5064951
0.5495098 0.56917892 0.55692402
0.58039216 0.6 0.58039216
0.24705882 0.31372549 0.32156863
0.26606158 0.32843137 0.33676471
0.28871017 0.3471201 0.35549939
0.32197457 0.37493873 0.38278186
0.36424632 0.41127451 0.41715686
0.42598039 0.45980392 0.46127451
0.48393076 0.51127451 0.50724571
0.55305607 0.57309283 0.55783548
0.58039216 0.6 0.58039216
0.29301471 0.35147059 0.35931373
0.29301471 0.35147059 0.35980392
0.31127451 0.36397059 0.37426471
0.33463542 0.38534007 0.3935049
0.36421569 0.40759804 0.41544118
0.42598039 0.45994179 0.46318934
0.49090074 0.51519608 0.51106005
0.55381434 0.57696078 0.56116728
0.60637255 0.62598039 0.60245098
0.34166667 0.38890931 0.39675245
0.3377451 0.38514859 0.39415594
0.34094669 0.38952206 0.39808517
0.36911765 0.41243873 0.42016697
0.40254289 0.43921569 0.44362745
0.43498775 0.4627451 0.46747089
0.49462316 0.51879596 0.51433824
0.56127451 0.58088235 0.56519608
0.63529412 0.65098039 0.62352941
0.40563725 0.44264706 0.44656863
0.40171569 0.43872549 0.44289216
0.40171569 0.43872549 0.44460784
0.41289828 0.44739583 0.45284926
0.44093137 0.47058824 0.47426471
0.47371324 0.49990809 0.50098039
0.51691176 0.5379902 0.53216912
0.57156863 0.59074755 0.575
0.64117647 0.65686275 0.62745098
0.47303922 0.5004902 0.496875
0.46917892 0.49920343 0.49656863
0.46911765 0.49656863 0.495144
0.46303615 0.49283854 0.49129136
0.48308824 0.51053922 0.50793505
0.51894148 0.54247089 0.53596814
0.56510417 0.58632047 0.57077206
0.6182981 0.63743873 0.61029412
0.67334559 0.68903186 0.65245098
0.53884804 0.55980392 0.54705882
0.54019608 0.55980392 0.55029105
0.54561887 0.56764706 0.55453431
0.54754902 0.57107843 0.55507047
0.56170343 0.58431373 0.56838235
0.58806679 0.60735294 0.5877451
0.62205882 0.63909314 0.61421569
0.66519608 0.68356311 0.648269
0.71568627 0.73137255 0.6872549
0.64460784 0.66078431 0.62892157
0.64509804 0.66459099 0.63283548
0.64895833 0.66770833 0.63584559
0.65196078 0.66764706 0.63611366
0.65983456 0.6754902 0.64368873
0.66960784 0.68382353 0.64981618
0.7 0.71311275 0.67254902
0.73480392 0.7504902 0.70251225
0.76519608 0.77738971 0.72598039
0.74117647 0.75686275 0.70588235
0.74509804 0.76078431 0.70980392
0.74117647 0.75379902 0.70588235
0.75147059 0.76452206 0.71354167
0.74901961 0.76078431 0.71029412
0.75833333 0.77009804 0.71893382
0.77340686 0.78517157 0.72941176
0.78480392 0.79650735 0.74117647
0.8122549 0.82009804 0.76470588
0.27745098 0.34019608 0.34803922
0.29301471 0.35196078 0.35980392
0.30392157 0.35980392 0.36764706
0.3372549 0.38860294 0.3942402
0.39509804 0.43627451 0.43872549
0.45294118 0.48431373 0.48284314
0.50686275 0.53039216 0.5254902
0.57561275 0.59607843 0.57647059
0.62941176 0.64509804 0.61764706
0.29693627 0.35490196 0.3627451
0.30462623 0.35845588 0.36763174
0.31927083 0.37046569 0.37907475
0.35294118 0.40044424 0.40539216
0.39656863 0.43633578 0.44019608
0.45686275 0.48676471 0.48676471
0.51470588 0.53823529 0.53039216
0.58431373 0.60392157 0.58431373
0.63676471 0.65294118 0.62254902
0.31568627 0.36838235 0.37622549
0.32696078 0.3745098 0.38599877
0.34607843 0.39313725 0.40116422
0.3760723 0.41783088 0.42429534
0.40710784 0.44522059 0.44803922
0.46078431 0.48823529 0.48869485
0.52254902 0.54607843 0.53743873
0.58851103 0.60784314 0.58823529
0.64289216 0.65955882 0.62892157
0.36470588 0.40821078 0.41384804
0.36862745 0.41176471 0.41960784
0.38014706 0.42107843 0.42892157
0.40392157 0.44114583 0.44705882
0.43572304 0.46672794 0.47009804
0.47394301 0.50036765 0.49852941
0.52693015 0.55 0.54178922
0.59215686 0.61176471 0.59215686
0.65098039 0.67058824 0.63823529
0.42843137 0.46176471 0.4622549
0.43400735 0.46568627 0.46740196
0.43431373 0.4692402 0.46960784
0.44007353 0.47052696 0.47426471
0.46960784 0.49705882 0.49632353
0.5004902 0.52401961 0.52009804
0.5370098 0.55894608 0.54987745
0.59803922 0.61764706 0.59589461
0.65980392 0.67745098 0.64264706
0.49754902 0.52352941 0.51629902
0.50128676 0.52745098 0.51960784
0.50392157 0.53137255 0.52352941
0.50392157 0.53137255 0.52352941
0.51072304 0.53602941 0.52886029
0.54460784 0.5651348 0.55490196
0.5872549 0.60603554 0.58786765
0.63471201 0.65254289 0.62455576
0.68492647 0.70245098 0.66323529
0.56642157 0.58602941 0.56960784
0.56951593 0.58912377 0.57340686
0.57671569 0.59705882 0.57745098
0.57778799 0.59803922 0.57806373
0.59362745 0.61323529 0.59166667
0.60808824 0.62598039 0.60318627
0.64681373 0.6625 0.63278186
0.69102328 0.70670956 0.66740196
0.72941176 0.74289216 0.69509804
0.65539216 0.67107843 0.63933824
0.65942096 0.67512255 0.6432598
0.66715686 0.68348652 0.64810049
0.6756587 0.69166667 0.65502451
0.67873775 0.6942402 0.65606618
0.6810049 0.69647672 0.65926777
0.7129902 0.72784926 0.68431373
0.74264706 0.75784314 0.70729167
0.76556373 0.78088235 0.72598039
0.74803922 0.76078431 0.70980392
0.74080882 0.75612745 0.70514706
0.74509804 0.76053922 0.70980392
0.74901961 0.76078431 0.70980392
0.74901961 0.76078431 0.70980392
0.7622549 0.77401961 0.72156863
0.78063725 0.79215686 0.73504902
0.78872549 0.8 0.7442402
0.80784314 0.81568627 0.75686275
0.34607843 0.39705882 0.40098039
0.35373775 0.40067402 0.40618873
0.36862745 0.41384804 0.41960784
0.39258578 0.43480392 0.43719363
0.42598039 0.46127451 0.46323529
0.48382353 0.51035539 0.50827206
0.54558824 0.56911765 0.55637255
0.61127451 0.63088235 0.60471814
0.67303922 0.68872549 0.65098039
0.35606618 0.40226716 0.40882353
0.36170343 0.40806526 0.4127068
0.38125 0.42316176 0.42754289
0.40412071 0.44245558 0.44626225
0.43161765 0.46387868 0.46715686
0.48462776 0.51127451 0.50827206
0.55036765 0.57303922 0.56006434
0.61911765 0.63823529 0.61123621
0.6745098 0.69019608 0.65343137
0.37144608 0.41568627 0.42058824
0.38039216 0.42329963 0.42777267
0.39926471 0.43832721 0.44295343
0.4248315 0.45905331 0.46205576
0.45441176 0.48468137 0.48578431
0.49460784 0.51875 0.51666667
0.55661765 0.57696078 0.56237745
0.62303922 0.64264706 0.61484375
0.67977941 0.69546569 0.65735294
0.39558824 0.43572304 0.44019608
0.40617341 0.44411765 0.44803922
0.41919424 0.45490196 0.45882353
0.4469133 0.47736673 0.47849265
0.48045343 0.50536152 0.5044424
0.51395527 0.53691023 0.53186275
0.56280637 0.58379289 0.56888787
0.6254902 0.64264706 0.61519608
0.68088235 0.69656863 0.65735294
0.45735294 0.48872549 0.48553922
0.46519608 0.49641544 0.49329044
0.47696078 0.50784314 0.50300245
0.48872549 0.5122549 0.50955882
0.50441176 0.52794118 0.52242647
0.53137255 0.55416667 0.54705882
0.57518382 0.59338235 0.57935049
0.63210784 0.6497549 0.62190564
0.68995098 0.70563725 0.66519608
0.53088235 0.55441176 0.54264706
0.53468903 0.55802696 0.54356618
0.53872549 0.5622549 0.55026042
0.54509804 0.56617647 0.55441176
0.54509804 0.56617647 0.55441176
0.57344516 0.593053 0.57794118
0.61228554 0.62948836 0.60637255
0.65869332 0.67537531 0.64362745
0.71372549 0.72941176 0.68235294
0.60539216 0.62463235 0.6004902
0.60833333 0.62780331 0.60145527
0.61271446 0.63186275 0.60579044
0.61617647 0.63578431 0.60833333
0.61862745 0.63627451 0.61102941
0.63394608 0.65183824 0.62248775
0.66449142 0.6801777 0.64571078
0.70431985 0.72000613 0.67843137
0.74105392 0.75392157 0.7064951
0.68970588 0.70539216 0.66617647
0.69019608 0.70588235 0.66617647
0.68975184 0.70543811 0.66617647
0.69374234 0.70931373 0.66764706
0.69445466 0.70940564 0.66871936
0.70605852 0.72107843 0.67842371
0.72166054 0.73529412 0.6910386
0.7463848 0.75860141 0.71078431
0.77334559 0.7872549 0.73235294
0.76470588 0.77892157 0.72401961
0.77107843 0.78284314 0.72794118
0.76078431 0.775 0.72009804
0.75594363 0.76954657 0.71672794
0.75294118 0.76470588 0.71372549
0.76770833 0.78131127 0.72640931
0.78284314 0.79276961 0.7372549
0.79215686 0.80392157 0.74509804
0.80784314 0.81568627 0.75686275
0.4254902 0.45882353 0.4627451
0.42941176 0.46446078 0.46446078
0.44117647 0.47205882 0.47352941
0.46519608 0.49264706 0.49264706
0.4872549 0.5127451 0.50980392
0.51666667 0.54019608 0.53357843
0.58039216 0.6 0.58039216
0.64019608 0.65784314 0.62647059
0.69803922 0.71176471 0.67254902
0.43284314 0.46617647 0.46666667
0.43655025 0.47009804 0.47052696
0.45410539 0.48553922 0.48492647
0.4754902 0.50294118 0.50033701
0.48811275 0.51348039 0.50980392
0.51666667 0.5393076 0.53422181
0.58039216 0.6 0.58376225
0.64586397 0.66176471 0.63189338
0.7 0.71568627 0.67426471
0.44803922 0.47990196 0.47990196
0.45802696 0.48946078 0.48884804
0.47193627 0.50294118 0.49901961
0.48927696 0.51727941 0.51194853
0.51078431 0.53431373 0.52769608
0.53848039 0.56127451 0.55147059
0.5872549 0.60723039 0.5877451
0.65153186 0.66960784 0.63621324
0.70490196 0.72058824 0.67598039
0.47107843 0.49926471 0.49730392
0.48268995 0.51078431 0.50802696
0.49142157 0.52064951 0.51372549
0.50741422 0.53278186 0.52598039
0.53590686 0.55735294 0.54828431
0.56151961 0.58158701 0.56890319
0.60300245 0.62175245 0.60147059
0.66568627 0.68275123 0.64822304
0.72083333 0.73529412 0.68823529
0.48823529 0.51078431 0.51078431
0.50355392 0.52745098 0.52230392
0.50759804 0.53406863 0.52622549
0.53026961 0.55343137 0.54301471
0.55294118 0.57303922 0.5622549
0.57659314 0.59558824 0.58210784
0.62132353 0.63897059 0.61495098
0.67352941 0.68921569 0.65367647
0.72352941 0.73921569 0.69215686
0.55784314 0.57892157 0.56176471
0.56568627 0.58658088 0.56960784
0.56807598 0.59031863 0.57303922
0.58183211 0.60098039 0.58290441
0.59215686 0.61041667 0.59166667
0.61421569 0.63112745 0.60882353
0.65355392 0.67015931 0.63970588
0.69347426 0.70916054 0.66985294
0.73529412 0.7497549 0.70073529
0.63235294 0.65147059 0.62156863
0.63903186 0.65716912 0.62677696
0.64705882 0.66360294 0.63137255
0.65177696 0.66948529 0.63676471
0.65490196 0.67058824 0.63897059
0.66813725 0.68345588 0.64908088
0.69411765 0.70980392 0.66960784
0.72107843 0.73676471 0.69099265
0.75343137 0.76911765 0.71470588
0.7129902 0.72671569 0.68333333
0.71645221 0.73060662 0.68679534
0.71973039 0.73278186 0.68854167
0.72058824 0.73440564 0.6890625
0.71752451 0.73112745 0.68688725
0.72925858 0.74289216 0.69583333
0.74019608 0.75245098 0.70471814
0.75980392 0.77181373 0.71862745
0.78284314 0.79460784 0.7377451
0.77254902 0.78431373 0.72941176
0.77647059 0.7879902 0.73333333
0.78382353 0.79558824 0.7372549
0.77328431 0.78504902 0.73014706
0.76666667 0.77745098 0.72352941
0.78504902 0.79558824 0.73872549
0.78970588 0.80147059 0.74313725
0.79632353 0.80441176 0.74730392
0.81764706 0.8254902 0.76470588
0.51813725 0.53921569 0.53235294
0.52598039 0.5495098 0.53988971
0.5377451 0.56127451 0.54803922
0.55588235 0.5754902 0.56072304
0.57892157 0.59852941 0.58137255
0.59957108 0.61764706 0.59656863
0.62352941 0.64068627 0.61568627
0.66519608 0.68088235 0.64773284
0.73088235 0.74264706 0.6995098
0.52205882 0.54528186 0.53756127
0.53102788 0.55343137 0.5435432
0.54551164 0.5689951 0.55503983
0.55980392 0.5821538 0.56598499
0.57892157 0.59960172 0.58201593
0.59803922 0.61764706 0.59737286
0.62463235 0.64313725 0.61752451
0.66911765 0.68480392 0.64932598
0.73106618 0.74313725 0.6995098
0.54068627 0.56090686 0.55098039
0.5442402 0.56680453 0.55499387
0.55710784 0.58036152 0.56372549
0.56911765 0.59094669 0.57405025
0.58768382 0.60729167 0.58872549
0.60879289 0.6277114 0.60556066
0.62745098 0.64607843 0.61951593
0.67691483 0.69264706 0.65654105
0.72696078 0.74264706 0.69558824
0.56427696 0.5872549 0.57064951
0.56280637 0.58425245 0.57009804
0.56810662 0.59025735 0.57340686
0.58033088 0.60028339 0.58333333
0.59929534 0.61786152 0.59705882
0.62367494 0.64192708 0.61596967
0.64650735 0.66427696 0.63451287
0.69117647 0.70766697 0.66814491
0.73633578 0.75202206 0.70104167
0.58406863 0.60367647 0.58529412
0.58284314 0.60367647 0.58529412
0.57984069 0.60122549 0.58192402
0.59659926 0.61574755 0.59436275
0.6189951 0.63541667 0.61176471
0.63970588 0.65661765 0.62870711
0.66893382 0.6846201 0.65220588
0.71004902 0.72441789 0.68250613
0.75441176 0.76617647 0.71519608
0.60140931 0.62254902 0.59901961
0.60441176 0.62401961 0.59993873
0.60840993 0.62886029 0.60297181
0.62367494 0.64096967 0.615625
0.6377451 0.65343137 0.62647059
0.66415441 0.67738971 0.6466299
0.69702819 0.71219363 0.6745098
0.73431373 0.74852941 0.7013557
0.76372549 0.77794118 0.72395833
0.65502451 0.67291667 0.63872549
0.66580882 0.68186275 0.64652267
0.67794118 0.69436275 0.65707721
0.68578431 0.70147059 0.6622549
0.68578431 0.6997549 0.66176471
0.70542279 0.71839767 0.67801777
0.72867647 0.74068627 0.69583333
0.75356924 0.76720282 0.71554841
0.77401961 0.78860294 0.73088235
0.72794118 0.74001225 0.69509804
0.73186275 0.74577206 0.69871324
0.74718137 0.75931373 0.70989583
0.74754902 0.76060049 0.70913756
0.74362745 0.75505515 0.70431985
0.75667892 0.76844363 0.71660539
0.76305147 0.77481618 0.72210478
0.77714461 0.78890931 0.73355545
0.79283088 0.80441176 0.74558824
0.78431373 0.79362745 0.73872549
0.78578431 0.7973652 0.74117647
0.79031863 0.8 0.74264706
0.78970588 0.8 0.74117647
0.79362745 0.80343137 0.74264706
0.8 0.80931373 0.74901961
0.8 0.81176471 0.75110294
0.80833333 0.81746324 0.75735294
0.81960784 0.82990196 0.76715686
0.62647059 0.64313725 0.61470588
0.63137255 0.65 0.62120098
0.63431373 0.65392157 0.62254902
0.64607843 0.66360294 0.63223039
0.66911765 0.68480392 0.65098039
0.68431373 0.69816176 0.66188725
0.69607843 0.71176471 0.67181373
0.70821078 0.72009804 0.67953431
0.75 0.76176471 0.71372549
0.63002451 0.64607843 0.61862745
0.63753064 0.65387561 0.62480086
0.64301471 0.66164216 0.63026961
0.64995404 0.66729473 0.63587623
0.67089461 0.68676471 0.65275735
0.68247549 0.69816176 0.66092218
0.69414828 0.70882353 0.66936275
0.71133578 0.72400429 0.68301164
0.75392157 0.76568627 0.71470588
0.63921569 0.65710784 0.62867647
0.6450674 0.66176471 0.6323223
0.65 0.66734069 0.6372549
0.66139706 0.67882966 0.64509804
0.675 0.69105392 0.6564951
0.68458946 0.70027574 0.66470588
0.69571078 0.70955882 0.67181373
0.72398897 0.73863358 0.69231005
0.75294118 0.76568627 0.71470588
0.65392157 0.67144608 0.64117647
0.65 0.66752451 0.6372549
0.64984681 0.66789216 0.6372549
0.66721814 0.68359375 0.64940257
0.68033088 0.69656863 0.659375
0.69630821 0.71176471 0.67254902
0.70900735 0.72414216 0.68265931
0.73186275 0.74750306 0.69990809
0.75784314 0.77352941 0.71862745
0.66323529 0.68039216 0.64656863
0.65759804 0.67518382 0.64313725
0.65919118 0.67647059 0.64460784
0.67849265 0.69583333 0.65808824
0.69558824 0.71127451 0.67107843
0.70857843 0.72377451 0.68063725
0.72598039 0.73933824 0.69448529
0.75343137 0.76813725 0.71691176
0.77892157 0.79068627 0.73578431
0.67071078 0.68639706 0.65012255
0.67291667 0.68970588 0.65294118
0.67840074 0.6942402 0.65686275
0.68846507 0.70484069 0.66470588
0.70465686 0.71868873 0.67702206
0.72408088 0.73722426 0.69287684
0.74742647 0.75919118 0.71130515
0.77401961 0.78547794 0.73088235
0.79031863 0.80098039 0.74509804
0.70098039 0.71372549 0.67279412
0.70585172 0.72113971 0.67671569
0.7158701 0.7310049 0.6848652
0.7245098 0.74019608 0.69215686
0.73235294 0.74607843 0.69693627
0.74733456 0.75909926 0.70931373
0.76145833 0.77150735 0.72034314
0.7814951 0.79065564 0.7354473
0.79779412 0.80882353 0.74926471
0.7557598 0.76666667 0.71654412
0.75957414 0.77133885 0.71954657
0.76859681 0.78036152 0.72662377
0.77207414 0.78480392 0.72696078
0.778125 0.78970588 0.73235294
0.78209252 0.79362745 0.73760723
0.78578431 0.79460784 0.73958333
0.79787071 0.8092065 0.75036765
0.80882353 0.82058824 0.75784314
0.80490196 0.8127451 0.75686275
0.80404412 0.8127451 0.75428922
0.8 0.80784314 0.74901961
0.8 0.80784314 0.74901961
0.80784314 0.81568627 0.75490196
0.81176471 0.81960784 0.75784314
0.81666667 0.8252451 0.76470588
0.81568627 0.82438725 0.76433824
0.80882353 0.81960784 0.75784314
0.73431373 0.74607843 0.69901961
0.73431373 0.74607843 0.69901961
0.73039216 0.74215686 0.69509804
0.7346201 0.7463848 0.69932598
0.75 0.76004902 0.71078431
0.75392157 0.76354167 0.71470588
0.75882353 0.76960784 0.71948529
0.76617647 0.77794118 0.72604167
0.78088235 0.78921569 0.7377451
0.734375 0.74607843 0.69901961
0.73436734 0.74607843 0.69901961
0.7342065 0.74607843 0.69901961
0.73834252 0.75 0.70294118
0.74607843 0.75784314 0.71029412
0.75177696 0.76323529 0.71470588
0.76176471 0.77352941 0.72218137
0.77003676 0.78137255 0.72952665
0.78088235 0.79264706 0.7377451
0.73088235 0.74264706 0.69901961
0.73431373 0.74607843 0.69901961
0.73431373 0.74607843 0.69901961
0.74028799 0.75355392 0.70605086
0.74215686 0.75520833 0.70686275
0.75147059 0.7653799 0.71470588
0.76568627 0.77745098 0.72533701
0.77745098 0.78878676 0.73382353
0.78088235 0.79264706 0.7377451
0.73480392 0.74871324 0.70294118
0.73431373 0.74611673 0.70138634
0.73088235 0.74522059 0.69901961
0.74234835 0.75545343 0.70686275
0.75 0.76176471 0.71421569
0.75392157 0.76557138 0.71551011
0.76435355 0.77599571 0.723269
0.78137255 0.79268536 0.7377451
0.78903186 0.8004902 0.74381127
0.73848039 0.7502451 0.70294118
0.73848039 0.7502451 0.70465686
0.73841912 0.75018382 0.70441176
0.74926471 0.76167279 0.71185662
0.75392157 0.76654412 0.71813725
0.76176471 0.77337623 0.72215074
0.77573529 0.78553922 0.73253676
0.79117647 0.80073529 0.74387255
0.80441176 0.8122549 0.75343137
0.74234069 0.75410539 0.70686275
0.74377298 0.75757506 0.70686275
0.75013787 0.7629136 0.71386336
0.75392157 0.7664905 0.71470588
0.76176471 0.77337623 0.72215074
0.77568934 0.78558517 0.73248315
0.79376532 0.80280331 0.74603248
0.80457261 0.81268382 0.75498621
0.81176471 0.81960784 0.75863971
0.76237745 0.77144608 0.71960784
0.76237745 0.77414216 0.71960784
0.76617647 0.77794118 0.72303922
0.76519608 0.77830882 0.72238051
0.7752451 0.78743873 0.73057598
0.78877145 0.79715074 0.74166667
0.79656863 0.80441176 0.74721201
0.8122549 0.81977635 0.75859375
0.81703431 0.82487745 0.76470588
0.80484069 0.81268382 0.75386029
0.80098039 0.81145067 0.75262714
0.79007353 0.80168505 0.74286152
0.784375 0.79501379 0.73785233
0.79310662 0.80248162 0.74515931
0.802428 0.81214767 0.75332414
0.81371017 0.82133885 0.76171875
0.82090227 0.8283701 0.76862745
0.82310049 0.83137255 0.76862745
0.81176471 0.81960784 0.76078431
0.81176471 0.81960784 0.76078431
0.80784314 0.81568627 0.75686275
0.80441176 0.8122549 0.75343137
0.8122549 0.82009804 0.76078431
0.82156863 0.82922794 0.76862745
0.82745098 0.83529412 0.77254902
0.82745098 0.83529412 0.77254902
0.82009804 0.83137255 0.76862745
0.79607843 0.80392157 0.74509804
0.8004902 0.80833333 0.74901961
0.79215686 0.8 0.74117647
0.79215686 0.8 0.74509804
0.8 0.80784314 0.74901961
0.81176471 0.81960784 0.75833333
0.81568627 0.82352941 0.76176471
0.82352941 0.83137255 0.76862745
0.81960784 0.82745098 0.76470588
0.8 0.80833333 0.74901961
0.80784314 0.81568627 0.75294118
0.79313725 0.80392157 0.74509804
0.79001225 0.8 0.74295343
0.79411765 0.80220588 0.74534314
0.81323529 0.82107843 0.76207108
0.81862745 0.82659314 0.76470588
0.81617647 0.82401961 0.76470588
0.81568627 0.82352941 0.76078431
0.80392157 0.81176471 0.75294118
0.8 0.80784314 0.74901961
0.79607843 0.80416667 0.74901961
0.79571078 0.80392157 0.74509804
0.79754902 0.80735294 0.74901961
0.81176471 0.81960784 0.75723039
0.81568627 0.82132353 0.76078431
0.81213235 0.81960784 0.76078431
0.81176471 0.81960784 0.76078431
0.80392157 0.81176471 0.75441176
0.8 0.80784314 0.75294118
0.79607843 0.80747549 0.74901961
0.80784314 0.81568627 0.75631127
0.8129902 0.82083333 0.76078431
0.80784314 0.81568627 0.75686275
0.81176471 0.8185049 0.75784314
0.81991422 0.82745098 0.76501225
0.82352941 0.82990196 0.76862745
0.8 0.80784314 0.75294118
0.80392157 0.81176471 0.75465686
0.80392157 0.8122549 0.75490196
0.80637255 0.81421569 0.75686275
0.81176471 0.81960784 0.76078431
0.8125 0.82034314 0.76078431
0.81764706 0.825 0.76470588
0.82401961 0.82965686 0.76862745
0.83137255 0.83529412 0.7745098
0.80392157 0.81176471 0.75294118
0.80753676 0.81568627 0.75686275
0.80845588 0.81629902 0.75931373
0.80784314 0.81568627 0.75686275
0.8125 0.81960784 0.76078431
0.81960784 0.82745098 0.76617647
0.82745098 0.83468137 0.77254902
0.82683824 0.83106618 0.76862745
0.83137255 0.83529412 0.77254902
0.81176471 0.81960784 0.75784314
0.81666667 0.8245098 0.76176471
0.80784314 0.81568627 0.75686275
0.81176471 0.81813725 0.75931373
0.81960784 0.82745098 0.76470588
0.81960784 0.82745098 0.76617647
0.82843137 0.83529412 0.77254902
0.83529412 0.83921569 0.77647059
0.83235294 0.83921569 0.77647059
0.81519608 0.82352941 0.76078431
0.81568627 0.82352941 0.76078431
0.81311275 0.82095588 0.76078431
0.81176471 0.81960784 0.75949755
0.82181373 0.82745098 0.76862745
0.82745098 0.83186275 0.77254902
0.83223039 0.83921569 0.77647059
0.83529412 0.83921569 0.77647059
0.83529412 0.83921569 0.77647059
0.81176471 0.81960784 0.76078431
0.81176471 0.81960784 0.76078431
0.81568627 0.82352941 0.76078431
0.82205882 0.82745098 0.76862745
0.83333333 0.8372549 0.77647059
0.83529412 0.83921569 0.77647059
0.82745098 0.83529412 0.77254902
0.83137255 0.83921569 0.77647059
0.83137255 0.83921569 0.77647059
