site/assets/luts/sha256-cdeb0ad2f9c583b62975d9fc5c1b602ce28709002b5d6478888b692019424947.cube
# LUTr-Schema-Version: 2
# LUTr-ID: sha256-cdeb0ad2f9c583b62975d9fc5c1b602ce28709002b5d6478888b692019424947
# LUTr-Title: polaroid px-70 -
# LUTr-Collection: Natron HaldCLUT
# LUTr-Collection-ID: natron-haldclut-presets
# LUTr-Source: https://github.com/NatronGitHub/clut
# LUTr-Retrieved: 2026-07-27
# LUTr-Source-File: submissions/natron-haldclut-presets/instant_consumer/polaroid_px-70_-.png
# LUTr-Source-Format: HALD-PNG
# LUTr-Source-SHA256: cdeb0ad2f9c583b62975d9fc5c1b602ce28709002b5d6478888b692019424947
# LUTr-License: CC-BY-SA-4.0
# LUTr-License-URL: https://github.com/NatronGitHub/clut#license
# LUTr-License-Basis: repo-license-file
# LUTr-Transform-Class: film-emulation
# LUTr-Tags: creative, film, film-emulation, hald-clut, natron, png, cube
# LUTr-Input-Color-Space: srgb
# LUTr-Input-Gamut: rec709
# LUTr-Input-Transfer: srgb
# LUTr-Output-Color-Space: srgb
# LUTr-Output-Gamut: rec709
# LUTr-Output-Transfer: srgb
# LUTr-Color-Space-Confidence: assumed-display-referred
# LUTr-Domain-Normalized: true
# LUTr-Shaper: none
# LUTr-Original-Grid: 64x64x64
# LUTr-Conversion-Grid: 25x25x25
# LUTr-Conversion-Interpolation: trilinear
# LUTr-Conversion-Method: HALD-PNG LUT image decoded at 16-bit and sampled to 25x25x25 3D CUBE
# LUTr-Conversion-Tool: LUTr scripts/convert-all-to-cube.mjs 2.0.0
# LUTr-Conversion-Date: 2026-07-27
# LUTr-Note: Preserve this metadata and the upstream license notices when redistributing.
TITLE "polaroid px-70 -"
LUT_3D_SIZE 5
DOMAIN_MIN 0 0 0
DOMAIN_MAX 1 1 1
0 0.074509804 0.1254902
0.069607843 0.11666667 0.14117647
0.4627451 0.13333333 0.14509804
0.90392157 0.34215686 0.1127451
1 0.56078431 0.13333333
0 0.20294118 0.14803922
0.028921569 0.21568627 0.14117647
0.49901961 0.26666667 0.13039216
0.89215686 0.43137255 0.074509804
1 0.60980392 0.11764706
0.0078431373 0.54901961 0.14901961
0.011764706 0.55196078 0.13529412
0.56568627 0.58431373 0.061764706
0.86960784 0.64019608 0.0039215686
0.98431373 0.68431373 0.025490196
0.35392157 0.82156863 0.22058824
0.46666667 0.81838235 0.22377451
0.65882353 0.81470588 0.24215686
0.85294118 0.82254902 0.18627451
0.96862745 0.83333333 0.2372549
0.77647059 0.94117647 0.50588235
0.78431373 0.9372549 0.50980392
0.81960784 0.9372549 0.5254902
0.8754902 0.94117647 0.5254902
0.92941176 0.95294118 0.54901961
0 0.098039216 0.1872549
0.061764706 0.13529412 0.19117647
0.49362745 0.1372549 0.21617647
0.92034314 0.38480392 0.24803922
1 0.61372549 0.30588235
0.00073529412 0.24485294 0.20980392
0.12947304 0.25392157 0.21372549
0.5495098 0.31727941 0.22365196
0.91605392 0.48235294 0.22156863
1 0.60784314 0.26470588
0.0083333333 0.57941176 0.2254902
0.175 0.58137255 0.21911765
0.60808824 0.59901961 0.19681373
0.88235294 0.65 0.15772059
0.99754902 0.71078431 0.23627451
0.4627451 0.8254902 0.30392157
0.53216912 0.81844363 0.31470588
0.6997549 0.82156863 0.3182598
0.86053922 0.8254902 0.30073529
0.96838235 0.8372549 0.33823529
0.78431373 0.9372549 0.5254902
0.79607843 0.9379902 0.52941176
0.82696078 0.9372549 0.53676471
0.88088235 0.94289216 0.55220588
0.94901961 0.95686275 0.58137255
0.049019608 0.18431373 0.34509804
0.30686275 0.23431373 0.35686275
0.58039216 0.33333333 0.36960784
0.91078431 0.33921569 0.42205882
0.99803922 0.62352941 0.4627451
0.053431373 0.31764706 0.37647059
0.31911765 0.34705882 0.3754902
0.65588235 0.45416667 0.39093137
0.89926471 0.51090686 0.42585784
0.99019608 0.69411765 0.48529412
0.071568627 0.60392157 0.38921569
0.36421569 0.60514706 0.3870098
0.69019608 0.63284314 0.40196078
0.88823529 0.70294118 0.43627451
0.98137255 0.78431373 0.49117647
0.6254902 0.8254902 0.45637255
0.65919118 0.82242647 0.45490196
0.75318627 0.8247549 0.4622549
0.86813725 0.83382353 0.45686275
0.96568627 0.84852941 0.46764706
0.78235294 0.91960784 0.54901961
0.81568627 0.94117647 0.57843137
0.8372549 0.93333333 0.57843137
0.89019608 0.94509804 0.60392157
0.93921569 0.95490196 0.62352941
0.52254902 0.37352941 0.58823529
0.63014706 0.41053922 0.58333333
0.82156863 0.60882353 0.5872549
0.90392157 0.69313725 0.58553922
0.95196078 0.69607843 0.57843137
0.49215686 0.48235294 0.58333333
0.62377451 0.50294118 0.5872549
0.8245098 0.6567402 0.58627451
0.89607843 0.75098039 0.58327206
0.97181373 0.75563725 0.60269608
0.34362745 0.67401961 0.56372549
0.50208333 0.67622549 0.56678922
0.78112745 0.73014706 0.58406863
0.89509804 0.80085784 0.59938725
0.95686275 0.80882353 0.61568627
0.61936275 0.82622549 0.57230392
0.66991422 0.82941176 0.57156863
0.77401961 0.83382353 0.58051471
0.87941176 0.84901961 0.60238971
0.96078431 0.87254902 0.62181373
0.80784314 0.9372549 0.64411765
0.82647059 0.94509804 0.65294118
0.86029412 0.94509804 0.66715686
0.89828431 0.94926471 0.68431373
0.94509804 0.95294118 0.69117647
0.8 0.7254902 0.74509804
0.81960784 0.73235294 0.73333333
0.88431373 0.80196078 0.7372549
0.92941176 0.85980392 0.73627451
0.95294118 0.89411765 0.74509804
0.79607843 0.75196078 0.74509804
0.82352941 0.77156863 0.74509804
0.88039216 0.81372549 0.73529412
0.92941176 0.87058824 0.73406863
0.94509804 0.89117647 0.7372549
0.77058824 0.79803922 0.74509804
0.78578431 0.8 0.73921569
0.85980392 0.83333333 0.73921569
0.92254902 0.88333333 0.74117647
0.94705882 0.91176471 0.74901961
0.71862745 0.86372549 0.75196078
0.74411765 0.86372549 0.74117647
0.81078431 0.86764706 0.74117647
0.90220588 0.89509804 0.7502451
0.94117647 0.92941176 0.75784314
0.80392157 0.94901961 0.76862745
0.82254902 0.95588235 0.77156863
0.84509804 0.94705882 0.7372549
0.88333333 0.93431373 0.76862745
0.94509804 0.95294118 0.78039216
