site/assets/luts/sha256-1d3a43816efba5471f1e34be9ea7c2f77720c1f984b1e1e84a3f685350bb090b.cube
# LUTr-Schema-Version: 2
# LUTr-ID: sha256-1d3a43816efba5471f1e34be9ea7c2f77720c1f984b1e1e84a3f685350bb090b
# LUTr-Title: fuji fp-100c negative -
# LUTr-Collection: Natron HaldCLUT
# LUTr-Collection-ID: natron-haldclut-presets
# LUTr-Source: https://github.com/NatronGitHub/clut
# LUTr-Retrieved: 2026-07-27
# LUTr-Source-File: submissions/natron-haldclut-presets/instant_pro/fuji_fp-100c_negative_-.png
# LUTr-Source-Format: HALD-PNG
# LUTr-Source-SHA256: 1d3a43816efba5471f1e34be9ea7c2f77720c1f984b1e1e84a3f685350bb090b
# LUTr-License: CC-BY-SA-4.0
# LUTr-License-URL: https://github.com/NatronGitHub/clut#license
# LUTr-License-Basis: repo-license-file
# LUTr-Transform-Class: film-emulation
# LUTr-Tags: creative, film, film-emulation, hald-clut, natron, png, cube
# LUTr-Input-Color-Space: srgb
# LUTr-Input-Gamut: rec709
# LUTr-Input-Transfer: srgb
# LUTr-Output-Color-Space: srgb
# LUTr-Output-Gamut: rec709
# LUTr-Output-Transfer: srgb
# LUTr-Color-Space-Confidence: assumed-display-referred
# LUTr-Domain-Normalized: true
# LUTr-Shaper: none
# LUTr-Original-Grid: 64x64x64
# LUTr-Conversion-Grid: 25x25x25
# LUTr-Conversion-Interpolation: trilinear
# LUTr-Conversion-Method: HALD-PNG LUT image decoded at 16-bit and sampled to 25x25x25 3D CUBE
# LUTr-Conversion-Tool: LUTr scripts/convert-all-to-cube.mjs 2.0.0
# LUTr-Conversion-Date: 2026-07-27
# LUTr-Note: Preserve this metadata and the upstream license notices when redistributing.
TITLE "fuji fp-100c negative -"
LUT_3D_SIZE 5
DOMAIN_MIN 0 0 0
DOMAIN_MAX 1 1 1
0.0039215686 0.11372549 0.094117647
0.16666667 0.10588235 0.097058824
0.51960784 0.056862745 0.098039216
0.82058824 0.14607843 0.11862745
0.99607843 0.42745098 0.2
0.015686275 0.19313725 0.13235294
0.1872549 0.21740196 0.10784314
0.56960784 0.24509804 0.097058824
0.81862745 0.32132353 0.13823529
0.98921569 0.49019608 0.2372549
0.050980392 0.44509804 0.24901961
0.24852941 0.46176471 0.26519608
0.55098039 0.53823529 0.2
0.83039216 0.59068627 0.15735294
0.99411765 0.64705882 0.25686275
0.36568627 0.66666667 0.43823529
0.44019608 0.67818627 0.45392157
0.57941176 0.70735294 0.45637255
0.80171569 0.77647059 0.41078431
0.98823529 0.82254902 0.4
0.70588235 0.90588235 0.68627451
0.7254902 0.89509804 0.68235294
0.82745098 0.91372549 0.72352941
0.89607843 0.92941176 0.71470588
0.98823529 0.94509804 0.71372549
0.046078431 0.10196078 0.20882353
0.20588235 0.11053922 0.20784314
0.57156863 0.044607843 0.24411765
0.82671569 0.22647059 0.31151961
0.99215686 0.44803922 0.38431373
0.014705882 0.2 0.24191176
0.24595588 0.24025735 0.26102941
0.57990196 0.28627451 0.29068627
0.82052696 0.37352941 0.3278799
0.99509804 0.50980392 0.38333333
0.25098039 0.47352941 0.36764706
0.33321078 0.48909314 0.37156863
0.57818627 0.54509804 0.3502451
0.82745098 0.58921569 0.3432598
0.99607843 0.64705882 0.40098039
0.40294118 0.68235294 0.48431373
0.46348039 0.68235294 0.49375
0.60098039 0.71262255 0.51115196
0.81176471 0.78357843 0.48235294
0.99215686 0.82647059 0.49044118
0.72352941 0.91666667 0.70392157
0.74019608 0.90514706 0.70098039
0.82598039 0.91176471 0.72745098
0.89583333 0.92132353 0.71323529
0.98431373 0.94117647 0.7254902
0.25490196 0.066666667 0.47843137
0.42058824 0.060294118 0.50196078
0.6627451 0.24901961 0.51862745
0.87696078 0.37892157 0.56813725
0.99411765 0.4745098 0.6
0.037745098 0.18823529 0.49607843
0.38345588 0.24473039 0.51911765
0.63823529 0.39387255 0.53897059
0.86875 0.47352941 0.57904412
0.99607843 0.51519608 0.59754902
0.18431373 0.46176471 0.50098039
0.34436275 0.49215686 0.52843137
0.6127451 0.57058824 0.56568627
0.84264706 0.61519608 0.57965686
0.99607843 0.66666667 0.60490196
0.45490196 0.68578431 0.59117647
0.51470588 0.7002451 0.59546569
0.64534314 0.72745098 0.61593137
0.83823529 0.79509804 0.61911765
0.99509804 0.81862745 0.625
0.71764706 0.90588235 0.72745098
0.74901961 0.90980392 0.73137255
0.83235294 0.92254902 0.74607843
0.91715686 0.92647059 0.76078431
0.99607843 0.94117647 0.76078431
0.52647059 0.0078431373 0.69705882
0.64509804 0.0088235294 0.71176471
0.83578431 0.35441176 0.74166667
0.93161765 0.56470588 0.74387255
1 0.63529412 0.76176471
0.46544118 0.19289216 0.69803922
0.60759804 0.25710784 0.71574755
0.81580882 0.44558824 0.74166667
0.93069853 0.6221201 0.74803922
0.99583333 0.68333333 0.76960784
0.0068627451 0.40245098 0.67156863
0.14583333 0.43529412 0.67977941
0.69362745 0.55392157 0.72916667
0.92156863 0.72598039 0.7627451
0.99558824 0.77745098 0.78039216
0.27254902 0.65465686 0.66887255
0.37408088 0.66623775 0.67775735
0.59362745 0.71066176 0.70943627
0.87708333 0.80729167 0.76372549
0.99607843 0.83823529 0.7754902
0.6245098 0.90784314 0.77254902
0.68161765 0.91593137 0.77818627
0.79460784 0.9122549 0.78333333
0.91960784 0.90980392 0.80196078
0.99607843 0.94117647 0.82941176
0.83921569 0.29019608 0.89019608
0.87843137 0.35882353 0.89117647
0.9627451 0.51176471 0.89411765
1 0.7127451 0.89411765
1 0.80784314 0.8745098
0.8127451 0.38235294 0.89803922
0.84730392 0.4254902 0.89117647
0.93137255 0.53431373 0.87696078
1 0.73823529 0.89313725
1 0.83039216 0.87843137
0.57254902 0.45294118 0.89215686
0.67205882 0.49264706 0.89215686
0.85098039 0.60392157 0.89019608
0.9877451 0.77352941 0.89068627
1 0.84901961 0.88431373
0.0039215686 0.71666667 0.87745098
0.0056372549 0.69509804 0.86470588
0.10098039 0.66960784 0.88872549
0.91029412 0.79901961 0.89730392
1 0.91372549 0.90980392
0.49803922 0.90196078 0.90196078
0.55784314 0.90882353 0.90686275
0.69803922 0.91568627 0.91764706
0.85784314 0.92156863 0.91862745
1 0.94901961 0.94117647
