site/assets/luts/sha256-5848ce860dd9911629f8dcb0beccfe2d2b930be1ff9d9840ee2bd58405a22b74.cube
# LUTr-Schema-Version: 2
# LUTr-ID: sha256-5848ce860dd9911629f8dcb0beccfe2d2b930be1ff9d9840ee2bd58405a22b74
# LUTr-Title: fuji 800z -
# LUTr-Collection: Natron HaldCLUT
# LUTr-Collection-ID: natron-haldclut-presets
# LUTr-Source: https://github.com/NatronGitHub/clut
# LUTr-Retrieved: 2026-07-27
# LUTr-Source-File: submissions/natron-haldclut-presets/negative_new/fuji_800z_-.png
# LUTr-Source-Format: HALD-PNG
# LUTr-Source-SHA256: 5848ce860dd9911629f8dcb0beccfe2d2b930be1ff9d9840ee2bd58405a22b74
# LUTr-License: CC-BY-SA-4.0
# LUTr-License-URL: https://github.com/NatronGitHub/clut#license
# LUTr-License-Basis: repo-license-file
# LUTr-Transform-Class: film-emulation
# LUTr-Tags: creative, film, film-emulation, hald-clut, natron, png, cube
# LUTr-Input-Color-Space: srgb
# LUTr-Input-Gamut: rec709
# LUTr-Input-Transfer: srgb
# LUTr-Output-Color-Space: srgb
# LUTr-Output-Gamut: rec709
# LUTr-Output-Transfer: srgb
# LUTr-Color-Space-Confidence: assumed-display-referred
# LUTr-Domain-Normalized: true
# LUTr-Shaper: none
# LUTr-Original-Grid: 64x64x64
# LUTr-Conversion-Grid: 25x25x25
# LUTr-Conversion-Interpolation: trilinear
# LUTr-Conversion-Method: HALD-PNG LUT image decoded at 16-bit and sampled to 25x25x25 3D CUBE
# LUTr-Conversion-Tool: LUTr scripts/convert-all-to-cube.mjs 2.0.0
# LUTr-Conversion-Date: 2026-07-27
# LUTr-Note: Preserve this metadata and the upstream license notices when redistributing.
TITLE "fuji 800z -"
LUT_3D_SIZE 5
DOMAIN_MIN 0 0 0
DOMAIN_MAX 1 1 1
0.0078431373 0.0039215686 0.0039215686
0.22647059 0.0068627451 0.0068627451
0.5627451 0 0.0039215686
0.81176471 0.0078431373 0.010784314
0.99215686 0.019607843 0
0.0039215686 0.19117647 0.041176471
0.18970588 0.21887255 0.011764706
0.54705882 0.22647059 0.0039215686
0.79681373 0.2375 0.0085784314
0.98431373 0.27745098 0.0039215686
0.068627451 0.41764706 0.1254902
0.18333333 0.41519608 0.11421569
0.46960784 0.49019608 0.041176471
0.76176471 0.52892157 0.0034313725
0.94313725 0.52156863 0.0039215686
0.21960784 0.60784314 0.24117647
0.27622549 0.59681373 0.23651961
0.43235294 0.61666667 0.23431373
0.69093137 0.69705882 0.22647059
0.92647059 0.76372549 0.20294118
0.50196078 0.83921569 0.49411765
0.52156863 0.82843137 0.48333333
0.61960784 0.85882353 0.52941176
0.75098039 0.89019608 0.53627451
0.91764706 0.94117647 0.56078431
0.055882353 0.029411765 0.18823529
0.25759804 0.021078431 0.20759804
0.58970588 0.0039215686 0.21127451
0.83039216 0.0039215686 0.22328431
0.98529412 0.068627451 0.22647059
0.013480392 0.25318627 0.22254902
0.26642157 0.26176471 0.22175245
0.5689951 0.24803922 0.22107843
0.80765931 0.26139706 0.21881127
0.9872549 0.30563725 0.22181373
0.19411765 0.4754902 0.26715686
0.27781863 0.4625 0.26311275
0.49313725 0.5002451 0.24852941
0.76213235 0.51764706 0.20330882
0.94117647 0.53137255 0.18970588
0.29338235 0.6372549 0.32745098
0.33921569 0.6254902 0.32745098
0.44644608 0.62352941 0.32156863
0.68682598 0.69803922 0.3348652
0.92843137 0.75196078 0.32647059
0.52058824 0.85686275 0.53235294
0.55686275 0.86740196 0.54803922
0.61960784 0.85882353 0.55441176
0.74779412 0.88308824 0.55808824
0.88921569 0.92843137 0.57843137
0.10784314 0.056862745 0.46666667
0.30392157 0.093137255 0.47843137
0.59019608 0.078431373 0.50196078
0.86568627 0.021078431 0.50784314
0.99607843 0.20588235 0.50588235
0.13431373 0.25392157 0.4745098
0.31335784 0.28026961 0.48333333
0.58970588 0.29607843 0.50955882
0.83921569 0.30968137 0.51568627
0.99607843 0.3495098 0.50980392
0.18235294 0.53137255 0.5
0.35833333 0.5379902 0.50980392
0.54558824 0.53284314 0.50588235
0.77941176 0.54313725 0.51372549
0.95686275 0.55098039 0.51078431
0.42156863 0.70588235 0.53578431
0.44718137 0.69693627 0.53394608
0.52598039 0.65833333 0.5002451
0.72022059 0.70980392 0.52340686
0.93872549 0.75588235 0.51715686
0.54509804 0.88627451 0.63137255
0.56764706 0.88578431 0.62941176
0.6127451 0.85588235 0.60686275
0.74215686 0.87352941 0.62401961
0.91960784 0.9254902 0.63921569
0.32843137 0.16666667 0.70588235
0.41470588 0.17647059 0.70514706
0.61666667 0.22941176 0.71666667
0.82647059 0.28529412 0.73235294
0.99607843 0.31176471 0.75098039
0.3245098 0.30098039 0.69803922
0.42254902 0.3151348 0.70588235
0.61470588 0.35355392 0.71666667
0.81305147 0.39877451 0.74117647
0.99509804 0.42965686 0.75514706
0.23333333 0.48578431 0.68921569
0.34019608 0.48897059 0.68970588
0.57941176 0.5370098 0.7127451
0.78823529 0.57732843 0.74019608
0.98137255 0.59509804 0.75833333
0.40686275 0.74019608 0.72941176
0.46764706 0.73333333 0.72941176
0.59607843 0.73553922 0.73431373
0.75196078 0.73333333 0.73253676
0.95490196 0.76764706 0.74191176
0.58235294 0.92254902 0.77843137
0.6 0.91789216 0.78014706
0.66960784 0.92352941 0.77745098
0.75980392 0.89681373 0.75269608
0.93627451 0.95294118 0.7872549
0.56470588 0.37647059 0.90588235
0.61862745 0.38039216 0.91764706
0.73333333 0.41568627 0.91372549
0.8754902 0.4745098 0.92156863
0.99607843 0.51764706 0.9372549
0.56470588 0.44901961 0.91372549
0.59240196 0.44215686 0.89828431
0.7254902 0.47647059 0.91519608
0.8627451 0.5254902 0.91544118
0.97843137 0.55196078 0.92254902
0.48039216 0.56666667 0.91176471
0.54754902 0.5745098 0.9122549
0.68431373 0.59215686 0.91372549
0.84901961 0.62745098 0.92156863
0.98627451 0.65490196 0.92941176
0.39215686 0.7372549 0.88235294
0.43921569 0.73431373 0.90784314
0.56960784 0.72303922 0.92156863
0.77843137 0.74901961 0.91985294
0.95784314 0.79901961 0.91960784
0.55686275 0.95686275 0.9372549
0.5872549 0.95686275 0.9372549
0.6745098 0.96470588 0.94509804
0.80686275 0.94901961 0.91764706
0.96470588 0.91764706 0.93333333
