site/assets/luts/sha256-32c48518530bfca63f0dc2dd38fc61241977de38b232181bd3ee58a058d7b5ec.cube
# LUTr-Schema-Version: 2
# LUTr-ID: sha256-32c48518530bfca63f0dc2dd38fc61241977de38b232181bd3ee58a058d7b5ec
# LUTr-Title: REDlogFilm to REDgamma
# LUTr-Collection: RED Conversion
# LUTr-Collection-ID: videovillage-red-conversion-luts
# LUTr-Source: https://github.com/videovillage/RED-Conversion-LUTs
# LUTr-Retrieved: 2026-07-27
# LUTr-Source-File: submissions/videovillage-red-conversion-luts/Masters/REDlogFilm_to_REDgamma.cube
# LUTr-Source-Format: CUBE
# LUTr-Source-SHA256: 32c48518530bfca63f0dc2dd38fc61241977de38b232181bd3ee58a058d7b5ec
# LUTr-License: MIT
# LUTr-License-URL: https://github.com/videovillage/RED-Conversion-LUTs/blob/master/LICENSE.md
# LUTr-License-Basis: repo-license-file
# LUTr-Transform-Class: camera-transform
# LUTr-Tags: technical, camera, red, redlogfilm, redgamma, cube
# LUTr-Input-Color-Space:
# LUTr-Input-Gamut: unspecified
# LUTr-Input-Transfer: unspecified
# LUTr-Output-Color-Space:
# LUTr-Output-Gamut: unspecified
# LUTr-Output-Transfer: unspecified
# LUTr-Color-Space-Confidence: unverified
# LUTr-Domain-Normalized: true
# LUTr-Shaper: none
# LUTr-Original-Grid: 1024
# LUTr-Conversion-Grid: 33x33x33
# LUTr-Conversion-Interpolation: linear
# LUTr-Conversion-Method: Source 1D CUBE sampled to browser-compatible 33x33x33 3D CUBE
# LUTr-Conversion-Tool: LUTr scripts/convert-all-to-cube.mjs 2.0.0
# LUTr-Conversion-Date: 2026-07-27
# LUTr-Conversion-Warning: A 1024-sample 1D CUBE was sampled to 33x33x33 for browser-compatible 3D CUBE hosting.
# LUTr-Note: Preserve this metadata and the upstream license notices when redistributing.
# LUTr-Upstream-Comment: Created by Tashi Trieu and Greg Cotten
TITLE "REDlogFilm to REDgamma"
LUT_3D_SIZE 5
DOMAIN_MIN 0 0 0
DOMAIN_MAX 1 1 1
0.071366445 0.071366445 0.071366445
0.13654917 0.071366445 0.071366445
0.52206455 0.071366445 0.071366445
0.93976404 0.071366445 0.071366445
0.98654154 0.071366445 0.071366445
0.071366445 0.13654917 0.071366445
0.13654917 0.13654917 0.071366445
0.52206455 0.13654917 0.071366445
0.93976404 0.13654917 0.071366445
0.98654154 0.13654917 0.071366445
0.071366445 0.52206455 0.071366445
0.13654917 0.52206455 0.071366445
0.52206455 0.52206455 0.071366445
0.93976404 0.52206455 0.071366445
0.98654154 0.52206455 0.071366445
0.071366445 0.93976404 0.071366445
0.13654917 0.93976404 0.071366445
0.52206455 0.93976404 0.071366445
0.93976404 0.93976404 0.071366445
0.98654154 0.93976404 0.071366445
0.071366445 0.98654154 0.071366445
0.13654917 0.98654154 0.071366445
0.52206455 0.98654154 0.071366445
0.93976404 0.98654154 0.071366445
0.98654154 0.98654154 0.071366445
0.071366445 0.071366445 0.13654917
0.13654917 0.071366445 0.13654917
0.52206455 0.071366445 0.13654917
0.93976404 0.071366445 0.13654917
0.98654154 0.071366445 0.13654917
0.071366445 0.13654917 0.13654917
0.13654917 0.13654917 0.13654917
0.52206455 0.13654917 0.13654917
0.93976404 0.13654917 0.13654917
0.98654154 0.13654917 0.13654917
0.071366445 0.52206455 0.13654917
0.13654917 0.52206455 0.13654917
0.52206455 0.52206455 0.13654917
0.93976404 0.52206455 0.13654917
0.98654154 0.52206455 0.13654917
0.071366445 0.93976404 0.13654917
0.13654917 0.93976404 0.13654917
0.52206455 0.93976404 0.13654917
0.93976404 0.93976404 0.13654917
0.98654154 0.93976404 0.13654917
0.071366445 0.98654154 0.13654917
0.13654917 0.98654154 0.13654917
0.52206455 0.98654154 0.13654917
0.93976404 0.98654154 0.13654917
0.98654154 0.98654154 0.13654917
0.071366445 0.071366445 0.52206455
0.13654917 0.071366445 0.52206455
0.52206455 0.071366445 0.52206455
0.93976404 0.071366445 0.52206455
0.98654154 0.071366445 0.52206455
0.071366445 0.13654917 0.52206455
0.13654917 0.13654917 0.52206455
0.52206455 0.13654917 0.52206455
0.93976404 0.13654917 0.52206455
0.98654154 0.13654917 0.52206455
0.071366445 0.52206455 0.52206455
0.13654917 0.52206455 0.52206455
0.52206455 0.52206455 0.52206455
0.93976404 0.52206455 0.52206455
0.98654154 0.52206455 0.52206455
0.071366445 0.93976404 0.52206455
0.13654917 0.93976404 0.52206455
0.52206455 0.93976404 0.52206455
0.93976404 0.93976404 0.52206455
0.98654154 0.93976404 0.52206455
0.071366445 0.98654154 0.52206455
0.13654917 0.98654154 0.52206455
0.52206455 0.98654154 0.52206455
0.93976404 0.98654154 0.52206455
0.98654154 0.98654154 0.52206455
0.071366445 0.071366445 0.93976404
0.13654917 0.071366445 0.93976404
0.52206455 0.071366445 0.93976404
0.93976404 0.071366445 0.93976404
0.98654154 0.071366445 0.93976404
0.071366445 0.13654917 0.93976404
0.13654917 0.13654917 0.93976404
0.52206455 0.13654917 0.93976404
0.93976404 0.13654917 0.93976404
0.98654154 0.13654917 0.93976404
0.071366445 0.52206455 0.93976404
0.13654917 0.52206455 0.93976404
0.52206455 0.52206455 0.93976404
0.93976404 0.52206455 0.93976404
0.98654154 0.52206455 0.93976404
0.071366445 0.93976404 0.93976404
0.13654917 0.93976404 0.93976404
0.52206455 0.93976404 0.93976404
0.93976404 0.93976404 0.93976404
0.98654154 0.93976404 0.93976404
0.071366445 0.98654154 0.93976404
0.13654917 0.98654154 0.93976404
0.52206455 0.98654154 0.93976404
0.93976404 0.98654154 0.93976404
0.98654154 0.98654154 0.93976404
0.071366445 0.071366445 0.98654154
0.13654917 0.071366445 0.98654154
0.52206455 0.071366445 0.98654154
0.93976404 0.071366445 0.98654154
0.98654154 0.071366445 0.98654154
0.071366445 0.13654917 0.98654154
0.13654917 0.13654917 0.98654154
0.52206455 0.13654917 0.98654154
0.93976404 0.13654917 0.98654154
0.98654154 0.13654917 0.98654154
0.071366445 0.52206455 0.98654154
0.13654917 0.52206455 0.98654154
0.52206455 0.52206455 0.98654154
0.93976404 0.52206455 0.98654154
0.98654154 0.52206455 0.98654154
0.071366445 0.93976404 0.98654154
0.13654917 0.93976404 0.98654154
0.52206455 0.93976404 0.98654154
0.93976404 0.93976404 0.98654154
0.98654154 0.93976404 0.98654154
0.071366445 0.98654154 0.98654154
0.13654917 0.98654154 0.98654154
0.52206455 0.98654154 0.98654154
0.93976404 0.98654154 0.98654154
0.98654154 0.98654154 0.98654154
