site/assets/luts/sha256-44c584a76419aaed78918221f3d59b68ffb3cf92ee6503ff602e210374aa13b4.cube
# LUTr-Schema-Version: 2
# LUTr-ID: sha256-44c584a76419aaed78918221f3d59b68ffb3cf92ee6503ff602e210374aa13b4
# LUTr-Title: generic fuji astia 100
# LUTr-Collection: Natron HaldCLUT
# LUTr-Collection-ID: natron-haldclut-presets
# LUTr-Source: https://github.com/NatronGitHub/clut
# LUTr-Retrieved: 2026-07-27
# LUTr-Source-File: submissions/natron-haldclut-presets/colorslide/generic_fuji_astia_100.png
# LUTr-Source-Format: HALD-PNG
# LUTr-Source-SHA256: 44c584a76419aaed78918221f3d59b68ffb3cf92ee6503ff602e210374aa13b4
# LUTr-License: CC-BY-SA-4.0
# LUTr-License-URL: https://github.com/NatronGitHub/clut#license
# LUTr-License-Basis: repo-license-file
# LUTr-Transform-Class: film-emulation
# LUTr-Tags: creative, film, film-emulation, hald-clut, natron, png, cube
# LUTr-Input-Color-Space: srgb
# LUTr-Input-Gamut: rec709
# LUTr-Input-Transfer: srgb
# LUTr-Output-Color-Space: srgb
# LUTr-Output-Gamut: rec709
# LUTr-Output-Transfer: srgb
# LUTr-Color-Space-Confidence: assumed-display-referred
# LUTr-Domain-Normalized: true
# LUTr-Shaper: none
# LUTr-Original-Grid: 64x64x64
# LUTr-Conversion-Grid: 25x25x25
# LUTr-Conversion-Interpolation: trilinear
# LUTr-Conversion-Method: HALD-PNG LUT image decoded at 16-bit and sampled to 25x25x25 3D CUBE
# LUTr-Conversion-Tool: LUTr scripts/convert-all-to-cube.mjs 2.0.0
# LUTr-Conversion-Date: 2026-07-27
# LUTr-Note: Preserve this metadata and the upstream license notices when redistributing.
TITLE "generic fuji astia 100"
LUT_3D_SIZE 25
DOMAIN_MIN 0 0 0
DOMAIN_MAX 1 1 1
0 0 0
0.045098039 0.032352941 0.024509804
0.084313725 0.038235294 0.026470588
0.10882353 0.017156863 0.012745098
0.14117647 0.0058823529 0.0058823529
0.18186275 0.011764706 0.0078431373
0.21666667 0.0078431373 0.0078431373
0.25441176 0.0014705882 0.0014705882
0.30196078 0.011764706 0.0078431373
0.35098039 0.015686275 0.011764706
0.40098039 0.014705882 0.015686275
0.45245098 0.0083333333 0.015686275
0.49803922 0.01372549 0.015686275
0.54313725 0.031862745 0.015686275
0.58823529 0.046078431 0.015686275
0.63480392 0.062745098 0.014215686
0.68235294 0.066666667 0.011764706
0.72598039 0.046078431 0.011764706
0.76862745 0.021568627 0.011764706
0.80980392 0.0078431373 0.015196078
0.84313725 0.015686275 0.019607843
0.87990196 0.019607843 0.023039216
0.91764706 0.019607843 0.016666667
0.95490196 0.011764706 0.010294118
0.98823529 0.0039215686 0
0.024509804 0.045098039 0.020588235
0.055392157 0.066605392 0.03627451
0.091666667 0.072058824 0.040686275
0.11519608 0.046262255 0.023039216
0.14754902 0.037254902 0.014215686
0.18609069 0.041176471 0.015686275
0.22242647 0.03872549 0.014215686
0.26078431 0.034803922 0.009375
0.30588235 0.03872549 0.010294118
0.35588235 0.041176471 0.014215686
0.40490196 0.03872549 0.015686275
0.45245098 0.037438725 0.015686275
0.49803922 0.03872549 0.015686275
0.54313725 0.048835784 0.015686275
0.58823529 0.06127451 0.015686275
0.63480392 0.065747549 0.014215686
0.68235294 0.070588235 0.0093137255
0.72745098 0.060294118 0.0078431373
0.76862745 0.040931373 0.011764706
0.80606618 0.036948529 0.021262255
0.84191176 0.039460784 0.027941176
0.87775735 0.042647059 0.029901961
0.91470588 0.042647059 0.025980392
0.95189951 0.03872549 0.016666667
0.98186275 0.037254902 0.006372549
0.041176471 0.082352941 0.032352941
0.063235294 0.098406863 0.044485294
0.096323529 0.10294118 0.046078431
0.12144608 0.083210784 0.031985294
0.15392157 0.077941176 0.024019608
0.19375 0.07745098 0.023529412
0.22941176 0.07377451 0.019852941
0.26752451 0.069607843 0.014215686
0.31078431 0.069607843 0.011764706
0.35943627 0.073529412 0.014215686
0.40784314 0.072794118 0.017892157
0.45294118 0.069730392 0.015686275
0.49803922 0.069607843 0.013235294
0.54362745 0.076960784 0.011764706
0.59117647 0.084313725 0.011764706
0.6372549 0.082843137 0.011764706
0.68235294 0.079411765 0.0078431373
0.72745098 0.073651961 0.0033088235
0.76764706 0.065931373 0.010539216
0.80502451 0.069607843 0.023897059
0.84117647 0.073529412 0.037745098
0.87732843 0.073529412 0.041053922
0.91372549 0.073529412 0.032598039
0.94705882 0.073529412 0.018137255
0.97647059 0.073529412 0.0078431373
0.058333333 0.12009804 0.042647059
0.071078431 0.13039216 0.046875
0.097058824 0.13088235 0.046078431
0.12401961 0.12058824 0.039215686
0.15857843 0.11568627 0.031127451
0.19797794 0.11219363 0.027389706
0.23615196 0.10796569 0.020588235
0.27469363 0.10294118 0.014215686
0.31372549 0.1004902 0.0083333333
0.36127451 0.1004902 0.011764706
0.40870098 0.10441176 0.012254902
0.45294118 0.10441176 0.01182598
0.5 0.1004902 0.0080882353
0.54748775 0.10140931 0.0078431373
0.59215686 0.10490196 0.0082107843
0.6372549 0.10490196 0.011764706
0.68235294 0.1004902 0.0078431373
0.72745098 0.096262255 0.0036151961
0.76470588 0.10012255 0.013602941
0.80245098 0.10435049 0.029963235
0.84289216 0.10441176 0.044607843
0.87990196 0.10484069 0.046568627
0.91458333 0.10784314 0.033333333
0.94920343 0.10784314 0.018137255
0.97647059 0.10441176 0.0078431373
0.07254902 0.15882353 0.047058824
0.078921569 0.1627451 0.047058824
0.097058824 0.16617647 0.046568627
0.12401961 0.15906863 0.039705882
0.15882353 0.15392157 0.035294118
0.19607843 0.15245098 0.031127451
0.2372549 0.14558824 0.024509804
0.27573529 0.13970588 0.016176471
0.31372549 0.13333333 0.0078431373
0.36127451 0.1372549 0.012254902
0.40882353 0.1372549 0.01372549
0.45637255 0.1372549 0.01372549
0.50196078 0.13333333 0.0088235294
0.55098039 0.13161765 0.0041666667
0.59215686 0.13627451 0.012745098
0.63602941 0.14117647 0.019117647
0.68039216 0.14117647 0.021568627
0.72352941 0.14436275 0.018382353
0.76470588 0.14509804 0.018627451
0.80196078 0.14509804 0.030882353
0.84215686 0.14509804 0.045098039
0.87990196 0.14485294 0.044362745
0.91764706 0.14117647 0.028921569
0.95416667 0.13921569 0.015441176
0.98235294 0.1372549 0.0039215686
0.086764706 0.19411765 0.043137255
0.086764706 0.19411765 0.042830882
0.096078431 0.19754902 0.041789216
0.12401961 0.19368873 0.035723039
0.15490196 0.19411765 0.035539216
0.18970588 0.19411765 0.034865196
0.23088235 0.19019608 0.02879902
0.27205882 0.18265931 0.022242647
0.31372549 0.17892157 0.020098039
0.36256127 0.18106618 0.020098039
0.40882353 0.18235294 0.020955882
0.45637255 0.18241422 0.020098039
0.50196078 0.18259804 0.020588235
0.54705882 0.17886029 0.020098039
0.59203431 0.17843137 0.023161765
0.63333333 0.18235294 0.027941176
0.67843137 0.18627451 0.031862745
0.72303922 0.18890931 0.029227941
0.76372549 0.19019608 0.024877451
0.80196078 0.19019608 0.030882353
0.83921569 0.19019608 0.040931373
0.87647059 0.18670343 0.038235294
0.91458333 0.18247549 0.025857843
0.95471814 0.17696078 0.014705882
0.99117647 0.16715686 0.0014705882
0.093137255 0.23235294 0.040196078
0.093137255 0.23137255 0.037377451
0.095343137 0.22843137 0.032352941
0.12095588 0.2310049 0.034926471
0.1495098 0.23529412 0.03872549
0.18284314 0.23529412 0.035294118
0.22058824 0.23137255 0.031372549
0.26678922 0.22745098 0.030392157
0.31372549 0.22647059 0.030392157
0.36127451 0.22647059 0.030392157
0.40882353 0.22745098 0.026470588
0.4567402 0.22745098 0.026470588
0.50147059 0.23137255 0.034803922
0.54705882 0.22647059 0.030392157
0.58897059 0.22426471 0.036519608
0.63333333 0.22647059 0.038235294
0.67843137 0.22745098 0.039215686
0.71960784 0.23137255 0.035294118
0.76372549 0.23455882 0.02745098
0.80196078 0.23529412 0.028308824
0.84068627 0.23431373 0.032352941
0.87598039 0.23137255 0.035171569
0.91151961 0.22818627 0.034313725
0.94803922 0.22316176 0.031862745
0.97352941 0.21862745 0.025490196
0.083333333 0.27794118 0.05
0.083333333 0.27493873 0.046078431
0.083333333 0.27156863 0.04252451
0.10784314 0.27371324 0.042156863
0.14019608 0.27794118 0.044117647
0.17254902 0.27647059 0.03872549
0.21139706 0.27254902 0.03247549
0.2622549 0.27254902 0.036764706
0.30980392 0.27254902 0.039215686
0.35827206 0.27101716 0.036764706
0.40882353 0.27254902 0.03247549
0.46029412 0.27383578 0.02745098
0.50465686 0.27328431 0.028186275
0.54705882 0.27254902 0.037071078
0.58823529 0.27254902 0.044240196
0.63333333 0.27254902 0.05
0.6745098 0.27254902 0.048529412
0.71960784 0.27555147 0.039767157
0.76470588 0.27647059 0.030392157
0.80735294 0.27647059 0.023529412
0.84117647 0.27647059 0.026715686
0.87598039 0.27647059 0.037254902
0.90980392 0.27463235 0.044240196
0.94166667 0.27346814 0.043137255
0.96470588 0.27009804 0.035294118
0.058823529 0.3254902 0.070588235
0.058823529 0.3254902 0.066666667
0.058823529 0.3254902 0.070588235
0.084313725 0.3254902 0.067156863
0.11960784 0.3254902 0.064705882
0.16323529 0.32156863 0.053921569
0.21470588 0.31764706 0.043137255
0.2622549 0.31764706 0.044607843
0.30980392 0.31764706 0.047058824
0.35735294 0.31764706 0.043137255
0.40882353 0.31764706 0.038235294
0.46029412 0.31764706 0.031862745
0.50588235 0.31764706 0.033333333
0.54705882 0.31764706 0.043627451
0.58823529 0.31764706 0.053921569
0.63333333 0.31764706 0.060294118
0.6745098 0.31764706 0.054901961
0.71960784 0.32156863 0.046078431
0.76568627 0.32058824 0.033333333
0.81323529 0.31764706 0.016666667
0.84509804 0.32156863 0.029411765
0.87647059 0.32156863 0.039705882
0.91372549 0.32156863 0.043137255
0.9495098 0.32009804 0.039215686
0.97254902 0.31764706 0.031372549
0.038235294 0.37696078 0.091176471
0.034865196 0.37696078 0.091176471
0.034313725 0.37696078 0.095098039
0.057352941 0.37481618 0.091666667
0.10661765 0.37181373 0.080882353
0.16323529 0.36911765 0.06685049
0.21715686 0.36666667 0.054411765
0.265625 0.36519608 0.053431373
0.31372549 0.3627451 0.053431373
0.36127451 0.3627451 0.050061275
0.40882353 0.36335784 0.045588235
0.45814951 0.36519608 0.042156863
0.50465686 0.36519608 0.043627451
0.54705882 0.36488971 0.05
0.58823529 0.3627451 0.060294118
0.63333333 0.36366422 0.067585784
0.6745098 0.36519608 0.065196078
0.71660539 0.36519608 0.054901961
0.76115196 0.36519608 0.04252451
0.80343137 0.36519608 0.034129902
0.84387255 0.36519608 0.033823529
0.87775735 0.36666667 0.039522059
0.91470588 0.36519608 0.039215686
0.95343137 0.36519608 0.029901961
0.98921569 0.36519608 0.018627451
0.026470588 0.42352941 0.10098039
0.023529412 0.42352941 0.10196078
0.024754902 0.42352941 0.10196078
0.053921569 0.42009804 0.098529412
0.10882353 0.41666667 0.088235294
0.16421569 0.41568627 0.074019608
0.21862745 0.41568627 0.060784314
0.26678922 0.4127451 0.058823529
0.31764706 0.41176471 0.058823529
0.36335784 0.40882353 0.056985294
0.41176471 0.41176471 0.055882353
0.45686275 0.4127451 0.05502451
0.50392157 0.4127451 0.053431373
0.54705882 0.41262255 0.060294118
0.59117647 0.41176471 0.066666667
0.63333333 0.41176471 0.072671569
0.6745098 0.41176471 0.070588235
0.71507353 0.40992647 0.06372549
0.75612745 0.40882353 0.054901961
0.79803922 0.41139706 0.048529412
0.83921569 0.41176471 0.046568627
0.87647059 0.40882353 0.044117647
0.91372549 0.40784314 0.040931373
0.95453431 0.40784314 0.032352941
0.97941176 0.40784314 0.028431373
0.023529412 0.46862745 0.098039216
0.023529412 0.46862745 0.098039216
0.029289216 0.4685049 0.098529412
0.06372549 0.46470588 0.095036765
0.11911765 0.46078431 0.084803922
0.17107843 0.46078431 0.074019608
0.22205882 0.46078431 0.06372549
0.27009804 0.46060049 0.062438725
0.31764706 0.46029412 0.066176471
0.36519608 0.46029412 0.066176471
0.41176471 0.46029412 0.066176471
0.45686275 0.46029412 0.062316176
0.50392157 0.46029412 0.060539216
0.54705882 0.46029412 0.066237745
0.59215686 0.45772059 0.073161765
0.63333333 0.45686275 0.078125
0.6745098 0.45637255 0.077941176
0.71176471 0.45294118 0.071875
0.75294118 0.45294118 0.066176471
0.79411765 0.45594363 0.062254902
0.83553922 0.45637255 0.058333333
0.87647059 0.45294118 0.054411765
0.91372549 0.45257353 0.047916667
0.94822304 0.45245098 0.042647059
0.96519608 0.45245098 0.042647059
0.021568627 0.51372549 0.094117647
0.022794118 0.51372549 0.094117647
0.030392157 0.51323529 0.094117647
0.070343137 0.50980392 0.092401961
0.12352941 0.50588235 0.082352941
0.175 0.50588235 0.074264706
0.22254902 0.50588235 0.070588235
0.27328431 0.50588235 0.068627451
0.32156863 0.50588235 0.070588235
0.36789216 0.50588235 0.070588235
0.4127451 0.50637255 0.070588235
0.46029412 0.50612745 0.068627451
0.50588235 0.50588235 0.065686275
0.54730392 0.50588235 0.067156863
0.59215686 0.50392157 0.074509804
0.63259804 0.50196078 0.079166667
0.67058824 0.49803922 0.082352941
0.71176471 0.49803922 0.079166667
0.75294118 0.49803922 0.076470588
0.79411765 0.49803922 0.070833333
0.83529412 0.5 0.068627451
0.87598039 0.49803922 0.064215686
0.9122549 0.49803922 0.057352941
0.94142157 0.49607843 0.052941176
0.95294118 0.49411765 0.052941176
0.015686275 0.55882353 0.090196078
0.017830882 0.55882353 0.090196078
0.026470588 0.55526961 0.090196078
0.072058824 0.55490196 0.08627451
0.12352941 0.55147059 0.080637255
0.17101716 0.55140931 0.078431373
0.21948529 0.55098039 0.075857843
0.27401961 0.54754902 0.074509804
0.32156863 0.54754902 0.074509804
0.36911765 0.55098039 0.075
0.41568627 0.55147059 0.074509804
0.46078431 0.55147059 0.071507353
0.50588235 0.55098039 0.068872549
0.54705882 0.55098039 0.070588235
0.58823529 0.54754902 0.074877451
0.62941176 0.54705882 0.080208333
0.67058824 0.54362745 0.082843137
0.71176471 0.54313725 0.082843137
0.75294118 0.54313725 0.082352941
0.79411765 0.54356618 0.078492647
0.83529412 0.54362745 0.074754902
0.87598039 0.54362745 0.070159314
0.91041667 0.54313725 0.066666667
0.93449755 0.54185049 0.063235294
0.94509804 0.53970588 0.063235294
0.011764706 0.60294118 0.08627451
0.011764706 0.6 0.08627451
0.020588235 0.5997549 0.08627451
0.068995098 0.59901961 0.08247549
0.11813725 0.59901961 0.083823529
0.16678922 0.59865196 0.085294118
0.21789216 0.59607843 0.081617647
0.27009804 0.59215686 0.078431373
0.32156863 0.59215686 0.078431373
0.36911765 0.59571078 0.078431373
0.41568627 0.59607843 0.078431373
0.46078431 0.59607843 0.074877451
0.50588235 0.59558824 0.073529412
0.55 0.59215686 0.073651961
0.59117647 0.59215686 0.078186275
0.63125 0.59178922 0.082352941
0.67058824 0.58823529 0.08627451
0.71176471 0.58823529 0.08627451
0.75294118 0.58823529 0.085294118
0.79411765 0.58823529 0.082352941
0.83529412 0.59117647 0.078431373
0.87598039 0.59117647 0.074387255
0.90710784 0.58823529 0.070588235
0.93529412 0.5872549 0.066666667
0.94803922 0.5872549 0.066666667
0.0093137255 0.64509804 0.084803922
0.0093137255 0.64509804 0.083272059
0.014583333 0.64154412 0.082720588
0.059129902 0.64479167 0.087561275
0.10833333 0.64509804 0.088970588
0.15784314 0.64264706 0.090196078
0.21262255 0.64117647 0.08627451
0.26709559 0.63817402 0.080882353
0.32156863 0.6372549 0.078431373
0.36911765 0.63817402 0.078431373
0.41568627 0.63872549 0.078431373
0.46207108 0.6372549 0.078615196
0.50857843 0.6372549 0.078431373
0.55098039 0.6372549 0.078615196
0.59215686 0.63370098 0.082352941
0.63333333 0.63333333 0.08627451
0.6745098 0.63333333 0.087745098
0.71323529 0.63333333 0.090196078
0.75294118 0.63333333 0.087377451
0.79411765 0.63480392 0.08627451
0.83529412 0.6372549 0.082352941
0.87598039 0.6372549 0.078125
0.91017157 0.63480392 0.071568627
0.94019608 0.63333333 0.066666667
0.95441176 0.63088235 0.066666667
0.019607843 0.68627451 0.082352941
0.019607843 0.68627451 0.082352941
0.029411765 0.68627451 0.083333333
0.05 0.68970588 0.093627451
0.094117647 0.69019608 0.094117647
0.15196078 0.68627451 0.090196078
0.20980392 0.68627451 0.087254902
0.26617647 0.68235294 0.082352941
0.32156863 0.68235294 0.078431373
0.36911765 0.68235294 0.078431373
0.41568627 0.68235294 0.082352941
0.46421569 0.67843137 0.082352941
0.50980392 0.67843137 0.082352941
0.55098039 0.67843137 0.082843137
0.59215686 0.6754902 0.08627451
0.63333333 0.6745098 0.090196078
0.6745098 0.6745098 0.090196078
0.71568627 0.6745098 0.090196078
0.75686275 0.67843137 0.090196078
0.79803922 0.67843137 0.08627451
0.83921569 0.68235294 0.084313725
0.87647059 0.68235294 0.081862745
0.91078431 0.67941176 0.074509804
0.94558824 0.67843137 0.066666667
0.96470588 0.6745098 0.062745098
0.02745098 0.72745098 0.078431373
0.032352941 0.72745098 0.07935049
0.045465686 0.72745098 0.08627451
0.062745098 0.72873775 0.091482843
0.10490196 0.72745098 0.088480392
0.16078431 0.72745098 0.087561275
0.21678922 0.725 0.083823529
0.26954657 0.725 0.079901961
0.32401961 0.725 0.075980392
0.37003676 0.72408088 0.075980392
0.41568627 0.71960784 0.079901961
0.46078431 0.71960784 0.082352941
0.50857843 0.71960784 0.083578431
0.55098039 0.71960784 0.086580882
0.59215686 0.7185049 0.090196078
0.63333333 0.71568627 0.094117647
0.6745098 0.71568627 0.094117647
0.71568627 0.71568627 0.086213235
0.75686275 0.71776961 0.083210784
0.79803922 0.71960784 0.079901961
0.83602941 0.72107843 0.075980392
0.87598039 0.72352941 0.075490196
0.91017157 0.72352941 0.069117647
0.94405637 0.72052696 0.063664216
0.975 0.71960784 0.058823529
0.032352941 0.76470588 0.073529412
0.042279412 0.76470588 0.078063725
0.062745098 0.76764706 0.082107843
0.090318627 0.76764706 0.077818627
0.13039216 0.76470588 0.075
0.18088235 0.76372549 0.076102941
0.23235294 0.76151961 0.072794118
0.28382353 0.75980392 0.06997549
0.33333333 0.75980392 0.070588235
0.3745098 0.75980392 0.066053922
0.41985294 0.75686275 0.066421569
0.46556373 0.75686275 0.072181373
0.51029412 0.75686275 0.075
0.55196078 0.75980392 0.084436275
0.59215686 0.75759804 0.092156863
0.63333333 0.75686275 0.09375
0.6745098 0.75686275 0.089215686
0.71568627 0.75625 0.075
0.75686275 0.75686275 0.067892157
0.79803922 0.75686275 0.064828431
0.83529412 0.76078431 0.061764706
0.87205882 0.76078431 0.061764706
0.90686275 0.76004902 0.058578431
0.94276961 0.75980392 0.056740196
0.97254902 0.75686275 0.053921569
0.035294118 0.80196078 0.067156863
0.053615196 0.80226716 0.071078431
0.084313725 0.80245098 0.06752451
0.11819853 0.80245098 0.06372549
0.15588235 0.80196078 0.059803922
0.20147059 0.79852941 0.056311275
0.2495098 0.79816176 0.058455882
0.29920343 0.79460784 0.063235294
0.34068627 0.79460784 0.063235294
0.38186275 0.79411765 0.059007353
0.42352941 0.79411765 0.054534314
0.46856618 0.79411765 0.055821078
0.51372549 0.79411765 0.059558824
0.55490196 0.79460784 0.068566176
0.59571078 0.79718137 0.081862745
0.63547794 0.79803922 0.085477941
0.6745098 0.79460784 0.075
0.71911765 0.79411765 0.062561275
0.75943627 0.7942402 0.051838235
0.79803922 0.79803922 0.048039216
0.83529412 0.79803922 0.048039216
0.86905637 0.79803922 0.047977941
0.90330882 0.79460784 0.04754902
0.93921569 0.79442402 0.04754902
0.96862745 0.79411765 0.04754902
0.049019608 0.8372549 0.060784314
0.075245098 0.83848039 0.055637255
0.10882353 0.83970588 0.046078431
0.14338235 0.83946078 0.048284314
0.18137255 0.8372549 0.042156863
0.22205882 0.8372549 0.039460784
0.26617647 0.83529412 0.039215686
0.30980392 0.83137255 0.047058824
0.35098039 0.83137255 0.050980392
0.38823529 0.83137255 0.049019608
0.42941176 0.83137255 0.040686275
0.47426471 0.83137255 0.035539216
0.51764706 0.83137255 0.041176471
0.55882353 0.83137255 0.051470588
0.6 0.83284314 0.061764706
0.64044118 0.83333333 0.062745098
0.68039216 0.83137255 0.054901961
0.72034314 0.83333333 0.048529412
0.76078431 0.83529412 0.038235294
0.79852941 0.83529412 0.033333333
0.83333333 0.83431373 0.033333333
0.86813725 0.83308824 0.035294118
0.9004902 0.82941176 0.037254902
0.93848039 0.82941176 0.037254902
0.96862745 0.83137255 0.037254902
0.093137255 0.87254902 0.05
0.10900735 0.87254902 0.037561275
0.13370098 0.87598039 0.025367647
0.16764706 0.87604167 0.040502451
0.20269608 0.87254902 0.030882353
0.23866422 0.87254902 0.02120098
0.27892157 0.87205882 0.018504902
0.32009804 0.86862745 0.028615196
0.35735294 0.86862745 0.039705882
0.39803922 0.86862745 0.044607843
0.43578431 0.86862745 0.034313725
0.48039216 0.86862745 0.020098039
0.52156863 0.86862745 0.024754902
0.5627451 0.86862745 0.035294118
0.60392157 0.86862745 0.049142157
0.64509804 0.86862745 0.040686275
0.68284314 0.86862745 0.034313725
0.72352941 0.87205882 0.030392157
0.76470588 0.87254902 0.023529412
0.80196078 0.87254902 0.020098039
0.83333333 0.87034314 0.023284314
0.86421569 0.86770833 0.019117647
0.89901961 0.86470588 0.022916667
0.93921569 0.86470588 0.027144608
0.97254902 0.86813725 0.026960784
0.14803922 0.91372549 0.039215686
0.15355392 0.91372549 0.031862745
0.1629902 0.91372549 0.020588235
0.18186275 0.91372549 0.045710784
0.21715686 0.91127451 0.032843137
0.25208333 0.90980392 0.022058824
0.2870098 0.90686275 0.0125
0.32647059 0.90686275 0.03627451
0.36470588 0.90980392 0.053921569
0.40306373 0.90980392 0.051470588
0.44313725 0.90980392 0.037990196
0.48431373 0.90980392 0.029534314
0.52156863 0.90980392 0.02745098
0.5627451 0.90980392 0.034926471
0.60392157 0.90980392 0.043137255
0.64509804 0.90980392 0.029901961
0.68627451 0.90686275 0.01372549
0.72745098 0.90980392 0.014583333
0.76470588 0.91151961 0.028186275
0.80196078 0.91115196 0.037254902
0.83333333 0.90833333 0.026470588
0.86421569 0.90281863 0.010906863
0.89803922 0.90196078 0.011029412
0.93921569 0.90404412 0.023529412
0.96862745 0.90588235 0.023529412
0.16078431 0.95343137 0.059313725
0.1622549 0.95490196 0.057843137
0.16960784 0.95490196 0.053921569
0.19068627 0.95490196 0.056066176
0.22303922 0.95490196 0.055392157
0.26029412 0.9504902 0.065992647
0.29227941 0.9372549 0.040686275
0.33137255 0.94368873 0.06060049
0.36862745 0.95245098 0.060294118
0.40827206 0.95098039 0.057291667
0.44644608 0.94803922 0.055759804
0.48449755 0.95098039 0.051776961
0.5254902 0.95098039 0.05
0.56636029 0.95098039 0.048223039
0.60392157 0.95208333 0.044607843
0.64601716 0.95098039 0.037745098
0.68627451 0.94411765 0.017156863
0.72352941 0.94209559 0.022977941
0.75931373 0.94987745 0.045588235
0.79675245 0.95098039 0.057843137
0.82941176 0.94362745 0.042156863
0.86292892 0.93921569 0.027634804
0.89803922 0.93921569 0.024019608
0.94160539 0.94460784 0.016605392
0.97794118 0.95098039 0.018137255
0.16470588 0.98431373 0.078431373
0.16862745 0.98676471 0.078431373
0.16960784 0.99313725 0.074509804
0.19460784 0.98872549 0.074509804
0.2254902 0.98823529 0.074509804
0.25686275 0.99460784 0.070098039
0.29411765 0.95980392 0.059803922
0.33382353 0.96127451 0.060294118
0.37254902 0.99607843 0.066666667
0.41127451 0.98578431 0.069117647
0.45 0.98431373 0.070588235
0.48823529 0.9877451 0.070588235
0.52745098 0.98823529 0.066666667
0.56666667 0.98431373 0.058823529
0.60490196 0.98823529 0.051960784
0.64509804 0.99166667 0.045588235
0.68627451 0.96470588 0.035294118
0.72107843 0.95147059 0.033823529
0.75196078 0.9754902 0.065686275
0.78676471 0.98088235 0.071078431
0.82352941 0.97647059 0.060784314
0.86078431 0.97647059 0.054901961
0.89803922 0.97647059 0.051960784
0.94313725 0.98186275 0.030882353
0.99215686 0.99607843 0.0078431373
0.024509804 0.030882353 0.045098039
0.053860294 0.046568627 0.051470588
0.088848039 0.047916667 0.053431373
0.1127451 0.017647059 0.039215686
0.14313725 0.010294118 0.032107843
0.18186275 0.014215686 0.034803922
0.21666667 0.011764706 0.03125
0.25441176 0.011764706 0.030882353
0.30196078 0.018137255 0.030882353
0.3495098 0.019607843 0.030882353
0.40098039 0.015318627 0.026348039
0.45245098 0.0047181373 0.018443627
0.49803922 0.010539216 0.018137255
0.54313725 0.025490196 0.024509804
0.58823529 0.036887255 0.025612745
0.63480392 0.046629902 0.025980392
0.67990196 0.043627451 0.022058824
0.72444853 0.032414216 0.017218137
0.76862745 0.015196078 0.011764706
0.80980392 0.0052083333 0.015196078
0.84436275 0.017647059 0.026715686
0.87990196 0.02254902 0.027267157
0.91764706 0.027328431 0.023039216
0.95490196 0.016727941 0.013664216
0.98872549 0.0073529412 0.0073529412
0.037806373 0.056862745 0.051470588
0.061726409 0.06807598 0.057781863
0.094837623 0.068443627 0.058042279
0.11881127 0.040808824 0.043252145
0.14905025 0.038449755 0.03872549
0.18609069 0.042647059 0.041176471
0.22242647 0.040716912 0.038265931
0.25931373 0.038380821 0.034803922
0.30496324 0.042647059 0.034803922
0.35377604 0.045442708 0.034229473
0.40398284 0.040977328 0.029212623
0.45245098 0.037369792 0.023223039
0.49803922 0.037990196 0.023039216
0.54313725 0.044492953 0.024816176
