site/assets/luts/sha256-3a78ef2f6880a58654df44701d61623229ad38ac1e34bf71e7e0fe00334981d1.cube
# LUTr-Schema-Version: 2
# LUTr-ID: sha256-3a78ef2f6880a58654df44701d61623229ad38ac1e34bf71e7e0fe00334981d1
# LUTr-Title: vintage alt
# LUTr-Collection: Natron HaldCLUT
# LUTr-Collection-ID: natron-haldclut-presets
# LUTr-Source: https://github.com/NatronGitHub/clut
# LUTr-Retrieved: 2026-07-27
# LUTr-Source-File: submissions/natron-haldclut-presets/various/vintage_alt.png
# LUTr-Source-Format: HALD-PNG
# LUTr-Source-SHA256: 3a78ef2f6880a58654df44701d61623229ad38ac1e34bf71e7e0fe00334981d1
# LUTr-License: CC-BY-SA-4.0
# LUTr-License-URL: https://github.com/NatronGitHub/clut#license
# LUTr-License-Basis: repo-license-file
# LUTr-Transform-Class: film-emulation
# LUTr-Tags: creative, film, film-emulation, hald-clut, natron, png, vintage, cube
# LUTr-Input-Color-Space: srgb
# LUTr-Input-Gamut: rec709
# LUTr-Input-Transfer: srgb
# LUTr-Output-Color-Space: srgb
# LUTr-Output-Gamut: rec709
# LUTr-Output-Transfer: srgb
# LUTr-Color-Space-Confidence: assumed-display-referred
# LUTr-Domain-Normalized: true
# LUTr-Shaper: none
# LUTr-Original-Grid: 64x64x64
# LUTr-Conversion-Grid: 25x25x25
# LUTr-Conversion-Interpolation: trilinear
# LUTr-Conversion-Method: HALD-PNG LUT image decoded at 16-bit and sampled to 25x25x25 3D CUBE
# LUTr-Conversion-Tool: LUTr scripts/convert-all-to-cube.mjs 2.0.0
# LUTr-Conversion-Date: 2026-07-27
# LUTr-Note: Preserve this metadata and the upstream license notices when redistributing.
TITLE "vintage alt"
LUT_3D_SIZE 9
DOMAIN_MIN 0 0 0
DOMAIN_MAX 1 1 1
0.12156863 0 0.12156863
0.22990196 0.050980392 0.16862745
0.33431373 0.012745098 0.18823529
0.44901961 0.0078431373 0.13235294
0.55490196 0.021568627 0.13333333
0.66323529 0.059803922 0.15
0.77254902 0.012745098 0.13431373
0.87990196 0.011764706 0.16470588
0.98823529 0.0039215686 0.11764706
0.16862745 0.12745098 0.16127451
0.22941176 0.12352941 0.12892157
0.3372549 0.11568627 0.17071078
0.44509804 0.12352941 0.13106618
0.55686275 0.12352941 0.13308824
0.66292892 0.12745098 0.12254902
0.77647059 0.13125 0.14852941
0.88039216 0.13137255 0.16127451
0.97647059 0.12352941 0.17254902
0.14607843 0.24705882 0.14215686
0.23333333 0.23933824 0.14375
0.33823529 0.23137255 0.15686275
0.44840686 0.23811275 0.1372549
0.56078431 0.24313725 0.15196078
0.67254902 0.25098039 0.14473039
0.78039216 0.25098039 0.14289216
0.88382353 0.25098039 0.15392157
0.97156863 0.25490196 0.15392157
0.12794118 0.37205882 0.12401961
0.22990196 0.3627451 0.1408701
0.33823529 0.35490196 0.1432598
0.44901961 0.35882353 0.14509804
0.56078431 0.37058824 0.16078431
0.675 0.3745098 0.15839461
0.7814951 0.37058824 0.14301471
0.88382353 0.37077206 0.13872549
0.98676471 0.37205882 0.12696078
0.16470588 0.49019608 0.14313725
0.24779412 0.48627451 0.1372549
0.3372549 0.49068627 0.1245098
0.44656863 0.49142157 0.13529412
0.56078431 0.50196078 0.14313725
0.67573529 0.50196078 0.14901961
0.77941176 0.49803922 0.14852941
0.88039216 0.49019608 0.15122549
0.97254902 0.49411765 0.15098039
0.16323529 0.61372549 0.14509804
0.24019608 0.60637255 0.13382353
0.33933824 0.60980392 0.13762255
0.44564951 0.61764706 0.12696078
0.55612745 0.6254902 0.1379902
0.66862745 0.6254902 0.15686275
0.77610294 0.62156863 0.16507353
0.88382353 0.61764706 0.17273284
0.97401961 0.61764706 0.17401961
0.12843137 0.74509804 0.12843137
0.22990196 0.7372549 0.14117647
0.34117647 0.7372549 0.14901961
0.44509804 0.74117647 0.15
0.5504902 0.74509804 0.15735294
0.66041667 0.74509804 0.16286765
0.76862745 0.74509804 0.16838235
0.87647059 0.74509804 0.15968137
0.98039216 0.74509804 0.16176471
0.13333333 0.86078431 0.16911765
0.23339461 0.86078431 0.14515931
0.34509804 0.85686275 0.14889706
0.44509804 0.86292892 0.16911765
0.54705882 0.86470588 0.17647059
0.65508578 0.85814951 0.17518382
0.76470588 0.86470588 0.16470588
0.87604167 0.86862745 0.15202206
0.97598039 0.86862745 0.14607843
0.12941176 0.98039216 0.16862745
0.2372549 0.97254902 0.1495098
0.34117647 0.97352941 0.14411765
0.44656863 0.975 0.18284314
0.54509804 0.9627451 0.18431373
0.65147059 0.94901961 0.18039216
0.76470588 0.96470588 0.16372549
0.87990196 0.97990196 0.15735294
0.97647059 0.98039216 0.18823529
0.17352941 0.02745098 0.21813725
0.22984069 0.0073529412 0.21372549
0.34080882 0.0073529412 0.21421569
0.44656863 0.016973039 0.21421569
0.55686275 0.017647059 0.21421569
0.66341912 0.022855392 0.21421569
0.77156863 0.012254902 0.21556373
0.86819853 0.015686275 0.21421569
0.94215686 0.062254902 0.21421569
0.13627451 0.12352941 0.21421569
0.23382353 0.12352941 0.22082567
0.3372549 0.11928615 0.2216299
0.44901961 0.12240349 0.21599265
0.55511642 0.12352941 0.21421569
0.66109069 0.13137255 0.21029412
0.76776961 0.13137255 0.21948529
0.87292433 0.13137255 0.21813725
0.96911765 0.12352941 0.21421569
0.14375 0.2432598 0.21813725
0.23382353 0.23921569 0.22205882
0.33823529 0.23679534 0.22242647
0.44656863 0.23921569 0.21421569
0.55294118 0.24313725 0.21421569
0.66337316 0.25245098 0.21421569
0.77166054 0.25882353 0.21862745
0.87222733 0.2557598 0.22205882
0.96090686 0.24705882 0.21862745
0.14117647 0.37058824 0.21813725
0.22971814 0.3627451 0.21813725
0.33823529 0.35490196 0.21813725
0.4457644 0.36196385 0.21421569
0.55294118 0.37058824 0.21534926
0.66501225 0.38136489 0.22303156
0.77291667 0.37843137 0.21813725
0.86626072 0.37391238 0.22205882
0.95863971 0.37058824 0.21813725
0.15882353 0.49411765 0.22598039
0.23823529 0.48627451 0.22012868
0.3372549 0.48627451 0.21029412
0.44509804 0.49019608 0.21029412
0.55294118 0.50196078 0.21041667
0.66519608 0.50588235 0.21822917
0.77561275 0.49748775 0.21838235
0.87797181 0.48995098 0.22205882
0.95686275 0.48823529 0.22205882
0.15716912 0.61372549 0.2245098
0.23643536 0.60980392 0.21452206
0.33823529 0.6127451 0.21029412
0.44509804 0.62156863 0.20644148
0.55686275 0.62156863 0.20922181
0.66727175 0.61795343 0.21813725
0.77647059 0.61372549 0.22231924
0.88409161 0.60980392 0.22647059
0.97598039 0.61109069 0.2286152
0.14117647 0.7372549 0.21813725
0.22977941 0.73333333 0.21421569
0.33823529 0.73553922 0.21556373
0.44656863 0.74140625 0.21433824
0.55490196 0.7372549 0.21556373
0.66631434 0.7372549 0.21862745
0.77512255 0.7372549 0.22254902
0.88382353 0.73382353 0.22254902
0.97953431 0.7372549 0.22205882
0.12640931 0.86427696 0.21078431
0.23333333 0.85723805 0.21900276
0.33860294 0.85519301 0.22205882
0.44509804 0.86421569 0.22205882
0.55291054 0.85490196 0.22205882
0.66076134 0.84479167 0.22254902
0.77156863 0.86061581 0.22254902
0.87990196 0.85605086 0.21813725
0.96862745 0.86078431 0.21813725
0.14852941 0.96911765 0.21421569
0.23382353 0.97947304 0.22205882
0.34129902 0.96862745 0.22598039
0.44509804 0.97248775 0.2185049
0.55098039 0.94705882 0.22205882
0.65900735 0.9372549 0.22647059
0.76862745 0.95784314 0.22512255
0.87647059 0.9651348 0.21813725
0.98088235 0.97745098 0.21421569
0.13235294 0.0068627451 0.30686275
0.24117647 0.019607843 0.30686275
0.3497549 0.019607843 0.31078431
0.44546569 0.010416667 0.30784314
0.55686275 0.010294118 0.30735294
0.66323529 0.019607843 0.30294118
0.76862745 0.019362745 0.30294118
0.85882353 0.020098039 0.30379902
0.92941176 0.044117647 0.30294118
0.14607843 0.12745098 0.31078431
0.23806679 0.12745098 0.31078431
0.34607843 0.12466299 0.31078431
0.44643076 0.12654718 0.30723039
0.55490196 0.12745098 0.30686275
0.65931373 0.12745098 0.30294118
0.7638174 0.12745098 0.30297181
0.87120098 0.12352941 0.30686275
0.95637255 0.12794118 0.30686275
0.14117647 0.24705882 0.31470588
0.23140319 0.23921569 0.31470588
0.34117647 0.23866422 0.31470588
0.44901961 0.24595588 0.30686275
0.55147059 0.25098039 0.30686275
0.65747549 0.25490196 0.30294118
0.76470588 0.25808824 0.30294118
0.86813725 0.25098039 0.31078431
0.95980392 0.24313725 0.31078431
0.14509804 0.36666667 0.31470588
0.23043811 0.36242341 0.31309743
0.3372549 0.35882353 0.31078431
0.44356618 0.36560968 0.30294118
0.54901961 0.37058824 0.30294118
0.65931373 0.37843137 0.30294118
0.76372549 0.37843137 0.30309436
0.85392157 0.37406556 0.31078431
0.94546569 0.3627451 0.31078431
0.14558824 0.49019608 0.31862745
0.23382353 0.49019608 0.31078431
0.33431373 0.49019608 0.30147059
0.44117647 0.49307598 0.29901961
0.55196078 0.49803922 0.29901961
0.66078431 0.5 0.30294118
0.76776961 0.49595588 0.30686275
0.86819853 0.49191176 0.31078431
0.95294118 0.48235294 0.31470588
0.14656863 0.61372549 0.31360294
0.23382353 0.61666667 0.30589767
0.3372549 0.61764706 0.29901961
0.44509804 0.6182598 0.29679841
0.55686275 0.61764706 0.29901961
0.66337316 0.61372549 0.30294118
0.77193627 0.60860907 0.30603554
0.88016238 0.60588235 0.31078431
0.975 0.61188725 0.31078431
0.14583333 0.7372549 0.30686275
0.22990196 0.74019608 0.30294118
0.33805147 0.7411152 0.30294118
0.44509804 0.73753064 0.30294118
0.55686275 0.7372549 0.30294118
0.66715686 0.73333333 0.30294118
0.7754902 0.72941176 0.30294118
0.88382353 0.72683824 0.30686275
0.96568627 0.72941176 0.31078431
0.14154412 0.85637255 0.30294118
0.23650429 0.86041667 0.30413603
0.34044118 0.85980392 0.30686275
0.44509804 0.85880821 0.30821078
0.55490196 0.85661765 0.30686275
0.66715686 0.85602022 0.30294118
0.77647059 0.85799632 0.30294118
0.88002451 0.85686275 0.30428922
0.96862745 0.85686275 0.30686275
0.19215686 0.94607843 0.30686275
0.2377451 0.95330882 0.31041667
0.34215686 0.97377451 0.31078431
0.44509804 0.9689951 0.31360294
0.55441176 0.95245098 0.31078431
0.66470588 0.95404412 0.30686275
0.77622549 0.96887255 0.30294118
0.88382353 0.96875 0.30428922
0.98627451 0.98529412 0.30686275
0.14264706 0.015686275 0.40343137
0.24166667 0.023529412 0.40343137
0.34546569 0.03627451 0.40735294
0.44656863 0.020526961 0.40343137
0.55098039 0.030882353 0.39558824
0.66323529 0.02745098 0.39166667
0.77156863 0.031004902 0.39166667
0.87598039 0.023529412 0.38952206
0.95539216 0.021078431 0.39558824
0.14509804 0.12745098 0.40343137
0.24005055 0.13110447 0.40343137
0.34607843 0.13040748 0.40735294
0.44901961 0.12352941 0.40343137
0.5497549 0.12745098 0.39623162
0.65697763 0.12745098 0.39558824
0.76764706 0.12745098 0.39509804
0.87555147 0.12745098 0.39509804
0.96666667 0.13137255 0.39558824
0.13333333 0.24705882 0.40343137
0.2307598 0.24203431 0.40735294
0.34117647 0.24157475 0.40744485
0.44901961 0.23921569 0.40343137
0.55098039 0.24491422 0.3995098
0.6560815 0.25098039 0.39558824
0.76764706 0.25098039 0.39558824
0.87610294 0.24742647 0.3995098
0.96813725 0.24313725 0.3995098
0.1372549 0.36666667 0.40435049
0.22941176 0.36618413 0.40343137
0.33431373 0.3627451 0.40274203
0.44264706 0.35882353 0.3995098
0.55098039 0.36348039 0.3995098
0.65931373 0.3745098 0.39558824
0.76409314 0.37843137 0.39620098
0.86329657 0.37058824 0.3995098
0.94656863 0.35882353 0.40343137
0.13137255 0.49338235 0.40220588
0.23367034 0.49411765 0.3995098
0.33431373 0.49485294 0.39166667
0.44117647 0.49289216 0.3877451
0.55098039 0.49411765 0.39166667
0.66078431 0.49803922 0.39558824
0.76372549 0.5 0.3995098
0.8611826 0.49362745 0.40343137
0.9372549 0.48235294 0.40343137
0.13817402 0.61372549 0.40343137
0.23382353 0.62156863 0.39558824
0.3372549 0.62156863 0.3877451
0.44509804 0.61764706 0.3877451
0.55490196 0.61372549 0.39166667
0.66323529 0.61372549 0.39558824
0.76973039 0.61294424 0.39558824
0.8736443 0.60980392 0.40080423
0.94748775 0.6122549 0.3995098
0.14791667 0.7372549 0.3995098
0.23382353 0.74509804 0.39166667
0.33897059 0.74436275 0.39166667
0.44656863 0.73794424 0.39166667
0.55686275 0.7372549 0.39558824
0.66470588 0.73333333 0.39558824
0.7754902 0.73333333 0.39558824
0.87107843 0.72941176 0.39558824
0.93982843 0.72941176 0.39558824
0.14509804 0.86078431 0.39558824
0.2372549 0.86452206 0.39515931
0.34509804 0.86439951 0.3995098
0.44901961 0.85931373 0.39816942
0.55882353 0.86078431 0.3995098
0.66862745 0.85686275 0.3995098
0.77941176 0.85422794 0.39460784
0.87600337 0.85294118 0.39166667
0.9495098 0.85686275 0.39166667
0.1504902 0.96323529 0.3995098
0.2372549 0.96323529 0.3995098
0.34571078 0.95833333 0.40343137
0.4504902 0.965625 0.40343137
0.55686275 0.97303922 0.40073529
0.67199755 0.95778186 0.3995098
0.78223039 0.95686275 0.39558824
0.88382353 0.95686275 0.39166667
0.9622549 0.95833333 0.39166667
0.13921569 0.019607843 0.49607843
0.23333333 0.03504902 0.49607843
0.33970588 0.049019608 0.49607843
0.44509804 0.021078431 0.49215686
0.55098039 0.015686275 0.48823529
0.66078431 0.033333333 0.48823529
0.77156863 0.030392157 0.48823529
0.87647059 0.019607843 0.48823529
0.9627451 0.021568627 0.49215686
0.16421569 0.12745098 0.49803922
0.23771446 0.13311887 0.5
0.34117647 0.13278186 0.5
0.44656863 0.11960784 0.49592525
0.54901961 0.11960784 0.48909314
0.66004902 0.12745098 0.48823529
0.77156863 0.12702206 0.48823529
0.86985294 0.12352941 0.49044118
0.95416667 0.12745098 0.49387255
0.14019608 0.25098039 0.49460784
0.23602941 0.24779412 0.5
0.34215686 0.24313725 0.5
0.44656863 0.23921569 0.49607843
0.55098039 0.23921569 0.49215686
0.66078431 0.24705882 0.48823529
0.77156863 0.24705882 0.48823529
0.87230392 0.24313725 0.48841912
0.95490196 0.24313725 0.49215686
0.14362745 0.3752451 0.49215686
0.22981005 0.37074142 0.49607843
0.33823529 0.36323529 0.49877451
0.44733456 0.35490196 0.49635417
0.55490196 0.3627451 0.49215686
0.6620098 0.37058824 0.48823529
0.76764706 0.3745098 0.48823529
0.86832108 0.36881127 0.49246324
0.9372549 0.3627451 0.49215686
0.16176471 0.49803922 0.49215686
0.23382353 0.50110294 0.48909314
0.33823529 0.49338235 0.49019608
0.44620098 0.48823529 0.48921569
0.55588235 0.4877451 0.49068627
0.66323529 0.49411765 0.49215686
0.76764706 0.50196078 0.49215686
0.86029412 0.49754902 0.49607843
0.92745098 0.4872549 0.49215686
0.1627451 0.61372549 0.49215686
0.23446691 0.62156863 0.4877451
0.33823529 0.62156863 0.48627451
0.44901961 0.61568627 0.48431373
0.55882353 0.61372549 0.48823529
0.66715686 0.62083333 0.48970588
0.77156863 0.62083333 0.49215686
0.86798407 0.61960784 0.49215686
0.93872549 0.61764706 0.48823529
0.16421569 0.7372549 0.48823529
0.2377451 0.74117647 0.48823529
0.34215686 0.74068627 0.48823529
0.4504902 0.7372549 0.48872549
0.56078431 0.7372549 0.49215686
0.66893382 0.73872549 0.49215686
0.77561275 0.73921569 0.48823529
0.87598039 0.73854167 0.48578431
0.95539216 0.73921569 0.48431373
0.15073529 0.86078431 0.48848039
0.2372549 0.86078431 0.48823529
0.34607843 0.85294118 0.49215686
0.45303309 0.85686275 0.49607843
0.5627451 0.85772059 0.49436275
0.67254902 0.85652574 0.49215686
0.77941176 0.85686275 0.48431373
0.87840074 0.85686275 0.48431373
0.96691176 0.85882353 0.48431373
0.14705882 0.96078431 0.49607843
0.2377451 0.95686275 0.49215686
0.34901961 0.94509804 0.49607843
0.45563725 0.95612745 0.49607843
0.56078431 0.96862745 0.49607843
0.67377451 0.95686275 0.49215686
0.77990196 0.95735294 0.4877451
0.88382353 0.96691176 0.48431373
0.94901961 0.94117647 0.48039216
0.15294118 0.037745098 0.58872549
0.23988971 0.053431373 0.58872549
0.34215686 0.034803922 0.58370098
0.44509804 0.0082107843 0.58235294
0.55294118 0.030147059 0.57696078
0.66470588 0.044607843 0.58088235
0.7754902 0.041053922 0.58088235
0.87990196 0.013235294 0.58480392
0.975 0.013235294 0.58480392
0.17469363 0.13382353 0.59264706
0.24166667 0.130553 0.59264706
0.34215686 0.12049632 0.58831189
0.44601716 0.12052696 0.58480392
0.55367647 0.12769608 0.58302696
0.66470588 0.13547794 0.58088235
0.77647059 0.13288909 0.58120404
0.88382353 0.12352941 0.58529412
0.97843137 0.12352941 0.59264706
0.15784314 0.25821078 0.59264706
0.23641238 0.2506587 0.5932598
0.34034926 0.24313725 0.59647672
0.44532782 0.24129902 0.59203431
0.55294118 0.24613971 0.58480392
0.66770833 0.24806985 0.58111213
0.7754902 0.25098039 0.58152574
0.87719056 0.24313725 0.58480392
0.95637255 0.23921569 0.58872549
0.14454657 0.38235294 0.58480392
0.23204657 0.37470129 0.59234069
0.34117647 0.36311275 0.59656863
0.44656863 0.3627451 0.59264706
0.55490196 0.36666667 0.58526348
0.66715686 0.37058824 0.58180147
0.77216605 0.37598039 0.58480392
0.87205882 0.36881127 0.58480392
0.94509804 0.3627451 0.58480392
0.16470588 0.5 0.58480392
0.23578431 0.5 0.58480392
0.34117647 0.49019608 0.58872549
0.4504902 0.48327206 0.58900123
0.55686275 0.49019608 0.58872549
0.66470588 0.49803922 0.5879902
0.77156863 0.50196078 0.58480392
0.86691176 0.49788603 0.58480392
0.93995098 0.49215686 0.58480392
0.16415441 0.61617647 0.58088235
0.23382353 0.61716452 0.58088235
0.34117647 0.61502757 0.58480392
0.4504902 0.61014859 0.58480392
0.56078431 0.61568627 0.58826593
0.66862745 0.62303922 0.58780637
0.77254902 0.6254902 0.58272059
0.86568627 0.6254902 0.58088235
0.94564951 0.62156863 0.57941176
0.15477941 0.73333333 0.58480392
0.23628983 0.73693321 0.58235294
0.34215686 0.7372549 0.58480392
0.4504902 0.73526348 0.58439032
0.56078431 0.73780637 0.58498775
0.67107843 0.74509804 0.58872549
0.77941176 0.74656863 0.58088235
0.87990196 0.74509804 0.57696078
0.9689951 0.74227941 0.57696078
0.15147059 0.8504902 0.58480392
0.2377451 0.86002604 0.58480392
0.34607843 0.85379902 0.58872549
0.45305607 0.85116422 0.58872549
0.55989583 0.85955882 0.58872549
0.67199755 0.86470588 0.58480392
0.77941176 0.86832108 0.58088235
0.87990196 0.86252298 0.57696078
0.96960784 0.86470588 0.57726716
0.15784314 0.94264706 0.58872549
0.2377451 0.96439951 0.58872549
0.34607843 0.95330882 0.58982843
0.45441176 0.94754902 0.59264706
0.55882353 0.96936275 0.58872549
0.66862745 0.96954657 0.58480392
0.77830882 0.98223039 0.58872549
0.87628676 0.97156863 0.58088235
0.92794118 0.92941176 0.57696078
0.12745098 0.0088235294 0.67647059
0.2372549 0.042769608 0.66960784
0.34534314 0.048039216 0.66960784
0.44901961 0.025612745 0.66960784
0.55686275 0.028921569 0.66960784
0.66715686 0.026470588 0.67352941
0.77867647 0.021813725 0.67058824
0.87598039 0.031372549 0.67352941
0.95980392 0.031372549 0.67745098
0.14938725 0.12352941 0.68002451
0.2377451 0.12487745 0.67745098
0.34512868 0.12879902 0.67417279
0.44656863 0.12584252 0.67352941
0.55643382 0.13137255 0.67352941
0.66862745 0.13137255 0.67352941
0.77867647 0.1317402 0.67352941
0.87512255 0.1278799 0.67745098
0.95686275 0.11960784 0.68137255
0.14509804 0.25098039 0.68137255
0.2372549 0.24620098 0.68137255
0.34142157 0.24607843 0.68131127
0.44518995 0.24313725 0.68020833
0.55294118 0.24754902 0.67732843
0.66470588 0.25171569 0.67717525
0.7754902 0.24871324 0.67720588
0.8700674 0.24276961 0.67745098
0.95686275 0.23529412 0.67745098
0.12720588 0.3745098 0.67745098
0.22990196 0.37843137 0.68137255
0.33823529 0.37058824 0.68137255
0.44448529 0.36666667 0.68137255
0.55153186 0.37058824 0.68014706
0.66433824 0.3745098 0.67745098
0.77239583 0.3745098 0.67745098
0.87501532 0.36565564 0.67352941
0.95747549 0.3627451 0.67745098
0.15490196 0.4995098 0.67745098
0.2377451 0.49430147 0.67873775
0.34080882 0.48627451 0.68137255
0.44509804 0.48688725 0.68137255
0.55294118 0.49411765 0.68137255
0.66078431 0.49803922 0.67990196
0.77156863 0.50183824 0.6754902
0.87598039 0.49803922 0.67573529
0.97352941 0.49411765 0.67745098
0.14754902 0.61764706 0.67781863
0.23543199 0.61024816 0.67745098
0.34191176 0.60980392 0.67745098
0.44620098 0.61303615 0.67814032
0.55490196 0.62064951 0.68137255
0.6636489 0.6254902 0.68137255
0.76945466 0.6254902 0.67352941
0.87250306 0.6254902 0.66960784
0.96470588 0.62156863 0.67205882
0.1375 0.73627451 0.68137255
0.23382353 0.73333333 0.67745098
0.34044118 0.73333333 0.67352941
0.44620098 0.74117647 0.67352941
0.55686275 0.74509804 0.67928922
0.66700368 0.74901961 0.68137255
0.7747549 0.74901961 0.67352941
0.87598039 0.74901961 0.66960784
0.9627451 0.74509804 0.66568627
0.15392157 0.85294118 0.67732843
0.2377451 0.85686275 0.67745098
0.34215686 0.85637255 0.67745098
0.44656863 0.85209865 0.67745098
0.55490196 0.86470588 0.68137255
0.66470588 0.86470588 0.67905944
0.7754902 0.86727941 0.67352941
0.87598039 0.86470588 0.66960784
0.94031863 0.86041667 0.66960784
0.15882353 0.95588235 0.67647059
0.24178922 0.97193627 0.67745098
0.34191176 0.96176471 0.68039216
0.44840686 0.95637255 0.67928922
0.55294118 0.96862745 0.68137255
0.66470588 0.96862745 0.67745098
0.77254902 0.96862745 0.67352941
0.86813725 0.9682598 0.67352941
0.93039216 0.93333333 0.67058824
0.14117647 0.02745098 0.76617647
0.24166667 0.062254902 0.76182598
0.34595588 0.04754902 0.76617647
0.4504902 0.028431373 0.76617647
0.55294118 0.01372549 0.76789216
0.66323529 0.016176471 0.7622549
0.77120098 0.023651961 0.76617647
0.87555147 0.030882353 0.76617647
0.96470588 0.015686275 0.77009804
0.14117647 0.13137255 0.76617647
0.24204197 0.13267463 0.7622549
0.34989277 0.13409926 0.76617647
0.4504902 0.13126532 0.76617647
0.55490196 0.12723652 0.76813725
0.66323529 0.12352941 0.76470588
0.77120098 0.12745098 0.75484069
0.87205882 0.1278799 0.76537224
0.95686275 0.12052696 0.77009804
0.14816176 0.24313725 0.76997549
0.23893995 0.24215686 0.75788909
0.34617034 0.24313725 0.75413603
0.44656863 0.24313725 0.7589614
0.54944853 0.24313725 0.76268382
0.66064645 0.24313725 0.7622549
0.7685049 0.24313725 0.75428922
0.87598039 0.23921569 0.76660539
0.96127451 0.23921569 0.77401961
0.16127451 0.37843137 0.77401961
0.23349418 0.3745098 0.77254902
0.33702512 0.36666667 0.76599265
0.43706342 0.3627451 0.7618796
0.54509804 0.36666667 0.76332721
0.66023284 0.36960018 0.7669807
0.77156863 0.3685049 0.77009804
0.87205882 0.35882353 0.7622549
0.96047794 0.36666667 0.7658701
0.16911765 0.49411765 0.76789216
0.2375 0.49041054 0.77009804
0.33823529 0.48480392 0.77224265
0.43789828 0.48627451 0.76969975
0.54595588 0.49289216 0.76703431
0.66078431 0.49803922 0.77401961
0.77156863 0.49803922 0.77009804
0.87426471 0.49411765 0.76617647
0.96838235 0.49607843 0.76593137
0.15980392 0.60980392 0.75784314
0.23619026 0.60588235 0.76617647
0.33823529 0.60588235 0.77009804
0.43872549 0.60980392 0.7669807
0.55278799 0.62025123 0.77401961
0.66078431 0.6254902 0.77401961
0.76764706 0.62156863 0.76609988
0.87254902 0.62175245 0.75833333
0.96078431 0.6254902 0.7622549
0.14693627 0.73333333 0.7622549
0.23333333 0.72942708 0.76617647
0.33431373 0.73235294 0.76004902
0.44117647 0.74002757 0.75686275
0.55686275 0.74509804 0.77401961
0.66323529 0.74803922 0.77401961
0.76764706 0.74583333 0.77009804
0.87205882 0.74509804 0.75908395
0.94154412 0.74901961 0.7622549
0.15245098 0.85692402 0.76617647
0.23768382 0.85686275 0.7622549
0.33823529 0.85735294 0.76973039
0.44264706 0.86029412 0.76601562
0.55294118 0.86078431 0.77009804
0.66323529 0.86105239 0.76993719
0.77156863 0.86029412 0.76617647
0.87996324 0.86115962 0.76960784
0.9504902 0.86470588 0.76617647
0.14754902 0.97009804 0.77058824
0.2372549 0.97254902 0.76617647
0.34080882 0.97990196 0.76605392
0.44264706 0.96470588 0.76617647
0.55294118 0.96078431 0.77401961
0.66470588 0.96470588 0.77009804
0.77254902 0.96470588 0.76617647
0.88382353 0.98039216 0.77009804
0.9877451 0.94166667 0.77009804
0.12941176 0.0078431373 0.83921569
0.2372549 0.043137255 0.82745098
0.34117647 0.017647059 0.85
0.44901961 0.032352941 0.81862745
0.55490196 0.015686275 0.83921569
0.65686275 0.041176471 0.82794118
0.76372549 0.019607843 0.85
0.87254902 0.019607843 0.84705882
0.96078431 0.0078431373 0.85490196
0.13284314 0.12352941 0.85539216
0.24852941 0.12401961 0.83229167
0.35772059 0.12352941 0.83835784
0.45294118 0.12647059 0.85147059
0.55686275 0.12377451 0.84264706
0.65667892 0.12352941 0.83167892
0.76372549 0.12352941 0.83186275
0.8721201 0.12745098 0.83921569
0.96862745 0.12401961 0.85441176
0.17156863 0.25 0.84705882
0.25294118 0.24313725 0.82659314
0.35490196 0.24313725 0.82426471
0.44938725 0.23982843 0.8377451
0.5495098 0.23921569 0.82352941
0.65931373 0.23921569 0.83492647
0.76470588 0.23921569 0.82647059
0.87647059 0.24019608 0.83578431
0.98137255 0.24705882 0.85980392
0.17892157 0.3745098 0.85882353
0.23351716 0.37058824 0.84607843
0.33933824 0.3627451 0.82806373
0.43872549 0.36029412 0.81623775
0.54509804 0.3627451 0.81372549
0.66078431 0.36758578 0.8401348
0.77046569 0.36960784 0.84276961
0.87205882 0.3627451 0.81715686
0.94509804 0.36666667 0.82352941
0.18431373 0.49019608 0.8372549
0.23970588 0.48848039 0.84509804
0.33823529 0.48627451 0.84362745
0.43480392 0.48235294 0.82941176
0.54117647 0.48627451 0.83039216
0.66078431 0.49485294 0.84779412
0.77254902 0.49803922 0.85245098
0.87622549 0.49411765 0.83382353
0.96862745 0.49411765 0.84117647
0.18676471 0.60588235 0.81960784
0.25245098 0.60588235 0.83351716
0.3372549 0.6122549 0.8495098
0.43872549 0.60980392 0.84068627
0.54901961 0.61642157 0.84387255
0.65931373 0.62156863 0.84607843
0.76470588 0.61764706 0.83921569
0.87598039 0.62156863 0.83137255
0.97647059 0.6254902 0.84705882
0.15098039 0.7372549 0.83627451
0.2377451 0.73333333 0.83627451
0.33406863 0.73431373 0.83308824
0.44117647 0.7372549 0.83382353
0.55539216 0.74117647 0.8622549
0.65968137 0.74509804 0.85490196
0.76764706 0.74509804 0.85416667
0.87598039 0.74803922 0.83529412
0.97254902 0.74803922 0.84411765
0.12598039 0.86813725 0.84656863
0.22990196 0.86464461 0.84607843
0.33431373 0.86078431 0.83664216
0.44264706 0.86501225 0.83560049
0.55465686 0.86862745 0.84289216
0.66078431 0.86470588 0.84705882
0.76764706 0.86078431 0.84313725
0.87990196 0.86421569 0.83229167
0.98872549 0.86470588 0.86323529
0.13333333 0.97647059 0.80392157
0.22990196 0.98039216 0.84656863
0.33823529 0.95294118 0.83529412
0.44509804 0.97401961 0.85098039
0.55490196 0.9745098 0.85294118
0.66470588 0.97892157 0.85343137
0.77156863 0.95490196 0.82941176
0.88039216 0.98627451 0.86519608
0.98823529 0.98823529 0.86666667
