site/assets/luts/sha256-c740f5b1e7b546a65c1383d0fbecddd936104726b1e08627399798b13f27cf43.cube
# LUTr-Schema-Version: 2
# LUTr-ID: sha256-c740f5b1e7b546a65c1383d0fbecddd936104726b1e08627399798b13f27cf43
# LUTr-Title: fuji provia 400x
# LUTr-Collection: Natron HaldCLUT
# LUTr-Collection-ID: natron-haldclut-presets
# LUTr-Source: https://github.com/NatronGitHub/clut
# LUTr-Retrieved: 2026-07-27
# LUTr-Source-File: submissions/natron-haldclut-presets/colorslide/fuji_provia_400x.png
# LUTr-Source-Format: HALD-PNG
# LUTr-Source-SHA256: c740f5b1e7b546a65c1383d0fbecddd936104726b1e08627399798b13f27cf43
# LUTr-License: CC-BY-SA-4.0
# LUTr-License-URL: https://github.com/NatronGitHub/clut#license
# LUTr-License-Basis: repo-license-file
# LUTr-Transform-Class: film-emulation
# LUTr-Tags: creative, film, film-emulation, hald-clut, natron, png, cube
# LUTr-Input-Color-Space: srgb
# LUTr-Input-Gamut: rec709
# LUTr-Input-Transfer: srgb
# LUTr-Output-Color-Space: srgb
# LUTr-Output-Gamut: rec709
# LUTr-Output-Transfer: srgb
# LUTr-Color-Space-Confidence: assumed-display-referred
# LUTr-Domain-Normalized: true
# LUTr-Shaper: none
# LUTr-Original-Grid: 64x64x64
# LUTr-Conversion-Grid: 25x25x25
# LUTr-Conversion-Interpolation: trilinear
# LUTr-Conversion-Method: HALD-PNG LUT image decoded at 16-bit and sampled to 25x25x25 3D CUBE
# LUTr-Conversion-Tool: LUTr scripts/convert-all-to-cube.mjs 2.0.0
# LUTr-Conversion-Date: 2026-07-27
# LUTr-Note: Preserve this metadata and the upstream license notices when redistributing.
TITLE "fuji provia 400x"
LUT_3D_SIZE 9
DOMAIN_MIN 0 0 0
DOMAIN_MAX 1 1 1
0.0078431373 0.015686275 0.011764706
0.13529412 0.012254902 0.042647059
0.25490196 0.0039215686 0.024509804
0.40980392 0.017156863 0.0088235294
0.56470588 0.0058823529 0.02745098
0.73137255 0.032843137 0.011764706
0.86666667 0.025490196 0.010784314
0.95 0.0039215686 0.0044117647
0.99215686 0.011764706 0.0078431373
0.089215686 0.13137255 0.050490196
0.14411765 0.13137255 0.030882353
0.25919118 0.12745098 0.049509804
0.4122549 0.11305147 0.053921569
0.58235294 0.10784314 0.042647059
0.74068627 0.091176471 0.025
0.86311275 0.073039216 0.024019608
0.95778186 0.052022059 0.015686275
0.9995098 0.015686275 0.0039215686
0.1 0.25784314 0.081372549
0.13247549 0.25784314 0.080392157
0.25710784 0.25784314 0.080392157
0.4122549 0.24644608 0.088112745
0.58970588 0.23431373 0.071078431
0.73823529 0.21862745 0.07879902
0.88210784 0.21372549 0.052941176
0.99215686 0.18284314 0.01997549
0.99607843 0.14509804 0.034313725
0.042156863 0.40833333 0.12794118
0.079411765 0.40618873 0.12647059
0.2432598 0.4004902 0.1182598
0.41470588 0.38719363 0.11617647
0.6 0.38553922 0.11029412
0.75637255 0.37696078 0.10441176
0.8935049 0.36421569 0.084436275
0.96568627 0.34932598 0.059497549
0.99607843 0.32058824 0.047058824
0.0098039216 0.54509804 0.14313725
0.038970588 0.54509804 0.14509804
0.21372549 0.54215686 0.13431373
0.41593137 0.53651961 0.13406863
0.60784314 0.52352941 0.13137255
0.77205882 0.51446078 0.1254902
0.90980392 0.51323529 0.11372549
0.98259804 0.50367647 0.089705882
1 0.49607843 0.049019608
0.015686275 0.65931373 0.12794118
0.01439951 0.65931373 0.13186275
0.17107843 0.65686275 0.13186275
0.41715686 0.64810049 0.12941176
0.61960784 0.6372549 0.13259804
0.79166667 0.64362745 0.11470588
0.92401961 0.6372549 0.10441176
0.98823529 0.62941176 0.084313725
0.99607843 0.6254902 0.062745098
0.0029411765 0.76372549 0.10392157
0.0025735294 0.76372549 0.10012255
0.16102941 0.75612745 0.1
0.42352941 0.75588235 0.10710784
0.63627451 0.74803922 0.10882353
0.7995098 0.74803922 0.085294118
0.93921569 0.74117647 0.073284314
0.99656863 0.7372549 0.064338235
1 0.73627451 0.058823529
0 0.86421569 0.053921569
0 0.86078431 0.042156863
0.15012255 0.86727941 0.030392157
0.43333333 0.86470588 0.030085784
0.65098039 0.86078431 0.032107843
0.81341912 0.85686275 0.039705882
0.96127451 0.85257353 0.034803922
0.99607843 0.85686275 0.034803922
1 0.86078431 0.030882353
0 0.96078431 0.015686275
0.0039215686 0.96078431 0.0078431373
0.020588235 0.95098039 0
0.14166667 0.99117647 0
0.57647059 0.98039216 0.0019607843
0.79166667 0.95441176 0.0053921569
0.95392157 0.97254902 0.0068627451
0.99607843 0.97647059 0.0039215686
1 0.99215686 0
0.02745098 0.012254902 0.08872549
0.11617647 0.0078431373 0.080882353
0.24056373 0.011764706 0.085294118
0.38890931 0.011764706 0.084803922
0.54534314 0.0075980392 0.07745098
0.70441176 0.0036151961 0.065196078
0.83578431 0.0069852941 0.050367647
0.93921569 0.011764706 0.038235294
0.99607843 0.0039215686 0.011764706
0.055821078 0.11617647 0.11617647
0.12439491 0.11617647 0.11268382
0.2435049 0.1122549 0.1122549
0.38921569 0.10022212 0.11568627
0.55119485 0.096568627 0.10808824
0.7096201 0.083823529 0.096384804
0.84313725 0.064215686 0.075980392
0.95 0.030392157 0.053431373
0.99215686 0.026041667 0.049509804
0.071078431 0.24620098 0.14656863
0.13497243 0.23992034 0.14281556
0.24264706 0.23866422 0.13921569
0.40098039 0.23051471 0.14290748
0.5627451 0.22126225 0.13511029
0.72340686 0.20989583 0.12334559
0.85897672 0.19623162 0.11078431
0.95381434 0.17167586 0.083946078
0.99607843 0.14767157 0.05
0.030392157 0.39656863 0.16979167
0.075980392 0.3946921 0.16976869
0.21799939 0.38711703 0.17352941
0.39528186 0.38088235 0.16617647
0.57588848 0.3731924 0.1622549
0.73718597 0.36127451 0.15766697
0.87463235 0.34756434 0.1377451
0.9658318 0.33390778 0.11437653
0.99607843 0.31715686 0.083823529
0.011764706 0.5372549 0.18676471
0.021292892 0.5372549 0.19068627
0.18137255 0.53553922 0.19552696
0.39558824 0.52827819 0.18422181
0.59240196 0.51384804 0.17512255
0.75481005 0.50603554 0.16755515
0.89136029 0.50594363 0.15196078
0.98550858 0.49803922 0.12950368
1 0.49215686 0.11666667
0.019607843 0.65294118 0.19068627
0.02567402 0.64932598 0.18676471
0.12432598 0.65294118 0.19327512
0.40869332 0.64901961 0.18321844
0.60818015 0.63979779 0.17892157
0.77009804 0.63585325 0.16568627
0.90257353 0.63517157 0.14626225
0.98627451 0.6254902 0.12428768
0.99607843 0.62401961 0.10704657
0.0068627451 0.76078431 0.17696078
0.015456495 0.76078431 0.17090993
0.13299632 0.75750613 0.17018995
0.41746324 0.75588235 0.15922181
0.62892157 0.74852941 0.14932598
0.78921569 0.74411765 0.13667279
0.92561275 0.74338235 0.11559436
0.99607843 0.7372549 0.10467218
1 0.73333333 0.068137255
0 0.87647059 0.08682598
0.0034313725 0.86857384 0.08359375
0.093259804 0.86427696 0.089215686
0.40349265 0.86470588 0.067463235
0.6375 0.86078431 0.083363971
0.80765931 0.85686275 0.052964154
0.94166667 0.85364583 0.056112132
0.99607843 0.85294118 0.059757966
1 0.8495098 0.030882353
0 0.97205882 0.015686275
0 0.97640931 0.011764706
0.012132353 0.97438725 0.01372549
0.19491422 0.99203431 0
0.59509804 0.96397059 0.0078431373
0.79166667 0.98645833 0.0017769608
0.95882353 0.98517157 0.0037990196
0.99607843 0.96072304 0.0078431373
1 0.95539216 0.0083333333
0.02745098 0.034313725 0.17745098
0.093137255 0.0049019608 0.16960784
0.21666667 0.0017156863 0.16593137
0.3622549 0.017647059 0.17303922
0.51666667 0.0078431373 0.16813725
0.66997549 0.012745098 0.16568627
0.79803922 0.0078431373 0.14019608
0.92438725 0.0078431373 0.11029412
0.99607843 0 0.083333333
0.022916667 0.096078431 0.19264706
0.09754902 0.096308211 0.19007353
0.22447917 0.096078431 0.18872549
0.36727941 0.079151348 0.18872549
0.52751225 0.076593137 0.18872549
0.67850797 0.059849877 0.17703738
0.80845588 0.046476716 0.16029412
0.92928922 0.030392157 0.13333333
0.98786765 0.01997549 0.11813725
0.059068627 0.22818627 0.22377451
0.11593137 0.23063725 0.21973039
0.22022059 0.22481618 0.21960784
0.37322304 0.21495098 0.22058824
0.54558824 0.20306373 0.21973039
0.69644608 0.19105392 0.20646446
0.82371324 0.17273284 0.18823529
0.94313725 0.16078431 0.17205882
0.98504902 0.14338235 0.15514706
0.025 0.38762255 0.24865196
0.077313113 0.38209252 0.24754902
0.19987745 0.37328431 0.2504902
0.38080576 0.36727941 0.2504902
0.55735294 0.35833333 0.24656863
0.70974265 0.35542279 0.23480392
0.83673407 0.34001225 0.22205882
0.96539522 0.31729473 0.19906556
0.99215686 0.31421569 0.18039216
0.00098039216 0.52990196 0.26764706
0.018872549 0.52941176 0.27346814
0.14901961 0.52401961 0.275
0.37107843 0.51329657 0.27647059
0.56176471 0.50833333 0.26813725
0.71862745 0.50514706 0.25465686
0.85134804 0.50588235 0.24509804
0.96317402 0.49589461 0.22224265
1 0.4872549 0.19558824
0.0045343137 0.6439951 0.27585784
0.028783701 0.64571078 0.28429841
0.095220588 0.64754902 0.29117647
0.36758578 0.64640012 0.2876685
0.57389706 0.63817402 0.28357843
0.72996324 0.63333333 0.26810662
0.86424632 0.63296569 0.2567402
0.96787684 0.6277114 0.22696078
1 0.61764706 0.18308824
0 0.75686275 0.27720588
0.016207108 0.75591299 0.27745098
0.065992647 0.75367647 0.28553922
0.37598039 0.7520527 0.28529412
0.57953431 0.74803922 0.27990196
0.74702819 0.74411765 0.26577819
0.88584559 0.73946078 0.24117647
0.97931985 0.73333333 0.21715686
1 0.73406863 0.19779412
0 0.86862745 0.24448529
0.0039215686 0.86470588 0.23872549
0.035294118 0.85974265 0.2448223
0.33633578 0.86078431 0.23762255
0.57303922 0.85686275 0.22867647
0.75851716 0.85686275 0.21845895
0.90928309 0.85294118 0.19056373
0.99183517 0.84509804 0.1504902
0.99705882 0.84509804 0.093995098
0 0.98921569 0.076470588
0 0.98848039 0.063112745
0.00098039216 0.99264706 0.058823529
0.15098039 0.98762255 0.070955882
0.53186275 0.98235294 0.056372549
0.76813725 0.98088235 0.050367647
0.93406863 0.96862745 0.049264706
1 0.96311275 0.019607843
1 0.98137255 0.017647059
0.0093137255 0.0053921569 0.25833333
0.077144608 0.0039215686 0.26047794
0.19938725 0.0078431373 0.25441176
0.33921569 0.0039215686 0.25441176
0.48578431 0.0031862745 0.25441176
0.63480392 0 0.24957108
0.75833333 0.0039215686 0.2377451
0.88578431 0.0039215686 0.20637255
0.98431373 0 0.17990196
0.031862745 0.081862745 0.27745098
0.08638174 0.074509804 0.2779182
0.20147059 0.077328431 0.27745098
0.34313725 0.064407169 0.27359835
0.49926471 0.047702206 0.27215074
0.64400276 0.037369792 0.26421569
0.76372549 0.021706495 0.24987745
0.89095435 0.018627451 0.22843137
0.98057598 0.0060661765 0.20686275
0.051960784 0.20441176 0.31127451
0.087653186 0.20085784 0.31248468
0.1942402 0.19656863 0.31127451
0.35098039 0.18688725 0.30833333
0.51666667 0.1776348 0.30833333
0.65943627 0.16580882 0.29656863
0.77904412 0.1495098 0.2861826
0.89606311 0.13069853 0.26493566
0.99607843 0.088848039 0.2377451
0.025 0.35882353 0.35098039
0.031257659 0.35882353 0.35098039
0.16323529 0.35448836 0.35251225
0.34613971 0.3459329 0.35435049
0.51985294 0.33213848 0.34678309
0.66822151 0.32710631 0.33604473
0.79509804 0.31752451 0.32316176
0.91029412 0.30238205 0.30911458
0.98976716 0.28284314 0.29460784
0.0071078431 0.51519608 0.37916667
0.0089154412 0.51706495 0.38023897
0.08627451 0.51580882 0.38431373
0.33501838 0.5041973 0.3877451
0.52218137 0.49289216 0.38039216
0.67248775 0.49653799 0.37647059
0.80165441 0.48823529 0.36470588
0.92882966 0.48177083 0.34672181
0.98235294 0.46568627 0.32818627
0.0039215686 0.63633578 0.39558824
0.0044117647 0.6372549 0.3995098
0.048422181 0.64025735 0.40591299
0.326731 0.63333333 0.40712316
0.52723652 0.63333333 0.3995098
0.67491575 0.62998621 0.39803922
0.8098652 0.62526042 0.38529412
0.94148284 0.61653646 0.36243873
0.98823529 0.60980392 0.33529412
0 0.75012255 0.40196078
0.0014246324 0.75012255 0.41888787
0.025704657 0.74803922 0.42074142
0.30415135 0.74448529 0.42156863
0.51666667 0.74430147 0.41721814
0.68218444 0.7372549 0.40925245
0.82264093 0.73318015 0.39310662
0.95663297 0.72659314 0.37745098
0.98431373 0.72487745 0.37156863
0.0024509804 0.86421569 0.39393382
0.0099877451 0.86443781 0.39215686
0.029947917 0.85655637 0.40735294
0.25837163 0.85294118 0.4091299
0.48578431 0.85548407 0.40284926
0.6754902 0.84901961 0.38522518
0.83494179 0.84420956 0.38186275
0.95735294 0.84117647 0.35075827
0.9963848 0.84246324 0.3254902
0 0.9754902 0.31372549
0.006372549 0.97126225 0.30863971
0.0039215686 0.98333333 0.29411765
0.034313725 0.98284314 0.31758578
0.44632353 0.97181373 0.31593137
0.66084559 0.96770833 0.28719363
0.86568627 0.97156863 0.25453431
0.99362745 0.98039216 0.20784314
1 0.98284314 0.12843137
0.011764706 0.0039215686 0.34705882
0.059558824 0.0017156863 0.35490196
0.18186275 0.0039215686 0.34705882
0.31617647 0.0039215686 0.34436275
0.46372549 0.0019607843 0.34019608
0.59803922 0 0.33455882
0.71764706 0.00098039216 0.32941176
0.84117647 0.0039215686 0.30906863
0.95490196 0 0.27843137
0.031127451 0.057352941 0.37009804
0.067156863 0.044056373 0.37009804
0.1745098 0.034129902 0.37009804
0.31617647 0.028431373 0.37009804
0.46458333 0.023897059 0.36617647
0.59803922 0.015196078 0.3622549
0.71170343 0.01127451 0.35563725
0.83333333 0.0039215686 0.34191176
0.94264706 0.0022058824 0.31127451
0.041666667 0.16568627 0.40098039
0.081372549 0.16568627 0.40373775
0.17683824 0.16568627 0.40784314
0.32401961 0.15484069 0.40637255
0.47769608 0.14240196 0.40343137
0.61127451 0.13069853 0.39852941
0.72892157 0.1127451 0.39215686
0.84393382 0.096078431 0.38063725
0.95490196 0.073529412 0.35490196
0.045098039 0.32401961 0.44166667
0.051960784 0.32401961 0.44353554
0.14846814 0.33039216 0.4473652
0.32356005 0.3245098 0.45392157
0.48566176 0.30747549 0.44718137
0.62230392 0.29117647 0.44411765
0.74436275 0.28272059 0.43455882
0.86191789 0.26259191 0.42616422
0.96789216 0.23823529 0.40759804
0.012745098 0.48627451 0.47843137
0.012622549 0.49019608 0.48137255
0.062254902 0.49852941 0.48553922
0.31139706 0.4935049 0.48627451
0.48382353 0.4872549 0.49019608
0.62781863 0.47536765 0.48688725
0.75514706 0.46544118 0.47745098
0.87745098 0.4497549 0.46556373
0.9745098 0.4254902 0.45294118
0.0039215686 0.61960784 0.50539216
0.0036151961 0.62671569 0.51161152
0.020526961 0.63063725 0.5153799
0.27426471 0.62699142 0.51492034
0.48333333 0.62156863 0.51446078
0.63210784 0.61764706 0.50876225
0.76096814 0.61268382 0.50526961
0.88897059 0.60171569 0.49083946
0.98946078 0.58897059 0.47990196
0.0024509804 0.74117647 0.52745098
0.006127451 0.74117647 0.52352941
0.023406863 0.74154412 0.52781863
0.23137255 0.73872549 0.53186275
0.475 0.73480392 0.53382353
0.63180147 0.73235294 0.52542892
0.76764706 0.72659314 0.52034314
0.90618873 0.72040441 0.50030637
0.98431373 0.71372549 0.49901961
0.0039215686 0.86053922 0.52965686
0.011764706 0.85707721 0.53140319
0.010294118 0.85294118 0.53651961
0.18063725 0.84901961 0.54117647
0.43051471 0.84901961 0.53713235
0.61078431 0.84509804 0.5247549
0.76470588 0.83854167 0.52867647
0.9078125 0.8370098 0.50557598
0.97573529 0.83333333 0.48651961
0 0.93921569 0.53333333
0.01127451 0.95490196 0.50637255
0.020588235 0.95637255 0.4995098
0.036029412 0.96102941 0.51004902
0.3 0.96666667 0.50588235
0.57034314 0.97254902 0.48039216
0.75637255 0.96323529 0.48284314
0.94191176 0.98112745 0.45612745
0.97254902 0.96666667 0.40784314
0.0039215686 0.0024509804 0.42401961
0.053125 0 0.42254902
0.17254902 0 0.42794118
0.3 0.0024509804 0.43823529
0.43382353 0 0.43186275
0.5495098 0 0.43578431
0.66421569 0 0.43578431
0.77941176 0 0.42352941
0.89264706 0 0.39656863
0.040196078 0.034007353 0.4495098
0.065035233 0.014154412 0.44705882
0.17647059 0.015196078 0.4473652
0.30373775 0.0080193015 0.45354626
0.43431373 0.01338848 0.45352328
0.55686275 0.011465993 0.4495098
0.6689951 0.003661152 0.4457261
0.78088235 0 0.43872549
0.89656863 0 0.41960784
0.049142157 0.12156863 0.47794118
0.084313725 0.12193627 0.48031556
0.18988971 0.11372549 0.48370098
0.31885723 0.1042739 0.48823529
0.45061275 0.0875 0.48541667
0.57414216 0.070925245 0.48800551
0.68400735 0.062132353 0.4814951
0.79813113 0.043995098 0.46617647
0.90551471 0.012622549 0.45772059
0.033823529 0.29558824 0.52003676
0.085409007 0.28890931 0.51764706
0.1872549 0.2877451 0.52372855
0.32352941 0.27751225 0.5278799
0.46957721 0.26127451 0.52941176
0.59209559 0.25492494 0.52696078
0.70686275 0.24215686 0.52136949
0.81862745 0.21341912 0.51009498
0.92254902 0.17647059 0.50251225
0.0039215686 0.4620098 0.55661765
0.021231618 0.46780025 0.55784314
0.12181373 0.4745098 0.56231618
0.31691176 0.46596201 0.56960784
0.47193627 0.45428922 0.56642157
0.60140931 0.44754902 0.56642157
0.72401961 0.434375 0.55894608
0.8377451 0.42245711 0.55441176
0.95343137 0.39460784 0.54558824
0 0.60588235 0.58872549
0 0.60833333 0.59008119
0.050352328 0.6122549 0.59767157
0.29648438 0.61168045 0.6004902
0.46666667 0.6075674 0.6004902
0.60140931 0.60083487 0.60106464
0.72794118 0.59595588 0.59375
0.84901961 0.58438266 0.58761489
0.96623775 0.56519608 0.57843137
0.0039215686 0.72941176 0.61715686
0.0035539216 0.72904412 0.61996017
0.028431373 0.72794118 0.6189951
0.2564951 0.72835478 0.62071078
0.45729167 0.72156863 0.62291667
0.59019608 0.72143076 0.61715686
0.72463235 0.71727941 0.6129902
0.86227022 0.70929841 0.6053462
0.98247549 0.69803922 0.60539216
0.0037377451 0.85324755 0.62794118
0.0039215686 0.8490579 0.63186275
0.010416667 0.84773284 0.63089767
0.16659007 0.84509804 0.63442862
0.39837623 0.8388174 0.63578431
0.56145833 0.8377451 0.62886029
0.71634498 0.83200061 0.63057598
0.86372549 0.82941176 0.62824755
0.95882353 0.821875 0.6245098
0 0.98823529 0.62794118
0.0039215686 0.97696078 0.62579657
0.0078431373 0.98039216 0.62340686
0.014154412 0.97107843 0.63094363
0.16617647 0.98578431 0.63063725
0.48425245 0.98737745 0.62886029
0.69816176 0.96654412 0.61372549
0.86488971 0.95833333 0.60980392
0.95833333 0.96617647 0.60343137
0.015686275 0 0.5
0.064705882 0 0.50098039
0.18063725 0 0.50392157
0.29215686 0 0.51066176
0.41568627 0 0.51617647
0.53137255 0 0.51176471
0.63921569 0 0.51176471
0.75490196 0 0.50784314
0.88431373 0 0.48921569
0.037867647 0.0039215686 0.51519608
0.070082721 0.0039215686 0.51568627
0.18872549 0.014215686 0.51911765
0.30735294 0.006495098 0.52303922
0.42689951 0.0069240196 0.52334559
0.53484988 0.0035079657 0.52207414
0.63924632 0.00064338235 0.52303922
0.75392157 0.0034313725 0.52261029
0.86470588 0 0.51139706
0.069607843 0.062745098 0.54607843
0.109375 0.064705882 0.54607843
0.20526961 0.054901961 0.55
0.32536765 0.0390625 0.54883578
0.44411765 0.044485294 0.55
0.54926471 0.03872549 0.55
0.64865196 0.01060049 0.55
0.75456495 0.0078431373 0.54607843
0.83823529 0.0068627451 0.53823529
0.060661765 0.23921569 0.58664216
0.14113051 0.22473958 0.58333333
0.22340686 0.23250613 0.58872549
0.34918811 0.21398591 0.59159007
0.46623775 0.19944853 0.58872549
0.57136949 0.18676471 0.5872549
0.675 0.17254902 0.58835784
0.77977941 0.14473039 0.58074449
0.88137255 0.11323529 0.57303922
0.015686275 0.43333333 0.62745098
0.067463235 0.43707108 0.62916667
0.21286765 0.43333333 0.63137255
0.34534314 0.41023284 0.62745098
0.47843137 0.40612745 0.62867647
0.59338235 0.40484069 0.62941176
0.69656863 0.3872549 0.62892157
0.80465686 0.36770833 0.62542892
0.92107843 0.34411765 0.61813725
0.0078431373 0.58566176 0.6622549
0.010646446 0.59002757 0.66617647
0.14607843 0.58921569 0.66271446
0.32507659 0.58543199 0.66617647
0.47120098 0.57892157 0.66433824
0.59005821 0.5783701 0.66617647
0.70098039 0.57071078 0.66617647
0.81703431 0.5553462 0.66617647
0.92414216 0.54117647 0.65870098
0.0039215686 0.71764706 0.69387255
0.011672794 0.71348039 0.69313725
0.07567402 0.7120098 0.69258578
0.29414828 0.70980392 0.69286152
0.45379902 0.70882353 0.69313725
0.57818627 0.70281863 0.69157475
0.69705882 0.70042892 0.69705882
0.82757353 0.69286152 0.69411765
0.92058824 0.68627451 0.68921569
0 0.83639706 0.71666667
0.0046721814 0.83671875 0.71591605
0.011764706 0.83639706 0.71311275
0.17124694 0.83639706 0.71671262
0.40226716 0.82769608 0.71973039
0.54522059 0.82598039 0.71649816
0.68970588 0.82463235 0.72058824
0.825 0.81786152 0.71688113
0.94227941 0.81029412 0.70931373
0 0.98529412 0.7245098
0 0.97977941 0.72352941
0.006127451 0.97426471 0.72745098
0.01127451 0.95882353 0.72953431
0.13137255 0.98137255 0.72843137
0.43786765 0.97928922 0.7317402
0.63382353 0.98504902 0.72916667
0.80980392 0.97855392 0.7245098
0.99019608 0.97941176 0.71666667
0.019117647 0 0.55784314
0.093566176 0 0.56960784
0.20441176 0 0.57352941
0.30802696 0 0.57775735
0.41960784 0 0.58137255
0.53137255 0 0.57745098
0.63039216 0 0.5814951
0.73829657 0 0.5778799
0.83088235 0 0.57401961
0.032291667 0 0.57303922
0.097977941 0 0.57653186
0.20796569 0 0.58126532
0.30974265 0 0.58529412
0.41789216 0 0.58921569
0.52990196 0.003002451 0.58872549
0.62598039 0 0.588894
0.73045343 0 0.58835018
0.82653186 0 0.58180147
0.097058824 0.019117647 0.6
0.14669118 0.02265625 0.60343137
0.23578431 0.025245098 0.60738358
0.32915135 0.0074754902 0.60392157
0.43578431 0.023897059 0.61127451
0.53374694 0.0087316176 0.60784314
0.63409926 0.017616422 0.61176471
0.73039216 0.0077359069 0.61138174
0.83088235 0 0.6
0.14019608 0.15735294 0.63694853
0.19068627 0.14640778 0.63870251
0.26666667 0.16029412 0.64246324
0.3653799 0.13154871 0.64264706
0.46308211 0.11749387 0.64246324
0.55539216 0.10539982 0.64117647
0.64816176 0.078125 0.64109988
0.74460784 0.057452512 0.63870251
0.82990196 0.05 0.62941176
0.11421569 0.36127451 0.68308824
0.18848039 0.375 0.6870098
0.27107843 0.36053922 0.68897059
0.37974877 0.34984681 0.6890625
0.47732843 0.34056373 0.68713235
0.58072917 0.33602941 0.68970588
0.675 0.32677696 0.69246324
0.77598039 0.28802083 0.68311887
0.87818627 0.26519608 0.67941176
0.054718137 0.55588235 0.72971814
0.13880974 0.54830729 0.72794118
0.24669118 0.54007353 0.72794118
0.36452972 0.54362745 0.72794118
0.48161765 0.54803922 0.73204657
0.58609069 0.53707874 0.73186275
0.68561581 0.52336091 0.73186275
0.79536612 0.52144608 0.73596814
0.89509804 0.48235294 0.7254902
0.016666667 0.69276961 0.7627451
0.044071691 0.6897212 0.7629136
0.19227941 0.68866422 0.76323529
0.32898284 0.68632047 0.7627451
0.45367647 0.68578431 0.76666667
0.58022365 0.67794118 0.76666667
0.68976716 0.66936275 0.76737132
0.80147059 0.66617647 0.77058824
0.93370098 0.65526961 0.76715686
0.0078431373 0.81715686 0.7901348
0.012193627 0.81715686 0.79411765
0.075398284 0.81764706 0.79411765
0.25921415 0.81791513 0.79754902
0.40851716 0.81568627 0.79754902
0.53431373 0.80964308 0.79411765
0.67365196 0.80121017 0.80196078
0.79717371 0.80202206 0.79803922
0.94895833 0.79411765 0.79803922
0.0039215686 0.96078431 0.81323529
0.0039215686 0.95637255 0.81323529
0.0039215686 0.97107843 0.81715686
0.019607843 0.97383578 0.81930147
0.15465686 0.97377451 0.82107843
0.45116422 0.94430147 0.81862745
0.61188725 0.95808824 0.82107843
0.77493873 0.97009804 0.82892157
0.93823529 0.97647059 0.825
0.011764706 0 0.60784314
0.13921569 0 0.63088235
0.23235294 0 0.63529412
0.32745098 0 0.63921569
0.42941176 0 0.63921569
0.52990196 0 0.63921569
0.61764706 0 0.64313725
0.71911765 0 0.64313725
0.80392157 0 0.64705882
0.12058824 0.0039215686 0.63088235
0.15104167 0 0.63921569
0.24019608 0 0.64313725
0.32892157 0 0.64313725
0.42941176 0.0017156863 0.64313725
0.52598039 0.0034313725 0.64068627
0.61078431 0 0.65183824
0.71525735 0 0.64705882
0.81176471 0 0.65098039
0.1627451 0.0068627451 0.65392157
0.18627451 0.010294118 0.65098039
0.25588235 0.0078431373 0.65784314
0.33676471 0 0.65784314
0.43333333 0.0073529412 0.64656863
0.52990196 0.0050245098 0.6442402
0.61838235 0.010784314 0.65563725
0.70735294 0 0.66654412
0.79705882 0.0039215686 0.65196078
0.21029412 0.033823529 0.68872549
0.23578431 0.087928922 0.68333333
0.29705882 0.022426471 0.69056373
0.37150735 0.043566176 0.69025735
0.45147059 0.0075980392 0.68921569
0.54319853 0.029901961 0.68333333
0.62647059 0.011764706 0.69154412
0.71893382 0.01127451 0.6872549
0.79705882 0.0078431373 0.6754902
0.25686275 0.27254902 0.7372549
0.25784314 0.27720588 0.72745098
0.32843137 0.27058824 0.73676471
0.40294118 0.26470588 0.7379902
0.48235294 0.25784314 0.73333333
0.57107843 0.24240196 0.73529412
0.65931373 0.21813725 0.74117647
0.75612745 0.19362745 0.73112745
0.85490196 0.17254902 0.71960784
0.23627451 0.50686275 0.78970588
0.25275735 0.50588235 0.78088235
0.32647059 0.49509804 0.7872549
0.41035539 0.49509804 0.78633578
0.49852941 0.49044118 0.79362745
0.58480392 0.48578431 0.79117647
0.67745098 0.46029412 0.79301471
0.78204657 0.44558824 0.7908701
0.89019608 0.41960784 0.78823529
0.18235294 0.66666667 0.82058824
0.20968137 0.66323529 0.82058824
0.31078431 0.65196078 0.83602941
0.38884804 0.65196078 0.82941176
0.48431373 0.6495098 0.83480392
0.57303922 0.64595588 0.83235294
0.68063725 0.64068627 0.83333333
0.78713235 0.62806373 0.84375
0.91470588 0.63529412 0.81764706
0.11078431 0.79411765 0.87058824
0.13290441 0.79460784 0.87058824
0.24166667 0.79154412 0.87794118
0.3377451 0.79411765 0.8776348
0.43627451 0.79436275 0.8754902
0.54460784 0.78676471 0.87371324
0.6627451 0.78198529 0.88627451
0.78284314 0.78192402 0.87984069
0.93431373 0.7627451 0.89166667
0 0.96470588 0.89019608
0 0.97254902 0.89068627
0.011764706 0.97941176 0.89705882
0.025 0.9754902 0.92352941
0.2372549 0.95686275 0.91764706
0.44754902 0.9377451 0.88627451
0.58137255 0.96372549 0.89803922
0.73970588 0.97303922 0.92647059
0.96470588 0.96862745 0.9372549
