site/assets/luts/sha256-ecee18fddd881d07e84aa1f7a3f486c2c7b83ab63d117804b2ed9a9315b1cb25.cube
# LUTr-Schema-Version: 2
# LUTr-ID: sha256-ecee18fddd881d07e84aa1f7a3f486c2c7b83ab63d117804b2ed9a9315b1cb25
# LUTr-Title: ilford fp4 plus 125
# LUTr-Collection: Natron HaldCLUT
# LUTr-Collection-ID: natron-haldclut-presets
# LUTr-Source: https://github.com/NatronGitHub/clut
# LUTr-Retrieved: 2026-07-27
# LUTr-Source-File: submissions/natron-haldclut-presets/bw/ilford_fp4_plus_125.png
# LUTr-Source-Format: HALD-PNG
# LUTr-Source-SHA256: ecee18fddd881d07e84aa1f7a3f486c2c7b83ab63d117804b2ed9a9315b1cb25
# LUTr-License: CC-BY-SA-4.0
# LUTr-License-URL: https://github.com/NatronGitHub/clut#license
# LUTr-License-Basis: repo-license-file
# LUTr-Transform-Class: film-emulation
# LUTr-Tags: creative, film, film-emulation, hald-clut, natron, png, cube
# LUTr-Input-Color-Space: srgb
# LUTr-Input-Gamut: rec709
# LUTr-Input-Transfer: srgb
# LUTr-Output-Color-Space: srgb
# LUTr-Output-Gamut: rec709
# LUTr-Output-Transfer: srgb
# LUTr-Color-Space-Confidence: assumed-display-referred
# LUTr-Domain-Normalized: true
# LUTr-Shaper: none
# LUTr-Original-Grid: 64x64x64
# LUTr-Conversion-Grid: 25x25x25
# LUTr-Conversion-Interpolation: trilinear
# LUTr-Conversion-Method: HALD-PNG LUT image decoded at 16-bit and sampled to 25x25x25 3D CUBE
# LUTr-Conversion-Tool: LUTr scripts/convert-all-to-cube.mjs 2.0.0
# LUTr-Conversion-Date: 2026-07-27
# LUTr-Note: Preserve this metadata and the upstream license notices when redistributing.
TITLE "ilford fp4 plus 125"
LUT_3D_SIZE 25
DOMAIN_MIN 0 0 0
DOMAIN_MAX 1 1 1
0.035294118 0.035294118 0.035294118
0.031372549 0.031372549 0.031372549
0.02254902 0.02254902 0.02254902
0.037745098 0.037745098 0.037745098
0.054901961 0.054901961 0.054901961
0.067156863 0.067156863 0.067156863
0.07745098 0.07745098 0.07745098
0.083823529 0.083823529 0.083823529
0.098039216 0.098039216 0.098039216
0.10833333 0.10833333 0.10833333
0.12254902 0.12254902 0.12254902
0.12941176 0.12941176 0.12941176
0.13921569 0.13921569 0.13921569
0.14509804 0.14509804 0.14509804
0.14803922 0.14803922 0.14803922
0.14901961 0.14901961 0.14901961
0.16078431 0.16078431 0.16078431
0.19166667 0.19166667 0.19166667
0.22254902 0.22254902 0.22254902
0.2495098 0.2495098 0.2495098
0.27647059 0.27647059 0.27647059
0.30294118 0.30294118 0.30294118
0.32745098 0.32745098 0.32745098
0.35196078 0.35196078 0.35196078
0.37254902 0.37254902 0.37254902
0.062254902 0.062254902 0.062254902
0.059252451 0.059252451 0.059252451
0.058333333 0.058333333 0.058333333
0.065502451 0.065502451 0.065502451
0.079901961 0.079901961 0.079901961
0.091666667 0.091666667 0.091666667
0.1004902 0.1004902 0.1004902
0.10686275 0.10686275 0.10686275
0.11470588 0.11470588 0.11470588
0.125 0.125 0.125
0.13529412 0.13529412 0.13529412
0.14558824 0.14558824 0.14558824
0.15269608 0.15269608 0.15269608
0.15833333 0.15833333 0.15833333
0.16470588 0.16470588 0.16470588
0.17052696 0.17052696 0.17052696
0.18382353 0.18382353 0.18382353
0.20680147 0.20680147 0.20680147
0.23468137 0.23468137 0.23468137
0.26011029 0.26011029 0.26011029
0.28602941 0.28602941 0.28602941
0.3096201 0.3096201 0.3096201
0.33382353 0.33382353 0.33382353
0.35686275 0.35686275 0.35686275
0.37745098 0.37745098 0.37745098
0.097058824 0.097058824 0.097058824
0.097058824 0.097058824 0.097058824
0.096813725 0.096813725 0.096813725
0.096568627 0.096568627 0.096568627
0.10980392 0.10980392 0.10980392
0.12009804 0.12009804 0.12009804
0.12745098 0.12745098 0.12745098
0.13382353 0.13382353 0.13382353
0.14019608 0.14019608 0.14019608
0.14767157 0.14767157 0.14767157
0.15588235 0.15588235 0.15588235
0.16617647 0.16617647 0.16617647
0.17254902 0.17254902 0.17254902
0.17977941 0.17977941 0.17977941
0.1870098 0.1870098 0.1870098
0.19767157 0.19767157 0.19767157
0.21372549 0.21372549 0.21372549
0.23039216 0.23039216 0.23039216
0.25196078 0.25196078 0.25196078
0.27806373 0.27806373 0.27806373
0.30196078 0.30196078 0.30196078
0.32745098 0.32745098 0.32745098
0.34901961 0.34901961 0.34901961
0.37254902 0.37254902 0.37254902
0.39019608 0.39019608 0.39019608
0.13186275 0.13186275 0.13186275
0.13155637 0.13155637 0.13155637
0.12696078 0.12696078 0.12696078
0.12401961 0.12401961 0.12401961
0.13431373 0.13431373 0.13431373
0.14803922 0.14803922 0.14803922
0.1557598 0.1557598 0.1557598
0.16109069 0.16109069 0.16109069
0.16715686 0.16715686 0.16715686
0.17352941 0.17352941 0.17352941
0.18039216 0.18039216 0.18039216
0.19019608 0.19019608 0.19019608
0.19681373 0.19681373 0.19681373
0.20343137 0.20343137 0.20343137
0.21335784 0.21335784 0.21335784
0.22530637 0.22530637 0.22530637
0.23823529 0.23823529 0.23823529
0.25618873 0.25618873 0.25618873
0.2754902 0.2754902 0.2754902
0.29607843 0.29607843 0.29607843
0.32058824 0.32058824 0.32058824
0.34509804 0.34509804 0.34509804
0.36568627 0.36568627 0.36568627
0.38676471 0.38676471 0.38676471
0.40686275 0.40686275 0.40686275
0.16666667 0.16666667 0.16666667
0.1627451 0.1627451 0.1627451
0.16029412 0.16029412 0.16029412
0.15686275 0.15686275 0.15686275
0.16470588 0.16470588 0.16470588
0.17303922 0.17303922 0.17303922
0.17990196 0.17990196 0.17990196
0.18578431 0.18578431 0.18578431
0.19215686 0.19215686 0.19215686
0.19852941 0.19852941 0.19852941
0.20441176 0.20441176 0.20441176
0.21151961 0.21151961 0.21151961
0.22058824 0.22058824 0.22058824
0.22794118 0.22794118 0.22794118
0.23970588 0.23970588 0.23970588
0.25318627 0.25318627 0.25318627
0.26666667 0.26666667 0.26666667
0.28210784 0.28210784 0.28210784
0.3 0.3 0.3
0.32034314 0.32034314 0.32034314
0.34117647 0.34117647 0.34117647
0.36176471 0.36176471 0.36176471
0.38235294 0.38235294 0.38235294
0.40490196 0.40490196 0.40490196
0.42352941 0.42352941 0.42352941
0.19754902 0.19754902 0.19754902
0.19754902 0.19754902 0.19754902
0.19754902 0.19754902 0.19754902
0.19803922 0.19803922 0.19803922
0.19803922 0.19803922 0.19803922
0.19754902 0.19754902 0.19754902
0.20134804 0.20134804 0.20134804
0.21029412 0.21029412 0.21029412
0.21666667 0.21666667 0.21666667
0.22089461 0.22089461 0.22089461
0.22855392 0.22855392 0.22855392
0.23578431 0.23578431 0.23578431
0.24436275 0.24436275 0.24436275
0.25251225 0.25251225 0.25251225
0.26580882 0.26580882 0.26580882
0.27873775 0.27873775 0.27873775
0.29166667 0.29166667 0.29166667
0.30569853 0.30569853 0.30569853
0.32352941 0.32352941 0.32352941
0.34117647 0.34117647 0.34117647
0.3620098 0.3620098 0.3620098
0.38284314 0.38284314 0.38284314
0.40294118 0.40294118 0.40294118
0.42352941 0.42352941 0.42352941
0.44019608 0.44019608 0.44019608
0.23235294 0.23235294 0.23235294
0.23235294 0.23235294 0.23235294
0.23235294 0.23235294 0.23235294
0.23492647 0.23492647 0.23492647
0.23235294 0.23235294 0.23235294
0.22806373 0.22806373 0.22806373
0.2252451 0.2252451 0.2252451
0.23272059 0.23272059 0.23272059
0.24019608 0.24019608 0.24019608
0.24509804 0.24509804 0.24509804
0.25220588 0.25220588 0.25220588
0.25943627 0.25943627 0.25943627
0.26666667 0.26666667 0.26666667
0.27696078 0.27696078 0.27696078
0.29093137 0.29093137 0.29093137
0.30477941 0.30477941 0.30477941
0.31568627 0.31568627 0.31568627
0.32990196 0.32990196 0.32990196
0.34509804 0.34509804 0.34509804
0.36470588 0.36470588 0.36470588
0.38627451 0.38627451 0.38627451
0.40686275 0.40686275 0.40686275
0.42745098 0.42745098 0.42745098
0.44595588 0.44595588 0.44595588
0.46078431 0.46078431 0.46078431
0.26323529 0.26323529 0.26323529
0.26623775 0.26623775 0.26623775
0.26715686 0.26715686 0.26715686
0.26715686 0.26715686 0.26715686
0.26323529 0.26323529 0.26323529
0.25931373 0.25931373 0.25931373
0.25931373 0.25931373 0.25931373
0.26023284 0.26023284 0.26023284
0.26568627 0.26568627 0.26568627
0.27052696 0.27052696 0.27052696
0.27598039 0.27598039 0.27598039
0.28265931 0.28265931 0.28265931
0.2879902 0.2879902 0.2879902
0.30147059 0.30147059 0.30147059
0.31507353 0.31507353 0.31507353
0.32653186 0.32653186 0.32653186
0.34019608 0.34019608 0.34019608
0.35294118 0.35294118 0.35294118
0.36678922 0.36678922 0.36678922
0.38627451 0.38627451 0.38627451
0.40686275 0.40686275 0.40686275
0.42745098 0.42745098 0.42745098
0.44803922 0.44803922 0.44803922
0.46862745 0.46862745 0.46862745
0.48529412 0.48529412 0.48529412
0.29803922 0.29803922 0.29803922
0.29803922 0.29803922 0.29803922
0.29803922 0.29803922 0.29803922
0.29460784 0.29460784 0.29460784
0.29411765 0.29411765 0.29411765
0.29019608 0.29019608 0.29019608
0.29019608 0.29019608 0.29019608
0.29019608 0.29019608 0.29019608
0.29411765 0.29411765 0.29411765
0.29803922 0.29803922 0.29803922
0.30294118 0.30294118 0.30294118
0.30980392 0.30980392 0.30980392
0.31568627 0.31568627 0.31568627
0.32598039 0.32598039 0.32598039
0.34019608 0.34019608 0.34019608
0.3504902 0.3504902 0.3504902
0.36078431 0.36078431 0.36078431
0.375 0.375 0.375
0.39019608 0.39019608 0.39019608
0.40686275 0.40686275 0.40686275
0.42745098 0.42745098 0.42745098
0.45196078 0.45196078 0.45196078
0.47254902 0.47254902 0.47254902
0.48921569 0.48921569 0.48921569
0.50588235 0.50588235 0.50588235
0.32892157 0.32892157 0.32892157
0.32892157 0.32892157 0.32892157
0.32892157 0.32892157 0.32892157
0.325 0.325 0.325
0.325 0.325 0.325
0.32107843 0.32107843 0.32107843
0.32107843 0.32107843 0.32107843
0.32107843 0.32107843 0.32107843
0.325 0.325 0.325
0.32892157 0.32892157 0.32892157
0.33382353 0.33382353 0.33382353
0.34019608 0.34019608 0.34019608
0.34656863 0.34656863 0.34656863
0.35686275 0.35686275 0.35686275
0.36715686 0.36715686 0.36715686
0.37745098 0.37745098 0.37745098
0.3877451 0.3877451 0.3877451
0.3995098 0.3995098 0.3995098
0.41262255 0.41262255 0.41262255
0.43137255 0.43137255 0.43137255
0.44803922 0.44803922 0.44803922
0.47009804 0.47009804 0.47009804
0.49313725 0.49313725 0.49313725
0.50980392 0.50980392 0.50980392
0.52647059 0.52647059 0.52647059
0.35980392 0.35980392 0.35980392
0.35980392 0.35980392 0.35980392
0.35980392 0.35980392 0.35980392
0.3560049 0.3560049 0.3560049
0.35588235 0.35588235 0.35588235
0.35196078 0.35196078 0.35196078
0.35196078 0.35196078 0.35196078
0.35232843 0.35232843 0.35232843
0.35588235 0.35588235 0.35588235
0.35980392 0.35980392 0.35980392
0.36470588 0.36470588 0.36470588
0.37156863 0.37156863 0.37156863
0.37941176 0.37941176 0.37941176
0.3877451 0.3877451 0.3877451
0.39803922 0.39803922 0.39803922
0.40833333 0.40833333 0.40833333
0.41862745 0.41862745 0.41862745
0.42892157 0.42892157 0.42892157
0.43921569 0.43921569 0.43921569
0.45330882 0.45330882 0.45330882
0.46960784 0.46960784 0.46960784
0.48921569 0.48921569 0.48921569
0.50980392 0.50980392 0.50980392
0.53039216 0.53039216 0.53039216
0.54705882 0.54705882 0.54705882
0.39068627 0.39068627 0.39068627
0.39068627 0.39068627 0.39068627
0.39068627 0.39068627 0.39068627
0.39068627 0.39068627 0.39068627
0.38676471 0.38676471 0.38676471
0.38627451 0.38627451 0.38627451
0.38627451 0.38627451 0.38627451
0.38676471 0.38676471 0.38676471
0.39019608 0.39019608 0.39019608
0.39283088 0.39283088 0.39283088
0.39852941 0.39852941 0.39852941
0.40245098 0.40245098 0.40245098
0.4120098 0.4120098 0.4120098
0.41862745 0.41862745 0.41862745
0.42892157 0.42892157 0.42892157
0.43921569 0.43921569 0.43921569
0.4495098 0.4495098 0.4495098
0.45980392 0.45980392 0.45980392
0.47009804 0.47009804 0.47009804
0.48082108 0.48082108 0.48082108
0.49681373 0.49681373 0.49681373
0.51366422 0.51366422 0.51366422
0.53039216 0.53039216 0.53039216
0.55098039 0.55098039 0.55098039
0.56764706 0.56764706 0.56764706
0.42156863 0.42156863 0.42156863
0.42156863 0.42156863 0.42156863
0.42156863 0.42156863 0.42156863
0.42156863 0.42156863 0.42156863
0.42058824 0.42058824 0.42058824
0.41789216 0.41789216 0.41789216
0.41960784 0.41960784 0.41960784
0.42156863 0.42156863 0.42156863
0.42352941 0.42352941 0.42352941
0.42867647 0.42867647 0.42867647
0.43186275 0.43186275 0.43186275
0.4370098 0.4370098 0.4370098
0.44411765 0.44411765 0.44411765
0.45122549 0.45122549 0.45122549
0.45980392 0.45980392 0.45980392
0.47009804 0.47009804 0.47009804
0.48039216 0.48039216 0.48039216
0.49068627 0.49068627 0.49068627
0.49901961 0.49901961 0.49901961
0.51127451 0.51127451 0.51127451
0.52647059 0.52647059 0.52647059
0.54191176 0.54191176 0.54191176
0.55735294 0.55735294 0.55735294
0.57352941 0.57352941 0.57352941
0.58823529 0.58823529 0.58823529
0.45245098 0.45245098 0.45245098
0.45245098 0.45245098 0.45245098
0.45637255 0.45637255 0.45637255
0.45637255 0.45637255 0.45637255
0.45294118 0.45294118 0.45294118
0.45294118 0.45294118 0.45294118
0.45637255 0.45637255 0.45637255
0.45686275 0.45686275 0.45686275
0.46029412 0.46029412 0.46029412
0.46292892 0.46292892 0.46292892
0.46519608 0.46519608 0.46519608
0.47156863 0.47156863 0.47156863
0.47794118 0.47794118 0.47794118
0.48431373 0.48431373 0.48431373
0.49203431 0.49203431 0.49203431
0.50098039 0.50098039 0.50098039
0.51127451 0.51127451 0.51127451
0.52156863 0.52156863 0.52156863
0.52794118 0.52794118 0.52794118
0.54209559 0.54209559 0.54209559
0.55637255 0.55637255 0.55637255
0.57107843 0.57107843 0.57107843
0.5877451 0.5877451 0.5877451
0.6004902 0.6004902 0.6004902
0.61323529 0.61323529 0.61323529
0.48333333 0.48333333 0.48333333
0.48627451 0.48627451 0.48627451
0.4872549 0.4872549 0.4872549
0.4872549 0.4872549 0.4872549
0.49019608 0.49019608 0.49019608
0.49031863 0.49031863 0.49031863
0.49117647 0.49117647 0.49117647
0.49411765 0.49411765 0.49411765
0.49509804 0.49509804 0.49509804
0.49803922 0.49803922 0.49803922
0.49901961 0.49901961 0.49901961
0.50281863 0.50281863 0.50281863
0.50882353 0.50882353 0.50882353
0.51519608 0.51519608 0.51519608
0.5254902 0.5254902 0.5254902
0.53186275 0.53186275 0.53186275
0.54215686 0.54215686 0.54215686
0.55245098 0.55245098 0.55245098
0.55882353 0.55882353 0.55882353
0.57254902 0.57254902 0.57254902
0.58578431 0.58578431 0.58578431
0.60196078 0.60196078 0.60196078
0.61642157 0.61642157 0.61642157
0.63026961 0.63026961 0.63026961
0.64019608 0.64019608 0.64019608
0.51960784 0.51960784 0.51960784
0.51960784 0.51960784 0.51960784
0.52205882 0.52205882 0.52205882
0.52352941 0.52352941 0.52352941
0.52598039 0.52598039 0.52598039
0.52745098 0.52745098 0.52745098
0.52745098 0.52745098 0.52745098
0.53045343 0.53045343 0.53045343
0.53137255 0.53137255 0.53137255
0.53382353 0.53382353 0.53382353
0.53529412 0.53529412 0.53529412
0.53743873 0.53743873 0.53743873
0.54240196 0.54240196 0.54240196
0.54969363 0.54969363 0.54969363
0.55637255 0.55637255 0.55637255
0.56666667 0.56666667 0.56666667
0.57303922 0.57303922 0.57303922
0.58333333 0.58333333 0.58333333
0.58970588 0.58970588 0.58970588
0.60343137 0.60343137 0.60343137
0.61617647 0.61617647 0.61617647
0.63235294 0.63235294 0.63235294
0.64620098 0.64620098 0.64620098
0.66078431 0.66078431 0.66078431
0.67107843 0.67107843 0.67107843
0.55686275 0.55686275 0.55686275
0.55686275 0.55686275 0.55686275
0.55784314 0.55784314 0.55784314
0.56078431 0.56078431 0.56078431
0.5627451 0.5627451 0.5627451
0.56470588 0.56470588 0.56470588
0.56470588 0.56470588 0.56470588
0.56862745 0.56862745 0.56862745
0.56862745 0.56862745 0.56862745
0.57107843 0.57107843 0.57107843
0.57254902 0.57254902 0.57254902
0.57254902 0.57254902 0.57254902
0.57647059 0.57647059 0.57647059
0.58088235 0.58088235 0.58088235
0.59117647 0.59117647 0.59117647
0.59754902 0.59754902 0.59754902
0.60784314 0.60784314 0.60784314
0.61421569 0.61421569 0.61421569
0.62058824 0.62058824 0.62058824
0.63431373 0.63431373 0.63431373
0.64705882 0.64705882 0.64705882
0.65980392 0.65980392 0.65980392
0.67352941 0.67352941 0.67352941
0.6877451 0.6877451 0.6877451
0.69803922 0.69803922 0.69803922
0.59411765 0.59411765 0.59411765
0.59411765 0.59411765 0.59411765
0.59558824 0.59558824 0.59558824
0.59803922 0.59803922 0.59803922
0.5995098 0.5995098 0.5995098
0.60196078 0.60196078 0.60196078
0.60196078 0.60196078 0.60196078
0.60588235 0.60588235 0.60588235
0.60588235 0.60588235 0.60588235
0.60735294 0.60735294 0.60735294
0.60980392 0.60980392 0.60980392
0.60980392 0.60980392 0.60980392
0.6125 0.6125 0.6125
0.61783088 0.61783088 0.61783088
0.62267157 0.62267157 0.62267157
0.63180147 0.63180147 0.63180147
0.63872549 0.63872549 0.63872549
0.64509804 0.64509804 0.64509804
0.65147059 0.65147059 0.65147059
0.66305147 0.66305147 0.66305147
0.67598039 0.67598039 0.67598039
0.6877451 0.6877451 0.6877451
0.7004902 0.7004902 0.7004902
0.7122549 0.7122549 0.7122549
0.71862745 0.71862745 0.71862745
0.63039216 0.63039216 0.63039216
0.63137255 0.63137255 0.63137255
0.63210784 0.63210784 0.63210784
0.63517157 0.63517157 0.63517157
0.63529412 0.63529412 0.63529412
0.63835784 0.63835784 0.63835784
0.63921569 0.63921569 0.63921569
0.64215686 0.64215686 0.64215686
0.64313725 0.64313725 0.64313725
0.64497549 0.64497549 0.64497549
0.64607843 0.64607843 0.64607843
0.64705882 0.64705882 0.64705882
0.64852941 0.64852941 0.64852941
0.65134804 0.65134804 0.65134804
0.65710784 0.65710784 0.65710784
0.66323529 0.66323529 0.66323529
0.66960784 0.66960784 0.66960784
0.67536765 0.67536765 0.67536765
0.67843137 0.67843137 0.67843137
0.68872549 0.68872549 0.68872549
0.70196078 0.70196078 0.70196078
0.71323529 0.71323529 0.71323529
0.72647059 0.72647059 0.72647059
0.73676471 0.73676471 0.73676471
0.74313725 0.74313725 0.74313725
0.66862745 0.66862745 0.66862745
0.66862745 0.66862745 0.66862745
0.66911765 0.66911765 0.66911765
0.67254902 0.67254902 0.67254902
0.67279412 0.67279412 0.67279412
0.67346814 0.67346814 0.67346814
0.67647059 0.67647059 0.67647059
0.67696078 0.67696078 0.67696078
0.67696078 0.67696078 0.67696078
0.68039216 0.68039216 0.68039216
0.68088235 0.68088235 0.68088235
0.68088235 0.68088235 0.68088235
0.68431373 0.68431373 0.68431373
0.68523284 0.68523284 0.68523284
0.69129902 0.69129902 0.69129902
0.69656863 0.69656863 0.69656863
0.7004902 0.7004902 0.7004902
0.70441176 0.70441176 0.70441176
0.70931373 0.70931373 0.70931373
0.71574755 0.71574755 0.71574755
0.72647059 0.72647059 0.72647059
0.74019608 0.74019608 0.74019608
0.75098039 0.75098039 0.75098039
0.75949755 0.75949755 0.75949755
0.76372549 0.76372549 0.76372549
0.70392157 0.70392157 0.70392157
0.70514706 0.70514706 0.70514706
0.70588235 0.70588235 0.70588235
0.70784314 0.70784314 0.70784314
0.70784314 0.70784314 0.70784314
0.70980392 0.70980392 0.70980392
0.71127451 0.71127451 0.71127451
0.71176471 0.71176471 0.71176471
0.71176471 0.71176471 0.71176471
0.71372549 0.71372549 0.71372549
0.71568627 0.71568627 0.71568627
0.71568627 0.71568627 0.71568627
0.71862745 0.71862745 0.71862745
0.71960784 0.71960784 0.71960784
0.72352941 0.72352941 0.72352941
0.72892157 0.72892157 0.72892157
0.73137255 0.73137255 0.73137255
0.73529412 0.73529412 0.73529412
0.7377451 0.7377451 0.7377451
0.74485294 0.74485294 0.74485294
0.75392157 0.75392157 0.75392157
0.76544118 0.76544118 0.76544118
0.77598039 0.77598039 0.77598039
0.78308824 0.78308824 0.78308824
0.78431373 0.78431373 0.78431373
0.73921569 0.73921569 0.73921569
0.73921569 0.73921569 0.73921569
0.74264706 0.74264706 0.74264706
0.74264706 0.74264706 0.74264706
0.74313725 0.74313725 0.74313725
0.74313725 0.74313725 0.74313725
0.74656863 0.74656863 0.74656863
0.74656863 0.74656863 0.74656863
0.74656863 0.74656863 0.74656863
0.74656863 0.74656863 0.74656863
0.74669118 0.74669118 0.74669118
0.7504902 0.7504902 0.7504902
0.75269608 0.75269608 0.75269608
0.75441176 0.75441176 0.75441176
0.75747549 0.75747549 0.75747549
0.7622549 0.7622549 0.7622549
0.7622549 0.7622549 0.7622549
0.76599265 0.76599265 0.76599265
0.76715686 0.76715686 0.76715686
0.77352941 0.77352941 0.77352941
0.77990196 0.77990196 0.77990196
0.79362745 0.79362745 0.79362745
0.8004902 0.8004902 0.8004902
0.80490196 0.80490196 0.80490196
0.80490196 0.80490196 0.80490196
0.77352941 0.77352941 0.77352941
0.77352941 0.77352941 0.77352941
0.77671569 0.77671569 0.77671569
0.77745098 0.77745098 0.77745098
0.77745098 0.77745098 0.77745098
0.77781863 0.77781863 0.77781863
0.78039216 0.78039216 0.78039216
0.78137255 0.78137255 0.78137255
0.78137255 0.78137255 0.78137255
0.77745098 0.77745098 0.77745098
0.77769608 0.77769608 0.77769608
0.78137255 0.78137255 0.78137255
0.78529412 0.78529412 0.78529412
0.78835784 0.78835784 0.78835784
0.79142157 0.79142157 0.79142157
0.79313725 0.79313725 0.79313725
0.79313725 0.79313725 0.79313725
0.79558824 0.79558824 0.79558824
0.79730392 0.79730392 0.79730392
0.80183824 0.80183824 0.80183824
0.80931373 0.80931373 0.80931373
0.81813725 0.81813725 0.81813725
0.8252451 0.8252451 0.8252451
0.8254902 0.8254902 0.8254902
0.8254902 0.8254902 0.8254902
0.80441176 0.80441176 0.80441176
0.80594363 0.80594363 0.80594363
0.80833333 0.80833333 0.80833333
0.81047794 0.81047794 0.81047794
0.8122549 0.8122549 0.8122549
0.81354167 0.81354167 0.81354167
0.81372549 0.81372549 0.81372549
0.8122549 0.8122549 0.8122549
0.80833333 0.80833333 0.80833333
0.80686275 0.80686275 0.80686275
0.80686275 0.80686275 0.80686275
0.81047794 0.81047794 0.81047794
0.81544118 0.81544118 0.81544118
0.82009804 0.82009804 0.82009804
0.82401961 0.82401961 0.82401961
0.82401961 0.82401961 0.82401961
0.82401961 0.82401961 0.82401961
0.82401961 0.82401961 0.82401961
0.82683824 0.82683824 0.82683824
0.83167892 0.83167892 0.83167892
0.8377451 0.8377451 0.8377451
0.84411765 0.84411765 0.84411765
0.84938725 0.84938725 0.84938725
0.84607843 0.84607843 0.84607843
0.84607843 0.84607843 0.84607843
0.82745098 0.82745098 0.82745098
0.82745098 0.82745098 0.82745098
0.83137255 0.83137255 0.83137255
0.83137255 0.83137255 0.83137255
0.8372549 0.8372549 0.8372549
0.84362745 0.84362745 0.84362745
0.84019608 0.84019608 0.84019608
0.83529412 0.83529412 0.83529412
0.83137255 0.83137255 0.83137255
0.82745098 0.82745098 0.82745098
0.82745098 0.82745098 0.82745098
0.83137255 0.83137255 0.83137255
0.83529412 0.83529412 0.83529412
0.84313725 0.84313725 0.84313725
0.84705882 0.84705882 0.84705882
0.84705882 0.84705882 0.84705882
0.84705882 0.84705882 0.84705882
0.84705882 0.84705882 0.84705882
0.84803922 0.84803922 0.84803922
0.85441176 0.85441176 0.85441176
0.86078431 0.86078431 0.86078431
0.87009804 0.87009804 0.87009804
0.86372549 0.86372549 0.86372549
0.8627451 0.8627451 0.8627451
0.85882353 0.85882353 0.85882353
0.048039216 0.048039216 0.048039216
0.048039216 0.048039216 0.048039216
0.044730392 0.044730392 0.044730392
0.051470588 0.051470588 0.051470588
0.065686275 0.065686275 0.065686275
0.073529412 0.073529412 0.073529412
0.078063725 0.078063725 0.078063725
0.082291667 0.082291667 0.082291667
0.098039216 0.098039216 0.098039216
0.11323529 0.11323529 0.11323529
0.125 0.125 0.125
0.13529412 0.13529412 0.13529412
0.14558824 0.14558824 0.14558824
0.15196078 0.15196078 0.15196078
0.15833333 0.15833333 0.15833333
0.16660539 0.16660539 0.16660539
0.18137255 0.18137255 0.18137255
0.2028799 0.2028799 0.2028799
0.23002451 0.23002451 0.23002451
0.25765931 0.25765931 0.25765931
0.28357843 0.28357843 0.28357843
0.30949755 0.30949755 0.30949755
0.33382353 0.33382353 0.33382353
0.35833333 0.35833333 0.35833333
0.37892157 0.37892157 0.37892157
0.07254902 0.07254902 0.07254902
0.0714231 0.0714231 0.0714231
0.072380515 0.072380515 0.072380515
0.078431373 0.078431373 0.078431373
0.089001225 0.089001225 0.089001225
0.097855392 0.097855392 0.097855392
0.10307904 0.10307904 0.10307904
0.10839461 0.10839461 0.10839461
0.11623775 0.11623775 0.11623775
0.12745098 0.12745098 0.12745098
0.14051777 0.14051777 0.14051777
0.15196078 0.15196078 0.15196078
0.16029412 0.16029412 0.16029412
0.16733303 0.16733303 0.16733303
0.17389706 0.17389706 0.17389706
0.18137255 0.18137255 0.18137255
0.19558824 0.19558824 0.19558824
0.21675092 0.21675092 0.21675092
0.24276961 0.24276961 0.24276961
0.26881127 0.26881127 0.26881127
0.29313725 0.29313725 0.29313725
0.31820619 0.31820619 0.31820619
0.34088542 0.34088542 0.34088542
0.36470588 0.36470588 0.36470588
0.384375 0.384375 0.384375
0.10735294 0.10735294 0.10735294
0.10735294 0.10735294 0.10735294
0.10735294 0.10735294 0.10735294
0.110769 0.110769 0.110769
0.11807598 0.11807598 0.11807598
0.12610294 0.12610294 0.12610294
0.13155637 0.13155637 0.13155637
0.13673407 0.13673407 0.13673407
0.14264706 0.14264706 0.14264706
0.15012255 0.15012255 0.15012255
0.1622549 0.1622549 0.1622549
0.17254902 0.17254902 0.17254902
