site/assets/luts/sha256-3692b26b0778714e145e3a53ce893a4a9b7bfc8c5083a7afd0bd1a6bccc97968.cube
# LUTr-Schema-Version: 2
# LUTr-ID: sha256-3692b26b0778714e145e3a53ce893a4a9b7bfc8c5083a7afd0bd1a6bccc97968
# LUTr-Title: kodak kodachrome 64
# LUTr-Collection: Natron HaldCLUT
# LUTr-Collection-ID: natron-haldclut-presets
# LUTr-Source: https://github.com/NatronGitHub/clut
# LUTr-Retrieved: 2026-07-27
# LUTr-Source-File: submissions/natron-haldclut-presets/colorslide/kodak_kodachrome_64.png
# LUTr-Source-Format: HALD-PNG
# LUTr-Source-SHA256: 3692b26b0778714e145e3a53ce893a4a9b7bfc8c5083a7afd0bd1a6bccc97968
# LUTr-License: CC-BY-SA-4.0
# LUTr-License-URL: https://github.com/NatronGitHub/clut#license
# LUTr-License-Basis: repo-license-file
# LUTr-Transform-Class: film-emulation
# LUTr-Tags: creative, film, film-emulation, hald-clut, natron, png, cube
# LUTr-Input-Color-Space: srgb
# LUTr-Input-Gamut: rec709
# LUTr-Input-Transfer: srgb
# LUTr-Output-Color-Space: srgb
# LUTr-Output-Gamut: rec709
# LUTr-Output-Transfer: srgb
# LUTr-Color-Space-Confidence: assumed-display-referred
# LUTr-Domain-Normalized: true
# LUTr-Shaper: none
# LUTr-Original-Grid: 64x64x64
# LUTr-Conversion-Grid: 25x25x25
# LUTr-Conversion-Interpolation: trilinear
# LUTr-Conversion-Method: HALD-PNG LUT image decoded at 16-bit and sampled to 25x25x25 3D CUBE
# LUTr-Conversion-Tool: LUTr scripts/convert-all-to-cube.mjs 2.0.0
# LUTr-Conversion-Date: 2026-07-27
# LUTr-Note: Preserve this metadata and the upstream license notices when redistributing.
TITLE "kodak kodachrome 64"
LUT_3D_SIZE 25
DOMAIN_MIN 0 0 0
DOMAIN_MAX 1 1 1
0.015686275 0.02745098 0.0078431373
0.029901961 0.023529412 0.011764706
0.048039216 0.018627451 0.016666667
0.065686275 0.012254902 0.019607843
0.088235294 0.0078431373 0.021568627
0.12745098 0.015686275 0.027941176
0.17254902 0.019607843 0.034313725
0.22303922 0.02745098 0.039215686
0.27843137 0.043137255 0.043137255
0.34656863 0.06372549 0.040686275
0.41078431 0.07254902 0.034313725
0.47892157 0.089705882 0.024019608
0.54901961 0.10784314 0.017647059
0.59803922 0.10490196 0.015686275
0.63921569 0.080392157 0.015686275
0.67647059 0.075980392 0.015686275
0.72156863 0.090196078 0.015686275
0.7627451 0.10441176 0.015686275
0.8 0.11078431 0.015686275
0.8377451 0.11372549 0.015686275
0.87254902 0.10784314 0.011764706
0.90735294 0.10245098 0.0078431373
0.93823529 0.10882353 0.0049019608
0.9622549 0.11372549 0.0039215686
0.96862745 0.11372549 0.0039215686
0.013235294 0.02745098 0.0053921569
0.030882353 0.025061275 0.012745098
0.051470588 0.025980392 0.020220588
0.072058824 0.024509804 0.029411765
0.099754902 0.027696078 0.033823529
0.14068627 0.032843137 0.034313725
0.18823529 0.039828431 0.038848039
0.23578431 0.045588235 0.044056373
0.29117647 0.059803922 0.045588235
0.35686275 0.081862745 0.043137255
0.41838235 0.087254902 0.034313725
0.48314951 0.093443627 0.024019608
0.5502451 0.11029412 0.017647059
0.60196078 0.10735294 0.015686275
0.64203431 0.095465686 0.015686275
0.68431373 0.09810049 0.015686275
0.7254902 0.10294118 0.015686275
0.76519608 0.11470588 0.015686275
0.80294118 0.12009804 0.019240196
0.8377451 0.12009804 0.015686275
0.87254902 0.11421569 0.012990196
0.903125 0.1122549 0.011764706
0.93186275 0.11556373 0.010661765
0.95343137 0.12009804 0.010294118
0.96470588 0.12401961 0.010294118
0.021568627 0.047058824 0.018627451
0.03627451 0.042156863 0.026838235
0.056862745 0.045098039 0.038235294
0.078308824 0.048651961 0.048529412
0.11470588 0.051960784 0.050490196
0.15735294 0.060906863 0.049019608
0.20808824 0.065686275 0.048039216
0.25637255 0.074632353 0.048039216
0.31176471 0.084313725 0.047058824
0.37254902 0.10245098 0.045220588
0.43137255 0.10784314 0.038235294
0.49215686 0.10784314 0.025
0.55392157 0.11666667 0.017647059
0.60686275 0.11813725 0.011764706
0.6502451 0.11568627 0.014705882
0.68921569 0.11960784 0.015686275
0.72941176 0.12352941 0.016666667
0.76764706 0.12892157 0.015686275
0.80710784 0.13431373 0.016421569
0.83872549 0.13051471 0.019485294
0.86862745 0.1245098 0.015686275
0.89803922 0.12254902 0.015808824
0.92181373 0.12647059 0.016666667
0.94522059 0.13247549 0.016666667
0.95980392 0.13529412 0.016666667
0.038235294 0.088235294 0.045588235
0.048529412 0.081678922 0.051960784
0.060294118 0.072181373 0.058823529
0.087806373 0.072610294 0.065686275
0.12892157 0.078921569 0.065686275
0.17444853 0.088786765 0.065686275
0.2254902 0.095588235 0.061887255
0.28088235 0.10226716 0.056556373
0.33235294 0.1122549 0.050980392
0.39019608 0.12303922 0.048345588
0.44840686 0.12843137 0.041666667
0.50594363 0.12843137 0.031372549
0.56397059 0.13210784 0.017647059
0.61372549 0.13278186 0.012193627
0.65490196 0.13627451 0.015686275
0.69558824 0.14019608 0.019117647
0.73333333 0.14411765 0.019607843
0.771875 0.14442402 0.017156863
0.81041667 0.14852941 0.015686275
0.84209559 0.14503676 0.015686275
0.86691176 0.13823529 0.019607843
0.89123775 0.13633578 0.020036765
0.91482843 0.14056373 0.023039216
0.94019608 0.14607843 0.023039216
0.95686275 0.15196078 0.023039216
0.054901961 0.13333333 0.07254902
0.063970588 0.125 0.077696078
0.075490196 0.11470588 0.084803922
0.10392157 0.11348039 0.08627451
0.14607843 0.11862745 0.08627451
0.19264706 0.12573529 0.084068627
0.24558824 0.13235294 0.079411765
0.29901961 0.13872549 0.071078431
0.35294118 0.14117647 0.062745098
0.41078431 0.14632353 0.052941176
0.46568627 0.15588235 0.048529412
0.52083333 0.16617647 0.043627451
0.57647059 0.17352941 0.038235294
0.62352941 0.17401961 0.035294118
0.6627451 0.16862745 0.033823529
0.70122549 0.16666667 0.032598039
0.73921569 0.16666667 0.02745098
0.77720588 0.16544118 0.021568627
0.81715686 0.16519608 0.015686275
0.84607843 0.16127451 0.015686275
0.87156863 0.16078431 0.020588235
0.89754902 0.16078431 0.02377451
0.925 0.16421569 0.025490196
0.95073529 0.17009804 0.025490196
0.96666667 0.17254902 0.025490196
0.071568627 0.17892157 0.099509804
0.081862745 0.1723652 0.10324755
0.097058824 0.16323529 0.10686275
0.12107843 0.15931373 0.10735294
0.15759804 0.1627451 0.10735294
0.20735294 0.17064951 0.10637255
0.26262255 0.17794118 0.098651961
0.31960784 0.18823529 0.089705882
0.37745098 0.19509804 0.079411765
0.43284314 0.20147059 0.073039216
0.48039216 0.2064951 0.071568627
0.53180147 0.21372549 0.067708333
0.58676471 0.22205882 0.06372549
0.63382353 0.22156863 0.060294118
0.67107843 0.21127451 0.059803922
0.70655637 0.20441176 0.056188725
0.74509804 0.20147059 0.048529412
0.78253676 0.19803922 0.041666667
0.82267157 0.19460784 0.031372549
0.85392157 0.19068627 0.024509804
0.88088235 0.18970588 0.024019608
0.91133578 0.18964461 0.027879902
0.93921569 0.18958333 0.02745098
0.96452206 0.19332108 0.02745098
0.97696078 0.19705882 0.027941176
0.089215686 0.22745098 0.12352941
0.10098039 0.22254902 0.12745098
0.12058824 0.21691176 0.12843137
0.13909314 0.21078431 0.13137255
0.17254902 0.20882353 0.13137255
0.22794118 0.22205882 0.12352941
0.28553922 0.23553922 0.11666667
0.34375 0.24656863 0.11029412
0.39803922 0.25686275 0.1
0.45343137 0.26323529 0.093627451
0.5 0.26470588 0.092156863
0.54852941 0.2682598 0.092156863
0.59852941 0.27352941 0.088235294
0.64411765 0.27303922 0.086887255
0.68137255 0.2627451 0.084313725
0.71470588 0.2495098 0.082230392
0.74901961 0.24215686 0.079411765
0.78921569 0.24105392 0.069117647
0.82965686 0.24240196 0.058823529
0.86421569 0.23872549 0.048161765
0.89460784 0.22843137 0.039705882
0.92205882 0.22009804 0.034313725
0.95514706 0.21666667 0.031372549
0.98026961 0.21764706 0.031372549
0.9872549 0.21764706 0.031372549
0.10343137 0.27794118 0.14803922
0.11856618 0.2754902 0.14803922
0.13676471 0.27156863 0.14803922
0.15704657 0.27156863 0.14656863
0.19313725 0.27107843 0.14656863
0.24901961 0.28382353 0.14234069
0.30894608 0.29411765 0.13688725
0.36715686 0.30686275 0.12696078
0.41862745 0.31470588 0.11911765
0.47156863 0.32107843 0.1127451
0.52058824 0.32254902 0.1127451
0.56783088 0.325 0.1127451
0.6120098 0.32647059 0.1127451
0.65833333 0.3286152 0.11029412
0.69375 0.31813725 0.10919118
0.72800245 0.30539216 0.10790441
0.7622549 0.29509804 0.10490196
0.79797794 0.29117647 0.095526961
0.83676471 0.29362745 0.084313725
0.8745098 0.29381127 0.071568627
0.90539216 0.28063725 0.06372549
0.93627451 0.26568627 0.053431373
0.9682598 0.25147059 0.040196078
0.99601716 0.24178922 0.03192402
0.99754902 0.24362745 0.032843137
0.10980392 0.33333333 0.16862745
0.12647059 0.33333333 0.16617647
0.14803922 0.3372549 0.16372549
0.17156863 0.3372549 0.16078431
0.20980392 0.33921569 0.16078431
0.26960784 0.3495098 0.15686275
0.33137255 0.35980392 0.15392157
0.3877451 0.36617647 0.14754902
0.43921569 0.37254902 0.1372549
0.49068627 0.37647059 0.13186275
0.53823529 0.38039216 0.13431373
0.58235294 0.38039216 0.1372549
0.62745098 0.38431373 0.1372549
0.66862745 0.38431373 0.1372549
0.70686275 0.37745098 0.13431373
0.74166667 0.36715686 0.13186275
0.77647059 0.36078431 0.1254902
0.81127451 0.35441176 0.11911765
0.85 0.35294118 0.10882353
0.88823529 0.35294118 0.094607843
0.91960784 0.34313725 0.088235294
0.9504902 0.32843137 0.077941176
0.98137255 0.31470588 0.064705882
0.99754902 0.30441176 0.058823529
1 0.30588235 0.058823529
0.11617647 0.3872549 0.19313725
0.13621324 0.39209559 0.18676471
0.15943627 0.39718137 0.18039216
0.18186275 0.40147059 0.17530637
0.22598039 0.40612745 0.175
0.29019608 0.41127451 0.17383578
0.35196078 0.41973039 0.17598039
0.40833333 0.42401961 0.17598039
0.45980392 0.42794118 0.1745098
0.50735294 0.43039216 0.16721814
0.55428922 0.43186275 0.16421569
0.59871324 0.43560049 0.16452206
0.64166667 0.43897059 0.16421569
0.68529412 0.44393382 0.16390931
0.72107843 0.43921569 0.15845588
0.75680147 0.43192402 0.15392157
0.79313725 0.42647059 0.14607843
0.82794118 0.425 0.13670343
0.86482843 0.42107843 0.12941176
0.90116422 0.41734069 0.11911765
0.9370098 0.41127451 0.11397059
0.96685049 0.40098039 0.10490196
0.98688725 0.39068627 0.09754902
0.99607843 0.38039216 0.09307598
0.99607843 0.3754902 0.089705882
0.13137255 0.44411765 0.21372549
0.15159314 0.44693627 0.21127451
0.17647059 0.45367647 0.20196078
0.19803922 0.46323529 0.19546569
0.24362745 0.46764706 0.19754902
0.30686275 0.46764706 0.20698529
0.36862745 0.46985294 0.21397059
0.42610294 0.47267157 0.21568627
0.47647059 0.47843137 0.21176471
0.52120098 0.48186275 0.20110294
0.56740196 0.48333333 0.19901961
0.61078431 0.48713235 0.19803922
0.65588235 0.49068627 0.19509804
0.69571078 0.49411765 0.19117647
0.73357843 0.49411765 0.18823529
0.77009804 0.49117647 0.17794118
0.80882353 0.49215686 0.16764706
0.84705882 0.49669118 0.15637255
0.88333333 0.49215686 0.14705882
0.91678922 0.48578431 0.1432598
0.95245098 0.48529412 0.13921569
0.98590686 0.47794118 0.13223039
0.99313725 0.46691176 0.12843137
0.99607843 0.45245098 0.12414216
0.99607843 0.44509804 0.12058824
0.14852941 0.4995098 0.23823529
0.16979167 0.50324755 0.23400735
0.20490196 0.50477941 0.23333333
0.23964461 0.51084559 0.23333333
0.28014706 0.51348039 0.2372549
0.33131127 0.51525735 0.24558824
0.38921569 0.5182598 0.25208333
0.44215686 0.52089461 0.25557598
0.48970588 0.52696078 0.24558824
0.53480392 0.53088235 0.23529412
0.57990196 0.53223039 0.22634804
0.6245098 0.53480392 0.22598039
0.66446078 0.53872549 0.22598039
0.70343137 0.53921569 0.22205882
0.74080882 0.53921569 0.21911765
0.77794118 0.54264706 0.20882353
0.81568627 0.54656863 0.19852941
0.85686275 0.55686275 0.18431373
0.89656863 0.55735294 0.17487745
0.92745098 0.55091912 0.17150735
0.96421569 0.5502451 0.16715686
0.99607843 0.54993873 0.1627451
0.99607843 0.53272059 0.15551471
0.99607843 0.51715686 0.15018382
0.99607843 0.51078431 0.14754902
0.18235294 0.54705882 0.26666667
0.20784314 0.54901961 0.26985294
0.24852941 0.55147059 0.275
0.28480392 0.55465686 0.27843137
0.32156863 0.55980392 0.28137255
0.36691176 0.5627451 0.28284314
0.41323529 0.56470588 0.29117647
0.45686275 0.56813725 0.28676471
0.50196078 0.57254902 0.27647059
0.54632353 0.57769608 0.2622549
0.59068627 0.58039216 0.25441176
0.63186275 0.58210784 0.25294118
0.67156863 0.58431373 0.25294118
0.70955882 0.58431373 0.25294118
0.74754902 0.58578431 0.25294118
0.78431373 0.58897059 0.24362745
0.82352941 0.59411765 0.23529412
0.86151961 0.59852941 0.22303922
0.89803922 0.60098039 0.21470588
0.93357843 0.6002451 0.20808824
0.96862745 0.59803922 0.20294118
0.99240196 0.59583333 0.19730392
0.99607843 0.59264706 0.18186275
0.99803922 0.58284314 0.17377451
0.99803922 0.57843137 0.17254902
0.23333333 0.58235294 0.3
0.25294118 0.58841912 0.30637255
0.29117647 0.59375 0.31531863
0.32598039 0.59803922 0.31954657
0.35857843 0.60392157 0.32328431
0.39944853 0.60680147 0.32303922
0.44019608 0.60980392 0.31911765
0.48137255 0.61390931 0.31372549
0.51862745 0.61813725 0.30343137
0.55980392 0.621875 0.28921569
0.60428922 0.6254902 0.27953431
0.64123775 0.62898284 0.28333333
0.67843137 0.62941176 0.28431373
0.71568627 0.62947304 0.28731618
0.75343137 0.63247549 0.28394608
0.79068627 0.63351716 0.27843137
0.82794118 0.6372549 0.26862745
0.86648284 0.64117647 0.25784314
0.90232843 0.64509804 0.25159314
0.9401348 0.64859069 0.24509804
0.975 0.64558824 0.23480392
0.99215686 0.64509804 0.22849265
0.99607843 0.64546569 0.21556373
1 0.64724265 0.19901961
1 0.64509804 0.20294118
0.27843137 0.61960784 0.3372549
0.29754902 0.62414216 0.34178922
0.33235294 0.63161765 0.35073529
0.36323529 0.63615196 0.35392157
0.38823529 0.64166667 0.35784314
0.42303922 0.64448529 0.3564951
0.46078431 0.64803922 0.35318627
0.49901961 0.65306373 0.34460784
0.53921569 0.65882353 0.33431373
0.57745098 0.65980392 0.32340686
0.61372549 0.6629902 0.31666667
0.64546569 0.66372549 0.31764706
0.68186275 0.66764706 0.32156863
0.71948529 0.67071078 0.32120098
0.75759804 0.6745098 0.31568627
0.79767157 0.67843137 0.30931373
0.83529412 0.67843137 0.30294118
0.87193627 0.68235294 0.29264706
0.90808824 0.68627451 0.2870098
0.94620098 0.69019608 0.27892157
0.98382353 0.69362745 0.26715686
0.99215686 0.69019608 0.26654412
0.99534314 0.68627451 0.25980392
0.99705882 0.68333333 0.25539216
0.99607843 0.68235294 0.26078431
0.32352941 0.65686275 0.37303922
0.34019608 0.66078431 0.37696078
0.36813725 0.66752451 0.38186275
0.39166667 0.67107843 0.38823529
0.41544118 0.675 0.39264706
0.44148284 0.67910539 0.39234069
0.47745098 0.68284314 0.38688725
0.51623775 0.68731618 0.38088235
0.55441176 0.69068627 0.37303922
0.58921569 0.69460784 0.3627451
0.62009804 0.69460784 0.35882353
0.65098039 0.69460784 0.35882353
0.68504902 0.69852941 0.35882353
0.72322304 0.70245098 0.35863971
0.76115196 0.70637255 0.35379902
0.80104167 0.71176471 0.34558824
0.83921569 0.71813725 0.33529412
0.87702206 0.72205882 0.32107843
0.90943627 0.72303922 0.31960784
0.94362745 0.72598039 0.31960784
0.97769608 0.72598039 0.30980392
0.9908701 0.72959559 0.30373775
0.99509804 0.72745098 0.30061275
0.99607843 0.72352941 0.29908088
0.99607843 0.71960784 0.30245098
0.36470588 0.69411765 0.40392157
0.37352941 0.69656863 0.40784314
0.39803922 0.70196078 0.4127451
0.42254902 0.70539216 0.41911765
0.44313725 0.70980392 0.42352941
0.46421569 0.71029412 0.42745098
0.49411765 0.71372549 0.42058824
0.52990196 0.71911765 0.41421569
0.56470588 0.72156863 0.40784314
0.5995098 0.7254902 0.4
0.63039216 0.7254902 0.39607843
0.66127451 0.72892157 0.39607843
0.69215686 0.72941176 0.39607843
0.72696078 0.73333333 0.39558824
0.76470588 0.7372549 0.38921569
0.80196078 0.74264706 0.38284314
0.84313725 0.74901961 0.37254902
0.87794118 0.75294118 0.3622549
0.90882353 0.75392157 0.36078431
0.93970588 0.75686275 0.35735294
0.96862745 0.75686275 0.35098039
0.98088235 0.76078431 0.34068627
0.99117647 0.76470588 0.33039216
1 0.76470588 0.32303922
1 0.76470588 0.32941176
0.40196078 0.72892157 0.43872549
0.40741422 0.73045343 0.43872549
0.42892157 0.73566176 0.44301471
0.4495098 0.73890931 0.44785539
0.47009804 0.74068627 0.45318627
0.48823529 0.74460784 0.45833333
0.51176471 0.74754902 0.45539216
0.54166667 0.75 0.44656863
0.57745098 0.75245098 0.43872549
0.60980392 0.75637255 0.43235294
0.64068627 0.75637255 0.43088235
0.67156863 0.75980392 0.43333333
0.69852941 0.76029412 0.43210784
0.73088235 0.76421569 0.43069853
0.76752451 0.76813725 0.42585784
0.80588235 0.77352941 0.41764706
0.84313725 0.77990196 0.40980392
0.87794118 0.78235294 0.40251225
0.90882353 0.78382353 0.39803922
0.93756127 0.78743873 0.39589461
0.96029412 0.7877451 0.38823529
0.9745098 0.79166667 0.37794118
0.9872549 0.79558824 0.36519608
1 0.7995098 0.35643382
1 0.7995098 0.35882353
0.43921569 0.76470588 0.46960784
0.44166667 0.76764706 0.46960784
0.45955882 0.76936275 0.47352941
0.47647059 0.77156863 0.47732843
0.49264706 0.77401961 0.48333333
0.50882353 0.7754902 0.48921569
0.52941176 0.77941176 0.48455882
0.55539216 0.77977941 0.47598039
0.58921569 0.78333333 0.46960784
0.62009804 0.7872549 0.46176471
0.65098039 0.7872549 0.46568627
0.6810049 0.7872549 0.46568627
0.70882353 0.79313725 0.46568627
0.73872549 0.79558824 0.46262255
0.77058824 0.7997549 0.45882353
0.80870098 0.80502451 0.45245098
0.84313725 0.81078431 0.44607843
0.87794118 0.81078431 0.44031863
0.90882353 0.81470588 0.43529412
0.93590686 0.81470588 0.43186275
0.95686275 0.81862745 0.4245098
0.97352941 0.82254902 0.41421569
0.99044118 0.82622549 0.40490196
0.99754902 0.82647059 0.39963235
1 0.82941176 0.4
0.47647059 0.80196078 0.49705882
0.47910539 0.80459559 0.5004902
0.48627451 0.80637255 0.50147059
0.50042892 0.80588235 0.50784314
0.51470588 0.80637255 0.5122549
0.52941176 0.80637255 0.51660539
0.55 0.81029412 0.51237745
0.5745098 0.81176471 0.50471814
0.5995098 0.81421569 0.49656863
0.63039216 0.81813725 0.49264706
0.66127451 0.81813725 0.49656863
0.68829657 0.81813725 0.49656863
0.71911765 0.82401961 0.49656863
0.74607843 0.82990196 0.49607843
0.77732843 0.83370098 0.48970588
0.81354167 0.8377451 0.48333333
0.84656863 0.84166667 0.48039216
0.87794118 0.84166667 0.4745098
0.90796569 0.84166667 0.47291667
0.93578431 0.84215686 0.47254902
0.96029412 0.84754902 0.45906863
0.97738971 0.85343137 0.44944853
0.99117647 0.85343137 0.44509804
0.99626225 0.85735294 0.43756127
1 0.85735294 0.4372549
0.50196078 0.83333333 0.52745098
0.50318627 0.83651961 0.52745098
0.51078431 0.8372549 0.52794118
0.52107843 0.8372549 0.53137255
0.53529412 0.8372549 0.53627451
0.55196078 0.83946078 0.54117647
0.57401961 0.84117647 0.53578431
0.59509804 0.84264706 0.53063725
0.61764706 0.84901961 0.5254902
0.64215686 0.84901961 0.52352941
0.67058824 0.84901961 0.52745098
0.69852941 0.85073529 0.52916667
0.72941176 0.85490196 0.52843137
0.75637255 0.86078431 0.5252451
0.7872549 0.86470588 0.51960784
0.81813725 0.86862745 0.51568627
0.84901961 0.86862745 0.51176471
0.87990196 0.87254902 0.50784314
0.91078431 0.87254902 0.50392157
0.94191176 0.87254902 0.5002451
0.96666667 0.87745098 0.49117647
0.98284314 0.88039216 0.48627451
0.99166667 0.88382353 0.48284314
0.99607843 0.88431373 0.47573529
1 0.88431373 0.4745098
0.52647059 0.86813725 0.55833333
0.52910539 0.86813725 0.55833333
0.53566176 0.86813725 0.55833333
0.54558824 0.86813725 0.55833333
0.55784314 0.87034314 0.56397059
0.57444853 0.87205882 0.56617647
0.59117647 0.87242647 0.5622549
0.61176471 0.87598039 0.55833333
0.63186275 0.87598039 0.55441176
0.65275735 0.87843137 0.5504902
0.68186275 0.88088235 0.55441176
0.70931373 0.88425245 0.55827206
0.73970588 0.88970588 0.55833333
0.76666667 0.89258578 0.55435049
0.79718137 0.89558824 0.55012255
0.8245098 0.89558824 0.54509804
0.85539216 0.89901961 0.54215686
0.88627451 0.8995098 0.53872549
0.91801471 0.90306373 0.53480392
0.94846814 0.90343137 0.53088235
0.97303922 0.90735294 0.5252451
0.98872549 0.91127451 0.52261029
0.99522059 0.91127451 0.51654412
0.99754902 0.91256127 0.51390931
1 0.91470588 0.51176471
0.55098039 0.90196078 0.58921569
0.55453431 0.90294118 0.58921569
0.5627451 0.90294118 0.58921569
0.57046569 0.90294118 0.58921569
0.58039216 0.90294118 0.58970588
0.59460784 0.90686275 0.5939951
0.60955882 0.90686275 0.59313725
0.62843137 0.90796569 0.5877451
0.64607843 0.90686275 0.58529412
0.6685049 0.91041667 0.58137255
0.69215686 0.91176471 0.58235294
0.72303922 0.9185049 0.58872549
0.75 0.92254902 0.58921569
0.77696078 0.92647059 0.58480392
0.80392157 0.92647059 0.57843137
0.83088235 0.92352941 0.57598039
0.86176471 0.92352941 0.56960784
0.89264706 0.92708333 0.56776961
0.9245098 0.93137255 0.56568627
0.95833333 0.93688725 0.56482843
0.98333333 0.93970588 0.55931373
0.99252451 0.94215686 0.5564951
0.99607843 0.94215686 0.55073529
0.99754902 0.94215686 0.54963235
1 0.94215686 0.54901961
0.5754902 0.9377451 0.61862745
0.58186275 0.9377451 0.62009804
0.58933824 0.9377451 0.61862745
0.59852941 0.9341299 0.61862745
0.60637255 0.9377451 0.61862745
0.61911765 0.93823529 0.62009804
0.62941176 0.94166667 0.62193627
0.64509804 0.94313725 0.62009804
0.66421569 0.94313725 0.61617647
0.68480392 0.94166667 0.6122549
0.7057598 0.94509804 0.6122549
0.73333333 0.95294118 0.61617647
0.76029412 0.95735294 0.61740196
0.78676471 0.95735294 0.6122549
0.81127451 0.95343137 0.60931373
0.83970588 0.95343137 0.60686275
0.86813725 0.95343137 0.6004902
0.89901961 0.95496324 0.59656863
0.93235294 0.96078431 0.59656863
0.96470588 0.96862745 0.59785539
0.99166667 0.9745098 0.59656863
0.99607843 0.97285539 0.59001225
0.99607843 0.96911765 0.58517157
1 0.97003676 0.58480392
1 0.96911765 0.58480392
0.6 0.97254902 0.64705882
0.60245098 0.96470588 0.64313725
0.60882353 0.96078431 0.63921569
0.61519608 0.96078431 0.63921569
0.6254902 0.96078431 0.63921569
0.63578431 0.96470588 0.63921569
0.64901961 0.96862745 0.64313725
0.66029412 0.97401961 0.64705882
0.67843137 0.96862745 0.63921569
0.69509804 0.96470588 0.63284314
0.71666667 0.96960784 0.63235294
0.74362745 0.97990196 0.63872549
0.76862745 0.99019608 0.64509804
0.79313725 0.98039216 0.63872549
0.81764706 0.97745098 0.63529412
0.84754902 0.97647059 0.63382353
0.8745098 0.97647059 0.62745098
0.90539216 0.97647059 0.61960784
0.93627451 0.98137255 0.61862745
0.96715686 0.9877451 0.61960784
0.99607843 0.99607843 0.61960784
0.99607843 0.99215686 0.61176471
0.99607843 0.98823529 0.60882353
1 0.99215686 0.60784314
1 0.98823529 0.60784314
0.015686275 0.02745098 0.024509804
0.029901961 0.023529412 0.020588235
0.048039216 0.018627451 0.018504902
0.062254902 0.011948529 0.019607843
0.084313725 0.0078431373 0.020343137
0.12530637 0.012254902 0.02745098
0.17254902 0.018995098 0.034313725
0.22303922 0.024080882 0.039215686
0.27843137 0.040686275 0.043137255
0.34319853 0.055821078 0.043137255
0.40980392 0.059436275 0.034313725
0.47892157 0.076776961 0.02745098
0.53872549 0.087990196 0.020833333
0.59197304 0.088541667 0.015686275
0.63529412 0.073039216 0.013848039
0.67647059 0.073529412 0.014154412
0.72156863 0.08627451 0.015686275
0.76029412 0.098039216 0.015686275
0.8 0.10735294 0.015686275
0.8372549 0.10735294 0.013541667
0.87254902 0.10465686 0.0098039216
0.90735294 0.10196078 0.0078431373
0.93823529 0.10882353 0.0042892157
0.96525735 0.11372549 0.0039215686
0.97107843 0.11372549 0.0039215686
0.017218137 0.02745098 0.024509804
0.030859375 0.02689951 0.023039216
0.049019608 0.025842525 0.025260417
0.068688725 0.024509804 0.031862745
0.096568627 0.026011029 0.032904412
0.1403799 0.032659314 0.034007353
0.18823529 0.038526348 0.038848039
0.23578431 0.042585784 0.043137255
0.29117647 0.057352941 0.045588235
0.35498621 0.073958333 0.044056373
0.41801471 0.076960784 0.035845588
0.48155637 0.082345282 0.027159926
0.54341299 0.09408701 0.020833333
0.59589461 0.095404412 0.015686275
0.6412837 0.08872549 0.015686275
0.68284314 0.09230239 0.015686275
0.72248775 0.098039216 0.015686275
0.76121324 0.10588235 0.019401042
0.79938725 0.11303615 0.019240196
0.8372549 0.11617647 0.015686275
0.87254902 0.1129902 0.012990196
0.903125 0.11145067 0.011764706
0.93186275 0.11519608 0.010294118
0.95714614 0.12009804 0.010294118
0.96470588 0.12310049 0.010294118
0.026960784 0.043995098 0.030392157
0.034390319 0.043995098 0.034620098
0.053308824 0.045098039 0.042064951
0.075398284 0.045955882 0.050505515
0.11231618 0.051960784 0.050490196
0.15727635 0.058333333 0.049019608
0.2051777 0.065441176 0.049019608
0.25637255 0.07176777 0.049188113
