site/assets/luts/sha256-1bd0d648c99034a0b5b76597b0bd83773f311dc4cb1b4f389565e4ec39f1e3bd.cube
# LUTr-Schema-Version: 2
# LUTr-ID: sha256-1bd0d648c99034a0b5b76597b0bd83773f311dc4cb1b4f389565e4ec39f1e3bd
# LUTr-Title: kodak portra 400 uc ++
# LUTr-Collection: Natron HaldCLUT
# LUTr-Collection-ID: natron-haldclut-presets
# LUTr-Source: https://github.com/NatronGitHub/clut
# LUTr-Retrieved: 2026-07-27
# LUTr-Source-File: submissions/natron-haldclut-presets/negative_old/kodak_portra_400_uc_++.png
# LUTr-Source-Format: HALD-PNG
# LUTr-Source-SHA256: 1bd0d648c99034a0b5b76597b0bd83773f311dc4cb1b4f389565e4ec39f1e3bd
# LUTr-License: CC-BY-SA-4.0
# LUTr-License-URL: https://github.com/NatronGitHub/clut#license
# LUTr-License-Basis: repo-license-file
# LUTr-Transform-Class: film-emulation
# LUTr-Tags: creative, film, film-emulation, hald-clut, natron, png, cube
# LUTr-Input-Color-Space: srgb
# LUTr-Input-Gamut: rec709
# LUTr-Input-Transfer: srgb
# LUTr-Output-Color-Space: srgb
# LUTr-Output-Gamut: rec709
# LUTr-Output-Transfer: srgb
# LUTr-Color-Space-Confidence: assumed-display-referred
# LUTr-Domain-Normalized: true
# LUTr-Shaper: none
# LUTr-Original-Grid: 64x64x64
# LUTr-Conversion-Grid: 25x25x25
# LUTr-Conversion-Interpolation: trilinear
# LUTr-Conversion-Method: HALD-PNG LUT image decoded at 16-bit and sampled to 25x25x25 3D CUBE
# LUTr-Conversion-Tool: LUTr scripts/convert-all-to-cube.mjs 2.0.0
# LUTr-Conversion-Date: 2026-07-27
# LUTr-Note: Preserve this metadata and the upstream license notices when redistributing.
TITLE "kodak portra 400 uc ++"
LUT_3D_SIZE 25
DOMAIN_MIN 0 0 0
DOMAIN_MAX 1 1 1
0.094117647 0.10980392 0.066666667
0.10441176 0.10980392 0.073039216
0.11568627 0.10588235 0.078431373
0.13235294 0.10588235 0.078431373
0.15686275 0.10588235 0.07254902
0.18137255 0.10196078 0.066666667
0.20588235 0.10196078 0.059803922
0.2504902 0.10735294 0.057352941
0.30196078 0.11372549 0.050980392
0.35196078 0.12156863 0.044607843
0.41862745 0.11666667 0.034313725
0.49068627 0.10637255 0.024019608
0.5627451 0.098039216 0.01372549
0.63872549 0.10637255 0.0078431373
0.70784314 0.11372549 0.0039215686
0.76813725 0.11764706 0
0.81176471 0.11764706 0
0.85686275 0.11764706 0
0.89607843 0.12745098 0
0.92009804 0.15147059 0
0.94705882 0.17843137 0.0039215686
0.97745098 0.20833333 0.0039215686
0.9872549 0.21862745 0.0039215686
0.98970588 0.21960784 0.0039215686
0.99215686 0.22352941 0.0078431373
0.094117647 0.11372549 0.066666667
0.10441176 0.10980392 0.071507353
0.11470588 0.1122549 0.074509804
0.13020833 0.1122549 0.074509804
0.15367647 0.10980392 0.071323529
0.17922794 0.1122549 0.066666667
0.20882353 0.11580882 0.062745098
0.25441176 0.11617647 0.058823529
0.30196078 0.11617647 0.054901961
0.35343137 0.12310049 0.041605392
0.42144608 0.11973039 0.034313725
0.49460784 0.11648284 0.024019608
0.56666667 0.11470588 0.0125
0.63694853 0.11488971 0.0078431373
0.70502451 0.11617647 0.0039215686
0.76666667 0.12009804 0
0.81176471 0.12401961 0
0.85441176 0.134375 0
0.8935049 0.14313725 0
0.92647059 0.15471814 0
0.95343137 0.18088235 0.00073529412
0.98088235 0.21096814 0.0039215686
0.98823529 0.22144608 0.0039215686
0.99215686 0.22352941 0.0039215686
0.99215686 0.22352941 0.0039215686
0.093137255 0.11372549 0.065686275
0.1004902 0.11433824 0.068504902
0.11151961 0.11862745 0.069607843
0.12487745 0.11862745 0.066666667
0.14852941 0.11862745 0.065686275
0.18186275 0.12303922 0.066666667
0.21372549 0.12965686 0.066666667
0.25723039 0.13137255 0.06127451
0.30588235 0.13137255 0.050980392
0.35833333 0.13627451 0.039705882
0.42745098 0.13627451 0.030392157
0.49852941 0.13541667 0.022671569
0.57156863 0.13529412 0.0088235294
0.63958333 0.13541667 0.0029411765
0.70465686 0.13627451 0.00073529412
0.76666667 0.13835784 0
0.80784314 0.14705882 0
0.85196078 0.15833333 0.0039215686
0.89019608 0.16838235 0.00073529412
0.92745098 0.17536765 0
0.95882353 0.19166667 0
0.98578431 0.21715686 0.00036764706
0.99215686 0.22352941 0.0039215686
0.99215686 0.22352941 0.0039215686
0.99215686 0.22352941 0.0039215686
0.086764706 0.12401961 0.066176471
0.097058824 0.12696078 0.066666667
0.10735294 0.12843137 0.065808824
0.12107843 0.12542892 0.062745098
0.14705882 0.13039216 0.061029412
0.18235294 0.13719363 0.063664216
0.2192402 0.14448529 0.066666667
0.26078431 0.15294118 0.06127451
0.31323529 0.15931373 0.047058824
0.37107843 0.16323529 0.035477941
0.4377451 0.16360294 0.026593137
0.50980392 0.16323529 0.016666667
0.58161765 0.15931373 0.0022058824
0.64215686 0.16372549 0
0.70686275 0.17058824 0.0034313725
0.76813725 0.1723652 0.0034313725
0.81176471 0.175 0.0039215686
0.84901961 0.18529412 0.0039215686
0.88921569 0.19558824 0.0039215686
0.92401961 0.20588235 0.00042892157
0.95906863 0.21617647 0
0.99172794 0.22702206 0
0.99215686 0.22745098 0
0.99215686 0.22745098 0.00049019608
0.99215686 0.22745098 0.00049019608
0.068627451 0.15490196 0.070588235
0.076960784 0.15490196 0.070588235
0.091176471 0.15490196 0.066666667
0.10686275 0.15490196 0.064705882
0.13333333 0.15686275 0.064705882
0.16838235 0.16323529 0.064460784
0.20441176 0.17156863 0.06127451
0.25637255 0.18382353 0.05
0.31176471 0.19019608 0.035294118
0.37794118 0.19093137 0.02745098
0.4504902 0.19068627 0.02254902
0.52573529 0.19607843 0.012254902
0.59607843 0.2 0.0039215686
0.65147059 0.20392157 0.0039215686
0.70833333 0.20539216 0.0039215686
0.76740196 0.20784314 0.0039215686
0.81176471 0.21176471 0.0039215686
0.8504902 0.21617647 0.0039215686
0.88921569 0.22647059 0.0039215686
0.92401961 0.23676471 0.0039215686
0.95882353 0.24705882 0.0019607843
0.98872549 0.25294118 0
0.99215686 0.25294118 0.0034313725
0.99215686 0.25294118 0.0039215686
0.99215686 0.25294118 0.0039215686
0.049509804 0.18529412 0.074509804
0.05245098 0.18578431 0.070588235
0.068504902 0.18578431 0.070588235
0.092585784 0.18621324 0.070588235
0.12058824 0.18627451 0.070833333
0.15042892 0.1901348 0.062254902
0.18762255 0.19742647 0.055392157
0.24362745 0.21470588 0.039705882
0.30539216 0.225 0.018627451
0.37414216 0.2254902 0.011090686
0.46017157 0.23333333 0.012132353
0.54258578 0.24068627 0.0082720588
0.6125 0.24509804 0.0039215686
0.6661152 0.24503676 0.0039215686
0.71715686 0.24460784 0.0039215686
0.76813725 0.24479167 0.0039215686
0.81176471 0.24509804 0.0039215686
0.85294118 0.25147059 0.0039215686
0.88921569 0.26127451 0.0039215686
0.92401961 0.26856618 0.0039215686
0.95833333 0.27598039 0.0039215686
0.984375 0.28382353 0.0039215686
0.99203431 0.28382353 0.0039215686
0.99215686 0.28382353 0.0039215686
0.99215686 0.28382353 0.0039215686
0.02254902 0.2127451 0.070588235
0.025 0.2127451 0.070588235
0.044852941 0.21666667 0.070588235
0.07120098 0.22316176 0.071446078
0.098039216 0.22352941 0.068627451
0.13284314 0.22316176 0.058333333
0.17181373 0.22671569 0.048284314
0.23223039 0.24607843 0.033455882
0.29215686 0.25882353 0.011764706
0.37352941 0.27022059 0.0035539216
0.4627451 0.27769608 0.0039215686
0.54901961 0.28223039 0.0039215686
0.62794118 0.28627451 0
0.67683824 0.28615196 0.0013480392
0.7252451 0.28627451 0.0039215686
0.77169118 0.28921569 0.0039215686
0.81568627 0.29313725 0.0039215686
0.85294118 0.29411765 0.0039215686
0.88921569 0.29583333 0.0068627451
0.92401961 0.30245098 0.0039215686
0.95490196 0.30833333 0.0039215686
0.98088235 0.31470588 0.0039215686
0.99117647 0.31764706 0.0039215686
0.99215686 0.31470588 0.0039215686
0.99215686 0.31470588 0.0039215686
0.0024509804 0.24656863 0.070588235
0 0.24748775 0.066666667
0.017769608 0.25539216 0.070588235
0.043811275 0.26207108 0.070588235
0.067156863 0.26691176 0.067401961
0.091666667 0.27009804 0.062254902
0.13627451 0.27696078 0.051960784
0.20496324 0.29117647 0.037745098
0.27696078 0.30539216 0.021078431
0.36568627 0.31905637 0.010784314
0.45441176 0.32561275 0.0072303922
0.54332108 0.33235294 0.0039215686
0.62401961 0.33676471 0
0.68480392 0.33676471 0
0.73382353 0.33676471 0.0018382353
0.77843137 0.33823529 0.0039215686
0.81568627 0.33921569 0.0039215686
0.85386029 0.33768382 0.0039215686
0.88811275 0.33676471 0.006372549
0.92009804 0.33890931 0.0042279412
0.95098039 0.34436275 0.0039215686
0.97745098 0.34969363 0.0039215686
0.99117647 0.35343137 0.0039215686
0.99270833 0.35343137 0.0039215686
0.99362745 0.35343137 0.0039215686
0.0039215686 0.30196078 0.066666667
0.0039215686 0.30441176 0.066666667
0.0039215686 0.31078431 0.070588235
0.01127451 0.31715686 0.070588235
0.017647059 0.31764706 0.068627451
0.03627451 0.32156863 0.062254902
0.090196078 0.32843137 0.051960784
0.17254902 0.33480392 0.037745098
0.2627451 0.34901961 0.02745098
0.35294118 0.36323529 0.017156863
0.44411765 0.37647059 0.0078431373
0.53284314 0.38382353 0.0039215686
0.61372549 0.38823529 0
0.68137255 0.38823529 0
0.74019608 0.38823529 0
0.78088235 0.38823529 0
0.81568627 0.38823529 0.0039215686
0.8504902 0.38431373 0.0039215686
0.88529412 0.38431373 0.0039215686
0.91960784 0.38431373 0.0039215686
0.95098039 0.38431373 0.0039215686
0.98137255 0.38823529 0.0039215686
0.99509804 0.39215686 0.0039215686
0.99607843 0.39215686 0.0039215686
0.99607843 0.39215686 0.0039215686
0.0014705882 0.35735294 0.060294118
0.0039215686 0.3622549 0.063664216
0.0039215686 0.36801471 0.06875
0.0039215686 0.37285539 0.070588235
0.0026960784 0.37426471 0.065931373
0.00030637255 0.37156863 0.060784314
0.034558824 0.37598039 0.048651961
0.10778186 0.38872549 0.03682598
0.20637255 0.4004902 0.025
0.31268382 0.41470588 0.017156863
0.4192402 0.42990196 0.010784314
0.51617647 0.44528186 0.0042279412
0.5995098 0.45122549 0
0.66703431 0.4473652 0
0.725 0.44068627 0
0.77297794 0.43970588 0
0.80931373 0.43823529 0.0024509804
0.84411765 0.43578431 0.0039215686
0.87892157 0.43578431 0.0039215686
0.91354167 0.43186275 0.0039215686
0.9497549 0.42867647 0.0014705882
0.98400735 0.42567402 0
0.99607843 0.42941176 0
0.99607843 0.43088235 0
0.99607843 0.43333333 0
0 0.41372549 0.051960784
0 0.41948529 0.061642157
0.0039215686 0.42622549 0.070833333
0.0039215686 0.43198529 0.075367647
0.0039215686 0.43333333 0.073039216
0.0052696078 0.42941176 0.071568627
0.017892157 0.43308824 0.057843137
0.043995098 0.44166667 0.032965686
0.12647059 0.45196078 0.018627451
0.25723039 0.4622549 0.011151961
0.37745098 0.47720588 0.0078431373
0.48137255 0.49705882 0.0039215686
0.57647059 0.51127451 0
0.63529412 0.50245098 0.0013480392
0.69313725 0.49534314 0.0039215686
0.74595588 0.49117647 0.0039215686
0.79411765 0.49117647 0.0039215686
0.83345588 0.48933824 0.0039215686
0.86862745 0.4872549 0.0039215686
0.90343137 0.48382353 0.0039215686
0.94019608 0.47941176 0.0024509804
0.97953431 0.47156863 0.00098039216
0.99485294 0.47156863 0.00098039216
0.99509804 0.4745098 0.00098039216
0.99509804 0.4745098 0.00098039216
0 0.46813725 0.058823529
0 0.47579657 0.068627451
0 0.48345588 0.075367647
0.00042892157 0.48768382 0.081433824
0.0039215686 0.4877451 0.081862745
0.011335784 0.4872549 0.081433824
0.018627451 0.49031863 0.064705882
0.025490196 0.49344363 0.039522059
0.076470588 0.5 0.032843137
0.21421569 0.51029412 0.0071691176
0.32990196 0.52414216 0.0049019608
0.43670343 0.53523284 0.010845588
0.52990196 0.54558824 0.0039215686
0.60091912 0.54705882 0.0039215686
0.65845588 0.54313725 0.0039215686
0.71488971 0.54264706 0.0039215686
0.77352941 0.54264706 0.0039215686
0.81832108 0.54264706 0.0039215686
0.85796569 0.53872549 0.0039215686
0.89613971 0.5348652 0.0039215686
0.93186275 0.52720588 0.0056372549
0.96317402 0.52254902 0.0069240196
0.98382353 0.51911765 0.0039215686
0.99215686 0.51930147 0.0039215686
0.99215686 0.51960784 0.0039215686
0 0.51960784 0.060784314
0 0.52990196 0.071078431
0 0.53578431 0.08627451
0 0.53897059 0.090196078
0.0039215686 0.53921569 0.094117647
0.01004902 0.5372549 0.093627451
0.017156863 0.5372549 0.083823529
0.019607843 0.53995098 0.065686275
0.019607843 0.54509804 0.045098039
0.15098039 0.55147059 0.043137255
0.28088235 0.56176471 0.014705882
0.39093137 0.57009804 0.0080882353
0.47745098 0.57745098 0.0039215686
0.55661765 0.58063725 0.0078431373
0.62352941 0.58235294 0.0078431373
0.68137255 0.58431373 0.006372549
0.74313725 0.58823529 0.0039215686
0.80318627 0.59093137 0.0039215686
0.84901961 0.58431373 0.0058823529
0.88651961 0.57867647 0.0078431373
0.92156863 0.57352941 0.011764706
0.95196078 0.56838235 0.0078431373
0.97254902 0.56470588 0.0078431373
0.98382353 0.56470588 0.0078431373
0.98823529 0.5627451 0.0078431373
0 0.57058824 0.085294118
0 0.57322304 0.093321078
0 0.57843137 0.10931373
0 0.58235294 0.11862745
0.0019607843 0.58235294 0.11887255
0.0078431373 0.58143382 0.11819853
0.011764706 0.5814951 0.10796569
0.011764706 0.58363971 0.093014706
0.012254902 0.58627451 0.085294118
0.084191176 0.59001225 0.076470588
0.22806373 0.59767157 0.049019608
0.34215686 0.60496324 0.0052696078
0.43382353 0.61127451 0.0090686275
0.52058824 0.61721814 0.0082720588
0.59313725 0.62107843 0.0078431373
0.65245098 0.62303922 0.0044117647
0.72058824 0.62941176 0.0083333333
0.79019608 0.63333333 0.0078431373
0.83884804 0.62977941 0.0093137255
0.87996324 0.62555147 0.015686275
0.91519608 0.61960784 0.01372549
0.94166667 0.61329657 0.011764706
0.95968137 0.60980392 0.011764706
0.97401961 0.60618873 0.0083333333
0.98431373 0.60588235 0.0078431373
0.0039215686 0.61568627 0.14705882
0.0033088235 0.61862745 0.14411765
0 0.61960784 0.14387255
0 0.62046569 0.14313725
0 0.62352941 0.14313725
0.0040441176 0.61960784 0.13921569
0.0078431373 0.62352941 0.1375
0.011764706 0.62352941 0.14019608
0.015686275 0.62352941 0.14313725
0.058455882 0.62745098 0.13529412
0.18823529 0.63308824 0.10073529
0.31127451 0.63884804 0.07254902
0.40441176 0.64411765 0.054901961
0.48970588 0.65110294 0.028676471
0.56862745 0.65808824 0.0093137255
0.63186275 0.66311275 0.015196078
0.7 0.67058824 0.018627451
0.77205882 0.6745098 0.015808824
0.82941176 0.6745098 0.018627451
0.87352941 0.67095588 0.022181373
0.90490196 0.6622549 0.01372549
0.93137255 0.65490196 0.0087009804
0.95196078 0.65171569 0.010784314
0.97046569 0.6495098 0.010661765
0.9872549 0.65 0.0078431373
0 0.65294118 0.15686275
0 0.65539216 0.16072304
0 0.65747549 0.16948529
0 0.65931373 0.17303922
0 0.65931373 0.16936275
0.0017769608 0.66078431 0.17254902
0.0068627451 0.66078431 0.18284314
0.0093137255 0.66078431 0.19166667
0.015686275 0.66323529 0.19558824
0.045588235 0.66415441 0.18921569
0.15992647 0.66752451 0.16311275
0.27647059 0.67107843 0.14283088
0.37941176 0.67696078 0.12132353
0.46746324 0.68333333 0.097058824
0.54166667 0.68676471 0.081495098
0.60680147 0.69368873 0.073039216
0.6754902 0.70245098 0.065196078
0.74607843 0.70882353 0.046139706
0.81507353 0.7185049 0.029411765
0.86501225 0.71617647 0.023713235
0.89852941 0.70588235 0.0083333333
0.925 0.6995098 0.0044117647
0.94889706 0.69313725 0.011764706
0.96819853 0.69215686 0.0072916667
0.98970588 0.69215686 0.0039215686
0.0039215686 0.69019608 0.18431373
0 0.69019608 0.19705882
0.0039215686 0.69411765 0.20882353
0.0039215686 0.69411765 0.21911765
0.0039215686 0.69411765 0.21960784
0.0078431373 0.69411765 0.22352941
0.0078431373 0.69411765 0.23039216
0.011764706 0.69558824 0.23676471
0.015686275 0.69803922 0.24313725
0.026960784 0.69803922 0.24068627
0.12647059 0.70196078 0.22647059
0.25294118 0.70588235 0.20882353
0.3627451 0.70784314 0.18823529
0.44607843 0.71372549 0.17254902
0.51470588 0.71764706 0.16568627
0.58284314 0.72156863 0.15392157
0.65098039 0.72941176 0.14117647
0.72303922 0.73970588 0.11421569
0.79117647 0.75 0.083333333
0.85245098 0.75294118 0.067156863
0.89019608 0.75098039 0.011764706
0.91862745 0.74068627 0.012745098
0.94607843 0.7372549 0.0088235294
0.97156863 0.73333333 0.0039215686
0.99215686 0.73333333 0
0.006372549 0.725 0.25
0.0069240196 0.725 0.25245098
0.0039215686 0.725 0.26029412
0.0039215686 0.725 0.26715686
0.0051470588 0.725 0.26985294
0.012071078 0.72892157 0.27285539
0.011764706 0.72892157 0.27892157
0.009375 0.72892157 0.27947304
0.011764706 0.72892157 0.28431373
0.039460784 0.73137255 0.28431373
0.14816176 0.73382353 0.28002451
0.25355392 0.73676471 0.26783088
0.35490196 0.74068627 0.25
0.428125 0.74460784 0.24430147
0.49656863 0.74571078 0.2377451
0.56470588 0.74852941 0.22898284
0.63431373 0.75637255 0.21323529
0.69908088 0.76421569 0.19270833
0.7622549 0.76960784 0.17745098
0.82107843 0.77696078 0.17745098
0.87426471 0.78063725 0.16887255
0.90508578 0.77598039 0.10980392
0.94264706 0.77598039 0.049387255
0.96819853 0.77359069 0.028615196
0.99215686 0.77058824 0.0024509804
0.0078431373 0.75980392 0.30784314
0.014583333 0.75980392 0.31139706
0.0125 0.75980392 0.31470588
0.0044117647 0.75588235 0.31470588
0.0039215686 0.75784314 0.31470588
0.01629902 0.75980392 0.3189951
0.020588235 0.75980392 0.3254902
0.017279412 0.75980392 0.3254902
0.0058823529 0.75980392 0.3254902
0.073529412 0.76164216 0.32610294
0.20784314 0.76372549 0.33039216
0.31029412 0.76752451 0.32401961
0.38137255 0.76764706 0.31372549
0.43627451 0.77058824 0.30784314
0.49705882 0.77156863 0.30392157
0.55490196 0.77487745 0.29889706
0.61470588 0.77843137 0.29019608
0.67156863 0.78480392 0.27990196
0.73308824 0.79019608 0.26960784
0.79154412 0.79411765 0.26188725
0.84460784 0.8 0.25196078
0.88639706 0.8060049 0.24056373
0.93210784 0.81151961 0.22916667
0.9560049 0.80747549 0.18088235
0.97843137 0.80686275 0.13627451
0.0078431373 0.79411765 0.3622549
0.019607843 0.79411765 0.36599265
0.019485294 0.79068627 0.36617647
0.012193627 0.79019608 0.3627451
0.00024509804 0.79068627 0.35882353
0.016666667 0.79068627 0.36323529
0.026102941 0.79068627 0.36666667
0.062377451 0.79068627 0.37401961
0.091666667 0.79068627 0.37401961
0.1435049 0.79068627 0.38008578
0.25588235 0.79117647 0.38541667
0.35839461 0.79460784 0.38535539
0.40661765 0.79485294 0.3754902
0.4533701 0.79852941 0.36917892
0.51090686 0.79852941 0.36568627
0.56519608 0.80030637 0.36519608
0.61519608 0.80294118 0.36519608
0.66323529 0.80686275 0.35882353
0.71139706 0.81078431 0.34852941
0.76672794 0.81470588 0.33823529
0.82058824 0.82058824 0.32794118
0.86268382 0.82696078 0.33033088
0.90992647 0.83468137 0.33382353
0.94460784 0.83805147 0.31973039
0.96519608 0.8377451 0.28382353
0.021568627 0.8254902 0.41764706
0.027696078 0.8254902 0.41764706
0.039215686 0.82156863 0.41715686
0.050735294 0.82156863 0.41372549
0.047058824 0.82156863 0.41176471
0.066911765 0.82156863 0.41421569
0.094607843 0.82156863 0.41666667
0.1995098 0.82156863 0.42818627
0.23921569 0.82156863 0.43137255
0.2752451 0.81764706 0.43651961
0.31862745 0.81813725 0.43970588
0.40171569 0.82156863 0.44117647
0.44313725 0.82156863 0.43431373
0.48210784 0.82352941 0.42745098
0.52647059 0.8254902 0.42745098
0.57598039 0.82745098 0.43014706
0.6254902 0.82941176 0.43333333
0.67058824 0.83333333 0.42696078
0.71176471 0.83529412 0.42058824
0.75465686 0.8370098 0.4122549
0.8 0.84117647 0.40588235
0.84117647 0.84754902 0.40563725
0.88627451 0.85392157 0.40196078
0.925 0.8627451 0.40661765
0.96470588 0.86862745 0.40588235
0.21078431 0.85245098 0.47352941
0.21219363 0.85245098 0.47352941
0.19448529 0.85110294 0.47352941
0.21421569 0.84852941 0.47352941
0.24509804 0.84852941 0.47745098
0.25159314 0.84852941 0.47745098
0.25441176 0.84803922 0.47745098
0.32169118 0.84852941 0.48480392
0.35637255 0.84852941 0.48872549
0.38823529 0.84852941 0.49558824
0.4189951 0.84852941 0.49705882
0.44908088 0.84852941 0.49705882
0.48872549 0.84852941 0.49117647
0.52984069 0.84852941 0.48872549
0.56678922 0.85196078 0.48921569
0.60422794 0.85245098 0.49313725
0.64460784 0.85637255 0.49705882
0.68137255 0.85851716 0.49442402
0.72254902 0.85992647 0.48431373
0.76329657 0.86029412 0.47794118
0.79852941 0.86421569 0.47352941
0.82892157 0.86856618 0.47352941
0.86617647 0.8745098 0.47009804
0.90275735 0.88088235 0.475
0.93137255 0.88676471 0.47745098
0.34509804 0.87941176 0.53529412
0.36311275 0.87941176 0.53884804
0.36568627 0.87941176 0.53921569
0.36102941 0.87683824 0.53529412
0.35784314 0.8754902 0.53529412
0.3627451 0.8754902 0.53529412
0.38235294 0.8754902 0.53848039
0.41409314 0.8754902 0.53921569
0.43529412 0.87254902 0.54019608
0.47254902 0.8754902 0.55379902
0.50098039 0.8754902 0.55490196
0.51862745 0.8754902 0.55453431
0.54852941 0.8754902 0.55294118
0.58088235 0.8754902 0.55085784
0.6125 0.87867647 0.55098039
0.64865196 0.87977941 0.5560049
0.67843137 0.88333333 0.55588235
0.70306373 0.88333333 0.55196078
0.73848039 0.88504902 0.54705882
0.77401961 0.88811275 0.54313725
0.80539216 0.89166667 0.53921569
0.83272059 0.89509804 0.53909314
0.86053922 0.89607843 0.53308824
0.88026961 0.9 0.53529412
0.8872549 0.90098039 0.53529412
0.46323529 0.90490196 0.59558824
0.47867647 0.90490196 0.59466912
0.4747549 0.90343137 0.58970588
0.47757353 0.90490196 0.59540441
0.47181373 0.90245098 0.59509804
0.47726716 0.90245098 0.59705882
0.49215686 0.90245098 0.59705882
0.50827206 0.90189951 0.59650735
0.51764706 0.89852941 0.59705882
0.55098039 0.90189951 0.6088848
0.56960784 0.9 0.60698529
0.58823529 0.90226716 0.61256127
0.61151961 0.90490196 0.61544118
0.63186275 0.90490196 0.6127451
0.65821078 0.9060049 0.61568627
0.68970588 0.90729167 0.61666667
0.71029412 0.90637255 0.61127451
0.73088235 0.90882353 0.60882353
0.75490196 0.91090686 0.60882353
0.78560049 0.91636029 0.60882353
0.81519608 0.91936275 0.60490196
0.8403799 0.92009804 0.59852941
0.8622549 0.91666667 0.58553922
0.88676471 0.92506127 0.59705882
0.90343137 0.92990196 0.60098039
0.57254902 0.92941176 0.65098039
0.54166667 0.92156863 0.63039216
0.51470588 0.91372549 0.61666667
0.54019608 0.92107843 0.63088235
0.57058824 0.9254902 0.64509804
0.58039216 0.92892157 0.6504902
0.58333333 0.9254902 0.65
0.58676471 0.92401961 0.64558824
0.59215686 0.92156863 0.64313725
0.61911765 0.9254902 0.65735294
0.61862745 0.91764706 0.64607843
0.6377451 0.92107843 0.65784314
0.67058824 0.93137255 0.6745098
0.67941176 0.92941176 0.67058824
0.70294118 0.93235294 0.67745098
0.71666667 0.92941176 0.66519608
0.73333333 0.92941176 0.65490196
0.75 0.92941176 0.65245098
0.77156863 0.93333333 0.65490196
0.79509804 0.9372549 0.65882353
0.82352941 0.94117647 0.65882353
0.84411765 0.9372549 0.64215686
0.86764706 0.9372549 0.63431373
0.89460784 0.94656863 0.64607843
0.92156863 0.95686275 0.66666667
0.096568627 0.10588235 0.076960784
0.10441176 0.10588235 0.078431373
0.11752451 0.10526961 0.078431373
0.13235294 0.10196078 0.08057598
0.15563725 0.10196078 0.076470588
0.18167892 0.10196078 0.070710784
0.21237745 0.10196078 0.072671569
0.25386029 0.099509804 0.067647059
0.30196078 0.10735294 0.06127451
0.35343137 0.11035539 0.054901961
0.41862745 0.1127451 0.047058824
0.49068627 0.10459559 0.036764706
0.56397059 0.092156863 0.027696078
0.63511029 0.09185049 0.017647059
0.70686275 0.096078431 0.0084558824
0.76666667 0.10153186 0.0039215686
0.80784314 0.1122549 0.006372549
0.85294118 0.1122549 0.006372549
0.89313725 0.12745098 0.0039215686
0.92040441 0.14803922 0.0039215686
0.94705882 0.1745098 0.0039215686
0.97481618 0.20245098 0.0042279412
0.9872549 0.21507353 0.006372549
0.98970588 0.21960784 0.0078431373
0.99215686 0.21960784 0.0053921569
0.094117647 0.10735294 0.073590686
0.10441176 0.1088848 0.076960784
0.11507353 0.10833333 0.077742034
0.13020833 0.10699295 0.078431373
0.15367647 0.1075674 0.076011029
0.18179381 0.10870864 0.073039216
0.21375613 0.1122549 0.071936275
0.25441176 0.11317402 0.067647059
0.30196078 0.11372549 0.06127451
0.35496324 0.11372549 0.054901961
0.41862745 0.11727941 0.047288603
0.49068627 0.1133655 0.036879596
0.56666667 0.11078431 0.023008578
0.63794424 0.10833333 0.014024203
0.70617341 0.107644 0.0084558824
0.76609222 0.10980392 0.0039215686
0.81029412 0.12009804 0.0048406863
0.85328585 0.13192402 0.0039215686
0.89313725 0.13990502 0.0035539216
0.9241345 0.15441176 0.0027420343
0.95343137 0.17843137 0.0039215686
0.97733609 0.20582108 0.0039215686
0.98800551 0.21885723 0.0039215686
0.99215686 0.22110141 0.0039215686
0.99215686 0.22352941 0.0039215686
0.094117647 0.11323529 0.073651961
0.10404412 0.11470588 0.074571078
0.11443015 0.11862745 0.074601716
0.12757353 0.11573223 0.073039216
0.15098039 0.11862745 0.073039216
0.18275123 0.12259498 0.073039216
0.21712623 0.12674632 0.073039216
0.25723039 0.12855392 0.07041973
0.30588235 0.13137255 0.06127451
