site/assets/luts/sha256-9ea1784c312c13e45fcdb947bd67fff1236b50a2b8a9c23cf7bff00fa393c3c0.cube
# LUTr-Schema-Version: 2
# LUTr-ID: sha256-9ea1784c312c13e45fcdb947bd67fff1236b50a2b8a9c23cf7bff00fa393c3c0
# LUTr-Title: vibrant alien
# LUTr-Collection: Natron HaldCLUT
# LUTr-Collection-ID: natron-haldclut-presets
# LUTr-Source: https://github.com/NatronGitHub/clut
# LUTr-Retrieved: 2026-07-27
# LUTr-Source-File: submissions/natron-haldclut-presets/various/vibrant_alien.png
# LUTr-Source-Format: HALD-PNG
# LUTr-Source-SHA256: 9ea1784c312c13e45fcdb947bd67fff1236b50a2b8a9c23cf7bff00fa393c3c0
# LUTr-License: CC-BY-SA-4.0
# LUTr-License-URL: https://github.com/NatronGitHub/clut#license
# LUTr-License-Basis: repo-license-file
# LUTr-Transform-Class: film-emulation
# LUTr-Tags: creative, film, film-emulation, hald-clut, natron, png, cube
# LUTr-Input-Color-Space: srgb
# LUTr-Input-Gamut: rec709
# LUTr-Input-Transfer: srgb
# LUTr-Output-Color-Space: srgb
# LUTr-Output-Gamut: rec709
# LUTr-Output-Transfer: srgb
# LUTr-Color-Space-Confidence: assumed-display-referred
# LUTr-Domain-Normalized: true
# LUTr-Shaper: none
# LUTr-Original-Grid: 64x64x64
# LUTr-Conversion-Grid: 25x25x25
# LUTr-Conversion-Interpolation: trilinear
# LUTr-Conversion-Method: HALD-PNG LUT image decoded at 16-bit and sampled to 25x25x25 3D CUBE
# LUTr-Conversion-Tool: LUTr scripts/convert-all-to-cube.mjs 2.0.0
# LUTr-Conversion-Date: 2026-07-27
# LUTr-Note: Preserve this metadata and the upstream license notices when redistributing.
TITLE "vibrant alien"
LUT_3D_SIZE 5
DOMAIN_MIN 0 0 0
DOMAIN_MAX 1 1 1
0.0039215686 0 0.0039215686
0.1754902 0 0.0039215686
0.48039216 0.0078431373 0.0078431373
0.80686275 0.0078431373 0.0039215686
0.98823529 0 0.0039215686
0.026470588 0.18921569 0.014705882
0.18039216 0.18921569 0.0125
0.48627451 0.20686275 0.0039215686
0.80882353 0.18897059 0.0078431373
0.98039216 0.22156863 0.010784314
0.0098039216 0.71764706 0.0058823529
0.18039216 0.7122549 0.0098039216
0.47843137 0.70588235 0.0039215686
0.81176471 0.7004902 0.0049019608
0.98039216 0.71372549 0.011764706
0.0039215686 0.82352941 0.0078431373
0.17279412 0.8245098 0.0078431373
0.47990196 0.82401961 0.0078431373
0.81078431 0.82058824 0.015686275
0.9627451 0.82058824 0.015686275
0.0039215686 0.81960784 0.0078431373
0.18039216 0.81960784 0.012745098
0.4745098 0.82352941 0.0039215686
0.81176471 0.81960784 0.0088235294
0.98431373 0.82352941 0.0078431373
0.011764706 0 0.13529412
0.18039216 0.0071078431 0.12941176
0.47843137 0.0034313725 0.13284314
0.80392157 0.0039215686 0.14093137
0.98333333 0.0039215686 0.14117647
0.014705882 0.1872549 0.13921569
0.17647059 0.19779412 0.1254902
0.4745098 0.19105392 0.13394608
0.81495098 0.20667892 0.1286152
0.99289216 0.18651961 0.1254902
0.015686275 0.70833333 0.13186275
0.17647059 0.71115196 0.12990196
0.48137255 0.71764706 0.12990196
0.81887255 0.71666667 0.11960784
0.9754902 0.71715686 0.13333333
0.0078431373 0.82377451 0.13529412
0.1745098 0.82352941 0.13039216
0.48026961 0.82352941 0.13872549
0.80808824 0.8245098 0.12769608
0.9745098 0.81960784 0.13235294
0.021568627 0.81960784 0.11470588
0.18039216 0.82352941 0.13235294
0.47892157 0.82352941 0.13284314
0.81495098 0.82352941 0.14901961
0.98431373 0.81960784 0.12647059
0.011764706 0.0078431373 0.54313725
0.18186275 0.0058823529 0.52843137
0.47745098 0.0078431373 0.52745098
0.81323529 0.0019607843 0.52352941
0.98431373 0.011764706 0.53137255
0.006372549 0.2 0.52352941
0.18039216 0.19632353 0.52745098
0.47843137 0.20759804 0.52696078
0.81213235 0.18872549 0.52377451
0.98333333 0.18676471 0.53235294
0.0039215686 0.71764706 0.53137255
0.17352941 0.70612745 0.52279412
0.47843137 0.70441176 0.53137255
0.80931373 0.7120098 0.51568627
0.96764706 0.71372549 0.5245098
0.011764706 0.81960784 0.51568627
0.18039216 0.82095588 0.52745098
0.47916667 0.82352941 0.5254902
0.80968137 0.81776961 0.51960784
0.97990196 0.82696078 0.52745098
0.0078431373 0.81960784 0.52745098
0.17745098 0.81960784 0.52009804
0.46960784 0.82352941 0.52156863
0.81568627 0.81960784 0.54313725
0.98823529 0.81960784 0.52352941
0.037254902 0.0039215686 0.88529412
0.17745098 0.00098039216 0.88995098
0.47843137 0.0039215686 0.89705882
0.81544118 0.0039215686 0.89019608
0.9872549 0.0049019608 0.89215686
0.0088235294 0.18995098 0.88921569
0.17984069 0.19681373 0.88921569
0.48431373 0.19313725 0.87745098
0.80171569 0.18529412 0.8903799
0.98823529 0.19411765 0.87941176
0.013235294 0.70882353 0.89019608
0.17683824 0.71102941 0.88235294
0.48235294 0.71078431 0.88186275
0.81433824 0.70980392 0.89166667
0.98431373 0.72352941 0.88921569
0.011764706 0.82352941 0.89901961
0.18210784 0.82279412 0.88394608
0.48627451 0.82352941 0.88921569
0.81176471 0.82352941 0.88602941
0.97279412 0.82352941 0.88627451
0.011764706 0.82352941 0.88529412
0.18357843 0.82058824 0.88946078
0.48431373 0.82352941 0.88382353
0.81176471 0.81960784 0.89411765
0.96078431 0.81960784 0.88333333
0.011764706 0.011764706 0.99607843
0.18039216 0.0039215686 0.99215686
0.48627451 0.0039215686 0.99607843
0.81862745 0.0049019608 0.99901961
0.98823529 0 0.99215686
0.0039215686 0.2 0.99215686
0.18014706 0.19215686 0.99607843
0.48480392 0.19558824 0.99509804
0.81568627 0.19705882 0.98455882
0.98039216 0.20392157 0.99313725
0.0098039216 0.70784314 0.99607843
0.17647059 0.70980392 0.99215686
0.48627451 0.70588235 0.99117647
0.8122549 0.71568627 0.99019608
0.98235294 0.70980392 0.99607843
0.0078431373 0.8245098 0.98431373
0.18039216 0.8245098 0.99534314
0.48235294 0.82352941 0.99215686
0.81176471 0.81985294 0.99583333
0.98431373 0.82352941 0.99607843
0.011764706 0.81960784 0.99607843
0.18137255 0.82352941 0.98823529
0.48627451 0.82352941 0.99411765
0.81176471 0.82352941 0.99313725
0.99215686 0.82352941 1
