site/assets/luts/sha256-6b54b9859d6f497fb9c89e84109a82281fb6dd60f5c8ae909f0a9c7bbc851fc0.cube
# LUTr-Schema-Version: 2
# LUTr-ID: sha256-6b54b9859d6f497fb9c89e84109a82281fb6dd60f5c8ae909f0a9c7bbc851fc0
# LUTr-Title: fuji3510 cuspclip
# LUTr-Collection: Natron HaldCLUT
# LUTr-Collection-ID: natron-haldclut-presets
# LUTr-Source: https://github.com/NatronGitHub/clut
# LUTr-Retrieved: 2026-07-27
# LUTr-Source-File: submissions/natron-haldclut-presets/print/fuji3510_cuspclip.png
# LUTr-Source-Format: HALD-PNG
# LUTr-Source-SHA256: 6b54b9859d6f497fb9c89e84109a82281fb6dd60f5c8ae909f0a9c7bbc851fc0
# LUTr-License: CC-BY-SA-4.0
# LUTr-License-URL: https://github.com/NatronGitHub/clut#license
# LUTr-License-Basis: repo-license-file
# LUTr-Transform-Class: film-emulation
# LUTr-Tags: creative, film, film-emulation, hald-clut, natron, png, cube
# LUTr-Input-Color-Space: srgb
# LUTr-Input-Gamut: rec709
# LUTr-Input-Transfer: srgb
# LUTr-Output-Color-Space: srgb
# LUTr-Output-Gamut: rec709
# LUTr-Output-Transfer: srgb
# LUTr-Color-Space-Confidence: assumed-display-referred
# LUTr-Domain-Normalized: true
# LUTr-Shaper: none
# LUTr-Original-Grid: 64x64x64
# LUTr-Conversion-Grid: 25x25x25
# LUTr-Conversion-Interpolation: trilinear
# LUTr-Conversion-Method: HALD-PNG LUT image decoded at 16-bit and sampled to 25x25x25 3D CUBE
# LUTr-Conversion-Tool: LUTr scripts/convert-all-to-cube.mjs 2.0.0
# LUTr-Conversion-Date: 2026-07-27
# LUTr-Note: Preserve this metadata and the upstream license notices when redistributing.
TITLE "fuji3510 cuspclip"
LUT_3D_SIZE 9
DOMAIN_MIN 0 0 0
DOMAIN_MAX 1 1 1
0.0039215686 0 0.0039215686
0.026960784 0.015686275 0.015686275
0.057843137 0.026470588 0.015686275
0.16764706 0.043137255 0.017156863
0.31176471 0.023529412 0.0019607843
0.46715686 0.011764706 0
0.52745098 0 0
0.56862745 0 0
0.58823529 0 0
0.019607843 0.046078431 0.030882353
0.034803922 0.046568627 0.030882353
0.084313725 0.060906863 0.031372549
0.19871324 0.074019608 0.021078431
0.35637255 0.069607843 0.00024509804
0.50147059 0.066176471 0
0.57745098 0.080392157 0
0.62696078 0.079901961 0
0.64656863 0.10784314 0
0.00098039216 0.092156863 0.043137255
0.016666667 0.1 0.046078431
0.083578431 0.12156863 0.043872549
0.23333333 0.14105392 0.017156863
0.40784314 0.16176471 0
0.5557598 0.16715686 0
0.65098039 0.19313725 0
0.68088235 0.19313725 0.00049019608
0.70784314 0.21960784 0
0 0.21372549 0.084803922
0 0.20588235 0.076960784
0.031495098 0.20637255 0.044117647
0.24613971 0.24607843 0.0044730392
0.46372549 0.28553922 0
0.61862745 0.3151348 0.0039215686
0.72352941 0.32598039 0.0024509804
0.74607843 0.32843137 0.0042279412
0.76568627 0.35098039 0
0.0039215686 0.36666667 0.16078431
0.0036764706 0.35661765 0.13921569
0.031372549 0.35196078 0.055882353
0.27303922 0.39387255 0
0.50882353 0.44901961 0
0.68284314 0.48235294 0.0039215686
0.77990196 0.49607843 0.023529412
0.81593137 0.50612745 0.029411765
0.83137255 0.5254902 0.035294118
0.0024509804 0.48676471 0.21323529
0.0017769608 0.49215686 0.20324755
0.0029411765 0.50355392 0.10931373
0.26329657 0.5504902 0.00091911765
0.56764706 0.62181373 0
0.76084559 0.6622549 0.0077818627
0.83590686 0.66078431 0.036151961
0.86991422 0.66519608 0.010294118
0.90098039 0.68823529 0.035294118
0.033333333 0.55784314 0.24313725
0.0019607843 0.54754902 0.22120098
0 0.5754902 0.16421569
0.29203431 0.63284314 0.0011029412
0.59509804 0.71176471 0.0078431373
0.78333333 0.75428922 0.025980392
0.87254902 0.75955882 0.059068627
0.91384804 0.76666667 0.067647059
0.92647059 0.77058824 0.071568627
0.019607843 0.58480392 0.25931373
0.024448529 0.58958333 0.2401348
0 0.60306373 0.096078431
0.32959559 0.68155637 0.0039215686
0.63235294 0.75367647 0.0041666667
0.83026961 0.80655637 0.054595588
0.90355392 0.80833333 0.075490196
0.95 0.81231618 0.08627451
0.95392157 0.8127451 0.081862745
0.023529412 0.61568627 0.29019608
0.019607843 0.62352941 0.22647059
0.0029411765 0.65294118 0.010784314
0.42990196 0.72009804 0.0024509804
0.67058824 0.78627451 0.0058823529
0.83872549 0.81715686 0.036764706
0.92647059 0.8245098 0.082352941
0.97696078 0.83578431 0.07254902
0.98431373 0.83529412 0.098039216
0.023529412 0.023039216 0.026960784
0.034803922 0.023529412 0.026531863
0.071078431 0.03125 0.034436275
0.19019608 0.043137255 0.013051471
0.35245098 0.035294118 0.0036764706
0.48431373 0.0080269608 0.0017769608
0.57144608 0.0073529412 0.0039215686
0.6122549 0.0078431373 0
0.63480392 0 0
0.023529412 0.046568627 0.038235294
0.034803922 0.049946385 0.038235294
0.089813113 0.06127451 0.042325368
0.22081036 0.077918199 0.026554841
0.38480392 0.073529412 0.0036764706
0.52624847 0.039973958 0
0.60833333 0.054289216 0
0.65343137 0.054036458 0
0.67653186 0.083333333 0.0038602941
0.0088235294 0.12205882 0.069117647
0.002221201 0.10036765 0.055101103
0.087622549 0.11927083 0.057598039
0.25606618 0.14546569 0.038679534
0.44068627 0.16213235 0.0052083333
0.59117647 0.16937806 0
0.67466299 0.17405025 0
0.71600797 0.18377757 0
0.73737745 0.19963235 0.0039215686
0 0.22941176 0.11421569
0 0.22922794 0.10014553
0.043964461 0.22979473 0.065808824
0.28321844 0.26403952 0.011703431
0.49460784 0.29656863 0.0053921569
0.65587469 0.31421569 0.0011106005
0.74742647 0.32645527 0.0045343137
0.78484222 0.34213388 0.0039215686
0.8026348 0.35735294 0.018443627
0 0.37818627 0.17598039
0.00042892157 0.37643995 0.16492034
0.017830882 0.37530637 0.072487745
0.28550858 0.42254902 0.0039215686
0.54166667 0.4685049 0.0020833333
0.72040441 0.49666054 0.010539216
0.8129902 0.51004902 0.016666667
0.85799632 0.53204657 0.024234069
0.8622549 0.53333333 0.041421569
0.049019608 0.51636029 0.24754902
0.0036534926 0.51672794 0.23551624
0.0041666667 0.5227788 0.15557598
0.30676317 0.57707567 0.00066636029
0.59264706 0.64607843 0.0039215686
0.78890931 0.6787454 0.023529412
0.87873775 0.68779105 0.02801777
0.91252298 0.68347886 0.038273591
0.92009804 0.69215686 0.044117647
0.025367647 0.57303922 0.28223039
0.02622549 0.58458946 0.27058824
0.0074754902 0.5971201 0.18020833
0.2622549 0.65539216 0.0096813725
0.62383578 0.73786765 0.0039215686
0.82694547 0.77820159 0.023085172
0.92267157 0.78578431 0.075398284
0.95300245 0.78676471 0.07645527
0.96470588 0.79656863 0.082352941
0.029534314 0.60484069 0.31715686
0.024073223 0.62261029 0.30539216
0.014751838 0.63835784 0.18730086
0.32136183 0.69901961 0.020327819
0.63578431 0.76911765 0.022518382
0.84109222 0.81557904 0.035071998
0.94264706 0.82745098 0.063189338
0.97566636 0.83137255 0.086642157
0.98431373 0.83186275 0.10238971
0.023529412 0.63480392 0.37843137
0.071568627 0.67640931 0.36954657
0.0040441176 0.68982843 0.25257353
0.38406863 0.74730392 0.15588235
0.66078431 0.80514706 0.13921569
0.86047794 0.84264706 0.0035539216
0.98198529 0.86090686 0.0033088235
0.99908088 0.86525735 0.13186275
0.9995098 0.86176471 0.24166667
0.015686275 0.020588235 0.07745098
0.032230392 0.02745098 0.080392157
0.081372549 0.039460784 0.080392157
0.20588235 0.052818627 0.083333333
0.36470588 0 0.078431373
0.50686275 0.0014705882 0.078921569
0.59705882 0 0.078186275
0.63872549 0 0.080514706
0.65882353 0 0.084313725
0.011887255 0.056985294 0.094607843
0.024724265 0.057843137 0.094730392
0.095741422 0.069117647 0.10254289
0.24180453 0.083011642 0.10062806
0.41047794 0.045894608 0.086580882
0.56086091 0.019224877 0.08192402
0.65098039 0.0052083333 0.071721814
0.69264706 0.0035386029 0.06752451
0.71568627 0 0.073897059
0.0049019608 0.14117647 0.14313725
0.0013480392 0.12977941 0.12965686
0.080821078 0.13180147 0.12395833
0.2666973 0.15637255 0.12313113
0.46446078 0.16580882 0.1060049
0.62463235 0.14292279 0.079289216
0.71642157 0.11207108 0.052941176
0.75833333 0.11210172 0.044209559
0.77843137 0.14730392 0.068627451
0 0.27095588 0.21323529
0.00022977941 0.26029412 0.19044118
0.038572304 0.25637255 0.15992647
0.29980086 0.28869485 0.13589154
0.525 0.30557598 0.11121324
0.69515931 0.31666667 0.07745098
0.79411765 0.30992647 0.036795343
0.83230699 0.31416973 0.014690564
0.85343137 0.33835784 0.03002451
0.0049019608 0.42941176 0.28529412
0.021997549 0.4283701 0.27291667
0.017156863 0.41752451 0.21593137
0.30091912 0.4504902 0.12916667
0.57647059 0.49289216 0.071078431
0.77015931 0.50073529 0.0099877451
0.8745098 0.51764706 0
0.9122549 0.51819853 0.00006127451
0.92941176 0.53039216 0
0.0057598039 0.55183824 0.33627451
0.024019608 0.55637255 0.33223039
0.018137255 0.56951593 0.27990196
0.26600797 0.61109069 0.11499694
0.60716912 0.67175245 0.018443627
0.8299326 0.70505515 0.0029564951
0.93590686 0.71507353 0.0025428922
0.97351409 0.72254902 0.0045955882
0.98958333 0.73333333 0.00098039216
0.030392157 0.61176471 0.38137255
0.011948529 0.62025123 0.37454044
0.02432598 0.64289216 0.32800245
0.24105392 0.69053309 0.15931373
0.62573529 0.76519608 0.0068627451
0.85772059 0.8060049 0.00045955882
0.97254902 0.82003676 0.0010416667
0.99420956 0.8268076 0.034099265
0.99754902 0.82745098 0.042401961
0.032720588 0.64215686 0.43823529
0.021017157 0.66090686 0.43497243
0.026470588 0.68201593 0.36675858
0.25344669 0.73345588 0.24344363
0.63186275 0.79944853 0.18357843
0.86158088 0.84411765 0.13079044
0.98814338 0.8622549 0.01161152
1 0.86617647 0.13314951
1 0.86617647 0.20931373
0.024509804 0.68921569 0.51862745
0.019485294 0.71433824 0.50379902
0.040686275 0.72058824 0.42769608
0.33382353 0.7752451 0.37487745
0.64411765 0.83088235 0.34264706
0.85441176 0.86813725 0.32144608
0.97916667 0.8870098 0.30808824
1 0.89093137 0.35968137
1 0.89313725 0.39901961
0.011764706 0.021078431 0.19019608
0.030882353 0.0073529412 0.18970588
0.077573529 0.024019608 0.19803922
0.2122549 0.021629902 0.20441176
0.39387255 0 0.22205882
0.52990196 0.0015318627 0.22738971
0.61764706 0 0.23002451
0.6591299 0 0.23707108
0.67303922 0 0.24215686
0.0014705882 0.089705882 0.22665441
0.015686275 0.072058824 0.2157935
0.088005515 0.069607843 0.22513787
0.25331648 0.076095282 0.24258578
0.43308824 0.037009804 0.24518995
0.58481158 0.011144301 0.2495098
0.67401961 0.0076286765 0.24897365
0.71568627 0 0.25408241
0.73088235 0 0.26930147
0.0039215686 0.18627451 0.29056373
0.0004442402 0.16973039 0.27784926
0.043443627 0.14852941 0.26731005
0.27058824 0.17169118 0.28002451
0.4810049 0.16960784 0.28805147
0.64784007 0.14191176 0.28563113
0.73697917 0.1122549 0.27846201
0.77866115 0.10992647 0.26862745
0.79411765 0.14509804 0.29522059
0.00091911765 0.33088235 0.37401961
0.0039215686 0.33344822 0.37237286
0.010003064 0.29944853 0.33788297
0.28439798 0.31917892 0.33039216
0.53553922 0.33872549 0.33137255
0.71182598 0.33876379 0.31860447
0.81231618 0.32979473 0.30977328
0.85098039 0.3372549 0.30422794
0.86617647 0.36041667 0.32604167
0 0.49191176 0.45147059
0.011458333 0.49690564 0.45392157
0.010539216 0.48376225 0.4151348
0.25477941 0.49053309 0.36384804
0.57034314 0.53406863 0.35955882
0.78066789 0.54803922 0.33553922
0.88915441 0.54785539 0.31421569
0.92901348 0.56485907 0.34451593
0.94117647 0.58014706 0.3620098
0.010784314 0.60447304 0.49460784
0.015502451 0.61704197 0.49981618
0.024356618 0.63394608 0.48668811
0.17978707 0.6627451 0.39748775
0.5916973 0.71348039 0.35762868
0.82632506 0.73921569 0.3595435
0.95 0.75712316 0.33817402
0.98235294 0.75813419 0.35441176
1 0.7754902 0.35294118
0.0084558824 0.66470588 0.54117647
0.012668505 0.67049632 0.53564645
0.023161765 0.69938725 0.52662377
0.11541054 0.745481 0.43782169
0.59589461 0.80404412 0.40306373
0.85292586 0.85193015 0.4042739
0.97925858 0.86063113 0.37931985
1 0.86323529 0.38382353
1 0.8689951 0.39509804
0.013051471 0.69705882 0.59754902
0.032375919 0.70471814 0.58589154
0.017693015 0.7377451 0.57205882
0.087293199 0.77830882 0.50265012
0.59249387 0.84215686 0.48655025
0.84792433 0.88646599 0.48509498
0.97303922 0.90159314 0.45116422
0.99785539 0.90490196 0.47775735
1 0.903125 0.48253676
0 0.72794118 0.65392157
0.0049019608 0.74767157 0.64718137
0.014215686 0.76409314 0.6189951
0.25845588 0.81672794 0.6
0.61764706 0.86642157 0.57892157
0.83382353 0.90196078 0.56917892
0.97169118 0.92610294 0.58468137
1 0.92432598 0.56090686
1 0.92794118 0.59264706
0.0039215686 0.047058824 0.32352941
0.01495098 0.031617647 0.32352941
0.089215686 0.0098039216 0.3372549
0.24142157 0.0039215686 0.36446078
0.41176471 0.0078431373 0.37647059
0.54313725 0.0026960784 0.37598039
0.63529412 0.0034313725 0.38627451
0.68112745 0 0.39044118
0.69215686 0 0.39019608
0.0019607843 0.17279412 0.38137255
0.00045955882 0.14093137 0.3716299
0.075306373 0.044669118 0.37279412
0.26476716 0.06004902 0.40039828
0.45110294 0.029166667 0.41102941
0.5997549 0.018964461 0.42107843
0.68921569 0.0039215686 0.42095588
0.72892157 0.0038909314 0.42671569
0.74411765 0 0.43651961
0 0.25490196 0.44019608
0 0.24197304 0.44313725
0.037009804 0.18578431 0.43651961
0.26776961 0.18578431 0.45612745
0.49289216 0.17916667 0.46544118
0.65833333 0.15324755 0.47310049
0.74656863 0.12303922 0.46470588
0.78615196 0.11764706 0.46997549
0.80490196 0.15147059 0.48431373
0.0066176471 0.39019608 0.52254902
0.0039215686 0.38716299 0.52852328
0.018872549 0.36317402 0.52401961
0.24656863 0.34022672 0.51835172
0.52794118 0.35784314 0.52585784
0.72009804 0.36329657 0.52794118
0.82218137 0.34785539 0.52022059
0.85554534 0.3627451 0.52711397
0.87156863 0.3877451 0.54485294
0.014705882 0.53333333 0.59509804
0.0050245098 0.54117647 0.60269608
0.0083333333 0.5379902 0.59583333
0.19252451 0.53039216 0.57009804
0.5622549 0.5627451 0.575
0.77867647 0.58235294 0.57806373
0.88921569 0.58970588 0.57573529
0.92598039 0.60306373 0.58443627
0.9372549 0.60294118 0.58235294
0.017647059 0.64558824 0.64460784
0.0078431373 0.65931373 0.65309436
0.0019607843 0.69019608 0.66102941
0.090410539 0.70980392 0.61917892
0.56666667 0.75490196 0.61004902
0.82086397 0.78606005 0.61838235
0.9408701 0.79540441 0.6127451
0.97818627 0.79166667 0.61651348
0.99558824 0.81642157 0.61397059
0.0034313725 0.70539216 0.6872549
0.0039215686 0.71629902 0.69491422
0.0055147059 0.74558824 0.69558824
0.081495098 0.78872549 0.6598652
0.56323529 0.85073529 0.66078431
0.8314951 0.88921569 0.65435049
0.95931373 0.90588235 0.65196078
1 0.9057598 0.65116422
1 0.90588235 0.65490196
0.0078431373 0.73161765 0.72058824
0.0022058824 0.74926471 0.73535539
0.0098039216 0.78186275 0.73063725
0.061305147 0.81758578 0.70906863
0.55588235 0.8807598 0.70821078
0.83030025 0.92156863 0.71314338
0.95778186 0.93933824 0.70373775
0.99607843 0.94270833 0.70490196
1 0.94362745 0.71078431
0.011764706 0.74901961 0.76078431
0.00024509804 0.78137255 0.77745098
0.0019607843 0.80882353 0.77156863
0.089460784 0.84411765 0.76151961
0.58627451 0.89803922 0.7627451
0.82132353 0.93676471 0.77132353
0.94803922 0.95343137 0.76813725
0.99607843 0.96053922 0.77205882
1 0.96078431 0.7745098
0.013235294 0.20686275 0.45539216
0.0073529412 0.16979167 0.45441176
0.10196078 0.0045343137 0.45441176
0.24209559 0 0.48039216
0.41568627 0.0024509804 0.49607843
0.57150735 0 0.51752451
0.66360294 0 0.52303922
0.6973652 0 0.52628676
0.70196078 0 0.51960784
0.010294118 0.25539216 0.5
0.0016314338 0.23921569 0.50512408
0.072916667 0.018811275 0.5044424
0.26310509 0.016773897 0.53376225
0.45441176 0.012928922 0.55392157
0.61292892 0.0039215686 0.56434589
0.7001685 0.001685049 0.56568627
0.74170496 0 0.57426471
0.75343137 0 0.58106618
0 0.3182598 0.56176471
0 0.32052696 0.56973039
0.017126225 0.26510417 0.57135417
0.25546875 0.17333027 0.59852941
0.49509804 0.17628676 0.61930147
0.66329657 0.14840686 0.62961091
0.75404412 0.11409314 0.6252451
0.79492953 0.1160386 0.63529412
0.81311275 0.14571078 0.6442402
0.0024509804 0.43241422 0.63921569
0.009375 0.42647825 0.6323606
0.010906863 0.41153493 0.65105699
0.23494945 0.35762868 0.67305453
0.52359069 0.37156863 0.69313725
0.72018229 0.38131127 0.69948683
0.81977635 0.36401654 0.69797794
0.86017923 0.37058824 0.70209099
0.87849265 0.40931373 0.71666667
0.027696078 0.5622549 0.69387255
0.031188725 0.56528799 0.70162377
0.021384804 0.57218137 0.71776961
0.099234069 0.55983456 0.74117647
0.54632353 0.5872549 0.75208333
0.77009804 0.6049326 0.75637255
0.88431373 0.60165441 0.75098039
0.92588848 0.61746324 0.75863971
0.93529412 0.63014706 0.76862745
0.026470588 0.675 0.74558824
0.023904718 0.68334099 0.75783548
0.023988971 0.70931373 0.77375919
0.13018536 0.7471201 0.79019608
0.53795956 0.78575368 0.79828431
0.80882353 0.81066176 0.80098039
0.9317402 0.82081801 0.80291054
0.97665441 0.83033854 0.80582108
0.98523284 0.83572304 0.81035539
0.0079656863 0.72585784 0.7754902
0.0040900735 0.74166667 0.79134498
0.020098039 0.77193627 0.80376838
0.054978554 0.82359069 0.82254902
0.52702206 0.8817402 0.83449755
0.80919118 0.9144761 0.83186275
0.95490196 0.93676471 0.83667279
0.99607843 0.93676471 0.82941176
1 0.93676471 0.83713235
0.012009804 0.746875 0.796875
0.015663297 0.76470588 0.81296722
0.012300858 0.79938725 0.82691483
0.047380515 0.84607843 0.85196078
0.52729779 0.90695466 0.8627451
0.80735294 0.94541207 0.86783088
0.94669118 0.9665288 0.87210478
0.99242494 0.97273284 0.8769761
1 0.97273284 0.87941176
0.010294118 0.76862745 0.825
0.020894608 0.79430147 0.84675245
0.0039215686 0.82193627 0.85477941
0.056985294 0.8661152 0.87928922
0.55931373 0.92034314 0.88946078
0.80098039 0.95588235 0.89852941
0.94595588 0.97352941 0.8935049
0.99246324 0.98039216 0.89460784
1 0.98431373 0.90882353
0 0.24803922 0.51568627
0.0039215686 0.23627451 0.52389706
0.085294118 0.029166667 0.52941176
0.24705882 0 0.55833333
0.43039216 0 0.5872549
0.58125 0 0.60196078
0.66176471 0 0.60294118
0.70343137 0 0.61507353
0.71862745 0 0.61470588
0 0.29019608 0.56862745
0.0039675245 0.28154105 0.57254902
0.067003676 0.035968137 0.5875
0.26729473 0.0054534314 0.62365196
0.46574755 0.010355392 0.64981618
0.62855392 0.0035539216 0.66404718
0.7140625 0.00024509804 0.66534926
0.74852941 0 0.67169118
0.76507353 0 0.68296569
0 0.35588235 0.62745098
0 0.34620098 0.63039216
0.0044117647 0.30661765 0.63976716
0.24231005 0.17193627 0.68982843
0.48970588 0.16029412 0.71960784
0.6754902 0.13480392 0.73287377
0.76623775 0.1247549 0.73351716
0.8060049 0.12843137 0.74117647
0.81764706 0.13848039 0.74901961
0.0067401961 0.45392157 0.68431373
0.0039215686 0.45 0.68916973
0.0025428922 0.41813725 0.71397059
0.20946691 0.36807598 0.76133578
0.50980392 0.38382353 0.78682598
0.72602635 0.38468137 0.80686275
0.82254902 0.38112745 0.80318627
0.86421569 0.3935815 0.81162684
0.87941176 0.40539216 0.8192402
0.021078431 0.57254902 0.74607843
0.029105392 0.57738971 0.75196078
0.01372549 0.58284314 0.77218137
0.093811275 0.57352941 0.83039216
0.51789216 0.60441176 0.84926471
0.76697304 0.61893382 0.86286765
0.87843137 0.61936275 0.86176471
0.92205882 0.62971814 0.86985294
0.93284314 0.64117647 0.87696078
0.036764706 0.67892157 0.79215686
0.020894608 0.69042586 0.80209865
0.021813725 0.7125 0.82300858
0.05825674 0.75700061 0.86801471
0.51642157 0.80355392 0.89883578
0.79561887 0.8338848 0.91262255
0.925 0.8395527 0.91323529
0.96666667 0.84229473 0.91323529
0.98272059 0.86164216 0.92401961
0.0039215686 0.73431373 0.82132353
0.027052696 0.74598652 0.83131127
0.011948529 0.77647059 0.85435049
0.037653186 0.83357843 0.8908701
0.50061275 0.89485294 0.92426471
0.79543505 0.92892157 0.92870711
0.93621324 0.94448529 0.93609069
0.98737745 0.95098039 0.93563113
1 0.96176471 0.94387255
0.043137255 0.75294118 0.83272059
0.025306373 0.76819853 0.84684436
0.029993873 0.80143995 0.87095588
0.032291667 0.85330882 0.90922181
0.49767157 0.91764706 0.93670343
0.7912837 0.95845588 0.94460784
0.93431373 0.98042279 0.95481005
0.98823529 0.98566176 0.95147059
1 0.98578431 0.96188725
0.02254902 0.76862745 0.84803922
0.042034314 0.79215686 0.87058824
0.031372549 0.82058824 0.8872549
0.049509804 0.8754902 0.92855392
0.53186275 0.92745098 0.94460784
0.79754902 0.96617647 0.95784314
0.93823529 0.98431373 0.9625
0.98480392 0.99215686 0.96470588
0.99607843 0.99215686 0.96176471
0 0.28627451 0.57303922
0.0038602941 0.26709559 0.56164216
0.08002451 0.037867647 0.57634804
0.25784314 0 0.61029412
0.43186275 0.0039215686 0.64166667
0.59019608 0.0017769608 0.6495098
0.67316176 0 0.6560049
0.71917892 0.0039828431 0.66819853
0.73382353 0 0.67156863
0 0.30931373 0.59908088
0.001294424 0.30550705 0.6108992
0.040686275 0.046001838 0.63284314
0.27205882 0.021239277 0.67910539
0.47766544 0.027144608 0.70367647
0.63721661 0.021116728 0.71893382
0.72346814 0.0039215686 0.72150735
0.76427696 0.020580576 0.72898284
0.78039216 0.038112745 0.7411152
0 0.37757353 0.65698529
0 0.36666667 0.66213235
0.000091911765 0.33538603 0.66920956
0.2277114 0.20232843 0.73676471
0.49730392 0.20220588 0.76936275
0.67686887 0.16197917 0.78037684
0.77426471 0.14754902 0.78722426
0.81465993 0.14535846 0.79852941
0.82561275 0.17463235 0.79901961
0 0.46488971 0.70735294
0 0.46617647 0.71626072
0.004151348 0.43523284 0.74286152
0.20366881 0.38893229 0.80484069
0.51798407 0.39181985 0.83676471
0.72071844 0.40276501 0.84951746
0.82830882 0.39675245 0.85637255
0.86786918 0.40251225 0.86029412
0.88333333 0.41979167 0.86421569
0.0073529412 0.58039216 0.76102941
0.0044117647 0.58409926 0.77233456
0.0098039216 0.58676471 0.79166667
0.054534314 0.5768076 0.86176471
0.51960784 0.61066176 0.89644608
0.75499387 0.62386642 0.90710784
0.88039216 0.62775735 0.91599265
0.92181373 0.63921569 0.91421569
0.93529412 0.65098039 0.92009804
0.0060661765 0.68890931 0.80931373
0.021913297 0.69460784 0.82081036
0.023284314 0.7182598 0.8430913
0.035454963 0.7558364 0.89676011
0.49549632 0.80456495 0.93685662
0.78584559 0.82568934 0.9508655
0.92107843 0.84105392 0.9557598
0.96644455 0.85339308 0.96256127
0.98008578 0.86685049 0.96617647
0.011029412 0.73443627 0.8314951
0.021492034 0.7498315 0.84431679
0.0029411765 0.77647059 0.86994485
0.00096507353 0.83621324 0.91971507
0.47689951 0.89754902 0.95753676
0.79332108 0.93874081 0.97280944
0.93893995 0.9513174 0.97794118
0.98448223 0.9592065 0.98088235
0.99227941 0.95882353 0.98088235
0.0034926471 0.75 0.84019608
0.026095282 0.76862745 0.85839461
0.047303922 0.79938725 0.88143382
0.029266238 0.86307445 0.92996324
0.50456495 0.92205882 0.96473652
0.79046415 0.96252298 0.97712163
0.92863051 0.98066789 0.98431373
0.9838848 0.98866422 0.98480392
0.99558824 0.99172794 0.98823529
0.016176471 0.76470588 0.85441176
0.020955882 0.79509804 0.87794118
0.014338235 0.81776961 0.89705882
0.078431373 0.8754902 0.94019608
0.50906863 0.92941176 0.96666667
0.77843137 0.96617647 0.97824755
0.93272059 0.98958333 0.98823529
0.97647059 0.99215686 0.98480392
0.99607843 0.99607843 0.98872549
0 0.29411765 0.58039216
0.0073529412 0.29460784 0.59607843
0.078431373 0.045098039 0.61372549
0.2627451 0.0053921569 0.69264706
0.47254902 0.0019607843 0.70784314
0.60735294 0.0039215686 0.6877451
0.7 0 0.70490196
0.72990196 0 0.69068627
0.75686275 0.0039215686 0.71372549
0 0.35147059 0.64215686
0.0034313725 0.3372549 0.64613971
0.03247549 0.31139706 0.66029412
0.2591299 0.11164216 0.72126225
0.48578431 0.096813725 0.74607843
0.65588235 0.069607843 0.75949755
0.75686275 0 0.77414216
0.79509804 0 0.78241422
0.80980392 0.090196078 0.79705882
0 0.39411765 0.67254902
0 0.37843137 0.67340686
0.00098039216 0.36593137 0.70490196
0.25735294 0.2307598 0.76519608
0.49607843 0.24117647 0.79313725
0.68762255 0.2372549 0.81409314
0.78921569 0.22622549 0.8252451
0.82990196 0.23615196 0.82941176
0.84509804 0.26568627 0.84019608
0.0078431373 0.47647059 0.72254902
0.0026348039 0.47254902 0.72254902
0 0.46421569 0.76017157
0.15006127 0.40588235 0.82401961
0.51421569 0.42254902 0.85588235
0.72745098 0.42015931 0.86764706
0.83933824 0.425 0.88088235
0.87205882 0.42922794 0.87941176
0.89117647 0.45637255 0.89117647
0.0098039216 0.58627451 0.7745098
0.025245098 0.59240196 0.78406863
0.016176471 0.6 0.80490196
0.049754902 0.5872549 0.87352941
0.50098039 0.61960784 0.90588235
0.75465686 0.63333333 0.92230392
0.87156863 0.64509804 0.92941176
0.92377451 0.64338235 0.93333333
0.9372549 0.66862745 0.9372549
0.0014705882 0.68529412 0.81323529
0.019117647 0.69442402 0.8245098
0.031372549 0.72745098 0.85539216
0.04185049 0.7622549 0.90539216
0.4879902 0.80661765 0.94656863
0.78137255 0.82935049 0.95980392
0.91470588 0.84019608 0.97009804
0.96403186 0.84442402 0.97028186
0.97647059 0.86421569 0.97892157
0.016666667 0.73431373 0.83235294
0.022058824 0.74865196 0.8504902
0.0088235294 0.77647059 0.87352941
0.026470588 0.84019608 0.92647059
0.47009804 0.8995098 0.96519608
0.78860294 0.93676471 0.9807598
0.93235294 0.95098039 0.98848039
0.9807598 0.95098039 0.98823529
0.99215686 0.95490196 0.98823529
0.0039215686 0.75294118 0.84313725
0.054963235 0.76862745 0.8627451
0.026470588 0.80208333 0.88578431
0.019607843 0.85851716 0.93431373
0.46568627 0.92009804 0.96887255
0.77647059 0.9622549 0.98431373
0.92843137 0.9817402 0.99215686
0.97604167 0.98480392 0.99215686
0.99607843 0.98823529 0.99215686
0.035294118 0.76862745 0.85882353
0.0014705882 0.79166667 0.87794118
0.00098039216 0.83039216 0.90882353
0.041666667 0.87941176 0.94754902
0.49411765 0.92941176 0.97058824
0.77990196 0.97009804 0.98823529
0.93137255 0.99215686 0.99215686
0.96911765 0.99215686 0.99264706
0.99607843 1 1
