site/assets/luts/sha256-9e11ba97c9f3abdd3ae06839dbd50767a6a04564d919f2d988bfe46967877127.cube
# LUTr-Schema-Version: 2
# LUTr-ID: sha256-9e11ba97c9f3abdd3ae06839dbd50767a6a04564d919f2d988bfe46967877127
# LUTr-Title: polaroid px-680 cold
# LUTr-Collection: Natron HaldCLUT
# LUTr-Collection-ID: natron-haldclut-presets
# LUTr-Source: https://github.com/NatronGitHub/clut
# LUTr-Retrieved: 2026-07-27
# LUTr-Source-File: submissions/natron-haldclut-presets/instant_consumer/polaroid_px-680_cold.png
# LUTr-Source-Format: HALD-PNG
# LUTr-Source-SHA256: 9e11ba97c9f3abdd3ae06839dbd50767a6a04564d919f2d988bfe46967877127
# LUTr-License: CC-BY-SA-4.0
# LUTr-License-URL: https://github.com/NatronGitHub/clut#license
# LUTr-License-Basis: repo-license-file
# LUTr-Transform-Class: film-emulation
# LUTr-Tags: creative, film, film-emulation, hald-clut, natron, png, cool, cube
# LUTr-Input-Color-Space: srgb
# LUTr-Input-Gamut: rec709
# LUTr-Input-Transfer: srgb
# LUTr-Output-Color-Space: srgb
# LUTr-Output-Gamut: rec709
# LUTr-Output-Transfer: srgb
# LUTr-Color-Space-Confidence: assumed-display-referred
# LUTr-Domain-Normalized: true
# LUTr-Shaper: none
# LUTr-Original-Grid: 64x64x64
# LUTr-Conversion-Grid: 25x25x25
# LUTr-Conversion-Interpolation: trilinear
# LUTr-Conversion-Method: HALD-PNG LUT image decoded at 16-bit and sampled to 25x25x25 3D CUBE
# LUTr-Conversion-Tool: LUTr scripts/convert-all-to-cube.mjs 2.0.0
# LUTr-Conversion-Date: 2026-07-27
# LUTr-Note: Preserve this metadata and the upstream license notices when redistributing.
TITLE "polaroid px-680 cold"
LUT_3D_SIZE 5
DOMAIN_MIN 0 0 0
DOMAIN_MAX 1 1 1
0.16470588 0.22745098 0.24705882
0.16862745 0.21568627 0.24705882
0.37254902 0.21176471 0.24313725
0.80490196 0.27647059 0.22352941
0.96470588 0.46666667 0.27843137
0.14117647 0.24705882 0.24313725
0.18112745 0.23039216 0.24705882
0.45196078 0.27647059 0.23186275
0.81960784 0.3872549 0.20465686
0.94215686 0.50882353 0.2745098
0 0.43529412 0.23333333
0.0098039216 0.44215686 0.22745098
0.4627451 0.5254902 0.21470588
0.76960784 0.57843137 0.21029412
0.87843137 0.61176471 0.26862745
0 0.68529412 0.28431373
0.016666667 0.68235294 0.28529412
0.42156863 0.70980392 0.31764706
0.70563725 0.74705882 0.36960784
0.87352941 0.79117647 0.44607843
0.52156863 0.8627451 0.50980392
0.55294118 0.8627451 0.51764706
0.64509804 0.87058824 0.54509804
0.75882353 0.88627451 0.58039216
0.85882353 0.90196078 0.61960784
0.16470588 0.21666667 0.26568627
0.18039216 0.21176471 0.25882353
0.38823529 0.17990196 0.26372549
0.83039216 0.31372549 0.32132353
0.94215686 0.53627451 0.41764706
0.15 0.23039216 0.26176471
0.19411765 0.25741422 0.26568627
0.50208333 0.27561275 0.2817402
0.81887255 0.42567402 0.32720588
0.94191176 0.59387255 0.43602941
0.0098039216 0.47009804 0.30392157
0.056617647 0.48860294 0.28431373
0.51323529 0.55637255 0.3004902
0.78517157 0.59166667 0.32843137
0.9122549 0.64460784 0.3995098
0.021078431 0.70073529 0.35294118
0.12769608 0.69589461 0.35196078
0.46727941 0.71727941 0.39803922
0.72389706 0.7620098 0.44117647
0.87818627 0.79411765 0.49215686
0.52352941 0.85882353 0.51666667
0.57622549 0.87132353 0.5379902
0.64803922 0.87156863 0.55735294
0.75441176 0.87426471 0.57622549
0.86862745 0.91470588 0.65196078
0.094117647 0.21176471 0.39019608
0.25147059 0.21029412 0.39607843
0.50294118 0.28627451 0.43333333
0.81372549 0.29313725 0.49313725
0.92941176 0.57254902 0.55098039
0.023529412 0.27058824 0.43872549
0.26066176 0.28823529 0.44436275
0.56544118 0.39632353 0.47377451
0.80490196 0.49215686 0.51813725
0.92254902 0.64803922 0.5745098
0.012745098 0.49607843 0.44313725
0.23553922 0.52181373 0.46004902
0.59460784 0.58676471 0.50784314
0.78676471 0.66715686 0.54607843
0.9 0.72941176 0.58039216
0.33137255 0.69656863 0.48137255
0.43051471 0.70710784 0.48627451
0.58357843 0.72941176 0.51838235
0.74742647 0.77058824 0.54693627
0.88235294 0.79803922 0.57009804
0.57254902 0.86666667 0.57254902
0.5877451 0.86666667 0.5745098
0.64607843 0.85980392 0.58137255
0.76813725 0.89019608 0.62647059
0.87843137 0.91960784 0.69411765
0.31666667 0.29215686 0.63431373
0.4745098 0.31887255 0.64117647
0.7 0.5245098 0.64509804
0.80196078 0.64926471 0.64901961
0.88235294 0.64607843 0.65686275
0.3254902 0.40882353 0.63823529
0.48707108 0.43921569 0.640625
0.70122549 0.59473039 0.64509804
0.80196078 0.68553922 0.65533088
0.88529412 0.69509804 0.66470588
0.11519608 0.56764706 0.61421569
0.3622549 0.58296569 0.6192402
0.67156863 0.66593137 0.64142157
0.79889706 0.73982843 0.66470588
0.87058824 0.75588235 0.67647059
0.36470588 0.71960784 0.59705882
0.40784314 0.7125 0.58946078
0.60551471 0.73762255 0.61482843
0.7754902 0.78823529 0.65857843
0.88627451 0.82867647 0.69215686
0.51568627 0.8627451 0.6245098
0.5379902 0.85416667 0.6245098
0.64558824 0.86666667 0.64117647
0.76911765 0.88480392 0.67892157
0.88627451 0.92254902 0.74705882
0.69803922 0.66666667 0.78823529
0.73333333 0.68137255 0.78823529
0.80196078 0.73529412 0.78431373
0.86372549 0.8127451 0.78039216
0.88235294 0.84313725 0.77647059
0.69411765 0.68921569 0.78823529
0.71642157 0.69362745 0.77916667
0.79656863 0.74705882 0.78431373
0.85196078 0.80073529 0.75588235
0.89019608 0.84705882 0.78431373
0.62156863 0.73137255 0.78039216
0.67352941 0.73872549 0.78382353
0.75 0.74803922 0.76470588
0.84607843 0.82892157 0.78137255
0.88235294 0.8627451 0.79019608
0.50196078 0.79705882 0.75196078
0.53921569 0.79313725 0.75294118
0.64215686 0.80196078 0.76470588
0.81666667 0.84803922 0.78823529
0.89019608 0.89803922 0.80686275
0.56862745 0.90588235 0.78039216
0.56078431 0.87058824 0.76078431
0.64509804 0.88823529 0.76862745
0.76568627 0.88921569 0.79607843
0.89019608 0.92941176 0.81176471
