site/assets/luts/sha256-4f96ade67f99932878f6809fdaf9b4f02ec3e7e26c366e7d5e7fd545765d640e.cube
# LUTr-Schema-Version: 2
# LUTr-ID: sha256-4f96ade67f99932878f6809fdaf9b4f02ec3e7e26c366e7d5e7fd545765d640e
# LUTr-Title: polaroid px-100uv+ cold -
# LUTr-Collection: Natron HaldCLUT
# LUTr-Collection-ID: natron-haldclut-presets
# LUTr-Source: https://github.com/NatronGitHub/clut
# LUTr-Retrieved: 2026-07-27
# LUTr-Source-File: submissions/natron-haldclut-presets/instant_consumer/polaroid_px-100uv+_cold_-.png
# LUTr-Source-Format: HALD-PNG
# LUTr-Source-SHA256: 4f96ade67f99932878f6809fdaf9b4f02ec3e7e26c366e7d5e7fd545765d640e
# LUTr-License: CC-BY-SA-4.0
# LUTr-License-URL: https://github.com/NatronGitHub/clut#license
# LUTr-License-Basis: repo-license-file
# LUTr-Transform-Class: film-emulation
# LUTr-Tags: creative, film, film-emulation, hald-clut, natron, png, cool, cube
# LUTr-Input-Color-Space: srgb
# LUTr-Input-Gamut: rec709
# LUTr-Input-Transfer: srgb
# LUTr-Output-Color-Space: srgb
# LUTr-Output-Gamut: rec709
# LUTr-Output-Transfer: srgb
# LUTr-Color-Space-Confidence: assumed-display-referred
# LUTr-Domain-Normalized: true
# LUTr-Shaper: none
# LUTr-Original-Grid: 64x64x64
# LUTr-Conversion-Grid: 25x25x25
# LUTr-Conversion-Interpolation: trilinear
# LUTr-Conversion-Method: HALD-PNG LUT image decoded at 16-bit and sampled to 25x25x25 3D CUBE
# LUTr-Conversion-Tool: LUTr scripts/convert-all-to-cube.mjs 2.0.0
# LUTr-Conversion-Date: 2026-07-27
# LUTr-Note: Preserve this metadata and the upstream license notices when redistributing.
TITLE "polaroid px-100uv+ cold -"
LUT_3D_SIZE 9
DOMAIN_MIN 0 0 0
DOMAIN_MAX 1 1 1
0.11764706 0.13333333 0.1372549
0.11372549 0.12941176 0.12941176
0.13823529 0.15392157 0.15392157
0.2245098 0.24411765 0.24656863
0.30392157 0.3254902 0.3254902
0.38333333 0.40294118 0.39901961
0.45784314 0.47647059 0.47254902
0.53137255 0.54705882 0.53872549
0.61176471 0.63137255 0.61176471
0.13676471 0.15294118 0.15294118
0.1254902 0.14117647 0.14466912
0.16531863 0.18235294 0.18615196
0.22058824 0.24283088 0.24442402
0.30563725 0.32745098 0.32745098
0.38854167 0.40833333 0.40686275
0.46470588 0.48394608 0.47647059
0.53823529 0.55741422 0.54607843
0.60784314 0.62745098 0.60784314
0.15686275 0.17647059 0.17647059
0.1810049 0.20061275 0.20098039
0.21495098 0.23455882 0.23823529
0.2504902 0.27291667 0.27647059
0.32254902 0.34264706 0.34411765
0.39840686 0.41801471 0.41801471
0.46862745 0.48823529 0.48431373
0.54166667 0.56127451 0.54914216
0.62352941 0.64313725 0.61862745
0.27254902 0.28970588 0.29215686
0.26648284 0.28970588 0.28970588
0.28137255 0.30196078 0.30306373
0.33137255 0.35189951 0.35245098
0.38137255 0.39901961 0.40098039
0.42205882 0.44166667 0.44166667
0.4810049 0.50061275 0.49497549
0.55814951 0.57775735 0.56176471
0.62745098 0.64705882 0.61960784
0.36078431 0.37647059 0.38039216
0.3627451 0.38039216 0.38235294
0.36666667 0.38529412 0.38627451
0.39460784 0.41151961 0.41421569
0.43137255 0.44803922 0.44705882
0.47009804 0.48970588 0.48455882
0.51372549 0.53333333 0.52156863
0.57941176 0.59901961 0.57941176
0.63921569 0.65882353 0.63137255
0.44754902 0.46323529 0.46176471
0.45147059 0.46715686 0.4653799
0.45392157 0.46960784 0.46715686
0.45692402 0.47352941 0.47052696
0.47867647 0.49436275 0.48970588
0.51813725 0.53682598 0.52598039
0.55330882 0.57254902 0.55686275
0.61047794 0.63008578 0.60637255
0.66568627 0.68529412 0.65637255
0.53529412 0.55098039 0.54019608
0.53627451 0.55196078 0.5439951
0.53627451 0.55196078 0.54313725
0.53627451 0.55490196 0.54411765
0.55 0.56960784 0.55539216
0.57512255 0.59264706 0.57414216
0.61862745 0.63602941 0.61078431
0.65379902 0.67340686 0.64460784
0.71372549 0.73333333 0.69411765
0.64117647 0.65686275 0.63284314
0.64509804 0.66078431 0.63676471
0.64644608 0.66470588 0.6372549
0.64901961 0.66470588 0.64068627
0.66078431 0.67843137 0.6504902
0.68547794 0.70098039 0.66568627
0.71568627 0.7310049 0.69264706
0.73186275 0.75055147 0.71133578
0.74264706 0.75833333 0.71519608
0.75294118 0.76862745 0.7254902
0.76029412 0.77598039 0.73284314
0.76078431 0.77647059 0.73333333
0.76078431 0.77647059 0.73333333
0.77254902 0.78823529 0.74509804
0.78578431 0.8 0.7504902
0.81666667 0.82843137 0.77745098
0.84754902 0.85539216 0.80441176
0.85098039 0.85490196 0.80784314
0.14019608 0.15980392 0.15980392
0.13627451 0.15196078 0.15496324
0.18186275 0.20147059 0.20147059
0.25539216 0.27745098 0.27745098
0.33455882 0.35612745 0.35245098
0.40784314 0.42745098 0.42352941
0.48088235 0.4995098 0.49178922
0.55435049 0.57352941 0.55827206
0.62303922 0.64264706 0.61911765
0.14810049 0.16770833 0.16856618
0.16280637 0.18240656 0.18627451
0.19748775 0.22015931 0.2208027
0.26301317 0.28584559 0.28611366
0.33477328 0.35612745 0.35438113
0.41029412 0.43102788 0.42598039
0.47990196 0.4995098 0.49166667
0.55354626 0.57304687 0.55741422
0.61911765 0.63872549 0.61519608
0.20526961 0.22487745 0.22757353
0.21698836 0.24008885 0.24051777
0.24647672 0.26715686 0.26715686
0.29054841 0.31227022 0.31234681
0.34803922 0.36936275 0.36954657
0.42205882 0.44166667 0.43907782
0.48676471 0.5044424 0.4995098
0.55392157 0.57352941 0.5580576
0.63125 0.65085784 0.62340686
0.296875 0.31666667 0.31666667
0.29705882 0.31666667 0.31813725
0.31715686 0.33762255 0.33762255
0.35184589 0.37058058 0.37145374
0.39485294 0.4125 0.4125
0.44050245 0.45851716 0.45851716
0.49981618 0.51783088 0.51150429
0.5657935 0.58540135 0.56942402
0.63118873 0.65079657 0.62567402
0.38602941 0.40539216 0.40539216
0.38406863 0.40343137 0.40150123
0.38529412 0.40294118 0.40343137
0.40588235 0.42279412 0.42377451
0.44264706 0.45857843 0.45661765
0.47922794 0.49715074 0.49099265
0.52156863 0.54105392 0.53198529
0.58158701 0.60119485 0.58308824
0.63504902 0.65441176 0.63088235
0.46519608 0.48088235 0.47696078
0.46161918 0.47846967 0.47322304
0.46145833 0.47810968 0.47322304
0.46819853 0.48411458 0.48019301
0.49289216 0.50857843 0.50260417
0.51679688 0.53248315 0.52297794
0.56433824 0.58137255 0.56724877
0.61394761 0.63351716 0.61029412
0.67352941 0.69313725 0.66158088
0.53921569 0.5557598 0.5439951
0.54276961 0.55845588 0.54705882
0.54276961 0.55931373 0.54791667
0.5439951 0.5629136 0.55098039
0.56041667 0.57732843 0.56446078
0.59117647 0.60735294 0.5877451
0.62254902 0.64215686 0.61764706
0.6689951 0.68753064 0.65605086
0.71568627 0.73443627 0.69522059
0.64901961 0.66421569 0.64025735
0.6528799 0.66856618 0.64374234
0.64901961 0.66481311 0.64068627
0.64770987 0.66470588 0.63913143
0.66078431 0.67840074 0.64852941
0.68139553 0.69754902 0.66241575
0.71263787 0.72832414 0.69168199
0.73970588 0.75495558 0.71568627
0.76568627 0.7778799 0.7377451
0.76078431 0.77647059 0.73333333
0.76856618 0.78425245 0.74068627
0.76568627 0.78137255 0.7372549
0.76292892 0.77647059 0.73333333
0.77303922 0.78872549 0.74338235
0.79019608 0.80539216 0.75490196
0.83088235 0.83921569 0.78786765
0.84895833 0.85594363 0.80539216
0.85490196 0.85882353 0.80833333
0.19313725 0.21666667 0.21666667
0.2004902 0.22303922 0.22389706
0.23039216 0.25 0.25098039
0.30159314 0.32120098 0.32303922
0.3754902 0.39509804 0.39117647
0.44117647 0.46078431 0.45441176
0.51078431 0.53039216 0.51862745
0.58039216 0.6 0.58039216
0.64215686 0.66176471 0.63431373
0.20477941 0.22438725 0.22794118
0.23137255 0.25453431 0.25490196
0.26905637 0.28933824 0.28970588
0.31973039 0.33970588 0.33938419
0.38198529 0.40159314 0.39889706
0.44509804 0.46470588 0.46078431
0.5114277 0.53039216 0.51927083
0.58088235 0.6004902 0.58039216
0.64215686 0.66176471 0.63431373
0.24387255 0.26666667 0.27058824
0.2629902 0.28606005 0.28676471
0.30355392 0.32487745 0.32377451
0.34313725 0.36384804 0.36075368
0.39595588 0.41372549 0.4129902
0.45294118 0.47156863 0.46838235
0.51862745 0.53504902 0.52628676
0.58471201 0.6041973 0.58431373
0.65 0.66960784 0.63823529
0.32732843 0.34754902 0.34865196
0.33831189 0.35810355 0.3596201
0.36666667 0.38333333 0.38627451
0.39754902 0.41531863 0.41360294
0.42879902 0.44620098 0.44448529
0.46484375 0.48140319 0.48053002
0.52536765 0.54215686 0.53311887
0.59215686 0.61144301 0.59068627
0.65392157 0.67352941 0.64276961
0.41470588 0.43431373 0.43039216
0.42009804 0.43952206 0.43707108
0.43014706 0.44705882 0.44583333
0.44571078 0.46360294 0.46084559
0.46960784 0.4872549 0.48186275
0.50318627 0.52009804 0.5127451
0.54411765 0.56360294 0.55098039
0.60416667 0.62352941 0.60245098
0.65637255 0.67598039 0.64656863
0.49607843 0.51507353 0.50539216
0.49546569 0.51346507 0.50502451
0.49215686 0.51078431 0.50340074
0.50291054 0.5192402 0.51162684
0.52083333 0.5372549 0.52867647
0.54829963 0.56421569 0.55245098
0.58223039 0.6015625 0.58223039
0.6229473 0.64100797 0.61764706
0.6627451 0.68051471 0.65098039
0.56568627 0.58529412 0.56740196
0.56960784 0.58691789 0.5734375
0.56666667 0.58235294 0.56960784
0.56666667 0.58235294 0.56960784
0.57610294 0.59178922 0.57647059
0.60735294 0.6260723 0.60343137
0.6372549 0.65686275 0.63014706
0.67282475 0.69102328 0.66029412
0.70882353 0.7245098 0.68921569
0.67156863 0.68688725 0.6567402
0.66862745 0.68333333 0.65551471
0.67156863 0.68688725 0.65637255
0.66818321 0.68333333 0.65539216
0.675 0.68946078 0.65931373
0.69250919 0.70819547 0.67320772
0.71813725 0.73382353 0.69546569
0.75006127 0.76311275 0.72254902
0.78566176 0.79705882 0.75
0.79117647 0.80294118 0.75588235
0.77683824 0.79215686 0.74546569
0.77573529 0.78823529 0.74509804
0.77218137 0.78431373 0.74117647
0.77647059 0.78823529 0.74509804
0.78811275 0.79987745 0.75343137
0.80784314 0.81960784 0.76862745
0.8314951 0.84019608 0.78921569
0.8627451 0.86960784 0.81470588
0.30784314 0.32745098 0.32745098
0.31697304 0.33658088 0.33498775
0.34362745 0.36176471 0.36323529
0.36813725 0.3877451 0.3877451
0.41348039 0.43308824 0.42990196
0.48143382 0.4995098 0.49166667
0.54166667 0.56127451 0.54558824
0.61127451 0.63088235 0.60343137
0.67303922 0.69264706 0.65735294
0.31930147 0.33872549 0.33890931
0.33077512 0.35034467 0.35038297
0.36066176 0.37843137 0.37843137
0.39209559 0.41078431 0.40938266
0.425 0.44460784 0.44068627
0.48382353 0.50343137 0.49558824
0.54413297 0.56213235 0.54655331
0.61174173 0.63131127 0.60735294
0.67303922 0.69264706 0.66127451
0.34362745 0.36323529 0.36507353
0.35753676 0.37481618 0.37843137
0.38786765 0.40539216 0.40548407
0.41352635 0.43198529 0.42806373
0.44240196 0.46151961 0.45612745
0.49281556 0.51113664 0.50458027
0.55223652 0.56911765 0.55481005
0.61911765 0.63872549 0.61127451
0.68198529 0.7004902 0.66519608
0.39411765 0.40980392 0.41219363
0.39492188 0.41060815 0.41452972
0.41905637 0.43682598 0.43526348
0.44356618 0.4622549 0.45741422
0.47352941 0.49313725 0.4877451
0.51099112 0.52828585 0.52009804
0.5588848 0.57654718 0.56127451
0.62696078 0.64528186 0.61911765
0.68480392 0.70441176 0.66911765
0.44754902 0.46715686 0.46127451
0.46510417 0.48367034 0.47910539
0.47487745 0.49246324 0.48664216
0.48771446 0.50640319 0.49947917
0.50367647 0.52291667 0.51544118
0.53829657 0.55658701 0.54586397
0.58216912 0.60036765 0.58186275
0.64059436 0.65833333 0.63063725
0.68480392 0.70294118 0.66911765
0.53143382 0.5504902 0.53872549
0.53853401 0.55802696 0.54545803
0.53480392 0.55317096 0.54117647
0.54264706 0.56043964 0.54810049
0.55125613 0.57009804 0.55759804
0.5754902 0.59509804 0.57794118
0.6127451 0.6316636 0.60882353
0.6547258 0.67254136 0.64296109
0.66372549 0.68333333 0.65196078
0.6004902 0.62009804 0.59803922
0.60494792 0.62401961 0.60382966
0.60064338 0.61715686 0.59656863
0.6004902 0.61678922 0.59656863
0.60618873 0.62401961 0.60441176
0.6254902 0.64509804 0.62133885
0.66375613 0.68170956 0.65174632
0.68717831 0.7058364 0.67068015
0.70061275 0.71629902 0.68039216
0.69460784 0.71029412 0.67628676
0.6939568 0.70980392 0.6745098
0.69460784 0.71024816 0.67843137
0.69852941 0.71243873 0.67843137
0.69460784 0.71029412 0.67843137
0.71065411 0.72627145 0.69074755
0.73783701 0.75405944 0.7122549
0.77058824 0.78235294 0.73903186
0.79607843 0.80520833 0.75814951
0.80392157 0.81421569 0.76862745
0.78216912 0.79393382 0.7495098
0.79178922 0.80245098 0.75870098
0.79852941 0.80637255 0.76323529
0.80245098 0.81102941 0.76397059
0.82261029 0.83045343 0.78131127
0.83921569 0.84705882 0.79607843
0.85949755 0.86685049 0.81194853
0.87598039 0.87990196 0.82352941
0.41764706 0.4372549 0.43333333
0.4254902 0.44460784 0.44093137
0.44803922 0.46372549 0.4622549
0.45931373 0.47647059 0.47181373
0.47843137 0.49803922 0.48921569
0.51715686 0.53676471 0.525
0.56715686 0.58676471 0.56862745
0.64044118 0.66004902 0.63039216
0.70784314 0.7254902 0.68823529
0.43112745 0.44877451 0.44509804
0.4370098 0.45291054 0.45266544
0.45030637 0.46746324 0.46617647
0.46577819 0.48357843 0.47950368
0.48419118 0.50379902 0.49607843
0.52107843 0.54068627 0.53020833
0.57254902 0.59215686 0.57512255
0.64215686 0.66176471 0.63235294
0.70808824 0.72769608 0.68848039
0.44068627 0.45686275 0.45441176
0.45220588 0.46789216 0.46599265
0.46605392 0.48284314 0.47941176
0.48112745 0.49877451 0.49375
0.49656863 0.51519608 0.50857843
0.53308824 0.55269608 0.54068627
0.58333333 0.60220588 0.58333333
0.64644608 0.66568627 0.63780637
0.71176471 0.73039216 0.69166667
0.46127451 0.47818627 0.47696078
0.46593137 0.48268995 0.47843137
0.48143382 0.4995098 0.49203431
0.49957108 0.51862745 0.50925245
0.525 0.5439951 0.53321078
0.55413603 0.57282475 0.55882353
0.59908088 0.61660539 0.59571078
0.6629902 0.68063725 0.64981618
0.72352941 0.73921569 0.7
0.48627451 0.50588235 0.49705882
0.50563725 0.52328431 0.51433824
0.51568627 0.53431373 0.52426471
0.52573529 0.54534314 0.53517157
0.55392157 0.57303922 0.55882353
0.58026961 0.5995098 0.58186275
0.61764706 0.63651961 0.6127451
0.67855392 0.6942402 0.66164216
0.7372549 0.75196078 0.70980392
0.55539216 0.575 0.55784314
0.55922181 0.57809436 0.56176471
0.56568627 0.58492647 0.56752451
0.57821691 0.59705882 0.58082108
0.58982843 0.60845588 0.59044118
0.60882353 0.62843137 0.60612745
0.64803922 0.66715686 0.63860294
0.6995098 0.71519608 0.67873775
0.73333333 0.74901961 0.70784314
0.63137255 0.65098039 0.62352941
0.63627451 0.65582108 0.6283701
0.64007353 0.65894608 0.6317402
0.64362745 0.6627451 0.63529412
0.64509804 0.66372549 0.6377451
0.66207108 0.67971814 0.65036765
0.69105392 0.70686275 0.67156863
0.71801471 0.73370098 0.69405637
0.72843137 0.74411765 0.70441176
0.725 0.73676471 0.70098039
0.72542892 0.74068627 0.70511642
0.72892157 0.74718137 0.70900735
0.73284314 0.74730392 0.70916054
0.73504902 0.74852941 0.71188725
0.73553922 0.75 0.7106924
0.76127451 0.77561275 0.73235294
0.78823529 0.7995098 0.75266544
0.80122549 0.80931373 0.76176471
0.81764706 0.82745098 0.77843137
0.81960784 0.82941176 0.77843137
0.80931373 0.81764706 0.77058824
0.82867647 0.83651961 0.78676471
0.83333333 0.84117647 0.79019608
0.83137255 0.83921569 0.78823529
0.84411765 0.85 0.79852941
0.86838235 0.87205882 0.81764706
0.8745098 0.87647059 0.82156863
0.51421569 0.52990196 0.51813725
0.51813725 0.53382353 0.52420343
0.52990196 0.54558824 0.53566176
0.54503676 0.56280637 0.54895833
0.56519608 0.58284314 0.56519608
0.57003676 0.58872549 0.57395833
0.58811275 0.60772059 0.59166667
0.66568627 0.68511029 0.65588235
0.73088235 0.7504902 0.70735294
0.52205882 0.5377451 0.528125
0.52598039 0.54166667 0.53204657
0.53538603 0.55111826 0.54011949
0.55078125 0.56753217 0.5528799
0.56902574 0.58676471 0.57025123
0.58431373 0.60177696 0.58381587
0.6022212 0.62182904 0.60245098
0.66568627 0.68480392 0.65561428
0.73480392 0.7504902 0.71127451
0.53382353 0.5495098 0.53958333
0.5377451 0.55343137 0.5435049
0.54558824 0.56348039 0.55088848
0.55957414 0.57682292 0.56228554
0.57947304 0.59803922 0.57984069
0.59595588 0.61294424 0.5933364
0.61360294 0.63321078 0.61139706
0.67647059 0.69558824 0.66421569
0.74558824 0.76127451 0.71813725
0.54558824 0.56127451 0.5495098
0.5451057 0.56127451 0.54803922
0.55306373 0.57026654 0.55634191
0.57493873 0.593053 0.57667739
0.59387255 0.61151961 0.59163603
0.60856311 0.62817096 0.60594363
0.63964461 0.65741422 0.63157169
0.70372243 0.72120864 0.68480392
0.77009804 0.78578431 0.73872549
0.56715686 0.58602941 0.56838235
0.56813725 0.58529412 0.56936275
0.57352941 0.59209559 0.57567402
0.58848039 0.60612745 0.58848039
0.61115196 0.62977941 0.60784314
0.62889093 0.64803922 0.62282475
0.65692402 0.67567402 0.6466299
0.72215074 0.73676471 0.69917279
0.78504902 0.79681373 0.7497549
0.59656863 0.61617647 0.59356618
0.60833333 0.62794118 0.60434283
0.61081495 0.63042279 0.60833333
0.61675092 0.63601409 0.61413143
0.63550858 0.65465686 0.62962623
0.65686275 0.67647059 0.64720435
0.6877451 0.70588235 0.67058824
0.74117647 0.75539216 0.71354167
0.77886029 0.78970588 0.74356618
0.65330882 0.67071078 0.64264706
0.65926777 0.67847733 0.6493413
0.66678922 0.68578431 0.65502451
0.670481 0.68929228 0.65833333
0.68431373 0.70214461 0.67009804
0.70045956 0.71862745 0.68310355
0.72745098 0.74276961 0.70340074
0.75883885 0.7712163 0.7274663
0.76372549 0.77610294 0.73125
0.74834559 0.76243873 0.72058824
0.752428 0.76748621 0.72638634
0.7600337 0.77366728 0.73230699
0.76716452 0.77886029 0.73754596
0.7754902 0.7872549 0.74393382
0.77677696 0.78854167 0.74374234
0.79197304 0.80310968 0.7560049
0.8151348 0.82297794 0.775
0.81991422 0.82616422 0.77892157
0.84068627 0.84852941 0.79607843
0.84834559 0.85459559 0.80128676
0.8627451 0.86727941 0.81237745
0.85098039 0.85637255 0.80539216
0.85245098 0.85759804 0.80465686
0.84852941 0.85490196 0.80147059
0.85833333 0.8622549 0.81066176
0.88792892 0.88841912 0.83351716
0.8877451 0.8877451 0.83284314
0.62352941 0.63529412 0.61470588
0.62745098 0.64215686 0.61862745
0.63431373 0.64681373 0.62254902
0.63713235 0.65098039 0.62647059
0.65588235 0.67156863 0.64362745
0.66776961 0.68529412 0.65502451
0.68161765 0.69730392 0.66887255
0.69644608 0.71262255 0.67990196
0.76568627 0.78137255 0.73823529
0.62352941 0.63909314 0.61470588
0.62745098 0.64215686 0.61862745
0.63367034 0.64926471 0.62521446
0.64469975 0.66038603 0.6341299
0.66151961 0.6776348 0.64797794
0.67745098 0.69313725 0.66272978
0.68946078 0.70511642 0.67352941
0.70801164 0.72401961 0.68872549
0.77046569 0.78615196 0.74166667
0.62941176 0.64607843 0.62254902
0.63039216 0.64990809 0.62613358
0.6379902 0.6564951 0.63039216
0.65591299 0.67159926 0.6439951
0.67512255 0.69068627 0.65894608
0.68949142 0.7044424 0.6723652
0.69779412 0.7127451 0.68118873
0.71556373 0.73128064 0.69568015
0.77647059 0.79117647 0.74509804
0.64215686 0.65784314 0.63223039
0.64105392 0.65784314 0.63200061
0.64442402 0.66176471 0.63743873
0.66196385 0.67745098 0.64963235
0.68615196 0.69901961 0.66764706
0.70203738 0.71574755 0.68206189
0.71556373 0.72941176 0.69402574
0.74679841 0.76127451 0.72156863
0.79522059 0.80637255 0.75931373
0.64607843 0.66568627 0.6372549
0.65 0.66740196 0.63952206
0.65 0.66813725 0.64215686
0.66574755 0.68290441 0.65484069
0.69313725 0.70833333 0.67598039
0.70974265 0.7252451 0.68976716
0.725 0.74019608 0.70294118
0.76519608 0.77696078 0.73511029
0.8127451 0.82058824 0.77352941
0.66507353 0.68468137 0.65294118
0.67063419 0.68970588 0.65833333
0.67107843 0.69044118 0.66197917
0.68385417 0.70075061 0.6700674
0.70625 0.72279412 0.68805147
0.72467831 0.74036458 0.70291054
0.7495098 0.76127451 0.72205882
0.78249081 0.79183517 0.74811581
0.82487745 0.83051471 0.78137255
0.68627451 0.70588235 0.67058824
0.69466912 0.71295956 0.68088235
0.70122549 0.71838235 0.68529412
0.70477941 0.72356005 0.68884804
0.72830882 0.74509804 0.70735294
0.74966299 0.76519608 0.72561275
0.78431373 0.79607843 0.74901961
0.81510417 0.82169118 0.77202819
0.83333333 0.8372549 0.7870098
0.77107843 0.78284314 0.73970588
0.77521446 0.7870864 0.74361213
0.78311887 0.79460784 0.75134804
0.79229473 0.80232843 0.75796569
0.80680147 0.81593137 0.76887255
0.81223958 0.82161458 0.77267157
0.82720588 0.83495711 0.78333333
0.85036765 0.85696998 0.80240502
0.88125 0.88125 0.82634804
0.86764706 0.87156863 0.81568627
0.87463235 0.87855392 0.82009804
0.86544118 0.87181373 0.81838235
0.87647059 0.87977941 0.82598039
0.89166667 0.89166667 0.83284314
0.87254902 0.87438725 0.81948529
0.87647059 0.87647059 0.82328431
0.90686275 0.90343137 0.84803922
0.9254902 0.92156863 0.8627451
0.74705882 0.75490196 0.71519608
0.74705882 0.75490196 0.71911765
0.75098039 0.75882353 0.71960784
0.75490196 0.76488971 0.72334559
0.76642157 0.7745098 0.73480392
0.7745098 0.78596814 0.74264706
0.79117647 0.80147059 0.75539216
0.79852941 0.80631127 0.7622549
0.83235294 0.84019608 0.78921569
0.74313725 0.75490196 0.71519608
0.7466299 0.75490196 0.71911765
0.75098039 0.76262255 0.72303922
0.75882353 0.77036612 0.72722886
0.76666667 0.77815564 0.73480392
0.77971814 0.78986673 0.74653033
0.79878983 0.80625 0.7622549
0.80582874 0.81328891 0.76617647
0.82156863 0.82941176 0.78143382
0.74705882 0.75882353 0.71948529
0.74705882 0.76107537 0.72218137
0.75465686 0.76663603 0.72610294
0.76666667 0.77817096 0.73480392
0.77965686 0.7877451 0.74393382
0.79500613 0.80257353 0.75749081
0.80652574 0.81323529 0.76681985
0.81012561 0.82022059 0.77046569
0.81629902 0.825 0.77659314
0.7536152 0.76666667 0.72696078
0.75490196 0.76666667 0.72726716
0.75476409 0.76625306 0.72696078
0.77185968 0.78157169 0.73865656
0.78985907 0.79877451 0.75343137
0.80324755 0.81060049 0.76488205
0.81323529 0.81801471 0.77256434
0.82794118 0.83331036 0.78562347
0.84705882 0.85098039 0.7995098
0.75465686 0.76666667 0.72696078
0.75857843 0.77034314 0.72916667
0.75490196 0.76666667 0.72696078
0.77432598 0.78480392 0.74264706
0.79362745 0.80343137 0.75808824
0.80686275 0.81452206 0.76746324
0.81960784 0.825 0.7783701
0.83918505 0.84439338 0.79534314
0.85588235 0.85980392 0.80857843
0.76029412 0.7754902 0.73235294
0.76419271 0.77595741 0.73609069
0.76787684 0.77941176 0.73841912
0.77713695 0.78878676 0.74538909
0.79362745 0.80523897 0.75808824
0.81158854 0.81943168 0.77359835
0.83529412 0.84082414 0.79189645
0.85814951 0.86018689 0.81060049
0.87303922 0.87285539 0.82156863
0.79105392 0.80245098 0.75796569
0.79105392 0.80245098 0.75908395
0.79362745 0.80245098 0.75882353
0.79644608 0.80632659 0.76087623
0.80851716 0.81960784 0.771875
0.83056066 0.83835784 0.78737745
0.8541973 0.86004902 0.80661765
0.87303922 0.87593444 0.82193627
0.8995098 0.89558824 0.8432598
0.81372549 0.825 0.77794118
0.81758578 0.8254902 0.77799479
0.82032782 0.82892157 0.7783701
0.82526808 0.83169424 0.78213082
0.8504902 0.85441176 0.8033701
0.86372549 0.86764706 0.8127451
0.87694547 0.8807598 0.82461703
0.8946155 0.89466912 0.83670343
0.90980392 0.90637255 0.85098039
0.89411765 0.89411765 0.83529412
0.85196078 0.8588848 0.80490196
0.87352941 0.87401961 0.82254902
0.87677696 0.87892157 0.8254902
0.90612745 0.90416667 0.84705882
0.90637255 0.90637255 0.84754902
0.92254902 0.91862745 0.85980392
0.9254902 0.92156863 0.86317402
0.92156863 0.91764706 0.85882353
0.85098039 0.85490196 0.80392157
0.85882353 0.8627451 0.81127451
0.86666667 0.87058824 0.81568627
0.85882353 0.8627451 0.81176471
0.88235294 0.88431373 0.82941176
0.88627451 0.88627451 0.83137255
0.89411765 0.89117647 0.83921569
0.90245098 0.90196078 0.84362745
0.90588235 0.90588235 0.84705882
0.85098039 0.85490196 0.80392157
0.85490196 0.85925245 0.80784314
0.8627451 0.86666667 0.81213235
0.86256127 0.86648284 0.81176471
0.87058824 0.87083333 0.81617647
0.88382353 0.88382353 0.82892157
0.90159314 0.89803922 0.84313725
0.90637255 0.90245098 0.84754902
0.91372549 0.90980392 0.85098039
0.85392157 0.85882353 0.80784314
0.85404412 0.85882353 0.80698529
0.86960784 0.87647059 0.81862745
0.86127451 0.86519608 0.81029412
0.87254902 0.875 0.81862745
0.89301471 0.89264706 0.83529412
0.89583333 0.89436275 0.83946078
0.90894608 0.90588235 0.84754902
0.90588235 0.90588235 0.84705882
0.86519608 0.87058824 0.81568627
0.87647059 0.88057598 0.82567402
0.85490196 0.85980392 0.80490196
0.87604167 0.87996324 0.82297794
0.87843137 0.88235294 0.82745098
0.87696078 0.87751225 0.82352941
0.8872549 0.8872549 0.83235294
0.91390931 0.91029412 0.85294118
0.91764706 0.91372549 0.85490196
0.85098039 0.85882353 0.80784314
0.8627451 0.86666667 0.81397059
0.85294118 0.85882353 0.80637255
0.86985294 0.87573529 0.81960784
0.87843137 0.88039216 0.82352941
0.87990196 0.88259804 0.82892157
0.89705882 0.89656863 0.84215686
0.90196078 0.90196078 0.84705882
0.90588235 0.90196078 0.84705882
0.86421569 0.86813725 0.81568627
0.86685049 0.87077206 0.81746324
0.85637255 0.8627451 0.80821078
0.86366422 0.86758578 0.81421569
0.88578431 0.8870098 0.83014706
0.88872549 0.89019608 0.83529412
0.91372549 0.91078431 0.85551471
0.91109069 0.90931373 0.85441176
0.90196078 0.90196078 0.84705882
0.87941176 0.88235294 0.82843137
0.88235294 0.88370098 0.83137255
0.8754902 0.87941176 0.8245098
0.87941176 0.88333333 0.82781863
0.8995098 0.9 0.84117647
0.90196078 0.90196078 0.84705882
0.91372549 0.91151961 0.85490196
0.92512255 0.92242647 0.86372549
0.90686275 0.90294118 0.84803922
0.89852941 0.89803922 0.84313725
0.90643382 0.90294118 0.85104167
0.90196078 0.90110294 0.8435049
0.90588235 0.90539216 0.84705882
0.90196078 0.90196078 0.84362745
0.91372549 0.91158088 0.85490196
0.91507353 0.91507353 0.85625
0.93376225 0.93284314 0.87401961
0.92941176 0.9254902 0.86666667
0.89019608 0.89019608 0.83529412
0.90196078 0.90196078 0.84705882
0.91372549 0.90980392 0.85392157
0.92696078 0.92156863 0.8627451
0.91176471 0.91176471 0.85294118
0.93333333 0.92941176 0.87058824
0.92941176 0.9254902 0.86960784
0.9254902 0.92156863 0.86323529
0.9254902 0.92156863 0.86666667
