site/assets/luts/sha256-675520eaae3a7e416d4631a1848d05034da100c9e9adeff2d4c3abf1939247b7.cube
# LUTr-Schema-Version: 2
# LUTr-ID: sha256-675520eaae3a7e416d4631a1848d05034da100c9e9adeff2d4c3abf1939247b7
# LUTr-Title: polaroid 665 negative +
# LUTr-Collection: Natron HaldCLUT
# LUTr-Collection-ID: natron-haldclut-presets
# LUTr-Source: https://github.com/NatronGitHub/clut
# LUTr-Retrieved: 2026-07-27
# LUTr-Source-File: submissions/natron-haldclut-presets/instant_pro/polaroid_665_negative_+.png
# LUTr-Source-Format: HALD-PNG
# LUTr-Source-SHA256: 675520eaae3a7e416d4631a1848d05034da100c9e9adeff2d4c3abf1939247b7
# LUTr-License: CC-BY-SA-4.0
# LUTr-License-URL: https://github.com/NatronGitHub/clut#license
# LUTr-License-Basis: repo-license-file
# LUTr-Transform-Class: film-emulation
# LUTr-Tags: creative, film, film-emulation, hald-clut, natron, png, cube
# LUTr-Input-Color-Space: srgb
# LUTr-Input-Gamut: rec709
# LUTr-Input-Transfer: srgb
# LUTr-Output-Color-Space: srgb
# LUTr-Output-Gamut: rec709
# LUTr-Output-Transfer: srgb
# LUTr-Color-Space-Confidence: assumed-display-referred
# LUTr-Domain-Normalized: true
# LUTr-Shaper: none
# LUTr-Original-Grid: 64x64x64
# LUTr-Conversion-Grid: 25x25x25
# LUTr-Conversion-Interpolation: trilinear
# LUTr-Conversion-Method: HALD-PNG LUT image decoded at 16-bit and sampled to 25x25x25 3D CUBE
# LUTr-Conversion-Tool: LUTr scripts/convert-all-to-cube.mjs 2.0.0
# LUTr-Conversion-Date: 2026-07-27
# LUTr-Note: Preserve this metadata and the upstream license notices when redistributing.
TITLE "polaroid 665 negative +"
LUT_3D_SIZE 25
DOMAIN_MIN 0 0 0
DOMAIN_MAX 1 1 1
0.20392157 0.20392157 0.20392157
0.21029412 0.21029412 0.21029412
0.21666667 0.21666667 0.21666667
0.22352941 0.22352941 0.22352941
0.23137255 0.23137255 0.23137255
0.23921569 0.23921569 0.23921569
0.24607843 0.24607843 0.24607843
0.25245098 0.25245098 0.25245098
0.25882353 0.25882353 0.25882353
0.26519608 0.26519608 0.26519608
0.27156863 0.27156863 0.27156863
0.28529412 0.28529412 0.28529412
0.30980392 0.30980392 0.30980392
0.3254902 0.3254902 0.3254902
0.33137255 0.33137255 0.33137255
0.35196078 0.35196078 0.35196078
0.37647059 0.37647059 0.37647059
0.39705882 0.39705882 0.39705882
0.42156863 0.42156863 0.42156863
0.44215686 0.44215686 0.44215686
0.4627451 0.4627451 0.4627451
0.48382353 0.48382353 0.48382353
0.51176471 0.51176471 0.51176471
0.54019608 0.54019608 0.54019608
0.56078431 0.56078431 0.56078431
0.20490196 0.20490196 0.20490196
0.21029412 0.21029412 0.21029412
0.2185049 0.2185049 0.2185049
0.22696078 0.22696078 0.22696078
0.23333333 0.23333333 0.23333333
0.23921569 0.23921569 0.23921569
0.24607843 0.24607843 0.24607843
0.25245098 0.25245098 0.25245098
0.25882353 0.25882353 0.25882353
0.26519608 0.26519608 0.26519608
0.27156863 0.27156863 0.27156863
0.28186275 0.28186275 0.28186275
0.30735294 0.30735294 0.30735294
0.32334559 0.32334559 0.32334559
0.33137255 0.33137255 0.33137255
0.35196078 0.35196078 0.35196078
0.37647059 0.37647059 0.37647059
0.39705882 0.39705882 0.39705882
0.42156863 0.42156863 0.42156863
0.44215686 0.44215686 0.44215686
0.4627451 0.4627451 0.4627451
0.48382353 0.48382353 0.48382353
0.51176471 0.51176471 0.51176471
0.54019608 0.54019608 0.54019608
0.56078431 0.56078431 0.56078431
0.22156863 0.22156863 0.22156863
0.22156863 0.22156863 0.22156863
0.2252451 0.2252451 0.2252451
0.23186275 0.23186275 0.23186275
0.23627451 0.23627451 0.23627451
0.24056373 0.24056373 0.24056373
0.24779412 0.24779412 0.24779412
0.25698529 0.25698529 0.25698529
0.26372549 0.26372549 0.26372549
0.27009804 0.27009804 0.27009804
0.2754902 0.2754902 0.2754902
0.28026961 0.28026961 0.28026961
0.30294118 0.30294118 0.30294118
0.31911765 0.31911765 0.31911765
0.33235294 0.33235294 0.33235294
0.35588235 0.35588235 0.35588235
0.37745098 0.37745098 0.37745098
0.40159314 0.40159314 0.40159314
0.4254902 0.4254902 0.4254902
0.44607843 0.44607843 0.44607843
0.46764706 0.46764706 0.46764706
0.48872549 0.48872549 0.48872549
0.51568627 0.51568627 0.51568627
0.54227941 0.54227941 0.54227941
0.56470588 0.56470588 0.56470588
0.23480392 0.23480392 0.23480392
0.23823529 0.23823529 0.23823529
0.23823529 0.23823529 0.23823529
0.23872549 0.23872549 0.23872549
0.24289216 0.24289216 0.24289216
0.24705882 0.24705882 0.24705882
0.25392157 0.25392157 0.25392157
0.26372549 0.26372549 0.26372549
0.27058824 0.27058824 0.27058824
0.27794118 0.27794118 0.27794118
0.28664216 0.28664216 0.28664216
0.29699755 0.29699755 0.29699755
0.31715686 0.31715686 0.31715686
0.33333333 0.33333333 0.33333333
0.34362745 0.34362745 0.34362745
0.36323529 0.36323529 0.36323529
0.38431373 0.38431373 0.38431373
0.40833333 0.40833333 0.40833333
0.43026961 0.43026961 0.43026961
0.45343137 0.45343137 0.45343137
0.47426471 0.47426471 0.47426471
0.49901961 0.49901961 0.49901961
0.52340686 0.52340686 0.52340686
0.54901961 0.54901961 0.54901961
0.56862745 0.56862745 0.56862745
0.24509804 0.24509804 0.24509804
0.24509804 0.24509804 0.24509804
0.24509804 0.24509804 0.24509804
0.24509804 0.24509804 0.24509804
0.24705882 0.24705882 0.24705882
0.25147059 0.25147059 0.25147059
0.25980392 0.25980392 0.25980392
0.27009804 0.27009804 0.27009804
0.28039216 0.28039216 0.28039216
0.29068627 0.29068627 0.29068627
0.30147059 0.30147059 0.30147059
0.31495098 0.31495098 0.31495098
0.33137255 0.33137255 0.33137255
0.34362745 0.34362745 0.34362745
0.35539216 0.35539216 0.35539216
0.37352941 0.37352941 0.37352941
0.39411765 0.39411765 0.39411765
0.41470588 0.41470588 0.41470588
0.43921569 0.43921569 0.43921569
0.45980392 0.45980392 0.45980392
0.48431373 0.48431373 0.48431373
0.50882353 0.50882353 0.50882353
0.53333333 0.53333333 0.53333333
0.55784314 0.55784314 0.55784314
0.5745098 0.5745098 0.5745098
0.25098039 0.25098039 0.25098039
0.25128676 0.25128676 0.25128676
0.25232843 0.25232843 0.25232843
0.25490196 0.25490196 0.25490196
0.25147059 0.25147059 0.25147059
0.25539216 0.25539216 0.25539216
0.26605392 0.26605392 0.26605392
0.27794118 0.27794118 0.27794118
0.29068627 0.29068627 0.29068627
0.3036152 0.3036152 0.3036152
0.31568627 0.31568627 0.31568627
0.32941176 0.32941176 0.32941176
0.34191176 0.34191176 0.34191176
0.35392157 0.35392157 0.35392157
0.36727941 0.36727941 0.36727941
0.37990196 0.37990196 0.37990196
0.4004902 0.4004902 0.4004902
0.4245098 0.4245098 0.4245098
0.44558824 0.44558824 0.44558824
0.47003676 0.47003676 0.47003676
0.49264706 0.49264706 0.49264706
0.51868873 0.51868873 0.51868873
0.54227941 0.54227941 0.54227941
0.56421569 0.56421569 0.56421569
0.58039216 0.58039216 0.58039216
0.25980392 0.25980392 0.25980392
0.26323529 0.26323529 0.26323529
0.26470588 0.26470588 0.26470588
0.26470588 0.26470588 0.26470588
0.26176471 0.26176471 0.26176471
0.25968137 0.25968137 0.25968137
0.2747549 0.2747549 0.2747549
0.29007353 0.29007353 0.29007353
0.30392157 0.30392157 0.30392157
0.31813725 0.31813725 0.31813725
0.33014706 0.33014706 0.33014706
0.34264706 0.34264706 0.34264706
0.35392157 0.35392157 0.35392157
0.36421569 0.36421569 0.36421569
0.37843137 0.37843137 0.37843137
0.39019608 0.39019608 0.39019608
0.41078431 0.41078431 0.41078431
0.43137255 0.43137255 0.43137255
0.45588235 0.45588235 0.45588235
0.47732843 0.47732843 0.47732843
0.50098039 0.50098039 0.50098039
0.5254902 0.5254902 0.5254902
0.55 0.55 0.55
0.57058824 0.57058824 0.57058824
0.5872549 0.5872549 0.5872549
0.29068627 0.29068627 0.29068627
0.28976716 0.28976716 0.28976716
0.28921569 0.28921569 0.28921569
0.28707108 0.28707108 0.28707108
0.28406863 0.28406863 0.28406863
0.28314951 0.28314951 0.28314951
0.29215686 0.29215686 0.29215686
0.30545343 0.30545343 0.30545343
0.31911765 0.31911765 0.31911765
0.33241422 0.33241422 0.33241422
0.3439951 0.3439951 0.3439951
0.35539216 0.35539216 0.35539216
0.36568627 0.36568627 0.36568627
0.37843137 0.37843137 0.37843137
0.38872549 0.38872549 0.38872549
0.4004902 0.4004902 0.4004902
0.41960784 0.41960784 0.41960784
0.44166667 0.44166667 0.44166667
0.4622549 0.4622549 0.4622549
0.48676471 0.48676471 0.48676471
0.51053922 0.51053922 0.51053922
0.53449755 0.53449755 0.53449755
0.55821078 0.55821078 0.55821078
0.58088235 0.58088235 0.58088235
0.59754902 0.59754902 0.59754902
0.31764706 0.31764706 0.31764706
0.31764706 0.31764706 0.31764706
0.31764706 0.31764706 0.31764706
0.31372549 0.31372549 0.31372549
0.30980392 0.30980392 0.30980392
0.30980392 0.30980392 0.30980392
0.3127451 0.3127451 0.3127451
0.32303922 0.32303922 0.32303922
0.3372549 0.3372549 0.3372549
0.34754902 0.34754902 0.34754902
0.35784314 0.35784314 0.35784314
0.36813725 0.36813725 0.36813725
0.37843137 0.37843137 0.37843137
0.38872549 0.38872549 0.38872549
0.40196078 0.40196078 0.40196078
0.41323529 0.41323529 0.41323529
0.42745098 0.42745098 0.42745098
0.44803922 0.44803922 0.44803922
0.47254902 0.47254902 0.47254902
0.49313725 0.49313725 0.49313725
0.51764706 0.51764706 0.51764706
0.54215686 0.54215686 0.54215686
0.56666667 0.56666667 0.56666667
0.59117647 0.59117647 0.59117647
0.60784314 0.60784314 0.60784314
0.34607843 0.34607843 0.34607843
0.34699755 0.34699755 0.34699755
0.34460784 0.34460784 0.34460784
0.3408701 0.3408701 0.3408701
0.33823529 0.33823529 0.33823529
0.33676471 0.33676471 0.33676471
0.33431373 0.33431373 0.33431373
0.34362745 0.34362745 0.34362745
0.35392157 0.35392157 0.35392157
0.36421569 0.36421569 0.36421569
0.37389706 0.37389706 0.37389706
0.38235294 0.38235294 0.38235294
0.39264706 0.39264706 0.39264706
0.40294118 0.40294118 0.40294118
0.41323529 0.41323529 0.41323529
0.42653186 0.42653186 0.42653186
0.44166667 0.44166667 0.44166667
0.45833333 0.45833333 0.45833333
0.47990196 0.47990196 0.47990196
0.50343137 0.50343137 0.50343137
0.52794118 0.52794118 0.52794118
0.55245098 0.55245098 0.55245098
0.57598039 0.57598039 0.57598039
0.59754902 0.59754902 0.59754902
0.61568627 0.61568627 0.61568627
0.3745098 0.3745098 0.3745098
0.3754902 0.3754902 0.3754902
0.37156863 0.37156863 0.37156863
0.36801471 0.36801471 0.36801471
0.36519608 0.36519608 0.36519608
0.3627451 0.3627451 0.3627451
0.35980392 0.35980392 0.35980392
0.36029412 0.36029412 0.36029412
0.37058824 0.37058824 0.37058824
0.37990196 0.37990196 0.37990196
0.3872549 0.3872549 0.3872549
0.39669118 0.39669118 0.39669118
0.40686275 0.40686275 0.40686275
0.41715686 0.41715686 0.41715686
0.42843137 0.42843137 0.42843137
0.44203431 0.44203431 0.44203431
0.45588235 0.45588235 0.45588235
0.47254902 0.47254902 0.47254902
0.49313725 0.49313725 0.49313725
0.51458333 0.51458333 0.51458333
0.53823529 0.53823529 0.53823529
0.5627451 0.5627451 0.5627451
0.58333333 0.58333333 0.58333333
0.60784314 0.60784314 0.60784314
0.6245098 0.6245098 0.6245098
0.40245098 0.40245098 0.40245098
0.40245098 0.40245098 0.40245098
0.39852941 0.39852941 0.39852941
0.39552696 0.39552696 0.39552696
0.39289216 0.39289216 0.39289216
0.39025735 0.39025735 0.39025735
0.38676471 0.38676471 0.38676471
0.38333333 0.38333333 0.38333333
0.3872549 0.3872549 0.3872549
0.39540441 0.39540441 0.39540441
0.40392157 0.40392157 0.40392157
0.41078431 0.41078431 0.41078431
0.42107843 0.42107843 0.42107843
0.43137255 0.43137255 0.43137255
0.44509804 0.44509804 0.44509804
0.45931373 0.45931373 0.45931373
0.47352941 0.47352941 0.47352941
0.48676471 0.48676471 0.48676471
0.50686275 0.50686275 0.50686275
0.52794118 0.52794118 0.52794118
0.5502451 0.5502451 0.5502451
0.57303922 0.57303922 0.57303922
0.59362745 0.59362745 0.59362745
0.61421569 0.61421569 0.61421569
0.63088235 0.63088235 0.63088235
0.42941176 0.42941176 0.42941176
0.42818627 0.42818627 0.42818627
0.4254902 0.4254902 0.4254902
0.42352941 0.42352941 0.42352941
0.42058824 0.42058824 0.42058824
0.41740196 0.41740196 0.41740196
0.41372549 0.41372549 0.41372549
0.41372549 0.41372549 0.41372549
0.41372549 0.41372549 0.41372549
0.41764706 0.41764706 0.41764706
0.42205882 0.42205882 0.42205882
0.42745098 0.42745098 0.42745098
0.4372549 0.4372549 0.4372549
0.4497549 0.4497549 0.4497549
0.46176471 0.46176471 0.46176471
0.47598039 0.47598039 0.47598039
0.49019608 0.49019608 0.49019608
0.50367647 0.50367647 0.50367647
0.52156863 0.52156863 0.52156863
0.54215686 0.54215686 0.54215686
0.5627451 0.5627451 0.5627451
0.58333333 0.58333333 0.58333333
0.60392157 0.60392157 0.60392157
0.6245098 0.6245098 0.6245098
0.64117647 0.64117647 0.64117647
0.45588235 0.45588235 0.45588235
0.45373775 0.45373775 0.45373775
0.45232843 0.45232843 0.45232843
0.44895833 0.44895833 0.44895833
0.44852941 0.44852941 0.44852941
0.44761029 0.44761029 0.44761029
0.44460784 0.44460784 0.44460784
0.44460784 0.44460784 0.44460784
0.44460784 0.44460784 0.44460784
0.44675245 0.44675245 0.44675245
0.44803922 0.44803922 0.44803922
0.44852941 0.44852941 0.44852941
0.45784314 0.45784314 0.45784314
0.46813725 0.46813725 0.46813725
0.4810049 0.4810049 0.4810049
0.49264706 0.49264706 0.49264706
0.50686275 0.50686275 0.50686275
0.52107843 0.52107843 0.52107843
0.53627451 0.53627451 0.53627451
0.55637255 0.55637255 0.55637255
0.57696078 0.57696078 0.57696078
0.59411765 0.59411765 0.59411765
0.61470588 0.61470588 0.61470588
0.63743873 0.63743873 0.63743873
0.65539216 0.65539216 0.65539216
0.48039216 0.48039216 0.48039216
0.47941176 0.47941176 0.47941176
0.47647059 0.47647059 0.47647059
0.47561275 0.47561275 0.47561275
0.4754902 0.4754902 0.4754902
0.47843137 0.47843137 0.47843137
0.47843137 0.47843137 0.47843137
0.4754902 0.4754902 0.4754902
0.4754902 0.4754902 0.4754902
0.4754902 0.4754902 0.4754902
0.4754902 0.4754902 0.4754902
0.4754902 0.4754902 0.4754902
0.47843137 0.47843137 0.47843137
0.48872549 0.48872549 0.48872549
0.49901961 0.49901961 0.49901961
0.51323529 0.51323529 0.51323529
0.52745098 0.52745098 0.52745098
0.54166667 0.54166667 0.54166667
0.55588235 0.55588235 0.55588235
0.57095588 0.57095588 0.57095588
0.59019608 0.59019608 0.59019608
0.60784314 0.60784314 0.60784314
0.63063725 0.63063725 0.63063725
0.65196078 0.65196078 0.65196078
0.66862745 0.66862745 0.66862745
0.51029412 0.51029412 0.51029412
0.50637255 0.50637255 0.50637255
0.50392157 0.50392157 0.50392157
0.50637255 0.50637255 0.50637255
0.50906863 0.50906863 0.50906863
0.51029412 0.51029412 0.51029412
0.51029412 0.51029412 0.51029412
0.51029412 0.51029412 0.51029412
0.50784314 0.50784314 0.50784314
0.50637255 0.50637255 0.50637255
0.50637255 0.50637255 0.50637255
0.50637255 0.50637255 0.50637255
0.50637255 0.50637255 0.50637255
0.51078431 0.51078431 0.51078431
0.52291667 0.52291667 0.52291667
0.53529412 0.53529412 0.53529412
0.5495098 0.5495098 0.5495098
0.56470588 0.56470588 0.56470588
0.57683824 0.57683824 0.57683824
0.59068627 0.59068627 0.59068627
0.60416667 0.60416667 0.60416667
0.62352941 0.62352941 0.62352941
0.64411765 0.64411765 0.64411765
0.66715686 0.66715686 0.66715686
0.68382353 0.68382353 0.68382353
0.54117647 0.54117647 0.54117647
0.54117647 0.54117647 0.54117647
0.5372549 0.5372549 0.5372549
0.54117647 0.54117647 0.54117647
0.54117647 0.54117647 0.54117647
0.54117647 0.54117647 0.54117647
0.54117647 0.54117647 0.54117647
0.54117647 0.54117647 0.54117647
0.54117647 0.54117647 0.54117647
0.53872549 0.53872549 0.53872549
0.5372549 0.5372549 0.5372549
0.5372549 0.5372549 0.5372549
0.5372549 0.5372549 0.5372549
0.5377451 0.5377451 0.5377451
0.54803922 0.54803922 0.54803922
0.55980392 0.55980392 0.55980392
0.57254902 0.57254902 0.57254902
0.58921569 0.58921569 0.58921569
0.60098039 0.60098039 0.60098039
0.61127451 0.61127451 0.61127451
0.62156863 0.62156863 0.62156863
0.64019608 0.64019608 0.64019608
0.66078431 0.66078431 0.66078431
0.68137255 0.68137255 0.68137255
0.69803922 0.69803922 0.69803922
0.57598039 0.57598039 0.57598039
0.57598039 0.57598039 0.57598039
0.57205882 0.57205882 0.57205882
0.57205882 0.57205882 0.57205882
0.5745098 0.5745098 0.5745098
0.57579657 0.57579657 0.57579657
0.5745098 0.5745098 0.5745098
0.57205882 0.57205882 0.57205882
0.57205882 0.57205882 0.57205882
0.57205882 0.57205882 0.57205882
0.56813725 0.56813725 0.56813725
0.56813725 0.56813725 0.56813725
0.56813725 0.56813725 0.56813725
0.57205882 0.57205882 0.57205882
0.57598039 0.57598039 0.57598039
0.58584559 0.58584559 0.58584559
0.5995098 0.5995098 0.5995098
0.61372549 0.61372549 0.61372549
0.62401961 0.62401961 0.62401961
0.63186275 0.63186275 0.63186275
0.64215686 0.64215686 0.64215686
0.65686275 0.65686275 0.65686275
0.67745098 0.67745098 0.67745098
0.6971201 0.6971201 0.6971201
0.70833333 0.70833333 0.70833333
0.61078431 0.61078431 0.61078431
0.60723039 0.60723039 0.60723039
0.60686275 0.60686275 0.60686275
0.60686275 0.60686275 0.60686275
0.60686275 0.60686275 0.60686275
0.60686275 0.60686275 0.60686275
0.60686275 0.60686275 0.60686275
0.60686275 0.60686275 0.60686275
0.60392157 0.60392157 0.60392157
0.60294118 0.60294118 0.60294118
0.60220588 0.60220588 0.60220588
0.59901961 0.59901961 0.59901961
0.6 0.6 0.6
0.60306373 0.60306373 0.60306373
0.60759804 0.60759804 0.60759804
0.61617647 0.61617647 0.61617647
0.62647059 0.62647059 0.62647059
0.63860294 0.63860294 0.63860294
0.64705882 0.64705882 0.64705882
0.65379902 0.65379902 0.65379902
0.6627451 0.6627451 0.6627451
0.67696078 0.67696078 0.67696078
0.69411765 0.69411765 0.69411765
0.71262255 0.71262255 0.71262255
0.72254902 0.72254902 0.72254902
0.64166667 0.64166667 0.64166667
0.64166667 0.64166667 0.64166667
0.6377451 0.6377451 0.6377451
0.6377451 0.6377451 0.6377451
0.6377451 0.6377451 0.6377451
0.6377451 0.6377451 0.6377451
0.6377451 0.6377451 0.6377451
0.6377451 0.6377451 0.6377451
0.6377451 0.6377451 0.6377451
0.63382353 0.63382353 0.63382353
0.63382353 0.63382353 0.63382353
0.63382353 0.63382353 0.63382353
0.63382353 0.63382353 0.63382353
0.63431373 0.63431373 0.63431373
0.64068627 0.64068627 0.64068627
0.64577206 0.64577206 0.64577206
0.65343137 0.65343137 0.65343137
0.66372549 0.66372549 0.66372549
0.67316176 0.67316176 0.67316176
0.67738971 0.67738971 0.67738971
0.68333333 0.68333333 0.68333333
0.69754902 0.69754902 0.69754902
0.71213235 0.71213235 0.71213235
0.72990196 0.72990196 0.72990196
0.73627451 0.73627451 0.73627451
0.67647059 0.67647059 0.67647059
0.67254902 0.67254902 0.67254902
0.67009804 0.67009804 0.67009804
0.66862745 0.66862745 0.66862745
0.66862745 0.66862745 0.66862745
0.66862745 0.66862745 0.66862745
0.66862745 0.66862745 0.66862745
0.66862745 0.66862745 0.66862745
0.66862745 0.66862745 0.66862745
0.66544118 0.66544118 0.66544118
0.66470588 0.66470588 0.66470588
0.66470588 0.66470588 0.66470588
0.66568627 0.66568627 0.66568627
0.66862745 0.66862745 0.66862745
0.67156863 0.67156863 0.67156863
0.67647059 0.67647059 0.67647059
0.68039216 0.68039216 0.68039216
0.69068627 0.69068627 0.69068627
0.69852941 0.69852941 0.69852941
0.70367647 0.70367647 0.70367647
0.70784314 0.70784314 0.70784314
0.71813725 0.71813725 0.71813725
0.73186275 0.73186275 0.73186275
0.74583333 0.74583333 0.74583333
0.74901961 0.74901961 0.74901961
0.70735294 0.70735294 0.70735294
0.70490196 0.70490196 0.70490196
0.70343137 0.70343137 0.70343137
0.6995098 0.6995098 0.6995098
0.6995098 0.6995098 0.6995098
0.6995098 0.6995098 0.6995098
0.6995098 0.6995098 0.6995098
0.6995098 0.6995098 0.6995098
0.6995098 0.6995098 0.6995098
0.696875 0.696875 0.696875
0.69558824 0.69558824 0.69558824
0.69558824 0.69558824 0.69558824
0.6995098 0.6995098 0.6995098
0.6995098 0.6995098 0.6995098
0.70343137 0.70343137 0.70343137
0.70490196 0.70490196 0.70490196
0.71127451 0.71127451 0.71127451
0.71764706 0.71764706 0.71764706
0.72389706 0.72389706 0.72389706
0.72647059 0.72647059 0.72647059
0.72843137 0.72843137 0.72843137
0.73872549 0.73872549 0.73872549
0.75294118 0.75294118 0.75294118
0.76305147 0.76305147 0.76305147
0.76519608 0.76519608 0.76519608
0.73823529 0.73823529 0.73823529
0.73468137 0.73468137 0.73468137
0.73431373 0.73431373 0.73431373
0.73088235 0.73088235 0.73088235
0.73039216 0.73039216 0.73039216
0.73039216 0.73039216 0.73039216
0.73039216 0.73039216 0.73039216
0.73039216 0.73039216 0.73039216
0.73039216 0.73039216 0.73039216
0.72647059 0.72647059 0.72647059
0.72647059 0.72647059 0.72647059
0.72647059 0.72647059 0.72647059
0.73039216 0.73039216 0.73039216
0.73039216 0.73039216 0.73039216
0.73357843 0.73357843 0.73357843
0.73468137 0.73468137 0.73468137
0.73823529 0.73823529 0.73823529
0.74460784 0.74460784 0.74460784
0.7502451 0.7502451 0.7502451
0.75098039 0.75098039 0.75098039
0.75196078 0.75196078 0.75196078
0.76323529 0.76323529 0.76323529
0.77352941 0.77352941 0.77352941
0.77941176 0.77941176 0.77941176
0.78235294 0.78235294 0.78235294
0.76372549 0.76372549 0.76372549
0.76035539 0.76035539 0.76035539
0.75980392 0.75980392 0.75980392
0.75980392 0.75980392 0.75980392
0.75735294 0.75735294 0.75735294
0.75735294 0.75735294 0.75735294
0.75735294 0.75735294 0.75735294
0.7588848 0.7588848 0.7588848
0.75588235 0.75588235 0.75588235
0.75588235 0.75588235 0.75588235
0.75588235 0.75588235 0.75588235
0.75588235 0.75588235 0.75588235
0.75588235 0.75588235 0.75588235
0.75765931 0.75765931 0.75765931
0.76090686 0.76090686 0.76090686
0.76427696 0.76427696 0.76427696
0.76911765 0.76911765 0.76911765
0.77248775 0.77248775 0.77248775
0.77487745 0.77487745 0.77487745
0.77156863 0.77156863 0.77156863
0.77352941 0.77352941 0.77352941
0.78382353 0.78382353 0.78382353
0.79411765 0.79411765 0.79411765
0.79754902 0.79754902 0.79754902
0.79754902 0.79754902 0.79754902
0.78039216 0.78039216 0.78039216
0.78039216 0.78039216 0.78039216
0.77647059 0.77647059 0.77647059
0.77647059 0.77647059 0.77647059
0.77647059 0.77647059 0.77647059
0.77647059 0.77647059 0.77647059
0.77647059 0.77647059 0.77647059
0.77647059 0.77647059 0.77647059
0.77647059 0.77647059 0.77647059
0.77254902 0.77254902 0.77254902
0.77254902 0.77254902 0.77254902
0.77254902 0.77254902 0.77254902
0.7745098 0.7745098 0.7745098
0.77647059 0.77647059 0.77647059
0.78039216 0.78039216 0.78039216
0.78431373 0.78431373 0.78431373
0.79215686 0.79215686 0.79215686
0.79852941 0.79852941 0.79852941
0.79215686 0.79215686 0.79215686
0.78823529 0.78823529 0.78823529
0.79019608 0.79019608 0.79019608
0.80098039 0.80098039 0.80098039
0.81176471 0.81176471 0.81176471
0.81029412 0.81029412 0.81029412
0.80784314 0.80784314 0.80784314
0.21421569 0.21421569 0.21421569
0.21421569 0.21421569 0.21421569
0.22022059 0.22022059 0.22022059
0.22696078 0.22696078 0.22696078
0.23137255 0.23137255 0.23137255
0.23707108 0.23707108 0.23707108
0.24313725 0.24313725 0.24313725
0.25245098 0.25245098 0.25245098
0.25882353 0.25882353 0.25882353
0.26819853 0.26819853 0.26819853
0.27610294 0.27610294 0.27610294
0.29166667 0.29166667 0.29166667
0.31495098 0.31495098 0.31495098
0.328125 0.328125 0.328125
0.3377451 0.3377451 0.3377451
0.35588235 0.35588235 0.35588235
0.37647059 0.37647059 0.37647059
0.40042892 0.40042892 0.40042892
0.42156863 0.42156863 0.42156863
0.44215686 0.44215686 0.44215686
0.4627451 0.4627451 0.4627451
0.48382353 0.48382353 0.48382353
0.51176471 0.51176471 0.51176471
0.53866422 0.53866422 0.53866422
0.56078431 0.56078431 0.56078431
0.21421569 0.21421569 0.21421569
0.21666667 0.21666667 0.21666667
0.22159926 0.22159926 0.22159926
0.22715227 0.22715227 0.22715227
0.23259804 0.23259804 0.23259804
0.23921569 0.23921569 0.23921569
0.24382659 0.24382659 0.24382659
0.25245098 0.25245098 0.25245098
0.26035539 0.26035539 0.26035539
0.26819853 0.26819853 0.26819853
0.27702206 0.27702206 0.27702206
0.28823529 0.28823529 0.28823529
0.31326593 0.31326593 0.31326593
0.3258655 0.3258655 0.3258655
0.3377451 0.3377451 0.3377451
0.35588235 0.35588235 0.35588235
0.37892157 0.37892157 0.37892157
0.40077359 0.40077359 0.40077359
0.42156863 0.42156863 0.42156863
0.44215686 0.44215686 0.44215686
0.4627451 0.4627451 0.4627451
0.48382353 0.48382353 0.48382353
0.51176471 0.51176471 0.51176471
0.54019608 0.54019608 0.54019608
0.56078431 0.56078431 0.56078431
0.22732843 0.22732843 0.22732843
0.22732843 0.22732843 0.22732843
0.22950368 0.22950368 0.22950368
0.23230699 0.23230699 0.23230699
0.23627451 0.23627451 0.23627451
0.24056373 0.24056373 0.24056373
0.24733456 0.24733456 0.24733456
0.25698529 0.25698529 0.25698529
0.26372549 0.26372549 0.26372549
0.27296262 0.27296262 0.27296262
0.27974877 0.27974877 0.27974877
0.29287684 0.29287684 0.29287684
0.31323529 0.31323529 0.31323529
0.3254902 0.3254902 0.3254902
