site/assets/luts/sha256-2b7ae58501aa6bf48a019ac58f69f228d2b33ecafefcc2548ef07a085e769064.cube
# LUTr-Schema-Version: 2
# LUTr-ID: sha256-2b7ae58501aa6bf48a019ac58f69f228d2b33ecafefcc2548ef07a085e769064
# LUTr-Title: cividis lut
# LUTr-Collection: Colour-Blind LUTs
# LUTr-Collection-ID: andrewwillmott-colour-blind-luts
# LUTr-Source: https://github.com/andrewwillmott/colour-blind-luts
# LUTr-Retrieved: 2026-07-27
# LUTr-Source-File: submissions/andrewwillmott-colour-blind-luts/luts/cividis_lut.png
# LUTr-Source-Format: HALD-PNG
# LUTr-Source-SHA256: 2b7ae58501aa6bf48a019ac58f69f228d2b33ecafefcc2548ef07a085e769064
# LUTr-License: Unlicense
# LUTr-License-URL: https://github.com/andrewwillmott/colour-blind-luts/blob/master/LICENSE
# LUTr-License-Basis: repo-license-file
# LUTr-Transform-Class: accessibility
# LUTr-Tags: technical, accessibility, color-vision, simulation, correction, png, cube
# LUTr-Input-Color-Space: srgb
# LUTr-Input-Gamut: rec709
# LUTr-Input-Transfer: srgb
# LUTr-Output-Color-Space: srgb
# LUTr-Output-Gamut: rec709
# LUTr-Output-Transfer: srgb
# LUTr-Color-Space-Confidence: assumed-display-referred
# LUTr-Domain-Normalized: true
# LUTr-Shaper: none
# LUTr-Original-Grid: 256
# LUTr-Conversion-Grid: 32x32x32
# LUTr-Conversion-Interpolation: linear
# LUTr-Conversion-Method: HALD-PNG LUT image decoded at 16-bit and sampled to 32x32x32 3D CUBE
# LUTr-Conversion-Tool: LUTr scripts/convert-all-to-cube.mjs 2.0.0
# LUTr-Conversion-Date: 2026-07-27
# LUTr-Conversion-Warning: Source is a 256-sample false-colour ramp; converted as Rec.709 luminance to RGB.
# LUTr-Note: Preserve this metadata and the upstream license notices when redistributing.
TITLE "cividis lut"
LUT_3D_SIZE 8
DOMAIN_MIN 0.000000 0.000000 0.000000
DOMAIN_MAX 0.903226 0.903226 0.903226
0.000091554131 0.12498665 0.29698634
0.00010644891 0.14443866 0.34376336
0.000091117034 0.16401215 0.39063973
0.00013580136 0.17965929 0.43363532
0.00015055043 0.19910054 0.42980087
0.070016514 0.21866045 0.425908
0.13269492 0.23815686 0.42199958
0.17950493 0.2576864 0.41796191
0.000092542522 0.1856142 0.4337052
0.0021847769 0.20515055 0.42975594
0.096041942 0.22465554 0.42377311
0.15053022 0.24419175 0.42192666
0.19345178 0.26562122 0.41801969
0.22855212 0.28516034 0.41800591
0.25983021 0.30469181 0.41802102
0.28712492 0.32420853 0.41792932
0.16825684 0.2538683 0.41804945
0.20728679 0.27345235 0.41794644
0.2386049 0.29297069 0.41796155
0.2697645 0.31246053 0.41790422
0.29713216 0.33202036 0.41801672
0.32436884 0.35155385 0.42180951
0.35175367 0.37106834 0.42578444
0.3751282 0.39073818 0.42980128
0.27970208 0.31872873 0.41801794
0.3070062 0.33828097 0.42027392
0.33434524 0.3577669 0.42192454
0.36164197 0.37729773 0.42801235
0.38504521 0.3968235 0.43353695
0.40848039 0.41635404 0.43968509
0.43358302 0.43584092 0.44754219
0.45706874 0.45706874 0.45706874
0.37110139 0.38330574 0.42970932
0.3949789 0.40282204 0.43407251
0.418392 0.42581643 0.44182986
0.44186309 0.44537154 0.44962994
0.46521275 0.4652823 0.4609479
0.48868464 0.48483291 0.46876757
0.51598741 0.50433862 0.46868394
0.54327478 0.52779627 0.4687237
0.45177565 0.45184185 0.45570238
0.47518476 0.47134515 0.46480027
0.49860862 0.49225009 0.4687525
0.52595012 0.51428322 0.46872751
0.55328879 0.53383027 0.46869503
0.58055131 0.55721765 0.46866981
0.60789638 0.57672932 0.46486203
0.63515701 0.60017766 0.4583978
0.53582855 0.52032878 0.46867153
0.56321272 0.54375666 0.46871716
0.590479 0.56330384 0.46474967
0.61777371 0.58669535 0.46085847
0.64511341 0.60947318 0.45700692
0.67244167 0.62969075 0.44917463
0.70367096 0.65307719 0.44132649
0.73100653 0.67647324 0.43292307
0.62778583 0.59380626 0.46084748
0.65506446 0.61616497 0.45414183
0.6824164 0.63960853 0.44921266
0.71358504 0.66302752 0.43858211
0.74091675 0.68644017 0.42961401
0.77212065 0.70988198 0.41788767
0.79948273 0.73328448 0.4034804
0.83062754 0.75674925 0.38788409
0.000034314095 0.1303335 0.31403872
0.000058811224 0.1498426 0.35842506
0.00008896502 0.16935958 0.40918424
0.000087320983 0.18495106 0.43371565
0.0015059769 0.2044848 0.42975071
0.094029038 0.22399241 0.42446235
0.14988014 0.24352601 0.42193188
0.19279126 0.26562383 0.41803535
0.000045777066 0.19133288 0.43361563
0.037645484 0.21444783 0.42619925
0.11649345 0.2339757 0.42192721
0.16717929 0.2534474 0.41804331
0.20619019 0.27301956 0.41795139
0.237932 0.29252059 0.41795633
0.26909644 0.31199692 0.41790436
0.29645633 0.33153113 0.41801516
0.18143979 0.25952328 0.41794643
0.21660577 0.27903436 0.41802559
0.25169784 0.29855595 0.4179425
0.27903634 0.31807343 0.41802316
0.30633784 0.33761 0.41960556
0.33369516 0.35710376 0.42192976
0.36097362 0.37662937 0.42734139
0.38439513 0.39616037 0.43354217
0.28900467 0.32416515 0.41794378
0.3163028 0.34374096 0.42192624
0.34361047 0.36333033 0.42578887
0.37093901 0.38278973 0.42970805
0.39431196 0.40233604 0.43358369
0.41771683 0.42561633 0.44135039
0.44119644 0.44515782 0.44918494
0.46454413 0.4646158 0.46094638
0.37697904 0.39258902 0.43165211
0.40430454 0.41213246 0.43749138
0.42769325 0.4316533 0.44534995
0.45110469 0.45117349 0.45503402
0.4745164 0.47068724 0.46480549
0.49793504 0.49223965 0.46875772
0.52528438 0.51362792 0.46873534
0.55260738 0.53316191 0.46868719
0.45721542 0.45721542 0.45721542
0.48056033 0.48054988 0.46869712
0.50785504 0.50016278 0.46874275
0.53514975 0.51966042 0.46866631
0.56254958 0.54308048 0.46871194
0.5898002 0.5626381 0.46474445
0.61709491 0.586027 0.46085325
0.64445028 0.60947579 0.45702259
0.54511839 0.52961095 0.46870924
0.57245658 0.54914544 0.46872067
0.59975129 0.57255602 0.46476113
0.62710703 0.5938167 0.46086315
0.65440394 0.61550184 0.45481018
0.68175327 0.63893234 0.44920482
0.71291147 0.66235133 0.43924002
0.74023795 0.6857692 0.42962968
0.63699864 0.60201716 0.45694979
0.66436064 0.6254747 0.45311368
0.69170008 0.64852086 0.44523057
0.72288493 0.66839631 0.43707137
0.75019668 0.69183219 0.42543722
0.78141579 0.71881512 0.41365675
0.81256056 0.74257819 0.39835427
0.83993946 0.76602686 0.38244237
0.000034388913 0.13669799 0.33016524
0.00008016401 0.1561877 0.37696189
0.000076803087 0.17575736 0.4249076
0.000045777066 0.19133288 0.43361563
0.034977277 0.21376903 0.42687283
0.11514107 0.2332969 0.42192721
0.16585563 0.25277643 0.41803026
0.20486653 0.27234598 0.41796183
0.0001352796 0.20028822 0.42978356
0.073653304 0.2198298 0.42590131
0.13507087 0.23933603 0.42198678
0.1807897 0.25886015 0.41795165
0.21592697 0.278366 0.41801775
0.25101904 0.2978902 0.41793728
0.27837059 0.31741813 0.41802838
0.30566948 0.33693904 0.4189372
0.1946204 0.2656166 0.41799197
0.22972536 0.2851511 0.41801514
0.26103117 0.30466409 0.41803026
0.28832587 0.32418082 0.41793856
0.31564228 0.34374618 0.42192102
0.34293689 0.36331988 0.42579409
0.37027849 0.38279756 0.42970283
0.39364882 0.40234127 0.43357847
0.29830078 0.33201574 0.41798901
0.32555594 0.35156309 0.42184184
0.35292691 0.37106372 0.42575672
0.37631068 0.39192066 0.43098376
0.40364141 0.41145366 0.43750705
0.42702489 0.43099799 0.44535517
0.45043372 0.45050513 0.45436567
0.47384805 0.47002933 0.46481071
0.38619536 0.39799674 0.43352771
0.40966287 0.41753652 0.44086757
0.43357378 0.43700954 0.4487339
0.45706874 0.45706874 0.45706874
0.48043875 0.47999938 0.46816001
0.50718934 0.49948788 0.46873753
0.53448674 0.51957195 0.46867914
0.56187247 0.5424136 0.46870439
0.4664137 0.46646478 0.46095714
0.4898625 0.4859923 0.46875372
0.51718836 0.50552109 0.46869318
0.54445264 0.52895565 0.46871446
0.57177778 0.54847447 0.46873633
0.59907249 0.57188767 0.46475591
0.62642823 0.59382714 0.46087881
0.65374342 0.6148387 0.45547854
0.55449436 0.53501275 0.46870888
0.58171993 0.55841399 0.46867905
0.60907424 0.5778887 0.4648528
0.63632563 0.6013509 0.45721532
0.66369602 0.62481042 0.45311441
0.69102977 0.64821654 0.44523491
0.72222441 0.66805651 0.437424
0.74952818 0.69150567 0.42576444
0.64628665 0.60946856 0.45697921
0.67361953 0.63085013 0.44916539
0.70487191 0.65425966 0.44133573
0.73219825 0.67766958 0.43176369
0.75948861 0.70111908 0.42178863
0.79069426 0.72453807 0.40829443
0.82190693 0.75014192 0.39451139
0.85096739 0.77529084 0.37708575
0.00010487772 0.1449565 0.34479971
0.000089691546 0.16404229 0.39163783
0.00013017225 0.18011611 0.43369729
0.00014572267 0.19961725 0.429794
0.071650844 0.21916928 0.42590653
0.13372893 0.23867028 0.42199722
0.18013962 0.25819701 0.41795687
0.21524817 0.27769765 0.41800992
0.0027069308 0.20566266 0.42975995
0.097590329 0.22516565 0.42324292
0.15103028 0.24470386 0.42192265
0.19395988 0.26561921 0.41800764
0.22906222 0.28515632 0.41800992
0.26035237 0.30467976 0.41802504
0.28764707 0.32419648 0.41793334
0.31498175 0.34375141 0.42191579
0.20780694 0.27344231 0.41795046
0.239113 0.29296467 0.41796557
0.27028264 0.31246455 0.41791828
0.29764026 0.33201835 0.41800467
0.32488497 0.35155787 0.42182357
0.35226377 0.37106633 0.42577239
0.37564232 0.3912523 0.4303154
0.40297827 0.41077486 0.43752271
0.30752032 0.3387971 0.42078804
0.33484531 0.358277 0.42192052
0.36215609 0.37781185 0.42852848
0.38554528 0.39733361 0.43353293
0.40899451 0.41686817 0.44019921
0.433579 0.43634901 0.44806032
0.45706874 0.45706874 0.45706874
0.48044919 0.47931536 0.46749687
0.39549302 0.40333616 0.43458663
0.41891617 0.42581443 0.44235402
0.44237721 0.4453615 0.45014406
0.4657349 0.46579642 0.46095192
0.48919675 0.48533699 0.46876155
0.51650956 0.50485274 0.46868795
0.5437869 0.52830035 0.46871968
0.57109898 0.54780351 0.468752
0.47569888 0.47185124 0.46479625
0.49912676 0.49225812 0.46874849
0.52646224 0.5147873 0.46872148
0.55381295 0.53434439 0.46870105
0.58105941 0.5577378 0.46867383
0.60840849 0.5772334 0.46485802
0.6356651 0.60068777 0.45788368
0.66303289 0.62413423 0.45310919
0.56372282 0.54427681 0.46872118
0.59100115 0.56381596 0.46475369
0.61829586 0.58720947 0.46086249
0.64562351 0.60947117 0.45699487
0.67295379 0.63019483 0.44917061
0.70419311 0.65359131 0.4413305
0.73152467 0.67699339 0.43241899
0.75882809 0.7004429 0.42178341
0.65557256 0.61667508 0.4536277
0.68292651 0.64012867 0.44921868
0.71410318 0.66354766 0.43807602
0.74143891 0.6869563 0.42960196
0.77263477 0.71038806 0.41786558
0.80000087 0.73380463 0.40297431
0.83114367 0.7572694 0.38738002
0.86241571 0.78457088 0.37172575
0.000068852645 0.15035672 0.35944526
0.000099006441 0.16986969 0.41022052
0.000091337552 0.18546116 0.43370761
0.0020281307 0.20499692 0.42975473
0.095577426 0.22450251 0.42393216
0.1503802 0.24403812 0.42192787
0.19329935 0.26562182 0.4180233
0.22839909 0.28516155 0.4180047
0.03969795 0.21483283 0.4258188
0.11752823 0.2343772 0.42192538
0.16810139 0.25386589 0.41805065
0.20713075 0.27345537 0.41794524
0.23845247 0.2929725 0.41796035
0.26960906 0.31245933 0.4179
0.29697974 0.33202096 0.41802034
0.324214 0.35155265 0.42180529
0.21712793 0.27954848 0.41803161
0.25222 0.29906806 0.41794652
0.27954845 0.31857751 0.41801914
0.30685196 0.33812613 0.42011968
0.33419523 0.35761387 0.42192575
0.36148774 0.37714349 0.42785751
0.38489519 0.39667047 0.43353815
0.40832615 0.41619981 0.43953085
0.31682154 0.34413063 0.42191809
0.34412427 0.3636958 0.42578485
0.37110079 0.38314789 0.42970932
0.39482466 0.4026678 0.43391828
0.41823476 0.42581704 0.44167261
0.44170886 0.44537455 0.4494757
0.4650561 0.46512807 0.4609467
0.488531 0.48468169 0.46876938
0.40481465 0.41265461 0.43747933
0.42820737 0.43215738 0.44534593
0.45162081 0.45168761 0.45554814
0.47503052 0.47119333 0.46480147
0.49845318 0.49224768 0.46875371
0.52579649 0.514132 0.46872931
0.55313154 0.53367603 0.46869322
0.58039888 0.55706161 0.46866861
0.48108248 0.48053983 0.46870113
0.50837719 0.5006769 0.46874676
0.5356719 0.52017454 0.46867032
0.56305968 0.54360062 0.46871596
0.59032235 0.56315021 0.46474846
0.61761706 0.58654112 0.46085727
0.64496038 0.60947378 0.45701054
0.67228804 0.62953953 0.44917583
0.57297873 0.54966157 0.46870862
0.60027344 0.57307015 0.46476515
0.62762919 0.59380867 0.4608511
0.65491204 0.61601194 0.45429606
0.68226337 0.63945248 0.44921085
0.7134296 0.66287147 0.43873393
0.74076011 0.68628533 0.42961763
0.77196641 0.70973015 0.4178943
0.66487276 0.62597878 0.45310966
0.69221018 0.64851684 0.44523459
0.72339303 0.66890641 0.43655725
0.75070678 0.6923443 0.42490704
0.78192991 0.71882918 0.41314463
0.81308271 0.74309231 0.39835829
0.84044756 0.76653897 0.38192825
0.8716796 0.79308468 0.36325361
0.000078155726 0.15618167 0.3779821
0.000068769951 0.17575535 0.42543377
0.000045777066 0.19133288 0.43361563
0.037029744 0.21429119 0.42635469
0.11618136 0.23381905 0.42192721
0.16687383 0.25329256 0.4180403
0.20588473 0.27286412 0.4179538
0.23777535 0.29236636 0.41795513
0.075193658 0.2203379 0.42589729
0.13610312 0.23984814 0.42197875
0.18128977 0.25937025 0.41794763
0.21644913 0.27888013 0.41802378
0.2515412 0.29840231 0.41794129
0.2788827 0.31792221 0.41802437
0.3061836 0.33745517 0.41945132
0.33354514 0.35695073 0.42193097
0.23023546 0.28514709 0.41801916
0.26155332 0.30465204 0.41803427
0.28884803 0.32416877 0.41794257
0.31615037 0.34374217 0.42192503
0.34345503 0.36332792 0.42579007
0.37078658 0.38279153 0.42970684
0.39415893 0.40233725 0.43358249
0.4175644 0.42546028 0.44134918
0.32607207 0.35156711 0.4218559
0.35343701 0.37106172 0.42574468
0.3768248 0.39243478 0.43149788
0.40415151 0.41197581 0.437495
0.42753901 0.43150207 0.44535115
0.45094985 0.45101925 0.45487979
0.47436217 0.47053541 0.4648067
0.4977796 0.49223724 0.46875893
0.41017699 0.41805018 0.44135172
0.43358111 0.43751772 0.44924095
0.45706874 0.45706874 0.45706874
0.48043071 0.48052555 0.46867011
0.50769944 0.50000802 0.46874154
0.53499484 0.51956994 0.46866709
0.56239462 0.54292572 0.46871041
0.58964631 0.5624821 0.46474639
0.49037461 0.48649638 0.46874769
0.51771052 0.50603521 0.46869719
0.54496475 0.52945973 0.46871045
0.57229993 0.5489906 0.46872428
0.59959464 0.57240179 0.46475993
0.62695039 0.59381911 0.46086676
0.65425151 0.61534881 0.45496442
0.68160024 0.63877629 0.44920302
0.58223355 0.55864474 0.46840251
0.60958532 0.5784031 0.46484465
0.6368414 0.60186292 0.45694859
0.66420701 0.62532348 0.45311488
0.69154705 0.64852206 0.44522937
0.7227325 0.66824328 0.4372256
0.75004365 0.69167856 0.42559628
0.78126155 0.71881091 0.41381038
0.67413165 0.63135421 0.44916137
0.70539406 0.65477379 0.44133974
0.73271638 0.67818972 0.43125961
0.75999671 0.70163923 0.42179264
0.7912124 0.72505822 0.40778835
0.82241502 0.75013991 0.39449935
0.85199362 0.77580898 0.37656762
0.88317635 0.79927382 0.35710064
0.000087683262 0.16403426 0.39267411
0.00012213912 0.18062822 0.43370331
0.00013768954 0.20013338 0.42978597
0.073191198 0.21967738 0.42590251
0.13476119 0.23918239 0.42198919
0.18063969 0.25870712 0.41795286
0.21577033 0.27821177 0.41801595
0.2508624 0.29773657 0.41793607
0.099138716 0.22567575 0.42271273
0.15153035 0.24521598 0.42191863
0.19446797 0.2656172 0.41799559
0.22957233 0.28515231 0.41801394
0.26087452 0.30466771 0.41802905
0.28816923 0.32418443 0.41793735
0.31548985 0.34374739 0.42191981
0.34278145 0.36331747 0.4257953
0.23962109 0.29295864 0.41796959
0.27080077 0.31246856 0.41793234
0.29814836 0.33201634 0.41799262
0.3254011 0.35156189 0.42183763
0.35277388 0.37106433 0.42576034
0.37615645 0.39176642 0.43082952
0.40348838 0.41129701 0.43751066
0.42687065 0.43084677 0.44535637
0.33534537 0.35878711 0.42191651
0.36267021 0.37832597 0.42904461
0.38604534 0.39784371 0.43352891
0.40950863 0.41738229 0.44071333
0.43357498 0.43685711 0.44857846
0.45706874 0.45706874 0.45706874
0.48044116 0.47984153 0.46800698
0.50703631 0.49933183 0.46873632
0.41944033 0.42581242 0.44287819
0.44289133 0.44535146 0.45065818
0.46625706 0.46631054 0.46095594
0.48970886 0.48584107 0.46875552
0.51703172 0.50536686 0.46869197
0.54429901 0.52880443 0.46871567
0.57162113 0.54831963 0.46873995
0.59891584 0.57173343 0.46475471
0.49964489 0.49226615 0.46874447
0.52697435 0.51529138 0.46871546
0.55433712 0.53485851 0.46870708
0.58156751 0.55825794 0.46867785
0.6089206 0.57773748 0.464854
0.6361732 0.60119787 0.45736956
0.66354299 0.62465438 0.45311321
0.69087313 0.6480617 0.44523853
0.59152331 0.56432807 0.4647577
0.61881802 0.5877236 0.46086651
0.64613362 0.60946916 0.45698282
0.6734659 0.63069891 0.44916659
0.70471526 0.65410543 0.44133452
0.73204281 0.67751353 0.43191491
0.75933618 0.70096304 0.42178742
0.79053882 0.72438203 0.40844626
0.68343661 0.64064882 0.44922471
0.71462132 0.66406781 0.43756993
0.74196106 0.68747243 0.42958991
0.77314889 0.71089415 0.41784349
0.800519 0.73432478 0.40246822
0.83165979 0.75778954 0.38687594
0.86293585 0.78507496 0.37121163
0.89413775 0.80853383 0.35174127
0.00010904786 0.17037979 0.41125679
0.00009535412 0.18597127 0.43369958
0.0025502846 0.20550903 0.42975875
0.097125813 0.22501262 0.42340198
0.15088027 0.24455023 0.42192385
0.19380745 0.26561982 0.41801125
0.22890919 0.28515753 0.41800872
0.26019572 0.30468337 0.41802383
0.11854442 0.23437118 0.42191735
0.16861953 0.25387392 0.41804663
0.2076509 0.27344532 0.41794925
0.23896057 0.29296647 0.41796437
0.2701272 0.31246334 0.41791406
0.29748783 0.33201895 0.41800829
0.32473013 0.35155667 0.42181935
0.35211074 0.37106694 0.425776
0.25274215 0.29958017 0.41795053
0.28006056 0.31908159 0.41801513
0.30736608 0.33864226 0.4206338
0.33469529 0.35812397 0.42192173
0.36200186 0.37765761 0.42837364
0.38539526 0.39718058 0.43353414
0.40884027 0.41671393 0.44004497
0.4335802 0.43619659 0.44790488
0.34463638 0.36419988 0.42578084
0.3711028 0.38367406 0.42970932
0.39533878 0.40318192 0.4344324
0.41875892 0.42581503 0.44219678
0.44222298 0.44536451 0.44998982
0.46557826 0.46564219 0.46095072
0.48904312 0.48518577 0.46876336
0.51635292 0.5046985 0.46868675
0.42872149 0.43266146 0.44534191
0.45213694 0.45220173 0.45606226
0.47554465 0.47169941 0.46479746
0.49897132 0.49225571 0.46874969
0.5263086 0.51463608 0.46872329
0.5536557 0.53419015 0.46869924
0.58090698 0.55758175 0.46867262
0.60825486 0.57708217 0.46485922
0.50889935 0.50119102 0.46875078
0.53619406 0.52068866 0.46867434
0.56356979 0.54412077 0.46871997
0.59084451 0.56366232 0.46475248
0.61813922 0.58705524 0.46086128
0.64547048 0.60947177 0.45699849
0.67280015 0.63004361 0.44917181
0.70403646 0.65343707 0.4413293
0.6007956 0.57358427 0.46476916
0.62815134 0.59380064 0.46083905
0.65542013 0.61652205 0.45378194
0.68277348 0.63997263 0.44921687
0.71394774 0.66339162 0.43822785
0.74128226 0.68680146 0.42960558
0.77248053 0.71023624 0.41787221
0.79984543 0.73364859 0.40312613
0.69272029 0.64851283 0.44523861
0.72390112 0.66941652 0.43604312
0.75121689 0.69285642 0.42437685
0.78244403 0.71884324 0.41263252
0.81360487 0.74360643 0.39836231
0.84095565 0.76705109 0.38141413
0.8721877 0.79308267 0.36324156
0.90338923 0.81783681 0.34240359
