site/assets/luts/sha256-7c35fe7ce6efe4380844499d4ccc5d6c5ec650e6d4885e4451020f8bf162082f.cube
# LUTr-Schema-Version: 2
# LUTr-ID: sha256-7c35fe7ce6efe4380844499d4ccc5d6c5ec650e6d4885e4451020f8bf162082f
# LUTr-Title: goldfx bright spring breeze
# LUTr-Collection: Natron HaldCLUT
# LUTr-Collection-ID: natron-haldclut-presets
# LUTr-Source: https://github.com/NatronGitHub/clut
# LUTr-Retrieved: 2026-07-27
# LUTr-Source-File: submissions/natron-haldclut-presets/picturefx/goldfx_bright_spring_breeze.png
# LUTr-Source-Format: HALD-PNG
# LUTr-Source-SHA256: 7c35fe7ce6efe4380844499d4ccc5d6c5ec650e6d4885e4451020f8bf162082f
# LUTr-License: CC-BY-SA-4.0
# LUTr-License-URL: https://github.com/NatronGitHub/clut#license
# LUTr-License-Basis: repo-license-file
# LUTr-Transform-Class: film-emulation
# LUTr-Tags: creative, film, film-emulation, hald-clut, natron, png, cube
# LUTr-Input-Color-Space: srgb
# LUTr-Input-Gamut: rec709
# LUTr-Input-Transfer: srgb
# LUTr-Output-Color-Space: srgb
# LUTr-Output-Gamut: rec709
# LUTr-Output-Transfer: srgb
# LUTr-Color-Space-Confidence: assumed-display-referred
# LUTr-Domain-Normalized: true
# LUTr-Shaper: none
# LUTr-Original-Grid: 64x64x64
# LUTr-Conversion-Grid: 25x25x25
# LUTr-Conversion-Interpolation: trilinear
# LUTr-Conversion-Method: HALD-PNG LUT image decoded at 16-bit and sampled to 25x25x25 3D CUBE
# LUTr-Conversion-Tool: LUTr scripts/convert-all-to-cube.mjs 2.0.0
# LUTr-Conversion-Date: 2026-07-27
# LUTr-Note: Preserve this metadata and the upstream license notices when redistributing.
TITLE "goldfx bright spring breeze"
LUT_3D_SIZE 9
DOMAIN_MIN 0 0 0
DOMAIN_MAX 1 1 1
0.0078431373 0.011764706 0.011764706
0.069607843 0.035784314 0.031862745
0.17745098 0.066666667 0.048039216
0.31029412 0.082352941 0.054901961
0.45098039 0.056862745 0.058823529
0.58627451 0.047058824 0.054901961
0.73039216 0.059803922 0.066666667
0.86029412 0.11862745 0.08627451
0.98823529 0.23529412 0.1372549
0.023529412 0.13137255 0.077941176
0.074019608 0.13921569 0.058823529
0.18909314 0.13921569 0.062745098
0.32598039 0.13970588 0.058333333
0.48333333 0.13529412 0.074754902
0.61715686 0.1254902 0.080085784
0.74411765 0.12794118 0.089215686
0.86764706 0.17990196 0.094546569
0.99901961 0.27696078 0.14460784
0.046078431 0.24019608 0.08627451
0.06127451 0.25098039 0.081372549
0.19828431 0.24803922 0.067401961
0.3627451 0.25735294 0.067279412
0.51960784 0.26813725 0.091666667
0.6745098 0.28529412 0.11421569
0.79313725 0.29313725 0.12156863
0.88848039 0.30723039 0.1310049
0.96568627 0.33823529 0.14313725
0.073039216 0.34460784 0.084803922
0.08872549 0.35637255 0.094117647
0.20196078 0.36666667 0.092647059
0.36427696 0.37542892 0.080882353
0.52352941 0.39485294 0.1
0.68872549 0.41666667 0.11911765
0.82009804 0.43541667 0.12977941
0.92303922 0.45735294 0.15214461
0.99607843 0.49460784 0.19852941
0.1 0.44901961 0.098039216
0.11936275 0.46470588 0.11348039
0.20686275 0.47598039 0.11568627
0.34754902 0.48284314 0.11176471
0.48627451 0.48529412 0.10490196
0.63161765 0.48848039 0.10980392
0.79803922 0.53431373 0.11323529
0.92352941 0.5752451 0.16568627
1 0.6254902 0.23529412
0.13333333 0.55735294 0.10833333
0.16194853 0.58216912 0.12941176
0.22352941 0.58627451 0.14056373
0.3283701 0.57996324 0.13872549
0.46789216 0.59264706 0.13872549
0.61127451 0.58627451 0.13088235
0.75784314 0.61531863 0.13480392
0.90557598 0.66292892 0.15343137
1 0.74705882 0.24558824
0.16960784 0.68431373 0.1245098
0.22598039 0.72303922 0.16127451
0.29313725 0.73039216 0.17254902
0.37941176 0.71801471 0.175
0.49656863 0.72156863 0.1745098
0.61752451 0.72254902 0.1685049
0.74926471 0.73823529 0.17352941
0.86213235 0.74264706 0.16568627
0.99411765 0.84117647 0.22254902
0.34313725 0.88823529 0.21960784
0.36421569 0.90098039 0.23290441
0.40232843 0.89019608 0.23235294
0.49754902 0.8872549 0.24705882
0.57818627 0.88921569 0.23627451
0.68216912 0.88547794 0.23106618
0.80539216 0.90183824 0.23333333
0.91709559 0.90539216 0.24411765
0.98480392 0.9245098 0.24019608
0.57254902 1 0.36078431
0.69166667 1 0.44411765
0.70490196 0.99411765 0.43823529
0.78872549 1 0.45588235
0.84901961 0.99607843 0.45098039
0.94901961 0.99852941 0.4495098
0.99901961 0.99901961 0.45196078
0.9995098 0.97647059 0.44313725
1 0.97647059 0.45882353
0.019607843 0.054901961 0.093137255
0.062193627 0.058884804 0.097487745
0.16997549 0.070588235 0.10061275
0.31666667 0.072365196 0.10882353
0.45637255 0.070588235 0.10882353
0.59166667 0.050306373 0.10735294
0.73333333 0.08370098 0.11752451
0.84509804 0.11078431 0.1245098
0.98431373 0.22696078 0.16372549
0.034313725 0.14564951 0.12261029
0.062254902 0.14737286 0.1270144
0.19511336 0.13615196 0.10844056
0.34023438 0.13469669 0.12197457
0.48590686 0.13115809 0.12616422
0.61715686 0.11832108 0.12058824
0.74492953 0.13621324 0.12794118
0.85293352 0.16721814 0.13530178
0.97818627 0.24479167 0.159375
0.054779412 0.25183824 0.12794118
0.088771446 0.26890319 0.13223039
0.23318015 0.26262255 0.12401961
0.37941176 0.26064645 0.13391544
0.52628676 0.26764706 0.14901961
0.67058824 0.27550551 0.15098039
0.77879902 0.27300858 0.14718137
0.88333333 0.29460784 0.15277267
0.99007353 0.35183824 0.18137255
0.076960784 0.35618873 0.12401961
0.099731924 0.38284314 0.14754902
0.21279105 0.38030025 0.1372549
0.36648284 0.38186275 0.12647059
0.52025123 0.38716299 0.12818627
0.6868796 0.41629136 0.15607384
0.82107843 0.43578431 0.1754902
0.91372549 0.43890931 0.17107843
0.99375 0.48737745 0.20894608
0.10416667 0.45661765 0.12230392
0.12003676 0.47555147 0.14212623
0.19932598 0.48125 0.14681373
0.34362745 0.48333333 0.14411765
0.48627451 0.48039216 0.11323529
0.6372549 0.49402574 0.1254902
0.809375 0.54215686 0.14319853
0.93287377 0.58333333 0.19332108
0.99607843 0.63259804 0.25931373
0.13137255 0.55539216 0.11127451
0.15784314 0.57412684 0.13262102
0.22242647 0.57437194 0.14460784
0.3303845 0.57658548 0.14589461
0.47254902 0.5861826 0.14534314
0.6088848 0.58609069 0.12677696
0.75948223 0.60772059 0.13592218
0.90637255 0.66448376 0.15081955
0.99215686 0.73609069 0.24754902
0.17622549 0.6872549 0.12696078
0.21911765 0.71836703 0.1587163
0.27205882 0.72267157 0.16219363
0.37144608 0.71139706 0.16799939
0.48339461 0.70055147 0.16053922
0.61493566 0.71470588 0.16297488
0.74316789 0.72745098 0.1627451
0.87084865 0.75166973 0.17176777
0.99215686 0.81286765 0.20735294
0.33400735 0.87892157 0.20698529
0.36882659 0.89754902 0.23670343
0.40179228 0.8948223 0.22977941
0.47036612 0.87955729 0.22859222
0.56721814 0.87818627 0.22941176
0.69401042 0.88563879 0.23692555
0.83299632 0.90458027 0.25223652
0.92493873 0.91017923 0.24699755
0.99601716 0.9495098 0.27101716
0.61813725 0.99901961 0.41176471
0.63063725 0.99650735 0.39840686
0.70759804 1 0.44497549
0.73621324 0.99607843 0.41838235
0.84926471 1 0.45490196
0.93909314 0.99607843 0.44466912
0.98860294 0.99509804 0.43345588
1 0.97953431 0.43988971
1 0.97696078 0.45343137
0.015686275 0.092156863 0.18921569
0.024019608 0.1 0.20870098
0.15808824 0.11862745 0.23651961
0.34852941 0.14803922 0.25490196
0.48333333 0.10637255 0.2245098
0.62745098 0.069607843 0.21568627
0.75490196 0.094117647 0.20857843
0.85196078 0.12598039 0.20931373
0.9754902 0.21568627 0.23529412
0.034803922 0.16580882 0.21617647
0.044730392 0.16960784 0.23474265
0.18465074 0.17457108 0.25343137
0.36012561 0.18125 0.25870098
0.49368873 0.13682598 0.22904412
0.62041973 0.089231005 0.20232843
0.74025735 0.1033701 0.20431985
0.85294118 0.14526654 0.20931373
0.97352941 0.22892157 0.22977941
0.057107843 0.27745098 0.24215686
0.077941176 0.29188113 0.24895833
0.21666667 0.29001225 0.26709559
0.41148897 0.27478554 0.26237745
0.53982843 0.24938725 0.24938725
0.66985294 0.24534314 0.24313725
0.78155637 0.24074755 0.22879902
0.8872549 0.27539828 0.22843137
0.98897059 0.33897059 0.25980392
0.080882353 0.40036765 0.22892157
0.10405944 0.41659007 0.25539216
0.19347426 0.41412377 0.25208333
0.38345588 0.40551471 0.23224571
0.54185049 0.39724265 0.24430147
0.69713542 0.40562194 0.25398284
0.82306985 0.42043505 0.26017157
0.92058824 0.44105392 0.25441176
0.98823529 0.4622549 0.26911765
0.11127451 0.50147059 0.2245098
0.12653186 0.51329657 0.23180147
0.18860294 0.52107843 0.2442402
0.35238971 0.51078431 0.23314951
0.50514706 0.49705882 0.19803922
0.6588848 0.50845588 0.20177696
0.82757353 0.55477941 0.25441176
0.95459559 0.59895833 0.29313725
0.99803922 0.59509804 0.29264706
0.13811275 0.59276961 0.2
0.15698529 0.60723039 0.22064951
0.2174326 0.6104473 0.22671569
0.34669118 0.60379902 0.22150735
0.47738971 0.59969363 0.19491422
0.61634498 0.59803922 0.16181066
0.77334559 0.62117034 0.1765625
0.91331189 0.67322304 0.22568934
0.99044118 0.74840686 0.32365196
0.20882353 0.72916667 0.19803922
0.21568627 0.73354779 0.20873162
0.25906863 0.7379902 0.21648284
0.36197917 0.71354167 0.20098039
0.47830882 0.71066176 0.18002451
0.61188725 0.71847426 0.1627451
0.76176471 0.74332108 0.17843137
0.87803309 0.75968137 0.1830576
0.99803922 0.82573529 0.2127451
0.34705882 0.89558824 0.2307598
0.35 0.89373468 0.23595282
0.38596814 0.90692402 0.25012255
0.4759038 0.89505208 0.25189951
0.56213235 0.87794118 0.23639706
0.67069547 0.88494179 0.22910539
0.81185662 0.89650735 0.24249387
0.92140012 0.9129136 0.24356618
0.99607843 0.92892157 0.25563725
0.61862745 0.99901961 0.42254902
0.69509804 1 0.45735294
0.70318627 1 0.45686275
0.75245098 0.99669118 0.44681373
0.85735294 1 0.47254902
0.91348039 0.99546569 0.43872549
0.99509804 0.9997549 0.45514706
1 0.97647059 0.45330882
1 0.97647059 0.46568627
0.041666667 0.16960784 0.35735294
0.03939951 0.14785539 0.35520833
0.11617647 0.1432598 0.36237745
0.34810049 0.16476716 0.38033088
0.51176471 0.18872549 0.39852941
0.67015931 0.19411765 0.39846814
0.78933824 0.16960784 0.37696078
0.88529412 0.11182598 0.32910539
0.99558824 0.20980392 0.34558824
0.052941176 0.21096814 0.36813725
0.060784314 0.20504749 0.3779182
0.13823529 0.1980239 0.3855239
0.37341452 0.21267616 0.40599724
0.52803309 0.21593137 0.40523897
0.66820619 0.20686275 0.39490656
0.78823529 0.1536152 0.373269
0.88609069 0.1056296 0.321875
0.996875 0.20943627 0.33578431
0.072058824 0.3060049 0.38088235
0.09486826 0.32388174 0.40294118
0.16501225 0.30070466 0.41020221
0.41450674 0.32023591 0.43670343
0.57279412 0.30710784 0.43155637
0.69123775 0.26781556 0.39852941
0.79767157 0.2278799 0.35747549
0.89883578 0.20568321 0.33129596
0.98676471 0.27708333 0.34828431
0.08872549 0.43823529 0.39957108
0.11439951 0.45117188 0.41734835
0.15286458 0.467019 0.4248315
0.4404565 0.45185355 0.44908088
0.59705882 0.42622549 0.43060662
0.70187653 0.38220741 0.37736673
0.82431066 0.37663909 0.37242647
0.9254902 0.3982307 0.36207874
0.99362745 0.44558824 0.37598039
0.12352941 0.55539216 0.38602941
0.14295343 0.56749387 0.38921569
0.15943627 0.58106618 0.38333333
0.35594363 0.55640319 0.39414828
0.54803922 0.54056373 0.36703431
0.70392157 0.54359681 0.36957721
0.8439951 0.56145833 0.39693627
0.94626225 0.578125 0.39981618
0.99730392 0.61102941 0.42279412
0.15441176 0.65545343 0.3504902
0.18020067 0.67205882 0.35949755
0.18678002 0.66380208 0.35588235
0.34558824 0.64215686 0.34803922
0.49071691 0.61939338 0.3216299
0.64754902 0.62851562 0.2877451
0.78872549 0.63794424 0.29221814
0.93424479 0.69166667 0.365625
0.99681373 0.76599265 0.46721814
0.20796569 0.76752451 0.30931373
0.22958027 0.78088235 0.32584252
0.23275123 0.77769608 0.32552083
0.34606311 0.75617341 0.31807598
0.47322304 0.73376225 0.29313725
0.61012561 0.73370098 0.26282169
0.76176471 0.75 0.23538603
0.88590686 0.76297488 0.21551777
0.99362745 0.84546569 0.33186275
0.33314951 0.91421569 0.32481618
0.35682445 0.92042739 0.34273131
0.35686275 0.92098652 0.33639706
0.44049479 0.91261489 0.33138021
0.54172794 0.89148284 0.30563725
0.6599954 0.89325214 0.27860754
0.80660233 0.90882353 0.25821078
0.9377451 0.91697304 0.26056219
0.99785539 0.93180147 0.25594363
0.64852941 0.99852941 0.50784314
0.6286152 0.9973652 0.49227941
0.6557598 1 0.50772059
0.7411152 1 0.528125
0.81666667 0.99754902 0.51372549
0.90208333 0.99650735 0.50055147
0.97242647 0.99387255 0.48688725
1 0.97677696 0.51078431
1 0.97647059 0.50392157
0.01372549 0.19215686 0.48039216
0.036764706 0.19779412 0.5
0.059313725 0.19215686 0.52254902
0.35122549 0.21691176 0.54166667
0.53235294 0.23235294 0.55294118
0.68284314 0.2622549 0.56593137
0.81715686 0.30686275 0.57205882
0.91666667 0.3252451 0.56004902
0.99019608 0.3254902 0.53529412
0.048284314 0.24558824 0.4995098
0.073008578 0.24947917 0.51666667
0.089767157 0.23970588 0.53210784
0.36292892 0.25857843 0.56047794
0.55502451 0.26335784 0.5629902
0.67769608 0.25579044 0.54984681
0.82015931 0.32113971 0.57291667
0.91277574 0.31375613 0.54877451
0.98823529 0.29877451 0.52205882
0.078431373 0.35196078 0.52156863
0.10294118 0.36060049 0.53308824
0.12806373 0.34362745 0.55894608
0.35490196 0.35196078 0.58860294
0.59191176 0.36666667 0.60465686
0.70906863 0.35104167 0.58088235
0.83737745 0.37107843 0.57647059
0.91917892 0.32965686 0.52573529
0.98872549 0.28970588 0.5
0.099264706 0.46666667 0.52083333
0.1254902 0.48235294 0.54099265
0.14834559 0.48719363 0.57064951
0.38311887 0.47818627 0.59852941
0.61715686 0.49607843 0.62794118
0.7330576 0.46614583 0.58333333
0.8375 0.43229167 0.54938725
0.91911765 0.37074142 0.47971814
0.99215686 0.40980392 0.49730392
0.12941176 0.59411765 0.55490196
0.16360294 0.61654412 0.56188725
0.18186275 0.62083333 0.5745098
0.38897059 0.62879902 0.60698529
0.61127451 0.63676471 0.63088235
0.74313725 0.57426471 0.56446078
0.84411765 0.52647059 0.51421569
0.93455882 0.51482843 0.49730392
0.99215686 0.53921569 0.50588235
0.1754902 0.71764706 0.51862745
0.20343137 0.73520221 0.54148284
0.20563725 0.73547794 0.5403799
0.33069853 0.72622549 0.53627451
0.50857843 0.6879902 0.51335784
0.68897059 0.68137255 0.48088235
0.85128676 0.70447304 0.51746324
0.95955882 0.71072304 0.54454657
0.99607843 0.73161765 0.55784314
0.2372549 0.83676471 0.49117647
0.24160539 0.83921569 0.48835784
0.25318627 0.84669118 0.49558824
0.32469363 0.82935049 0.47818627
0.46936275 0.78235294 0.44705882
0.59411765 0.75159314 0.39473039
0.78541667 0.78541667 0.37977941
0.92058824 0.79356618 0.3995098
0.99656863 0.86666667 0.51764706
0.30612745 0.93333333 0.46053922
0.34166667 0.94880515 0.47864583
0.33933824 0.94944853 0.47279412
0.39255515 0.9390625 0.46056985
0.50526961 0.91629902 0.42879902
0.6252451 0.89984681 0.38985907
0.78884804 0.92334559 0.3689951
0.93492647 0.92408088 0.3546875
0.99607843 0.95269608 0.3747549
0.60392157 1 0.58823529
0.63676471 1 0.6004902
0.63970588 1 0.60294118
0.65710784 0.99926471 0.59436275
0.76176471 0.99901961 0.59509804
0.84583333 0.99754902 0.57156863
0.95392157 0.99754902 0.55392157
0.99607843 0.98039216 0.56397059
1 0.98039216 0.54509804
0.010294118 0.24607843 0.61666667
0.033823529 0.24852941 0.63658088
0.054411765 0.24215686 0.6495098
0.2966299 0.27113971 0.67738971
0.55196078 0.3120098 0.70588235
0.69215686 0.33382353 0.70637255
0.79276961 0.34522059 0.68492647
0.90459559 0.44607843 0.71862745
0.97843137 0.51813725 0.74313725
0.040992647 0.29558824 0.64558824
0.077328431 0.3031633 0.66115196
0.073590686 0.2877451 0.67023591
0.32109375 0.30343903 0.69815411
0.54503676 0.32313113 0.70563725
0.69590227 0.33768382 0.70440411
0.80742953 0.36174939 0.69656863
0.90998775 0.45773591 0.72197457
0.99215686 0.52579657 0.73449755
0.089215686 0.39607843 0.66764706
0.12452512 0.41433824 0.68247549
0.13146446 0.38667279 0.69491422
0.29630821 0.3855239 0.71277574
0.56323529 0.4158701 0.73210784
0.72568934 0.43131127 0.73025429
0.82438725 0.42637868 0.71495098
0.92058824 0.49754902 0.72950368
0.99178922 0.53014706 0.73431373
0.11127451 0.51170343 0.66617647
0.14761029 0.52284007 0.67530637
0.15709252 0.53016238 0.69957108
0.34993873 0.5216299 0.72332261
0.57349877 0.52674632 0.74754902
0.74763327 0.5634421 0.76219363
0.85153186 0.56150429 0.74497549
0.92910539 0.57316176 0.7263557
0.98970588 0.56170343 0.70582108
0.13382353 0.61568627 0.66446078
0.17156863 0.6377451 0.68529412
0.18290441 0.64221814 0.70379902
0.32573529 0.63357843 0.72058824
0.55906863 0.6370098 0.7502451
0.76256127 0.67818627 0.77797181
0.86691176 0.67316176 0.76415441
0.93088235 0.59240196 0.68088235
0.99607843 0.54656863 0.63161765
0.19234069 0.75098039 0.6966299
0.2189185 0.7622549 0.71802237
0.21793811 0.76813725 0.71568627
0.32730545 0.77506127 0.73556219
0.55122549 0.78235294 0.74313725
0.74122243 0.77925092 0.75878523
0.851394 0.72261029 0.71271446
0.93180147 0.66972273 0.65612745
0.99215686 0.66617647 0.64019608
0.27536765 0.88578431 0.68492647
0.29108456 0.89456189 0.69345895
0.27840074 0.89206495 0.6893076
0.32666973 0.890625 0.68757659
0.5091299 0.88345588 0.68529412
0.62084865 0.8122549 0.60810355
0.79139093 0.80471814 0.57245711
0.93249081 0.82400429 0.60880821
0.99264706 0.87095588 0.68676471
0.28664216 0.97922794 0.63449755
0.33504902 0.99142157 0.67579657
0.32389706 0.98039216 0.65240502
0.33301164 0.99106158 0.63700214
0.46087623 0.96289828 0.60530025
0.59681373 0.92727482 0.56851256
0.76029412 0.91752451 0.53278186
0.91470588 0.91470588 0.4995864
1 0.94283088 0.52647059
0.57990196 1 0.71960784
0.60441176 1 0.72352941
0.61335784 1 0.72867647
0.60778186 1 0.71458333
0.67818627 1 0.70490196
0.77953431 0.99761029 0.67261029
0.90588235 0.99791667 0.64571078
0.9713848 0.98186275 0.62971814
1 0.98039216 0.625
0.038235294 0.34019608 0.77647059
0.03627451 0.33566176 0.78590686
0.053676471 0.31960784 0.7879902
0.25355392 0.34203431 0.80294118
0.50539216 0.37843137 0.80588235
0.7004902 0.44656863 0.82365196
0.80980392 0.47941176 0.81568627
0.89644608 0.51458333 0.83088235
0.99411765 0.63529412 0.86078431
0.050367647 0.37058824 0.77990196
0.081862745 0.37470895 0.79492953
0.097058824 0.359375 0.8064951
0.25975797 0.36421569 0.80672488
0.51691176 0.38131127 0.80680147
0.70410539 0.46043199 0.82757353
0.81436887 0.48290441 0.81853554
0.88370098 0.49731924 0.80948223
0.98848039 0.63272059 0.86078431
0.11078431 0.4627451 0.80073529
0.13036152 0.46568627 0.80379902
0.13645833 0.45392157 0.82156863
0.27573529 0.44571078 0.8254902
0.53223039 0.4754902 0.83333333
0.72401961 0.52769608 0.8495098
0.82714461 0.54117647 0.84019608
0.89515931 0.53949142 0.8254902
0.98651961 0.63823529 0.85980392
0.12401961 0.56470588 0.79509804
0.16384804 0.5872549 0.82023591
0.17674632 0.57729779 0.82647059
0.33484988 0.55693934 0.82715993
0.53443627 0.56715686 0.84362745
0.72133885 0.62017463 0.8618413
0.84362745 0.6408701 0.86323529
0.90870098 0.63541667 0.84460784
0.98468137 0.70882353 0.87352941
0.14558824 0.65294118 0.78039216
0.18106618 0.67794118 0.80343137
0.19411765 0.68137255 0.8185049
0.34485294 0.67689951 0.82745098
0.52303922 0.64485294 0.84240196
0.71004902 0.69932598 0.86887255
0.8564951 0.73688725 0.88210784
0.9254902 0.73272059 0.86666667
0.99068627 0.78137255 0.89313725
0.18541667 0.76237745 0.80588235
0.22610294 0.78854167 0.82401961
0.23137255 0.79577206 0.83115809
0.27247243 0.77895221 0.83186275
0.47113971 0.76966912 0.83247549
0.67694547 0.77058824 0.85870098
0.86715686 0.82545956 0.89788603
0.93762255 0.8176777 0.88224571
0.98517157 0.79681373 0.86335784
0.27279412 0.88529412 0.83308824
0.31173407 0.9203125 0.86868873
0.33272059 0.9213848 0.86568627
0.31844363 0.91700368 0.86467525
0.53553922 0.92401961 0.87745098
0.68740809 0.9161152 0.88400735
0.84142157 0.90618873 0.87573529
0.94154412 0.86740196 0.8455576
0.99509804 0.82622549 0.7997549
0.49129902 0.99901961 0.875
0.50667892 1 0.88950674
0.49803922 0.99914216 0.88419118
0.48720895 0.99281556 0.86930147
0.55061275 0.99221814 0.84093137
0.65182292 0.97709865 0.82285539
0.75309436 0.94537377 0.77015931
0.91539522 0.93186275 0.723606
0.99595588 0.9620098 0.75392157
0.61666667 1 0.8745098
0.64460784 1 0.87953431
0.66446078 1 0.88014706
0.61813725 1 0.86617647
0.63676471 1 0.84852941
0.72267157 1 0.82659314
0.82083333 0.99607843 0.7754902
0.98897059 0.99865196 0.76629902
1 0.98039216 0.7245098
0.039215686 0.43333333 0.86421569
0.075857843 0.44944853 0.88817402
0.061642157 0.42169118 0.87990196
0.32683824 0.44019608 0.88970588
0.51862745 0.48063725 0.8872549
0.67824755 0.53186275 0.88872549
0.80980392 0.61029412 0.90294118
0.88768382 0.63382353 0.90343137
0.97156863 0.67990196 0.92990196
0.025857843 0.45594363 0.86862745
0.076325061 0.46727175 0.8863894
0.067034314 0.44503676 0.88655025
0.30338542 0.45490196 0.88743873
0.52647059 0.48624387 0.88553922
0.68592984 0.5345818 0.89482996
0.80170037 0.6033701 0.89901961
0.88333333 0.62468597 0.89166667
0.96372549 0.68376225 0.92598039
0.10465686 0.54044118 0.89154412
0.12703738 0.53970588 0.89390319
0.18933824 0.53615196 0.90588235
0.33296569 0.52414216 0.89852941
0.546875 0.55159314 0.89509804
0.70428922 0.60628064 0.90819547
0.81764706 0.64466912 0.91372549
0.88982843 0.65445772 0.90598958
0.96029412 0.69852941 0.92647059
0.20386029 0.62873775 0.89166667
0.20765931 0.63609069 0.90641085
0.28321078 0.64375 0.91223958
0.42408854 0.63284314 0.92047335
0.54534314 0.63161765 0.91323529
0.70042126 0.67028186 0.92156097
0.82633272 0.7212163 0.93046875
0.90310202 0.74117647 0.93085938
0.96341912 0.75294118 0.94068627
0.30686275 0.7370098 0.91004902
0.2958027 0.74022672 0.91078431
0.31758578 0.74019608 0.91305147
0.46194853 0.74298407 0.93057598
0.55012255 0.70710784 0.92659314
0.69059436 0.72852328 0.93039216
0.83400735 0.77230392 0.93970588
0.90686275 0.78207721 0.93434436
0.97083333 0.81642157 0.95392157
0.19362745 0.7973652 0.89166667
0.24578738 0.81697304 0.91170343
0.24024203 0.81378676 0.90840993
0.32990196 0.81176471 0.91653646
0.53964461 0.81053922 0.93946078
0.67333027 0.80323223 0.9328508
0.82599571 0.84840686 0.95490196
0.91813725 0.8622549 0.95784314
0.9622549 0.8622549 0.95931373
0.28235294 0.89852941 0.91311275
0.30804228 0.92265625 0.9372549
0.31026348 0.92141544 0.93970588
0.33097426 0.91550245 0.93825061
0.48278186 0.9096201 0.93927696
0.61882659 0.89411765 0.93089767
0.8140625 0.90958946 0.95946691
0.92765012 0.92879902 0.96654412
0.98872549 0.94669118 0.9817402
0.50183824 1 0.98039216
0.52776501 0.99258578 0.97009804
0.51721814 0.99607843 0.97233456
0.51415441 0.99495251 0.97647059
0.58278186 0.99414828 0.9799326
0.69611673 0.99113817 0.97481618
0.8189951 0.9777114 0.96092218
0.93580729 0.99075521 0.9696921
0.99693627 0.98958333 0.97046569
0.78039216 1 0.99656863
0.78976716 1 1
0.80919118 1 0.99313725
0.8026348 1 0.99313725
0.77156863 1 0.98333333
0.78449755 1 0.97585784
0.8317402 1 0.94656863
0.88143382 1 0.89221814
0.99607843 0.98823529 0.90098039
0.29019608 0.59607843 0.94509804
0.32009804 0.60735294 0.95637255
0.33235294 0.57647059 0.94509804
0.46078431 0.58823529 0.94901961
0.60784314 0.6372549 0.9627451
0.70784314 0.64509804 0.94656863
0.81078431 0.71764706 0.96470588
0.88333333 0.75735294 0.96470588
0.95294118 0.81176471 0.98431373
0.25686275 0.58039216 0.92647059
0.30208333 0.60196078 0.94460784
0.36078431 0.59313725 0.94522059
0.45992647 0.59460784 0.95147059
0.59362745 0.625 0.95294118
0.71599265 0.67824755 0.96109069
0.80281863 0.69852941 0.95245098
0.8872549 0.76464461 0.96470588
0.94558824 0.79803922 0.97745098
0.36078431 0.65980392 0.95980392
0.31813725 0.64301471 0.95379902
0.42156863 0.66323529 0.96936275
0.48627451 0.64448529 0.96127451
0.58137255 0.63921569 0.94656863
0.72107843 0.70245098 0.96654412
0.81764706 0.73431373 0.96470588
0.89105392 0.77512255 0.96862745
0.94901961 0.80686275 0.97647059
0.44117647 0.71960784 0.95539216
0.44571078 0.73627451 0.9745098
0.48039216 0.74117647 0.97990196
0.53676471 0.72408088 0.97892157
0.61372549 0.71813725 0.97328431
0.72898284 0.74816176 0.97708333
0.82291667 0.76776961 0.96764706
0.89509804 0.80704657 0.97126225
0.94264706 0.81862745 0.97794118
0.50588235 0.8 0.97058824
0.51862745 0.81544118 0.98970588
0.50294118 0.80833333 0.98284314
0.57303922 0.81323529 0.99485294
0.63627451 0.79705882 0.99215686
0.7129902 0.77916667 0.975
0.82205882 0.80980392 0.97107843
0.89926471 0.84313725 0.98235294
0.96470588 0.84509804 0.98235294
0.48088235 0.86813725 0.97892157
0.4846201 0.87916667 0.99123775
0.48541667 0.87585784 0.99019608
0.54742647 0.88621324 0.99699755
0.63210784 0.86862745 0.99558824
0.69454657 0.83480392 0.97941176
0.825 0.86568627 0.99546569
0.90294118 0.88970588 0.99234069
0.96470588 0.9254902 1
0.45686275 0.94019608 0.98823529
0.46703431 0.95539216 0.99313725
0.49142157 0.96813725 0.99705882
0.47585784 0.94852941 0.99264706
0.54166667 0.93382353 0.99117647
0.66360294 0.92205882 0.99607843
0.79093137 0.91495098 0.98553922
0.89852941 0.93958333 0.99607843
0.96862745 0.94705882 0.99607843
0.58921569 1 1
0.59558824 0.98915441 0.99607843
0.62107843 1 1
0.60226716 0.99656863 1
0.6375 0.98676471 0.99656863
0.67757353 0.9754902 0.99479167
0.78051471 0.97352941 0.98970588
0.89558824 0.98480392 1
0.98088235 0.99215686 0.99607843
0.70980392 1 1
0.79754902 1 1
0.78529412 1 1
0.80882353 1 1
0.79411765 1 1
0.81323529 1 1
0.9 1 1
0.95784314 1 1
0.99607843 0.98823529 0.98823529
