site/assets/luts/sha256-f213fc9f60c087427658d79298a2a01a20e06a50eab89cacb3b015ac617196a8.cube
# LUTr-Schema-Version: 2
# LUTr-ID: sha256-f213fc9f60c087427658d79298a2a01a20e06a50eab89cacb3b015ac617196a8
# LUTr-Title: REDlogFilm to REDgamma2
# LUTr-Collection: RED Conversion
# LUTr-Collection-ID: videovillage-red-conversion-luts
# LUTr-Source: https://github.com/videovillage/RED-Conversion-LUTs
# LUTr-Retrieved: 2026-07-27
# LUTr-Source-File: submissions/videovillage-red-conversion-luts/Masters/REDlogFilm_to_REDgamma2.cube
# LUTr-Source-Format: CUBE
# LUTr-Source-SHA256: f213fc9f60c087427658d79298a2a01a20e06a50eab89cacb3b015ac617196a8
# LUTr-License: MIT
# LUTr-License-URL: https://github.com/videovillage/RED-Conversion-LUTs/blob/master/LICENSE.md
# LUTr-License-Basis: repo-license-file
# LUTr-Transform-Class: camera-transform
# LUTr-Tags: technical, camera, red, redlogfilm, redgamma, cube
# LUTr-Input-Color-Space: 
# LUTr-Input-Gamut: unspecified
# LUTr-Input-Transfer: unspecified
# LUTr-Output-Color-Space: 
# LUTr-Output-Gamut: unspecified
# LUTr-Output-Transfer: unspecified
# LUTr-Color-Space-Confidence: unverified
# LUTr-Domain-Normalized: true
# LUTr-Shaper: none
# LUTr-Original-Grid: 1024
# LUTr-Conversion-Grid: 33x33x33
# LUTr-Conversion-Interpolation: linear
# LUTr-Conversion-Method: Source 1D CUBE sampled to browser-compatible 33x33x33 3D CUBE
# LUTr-Conversion-Tool: LUTr scripts/convert-all-to-cube.mjs 2.0.0
# LUTr-Conversion-Date: 2026-07-27
# LUTr-Conversion-Warning: A 1024-sample 1D CUBE was sampled to 33x33x33 for browser-compatible 3D CUBE hosting.
# LUTr-Note: Preserve this metadata and the upstream license notices when redistributing.
# LUTr-Upstream-Comment: Created by Tashi Trieu and Greg Cotten
TITLE "REDlogFilm to REDgamma2"
LUT_3D_SIZE 33
DOMAIN_MIN 0 0 0
DOMAIN_MAX 1 1 1
0.056122682 0.056122682 0.056122682
0.056529709 0.056122682 0.056122682
0.056936736 0.056122682 0.056122682
0.058861301 0.056122682 0.056122682
0.065013998 0.056122682 0.056122682
0.084034125 0.056122682 0.056122682
0.10585152 0.056122682 0.056122682
0.13001914 0.056122682 0.056122682
0.15694755 0.056122682 0.056122682
0.18747315 0.056122682 0.056122682
0.22136647 0.056122682 0.056122682
0.25798714 0.056122682 0.056122682
0.2982496 0.056122682 0.056122682
0.34140453 0.056122682 0.056122682
0.38701457 0.056122682 0.056122682
0.43520496 0.056122682 0.056122682
0.48635089 0.056122682 0.056122682
0.5401761 0.056122682 0.056122682
0.59505585 0.056122682 0.056122682
0.64953153 0.056122682 0.056122682
0.70291406 0.056122682 0.056122682
0.75436576 0.056122682 0.056122682
0.80228833 0.056122682 0.056122682
0.84527873 0.056122682 0.056122682
0.88240173 0.056122682 0.056122682
0.91271542 0.056122682 0.056122682
0.93713287 0.056122682 0.056122682
0.95623693 0.056122682 0.056122682
0.97087169 0.056122682 0.056122682
0.98149548 0.056122682 0.056122682
0.98741971 0.056122682 0.056122682
0.98790035 0.056122682 0.056122682
0.98835737 0.056122682 0.056122682
0.056122682 0.056529709 0.056122682
0.056529709 0.056529709 0.056122682
0.056936736 0.056529709 0.056122682
0.058861301 0.056529709 0.056122682
0.065013998 0.056529709 0.056122682
0.084034125 0.056529709 0.056122682
0.10585152 0.056529709 0.056122682
0.13001914 0.056529709 0.056122682
0.15694755 0.056529709 0.056122682
0.18747315 0.056529709 0.056122682
0.22136647 0.056529709 0.056122682
0.25798714 0.056529709 0.056122682
0.2982496 0.056529709 0.056122682
0.34140453 0.056529709 0.056122682
0.38701457 0.056529709 0.056122682
0.43520496 0.056529709 0.056122682
0.48635089 0.056529709 0.056122682
0.5401761 0.056529709 0.056122682
0.59505585 0.056529709 0.056122682
0.64953153 0.056529709 0.056122682
0.70291406 0.056529709 0.056122682
0.75436576 0.056529709 0.056122682
0.80228833 0.056529709 0.056122682
0.84527873 0.056529709 0.056122682
0.88240173 0.056529709 0.056122682
0.91271542 0.056529709 0.056122682
0.93713287 0.056529709 0.056122682
0.95623693 0.056529709 0.056122682
0.97087169 0.056529709 0.056122682
0.98149548 0.056529709 0.056122682
0.98741971 0.056529709 0.056122682
0.98790035 0.056529709 0.056122682
0.98835737 0.056529709 0.056122682
0.056122682 0.056936736 0.056122682
0.056529709 0.056936736 0.056122682
0.056936736 0.056936736 0.056122682
0.058861301 0.056936736 0.056122682
0.065013998 0.056936736 0.056122682
0.084034125 0.056936736 0.056122682
0.10585152 0.056936736 0.056122682
0.13001914 0.056936736 0.056122682
0.15694755 0.056936736 0.056122682
0.18747315 0.056936736 0.056122682
0.22136647 0.056936736 0.056122682
0.25798714 0.056936736 0.056122682
0.2982496 0.056936736 0.056122682
0.34140453 0.056936736 0.056122682
0.38701457 0.056936736 0.056122682
0.43520496 0.056936736 0.056122682
0.48635089 0.056936736 0.056122682
0.5401761 0.056936736 0.056122682
0.59505585 0.056936736 0.056122682
0.64953153 0.056936736 0.056122682
0.70291406 0.056936736 0.056122682
0.75436576 0.056936736 0.056122682
0.80228833 0.056936736 0.056122682
0.84527873 0.056936736 0.056122682
0.88240173 0.056936736 0.056122682
0.91271542 0.056936736 0.056122682
0.93713287 0.056936736 0.056122682
0.95623693 0.056936736 0.056122682
0.97087169 0.056936736 0.056122682
0.98149548 0.056936736 0.056122682
0.98741971 0.056936736 0.056122682
0.98790035 0.056936736 0.056122682
0.98835737 0.056936736 0.056122682
0.056122682 0.058861301 0.056122682
0.056529709 0.058861301 0.056122682
0.056936736 0.058861301 0.056122682
0.058861301 0.058861301 0.056122682
0.065013998 0.058861301 0.056122682
0.084034125 0.058861301 0.056122682
0.10585152 0.058861301 0.056122682
0.13001914 0.058861301 0.056122682
0.15694755 0.058861301 0.056122682
0.18747315 0.058861301 0.056122682
0.22136647 0.058861301 0.056122682
0.25798714 0.058861301 0.056122682
0.2982496 0.058861301 0.056122682
0.34140453 0.058861301 0.056122682
0.38701457 0.058861301 0.056122682
0.43520496 0.058861301 0.056122682
0.48635089 0.058861301 0.056122682
0.5401761 0.058861301 0.056122682
0.59505585 0.058861301 0.056122682
0.64953153 0.058861301 0.056122682
0.70291406 0.058861301 0.056122682
0.75436576 0.058861301 0.056122682
0.80228833 0.058861301 0.056122682
0.84527873 0.058861301 0.056122682
0.88240173 0.058861301 0.056122682
0.91271542 0.058861301 0.056122682
0.93713287 0.058861301 0.056122682
0.95623693 0.058861301 0.056122682
0.97087169 0.058861301 0.056122682
0.98149548 0.058861301 0.056122682
0.98741971 0.058861301 0.056122682
0.98790035 0.058861301 0.056122682
0.98835737 0.058861301 0.056122682
0.056122682 0.065013998 0.056122682
0.056529709 0.065013998 0.056122682
0.056936736 0.065013998 0.056122682
0.058861301 0.065013998 0.056122682
0.065013998 0.065013998 0.056122682
0.084034125 0.065013998 0.056122682
0.10585152 0.065013998 0.056122682
0.13001914 0.065013998 0.056122682
0.15694755 0.065013998 0.056122682
0.18747315 0.065013998 0.056122682
0.22136647 0.065013998 0.056122682
0.25798714 0.065013998 0.056122682
0.2982496 0.065013998 0.056122682
0.34140453 0.065013998 0.056122682
0.38701457 0.065013998 0.056122682
0.43520496 0.065013998 0.056122682
0.48635089 0.065013998 0.056122682
0.5401761 0.065013998 0.056122682
0.59505585 0.065013998 0.056122682
0.64953153 0.065013998 0.056122682
0.70291406 0.065013998 0.056122682
0.75436576 0.065013998 0.056122682
0.80228833 0.065013998 0.056122682
0.84527873 0.065013998 0.056122682
0.88240173 0.065013998 0.056122682
0.91271542 0.065013998 0.056122682
0.93713287 0.065013998 0.056122682
0.95623693 0.065013998 0.056122682
0.97087169 0.065013998 0.056122682
0.98149548 0.065013998 0.056122682
0.98741971 0.065013998 0.056122682
0.98790035 0.065013998 0.056122682
0.98835737 0.065013998 0.056122682
0.056122682 0.084034125 0.056122682
0.056529709 0.084034125 0.056122682
0.056936736 0.084034125 0.056122682
0.058861301 0.084034125 0.056122682
0.065013998 0.084034125 0.056122682
0.084034125 0.084034125 0.056122682
0.10585152 0.084034125 0.056122682
0.13001914 0.084034125 0.056122682
0.15694755 0.084034125 0.056122682
0.18747315 0.084034125 0.056122682
0.22136647 0.084034125 0.056122682
0.25798714 0.084034125 0.056122682
0.2982496 0.084034125 0.056122682
0.34140453 0.084034125 0.056122682
0.38701457 0.084034125 0.056122682
0.43520496 0.084034125 0.056122682
0.48635089 0.084034125 0.056122682
0.5401761 0.084034125 0.056122682
0.59505585 0.084034125 0.056122682
0.64953153 0.084034125 0.056122682
0.70291406 0.084034125 0.056122682
0.75436576 0.084034125 0.056122682
0.80228833 0.084034125 0.056122682
0.84527873 0.084034125 0.056122682
0.88240173 0.084034125 0.056122682
0.91271542 0.084034125 0.056122682
0.93713287 0.084034125 0.056122682
0.95623693 0.084034125 0.056122682
0.97087169 0.084034125 0.056122682
0.98149548 0.084034125 0.056122682
0.98741971 0.084034125 0.056122682
0.98790035 0.084034125 0.056122682
0.98835737 0.084034125 0.056122682
0.056122682 0.10585152 0.056122682
0.056529709 0.10585152 0.056122682
0.056936736 0.10585152 0.056122682
0.058861301 0.10585152 0.056122682
0.065013998 0.10585152 0.056122682
0.084034125 0.10585152 0.056122682
0.10585152 0.10585152 0.056122682
0.13001914 0.10585152 0.056122682
0.15694755 0.10585152 0.056122682
0.18747315 0.10585152 0.056122682
0.22136647 0.10585152 0.056122682
0.25798714 0.10585152 0.056122682
0.2982496 0.10585152 0.056122682
0.34140453 0.10585152 0.056122682
0.38701457 0.10585152 0.056122682
0.43520496 0.10585152 0.056122682
0.48635089 0.10585152 0.056122682
0.5401761 0.10585152 0.056122682
0.59505585 0.10585152 0.056122682
0.64953153 0.10585152 0.056122682
0.70291406 0.10585152 0.056122682
0.75436576 0.10585152 0.056122682
0.80228833 0.10585152 0.056122682
0.84527873 0.10585152 0.056122682
0.88240173 0.10585152 0.056122682
0.91271542 0.10585152 0.056122682
0.93713287 0.10585152 0.056122682
0.95623693 0.10585152 0.056122682
0.97087169 0.10585152 0.056122682
0.98149548 0.10585152 0.056122682
0.98741971 0.10585152 0.056122682
0.98790035 0.10585152 0.056122682
0.98835737 0.10585152 0.056122682
0.056122682 0.13001914 0.056122682
0.056529709 0.13001914 0.056122682
0.056936736 0.13001914 0.056122682
0.058861301 0.13001914 0.056122682
0.065013998 0.13001914 0.056122682
0.084034125 0.13001914 0.056122682
0.10585152 0.13001914 0.056122682
0.13001914 0.13001914 0.056122682
0.15694755 0.13001914 0.056122682
0.18747315 0.13001914 0.056122682
0.22136647 0.13001914 0.056122682
0.25798714 0.13001914 0.056122682
0.2982496 0.13001914 0.056122682
0.34140453 0.13001914 0.056122682
0.38701457 0.13001914 0.056122682
0.43520496 0.13001914 0.056122682
0.48635089 0.13001914 0.056122682
0.5401761 0.13001914 0.056122682
0.59505585 0.13001914 0.056122682
0.64953153 0.13001914 0.056122682
0.70291406 0.13001914 0.056122682
0.75436576 0.13001914 0.056122682
0.80228833 0.13001914 0.056122682
0.84527873 0.13001914 0.056122682
0.88240173 0.13001914 0.056122682
0.91271542 0.13001914 0.056122682
0.93713287 0.13001914 0.056122682
0.95623693 0.13001914 0.056122682
0.97087169 0.13001914 0.056122682
0.98149548 0.13001914 0.056122682
0.98741971 0.13001914 0.056122682
0.98790035 0.13001914 0.056122682
0.98835737 0.13001914 0.056122682
0.056122682 0.15694755 0.056122682
0.056529709 0.15694755 0.056122682
0.056936736 0.15694755 0.056122682
0.058861301 0.15694755 0.056122682
0.065013998 0.15694755 0.056122682
0.084034125 0.15694755 0.056122682
0.10585152 0.15694755 0.056122682
0.13001914 0.15694755 0.056122682
0.15694755 0.15694755 0.056122682
0.18747315 0.15694755 0.056122682
0.22136647 0.15694755 0.056122682
0.25798714 0.15694755 0.056122682
0.2982496 0.15694755 0.056122682
0.34140453 0.15694755 0.056122682
0.38701457 0.15694755 0.056122682
0.43520496 0.15694755 0.056122682
0.48635089 0.15694755 0.056122682
0.5401761 0.15694755 0.056122682
0.59505585 0.15694755 0.056122682
0.64953153 0.15694755 0.056122682
0.70291406 0.15694755 0.056122682
0.75436576 0.15694755 0.056122682
0.80228833 0.15694755 0.056122682
0.84527873 0.15694755 0.056122682
0.88240173 0.15694755 0.056122682
0.91271542 0.15694755 0.056122682
0.93713287 0.15694755 0.056122682
0.95623693 0.15694755 0.056122682
0.97087169 0.15694755 0.056122682
0.98149548 0.15694755 0.056122682
0.98741971 0.15694755 0.056122682
0.98790035 0.15694755 0.056122682
0.98835737 0.15694755 0.056122682
0.056122682 0.18747315 0.056122682
0.056529709 0.18747315 0.056122682
0.056936736 0.18747315 0.056122682
0.058861301 0.18747315 0.056122682
0.065013998 0.18747315 0.056122682
0.084034125 0.18747315 0.056122682
0.10585152 0.18747315 0.056122682
0.13001914 0.18747315 0.056122682
0.15694755 0.18747315 0.056122682
0.18747315 0.18747315 0.056122682
0.22136647 0.18747315 0.056122682
0.25798714 0.18747315 0.056122682
0.2982496 0.18747315 0.056122682
0.34140453 0.18747315 0.056122682
0.38701457 0.18747315 0.056122682
0.43520496 0.18747315 0.056122682
0.48635089 0.18747315 0.056122682
0.5401761 0.18747315 0.056122682
0.59505585 0.18747315 0.056122682
0.64953153 0.18747315 0.056122682
0.70291406 0.18747315 0.056122682
0.75436576 0.18747315 0.056122682
0.80228833 0.18747315 0.056122682
0.84527873 0.18747315 0.056122682
0.88240173 0.18747315 0.056122682
0.91271542 0.18747315 0.056122682
0.93713287 0.18747315 0.056122682
0.95623693 0.18747315 0.056122682
0.97087169 0.18747315 0.056122682
0.98149548 0.18747315 0.056122682
0.98741971 0.18747315 0.056122682
0.98790035 0.18747315 0.056122682
0.98835737 0.18747315 0.056122682
0.056122682 0.22136647 0.056122682
0.056529709 0.22136647 0.056122682
0.056936736 0.22136647 0.056122682
0.058861301 0.22136647 0.056122682
0.065013998 0.22136647 0.056122682
0.084034125 0.22136647 0.056122682
0.10585152 0.22136647 0.056122682
0.13001914 0.22136647 0.056122682
0.15694755 0.22136647 0.056122682
0.18747315 0.22136647 0.056122682
0.22136647 0.22136647 0.056122682
0.25798714 0.22136647 0.056122682
0.2982496 0.22136647 0.056122682
0.34140453 0.22136647 0.056122682
0.38701457 0.22136647 0.056122682
0.43520496 0.22136647 0.056122682
0.48635089 0.22136647 0.056122682
0.5401761 0.22136647 0.056122682
0.59505585 0.22136647 0.056122682
0.64953153 0.22136647 0.056122682
0.70291406 0.22136647 0.056122682
0.75436576 0.22136647 0.056122682
0.80228833 0.22136647 0.056122682
0.84527873 0.22136647 0.056122682
0.88240173 0.22136647 0.056122682
0.91271542 0.22136647 0.056122682
0.93713287 0.22136647 0.056122682
0.95623693 0.22136647 0.056122682
0.97087169 0.22136647 0.056122682
0.98149548 0.22136647 0.056122682
0.98741971 0.22136647 0.056122682
0.98790035 0.22136647 0.056122682
0.98835737 0.22136647 0.056122682
0.056122682 0.25798714 0.056122682
0.056529709 0.25798714 0.056122682
0.056936736 0.25798714 0.056122682
0.058861301 0.25798714 0.056122682
0.065013998 0.25798714 0.056122682
0.084034125 0.25798714 0.056122682
0.10585152 0.25798714 0.056122682
0.13001914 0.25798714 0.056122682
0.15694755 0.25798714 0.056122682
0.18747315 0.25798714 0.056122682
0.22136647 0.25798714 0.056122682
0.25798714 0.25798714 0.056122682
0.2982496 0.25798714 0.056122682
0.34140453 0.25798714 0.056122682
0.38701457 0.25798714 0.056122682
0.43520496 0.25798714 0.056122682
0.48635089 0.25798714 0.056122682
0.5401761 0.25798714 0.056122682
0.59505585 0.25798714 0.056122682
0.64953153 0.25798714 0.056122682
0.70291406 0.25798714 0.056122682
0.75436576 0.25798714 0.056122682
0.80228833 0.25798714 0.056122682
0.84527873 0.25798714 0.056122682
0.88240173 0.25798714 0.056122682
0.91271542 0.25798714 0.056122682
0.93713287 0.25798714 0.056122682
0.95623693 0.25798714 0.056122682
0.97087169 0.25798714 0.056122682
0.98149548 0.25798714 0.056122682
0.98741971 0.25798714 0.056122682
0.98790035 0.25798714 0.056122682
0.98835737 0.25798714 0.056122682
0.056122682 0.2982496 0.056122682
0.056529709 0.2982496 0.056122682
0.056936736 0.2982496 0.056122682
0.058861301 0.2982496 0.056122682
0.065013998 0.2982496 0.056122682
0.084034125 0.2982496 0.056122682
0.10585152 0.2982496 0.056122682
0.13001914 0.2982496 0.056122682
0.15694755 0.2982496 0.056122682
0.18747315 0.2982496 0.056122682
0.22136647 0.2982496 0.056122682
0.25798714 0.2982496 0.056122682
0.2982496 0.2982496 0.056122682
0.34140453 0.2982496 0.056122682
0.38701457 0.2982496 0.056122682
0.43520496 0.2982496 0.056122682
0.48635089 0.2982496 0.056122682
0.5401761 0.2982496 0.056122682
0.59505585 0.2982496 0.056122682
0.64953153 0.2982496 0.056122682
0.70291406 0.2982496 0.056122682
0.75436576 0.2982496 0.056122682
0.80228833 0.2982496 0.056122682
0.84527873 0.2982496 0.056122682
0.88240173 0.2982496 0.056122682
0.91271542 0.2982496 0.056122682
0.93713287 0.2982496 0.056122682
0.95623693 0.2982496 0.056122682
0.97087169 0.2982496 0.056122682
0.98149548 0.2982496 0.056122682
0.98741971 0.2982496 0.056122682
0.98790035 0.2982496 0.056122682
0.98835737 0.2982496 0.056122682
0.056122682 0.34140453 0.056122682
0.056529709 0.34140453 0.056122682
0.056936736 0.34140453 0.056122682
0.058861301 0.34140453 0.056122682
0.065013998 0.34140453 0.056122682
0.084034125 0.34140453 0.056122682
0.10585152 0.34140453 0.056122682
0.13001914 0.34140453 0.056122682
0.15694755 0.34140453 0.056122682
0.18747315 0.34140453 0.056122682
0.22136647 0.34140453 0.056122682
0.25798714 0.34140453 0.056122682
0.2982496 0.34140453 0.056122682
0.34140453 0.34140453 0.056122682
0.38701457 0.34140453 0.056122682
0.43520496 0.34140453 0.056122682
0.48635089 0.34140453 0.056122682
0.5401761 0.34140453 0.056122682
0.59505585 0.34140453 0.056122682
0.64953153 0.34140453 0.056122682
0.70291406 0.34140453 0.056122682
0.75436576 0.34140453 0.056122682
0.80228833 0.34140453 0.056122682
0.84527873 0.34140453 0.056122682
0.88240173 0.34140453 0.056122682
0.91271542 0.34140453 0.056122682
0.93713287 0.34140453 0.056122682
0.95623693 0.34140453 0.056122682
0.97087169 0.34140453 0.056122682
0.98149548 0.34140453 0.056122682
0.98741971 0.34140453 0.056122682
0.98790035 0.34140453 0.056122682
0.98835737 0.34140453 0.056122682
0.056122682 0.38701457 0.056122682
0.056529709 0.38701457 0.056122682
0.056936736 0.38701457 0.056122682
0.058861301 0.38701457 0.056122682
0.065013998 0.38701457 0.056122682
0.084034125 0.38701457 0.056122682
0.10585152 0.38701457 0.056122682
0.13001914 0.38701457 0.056122682
0.15694755 0.38701457 0.056122682
0.18747315 0.38701457 0.056122682
0.22136647 0.38701457 0.056122682
0.25798714 0.38701457 0.056122682
0.2982496 0.38701457 0.056122682
0.34140453 0.38701457 0.056122682
0.38701457 0.38701457 0.056122682
0.43520496 0.38701457 0.056122682
0.48635089 0.38701457 0.056122682
0.5401761 0.38701457 0.056122682
0.59505585 0.38701457 0.056122682
0.64953153 0.38701457 0.056122682
0.70291406 0.38701457 0.056122682
0.75436576 0.38701457 0.056122682
0.80228833 0.38701457 0.056122682
0.84527873 0.38701457 0.056122682
0.88240173 0.38701457 0.056122682
0.91271542 0.38701457 0.056122682
0.93713287 0.38701457 0.056122682
0.95623693 0.38701457 0.056122682
0.97087169 0.38701457 0.056122682
0.98149548 0.38701457 0.056122682
0.98741971 0.38701457 0.056122682
0.98790035 0.38701457 0.056122682
0.98835737 0.38701457 0.056122682
0.056122682 0.43520496 0.056122682
0.056529709 0.43520496 0.056122682
0.056936736 0.43520496 0.056122682
0.058861301 0.43520496 0.056122682
0.065013998 0.43520496 0.056122682
0.084034125 0.43520496 0.056122682
0.10585152 0.43520496 0.056122682
0.13001914 0.43520496 0.056122682
0.15694755 0.43520496 0.056122682
0.18747315 0.43520496 0.056122682
0.22136647 0.43520496 0.056122682
0.25798714 0.43520496 0.056122682
0.2982496 0.43520496 0.056122682
0.34140453 0.43520496 0.056122682
0.38701457 0.43520496 0.056122682
0.43520496 0.43520496 0.056122682
0.48635089 0.43520496 0.056122682
0.5401761 0.43520496 0.056122682
0.59505585 0.43520496 0.056122682
0.64953153 0.43520496 0.056122682
0.70291406 0.43520496 0.056122682
0.75436576 0.43520496 0.056122682
0.80228833 0.43520496 0.056122682
0.84527873 0.43520496 0.056122682
0.88240173 0.43520496 0.056122682
0.91271542 0.43520496 0.056122682
0.93713287 0.43520496 0.056122682
0.95623693 0.43520496 0.056122682
0.97087169 0.43520496 0.056122682
0.98149548 0.43520496 0.056122682
0.98741971 0.43520496 0.056122682
0.98790035 0.43520496 0.056122682
0.98835737 0.43520496 0.056122682
0.056122682 0.48635089 0.056122682
0.056529709 0.48635089 0.056122682
0.056936736 0.48635089 0.056122682
0.058861301 0.48635089 0.056122682
0.065013998 0.48635089 0.056122682
0.084034125 0.48635089 0.056122682
0.10585152 0.48635089 0.056122682
0.13001914 0.48635089 0.056122682
0.15694755 0.48635089 0.056122682
0.18747315 0.48635089 0.056122682
0.22136647 0.48635089 0.056122682
0.25798714 0.48635089 0.056122682
0.2982496 0.48635089 0.056122682
0.34140453 0.48635089 0.056122682
0.38701457 0.48635089 0.056122682
0.43520496 0.48635089 0.056122682
0.48635089 0.48635089 0.056122682
0.5401761 0.48635089 0.056122682
0.59505585 0.48635089 0.056122682
0.64953153 0.48635089 0.056122682
0.70291406 0.48635089 0.056122682
0.75436576 0.48635089 0.056122682
0.80228833 0.48635089 0.056122682
0.84527873 0.48635089 0.056122682
0.88240173 0.48635089 0.056122682
0.91271542 0.48635089 0.056122682
0.93713287 0.48635089 0.056122682
0.95623693 0.48635089 0.056122682
0.97087169 0.48635089 0.056122682
0.98149548 0.48635089 0.056122682
0.98741971 0.48635089 0.056122682
0.98790035 0.48635089 0.056122682
0.98835737 0.48635089 0.056122682
0.056122682 0.5401761 0.056122682
0.056529709 0.5401761 0.056122682
0.056936736 0.5401761 0.056122682
0.058861301 0.5401761 0.056122682
0.065013998 0.5401761 0.056122682
0.084034125 0.5401761 0.056122682
0.10585152 0.5401761 0.056122682
0.13001914 0.5401761 0.056122682
0.15694755 0.5401761 0.056122682
0.18747315 0.5401761 0.056122682
0.22136647 0.5401761 0.056122682
0.25798714 0.5401761 0.056122682
0.2982496 0.5401761 0.056122682
0.34140453 0.5401761 0.056122682
0.38701457 0.5401761 0.056122682
0.43520496 0.5401761 0.056122682
0.48635089 0.5401761 0.056122682
0.5401761 0.5401761 0.056122682
0.59505585 0.5401761 0.056122682
0.64953153 0.5401761 0.056122682
0.70291406 0.5401761 0.056122682
0.75436576 0.5401761 0.056122682
0.80228833 0.5401761 0.056122682
0.84527873 0.5401761 0.056122682
0.88240173 0.5401761 0.056122682
0.91271542 0.5401761 0.056122682
0.93713287 0.5401761 0.056122682
0.95623693 0.5401761 0.056122682
0.97087169 0.5401761 0.056122682
0.98149548 0.5401761 0.056122682
0.98741971 0.5401761 0.056122682
0.98790035 0.5401761 0.056122682
0.98835737 0.5401761 0.056122682
0.056122682 0.59505585 0.056122682
0.056529709 0.59505585 0.056122682
0.056936736 0.59505585 0.056122682
0.058861301 0.59505585 0.056122682
0.065013998 0.59505585 0.056122682
0.084034125 0.59505585 0.056122682
0.10585152 0.59505585 0.056122682
0.13001914 0.59505585 0.056122682
0.15694755 0.59505585 0.056122682
0.18747315 0.59505585 0.056122682
0.22136647 0.59505585 0.056122682
0.25798714 0.59505585 0.056122682
0.2982496 0.59505585 0.056122682
0.34140453 0.59505585 0.056122682
0.38701457 0.59505585 0.056122682
0.43520496 0.59505585 0.056122682
0.48635089 0.59505585 0.056122682
0.5401761 0.59505585 0.056122682
0.59505585 0.59505585 0.056122682
0.64953153 0.59505585 0.056122682
0.70291406 0.59505585 0.056122682
0.75436576 0.59505585 0.056122682
0.80228833 0.59505585 0.056122682
0.84527873 0.59505585 0.056122682
0.88240173 0.59505585 0.056122682
0.91271542 0.59505585 0.056122682
0.93713287 0.59505585 0.056122682
0.95623693 0.59505585 0.056122682
0.97087169 0.59505585 0.056122682
0.98149548 0.59505585 0.056122682
0.98741971 0.59505585 0.056122682
0.98790035 0.59505585 0.056122682
0.98835737 0.59505585 0.056122682
0.056122682 0.64953153 0.056122682
0.056529709 0.64953153 0.056122682
0.056936736 0.64953153 0.056122682
0.058861301 0.64953153 0.056122682
0.065013998 0.64953153 0.056122682
0.084034125 0.64953153 0.056122682
0.10585152 0.64953153 0.056122682
0.13001914 0.64953153 0.056122682
0.15694755 0.64953153 0.056122682
0.18747315 0.64953153 0.056122682
0.22136647 0.64953153 0.056122682
0.25798714 0.64953153 0.056122682
0.2982496 0.64953153 0.056122682
0.34140453 0.64953153 0.056122682
0.38701457 0.64953153 0.056122682
0.43520496 0.64953153 0.056122682
0.48635089 0.64953153 0.056122682
0.5401761 0.64953153 0.056122682
0.59505585 0.64953153 0.056122682
0.64953153 0.64953153 0.056122682
0.70291406 0.64953153 0.056122682
