site/assets/luts/sha256-35bcc5dbc780961630af597d6836df112d30bef11ee789f05a530cee353b3a5b.cube
# LUTr-Schema-Version: 2
# LUTr-ID: sha256-35bcc5dbc780961630af597d6836df112d30bef11ee789f05a530cee353b3a5b
# LUTr-Title: GYROFLOW CONVERSION Legal to Full
# LUTr-Collection: DJI Blockbuster
# LUTr-Collection-ID: ircgraphic-d-cinelike-blockbuster
# LUTr-Source: https://github.com/IRCGraphic/D-Cinelike-and-Normal-Blockbuster-LUTs
# LUTr-Retrieved: 2026-07-27
# LUTr-Source-File: submissions/ircgraphic-d-cinelike-blockbuster/GYROFLOW CONVERSION Legal to Full.cube
# LUTr-Source-Format: CUBE
# LUTr-Source-SHA256: 35bcc5dbc780961630af597d6836df112d30bef11ee789f05a530cee353b3a5b
# LUTr-License: CC0-1.0
# LUTr-License-URL: https://github.com/IRCGraphic/D-Cinelike-and-Normal-Blockbuster-LUTs/blob/main/LICENSE
# LUTr-License-Basis: repo-license-file
# LUTr-Transform-Class: creative-look
# LUTr-Tags: creative, camera, dji, d-cinelike, cinematic, blockbuster, 3d-lut, cube
# LUTr-Input-Color-Space:
# LUTr-Input-Gamut: unspecified
# LUTr-Input-Transfer: unspecified
# LUTr-Output-Color-Space: srgb
# LUTr-Output-Gamut: rec709
# LUTr-Output-Transfer: srgb
# LUTr-Color-Space-Confidence: camera-profile-input-required
# LUTr-Domain-Normalized: true
# LUTr-Shaper: none
# LUTr-Original-Grid: 4096
# LUTr-Conversion-Grid: 33x33x33
# LUTr-Conversion-Interpolation: linear
# LUTr-Conversion-Method: Source 1D CUBE sampled to browser-compatible 33x33x33 3D CUBE
# LUTr-Conversion-Tool: LUTr scripts/convert-all-to-cube.mjs 2.0.0
# LUTr-Conversion-Date: 2026-07-27
# LUTr-Conversion-Warning: A 4096-sample 1D CUBE was sampled to 33x33x33 for browser-compatible 3D CUBE hosting.
# LUTr-Note: Preserve this metadata and the upstream license notices when redistributing.
TITLE "GYROFLOW CONVERSION Legal to Full"
LUT_3D_SIZE 33
DOMAIN_MIN 0 0 0
DOMAIN_MAX 1 1 1
-0.073059361 -0.073059361 -0.073059361
-0.036565354 -0.073059361 -0.073059361
-0.000071346994 -0.073059361 -0.073059361
0.03642266 -0.073059361 -0.073059361
0.072916667 -0.073059361 -0.073059361
0.10941067 -0.073059361 -0.073059361
0.14590468 -0.073059361 -0.073059361
0.18239869 -0.073059361 -0.073059361
0.21889269 -0.073059361 -0.073059361
0.2553867 -0.073059361 -0.073059361
0.29188071 -0.073059361 -0.073059361
0.32837471 -0.073059361 -0.073059361
0.36486872 -0.073059361 -0.073059361
0.40136273 -0.073059361 -0.073059361
0.43785674 -0.073059361 -0.073059361
0.47435074 -0.073059361 -0.073059361
0.51084475 -0.073059361 -0.073059361
0.54733876 -0.073059361 -0.073059361
0.58383276 -0.073059361 -0.073059361
0.62032677 -0.073059361 -0.073059361
0.65682078 -0.073059361 -0.073059361
0.69331478 -0.073059361 -0.073059361
0.72980879 -0.073059361 -0.073059361
0.7663028 -0.073059361 -0.073059361
0.8027968 -0.073059361 -0.073059361
0.83929081 -0.073059361 -0.073059361
0.87578482 -0.073059361 -0.073059361
0.91227882 -0.073059361 -0.073059361
0.94877283 -0.073059361 -0.073059361
0.98526684 -0.073059361 -0.073059361
1.0217608 -0.073059361 -0.073059361
1.0582549 -0.073059361 -0.073059361
1.0947489 -0.073059361 -0.073059361
-0.073059361 -0.036565354 -0.073059361
-0.036565354 -0.036565354 -0.073059361
-0.000071346994 -0.036565354 -0.073059361
0.03642266 -0.036565354 -0.073059361
0.072916667 -0.036565354 -0.073059361
0.10941067 -0.036565354 -0.073059361
0.14590468 -0.036565354 -0.073059361
0.18239869 -0.036565354 -0.073059361
0.21889269 -0.036565354 -0.073059361
0.2553867 -0.036565354 -0.073059361
0.29188071 -0.036565354 -0.073059361
0.32837471 -0.036565354 -0.073059361
0.36486872 -0.036565354 -0.073059361
0.40136273 -0.036565354 -0.073059361
0.43785674 -0.036565354 -0.073059361
0.47435074 -0.036565354 -0.073059361
0.51084475 -0.036565354 -0.073059361
0.54733876 -0.036565354 -0.073059361
0.58383276 -0.036565354 -0.073059361
0.62032677 -0.036565354 -0.073059361
0.65682078 -0.036565354 -0.073059361
0.69331478 -0.036565354 -0.073059361
0.72980879 -0.036565354 -0.073059361
0.7663028 -0.036565354 -0.073059361
0.8027968 -0.036565354 -0.073059361
0.83929081 -0.036565354 -0.073059361
0.87578482 -0.036565354 -0.073059361
0.91227882 -0.036565354 -0.073059361
0.94877283 -0.036565354 -0.073059361
0.98526684 -0.036565354 -0.073059361
1.0217608 -0.036565354 -0.073059361
1.0582549 -0.036565354 -0.073059361
1.0947489 -0.036565354 -0.073059361
-0.073059361 -0.000071346994 -0.073059361
-0.036565354 -0.000071346994 -0.073059361
-0.000071346994 -0.000071346994 -0.073059361
0.03642266 -0.000071346994 -0.073059361
0.072916667 -0.000071346994 -0.073059361
0.10941067 -0.000071346994 -0.073059361
0.14590468 -0.000071346994 -0.073059361
0.18239869 -0.000071346994 -0.073059361
0.21889269 -0.000071346994 -0.073059361
0.2553867 -0.000071346994 -0.073059361
0.29188071 -0.000071346994 -0.073059361
0.32837471 -0.000071346994 -0.073059361
0.36486872 -0.000071346994 -0.073059361
0.40136273 -0.000071346994 -0.073059361
0.43785674 -0.000071346994 -0.073059361
0.47435074 -0.000071346994 -0.073059361
0.51084475 -0.000071346994 -0.073059361
0.54733876 -0.000071346994 -0.073059361
0.58383276 -0.000071346994 -0.073059361
0.62032677 -0.000071346994 -0.073059361
0.65682078 -0.000071346994 -0.073059361
0.69331478 -0.000071346994 -0.073059361
0.72980879 -0.000071346994 -0.073059361
0.7663028 -0.000071346994 -0.073059361
0.8027968 -0.000071346994 -0.073059361
0.83929081 -0.000071346994 -0.073059361
0.87578482 -0.000071346994 -0.073059361
0.91227882 -0.000071346994 -0.073059361
0.94877283 -0.000071346994 -0.073059361
0.98526684 -0.000071346994 -0.073059361
1.0217608 -0.000071346994 -0.073059361
1.0582549 -0.000071346994 -0.073059361
1.0947489 -0.000071346994 -0.073059361
-0.073059361 0.03642266 -0.073059361
-0.036565354 0.03642266 -0.073059361
-0.000071346994 0.03642266 -0.073059361
0.03642266 0.03642266 -0.073059361
0.072916667 0.03642266 -0.073059361
0.10941067 0.03642266 -0.073059361
0.14590468 0.03642266 -0.073059361
0.18239869 0.03642266 -0.073059361
0.21889269 0.03642266 -0.073059361
0.2553867 0.03642266 -0.073059361
0.29188071 0.03642266 -0.073059361
0.32837471 0.03642266 -0.073059361
0.36486872 0.03642266 -0.073059361
0.40136273 0.03642266 -0.073059361
0.43785674 0.03642266 -0.073059361
0.47435074 0.03642266 -0.073059361
0.51084475 0.03642266 -0.073059361
0.54733876 0.03642266 -0.073059361
0.58383276 0.03642266 -0.073059361
0.62032677 0.03642266 -0.073059361
0.65682078 0.03642266 -0.073059361
0.69331478 0.03642266 -0.073059361
0.72980879 0.03642266 -0.073059361
0.7663028 0.03642266 -0.073059361
0.8027968 0.03642266 -0.073059361
0.83929081 0.03642266 -0.073059361
0.87578482 0.03642266 -0.073059361
0.91227882 0.03642266 -0.073059361
0.94877283 0.03642266 -0.073059361
0.98526684 0.03642266 -0.073059361
1.0217608 0.03642266 -0.073059361
1.0582549 0.03642266 -0.073059361
1.0947489 0.03642266 -0.073059361
-0.073059361 0.072916667 -0.073059361
-0.036565354 0.072916667 -0.073059361
-0.000071346994 0.072916667 -0.073059361
0.03642266 0.072916667 -0.073059361
0.072916667 0.072916667 -0.073059361
0.10941067 0.072916667 -0.073059361
0.14590468 0.072916667 -0.073059361
0.18239869 0.072916667 -0.073059361
0.21889269 0.072916667 -0.073059361
0.2553867 0.072916667 -0.073059361
0.29188071 0.072916667 -0.073059361
0.32837471 0.072916667 -0.073059361
0.36486872 0.072916667 -0.073059361
0.40136273 0.072916667 -0.073059361
0.43785674 0.072916667 -0.073059361
0.47435074 0.072916667 -0.073059361
0.51084475 0.072916667 -0.073059361
0.54733876 0.072916667 -0.073059361
0.58383276 0.072916667 -0.073059361
0.62032677 0.072916667 -0.073059361
0.65682078 0.072916667 -0.073059361
0.69331478 0.072916667 -0.073059361
0.72980879 0.072916667 -0.073059361
0.7663028 0.072916667 -0.073059361
0.8027968 0.072916667 -0.073059361
0.83929081 0.072916667 -0.073059361
0.87578482 0.072916667 -0.073059361
0.91227882 0.072916667 -0.073059361
0.94877283 0.072916667 -0.073059361
0.98526684 0.072916667 -0.073059361
1.0217608 0.072916667 -0.073059361
1.0582549 0.072916667 -0.073059361
1.0947489 0.072916667 -0.073059361
-0.073059361 0.10941067 -0.073059361
-0.036565354 0.10941067 -0.073059361
-0.000071346994 0.10941067 -0.073059361
0.03642266 0.10941067 -0.073059361
0.072916667 0.10941067 -0.073059361
0.10941067 0.10941067 -0.073059361
0.14590468 0.10941067 -0.073059361
0.18239869 0.10941067 -0.073059361
0.21889269 0.10941067 -0.073059361
0.2553867 0.10941067 -0.073059361
0.29188071 0.10941067 -0.073059361
0.32837471 0.10941067 -0.073059361
0.36486872 0.10941067 -0.073059361
0.40136273 0.10941067 -0.073059361
0.43785674 0.10941067 -0.073059361
0.47435074 0.10941067 -0.073059361
0.51084475 0.10941067 -0.073059361
0.54733876 0.10941067 -0.073059361
0.58383276 0.10941067 -0.073059361
0.62032677 0.10941067 -0.073059361
0.65682078 0.10941067 -0.073059361
0.69331478 0.10941067 -0.073059361
0.72980879 0.10941067 -0.073059361
0.7663028 0.10941067 -0.073059361
0.8027968 0.10941067 -0.073059361
0.83929081 0.10941067 -0.073059361
0.87578482 0.10941067 -0.073059361
0.91227882 0.10941067 -0.073059361
0.94877283 0.10941067 -0.073059361
0.98526684 0.10941067 -0.073059361
1.0217608 0.10941067 -0.073059361
1.0582549 0.10941067 -0.073059361
1.0947489 0.10941067 -0.073059361
-0.073059361 0.14590468 -0.073059361
-0.036565354 0.14590468 -0.073059361
-0.000071346994 0.14590468 -0.073059361
0.03642266 0.14590468 -0.073059361
0.072916667 0.14590468 -0.073059361
0.10941067 0.14590468 -0.073059361
0.14590468 0.14590468 -0.073059361
0.18239869 0.14590468 -0.073059361
0.21889269 0.14590468 -0.073059361
0.2553867 0.14590468 -0.073059361
0.29188071 0.14590468 -0.073059361
0.32837471 0.14590468 -0.073059361
0.36486872 0.14590468 -0.073059361
0.40136273 0.14590468 -0.073059361
0.43785674 0.14590468 -0.073059361
0.47435074 0.14590468 -0.073059361
0.51084475 0.14590468 -0.073059361
0.54733876 0.14590468 -0.073059361
0.58383276 0.14590468 -0.073059361
0.62032677 0.14590468 -0.073059361
0.65682078 0.14590468 -0.073059361
0.69331478 0.14590468 -0.073059361
0.72980879 0.14590468 -0.073059361
0.7663028 0.14590468 -0.073059361
0.8027968 0.14590468 -0.073059361
0.83929081 0.14590468 -0.073059361
0.87578482 0.14590468 -0.073059361
0.91227882 0.14590468 -0.073059361
0.94877283 0.14590468 -0.073059361
0.98526684 0.14590468 -0.073059361
1.0217608 0.14590468 -0.073059361
1.0582549 0.14590468 -0.073059361
1.0947489 0.14590468 -0.073059361
-0.073059361 0.18239869 -0.073059361
-0.036565354 0.18239869 -0.073059361
-0.000071346994 0.18239869 -0.073059361
0.03642266 0.18239869 -0.073059361
0.072916667 0.18239869 -0.073059361
0.10941067 0.18239869 -0.073059361
0.14590468 0.18239869 -0.073059361
0.18239869 0.18239869 -0.073059361
0.21889269 0.18239869 -0.073059361
0.2553867 0.18239869 -0.073059361
0.29188071 0.18239869 -0.073059361
0.32837471 0.18239869 -0.073059361
0.36486872 0.18239869 -0.073059361
0.40136273 0.18239869 -0.073059361
0.43785674 0.18239869 -0.073059361
0.47435074 0.18239869 -0.073059361
0.51084475 0.18239869 -0.073059361
0.54733876 0.18239869 -0.073059361
0.58383276 0.18239869 -0.073059361
0.62032677 0.18239869 -0.073059361
0.65682078 0.18239869 -0.073059361
0.69331478 0.18239869 -0.073059361
0.72980879 0.18239869 -0.073059361
0.7663028 0.18239869 -0.073059361
0.8027968 0.18239869 -0.073059361
0.83929081 0.18239869 -0.073059361
0.87578482 0.18239869 -0.073059361
0.91227882 0.18239869 -0.073059361
0.94877283 0.18239869 -0.073059361
0.98526684 0.18239869 -0.073059361
1.0217608 0.18239869 -0.073059361
1.0582549 0.18239869 -0.073059361
1.0947489 0.18239869 -0.073059361
-0.073059361 0.21889269 -0.073059361
-0.036565354 0.21889269 -0.073059361
-0.000071346994 0.21889269 -0.073059361
0.03642266 0.21889269 -0.073059361
0.072916667 0.21889269 -0.073059361
0.10941067 0.21889269 -0.073059361
0.14590468 0.21889269 -0.073059361
0.18239869 0.21889269 -0.073059361
0.21889269 0.21889269 -0.073059361
0.2553867 0.21889269 -0.073059361
0.29188071 0.21889269 -0.073059361
0.32837471 0.21889269 -0.073059361
0.36486872 0.21889269 -0.073059361
0.40136273 0.21889269 -0.073059361
0.43785674 0.21889269 -0.073059361
0.47435074 0.21889269 -0.073059361
0.51084475 0.21889269 -0.073059361
0.54733876 0.21889269 -0.073059361
0.58383276 0.21889269 -0.073059361
0.62032677 0.21889269 -0.073059361
0.65682078 0.21889269 -0.073059361
0.69331478 0.21889269 -0.073059361
0.72980879 0.21889269 -0.073059361
0.7663028 0.21889269 -0.073059361
0.8027968 0.21889269 -0.073059361
0.83929081 0.21889269 -0.073059361
0.87578482 0.21889269 -0.073059361
0.91227882 0.21889269 -0.073059361
0.94877283 0.21889269 -0.073059361
0.98526684 0.21889269 -0.073059361
1.0217608 0.21889269 -0.073059361
1.0582549 0.21889269 -0.073059361
1.0947489 0.21889269 -0.073059361
-0.073059361 0.2553867 -0.073059361
-0.036565354 0.2553867 -0.073059361
-0.000071346994 0.2553867 -0.073059361
0.03642266 0.2553867 -0.073059361
0.072916667 0.2553867 -0.073059361
0.10941067 0.2553867 -0.073059361
0.14590468 0.2553867 -0.073059361
0.18239869 0.2553867 -0.073059361
0.21889269 0.2553867 -0.073059361
0.2553867 0.2553867 -0.073059361
0.29188071 0.2553867 -0.073059361
0.32837471 0.2553867 -0.073059361
0.36486872 0.2553867 -0.073059361
0.40136273 0.2553867 -0.073059361
0.43785674 0.2553867 -0.073059361
0.47435074 0.2553867 -0.073059361
0.51084475 0.2553867 -0.073059361
0.54733876 0.2553867 -0.073059361
0.58383276 0.2553867 -0.073059361
0.62032677 0.2553867 -0.073059361
0.65682078 0.2553867 -0.073059361
0.69331478 0.2553867 -0.073059361
0.72980879 0.2553867 -0.073059361
0.7663028 0.2553867 -0.073059361
0.8027968 0.2553867 -0.073059361
0.83929081 0.2553867 -0.073059361
0.87578482 0.2553867 -0.073059361
0.91227882 0.2553867 -0.073059361
0.94877283 0.2553867 -0.073059361
0.98526684 0.2553867 -0.073059361
1.0217608 0.2553867 -0.073059361
1.0582549 0.2553867 -0.073059361
1.0947489 0.2553867 -0.073059361
-0.073059361 0.29188071 -0.073059361
-0.036565354 0.29188071 -0.073059361
-0.000071346994 0.29188071 -0.073059361
0.03642266 0.29188071 -0.073059361
0.072916667 0.29188071 -0.073059361
0.10941067 0.29188071 -0.073059361
0.14590468 0.29188071 -0.073059361
0.18239869 0.29188071 -0.073059361
0.21889269 0.29188071 -0.073059361
0.2553867 0.29188071 -0.073059361
0.29188071 0.29188071 -0.073059361
0.32837471 0.29188071 -0.073059361
0.36486872 0.29188071 -0.073059361
0.40136273 0.29188071 -0.073059361
0.43785674 0.29188071 -0.073059361
0.47435074 0.29188071 -0.073059361
0.51084475 0.29188071 -0.073059361
0.54733876 0.29188071 -0.073059361
0.58383276 0.29188071 -0.073059361
0.62032677 0.29188071 -0.073059361
0.65682078 0.29188071 -0.073059361
0.69331478 0.29188071 -0.073059361
0.72980879 0.29188071 -0.073059361
0.7663028 0.29188071 -0.073059361
0.8027968 0.29188071 -0.073059361
0.83929081 0.29188071 -0.073059361
0.87578482 0.29188071 -0.073059361
0.91227882 0.29188071 -0.073059361
0.94877283 0.29188071 -0.073059361
0.98526684 0.29188071 -0.073059361
1.0217608 0.29188071 -0.073059361
1.0582549 0.29188071 -0.073059361
1.0947489 0.29188071 -0.073059361
-0.073059361 0.32837471 -0.073059361
-0.036565354 0.32837471 -0.073059361
-0.000071346994 0.32837471 -0.073059361
0.03642266 0.32837471 -0.073059361
0.072916667 0.32837471 -0.073059361
0.10941067 0.32837471 -0.073059361
0.14590468 0.32837471 -0.073059361
0.18239869 0.32837471 -0.073059361
0.21889269 0.32837471 -0.073059361
0.2553867 0.32837471 -0.073059361
0.29188071 0.32837471 -0.073059361
0.32837471 0.32837471 -0.073059361
0.36486872 0.32837471 -0.073059361
0.40136273 0.32837471 -0.073059361
0.43785674 0.32837471 -0.073059361
0.47435074 0.32837471 -0.073059361
0.51084475 0.32837471 -0.073059361
0.54733876 0.32837471 -0.073059361
0.58383276 0.32837471 -0.073059361
0.62032677 0.32837471 -0.073059361
0.65682078 0.32837471 -0.073059361
0.69331478 0.32837471 -0.073059361
0.72980879 0.32837471 -0.073059361
0.7663028 0.32837471 -0.073059361
0.8027968 0.32837471 -0.073059361
0.83929081 0.32837471 -0.073059361
0.87578482 0.32837471 -0.073059361
0.91227882 0.32837471 -0.073059361
0.94877283 0.32837471 -0.073059361
0.98526684 0.32837471 -0.073059361
1.0217608 0.32837471 -0.073059361
1.0582549 0.32837471 -0.073059361
1.0947489 0.32837471 -0.073059361
-0.073059361 0.36486872 -0.073059361
-0.036565354 0.36486872 -0.073059361
-0.000071346994 0.36486872 -0.073059361
0.03642266 0.36486872 -0.073059361
0.072916667 0.36486872 -0.073059361
0.10941067 0.36486872 -0.073059361
0.14590468 0.36486872 -0.073059361
0.18239869 0.36486872 -0.073059361
0.21889269 0.36486872 -0.073059361
0.2553867 0.36486872 -0.073059361
0.29188071 0.36486872 -0.073059361
0.32837471 0.36486872 -0.073059361
0.36486872 0.36486872 -0.073059361
0.40136273 0.36486872 -0.073059361
0.43785674 0.36486872 -0.073059361
0.47435074 0.36486872 -0.073059361
0.51084475 0.36486872 -0.073059361
0.54733876 0.36486872 -0.073059361
0.58383276 0.36486872 -0.073059361
0.62032677 0.36486872 -0.073059361
0.65682078 0.36486872 -0.073059361
0.69331478 0.36486872 -0.073059361
0.72980879 0.36486872 -0.073059361
0.7663028 0.36486872 -0.073059361
0.8027968 0.36486872 -0.073059361
0.83929081 0.36486872 -0.073059361
0.87578482 0.36486872 -0.073059361
0.91227882 0.36486872 -0.073059361
0.94877283 0.36486872 -0.073059361
0.98526684 0.36486872 -0.073059361
1.0217608 0.36486872 -0.073059361
1.0582549 0.36486872 -0.073059361
1.0947489 0.36486872 -0.073059361
-0.073059361 0.40136273 -0.073059361
-0.036565354 0.40136273 -0.073059361
-0.000071346994 0.40136273 -0.073059361
0.03642266 0.40136273 -0.073059361
0.072916667 0.40136273 -0.073059361
0.10941067 0.40136273 -0.073059361
0.14590468 0.40136273 -0.073059361
0.18239869 0.40136273 -0.073059361
0.21889269 0.40136273 -0.073059361
0.2553867 0.40136273 -0.073059361
0.29188071 0.40136273 -0.073059361
0.32837471 0.40136273 -0.073059361
0.36486872 0.40136273 -0.073059361
0.40136273 0.40136273 -0.073059361
0.43785674 0.40136273 -0.073059361
0.47435074 0.40136273 -0.073059361
0.51084475 0.40136273 -0.073059361
0.54733876 0.40136273 -0.073059361
0.58383276 0.40136273 -0.073059361
0.62032677 0.40136273 -0.073059361
0.65682078 0.40136273 -0.073059361
0.69331478 0.40136273 -0.073059361
0.72980879 0.40136273 -0.073059361
0.7663028 0.40136273 -0.073059361
0.8027968 0.40136273 -0.073059361
0.83929081 0.40136273 -0.073059361
0.87578482 0.40136273 -0.073059361
0.91227882 0.40136273 -0.073059361
0.94877283 0.40136273 -0.073059361
0.98526684 0.40136273 -0.073059361
1.0217608 0.40136273 -0.073059361
1.0582549 0.40136273 -0.073059361
1.0947489 0.40136273 -0.073059361
-0.073059361 0.43785674 -0.073059361
-0.036565354 0.43785674 -0.073059361
-0.000071346994 0.43785674 -0.073059361
0.03642266 0.43785674 -0.073059361
0.072916667 0.43785674 -0.073059361
0.10941067 0.43785674 -0.073059361
0.14590468 0.43785674 -0.073059361
0.18239869 0.43785674 -0.073059361
0.21889269 0.43785674 -0.073059361
0.2553867 0.43785674 -0.073059361
0.29188071 0.43785674 -0.073059361
0.32837471 0.43785674 -0.073059361
0.36486872 0.43785674 -0.073059361
0.40136273 0.43785674 -0.073059361
0.43785674 0.43785674 -0.073059361
0.47435074 0.43785674 -0.073059361
0.51084475 0.43785674 -0.073059361
0.54733876 0.43785674 -0.073059361
0.58383276 0.43785674 -0.073059361
0.62032677 0.43785674 -0.073059361
0.65682078 0.43785674 -0.073059361
0.69331478 0.43785674 -0.073059361
0.72980879 0.43785674 -0.073059361
0.7663028 0.43785674 -0.073059361
0.8027968 0.43785674 -0.073059361
0.83929081 0.43785674 -0.073059361
0.87578482 0.43785674 -0.073059361
0.91227882 0.43785674 -0.073059361
0.94877283 0.43785674 -0.073059361
0.98526684 0.43785674 -0.073059361
1.0217608 0.43785674 -0.073059361
1.0582549 0.43785674 -0.073059361
1.0947489 0.43785674 -0.073059361
-0.073059361 0.47435074 -0.073059361
-0.036565354 0.47435074 -0.073059361
-0.000071346994 0.47435074 -0.073059361
0.03642266 0.47435074 -0.073059361
0.072916667 0.47435074 -0.073059361
0.10941067 0.47435074 -0.073059361
0.14590468 0.47435074 -0.073059361
0.18239869 0.47435074 -0.073059361
0.21889269 0.47435074 -0.073059361
0.2553867 0.47435074 -0.073059361
0.29188071 0.47435074 -0.073059361
0.32837471 0.47435074 -0.073059361
0.36486872 0.47435074 -0.073059361
0.40136273 0.47435074 -0.073059361
0.43785674 0.47435074 -0.073059361
0.47435074 0.47435074 -0.073059361
0.51084475 0.47435074 -0.073059361
0.54733876 0.47435074 -0.073059361
0.58383276 0.47435074 -0.073059361
0.62032677 0.47435074 -0.073059361
0.65682078 0.47435074 -0.073059361
0.69331478 0.47435074 -0.073059361
0.72980879 0.47435074 -0.073059361
0.7663028 0.47435074 -0.073059361
0.8027968 0.47435074 -0.073059361
0.83929081 0.47435074 -0.073059361
0.87578482 0.47435074 -0.073059361
0.91227882 0.47435074 -0.073059361
0.94877283 0.47435074 -0.073059361
0.98526684 0.47435074 -0.073059361
1.0217608 0.47435074 -0.073059361
1.0582549 0.47435074 -0.073059361
1.0947489 0.47435074 -0.073059361
-0.073059361 0.51084475 -0.073059361
-0.036565354 0.51084475 -0.073059361
-0.000071346994 0.51084475 -0.073059361
0.03642266 0.51084475 -0.073059361
0.072916667 0.51084475 -0.073059361
0.10941067 0.51084475 -0.073059361
0.14590468 0.51084475 -0.073059361
0.18239869 0.51084475 -0.073059361
0.21889269 0.51084475 -0.073059361
0.2553867 0.51084475 -0.073059361
0.29188071 0.51084475 -0.073059361
0.32837471 0.51084475 -0.073059361
0.36486872 0.51084475 -0.073059361
0.40136273 0.51084475 -0.073059361
0.43785674 0.51084475 -0.073059361
0.47435074 0.51084475 -0.073059361
0.51084475 0.51084475 -0.073059361
0.54733876 0.51084475 -0.073059361
0.58383276 0.51084475 -0.073059361
0.62032677 0.51084475 -0.073059361
0.65682078 0.51084475 -0.073059361
0.69331478 0.51084475 -0.073059361
0.72980879 0.51084475 -0.073059361
0.7663028 0.51084475 -0.073059361
0.8027968 0.51084475 -0.073059361
0.83929081 0.51084475 -0.073059361
0.87578482 0.51084475 -0.073059361
0.91227882 0.51084475 -0.073059361
0.94877283 0.51084475 -0.073059361
0.98526684 0.51084475 -0.073059361
1.0217608 0.51084475 -0.073059361
1.0582549 0.51084475 -0.073059361
1.0947489 0.51084475 -0.073059361
-0.073059361 0.54733876 -0.073059361
-0.036565354 0.54733876 -0.073059361
-0.000071346994 0.54733876 -0.073059361
0.03642266 0.54733876 -0.073059361
0.072916667 0.54733876 -0.073059361
0.10941067 0.54733876 -0.073059361
0.14590468 0.54733876 -0.073059361
0.18239869 0.54733876 -0.073059361
0.21889269 0.54733876 -0.073059361
0.2553867 0.54733876 -0.073059361
0.29188071 0.54733876 -0.073059361
0.32837471 0.54733876 -0.073059361
0.36486872 0.54733876 -0.073059361
0.40136273 0.54733876 -0.073059361
0.43785674 0.54733876 -0.073059361
0.47435074 0.54733876 -0.073059361
0.51084475 0.54733876 -0.073059361
0.54733876 0.54733876 -0.073059361
0.58383276 0.54733876 -0.073059361
0.62032677 0.54733876 -0.073059361
0.65682078 0.54733876 -0.073059361
0.69331478 0.54733876 -0.073059361
0.72980879 0.54733876 -0.073059361
0.7663028 0.54733876 -0.073059361
0.8027968 0.54733876 -0.073059361
0.83929081 0.54733876 -0.073059361
0.87578482 0.54733876 -0.073059361
0.91227882 0.54733876 -0.073059361
0.94877283 0.54733876 -0.073059361
0.98526684 0.54733876 -0.073059361
1.0217608 0.54733876 -0.073059361
1.0582549 0.54733876 -0.073059361
1.0947489 0.54733876 -0.073059361
-0.073059361 0.58383276 -0.073059361
-0.036565354 0.58383276 -0.073059361
-0.000071346994 0.58383276 -0.073059361
0.03642266 0.58383276 -0.073059361
0.072916667 0.58383276 -0.073059361
0.10941067 0.58383276 -0.073059361
0.14590468 0.58383276 -0.073059361
0.18239869 0.58383276 -0.073059361
0.21889269 0.58383276 -0.073059361
0.2553867 0.58383276 -0.073059361
0.29188071 0.58383276 -0.073059361
0.32837471 0.58383276 -0.073059361
0.36486872 0.58383276 -0.073059361
0.40136273 0.58383276 -0.073059361
0.43785674 0.58383276 -0.073059361
0.47435074 0.58383276 -0.073059361
0.51084475 0.58383276 -0.073059361
0.54733876 0.58383276 -0.073059361
0.58383276 0.58383276 -0.073059361
0.62032677 0.58383276 -0.073059361
0.65682078 0.58383276 -0.073059361
0.69331478 0.58383276 -0.073059361
0.72980879 0.58383276 -0.073059361
0.7663028 0.58383276 -0.073059361
0.8027968 0.58383276 -0.073059361
0.83929081 0.58383276 -0.073059361
0.87578482 0.58383276 -0.073059361
0.91227882 0.58383276 -0.073059361
0.94877283 0.58383276 -0.073059361
0.98526684 0.58383276 -0.073059361
