site/assets/luts/sha256-478115888b88129e1e2a88b130291185e4fcf5798eedfa0c80f72c50c033d634.cube
# LUTr-Schema-Version: 2
# LUTr-ID: sha256-478115888b88129e1e2a88b130291185e4fcf5798eedfa0c80f72c50c033d634
# LUTr-Title: deuteranope correct lut
# LUTr-Collection: Colour-Blind LUTs
# LUTr-Collection-ID: andrewwillmott-colour-blind-luts
# LUTr-Source: https://github.com/andrewwillmott/colour-blind-luts
# LUTr-Retrieved: 2026-07-27
# LUTr-Source-File: submissions/andrewwillmott-colour-blind-luts/luts/deuteranope_correct_lut.png
# LUTr-Source-Format: HALD-PNG
# LUTr-Source-SHA256: 478115888b88129e1e2a88b130291185e4fcf5798eedfa0c80f72c50c033d634
# LUTr-License: Unlicense
# LUTr-License-URL: https://github.com/andrewwillmott/colour-blind-luts/blob/master/LICENSE
# LUTr-License-Basis: repo-license-file
# LUTr-Transform-Class: accessibility
# LUTr-Tags: technical, accessibility, color-vision, simulation, correction, png, deuteranopia, cube
# LUTr-Input-Color-Space: srgb
# LUTr-Input-Gamut: rec709
# LUTr-Input-Transfer: srgb
# LUTr-Output-Color-Space: srgb
# LUTr-Output-Gamut: rec709
# LUTr-Output-Transfer: srgb
# LUTr-Color-Space-Confidence: assumed-display-referred
# LUTr-Domain-Normalized: true
# LUTr-Shaper: none
# LUTr-Original-Grid: 32x32x32
# LUTr-Conversion-Grid: 32x32x32
# LUTr-Conversion-Interpolation: none
# LUTr-Conversion-Method: HALD-PNG LUT image decoded at 16-bit and sampled to 32x32x32 3D CUBE
# LUTr-Conversion-Tool: LUTr scripts/convert-all-to-cube.mjs 2.0.0
# LUTr-Conversion-Date: 2026-07-27
# LUTr-Note: Preserve this metadata and the upstream license notices when redistributing.
TITLE "deuteranope correct lut"
LUT_3D_SIZE 5
DOMAIN_MIN 0.000000 0.000000 0.000000
DOMAIN_MAX 0.903226 0.903226 0.903226
0.011657893 0.015640497 0.011657893
0.26961166 0 0.2342565
0.52758068 0 0.45679408
0.78150607 0 0.67934691
0.99650568 0 0.90180819
0 0.25394064 0.000061036088
0.23035019 0.23439384 0.015548943
0.50794232 0.1445182 0.40613413
0.7698024 0 0.64805066
0.99655146 0 0.8823682
0 0.49225605 0.00018310826
0 0.48049134 0.00018310826
0.45291829 0.44937819 0.015609979
0.73833829 0.39060044 0.53101396
0.99632258 0.26556802 0.80428779
0 0.72669566 0.00038147555
0 0.72280461 0.00032043946
0.31221485 0.70324254 0.0001373312
0.67159533 0.67203784 0.015564202
0.96090639 0.61330587 0.6365301
0 0.96498054 0.00038147555
0 0.96112001 0.00044251164
0 0.94935531 0.00044251164
0.55431449 0.92596323 0.00010681315
0.88628977 0.89083696 0.011612116
0.011810483 0.015548943 0.23439384
0.26968795 0 0.32014954
0.52755016 0 0.50360876
0.7815671 0 0.71059739
0.99647517 0 0.92138552
0 0.25394064 0.000061036088
0.23439384 0.23439384 0.23439384
0.50795758 0.14448768 0.4568246
0.76984817 0 0.67930114
0.99650568 0 0.90180819
0 0.49225605 0.00018310826
0 0.48049134 0.00018310826
0.44911879 0.45316243 0.23431754
0.73833829 0.39064622 0.57009232
0.99630732 0.26562905 0.82778668
0 0.72669566 0.00038147555
0 0.72280461 0.00032043946
0.31221485 0.70324254 0.0001373312
0.6677348 0.67199207 0.23045701
0.96095216 0.61327535 0.66779583
0 0.96498054 0.00038147555
0 0.96112001 0.00044251164
0 0.94935531 0.00044251164
0.55431449 0.92596323 0.00010681315
0.88639658 0.89079118 0.23047227
0.015747311 0.011627375 0.45311666
0.26979477 0 0.49982452
0.5276112 0 0.62476539
0.78162814 0 0.79649042
0.99658198 0 0.98783856
0 0.25384909 0.39859617
0.23439384 0.23042649 0.45313191
0.5079881 0.14445716 0.58966964
0.76984817 0 0.76920729
0.99644465 0 0.9682002
0 0.49225605 0.00018310826
0 0.4805066 0.21892119
0.45305562 0.44924086 0.4530251
0.73836881 0.39060044 0.67556268
0.99633783 0.26562905 0.89811551
0 0.72669566 0.00038147555
0 0.72280461 0.00032043946
0.31221485 0.70324254 0.0001373312
0.66784161 0.67196155 0.44919509
0.96102846 0.61333639 0.75764096
0 0.96498054 0.00038147555
0 0.96112001 0.00044251164
0 0.94935531 0.00044251164
0.55431449 0.92596323 0.00010681315
0.88648814 0.89076066 0.4492256
0.01200885 0.015472648 0.67188525
0.26976425 0 0.69904631
0.5276875 0 0.78873884
0.78162814 0 0.92545968
0.99645991 0 0.99559014
0.000076295109 0.25381857 0.63677424
0.23067063 0.23427176 0.67190051
0.50806439 0.14442664 0.76546883
0.76992447 0 0.9057908
0.99645991 0 0.99559014
0 0.49211872 0.51587701
0 0.48041505 0.5588159
0.44933242 0.45308614 0.6717937
0.73844511 0.39064622 0.82790875
0.99642939 0.2655375 0.99563592
0 0.72669566 0.00038147555
0 0.72274357 0.1956817
0.31236744 0.70315099 0.44162661
0.66797894 0.67188525 0.67180896
0.96099794 0.61332113 0.89434653
0 0.96498054 0.00038147555
0 0.96112001 0.00044251164
0 0.94935531 0.00044251164
0.5544213 0.92593271 0.24623484
0.88659495 0.89071489 0.66796368
0.012085145 0.011581598 0.89068437
0.26990158 0 0.91004807
0.52774853 0 0.97634852
0.78159762 0 0.99572747
0.99645991 0 0.99559014
0.00025940337 0.25375753 0.8673228
0.23077745 0.23424125 0.89063859
0.50815595 0.14438087 0.95681697
0.76993973 0 0.99569696
0.99645991 0 0.99559014
0.000091554131 0.49216449 0.78538186
0.00012207218 0.48041505 0.81275654
0.45325399 0.44914931 0.89063859
0.73856718 0.39053941 0.99588006
0.99642939 0.2655375 0.99563592
0 0.7266041 0.61365682
0 0.72266728 0.64872206
0.31250477 0.70316625 0.74238193
0.6679942 0.67190051 0.89056229
0.96108949 0.61329061 0.9959411
0 0.96498054 0.00038147555
0 0.96107424 0.14497597
0 0.94930953 0.42623026
0.55455863 0.92584115 0.66033417
0.88664073 0.89069963 0.89057755
