site/assets/luts/sha256-984b1ef2a884944fca9918b183275ae02429609b6f6ffb54417036ad4ed840ff.cube
# LUTr-Schema-Version: 2
# LUTr-ID: sha256-984b1ef2a884944fca9918b183275ae02429609b6f6ffb54417036ad4ed840ff
# LUTr-Title: generic fuji velvia 100
# LUTr-Collection: Natron HaldCLUT
# LUTr-Collection-ID: natron-haldclut-presets
# LUTr-Source: https://github.com/NatronGitHub/clut
# LUTr-Retrieved: 2026-07-27
# LUTr-Source-File: submissions/natron-haldclut-presets/colorslide/generic_fuji_velvia_100.png
# LUTr-Source-Format: HALD-PNG
# LUTr-Source-SHA256: 984b1ef2a884944fca9918b183275ae02429609b6f6ffb54417036ad4ed840ff
# LUTr-License: CC-BY-SA-4.0
# LUTr-License-URL: https://github.com/NatronGitHub/clut#license
# LUTr-License-Basis: repo-license-file
# LUTr-Transform-Class: film-emulation
# LUTr-Tags: creative, film, film-emulation, hald-clut, natron, png, cube
# LUTr-Input-Color-Space: srgb
# LUTr-Input-Gamut: rec709
# LUTr-Input-Transfer: srgb
# LUTr-Output-Color-Space: srgb
# LUTr-Output-Gamut: rec709
# LUTr-Output-Transfer: srgb
# LUTr-Color-Space-Confidence: assumed-display-referred
# LUTr-Domain-Normalized: true
# LUTr-Shaper: none
# LUTr-Original-Grid: 64x64x64
# LUTr-Conversion-Grid: 25x25x25
# LUTr-Conversion-Interpolation: trilinear
# LUTr-Conversion-Method: HALD-PNG LUT image decoded at 16-bit and sampled to 25x25x25 3D CUBE
# LUTr-Conversion-Tool: LUTr scripts/convert-all-to-cube.mjs 2.0.0
# LUTr-Conversion-Date: 2026-07-27
# LUTr-Note: Preserve this metadata and the upstream license notices when redistributing.
TITLE "generic fuji velvia 100"
LUT_3D_SIZE 25
DOMAIN_MIN 0 0 0
DOMAIN_MAX 1 1 1
0.02745098 0.039215686 0.023529412
0.031372549 0.036764706 0.023529412
0.057843137 0.030392157 0.018627451
0.085294118 0.016176471 0.011764706
0.11568627 0.0019607843 0.0019607843
0.15882353 0.011764706 0.012254902
0.20294118 0.018627451 0.02254902
0.24901961 0.023529412 0.031372549
0.30196078 0.015686275 0.031372549
0.35980392 0.0093137255 0.023529412
0.41764706 0.0039215686 0.019607843
0.47941176 0.0039215686 0.026960784
0.54117647 0.0078431373 0.033333333
0.60686275 0.0078431373 0.030882353
0.67254902 0.0049019608 0.020588235
0.73823529 0.0024509804 0.010294118
0.79607843 0 0.0039215686
0.84754902 0.0039215686 0.011764706
0.89901961 0.0039215686 0.014705882
0.95392157 0.00049019608 0.0083333333
1 0 0.0039215686
1 0.0039215686 0.0078431373
1 0.0039215686 0.0078431373
1 0.0024509804 0.006372549
1 0 0.0039215686
0.031372549 0.039215686 0.023529412
0.031372549 0.039215686 0.026531863
0.051470588 0.034926471 0.021446078
0.084497549 0.028615196 0.012254902
0.11568627 0.028431373 0.0078431373
0.15882353 0.026960784 0.014705882
0.20110294 0.026593137 0.026470588
0.24656863 0.023529412 0.032843137
0.30196078 0.022058824 0.031372549
0.35827206 0.022120098 0.025
0.41519608 0.024509804 0.019607843
0.47696078 0.024509804 0.026960784
0.54117647 0.020588235 0.037254902
0.60343137 0.018137255 0.040870098
0.67156863 0.019485294 0.024509804
0.73578431 0.016666667 0.0097426471
0.79607843 0.012745098 0.006372549
0.84754902 0.006372549 0.019669118
0.89901961 0.006372549 0.022058824
0.95177696 0.0085171569 0.012561275
0.99044118 0.012745098 0.006372549
0.99607843 0.012745098 0.010294118
0.99607843 0.010906863 0.010294118
0.99754902 0.0079044118 0.0072916667
1 0.0049019608 0.0024509804
0.033333333 0.05 0.02745098
0.033333333 0.05 0.02745098
0.049754902 0.050735294 0.021568627
0.079901961 0.053921569 0.012132353
0.11372549 0.055392157 0.0098039216
0.15796569 0.05379902 0.019607843
0.2 0.050735294 0.026470588
0.24620098 0.040686275 0.030392157
0.29803922 0.042156863 0.030392157
0.35588235 0.045098039 0.024019608
0.41372549 0.049019608 0.017892157
0.4754902 0.049019608 0.022058824
0.53921569 0.045588235 0.029901961
0.60343137 0.042156863 0.032965686
0.66862745 0.042156863 0.019607843
0.73370098 0.041176471 0.012377451
0.79509804 0.037254902 0.0078431373
0.84754902 0.026960784 0.021078431
0.89730392 0.023284314 0.025735294
0.94313725 0.030269608 0.016176471
0.97990196 0.034313725 0.015686275
0.98860294 0.032965686 0.015686275
0.99191176 0.029411765 0.015686275
0.9942402 0.025490196 0.010294118
1 0.024509804 0.0039215686
0.046568627 0.088235294 0.023529412
0.048713235 0.084803922 0.023529412
0.059313725 0.083455882 0.015196078
0.070465686 0.080882353 0.0049019608
0.10637255 0.080882353 0.006372549
0.15490196 0.080882353 0.015747549
0.19914216 0.080882353 0.019117647
0.24264706 0.075183824 0.020098039
0.29803922 0.073039216 0.020098039
0.35588235 0.073039216 0.017463235
0.41752451 0.073161765 0.01127451
0.47849265 0.073529412 0.011764706
0.54117647 0.073039216 0.016176471
0.60294118 0.069607843 0.016176471
0.66776961 0.069117647 0.015808824
0.73039216 0.063909314 0.011764706
0.79215686 0.06127451 0.0044117647
0.84540441 0.053615196 0.010784314
0.89509804 0.053431373 0.016176471
0.94313725 0.057352941 0.015747549
0.98014706 0.06127451 0.013970588
0.98866422 0.05692402 0.015686275
0.99203431 0.050857843 0.012254902
0.99607843 0.046078431 0.0065563725
1 0.042156863 0
0.052941176 0.1254902 0.019607843
0.056127451 0.12352941 0.017647059
0.067647059 0.12107843 0.010784314
0.077696078 0.11764706 0.006127451
0.10686275 0.11470588 0.0068627451
0.15147059 0.11397059 0.0098039216
0.19607843 0.1122549 0.0083333333
0.24068627 0.10906863 0.0078431373
0.29411765 0.10784314 0.011764706
0.35392157 0.10661765 0.015931373
0.41617647 0.10539216 0.0053921569
0.47941176 0.10392157 0.0036764706
0.53921569 0.10588235 0.0078431373
0.60294118 0.10784314 0.011764706
0.66470588 0.10441176 0.011764706
0.72720588 0.096568627 0.0078431373
0.78823529 0.090196078 0.0039215686
0.84362745 0.08627451 0.0039215686
0.89558824 0.088235294 0.0083333333
0.9504902 0.088235294 0.0080882353
0.99019608 0.088235294 0.0058823529
0.99436275 0.084313725 0.0080882353
0.99607843 0.084313725 0.01127451
0.99877451 0.082352941 0.0098039216
1 0.082352941 0.0098039216
0.058823529 0.1622549 0.011764706
0.059313725 0.15882353 0.01127451
0.06875 0.15845588 0.0078431373
0.089705882 0.15882353 0.011335784
0.1120098 0.15931373 0.012254902
0.15140931 0.15533088 0.012193627
0.19264706 0.15232843 0.0079656863
0.23529412 0.15147059 0.0042279412
0.29362745 0.15147059 0.0078431373
0.35165441 0.15147059 0.0078431373
0.41323529 0.15539216 0.0078431373
0.475 0.15496324 0.0078431373
0.5372549 0.15098039 0.0078431373
0.59993873 0.15098039 0.01127451
0.66507353 0.14669118 0.011642157
0.73039216 0.1377451 0.012561275
0.79215686 0.13529412 0.012254902
0.84362745 0.13529412 0.0083333333
0.89509804 0.13186275 0.0078431373
0.95042892 0.12886029 0.0044117647
0.99387255 0.12818627 0.0039215686
0.99607843 0.12401961 0.0083333333
0.99644608 0.12365196 0.012132353
1 0.12352941 0.016176471
1 0.11960784 0.016176471
0.059803922 0.20294118 0.011764706
0.059803922 0.2004902 0.0089460784
0.067401961 0.2 0.0085784314
0.090196078 0.20379902 0.014338235
0.1122549 0.20686275 0.018627451
0.14460784 0.20294118 0.015686275
0.1747549 0.20294118 0.014705882
0.22156863 0.20294118 0.0096813725
0.2872549 0.20294118 0.0078431373
0.34803922 0.20294118 0.0078431373
0.40980392 0.20686275 0.0078431373
0.47156863 0.20343137 0.0078431373
0.5372549 0.19705882 0.0078431373
0.60294118 0.19178922 0.0078431373
0.66862745 0.1875 0.011519608
0.7310049 0.18333333 0.019607843
0.78823529 0.18333333 0.016666667
0.84068627 0.18333333 0.012745098
0.89215686 0.18333333 0.0078431373
0.94362745 0.18590686 0.0078431373
0.98823529 0.18627451 0.0053921569
0.99607843 0.18186275 0.0083333333
0.99681373 0.1747549 0.015441176
1 0.16764706 0.019607843
1 0.16372549 0.02254902
0.049509804 0.25833333 0.021078431
0.050428922 0.25680147 0.017156863
0.055514706 0.25588235 0.021078431
0.070588235 0.25833333 0.023223039
0.093627451 0.25563725 0.022794118
0.11323529 0.25588235 0.016176471
0.15147059 0.25588235 0.017892157
0.20882353 0.25588235 0.011764706
0.27696078 0.25588235 0.011764706
0.34356618 0.25441176 0.0053921569
0.40588235 0.2564951 0.0088235294
0.47009804 0.25833333 0.02064951
0.53651961 0.25 0.011764706
0.59932598 0.24411765 0.009129902
0.66323529 0.24019608 0.011151961
0.725 0.24019608 0.014215686
0.78284314 0.23872549 0.010294118
0.83578431 0.23964461 0.0078431373
0.8872549 0.24019608 0.0078431373
0.93872549 0.24234069 0.0078431373
0.98553922 0.24264706 0.0078431373
0.99607843 0.23841912 0.011764706
0.99607843 0.23235294 0.015686275
1 0.22696078 0.018137255
1 0.22058824 0.019607843
0.039215686 0.31372549 0.02745098
0.043137255 0.31127451 0.02745098
0.047058824 0.30980392 0.02745098
0.050980392 0.30980392 0.02745098
0.052941176 0.31176471 0.019607843
0.068627451 0.31372549 0.015686275
0.12352941 0.31372549 0.014705882
0.19460784 0.31372549 0.015686275
0.2627451 0.31372549 0.011764706
0.33480392 0.31372549 0.011764706
0.40294118 0.31372549 0.012745098
0.46764706 0.31372549 0.019117647
0.53333333 0.30784314 0.019607843
0.59509804 0.30588235 0.015686275
0.65686275 0.30196078 0.015686275
0.71715686 0.29803922 0.011764706
0.77647059 0.29803922 0.0078431373
0.83039216 0.29803922 0.0078431373
0.88333333 0.29803922 0.0078431373
0.93480392 0.29803922 0.0078431373
0.98431373 0.29803922 0.0078431373
0.99607843 0.29411765 0.0083333333
0.99607843 0.29019608 0.011764706
0.99754902 0.28872549 0.011764706
1 0.28235294 0.011764706
0.032843137 0.36911765 0.037745098
0.032843137 0.36764706 0.036213235
0.034313725 0.36911765 0.033210784
0.024816176 0.36893382 0.024019608
0.012254902 0.37352941 0.01372549
0.033823529 0.37518382 0.011764706
0.10588235 0.37156863 0.015318627
0.17886029 0.37156863 0.018688725
0.25245098 0.37156863 0.019607843
0.3245098 0.37156863 0.019607843
0.39264706 0.37156863 0.022058824
0.46470588 0.36942402 0.025980392
0.52941176 0.36642157 0.026715686
0.5908701 0.36372549 0.023345588
0.64901961 0.36188725 0.018504902
0.70833333 0.35980392 0.015134804
0.76617647 0.35588235 0.010294118
0.81856618 0.35680147 0.011213235
0.87303922 0.35980392 0.011764706
0.92794118 0.35588235 0.0081495098
0.97990196 0.35196078 0.0071078431
0.99215686 0.35196078 0.0081495098
0.99546569 0.35196078 0.011764706
0.9966299 0.34803922 0.0078431373
1 0.34803922 0.0053921569
0.02254902 0.42941176 0.043137255
0.021936275 0.42941176 0.039215686
0.014460784 0.42941176 0.030392157
0.0073529412 0.43284314 0.023039216
0.00049019608 0.43333333 0.01372549
0.0090686275 0.43639706 0.011764706
0.058823529 0.43357843 0.013970588
0.14031863 0.43223039 0.017156863
0.23921569 0.42941176 0.023529412
0.30539216 0.43333333 0.02254902
0.37745098 0.43333333 0.023529412
0.45036765 0.4307598 0.027328431
0.52352941 0.42598039 0.031372549
0.58235294 0.42242647 0.02745098
0.64019608 0.42156863 0.021323529
0.69803922 0.42156863 0.015686275
0.75588235 0.42156863 0.011764706
0.80735294 0.42156863 0.011764706
0.8627451 0.42058824 0.012745098
0.91421569 0.41764706 0.012745098
0.96666667 0.41764706 0.012745098
0.99129902 0.41372549 0.012745098
0.99215686 0.41053922 0.015686275
0.99607843 0.40943627 0.011764706
1 0.40588235 0.0078431373
0.012254902 0.49460784 0.043137255
0.0083333333 0.49460784 0.036764706
0.0042892157 0.49473039 0.026960784
0.00049019608 0.49509804 0.019669118
0.0056372549 0.49509804 0.015686275
0.0078431373 0.49558824 0.011764706
0.0089460784 0.49901961 0.0091911765
0.081862745 0.49883578 0.013541667
0.19803922 0.49509804 0.016176471
0.28480392 0.49754902 0.016176471
0.35686275 0.49901961 0.019730392
0.43241422 0.49852941 0.023958333
0.50490196 0.49460784 0.02745098
0.56856618 0.49068627 0.027022059
0.62610294 0.4872549 0.020588235
0.68431373 0.48547794 0.015686275
0.74558824 0.48333333 0.011764706
0.79705882 0.48118873 0.015502451
0.84865196 0.47941176 0.019117647
0.90392157 0.47941176 0.019117647
0.95343137 0.47941176 0.019607843
0.9848652 0.4754902 0.019607843
0.99215686 0.47156863 0.019240196
0.99607843 0.46764706 0.015502451
1 0.46421569 0.011764706
0.0078431373 0.55686275 0.037254902
0.0046568627 0.55686275 0.030882353
0.0039215686 0.55686275 0.023529412
0.0039215686 0.55686275 0.019607843
0.0039215686 0.55686275 0.015686275
0.0017156863 0.55686275 0.015196078
0 0.55882353 0.011764706
0.044852941 0.55882353 0.011764706
0.15490196 0.55686275 0.01372549
0.26053922 0.56004902 0.011764706
0.33970588 0.56127451 0.014215686
0.41029412 0.56102941 0.019117647
0.48627451 0.55980392 0.02254902
0.55392157 0.55465686 0.023529412
0.6122549 0.5495098 0.018137255
0.67352941 0.54436275 0.015686275
0.73529412 0.53921569 0.015686275
0.78946078 0.54117647 0.015686275
0.83823529 0.54068627 0.019607843
0.88970588 0.53921569 0.023529412
0.93921569 0.53823529 0.025490196
0.97769608 0.53676471 0.025245098
0.99509804 0.53039216 0.023529412
0.99607843 0.52941176 0.018872549
0.99607843 0.5254902 0.01372549
0.0039215686 0.62254902 0.030882353
0.0039215686 0.62254902 0.024816176
0.0039215686 0.61862745 0.022181373
0.0039215686 0.61819853 0.019607843
0.0019607843 0.61446078 0.015931373
0.00006127451 0.61421569 0.015686275
0.0030637255 0.61078431 0.015686275
0.029044118 0.61421569 0.016176471
0.12352941 0.61470588 0.015686275
0.22432598 0.61685049 0.011764706
0.31936275 0.61862745 0.011764706
0.39607843 0.61905637 0.015196078
0.47205882 0.61642157 0.017401961
0.53927696 0.61078431 0.015686275
0.60183824 0.60686275 0.015686275
0.66715686 0.60275735 0.015870098
0.72892157 0.59901961 0.019607843
0.78216912 0.59901961 0.019607843
0.83186275 0.59901961 0.019607843
0.88033088 0.59901961 0.023468137
0.92892157 0.59901961 0.025245098
0.97009804 0.59509804 0.026960784
0.99460784 0.59203431 0.024387255
0.99607843 0.58939951 0.01942402
0.99607843 0.5872549 0.015686275
0.00098039216 0.68431373 0.023529412
0 0.68247549 0.020588235
0.0039215686 0.67965686 0.019607843
0.0039215686 0.67389706 0.019607843
0.0039215686 0.67107843 0.019607843
0.0039215686 0.66862745 0.018627451
0.0046568627 0.66862745 0.019607843
0.015073529 0.67071078 0.019607843
0.085294118 0.67254902 0.015686275
0.18823529 0.67352941 0.011764706
0.29093137 0.67671569 0.011764706
0.38235294 0.67745098 0.011397059
0.45784314 0.67303922 0.011764706
0.52598039 0.66948529 0.011764706
0.59509804 0.66862745 0.011764706
0.65686275 0.66323529 0.015686275
0.72254902 0.65686275 0.019607843
0.77401961 0.65931373 0.019607843
0.8245098 0.66078431 0.016666667
0.87303922 0.66078431 0.019240196
0.91715686 0.65735294 0.020098039
0.95637255 0.6564951 0.020588235
0.9872549 0.65294118 0.019852941
0.99607843 0.64901961 0.014583333
0.99607843 0.64901961 0.011764706
0 0.74068627 0.019607843
0 0.73768382 0.019607843
0.0028186275 0.73284314 0.019607843
0.0039215686 0.72892157 0.019607843
0.0039215686 0.725 0.019607843
0.0039215686 0.72107843 0.018137255
0.0050245098 0.72218137 0.015686275
0.013602941 0.72555147 0.014215686
0.049019608 0.73039216 0.011764706
0.14509804 0.73039216 0.010294118
0.25196078 0.7310049 0.0078431373
0.36421569 0.73155637 0.0078431373
0.44362745 0.72892157 0.0078431373
0.51568627 0.7286152 0.0078431373
0.58480392 0.72647059 0.0096813725
0.64656863 0.72254902 0.012683824
0.70686275 0.71862745 0.015686275
0.76372549 0.71862745 0.014215686
0.81421569 0.71862745 0.011764706
0.85931373 0.71862745 0.013909314
0.90171569 0.71593137 0.014215686
0.93970588 0.71323529 0.014215686
0.9745098 0.71139706 0.014215686
0.99754902 0.71078431 0.010294118
1 0.70833333 0.0078431373
0 0.78431373 0.015686275
0 0.78431373 0.015686275
0 0.78039216 0.015686275
0 0.77696078 0.015686275
0.0039215686 0.77254902 0.015686275
0.0039215686 0.77647059 0.015686275
0.0078431373 0.77941176 0.011764706
0.0078431373 0.78186275 0.0078431373
0.015686275 0.78823529 0.0078431373
0.09754902 0.78578431 0.0039215686
0.21960784 0.78333333 0.0039215686
0.33970588 0.78039216 0.0078431373
0.4254902 0.78039216 0.0078431373
0.49754902 0.78039216 0.0078431373
0.56960784 0.78039216 0.0078431373
0.63235294 0.78039216 0.0078431373
0.69019608 0.77647059 0.0078431373
0.74803922 0.77647059 0.0078431373
0.80098039 0.77647059 0.0049019608
0.84509804 0.77303922 0.0078431373
0.89019608 0.76862745 0.0098039216
0.92696078 0.76862745 0.0078431373
0.95784314 0.76862745 0.0078431373
0.99264706 0.77254902 0.0039215686
1 0.77254902 0.0039215686
0 0.82941176 0.013235294
0 0.82640931 0.014767157
0 0.8254902 0.015686275
0 0.821875 0.013541667
0.0026960784 0.82009804 0.0125
0.0039215686 0.82420343 0.011764706
0.0072303922 0.82843137 0.0082107843
0.0078431373 0.83241422 0.0069240196
0.0053921569 0.83578431 0.0039215686
0.073406863 0.83633578 0.0039215686
0.1932598 0.83480392 0.0039215686
0.31862745 0.83186275 0.0039215686
0.40808824 0.82990196 0.0039215686
0.48088235 0.82941176 0.0039215686
0.55477941 0.8254902 0.0072303922
0.62058824 0.82156863 0.0078431373
0.67843137 0.82156863 0.0078431373
0.73529412 0.82493873 0.0039215686
0.79068627 0.82512255 0.0039215686
0.83823529 0.82156863 0.0039215686
0.88308824 0.82009804 0.0066176471
0.91666667 0.81979167 0.0053921569
0.94754902 0.81764706 0.0039215686
0.97935049 0.81280637 0.0039215686
0.98970588 0.81127451 0.0039215686
0 0.87156863 0.010784314
0 0.87058824 0.011764706
0 0.86985294 0.011764706
0 0.86764706 0.011764706
0.0014705882 0.86666667 0.010784314
0.0039215686 0.86801471 0.0078431373
0.0039215686 0.87132353 0.0071078431
0.0029411765 0.87659314 0.0039215686
0.0029411765 0.88235294 0.0039215686
0.066666667 0.88333333 0.0018382353
0.17377451 0.88235294 0.0022058824
0.29803922 0.88235294 0.0025735294
0.39215686 0.87941176 0.0029411765
0.46519608 0.8745098 0.0039215686
0.54191176 0.86838235 0.0039215686
0.61176471 0.86666667 0.0039215686
0.66960784 0.86666667 0.0039215686
0.725 0.86666667 0.0039215686
0.77867647 0.86666667 0.0039215686
0.82794118 0.86666667 0.0039215686
0.87352941 0.86421569 0.0039215686
0.90637255 0.86262255 0.0039215686
0.9372549 0.85588235 0.0039215686
0.96776961 0.85098039 0.0039215686
0.97843137 0.85098039 0.0039215686
0 0.91568627 0.0078431373
0 0.9153799 0.0078431373
0 0.91519608 0.0078431373
0 0.91519608 0.0078431373
0 0.91348039 0.006127451
0.0039215686 0.91519608 0.0043504902
0.0039215686 0.91556373 0.0039215686
0 0.92107843 0.0039215686
0 0.92745098 0
0.052083333 0.92530637 0
0.14742647 0.92745098 0
0.28645833 0.92444853 0
0.38602941 0.92352941 0
0.4622549 0.91911765 0.00091911765
0.54117647 0.91176471 0.0039215686
0.60753676 0.90998775 0.0039215686
0.6627451 0.90784314 0.0039215686
0.71685049 0.90784314 0.0039215686
0.76911765 0.90784314 0.0039215686
0.81764706 0.90784314 0.0039215686
0.85931373 0.89852941 0.0039215686
0.89607843 0.89656863 0.0039215686
0.92696078 0.89620098 0.0039215686
0.95422794 0.89430147 0.0039215686
0.96862745 0.89558824 0.0039215686
0 0.9627451 0.0019607843
0 0.9627451 0.0039215686
0 0.95882353 0.0039215686
0 0.9625 0.0039215686
0 0.9627451 0.0019607843
0.0022058824 0.95833333 0.0019607843
0.0053921569 0.94803922 0.0034313725
0.0058823529 0.95245098 0
0.0098039216 0.95882353 0
0.030147059 0.96715686 0
0.15588235 0.96176471 0
0.30710784 0.95490196 0
0.39607843 0.95490196 0
0.46617647 0.95857843 0
0.54117647 0.95539216 0.0014705882
0.60220588 0.95294118 0.0019607843
0.65686275 0.95294118 0.0019607843
0.71029412 0.95294118 0.00073529412
0.7627451 0.95196078 0
0.80392157 0.94362745 0
0.84313725 0.93529412 0.0019607843
0.88186275 0.92941176 0.0019607843
0.91617647 0.93137255 0.0019607843
0.94607843 0.9372549 0
0.96470588 0.9372549 0
0 0.99215686 0
0.00049019608 0.99215686 0
0.00049019608 0.98872549 0
0.00049019608 0.99215686 0
0.0046568627 0.99215686 0
0.0083333333 0.98431373 0
0.012132353 0.97401961 0
0.016360294 0.98235294 0
0.018137255 0.99264706 0
0.096752451 0.99050245 0
0.21997549 0.98443627 0
0.33829657 0.98186275 0
0.41323529 0.98529412 0
0.47984069 0.98964461 0
0.54473039 0.99522059 0
0.6004902 0.99246324 0
0.65588235 0.99215686 0
0.71078431 0.99215686 0
0.75637255 0.9877451 0
0.79417892 0.97745098 0
0.83161765 0.96740196 0
0.86862745 0.96176471 0
0.90294118 0.96482843 0
0.9372549 0.97156863 0
0.96078431 0.97843137 0
0 0.99215686 0
0.0057598039 0.99215686 0
0.0068627451 0.99215686 0
0.010294118 0.99215686 0
0.020098039 0.99362745 0
0.024509804 0.99203431 0
0.02745098 0.98946078 0
0.055637255 0.99509804 0
0.11372549 0.99607843 0
0.20943627 0.99607843 0
0.30073529 1 0
0.37941176 0.99914216 0
0.45245098 0.99607843 0
0.52328431 0.99607843 0
0.57647059 0.99607843 0
0.62438725 0.99460784 0
0.67647059 0.99215686 0
0.72610294 0.99215686 0
0.76764706 0.99191176 0
0.80526961 0.98468137 0
0.84362745 0.97745098 0
0.875 0.97585784 0
0.90686275 0.98235294 0
0.93566176 0.98872549 0
0.95784314 0.99607843 0
0.0039215686 0.99215686 0
0.006372549 0.99215686 0.0024509804
0.012132353 0.99215686 0.0039215686
0.021875 0.99215686 0.0017769608
0.03627451 0.99607843 0
0.050490196 0.9973652 0
0.081372549 0.99607843 0
0.14901961 0.99607843 0
0.225 0.99754902 0
0.30643382 0.99846814 0
0.35723039 1 0
0.43566176 0.99785539 0
0.49877451 0.99754902 0
0.55802696 0.99607843 0
0.60404412 0.99607843 0
0.65435049 0.99607843 0
0.70098039 0.99362745 0
0.74068627 0.99362745 0
0.78333333 0.99607843 0
0.82322304 0.99019608 0
0.85759804 0.98578431 0
0.88351716 0.98823529 0
0.91078431 0.98933824 0
0.93627451 0.99215686 0
0.95686275 0.99607843 0
0.0039215686 0.99215686 0
0.0078431373 0.99215686 0.0024509804
0.017647059 0.99215686 0.0039215686
0.034313725 0.99558824 0.0039215686
0.049019608 0.99607843 0
0.068137255 1 0
0.18137255 1 0
0.2377451 1 0
0.32156863 1 0
0.35637255 1 0
0.38921569 1 0
0.47107843 1 0
0.5372549 1 0
0.57892157 1 0
0.62647059 1 0
0.68186275 1 0
0.71764706 0.99607843 0
0.75490196 0.99607843 0
0.79607843 0.99705882 0
0.83431373 1 0
0.86078431 0.99607843 0
0.88382353 0.99215686 0
0.91078431 0.99215686 0
0.93382353 0.99215686 0
0.95686275 0.99607843 0
0.029901961 0.039215686 0.025980392
0.031372549 0.039215686 0.023529412
0.048161765 0.036764706 0.023161765
0.080882353 0.026470588 0.020588235
0.11764706 0.016176471 0.025735294
0.15882353 0.022058824 0.026960784
0.20294118 0.025980392 0.029534314
0.24656863 0.023529412 0.032843137
0.30196078 0.018137255 0.033823529
0.35980392 0.0093137255 0.026531863
0.42156863 0.0020833333 0.020220588
0.47941176 0.0039215686 0.029411765
0.54117647 0.0078431373 0.039705882
0.60686275 0.0075367647 0.041176471
0.67254902 0.0039215686 0.033333333
0.73431373 0.0039215686 0.027879902
0.79362745 0.0039215686 0.024509804
0.84754902 0.0039215686 0.023590686
0.89901961 0.0039215686 0.024509804
0.9504902 0.0039215686 0.024509804
0.99166667 0.0039215686 0.026960784
1 0.0065563725 0.024509804
1 0.0078431373 0.026348039
1 0.006372549 0.024509804
1 0.0039215686 0.028431373
0.031372549 0.039215686 0.025980392
0.03102788 0.039215686 0.023529412
0.048161765 0.034926471 0.023161765
0.084313725 0.033226103 0.022380515
0.11887255 0.032352941 0.025735294
0.15882353 0.030882353 0.026960784
0.2 0.027512255 0.027083333
0.24564951 0.023529412 0.032843137
0.29859069 0.022058824 0.031372549
0.35980392 0.020588235 0.027106311
0.41764706 0.024509804 0.023590686
0.47941176 0.023039216 0.029411765
0.54117647 0.018167892 0.041176471
0.60686275 0.015134804 0.045098039
0.67149203 0.015134804 0.035631127
0.73431373 0.013319547 0.027879902
0.79362745 0.010294118 0.024509804
0.85091912 0.0067172181 0.022633272
0.90154718 0.006372549 0.025229779
0.94620098 0.0094362745 0.024318321
0.98679534 0.012745098 0.024509804
0.99626225 0.013664216 0.024816176
0.99754902 0.01182598 0.025811887
0.99942555 0.0097426471 0.024509804
1 0.006372549 0.025428922
0.032352941 0.05 0.02745098
0.032352941 0.046216299 0.02745098
0.046813725 0.047886029 0.023161765
0.080514706 0.05379902 0.024203431
0.11666667 0.057169118 0.027696078
0.15850184 0.052941176 0.028477328
0.2 0.046905637 0.029901961
0.2433364 0.040686275 0.03114277
0.29803922 0.042156863 0.031004902
0.35588235 0.045327819 0.028982843
0.41712623 0.049019608 0.027879902
0.47786458 0.046446078 0.029396446
0.54117647 0.042708333 0.035845588
0.60654105 0.039338235 0.037729779
0.67000613 0.039338235 0.030790441
0.73408395 0.036795343 0.02801777
0.79215686 0.031495098 0.024509804
0.85133272 0.025122549 0.022748162
0.90076593 0.022824755 0.026807598
0.94039522 0.029044118 0.025980392
0.97757353 0.032414216 0.028431373
0.99129902 0.030698529 0.028431373
0.99353554 0.027573529 0.028431373
0.99699755 0.025490196 0.024142157
1 0.024509804 0.022426471
0.044117647 0.084497549 0.029595588
