site/assets/luts/sha256-f298e34b955ee14c69b6fe1bf7215647b490856fd7e68756988d5ddb99cf3f3d.cube
# LUTr-Schema-Version: 2
# LUTr-ID: sha256-f298e34b955ee14c69b6fe1bf7215647b490856fd7e68756988d5ddb99cf3f3d
# LUTr-Title: fuji ilford delta 3200 -
# LUTr-Collection: Natron HaldCLUT
# LUTr-Collection-ID: natron-haldclut-presets
# LUTr-Source: https://github.com/NatronGitHub/clut
# LUTr-Retrieved: 2026-07-27
# LUTr-Source-File: submissions/natron-haldclut-presets/negative_old/fuji_ilford_delta_3200_-.png
# LUTr-Source-Format: HALD-PNG
# LUTr-Source-SHA256: f298e34b955ee14c69b6fe1bf7215647b490856fd7e68756988d5ddb99cf3f3d
# LUTr-License: CC-BY-SA-4.0
# LUTr-License-URL: https://github.com/NatronGitHub/clut#license
# LUTr-License-Basis: repo-license-file
# LUTr-Transform-Class: film-emulation
# LUTr-Tags: creative, film, film-emulation, hald-clut, natron, png, cube
# LUTr-Input-Color-Space: srgb
# LUTr-Input-Gamut: rec709
# LUTr-Input-Transfer: srgb
# LUTr-Output-Color-Space: srgb
# LUTr-Output-Gamut: rec709
# LUTr-Output-Transfer: srgb
# LUTr-Color-Space-Confidence: assumed-display-referred
# LUTr-Domain-Normalized: true
# LUTr-Shaper: none
# LUTr-Original-Grid: 64x64x64
# LUTr-Conversion-Grid: 25x25x25
# LUTr-Conversion-Interpolation: trilinear
# LUTr-Conversion-Method: HALD-PNG LUT image decoded at 16-bit and sampled to 25x25x25 3D CUBE
# LUTr-Conversion-Tool: LUTr scripts/convert-all-to-cube.mjs 2.0.0
# LUTr-Conversion-Date: 2026-07-27
# LUTr-Note: Preserve this metadata and the upstream license notices when redistributing.
TITLE "fuji ilford delta 3200 -"
LUT_3D_SIZE 5
DOMAIN_MIN 0 0 0
DOMAIN_MAX 1 1 1
0.062745098 0.062745098 0.062745098
0.07745098 0.07745098 0.07745098
0.20196078 0.20196078 0.20196078
0.38235294 0.38235294 0.38235294
0.59215686 0.59215686 0.59215686
0.10882353 0.10882353 0.10882353
0.13039216 0.13039216 0.13039216
0.27107843 0.27107843 0.27107843
0.41764706 0.41764706 0.41764706
0.63627451 0.63627451 0.63627451
0.31176471 0.31176471 0.31176471
0.33039216 0.33039216 0.33039216
0.39117647 0.39117647 0.39117647
0.51421569 0.51421569 0.51421569
0.69215686 0.69215686 0.69215686
0.54607843 0.54607843 0.54607843
0.54583333 0.54583333 0.54583333
0.58235294 0.58235294 0.58235294
0.65588235 0.65588235 0.65588235
0.81470588 0.81470588 0.81470588
0.8627451 0.8627451 0.8627451
0.87058824 0.87058824 0.87058824
0.87843137 0.87843137 0.87843137
0.91862745 0.91862745 0.91862745
0.95294118 0.95294118 0.95294118
0.089215686 0.089215686 0.089215686
0.13259804 0.13259804 0.13259804
0.25098039 0.25098039 0.25098039
0.41372549 0.41372549 0.41372549
0.61078431 0.61078431 0.61078431
0.16078431 0.16078431 0.16078431
0.21862745 0.21862745 0.21862745
0.32647059 0.32647059 0.32647059
0.4627451 0.4627451 0.4627451
0.6379902 0.6379902 0.6379902
0.35784314 0.35784314 0.35784314
0.37892157 0.37892157 0.37892157
0.43627451 0.43627451 0.43627451
0.54571078 0.54571078 0.54571078
0.72843137 0.72843137 0.72843137
0.56078431 0.56078431 0.56078431
0.5879902 0.5879902 0.5879902
0.6127451 0.6127451 0.6127451
0.68235294 0.68235294 0.68235294
0.82941176 0.82941176 0.82941176
0.86568627 0.86568627 0.86568627
0.88137255 0.88137255 0.88137255
0.89019608 0.89019608 0.89019608
0.91862745 0.91862745 0.91862745
0.92843137 0.92843137 0.92843137
0.22745098 0.22745098 0.22745098
0.26519608 0.26519608 0.26519608
0.35098039 0.35098039 0.35098039
0.46568627 0.46568627 0.46568627
0.66470588 0.66470588 0.66470588
0.29117647 0.29117647 0.29117647
0.33823529 0.33823529 0.33823529
0.41176471 0.41176471 0.41176471
0.51237745 0.51237745 0.51237745
0.69901961 0.69901961 0.69901961
0.39705882 0.39705882 0.39705882
0.4502451 0.4502451 0.4502451
0.51911765 0.51911765 0.51911765
0.62205882 0.62205882 0.62205882
0.75686275 0.75686275 0.75686275
0.63970588 0.63970588 0.63970588
0.66029412 0.66029412 0.66029412
0.6870098 0.6870098 0.6870098
0.74387255 0.74387255 0.74387255
0.85686275 0.85686275 0.85686275
0.89215686 0.89215686 0.89215686
0.89607843 0.89607843 0.89607843
0.90784314 0.90784314 0.90784314
0.93431373 0.93431373 0.93431373
0.95882353 0.95882353 0.95882353
0.41862745 0.41862745 0.41862745
0.44534314 0.44534314 0.44534314
0.53823529 0.53823529 0.53823529
0.59411765 0.59411765 0.59411765
0.70196078 0.70196078 0.70196078
0.4752451 0.4752451 0.4752451
0.51341912 0.51341912 0.51341912
0.57352941 0.57352941 0.57352941
0.63455882 0.63455882 0.63455882
0.72867647 0.72867647 0.72867647
0.51911765 0.51911765 0.51911765
0.55 0.55 0.55
0.64681373 0.64681373 0.64681373
0.71078431 0.71078431 0.71078431
0.81176471 0.81176471 0.81176471
0.64803922 0.64803922 0.64803922
0.66237745 0.66237745 0.66237745
0.72242647 0.72242647 0.72242647
0.81740196 0.81740196 0.81740196
0.90073529 0.90073529 0.90073529
0.89803922 0.89803922 0.89803922
0.90980392 0.90980392 0.90980392
0.93529412 0.93529412 0.93529412
0.9497549 0.9497549 0.9497549
0.98137255 0.98137255 0.98137255
0.74901961 0.74901961 0.74901961
0.74509804 0.74509804 0.74509804
0.8 0.8 0.8
0.84509804 0.84509804 0.84509804
0.8745098 0.8745098 0.8745098
0.78039216 0.78039216 0.78039216
0.77058824 0.77058824 0.77058824
0.81519608 0.81519608 0.81519608
0.8745098 0.8745098 0.8745098
0.89313725 0.89313725 0.89313725
0.79215686 0.79215686 0.79215686
0.80833333 0.80833333 0.80833333
0.84705882 0.84705882 0.84705882
0.89656863 0.89656863 0.89656863
0.9254902 0.9254902 0.9254902
0.81666667 0.81666667 0.81666667
0.80196078 0.80196078 0.80196078
0.81960784 0.81960784 0.81960784
0.91862745 0.91862745 0.91862745
0.96078431 0.96078431 0.96078431
0.90588235 0.90588235 0.90588235
0.93039216 0.93039216 0.93039216
0.9372549 0.9372549 0.9372549
0.95686275 0.95686275 0.95686275
0.99607843 0.99607843 0.99607843
