site/assets/luts/sha256-881f1d7dafc1d93eb76a4278a3b5cd9a24f7e5967268a62b4fd027eebb938847.cube
# LUTr-Schema-Version: 2
# LUTr-ID: sha256-881f1d7dafc1d93eb76a4278a3b5cd9a24f7e5967268a62b4fd027eebb938847
# LUTr-Title: polaroid px-680 warm +
# LUTr-Collection: Natron HaldCLUT
# LUTr-Collection-ID: natron-haldclut-presets
# LUTr-Source: https://github.com/NatronGitHub/clut
# LUTr-Retrieved: 2026-07-27
# LUTr-Source-File: submissions/natron-haldclut-presets/instant_consumer/polaroid_px-680_warm_+.png
# LUTr-Source-Format: HALD-PNG
# LUTr-Source-SHA256: 881f1d7dafc1d93eb76a4278a3b5cd9a24f7e5967268a62b4fd027eebb938847
# LUTr-License: CC-BY-SA-4.0
# LUTr-License-URL: https://github.com/NatronGitHub/clut#license
# LUTr-License-Basis: repo-license-file
# LUTr-Transform-Class: film-emulation
# LUTr-Tags: creative, film, film-emulation, hald-clut, natron, png, warm, cube
# LUTr-Input-Color-Space: srgb
# LUTr-Input-Gamut: rec709
# LUTr-Input-Transfer: srgb
# LUTr-Output-Color-Space: srgb
# LUTr-Output-Gamut: rec709
# LUTr-Output-Transfer: srgb
# LUTr-Color-Space-Confidence: assumed-display-referred
# LUTr-Domain-Normalized: true
# LUTr-Shaper: none
# LUTr-Original-Grid: 64x64x64
# LUTr-Conversion-Grid: 25x25x25
# LUTr-Conversion-Interpolation: trilinear
# LUTr-Conversion-Method: HALD-PNG LUT image decoded at 16-bit and sampled to 25x25x25 3D CUBE
# LUTr-Conversion-Tool: LUTr scripts/convert-all-to-cube.mjs 2.0.0
# LUTr-Conversion-Date: 2026-07-27
# LUTr-Note: Preserve this metadata and the upstream license notices when redistributing.
TITLE "polaroid px-680 warm +"
LUT_3D_SIZE 5
DOMAIN_MIN 0 0 0
DOMAIN_MAX 1 1 1
0.31764706 0.23529412 0.1254902
0.33921569 0.23529412 0.1254902
0.54509804 0.24901961 0.11372549
0.83333333 0.31568627 0.10294118
0.94117647 0.41960784 0.15686275
0.30588235 0.2745098 0.12254902
0.35196078 0.28063725 0.12156863
0.58529412 0.31666667 0.10196078
0.82818627 0.3879902 0.091176471
0.94509804 0.49117647 0.17843137
0.29411765 0.44313725 0.11372549
0.35441176 0.45441176 0.11960784
0.57352941 0.5 0.1
0.80784314 0.55196078 0.093137255
0.93529412 0.61176471 0.20392157
0.35 0.64607843 0.17058824
0.4 0.64534314 0.18235294
0.54901961 0.675 0.22009804
0.74779412 0.72058824 0.26446078
0.88529412 0.78235294 0.36372549
0.56078431 0.83137255 0.41568627
0.57843137 0.82254902 0.41372549
0.67647059 0.85098039 0.47843137
0.77745098 0.87156863 0.54313725
0.85098039 0.89019608 0.62745098
0.31764706 0.23921569 0.15196078
0.33921569 0.24142157 0.14705882
0.57058824 0.22647059 0.1745098
0.84117647 0.3372549 0.2375
0.94215686 0.53627451 0.35784314
0.31740196 0.27941176 0.16642157
0.38265931 0.3 0.1776348
0.61384804 0.33125 0.19117647
0.83431373 0.43823529 0.25612745
0.94117647 0.57034314 0.35
0.36029412 0.46862745 0.2004902
0.41666667 0.47610294 0.20392157
0.60735294 0.51715686 0.22254902
0.81066176 0.56764706 0.2504902
0.92303922 0.63382353 0.3254902
0.38651961 0.65392157 0.23431373
0.44828431 0.66078431 0.25784314
0.57598039 0.68480392 0.29534314
0.76041667 0.73063725 0.35294118
0.87058824 0.77156863 0.40196078
0.58823529 0.84705882 0.45784314
0.60269608 0.83823529 0.45294118
0.68235294 0.84901961 0.50147059
0.76960784 0.85416667 0.53627451
0.84215686 0.88235294 0.61568627
0.35686275 0.24901961 0.30588235
0.44754902 0.26960784 0.32107843
0.61960784 0.35196078 0.36568627
0.8245098 0.36176471 0.41862745
0.94313725 0.54117647 0.49019608
0.35931373 0.32696078 0.35980392
0.46764706 0.34803922 0.36764706
0.65637255 0.44019608 0.40784314
0.82561275 0.47107843 0.44705882
0.91617647 0.62107843 0.52647059
0.39607843 0.4872549 0.35196078
0.47352941 0.50465686 0.38137255
0.65490196 0.5627451 0.42745098
0.81960784 0.62598039 0.47892157
0.89901961 0.71176471 0.53921569
0.48921569 0.65735294 0.38333333
0.53039216 0.66556373 0.40208333
0.62745098 0.69436275 0.43651961
0.77843137 0.74129902 0.48970588
0.86029412 0.77156863 0.51960784
0.59803922 0.83333333 0.50392157
0.61470588 0.83529412 0.51568627
0.67941176 0.85 0.5372549
0.77401961 0.86666667 0.59852941
0.82941176 0.8745098 0.63921569
0.50196078 0.34509804 0.58039216
0.59215686 0.37843137 0.58823529
0.74264706 0.51421569 0.60686275
0.81985294 0.63921569 0.62328431
0.88137255 0.63823529 0.6372549
0.51470588 0.4254902 0.59901961
0.59534314 0.45392157 0.59509804
0.74926471 0.57696078 0.61470588
0.82432598 0.67254902 0.63039216
0.88921569 0.67720588 0.65294118
0.41862745 0.53872549 0.55637255
0.51360294 0.55441176 0.56960784
0.70931373 0.63014706 0.60269608
0.82340686 0.73578431 0.65036765
0.87892157 0.74068627 0.66862745
0.47745098 0.67965686 0.54240196
0.51311275 0.67352941 0.5370098
0.65281863 0.70588235 0.57647059
0.80098039 0.77941176 0.64889706
0.85710784 0.81764706 0.68627451
0.5372549 0.83039216 0.58333333
0.56372549 0.82720588 0.58823529
0.65833333 0.84313725 0.61127451
0.77352941 0.87156863 0.67034314
0.86666667 0.89705882 0.74901961
0.73333333 0.63529412 0.78039216
0.76078431 0.65 0.77647059
0.81568627 0.70980392 0.77647059
0.83921569 0.77647059 0.75196078
0.85490196 0.81568627 0.76078431
0.72647059 0.65784314 0.78333333
0.76004902 0.68088235 0.78455882
0.81029412 0.72696078 0.77647059
0.84093137 0.80098039 0.77254902
0.85490196 0.83137255 0.76862745
0.64117647 0.69607843 0.76862745
0.68578431 0.7 0.76127451
0.77941176 0.74705882 0.77647059
0.83186275 0.81666667 0.77647059
0.85490196 0.85098039 0.77647059
0.5245098 0.77352941 0.74803922
0.5745098 0.76960784 0.74803922
0.67254902 0.77843137 0.76372549
0.80710784 0.83333333 0.78431373
0.85490196 0.8745098 0.78823529
0.57254902 0.85882353 0.76470588
0.60392157 0.87058824 0.76862745
0.65490196 0.84901961 0.75490196
0.75882353 0.89019608 0.78921569
0.89803922 0.90196078 0.81960784
