site/assets/luts/sha256-c33ad38b2786500152248245dd47d337df87ec7a8ea3d7348b0b32c1e2a1fff7.cube
# LUTr-Schema-Version: 2
# LUTr-ID: sha256-c33ad38b2786500152248245dd47d337df87ec7a8ea3d7348b0b32c1e2a1fff7
# LUTr-Title: polaroid px-100uv+ cold +
# LUTr-Collection: Natron HaldCLUT
# LUTr-Collection-ID: natron-haldclut-presets
# LUTr-Source: https://github.com/NatronGitHub/clut
# LUTr-Retrieved: 2026-07-27
# LUTr-Source-File: submissions/natron-haldclut-presets/instant_consumer/polaroid_px-100uv+_cold_+.png
# LUTr-Source-Format: HALD-PNG
# LUTr-Source-SHA256: c33ad38b2786500152248245dd47d337df87ec7a8ea3d7348b0b32c1e2a1fff7
# LUTr-License: CC-BY-SA-4.0
# LUTr-License-URL: https://github.com/NatronGitHub/clut#license
# LUTr-License-Basis: repo-license-file
# LUTr-Transform-Class: film-emulation
# LUTr-Tags: creative, film, film-emulation, hald-clut, natron, png, cool, cube
# LUTr-Input-Color-Space: srgb
# LUTr-Input-Gamut: rec709
# LUTr-Input-Transfer: srgb
# LUTr-Output-Color-Space: srgb
# LUTr-Output-Gamut: rec709
# LUTr-Output-Transfer: srgb
# LUTr-Color-Space-Confidence: assumed-display-referred
# LUTr-Domain-Normalized: true
# LUTr-Shaper: none
# LUTr-Original-Grid: 64x64x64
# LUTr-Conversion-Grid: 25x25x25
# LUTr-Conversion-Interpolation: trilinear
# LUTr-Conversion-Method: HALD-PNG LUT image decoded at 16-bit and sampled to 25x25x25 3D CUBE
# LUTr-Conversion-Tool: LUTr scripts/convert-all-to-cube.mjs 2.0.0
# LUTr-Conversion-Date: 2026-07-27
# LUTr-Note: Preserve this metadata and the upstream license notices when redistributing.
TITLE "polaroid px-100uv+ cold +"
LUT_3D_SIZE 5
DOMAIN_MIN 0 0 0
DOMAIN_MAX 1 1 1
0.23529412 0.30196078 0.30980392
0.25098039 0.31764706 0.3254902
0.3372549 0.38823529 0.39215686
0.45588235 0.48333333 0.4872549
0.57254902 0.59215686 0.57647059
0.28431373 0.34411765 0.35196078
0.28137255 0.34019608 0.3497549
0.36421569 0.40882353 0.41519608
0.47254902 0.50098039 0.49607843
0.60294118 0.62254902 0.59901961
0.38627451 0.4254902 0.43137255
0.38235294 0.42303922 0.42941176
0.42745098 0.45980392 0.46372549
0.50735294 0.52892157 0.5245098
0.64117647 0.65686275 0.62745098
0.5372549 0.55980392 0.54705882
0.53627451 0.56053922 0.54730392
0.55147059 0.57254902 0.56078431
0.60392157 0.62328431 0.59901961
0.71176471 0.72745098 0.68333333
0.7372549 0.75294118 0.70196078
0.7372549 0.75 0.70196078
0.74509804 0.75686275 0.70980392
0.78039216 0.79215686 0.7372549
0.80784314 0.81568627 0.75686275
0.27745098 0.34019608 0.34803922
0.30392157 0.35980392 0.36764706
0.39509804 0.43627451 0.43872549
0.50686275 0.53039216 0.5254902
0.62941176 0.64509804 0.61764706
0.31568627 0.36838235 0.37622549
0.34607843 0.39313725 0.40116422
0.40710784 0.44522059 0.44803922
0.52254902 0.54607843 0.53743873
0.64289216 0.65955882 0.62892157
0.42843137 0.46176471 0.4622549
0.43431373 0.4692402 0.46960784
0.46960784 0.49705882 0.49632353
0.5370098 0.55894608 0.54987745
0.65980392 0.67745098 0.64264706
0.56642157 0.58602941 0.56960784
0.57671569 0.59705882 0.57745098
0.59362745 0.61323529 0.59166667
0.64681373 0.6625 0.63278186
0.72941176 0.74289216 0.69509804
0.74803922 0.76078431 0.70980392
0.74509804 0.76053922 0.70980392
0.74901961 0.76078431 0.70980392
0.78063725 0.79215686 0.73504902
0.80784314 0.81568627 0.75686275
0.4254902 0.45882353 0.4627451
0.44117647 0.47205882 0.47352941
0.4872549 0.5127451 0.50980392
0.58039216 0.6 0.58039216
0.69803922 0.71176471 0.67254902
0.44803922 0.47990196 0.47990196
0.47193627 0.50294118 0.49901961
0.51078431 0.53431373 0.52769608
0.5872549 0.60723039 0.5877451
0.70490196 0.72058824 0.67598039
0.48823529 0.51078431 0.51078431
0.50759804 0.53406863 0.52622549
0.55294118 0.57303922 0.5622549
0.62132353 0.63897059 0.61495098
0.72352941 0.73921569 0.69215686
0.63235294 0.65147059 0.62156863
0.64705882 0.66360294 0.63137255
0.65490196 0.67058824 0.63897059
0.69411765 0.70980392 0.66960784
0.75343137 0.76911765 0.71470588
0.77254902 0.78431373 0.72941176
0.78382353 0.79558824 0.7372549
0.76666667 0.77745098 0.72352941
0.78970588 0.80147059 0.74313725
0.81764706 0.8254902 0.76470588
0.62647059 0.64313725 0.61470588
0.63431373 0.65392157 0.62254902
0.66911765 0.68480392 0.65098039
0.69607843 0.71176471 0.67181373
0.75 0.76176471 0.71372549
0.63921569 0.65710784 0.62867647
0.65 0.66734069 0.6372549
0.675 0.69105392 0.6564951
0.69571078 0.70955882 0.67181373
0.75294118 0.76568627 0.71470588
0.66323529 0.68039216 0.64656863
0.65919118 0.67647059 0.64460784
0.69558824 0.71127451 0.67107843
0.72598039 0.73933824 0.69448529
0.77892157 0.79068627 0.73578431
0.70098039 0.71372549 0.67279412
0.7158701 0.7310049 0.6848652
0.73235294 0.74607843 0.69693627
0.76145833 0.77150735 0.72034314
0.79779412 0.80882353 0.74926471
0.80490196 0.8127451 0.75686275
0.8 0.80784314 0.74901961
0.80784314 0.81568627 0.75490196
0.81666667 0.8252451 0.76470588
0.80882353 0.81960784 0.75784314
0.79607843 0.80392157 0.74509804
0.79215686 0.8 0.74117647
0.8 0.80784314 0.74901961
0.81568627 0.82352941 0.76176471
0.81960784 0.82745098 0.76470588
0.80392157 0.81176471 0.75294118
0.79607843 0.80416667 0.74901961
0.79754902 0.80735294 0.74901961
0.81568627 0.82132353 0.76078431
0.81176471 0.81960784 0.76078431
0.8 0.80784314 0.75294118
0.80392157 0.8122549 0.75490196
0.81176471 0.81960784 0.76078431
0.81764706 0.825 0.76470588
0.83137255 0.83529412 0.7745098
0.81176471 0.81960784 0.75784314
0.80784314 0.81568627 0.75686275
0.81960784 0.82745098 0.76470588
0.82843137 0.83529412 0.77254902
0.83235294 0.83921569 0.77647059
0.81176471 0.81960784 0.76078431
0.81568627 0.82352941 0.76078431
0.83333333 0.8372549 0.77647059
0.82745098 0.83529412 0.77254902
0.83137255 0.83921569 0.77647059
