site/assets/luts/sha256-186330efff38c4b9415793ff5bd9ffe7b3f9b857af24235359b906f27915b5ea.cube
# LUTr-Schema-Version: 2
# LUTr-ID: sha256-186330efff38c4b9415793ff5bd9ffe7b3f9b857af24235359b906f27915b5ea
# LUTr-Title: fuji neopan 1600 +
# LUTr-Collection: Natron HaldCLUT
# LUTr-Collection-ID: natron-haldclut-presets
# LUTr-Source: https://github.com/NatronGitHub/clut
# LUTr-Retrieved: 2026-07-27
# LUTr-Source-File: submissions/natron-haldclut-presets/negative_old/fuji_neopan_1600_+.png
# LUTr-Source-Format: HALD-PNG
# LUTr-Source-SHA256: 186330efff38c4b9415793ff5bd9ffe7b3f9b857af24235359b906f27915b5ea
# LUTr-License: CC-BY-SA-4.0
# LUTr-License-URL: https://github.com/NatronGitHub/clut#license
# LUTr-License-Basis: repo-license-file
# LUTr-Transform-Class: film-emulation
# LUTr-Tags: creative, film, film-emulation, hald-clut, natron, png, black-and-white, cube
# LUTr-Input-Color-Space: srgb
# LUTr-Input-Gamut: rec709
# LUTr-Input-Transfer: srgb
# LUTr-Output-Color-Space: srgb
# LUTr-Output-Gamut: rec709
# LUTr-Output-Transfer: srgb
# LUTr-Color-Space-Confidence: assumed-display-referred
# LUTr-Domain-Normalized: true
# LUTr-Shaper: none
# LUTr-Original-Grid: 64x64x64
# LUTr-Conversion-Grid: 25x25x25
# LUTr-Conversion-Interpolation: trilinear
# LUTr-Conversion-Method: HALD-PNG LUT image decoded at 16-bit and sampled to 25x25x25 3D CUBE
# LUTr-Conversion-Tool: LUTr scripts/convert-all-to-cube.mjs 2.0.0
# LUTr-Conversion-Date: 2026-07-27
# LUTr-Note: Preserve this metadata and the upstream license notices when redistributing.
TITLE "fuji neopan 1600 +"
LUT_3D_SIZE 25
DOMAIN_MIN 0 0 0
DOMAIN_MAX 1 1 1
0.094117647 0.094117647 0.094117647
0.094117647 0.094117647 0.094117647
0.095098039 0.095098039 0.095098039
0.098039216 0.098039216 0.098039216
0.10196078 0.10196078 0.10196078
0.10196078 0.10196078 0.10196078
0.10588235 0.10588235 0.10588235
0.10588235 0.10588235 0.10588235
0.10588235 0.10588235 0.10588235
0.10588235 0.10588235 0.10588235
0.11568627 0.11568627 0.11568627
0.13284314 0.13284314 0.13284314
0.15098039 0.15098039 0.15098039
0.16568627 0.16568627 0.16568627
0.17941176 0.17941176 0.17941176
0.19509804 0.19509804 0.19509804
0.21568627 0.21568627 0.21568627
0.23627451 0.23627451 0.23627451
0.25294118 0.25294118 0.25294118
0.27696078 0.27696078 0.27696078
0.30980392 0.30980392 0.30980392
0.34264706 0.34264706 0.34264706
0.37352941 0.37352941 0.37352941
0.40294118 0.40294118 0.40294118
0.41960784 0.41960784 0.41960784
0.094117647 0.094117647 0.094117647
0.094117647 0.094117647 0.094117647
0.095098039 0.095098039 0.095098039
0.098039216 0.098039216 0.098039216
0.10196078 0.10196078 0.10196078
0.10459559 0.10459559 0.10459559
0.10588235 0.10588235 0.10588235
0.10833333 0.10833333 0.10833333
0.1122549 0.1122549 0.1122549
0.115625 0.115625 0.115625
0.12561275 0.12561275 0.12561275
0.14264706 0.14264706 0.14264706
0.15735294 0.15735294 0.15735294
0.17156863 0.17156863 0.17156863
0.18333333 0.18333333 0.18333333
0.1966299 0.1966299 0.1966299
0.21568627 0.21568627 0.21568627
0.23872549 0.23872549 0.23872549
0.25931373 0.25931373 0.25931373
0.28333333 0.28333333 0.28333333
0.31421569 0.31421569 0.31421569
0.34509804 0.34509804 0.34509804
0.37598039 0.37598039 0.37598039
0.40594363 0.40594363 0.40594363
0.43480392 0.43480392 0.43480392
0.094117647 0.094117647 0.094117647
0.094117647 0.094117647 0.094117647
0.094117647 0.094117647 0.094117647
0.098039216 0.098039216 0.098039216
0.10441176 0.10441176 0.10441176
0.10723039 0.10723039 0.10723039
0.1129902 0.1129902 0.1129902
0.11617647 0.11617647 0.11617647
0.12254902 0.12254902 0.12254902
0.12892157 0.12892157 0.12892157
0.13921569 0.13921569 0.13921569
0.15306373 0.15306373 0.15306373
0.16764706 0.16764706 0.16764706
0.18186275 0.18186275 0.18186275
0.19534314 0.19534314 0.19534314
0.2127451 0.2127451 0.2127451
0.22941176 0.22941176 0.22941176
0.24901961 0.24901961 0.24901961
0.26960784 0.26960784 0.26960784
0.29362745 0.29362745 0.29362745
0.3245098 0.3245098 0.3245098
0.35502451 0.35502451 0.35502451
0.38333333 0.38333333 0.38333333
0.42181373 0.42181373 0.42181373
0.48039216 0.48039216 0.48039216
0.10147059 0.10147059 0.10147059
0.099019608 0.099019608 0.099019608
0.098529412 0.098529412 0.098529412
0.10490196 0.10490196 0.10490196
0.11127451 0.11127451 0.11127451
0.11715686 0.11715686 0.11715686
0.12107843 0.12107843 0.12107843
0.12647059 0.12647059 0.12647059
0.13284314 0.13284314 0.13284314
0.14313725 0.14313725 0.14313725
0.15306373 0.15306373 0.15306373
0.16372549 0.16372549 0.16372549
0.17794118 0.17794118 0.17794118
0.19564951 0.19564951 0.19564951
0.2127451 0.2127451 0.2127451
0.23186275 0.23186275 0.23186275
0.24607843 0.24607843 0.24607843
0.26292892 0.26292892 0.26292892
0.27990196 0.27990196 0.27990196
0.30392157 0.30392157 0.30392157
0.33480392 0.33480392 0.33480392
0.36568627 0.36568627 0.36568627
0.39656863 0.39656863 0.39656863
0.44705882 0.44705882 0.44705882
0.50147059 0.50147059 0.50147059
0.11176471 0.11176471 0.11176471
0.11176471 0.11176471 0.11176471
0.11176471 0.11176471 0.11176471
0.11519608 0.11519608 0.11519608
0.12156863 0.12156863 0.12156863
0.12745098 0.12745098 0.12745098
0.13137255 0.13137255 0.13137255
0.1379902 0.1379902 0.1379902
0.14705882 0.14705882 0.14705882
0.15735294 0.15735294 0.15735294
0.16519608 0.16519608 0.16519608
0.17769608 0.17769608 0.17769608
0.19313725 0.19313725 0.19313725
0.2127451 0.2127451 0.2127451
0.23186275 0.23186275 0.23186275
0.25 0.25 0.25
0.26666667 0.26666667 0.26666667
0.28088235 0.28088235 0.28088235
0.30245098 0.30245098 0.30245098
0.3245098 0.3245098 0.3245098
0.35098039 0.35098039 0.35098039
0.38186275 0.38186275 0.38186275
0.41421569 0.41421569 0.41421569
0.46617647 0.46617647 0.46617647
0.51764706 0.51764706 0.51764706
0.12205882 0.12205882 0.12205882
0.12205882 0.12205882 0.12205882
0.12205882 0.12205882 0.12205882
0.12591912 0.12591912 0.12591912
0.12990196 0.12990196 0.12990196
0.1377451 0.1377451 0.1377451
0.14166667 0.14166667 0.14166667
0.15098039 0.15098039 0.15098039
0.16127451 0.16127451 0.16127451
0.16813725 0.16813725 0.16813725
0.18235294 0.18235294 0.18235294
0.19656863 0.19656863 0.19656863
0.21691176 0.21691176 0.21691176
0.23382353 0.23382353 0.23382353
0.25392157 0.25392157 0.25392157
0.26911765 0.26911765 0.26911765
0.28333333 0.28333333 0.28333333
0.30441176 0.30441176 0.30441176
0.32843137 0.32843137 0.32843137
0.34901961 0.34901961 0.34901961
0.3754902 0.3754902 0.3754902
0.40692402 0.40692402 0.40692402
0.4442402 0.4442402 0.4442402
0.49068627 0.49068627 0.49068627
0.54460784 0.54460784 0.54460784
0.13235294 0.13235294 0.13235294
0.13235294 0.13235294 0.13235294
0.13235294 0.13235294 0.13235294
0.13321078 0.13321078 0.13321078
0.13872549 0.13872549 0.13872549
0.14546569 0.14546569 0.14546569
0.15416667 0.15416667 0.15416667
0.16421569 0.16421569 0.16421569
0.1754902 0.1754902 0.1754902
0.18872549 0.18872549 0.18872549
0.20392157 0.20392157 0.20392157
0.2245098 0.2245098 0.2245098
0.24411765 0.24411765 0.24411765
0.26470588 0.26470588 0.26470588
0.28137255 0.28137255 0.28137255
0.29656863 0.29656863 0.29656863
0.31372549 0.31372549 0.31372549
0.33529412 0.33529412 0.33529412
0.35588235 0.35588235 0.35588235
0.37647059 0.37647059 0.37647059
0.40637255 0.40637255 0.40637255
0.43823529 0.43823529 0.43823529
0.47254902 0.47254902 0.47254902
0.50808824 0.50808824 0.50808824
0.54509804 0.54509804 0.54509804
0.14264706 0.14264706 0.14264706
0.14264706 0.14264706 0.14264706
0.14264706 0.14264706 0.14264706
0.14264706 0.14264706 0.14264706
0.14852941 0.14852941 0.14852941
0.16029412 0.16029412 0.16029412
0.17205882 0.17205882 0.17205882
0.18480392 0.18480392 0.18480392
0.19901961 0.19901961 0.19901961
0.21415441 0.21415441 0.21415441
0.23345588 0.23345588 0.23345588
0.25422794 0.25422794 0.25422794
0.275 0.275 0.275
0.29381127 0.29381127 0.29381127
0.3122549 0.3122549 0.3122549
0.32892157 0.32892157 0.32892157
0.3495098 0.3495098 0.3495098
0.37009804 0.37009804 0.37009804
0.39215686 0.39215686 0.39215686
0.41488971 0.41488971 0.41488971
0.44313725 0.44313725 0.44313725
0.47432598 0.47432598 0.47432598
0.50735294 0.50735294 0.50735294
0.53915441 0.53915441 0.53915441
0.56127451 0.56127451 0.56127451
0.16078431 0.16078431 0.16078431
0.16078431 0.16078431 0.16078431
0.16078431 0.16078431 0.16078431
0.16078431 0.16078431 0.16078431
0.16862745 0.16862745 0.16862745
0.18137255 0.18137255 0.18137255
0.19509804 0.19509804 0.19509804
0.20686275 0.20686275 0.20686275
0.21960784 0.21960784 0.21960784
0.24019608 0.24019608 0.24019608
0.26078431 0.26078431 0.26078431
0.28137255 0.28137255 0.28137255
0.30196078 0.30196078 0.30196078
0.32254902 0.32254902 0.32254902
0.34313725 0.34313725 0.34313725
0.36372549 0.36372549 0.36372549
0.38431373 0.38431373 0.38431373
0.40490196 0.40490196 0.40490196
0.42941176 0.42941176 0.42941176
0.45343137 0.45343137 0.45343137
0.48235294 0.48235294 0.48235294
0.51176471 0.51176471 0.51176471
0.54607843 0.54607843 0.54607843
0.57696078 0.57696078 0.57696078
0.6 0.6 0.6
0.1877451 0.1877451 0.1877451
0.1877451 0.1877451 0.1877451
0.18872549 0.18872549 0.18872549
0.19166667 0.19166667 0.19166667
0.20147059 0.20147059 0.20147059
0.21176471 0.21176471 0.21176471
0.21960784 0.21960784 0.21960784
0.22598039 0.22598039 0.22598039
0.24411765 0.24411765 0.24411765
0.26470588 0.26470588 0.26470588
0.28529412 0.28529412 0.28529412
0.30588235 0.30588235 0.30588235
0.32647059 0.32647059 0.32647059
0.34705882 0.34705882 0.34705882
0.37340686 0.37340686 0.37340686
0.39852941 0.39852941 0.39852941
0.41911765 0.41911765 0.41911765
0.44215686 0.44215686 0.44215686
0.46482843 0.46482843 0.46482843
0.49460784 0.49460784 0.49460784
0.52156863 0.52156863 0.52156863
0.55275735 0.55275735 0.55275735
0.5872549 0.5872549 0.5872549
0.62113971 0.62113971 0.62113971
0.64754902 0.64754902 0.64754902
0.21862745 0.21862745 0.21862745
0.2192402 0.2192402 0.2192402
0.22254902 0.22254902 0.22254902
0.22610294 0.22610294 0.22610294
0.23431373 0.23431373 0.23431373
0.24215686 0.24215686 0.24215686
0.24828431 0.24828431 0.24828431
0.25428922 0.25428922 0.25428922
0.26862745 0.26862745 0.26862745
0.28921569 0.28921569 0.28921569
0.30906863 0.30906863 0.30906863
0.33039216 0.33039216 0.33039216
0.34852941 0.34852941 0.34852941
0.36764706 0.36764706 0.36764706
0.39509804 0.39509804 0.39509804
0.42487745 0.42487745 0.42487745
0.45 0.45 0.45
0.47696078 0.47696078 0.47696078
0.50318627 0.50318627 0.50318627
0.53186275 0.53186275 0.53186275
0.5627451 0.5627451 0.5627451
0.59754902 0.59754902 0.59754902
0.63063725 0.63063725 0.63063725
0.66286765 0.66286765 0.66286765
0.68529412 0.68529412 0.68529412
0.25294118 0.25294118 0.25294118
0.25343137 0.25343137 0.25343137
0.25441176 0.25441176 0.25441176
0.25735294 0.25735294 0.25735294
0.26323529 0.26323529 0.26323529
0.26960784 0.26960784 0.26960784
0.27610294 0.27610294 0.27610294
0.28627451 0.28627451 0.28627451
0.29656863 0.29656863 0.29656863
0.30980392 0.30980392 0.30980392
0.33039216 0.33039216 0.33039216
0.35098039 0.35098039 0.35098039
0.36764706 0.36764706 0.36764706
0.38523284 0.38523284 0.38523284
0.41568627 0.41568627 0.41568627
0.44656863 0.44656863 0.44656863
0.47696078 0.47696078 0.47696078
0.50441176 0.50441176 0.50441176
0.53872549 0.53872549 0.53872549
0.57303922 0.57303922 0.57303922
0.60392157 0.60392157 0.60392157
0.63529412 0.63529412 0.63529412
0.66617647 0.66617647 0.66617647
0.69558824 0.69558824 0.69558824
0.71617647 0.71617647 0.71617647
0.28431373 0.28431373 0.28431373
0.28553922 0.28553922 0.28553922
0.28676471 0.28676471 0.28676471
0.28823529 0.28823529 0.28823529
0.29019608 0.29019608 0.29019608
0.29656863 0.29656863 0.29656863
0.30686275 0.30686275 0.30686275
0.31715686 0.31715686 0.31715686
0.32745098 0.32745098 0.32745098
0.33578431 0.33578431 0.33578431
0.35294118 0.35294118 0.35294118
0.37352941 0.37352941 0.37352941
0.39117647 0.39117647 0.39117647
0.41078431 0.41078431 0.41078431
0.43823529 0.43823529 0.43823529
0.46911765 0.46911765 0.46911765
0.5 0.5 0.5
0.53014706 0.53014706 0.53014706
0.56666667 0.56666667 0.56666667
0.60612745 0.60612745 0.60612745
0.63823529 0.63823529 0.63823529
0.66617647 0.66617647 0.66617647
0.69705882 0.69705882 0.69705882
0.72647059 0.72647059 0.72647059
0.74705882 0.74705882 0.74705882
0.31960784 0.31960784 0.31960784
0.31960784 0.31960784 0.31960784
0.31960784 0.31960784 0.31960784
0.31960784 0.31960784 0.31960784
0.32132353 0.32132353 0.32132353
0.32401961 0.32401961 0.32401961
0.3377451 0.3377451 0.3377451
0.34981618 0.34981618 0.34981618
0.3622549 0.3622549 0.3622549
0.37254902 0.37254902 0.37254902
0.38419118 0.38419118 0.38419118
0.40398284 0.40398284 0.40398284
0.42107843 0.42107843 0.42107843
0.44215686 0.44215686 0.44215686
0.46617647 0.46617647 0.46617647
0.49215686 0.49215686 0.49215686
0.52254902 0.52254902 0.52254902
0.55373775 0.55373775 0.55373775
0.5935049 0.5935049 0.5935049
0.63045343 0.63045343 0.63045343
0.6622549 0.6622549 0.6622549
0.69313725 0.69313725 0.69313725
0.72365196 0.72365196 0.72365196
0.753125 0.753125 0.753125
0.77352941 0.77352941 0.77352941
0.35686275 0.35686275 0.35686275
0.35686275 0.35686275 0.35686275
0.35686275 0.35686275 0.35686275
0.36066176 0.36066176 0.36066176
0.36421569 0.36421569 0.36421569
0.3689951 0.3689951 0.3689951
0.37622549 0.37622549 0.37622549
0.38578431 0.38578431 0.38578431
0.39705882 0.39705882 0.39705882
0.40735294 0.40735294 0.40735294
0.41764706 0.41764706 0.41764706
0.4314951 0.4314951 0.4314951
0.45539216 0.45539216 0.45539216
0.47647059 0.47647059 0.47647059
0.50073529 0.50073529 0.50073529
0.52156863 0.52156863 0.52156863
0.54313725 0.54313725 0.54313725
0.57977941 0.57977941 0.57977941
0.61740196 0.61740196 0.61740196
0.65490196 0.65490196 0.65490196
0.68921569 0.68921569 0.68921569
0.71973039 0.71973039 0.71973039
0.74803922 0.74803922 0.74803922
0.77794118 0.77794118 0.77794118
0.80098039 0.80098039 0.80098039
0.39264706 0.39264706 0.39264706
0.39503676 0.39503676 0.39503676
0.4004902 0.4004902 0.4004902
0.40716912 0.40716912 0.40716912
0.41323529 0.41323529 0.41323529
0.41783088 0.41783088 0.41783088
0.42267157 0.42267157 0.42267157
0.42843137 0.42843137 0.42843137
0.43480392 0.43480392 0.43480392
0.44362745 0.44362745 0.44362745
0.45637255 0.45637255 0.45637255
0.47156863 0.47156863 0.47156863
0.48823529 0.48823529 0.48823529
0.51127451 0.51127451 0.51127451
0.53296569 0.53296569 0.53296569
0.55545343 0.55545343 0.55545343
0.5745098 0.5745098 0.5745098
0.60300245 0.60300245 0.60300245
0.6432598 0.6432598 0.6432598
0.67959559 0.67959559 0.67959559
0.7122549 0.7122549 0.7122549
0.74166667 0.74166667 0.74166667
0.77254902 0.77254902 0.77254902
0.80196078 0.80196078 0.80196078
0.82254902 0.82254902 0.82254902
0.43921569 0.43921569 0.43921569
0.44558824 0.44558824 0.44558824
0.45196078 0.45196078 0.45196078
0.45833333 0.45833333 0.45833333
0.4627451 0.4627451 0.4627451
0.46666667 0.46666667 0.46666667
0.46960784 0.46960784 0.46960784
0.47598039 0.47598039 0.47598039
0.48235294 0.48235294 0.48235294
0.48627451 0.48627451 0.48627451
0.49215686 0.49215686 0.49215686
0.5127451 0.5127451 0.5127451
0.52941176 0.52941176 0.52941176
0.55 0.55 0.55
0.57058824 0.57058824 0.57058824
0.59509804 0.59509804 0.59509804
0.61568627 0.61568627 0.61568627
0.63872549 0.63872549 0.63872549
0.66960784 0.66960784 0.66960784
0.70441176 0.70441176 0.70441176
0.73529412 0.73529412 0.73529412
0.7622549 0.7622549 0.7622549
0.79313725 0.79313725 0.79313725
0.82009804 0.82009804 0.82009804
0.83921569 0.83921569 0.83921569
0.50490196 0.50490196 0.50490196
0.50735294 0.50735294 0.50735294
0.51090686 0.51090686 0.51090686
0.51403186 0.51403186 0.51403186
0.51421569 0.51421569 0.51421569
0.51421569 0.51421569 0.51421569
0.51531863 0.51531863 0.51531863
0.52052696 0.52052696 0.52052696
0.52990196 0.52990196 0.52990196
0.53627451 0.53627451 0.53627451
0.54264706 0.54264706 0.54264706
0.55422794 0.55422794 0.55422794
0.57696078 0.57696078 0.57696078
0.59754902 0.59754902 0.59754902
0.61629902 0.61629902 0.61629902
0.63627451 0.63627451 0.63627451
0.65686275 0.65686275 0.65686275
0.68045343 0.68045343 0.68045343
0.70343137 0.70343137 0.70343137
0.72922794 0.72922794 0.72922794
0.75392157 0.75392157 0.75392157
0.78253676 0.78253676 0.78253676
0.80980392 0.80980392 0.80980392
0.83768382 0.83768382 0.83768382
0.85735294 0.85735294 0.85735294
0.56666667 0.56666667 0.56666667
0.56960784 0.56960784 0.56960784
0.57058824 0.57058824 0.57058824
0.57438725 0.57438725 0.57438725
0.57058824 0.57058824 0.57058824
0.57009804 0.57009804 0.57009804
0.56446078 0.56446078 0.56446078
0.57205882 0.57205882 0.57205882
0.58137255 0.58137255 0.58137255
0.58982843 0.58982843 0.58982843
0.59705882 0.59705882 0.59705882
0.60441176 0.60441176 0.60441176
0.62352941 0.62352941 0.62352941
0.64497549 0.64497549 0.64497549
0.6625 0.6625 0.6625
0.68026961 0.68026961 0.68026961
0.69901961 0.69901961 0.69901961
0.71862745 0.71862745 0.71862745
0.73921569 0.73921569 0.73921569
0.75882353 0.75882353 0.75882353
0.77892157 0.77892157 0.77892157
0.80294118 0.80294118 0.80294118
0.82965686 0.82965686 0.82965686
0.85588235 0.85588235 0.85588235
0.87647059 0.87647059 0.87647059
0.6245098 0.6245098 0.6245098
0.62843137 0.62843137 0.62843137
0.63235294 0.63235294 0.63235294
0.63627451 0.63627451 0.63627451
0.63627451 0.63627451 0.63627451
0.63235294 0.63235294 0.63235294
0.63186275 0.63186275 0.63186275
0.63235294 0.63235294 0.63235294
0.64019608 0.64019608 0.64019608
0.64656863 0.64656863 0.64656863
0.65208333 0.65208333 0.65208333
0.65980392 0.65980392 0.65980392
0.67205882 0.67205882 0.67205882
0.69221814 0.69221814 0.69221814
0.7067402 0.7067402 0.7067402
0.72469363 0.72469363 0.72469363
0.74313725 0.74313725 0.74313725
0.76323529 0.76323529 0.76323529
0.77941176 0.77941176 0.77941176
0.79319853 0.79319853 0.79319853
0.80980392 0.80980392 0.80980392
0.82702206 0.82702206 0.82702206
0.85061275 0.85061275 0.85061275
0.87647059 0.87647059 0.87647059
0.89705882 0.89705882 0.89705882
0.68627451 0.68627451 0.68627451
0.69019608 0.69019608 0.69019608
0.69460784 0.69460784 0.69460784
0.69803922 0.69803922 0.69803922
0.7 0.7 0.7
0.69828431 0.69828431 0.69828431
0.69803922 0.69803922 0.69803922
0.69803922 0.69803922 0.69803922
0.7 0.7 0.7
0.70318627 0.70318627 0.70318627
0.70833333 0.70833333 0.70833333
0.71715686 0.71715686 0.71715686
0.7254902 0.7254902 0.7254902
0.73970588 0.73970588 0.73970588
0.75343137 0.75343137 0.75343137
0.77083333 0.77083333 0.77083333
0.78823529 0.78823529 0.78823529
0.80563725 0.80563725 0.80563725
0.82058824 0.82058824 0.82058824
0.83259804 0.83259804 0.83259804
0.84607843 0.84607843 0.84607843
0.86151961 0.86151961 0.86151961
0.87843137 0.87843137 0.87843137
0.8997549 0.8997549 0.8997549
0.92156863 0.92156863 0.92156863
0.74803922 0.74803922 0.74803922
0.74803922 0.74803922 0.74803922
0.75281863 0.75281863 0.75281863
0.7588848 0.7588848 0.7588848
0.76151961 0.76151961 0.76151961
0.76366422 0.76366422 0.76366422
0.75980392 0.75980392 0.75980392
0.76372549 0.76372549 0.76372549
0.76372549 0.76372549 0.76372549
0.76372549 0.76372549 0.76372549
0.76372549 0.76372549 0.76372549
0.77058824 0.77058824 0.77058824
0.77696078 0.77696078 0.77696078
0.79117647 0.79117647 0.79117647
0.80147059 0.80147059 0.80147059
0.81697304 0.81697304 0.81697304
0.83333333 0.83333333 0.83333333
0.84754902 0.84754902 0.84754902
0.86176471 0.86176471 0.86176471
0.87205882 0.87205882 0.87205882
0.88406863 0.88406863 0.88406863
0.89650735 0.89650735 0.89650735
0.91286765 0.91286765 0.91286765
0.92794118 0.92794118 0.92794118
0.94166667 0.94166667 0.94166667
0.80588235 0.80588235 0.80588235
0.80870098 0.80870098 0.80870098
0.81151961 0.81151961 0.81151961
0.81458333 0.81458333 0.81458333
0.82009804 0.82009804 0.82009804
0.82156863 0.82156863 0.82156863
0.82230392 0.82230392 0.82230392
0.82254902 0.82254902 0.82254902
0.82156863 0.82156863 0.82156863
0.81862745 0.81862745 0.81862745
0.81862745 0.81862745 0.81862745
0.82242647 0.82242647 0.82242647
0.83039216 0.83039216 0.83039216
0.84264706 0.84264706 0.84264706
0.85294118 0.85294118 0.85294118
0.86360294 0.86360294 0.86360294
0.87843137 0.87843137 0.87843137
0.88872549 0.88872549 0.88872549
0.89607843 0.89607843 0.89607843
0.90637255 0.90637255 0.90637255
0.9127451 0.9127451 0.9127451
0.92058824 0.92058824 0.92058824
0.93431373 0.93431373 0.93431373
0.94669118 0.94669118 0.94669118
0.95588235 0.95588235 0.95588235
0.86372549 0.86372549 0.86372549
0.86617647 0.86617647 0.86617647
0.86654412 0.86654412 0.86654412
0.87009804 0.87009804 0.87009804
0.87132353 0.87132353 0.87132353
0.87254902 0.87254902 0.87254902
0.87254902 0.87254902 0.87254902
0.87107843 0.87107843 0.87107843
0.86862745 0.86862745 0.86862745
0.87009804 0.87009804 0.87009804
0.87071078 0.87071078 0.87071078
0.87401961 0.87401961 0.87401961
0.87990196 0.87990196 0.87990196
0.88854167 0.88854167 0.88854167
0.89460784 0.89460784 0.89460784
0.90392157 0.90392157 0.90392157
0.91568627 0.91568627 0.91568627
0.9245098 0.9245098 0.9245098
0.92990196 0.92990196 0.92990196
0.93363971 0.93363971 0.93363971
0.93897059 0.93897059 0.93897059
0.94460784 0.94460784 0.94460784
0.95490196 0.95490196 0.95490196
0.96519608 0.96519608 0.96519608
0.97009804 0.97009804 0.97009804
0.90980392 0.90980392 0.90980392
0.9122549 0.9122549 0.9122549
0.92058824 0.92058824 0.92058824
0.91029412 0.91029412 0.91029412
0.90980392 0.90980392 0.90980392
0.91372549 0.91372549 0.91372549
0.91078431 0.91078431 0.91078431
0.90588235 0.90588235 0.90588235
0.90588235 0.90588235 0.90588235
0.90588235 0.90588235 0.90588235
0.90980392 0.90980392 0.90980392
0.91372549 0.91372549 0.91372549
0.91764706 0.91764706 0.91764706
0.91421569 0.91421569 0.91421569
0.92058824 0.92058824 0.92058824
0.93235294 0.93235294 0.93235294
0.94901961 0.94901961 0.94901961
0.94901961 0.94901961 0.94901961
0.95294118 0.95294118 0.95294118
0.95637255 0.95637255 0.95637255
0.95882353 0.95882353 0.95882353
0.96519608 0.96519608 0.96519608
0.9754902 0.9754902 0.9754902
0.98186275 0.98186275 0.98186275
0.98431373 0.98431373 0.98431373
0.098039216 0.098039216 0.098039216
0.098039216 0.098039216 0.098039216
0.098039216 0.098039216 0.098039216
0.10018382 0.10018382 0.10018382
0.10196078 0.10196078 0.10196078
0.10588235 0.10588235 0.10588235
0.10588235 0.10588235 0.10588235
0.10833333 0.10833333 0.10833333
0.10980392 0.10980392 0.10980392
0.11378676 0.11378676 0.11378676
0.125 0.125 0.125
0.13872549 0.13872549 0.13872549
0.15416667 0.15416667 0.15416667
0.16942402 0.16942402 0.16942402
0.18333333 0.18333333 0.18333333
0.19846814 0.19846814 0.19846814
0.21568627 0.21568627 0.21568627
0.23627451 0.23627451 0.23627451
0.25686275 0.25686275 0.25686275
0.28118873 0.28118873 0.28118873
0.31421569 0.31421569 0.31421569
0.34656863 0.34656863 0.34656863
0.37928922 0.37928922 0.37928922
0.41415441 0.41415441 0.41415441
0.43480392 0.43480392 0.43480392
0.098039216 0.098039216 0.098039216
0.098039216 0.098039216 0.098039216
0.098039216 0.098039216 0.098039216
0.10018382 0.10018382 0.10018382
0.10272672 0.10272672 0.10272672
0.10588235 0.10588235 0.10588235
0.10879289 0.10879289 0.10879289
0.10980392 0.10980392 0.10980392
0.1122549 0.1122549 0.1122549
0.11897212 0.11897212 0.11897212
0.12915135 0.12915135 0.12915135
0.14382659 0.14382659 0.14382659
0.15931373 0.15931373 0.15931373
0.17274816 0.17274816 0.17274816
0.18647365 0.18647365 0.18647365
0.20170037 0.20170037 0.20170037
0.22058824 0.22058824 0.22058824
0.24117647 0.24117647 0.24117647
0.26176471 0.26176471 0.26176471
0.28596814 0.28596814 0.28596814
0.31721814 0.31721814 0.31721814
0.34810049 0.34810049 0.34810049
0.37928922 0.37928922 0.37928922
0.41449908 0.41449908 0.41449908
0.43817402 0.43817402 0.43817402
0.098039216 0.098039216 0.098039216
0.098039216 0.098039216 0.098039216
0.098039216 0.098039216 0.098039216
0.10058211 0.10058211 0.10058211
0.10441176 0.10441176 0.10441176
0.10883885 0.10883885 0.10883885
0.1129902 0.1129902 0.1129902
0.11617647 0.11617647 0.11617647
0.12254902 0.12254902 0.12254902
0.12892157 0.12892157 0.12892157
0.13921569 0.13921569 0.13921569
0.15343137 0.15343137 0.15343137
0.16795343 0.16795343 0.16795343
