site/assets/luts/sha256-ecee18fddd881d07e84aa1f7a3f486c2c7b83ab63d117804b2ed9a9315b1cb25.cube
# LUTr-Schema-Version: 2
# LUTr-ID: sha256-ecee18fddd881d07e84aa1f7a3f486c2c7b83ab63d117804b2ed9a9315b1cb25
# LUTr-Title: ilford fp4 plus 125
# LUTr-Collection: Natron HaldCLUT
# LUTr-Collection-ID: natron-haldclut-presets
# LUTr-Source: https://github.com/NatronGitHub/clut
# LUTr-Retrieved: 2026-07-27
# LUTr-Source-File: submissions/natron-haldclut-presets/bw/ilford_fp4_plus_125.png
# LUTr-Source-Format: HALD-PNG
# LUTr-Source-SHA256: ecee18fddd881d07e84aa1f7a3f486c2c7b83ab63d117804b2ed9a9315b1cb25
# LUTr-License: CC-BY-SA-4.0
# LUTr-License-URL: https://github.com/NatronGitHub/clut#license
# LUTr-License-Basis: repo-license-file
# LUTr-Transform-Class: film-emulation
# LUTr-Tags: creative, film, film-emulation, hald-clut, natron, png, cube
# LUTr-Input-Color-Space: srgb
# LUTr-Input-Gamut: rec709
# LUTr-Input-Transfer: srgb
# LUTr-Output-Color-Space: srgb
# LUTr-Output-Gamut: rec709
# LUTr-Output-Transfer: srgb
# LUTr-Color-Space-Confidence: assumed-display-referred
# LUTr-Domain-Normalized: true
# LUTr-Shaper: none
# LUTr-Original-Grid: 64x64x64
# LUTr-Conversion-Grid: 25x25x25
# LUTr-Conversion-Interpolation: trilinear
# LUTr-Conversion-Method: HALD-PNG LUT image decoded at 16-bit and sampled to 25x25x25 3D CUBE
# LUTr-Conversion-Tool: LUTr scripts/convert-all-to-cube.mjs 2.0.0
# LUTr-Conversion-Date: 2026-07-27
# LUTr-Note: Preserve this metadata and the upstream license notices when redistributing.
TITLE "ilford fp4 plus 125"
LUT_3D_SIZE 5
DOMAIN_MIN 0 0 0
DOMAIN_MAX 1 1 1
0.035294118 0.035294118 0.035294118
0.07745098 0.07745098 0.07745098
0.13921569 0.13921569 0.13921569
0.22254902 0.22254902 0.22254902
0.37254902 0.37254902 0.37254902
0.23235294 0.23235294 0.23235294
0.2252451 0.2252451 0.2252451
0.26666667 0.26666667 0.26666667
0.34509804 0.34509804 0.34509804
0.46078431 0.46078431 0.46078431
0.42156863 0.42156863 0.42156863
0.41960784 0.41960784 0.41960784
0.44411765 0.44411765 0.44411765
0.49901961 0.49901961 0.49901961
0.58823529 0.58823529 0.58823529
0.63039216 0.63039216 0.63039216
0.63921569 0.63921569 0.63921569
0.64852941 0.64852941 0.64852941
0.67843137 0.67843137 0.67843137
0.74313725 0.74313725 0.74313725
0.82745098 0.82745098 0.82745098
0.84019608 0.84019608 0.84019608
0.83529412 0.83529412 0.83529412
0.84803922 0.84803922 0.84803922
0.85882353 0.85882353 0.85882353
0.14019608 0.14019608 0.14019608
0.15490196 0.15490196 0.15490196
0.2127451 0.2127451 0.2127451
0.30098039 0.30098039 0.30098039
0.41960784 0.41960784 0.41960784
0.28627451 0.28627451 0.28627451
0.28627451 0.28627451 0.28627451
0.3310049 0.3310049 0.3310049
0.40686275 0.40686275 0.40686275
0.48357843 0.48357843 0.48357843
0.46372549 0.46372549 0.46372549
0.46764706 0.46764706 0.46764706
0.49019608 0.49019608 0.49019608
0.54705882 0.54705882 0.54705882
0.6 0.6 0.6
0.65686275 0.65686275 0.65686275
0.66397059 0.66397059 0.66397059
0.68431373 0.68431373 0.68431373
0.71648284 0.71648284 0.71648284
0.75392157 0.75392157 0.75392157
0.85 0.85 0.85
0.83921569 0.83921569 0.83921569
0.84705882 0.84705882 0.84705882
0.8620098 0.8620098 0.8620098
0.88529412 0.88529412 0.88529412
0.2372549 0.2372549 0.2372549
0.28529412 0.28529412 0.28529412
0.32058824 0.32058824 0.32058824
0.39068627 0.39068627 0.39068627
0.49215686 0.49215686 0.49215686
0.37843137 0.37843137 0.37843137
0.38210784 0.38210784 0.38210784
0.43504902 0.43504902 0.43504902
0.49313725 0.49313725 0.49313725
0.55980392 0.55980392 0.55980392
0.53333333 0.53333333 0.53333333
0.54607843 0.54607843 0.54607843
0.56813725 0.56813725 0.56813725
0.61544118 0.61544118 0.61544118
0.63921569 0.63921569 0.63921569
0.70196078 0.70196078 0.70196078
0.71470588 0.71470588 0.71470588
0.73480392 0.73480392 0.73480392
0.75343137 0.75343137 0.75343137
0.78431373 0.78431373 0.78431373
0.87647059 0.87647059 0.87647059
0.85490196 0.85490196 0.85490196
0.87647059 0.87647059 0.87647059
0.88431373 0.88431373 0.88431373
0.85490196 0.85490196 0.85490196
0.39509804 0.39509804 0.39509804
0.40980392 0.40980392 0.40980392
0.47941176 0.47941176 0.47941176
0.53651961 0.53651961 0.53651961
0.60980392 0.60980392 0.60980392
0.49901961 0.49901961 0.49901961
0.52230392 0.52230392 0.52230392
0.55098039 0.55098039 0.55098039
0.60508578 0.60508578 0.60508578
0.67377451 0.67377451 0.67377451
0.6372549 0.6372549 0.6372549
0.64852941 0.64852941 0.64852941
0.67230392 0.67230392 0.67230392
0.70992647 0.70992647 0.70992647
0.74803922 0.74803922 0.74803922
0.7872549 0.7872549 0.7872549
0.78627451 0.78627451 0.78627451
0.79705882 0.79705882 0.79705882
0.80686275 0.80686275 0.80686275
0.82941176 0.82941176 0.82941176
0.89509804 0.89509804 0.89509804
0.89117647 0.89117647 0.89117647
0.89264706 0.89264706 0.89264706
0.90612745 0.90612745 0.90612745
0.92254902 0.92254902 0.92254902
0.56862745 0.56862745 0.56862745
0.57941176 0.57941176 0.57941176
0.63921569 0.63921569 0.63921569
0.66666667 0.66666667 0.66666667
0.69411765 0.69411765 0.69411765
0.64509804 0.64509804 0.64509804
0.66176471 0.66176471 0.66176471
0.68333333 0.68333333 0.68333333
0.70122549 0.70122549 0.70122549
0.76078431 0.76078431 0.76078431
0.74901961 0.74901961 0.74901961
0.75490196 0.75490196 0.75490196
0.75784314 0.75784314 0.75784314
0.78039216 0.78039216 0.78039216
0.80392157 0.80392157 0.80392157
0.8372549 0.8372549 0.8372549
0.84019608 0.84019608 0.84019608
0.84852941 0.84852941 0.84852941
0.85980392 0.85980392 0.85980392
0.8872549 0.8872549 0.8872549
0.94509804 0.94509804 0.94509804
0.93039216 0.93039216 0.93039216
0.92352941 0.92352941 0.92352941
0.95196078 0.95196078 0.95196078
0.95686275 0.95686275 0.95686275
