site/assets/luts/sha256-35e29f51c4f95b31ff45d370becd970a284feba213383e4a156d862d2952df3b.cube
# LUTr-Schema-Version: 2
# LUTr-ID: sha256-35e29f51c4f95b31ff45d370becd970a284feba213383e4a156d862d2952df3b
# LUTr-Title: fuji fp-3000b +++
# LUTr-Collection: Natron HaldCLUT
# LUTr-Collection-ID: natron-haldclut-presets
# LUTr-Source: https://github.com/NatronGitHub/clut
# LUTr-Retrieved: 2026-07-27
# LUTr-Source-File: submissions/natron-haldclut-presets/instant_pro/fuji_fp-3000b_+++.png
# LUTr-Source-Format: HALD-PNG
# LUTr-Source-SHA256: 35e29f51c4f95b31ff45d370becd970a284feba213383e4a156d862d2952df3b
# LUTr-License: CC-BY-SA-4.0
# LUTr-License-URL: https://github.com/NatronGitHub/clut#license
# LUTr-License-Basis: repo-license-file
# LUTr-Transform-Class: film-emulation
# LUTr-Tags: creative, film, film-emulation, hald-clut, natron, png, cube
# LUTr-Input-Color-Space: srgb
# LUTr-Input-Gamut: rec709
# LUTr-Input-Transfer: srgb
# LUTr-Output-Color-Space: srgb
# LUTr-Output-Gamut: rec709
# LUTr-Output-Transfer: srgb
# LUTr-Color-Space-Confidence: assumed-display-referred
# LUTr-Domain-Normalized: true
# LUTr-Shaper: none
# LUTr-Original-Grid: 64x64x64
# LUTr-Conversion-Grid: 25x25x25
# LUTr-Conversion-Interpolation: trilinear
# LUTr-Conversion-Method: HALD-PNG LUT image decoded at 16-bit and sampled to 25x25x25 3D CUBE
# LUTr-Conversion-Tool: LUTr scripts/convert-all-to-cube.mjs 2.0.0
# LUTr-Conversion-Date: 2026-07-27
# LUTr-Note: Preserve this metadata and the upstream license notices when redistributing.
TITLE "fuji fp-3000b +++"
LUT_3D_SIZE 5
DOMAIN_MIN 0 0 0
DOMAIN_MAX 1 1 1
0.31764706 0.31764706 0.31764706
0.32843137 0.32843137 0.32843137
0.3745098 0.3745098 0.3745098
0.46862745 0.46862745 0.46862745
0.65882353 0.65882353 0.65882353
0.32941176 0.32941176 0.32941176
0.34093137 0.34093137 0.34093137
0.40441176 0.40441176 0.40441176
0.52352941 0.52352941 0.52352941
0.64117647 0.64117647 0.64117647
0.37843137 0.37843137 0.37843137
0.36813725 0.36813725 0.36813725
0.47647059 0.47647059 0.47647059
0.64313725 0.64313725 0.64313725
0.7745098 0.7745098 0.7745098
0.51666667 0.51666667 0.51666667
0.49877451 0.49877451 0.49877451
0.57254902 0.57254902 0.57254902
0.75980392 0.75980392 0.75980392
0.85588235 0.85588235 0.85588235
0.77647059 0.77647059 0.77647059
0.77254902 0.77254902 0.77254902
0.76078431 0.76078431 0.76078431
0.85980392 0.85980392 0.85980392
0.90196078 0.90196078 0.90196078
0.34019608 0.34019608 0.34019608
0.34877451 0.34877451 0.34877451
0.39166667 0.39166667 0.39166667
0.50294118 0.50294118 0.50294118
0.66960784 0.66960784 0.66960784
0.35171569 0.35171569 0.35171569
0.36427696 0.36427696 0.36427696
0.42352941 0.42352941 0.42352941
0.53878676 0.53878676 0.53878676
0.69705882 0.69705882 0.69705882
0.42647059 0.42647059 0.42647059
0.42254902 0.42254902 0.42254902
0.51372549 0.51372549 0.51372549
0.6622549 0.6622549 0.6622549
0.78627451 0.78627451 0.78627451
0.57745098 0.57745098 0.57745098
0.56887255 0.56887255 0.56887255
0.59080882 0.59080882 0.59080882
0.76053922 0.76053922 0.76053922
0.85906863 0.85906863 0.85906863
0.80686275 0.80686275 0.80686275
0.79607843 0.79607843 0.79607843
0.79509804 0.79509804 0.79509804
0.85588235 0.85588235 0.85588235
0.90980392 0.90980392 0.90980392
0.39215686 0.39215686 0.39215686
0.42745098 0.42745098 0.42745098
0.47058824 0.47058824 0.47058824
0.59901961 0.59901961 0.59901961
0.72156863 0.72156863 0.72156863
0.41862745 0.41862745 0.41862745
0.45147059 0.45147059 0.45147059
0.50686275 0.50686275 0.50686275
0.6254902 0.6254902 0.6254902
0.7627451 0.7627451 0.7627451
0.53235294 0.53235294 0.53235294
0.53063725 0.53063725 0.53063725
0.57696078 0.57696078 0.57696078
0.68651961 0.68651961 0.68651961
0.79607843 0.79607843 0.79607843
0.70882353 0.70882353 0.70882353
0.70098039 0.70098039 0.70098039
0.69485294 0.69485294 0.69485294
0.78946078 0.78946078 0.78946078
0.86372549 0.86372549 0.86372549
0.84509804 0.84509804 0.84509804
0.84901961 0.84901961 0.84901961
0.8372549 0.8372549 0.8372549
0.85833333 0.85833333 0.85833333
0.91176471 0.91176471 0.91176471
0.59607843 0.59607843 0.59607843
0.60882353 0.60882353 0.60882353
0.67254902 0.67254902 0.67254902
0.73333333 0.73333333 0.73333333
0.80392157 0.80392157 0.80392157
0.63823529 0.63823529 0.63823529
0.64926471 0.64926471 0.64926471
0.69509804 0.69509804 0.69509804
0.74901961 0.74901961 0.74901961
0.82058824 0.82058824 0.82058824
0.6627451 0.6627451 0.6627451
0.68333333 0.68333333 0.68333333
0.73210784 0.73210784 0.73210784
0.78517157 0.78517157 0.78517157
0.84215686 0.84215686 0.84215686
0.76397059 0.76397059 0.76397059
0.7872549 0.7872549 0.7872549
0.79901961 0.79901961 0.79901961
0.83823529 0.83823529 0.83823529
0.87622549 0.87622549 0.87622549
0.89019608 0.89019608 0.89019608
0.88627451 0.88627451 0.88627451
0.87990196 0.87990196 0.87990196
0.89191176 0.89191176 0.89191176
0.91666667 0.91666667 0.91666667
0.85490196 0.85490196 0.85490196
0.85098039 0.85098039 0.85098039
0.85686275 0.85686275 0.85686275
0.87843137 0.87843137 0.87843137
0.89803922 0.89803922 0.89803922
0.85 0.85 0.85
0.85490196 0.85490196 0.85490196
0.86078431 0.86078431 0.86078431
0.88651961 0.88651961 0.88651961
0.89411765 0.89411765 0.89411765
0.85490196 0.85490196 0.85490196
0.85539216 0.85539216 0.85539216
0.8754902 0.8754902 0.8754902
0.89607843 0.89607843 0.89607843
0.9 0.9 0.9
0.86764706 0.86764706 0.86764706
0.8754902 0.8754902 0.8754902
0.88480392 0.88480392 0.88480392
0.89509804 0.89509804 0.89509804
0.90196078 0.90196078 0.90196078
0.91372549 0.91372549 0.91372549
0.89803922 0.89803922 0.89803922
0.90196078 0.90196078 0.90196078
0.90294118 0.90294118 0.90294118
0.9254902 0.9254902 0.9254902
