site/assets/luts/sha256-f5081ac4f42b66644015edbaf80bc3e30c8544d788ac6de6926ac0811c50ef0e.cube
# LUTr-Schema-Version: 2
# LUTr-ID: sha256-f5081ac4f42b66644015edbaf80bc3e30c8544d788ac6de6926ac0811c50ef0e
# LUTr-Title: solarized color
# LUTr-Collection: Natron HaldCLUT
# LUTr-Collection-ID: natron-haldclut-presets
# LUTr-Source: https://github.com/NatronGitHub/clut
# LUTr-Retrieved: 2026-07-27
# LUTr-Source-File: submissions/natron-haldclut-presets/various/solarized_color.png
# LUTr-Source-Format: HALD-PNG
# LUTr-Source-SHA256: f5081ac4f42b66644015edbaf80bc3e30c8544d788ac6de6926ac0811c50ef0e
# LUTr-License: CC-BY-SA-4.0
# LUTr-License-URL: https://github.com/NatronGitHub/clut#license
# LUTr-License-Basis: repo-license-file
# LUTr-Transform-Class: film-emulation
# LUTr-Tags: creative, film, film-emulation, hald-clut, natron, png, cube
# LUTr-Input-Color-Space: srgb
# LUTr-Input-Gamut: rec709
# LUTr-Input-Transfer: srgb
# LUTr-Output-Color-Space: srgb
# LUTr-Output-Gamut: rec709
# LUTr-Output-Transfer: srgb
# LUTr-Color-Space-Confidence: assumed-display-referred
# LUTr-Domain-Normalized: true
# LUTr-Shaper: none
# LUTr-Original-Grid: 64x64x64
# LUTr-Conversion-Grid: 25x25x25
# LUTr-Conversion-Interpolation: trilinear
# LUTr-Conversion-Method: HALD-PNG LUT image decoded at 16-bit and sampled to 25x25x25 3D CUBE
# LUTr-Conversion-Tool: LUTr scripts/convert-all-to-cube.mjs 2.0.0
# LUTr-Conversion-Date: 2026-07-27
# LUTr-Note: Preserve this metadata and the upstream license notices when redistributing.
TITLE "solarized color"
LUT_3D_SIZE 25
DOMAIN_MIN 0 0 0
DOMAIN_MAX 1 1 1
0 0 0
0.082352941 0.03872549 0.024509804
0.1627451 0.041176471 0.040196078
0.21372549 0.028431373 0.028921569
0.25098039 0.0078431373 0.0019607843
0.25539216 0.02254902 0.01127451
0.25588235 0.014705882 0.0098039216
0.2495098 0.0058823529 0.0053921569
0.24313725 0 0.0039215686
0.25735294 0.032352941 0.03872549
0.2872549 0.037254902 0.040196078
0.33529412 0.0029411765 0.0024509804
0.43921569 0.045098039 0.02745098
0.54068627 0.039705882 0.035294118
0.61960784 0.05 0.035294118
0.69264706 0.044117647 0.029901961
0.75686275 0.02745098 0.019607843
0.78529412 0.026960784 0.014215686
0.79705882 0.037254902 0.018627451
0.80735294 0.0024509804 0.00098039216
0.82941176 0.0019607843 0.0019607843
0.85637255 0.016666667 0.0044117647
0.89411765 0.017647059 0.0078431373
0.93921569 0 0
0.98039216 0 0.0039215686
0.011764706 0.15980392 0.022058824
0.08627451 0.17493873 0.03627451
0.15637255 0.17022059 0.04252451
0.21109069 0.1627451 0.028921569
0.24264706 0.15441176 0.012990196
0.25294118 0.16011029 0.021997549
0.25735294 0.16286765 0.029044118
0.25098039 0.15882353 0.020588235
0.24852941 0.17205882 0.026470588
0.26525735 0.16262255 0.030821078
0.29117647 0.15490196 0.033946078
0.34460784 0.15067402 0.02254902
0.43921569 0.16446078 0.032598039
0.53333333 0.17420343 0.031066176
0.61629902 0.17941176 0.025
0.68872549 0.17493873 0.022610294
0.7504902 0.17254902 0.0093137255
0.78284314 0.17193627 0.011764706
0.79767157 0.16568627 0.019240196
0.81341912 0.16078431 0.026654412
0.83014706 0.16348039 0.016176471
0.85655637 0.16421569 0.010477941
0.89411765 0.15931373 0.012377451
0.93137255 0.15833333 0.011764706
0.96617647 0.15833333 0.024509804
0.015686275 0.28627451 0.02745098
0.08627451 0.2995098 0.037377451
0.15098039 0.30906863 0.033333333
0.20931373 0.30821078 0.018259804
0.23921569 0.30343137 0.010784314
0.25453431 0.30392157 0.0085784314
0.2627451 0.30563725 0.012990196
0.25343137 0.30061275 0.032720588
0.24705882 0.31764706 0.021568627
0.25637255 0.31102941 0.03370098
0.28823529 0.30196078 0.03995098
0.34607843 0.29705882 0.027941176
0.43235294 0.30931373 0.029901961
0.52904412 0.31372549 0.021691176
0.61740196 0.31568627 0.014705882
0.68970588 0.3127451 0.024877451
0.75294118 0.30490196 0.020588235
0.78321078 0.30441176 0.011764706
0.80294118 0.30392157 0.015686275
0.82009804 0.31078431 0.032843137
0.83382353 0.30882353 0.021568627
0.8564951 0.30490196 0.015686275
0.89411765 0.30980392 0.012745098
0.92463235 0.31176471 0.018627451
0.94901961 0.30980392 0.037254902
0.016176471 0.40245098 0.020098039
0.083823529 0.40814951 0.028308824
0.14742647 0.41862745 0.020465686
0.20582108 0.41954657 0.01182598
0.24068627 0.41372549 0.013235294
0.25147059 0.40729167 0.026960784
0.25796569 0.42401961 0.037254902
0.25343137 0.41605392 0.042156863
0.25098039 0.40735294 0.046078431
0.25704657 0.40159314 0.044240196
0.29080882 0.40330882 0.034803922
0.34264706 0.43247549 0.021078431
0.42352941 0.43602941 0.017892157
0.52647059 0.41862745 0.019546569
0.62598039 0.41507353 0.015686275
0.70214461 0.41519608 0.022855392
0.74901961 0.41078431 0.020098039
0.77990196 0.42303922 0.015686275
0.81066176 0.43946078 0.010906863
0.82696078 0.43431373 0.016115196
0.84068627 0.41666667 0.023284314
0.8598652 0.41127451 0.018688725
0.89497549 0.41948529 0.015686275
0.92254902 0.41568627 0.015870098
0.93333333 0.41519608 0.024019608
0.0078431373 0.50392157 0.0098039216
0.082352941 0.50171569 0.025980392
0.14460784 0.50392157 0.013235294
0.20294118 0.4870098 0.025
0.23823529 0.47843137 0.035294118
0.25343137 0.47892157 0.029656863
0.25882353 0.48431373 0.038235294
0.25343137 0.48186275 0.05122549
0.25098039 0.48823529 0.056862745
0.26127451 0.46960784 0.040196078
0.29656863 0.47058824 0.026960784
0.34852941 0.48946078 0.020098039
0.4245098 0.5 0.019607843
0.52843137 0.5002451 0.019607843
0.62794118 0.50343137 0.012745098
0.7129902 0.50514706 0.0046568627
0.74509804 0.49803922 0.011764706
0.77598039 0.49534314 0.015686275
0.80343137 0.49803922 0.019607843
0.8247549 0.49607843 0.017401961
0.84215686 0.49705882 0.021568627
0.86053922 0.50171569 0.019607843
0.89803922 0.5 0.021568627
0.93504902 0.50392157 0.011029412
0.94313725 0.50196078 0.01372549
0.015686275 0.53872549 0.015686275
0.083823529 0.53658088 0.024387255
0.15502451 0.5432598 0.026960784
0.20643382 0.54405637 0.040196078
0.24117647 0.54240196 0.025735294
0.26366422 0.54019608 0.019178922
0.2627451 0.53627451 0.032843137
0.2536152 0.52530637 0.048039216
0.25441176 0.52352941 0.042156863
0.25686275 0.5254902 0.025796569
0.29166667 0.52512255 0.01875
0.35343137 0.53921569 0.019117647
0.42352941 0.55122549 0.017892157
0.53921569 0.54650735 0.02935049
0.64227941 0.54301471 0.029534314
0.71176471 0.53823529 0.011948529
0.74509804 0.53823529 0.012254902
0.77990196 0.54901961 0.011458333
0.80490196 0.55 0.012745098
0.82254902 0.54270833 0.022610294
0.83921569 0.53921569 0.023529412
0.86078431 0.53964461 0.023529412
0.89816176 0.54865196 0.020465686
0.9377451 0.55735294 0.012254902
0.94901961 0.55735294 0.012254902
0.012745098 0.56666667 0.012745098
0.083823529 0.56482843 0.016666667
0.15882353 0.56176471 0.024509804
0.21078431 0.57634804 0.041176471
0.24215686 0.58039216 0.025980392
0.26752451 0.5807598 0.013970588
0.26053922 0.56176471 0.027205882
0.25343137 0.54375 0.035171569
0.25098039 0.55490196 0.025490196
0.25098039 0.56813725 0.011764706
0.28210784 0.57279412 0.0088235294
0.35 0.56887255 0.018259804
0.43382353 0.56862745 0.023039216
0.54656863 0.56715686 0.036764706
0.64240196 0.56593137 0.034313725
0.71176471 0.56066176 0.015686275
0.74509804 0.56176471 0.015686275
0.77659314 0.56715686 0.012867647
0.80196078 0.57083333 0.012009804
0.81997549 0.56776961 0.019117647
0.83921569 0.57205882 0.023529412
0.86078431 0.57622549 0.023529412
0.89803922 0.57156863 0.026470588
0.93529412 0.56764706 0.025
0.95196078 0.56764706 0.02254902
0.024019608 0.57107843 0.018627451
0.085294118 0.57107843 0.0093137255
0.15355392 0.57071078 0.00625
0.2004902 0.57107843 0.022855392
0.23921569 0.56838235 0.031372549
0.25735294 0.56715686 0.027328431
0.25490196 0.56764706 0.02120098
0.25098039 0.56280637 0.014276961
0.25490196 0.56617647 0.015686275
0.25882353 0.56868873 0.013235294
0.28112745 0.57107843 0.019607843
0.35147059 0.56893382 0.031066176
0.44509804 0.57254902 0.024264706
0.54411765 0.57383578 0.023835784
0.63321078 0.57438725 0.022671569
0.709375 0.57653186 0.013235294
0.74117647 0.57107843 0.015686275
0.77113971 0.56715686 0.015686275
0.79693627 0.57254902 0.010784314
0.81862745 0.57401961 0.010110294
0.83921569 0.57303922 0.017647059
0.86047794 0.5658701 0.024019608
0.89803922 0.56715686 0.031372549
0.93529412 0.57254902 0.029901961
0.96078431 0.57745098 0.02745098
0.031372549 0.55686275 0.023529412
0.087745098 0.55686275 0.0093137255
0.15392157 0.55686275 0.0088235294
0.20196078 0.55686275 0.026470588
0.23921569 0.55294118 0.035294118
0.25490196 0.55294118 0.030882353
0.25490196 0.55980392 0.017647059
0.25245098 0.56470588 0.0078431373
0.25882353 0.56078431 0.015686275
0.27303922 0.55686275 0.025980392
0.28823529 0.56078431 0.032352941
0.33676471 0.56127451 0.039215686
0.44313725 0.56078431 0.033333333
0.54117647 0.56078431 0.031862745
0.62647059 0.55784314 0.035294118
0.70539216 0.55686275 0.022058824
0.74117647 0.55686275 0.019607843
0.76813725 0.56078431 0.017156863
0.79509804 0.56568627 0.010784314
0.81862745 0.56519608 0.014705882
0.83921569 0.55882353 0.019607843
0.86078431 0.54901961 0.020588235
0.89803922 0.55294118 0.032352941
0.93676471 0.55686275 0.02745098
0.96470588 0.55686275 0.02745098
0.010294118 0.54411765 0.015686275
0.08627451 0.54019608 0.0039215686
0.15098039 0.53921569 0.010294118
0.20931373 0.53627451 0.016666667
0.24240196 0.53480392 0.025
0.26568627 0.53235294 0.020588235
0.26397059 0.53566176 0.016911765
0.25435049 0.53866422 0.02689951
0.25490196 0.5377451 0.024509804
0.2627451 0.53382353 0.02689951
0.29497549 0.53664216 0.035294118
0.35441176 0.54019608 0.038909314
0.44754902 0.53504902 0.039215686
0.54362745 0.53382353 0.035784314
0.62708333 0.53627451 0.03627451
0.71078431 0.53627451 0.021139706
0.74901961 0.53627451 0.019607843
0.77297794 0.53927696 0.022058824
0.79632353 0.54019608 0.025490196
0.81470588 0.5403799 0.030208333
0.8379902 0.53627451 0.03504902
0.86029412 0.53235294 0.01372549
0.89803922 0.53235294 0.022303922
0.94068627 0.53627451 0.024448529
0.97892157 0.53627451 0.021078431
0.018627451 0.51862745 0.014705882
0.083210784 0.51862745 0.0099264706
0.15098039 0.51568627 0.0085784314
0.21580882 0.51654412 0.0014705882
0.24215686 0.51911765 0.019607843
0.26617647 0.51764706 0.016666667
0.26446078 0.51372549 0.026470588
0.25343137 0.51568627 0.043627451
0.25098039 0.51568627 0.041176471
0.25404412 0.51335784 0.032843137
0.30710784 0.51348039 0.030392157
0.36580882 0.51568627 0.029534314
0.45196078 0.51176471 0.031372549
0.54767157 0.50784314 0.034313725
0.62745098 0.51176471 0.033088235
0.7127451 0.51470588 0.020588235
0.75392157 0.51470588 0.024509804
0.77843137 0.51470588 0.031985294
0.79387255 0.51470588 0.046078431
0.81335784 0.51470588 0.048651961
0.83529412 0.51421569 0.024509804
0.8567402 0.5127451 0.0026960784
0.89338235 0.51568627 0.017892157
0.93578431 0.51666667 0.022426471
0.97254902 0.51666667 0.020588235
0.0088235294 0.49166667 0.0049019608
0.076470588 0.49509804 0.010477941
0.15061275 0.49901961 0.011764706
0.20245098 0.50245098 0.018321078
0.2375 0.5122549 0.021568627
0.2588848 0.51715686 0.026960784
0.25637255 0.50686275 0.030759804
0.24969363 0.49724265 0.06127451
0.25098039 0.50196078 0.04754902
0.25949755 0.50980392 0.03370098
0.30784314 0.50147059 0.03002451
0.36960784 0.49552696 0.016666667
0.44166667 0.49117647 0.010784314
0.53517157 0.49117647 0.021078431
0.62659314 0.49117647 0.028308824
0.70980392 0.49117647 0.020588235
0.75294118 0.49117647 0.027941176
0.78529412 0.49332108 0.041176471
0.79705882 0.49546569 0.052083333
0.81078431 0.49846814 0.055453431
0.83529412 0.50245098 0.032843137
0.86029412 0.50245098 0.018627451
0.89117647 0.49889706 0.019485294
0.92794118 0.49901961 0.023529412
0.94215686 0.49901961 0.034803922
0.0098039216 0.49411765 0.0058823529
0.077205882 0.48897059 0.025
0.1495098 0.47990196 0.0049019608
0.19460784 0.48946078 0.014705882
0.23137255 0.50588235 0.025490196
0.25857843 0.51323529 0.02745098
0.25490196 0.49754902 0.02254902
0.25098039 0.48823529 0.030147059
0.25490196 0.49803922 0.02745098
0.26102941 0.50735294 0.033088235
0.30588235 0.50343137 0.035784314
0.36568627 0.49656863 0.016666667
0.43921569 0.48921569 0.010784314
0.53995098 0.48431373 0.022058824
0.62990196 0.48284314 0.025980392
0.71029412 0.48039216 0.016176471
0.75294118 0.48823529 0.019607843
0.78063725 0.49411765 0.026715686
0.79754902 0.49460784 0.032352941
0.81495098 0.49803922 0.042647059
0.8372549 0.49411765 0.03627451
0.86617647 0.49215686 0.029411765
0.9 0.4872549 0.024509804
0.94044118 0.47965686 0.014215686
0.96078431 0.47843137 0.015686275
0.015686275 0.51470588 0.015686275
0.075980392 0.50863971 0.015686275
0.15110294 0.50392157 0.010784314
0.19895833 0.50692402 0.012193627
0.23553922 0.50857843 0.019117647
0.26323529 0.51672794 0.019117647
0.25637255 0.50171569 0.013602941
0.25098039 0.48394608 0.0037377451
0.24656863 0.50245098 0.019117647
0.25373775 0.51011029 0.021568627
0.30245098 0.51813725 0.025980392
0.35741422 0.50692402 0.015686275
0.43921569 0.50269608 0.015196078
0.54656863 0.49914216 0.027941176
0.64497549 0.49227941 0.034803922
0.70422794 0.51305147 0.030392157
0.75735294 0.51960784 0.023529412
0.77794118 0.50704657 0.013419118
0.80196078 0.49436275 0.0079656863
0.81868873 0.50294118 0.025980392
0.83921569 0.48872549 0.03504902
0.86862745 0.49227941 0.031372549
0.90588235 0.50134804 0.024509804
0.94656863 0.49852941 0.012928922
0.97647059 0.50196078 0.0039215686
0.0088235294 0.53823529 0.019607843
0.079534314 0.54178922 0.015686275
0.15490196 0.54117647 0.0071078431
0.20232843 0.55306373 0.01127451
0.23921569 0.5622549 0.015196078
0.27009804 0.56409314 0.013848039
0.2620098 0.5504902 0.017892157
0.25343137 0.53848039 0.015686275
0.24313725 0.55294118 0.015686275
0.24681373 0.55612745 0.014215686
0.29607843 0.56862745 0.018627451
0.35404412 0.55490196 0.0087009804
0.43921569 0.55637255 0.0098039216
0.54620098 0.57634804 0.020710784
0.64240196 0.59240196 0.021568627
0.70625 0.58161765 0.025122549
0.77156863 0.56078431 0.023529412
0.78529412 0.57561275 0.018995098
0.80196078 0.57671569 0.010294118
0.81911765 0.57879902 0.01875
0.8377451 0.57843137 0.03627451
0.86519608 0.58137255 0.027941176
0.8997549 0.59901961 0.020588235
0.94313725 0.59117647 0.016666667
0.97941176 0.59117647 0.0039215686
0.025 0.69019608 0.015686275
0.087193627 0.69564951 0.022977941
0.1622549 0.71078431 0.02745098
0.20784314 0.7185049 0.02745098
0.23872549 0.72083333 0.025490196
0.26488971 0.72469363 0.019607843
0.25980392 0.69877451 0.019607843
0.25104167 0.70686275 0.012745098
0.24460784 0.72401961 0.0078431373
0.25490196 0.69620098 0.017218137
0.28970588 0.69938725 0.019240196
0.35471814 0.69019608 0.015686275
0.4372549 0.69852941 0.015686275
0.54068627 0.70441176 0.019117647
0.64644608 0.70428922 0.0069852941
0.70539216 0.70147059 0.017156863
0.75931373 0.7004902 0.019607843
0.78529412 0.70294118 0.018137255
0.80196078 0.71507353 0.010171569
0.81862745 0.71997549 0.020955882
0.83529412 0.71495098 0.0375
0.86029412 0.71176471 0.025
0.89301471 0.71360294 0.00625
0.93676471 0.71286765 0.010845588
0.98039216 0.71764706 0.0039215686
0.035294118 0.84705882 0.0078431373
0.082352941 0.83823529 0.010294118
0.15980392 0.83137255 0.015686275
0.20637255 0.82058824 0.026470588
0.23921569 0.81764706 0.02745098
0.25980392 0.84068627 0.019117647
0.25980392 0.83039216 0.018627451
0.25098039 0.80735294 0.022058824
0.25490196 0.79607843 0.011764706
0.26127451 0.81666667 0.0093137255
0.28039216 0.82352941 0.0078431373
0.35686275 0.82303922 0.015196078
0.4372549 0.84313725 0.015686275
0.52696078 0.84607843 0.015196078
0.63627451 0.82843137 0.0088235294
0.70539216 0.82107843 0.013235294
0.75686275 0.84313725 0.011764706
0.78676471 0.83431373 0.011764706
0.80196078 0.82352941 0.0078431373
0.81862745 0.82745098 0.011764706
0.83529412 0.82941176 0.01372549
0.86421569 0.82745098 0.011764706
0.89509804 0.82745098 0.0088235294
0.93921569 0.82598039 0.011764706
0.97647059 0.82352941 0.0078431373
0.039215686 0.83676471 0.022058824
0.093566176 0.83676471 0.016605392
0.16127451 0.84509804 0.0096813725
0.20373775 0.84252451 0.025980392
0.23406863 0.83406863 0.038480392
0.24901961 0.8372549 0.025183824
0.25637255 0.83664216 0.0093137255
0.25735294 0.82303922 0.01807598
0.26127451 0.82058824 0.022058824
0.26666667 0.84448529 0.015686275
0.28737745 0.85147059 0.012132353
0.36323529 0.84264706 0.011580882
0.44313725 0.83504902 0.015686275
0.53431373 0.8346201 0.015196078
0.63541667 0.84509804 0.0096813725
0.70784314 0.84252451 0.013848039
0.75441176 0.83284314 0.019607843
0.78192402 0.8254902 0.011764706
0.79803922 0.81482843 0.012377451
0.81488971 0.83167892 0.015686275
0.83406863 0.84828431 0.021078431
0.86421569 0.85147059 0.023039216
0.89803922 0.85539216 0.017647059
0.93529412 0.84019608 0.017156863
0.97009804 0.81960784 0.018137255
0.038235294 0.82254902 0.035294118
0.1 0.81617647 0.021446078
0.16593137 0.80955882 0.0066176471
0.20294118 0.81323529 0.018627451
0.23333333 0.81764706 0.043137255
0.24460784 0.82573529 0.031004902
0.25416667 0.8372549 0.0098039216
0.25784314 0.83284314 0.017156863
0.26176471 0.83039216 0.02745098
0.26875 0.83223039 0.021691176
0.30514706 0.82843137 0.024509804
0.37414216 0.81813725 0.017156863
0.45 0.80931373 0.0068627451
0.54166667 0.81029412 0.0093137255
0.63431373 0.81593137 0.019607843
0.71482843 0.81556373 0.023529412
0.74901961 0.81078431 0.023529412
0.77708333 0.80735294 0.0096813725
0.79705882 0.80588235 0.011029412
0.81127451 0.80980392 0.035784314
0.83137255 0.8127451 0.05
0.86078431 0.82512255 0.04497549
0.89803922 0.83039216 0.03504902
0.93590686 0.82009804 0.021691176
0.96960784 0.80686275 0.014705882
0.027941176 0.81568627 0.028431373
0.088235294 0.81145833 0.019117647
0.16017157 0.81176471 0.01127451
0.209375 0.80778186 0.022487745
0.24436275 0.79877451 0.050490196
0.25140931 0.81666667 0.041176471
0.25490196 0.83088235 0.020098039
0.25490196 0.8286152 0.017156863
0.25147059 0.81617647 0.023529412
0.27009804 0.81403186 0.029411765
0.31397059 0.80870098 0.03995098
0.37401961 0.80784314 0.034803922
0.44558824 0.81078431 0.016666667
0.53480392 0.80392157 0.019607843
0.6372549 0.79754902 0.023529412
0.72567402 0.79050245 0.02745098
0.75245098 0.80392157 0.023529412
0.77598039 0.81078431 0.016666667
0.79791667 0.81090686 0.023651961
0.81427696 0.81127451 0.038664216
0.83137255 0.8127451 0.055392157
0.86035539 0.81960784 0.054411765
0.89803922 0.81764706 0.044607843
0.93921569 0.80508578 0.024509804
0.97990196 0.78921569 0.00098039216
0.0058823529 0.82156863 0.0078431373
0.077205882 0.82671569 0.01495098
0.15343137 0.83578431 0.019607843
0.20955882 0.83382353 0.028676471
0.2372549 0.8254902 0.041176471
0.25147059 0.82401961 0.02622549
0.25833333 0.83186275 0.0098039216
0.25343137 0.82671569 0.019117647
0.24705882 0.81372549 0.025490196
0.27058824 0.81495098 0.032598039
0.30980392 0.82647059 0.037745098
0.36348039 0.83333333 0.033823529
0.4372549 0.83039216 0.031372549
0.52254902 0.81397059 0.040931373
0.62696078 0.81911765 0.032352941
0.71666667 0.82034314 0.023529412
0.75294118 0.8254902 0.025490196
0.77990196 0.83014706 0.03504902
0.80343137 0.82794118 0.049509804
0.81715686 0.83308824 0.047303922
0.83235294 0.83627451 0.045098039
0.85661765 0.83946078 0.045098039
0.89411765 0.83284314 0.046568627
0.93455882 0.82279412 0.040196078
0.95490196 0.82156863 0.029411765
0.016176471 0.85686275 0.016666667
0.072058824 0.85686275 0.015686275
0.14754902 0.86127451 0.020465686
0.20931373 0.86421569 0.026531863
0.23333333 0.85857843 0.028921569
0.24846814 0.85294118 0.015686275
0.25882353 0.85 0.01127451
0.25343137 0.84852941 0.02567402
0.24754902 0.84901961 0.035784314
0.26832108 0.85147059 0.037561275
0.30931373 0.85784314 0.030392157
0.35006127 0.86856618 0.023529412
0.43995098 0.8627451 0.032843137
0.54356618 0.85778186 0.030821078
0.63848039 0.86078431 0.024387255
0.70275735 0.85931373 0.022058824
0.75686275 0.86078431 0.015196078
0.78529412 0.86176471 0.033823529
0.80441176 0.85428922 0.055147059
0.81470588 0.86813725 0.035294118
0.83137255 0.86838235 0.034803922
0.85294118 0.86470588 0.034742647
0.89411765 0.86470588 0.036887255
0.93566176 0.86127451 0.038235294
0.95490196 0.86127451 0.037745098
0.030392157 0.89803922 0.040196078
0.072058824 0.89914216 0.015686275
0.14411765 0.89803922 0.017401961
0.21237745 0.89889706 0.020465686
0.23333333 0.89803922 0.028431373
0.25147059 0.89791667 0.03247549
0.25882353 0.89338235 0.018627451
0.25343137 0.88811275 0.037254902
0.25098039 0.89019608 0.043137255
0.26286765 0.89411765 0.042034314
0.30269608 0.90122549 0.031127451
0.34656863 0.90551471 0.020098039
0.44607843 0.90441176 0.025490196
0.55465686 0.90588235 0.023406863
0.63431373 0.90220588 0.026470588
0.69607843 0.90012255 0.025612745
0.75392157 0.90196078 0.0078431373
0.78566176 0.90134804 0.012867647
0.79803922 0.90122549 0.02254902
0.80747549 0.90931373 0.018137255
0.83137255 0.90637255 0.021078431
0.85943627 0.90588235 0.020220588
0.89485294 0.90882353 0.01372549
0.94007353 0.90772059 0.015808824
0.99215686 0.90882353 0.010784314
0.018137255 0.94313725 0.022058824
0.074509804 0.93731618 0.017034314
0.14705882 0.93553922 0.020343137
0.20753676 0.94246324 0.015073529
0.22867647 0.93995098 0.028676471
0.24785539 0.94185049 0.030698529
0.25882353 0.93958333 0.015196078
0.25343137 0.93180147 0.034865196
0.24705882 0.92990196 0.043137255
0.25588235 0.94460784 0.024509804
0.29276961 0.9317402 0.033088235
0.34050245 0.93841912 0.020526961
0.42916667 0.94436275 0.022058824
0.52941176 0.94656863 0.024509804
0.62022059 0.93921569 0.039705882
0.68970588 0.93921569 0.034742647
0.75294118 0.94313725 0.015686275
0.78284314 0.94068627 0.014215686
0.79595588 0.9370098 0.019607843
0.80735294 0.93756127 0.016176471
0.82745098 0.94705882 0.012254902
0.86047794 0.94540441 0.016605392
0.89803922 0.93909314 0.0098039216
0.93621324 0.93719363 0.020833333
0.97892157 0.94705882 0.011764706
0 0.98823529 0.0039215686
0.073039216 0.96862745 0.019607843
0.14901961 0.96568627 0.024509804
0.20490196 0.98431373 0.0044117647
0.22745098 0.97254902 0.033333333
0.24411765 0.96911765 0.037745098
0.26078431 0.98627451 0.0029411765
0.25343137 0.96029412 0.037254902
0.24705882 0.95686275 0.047058824
0.25098039 0.99166667 0.0058823529
0.28529412 0.95 0.041176471
0.33284314 0.96421569 0.024019608
0.41764706 0.98039216 0.017647059
0.50637255 0.97990196 0.024019608
0.59901961 0.96960784 0.041176471
0.67696078 0.97254902 0.032352941
0.74901961 0.98039216 0.011764706
0.78284314 0.9754902 0.010294118
0.79411765 0.95 0.020588235
0.81078431 0.96323529 0.016176471
0.8254902 0.98431373 0.0019607843
0.86029412 0.96764706 0.0083333333
0.89803922 0.94313725 0.011764706
0.93921569 0.96127451 0.014215686
0.98039216 0.99215686 0
0.0044117647 0.011764706 0.041176471
0.082904412 0.03682598 0.046568627
0.15980392 0.029901961 0.047426471
0.21795343 0.016605392 0.046446078
0.24828431 0.025 0.047058824
0.26096814 0.01997549 0.045281863
0.25882353 0.040318627 0.050122549
0.2495098 0.034436275 0.045098039
0.24460784 0.024019608 0.042647059
0.24932598 0.012561275 0.045220588
0.27965686 0.0096813725 0.044362745
0.34509804 0.023039216 0.047426471
0.43553922 0.047303922 0.049754902
0.54148284 0.026838235 0.045281863
0.62598039 0.045343137 0.045833333
0.70814951 0.023468137 0.042647059
0.75686275 0.019607843 0.03872549
0.78529412 0.035294118 0.04810049
0.80343137 0.024877451 0.045588235
0.81734069 0.025428922 0.046568627
0.83259804 0.031617647 0.043872549
0.85637255 0.032291667 0.045098039
0.89203431 0.017647059 0.045098039
0.93682598 0.011948529 0.041237745
0.98284314 0.0014705882 0.034803922
0.016666667 0.15741422 0.041176471
0.08627451 0.17344516 0.049019608
0.15637255 0.16936275 0.05067402
0.2091299 0.16109069 0.046752451
0.23890931 0.15738358 0.047028186
0.25508578 0.15882353 0.046920956
0.25827206 0.16404718 0.051838235
0.25063572 0.16037837 0.049042586
0.24705882 0.16317402 0.04754902
0.25414369 0.15749081 0.049387255
0.28920037 0.15418199 0.050122549
0.35650276 0.1571538 0.053745404
0.44283088 0.17009804 0.059436275
0.53511029 0.17432598 0.049640012
0.62316176 0.17559743 0.043121936
0.69993873 0.16617647 0.042440257
0.75349265 0.16709559 0.041176471
