site/assets/luts/sha256-03399b3211dbb2356f7fbdb0a33e30e2cf495691d253bb79b43ca5c5d06ba21a.cube
# LUTr-Schema-Version: 2
# LUTr-ID: sha256-03399b3211dbb2356f7fbdb0a33e30e2cf495691d253bb79b43ca5c5d06ba21a
# LUTr-Title: fuji fp-3000b negative
# LUTr-Collection: Natron HaldCLUT
# LUTr-Collection-ID: natron-haldclut-presets
# LUTr-Source: https://github.com/NatronGitHub/clut
# LUTr-Retrieved: 2026-07-27
# LUTr-Source-File: submissions/natron-haldclut-presets/instant_pro/fuji_fp-3000b_negative.png
# LUTr-Source-Format: HALD-PNG
# LUTr-Source-SHA256: 03399b3211dbb2356f7fbdb0a33e30e2cf495691d253bb79b43ca5c5d06ba21a
# LUTr-License: CC-BY-SA-4.0
# LUTr-License-URL: https://github.com/NatronGitHub/clut#license
# LUTr-License-Basis: repo-license-file
# LUTr-Transform-Class: film-emulation
# LUTr-Tags: creative, film, film-emulation, hald-clut, natron, png, cube
# LUTr-Input-Color-Space: srgb
# LUTr-Input-Gamut: rec709
# LUTr-Input-Transfer: srgb
# LUTr-Output-Color-Space: srgb
# LUTr-Output-Gamut: rec709
# LUTr-Output-Transfer: srgb
# LUTr-Color-Space-Confidence: assumed-display-referred
# LUTr-Domain-Normalized: true
# LUTr-Shaper: none
# LUTr-Original-Grid: 64x64x64
# LUTr-Conversion-Grid: 25x25x25
# LUTr-Conversion-Interpolation: trilinear
# LUTr-Conversion-Method: HALD-PNG LUT image decoded at 16-bit and sampled to 25x25x25 3D CUBE
# LUTr-Conversion-Tool: LUTr scripts/convert-all-to-cube.mjs 2.0.0
# LUTr-Conversion-Date: 2026-07-27
# LUTr-Note: Preserve this metadata and the upstream license notices when redistributing.
TITLE "fuji fp-3000b negative"
LUT_3D_SIZE 5
DOMAIN_MIN 0 0 0
DOMAIN_MAX 1 1 1
0.054901961 0.054901961 0.054901961
0.092156863 0.092156863 0.092156863
0.25098039 0.25098039 0.25098039
0.47352941 0.47352941 0.47352941
0.6745098 0.6745098 0.6745098
0.13529412 0.13529412 0.13529412
0.18039216 0.18039216 0.18039216
0.32941176 0.32941176 0.32941176
0.52279412 0.52279412 0.52279412
0.70882353 0.70882353 0.70882353
0.35686275 0.35686275 0.35686275
0.36421569 0.36421569 0.36421569
0.45392157 0.45392157 0.45392157
0.61764706 0.61764706 0.61764706
0.7627451 0.7627451 0.7627451
0.60882353 0.60882353 0.60882353
0.60882353 0.60882353 0.60882353
0.64411765 0.64411765 0.64411765
0.71470588 0.71470588 0.71470588
0.84411765 0.84411765 0.84411765
0.86666667 0.86666667 0.86666667
0.86372549 0.86372549 0.86372549
0.84901961 0.84901961 0.84901961
0.89803922 0.89803922 0.89803922
0.91764706 0.91764706 0.91764706
0.13333333 0.13333333 0.13333333
0.19215686 0.19215686 0.19215686
0.31960784 0.31960784 0.31960784
0.50784314 0.50784314 0.50784314
0.67745098 0.67745098 0.67745098
0.19705882 0.19705882 0.19705882
0.25018382 0.25018382 0.25018382
0.38125 0.38125 0.38125
0.55055147 0.55055147 0.55055147
0.71740196 0.71740196 0.71740196
0.4627451 0.4627451 0.4627451
0.42990196 0.42990196 0.42990196
0.49117647 0.49117647 0.49117647
0.63811275 0.63811275 0.63811275
0.77647059 0.77647059 0.77647059
0.67034314 0.67034314 0.67034314
0.65238971 0.65238971 0.65238971
0.67230392 0.67230392 0.67230392
0.74044118 0.74044118 0.74044118
0.84730392 0.84730392 0.84730392
0.85882353 0.85882353 0.85882353
0.8745098 0.8745098 0.8745098
0.86813725 0.86813725 0.86813725
0.90269608 0.90269608 0.90269608
0.95 0.95 0.95
0.38039216 0.38039216 0.38039216
0.43431373 0.43431373 0.43431373
0.51470588 0.51470588 0.51470588
0.60980392 0.60980392 0.60980392
0.75098039 0.75098039 0.75098039
0.40686275 0.40686275 0.40686275
0.45392157 0.45392157 0.45392157
0.52181373 0.52181373 0.52181373
0.63713235 0.63713235 0.63713235
0.7622549 0.7622549 0.7622549
0.53235294 0.53235294 0.53235294
0.54656863 0.54656863 0.54656863
0.57941176 0.57941176 0.57941176
0.69607843 0.69607843 0.69607843
0.79607843 0.79607843 0.79607843
0.73823529 0.73823529 0.73823529
0.7439951 0.7439951 0.7439951
0.73186275 0.73186275 0.73186275
0.7817402 0.7817402 0.7817402
0.86372549 0.86372549 0.86372549
0.91372549 0.91372549 0.91372549
0.90441176 0.90441176 0.90441176
0.90098039 0.90098039 0.90098039
0.90980392 0.90980392 0.90980392
0.9254902 0.9254902 0.9254902
0.65882353 0.65882353 0.65882353
0.68235294 0.68235294 0.68235294
0.75 0.75 0.75
0.77156863 0.77156863 0.77156863
0.81176471 0.81176471 0.81176471
0.67916667 0.67916667 0.67916667
0.7002451 0.7002451 0.7002451
0.74803922 0.74803922 0.74803922
0.77156863 0.77156863 0.77156863
0.8 0.8 0.8
0.69117647 0.69117647 0.69117647
0.68137255 0.68137255 0.68137255
0.75294118 0.75294118 0.75294118
0.7932598 0.7932598 0.7932598
0.85980392 0.85980392 0.85980392
0.78431373 0.78431373 0.78431373
0.79172794 0.79172794 0.79172794
0.80294118 0.80294118 0.80294118
0.83823529 0.83823529 0.83823529
0.89215686 0.89215686 0.89215686
0.93823529 0.93823529 0.93823529
0.9372549 0.9372549 0.9372549
0.93382353 0.93382353 0.93382353
0.94215686 0.94215686 0.94215686
0.96470588 0.96470588 0.96470588
0.89019608 0.89019608 0.89019608
0.89215686 0.89215686 0.89215686
0.90392157 0.90392157 0.90392157
0.93333333 0.93333333 0.93333333
0.94509804 0.94509804 0.94509804
0.89411765 0.89411765 0.89411765
0.90171569 0.90171569 0.90171569
0.91568627 0.91568627 0.91568627
0.92941176 0.92941176 0.92941176
0.93529412 0.93529412 0.93529412
0.89411765 0.89411765 0.89411765
0.89803922 0.89803922 0.89803922
0.91764706 0.91764706 0.91764706
0.94215686 0.94215686 0.94215686
0.93529412 0.93529412 0.93529412
0.91862745 0.91862745 0.91862745
0.91372549 0.91372549 0.91372549
0.92598039 0.92598039 0.92598039
0.94901961 0.94901961 0.94901961
0.96470588 0.96470588 0.96470588
0.97254902 0.97254902 0.97254902
0.94901961 0.94901961 0.94901961
0.97058824 0.97058824 0.97058824
0.98039216 0.98039216 0.98039216
0.96862745 0.96862745 0.96862745
