site/assets/luts/sha256-13cde68fb576831b901197bc8ac87fe6435e7a794b031e55ca286459bde91a94.cube
# LUTr-Schema-Version: 2
# LUTr-ID: sha256-13cde68fb576831b901197bc8ac87fe6435e7a794b031e55ca286459bde91a94
# LUTr-Title: fuji neopan 1600 ++
# LUTr-Collection: Natron HaldCLUT
# LUTr-Collection-ID: natron-haldclut-presets
# LUTr-Source: https://github.com/NatronGitHub/clut
# LUTr-Retrieved: 2026-07-27
# LUTr-Source-File: submissions/natron-haldclut-presets/negative_old/fuji_neopan_1600_++.png
# LUTr-Source-Format: HALD-PNG
# LUTr-Source-SHA256: 13cde68fb576831b901197bc8ac87fe6435e7a794b031e55ca286459bde91a94
# LUTr-License: CC-BY-SA-4.0
# LUTr-License-URL: https://github.com/NatronGitHub/clut#license
# LUTr-License-Basis: repo-license-file
# LUTr-Transform-Class: film-emulation
# LUTr-Tags: creative, film, film-emulation, hald-clut, natron, png, black-and-white, cube
# LUTr-Input-Color-Space: srgb
# LUTr-Input-Gamut: rec709
# LUTr-Input-Transfer: srgb
# LUTr-Output-Color-Space: srgb
# LUTr-Output-Gamut: rec709
# LUTr-Output-Transfer: srgb
# LUTr-Color-Space-Confidence: assumed-display-referred
# LUTr-Domain-Normalized: true
# LUTr-Shaper: none
# LUTr-Original-Grid: 64x64x64
# LUTr-Conversion-Grid: 25x25x25
# LUTr-Conversion-Interpolation: trilinear
# LUTr-Conversion-Method: HALD-PNG LUT image decoded at 16-bit and sampled to 25x25x25 3D CUBE
# LUTr-Conversion-Tool: LUTr scripts/convert-all-to-cube.mjs 2.0.0
# LUTr-Conversion-Date: 2026-07-27
# LUTr-Note: Preserve this metadata and the upstream license notices when redistributing.
TITLE "fuji neopan 1600 ++"
LUT_3D_SIZE 25
DOMAIN_MIN 0 0 0
DOMAIN_MAX 1 1 1
0.15294118 0.15294118 0.15294118
0.15686275 0.15686275 0.15686275
0.15686275 0.15686275 0.15686275
0.16078431 0.16078431 0.16078431
0.16078431 0.16078431 0.16078431
0.16078431 0.16078431 0.16078431
0.16078431 0.16078431 0.16078431
0.16078431 0.16078431 0.16078431
0.16078431 0.16078431 0.16078431
0.16323529 0.16323529 0.16323529
0.17254902 0.17254902 0.17254902
0.17990196 0.17990196 0.17990196
0.18431373 0.18431373 0.18431373
0.18872549 0.18872549 0.18872549
0.19803922 0.19803922 0.19803922
0.21470588 0.21470588 0.21470588
0.23137255 0.23137255 0.23137255
0.2495098 0.2495098 0.2495098
0.26470588 0.26470588 0.26470588
0.28186275 0.28186275 0.28186275
0.31568627 0.31568627 0.31568627
0.35098039 0.35098039 0.35098039
0.38823529 0.38823529 0.38823529
0.44264706 0.44264706 0.44264706
0.48235294 0.48235294 0.48235294
0.15294118 0.15294118 0.15294118
0.15686275 0.15686275 0.15686275
0.15686275 0.15686275 0.15686275
0.16078431 0.16078431 0.16078431
0.16078431 0.16078431 0.16078431
0.16078431 0.16078431 0.16078431
0.16078431 0.16078431 0.16078431
0.16078431 0.16078431 0.16078431
0.15833333 0.15833333 0.15833333
0.16323529 0.16323529 0.16323529
0.16960784 0.16960784 0.16960784
0.17990196 0.17990196 0.17990196
0.18872549 0.18872549 0.18872549
0.19460784 0.19460784 0.19460784
0.20441176 0.20441176 0.20441176
0.22107843 0.22107843 0.22107843
0.2377451 0.2377451 0.2377451
0.25496324 0.25496324 0.25496324
0.27107843 0.27107843 0.27107843
0.29166667 0.29166667 0.29166667
0.31813725 0.31813725 0.31813725
0.3504902 0.3504902 0.3504902
0.39117647 0.39117647 0.39117647
0.44264706 0.44264706 0.44264706
0.48480392 0.48480392 0.48480392
0.15294118 0.15294118 0.15294118
0.15539216 0.15539216 0.15539216
0.15686275 0.15686275 0.15686275
0.16029412 0.16029412 0.16029412
0.16078431 0.16078431 0.16078431
0.16078431 0.16078431 0.16078431
0.16078431 0.16078431 0.16078431
0.15968137 0.15968137 0.15968137
0.15686275 0.15686275 0.15686275
0.15992647 0.15992647 0.15992647
0.17377451 0.17377451 0.17377451
0.18737745 0.18737745 0.18737745
0.19509804 0.19509804 0.19509804
0.20539216 0.20539216 0.20539216
0.21568627 0.21568627 0.21568627
0.22990196 0.22990196 0.22990196
0.24705882 0.24705882 0.24705882
0.26188725 0.26188725 0.26188725
0.27745098 0.27745098 0.27745098
0.30159314 0.30159314 0.30159314
0.33039216 0.33039216 0.33039216
0.35637255 0.35637255 0.35637255
0.39607843 0.39607843 0.39607843
0.44754902 0.44754902 0.44754902
0.49607843 0.49607843 0.49607843
0.15294118 0.15294118 0.15294118
0.15539216 0.15539216 0.15539216
0.15686275 0.15686275 0.15686275
0.16029412 0.16029412 0.16029412
0.16078431 0.16078431 0.16078431
0.16421569 0.16421569 0.16421569
0.16421569 0.16421569 0.16421569
0.16078431 0.16078431 0.16078431
0.16421569 0.16421569 0.16421569
0.17009804 0.17009804 0.17009804
0.17830882 0.17830882 0.17830882
0.19160539 0.19160539 0.19160539
0.20147059 0.20147059 0.20147059
0.21568627 0.21568627 0.21568627
0.22598039 0.22598039 0.22598039
0.23645833 0.23645833 0.23645833
0.25441176 0.25441176 0.25441176
0.26862745 0.26862745 0.26862745
0.28517157 0.28517157 0.28517157
0.3122549 0.3122549 0.3122549
0.34264706 0.34264706 0.34264706
0.37303922 0.37303922 0.37303922
0.41372549 0.41372549 0.41372549
0.46158088 0.46158088 0.46158088
0.50196078 0.50196078 0.50196078
0.15294118 0.15294118 0.15294118
0.15539216 0.15539216 0.15539216
0.15686275 0.15686275 0.15686275
0.16053922 0.16053922 0.16053922
0.16176471 0.16176471 0.16176471
0.16470588 0.16470588 0.16470588
0.16813725 0.16813725 0.16813725
0.17058824 0.17058824 0.17058824
0.1745098 0.1745098 0.1745098
0.18161765 0.18161765 0.18161765
0.18872549 0.18872549 0.18872549
0.19583333 0.19583333 0.19583333
0.21176471 0.21176471 0.21176471
0.22818627 0.22818627 0.22818627
0.24215686 0.24215686 0.24215686
0.25245098 0.25245098 0.25245098
0.26666667 0.26666667 0.26666667
0.28088235 0.28088235 0.28088235
0.3004902 0.3004902 0.3004902
0.32794118 0.32794118 0.32794118
0.35686275 0.35686275 0.35686275
0.38627451 0.38627451 0.38627451
0.4254902 0.4254902 0.4254902
0.47058824 0.47058824 0.47058824
0.50392157 0.50392157 0.50392157
0.15735294 0.15735294 0.15735294
0.15765931 0.15765931 0.15765931
0.16127451 0.16127451 0.16127451
0.16476716 0.16476716 0.16476716
0.16544118 0.16544118 0.16544118
0.16960784 0.16960784 0.16960784
0.17561275 0.17561275 0.17561275
0.17843137 0.17843137 0.17843137
0.18480392 0.18480392 0.18480392
0.19509804 0.19509804 0.19509804
0.20196078 0.20196078 0.20196078
0.21568627 0.21568627 0.21568627
0.23259804 0.23259804 0.23259804
0.24944853 0.24944853 0.24944853
0.26311275 0.26311275 0.26311275
0.27696078 0.27696078 0.27696078
0.29117647 0.29117647 0.29117647
0.30441176 0.30441176 0.30441176
0.32892157 0.32892157 0.32892157
0.35686275 0.35686275 0.35686275
0.38382353 0.38382353 0.38382353
0.41072304 0.41072304 0.41072304
0.44117647 0.44117647 0.44117647
0.48088235 0.48088235 0.48088235
0.51470588 0.51470588 0.51470588
0.16764706 0.16764706 0.16764706
0.17156863 0.17156863 0.17156863
0.1747549 0.1747549 0.1747549
0.1754902 0.1754902 0.1754902
0.17941176 0.17941176 0.17941176
0.18333333 0.18333333 0.18333333
0.18333333 0.18333333 0.18333333
0.18872549 0.18872549 0.18872549
0.19901961 0.19901961 0.19901961
0.2122549 0.2122549 0.2122549
0.22254902 0.22254902 0.22254902
0.23676471 0.23676471 0.23676471
0.25686275 0.25686275 0.25686275
0.27598039 0.27598039 0.27598039
0.2872549 0.2872549 0.2872549
0.30085784 0.30085784 0.30085784
0.31176471 0.31176471 0.31176471
0.33529412 0.33529412 0.33529412
0.35980392 0.35980392 0.35980392
0.38431373 0.38431373 0.38431373
0.41470588 0.41470588 0.41470588
0.44117647 0.44117647 0.44117647
0.46862745 0.46862745 0.46862745
0.49987745 0.49987745 0.49987745
0.53137255 0.53137255 0.53137255
0.18186275 0.18186275 0.18186275
0.18186275 0.18186275 0.18186275
0.18578431 0.18578431 0.18578431
0.18970588 0.18970588 0.18970588
0.19436275 0.19436275 0.19436275
0.19773284 0.19773284 0.19773284
0.19901961 0.19901961 0.19901961
0.20833333 0.20833333 0.20833333
0.21862745 0.21862745 0.21862745
0.23045343 0.23045343 0.23045343
0.24313725 0.24313725 0.24313725
0.25735294 0.25735294 0.25735294
0.27745098 0.27745098 0.27745098
0.2995098 0.2995098 0.2995098
0.32009804 0.32009804 0.32009804
0.33529412 0.33529412 0.33529412
0.34705882 0.34705882 0.34705882
0.37101716 0.37101716 0.37101716
0.39460784 0.39460784 0.39460784
0.41881127 0.41881127 0.41881127
0.44362745 0.44362745 0.44362745
0.47077206 0.47077206 0.47077206
0.49767157 0.49767157 0.49767157
0.53186275 0.53186275 0.53186275
0.56421569 0.56421569 0.56421569
0.19215686 0.19215686 0.19215686
0.19460784 0.19460784 0.19460784
0.2 0.2 0.2
0.20392157 0.20392157 0.20392157
0.20980392 0.20980392 0.20980392
0.21568627 0.21568627 0.21568627
0.21862745 0.21862745 0.21862745
0.22892157 0.22892157 0.22892157
0.23921569 0.23921569 0.23921569
0.2495098 0.2495098 0.2495098
0.26372549 0.26372549 0.26372549
0.27745098 0.27745098 0.27745098
0.29803922 0.29803922 0.29803922
0.32254902 0.32254902 0.32254902
0.34313725 0.34313725 0.34313725
0.36764706 0.36764706 0.36764706
0.38431373 0.38431373 0.38431373
0.40882353 0.40882353 0.40882353
0.43039216 0.43039216 0.43039216
0.45392157 0.45392157 0.45392157
0.47843137 0.47843137 0.47843137
0.50392157 0.50392157 0.50392157
0.54117647 0.54117647 0.54117647
0.57843137 0.57843137 0.57843137
0.61176471 0.61176471 0.61176471
0.20245098 0.20245098 0.20245098
0.20790441 0.20790441 0.20790441
0.21482843 0.21482843 0.21482843
0.22058824 0.22058824 0.22058824
0.2252451 0.2252451 0.2252451
0.23020833 0.23020833 0.23020833
0.23566176 0.23566176 0.23566176
0.24797794 0.24797794 0.24797794
0.25980392 0.25980392 0.25980392
0.27009804 0.27009804 0.27009804
0.28137255 0.28137255 0.28137255
0.29589461 0.29589461 0.29589461
0.31862745 0.31862745 0.31862745
0.34313725 0.34313725 0.34313725
0.36727941 0.36727941 0.36727941
0.39215686 0.39215686 0.39215686
0.41666667 0.41666667 0.41666667
0.44362745 0.44362745 0.44362745
0.46703431 0.46703431 0.46703431
0.4908701 0.4908701 0.4908701
0.51446078 0.51446078 0.51446078
0.54901961 0.54901961 0.54901961
0.59019608 0.59019608 0.59019608
0.62990196 0.62990196 0.62990196
0.66323529 0.66323529 0.66323529
0.23137255 0.23137255 0.23137255
0.23223039 0.23223039 0.23223039
0.23504902 0.23504902 0.23504902
0.24068627 0.24068627 0.24068627
0.24264706 0.24264706 0.24264706
0.24546569 0.24546569 0.24546569
0.25196078 0.25196078 0.25196078
0.26617647 0.26617647 0.26617647
0.28039216 0.28039216 0.28039216
0.29166667 0.29166667 0.29166667
0.30490196 0.30490196 0.30490196
0.31605392 0.31605392 0.31605392
0.33921569 0.33921569 0.33921569
0.36421569 0.36421569 0.36421569
0.38823529 0.38823529 0.38823529
0.4127451 0.4127451 0.4127451
0.44117647 0.44117647 0.44117647
0.47303922 0.47303922 0.47303922
0.50318627 0.50318627 0.50318627
0.52745098 0.52745098 0.52745098
0.55441176 0.55441176 0.55441176
0.59411765 0.59411765 0.59411765
0.63627451 0.63627451 0.63627451
0.67928922 0.67928922 0.67928922
0.71078431 0.71078431 0.71078431
0.26519608 0.26519608 0.26519608
0.26519608 0.26519608 0.26519608
0.26519608 0.26519608 0.26519608
0.26519608 0.26519608 0.26519608
0.26519608 0.26519608 0.26519608
0.26182598 0.26182598 0.26182598
0.27254902 0.27254902 0.27254902
0.2903799 0.2903799 0.2903799
0.30490196 0.30490196 0.30490196
0.31862745 0.31862745 0.31862745
0.32941176 0.32941176 0.32941176
0.34356618 0.34356618 0.34356618
0.36348039 0.36348039 0.36348039
0.38780637 0.38780637 0.38780637
0.41176471 0.41176471 0.41176471
0.43480392 0.43480392 0.43480392
0.46519608 0.46519608 0.46519608
0.49656863 0.49656863 0.49656863
0.53223039 0.53223039 0.53223039
0.56219363 0.56219363 0.56219363
0.59411765 0.59411765 0.59411765
0.63878676 0.63878676 0.63878676
0.68039216 0.68039216 0.68039216
0.71666667 0.71666667 0.71666667
0.74362745 0.74362745 0.74362745
0.29411765 0.29411765 0.29411765
0.29289216 0.29289216 0.29289216
0.29215686 0.29215686 0.29215686
0.29215686 0.29215686 0.29215686
0.29607843 0.29607843 0.29607843
0.29803922 0.29803922 0.29803922
0.30490196 0.30490196 0.30490196
0.31862745 0.31862745 0.31862745
0.33137255 0.33137255 0.33137255
0.34166667 0.34166667 0.34166667
0.35441176 0.35441176 0.35441176
0.37156863 0.37156863 0.37156863
0.39019608 0.39019608 0.39019608
0.41102941 0.41102941 0.41102941
0.43333333 0.43333333 0.43333333
0.45857843 0.45857843 0.45857843
0.48627451 0.48627451 0.48627451
0.52107843 0.52107843 0.52107843
0.55637255 0.55637255 0.55637255
0.59436275 0.59436275 0.59436275
0.63529412 0.63529412 0.63529412
0.6745098 0.6745098 0.6745098
0.7122549 0.7122549 0.7122549
0.74166667 0.74166667 0.74166667
0.76470588 0.76470588 0.76470588
0.31519608 0.31519608 0.31519608
0.31519608 0.31519608 0.31519608
0.32046569 0.32046569 0.32046569
0.32738971 0.32738971 0.32738971
0.33112745 0.33112745 0.33112745
0.3348652 0.3348652 0.3348652
0.33909314 0.33909314 0.33909314
0.34803922 0.34803922 0.34803922
0.35833333 0.35833333 0.35833333
0.36832108 0.36832108 0.36832108
0.37855392 0.37855392 0.37855392
0.39656863 0.39656863 0.39656863
0.41715686 0.41715686 0.41715686
0.4377451 0.4377451 0.4377451
0.45833333 0.45833333 0.45833333
0.48253676 0.48253676 0.48253676
0.51127451 0.51127451 0.51127451
0.5463848 0.5463848 0.5463848
0.58713235 0.58713235 0.58713235
0.63088235 0.63088235 0.63088235
0.67009804 0.67009804 0.67009804
0.70441176 0.70441176 0.70441176
0.73529412 0.73529412 0.73529412
0.76470588 0.76470588 0.76470588
0.78529412 0.78529412 0.78529412
0.34803922 0.34803922 0.34803922
0.35147059 0.35147059 0.35147059
0.35710784 0.35710784 0.35710784
0.36433824 0.36433824 0.36433824
0.36715686 0.36715686 0.36715686
0.36997549 0.36997549 0.36997549
0.37328431 0.37328431 0.37328431
0.37892157 0.37892157 0.37892157
0.38921569 0.38921569 0.38921569
0.3995098 0.3995098 0.3995098
0.41372549 0.41372549 0.41372549
0.43051471 0.43051471 0.43051471
0.45098039 0.45098039 0.45098039
0.47120098 0.47120098 0.47120098
0.48921569 0.48921569 0.48921569
0.50980392 0.50980392 0.50980392
0.53921569 0.53921569 0.53921569
0.57941176 0.57941176 0.57941176
0.62132353 0.62132353 0.62132353
0.6622549 0.6622549 0.6622549
0.69754902 0.69754902 0.69754902
0.72794118 0.72794118 0.72794118
0.75588235 0.75588235 0.75588235
0.78639706 0.78639706 0.78639706
0.80588235 0.80588235 0.80588235
0.3995098 0.3995098 0.3995098
0.3995098 0.3995098 0.3995098
0.3995098 0.3995098 0.3995098
0.40196078 0.40196078 0.40196078
0.40514706 0.40514706 0.40514706
0.41029412 0.41029412 0.41029412
0.41017157 0.41017157 0.41017157
0.41072304 0.41072304 0.41072304
0.42156863 0.42156863 0.42156863
0.43823529 0.43823529 0.43823529
0.45392157 0.45392157 0.45392157
0.47156863 0.47156863 0.47156863
0.48823529 0.48823529 0.48823529
0.50882353 0.50882353 0.50882353
0.52941176 0.52941176 0.52941176
0.55 0.55 0.55
0.5745098 0.5745098 0.5745098
0.61029412 0.61029412 0.61029412
0.65147059 0.65147059 0.65147059
0.68903186 0.68903186 0.68903186
0.72254902 0.72254902 0.72254902
0.75079657 0.75079657 0.75079657
0.78039216 0.78039216 0.78039216
0.80735294 0.80735294 0.80735294
0.83039216 0.83039216 0.83039216
0.45490196 0.45490196 0.45490196
0.45245098 0.45245098 0.45245098
0.45098039 0.45098039 0.45098039
0.45441176 0.45441176 0.45441176
0.45490196 0.45490196 0.45490196
0.45931373 0.45931373 0.45931373
0.45882353 0.45882353 0.45882353
0.46029412 0.46029412 0.46029412
0.47058824 0.47058824 0.47058824
0.48088235 0.48088235 0.48088235
0.49509804 0.49509804 0.49509804
0.5127451 0.5127451 0.5127451
0.52941176 0.52941176 0.52941176
0.55 0.55 0.55
0.57058824 0.57058824 0.57058824
0.59509804 0.59509804 0.59509804
0.61568627 0.61568627 0.61568627
0.64264706 0.64264706 0.64264706
0.67843137 0.67843137 0.67843137
0.71617647 0.71617647 0.71617647
0.74705882 0.74705882 0.74705882
0.77401961 0.77401961 0.77401961
0.80196078 0.80196078 0.80196078
0.83039216 0.83039216 0.83039216
0.85490196 0.85490196 0.85490196
0.5127451 0.5127451 0.5127451
0.509375 0.509375 0.509375
0.50882353 0.50882353 0.50882353
0.51011029 0.51011029 0.51011029
0.5127451 0.5127451 0.5127451
0.51452206 0.51452206 0.51452206
0.51666667 0.51666667 0.51666667
0.52058824 0.52058824 0.52058824
0.52843137 0.52843137 0.52843137
0.53872549 0.53872549 0.53872549
0.5504902 0.5504902 0.5504902
0.56060049 0.56060049 0.56060049
0.57696078 0.57696078 0.57696078
0.59509804 0.59509804 0.59509804
0.61813725 0.61813725 0.61813725
0.63872549 0.63872549 0.63872549
0.66078431 0.66078431 0.66078431
0.68045343 0.68045343 0.68045343
0.70833333 0.70833333 0.70833333
0.74313725 0.74313725 0.74313725
0.77156863 0.77156863 0.77156863
0.79852941 0.79852941 0.79852941
0.8254902 0.8254902 0.8254902
0.85153186 0.85153186 0.85153186
0.87303922 0.87303922 0.87303922
0.57058824 0.57058824 0.57058824
0.57058824 0.57058824 0.57058824
0.57058824 0.57058824 0.57058824
0.57058824 0.57058824 0.57058824
0.5745098 0.5745098 0.5745098
0.575 0.575 0.575
0.57843137 0.57843137 0.57843137
0.58051471 0.58051471 0.58051471
0.58921569 0.58921569 0.58921569
0.59656863 0.59656863 0.59656863
0.60686275 0.60686275 0.60686275
0.61237745 0.61237745 0.61237745
0.6245098 0.6245098 0.6245098
0.64375 0.64375 0.64375
0.66176471 0.66176471 0.66176471
0.68235294 0.68235294 0.68235294
0.70196078 0.70196078 0.70196078
0.72254902 0.72254902 0.72254902
0.74313725 0.74313725 0.74313725
0.7692402 0.7692402 0.7692402
0.79460784 0.79460784 0.79460784
0.81911765 0.81911765 0.81911765
0.84313725 0.84313725 0.84313725
0.86764706 0.86764706 0.86764706
0.8872549 0.8872549 0.8872549
0.63627451 0.63627451 0.63627451
0.63596814 0.63596814 0.63596814
0.63615196 0.63615196 0.63615196
0.63621324 0.63621324 0.63621324
0.63627451 0.63627451 0.63627451
0.64019608 0.64019608 0.64019608
0.64019608 0.64019608 0.64019608
0.64411765 0.64411765 0.64411765
0.65196078 0.65196078 0.65196078
0.65833333 0.65833333 0.65833333
0.66507353 0.66507353 0.66507353
0.67113971 0.67113971 0.67113971
0.67769608 0.67769608 0.67769608
0.69221814 0.69221814 0.69221814
0.70931373 0.70931373 0.70931373
0.7286152 0.7286152 0.7286152
0.74705882 0.74705882 0.74705882
0.76501225 0.76501225 0.76501225
0.78345588 0.78345588 0.78345588
0.79797794 0.79797794 0.79797794
0.81838235 0.81838235 0.81838235
0.84264706 0.84264706 0.84264706
0.86372549 0.86372549 0.86372549
0.88578431 0.88578431 0.88578431
0.90490196 0.90490196 0.90490196
0.70196078 0.70196078 0.70196078
0.70196078 0.70196078 0.70196078
0.7 0.7 0.7
0.7 0.7 0.7
0.70196078 0.70196078 0.70196078
0.70416667 0.70416667 0.70416667
0.70588235 0.70588235 0.70588235
0.70857843 0.70857843 0.70857843
0.71372549 0.71372549 0.71372549
0.72009804 0.72009804 0.72009804
0.72598039 0.72598039 0.72598039
0.72941176 0.72941176 0.72941176
0.73137255 0.73137255 0.73137255
0.73970588 0.73970588 0.73970588
0.75539216 0.75539216 0.75539216
0.77279412 0.77279412 0.77279412
0.78823529 0.78823529 0.78823529
0.80490196 0.80490196 0.80490196
0.81911765 0.81911765 0.81911765
0.83455882 0.83455882 0.83455882
0.84901961 0.84901961 0.84901961
0.86960784 0.86960784 0.86960784
0.89019608 0.89019608 0.89019608
0.90882353 0.90882353 0.90882353
0.9254902 0.9254902 0.9254902
0.76764706 0.76764706 0.76764706
0.76764706 0.76764706 0.76764706
0.76421569 0.76421569 0.76421569
0.76421569 0.76421569 0.76421569
0.76764706 0.76764706 0.76764706
0.76764706 0.76764706 0.76764706
0.76764706 0.76764706 0.76764706
0.76893382 0.76893382 0.76893382
0.77156863 0.77156863 0.77156863
0.77922794 0.77922794 0.77922794
0.78419118 0.78419118 0.78419118
0.78719363 0.78719363 0.78719363
0.7872549 0.7872549 0.7872549
0.79068627 0.79068627 0.79068627
0.80134804 0.80134804 0.80134804
0.81697304 0.81697304 0.81697304
0.82941176 0.82941176 0.82941176
0.84344363 0.84344363 0.84344363
0.85747549 0.85747549 0.85747549
0.87113971 0.87113971 0.87113971
0.88235294 0.88235294 0.88235294
0.89957108 0.89957108 0.89957108
0.91666667 0.91666667 0.91666667
0.93186275 0.93186275 0.93186275
0.94166667 0.94166667 0.94166667
0.83333333 0.83333333 0.83333333
0.83333333 0.83333333 0.83333333
0.83161765 0.83161765 0.83161765
0.82941176 0.82941176 0.82941176
0.82941176 0.82941176 0.82941176
0.82904412 0.82904412 0.82904412
0.82279412 0.82279412 0.82279412
0.82365196 0.82365196 0.82365196
0.82647059 0.82647059 0.82647059
0.83284314 0.83284314 0.83284314
0.83823529 0.83823529 0.83823529
0.83909314 0.83909314 0.83909314
0.84215686 0.84215686 0.84215686
0.84215686 0.84215686 0.84215686
0.84901961 0.84901961 0.84901961
0.86029412 0.86029412 0.86029412
0.87058824 0.87058824 0.87058824
0.88088235 0.88088235 0.88088235
0.89509804 0.89509804 0.89509804
0.90637255 0.90637255 0.90637255
0.91470588 0.91470588 0.91470588
0.92316176 0.92316176 0.92316176
0.9372549 0.9372549 0.9372549
0.9495098 0.9495098 0.9495098
0.95490196 0.95490196 0.95490196
0.88431373 0.88431373 0.88431373
0.88431373 0.88431373 0.88431373
0.88431373 0.88431373 0.88431373
0.88302696 0.88302696 0.88302696
0.88039216 0.88039216 0.88039216
0.87745098 0.87745098 0.87745098
0.87401961 0.87401961 0.87401961
0.87493873 0.87493873 0.87493873
0.87647059 0.87647059 0.87647059
0.88131127 0.88131127 0.88131127
0.88468137 0.88468137 0.88468137
0.88431373 0.88431373 0.88431373
0.88823529 0.88823529 0.88823529
0.89234069 0.89234069 0.89234069
0.89656863 0.89656863 0.89656863
0.90539216 0.90539216 0.90539216
0.90784314 0.90784314 0.90784314
0.91966912 0.91966912 0.91966912
0.93235294 0.93235294 0.93235294
0.9377451 0.9377451 0.9377451
0.93897059 0.93897059 0.93897059
0.94852941 0.94852941 0.94852941
0.95882353 0.95882353 0.95882353
0.96856618 0.96856618 0.96856618
0.97009804 0.97009804 0.97009804
0.91372549 0.91372549 0.91372549
0.91519608 0.91519608 0.91519608
0.91372549 0.91372549 0.91372549
0.90980392 0.90980392 0.90980392
0.91372549 0.91372549 0.91372549
0.91372549 0.91372549 0.91372549
0.91372549 0.91372549 0.91372549
0.91372549 0.91372549 0.91372549
0.91372549 0.91372549 0.91372549
0.92009804 0.92009804 0.92009804
0.92156863 0.92156863 0.92156863
0.92156863 0.92156863 0.92156863
0.92352941 0.92352941 0.92352941
0.92941176 0.92941176 0.92941176
0.93627451 0.93627451 0.93627451
0.94117647 0.94117647 0.94117647
0.94509804 0.94509804 0.94509804
0.95539216 0.95539216 0.95539216
0.96078431 0.96078431 0.96078431
0.95686275 0.95686275 0.95686275
0.95686275 0.95686275 0.95686275
0.96519608 0.96519608 0.96519608
0.97843137 0.97843137 0.97843137
0.98431373 0.98431373 0.98431373
0.98431373 0.98431373 0.98431373
0.15294118 0.15294118 0.15294118
0.15686275 0.15686275 0.15686275
0.15686275 0.15686275 0.15686275
0.16078431 0.16078431 0.16078431
0.16078431 0.16078431 0.16078431
0.16078431 0.16078431 0.16078431
0.16078431 0.16078431 0.16078431
0.16078431 0.16078431 0.16078431
0.16078431 0.16078431 0.16078431
0.16470588 0.16470588 0.16470588
0.17071078 0.17071078 0.17071078
0.17647059 0.17647059 0.17647059
0.18431373 0.18431373 0.18431373
0.19117647 0.19117647 0.19117647
0.20477941 0.20477941 0.20477941
0.21807598 0.21807598 0.21807598
0.23529412 0.23529412 0.23529412
0.25196078 0.25196078 0.25196078
0.2682598 0.2682598 0.2682598
0.29117647 0.29117647 0.29117647
0.31813725 0.31813725 0.31813725
0.3504902 0.3504902 0.3504902
0.38639706 0.38639706 0.38639706
0.42359069 0.42359069 0.42359069
0.45539216 0.45539216 0.45539216
0.15294118 0.15294118 0.15294118
0.15686275 0.15686275 0.15686275
0.15686275 0.15686275 0.15686275
0.16078431 0.16078431 0.16078431
0.16078431 0.16078431 0.16078431
0.16078431 0.16078431 0.16078431
0.16078431 0.16078431 0.16078431
0.16078431 0.16078431 0.16078431
0.16078431 0.16078431 0.16078431
0.16415441 0.16415441 0.16415441
0.17274816 0.17274816 0.17274816
0.18235294 0.18235294 0.18235294
0.18900123 0.18900123 0.18900123
0.19601716 0.19601716 0.19601716
0.20746017 0.20746017 0.20746017
0.22261029 0.22261029 0.22261029
0.23866422 0.23866422 0.23866422
0.25461857 0.25461857 0.25461857
0.27130821 0.27130821 0.27130821
0.29429381 0.29429381 0.29429381
0.32251838 0.32251838 0.32251838
0.3504902 0.3504902 0.3504902
0.38892463 0.38892463 0.38892463
0.4280867 0.4280867 0.4280867
0.46084559 0.46084559 0.46084559
0.15294118 0.15294118 0.15294118
0.15631127 0.15631127 0.15631127
0.15686275 0.15686275 0.15686275
0.16078431 0.16078431 0.16078431
0.16078431 0.16078431 0.16078431
0.16300551 0.16300551 0.16300551
0.1609375 0.1609375 0.1609375
0.16078431 0.16078431 0.16078431
0.16078431 0.16078431 0.16078431
0.16591605 0.16591605 0.16591605
0.17650123 0.17650123 0.17650123
0.18835784 0.18835784 0.18835784
0.19748775 0.19748775 0.19748775
0.20539216 0.20539216 0.20539216
