site/assets/luts/sha256-97fa22ba2b82a9cee32d319451fb40d0aac81b0540a3978d9fbdcfe2209cbb38.cube
# LUTr-Schema-Version: 2
# LUTr-ID: sha256-97fa22ba2b82a9cee32d319451fb40d0aac81b0540a3978d9fbdcfe2209cbb38
# LUTr-Title: polaroid px-70 warm
# LUTr-Collection: Natron HaldCLUT
# LUTr-Collection-ID: natron-haldclut-presets
# LUTr-Source: https://github.com/NatronGitHub/clut
# LUTr-Retrieved: 2026-07-27
# LUTr-Source-File: submissions/natron-haldclut-presets/instant_consumer/polaroid_px-70_warm.png
# LUTr-Source-Format: HALD-PNG
# LUTr-Source-SHA256: 97fa22ba2b82a9cee32d319451fb40d0aac81b0540a3978d9fbdcfe2209cbb38
# LUTr-License: CC-BY-SA-4.0
# LUTr-License-URL: https://github.com/NatronGitHub/clut#license
# LUTr-License-Basis: repo-license-file
# LUTr-Transform-Class: film-emulation
# LUTr-Tags: creative, film, film-emulation, hald-clut, natron, png, warm, cube
# LUTr-Input-Color-Space: srgb
# LUTr-Input-Gamut: rec709
# LUTr-Input-Transfer: srgb
# LUTr-Output-Color-Space: srgb
# LUTr-Output-Gamut: rec709
# LUTr-Output-Transfer: srgb
# LUTr-Color-Space-Confidence: assumed-display-referred
# LUTr-Domain-Normalized: true
# LUTr-Shaper: none
# LUTr-Original-Grid: 64x64x64
# LUTr-Conversion-Grid: 25x25x25
# LUTr-Conversion-Interpolation: trilinear
# LUTr-Conversion-Method: HALD-PNG LUT image decoded at 16-bit and sampled to 25x25x25 3D CUBE
# LUTr-Conversion-Tool: LUTr scripts/convert-all-to-cube.mjs 2.0.0
# LUTr-Conversion-Date: 2026-07-27
# LUTr-Note: Preserve this metadata and the upstream license notices when redistributing.
TITLE "polaroid px-70 warm"
LUT_3D_SIZE 5
DOMAIN_MIN 0 0 0
DOMAIN_MAX 1 1 1
0.13333333 0.12941176 0.14901961
0.16176471 0.12156863 0.14803922
0.40980392 0.12745098 0.16078431
0.84117647 0.25196078 0.15588235
0.99607843 0.51372549 0.19607843
0.12941176 0.17156863 0.15686275
0.21568627 0.19607843 0.15906863
0.48382353 0.21323529 0.15294118
0.85563725 0.38504902 0.14509804
0.99705882 0.59901961 0.21568627
0.15098039 0.47843137 0.17647059
0.29901961 0.47058824 0.17696078
0.59509804 0.53235294 0.1627451
0.86617647 0.60147059 0.11372549
0.97058824 0.65882353 0.1745098
0.50686275 0.7754902 0.28529412
0.54901961 0.76862745 0.28529412
0.70588235 0.77794118 0.30147059
0.86053922 0.80367647 0.30588235
0.94901961 0.81862745 0.34117647
0.81960784 0.91764706 0.51372549
0.82745098 0.91372549 0.51078431
0.86666667 0.92352941 0.53529412
0.90294118 0.9254902 0.52941176
0.94509804 0.9254902 0.53333333
0.11764706 0.13333333 0.1754902
0.1752451 0.12941176 0.1754902
0.44852941 0.12303922 0.20245098
0.86544118 0.29019608 0.25098039
0.99607843 0.57352941 0.31862745
0.15808824 0.19705882 0.19877451
0.24589461 0.21593137 0.20490196
0.5310049 0.23970588 0.21764706
0.87745098 0.42334559 0.25
1 0.60220588 0.30465686
0.2622549 0.50196078 0.23578431
0.35784314 0.50147059 0.24215686
0.61862745 0.53897059 0.24019608
0.88051471 0.61580882 0.22843137
0.98480392 0.69313725 0.29509804
0.55294118 0.77843137 0.33529412
0.60588235 0.78333333 0.34534314
0.71960784 0.79411765 0.35465686
0.86151961 0.81151961 0.36574755
0.95980392 0.8254902 0.40098039
0.82745098 0.91862745 0.52156863
0.83946078 0.92181373 0.52965686
0.86911765 0.92205882 0.54166667
0.90686275 0.9254902 0.54436275
0.95294118 0.9372549 0.56078431
0.14313725 0.14901961 0.28627451
0.29509804 0.16372549 0.29607843
0.52941176 0.24019608 0.32941176
0.8627451 0.27696078 0.39705882
0.99607843 0.57647059 0.45490196
0.21372549 0.25784314 0.32892157
0.3557598 0.28039216 0.34215686
0.60588235 0.37671569 0.35612745
0.88419118 0.44607843 0.40833333
0.98872549 0.66960784 0.47941176
0.36666667 0.54117647 0.38039216
0.4627451 0.54509804 0.38088235
0.69705882 0.59117647 0.40441176
0.88431373 0.66813725 0.43406863
0.96666667 0.75 0.47647059
0.6627451 0.79509804 0.4504902
0.68198529 0.7872549 0.44571078
0.76960784 0.79509804 0.46004902
0.87291667 0.81078431 0.46617647
0.96372549 0.83235294 0.49313725
0.84901961 0.91960784 0.54705882
0.84705882 0.91421569 0.54509804
0.8745098 0.92156863 0.55294118
0.91372549 0.92598039 0.5627451
0.96078431 0.94313725 0.58235294
0.4627451 0.24411765 0.54411765
0.60294118 0.2754902 0.55171569
0.81666667 0.47941176 0.55
0.9 0.64730392 0.53921569
0.98039216 0.69705882 0.55882353
0.48137255 0.38627451 0.54485294
0.61568627 0.41838235 0.55196078
0.81213235 0.57598039 0.55490196
0.90631127 0.72040441 0.55098039
0.96176471 0.71642157 0.55784314
0.42745098 0.62647059 0.53529412
0.55330882 0.625 0.53921569
0.78014706 0.68431373 0.54705882
0.89901961 0.7807598 0.55637255
0.96078431 0.77990196 0.56176471
0.66960784 0.80588235 0.54240196
0.71176471 0.80220588 0.54215686
0.79705882 0.81262255 0.54779412
0.88897059 0.83504902 0.55784314
0.96078431 0.87156863 0.57352941
0.85882353 0.9254902 0.57647059
0.85490196 0.91764706 0.57352941
0.88872549 0.92401961 0.58137255
0.91642157 0.92328431 0.58235294
0.96176471 0.94607843 0.60882353
0.81176471 0.6627451 0.64313725
0.85 0.70098039 0.64313725
0.90588235 0.7745098 0.63529412
0.94607843 0.84411765 0.61568627
0.96862745 0.87843137 0.61960784
0.82352941 0.71666667 0.64313725
0.84313725 0.7254902 0.63627451
0.90441176 0.79411765 0.63186275
0.94436275 0.84705882 0.61544118
0.96078431 0.87843137 0.61568627
0.79019608 0.77058824 0.63529412
0.8127451 0.77647059 0.63333333
0.88627451 0.81764706 0.62745098
0.94215686 0.87352941 0.62401961
0.96470588 0.89803922 0.61960784
0.78137255 0.84509804 0.62745098
0.76495098 0.8379902 0.6127451
0.83823529 0.84803922 0.62303922
0.92647059 0.8872549 0.62745098
0.96470588 0.92941176 0.63529412
0.88235294 0.94509804 0.63921569
0.86960784 0.93235294 0.63137255
0.88039216 0.92156863 0.62745098
0.93039216 0.9372549 0.63529412
0.96470588 0.9372549 0.63529412
