site/assets/luts/sha256-268fe8537672456a51b1247d7d259f43d39a140b8f75376acc520b24641e59d9.cube
# LUTr-Schema-Version: 2
# LUTr-ID: sha256-268fe8537672456a51b1247d7d259f43d39a140b8f75376acc520b24641e59d9
# LUTr-Title: kodak kodachrome 200
# LUTr-Collection: Natron HaldCLUT
# LUTr-Collection-ID: natron-haldclut-presets
# LUTr-Source: https://github.com/NatronGitHub/clut
# LUTr-Retrieved: 2026-07-27
# LUTr-Source-File: submissions/natron-haldclut-presets/colorslide/kodak_kodachrome_200.png
# LUTr-Source-Format: HALD-PNG
# LUTr-Source-SHA256: 268fe8537672456a51b1247d7d259f43d39a140b8f75376acc520b24641e59d9
# LUTr-License: CC-BY-SA-4.0
# LUTr-License-URL: https://github.com/NatronGitHub/clut#license
# LUTr-License-Basis: repo-license-file
# LUTr-Transform-Class: film-emulation
# LUTr-Tags: creative, film, film-emulation, hald-clut, natron, png, cube
# LUTr-Input-Color-Space: srgb
# LUTr-Input-Gamut: rec709
# LUTr-Input-Transfer: srgb
# LUTr-Output-Color-Space: srgb
# LUTr-Output-Gamut: rec709
# LUTr-Output-Transfer: srgb
# LUTr-Color-Space-Confidence: assumed-display-referred
# LUTr-Domain-Normalized: true
# LUTr-Shaper: none
# LUTr-Original-Grid: 64x64x64
# LUTr-Conversion-Grid: 25x25x25
# LUTr-Conversion-Interpolation: trilinear
# LUTr-Conversion-Method: HALD-PNG LUT image decoded at 16-bit and sampled to 25x25x25 3D CUBE
# LUTr-Conversion-Tool: LUTr scripts/convert-all-to-cube.mjs 2.0.0
# LUTr-Conversion-Date: 2026-07-27
# LUTr-Note: Preserve this metadata and the upstream license notices when redistributing.
TITLE "kodak kodachrome 200"
LUT_3D_SIZE 25
DOMAIN_MIN 0 0 0
DOMAIN_MAX 1 1 1
0.019607843 0.015686275 0.023529412
0.024509804 0.011764706 0.019607843
0.049019608 0.015686275 0.018627451
0.069607843 0.012254902 0.012254902
0.090196078 0.0058823529 0.0058823529
0.12401961 0.0083333333 0.0049019608
0.1754902 0.018627451 0.018627451
0.22843137 0.025 0.028921569
0.28235294 0.035294118 0.039215686
0.3377451 0.045588235 0.049509804
0.39313725 0.050980392 0.053921569
0.44460784 0.043627451 0.044117647
0.49607843 0.02745098 0.033333333
0.54705882 0.015196078 0.02254902
0.59509804 0.00098039216 0.0088235294
0.6372549 0.0093137255 0.015686275
0.68235294 0.019607843 0.019607843
0.72352941 0.023529412 0.019607843
0.75588235 0.023529412 0.019607843
0.78676471 0.020098039 0.023039216
0.81372549 0.019607843 0.023529412
0.84068627 0.019117647 0.023529412
0.87156863 0.012745098 0.023529412
0.89852941 0.010294118 0.019607843
0.91764706 0.0078431373 0.019607843
0.028431373 0.034803922 0.02745098
0.034803922 0.033884804 0.025980392
0.059313725 0.03627451 0.025367647
0.079901961 0.034803922 0.022058824
0.10171569 0.034803922 0.020588235
0.13382353 0.030882353 0.018137255
0.18186275 0.034191176 0.025
0.23333333 0.040196078 0.035294118
0.28480392 0.041666667 0.043137255
0.34019608 0.048590686 0.049509804
0.39558824 0.053921569 0.054534314
0.44705882 0.043627451 0.04754902
0.49607843 0.032598039 0.036519608
0.54754902 0.024019608 0.025490196
0.59791667 0.017279412 0.01875
0.63878676 0.018137255 0.023529412
0.67990196 0.022058824 0.025980392
0.72352941 0.023529412 0.019607843
0.75588235 0.023529412 0.019607843
0.78333333 0.023529412 0.023039216
0.81372549 0.022794118 0.023529412
0.84068627 0.01942402 0.023529412
0.87156863 0.015686275 0.023529412
0.90245098 0.010294118 0.019607843
0.92009804 0.0078431373 0.019607843
0.03627451 0.060784314 0.032352941
0.049019608 0.060784314 0.032352941
0.069607843 0.061764706 0.032598039
0.090196078 0.065196078 0.037132353
0.11666667 0.065196078 0.03872549
0.14803922 0.057720588 0.032352941
0.19142157 0.057598039 0.034558824
0.23970588 0.060784314 0.040686275
0.29117647 0.060784314 0.048039216
0.34448529 0.05625 0.051593137
0.39803922 0.055882353 0.055882353
0.4495098 0.052083333 0.051960784
0.50098039 0.049019608 0.044607843
0.55245098 0.046078431 0.039705882
0.60318627 0.045343137 0.032598039
0.64509804 0.042156863 0.032352941
0.68333333 0.037254902 0.028431373
0.72389706 0.028553922 0.019730392
0.75588235 0.031372549 0.024754902
0.78676471 0.037745098 0.028431373
0.81470588 0.038235294 0.032352941
0.84460784 0.034313725 0.032352941
0.87254902 0.031372549 0.030147059
0.90306373 0.025367647 0.028431373
0.92156863 0.02254902 0.025490196
0.046568627 0.081372549 0.03872549
0.059313725 0.085110294 0.037438725
0.079901961 0.089705882 0.047058824
0.10435049 0.09307598 0.05435049
0.13088235 0.092647059 0.052205882
0.16219363 0.084803922 0.046078431
0.1995098 0.081372549 0.039093137
0.25 0.081372549 0.044607843
0.30147059 0.081372549 0.054411765
0.35294118 0.080882353 0.060784314
0.40833333 0.079534314 0.068627451
0.45631127 0.076960784 0.062683824
0.50735294 0.075245098 0.058088235
0.55882353 0.073039216 0.05
0.60686275 0.069607843 0.043627451
0.64901961 0.069117647 0.042647059
0.68970588 0.068627451 0.042156863
0.72745098 0.072365196 0.042156863
0.75980392 0.068627451 0.043014706
0.79068627 0.069056373 0.046078431
0.82107843 0.069117647 0.046323529
0.85153186 0.069056373 0.042647059
0.87941176 0.065196078 0.042647059
0.90618873 0.059497549 0.03872549
0.92156863 0.056862745 0.03872549
0.052941176 0.11176471 0.045098039
0.065686275 0.11617647 0.053431373
0.090196078 0.12401961 0.067647059
0.11470588 0.12745098 0.074509804
0.14509804 0.1245098 0.07254902
0.17598039 0.11715686 0.062254902
0.21029412 0.10833333 0.049509804
0.26029412 0.11127451 0.057843137
0.31372549 0.11764706 0.070588235
0.36715686 0.12279412 0.080882353
0.42058824 0.125 0.090196078
0.47009804 0.12009804 0.084558824
0.51862745 0.11470588 0.076470588
0.56691176 0.10563725 0.066176471
0.6127451 0.1004902 0.057352941
0.65294118 0.10465686 0.060294118
0.69019608 0.10980392 0.062745098
0.73014706 0.11617647 0.066666667
0.76372549 0.10882353 0.063235294
0.79632353 0.10245098 0.066666667
0.82745098 0.1 0.056862745
0.85808824 0.1 0.052941176
0.88529412 0.096078431 0.052941176
0.91078431 0.091421569 0.049019608
0.92352941 0.088235294 0.047058824
0.063235294 0.16323529 0.079901961
0.076164216 0.16715686 0.082536765
0.1004902 0.17193627 0.091666667
0.12493873 0.175 0.095526961
0.15147059 0.17083333 0.093137255
0.18235294 0.16323529 0.083762255
0.22009804 0.16323529 0.079534314
0.27205882 0.16323529 0.081372549
0.32598039 0.16323529 0.091666667
0.38137255 0.16960784 0.10539216
0.43284314 0.17365196 0.11127451
0.48131127 0.16764706 0.10735294
0.53186275 0.16127451 0.097303922
0.57843137 0.15539216 0.090747549
0.61960784 0.15281863 0.083823529
0.65716912 0.15147059 0.083333333
0.69460784 0.15539216 0.083333333
0.73284314 0.15882353 0.086764706
0.76764706 0.15 0.083333333
0.79895833 0.14313725 0.075980392
0.83333333 0.13284314 0.067401961
0.86421569 0.12996324 0.062745098
0.89166667 0.12696078 0.059313725
0.92077206 0.12303922 0.055208333
0.92990196 0.11911765 0.054901961
0.073529412 0.21470588 0.11078431
0.087745098 0.21862745 0.11470588
0.10710784 0.22254902 0.12181373
0.1310049 0.22352941 0.12254902
0.15833333 0.21911765 0.11764706
0.19301471 0.21470588 0.11164216
0.23406863 0.21470588 0.10686275
0.28419118 0.21470588 0.10894608
0.33921569 0.21764706 0.11862745
0.39166667 0.2192402 0.12892157
0.44313725 0.22254902 0.13529412
0.49460784 0.21862745 0.1317402
0.54019608 0.2127451 0.12303922
0.58235294 0.20943627 0.11556373
0.62254902 0.20686275 0.11102941
0.66078431 0.20294118 0.1057598
0.70098039 0.20294118 0.10392157
0.73639706 0.20147059 0.10208333
0.77083333 0.19117647 0.10073529
0.80245098 0.18088235 0.099142157
0.83676471 0.17352941 0.08627451
0.86813725 0.16629902 0.075122549
0.89803922 0.16470588 0.07254902
0.92892157 0.1557598 0.060661765
0.93627451 0.15392157 0.061764706
0.080882353 0.26862745 0.14558824
0.094178922 0.27009804 0.14558824
0.10968137 0.27009804 0.14914216
0.13216912 0.27009804 0.14803922
0.16470588 0.27009804 0.14289216
0.20471814 0.27009804 0.13756127
0.24571078 0.26764706 0.13235294
0.29509804 0.26856618 0.13082108
0.3504902 0.27009804 0.14019608
0.40196078 0.27101716 0.1504902
0.45526961 0.27401961 0.15796569
0.50147059 0.27009804 0.15373775
0.54509804 0.26617647 0.14877451
0.58627451 0.26354167 0.14148284
0.62561275 0.26041667 0.13664216
0.66470588 0.25686275 0.12935049
0.70196078 0.2504902 0.12058824
0.73768382 0.24503676 0.11911765
0.77193627 0.24019608 0.11911765
0.80637255 0.23627451 0.11697304
0.8372549 0.23161765 0.10686275
0.86813725 0.22432598 0.10067402
0.89901961 0.21764706 0.095220588
0.92990196 0.21127451 0.086764706
0.9372549 0.20882353 0.086764706
0.058823529 0.31764706 0.17254902
0.079411765 0.31764706 0.17254902
0.099019608 0.31764706 0.17647059
0.12401961 0.31764706 0.17254902
0.16470588 0.31764706 0.16862745
0.21421569 0.32156863 0.16029412
0.25882353 0.32156863 0.15392157
0.30686275 0.32156863 0.15294118
0.36078431 0.32156863 0.16078431
0.4122549 0.3254902 0.17107843
0.46372549 0.3254902 0.18137255
0.50784314 0.32205882 0.18039216
0.54901961 0.31960784 0.17254902
0.59019608 0.31715686 0.16813725
0.63137255 0.31372549 0.16078431
0.66862745 0.30833333 0.15147059
0.70588235 0.30196078 0.14509804
0.74068627 0.30196078 0.14117647
0.77254902 0.29803922 0.14019608
0.80637255 0.29460784 0.1372549
0.8372549 0.29019608 0.13137255
0.86813725 0.28235294 0.1254902
0.89901961 0.2754902 0.12254902
0.92990196 0.27058824 0.11764706
0.9372549 0.27058824 0.11764706
0.036764706 0.36911765 0.19705882
0.065257353 0.36574755 0.1995098
0.098161765 0.36519608 0.20343137
0.12843137 0.36666667 0.20128676
0.1754902 0.36911765 0.19362745
0.22432598 0.36930147 0.18480392
0.27205882 0.37303922 0.17696078
0.31960784 0.37696078 0.17107843
0.36862745 0.3745098 0.18137255
0.41917892 0.37303922 0.19503676
0.46764706 0.37303922 0.20551471
0.51390931 0.37303922 0.2036152
0.55539216 0.37107843 0.19509804
0.59656863 0.36911765 0.18872549
0.63529412 0.36519608 0.18137255
0.675 0.36127451 0.17598039
0.70980392 0.35735294 0.17205882
0.74460784 0.35643382 0.16868873
0.7754902 0.35588235 0.16360294
0.80637255 0.35343137 0.15833333
0.8372549 0.35 0.15392157
0.86813725 0.34148284 0.1495098
0.90085784 0.33627451 0.14252451
0.93327206 0.33235294 0.13915441
0.94117647 0.33235294 0.13578431
0.053921569 0.42058824 0.22647059
0.08370098 0.41666667 0.22647059
0.11960784 0.41666667 0.23039216
0.15698529 0.41580882 0.22953431
0.20245098 0.41666667 0.22058824
0.24718137 0.41703431 0.21421569
0.29215686 0.42034314 0.20686275
0.33333333 0.42352941 0.20392157
0.37745098 0.42058824 0.21078431
0.42438725 0.42058824 0.21715686
0.47230392 0.42058824 0.23112745
0.5192402 0.42058824 0.22990196
0.56078431 0.42058824 0.21960784
0.60196078 0.42058824 0.20931373
0.64019608 0.41838235 0.20220588
0.67928922 0.41556373 0.19803922
0.71372549 0.4127451 0.19803922
0.74460784 0.40882353 0.19620098
0.7754902 0.40882353 0.19019608
0.80637255 0.40882353 0.18370098
0.8372549 0.40637255 0.17745098
0.8682598 0.40061275 0.16752451
0.90294118 0.39485294 0.15882353
0.93664216 0.39411765 0.15
0.94509804 0.39411765 0.15
0.080882353 0.47205882 0.25392157
0.11047794 0.46942402 0.25735294
0.14754902 0.46727941 0.25735294
0.1848652 0.46421569 0.25735294
0.22818627 0.46421569 0.25147059
0.27156863 0.46470588 0.24552696
0.3127451 0.46470588 0.24129902
0.35392157 0.46813725 0.23903186
0.39509804 0.46813725 0.24509804
0.43284314 0.46862745 0.24932598
0.47806373 0.47205882 0.25833333
0.52303922 0.47205882 0.25784314
0.56470588 0.47205882 0.24387255
0.60588235 0.47248775 0.23333333
0.64656863 0.4754902 0.22352941
0.68253676 0.47028186 0.22205882
0.71372549 0.46421569 0.22205882
0.74460784 0.46029412 0.22205882
0.7754902 0.45686275 0.21813725
0.80637255 0.45643382 0.21464461
0.84068627 0.45098039 0.20441176
0.87205882 0.44852941 0.19411765
0.90551471 0.44852941 0.18125
0.9377451 0.44901961 0.16960784
0.94509804 0.44901961 0.16715686
0.11568627 0.51764706 0.28431373
0.14068627 0.51764706 0.28553922
0.17598039 0.51519608 0.28823529
0.21397059 0.5120098 0.28651961
0.25196078 0.51176471 0.28235294
0.29215686 0.51176471 0.27647059
0.33333333 0.51176471 0.27254902
0.3745098 0.51372549 0.27328431
0.41176471 0.51372549 0.27843137
0.45294118 0.51568627 0.28553922
0.48970588 0.51960784 0.29068627
0.52941176 0.52156863 0.29215686
0.57058824 0.52156863 0.28039216
0.61176471 0.52132353 0.26421569
0.65147059 0.51813725 0.25343137
0.68284314 0.51691176 0.25367647
0.71372549 0.51176471 0.25490196
0.74460784 0.50857843 0.25686275
0.7754902 0.50588235 0.25441176
0.81004902 0.50220588 0.24558824
0.84117647 0.49607843 0.23529412
0.87598039 0.49215686 0.225
0.90686275 0.49019608 0.21078431
0.93627451 0.49019608 0.20318627
0.94117647 0.48627451 0.2
0.17156863 0.55490196 0.31519608
0.18351716 0.55490196 0.31764706
0.20968137 0.55833333 0.3192402
0.24356618 0.55882353 0.31911765
0.27990196 0.55882353 0.31323529
0.31666667 0.55925245 0.30686275
0.35526961 0.55882353 0.30036765
0.39509804 0.55931373 0.30343137
0.43235294 0.5627451 0.31127451
0.46930147 0.5627451 0.31519608
0.50551471 0.5627451 0.31997549
0.540625 0.56574755 0.32303922
0.58088235 0.5625 0.31519608
0.62199755 0.55790441 0.29859069
0.65588235 0.55441176 0.28909314
0.68547794 0.55851716 0.28952206
0.71372549 0.55882353 0.29215686
0.74460784 0.55539216 0.29215686
0.77647059 0.55392157 0.28676471
0.81029412 0.5471201 0.27647059
0.84509804 0.54117647 0.26617647
0.87598039 0.53572304 0.25588235
0.90686275 0.53529412 0.24558824
0.93235294 0.53137255 0.23707108
0.94117647 0.52794118 0.23284314
0.22941176 0.59215686 0.34607843
0.23284314 0.59215686 0.34669118
0.25294118 0.59313725 0.3502451
0.28088235 0.59693627 0.3564951
0.3127451 0.6 0.35098039
0.34669118 0.60134804 0.34068627
0.37916667 0.60392157 0.32818627
0.41458333 0.60392157 0.33247549
0.44901961 0.60098039 0.33823529
0.48333333 0.60036765 0.34276961
0.51887255 0.59926471 0.34779412
0.55428922 0.59705882 0.35085784
0.58921569 0.59705882 0.34803922
0.62806373 0.59215686 0.33284314
0.65980392 0.59215686 0.32573529
0.68860294 0.5942402 0.32647059
0.71666667 0.6 0.32941176
0.74460784 0.60110294 0.32757353
0.77941176 0.59607843 0.31764706
0.81029412 0.59129902 0.30735294
0.84509804 0.58431373 0.29901961
0.87598039 0.58039216 0.29068627
0.90465686 0.57745098 0.28039216
0.92843137 0.5754902 0.27120098
0.94117647 0.57254902 0.26764706
0.2872549 0.62794118 0.37696078
0.28970588 0.62794118 0.37696078
0.29803922 0.62941176 0.37757353
0.32205882 0.63186275 0.38302696
0.34828431 0.63578431 0.39607843
0.37843137 0.63756127 0.39227941
0.40428922 0.63786765 0.36973039
0.43033088 0.6372549 0.36366422
0.46176471 0.63578431 0.36519608
0.49601716 0.63425245 0.37064951
0.53088235 0.63186275 0.37585784
0.56599265 0.63186275 0.37910539
0.5995098 0.63186275 0.37696078
0.63284314 0.62941176 0.36881127
0.66372549 0.62830882 0.36335784
0.69160539 0.63186275 0.36127451
0.71911765 0.63578431 0.36127451
0.74852941 0.63578431 0.35827206
0.77977941 0.63186275 0.34852941
0.81176471 0.628125 0.33823529
0.84509804 0.62279412 0.32794118
0.87579657 0.61979167 0.31764706
0.90294118 0.61654412 0.30735294
0.92843137 0.61317402 0.29797794
0.94117647 0.60980392 0.29313725
0.34509804 0.6627451 0.40784314
0.34509804 0.6627451 0.40784314
0.34607843 0.66666667 0.40392157
0.36323529 0.66666667 0.40784314
0.38431373 0.67058824 0.42941176
0.40539216 0.67058824 0.43382353
0.42941176 0.67058824 0.40980392
0.45 0.67058824 0.4
0.47843137 0.67058824 0.4
0.50931373 0.66666667 0.4
0.54411765 0.66666667 0.40392157
0.57892157 0.66666667 0.40784314
0.60784314 0.66666667 0.40588235
0.63676471 0.66666667 0.40343137
0.66764706 0.66372549 0.39705882
0.69460784 0.66666667 0.39215686
0.7254902 0.66666667 0.39215686
0.75245098 0.66666667 0.38578431
0.78333333 0.6627451 0.37941176
0.81421569 0.6627451 0.36911765
0.84509804 0.65882353 0.35882353
0.8754902 0.65490196 0.34460784
0.90294118 0.65490196 0.33431373
0.92843137 0.65098039 0.32401961
0.94509804 0.65098039 0.31764706
0.39411765 0.69754902 0.43480392
0.39564951 0.69908088 0.43480392
0.39803922 0.70036765 0.43480392
0.40177696 0.70147059 0.43235294
0.41911765 0.70147059 0.43970588
0.43578431 0.70147059 0.44430147
0.45392157 0.70147059 0.44693627
0.4745098 0.70147059 0.4372549
0.49901961 0.70147059 0.43333333
0.52598039 0.70147059 0.43088235
0.55723039 0.7 0.43186275
0.58921569 0.7 0.43480392
0.61617647 0.7 0.43480392
0.64313725 0.7 0.43088235
0.67107843 0.7 0.42794118
0.70006127 0.7 0.4254902
0.72794118 0.70147059 0.42058824
0.75882353 0.69754902 0.41574755
0.7872549 0.69718137 0.40735294
0.81813725 0.69362745 0.40214461
0.84705882 0.69215686 0.39289216
0.8754902 0.68970588 0.37922794
0.90294118 0.68970588 0.36519608
0.92843137 0.690625 0.35098039
0.94901961 0.69215686 0.34460784
0.42647059 0.72843137 0.46568627
0.42830882 0.73235294 0.46568627
0.43039216 0.73235294 0.46568627
0.43382353 0.73235294 0.46568627
0.44558824 0.73235294 0.46568627
0.46262255 0.73235294 0.46605392
0.48014706 0.73235294 0.46960784
0.49901961 0.73235294 0.47144608
0.51960784 0.73235294 0.46666667
0.54411765 0.73235294 0.46568627
0.57352941 0.73235294 0.46568627
0.60085784 0.73235294 0.46568627
0.62892157 0.73284314 0.4627451
0.65428922 0.73333333 0.46176471
0.68063725 0.73333333 0.45955882
0.70735294 0.73296569 0.45637255
0.73431373 0.73235294 0.45
0.76029412 0.73235294 0.44816176
0.79019608 0.72916667 0.44534314
0.81813725 0.72843137 0.43970588
0.84705882 0.7254902 0.43284314
0.8754902 0.7245098 0.41776961
0.9 0.7245098 0.40171569
0.92843137 0.72659314 0.38676471
0.95196078 0.72843137 0.37647059
0.45735294 0.76323529 0.49656863
0.45735294 0.76323529 0.49656863
0.45833333 0.76409314 0.49656863
0.46127451 0.76715686 0.49656863
0.47132353 0.76691176 0.49656863
0.48627451 0.76323529 0.49656863
0.50379902 0.76323529 0.49693627
0.52334559 0.76323529 0.5004902
0.54019608 0.76323529 0.5004902
0.56470588 0.7653799 0.50018382
0.59313725 0.76666667 0.49656863
0.61807598 0.76715686 0.49656863
0.64436275 0.76715686 0.49656863
0.67064951 0.76715686 0.49650735
0.69460784 0.76715686 0.4935049
0.71764706 0.76568627 0.4908701
0.74068627 0.75980392 0.48480392
0.76390931 0.76323529 0.48480392
0.79117647 0.76323529 0.48431373
0.81856618 0.76323529 0.48039216
0.84705882 0.7627451 0.47058824
0.8754902 0.75931373 0.45594363
0.90257353 0.75931373 0.44215686
0.92990196 0.75931373 0.42794118
0.94901961 0.75931373 0.42107843
0.48431373 0.79411765 0.52745098
0.48431373 0.79534314 0.52745098
0.48823529 0.79803922 0.52990196
0.49191176 0.79803922 0.53137255
0.49803922 0.79803922 0.53235294
0.51078431 0.79803922 0.53137255
0.52745098 0.79656863 0.53137255
0.54411765 0.79607843 0.53137255
0.56078431 0.79607843 0.53137255
0.58529412 0.79803922 0.53137255
0.61029412 0.79852941 0.53137255
0.63602941 0.8 0.53137255
0.65980392 0.80196078 0.53137255
0.68357843 0.80196078 0.53137255
0.70588235 0.79803922 0.52745098
0.72647059 0.79142157 0.51960784
0.74705882 0.79019608 0.51568627
0.77156863 0.79019608 0.51568627
0.79607843 0.79411765 0.51666667
0.82205882 0.79803922 0.51789216
0.84803922 0.79705882 0.50882353
0.87598039 0.79607843 0.49730392
0.90343137 0.79411765 0.48333333
0.93235294 0.79411765 0.47107843
0.95294118 0.79607843 0.4627451
0.51519608 0.82892157 0.5622549
0.51519608 0.82892157 0.5622549
0.51617647 0.83026961 0.5622549
0.51911765 0.83284314 0.5622549
0.5247549 0.83284314 0.56446078
0.53529412 0.83284314 0.5622549
0.55196078 0.83026961 0.5622549
0.56715686 0.82892157 0.5622549
0.58137255 0.82892157 0.5622549
0.60441176 0.83284314 0.56256127
0.62732843 0.83296569 0.56617647
0.65098039 0.83333333 0.56617647
0.67132353 0.83284314 0.56617647
0.69166667 0.82886029 0.56176471
0.7122549 0.82463235 0.55539216
0.73284314 0.81715686 0.54901961
0.75343137 0.81715686 0.54656863
0.77794118 0.81930147 0.54656863
0.80245098 0.82205882 0.5504902
0.82689951 0.82843137 0.5504902
0.85122549 0.82892157 0.54656863
0.87990196 0.82941176 0.53872549
0.90735294 0.82941176 0.52843137
0.93645833 0.82941176 0.51470588
0.95686275 0.83284314 0.50833333
0.54313725 0.8627451 0.59313725
0.54607843 0.86372549 0.59313725
0.54607843 0.86372549 0.59607843
0.54963235 0.86666667 0.59705882
0.55245098 0.86764706 0.59705882
0.55931373 0.86764706 0.59705882
0.57328431 0.86666667 0.59387255
0.5877451 0.86372549 0.59313725
0.60196078 0.86372549 0.59313725
0.62254902 0.86666667 0.59705882
0.64411765 0.86764706 0.59779412
0.66470588 0.86507353 0.59840686
0.68186275 0.86029412 0.59558824
0.70159314 0.85551471 0.59007353
0.71862745 0.84607843 0.58308824
0.73921569 0.84411765 0.57745098
0.76372549 0.84411765 0.57745098
0.78713235 0.84803922 0.57745098
0.80906863 0.85294118 0.58137255
0.83333333 0.85931373 0.58137255
0.85833333 0.86127451 0.57941176
0.88639706 0.86372549 0.57340686
0.91372549 0.86593137 0.56887255
0.94129902 0.86703431 0.55931373
0.96078431 0.87058824 0.55294118
0.57156863 0.89460784 0.62401961
0.57156863 0.89460784 0.62401961
0.57365196 0.89742647 0.62647059
0.57677696 0.89852941 0.62794118
0.58014706 0.90318627 0.62990196
0.58382353 0.90392157 0.62941176
0.59742647 0.90281863 0.62794118
0.60833333 0.89852941 0.62401961
0.61862745 0.89460784 0.62401961
0.6377451 0.89852941 0.62794118
0.65735294 0.89644608 0.62757353
0.67371324 0.89099265 0.62647059
0.68897059 0.88529412 0.62132353
0.70655637 0.87714461 0.61599265
0.72389706 0.87058824 0.60784314
0.74558824 0.86807598 0.60441176
0.77009804 0.875 0.60833333
0.79405637 0.87892157 0.61078431
0.81764706 0.88492647 0.61262255
0.83970588 0.89197304 0.61617647
0.86544118 0.89607843 0.61495098
0.89295343 0.89460784 0.60802696
0.92009804 0.89852941 0.60441176
0.94859069 0.90245098 0.59957108
0.96862745 0.90392157 0.59411765
0.58823529 0.91372549 0.64313725
0.59068627 0.91764706 0.64558824
0.59215686 0.91862745 0.64705882
0.59607843 0.92156863 0.6504902
0.6 0.92745098 0.65294118
0.60833333 0.9377451 0.65931373
0.61470588 0.93137255 0.65588235
0.62107843 0.92401961 0.65098039
0.63137255 0.92156863 0.65098039
0.64803922 0.92156863 0.65098039
0.66372549 0.91666667 0.64705882
0.67794118 0.90980392 0.64362745
0.69411765 0.90392157 0.64117647
0.71078431 0.89754902 0.63529412
0.72745098 0.88431373 0.6254902
0.75196078 0.89166667 0.63137255
0.77647059 0.90196078 0.63529412
0.80098039 0.90833333 0.63921569
0.82254902 0.91470588 0.64313725
0.84607843 0.92107843 0.64656863
0.87058824 0.9254902 0.64313725
0.89901961 0.92156863 0.63529412
0.92647059 0.9245098 0.63137255
0.95343137 0.92941176 0.62745098
0.97647059 0.93333333 0.62745098
0.015686275 0.011764706 0.019607843
0.021507353 0.010845588 0.019607843
0.047181373 0.015686275 0.022058824
0.069607843 0.012254902 0.018321078
0.092647059 0.0083333333 0.012254902
0.12616422 0.0065563725 0.010784314
0.17365196 0.012867647 0.020465686
0.2245098 0.021997549 0.03192402
0.27843137 0.028921569 0.039215686
0.33682598 0.044669118 0.049509804
0.39313725 0.052818627 0.054901961
0.44460784 0.043627451 0.04754902
0.49607843 0.029411765 0.038480392
0.54362745 0.015196078 0.029411765
0.5932598 0.0049019608 0.022058824
0.6372549 0.013235294 0.028982843
0.67843137 0.023529412 0.033823529
0.72352941 0.028982843 0.03627451
0.75588235 0.027083333 0.031740196
0.78676471 0.022242647 0.025980392
0.81691176 0.019607843 0.023529412
0.84675245 0.015686275 0.023529412
0.87438725 0.012745098 0.023529412
0.90098039 0.0087622549 0.022058824
0.91372549 0.0078431373 0.019607843
0.025980392 0.033272059 0.02745098
0.033884804 0.032582721 0.025980392
0.05747549 0.036657475 0.028982843
0.079901961 0.035470282 0.027627145
0.10217525 0.034803922 0.026960784
0.13547028 0.030882353 0.024509804
0.18186275 0.031985294 0.028201593
0.22996324 0.03627451 0.035868566
0.28327206 0.038664216 0.043137255
0.33962163 0.045932904 0.049509804
0.39581801 0.053921569 0.054901961
0.44705882 0.043627451 0.04754902
0.49607843 0.035784314 0.041390931
0.54636949 0.025245098 0.034497549
0.5944087 0.020557598 0.031801471
0.6372549 0.021714154 0.033823529
0.67843137 0.02689951 0.037193627
0.72352941 0.029901961 0.03627451
0.75588235 0.02823223 0.032123162
0.78676471 0.025061275 0.028546262
0.81691176 0.024019608 0.028216912
0.84541207 0.0207644 0.027382047
0.8754902 0.01629902 0.025291054
0.90340839 0.011213235 0.022977941
0.91672794 0.0078431373 0.022058824
0.03627451 0.057843137 0.035906863
0.047947304 0.059681373 0.037668505
0.069607843 0.06495098 0.041973039
0.090196078 0.065686275 0.04620098
