site/assets/luts/sha256-c10865277882beebb1fa1bcd0d01322217c90d1b294b301726e1473e0b1a374a.cube
# LUTr-Schema-Version: 2
# LUTr-ID: sha256-c10865277882beebb1fa1bcd0d01322217c90d1b294b301726e1473e0b1a374a
# LUTr-Title: extreme
# LUTr-Collection: Natron HaldCLUT
# LUTr-Collection-ID: natron-haldclut-presets
# LUTr-Source: https://github.com/NatronGitHub/clut
# LUTr-Retrieved: 2026-07-27
# LUTr-Source-File: submissions/natron-haldclut-presets/various/extreme.png
# LUTr-Source-Format: HALD-PNG
# LUTr-Source-SHA256: c10865277882beebb1fa1bcd0d01322217c90d1b294b301726e1473e0b1a374a
# LUTr-License: CC-BY-SA-4.0
# LUTr-License-URL: https://github.com/NatronGitHub/clut#license
# LUTr-License-Basis: repo-license-file
# LUTr-Transform-Class: film-emulation
# LUTr-Tags: creative, film, film-emulation, hald-clut, natron, png, cube
# LUTr-Input-Color-Space: srgb
# LUTr-Input-Gamut: rec709
# LUTr-Input-Transfer: srgb
# LUTr-Output-Color-Space: srgb
# LUTr-Output-Gamut: rec709
# LUTr-Output-Transfer: srgb
# LUTr-Color-Space-Confidence: assumed-display-referred
# LUTr-Domain-Normalized: true
# LUTr-Shaper: none
# LUTr-Original-Grid: 64x64x64
# LUTr-Conversion-Grid: 25x25x25
# LUTr-Conversion-Interpolation: trilinear
# LUTr-Conversion-Method: HALD-PNG LUT image decoded at 16-bit and sampled to 25x25x25 3D CUBE
# LUTr-Conversion-Tool: LUTr scripts/convert-all-to-cube.mjs 2.0.0
# LUTr-Conversion-Date: 2026-07-27
# LUTr-Note: Preserve this metadata and the upstream license notices when redistributing.
TITLE "extreme"
LUT_3D_SIZE 25
DOMAIN_MIN 0 0 0
DOMAIN_MAX 1 1 1
0.0039215686 0.011764706 0.023529412
0.0039215686 0.011764706 0.023529412
0.0039215686 0.0078431373 0.019607843
0.0078431373 0.0044117647 0.012254902
0.017647059 0.0039215686 0.0039215686
0.069607843 0.0039215686 0.020098039
0.1245098 0.0039215686 0.02745098
0.17990196 0 0.025980392
0.23137255 0 0.015686275
0.30343137 0.0024509804 0.015686275
0.3745098 0.0039215686 0.015686275
0.43627451 0.0039215686 0.012254902
0.50196078 0.0039215686 0.011764706
0.54264706 0.0039215686 0.032352941
0.57647059 0.0039215686 0.056862745
0.61519608 0.0039215686 0.074509804
0.65882353 0 0.070588235
0.70392157 0 0.074509804
0.74019608 0.0049019608 0.065686275
0.77107843 0.01127451 0.058823529
0.81372549 0.0098039216 0.066666667
0.86078431 0.0039215686 0.086764706
0.90196078 0 0.080392157
0.94313725 0 0.045098039
0.98039216 0 0.011764706
0.0039215686 0.011764706 0.021078431
0.0039215686 0.011764706 0.018688725
0.0045343137 0.0078431373 0.018627451
0.0078431373 0.0078431373 0.022426471
0.021568627 0.0078431373 0.033578431
0.062745098 0.0060661765 0.047058824
0.11421569 0.0039215686 0.054044118
0.16715686 0.0039215686 0.050490196
0.22745098 0.0039215686 0.03627451
0.30588235 0.0039215686 0.01807598
0.37843137 0.0039215686 0.0093137255
0.44019608 0.0039215686 0.011458333
0.49877451 0.0078431373 0.01495098
0.54264706 0.006372549 0.026164216
0.57463235 0.0039215686 0.050980392
0.61372549 0.0039215686 0.050919118
0.65882353 0.0039215686 0.053921569
0.70147059 0.006372549 0.066666667
0.7372549 0.0078431373 0.056495098
0.77107843 0.011764706 0.042647059
0.81372549 0.0098039216 0.058333333
0.86078431 0.006372549 0.073406863
0.90012255 0.006372549 0.067034314
0.94160539 0.0039215686 0.03872549
0.98088235 0.0024509804 0.0073529412
0.0039215686 0.011764706 0.014705882
0.0039215686 0.011764706 0.010784314
0.0080882353 0.011764706 0.02377451
0.011764706 0.011764706 0.048897059
0.025980392 0.012745098 0.053921569
0.060784314 0.012622549 0.064093137
0.10416667 0.0088235294 0.079166667
0.15294118 0.0078431373 0.078553922
0.22352941 0.0088235294 0.055882353
0.30306373 0.0082107843 0.027941176
0.38161765 0.0049019608 0.0017156863
0.44031863 0.0088235294 0.01127451
0.49852941 0.012745098 0.015686275
0.54007353 0.011397059 0.02120098
0.57352941 0.0080882353 0.018627451
0.61311275 0.0078431373 0.022058824
0.65490196 0.0088235294 0.038235294
0.69718137 0.011764706 0.049632353
0.7372549 0.0125 0.043382353
0.77193627 0.015196078 0.026102941
0.81568627 0.014215686 0.056862745
0.86078431 0.012622549 0.061642157
0.90196078 0.0088235294 0.032598039
0.9310049 0.0099264706 0.028308824
0.95 0.012745098 0.029411765
0.0039215686 0.018627451 0.014705882
0.0039215686 0.018627451 0.011213235
0.0078431373 0.015318627 0.041666667
0.0083333333 0.015686275 0.072058824
0.02745098 0.019362745 0.055147059
0.057291667 0.02254902 0.05245098
0.098529412 0.019117647 0.06997549
0.14969363 0.018627451 0.081678922
0.21960784 0.019117647 0.055392157
0.29607843 0.019117647 0.026654412
0.3754902 0.019117647 0.01127451
0.44411765 0.019056373 0.011703431
0.50367647 0.019362745 0.012254902
0.54264706 0.019117647 0.01997549
0.57647059 0.016053922 0.019607843
0.60980392 0.014705882 0.012132353
0.65490196 0.015196078 0.034803922
0.69607843 0.019117647 0.048529412
0.73713235 0.019117647 0.041176471
0.77493873 0.022120098 0.023529412
0.81764706 0.024754902 0.055392157
0.86078431 0.025980392 0.060784314
0.90196078 0.01875 0.017034314
0.92598039 0.020404412 0.022855392
0.93921569 0.023039216 0.031862745
0.0039215686 0.045098039 0.033333333
0.0039215686 0.041911765 0.024264706
0.0039215686 0.035294118 0.034803922
0.0073529412 0.031617647 0.060294118
0.023529412 0.031372549 0.040196078
0.047303922 0.033088235 0.024019608
0.1 0.034313725 0.041666667
0.16372549 0.036029412 0.049754902
0.22941176 0.035294118 0.039215686
0.29877451 0.030147059 0.013480392
0.37156863 0.031372549 0.015686275
0.44362745 0.029656863 0.012254902
0.50784314 0.026470588 0.0049019608
0.54264706 0.035539216 0.025735294
0.57352941 0.040686275 0.031862745
0.60980392 0.039215686 0.038480392
0.65490196 0.037254902 0.035294118
0.7 0.035294118 0.057107843
0.74117647 0.033823529 0.066176471
0.77843137 0.042647059 0.042156863
0.81960784 0.045098039 0.049019608
0.86078431 0.043137255 0.051960784
0.90196078 0.041666667 0.040196078
0.94387255 0.037745098 0.025735294
0.9745098 0.037254902 0.015686275
0.0039215686 0.072058824 0.034803922
0.0036151961 0.065686275 0.031066176
0 0.058823529 0.019485294
0.0072916667 0.055882353 0.025980392
0.02377451 0.056617647 0.01372549
0.046078431 0.057291667 0.0088235294
0.10404412 0.059436275 0.021323529
0.16421569 0.063909314 0.034313725
0.22745098 0.064215686 0.026960784
0.29558824 0.065012255 0.012254902
0.36764706 0.069117647 0.017034314
0.44313725 0.068627451 0.015747549
0.4995098 0.061029412 0.018627451
0.53872549 0.064215686 0.036335784
0.57352941 0.067647059 0.05
0.60980392 0.062438725 0.061764706
0.65098039 0.060294118 0.039215686
0.69589461 0.061580882 0.032536765
0.73811275 0.060294118 0.045343137
0.78235294 0.063296569 0.05
0.82352941 0.067647059 0.042892157
0.86470588 0.067218137 0.050980392
0.90588235 0.064215686 0.051470588
0.946875 0.060784314 0.026838235
0.97941176 0.060784314 0.013235294
0 0.10294118 0.021568627
0 0.099019608 0.023406863
0 0.08995098 0.018382353
0.0068627451 0.089093137 0.014583333
0.030392157 0.099019608 0.018627451
0.056004902 0.10441176 0.023039216
0.10857843 0.095833333 0.024264706
0.16421569 0.091176471 0.015563725
0.22745098 0.095098039 0.0098039216
0.29558824 0.10441176 0.015686275
0.36764706 0.11372549 0.019607843
0.43713235 0.11029412 0.019607843
0.48872549 0.10392157 0.034313725
0.53615196 0.095098039 0.050122549
0.57279412 0.098039216 0.054901961
0.60980392 0.10098039 0.057107843
0.65098039 0.097058824 0.03627451
0.69215686 0.092279412 0.0066176471
0.7372549 0.091176471 0.018627451
0.78578431 0.091176471 0.031985294
0.82892157 0.092647059 0.035784314
0.86470588 0.098406863 0.037132353
0.90196078 0.10416667 0.034068627
0.93872549 0.10551471 0.033333333
0.95490196 0.10490196 0.040196078
0 0.13970588 0.0058823529
0.00091911765 0.14368873 0.022610294
0.0039215686 0.14852941 0.031004902
0.0073529412 0.14852941 0.029411765
0.025980392 0.15122549 0.022794118
0.057352941 0.15196078 0.028737745
0.10735294 0.1435049 0.036397059
0.16182598 0.13823529 0.023529412
0.22745098 0.14215686 0.013235294
0.30006127 0.14669118 0.024571078
0.36875 0.15453431 0.014215686
0.42892157 0.15098039 0.027757353
0.48578431 0.14852941 0.054656863
0.53529412 0.1536152 0.056188725
0.57254902 0.14889706 0.044485294
0.60925245 0.14705882 0.033884804
0.64705882 0.14460784 0.028431373
0.69215686 0.15245098 0.026470588
0.7372549 0.15502451 0.040196078
0.78216912 0.15392157 0.053615196
0.82598039 0.15 0.05
0.86470588 0.14981618 0.032169118
0.90588235 0.15208333 0.020955882
0.93572304 0.15006127 0.02745098
0.93970588 0.15 0.042647059
0 0.20784314 0.043137255
0 0.20392157 0.047058824
0.0039215686 0.20784314 0.042156863
0.0078431373 0.20441176 0.031862745
0.015686275 0.20392157 0.01372549
0.052941176 0.2 0.025
0.098039216 0.19705882 0.049019608
0.15539216 0.20147059 0.044117647
0.22745098 0.20784314 0.031372549
0.2995098 0.20147059 0.017156863
0.37058824 0.19313725 0.0029411765
0.43235294 0.20343137 0.033823529
0.49019608 0.21176471 0.056862745
0.53480392 0.21568627 0.059313725
0.57254902 0.20882353 0.049019608
0.60833333 0.19852941 0.023039216
0.64705882 0.2 0.015686275
0.69215686 0.21421569 0.040196078
0.7372549 0.22352941 0.056862745
0.78186275 0.21960784 0.070098039
0.82352941 0.21176471 0.066666667
0.86470588 0.21127451 0.042156863
0.90882353 0.20490196 0.014705882
0.93088235 0.20539216 0.0053921569
0.93333333 0.20784314 0.011764706
0 0.27990196 0.062745098
0 0.27352941 0.067647059
0.0020833333 0.27144608 0.060294118
0.0075367647 0.26617647 0.041360294
0.012990196 0.26102941 0.013235294
0.050796569 0.27107843 0.020772059
0.098039216 0.27696078 0.043259804
0.15539216 0.27843137 0.044607843
0.22745098 0.28235294 0.032843137
0.29405637 0.28694853 0.019240196
0.36703431 0.28125 0.018137255
0.43596814 0.28578431 0.024632353
0.49607843 0.2877451 0.03872549
0.5377451 0.2877451 0.061090686
0.57536765 0.28443627 0.077083333
0.60980392 0.27696078 0.039705882
0.65098039 0.27990196 0.028921569
0.69552696 0.2877451 0.031311275
0.7372549 0.29313725 0.044730392
0.77843137 0.29197304 0.06372549
0.82230392 0.28627451 0.061029412
0.86470588 0.28382353 0.039215686
0.90588235 0.28235294 0.016666667
0.93817402 0.28235294 0.017218137
0.94362745 0.28627451 0.018137255
0 0.35196078 0.056862745
0 0.34558824 0.059313725
0 0.33897059 0.057843137
0.0073529412 0.33272059 0.057230392
0.020098039 0.33235294 0.046078431
0.053921569 0.34509804 0.042034314
0.094117647 0.35588235 0.035784314
0.15085784 0.35980392 0.034313725
0.22745098 0.36372549 0.02254902
0.29558824 0.36470588 0.023039216
0.36348039 0.36372549 0.033333333
0.43186275 0.36372549 0.031495098
0.49558824 0.36176471 0.035294118
0.53786765 0.36335784 0.057720588
0.57352941 0.35980392 0.066666667
0.60980392 0.35294118 0.034681373
0.65098039 0.35588235 0.023529412
0.69607843 0.35772059 0.010661765
0.7372549 0.3629902 0.028431373
0.77843137 0.36372549 0.049387255
0.81960784 0.36372549 0.046078431
0.86078431 0.35980392 0.029534314
0.90196078 0.35980392 0.025
0.9435049 0.36372549 0.024509804
0.9627451 0.36470588 0.024509804
0 0.42401961 0.032843137
0 0.41764706 0.034987745
0.0034313725 0.4064951 0.049387255
0.0073529412 0.39748775 0.062745098
0.025245098 0.40245098 0.073284314
0.060294118 0.41623775 0.068627451
0.097671569 0.42352941 0.044730392
0.15147059 0.42843137 0.031372549
0.22401961 0.43235294 0.023039216
0.29313725 0.42892157 0.036764706
0.36017157 0.43223039 0.043014706
0.4348652 0.43186275 0.024509804
0.49019608 0.43210784 0.035539216
0.53186275 0.43235294 0.046568627
0.57254902 0.43186275 0.028186275
0.60980392 0.42794118 0.017953431
0.65098039 0.4245098 0.023039216
0.69215686 0.4245098 0.018627451
0.73382353 0.4254902 0.03370098
0.775 0.42843137 0.053860294
0.81960784 0.43186275 0.035784314
0.86035539 0.43186275 0.020036765
0.89852941 0.43186275 0.025612745
0.94332108 0.43235294 0.032352941
0.97254902 0.43284314 0.031372549
0 0.49019608 0.0039215686
0 0.48382353 0.021323529
0.0024509804 0.46960784 0.03627451
0.0073529412 0.45931373 0.05
0.025490196 0.46862745 0.066666667
0.060784314 0.47671569 0.071323529
0.10196078 0.48529412 0.044117647
0.14656863 0.49215686 0.019362745
0.21568627 0.49019608 0.023529412
0.29093137 0.48504902 0.05
0.36029412 0.48529412 0.045098039
0.43553922 0.48995098 0.020833333
0.49215686 0.49019608 0.031372549
0.53504902 0.48823529 0.050245098
0.57254902 0.48627451 0.028431373
0.60833333 0.48627451 0.026470588
0.64705882 0.48823529 0.039215686
0.68823529 0.49019608 0.040441176
0.72990196 0.49019608 0.054901961
0.7745098 0.49019608 0.061764706
0.81568627 0.49215686 0.03627451
0.85686275 0.49387255 0.01495098
0.89656863 0.48921569 0.037745098
0.9372549 0.48431373 0.049019608
0.96470588 0.48039216 0.035294118
0 0.53137255 0.012254902
0 0.53529412 0.016176471
0 0.53186275 0.016421569
0.003002451 0.525 0.021629902
0.029166667 0.52794118 0.03995098
0.056372549 0.52444853 0.057414216
0.09754902 0.53431373 0.038112745
0.14479167 0.54264706 0.014705882
0.21617647 0.53921569 0.024509804
0.29215686 0.53265931 0.043995098
0.36421569 0.53137255 0.037745098
0.43627451 0.53180147 0.031372549
0.49583333 0.53529412 0.05
0.53872549 0.53480392 0.059191176
0.56960784 0.52757353 0.038235294
0.60980392 0.53155637 0.049019608
0.64705882 0.53578431 0.055392157
0.68609069 0.53921569 0.047732843
0.72941176 0.53921569 0.050857843
0.77401961 0.53921569 0.046568627
0.81568627 0.53921569 0.032843137
0.85686275 0.53921569 0.036764706
0.89803922 0.53921569 0.070588235
0.93792892 0.53400735 0.06685049
0.96862745 0.52794118 0.030882353
0 0.57254902 0.012745098
0 0.575 0.022058824
0 0.57647059 0.022794118
0.0025735294 0.58039216 0.0090686275
0.024019608 0.5745098 0.024019608
0.045710784 0.57169118 0.040318627
0.092401961 0.57622549 0.03627451
0.14901961 0.57647059 0.023161765
0.22352941 0.57352941 0.041176471
0.30134804 0.57401961 0.031985294
0.3745098 0.57254902 0.024509804
0.43627451 0.57340686 0.038235294
0.49264706 0.57647059 0.057843137
0.53872549 0.57254902 0.058455882
0.56960784 0.57181373 0.035784314
0.60980392 0.57585784 0.054534314
0.65 0.57745098 0.065686275
0.68823529 0.57647059 0.057843137
0.72941176 0.57745098 0.052941176
0.77438725 0.58039216 0.03627451
0.81960784 0.58039216 0.02254902
0.85686275 0.58345588 0.037867647
0.89803922 0.58210784 0.052205882
0.94276961 0.58002451 0.049387255
0.9754902 0.5754902 0.017647059
0 0.61372549 0.0049019608
0 0.61525735 0.027512255
0.0014705882 0.61764706 0.04252451
0.0073529412 0.61764706 0.03627451
0.023529412 0.61495098 0.033578431
0.044791667 0.61372549 0.035294118
0.089215686 0.61041667 0.030269608
0.14607843 0.60833333 0.018137255
0.21960784 0.60980392 0.028431373
0.30196078 0.61317402 0.019607843
0.38026961 0.61372549 0.010171569
0.43284314 0.61372549 0.031678922
0.48235294 0.61372549 0.044852941
0.52990196 0.61372549 0.029901961
0.56862745 0.61372549 0.019607843
0.60980392 0.61617647 0.045526961
0.65098039 0.61617647 0.065196078
0.69215686 0.61372549 0.058823529
0.73333333 0.61617647 0.051838235
0.7745098 0.61764706 0.03627451
0.81691176 0.61887255 0.031617647
0.85637255 0.61795343 0.040870098
0.89705882 0.62009804 0.037745098
0.94313725 0.61917892 0.022058824
0.9877451 0.61764706 0.0029411765
0 0.65490196 0.011764706
0.0024509804 0.65490196 0.03872549
0.0039215686 0.65980392 0.067647059
0.01127451 0.65882353 0.059803922
0.023529412 0.65490196 0.041176471
0.045098039 0.65098039 0.034803922
0.093137255 0.64803922 0.025490196
0.14068627 0.64313725 0.0049019608
0.21568627 0.64705882 0.019607843
0.29803922 0.65098039 0.031372549
0.3745098 0.65490196 0.031372549
0.43676471 0.65490196 0.038235294
0.48627451 0.65490196 0.041176471
0.52745098 0.65490196 0.018627451
0.56862745 0.65490196 0.01372549
0.61127451 0.65490196 0.038235294
0.65490196 0.65490196 0.050980392
0.69607843 0.65343137 0.054901961
0.73333333 0.65490196 0.05
0.7745098 0.65490196 0.043627451
0.81568627 0.65686275 0.045098039
0.85686275 0.65147059 0.054901961
0.89411765 0.65784314 0.051960784
0.93921569 0.65882353 0.037745098
0.96470588 0.65882353 0.02745098
0.0024509804 0.69607843 0.019607843
0.0039215686 0.69852941 0.042647059
0.0045343137 0.7 0.068627451
0.01127451 0.7 0.06372549
0.021568627 0.69607843 0.043137255
0.03560049 0.69215686 0.02745098
0.092156863 0.68823529 0.025980392
0.14761029 0.68676471 0.022058824
0.21813725 0.68823529 0.042647059
0.29558824 0.69552696 0.05435049
0.36875 0.69546569 0.043137255
0.43970588 0.69215686 0.043137255
0.49411765 0.69411765 0.041176471
0.53137255 0.69607843 0.031556373
0.57438725 0.69607843 0.034803922
0.61764706 0.69460784 0.06127451
0.65490196 0.69215686 0.056372549
0.69607843 0.69552696 0.044607843
0.7372549 0.69705882 0.039705882
0.77696078 0.7 0.030698529
0.81960784 0.69926471 0.036029412
0.86060049 0.69589461 0.055698529
0.89754902 0.69607843 0.059436275
0.93033088 0.69846814 0.049080882
0.94852941 0.7 0.043627451
0.0039215686 0.73823529 0.018627451
0.0039215686 0.74117647 0.041666667
0.0078431373 0.74019608 0.067156863
0.010416667 0.7372549 0.058823529
0.021078431 0.73529412 0.03872549
0.046078431 0.73333333 0.028431373
0.093382353 0.73333333 0.02745098
0.15 0.73333333 0.031127451
0.22352941 0.73333333 0.049019608
0.29656863 0.7372549 0.041666667
0.37058824 0.7372549 0.028676471
0.43884804 0.7372549 0.034191176
0.49019608 0.7372549 0.035784314
0.53137255 0.74117647 0.026102941
0.57573529 0.73823529 0.03872549
0.61764706 0.73762255 0.047671569
0.65490196 0.73823529 0.032352941
0.69362745 0.74007353 0.029411765
0.73431373 0.74142157 0.029411765
0.77843137 0.74509804 0.020955882
0.81960784 0.74362745 0.030882353
0.86078431 0.74080882 0.054901961
0.90196078 0.7375 0.059558824
0.94411765 0.7372549 0.035294118
0.9745098 0.7372549 0.016666667
0.0039215686 0.78235294 0.0083333333
0.0039215686 0.78235294 0.032843137
0.0044117647 0.77843137 0.044607843
0.0044117647 0.77843137 0.040686275
0.016176471 0.77647059 0.02254902
0.053370098 0.7745098 0.027512255
0.098039216 0.7745098 0.02745098
0.14754902 0.778125 0.024203431
0.22352941 0.77794118 0.021078431
0.2995098 0.78057598 0.010477941
0.36801471 0.78235294 0.0093137255
0.43578431 0.78186275 0.020036765
0.49019608 0.78235294 0.024019608
0.53137255 0.78235294 0.023468137
0.57291667 0.78235294 0.033333333
0.61421569 0.78235294 0.026838235
0.65490196 0.78578431 0.0014705882
0.69607843 0.78578431 0.014705882
0.73688725 0.78627451 0.024754902
0.77843137 0.78627451 0.038602941
0.82328431 0.78970588 0.025735294
0.86470588 0.78621324 0.040686275
0.90281863 0.78235294 0.041176471
0.94705882 0.78186275 0.022855392
0.98137255 0.77843137 0.010294118
0.0039215686 0.82352941 0.017647059
0.0039215686 0.8254902 0.038235294
0.0039215686 0.82352941 0.054901961
0.0039215686 0.81985294 0.030637255
0.012745098 0.81862745 0.010784314
0.052941176 0.81568627 0.022058824
0.096078431 0.81568627 0.02745098
0.14877451 0.81568627 0.028186275
0.22352941 0.81568627 0.033333333
0.29754902 0.81960784 0.024264706
0.36764706 0.82352941 0.020098039
0.43627451 0.8252451 0.015931373
0.49019608 0.82745098 0.021568627
0.53137255 0.82745098 0.041911765
0.57254902 0.82598039 0.056372549
0.61372549 0.82622549 0.046078431
0.65294118 0.82745098 0.02745098
0.69215686 0.82745098 0.015686275
0.73431373 0.82745098 0.023529412
0.77843137 0.82745098 0.032107843
0.82352941 0.83137255 0.025490196
0.86470588 0.83112745 0.019852941
0.90196078 0.82745098 0.025
0.94044118 0.82352941 0.036029412
0.96470588 0.82352941 0.031372549
0 0.86862745 0.039705882
0 0.86862745 0.062745098
0.0013480392 0.86764706 0.068627451
0.0074142157 0.86078431 0.041176471
0.019852941 0.85686275 0.024019608
0.049448529 0.85692402 0.016115196
0.089705882 0.85735294 0.019117647
0.15018382 0.85735294 0.024693627
0.21960784 0.86078431 0.035784314
0.29148284 0.86470588 0.035784314
0.36764706 0.86458333 0.037009804
0.43970588 0.86470588 0.028370098
0.49240196 0.86642157 0.040441176
0.53137255 0.86862745 0.060355392
0.57254902 0.8689951 0.078431373
0.61194853 0.86893382 0.07254902
0.65098039 0.86862745 0.051960784
0.69215686 0.86862745 0.034803922
0.73382353 0.86862745 0.020588235
0.77886029 0.86819853 0.030882353
0.82377451 0.86789216 0.032107843
0.86470588 0.86862745 0.019178922
0.90330882 0.86862745 0.020833333
0.93756127 0.86470588 0.035784314
0.94852941 0.86470588 0.046078431
0 0.90980392 0.047058824
0 0.90796569 0.063357843
0.0046568627 0.90588235 0.059803922
0.010416667 0.90502451 0.044240196
0.025490196 0.9 0.033333333
0.055392157 0.90110294 0.02254902
0.084068627 0.90416667 0.0034313725
0.15147059 0.90196078 0.019607843
0.21960784 0.89901961 0.038235294
0.2935049 0.90294118 0.039215686
0.37083333 0.90196078 0.03627451
0.44019608 0.90196078 0.048039216
0.49754902 0.90245098 0.062745098
0.53517157 0.90637255 0.067279412
0.57254902 0.9127451 0.078431373
0.61372549 0.91372549 0.078553922
0.65490196 0.90980392 0.059803922
0.69607843 0.90980392 0.034681373
0.7379902 0.90980392 0.023529412
0.78235294 0.9060049 0.027941176
0.82745098 0.90147059 0.037745098
0.86727941 0.90686275 0.023039216
0.90588235 0.90686275 0.010539216
0.93186275 0.90588235 0.015196078
0.93431373 0.90588235 0.021568627
0 0.94705882 0.045588235
0.0024509804 0.94613971 0.048039216
0.006004902 0.94166667 0.040686275
0.01127451 0.94283088 0.034129902
0.029411765 0.93480392 0.033823529
0.056066176 0.92285539 0.026654412
0.087745098 0.92205882 0.014215686
0.14754902 0.93829657 0.027389706
0.21960784 0.93921569 0.043137255
0.29803922 0.94166667 0.038235294
0.37156863 0.94705882 0.028921569
0.44362745 0.93970588 0.04442402
0.50196078 0.93382353 0.058333333
0.53658088 0.94754902 0.038235294
0.57463235 0.95281863 0.041666667
0.61372549 0.94803922 0.060294118
0.65490196 0.95098039 0.044117647
0.69908088 0.95098039 0.021078431
0.74117647 0.94705882 0.019117647
0.78596814 0.94705882 0.022058824
0.82745098 0.94485294 0.022058824
0.86862745 0.93609069 0.019301471
0.90686275 0.93039216 0.010294118
0.92996324 0.92996324 0.014705882
0.93088235 0.93088235 0.021078431
0 0.98039216 0.035294118
0.0039215686 0.97009804 0.032843137
0.0078431373 0.95980392 0.031372549
0.011764706 0.9495098 0.031372549
0.029411765 0.93921569 0.033333333
0.056372549 0.9254902 0.030882353
0.093137255 0.92745098 0.023529412
0.15 0.96127451 0.034313725
0.21568627 0.97647059 0.043137255
0.29558824 0.975 0.036764706
0.37156863 0.98529412 0.021568627
0.43627451 0.97352941 0.026960784
0.49411765 0.9627451 0.031372549
0.53529412 0.98186275 0.010294118
0.57647059 0.98235294 0.017647059
0.61372549 0.96568627 0.051470588
0.65882353 0.97647059 0.031372549
0.7 0.99068627 0.0044117647
0.74215686 0.9754902 0.012745098
0.78627451 0.96127451 0.019607843
0.82745098 0.95098039 0.019607843
0.86862745 0.94068627 0.019607843
0.90686275 0.93039216 0.012745098
0.93088235 0.93088235 0.021078431
0.93333333 0.9372549 0.031372549
0.0039215686 0.0078431373 0.071078431
0.0039215686 0.0078431373 0.069607843
0.0039215686 0.0072303922 0.066789216
0.0078431373 0.0039215686 0.059803922
0.022794118 0.0039215686 0.059803922
0.069117647 0.0039215686 0.070098039
0.12169118 0.0039215686 0.074142157
0.17598039 0 0.066666667
0.23529412 0 0.056372549
0.30588235 0.0024509804 0.05
0.3745098 0.0039215686 0.048651961
0.43627451 0.0039215686 0.045098039
0.49632353 0.0039215686 0.05122549
0.53676471 0.0036151961 0.053615196
0.57291667 0 0.071078431
0.61519608 0 0.080882353
0.65882353 0 0.076960784
0.70392157 0 0.073590686
0.74019608 0.0042892157 0.069730392
0.77696078 0.0075367647 0.077634804
0.81813725 0.0066176471 0.080637255
0.86501225 0.0034313725 0.086764706
0.90294118 0 0.080392157
0.93676471 0 0.070526961
0.96617647 0 0.069607843
0.0039215686 0.0078431373 0.067156863
0.0039215686 0.0078431373 0.065663297
0.0045343137 0.0078431373 0.063924632
0.0078431373 0.0064414828 0.059313725
0.024938725 0.0043811275 0.068566176
0.064889706 0.0039215686 0.074517463
0.11421569 0.0039215686 0.074080882
0.16681219 0.0039215686 0.06752451
0.23045343 0.0039215686 0.059681373
0.30585937 0.0039215686 0.051815257
0.37542892 0.0039215686 0.046936275
0.43547028 0.0039215686 0.048046875
0.49362745 0.0073835784 0.050919118
0.53658088 0.0047257966 0.053262868
0.57268689 0.001439951 0.066237745
0.61393229 0.0033471201 0.067792586
0.65882353 0.0039215686 0.069178922
0.70147059 0.006372549 0.071568627
0.73950674 0.0078431373 0.066957721
0.77481618 0.0092447917 0.072242647
