site/assets/luts/sha256-1699b78d7df57230982121c956510f7b7b49800c08b42060a49da69493eb4eb3.cube
# LUTr-Schema-Version: 2
# LUTr-ID: sha256-1699b78d7df57230982121c956510f7b7b49800c08b42060a49da69493eb4eb3
# LUTr-Title: fuji superia 400 -
# LUTr-Collection: Natron HaldCLUT
# LUTr-Collection-ID: natron-haldclut-presets
# LUTr-Source: https://github.com/NatronGitHub/clut
# LUTr-Retrieved: 2026-07-27
# LUTr-Source-File: submissions/natron-haldclut-presets/negative_old/fuji_superia_400_-.png
# LUTr-Source-Format: HALD-PNG
# LUTr-Source-SHA256: 1699b78d7df57230982121c956510f7b7b49800c08b42060a49da69493eb4eb3
# LUTr-License: CC-BY-SA-4.0
# LUTr-License-URL: https://github.com/NatronGitHub/clut#license
# LUTr-License-Basis: repo-license-file
# LUTr-Transform-Class: film-emulation
# LUTr-Tags: creative, film, film-emulation, hald-clut, natron, png, cube
# LUTr-Input-Color-Space: srgb
# LUTr-Input-Gamut: rec709
# LUTr-Input-Transfer: srgb
# LUTr-Output-Color-Space: srgb
# LUTr-Output-Gamut: rec709
# LUTr-Output-Transfer: srgb
# LUTr-Color-Space-Confidence: assumed-display-referred
# LUTr-Domain-Normalized: true
# LUTr-Shaper: none
# LUTr-Original-Grid: 64x64x64
# LUTr-Conversion-Grid: 25x25x25
# LUTr-Conversion-Interpolation: trilinear
# LUTr-Conversion-Method: HALD-PNG LUT image decoded at 16-bit and sampled to 25x25x25 3D CUBE
# LUTr-Conversion-Tool: LUTr scripts/convert-all-to-cube.mjs 2.0.0
# LUTr-Conversion-Date: 2026-07-27
# LUTr-Note: Preserve this metadata and the upstream license notices when redistributing.
TITLE "fuji superia 400 -"
LUT_3D_SIZE 9
DOMAIN_MIN 0 0 0
DOMAIN_MAX 1 1 1
0 0.019607843 0.019607843
0.065196078 0.050490196 0.035294118
0.18235294 0.039215686 0.015686275
0.36372549 0.039215686 0.021078431
0.5745098 0.015686275 0.011764706
0.74068627 0.0078431373 0.015686275
0.86666667 0.0068627451 0.0068627451
0.95392157 0.1004902 0
1 0.23529412 0
0.0039215686 0.089215686 0.047058824
0.034742647 0.10833333 0.047487745
0.20294118 0.10968137 0.010171569
0.37892157 0.10520833 0.018137255
0.57254902 0.052696078 0.0078431373
0.74068627 0.047365196 0.011764706
0.87058824 0.084313725 0.0068627451
0.95392157 0.15300245 0
0.99215686 0.26470588 0.0039215686
0.0039215686 0.21176471 0.07745098
0.01127451 0.22205882 0.068995098
0.17647059 0.25392157 0.0066176471
0.42414216 0.28578431 0.0039215686
0.59264706 0.25294118 0.0078431373
0.73529412 0.23370098 0.0078431373
0.86838235 0.25710784 0.0039215686
0.95392157 0.29509804 0
0.99607843 0.35784314 0
0 0.35735294 0.12352941
0.0088235294 0.37273284 0.13694853
0.1372549 0.40110294 0.1004902
0.39117647 0.46868873 0.016605392
0.63848039 0.50073529 0.0019607843
0.7495098 0.42935049 0.0024509804
0.85490196 0.40833333 0.0039215686
0.95392157 0.42205882 0
0.97647059 0.44264706 0
0.0039215686 0.50588235 0.22156863
0.013235294 0.50980392 0.21593137
0.18823529 0.52058824 0.22156863
0.36102941 0.56642157 0.16813725
0.58431373 0.62352941 0.10098039
0.76911765 0.64730392 0.012990196
0.87009804 0.59901961 0.0098039216
0.95931373 0.56642157 0.0039215686
0.96666667 0.56470588 0.0058823529
0.14509804 0.62794118 0.32352941
0.19852941 0.628125 0.32383578
0.27205882 0.63125 0.31629902
0.37800245 0.65300245 0.30931373
0.51960784 0.69509804 0.29485294
0.70484069 0.73921569 0.22297794
0.88186275 0.77254902 0.090686275
0.97352941 0.74803922 0.040502451
0.98970588 0.72107843 0.011764706
0.35 0.74117647 0.43921569
0.35343137 0.7372549 0.43186275
0.39044118 0.74117647 0.43137255
0.46164216 0.74411765 0.44705882
0.55 0.77352941 0.42647059
0.6814951 0.80772059 0.40833333
0.84313725 0.85 0.37034314
0.95735294 0.86531863 0.32622549
0.99215686 0.85392157 0.24411765
0.51323529 0.85245098 0.57156863
0.525 0.84852941 0.5754902
0.55882353 0.84509804 0.58284314
0.58823529 0.85245098 0.57941176
0.64166667 0.85833333 0.57941176
0.72303922 0.88088235 0.5713848
0.81164216 0.9064951 0.57022059
0.92261029 0.92297794 0.55238971
0.97598039 0.93039216 0.54411765
0.71372549 0.94117647 0.74117647
0.72107843 0.94117647 0.74117647
0.73235294 0.9372549 0.74117647
0.75931373 0.94509804 0.75147059
0.78039216 0.94117647 0.75294118
0.81715686 0.9504902 0.75294118
0.85294118 0.95686275 0.73235294
0.91078431 0.97254902 0.74411765
0.95686275 0.98039216 0.73333333
0.011764706 0.039705882 0.097058824
0.061213235 0.059313725 0.089705882
0.19473039 0.033333333 0.081740196
0.37794118 0.014705882 0.080882353
0.57818627 0.012254902 0.084803922
0.74068627 0.0099877451 0.075980392
0.87058824 0.01997549 0.066666667
0.96568627 0.12794118 0.032414216
0.9995098 0.2495098 0.0078431373
0.012193627 0.10392157 0.10741422
0.052833946 0.10429688 0.092095588
0.20931373 0.11600797 0.089476103
0.38660386 0.10520833 0.086090686
0.58039216 0.073529412 0.086795343
0.74460784 0.066176471 0.059290748
0.8745098 0.12838542 0.033272059
0.96954657 0.1995098 0.021193321
1 0.26813725 0.029411765
0.00098039216 0.21948529 0.12794118
0.072058824 0.23114277 0.13550858
0.20003064 0.25474877 0.1075674
0.42869179 0.29759498 0.049954044
0.5995098 0.26078431 0.029901961
0.74313725 0.24669118 0.029059436
0.86985294 0.27123162 0.015778186
0.97875306 0.3098652 0.0039215686
1 0.36433824 0.006495098
0.0053921569 0.38578431 0.19344363
0.058823529 0.39258578 0.19430147
0.19875919 0.40935968 0.17588848
0.42058824 0.46813725 0.10832567
0.62990196 0.48455882 0.030882353
0.75251225 0.43192402 0.0053921569
0.8597886 0.40833333 0.0050704657
0.96258425 0.42990196 0
0.99185049 0.46568627 0
0.037009804 0.51740196 0.26127451
0.11862745 0.52107843 0.27156863
0.23125 0.52126225 0.27438725
0.37818627 0.56372549 0.25327819
0.57843137 0.61973039 0.1752451
0.78072917 0.64911152 0.054748775
0.87156863 0.59485294 0.0093137255
0.95955882 0.57083333 0.0056372549
0.98039216 0.56887255 0.011764706
0.19607843 0.63547794 0.35637255
0.23687194 0.63333333 0.35481771
0.30488664 0.63195466 0.36029412
0.3957644 0.64688266 0.35673254
0.52858456 0.69387255 0.3390625
0.7223652 0.74516697 0.28602941
0.88998162 0.77910539 0.21211703
0.97748928 0.74589461 0.076470588
0.9973652 0.71893382 0.0053921569
0.36617647 0.74767157 0.4622549
0.36862745 0.74375 0.45413603
0.40867034 0.74803922 0.45833333
0.47009804 0.7446538 0.46482843
0.56078431 0.77352941 0.45814951
0.68198529 0.80735294 0.43912377
0.84215686 0.84874387 0.41703431
0.96030944 0.87271752 0.39347426
0.99607843 0.85931373 0.3442402
0.540625 0.85245098 0.60196078
0.53670343 0.84852941 0.59068627
0.5662837 0.8488511 0.59803922
0.59656863 0.84855239 0.59411765
0.65272672 0.85833333 0.59831495
0.72538297 0.88072151 0.59023437
0.81127451 0.90036765 0.58628983
0.9108992 0.92604167 0.58235294
0.98768382 0.94515931 0.56764706
0.725 0.94460784 0.74852941
0.725 0.94117647 0.74509804
0.72965686 0.93566176 0.74142157
0.75686275 0.94117647 0.75294118
0.78259804 0.94166667 0.75710784
0.81685049 0.95294118 0.76029412
0.8567402 0.95772059 0.74840686
0.90686275 0.96868873 0.74375
0.95294118 0.97990196 0.74460784
0.0078431373 0.034313725 0.20196078
0.064338235 0.038235294 0.19803922
0.19901961 0.078431373 0.20686275
0.37830882 0.036151961 0.20723039
0.57352941 0.021568627 0.21470588
0.73737745 0.012254902 0.21715686
0.87058824 0.11544118 0.22745098
0.96948529 0.22561275 0.22414216
1 0.30490196 0.2245098
0.0044117647 0.12009804 0.22512255
0.04129902 0.12267157 0.22107843
0.20857843 0.13431373 0.22071078
0.38566176 0.12424939 0.22205882
0.584375 0.075 0.22132353
0.74705882 0.13359375 0.22810968
0.87352941 0.20245098 0.23161765
0.96568627 0.26458333 0.22967218
0.99607843 0.32708333 0.22843137
0.0039215686 0.24607843 0.24705882
0.051593137 0.24901961 0.25294118
0.24393382 0.26862745 0.25606618
0.42058824 0.29136029 0.25196078
0.59901961 0.29178922 0.24607843
0.74690564 0.29607843 0.23606005
0.86985294 0.32156863 0.22843137
0.97463235 0.34460784 0.21360294
1 0.39607843 0.22058824
0.11470588 0.41409314 0.3060049
0.16127451 0.41750919 0.30428922
0.27328431 0.42104779 0.30750613
0.43249081 0.467019 0.29522059
0.61813725 0.46446078 0.25220588
0.7435049 0.42218137 0.198606
0.85882353 0.42879902 0.17821691
0.95686275 0.45 0.18137255
0.99546569 0.48125 0.17794118
0.22941176 0.55 0.37647059
0.24105392 0.54803922 0.36960784
0.31311275 0.5439951 0.36715686
0.41495098 0.56844363 0.3653799
0.58627451 0.61568627 0.33186275
0.759375 0.61617647 0.27953431
0.8622549 0.58039216 0.18235294
0.95894608 0.56035539 0.12426471
0.99607843 0.57794118 0.12745098
0.28026961 0.64865196 0.42781863
0.32634804 0.65473346 0.43786765
0.37058824 0.64865196 0.43529412
0.44068627 0.65761336 0.43529412
0.55392157 0.68995098 0.42542892
0.73235294 0.74244792 0.39551164
0.88054534 0.76678922 0.35726103
0.96269914 0.72719056 0.27522978
0.99607843 0.7057598 0.17892157
0.39485294 0.75661765 0.50367647
0.4171875 0.75514706 0.50689338
0.45294118 0.75269608 0.51176471
0.49831495 0.75196078 0.51148897
0.59509804 0.77745098 0.50821078
0.6958027 0.80441176 0.50530025
0.83921569 0.84289216 0.49191176
0.95551471 0.86862745 0.47169118
0.99607843 0.85171569 0.42254902
0.55845588 0.86029412 0.62193627
0.56268382 0.85539216 0.62107843
0.59007353 0.85637255 0.62956495
0.61960784 0.85245098 0.62757353
0.66746324 0.8622549 0.62879902
0.73333333 0.88095895 0.63144914
0.81911765 0.90367647 0.62509191
0.91475184 0.92647059 0.62412684
0.98333333 0.94166667 0.62316176
0.73333333 0.94215686 0.76078431
0.74007353 0.94497549 0.76372549
0.7375 0.93676471 0.75710784
0.76188725 0.93933824 0.76188725
0.78480392 0.93970588 0.76323529
0.82291667 0.95232843 0.7754902
0.86151961 0.96078431 0.77622549
0.91029412 0.96875 0.76372549
0.95686275 0.98039216 0.76372549
0.0053921569 0.066666667 0.38333333
0.025306373 0.056862745 0.38088235
0.21323529 0.061764706 0.37941176
0.37794118 0.076960784 0.37156863
0.54117647 0.073284314 0.38014706
0.71862745 0.071078431 0.39117647
0.85845588 0.070220588 0.3745098
0.97420343 0.14044118 0.3653799
0.99754902 0.31960784 0.40490196
0.0039215686 0.13039216 0.39479167
0.02935049 0.13351716 0.39242494
0.22879902 0.14577206 0.39669118
0.39202665 0.17038909 0.39068627
0.56421569 0.17720588 0.39730392
0.72990196 0.16666667 0.39233303
0.86519608 0.18662684 0.38051471
0.96762408 0.24824602 0.38905484
0.99607843 0.35637255 0.41488971
0.0029411765 0.23088235 0.40735294
0.0039981618 0.25137868 0.41862745
0.25916054 0.27892157 0.4254902
0.43255208 0.30588235 0.42156863
0.58921569 0.31911765 0.42303922
0.73823529 0.3245098 0.41104473
0.8703125 0.3265625 0.39656863
0.9660386 0.39136029 0.41292892
1 0.44031863 0.41960784
0.014583333 0.43186275 0.42493873
0.09932598 0.43658854 0.43933824
0.31147365 0.44454657 0.44348958
0.45688572 0.46300551 0.44607843
0.60784314 0.46835172 0.43970588
0.7401348 0.46176471 0.41958487
0.85882353 0.46323529 0.40686275
0.96084559 0.48007813 0.40282629
0.99607843 0.51121324 0.4004902
0.26740196 0.57254902 0.47598039
0.30189951 0.57205882 0.48121936
0.37408088 0.57107843 0.48308824
0.46519608 0.58210784 0.48161765
0.59117647 0.6004902 0.4692402
0.74509804 0.60729167 0.4458027
0.85153186 0.57285539 0.38903186
0.95398284 0.57843137 0.37941176
0.98823529 0.59656863 0.37156863
0.35833333 0.67015931 0.51954657
0.42431832 0.67745098 0.5348652
0.44607843 0.67630208 0.53186275
0.49328278 0.66960784 0.52738971
0.57916667 0.68872549 0.52647059
0.74074755 0.73887102 0.51770833
0.8692402 0.75399816 0.49460784
0.95392157 0.709375 0.42401961
0.99607843 0.69123775 0.35116422
0.4627451 0.77156863 0.58186275
0.48193934 0.77156863 0.58394608
0.5169424 0.77156863 0.5872549
0.55294118 0.76617647 0.5837163
0.60686275 0.76960784 0.58523284
0.70453431 0.8004902 0.58469669
0.8481924 0.84509804 0.59007353
0.9564951 0.87218137 0.57535233
0.98247549 0.84644608 0.54387255
0.59117647 0.86029412 0.66519608
0.60059743 0.86421569 0.66927849
0.62207414 0.86029412 0.66992953
0.64473805 0.85637255 0.66715686
0.68235294 0.85882353 0.66813725
0.74509804 0.87421875 0.67580423
0.82575061 0.89992341 0.67103248
0.91911765 0.92300092 0.67778033
0.98529412 0.94558824 0.68137255
0.74215686 0.94509804 0.78137255
0.74362745 0.94491422 0.77892157
0.75257353 0.94117647 0.77892157
0.77107843 0.94417892 0.78584559
0.78970588 0.93872549 0.78308824
0.8158701 0.93835784 0.7783701
0.86433824 0.95686275 0.79178922
0.91421569 0.97401961 0.79822304
0.9622549 0.98186275 0.79607843
0 0.050980392 0.54313725
0.027205882 0.080147059 0.53921569
0.23284314 0.084313725 0.54313725
0.4122549 0.11862745 0.54313725
0.56372549 0.14705882 0.54509804
0.70465686 0.17156863 0.54632353
0.83137255 0.2254902 0.54362745
0.94803922 0.26789216 0.54117647
0.99215686 0.33529412 0.55294118
0.0039215686 0.13970588 0.55073529
0.042156863 0.14292279 0.55067402
0.2622549 0.1689951 0.55441176
0.43259804 0.1997549 0.55661765
0.57794118 0.2254902 0.55355392
0.71029412 0.25401348 0.55269608
0.83854167 0.29240196 0.55318627
0.95321691 0.32696078 0.55686275
1 0.35980392 0.55490196
0.014705882 0.27009804 0.57647059
0.055392157 0.27040441 0.57941176
0.28823529 0.29742647 0.58039216
0.45882353 0.3247549 0.57254902
0.59313725 0.35514706 0.56789216
0.71176471 0.3689951 0.56458333
0.84117647 0.38492647 0.55490196
0.95814951 0.40949755 0.56317402
0.99803922 0.41568627 0.54705882
0.019117647 0.41862745 0.5745098
0.02411152 0.41544118 0.58431373
0.27156863 0.43517157 0.59215686
0.45343137 0.46323529 0.59001225
0.60428922 0.49154412 0.58553922
0.72941176 0.49215686 0.57591912
0.846875 0.49558824 0.57150735
0.95612745 0.50922181 0.56813725
0.99681373 0.55637255 0.58431373
0.15882353 0.5745098 0.57843137
0.24007353 0.57953431 0.58639706
0.36053922 0.57965686 0.58872549
0.48235294 0.58492647 0.6
0.60392157 0.59558824 0.59215686
0.73137255 0.60428922 0.58909314
0.84705882 0.6002451 0.57058824
0.94166667 0.60833333 0.55686275
0.98333333 0.62352941 0.55784314
0.40196078 0.69142157 0.60612745
0.425 0.69249387 0.61387868
0.49068627 0.69656863 0.61985294
0.5549326 0.69656863 0.62696078
0.62647059 0.7004902 0.62377451
0.73529412 0.72653186 0.62181373
0.85539216 0.73970588 0.61096814
0.94108456 0.69966299 0.54065564
0.99019608 0.70294118 0.52401961
0.53284314 0.7872549 0.66127451
0.54191176 0.7872549 0.66470588
0.5685049 0.78529412 0.66470588
0.61047794 0.78529412 0.66758578
0.6504902 0.78210784 0.66323529
0.71703431 0.79656863 0.6622549
0.84215686 0.83823529 0.67365196
0.93431373 0.84068627 0.64607843
0.99215686 0.81617647 0.59705882
0.63137255 0.86985294 0.72867647
0.63893995 0.87156863 0.72647059
0.65827206 0.87156863 0.72659314
0.67843137 0.87166054 0.72018995
0.71470588 0.86397059 0.72279412
0.75922181 0.87726716 0.725
0.82947304 0.89607843 0.73112745
0.91862745 0.92300858 0.7424326
0.99338235 0.9495098 0.74681373
0.75490196 0.94117647 0.80980392
0.7627451 0.94509804 0.81151961
0.7627451 0.9377451 0.80441176
0.78088235 0.94117647 0.80906863
0.8 0.93823529 0.80784314
0.83676471 0.94901961 0.82230392
0.86764706 0.95147059 0.81568627
0.9129902 0.95441176 0.79632353
0.94509804 0.97254902 0.82156863
0.0014705882 0.091666667 0.68039216
0.089583333 0.094301471 0.68431373
0.30404412 0.1127451 0.68578431
0.47254902 0.16960784 0.6848652
0.60539216 0.2120098 0.68112745
0.72015931 0.2504902 0.67555147
0.82463235 0.29656863 0.67254902
0.93333333 0.35637255 0.68039216
0.98039216 0.39362745 0.68284314
0.017708333 0.1504902 0.68823529
0.14834559 0.1662837 0.6877451
0.32843137 0.19085478 0.69312194
0.47782629 0.22205882 0.69215686
0.60931373 0.26749387 0.68823529
0.72714461 0.30900735 0.68431373
0.82847733 0.33604473 0.67616422
0.93645833 0.38331036 0.68431373
0.99166667 0.44656863 0.69558824
0.10183824 0.28566176 0.7
0.19696691 0.29404105 0.69967831
0.34494485 0.31047794 0.69889706
0.48555453 0.3348652 0.69607843
0.62107843 0.37689951 0.69454657
0.73284314 0.39607843 0.69607843
0.83039216 0.42659314 0.68743873
0.93123468 0.45454963 0.68439032
0.99607843 0.50294118 0.6942402
0.011764706 0.41133578 0.70091912
0.073973652 0.4131204 0.70484069
0.32573529 0.44033395 0.70637255
0.48278186 0.46323529 0.70300245
0.62408088 0.49877451 0.70199142
0.72745098 0.51472886 0.69761029
0.8272212 0.53098958 0.69594056
0.92941176 0.54411765 0.69460784
0.99362745 0.58284314 0.70784314
0.031372549 0.56004902 0.68946078
0.12867647 0.55744485 0.69623162
0.29803922 0.55735294 0.69791667
0.46620711 0.57723652 0.70245098
0.60723039 0.59828431 0.70281863
0.73137255 0.62153799 0.7083027
0.83823529 0.63088235 0.70710784
0.93367034 0.63921569 0.70784314
0.96862745 0.65514706 0.70588235
0.33676471 0.68976716 0.69944853
0.37285539 0.69326746 0.70245098
0.44411765 0.69215686 0.70683211
0.52367494 0.69644608 0.70880055
0.63946078 0.70318627 0.7151348
0.7437117 0.73137255 0.72598039
0.84538909 0.73751532 0.72352941
0.93425245 0.73001685 0.70772825
0.97401961 0.73290441 0.70398284
0.54938725 0.80110294 0.73039216
0.5439951 0.79509804 0.73534007
0.59362745 0.79911152 0.73918505
0.6368413 0.79993873 0.74154412
0.68186275 0.80140931 0.73933824
0.75121017 0.81058517 0.74241728
0.8426777 0.83431373 0.75456495
0.93123468 0.83088235 0.72936581
0.99791667 0.80208333 0.66752451
0.66488971 0.87726716 0.7846201
0.67195159 0.87941176 0.7845818
0.69486826 0.87959559 0.79299939
0.71911765 0.88118873 0.78823529
0.74558824 0.88118873 0.7841299
0.78852635 0.88491881 0.78560049
0.83583027 0.89554228 0.78909314
0.92254902 0.92303922 0.8004902
0.97598039 0.94558824 0.81550245
0.78676471 0.94901961 0.85245098
0.78792892 0.9504902 0.85
0.80355392 0.95477941 0.85637255
0.8098652 0.94803922 0.85055147
0.82303922 0.9497549 0.85
0.84852941 0.95055147 0.85245098
0.87941176 0.95539216 0.85784314
0.92040441 0.96127451 0.85508578
0.95833333 0.96470588 0.85245098
0.24901961 0.13529412 0.8
0.29620098 0.13186275 0.80686275
0.41176471 0.15808824 0.80294118
0.52610294 0.18933824 0.80294118
0.64901961 0.26666667 0.79901961
0.75833333 0.33039216 0.79509804
0.84705882 0.37254902 0.79117647
0.93958333 0.41421569 0.79215686
0.98137255 0.44509804 0.79117647
0.25355392 0.19754902 0.80686275
0.31973039 0.21101409 0.80784314
0.42408088 0.23416054 0.81078431
0.53423713 0.261106 0.81041667
0.65422794 0.31458333 0.80275735
0.76047794 0.36885723 0.79901961
0.85490196 0.40245098 0.79987745
0.93049939 0.44166667 0.79204963
0.99227941 0.50343137 0.79901961
0.26568627 0.30416667 0.80686275
0.33131127 0.32218137 0.80658701
0.42254902 0.3375 0.81078431
0.54056373 0.36421569 0.80710784
0.65588235 0.40343137 0.80686275
0.7622549 0.44273897 0.79901961
0.84705882 0.47181373 0.79209559
0.92254902 0.49791667 0.79053309
0.99019608 0.5627451 0.80294118
0.15539216 0.41580882 0.80502451
0.28785233 0.43541667 0.80686275
0.40441176 0.45 0.81078431
0.53272059 0.47213542 0.80761336
0.64926471 0.50349265 0.80349265
0.75833333 0.54405637 0.79901961
0.84298407 0.56911765 0.80294118
0.92518382 0.58373162 0.8037837
0.97794118 0.61654412 0.80294118
0.032352941 0.54068627 0.79901961
0.068443627 0.5377451 0.79901961
0.29963235 0.54779412 0.80110294
0.47346814 0.57303922 0.80294118
0.62279412 0.60098039 0.80294118
0.75226716 0.63186275 0.80686275
0.84289216 0.65833333 0.80686275
0.91954657 0.67401961 0.81029412
0.98039216 0.68921569 0.80980392
0.24313725 0.68333333 0.79509804
0.28276654 0.68480392 0.79473039
0.37637868 0.67613358 0.79901961
0.47587316 0.67895221 0.80294118
0.59319853 0.68927696 0.80422794
0.7381587 0.72182904 0.81078431
0.84304534 0.74583333 0.81663603
0.92254902 0.75464154 0.81470588
0.99178922 0.76470588 0.81580882
0.46764706 0.80294118 0.80294118
0.48606005 0.80392157 0.80750613
0.54313725 0.79901961 0.81397059
0.5981924 0.80294118 0.81078431
0.68161765 0.80220588 0.8189951
0.76078431 0.81188725 0.82208946
0.85098039 0.83529412 0.83357843
0.92748162 0.83210784 0.82254902
0.98382353 0.83431373 0.81544118
0.68247549 0.89117647 0.83419118
0.67843137 0.89117647 0.84198836
0.70150123 0.89129902 0.84181985
0.73226103 0.89117647 0.84073223
0.77408088 0.89252451 0.84515931
0.81960784 0.89509804 0.85520833
0.86510417 0.90315564 0.85735294
0.93474265 0.92694547 0.86948529
0.98737745 0.91960784 0.85147059
0.78921569 0.95294118 0.88431373
0.78713235 0.94852941 0.88284314
0.80392157 0.95294118 0.88431373
0.82598039 0.9557598 0.89007353
0.83235294 0.94656863 0.88284314
0.87095588 0.9557598 0.8939951
0.88823529 0.95 0.88529412
0.93039216 0.96556373 0.89607843
0.9872549 0.96176471 0.88431373
0.42205882 0.2377451 0.90343137
0.45202206 0.22990196 0.9033701
0.51629902 0.25502451 0.8995098
0.60882353 0.28596814 0.903125
0.70882353 0.35882353 0.89166667
0.80098039 0.40802696 0.89166667
0.87794118 0.48296569 0.89166667
0.94699755 0.52009804 0.88382353
0.99215686 0.52794118 0.87990196
0.42555147 0.27892157 0.90343137
0.46452972 0.30196844 0.90343137
0.52536765 0.29972426 0.90675551
0.6122549 0.33480392 0.8995098
0.70882353 0.38357843 0.89534314
0.79705882 0.45087316 0.89295343
0.88088235 0.51698836 0.89166667
0.94656863 0.54570312 0.8877451
0.99215686 0.55778186 0.89117647
0.4442402 0.37107843 0.90686275
0.46764706 0.37463235 0.90686275
0.52806373 0.39142157 0.90340074
0.60968137 0.41666667 0.8995098
0.7057598 0.44368873 0.89558824
0.79705882 0.50833333 0.89166667
0.87401961 0.56216299 0.89166667
0.93803615 0.59221814 0.8877451
0.98431373 0.60821078 0.89117647
0.39362745 0.46764706 0.90294118
0.43952206 0.48265931 0.90079657
0.49577206 0.48676471 0.8995098
0.60226716 0.51488971 0.89774816
0.69705882 0.53587623 0.89509804
0.79479933 0.57408854 0.89558824
0.87280944 0.62320772 0.89166667
0.93431373 0.65294118 0.88817402
0.99215686 0.66078431 0.89166667
0.25098039 0.55 0.8995098
0.29518995 0.56936275 0.89558824
0.4314951 0.56758578 0.89926471
0.5504902 0.59010417 0.89558824
0.67769608 0.62034314 0.89558824
0.78342525 0.65186887 0.89558824
0.86501225 0.69166667 0.89295343
0.93039216 0.7166973 0.88771446
0.98602941 0.72598039 0.88946078
0.15257353 0.65833333 0.89166667
0.24852941 0.66599265 0.89170496
0.3350337 0.66470588 0.89220282
0.48137255 0.67352941 0.89296109
0.62833946 0.69528186 0.89558824
0.75164675 0.72647059 0.89558824
0.85994179 0.76335784 0.89558824
0.92657782 0.78812806 0.89482996
0.97647059 0.79166667 0.88903186
0.40992647 0.79901961 0.89166667
0.45255821 0.79607843 0.8877451
0.48848039 0.7989277 0.89255515
0.55200674 0.79594056 0.8877451
0.63480392 0.79191176 0.89252451
0.71685049 0.79652267 0.89509804
0.84436275 0.83538603 0.90101103
0.91864277 0.85321691 0.90306373
0.96617647 0.85821078 0.90306373
0.62248775 0.89901961 0.89944853
0.62162224 0.89901961 0.89558824
0.6528799 0.89252451 0.89558824
0.69283088 0.89466912 0.89901961
0.75441176 0.8955576 0.90735294
0.79654565 0.89509804 0.90863971
0.86862745 0.9064951 0.91605392
0.934375 0.91825214 0.91905637
0.98339461 0.91911765 0.91911765
0.78382353 0.96078431 0.92598039
0.76807598 0.95294118 0.92205882
0.81286765 0.96384804 0.92598039
0.80606618 0.95343137 0.92254902
0.85343137 0.96495098 0.93014706
0.86795343 0.95735294 0.93039216
0.90784314 0.96470588 0.93786765
0.94215686 0.96519608 0.9377451
0.98039216 0.97990196 0.94901961
0.58039216 0.38431373 0.98039216
0.58823529 0.38823529 0.97647059
0.63333333 0.4 0.97647059
0.69509804 0.43235294 0.97647059
0.76078431 0.47843137 0.97254902
0.84362745 0.53235294 0.97254902
0.9 0.59019608 0.96078431
0.95784314 0.65588235 0.95735294
0.98039216 0.67058824 0.95294118
0.57647059 0.40686275 0.98039216
0.59901961 0.4151348 0.98082108
0.63284314 0.42512255 0.97610294
0.69491422 0.45294118 0.97647059
0.76887255 0.4995098 0.97843137
0.83970588 0.54754902 0.96862745
0.90257353 0.59215686 0.95539216
0.96127451 0.67107843 0.96078431
0.99558824 0.68921569 0.96029412
0.57352941 0.46470588 0.98137255
0.58382353 0.46813725 0.97254902
0.62745098 0.47916667 0.9745098
0.70085784 0.51605392 0.98223039
0.76470588 0.54068627 0.97058824
0.83823529 0.58872549 0.96507353
0.90294118 0.64387255 0.96470588
0.95343137 0.69227941 0.96421569
0.98529412 0.70882353 0.95686275
0.5504902 0.54460784 0.97647059
0.58265931 0.55343137 0.98039216
0.59938725 0.54718137 0.96397059
0.68180147 0.57352941 0.97401961
0.76519608 0.60735294 0.97696078
0.82009804 0.62107843 0.94656863
0.89607843 0.68860294 0.96470588
0.9495098 0.72432598 0.95539216
0.99068627 0.75 0.96078431
0.50784314 0.60784314 0.98039216
0.52083333 0.61936275 0.97843137
0.58823529 0.62892157 0.97990196
0.65637255 0.64166667 0.97254902
0.7372549 0.66078431 0.96372549
0.81593137 0.68897059 0.95931373
0.89166667 0.73627451 0.96617647
0.94583333 0.7752451 0.95906863
0.9745098 0.78235294 0.95098039
0.34264706 0.67107843 0.97892157
0.40765931 0.68106618 0.98167892
0.45392157 0.68431373 0.96862745
0.58823529 0.70343137 0.97408088
0.69264706 0.72132353 0.95955882
0.80147059 0.75735294 0.97101716
0.88039216 0.78884804 0.96801471
0.94411765 0.825 0.96452206
0.9622549 0.81715686 0.93970588
0.46078431 0.79901961 0.97254902
0.47757353 0.79607843 0.97254902
0.49117647 0.79240196 0.94681373
0.5622549 0.79031863 0.9495098
0.62254902 0.78431373 0.95882353
0.74117647 0.81127451 0.96078431
0.85686275 0.84509804 0.96004902
0.9377451 0.87254902 0.96911765
0.97156863 0.86862745 0.93823529
0.61813725 0.89117647 0.96470588
0.64117647 0.8995098 0.96427696
0.66286765 0.8995098 0.96776961
0.69246324 0.896875 0.96648284
0.73333333 0.89926471 0.96348039
0.78854167 0.8995098 0.96862745
0.84644608 0.90294118 0.97634804
0.93339461 0.91911765 0.96384804
0.98088235 0.94215686 0.97696078
0.78039216 0.97647059 0.97647059
0.77254902 0.97205882 0.97254902
0.7754902 0.96862745 0.96470588
0.81176471 0.97401961 0.97794118
0.82941176 0.95490196 0.94509804
0.86176471 0.97009804 0.97401961
0.90392157 0.96862745 0.95980392
0.94558824 0.95637255 0.95294118
0.98039216 0.94901961 0.97254902
