site/assets/luts/sha256-b6aebc38c460f5cca4231196cc7e4b5eab9369f0c3af1d152cbe1e90bad5fc40.cube
# LUTr-Schema-Version: 2
# LUTr-ID: sha256-b6aebc38c460f5cca4231196cc7e4b5eab9369f0c3af1d152cbe1e90bad5fc40
# LUTr-Title: polaroid 669 +
# LUTr-Collection: Natron HaldCLUT
# LUTr-Collection-ID: natron-haldclut-presets
# LUTr-Source: https://github.com/NatronGitHub/clut
# LUTr-Retrieved: 2026-07-27
# LUTr-Source-File: submissions/natron-haldclut-presets/instant_pro/polaroid_669_+.png
# LUTr-Source-Format: HALD-PNG
# LUTr-Source-SHA256: b6aebc38c460f5cca4231196cc7e4b5eab9369f0c3af1d152cbe1e90bad5fc40
# LUTr-License: CC-BY-SA-4.0
# LUTr-License-URL: https://github.com/NatronGitHub/clut#license
# LUTr-License-Basis: repo-license-file
# LUTr-Transform-Class: film-emulation
# LUTr-Tags: creative, film, film-emulation, hald-clut, natron, png, cube
# LUTr-Input-Color-Space: srgb
# LUTr-Input-Gamut: rec709
# LUTr-Input-Transfer: srgb
# LUTr-Output-Color-Space: srgb
# LUTr-Output-Gamut: rec709
# LUTr-Output-Transfer: srgb
# LUTr-Color-Space-Confidence: assumed-display-referred
# LUTr-Domain-Normalized: true
# LUTr-Shaper: none
# LUTr-Original-Grid: 64x64x64
# LUTr-Conversion-Grid: 25x25x25
# LUTr-Conversion-Interpolation: trilinear
# LUTr-Conversion-Method: HALD-PNG LUT image decoded at 16-bit and sampled to 25x25x25 3D CUBE
# LUTr-Conversion-Tool: LUTr scripts/convert-all-to-cube.mjs 2.0.0
# LUTr-Conversion-Date: 2026-07-27
# LUTr-Note: Preserve this metadata and the upstream license notices when redistributing.
TITLE "polaroid 669 +"
LUT_3D_SIZE 9
DOMAIN_MIN 0 0 0
DOMAIN_MAX 1 1 1
0 0.18823529 0.17647059
0 0.19215686 0.18039216
0.083333333 0.20490196 0.19705882
0.19019608 0.20392157 0.19852941
0.31568627 0.21176471 0.21372549
0.46617647 0.21568627 0.23284314
0.60784314 0.22058824 0.25980392
0.73921569 0.23137255 0.28284314
0.8627451 0.2627451 0.30588235
0 0.21911765 0.19558824
0.010355392 0.22254902 0.19908088
0.10894608 0.22352941 0.20735294
0.22107843 0.22696078 0.21176471
0.34852941 0.22916667 0.23504902
0.4872549 0.23480392 0.24264706
0.62009804 0.23578431 0.25980392
0.75098039 0.25490196 0.29019608
0.8372549 0.28137255 0.31372549
0.0098039216 0.25392157 0.21470588
0.023897059 0.25637255 0.21470588
0.14019608 0.26470588 0.21936275
0.25772059 0.26862745 0.23394608
0.39901961 0.27647059 0.25
0.5314951 0.28541667 0.26323529
0.65220588 0.29681373 0.28235294
0.77046569 0.31911765 0.30931373
0.87352941 0.35784314 0.34705882
0.071568627 0.31862745 0.24803922
0.098039216 0.32107843 0.24558824
0.18664216 0.32254902 0.24497549
0.29068627 0.33376225 0.25735294
0.41838235 0.34215686 0.26666667
0.55098039 0.35692402 0.27990196
0.68627451 0.38933824 0.31997549
0.78841912 0.42205882 0.34803922
0.87843137 0.44901961 0.38529412
0.14509804 0.39803922 0.28039216
0.16421569 0.39411765 0.26862745
0.22892157 0.39558824 0.27254902
0.32156863 0.40514706 0.28039216
0.43333333 0.42254902 0.28431373
0.55882353 0.4379902 0.29877451
0.68431373 0.47647059 0.33235294
0.79583333 0.52058824 0.37156863
0.88823529 0.56862745 0.44117647
0.21715686 0.49215686 0.30343137
0.23253676 0.49246324 0.30343137
0.2754902 0.48713235 0.30404412
0.34607843 0.49313725 0.30496324
0.43995098 0.50833333 0.30343137
0.55490196 0.53137255 0.31127451
0.66237745 0.55833333 0.32401961
0.77696078 0.60539216 0.371875
0.87303922 0.66960784 0.48088235
0.26862745 0.61568627 0.33529412
0.28688725 0.61323529 0.33958333
0.3245098 0.60196078 0.33529412
0.38235294 0.60098039 0.33529412
0.46176471 0.61862745 0.33921569
0.55735294 0.64522059 0.34742647
0.65416667 0.67156863 0.34705882
0.75747549 0.70196078 0.38529412
0.86078431 0.75 0.45588235
0.32647059 0.77107843 0.40098039
0.35484069 0.76715686 0.41819853
0.36911765 0.75931373 0.39375
0.41862745 0.75539216 0.39705882
0.48872549 0.76519608 0.3995098
0.57334559 0.78431373 0.41844363
0.6622549 0.80686275 0.425
0.75925245 0.81770833 0.44613971
0.84362745 0.8377451 0.47303922
0.47058824 0.9372549 0.60392157
0.46617647 0.92107843 0.58431373
0.48921569 0.9245098 0.59117647
0.52254902 0.92009804 0.58921569
0.5745098 0.92156863 0.59215686
0.63970588 0.91519608 0.58480392
0.73823529 0.94313725 0.64705882
0.8127451 0.9372549 0.65931373
0.90980392 0.97254902 0.76078431
0 0.19558824 0.19901961
0 0.19607843 0.20343137
0.070465686 0.20392157 0.21421569
0.20165441 0.21568627 0.23069853
0.3252451 0.21960784 0.24460784
0.46617647 0.21960784 0.25833333
0.60870098 0.21960784 0.27794118
0.73921569 0.23186275 0.29803922
0.8622549 0.2627451 0.325
0.01127451 0.22303922 0.22205882
0.011757047 0.21911765 0.22254902
0.10147059 0.22610294 0.23039216
0.22469363 0.23088235 0.23823529
0.34583333 0.23088235 0.2497549
0.49090839 0.23872549 0.26979167
0.62663909 0.24226409 0.28541667
0.75441176 0.2622549 0.30980392
0.86568627 0.29356618 0.34019608
0.025980392 0.26433824 0.24166667
0.037086397 0.26421569 0.24166667
0.14705882 0.26862745 0.2502451
0.2676011 0.27633272 0.25602022
0.40612745 0.28082108 0.2754902
0.54117647 0.28662684 0.28909314
0.65741422 0.29923407 0.30539216
0.77659314 0.31997549 0.3290288
0.87058824 0.35490196 0.36715686
0.082843137 0.32990196 0.26862745
0.12395833 0.3286152 0.26862745
0.19388787 0.33253676 0.27254902
0.30274203 0.3414905 0.27909773
0.43743873 0.35294118 0.2885723
0.57040441 0.36842831 0.31078431
0.69264706 0.39448529 0.34019608
0.79362745 0.42990196 0.37510723
0.88284314 0.45655637 0.40441176
0.15637255 0.40980392 0.2995098
0.18354779 0.40931373 0.2995098
0.24607843 0.41109069 0.30330882
0.32662377 0.41862745 0.30343137
0.44681373 0.43210784 0.29583333
0.56446078 0.44469975 0.3127451
0.69215686 0.48406863 0.35392157
0.80885417 0.54319853 0.41593137
0.8997549 0.58210784 0.46985294
0.22990196 0.51127451 0.33039216
0.24150582 0.5098269 0.33039216
0.28579963 0.50431985 0.33002451
0.35539216 0.50519301 0.32647059
0.44770221 0.51969975 0.32647059
0.55723805 0.54001991 0.33039216
0.66790748 0.56580882 0.34901961
0.7838848 0.61666667 0.40098039
0.87696078 0.68088235 0.50343137
0.28039216 0.63578431 0.36997549
0.29558824 0.63481924 0.36606924
0.32815564 0.62046569 0.35695466
0.38627451 0.61230086 0.35735294
0.46372549 0.62898284 0.35833333
0.55735294 0.65298713 0.36888787
0.65490196 0.6747549 0.37012868
0.7551011 0.70185355 0.39607843
0.85882353 0.75453431 0.47696078
0.33431373 0.77800245 0.4245098
0.35054381 0.77408088 0.42898284
0.37561275 0.77058824 0.42103248
0.42473192 0.76454504 0.42040441
0.48872549 0.76911765 0.42058824
0.57228094 0.78821232 0.4281633
0.6622549 0.8067402 0.44166667
0.76618413 0.82630208 0.47223499
0.85539216 0.84160539 0.48872549
0.45735294 0.91617647 0.59411765
0.4627451 0.91372549 0.58817402
0.48627451 0.91948529 0.59362745
0.51452206 0.91207108 0.58609069
0.575 0.92818627 0.60637255
0.65422794 0.93786765 0.63198529
0.7245098 0.92254902 0.6254902
0.82408088 0.94852941 0.68627451
0.86715686 0.95343137 0.71421569
0 0.20294118 0.24117647
0 0.20379902 0.24117647
0.06495098 0.21397059 0.25612745
0.19901961 0.21960784 0.27205882
0.34166667 0.22647059 0.29901961
0.48872549 0.22745098 0.31213235
0.62671569 0.2120098 0.32132353
0.74963235 0.23578431 0.34754902
0.86470588 0.26666667 0.3745098
0.0088235294 0.23088235 0.26421569
0.01171875 0.23000919 0.26732537
0.0921875 0.23455882 0.27598039
0.23445159 0.24232537 0.29411765
0.36936275 0.24656863 0.31145833
0.5067402 0.24227941 0.32049632
0.63878676 0.24071691 0.33492647
0.75801164 0.25833333 0.35265012
0.85796569 0.28921569 0.38578431
0.015931373 0.27254902 0.29117647
0.029289216 0.27328431 0.29090074
0.15655637 0.2754902 0.30042892
0.28198529 0.2872549 0.32037377
0.41691176 0.29191176 0.3372549
0.54828431 0.29546569 0.34938725
0.6689951 0.30294118 0.35863971
0.7747549 0.32300858 0.38186275
0.87058824 0.35098039 0.40882353
0.084313725 0.35539216 0.325
0.12745098 0.35183824 0.32892157
0.21372549 0.35183824 0.33284314
0.32107843 0.35631127 0.33722426
0.4502451 0.36593137 0.34803922
0.58249081 0.38284314 0.37806373
0.69375 0.40294118 0.39546569
0.79607843 0.42990196 0.42535233
0.88088235 0.45833333 0.45392157
0.16323529 0.44313725 0.35441176
0.20814951 0.43976716 0.35980392
0.27622549 0.43541667 0.35723039
0.35416667 0.43357843 0.35294118
0.45784314 0.44656863 0.35784314
0.58057598 0.45857843 0.36783088
0.70232843 0.50539216 0.42254902
0.80716912 0.55490196 0.47665441
0.85784314 0.57941176 0.51078431
0.23578431 0.54791667 0.3877451
0.26380208 0.54362745 0.38676471
0.31351103 0.53658088 0.38746936
0.37149203 0.52149203 0.37892157
0.46078431 0.53946078 0.37598039
0.56781556 0.55928309 0.38405331
0.68063725 0.58259804 0.4015625
0.7823989 0.63468137 0.46024816
0.8564951 0.68382353 0.54080882
0.28823529 0.66470588 0.41446078
0.30582108 0.65395221 0.41176471
0.34093137 0.64534314 0.41004902
0.39129902 0.63431373 0.40686275
0.4689951 0.64571078 0.40698529
0.56127451 0.66642157 0.4122549
0.66158088 0.69056373 0.42371324
0.76139706 0.70958946 0.43348652
0.85661765 0.76176471 0.53235294
0.34644608 0.79411765 0.48186275
0.35392157 0.78949142 0.47832414
0.38023897 0.78284314 0.46387868
0.42905944 0.77794118 0.4696538
0.48823529 0.78014706 0.46151961
0.56960784 0.79589461 0.47149203
0.66617647 0.81498162 0.49473039
0.7627451 0.83382353 0.52086397
0.84007353 0.84889706 0.53970588
0.4627451 0.92156863 0.62647059
0.47009804 0.92058824 0.6254902
0.48578431 0.91519608 0.62009804
0.52365196 0.91875 0.62401961
0.56862745 0.91078431 0.61176471
0.65196078 0.93884804 0.66029412
0.73161765 0.93651961 0.66348039
0.81715686 0.94558824 0.69816176
0.87745098 0.96078431 0.74313725
0 0.21421569 0.30784314
0 0.21568627 0.31470588
0.051960784 0.22316176 0.33002451
0.22647059 0.23529412 0.35735294
0.37696078 0.24313725 0.38823529
0.51905637 0.25343137 0.4127451
0.65735294 0.25196078 0.43039216
0.77285539 0.24754902 0.44099265
0.84019608 0.23333333 0.43186275
0 0.2463848 0.33363971
0.0017769608 0.24264706 0.33600643
0.07723652 0.24598652 0.35098039
0.25343137 0.25979626 0.3787454
0.4010723 0.26332721 0.40343137
0.5372549 0.26862745 0.42185968
0.66862745 0.26654412 0.43711703
0.77996324 0.26121324 0.43854167
0.85294118 0.28823529 0.46096814
0 0.29460784 0.37071078
0.013480392 0.29754902 0.37463235
0.1502451 0.30520833 0.3932598
0.307644 0.31098346 0.41522672
0.4442402 0.31660539 0.43572304
0.56421569 0.31674326 0.44019608
0.68363971 0.30499387 0.43890931
0.78370098 0.32098652 0.45761336
0.86323529 0.34607843 0.4745098
0.028370098 0.38235294 0.42101716
0.12009038 0.38235294 0.42101716
0.23273591 0.38627451 0.43186275
0.35980392 0.38985141 0.44754902
0.47941176 0.4 0.46004902
0.59152114 0.40106464 0.47052696
0.69767157 0.41395527 0.4810049
0.79688266 0.42990196 0.49649969
0.88627451 0.46078431 0.52052696
0.15735294 0.48406863 0.4502451
0.21078431 0.48235294 0.45618873
0.28988971 0.48137255 0.46648284
0.38627451 0.48060662 0.46908701
0.4942402 0.4807598 0.46409314
0.60140931 0.4950674 0.47794118
0.70520833 0.52107843 0.50931373
0.8010723 0.55352328 0.54592525
0.87377451 0.58823529 0.58529412
0.23578431 0.59362745 0.48186275
0.27174479 0.59025735 0.4848652
0.3317402 0.58592218 0.48209252
0.39613971 0.56672794 0.47289369
0.48406863 0.56868873 0.47132353
0.58991268 0.59209559 0.48431373
0.69250919 0.61311275 0.49840686
0.78823529 0.66800705 0.5745098
0.86807598 0.71960784 0.65582108
0.29963235 0.69227941 0.5
0.31643689 0.69620098 0.50226716
0.35257353 0.69117647 0.5051777
0.40943627 0.68065257 0.50073529
0.47873775 0.67359069 0.49460784
0.56911765 0.69336703 0.50101103
0.66862745 0.70606618 0.50245098
0.76617647 0.73088235 0.52581189
0.85269608 0.7817402 0.62083333
0.36256127 0.81617647 0.56421569
0.36051624 0.81590839 0.55655637
0.38837316 0.8057598 0.55
0.4377451 0.80441176 0.55147825
0.48970588 0.79656863 0.53079044
0.56354167 0.80196078 0.53596814
0.66188725 0.82173713 0.55085784
0.76305147 0.8377451 0.57628676
0.8627451 0.85637255 0.603125
0.4745098 0.92941176 0.68333333
0.48235294 0.93511029 0.68743873
0.50343137 0.93578431 0.68517157
0.53278186 0.92941176 0.68033088
0.56911765 0.91421569 0.66029412
0.64215686 0.92941176 0.68327206
0.73051471 0.93933824 0.70968137
0.82058824 0.95116422 0.73223039
0.90343137 0.96617647 0.78578431
0 0.24901961 0.41960784
0 0.2372549 0.43504902
0.0073529412 0.24117647 0.44264706
0.2254902 0.25220588 0.48014706
0.41176471 0.26470588 0.51372549
0.54583333 0.28186275 0.53553922
0.68431373 0.32107843 0.58382353
0.79142157 0.34338235 0.60196078
0.88039216 0.36470588 0.61176471
0 0.26372549 0.43259804
0.0036764706 0.26764706 0.45416667
0.034497549 0.26409314 0.46697304
0.25137868 0.27720588 0.5
0.43676471 0.2877451 0.53296569
0.56421569 0.30554534 0.55269608
0.69405637 0.34595588 0.59246324
0.79534314 0.36838235 0.60759804
0.88235294 0.37965686 0.60759804
0 0.3254902 0.47696078
0.0068627451 0.32714461 0.48897059
0.083823529 0.32536765 0.5125
0.29908088 0.3372549 0.54626225
0.47156863 0.35612745 0.56813725
0.58504902 0.36715686 0.5783701
0.70330882 0.39509804 0.60490196
0.79754902 0.41188725 0.61305147
0.87941176 0.4254902 0.61911765
0 0.4120098 0.52401961
0.052696078 0.41323529 0.5252451
0.21372549 0.41685049 0.54264706
0.35315564 0.42696078 0.57545956
0.49460784 0.44632353 0.59987745
0.60591299 0.44803922 0.6004902
0.70882353 0.46366422 0.61378676
0.79623162 0.47950368 0.61960784
0.85686275 0.45098039 0.60245098
0.14313725 0.52058824 0.57254902
0.18125 0.52352941 0.57352941
0.28676471 0.52671569 0.58553922
0.40367647 0.5372549 0.60588235
0.51470588 0.54362745 0.61568627
0.61617647 0.55134804 0.63333333
0.70882353 0.55392157 0.63333333
0.79362745 0.58235294 0.65098039
0.86960784 0.58333333 0.65098039
0.22990196 0.6372549 0.60073529
0.26559436 0.64044118 0.6036152
0.33578431 0.63848039 0.60784314
0.42135417 0.63578431 0.61884191
0.51164216 0.63382353 0.6182598
0.60713848 0.64016544 0.62202819
0.7002451 0.65906863 0.63805147
0.78970588 0.70474877 0.69724265
0.84387255 0.70784314 0.70343137
0.30196078 0.74852941 0.62843137
0.32040441 0.7502451 0.62843137
0.36960784 0.74411765 0.62806373
0.43137255 0.73627451 0.62794118
0.49289216 0.71960784 0.61470588
0.578125 0.72420343 0.61053922
0.67267157 0.73529412 0.61593137
0.77303922 0.76433824 0.6502451
0.86029412 0.80931373 0.73137255
0.36029412 0.85098039 0.66568627
0.37405025 0.8504902 0.66418505
0.40153186 0.84270833 0.65808824
0.44960172 0.83480392 0.64917279
0.5122549 0.82352941 0.64803922
0.56020221 0.81617647 0.6239277
0.66838235 0.83553922 0.65091912
0.76617647 0.85269608 0.65983456
0.84191176 0.86029412 0.66470588
0.49215686 0.94117647 0.74313725
0.49828431 0.93946078 0.74338235
0.51519608 0.94313725 0.74313725
0.54117647 0.93946078 0.73553922
0.58431373 0.93431373 0.73529412
0.63578431 0.92426471 0.72303922
0.7245098 0.94313725 0.74607843
0.83014706 0.96176471 0.78161765
0.88627451 0.9627451 0.8
0 0.27205882 0.57990196
0 0.25814951 0.57120098
0.0050245098 0.26960784 0.60098039
0.1877451 0.28235294 0.63186275
0.42426471 0.29901961 0.66421569
0.58682598 0.33137255 0.69025735
0.68737745 0.36176471 0.70882353
0.79540441 0.43792892 0.74362745
0.87843137 0.50539216 0.75882353
0 0.30784314 0.6004902
0.0035922181 0.3000383 0.60655637
0.0050704657 0.29479167 0.62311581
0.22339154 0.29970895 0.64852941
0.44788603 0.32843137 0.68137255
0.60098039 0.35814951 0.70575214
0.7064951 0.39304534 0.72406556
0.79942555 0.47001379 0.74942555
0.87058824 0.53609069 0.77028186
0 0.36531863 0.62598039
0.003783701 0.36870404 0.63743873
0.024908088 0.3557598 0.64978554
0.26424632 0.35868566 0.67725184
0.47224265 0.39852941 0.70177696
0.61444547 0.43284314 0.7254902
0.71605392 0.47622549 0.74402574
0.79718137 0.53639706 0.76087623
0.86482843 0.57990196 0.7754902
0.0039215686 0.46127451 0.65686275
0.026478248 0.45735294 0.66078431
0.20056679 0.45381434 0.66908701
0.32935049 0.44501379 0.69160539
0.49610907 0.48529412 0.72129289
0.62064951 0.5221201 0.74070925
0.7131587 0.56499694 0.76081495
0.79313725 0.60207567 0.77627145
0.86507353 0.6122549 0.77990196
0.042401961 0.55833333 0.68088235
0.10514706 0.56004902 0.68465074
0.24932598 0.5622549 0.69093137
0.37622549 0.56197917 0.70171569
0.51004902 0.58835784 0.73394608
0.62647059 0.6198223 0.76127451
0.70490196 0.63676471 0.76697304
0.78792892 0.65661765 0.77107843
0.86666667 0.64387255 0.7622549
0.21519608 0.67254902 0.72107843
0.28320313 0.67254902 0.72089461
0.32213542 0.67647059 0.72261029
0.41819853 0.67794118 0.7283701
0.51838235 0.69270833 0.74901961
0.61883425 0.70726869 0.76519608
0.70821078 0.72496936 0.77757353
0.78921569 0.72254902 0.77285539
0.83382353 0.71176471 0.77303922
0.33468137 0.78088235 0.74166667
0.35526961 0.78480392 0.74166667
0.39473039 0.78480392 0.74641544
0.4618413 0.78688725 0.74987745
0.52867647 0.78590686 0.75735294
0.60528493 0.78137255 0.75882353
0.69362745 0.78501838 0.75165441
0.78065257 0.80476409 0.76960784
0.84411765 0.83333333 0.80539216
0.38284314 0.88137255 0.75765931
0.42352941 0.87395833 0.75829504
0.43541667 0.87610294 0.76176471
0.48879442 0.87341452 0.76531097
0.5359375 0.86553309 0.75784314
0.60226716 0.85692402 0.75490196
0.66864277 0.85453431 0.74607843
0.76764706 0.87303922 0.75751379
0.85324755 0.8872549 0.79050245
0.52843137 0.96078431 0.80931373
0.53841912 0.94920343 0.80294118
0.54852941 0.95 0.8057598
0.5783701 0.95386029 0.80631127
0.61470588 0.94656863 0.79656863
0.66323529 0.94901961 0.79901961
0.72990196 0.95539216 0.8
0.79411765 0.93118873 0.79197304
0.89705882 0.96617647 0.83039216
0 0.32254902 0.75490196
0 0.31568627 0.76176471
0.0046568627 0.30710784 0.77254902
0.10110294 0.31813725 0.78615196
0.43676471 0.3622549 0.80784314
0.61470588 0.39987745 0.82745098
0.71936275 0.45686275 0.83039216
0.80196078 0.5002451 0.8377451
0.8745098 0.60588235 0.84901961
0 0.35821078 0.76654412
0 0.35179228 0.77087929
0.0077205882 0.34353554 0.7830576
0.15943627 0.34505208 0.79594056
0.45147059 0.37383578 0.81666667
0.61897978 0.4403799 0.82254902
0.72941176 0.49518995 0.83030025
0.80099571 0.52988664 0.83860294
0.87058824 0.62242647 0.85208333
0 0.43039216 0.77279412
0.0068321078 0.42303922 0.78014706
0.0098651961 0.40465686 0.78743873
0.19172794 0.40637255 0.80392157
0.46960784 0.44509804 0.81470588
0.63333333 0.50683211 0.83296569
0.73253676 0.56666667 0.84197304
0.79803922 0.59120711 0.84163603
0.86666667 0.67058824 0.85661765
0.0029411765 0.51666667 0.7810049
0.043520221 0.51487439 0.78757659
0.17760417 0.50404412 0.79117647
0.33321078 0.49734988 0.81055453
0.49142157 0.52843137 0.821875
0.63394608 0.58909314 0.83933824
0.72843137 0.63872549 0.84509804
0.79339767 0.65801164 0.84509804
0.85637255 0.70845588 0.85404412
0.00049019608 0.6 0.78333333
0.04620098 0.5995098 0.77947304
0.23664216 0.6 0.78872549
0.37794118 0.6033701 0.79810049
0.50196078 0.61911765 0.82377451
0.62598039 0.66764706 0.8379902
0.72512255 0.71875 0.84865196
0.79577206 0.74405637 0.85588235
0.85294118 0.74411765 0.84901961
0.15710784 0.70490196 0.79558824
0.20543811 0.70935968 0.80396752
0.30453431 0.70551471 0.80343137
0.40637255 0.71127451 0.81127451
0.51317402 0.72181373 0.82408088
0.6310815 0.75196078 0.8372549
0.7254902 0.78161765 0.84874387
0.79796262 0.80061275 0.85228248
0.84901961 0.79203431 0.84509804
0.32941176 0.81568627 0.81862745
0.37521446 0.81176471 0.82230392
0.39705882 0.81568627 0.8254902
0.47230392 0.82144608 0.83152574
0.56041667 0.82352941 0.83529412
0.63609069 0.82334559 0.83679534
0.72622549 0.83921569 0.84509804
0.8013174 0.85833333 0.85321691
0.84509804 0.85955882 0.85294118
0.47855392 0.90294118 0.83762255
0.49620098 0.90782782 0.84422488
0.50208333 0.90125613 0.83737745
0.54906556 0.90022978 0.8372549
0.61433824 0.90784314 0.84571078
0.65588235 0.89918811 0.84117647
0.71470588 0.89292279 0.83419118
0.79970895 0.90010723 0.83736213
0.86862745 0.91911765 0.85257353
0.59901961 0.96176471 0.85196078
0.61029412 0.96862745 0.8567402
0.61764706 0.96176471 0.85196078
0.63210784 0.96164216 0.85196078
0.67058824 0.96176471 0.85196078
0.70931373 0.95968137 0.85257353
0.75980392 0.95784314 0.84730392
0.81764706 0.9495098 0.83762255
0.89411765 0.96862745 0.85980392
0.0039215686 0.40931373 0.86764706
0.0044117647 0.41323529 0.86770833
0.011764706 0.39754902 0.8745098
0.15441176 0.40686275 0.8846201
0.47622549 0.45318627 0.88897059
0.62726716 0.51488971 0.88939951
0.74852941 0.59473039 0.89460784
0.82892157 0.65392157 0.89761029
0.8627451 0.6877451 0.89460784
0.0039215686 0.44362745 0.86807598
0.009129902 0.44019608 0.86721814
0.021032475 0.42375919 0.87855392
0.24679075 0.42493873 0.88741575
0.47791054 0.46966912 0.89093137
0.63335631 0.54264706 0.88752298
0.75502451 0.62291667 0.89068627
0.825 0.67261029 0.89460784
0.86966912 0.70294118 0.89460784
0 0.50098039 0.87598039
0.021384804 0.49669118 0.87598039
0.092003676 0.48137255 0.88333333
0.31279105 0.48855699 0.88688725
0.50790441 0.52671569 0.89166667
0.64656863 0.59901961 0.88676471
0.75634191 0.67233456 0.89387255
0.82585784 0.70960478 0.89460784
0.86188725 0.72892157 0.89816176
0.153125 0.59313725 0.87518382
0.2062117 0.58921569 0.87722886
0.28435968 0.58431373 0.87290135
0.38291207 0.57401961 0.88203891
0.51822917 0.603125 0.8870098
0.64792433 0.66292126 0.88676471
0.7557598 0.72843137 0.89068627
0.825 0.75953585 0.8872549
0.86715686 0.7786152 0.89068627
0.14338235 0.67426471 0.85784314
0.24417892 0.67643995 0.86761642
0.33314951 0.67420343 0.86764706
0.42613358 0.67303922 0.87264093
0.53051471 0.68186275 0.88296569
0.64941789 0.7254902 0.88676471
0.75545343 0.78455882 0.89031863
0.82892157 0.81666667 0.89068627
0.86887255 0.82254902 0.89240196
0.20245098 0.75459559 0.85735294
0.23899357 0.7596201 0.86368719
0.32866115 0.75833333 0.86360294
0.42898284 0.7598652 0.86715686
0.53128064 0.76804534 0.87132353
0.64939491 0.79039522 0.88284314
0.75387561 0.83247549 0.88730086
0.82892157 0.86080729 0.89068627
0.87077206 0.86519608 0.89068627
0.36715686 0.84313725 0.87107843
0.38394608 0.85098039 0.87120098
0.41446078 0.8504902 0.87107843
0.4817402 0.84701287 0.87115502
0.55392157 0.85306373 0.875
0.65775123 0.86127451 0.88039216
0.76344975 0.88183211 0.88676471
0.84068627 0.90119485 0.89068627
0.875 0.90735294 0.89448529
0.51758578 0.9221201 0.87935049
0.51764706 0.92689951 0.87941176
0.54685968 0.91997549 0.87892157
0.58676471 0.92303922 0.87892157
0.65882353 0.92233456 0.88284314
0.71002604 0.92303922 0.88284314
0.78639706 0.92691483 0.88676471
0.8446155 0.93431373 0.89068627
0.8872549 0.93817402 0.89068627
0.67892157 0.97254902 0.88676471
0.68811275 0.97303922 0.88676471
0.68933824 0.9754902 0.88676471
0.7127451 0.97254902 0.88676471
0.75245098 0.97279412 0.89068627
0.76734069 0.96488971 0.88676471
0.81372549 0.96862745 0.88676471
0.84852941 0.97254902 0.88376225
0.90147059 0.97647059 0.89019608
0.19607843 0.54117647 0.93333333
0.22009804 0.53382353 0.93333333
0.29901961 0.52941176 0.93333333
0.425 0.55245098 0.92941176
0.54705882 0.56862745 0.91764706
0.67794118 0.65686275 0.92156863
0.77745098 0.72058824 0.92058824
0.84803922 0.77696078 0.91764706
0.88627451 0.81176471 0.91764706
0.2495098 0.56813725 0.93284314
0.27248775 0.56507353 0.93033088
0.34926471 0.56568627 0.93321078
0.44883578 0.57843137 0.92941176
0.56764706 0.61421569 0.925
0.67910539 0.67352941 0.91813725
0.77928922 0.7377451 0.91764706
0.85539216 0.79699755 0.91764706
0.87892157 0.80833333 0.91372549
0.31764706 0.62254902 0.9254902
0.34828431 0.62634804 0.9254902
0.39901961 0.62230392 0.92720588
0.47843137 0.62941176 0.92696078
0.57941176 0.65980392 0.92156863
0.68223039 0.70894608 0.91764706
0.77328431 0.73897059 0.91078431
0.84509804 0.80196078 0.91470588
0.88627451 0.83823529 0.91764706
0.40392157 0.71078431 0.91911765
0.41176471 0.70275735 0.91893382
0.45 0.70294118 0.92156863
0.5127451 0.70153186 0.92310049
0.59411765 0.71666667 0.92279412
0.68676471 0.7504902 0.91464461
0.78333333 0.8004902 0.91764706
0.85588235 0.846875 0.91764706
0.88529412 0.85245098 0.91372549
0.40980392 0.77647059 0.90980392
0.43112745 0.77647059 0.91176471
0.47107843 0.77205882 0.91176471
0.5245098 0.76666667 0.91176471
0.60294118 0.77352941 0.91666667
0.69068627 0.79754902 0.91372549
0.78088235 0.83627451 0.91372549
0.84019608 0.84730392 0.90416667
0.89411765 0.89019608 0.91764706
0.39901961 0.84754902 0.90980392
0.42726716 0.84068627 0.90618873
0.46078431 0.84215686 0.90980392
0.52254902 0.83878676 0.90980392
0.59460784 0.83357843 0.90833333
0.684375 0.84362745 0.90980392
0.77843137 0.8685049 0.91372549
0.85606618 0.89754902 0.91372549
0.87843137 0.90735294 0.91372549
0.47843137 0.9 0.90588235
0.48529412 0.90821078 0.90894608
0.5 0.89607843 0.90196078
0.54473039 0.89754902 0.90588235
0.59656863 0.88382353 0.90196078
0.6877451 0.88933824 0.90588235
0.78406863 0.90784314 0.90980392
0.85159314 0.91605392 0.90294118
0.87843137 0.91862745 0.90588235
0.60588235 0.94558824 0.90980392
0.60974265 0.95686275 0.90931373
0.60379902 0.94485294 0.90159314
0.65147059 0.95343137 0.90980392
0.6877451 0.94191176 0.90980392
0.73596814 0.94969363 0.91158088
0.80245098 0.94607843 0.91372549
0.86807598 0.95735294 0.91764706
0.8872549 0.94901961 0.90539216
0.74901961 0.99215686 0.91764706
0.73186275 0.98431373 0.91323529
0.7254902 0.98039216 0.90980392
0.77009804 0.98970588 0.91519608
0.78431373 0.98431373 0.91176471
0.80784314 0.97892157 0.90980392
0.84019608 0.97647059 0.90980392
0.88235294 0.98431373 0.91764706
0.89019608 0.96470588 0.90196078
