site/assets/luts/sha256-fd8ea766f4a2f27bd90979be3526afe2eb2f1f848dad45b3886f81b25ea50f42.cube
# LUTr-Schema-Version: 2
# LUTr-ID: sha256-fd8ea766f4a2f27bd90979be3526afe2eb2f1f848dad45b3886f81b25ea50f42
# LUTr-Title: kodak portra 800 -
# LUTr-Collection: Natron HaldCLUT
# LUTr-Collection-ID: natron-haldclut-presets
# LUTr-Source: https://github.com/NatronGitHub/clut
# LUTr-Retrieved: 2026-07-27
# LUTr-Source-File: submissions/natron-haldclut-presets/negative_new/kodak_portra_800_-.png
# LUTr-Source-Format: HALD-PNG
# LUTr-Source-SHA256: fd8ea766f4a2f27bd90979be3526afe2eb2f1f848dad45b3886f81b25ea50f42
# LUTr-License: CC-BY-SA-4.0
# LUTr-License-URL: https://github.com/NatronGitHub/clut#license
# LUTr-License-Basis: repo-license-file
# LUTr-Transform-Class: film-emulation
# LUTr-Tags: creative, film, film-emulation, hald-clut, natron, png, cube
# LUTr-Input-Color-Space: srgb
# LUTr-Input-Gamut: rec709
# LUTr-Input-Transfer: srgb
# LUTr-Output-Color-Space: srgb
# LUTr-Output-Gamut: rec709
# LUTr-Output-Transfer: srgb
# LUTr-Color-Space-Confidence: assumed-display-referred
# LUTr-Domain-Normalized: true
# LUTr-Shaper: none
# LUTr-Original-Grid: 64x64x64
# LUTr-Conversion-Grid: 25x25x25
# LUTr-Conversion-Interpolation: trilinear
# LUTr-Conversion-Method: HALD-PNG LUT image decoded at 16-bit and sampled to 25x25x25 3D CUBE
# LUTr-Conversion-Tool: LUTr scripts/convert-all-to-cube.mjs 2.0.0
# LUTr-Conversion-Date: 2026-07-27
# LUTr-Note: Preserve this metadata and the upstream license notices when redistributing.
TITLE "kodak portra 800 -"
LUT_3D_SIZE 9
DOMAIN_MIN 0 0 0
DOMAIN_MAX 1 1 1
0.019607843 0.050980392 0.039215686
0.1004902 0.0049019608 0.016176471
0.25098039 0.0049019608 0.0049019608
0.44607843 0 0.0078431373
0.62745098 0 0.0078431373
0.77598039 0 0
0.91764706 0.0039215686 0
0.97696078 0.015686275 0
1 0.090196078 0
0.011764706 0.096568627 0.039215686
0.081372549 0.10392157 0.019178922
0.2442402 0.11482843 0.019607843
0.43302696 0.088909314 0.0017769608
0.62009804 0.034068627 0.0039215686
0.77990196 0.025490196 0.0037377451
0.91764706 0.041176471 0
0.98872549 0.10441176 0.0039215686
1 0.18676471 0
0.0039215686 0.20294118 0.038235294
0.0037990196 0.20870098 0.024142157
0.21176471 0.24534314 0.010784314
0.41862745 0.26078431 0.0078431373
0.59460784 0.25490196 0.006372549
0.77732843 0.25723039 0
0.89901961 0.27254902 0.0041666667
0.98872549 0.29362745 0.0039215686
1 0.30490196 0
0.0039215686 0.33529412 0.066666667
0.0056985294 0.34313725 0.053921569
0.087867647 0.35833333 0.032352941
0.33829657 0.39019608 0.0053921569
0.57916667 0.42401961 0.00073529412
0.73823529 0.42101716 0.0039215686
0.87561275 0.43468137 0.0039215686
0.9877451 0.44540441 0.0012867647
1 0.45539216 0
0 0.45882353 0.096078431
0 0.46078431 0.10759804
0.0029411765 0.45735294 0.071568627
0.24436275 0.48995098 0.019362745
0.49803922 0.53627451 0.0039215686
0.68970588 0.55759804 0.0012254902
0.83382353 0.57892157 0
0.96421569 0.58651961 0
0.99607843 0.59215686 0
0 0.57058824 0.12941176
0 0.56930147 0.13872549
0 0.5627451 0.12843137
0.17653186 0.57941176 0.084252451
0.41078431 0.61544118 0.030147059
0.61672794 0.65931373 0.0039215686
0.79840686 0.69166667 0
0.9372549 0.70655637 0
0.99607843 0.71421569 0
0.0088235294 0.69411765 0.19509804
0 0.69019608 0.19019608
0 0.68627451 0.18137255
0.16678922 0.68627451 0.15747549
0.38431373 0.71078431 0.095588235
0.56176471 0.7377451 0.0125
0.7497549 0.77647059 0.0039215686
0.91727941 0.81470588 0
1 0.82254902 0
0.011764706 0.82598039 0.27990196
0 0.81813725 0.25729167
0.065318627 0.81421569 0.2564951
0.26341912 0.81372549 0.24509804
0.40857843 0.82352941 0.22181373
0.56881127 0.84264706 0.18284314
0.72107843 0.86470588 0.080514706
0.86470588 0.88817402 0.0047794118
0.99901961 0.91862745 0.00049019608
0.29019608 0.95294118 0.42745098
0.28921569 0.94509804 0.42352941
0.35882353 0.94215686 0.4245098
0.43480392 0.94509804 0.42598039
0.52745098 0.94901961 0.42745098
0.62794118 0.9504902 0.39852941
0.74117647 0.96470588 0.36666667
0.86078431 0.98088235 0.30539216
0.96862745 0.98039216 0.10588235
0.020098039 0.035784314 0.10784314
0.1004902 0.015257353 0.11868873
0.25 0.0013480392 0.10796569
0.44589461 0.0073529412 0.099693627
0.63112745 0 0.084313725
0.7872549 0.0049019608 0.064705882
0.92058824 0.0039215686 0.047058824
0.9995098 0.0082720588 0.0042892157
1 0.071568627 0.0073529412
0.011764706 0.10392157 0.11519608
0.096890319 0.10870864 0.11176471
0.24160539 0.096078431 0.10098039
0.4345818 0.066138174 0.10128676
0.62159926 0.026011029 0.082628676
0.79185049 0.0091681985 0.05022212
0.9254902 0.039690564 0.039828431
0.99689032 0.099456189 0.0068627451
1 0.19454657 0
0.016666667 0.21948529 0.13137255
0.064690564 0.22340686 0.1189185
0.22484681 0.24574142 0.095588235
0.42647059 0.25254289 0.060906863
0.60281863 0.25251225 0.062193627
0.76421569 0.25228248 0.033471201
0.91056985 0.26666667 0.0045036765
0.98872549 0.29754902 0.0073529412
1 0.31237745 0
0.0060661765 0.35441176 0.15
0.014767157 0.35441176 0.13872549
0.13926164 0.36570159 0.11764706
0.37205882 0.39871324 0.056686581
0.58177083 0.42401961 0.0050551471
0.74196538 0.42794118 0.0065487132
0.88345588 0.43468137 0.0077205882
0.98915441 0.44800092 0.00046721814
1 0.44754902 0.0039215686
0.0073529412 0.47426471 0.17107843
0.0093137255 0.47208946 0.16887255
0.052696078 0.46421569 0.15349265
0.27515319 0.49068627 0.11764706
0.50453431 0.53431373 0.03125
0.69454657 0.5643076 0.0088235294
0.84901961 0.58088235 0.0039215686
0.97135417 0.58823529 0
1 0.59215686 0
0 0.57843137 0.18088235
0 0.57477788 0.18638174
0.0099264706 0.57112439 0.17794118
0.21985294 0.57941176 0.15519301
0.41403186 0.61421569 0.08627451
0.6122549 0.65674786 0.021392463
0.80286458 0.69408701 0.0039215686
0.94466912 0.71047794 0
0.98970588 0.71568627 0.006372549
0.0039215686 0.70147059 0.225
0 0.69803922 0.23105086
0.011427696 0.69019608 0.21265319
0.19754902 0.68235294 0.19724265
0.3841299 0.70686275 0.15459559
0.56524203 0.74166667 0.096614583
0.74117647 0.77647059 0.032628676
0.90300245 0.80997243 0.0073529412
0.99215686 0.82254902 0
0.003002451 0.82205882 0.29460784
0.0113894 0.82511489 0.29117647
0.085125613 0.81775429 0.28687194
0.26707261 0.81437653 0.27530637
0.41317402 0.81963848 0.27181373
0.57303922 0.84248621 0.22751225
0.71894914 0.86508885 0.14375
0.8642693 0.88431373 0.018007047
0.97941176 0.91078431 0.0083333333
0.26519608 0.94460784 0.43039216
0.32665441 0.95422794 0.44742647
0.36862745 0.95 0.43982843
0.42432598 0.93118873 0.42334559
0.52205882 0.93602941 0.42401961
0.62941176 0.95067402 0.41715686
0.74375 0.9682598 0.38541667
0.85686275 0.97647059 0.31617647
0.95098039 0.9877451 0.2245098
0.0049019608 0.011764706 0.25392157
0.087745098 0.0079656863 0.26176471
0.26372549 0.0078431373 0.25784314
0.44460784 0.0039215686 0.24901961
0.63529412 0.0039215686 0.25490196
0.80196078 0.0072303922 0.23284314
0.9247549 0.018627451 0.21470588
0.99656863 0.0084558824 0.21580882
1 0.092156863 0.18823529
0.00049019608 0.1122549 0.25392157
0.10338542 0.10428922 0.2504902
0.26544118 0.074417892 0.25
0.44183517 0.042141544 0.24883578
0.63290441 0.023958333 0.24215686
0.79165135 0.013602941 0.23515625
0.92071078 0.066574755 0.22509191
0.99676777 0.12706801 0.20490196
1 0.18982843 0.1877451
0.0031862745 0.24215686 0.24705882
0.088235294 0.24114583 0.2450674
0.25428922 0.2497549 0.2466299
0.4375 0.24117647 0.24901961
0.6122549 0.24080882 0.24914216
0.77141544 0.23394608 0.2265625
0.90294118 0.25955882 0.2120098
0.99558824 0.30441176 0.19549632
1 0.33455882 0.18210784
0.046568627 0.38137255 0.2685049
0.14278493 0.38511029 0.27414216
0.23704044 0.38137255 0.25900735
0.3972886 0.40104167 0.24195772
0.58186275 0.41862745 0.22095588
0.74607843 0.42176777 0.22118566
0.88382353 0.43158701 0.2020527
0.97909007 0.44932598 0.16559436
0.99607843 0.45796569 0.16323529
0.054901961 0.49362745 0.28039216
0.047794118 0.49705882 0.27058824
0.18590686 0.48921569 0.27058824
0.32769608 0.49552696 0.25018382
0.53039216 0.53651961 0.21838235
0.70465686 0.55692402 0.17230392
0.85147059 0.57647059 0.14901961
0.97395833 0.58431373 0.16574755
0.99509804 0.58970588 0.16127451
0.0006127451 0.59705882 0.28272059
0.0076746324 0.59705882 0.28111213
0.12328431 0.59166667 0.27843137
0.27904412 0.59097733 0.26288297
0.44705882 0.61421569 0.23578431
0.63702512 0.6583027 0.19208027
0.80750613 0.68811275 0.13422181
0.94535846 0.70526961 0.11772365
0.99362745 0.71421569 0.12156863
0.0068627451 0.7120098 0.3
0.0010416667 0.71351103 0.30563725
0.06439951 0.70251225 0.29515931
0.25560662 0.69411765 0.28596814
0.40294118 0.70821078 0.2627451
0.57941176 0.74276961 0.23014706
0.74957108 0.7754902 0.17420343
0.92613358 0.81479779 0.039031863
0.98602941 0.81862745 0.055392157
0.0078431373 0.82941176 0.35588235
0.016819853 0.82973346 0.35108762
0.1564951 0.82558211 0.35012255
0.29594056 0.82156863 0.33590686
0.41672794 0.82303922 0.32438725
0.56862745 0.83854167 0.30502451
0.71317402 0.8578125 0.25946691
0.86470588 0.88431373 0.18664216
0.98688725 0.90686275 0.060416667
0.30490196 0.94901961 0.48039216
0.32622549 0.94889706 0.48284314
0.38431373 0.94828431 0.48112745
0.45796569 0.95147059 0.48492647
0.52941176 0.94215686 0.46813725
0.63125 0.95196078 0.46617647
0.74191176 0.96568627 0.44044118
0.86029412 0.98125 0.40110294
0.94019608 0.9872549 0.32647059
0.0039215686 0.011764706 0.4122549
0.062745098 0.0078431373 0.4122549
0.26973039 0.0078431373 0.42009804
0.45392157 0.0039215686 0.43039216
0.63137255 0.0039215686 0.4245098
0.7995098 0.0078431373 0.40294118
0.92169118 0.0050245098 0.3872549
0.98841912 0.0044117647 0.38480392
0.99607843 0.0039215686 0.35980392
0 0.11991422 0.4122549
0.08717065 0.11176471 0.4122549
0.27254902 0.10061275 0.41862745
0.45853248 0.053056066 0.42420343
0.63137255 0.0042585784 0.41675858
0.79178156 0.0055836397 0.40539216
0.91821385 0.0029411765 0.39019608
0.99607843 0.030491728 0.37610294
1 0.17371324 0.3846201
0 0.25490196 0.4004902
0.080514706 0.2537837 0.40035233
0.275 0.25784314 0.4104473
0.45075061 0.25502451 0.4194087
0.62009804 0.23431373 0.41366422
0.77941176 0.20441176 0.39901961
0.90842525 0.21642157 0.38480392
0.99227941 0.27009804 0.38488051
1 0.32855392 0.39509804
0.015563725 0.39117647 0.39117647
0.14264706 0.39656863 0.40129442
0.28345588 0.40196078 0.40758272
0.42849265 0.40588235 0.408678
0.59681373 0.40710784 0.40168505
0.7535769 0.40294118 0.38572304
0.88474265 0.425 0.38831189
0.97234988 0.45244332 0.38676471
0.99607843 0.46954657 0.38033088
0.15098039 0.51691176 0.40661765
0.21758578 0.52386642 0.4138174
0.29466912 0.52113971 0.40441176
0.39852941 0.51813725 0.39319853
0.54522059 0.5317402 0.38995098
0.70615809 0.55686275 0.3796875
0.85196078 0.57352941 0.38529412
0.96691176 0.58431373 0.38112745
0.99215686 0.59215686 0.37279412
0.22205882 0.62647059 0.42696078
0.239928 0.62647059 0.42333027
0.28291973 0.62647059 0.41433824
0.3564568 0.61020987 0.39019608
0.48532475 0.62132353 0.38161765
0.65112592 0.65839461 0.36764706
0.8088848 0.68382353 0.36372549
0.94166667 0.70294118 0.36617647
0.99699755 0.71421569 0.36954657
0.091666667 0.72904412 0.42156863
0.11596201 0.72512255 0.41507353
0.22178309 0.72328431 0.40799632
0.32444853 0.7157935 0.39342831
0.44240196 0.71911765 0.38480392
0.58823529 0.7412837 0.37017463
0.75477941 0.77254902 0.35134804
0.91671262 0.80343137 0.32780331
0.98823529 0.81862745 0.31629902
0.074571078 0.84068627 0.4463848
0.12154565 0.8372549 0.44648437
0.23400735 0.8372549 0.43671875
0.33057598 0.83186275 0.42382813
0.43547794 0.8265625 0.41317402
0.56813725 0.8386106 0.40294118
0.71853554 0.86150429 0.39002757
0.87234988 0.88817402 0.3602788
0.99589461 0.91501225 0.28780637
0.33823529 0.95539216 0.54852941
0.36764706 0.95422794 0.55
0.40147059 0.95 0.54215686
0.45882353 0.94411765 0.53333333
0.53259804 0.93921569 0.5245098
0.63578431 0.95294118 0.52745098
0.74803922 0.97046569 0.52095588
0.85686275 0.97647059 0.48431373
0.94607843 0.98431373 0.43235294
0.0078431373 0.029411765 0.57058824
0.053186275 0.011764706 0.57058824
0.28137255 0.0078431373 0.57843137
0.47279412 0.0090686275 0.59019608
0.65294118 0.011764706 0.59705882
0.79558824 0.0039215686 0.57892157
0.90735294 0.0014705882 0.56421569
0.99240196 0.0039215686 0.55441176
1 0.0039215686 0.52941176
0.0078431373 0.12303922 0.56887255
0.094301471 0.11369485 0.57401961
0.28670343 0.094607843 0.58192402
0.4754902 0.08314951 0.58627451
0.64705882 0.026470588 0.59117647
0.78627451 0.0025428922 0.57843137
0.91366422 0.0031862745 0.56403186
0.99047181 0.012193627 0.54901961
1 0.026715686 0.52941176
0.0053921569 0.25882353 0.56372549
0.087009804 0.25435049 0.56372549
0.28921569 0.25428922 0.56985294
0.47328431 0.25716912 0.57843137
0.63872549 0.25196078 0.5870098
0.7745098 0.21887255 0.57444853
0.90245098 0.19509804 0.55686275
0.99221814 0.21942402 0.54779412
1 0.27941176 0.55
0.012990196 0.39411765 0.53872549
0.062009804 0.39656863 0.54298407
0.27941176 0.4028799 0.55177696
0.44166667 0.40952819 0.56029412
0.60441176 0.41323529 0.56151961
0.75637255 0.40490196 0.55490196
0.88578431 0.41096814 0.54583333
0.9885723 0.43553922 0.55309436
0.99877451 0.45416667 0.55882353
0.10980392 0.5254902 0.52941176
0.19852941 0.52941176 0.5372549
0.31544118 0.5372549 0.53235294
0.44889706 0.54117647 0.54142157
0.56666667 0.5495098 0.54215686
0.72132353 0.55686275 0.54436275
0.85318627 0.56397059 0.54313725
0.96507353 0.57965686 0.54411765
0.99607843 0.59411765 0.54411765
0.26617647 0.64558824 0.54264706
0.30303309 0.64240196 0.54656863
0.3783701 0.64969363 0.5497549
0.4546875 0.64586397 0.54117647
0.53039216 0.63995098 0.52732843
0.67303922 0.66593137 0.52598039
0.82150735 0.69191176 0.52598039
0.93743873 0.70245098 0.53391544
1 0.71029412 0.53455882
0.3245098 0.74607843 0.56568627
0.34773284 0.74785539 0.5651348
0.40171569 0.74767157 0.56470588
0.44675245 0.74607843 0.54816176
0.50514706 0.73259804 0.52132353
0.61066176 0.7408701 0.50386029
0.77205882 0.77953431 0.51078431
0.92352941 0.80784314 0.49938725
0.98921569 0.81176471 0.51078431
0.37132353 0.85073529 0.59681373
0.33596814 0.84901961 0.57843137
0.365625 0.84883578 0.57015931
0.40719975 0.84549632 0.54592525
0.4939951 0.83811275 0.53541667
0.5875 0.83854167 0.51617647
0.72444853 0.86164216 0.51194853
0.87205882 0.89123775 0.50220588
0.99166667 0.91127451 0.48848039
0.43529412 0.95294118 0.64705882
0.43137255 0.95490196 0.64142157
0.40588235 0.92598039 0.60343137
0.48088235 0.94460784 0.60931373
0.5627451 0.95294118 0.61764706
0.63897059 0.94166667 0.59460784
0.74509804 0.9622549 0.59852941
0.85686275 0.97058824 0.58137255
0.96470588 0.96078431 0.52352941
0.0039215686 0.010294118 0.70931373
0.1286152 0.011764706 0.71176471
0.33137255 0.0078431373 0.7189951
0.48823529 0.0024509804 0.72745098
0.6502451 0.011764706 0.72598039
0.79319853 0.003002451 0.72990196
0.90306373 0.0039215686 0.72071078
0.9908701 0.0017769608 0.70753676
1 0.0039215686 0.69754902
0.049509804 0.12352941 0.70784314
0.16685049 0.11550245 0.71307445
0.33909314 0.10422794 0.71960784
0.49449295 0.075 0.72009804
0.65401348 0.064307598 0.72843137
0.78843444 0.029833027 0.7272595
0.90882353 0.0028033088 0.7240962
0.98529412 0.0044500613 0.70520833
1 0.027144608 0.69607843
0.025 0.25882353 0.7
0.18288909 0.26176471 0.70424326
0.32340686 0.25977328 0.70784314
0.49189645 0.25894608 0.71176471
0.64607843 0.26593137 0.72254902
0.78443627 0.26018689 0.72768076
0.89901961 0.22104779 0.71632966
0.99232537 0.22904412 0.70121017
1 0.26519608 0.69718137
0.016605392 0.39411765 0.6754902
0.082529105 0.39245558 0.67794118
0.28946078 0.40029105 0.68647365
0.45533088 0.40925245 0.69754902
0.62181373 0.4176777 0.70707721
0.756947 0.41822151 0.71231618
0.87519914 0.41525735 0.7060815
0.99136029 0.41929381 0.69835325
1 0.42794118 0.7
0.038480392 0.52745098 0.65686275
0.11994485 0.52720588 0.66078431
0.27794118 0.53314951 0.66452206
0.42671569 0.54117647 0.67058824
0.57647059 0.54705882 0.68529412
0.73014706 0.56397059 0.69558824
0.85833333 0.55900735 0.69877451
0.97058824 0.57025123 0.69592525
1 0.59019608 0.7
0.23131127 0.65931373 0.6598652
0.26911765 0.65605852 0.66439951
0.36433824 0.66078431 0.66862745
0.46911765 0.66266085 0.66617647
0.58066789 0.66862745 0.67153799
0.70055147 0.68016238 0.67497702
0.83359375 0.68823529 0.67647059
0.93743107 0.70019148 0.68941483
0.99515931 0.71421569 0.68915441
0.38517157 0.77009804 0.68137255
0.40294118 0.76897978 0.6810049
0.44764093 0.76911765 0.6810049
0.51023284 0.76764706 0.67855392
0.57395833 0.76127451 0.66348039
0.65637255 0.76421569 0.65343137
0.78051471 0.78333333 0.65625
0.92205882 0.80693934 0.66519608
0.98786765 0.81470588 0.67303922
0.44460784 0.86421569 0.71078431
0.45615043 0.86568627 0.70833333
0.48123468 0.86034007 0.70035233
0.51874234 0.86195619 0.69031097
0.5754902 0.85833333 0.67622549
0.62971048 0.8463848 0.64822304
0.73088235 0.86272978 0.6377451
0.86060049 0.8877451 0.63872549
0.98400735 0.90735294 0.65
0.53088235 0.95686275 0.75196078
0.53333333 0.95655637 0.7495098
0.56580882 0.95968137 0.75232843
0.58235294 0.96133578 0.73976716
0.60710784 0.95686275 0.71446078
0.66023284 0.95539216 0.69613971
0.7432598 0.95355392 0.68529412
0.85294118 0.96078431 0.67628676
0.96715686 0.97352941 0.66862745
0.17254902 0.029411765 0.82745098
0.25943627 0.024019608 0.83431373
0.38529412 0.0088235294 0.83431373
0.5245098 0 0.83823529
0.66568627 0.0078431373 0.84460784
0.79901961 0.0039215686 0.84607843
0.92058824 0.0049019608 0.85098039
0.9935049 0.0030637255 0.83921569
1 0.016666667 0.82745098
0.20845588 0.12696078 0.83137255
0.26764706 0.12696078 0.83169424
0.39010417 0.11323529 0.83465074
0.52437194 0.088235294 0.83566176
0.66568627 0.080208333 0.8408701
0.79848346 0.11122855 0.84612439
0.91801471 0.082414216 0.84806985
0.98964461 0.05424326 0.84264706
1 0.083210784 0.82745098
0.19803922 0.26568627 0.82671569
0.26519608 0.26703431 0.8234375
0.3841299 0.2627451 0.82818627
0.52120098 0.26479779 0.83137255
0.66176471 0.27512255 0.83823529
0.79427083 0.2986826 0.84215686
0.90661765 0.28553922 0.84276961
0.98529412 0.27843137 0.83817402
1 0.26985294 0.83529412
0.11139706 0.39901961 0.80931373
0.20231311 0.39803922 0.80539216
0.35318627 0.40490196 0.81323529
0.4899663 0.41156556 0.81568627
0.63970588 0.42046569 0.82181373
0.77095588 0.43246017 0.83353248
0.89047181 0.44696691 0.84142157
0.98184743 0.44157475 0.83521752
1 0.44522059 0.82855392
0.016666667 0.52696078 0.78480392
0.052512255 0.52622549 0.78609069
0.26237745 0.5254902 0.78970588
0.43284314 0.53333333 0.79877451
0.59583333 0.54558824 0.80588235
0.740625 0.56740196 0.82003676
0.8682598 0.58210784 0.8254902
0.97132353 0.58137255 0.82352941
0.99166667 0.59215686 0.82647059
0.12009804 0.66078431 0.77585784
0.19955576 0.65824142 0.77918199
0.30958946 0.65376838 0.78514093
0.42953431 0.65686275 0.78823529
0.55006127 0.6627451 0.78431373
0.70686275 0.67947304 0.79814645
0.8385723 0.69469975 0.81066176
0.94696691 0.69871324 0.81960784
0.99718137 0.70784314 0.81531863
0.3120098 0.7754902 0.78137255
0.35003064 0.77647059 0.78431373
0.41550245 0.77328431 0.78805147
0.49534314 0.77254902 0.79635417
0.59693627 0.78014706 0.78897059
0.69093137 0.78333333 0.78514093
0.80055147 0.79215686 0.79123775
0.92601103 0.81078431 0.80496324
0.98897059 0.82254902 0.81102941
0.49227941 0.87732843 0.80735294
0.51128983 0.87991728 0.80735294
0.53575368 0.87598039 0.80821078
0.58946078 0.87683824 0.80831801
0.65116422 0.87598039 0.80557598
0.71321998 0.87696078 0.79518995
0.78921569 0.88152574 0.77791054
0.88566176 0.89286152 0.786106
0.99068627 0.91115196 0.79693627
0.57843137 0.95686275 0.83039216
0.58529412 0.95343137 0.83419118
0.60882353 0.95686275 0.8372549
0.64607843 0.95747549 0.83431373
0.69362745 0.9622549 0.83333333
0.74166667 0.96384804 0.82659314
0.78823529 0.96078431 0.79828431
0.86519608 0.97254902 0.79509804
0.96862745 0.95098039 0.78823529
0.33578431 0.048529412 0.93088235
0.37395833 0.029901961 0.93431373
0.45992647 0.039583333 0.93480392
0.56893382 0.017647059 0.93382353
0.69068627 0.0044117647 0.93848039
0.81372549 0.043627451 0.93823529
0.92843137 0.13419118 0.94178922
0.99172794 0.11758578 0.93823529
1 0.10539216 0.93872549
0.34362745 0.16813725 0.92303922
0.38785999 0.15942862 0.92990962
0.46374081 0.14773284 0.93812806
0.57518382 0.13927696 0.92851562
0.69093137 0.13872549 0.93109681
0.81376379 0.18431373 0.93827359
0.91666667 0.22069547 0.93480392
0.98872549 0.21465227 0.93872549
1 0.19270833 0.94607843
0.33676471 0.29460784 0.92647059
0.38224571 0.29342831 0.92271752
0.45634191 0.28602941 0.92696078
0.56959252 0.29428615 0.926731
0.68553922 0.29803922 0.93063725
0.80257353 0.31960784 0.93088235
0.91666667 0.35039828 0.94215686
0.98920037 0.34871324 0.93990502
1 0.34166667 0.94607843
0.2872549 0.41207108 0.92040441
0.34613971 0.41813725 0.9127451
0.42397365 0.41518076 0.91519608
0.5391008 0.42205882 0.92223499
0.66853554 0.43357843 0.92181373
0.78793658 0.45483303 0.9245098
0.89545037 0.47562806 0.93088235
0.98449755 0.48464308 0.93792892
1 0.47224265 0.94001225
0.12352941 0.52769608 0.90563725
0.22671569 0.53333333 0.9075674
0.35147059 0.53639706 0.90931373
0.48465074 0.54558824 0.90358456
0.62904412 0.55404412 0.91127451
0.75523897 0.57337623 0.91789216
0.87941176 0.60122549 0.92647059
0.96593137 0.6083027 0.93088235
0.99411765 0.61004902 0.92696078
0.017401961 0.65814951 0.89430147
0.13210784 0.65686275 0.89226409
0.27057292 0.65317096 0.89581801
0.40991881 0.65557598 0.89822304
0.56911765 0.66421569 0.89966299
0.71378676 0.68168658 0.90588235
0.84505208 0.70681679 0.9138174
0.94981618 0.71078431 0.92126225
0.9995098 0.71813725 0.91893382
0.26078431 0.78039216 0.88382353
0.30093444 0.78077512 0.88780637
0.36262255 0.77876838 0.8877451
0.45294118 0.77340686 0.89189645
0.55189951 0.77420343 0.89166667
0.6877451 0.78209252 0.89563419
0.81862745 0.8 0.90343137
0.93776042 0.82256434 0.9182598
0.97585784 0.82267157 0.91519608
0.4372549 0.88382353 0.88817402
0.46770833 0.87990196 0.89477635
0.49852941 0.88382353 0.89607843
0.56606924 0.88382353 0.89967065
0.65220588 0.88382353 0.8995098
0.74246324 0.8877451 0.89558824
0.81864277 0.89134498 0.8995098
0.9229856 0.89918811 0.90343137
0.98339461 0.91127451 0.90735294
0.62598039 0.96862745 0.91470588
0.6372549 0.9716299 0.91813725
0.63480392 0.9682598 0.91482843
0.68480392 0.96881127 0.91470588
0.74485294 0.97254902 0.91691176
0.77205882 0.96470588 0.91078431
0.84166667 0.96862745 0.90257353
0.91219363 0.96862745 0.89558824
0.97647059 0.97990196 0.90343137
0.47058824 0.16470588 0.99607843
0.475 0.1495098 0.98480392
0.55 0.16372549 0.99901961
0.62696078 0.15539216 0.98823529
0.72352941 0.17254902 0.99215686
0.82401961 0.2 0.99460784
0.92058824 0.2372549 0.98529412
0.98088235 0.2627451 0.99607843
1 0.25098039 1
0.4745098 0.22990196 0.99215686
0.49362745 0.22990196 0.99215686
0.52561275 0.21384804 0.97953431
0.62696078 0.22745098 0.99344363
0.71960784 0.22230392 0.98039216
0.81617647 0.25343137 0.99185049
0.90931373 0.29313725 0.99215686
0.99607843 0.30839461 0.98915441
0.99607843 0.32794118 0.99264706
0.46764706 0.33333333 0.99313725
0.48884804 0.33247549 0.99509804
0.53995098 0.33235294 0.99215686
0.61801471 0.33786765 0.99105392
0.71029412 0.33970588 0.98235294
0.8122549 0.36078431 0.99607843
0.90882353 0.37058824 0.9875
0.99252451 0.39362745 0.97659314
0.99607843 0.4245098 0.98921569
0.44068627 0.45294118 0.99607843
0.45900735 0.4504902 0.98823529
0.51960784 0.44901961 0.98884804
0.59558824 0.45294118 0.98768382
0.69681373 0.46078431 0.98627451
0.80104167 0.48039216 0.98878676
0.90098039 0.50098039 0.99215686
0.97322304 0.51568627 0.98431373
1 0.53529412 0.99607843
0.36470588 0.56470588 0.99019608
0.40784314 0.56666667 0.98995098
0.46911765 0.56421569 0.9872549
0.56813725 0.5745098 0.99093137
0.65490196 0.57156863 0.97254902
0.775 0.58431373 0.97034314
0.88333333 0.6127451 0.99215686
0.96568627 0.62745098 0.98014706
0.99411765 0.6372549 0.98627451
0.25539216 0.67254902 0.98823529
0.3004902 0.67254902 0.98970588
0.39595588 0.67107843 0.99068627
0.4995098 0.67408088 0.98192402
0.6122549 0.67647059 0.97205882
0.75104167 0.69852941 0.99368873
0.85453431 0.71127451 0.98431373
0.95294118 0.7341299 0.99215686
0.99215686 0.7377451 0.98676471
0.2872549 0.78039216 0.96862745
0.30330882 0.78333333 0.94705882
0.3872549 0.78504902 0.97426471
0.48137255 0.78186275 0.97745098
0.57352941 0.78333333 0.9877451
0.69117647 0.79117647 0.98713235
0.82254902 0.80367647 0.98406863
0.93125 0.82303922 0.9754902
0.99215686 0.84117647 0.99117647
0.46568627 0.89607843 0.98480392
0.48339461 0.89552696 0.98339461
0.49031863 0.8877451 0.9495098
0.56746324 0.89166667 0.9786152
0.64240196 0.88995098 0.9747549
0.72175245 0.88560049 0.98039216
0.80477941 0.89252451 0.98688725
0.91127451 0.90386029 0.97254902
0.99215686 0.92303922 0.98872549
0.61960784 0.98431373 0.98823529
0.62058824 0.97696078 0.98137255
0.63333333 0.97647059 0.96666667
0.67696078 0.96862745 0.95196078
0.69215686 0.93921569 0.9627451
0.79264706 0.9754902 0.98186275
0.86568627 0.97745098 0.96862745
0.93039216 0.96029412 0.97254902
0.98823529 0.94901961 0.98823529
