site/assets/luts/sha256-3c266d163bc5c99fd9cfbfe79b8c25b05ecccd5ce35c3745a77d1c0350799509.cube
# LUTr-Schema-Version: 2
# LUTr-ID: sha256-3c266d163bc5c99fd9cfbfe79b8c25b05ecccd5ce35c3745a77d1c0350799509
# LUTr-Title: kodak t-max 100
# LUTr-Collection: Natron HaldCLUT
# LUTr-Collection-ID: natron-haldclut-presets
# LUTr-Source: https://github.com/NatronGitHub/clut
# LUTr-Retrieved: 2026-07-27
# LUTr-Source-File: submissions/natron-haldclut-presets/bw/kodak_t-max_100.png
# LUTr-Source-Format: HALD-PNG
# LUTr-Source-SHA256: 3c266d163bc5c99fd9cfbfe79b8c25b05ecccd5ce35c3745a77d1c0350799509
# LUTr-License: CC-BY-SA-4.0
# LUTr-License-URL: https://github.com/NatronGitHub/clut#license
# LUTr-License-Basis: repo-license-file
# LUTr-Transform-Class: film-emulation
# LUTr-Tags: creative, film, film-emulation, hald-clut, natron, png, cube
# LUTr-Input-Color-Space: srgb
# LUTr-Input-Gamut: rec709
# LUTr-Input-Transfer: srgb
# LUTr-Output-Color-Space: srgb
# LUTr-Output-Gamut: rec709
# LUTr-Output-Transfer: srgb
# LUTr-Color-Space-Confidence: assumed-display-referred
# LUTr-Domain-Normalized: true
# LUTr-Shaper: none
# LUTr-Original-Grid: 64x64x64
# LUTr-Conversion-Grid: 25x25x25
# LUTr-Conversion-Interpolation: trilinear
# LUTr-Conversion-Method: HALD-PNG LUT image decoded at 16-bit and sampled to 25x25x25 3D CUBE
# LUTr-Conversion-Tool: LUTr scripts/convert-all-to-cube.mjs 2.0.0
# LUTr-Conversion-Date: 2026-07-27
# LUTr-Note: Preserve this metadata and the upstream license notices when redistributing.
TITLE "kodak t-max 100"
LUT_3D_SIZE 25
DOMAIN_MIN 0 0 0
DOMAIN_MAX 1 1 1
0.0039215686 0.0039215686 0.0039215686
0.010294118 0.010294118 0.010294118
0.019607843 0.019607843 0.019607843
0.023529412 0.023529412 0.023529412
0.02745098 0.02745098 0.02745098
0.02745098 0.02745098 0.02745098
0.024509804 0.024509804 0.024509804
0.022058824 0.022058824 0.022058824
0.015686275 0.015686275 0.015686275
0.029901961 0.029901961 0.029901961
0.040196078 0.040196078 0.040196078
0.047058824 0.047058824 0.047058824
0.050980392 0.050980392 0.050980392
0.05245098 0.05245098 0.05245098
0.076470588 0.076470588 0.076470588
0.10098039 0.10098039 0.10098039
0.12156863 0.12156863 0.12156863
0.14215686 0.14215686 0.14215686
0.15784314 0.15784314 0.15784314
0.17205882 0.17205882 0.17205882
0.17843137 0.17843137 0.17843137
0.18480392 0.18480392 0.18480392
0.19509804 0.19509804 0.19509804
0.20147059 0.20147059 0.20147059
0.20392157 0.20392157 0.20392157
0.024509804 0.024509804 0.024509804
0.027879902 0.027879902 0.027879902
0.032720588 0.032720588 0.032720588
0.037561275 0.037561275 0.037561275
0.040196078 0.040196078 0.040196078
0.040196078 0.040196078 0.040196078
0.040196078 0.040196078 0.040196078
0.040196078 0.040196078 0.040196078
0.042647059 0.042647059 0.042647059
0.050490196 0.050490196 0.050490196
0.060784314 0.060784314 0.060784314
0.067463235 0.067463235 0.067463235
0.071568627 0.071568627 0.071568627
0.078615196 0.078615196 0.078615196
0.096691176 0.096691176 0.096691176
0.11764706 0.11764706 0.11764706
0.13823529 0.13823529 0.13823529
0.15882353 0.15882353 0.15882353
0.1745098 0.1745098 0.1745098
0.18872549 0.18872549 0.18872549
0.19901961 0.19901961 0.19901961
0.2091299 0.2091299 0.2091299
0.21813725 0.21813725 0.21813725
0.2278799 0.2278799 0.2278799
0.23333333 0.23333333 0.23333333
0.049019608 0.049019608 0.049019608
0.051838235 0.051838235 0.051838235
0.053921569 0.053921569 0.053921569
0.056862745 0.056862745 0.056862745
0.060784314 0.060784314 0.060784314
0.060784314 0.060784314 0.060784314
0.061764706 0.061764706 0.061764706
0.065073529 0.065073529 0.065073529
0.069607843 0.069607843 0.069607843
0.077083333 0.077083333 0.077083333
0.085294118 0.085294118 0.085294118
0.091789216 0.091789216 0.091789216
0.098529412 0.098529412 0.098529412
0.1057598 0.1057598 0.1057598
0.12181373 0.12181373 0.12181373
0.14215686 0.14215686 0.14215686
0.1627451 0.1627451 0.1627451
0.1814951 0.1814951 0.1814951
0.19681373 0.19681373 0.19681373
0.21017157 0.21017157 0.21017157
0.22352941 0.22352941 0.22352941
0.2377451 0.2377451 0.2377451
0.24901961 0.24901961 0.24901961
0.26323529 0.26323529 0.26323529
0.27352941 0.27352941 0.27352941
0.073039216 0.073039216 0.073039216
0.073529412 0.073529412 0.073529412
0.07745098 0.07745098 0.07745098
0.080882353 0.080882353 0.080882353
0.081372549 0.081372549 0.081372549
0.085294118 0.085294118 0.085294118
0.087867647 0.087867647 0.087867647
0.092647059 0.092647059 0.092647059
0.096568627 0.096568627 0.096568627
0.103125 0.103125 0.103125
0.10980392 0.10980392 0.10980392
0.11660539 0.11660539 0.11660539
0.12598039 0.12598039 0.12598039
0.13284314 0.13284314 0.13284314
0.1495098 0.1495098 0.1495098
0.16617647 0.16617647 0.16617647
0.18676471 0.18676471 0.18676471
0.20392157 0.20392157 0.20392157
0.21960784 0.21960784 0.21960784
0.23382353 0.23382353 0.23382353
0.24779412 0.24779412 0.24779412
0.26182598 0.26182598 0.26182598
0.27634804 0.27634804 0.27634804
0.29411765 0.29411765 0.29411765
0.30098039 0.30098039 0.30098039
0.094117647 0.094117647 0.094117647
0.097303922 0.097303922 0.097303922
0.099019608 0.099019608 0.099019608
0.10196078 0.10196078 0.10196078
0.10588235 0.10588235 0.10588235
0.10980392 0.10980392 0.10980392
0.11127451 0.11127451 0.11127451
0.11887255 0.11887255 0.11887255
0.12156863 0.12156863 0.12156863
0.12867647 0.12867647 0.12867647
0.13578431 0.13578431 0.13578431
0.14460784 0.14460784 0.14460784
0.15098039 0.15098039 0.15098039
0.15955882 0.15955882 0.15955882
0.175 0.175 0.175
0.19313725 0.19313725 0.19313725
0.20980392 0.20980392 0.20980392
0.22720588 0.22720588 0.22720588
0.24264706 0.24264706 0.24264706
0.25441176 0.25441176 0.25441176
0.26862745 0.26862745 0.26862745
0.28333333 0.28333333 0.28333333
0.30245098 0.30245098 0.30245098
0.31911765 0.31911765 0.31911765
0.3254902 0.3254902 0.3254902
0.12303922 0.12303922 0.12303922
0.12303922 0.12303922 0.12303922
0.12303922 0.12303922 0.12303922
0.12647059 0.12647059 0.12647059
0.13039216 0.13039216 0.13039216
0.13131127 0.13131127 0.13131127
0.13468137 0.13468137 0.13468137
0.14001225 0.14001225 0.14001225
0.14607843 0.14607843 0.14607843
0.1526348 0.1526348 0.1526348
0.15931373 0.15931373 0.15931373
0.16911765 0.16911765 0.16911765
0.17573529 0.17573529 0.17573529
0.18584559 0.18584559 0.18584559
0.20036765 0.20036765 0.20036765
0.21832108 0.21832108 0.21832108
0.23627451 0.23627451 0.23627451
0.24901961 0.24901961 0.24901961
0.26470588 0.26470588 0.26470588
0.27843137 0.27843137 0.27843137
0.29117647 0.29117647 0.29117647
0.30392157 0.30392157 0.30392157
0.32156863 0.32156863 0.32156863
0.33707108 0.33707108 0.33707108
0.34558824 0.34558824 0.34558824
0.15392157 0.15392157 0.15392157
0.15392157 0.15392157 0.15392157
0.15392157 0.15392157 0.15392157
0.15098039 0.15098039 0.15098039
0.15392157 0.15392157 0.15392157
0.15526961 0.15526961 0.15526961
0.15882353 0.15882353 0.15882353
0.16384804 0.16384804 0.16384804
0.17058824 0.17058824 0.17058824
0.17696078 0.17696078 0.17696078
0.18553922 0.18553922 0.18553922
0.19276961 0.19276961 0.19276961
0.2 0.2 0.2
0.21066176 0.21066176 0.21066176
0.22671569 0.22671569 0.22671569
0.24264706 0.24264706 0.24264706
0.25686275 0.25686275 0.25686275
0.26960784 0.26960784 0.26960784
0.28529412 0.28529412 0.28529412
0.29901961 0.29901961 0.29901961
0.31176471 0.31176471 0.31176471
0.3245098 0.3245098 0.3245098
0.34117647 0.34117647 0.34117647
0.35637255 0.35637255 0.35637255
0.3627451 0.3627451 0.3627451
0.18872549 0.18872549 0.18872549
0.18872549 0.18872549 0.18872549
0.18480392 0.18480392 0.18480392
0.18137255 0.18137255 0.18137255
0.18088235 0.18088235 0.18088235
0.17941176 0.17941176 0.17941176
0.18272059 0.18272059 0.18272059
0.18780637 0.18780637 0.18780637
0.19509804 0.19509804 0.19509804
0.20147059 0.20147059 0.20147059
0.20784314 0.20784314 0.20784314
0.21813725 0.21813725 0.21813725
0.2252451 0.2252451 0.2252451
0.23658088 0.23658088 0.23658088
0.25012255 0.25012255 0.25012255
0.26323529 0.26323529 0.26323529
0.27745098 0.27745098 0.27745098
0.29019608 0.29019608 0.29019608
0.30294118 0.30294118 0.30294118
0.31960784 0.31960784 0.31960784
0.33235294 0.33235294 0.33235294
0.34509804 0.34509804 0.34509804
0.36176471 0.36176471 0.36176471
0.37696078 0.37696078 0.37696078
0.38333333 0.38333333 0.38333333
0.21960784 0.21960784 0.21960784
0.21960784 0.21960784 0.21960784
0.21862745 0.21862745 0.21862745
0.21568627 0.21568627 0.21568627
0.21176471 0.21176471 0.21176471
0.21127451 0.21127451 0.21127451
0.21176471 0.21176471 0.21176471
0.21568627 0.21568627 0.21568627
0.22352941 0.22352941 0.22352941
0.22990196 0.22990196 0.22990196
0.23627451 0.23627451 0.23627451
0.24313725 0.24313725 0.24313725
0.25294118 0.25294118 0.25294118
0.26323529 0.26323529 0.26323529
0.27352941 0.27352941 0.27352941
0.28382353 0.28382353 0.28382353
0.29803922 0.29803922 0.29803922
0.31078431 0.31078431 0.31078431
0.32352941 0.32352941 0.32352941
0.33676471 0.33676471 0.33676471
0.35098039 0.35098039 0.35098039
0.36568627 0.36568627 0.36568627
0.38627451 0.38627451 0.38627451
0.40147059 0.40147059 0.40147059
0.40392157 0.40392157 0.40392157
0.2504902 0.2504902 0.2504902
0.2504902 0.2504902 0.2504902
0.2504902 0.2504902 0.2504902
0.24656863 0.24656863 0.24656863
0.24583333 0.24583333 0.24583333
0.24558824 0.24558824 0.24558824
0.24901961 0.24901961 0.24901961
0.25140931 0.25140931 0.25140931
0.25686275 0.25686275 0.25686275
0.26378676 0.26378676 0.26378676
0.27107843 0.27107843 0.27107843
0.27990196 0.27990196 0.27990196
0.2877451 0.2877451 0.2877451
0.29411765 0.29411765 0.29411765
0.3004902 0.3004902 0.3004902
0.31078431 0.31078431 0.31078431
0.32254902 0.32254902 0.32254902
0.33284314 0.33284314 0.33284314
0.34595588 0.34595588 0.34595588
0.35735294 0.35735294 0.35735294
0.37352941 0.37352941 0.37352941
0.39234069 0.39234069 0.39234069
0.41078431 0.41078431 0.41078431
0.42542892 0.42542892 0.42542892
0.42843137 0.42843137 0.42843137
0.28137255 0.28137255 0.28137255
0.28137255 0.28137255 0.28137255
0.28137255 0.28137255 0.28137255
0.27879902 0.27879902 0.27879902
0.27990196 0.27990196 0.27990196
0.28541667 0.28541667 0.28541667
0.28848039 0.28848039 0.28848039
0.29019608 0.29019608 0.29019608
0.29411765 0.29411765 0.29411765
0.3004902 0.3004902 0.3004902
0.30906863 0.30906863 0.30906863
0.31629902 0.31629902 0.31629902
0.32303922 0.32303922 0.32303922
0.32855392 0.32855392 0.32855392
0.33529412 0.33529412 0.33529412
0.34166667 0.34166667 0.34166667
0.35196078 0.35196078 0.35196078
0.3622549 0.3622549 0.3622549
0.37254902 0.37254902 0.37254902
0.38284314 0.38284314 0.38284314
0.39852941 0.39852941 0.39852941
0.4182598 0.4182598 0.4182598
0.43627451 0.43627451 0.43627451
0.44938725 0.44938725 0.44938725
0.45294118 0.45294118 0.45294118
0.3122549 0.3122549 0.3122549
0.3122549 0.3122549 0.3122549
0.3122549 0.3122549 0.3122549
0.3122549 0.3122549 0.3122549
0.31789216 0.31789216 0.31789216
0.32359069 0.32359069 0.32359069
0.32745098 0.32745098 0.32745098
0.33137255 0.33137255 0.33137255
0.33186275 0.33186275 0.33186275
0.33792892 0.33792892 0.33792892
0.34460784 0.34460784 0.34460784
0.35140931 0.35140931 0.35140931
0.35735294 0.35735294 0.35735294
0.36323529 0.36323529 0.36323529
0.36973039 0.36973039 0.36973039
0.37469363 0.37469363 0.37469363
0.38284314 0.38284314 0.38284314
0.39313725 0.39313725 0.39313725
0.40343137 0.40343137 0.40343137
0.41366422 0.41366422 0.41366422
0.42622549 0.42622549 0.42622549
0.44264706 0.44264706 0.44264706
0.46066176 0.46066176 0.46066176
0.47352941 0.47352941 0.47352941
0.47696078 0.47696078 0.47696078
0.34901961 0.34901961 0.34901961
0.34901961 0.34901961 0.34901961
0.34509804 0.34509804 0.34509804
0.34901961 0.34901961 0.34901961
0.35490196 0.35490196 0.35490196
0.36102941 0.36102941 0.36102941
0.36617647 0.36617647 0.36617647
0.36862745 0.36862745 0.36862745
0.37254902 0.37254902 0.37254902
0.37573529 0.37573529 0.37573529
0.38284314 0.38284314 0.38284314
0.3879902 0.3879902 0.3879902
0.39313725 0.39313725 0.39313725
0.39828431 0.39828431 0.39828431
0.40343137 0.40343137 0.40343137
0.41053922 0.41053922 0.41053922
0.41764706 0.41764706 0.41764706
0.4247549 0.4247549 0.4247549
0.43431373 0.43431373 0.43431373
0.44460784 0.44460784 0.44460784
0.45490196 0.45490196 0.45490196
0.46936275 0.46936275 0.46936275
0.48480392 0.48480392 0.48480392
0.49877451 0.49877451 0.49877451
0.50196078 0.50196078 0.50196078
0.39019608 0.39019608 0.39019608
0.39019608 0.39019608 0.39019608
0.38627451 0.38627451 0.38627451
0.39019608 0.39019608 0.39019608
0.39411765 0.39411765 0.39411765
0.39852941 0.39852941 0.39852941
0.40453431 0.40453431 0.40453431
0.40716912 0.40716912 0.40716912
0.40980392 0.40980392 0.40980392
0.41354167 0.41354167 0.41354167
0.41813725 0.41813725 0.41813725
0.42457108 0.42457108 0.42457108
0.42892157 0.42892157 0.42892157
0.43333333 0.43333333 0.43333333
0.43982843 0.43982843 0.43982843
0.44607843 0.44607843 0.44607843
0.45245098 0.45245098 0.45245098
0.45882353 0.45882353 0.45882353
0.46556373 0.46556373 0.46556373
0.47205882 0.47205882 0.47205882
0.48357843 0.48357843 0.48357843
0.49564951 0.49564951 0.49564951
0.51017157 0.51017157 0.51017157
0.52401961 0.52401961 0.52401961
0.52696078 0.52696078 0.52696078
0.43137255 0.43137255 0.43137255
0.43137255 0.43137255 0.43137255
0.43137255 0.43137255 0.43137255
0.43137255 0.43137255 0.43137255
0.43529412 0.43529412 0.43529412
0.43921569 0.43921569 0.43921569
0.44313725 0.44313725 0.44313725
0.44705882 0.44705882 0.44705882
0.44803922 0.44803922 0.44803922
0.45098039 0.45098039 0.45098039
0.45269608 0.45269608 0.45269608
0.45845588 0.45845588 0.45845588
0.46323529 0.46323529 0.46323529
0.46801471 0.46801471 0.46801471
0.4745098 0.4745098 0.4745098
0.48051471 0.48051471 0.48051471
0.48627451 0.48627451 0.48627451
0.49301471 0.49301471 0.49301471
0.4997549 0.4997549 0.4997549
0.50551471 0.50551471 0.50551471
0.5127451 0.5127451 0.5127451
0.52303922 0.52303922 0.52303922
0.53431373 0.53431373 0.53431373
0.54852941 0.54852941 0.54852941
0.55490196 0.55490196 0.55490196
0.47254902 0.47254902 0.47254902
0.47254902 0.47254902 0.47254902
0.47254902 0.47254902 0.47254902
0.47254902 0.47254902 0.47254902
0.47647059 0.47647059 0.47647059
0.48039216 0.48039216 0.48039216
0.48431373 0.48431373 0.48431373
0.48431373 0.48431373 0.48431373
0.48676471 0.48676471 0.48676471
0.48823529 0.48823529 0.48823529
0.49068627 0.49068627 0.49068627
0.49430147 0.49430147 0.49430147
0.49852941 0.49852941 0.49852941
0.50294118 0.50294118 0.50294118
0.50931373 0.50931373 0.50931373
0.51476716 0.51476716 0.51476716
0.52205882 0.52205882 0.52205882
0.52843137 0.52843137 0.52843137
0.53419118 0.53419118 0.53419118
0.53903186 0.53903186 0.53903186
0.54436275 0.54436275 0.54436275
0.55392157 0.55392157 0.55392157
0.56421569 0.56421569 0.56421569
0.57542892 0.57542892 0.57542892
0.58480392 0.58480392 0.58480392
0.51372549 0.51372549 0.51372549
0.51372549 0.51372549 0.51372549
0.51372549 0.51372549 0.51372549
0.51372549 0.51372549 0.51372549
0.51764706 0.51764706 0.51764706
0.52156863 0.52156863 0.52156863
0.52156863 0.52156863 0.52156863
0.5254902 0.5254902 0.5254902
0.5254902 0.5254902 0.5254902
0.5254902 0.5254902 0.5254902
0.5254902 0.5254902 0.5254902
0.52941176 0.52941176 0.52941176
0.53333333 0.53333333 0.53333333
0.5377451 0.5377451 0.5377451
0.54411765 0.54411765 0.54411765
0.5504902 0.5504902 0.5504902
0.55686275 0.55686275 0.55686275
0.56323529 0.56323529 0.56323529
0.56960784 0.56960784 0.56960784
0.57598039 0.57598039 0.57598039
0.58039216 0.58039216 0.58039216
0.58823529 0.58823529 0.58823529
0.59509804 0.59509804 0.59509804
0.60539216 0.60539216 0.60539216
0.61568627 0.61568627 0.61568627
0.55098039 0.55098039 0.55098039
0.55189951 0.55189951 0.55189951
0.55306373 0.55306373 0.55306373
0.55490196 0.55490196 0.55490196
0.55637255 0.55637255 0.55637255
0.55900735 0.55900735 0.55900735
0.56029412 0.56029412 0.56029412
0.5627451 0.5627451 0.5627451
0.5627451 0.5627451 0.5627451
0.5627451 0.5627451 0.5627451
0.56421569 0.56421569 0.56421569
0.56636029 0.56636029 0.56636029
0.56936275 0.56936275 0.56936275
0.57469363 0.57469363 0.57469363
0.57953431 0.57953431 0.57953431
0.58682598 0.58682598 0.58682598
0.59166667 0.59166667 0.59166667
0.59895833 0.59895833 0.59895833
0.60625 0.60625 0.60625
0.61109069 0.61109069 0.61109069
0.61642157 0.61642157 0.61642157
0.62334559 0.62334559 0.62334559
0.62990196 0.62990196 0.62990196
0.63872549 0.63872549 0.63872549
0.64656863 0.64656863 0.64656863
0.58823529 0.58823529 0.58823529
0.59007353 0.59007353 0.59007353
0.59117647 0.59117647 0.59117647
0.59117647 0.59117647 0.59117647
0.59166667 0.59166667 0.59166667
0.59522059 0.59522059 0.59522059
0.59607843 0.59607843 0.59607843
0.59901961 0.59901961 0.59901961
0.59901961 0.59901961 0.59901961
0.59963235 0.59963235 0.59963235
0.6 0.6 0.6
0.60379902 0.60379902 0.60379902
0.60588235 0.60588235 0.60588235
0.61176471 0.61176471 0.61176471
0.61789216 0.61789216 0.61789216
0.62352941 0.62352941 0.62352941
0.63039216 0.63039216 0.63039216
0.63676471 0.63676471 0.63676471
0.64240196 0.64240196 0.64240196
0.64693627 0.64693627 0.64693627
0.65245098 0.65245098 0.65245098
0.65919118 0.65919118 0.65919118
0.66568627 0.66568627 0.66568627
0.67389706 0.67389706 0.67389706
0.68137255 0.68137255 0.68137255
0.62941176 0.62941176 0.62941176
0.62941176 0.62941176 0.62941176
0.62941176 0.62941176 0.62941176
0.62941176 0.62941176 0.62941176
0.62769608 0.62769608 0.62769608
0.62990196 0.62990196 0.62990196
0.63333333 0.63333333 0.63333333
0.63382353 0.63382353 0.63382353
0.63382353 0.63382353 0.63382353
0.6372549 0.6372549 0.6372549
0.64117647 0.64117647 0.64117647
0.64509804 0.64509804 0.64509804
0.64877451 0.64877451 0.64877451
0.6495098 0.6495098 0.6495098
0.6560049 0.6560049 0.6560049
0.6622549 0.6622549 0.6622549
0.66862745 0.66862745 0.66862745
0.675 0.675 0.675
0.68051471 0.68051471 0.68051471
0.68431373 0.68431373 0.68431373
0.68848039 0.68848039 0.68848039
0.69613971 0.69613971 0.69613971
0.70294118 0.70294118 0.70294118
0.7096201 0.7096201 0.7096201
0.71617647 0.71617647 0.71617647
0.67058824 0.67058824 0.67058824
0.67058824 0.67058824 0.67058824
0.66666667 0.66666667 0.66666667
0.66495098 0.66495098 0.66495098
0.66372549 0.66372549 0.66372549
0.66691176 0.66691176 0.66691176
0.67058824 0.67058824 0.67058824
0.67058824 0.67058824 0.67058824
0.6745098 0.6745098 0.6745098
0.67843137 0.67843137 0.67843137
0.68333333 0.68333333 0.68333333
0.68995098 0.68995098 0.68995098
0.69019608 0.69019608 0.69019608
0.69240196 0.69240196 0.69240196
0.69705882 0.69705882 0.69705882
0.70343137 0.70343137 0.70343137
0.70980392 0.70980392 0.70980392
0.71372549 0.71372549 0.71372549
0.71813725 0.71813725 0.71813725
0.72156863 0.72156863 0.72156863
0.72647059 0.72647059 0.72647059
0.73186275 0.73186275 0.73186275
0.73872549 0.73872549 0.73872549
0.74583333 0.74583333 0.74583333
0.75294118 0.75294118 0.75294118
0.71176471 0.71176471 0.71176471
0.7096201 0.7096201 0.7096201
0.70784314 0.70784314 0.70784314
0.70392157 0.70392157 0.70392157
0.7 0.7 0.7
0.70349265 0.70349265 0.70349265
0.70784314 0.70784314 0.70784314
0.71176471 0.71176471 0.71176471
0.71568627 0.71568627 0.71568627
0.72224265 0.72224265 0.72224265
0.72843137 0.72843137 0.72843137
0.73480392 0.73480392 0.73480392
0.73529412 0.73529412 0.73529412
0.73529412 0.73529412 0.73529412
0.73835784 0.73835784 0.73835784
0.74313725 0.74313725 0.74313725
0.7504902 0.7504902 0.7504902
0.75471814 0.75471814 0.75471814
0.7557598 0.7557598 0.7557598
0.75833333 0.75833333 0.75833333
0.7625 0.7625 0.7625
0.76715686 0.76715686 0.76715686
0.77708333 0.77708333 0.77708333
0.78363971 0.78363971 0.78363971
0.78970588 0.78970588 0.78970588
0.75 0.75 0.75
0.74938725 0.74938725 0.74938725
0.74803922 0.74803922 0.74803922
0.74252451 0.74252451 0.74252451
0.74117647 0.74117647 0.74117647
0.74129902 0.74129902 0.74129902
0.74583333 0.74583333 0.74583333
0.75330882 0.75330882 0.75330882
0.76078431 0.76078431 0.76078431
0.76715686 0.76715686 0.76715686
0.77254902 0.77254902 0.77254902
0.77647059 0.77647059 0.77647059
0.77647059 0.77647059 0.77647059
0.77647059 0.77647059 0.77647059
0.78039216 0.78039216 0.78039216
0.78431373 0.78431373 0.78431373
0.78823529 0.78823529 0.78823529
0.79215686 0.79215686 0.79215686
0.79313725 0.79313725 0.79313725
0.79313725 0.79313725 0.79313725
0.79852941 0.79852941 0.79852941
0.80526961 0.80526961 0.80526961
0.8125 0.8125 0.8125
0.82107843 0.82107843 0.82107843
0.82745098 0.82745098 0.82745098
0.78627451 0.78627451 0.78627451
0.78627451 0.78627451 0.78627451
0.78419118 0.78419118 0.78419118
0.78088235 0.78088235 0.78088235
0.77843137 0.77843137 0.77843137
0.77873775 0.77873775 0.77873775
0.78382353 0.78382353 0.78382353
0.78927696 0.78927696 0.78927696
0.79656863 0.79656863 0.79656863
0.80533088 0.80533088 0.80533088
0.81262255 0.81262255 0.81262255
0.81746324 0.81746324 0.81746324
0.81617647 0.81617647 0.81617647
0.81403186 0.81403186 0.81403186
0.81764706 0.81764706 0.81764706
0.82248775 0.82248775 0.82248775
0.8254902 0.8254902 0.8254902
0.82794118 0.82794118 0.82794118
0.82794118 0.82794118 0.82794118
0.82794118 0.82794118 0.82794118
0.83112745 0.83112745 0.83112745
0.83970588 0.83970588 0.83970588
0.84656863 0.84656863 0.84656863
0.85833333 0.85833333 0.85833333
0.86470588 0.86470588 0.86470588
0.81176471 0.81176471 0.81176471
0.81176471 0.81176471 0.81176471
0.81078431 0.81078431 0.81078431
0.80784314 0.80784314 0.80784314
0.80392157 0.80392157 0.80392157
0.80441176 0.80441176 0.80441176
0.81078431 0.81078431 0.81078431
0.81568627 0.81568627 0.81568627
0.82352941 0.82352941 0.82352941
0.82990196 0.82990196 0.82990196
0.84019608 0.84019608 0.84019608
0.84656863 0.84656863 0.84656863
0.84313725 0.84313725 0.84313725
0.84313725 0.84313725 0.84313725
0.84607843 0.84607843 0.84607843
0.85098039 0.85098039 0.85098039
0.85490196 0.85490196 0.85490196
0.85098039 0.85098039 0.85098039
0.85098039 0.85098039 0.85098039
0.85098039 0.85098039 0.85098039
0.85490196 0.85490196 0.85490196
0.86323529 0.86323529 0.86323529
0.87352941 0.87352941 0.87352941
0.88529412 0.88529412 0.88529412
0.89803922 0.89803922 0.89803922
0.0049019608 0.0049019608 0.0049019608
0.012745098 0.012745098 0.012745098
0.020220588 0.020220588 0.020220588
0.027267157 0.027267157 0.027267157
0.030637255 0.030637255 0.030637255
0.031372549 0.031372549 0.031372549
0.029901961 0.029901961 0.029901961
0.029901961 0.029901961 0.029901961
0.032352941 0.032352941 0.032352941
0.042647059 0.042647059 0.042647059
0.050490196 0.050490196 0.050490196
0.057352941 0.057352941 0.057352941
0.0625 0.0625 0.0625
0.069607843 0.069607843 0.069607843
0.085661765 0.085661765 0.085661765
0.10343137 0.10343137 0.10343137
0.12401961 0.12401961 0.12401961
0.13970588 0.13970588 0.13970588
0.1560049 0.1560049 0.1560049
0.16813725 0.16813725 0.16813725
0.17843137 0.17843137 0.17843137
0.1872549 0.1872549 0.1872549
0.19754902 0.19754902 0.19754902
0.20876225 0.20876225 0.20876225
0.21911765 0.21911765 0.21911765
0.026960784 0.026960784 0.026960784
0.029756434 0.029756434 0.029756434
0.035171569 0.035171569 0.035171569
0.040885417 0.040885417 0.040885417
0.045802696 0.045802696 0.045802696
0.046568627 0.046568627 0.046568627
0.046568627 0.046568627 0.046568627
0.046568627 0.046568627 0.046568627
0.050490196 0.050490196 0.050490196
0.060232843 0.060232843 0.060232843
0.067156863 0.067156863 0.067156863
0.074019608 0.074019608 0.074019608
0.079626225 0.079626225 0.079626225
0.086580882 0.086580882 0.086580882
0.10343137 0.10343137 0.10343137
0.12156863 0.12156863 0.12156863
0.14215686 0.14215686 0.14215686
0.15882353 0.15882353 0.15882353
0.1745098 0.1745098 0.1745098
0.1886106 0.1886106 0.1886106
0.19901961 0.19901961 0.19901961
0.21084559 0.21084559 0.21084559
0.2207261 0.2207261 0.2207261
0.233678 0.233678 0.233678
0.24117647 0.24117647 0.24117647
0.051470588 0.051470588 0.051470588
0.052527574 0.052527574 0.052527574
0.05747549 0.05747549 0.05747549
0.061182598 0.061182598 0.061182598
0.064154412 0.064154412 0.064154412
0.067156863 0.067156863 0.067156863
0.067432598 0.067432598 0.067432598
0.071446078 0.071446078 0.071446078
