site/assets/luts/sha256-f73274886f3da011bee88a33d1dcdafe1c6106680248e521b0fb4ba82016de53.cube
# LUTr-Schema-Version: 2
# LUTr-ID: sha256-f73274886f3da011bee88a33d1dcdafe1c6106680248e521b0fb4ba82016de53
# LUTr-Title: polaroid px-680 cold +
# LUTr-Collection: Natron HaldCLUT
# LUTr-Collection-ID: natron-haldclut-presets
# LUTr-Source: https://github.com/NatronGitHub/clut
# LUTr-Retrieved: 2026-07-27
# LUTr-Source-File: submissions/natron-haldclut-presets/instant_consumer/polaroid_px-680_cold_+.png
# LUTr-Source-Format: HALD-PNG
# LUTr-Source-SHA256: f73274886f3da011bee88a33d1dcdafe1c6106680248e521b0fb4ba82016de53
# LUTr-License: CC-BY-SA-4.0
# LUTr-License-URL: https://github.com/NatronGitHub/clut#license
# LUTr-License-Basis: repo-license-file
# LUTr-Transform-Class: film-emulation
# LUTr-Tags: creative, film, film-emulation, hald-clut, natron, png, cool, cube
# LUTr-Input-Color-Space: srgb
# LUTr-Input-Gamut: rec709
# LUTr-Input-Transfer: srgb
# LUTr-Output-Color-Space: srgb
# LUTr-Output-Gamut: rec709
# LUTr-Output-Transfer: srgb
# LUTr-Color-Space-Confidence: assumed-display-referred
# LUTr-Domain-Normalized: true
# LUTr-Shaper: none
# LUTr-Original-Grid: 64x64x64
# LUTr-Conversion-Grid: 25x25x25
# LUTr-Conversion-Interpolation: trilinear
# LUTr-Conversion-Method: HALD-PNG LUT image decoded at 16-bit and sampled to 25x25x25 3D CUBE
# LUTr-Conversion-Tool: LUTr scripts/convert-all-to-cube.mjs 2.0.0
# LUTr-Conversion-Date: 2026-07-27
# LUTr-Note: Preserve this metadata and the upstream license notices when redistributing.
TITLE "polaroid px-680 cold +"
LUT_3D_SIZE 25
DOMAIN_MIN 0 0 0
DOMAIN_MAX 1 1 1
0.039215686 0.20784314 0.25490196
0.039215686 0.20784314 0.25490196
0.039215686 0.20784314 0.25490196
0.042647059 0.20441176 0.25490196
0.047058824 0.20588235 0.25490196
0.067647059 0.20784314 0.25490196
0.088235294 0.20784314 0.25784314
0.10735294 0.20784314 0.25882353
0.1254902 0.20784314 0.25882353
0.17156863 0.21029412 0.25882353
0.22941176 0.2127451 0.25882353
0.29460784 0.21568627 0.25882353
0.35686275 0.21960784 0.25882353
0.43529412 0.22401961 0.25833333
0.52156863 0.23039216 0.25490196
0.60784314 0.23529412 0.25490196
0.69411765 0.23921569 0.25098039
0.75980392 0.26715686 0.24852941
0.8127451 0.30980392 0.24607843
0.86078431 0.34705882 0.24313725
0.90588235 0.37843137 0.23921569
0.93039216 0.40931373 0.24362745
0.94705882 0.44019608 0.25392157
0.96764706 0.46715686 0.26029412
0.98039216 0.48627451 0.26666667
0.039215686 0.20784314 0.25490196
0.039215686 0.20784314 0.25490196
0.039215686 0.20784314 0.25490196
0.042647059 0.20784314 0.25490196
0.052205882 0.20784314 0.25490196
0.071568627 0.21029412 0.25520833
0.092156863 0.21029412 0.25882353
0.11127451 0.21029412 0.25882353
0.13186275 0.21029412 0.25882353
0.1754902 0.21176471 0.25882353
0.23517157 0.21458333 0.25882353
0.29509804 0.21568627 0.25882353
0.35808824 0.21960784 0.25882353
0.43560049 0.22401961 0.25833333
0.52340686 0.23284314 0.25490196
0.61421569 0.23921569 0.25343137
0.69803922 0.25196078 0.25098039
0.76372549 0.27738971 0.24705882
0.81911765 0.31556373 0.24313725
0.86470588 0.35128676 0.23939951
0.90465686 0.38676471 0.23921569
0.93039216 0.41568627 0.24362745
0.95098039 0.44656863 0.25392157
0.97156863 0.47352941 0.26029412
0.99068627 0.49656863 0.26666667
0.034313725 0.21176471 0.25490196
0.034313725 0.21176471 0.25490196
0.035294118 0.21176471 0.25490196
0.042647059 0.21176471 0.25490196
0.058823529 0.21176471 0.25539216
0.075490196 0.2127451 0.25882353
0.096078431 0.2127451 0.25882353
0.11764706 0.21568627 0.25882353
0.14607843 0.21568627 0.25882353
0.19031863 0.2185049 0.25882353
0.24607843 0.21960784 0.25882353
0.30392157 0.21960784 0.25882353
0.36176471 0.21960784 0.25882353
0.4442402 0.22892157 0.25747549
0.53431373 0.24215686 0.25490196
0.62058824 0.25379902 0.25098039
0.69803922 0.27254902 0.24705882
0.76372549 0.29607843 0.24313725
0.82745098 0.32083333 0.23921569
0.86519608 0.35980392 0.23921569
0.90392157 0.39705882 0.23921569
0.93431373 0.42941176 0.2435049
0.95490196 0.45686275 0.25073529
0.9754902 0.48382353 0.26029412
0.99117647 0.50588235 0.26666667
0.02745098 0.21519608 0.25833333
0.027941176 0.21519608 0.25833333
0.032720588 0.21519608 0.25833333
0.046507353 0.21568627 0.25833333
0.064460784 0.21568627 0.25882353
0.079411765 0.21568627 0.25882353
0.1 0.21568627 0.25882353
0.1245098 0.21911765 0.25882353
0.15637255 0.21960784 0.25882353
0.20392157 0.22567402 0.25882353
0.25931373 0.22696078 0.25882353
0.31770833 0.22696078 0.25882353
0.38112745 0.23063725 0.25882353
0.45790441 0.23535539 0.25490196
0.54754902 0.2495098 0.25196078
0.62941176 0.26519608 0.24969363
0.69803922 0.28970588 0.24705882
0.76617647 0.31029412 0.24099265
0.82401961 0.33529412 0.23921569
0.86476716 0.37052696 0.23921569
0.90196078 0.40735294 0.23921569
0.93474265 0.44019608 0.23970588
0.9557598 0.46715686 0.25
0.97420343 0.49050245 0.26158088
0.98480392 0.50931373 0.27058824
0.021568627 0.21568627 0.25882353
0.024754902 0.21691176 0.25882353
0.034803922 0.21813725 0.25882353
0.05 0.22132353 0.25882353
0.066666667 0.22156863 0.25882353
0.083333333 0.22156863 0.25882353
0.1 0.22009804 0.25882353
0.12279412 0.22156863 0.25882353
0.16666667 0.2254902 0.25882353
0.21813725 0.23186275 0.25759804
0.26960784 0.2372549 0.25490196
0.32843137 0.23897059 0.25490196
0.40392157 0.24607843 0.25490196
0.48186275 0.25122549 0.25294118
0.55931373 0.25637255 0.25098039
0.63112745 0.28014706 0.24705882
0.70196078 0.30588235 0.24313725
0.76495098 0.32843137 0.2379902
0.81960784 0.35441176 0.23529412
0.86078431 0.38676471 0.23529412
0.9 0.41960784 0.23529412
0.93627451 0.45 0.23578431
0.95343137 0.47401961 0.25
0.96887255 0.49583333 0.26691176
0.97843137 0.50980392 0.2745098
0.015196078 0.21960784 0.25882353
0.021568627 0.22009804 0.25882353
0.032352941 0.225 0.25882353
0.046078431 0.23137255 0.25882353
0.062009804 0.23235294 0.25882353
0.078431373 0.23235294 0.25882353
0.096446078 0.22928922 0.25882353
0.12322304 0.22971814 0.25882353
0.17647059 0.23578431 0.25833333
0.22579657 0.24215686 0.25490196
0.27683824 0.24718137 0.25477941
0.34215686 0.25104167 0.25441176
0.42401961 0.26176471 0.25098039
0.50202206 0.27261029 0.25098039
0.5745098 0.28676471 0.24791667
0.63823529 0.30422794 0.24528186
0.70245098 0.32696078 0.23921569
0.76764706 0.34705882 0.23529412
0.81948529 0.37254902 0.23137255
0.85643382 0.40294118 0.23529412
0.89387255 0.43382353 0.23529412
0.92990196 0.46421569 0.23578431
0.94669118 0.48480392 0.25
0.96354167 0.50539216 0.26783088
0.97254902 0.51813725 0.2745098
0.0078431373 0.22647059 0.25882353
0.013357843 0.23223039 0.25882353
0.021568627 0.23897059 0.25882353
0.029289216 0.24852941 0.25882353
0.041176471 0.25147059 0.25882353
0.057843137 0.25294118 0.25882353
0.078431373 0.2497549 0.25882353
0.1192402 0.25232843 0.25772059
0.17647059 0.25588235 0.25490196
0.23186275 0.25686275 0.25490196
0.28259804 0.25710784 0.25098039
0.35588235 0.27071078 0.25098039
0.43823529 0.28921569 0.2495098
0.51654412 0.3064951 0.24705882
0.59142157 0.32058824 0.24485294
0.65098039 0.3372549 0.23982843
0.70980392 0.35392157 0.23627451
0.76911765 0.37267157 0.2317402
0.81495098 0.39215686 0.23137255
0.85036765 0.41752451 0.23492647
0.88872549 0.44803922 0.23529412
0.92254902 0.4745098 0.23578431
0.94019608 0.49509804 0.25
0.9564951 0.51568627 0.26421569
0.96568627 0.5245098 0.27058824
0.0039215686 0.25539216 0.25882353
0.0072916667 0.25839461 0.25882353
0.010661765 0.26029412 0.25882353
0.014215686 0.26568627 0.25882353
0.019362745 0.26960784 0.25490196
0.033333333 0.26960784 0.25490196
0.061887255 0.27254902 0.25490196
0.11476716 0.275 0.25490196
0.17254902 0.27892157 0.25490196
0.23094363 0.28376225 0.25098039
0.29068627 0.29313725 0.25061275
0.37009804 0.30863971 0.24705882
0.45245098 0.32426471 0.24705882
0.53088235 0.33823529 0.24528186
0.60453431 0.35245098 0.24203431
0.65980392 0.36666667 0.23682598
0.71519608 0.38333333 0.23137255
0.76911765 0.40147059 0.22745098
0.81139706 0.41997549 0.22806373
0.84773284 0.43872549 0.22990196
0.88357843 0.4629902 0.23137255
0.91715686 0.49019608 0.23186275
0.93419118 0.50931373 0.24571078
0.94901961 0.5245098 0.25790441
0.95686275 0.53235294 0.26421569
0.0039215686 0.29411765 0.25882353
0.0039215686 0.29411765 0.25882353
0.0068627451 0.29411765 0.25490196
0.0039215686 0.29068627 0.25490196
0.0039215686 0.29019608 0.25490196
0.012254902 0.29019608 0.25490196
0.046078431 0.29019608 0.25490196
0.10833333 0.2995098 0.25490196
0.17254902 0.30980392 0.25098039
0.23676471 0.32009804 0.25098039
0.3 0.33431373 0.24705882
0.38039216 0.35196078 0.24705882
0.46666667 0.36862745 0.24313725
0.54460784 0.38039216 0.24264706
0.61078431 0.3872549 0.23921569
0.66617647 0.39754902 0.23137255
0.72156863 0.41176471 0.22352941
0.77058824 0.42843137 0.22352941
0.80784314 0.44901961 0.2245098
0.84558824 0.46568627 0.22745098
0.88039216 0.48431373 0.22745098
0.91078431 0.50294118 0.22794118
0.93137255 0.52352941 0.24215686
0.94803922 0.54019608 0.26029412
0.96470588 0.55686275 0.2745098
0.0039215686 0.33137255 0.25490196
0.0039215686 0.33284314 0.25490196
0.0039215686 0.33137255 0.25490196
0.0017769608 0.3276348 0.25490196
0 0.32230392 0.25490196
0 0.31550245 0.25490196
0.033823529 0.32254902 0.25490196
0.098039216 0.33676471 0.25098039
0.16372549 0.35098039 0.25098039
0.23731618 0.36127451 0.24705882
0.30098039 0.37156863 0.24313725
0.38167892 0.38921569 0.24313725
0.47058824 0.40980392 0.23995098
0.55226716 0.42843137 0.23890931
0.61433824 0.43296569 0.23345588
0.66917892 0.43817402 0.22653186
0.7254902 0.44509804 0.21960784
0.77058824 0.45931373 0.21868873
0.80784314 0.47990196 0.22352941
0.84509804 0.496875 0.22352941
0.87720588 0.51519608 0.22598039
0.90833333 0.52959559 0.23039216
0.9307598 0.54656863 0.24754902
0.95588235 0.56715686 0.26813725
0.97254902 0.58529412 0.28480392
0.0039215686 0.37254902 0.25490196
0.0039215686 0.37254902 0.25490196
0.0029411765 0.37254902 0.25490196
0 0.36875 0.25490196
0 0.36715686 0.25490196
0 0.36568627 0.25490196
0.01127451 0.36862745 0.25490196
0.064093137 0.38186275 0.25098039
0.13823529 0.39215686 0.24705882
0.21875 0.4 0.24460784
0.29534314 0.40784314 0.24142157
0.37990196 0.42647059 0.23835784
0.47058824 0.45294118 0.23529412
0.55637255 0.47242647 0.23125
0.62254902 0.48161765 0.22818627
0.67892157 0.48627451 0.22144608
0.72941176 0.49019608 0.21960784
0.77058824 0.49656863 0.21960784
0.80784314 0.51470588 0.22352941
0.84166667 0.53063725 0.22732843
0.87598039 0.54509804 0.23039216
0.90294118 0.5567402 0.23590686
0.92352941 0.57279412 0.25294118
0.94705882 0.58884804 0.2692402
0.9627451 0.60098039 0.28137255
0.0039215686 0.41372549 0.25147059
0.0039215686 0.41372549 0.2536152
0 0.41372549 0.25490196
0 0.41372549 0.25490196
0 0.41323529 0.25490196
0 0.41415441 0.25490196
0.00049019608 0.41752451 0.25110294
0.02745098 0.42303922 0.25098039
0.11078431 0.43333333 0.24705882
0.19705882 0.44117647 0.24460784
0.2872549 0.45 0.24301471
0.37990196 0.47064951 0.23878676
0.46887255 0.49411765 0.23137255
0.55686275 0.51617647 0.22702206
0.63198529 0.52732843 0.22095588
0.68400735 0.53265931 0.21960784
0.72598039 0.53529412 0.21960784
0.77058824 0.54166667 0.22303922
0.81041667 0.55294118 0.22352941
0.84166667 0.55931373 0.22352941
0.87254902 0.56568627 0.22401961
0.8995098 0.57990196 0.23192402
0.91715686 0.59068627 0.24656863
0.92794118 0.60098039 0.25863971
0.93823529 0.60735294 0.27107843
0 0.45490196 0.25098039
0 0.45490196 0.25098039
0 0.45490196 0.25196078
0 0.45857843 0.25490196
0 0.45882353 0.25490196
0 0.46102941 0.25490196
0 0.4627451 0.25147059
0.012009804 0.46544118 0.25098039
0.094117647 0.4745098 0.25098039
0.18553922 0.48480392 0.24779412
0.28235294 0.49509804 0.24656863
0.37622549 0.5127451 0.24142157
0.46568627 0.53333333 0.23431373
0.55122549 0.55367647 0.22696078
0.63235294 0.56911765 0.21813725
0.68431373 0.5752451 0.22034314
0.72745098 0.57647059 0.2254902
0.77058824 0.58284314 0.22745098
0.80735294 0.59068627 0.2254902
0.83970588 0.59411765 0.2254902
0.87058824 0.59411765 0.2245098
0.89460784 0.59656863 0.22818627
0.90196078 0.60294118 0.24019608
0.90931373 0.61053922 0.24852941
0.91764706 0.61372549 0.25882353
0 0.49607843 0.24705882
0 0.49607843 0.25079657
0 0.49705882 0.25196078
0 0.5 0.25490196
0 0.50196078 0.25490196
0.00049019608 0.50392157 0.25490196
0.0039215686 0.50392157 0.25490196
0.012071078 0.50520833 0.25128676
0.069117647 0.51127451 0.25098039
0.16844363 0.52205882 0.25098039
0.27745098 0.53627451 0.24742647
0.37254902 0.55392157 0.24362745
0.46078431 0.57205882 0.2375
0.54503676 0.58578431 0.23229167
0.61715686 0.59607843 0.23186275
0.67892157 0.60686275 0.22824755
0.73333333 0.61715686 0.23137255
0.76813725 0.62107843 0.23186275
0.80245098 0.62058824 0.23590686
0.83333333 0.62107843 0.23970588
0.86421569 0.62107843 0.23995098
0.89025735 0.625 0.24803922
0.90490196 0.62892157 0.25882353
0.91439951 0.63284314 0.26550245
0.91813725 0.63627451 0.26813725
0 0.53333333 0.24705882
0 0.53615196 0.2495098
0 0.5372549 0.25196078
0 0.53823529 0.25490196
0.0034313725 0.54166667 0.25490196
0.0039215686 0.54509804 0.25490196
0.0039215686 0.54509804 0.25490196
0.006372549 0.54215686 0.25343137
0.038235294 0.54607843 0.25098039
0.15208333 0.55882353 0.25098039
0.28553922 0.5752451 0.25098039
0.37254902 0.59129902 0.24742647
0.45735294 0.6 0.24607843
0.5377451 0.61017157 0.24607843
0.60294118 0.62034314 0.24313725
0.66862745 0.63419118 0.24178922
0.73137255 0.64901961 0.24117647
0.76519608 0.64803922 0.2439951
0.79607843 0.64803922 0.24705882
0.82990196 0.64803922 0.25257353
0.86078431 0.65196078 0.25392157
0.88333333 0.65330882 0.26262255
0.90392157 0.65661765 0.27622549
0.92169118 0.66017157 0.28970588
0.93235294 0.66078431 0.29607843
0.0039215686 0.56911765 0.25637255
0.0053921569 0.56911765 0.25637255
0.0053921569 0.57120098 0.25882353
0.0053921569 0.57303922 0.26029412
0.0066176471 0.57696078 0.26029412
0.011948529 0.58088235 0.26029412
0.017156863 0.58088235 0.25882353
0.014705882 0.58088235 0.25582108
0.016666667 0.57843137 0.25245098
0.18088235 0.59601716 0.25582108
0.29019608 0.60931373 0.25637255
0.37383578 0.61813725 0.25637255
0.45882353 0.6252451 0.25637255
0.53088235 0.63480392 0.25998775
0.59411765 0.64509804 0.25637255
0.65833333 0.65539216 0.25692402
0.71862745 0.66421569 0.26176471
0.75882353 0.66905637 0.26268382
0.79117647 0.66960784 0.26568627
0.8245098 0.67352941 0.26568627
0.85686275 0.67818627 0.26691176
0.87990196 0.68137255 0.27843137
0.90392157 0.68284314 0.29509804
0.92843137 0.68529412 0.31029412
0.94509804 0.68676471 0.32058824
0.0039215686 0.60392157 0.2627451
0.010294118 0.60392157 0.26519608
0.011764706 0.60392157 0.26666667
0.011764706 0.60392157 0.26666667
0.0078431373 0.60784314 0.26666667
0.012254902 0.61176471 0.26666667
0.015686275 0.61176471 0.2627451
0.006372549 0.61176471 0.25882353
0.050980392 0.61176471 0.25882353
0.21078431 0.62843137 0.26519608
0.30196078 0.63627451 0.26666667
0.38431373 0.64264706 0.26666667
0.46470588 0.64901961 0.26666667
0.53186275 0.65931373 0.27058824
0.59019608 0.66960784 0.27352941
0.65196078 0.67598039 0.27598039
0.70588235 0.68235294 0.28235294
0.75098039 0.68627451 0.28627451
0.78431373 0.69019608 0.28627451
0.81813725 0.69411765 0.28970588
0.85294118 0.70196078 0.29215686
0.88333333 0.70637255 0.30686275
0.90392157 0.70980392 0.32352941
0.92843137 0.70980392 0.33627451
0.94509804 0.71372549 0.34509804
0.0039215686 0.6372549 0.27303922
0.010294118 0.6372549 0.27303922
0.014583333 0.63872549 0.27303922
0.017830882 0.63529412 0.27303922
0.012254902 0.63480392 0.27058824
0.0058823529 0.63921569 0.26930147
0.025980392 0.64375 0.27058824
0.038296569 0.64264706 0.26856618
0.099019608 0.64264706 0.27156863
0.23382353 0.65441176 0.28033088
0.32696078 0.66262255 0.28051471
0.39491422 0.66746324 0.27696078
0.46862745 0.67352941 0.27696078
0.53186275 0.68363971 0.28351716
0.59019608 0.69019608 0.29019608
0.64748775 0.69509804 0.29656863
0.6995098 0.7004902 0.30294118
0.74313725 0.70594363 0.30931373
0.78039216 0.71078431 0.31323529
0.81783088 0.71470588 0.31685049
0.85171569 0.7245098 0.32696078
0.88596814 0.73333333 0.3377451
0.90784314 0.73676471 0.35257353
0.93143382 0.73676471 0.36568627
0.94901961 0.73823529 0.37352941
0 0.67352941 0.27941176
0.0057598039 0.67352941 0.27941176
0.011764706 0.67352941 0.28014706
0.019117647 0.67058824 0.27941176
0.022058824 0.66960784 0.2754902
0.0088235294 0.66960784 0.27536765
0.02377451 0.67254902 0.2752451
0.12855392 0.67745098 0.28517157
0.20588235 0.67843137 0.29215686
0.27634804 0.68321078 0.29791667
0.35980392 0.68995098 0.29828431
0.42156863 0.69313725 0.29264706
0.47401961 0.69803922 0.29068627
0.53823529 0.70441176 0.3004902
0.59926471 0.71078431 0.31004902
0.6504902 0.71507353 0.31568627
0.69803922 0.71960784 0.32352941
0.73860294 0.72352941 0.33198529
0.77622549 0.72843137 0.3370098
0.81286765 0.73480392 0.34276961
0.84852941 0.74509804 0.35539216
0.88676471 0.75833333 0.37107843
0.91176471 0.76176471 0.38137255
0.93235294 0.76176471 0.39166667
0.95196078 0.76176471 0.40196078
0 0.71176471 0.28970588
0.0058823529 0.70833333 0.28970588
0.012254902 0.70833333 0.28970588
0.025980392 0.70784314 0.28627451
0.030637255 0.70441176 0.28210784
0.070098039 0.70006127 0.28664216
0.11458333 0.69963235 0.29215686
0.20165441 0.70459559 0.30245098
0.29117647 0.70882353 0.3127451
0.35245098 0.71096814 0.31666667
0.41862745 0.71629902 0.31666667
0.47009804 0.71966912 0.31666667
0.51176471 0.72058824 0.31838235
0.55876225 0.725 0.32150735
0.60772059 0.72843137 0.32757353
0.65294118 0.73382353 0.33511029
0.69803922 0.74019608 0.34754902
0.73890931 0.74411765 0.35569853
0.77254902 0.74803922 0.36066176
0.8098652 0.75196078 0.36715686
0.84338235 0.76176471 0.37745098
0.87647059 0.76862745 0.39166667
0.90441176 0.77205882 0.4057598
0.925 0.77205882 0.41617647
0.94166667 0.7754902 0.42254902
0.16862745 0.7372549 0.31176471
0.16029412 0.73529412 0.31102941
0.15539216 0.73333333 0.31421569
0.17867647 0.73333333 0.3120098
0.22745098 0.73333333 0.31078431
0.23529412 0.72916667 0.3120098
0.24852941 0.72745098 0.31519608
0.29411765 0.72941176 0.32156863
0.35294118 0.73333333 0.32745098
0.41593137 0.73651961 0.33259804
0.46666667 0.73970588 0.33823529
0.50784314 0.74117647 0.34313725
0.54705882 0.74509804 0.34509804
0.58406863 0.74558824 0.34705882
0.62009804 0.74901961 0.3504902
0.6627451 0.75441176 0.36421569
0.70392157 0.76078431 0.3745098
0.74656863 0.76470588 0.38627451
0.77745098 0.76862745 0.39019608
0.80833333 0.77034314 0.39362745
0.8372549 0.77352941 0.40098039
0.86789216 0.77843137 0.41446078
0.89705882 0.78235294 0.42794118
0.91985294 0.78627451 0.4379902
0.92941176 0.78627451 0.44313725
0.31862745 0.76176471 0.34313725
0.31384804 0.7596201 0.34283088
0.3 0.75784314 0.34313725
0.31078431 0.75484069 0.34221814
0.33039216 0.75612745 0.33480392
0.34748775 0.75441176 0.33480392
0.36764706 0.75441176 0.34166667
0.39705882 0.75441176 0.34442402
0.42794118 0.75784314 0.34705882
0.46390931 0.76047794 0.35343137
0.50490196 0.76188725 0.36286765
0.54607843 0.76525735 0.37009804
0.5870098 0.76593137 0.37647059
0.62689951 0.76960784 0.38327206
0.65355392 0.76960784 0.39056373
0.68431373 0.77352941 0.3995098
0.72254902 0.77745098 0.40980392
0.75998775 0.78529412 0.41764706
0.79166667 0.78529412 0.42512255
0.82254902 0.78529412 0.42935049
0.84362745 0.78897059 0.4370098
0.86856618 0.79270833 0.4495098
0.89522059 0.79571078 0.45980392
0.91519608 0.8004902 0.46862745
0.92156863 0.8004902 0.46862745
0.41764706 0.78529412 0.38431373
0.41764706 0.78345588 0.38370098
0.41666667 0.78210784 0.38259804
0.42107843 0.78137255 0.37696078
0.43529412 0.78137255 0.37401961
0.44656863 0.78137255 0.37291667
0.46372549 0.78137255 0.38014706
0.48970588 0.7817402 0.38762255
0.51372549 0.78235294 0.39215686
0.53676471 0.78419118 0.39791667
0.56887255 0.78627451 0.40490196
0.60784314 0.78884804 0.41433824
0.64019608 0.79019608 0.42107843
0.66764706 0.79019608 0.42794118
0.69215686 0.79019608 0.43431373
0.71703431 0.79411765 0.44252451
0.75 0.79803922 0.45098039
0.78296569 0.80257353 0.46066176
0.80808824 0.80294118 0.4629902
0.83321078 0.80294118 0.46666667
0.85392157 0.80441176 0.47647059
0.87463235 0.80980392 0.49068627
0.89828431 0.8129902 0.50392157
0.91911765 0.81764706 0.51421569
0.9245098 0.81764706 0.51666667
0.52598039 0.80833333 0.42696078
0.5245098 0.80741422 0.4254902
0.52879902 0.80833333 0.42696078
0.52990196 0.80704657 0.4254902
0.53823529 0.80686275 0.42303922
0.54607843 0.80686275 0.42303922
0.56066176 0.80686275 0.42879902
0.58033088 0.80686275 0.43480392
0.59607843 0.80686275 0.43872549
0.61519608 0.80833333 0.44417892
0.63639706 0.81078431 0.45110294
0.66617647 0.81207108 0.45655637
0.69215686 0.81348039 0.46544118
0.7127451 0.81470588 0.47303922
0.73333333 0.81470588 0.47941176
0.75392157 0.81617647 0.48578431
0.78088235 0.81862745 0.49607843
0.81084559 0.82254902 0.50392157
0.82843137 0.82218137 0.50490196
0.84540441 0.82107843 0.50784314
0.86421569 0.82181373 0.51568627
0.88333333 0.82647059 0.53235294
0.90392157 0.83039216 0.54938725
0.92359069 0.83523284 0.56329657
0.92941176 0.83431373 0.56421569
0.61960784 0.83137255 0.4627451
0.61323529 0.82745098 0.4627451
0.62058824 0.82843137 0.46372549
0.62696078 0.83137255 0.46617647
0.6372549 0.83137255 0.46862745
0.63529412 0.82745098 0.46666667
0.63823529 0.82745098 0.46666667
0.65245098 0.82745098 0.47205882
0.66666667 0.82745098 0.47843137
0.68088235 0.82745098 0.48235294
0.7 0.83137255 0.49117647
0.71764706 0.83529412 0.49803922
0.73137255 0.83137255 0.50196078
0.7495098 0.83480392 0.50980392
0.76666667 0.83137255 0.51666667
0.7872549 0.83529412 0.52303922
0.81176471 0.83921569 0.53333333
0.82990196 0.83921569 0.54117647
0.84411765 0.83529412 0.54117647
0.85784314 0.83529412 0.54460784
0.87058824 0.83529412 0.54901961
0.89117647 0.83970588 0.56911765
0.90784314 0.84607843 0.58627451
0.92843137 0.85245098 0.60833333
0.93333333 0.85098039 0.60784314
0.039215686 0.20784314 0.25490196
0.039215686 0.20784314 0.25490196
0.039215686 0.20723039 0.25490196
0.039215686 0.20392157 0.25490196
0.045098039 0.20392157 0.25490196
0.063909314 0.20784314 0.25490196
0.087622549 0.20784314 0.25784314
0.10882353 0.20784314 0.25882353
0.12941176 0.20784314 0.25882353
0.17248775 0.20784314 0.25882353
0.23333333 0.21176471 0.25882353
0.29509804 0.21568627 0.25882353
0.35808824 0.21960784 0.25882353
0.43529412 0.22401961 0.25882353
0.52156863 0.23039216 0.25490196
0.61084559 0.23529412 0.25490196
0.69803922 0.24558824 0.25490196
0.76519608 0.275 0.25398284
0.81458333 0.31164216 0.24852941
0.86078431 0.3473652 0.24313725
0.90588235 0.37843137 0.23921569
0.93039216 0.40931373 0.24607843
0.9495098 0.44019608 0.25637255
0.97009804 0.47052696 0.26666667
0.98676471 0.49264706 0.27303922
0.036764706 0.20784314 0.25490196
0.036764706 0.20784314 0.25490196
0.038066789 0.20784314 0.25490196
0.039215686 0.20784314 0.25490196
0.050245098 0.20784314 0.25490196
0.070098039 0.20814951 0.25520833
0.090686275 0.21029412 0.25882353
0.11219363 0.21121324 0.25882353
0.13823529 0.21121324 0.25882353
0.17886029 0.21142004 0.25882353
0.23578431 0.21320466 0.25882353
0.29754902 0.21568627 0.25882353
0.36050858 0.21960784 0.25882353
0.43792892 0.22401961 0.25863971
0.52489277 0.23284314 0.25490196
0.61302849 0.24293045 0.25490196
0.6971201 0.25833333 0.25189951
0.76617647 0.28284314 0.24875919
0.81980699 0.31663603 0.24382659
0.86470588 0.35 0.24039522
0.90542279 0.38480392 0.23921569
0.93039216 0.41568627 0.24607843
0.95098039 0.44656863 0.25637255
0.97156863 0.47540594 0.266322
0.98915441 0.5004902 0.27303922
0.031372549 0.21176471 0.25490196
0.034313725 0.21176471 0.25490196
0.035294118 0.21176471 0.25490196
0.042647059 0.21176471 0.25490196
0.056433824 0.21176471 0.25539216
0.075260417 0.21188725 0.25882353
0.096078431 0.2127451 0.25882353
0.11703431 0.21568627 0.25882353
0.14852941 0.21568627 0.25882353
0.18970588 0.21643689 0.25882353
0.24607843 0.21776961 0.25882353
0.30494792 0.21937806 0.25882353
0.36550245 0.21960784 0.25882353
0.445144 0.22892157 0.25801164
0.53342525 0.24215686 0.25490196
0.62022059 0.25689338 0.25251225
