site/assets/luts/sha256-addcac1f81368b76100835ee0b1c4e2671c0bceb328ba9880b677326825399dc.cube
# LUTr-Schema-Version: 2
# LUTr-ID: sha256-addcac1f81368b76100835ee0b1c4e2671c0bceb328ba9880b677326825399dc
# LUTr-Title: vintage brighter
# LUTr-Collection: Natron HaldCLUT
# LUTr-Collection-ID: natron-haldclut-presets
# LUTr-Source: https://github.com/NatronGitHub/clut
# LUTr-Retrieved: 2026-07-27
# LUTr-Source-File: submissions/natron-haldclut-presets/various/vintage_brighter.png
# LUTr-Source-Format: HALD-PNG
# LUTr-Source-SHA256: addcac1f81368b76100835ee0b1c4e2671c0bceb328ba9880b677326825399dc
# LUTr-License: CC-BY-SA-4.0
# LUTr-License-URL: https://github.com/NatronGitHub/clut#license
# LUTr-License-Basis: repo-license-file
# LUTr-Transform-Class: film-emulation
# LUTr-Tags: creative, film, film-emulation, hald-clut, natron, png, vintage, cube
# LUTr-Input-Color-Space: srgb
# LUTr-Input-Gamut: rec709
# LUTr-Input-Transfer: srgb
# LUTr-Output-Color-Space: srgb
# LUTr-Output-Gamut: rec709
# LUTr-Output-Transfer: srgb
# LUTr-Color-Space-Confidence: assumed-display-referred
# LUTr-Domain-Normalized: true
# LUTr-Shaper: none
# LUTr-Original-Grid: 64x64x64
# LUTr-Conversion-Grid: 25x25x25
# LUTr-Conversion-Interpolation: trilinear
# LUTr-Conversion-Method: HALD-PNG LUT image decoded at 16-bit and sampled to 25x25x25 3D CUBE
# LUTr-Conversion-Tool: LUTr scripts/convert-all-to-cube.mjs 2.0.0
# LUTr-Conversion-Date: 2026-07-27
# LUTr-Note: Preserve this metadata and the upstream license notices when redistributing.
TITLE "vintage brighter"
LUT_3D_SIZE 5
DOMAIN_MIN 0 0 0
DOMAIN_MAX 1 1 1
0.0039215686 0.011764706 0.18823529
0.16372549 0 0.16470588
0.49803922 0 0.16470588
0.8254902 0.0039215686 0.18039216
0.96470588 0.0039215686 0.17647059
0.0039215686 0.15882353 0.1754902
0.16372549 0.15980392 0.18333333
0.5 0.17205882 0.17647059
0.82843137 0.16348039 0.17156863
0.98823529 0.16764706 0.17254902
0.0039215686 0.48627451 0.17254902
0.16372549 0.5 0.18676471
0.49313725 0.49215686 0.16372549
0.825 0.48431373 0.17794118
0.99215686 0.48823529 0.19215686
0.0078431373 0.83235294 0.16862745
0.16372549 0.8245098 0.17254902
0.48823529 0.82058824 0.17892157
0.82083333 0.81666667 0.17720588
1 0.81176471 0.17843137
0 0.99215686 0.17254902
0.15588235 0.99607843 0.17254902
0.49019608 0.99607843 0.19607843
0.82058824 0.99215686 0.20392157
1 1 0.17254902
0 0.012745098 0.4
0.15980392 0.0056372549 0.39607843
0.49068627 0 0.39460784
0.8254902 0 0.38921569
1 0 0.39607843
0 0.16764706 0.40784314
0.15588235 0.16372549 0.4
0.49607843 0.15514706 0.40392157
0.8245098 0.15196078 0.40465686
1 0.15906863 0.40318627
0 0.49215686 0.40637255
0.15980392 0.49742647 0.40980392
0.49215686 0.49117647 0.40784314
0.82303922 0.49166667 0.41139706
1 0.49019608 0.40392157
0.0039215686 0.8245098 0.4
0.15606618 0.8245098 0.40778186
0.49252451 0.82058824 0.40784314
0.81838235 0.82058824 0.40392157
0.99509804 0.82622549 0.40392157
0 1 0.40686275
0.15955882 0.99926471 0.40392157
0.48823529 1 0.41176471
0.81348039 0.99509804 0.41176471
0.98431373 1 0.40882353
0.0039215686 0.0058823529 0.62156863
0.16470588 0.0039215686 0.6122549
0.48039216 0 0.60588235
0.81911765 0.0078431373 0.60588235
1 0.0039215686 0.60588235
0.011764706 0.16666667 0.61764706
0.16372549 0.15980392 0.61409314
0.49191176 0.15588235 0.6125
0.81813725 0.15735294 0.60539216
0.96960784 0.15980392 0.6
0.011764706 0.49019608 0.60686275
0.16740196 0.49509804 0.60588235
0.49460784 0.49068627 0.61470588
0.83235294 0.49485294 0.61715686
0.99803922 0.49803922 0.61372549
0 0.83627451 0.62009804
0.14730392 0.82058824 0.61654412
0.49583333 0.82867647 0.61102941
0.82022059 0.81421569 0.61519608
0.99215686 0.81715686 0.61176471
0.0019607843 1 0.60980392
0.15588235 1 0.61960784
0.49117647 1 0.61372549
0.80882353 0.9872549 0.61715686
0.99215686 1 0.61372549
0.011764706 0 0.75098039
0.16838235 0 0.75098039
0.48921569 0.0039215686 0.74313725
0.81666667 0.011519608 0.74607843
0.99607843 0.0039215686 0.74705882
0.0039215686 0.15588235 0.75098039
0.16372549 0.16666667 0.74779412
0.48431373 0.15931373 0.74705882
0.82003676 0.15980392 0.75
0.99607843 0.16764706 0.74705882
0.0053921569 0.48431373 0.75098039
0.16605392 0.49534314 0.74571078
0.48946078 0.48039216 0.74607843
0.81911765 0.49411765 0.74607843
1 0.48627451 0.74607843
0.0080882353 0.82156863 0.75392157
0.15588235 0.82886029 0.7533701
0.49767157 0.81666667 0.74705882
0.82058824 0.8278799 0.74313725
0.99215686 0.82058824 0.74313725
0.0049019608 0.99215686 0.75882353
0.16691176 0.99926471 0.75882353
0.50392157 1 0.75441176
0.83235294 0.98259804 0.74681373
0.99607843 0.97941176 0.74607843
0.0078431373 0.0039215686 0.83137255
0.17058824 0.034313725 0.83137255
0.49607843 0.0058823529 0.83333333
0.82058824 0.0039215686 0.82352941
1 0.0039215686 0.82352941
0.0039215686 0.17058824 0.81666667
0.1627451 0.15980392 0.82745098
0.4877451 0.15 0.82352941
0.8127451 0.1627451 0.81102941
1 0.15980392 0.81960784
0.0039215686 0.49607843 0.8254902
0.1627451 0.48823529 0.82745098
0.49607843 0.48039216 0.82352941
0.8245098 0.48823529 0.83431373
1 0.48235294 0.82745098
0.016666667 0.83333333 0.83137255
0.17254902 0.82843137 0.82843137
0.49215686 0.82647059 0.82745098
0.8252451 0.82843137 0.82352941
0.99215686 0.8254902 0.81960784
0.015686275 1 0.83137255
0.17941176 0.99607843 0.83137255
0.49215686 1 0.83529412
0.82058824 0.99607843 0.82352941
0.98431373 0.99215686 0.82352941
