site/assets/luts/sha256-ef3c1648f916ab363c8226586502e61973d48dcf229119ee93af25a1b94d0285.cube
# LUTr-Schema-Version: 2
# LUTr-ID: sha256-ef3c1648f916ab363c8226586502e61973d48dcf229119ee93af25a1b94d0285
# LUTr-Title: fuji neopan acros 100
# LUTr-Collection: Natron HaldCLUT
# LUTr-Collection-ID: natron-haldclut-presets
# LUTr-Source: https://github.com/NatronGitHub/clut
# LUTr-Retrieved: 2026-07-27
# LUTr-Source-File: submissions/natron-haldclut-presets/bw/fuji_neopan_acros_100.png
# LUTr-Source-Format: HALD-PNG
# LUTr-Source-SHA256: ef3c1648f916ab363c8226586502e61973d48dcf229119ee93af25a1b94d0285
# LUTr-License: CC-BY-SA-4.0
# LUTr-License-URL: https://github.com/NatronGitHub/clut#license
# LUTr-License-Basis: repo-license-file
# LUTr-Transform-Class: film-emulation
# LUTr-Tags: creative, film, film-emulation, hald-clut, natron, png, black-and-white, cube
# LUTr-Input-Color-Space: srgb
# LUTr-Input-Gamut: rec709
# LUTr-Input-Transfer: srgb
# LUTr-Output-Color-Space: srgb
# LUTr-Output-Gamut: rec709
# LUTr-Output-Transfer: srgb
# LUTr-Color-Space-Confidence: assumed-display-referred
# LUTr-Domain-Normalized: true
# LUTr-Shaper: none
# LUTr-Original-Grid: 64x64x64
# LUTr-Conversion-Grid: 25x25x25
# LUTr-Conversion-Interpolation: trilinear
# LUTr-Conversion-Method: HALD-PNG LUT image decoded at 16-bit and sampled to 25x25x25 3D CUBE
# LUTr-Conversion-Tool: LUTr scripts/convert-all-to-cube.mjs 2.0.0
# LUTr-Conversion-Date: 2026-07-27
# LUTr-Note: Preserve this metadata and the upstream license notices when redistributing.
TITLE "fuji neopan acros 100"
LUT_3D_SIZE 25
DOMAIN_MIN 0 0 0
DOMAIN_MAX 1 1 1
0.02745098 0.02745098 0.02745098
0.023529412 0.023529412 0.023529412
0.02254902 0.02254902 0.02254902
0.019607843 0.019607843 0.019607843
0.01372549 0.01372549 0.01372549
0.012745098 0.012745098 0.012745098
0.026470588 0.026470588 0.026470588
0.036764706 0.036764706 0.036764706
0.047058824 0.047058824 0.047058824
0.053431373 0.053431373 0.053431373
0.06372549 0.06372549 0.06372549
0.074019608 0.074019608 0.074019608
0.088235294 0.088235294 0.088235294
0.098529412 0.098529412 0.098529412
0.10882353 0.10882353 0.10882353
0.11911765 0.11911765 0.11911765
0.12941176 0.12941176 0.12941176
0.13578431 0.13578431 0.13578431
0.14215686 0.14215686 0.14215686
0.14852941 0.14852941 0.14852941
0.15882353 0.15882353 0.15882353
0.18578431 0.18578431 0.18578431
0.20980392 0.20980392 0.20980392
0.23039216 0.23039216 0.23039216
0.23529412 0.23529412 0.23529412
0.040196078 0.040196078 0.040196078
0.040196078 0.040196078 0.040196078
0.03627451 0.03627451 0.03627451
0.03627451 0.03627451 0.03627451
0.033578431 0.033578431 0.033578431
0.036580882 0.036580882 0.036580882
0.04375 0.04375 0.04375
0.053431373 0.053431373 0.053431373
0.06372549 0.06372549 0.06372549
0.070098039 0.070098039 0.070098039
0.078553922 0.078553922 0.078553922
0.090686275 0.090686275 0.090686275
0.10171569 0.10171569 0.10171569
0.11519608 0.11519608 0.11519608
0.1254902 0.1254902 0.1254902
0.13578431 0.13578431 0.13578431
0.14215686 0.14215686 0.14215686
0.15245098 0.15245098 0.15245098
0.15882353 0.15882353 0.15882353
0.16764706 0.16764706 0.16764706
0.18137255 0.18137255 0.18137255
0.20851716 0.20851716 0.20851716
0.23284314 0.23284314 0.23284314
0.25098039 0.25098039 0.25098039
0.25588235 0.25588235 0.25588235
0.061764706 0.061764706 0.061764706
0.061151961 0.061151961 0.061151961
0.060784314 0.060784314 0.060784314
0.058210784 0.058210784 0.058210784
0.060784314 0.060784314 0.060784314
0.064828431 0.064828431 0.064828431
0.069362745 0.069362745 0.069362745
0.077941176 0.077941176 0.077941176
0.085294118 0.085294118 0.085294118
0.091053922 0.091053922 0.091053922
0.10098039 0.10098039 0.10098039
0.11127451 0.11127451 0.11127451
0.12156863 0.12156863 0.12156863
0.13578431 0.13578431 0.13578431
0.14607843 0.14607843 0.14607843
0.15637255 0.15637255 0.15637255
0.16666667 0.16666667 0.16666667
0.17340686 0.17340686 0.17340686
0.18333333 0.18333333 0.18333333
0.19448529 0.19448529 0.19448529
0.21078431 0.21078431 0.21078431
0.23443627 0.23443627 0.23443627
0.25882353 0.25882353 0.25882353
0.27438725 0.27438725 0.27438725
0.28137255 0.28137255 0.28137255
0.085294118 0.085294118 0.085294118
0.085294118 0.085294118 0.085294118
0.085171569 0.085171569 0.085171569
0.084803922 0.084803922 0.084803922
0.087009804 0.087009804 0.087009804
0.089644608 0.089644608 0.089644608
0.095710784 0.095710784 0.095710784
0.10245098 0.10245098 0.10245098
0.10882353 0.10882353 0.10882353
0.11862745 0.11862745 0.11862745
0.1254902 0.1254902 0.1254902
0.13578431 0.13578431 0.13578431
0.14607843 0.14607843 0.14607843
0.15637255 0.15637255 0.15637255
0.17046569 0.17046569 0.17046569
0.18088235 0.18088235 0.18088235
0.19068627 0.19068627 0.19068627
0.19754902 0.19754902 0.19754902
0.20784314 0.20784314 0.20784314
0.22156863 0.22156863 0.22156863
0.2379902 0.2379902 0.2379902
0.25925245 0.25925245 0.25925245
0.28296569 0.28296569 0.28296569
0.29852941 0.29852941 0.29852941
0.30490196 0.30490196 0.30490196
0.10980392 0.10980392 0.10980392
0.10980392 0.10980392 0.10980392
0.10980392 0.10980392 0.10980392
0.11151961 0.11151961 0.11151961
0.11372549 0.11372549 0.11372549
0.11789216 0.11789216 0.11789216
0.12303922 0.12303922 0.12303922
0.12892157 0.12892157 0.12892157
0.13529412 0.13529412 0.13529412
0.14362745 0.14362745 0.14362745
0.15196078 0.15196078 0.15196078
0.16029412 0.16029412 0.16029412
0.16960784 0.16960784 0.16960784
0.17916667 0.17916667 0.17916667
0.19117647 0.19117647 0.19117647
0.20343137 0.20343137 0.20343137
0.21372549 0.21372549 0.21372549
0.22328431 0.22328431 0.22328431
0.23480392 0.23480392 0.23480392
0.2502451 0.2502451 0.2502451
0.26764706 0.26764706 0.26764706
0.2872549 0.2872549 0.2872549
0.30784314 0.30784314 0.30784314
0.32303922 0.32303922 0.32303922
0.33137255 0.33137255 0.33137255
0.13431373 0.13431373 0.13431373
0.13431373 0.13431373 0.13431373
0.13480392 0.13480392 0.13480392
0.13780637 0.13780637 0.13780637
0.14044118 0.14044118 0.14044118
0.14613971 0.14613971 0.14613971
0.14914216 0.14914216 0.14914216
0.15410539 0.15410539 0.15410539
0.16176471 0.16176471 0.16176471
0.16832108 0.16832108 0.16832108
0.17757353 0.17757353 0.17757353
0.18480392 0.18480392 0.18480392
0.19166667 0.19166667 0.19166667
0.20196078 0.20196078 0.20196078
0.21482843 0.21482843 0.21482843
0.22598039 0.22598039 0.22598039
0.23627451 0.23627451 0.23627451
0.246875 0.246875 0.246875
0.26213235 0.26213235 0.26213235
0.27892157 0.27892157 0.27892157
0.29558824 0.29558824 0.29558824
0.31525735 0.31525735 0.31525735
0.33235294 0.33235294 0.33235294
0.34773284 0.34773284 0.34773284
0.35784314 0.35784314 0.35784314
0.15882353 0.15882353 0.15882353
0.15882353 0.15882353 0.15882353
0.16176471 0.16176471 0.16176471
0.16531863 0.16531863 0.16531863
0.16813725 0.16813725 0.16813725
0.17095588 0.17095588 0.17095588
0.1745098 0.1745098 0.1745098
0.17953431 0.17953431 0.17953431
0.18529412 0.18529412 0.18529412
0.19264706 0.19264706 0.19264706
0.19901961 0.19901961 0.19901961
0.20845588 0.20845588 0.20845588
0.21568627 0.21568627 0.21568627
0.22598039 0.22598039 0.22598039
0.23627451 0.23627451 0.23627451
0.2495098 0.2495098 0.2495098
0.26078431 0.26078431 0.26078431
0.27107843 0.27107843 0.27107843
0.28921569 0.28921569 0.28921569
0.3060049 0.3060049 0.3060049
0.32303922 0.32303922 0.32303922
0.34007353 0.34007353 0.34007353
0.35686275 0.35686275 0.35686275
0.37316176 0.37316176 0.37316176
0.38529412 0.38529412 0.38529412
0.17941176 0.17941176 0.17941176
0.18425245 0.18425245 0.18425245
0.18872549 0.18872549 0.18872549
0.19264706 0.19264706 0.19264706
0.19656863 0.19656863 0.19656863
0.2004902 0.2004902 0.2004902
0.20404412 0.20404412 0.20404412
0.20441176 0.20441176 0.20441176
0.20686275 0.20686275 0.20686275
0.215625 0.215625 0.215625
0.225 0.225 0.225
0.23382353 0.23382353 0.23382353
0.24166667 0.24166667 0.24166667
0.25196078 0.25196078 0.25196078
0.2622549 0.2622549 0.2622549
0.27254902 0.27254902 0.27254902
0.28137255 0.28137255 0.28137255
0.29558824 0.29558824 0.29558824
0.31580882 0.31580882 0.31580882
0.33284314 0.33284314 0.33284314
0.34877451 0.34877451 0.34877451
0.36599265 0.36599265 0.36599265
0.38345588 0.38345588 0.38345588
0.39895833 0.39895833 0.39895833
0.41078431 0.41078431 0.41078431
0.21568627 0.21568627 0.21568627
0.21813725 0.21813725 0.21813725
0.22058824 0.22058824 0.22058824
0.22696078 0.22696078 0.22696078
0.22941176 0.22941176 0.22941176
0.23186275 0.23186275 0.23186275
0.23529412 0.23529412 0.23529412
0.23921569 0.23921569 0.23921569
0.24313725 0.24313725 0.24313725
0.24705882 0.24705882 0.24705882
0.25588235 0.25588235 0.25588235
0.2622549 0.2622549 0.2622549
0.27254902 0.27254902 0.27254902
0.28284314 0.28284314 0.28284314
0.29313725 0.29313725 0.29313725
0.30343137 0.30343137 0.30343137
0.31372549 0.31372549 0.31372549
0.32401961 0.32401961 0.32401961
0.34215686 0.34215686 0.34215686
0.35980392 0.35980392 0.35980392
0.37647059 0.37647059 0.37647059
0.39264706 0.39264706 0.39264706
0.40980392 0.40980392 0.40980392
0.425 0.425 0.425
0.43921569 0.43921569 0.43921569
0.25294118 0.25294118 0.25294118
0.25386029 0.25386029 0.25386029
0.25723039 0.25723039 0.25723039
0.26078431 0.26078431 0.26078431
0.26544118 0.26544118 0.26544118
0.26881127 0.26881127 0.26881127
0.27193627 0.27193627 0.27193627
0.27647059 0.27647059 0.27647059
0.28039216 0.28039216 0.28039216
0.28339461 0.28339461 0.28339461
0.29031863 0.29031863 0.29031863
0.29705882 0.29705882 0.29705882
0.30735294 0.30735294 0.30735294
0.31617647 0.31617647 0.31617647
0.32757353 0.32757353 0.32757353
0.33823529 0.33823529 0.33823529
0.34852941 0.34852941 0.34852941
0.35827206 0.35827206 0.35827206
0.37009804 0.37009804 0.37009804
0.38676471 0.38676471 0.38676471
0.40343137 0.40343137 0.40343137
0.41979167 0.41979167 0.41979167
0.43676471 0.43676471 0.43676471
0.45196078 0.45196078 0.45196078
0.46372549 0.46372549 0.46372549
0.29019608 0.29019608 0.29019608
0.29313725 0.29313725 0.29313725
0.29485294 0.29485294 0.29485294
0.29803922 0.29803922 0.29803922
0.30196078 0.30196078 0.30196078
0.30588235 0.30588235 0.30588235
0.30955882 0.30955882 0.30955882
0.31372549 0.31372549 0.31372549
0.31764706 0.31764706 0.31764706
0.32120098 0.32120098 0.32120098
0.32622549 0.32622549 0.32622549
0.33284314 0.33284314 0.33284314
0.34215686 0.34215686 0.34215686
0.35245098 0.35245098 0.35245098
0.3627451 0.3627451 0.3627451
0.37303922 0.37303922 0.37303922
0.37941176 0.37941176 0.37941176
0.38970588 0.38970588 0.38970588
0.40098039 0.40098039 0.40098039
0.41421569 0.41421569 0.41421569
0.43186275 0.43186275 0.43186275
0.44705882 0.44705882 0.44705882
0.46446078 0.46446078 0.46446078
0.47794118 0.47794118 0.47794118
0.48529412 0.48529412 0.48529412
0.32794118 0.32794118 0.32794118
0.33137255 0.33137255 0.33137255
0.33529412 0.33529412 0.33529412
0.33872549 0.33872549 0.33872549
0.34142157 0.34142157 0.34142157
0.34362745 0.34362745 0.34362745
0.34742647 0.34742647 0.34742647
0.35116422 0.35116422 0.35116422
0.35490196 0.35490196 0.35490196
0.3591299 0.3591299 0.3591299
0.36372549 0.36372549 0.36372549
0.37015931 0.37015931 0.37015931
0.37696078 0.37696078 0.37696078
0.3872549 0.3872549 0.3872549
0.39754902 0.39754902 0.39754902
0.40606618 0.40606618 0.40606618
0.41421569 0.41421569 0.41421569
0.42401961 0.42401961 0.42401961
0.43443627 0.43443627 0.43443627
0.44509804 0.44509804 0.44509804
0.46127451 0.46127451 0.46127451
0.47794118 0.47794118 0.47794118
0.49166667 0.49166667 0.49166667
0.50245098 0.50245098 0.50245098
0.50882353 0.50882353 0.50882353
0.36862745 0.36862745 0.36862745
0.36985294 0.36985294 0.36985294
0.37352941 0.37352941 0.37352941
0.37647059 0.37647059 0.37647059
0.38039216 0.38039216 0.38039216
0.38431373 0.38431373 0.38431373
0.38823529 0.38823529 0.38823529
0.39215686 0.39215686 0.39215686
0.39607843 0.39607843 0.39607843
0.39852941 0.39852941 0.39852941
0.40392157 0.40392157 0.40392157
0.40784314 0.40784314 0.40784314
0.41470588 0.41470588 0.41470588
0.42377451 0.42377451 0.42377451
0.43235294 0.43235294 0.43235294
0.43872549 0.43872549 0.43872549
0.44705882 0.44705882 0.44705882
0.45539216 0.45539216 0.45539216
0.46617647 0.46617647 0.46617647
0.47990196 0.47990196 0.47990196
0.49411765 0.49411765 0.49411765
0.50833333 0.50833333 0.50833333
0.51715686 0.51715686 0.51715686
0.52696078 0.52696078 0.52696078
0.53333333 0.53333333 0.53333333
0.40980392 0.40980392 0.40980392
0.40980392 0.40980392 0.40980392
0.41384804 0.41384804 0.41384804
0.41764706 0.41764706 0.41764706
0.42156863 0.42156863 0.42156863
0.4254902 0.4254902 0.4254902
0.42941176 0.42941176 0.42941176
0.43088235 0.43088235 0.43088235
0.43333333 0.43333333 0.43333333
0.43970588 0.43970588 0.43970588
0.44509804 0.44509804 0.44509804
0.44852941 0.44852941 0.44852941
0.45294118 0.45294118 0.45294118
0.46035539 0.46035539 0.46035539
0.46727941 0.46727941 0.46727941
0.47383578 0.47383578 0.47383578
0.48039216 0.48039216 0.48039216
0.49019608 0.49019608 0.49019608
0.5004902 0.5004902 0.5004902
0.51427696 0.51427696 0.51427696
0.525 0.525 0.525
0.53480392 0.53480392 0.53480392
0.54252451 0.54252451 0.54252451
0.55147059 0.55147059 0.55147059
0.55784314 0.55784314 0.55784314
0.45098039 0.45098039 0.45098039
0.45281863 0.45281863 0.45281863
0.45588235 0.45588235 0.45588235
0.45882353 0.45882353 0.45882353
0.46470588 0.46470588 0.46470588
0.46666667 0.46666667 0.46666667
0.47058824 0.47058824 0.47058824
0.4745098 0.4745098 0.4745098
0.47843137 0.47843137 0.47843137
0.48088235 0.48088235 0.48088235
0.48627451 0.48627451 0.48627451
0.48970588 0.48970588 0.48970588
0.49411765 0.49411765 0.49411765
0.49816176 0.49816176 0.49816176
0.50269608 0.50269608 0.50269608
0.50833333 0.50833333 0.50833333
0.51470588 0.51470588 0.51470588
0.525 0.525 0.525
0.53529412 0.53529412 0.53529412
0.54558824 0.54558824 0.54558824
0.55245098 0.55245098 0.55245098
0.56188725 0.56188725 0.56188725
0.56862745 0.56862745 0.56862745
0.57561275 0.57561275 0.57561275
0.58137255 0.58137255 0.58137255
0.49215686 0.49215686 0.49215686
0.49515931 0.49515931 0.49515931
0.49705882 0.49705882 0.49705882
0.50343137 0.50343137 0.50343137
0.50588235 0.50588235 0.50588235
0.50833333 0.50833333 0.50833333
0.51176471 0.51176471 0.51176471
0.51568627 0.51568627 0.51568627
0.51960784 0.51960784 0.51960784
0.52352941 0.52352941 0.52352941
0.52745098 0.52745098 0.52745098
0.53088235 0.53088235 0.53088235
0.53529412 0.53529412 0.53529412
0.53792892 0.53792892 0.53792892
0.54105392 0.54105392 0.54105392
0.54613971 0.54613971 0.54613971
0.55098039 0.55098039 0.55098039
0.55980392 0.55980392 0.55980392
0.56617647 0.56617647 0.56617647
0.57518382 0.57518382 0.57518382
0.58210784 0.58210784 0.58210784
0.58872549 0.58872549 0.58872549
0.59448529 0.59448529 0.59448529
0.60140931 0.60140931 0.60140931
0.60686275 0.60686275 0.60686275
0.5372549 0.5372549 0.5372549
0.5372549 0.5372549 0.5372549
0.54117647 0.54117647 0.54117647
0.54460784 0.54460784 0.54460784
0.54901961 0.54901961 0.54901961
0.55294118 0.55294118 0.55294118
0.55294118 0.55294118 0.55294118
0.55686275 0.55686275 0.55686275
0.56078431 0.56078431 0.56078431
0.56470588 0.56470588 0.56470588
0.56862745 0.56862745 0.56862745
0.57254902 0.57254902 0.57254902
0.57647059 0.57647059 0.57647059
0.57696078 0.57696078 0.57696078
0.58039216 0.58039216 0.58039216
0.58431373 0.58431373 0.58431373
0.58823529 0.58823529 0.58823529
0.59215686 0.59215686 0.59215686
0.6 0.6 0.6
0.60392157 0.60392157 0.60392157
0.61176471 0.61176471 0.61176471
0.61617647 0.61617647 0.61617647
0.62352941 0.62352941 0.62352941
0.62892157 0.62892157 0.62892157
0.63529412 0.63529412 0.63529412
0.57843137 0.57843137 0.57843137
0.57996324 0.57996324 0.57996324
0.58235294 0.58235294 0.58235294
0.58627451 0.58627451 0.58627451
0.59019608 0.59019608 0.59019608
0.59411765 0.59411765 0.59411765
0.59705882 0.59705882 0.59705882
0.5995098 0.5995098 0.5995098
0.60196078 0.60196078 0.60196078
0.60588235 0.60588235 0.60588235
0.60980392 0.60980392 0.60980392
0.61372549 0.61372549 0.61372549
0.61568627 0.61568627 0.61568627
0.61764706 0.61764706 0.61764706
0.62156863 0.62156863 0.62156863
0.6221201 0.6221201 0.6221201
0.6254902 0.6254902 0.6254902
0.63033088 0.63033088 0.63033088
0.63541667 0.63541667 0.63541667
0.64117647 0.64117647 0.64117647
0.64779412 0.64779412 0.64779412
0.653125 0.653125 0.653125
0.65796569 0.65796569 0.65796569
0.6622549 0.6622549 0.6622549
0.66617647 0.66617647 0.66617647
0.62058824 0.62058824 0.62058824
0.62352941 0.62352941 0.62352941
0.6245098 0.6245098 0.6245098
0.62745098 0.62745098 0.62745098
0.63137255 0.63137255 0.63137255
0.63529412 0.63529412 0.63529412
0.63921569 0.63921569 0.63921569
0.64313725 0.64313725 0.64313725
0.64313725 0.64313725 0.64313725
0.64705882 0.64705882 0.64705882
0.65098039 0.65098039 0.65098039
0.65355392 0.65355392 0.65355392
0.65490196 0.65490196 0.65490196
0.65796569 0.65796569 0.65796569
0.65882353 0.65882353 0.65882353
0.6627451 0.6627451 0.6627451
0.66666667 0.66666667 0.66666667
0.67058824 0.67058824 0.67058824
0.6752451 0.6752451 0.6752451
0.6810049 0.6810049 0.6810049
0.68578431 0.68578431 0.68578431
0.68933824 0.68933824 0.68933824
0.69387255 0.69387255 0.69387255
0.69705882 0.69705882 0.69705882
0.69705882 0.69705882 0.69705882
0.66470588 0.66470588 0.66470588
0.66470588 0.66470588 0.66470588
0.66568627 0.66568627 0.66568627
0.66862745 0.66862745 0.66862745
0.67254902 0.67254902 0.67254902
0.67647059 0.67647059 0.67647059
0.67953431 0.67953431 0.67953431
0.68216912 0.68216912 0.68216912
0.68431373 0.68431373 0.68431373
0.68823529 0.68823529 0.68823529
0.68958333 0.68958333 0.68958333
0.69215686 0.69215686 0.69215686
0.69436275 0.69436275 0.69436275
0.69607843 0.69607843 0.69607843
0.69914216 0.69914216 0.69914216
0.70177696 0.70177696 0.70177696
0.70784314 0.70784314 0.70784314
0.71029412 0.71029412 0.71029412
0.71311275 0.71311275 0.71311275
0.71911765 0.71911765 0.71911765
0.72009804 0.72009804 0.72009804
0.72745098 0.72745098 0.72745098
0.73051471 0.73051471 0.73051471
0.73186275 0.73186275 0.73186275
0.73186275 0.73186275 0.73186275
0.70588235 0.70588235 0.70588235
0.70588235 0.70588235 0.70588235
0.70637255 0.70637255 0.70637255
0.70980392 0.70980392 0.70980392
0.7127451 0.7127451 0.7127451
0.71593137 0.71593137 0.71593137
0.72058824 0.72058824 0.72058824
0.72230392 0.72230392 0.72230392
0.7254902 0.7254902 0.7254902
0.72671569 0.72671569 0.72671569
0.72941176 0.72941176 0.72941176
0.72941176 0.72941176 0.72941176
0.73235294 0.73235294 0.73235294
0.73553922 0.73553922 0.73553922
0.7372549 0.7372549 0.7372549
0.74191176 0.74191176 0.74191176
0.74509804 0.74509804 0.74509804
0.74901961 0.74901961 0.74901961
0.75294118 0.75294118 0.75294118
0.75661765 0.75661765 0.75661765
0.75490196 0.75490196 0.75490196
0.7629902 0.7629902 0.7629902
0.76617647 0.76617647 0.76617647
0.76666667 0.76666667 0.76666667
0.76666667 0.76666667 0.76666667
0.74313725 0.74313725 0.74313725
0.74528186 0.74528186 0.74528186
0.74705882 0.74705882 0.74705882
0.74705882 0.74705882 0.74705882
0.75098039 0.75098039 0.75098039
0.75490196 0.75490196 0.75490196
0.75870098 0.75870098 0.75870098
0.76243873 0.76243873 0.76243873
0.7627451 0.7627451 0.7627451
0.76617647 0.76617647 0.76617647
0.76666667 0.76666667 0.76666667
0.76666667 0.76666667 0.76666667
0.77058824 0.77058824 0.77058824
0.77408088 0.77408088 0.77408088
0.77708333 0.77708333 0.77708333
0.77971814 0.77971814 0.77971814
0.78235294 0.78235294 0.78235294
0.78627451 0.78627451 0.78627451
0.79019608 0.79019608 0.79019608
0.79362745 0.79362745 0.79362745
0.78627451 0.78627451 0.78627451
0.79803922 0.79803922 0.79803922
0.80196078 0.80196078 0.80196078
0.80410539 0.80410539 0.80410539
0.80196078 0.80196078 0.80196078
0.78039216 0.78039216 0.78039216
0.78137255 0.78137255 0.78137255
0.78210784 0.78210784 0.78210784
0.78529412 0.78529412 0.78529412
0.78872549 0.78872549 0.78872549
0.79227941 0.79227941 0.79227941
0.79607843 0.79607843 0.79607843
0.79816176 0.79816176 0.79816176
0.8 0.8 0.8
0.80098039 0.80098039 0.80098039
0.80098039 0.80098039 0.80098039
0.80477941 0.80477941 0.80477941
0.80637255 0.80637255 0.80637255
0.80919118 0.80919118 0.80919118
0.8127451 0.8127451 0.8127451
0.81776961 0.81776961 0.81776961
0.82058824 0.82058824 0.82058824
0.82414216 0.82414216 0.82414216
0.82745098 0.82745098 0.82745098
0.82757353 0.82757353 0.82757353
0.82058824 0.82058824 0.82058824
0.83198529 0.83198529 0.83198529
0.83995098 0.83995098 0.83995098
0.84019608 0.84019608 0.84019608
0.84019608 0.84019608 0.84019608
0.8122549 0.8122549 0.8122549
0.8122549 0.8122549 0.8122549
0.81507353 0.81507353 0.81507353
0.81617647 0.81617647 0.81617647
0.82132353 0.82132353 0.82132353
0.8245098 0.8245098 0.8245098
0.82794118 0.82794118 0.82794118
0.83186275 0.83186275 0.83186275
0.83186275 0.83186275 0.83186275
0.83186275 0.83186275 0.83186275
0.83247549 0.83247549 0.83247549
0.83560049 0.83560049 0.83560049
0.8370098 0.8370098 0.8370098
0.84019608 0.84019608 0.84019608
0.84546569 0.84546569 0.84546569
0.85055147 0.85055147 0.85055147
0.85539216 0.85539216 0.85539216
0.86176471 0.86176471 0.86176471
0.86470588 0.86470588 0.86470588
0.85980392 0.85980392 0.85980392
0.85416667 0.85416667 0.85416667
0.86550245 0.86550245 0.86550245
0.87647059 0.87647059 0.87647059
0.87647059 0.87647059 0.87647059
0.875 0.875 0.875
0.83529412 0.83529412 0.83529412
0.83529412 0.83529412 0.83529412
0.83627451 0.83627451 0.83627451
0.83921569 0.83921569 0.83921569
0.84313725 0.84313725 0.84313725
0.84754902 0.84754902 0.84754902
0.85392157 0.85392157 0.85392157
0.85490196 0.85490196 0.85490196
0.85490196 0.85490196 0.85490196
0.85490196 0.85490196 0.85490196
0.85490196 0.85490196 0.85490196
0.85833333 0.85833333 0.85833333
0.85882353 0.85882353 0.85882353
0.8627451 0.8627451 0.8627451
0.86666667 0.86666667 0.86666667
0.87205882 0.87205882 0.87205882
0.87843137 0.87843137 0.87843137
0.88872549 0.88872549 0.88872549
0.89901961 0.89901961 0.89901961
0.89068627 0.89068627 0.89068627
0.88627451 0.88627451 0.88627451
0.89901961 0.89901961 0.89901961
0.91078431 0.91078431 0.91078431
0.90588235 0.90588235 0.90588235
0.90588235 0.90588235 0.90588235
0.02745098 0.02745098 0.02745098
0.02745098 0.02745098 0.02745098
0.025367647 0.025367647 0.025367647
0.022242647 0.022242647 0.022242647
0.018137255 0.018137255 0.018137255
0.018627451 0.018627451 0.018627451
0.028921569 0.028921569 0.028921569
0.036764706 0.036764706 0.036764706
0.047058824 0.047058824 0.047058824
0.050061275 0.050061275 0.050061275
0.060171569 0.060171569 0.060171569
0.074019608 0.074019608 0.074019608
0.08504902 0.08504902 0.08504902
0.098529412 0.098529412 0.098529412
0.10882353 0.10882353 0.10882353
0.11911765 0.11911765 0.11911765
0.1254902 0.1254902 0.1254902
0.13425245 0.13425245 0.13425245
0.14117647 0.14117647 0.14117647
0.1463848 0.1463848 0.1463848
0.15686275 0.15686275 0.15686275
0.18578431 0.18578431 0.18578431
0.21372549 0.21372549 0.21372549
0.23039216 0.23039216 0.23039216
0.23921569 0.23921569 0.23921569
0.044117647 0.044117647 0.044117647
0.04285386 0.04285386 0.04285386
0.040196078 0.040196078 0.040196078
0.03884038 0.03884038 0.03884038
0.037040441 0.037040441 0.037040441
0.039905025 0.039905025 0.039905025
0.046645221 0.046645221 0.046645221
0.053431373 0.053431373 0.053431373
0.06127451 0.06127451 0.06127451
0.066727941 0.066727941 0.066727941
0.076470588 0.076470588 0.076470588
0.088924632 0.088924632 0.088924632
0.10098039 0.10098039 0.10098039
0.11519608 0.11519608 0.11519608
0.1254902 0.1254902 0.1254902
0.13356311 0.13356311 0.13356311
0.14215686 0.14215686 0.14215686
0.14942555 0.14942555 0.14942555
0.15821078 0.15821078 0.15821078
0.16519608 0.16519608 0.16519608
0.18063725 0.18063725 0.18063725
0.20930607 0.20930607 0.20930607
0.2345435 0.2345435 0.2345435
0.25155484 0.25155484 0.25155484
0.25925245 0.25925245 0.25925245
0.064705882 0.064705882 0.064705882
0.064705882 0.064705882 0.064705882
0.063051471 0.063051471 0.063051471
0.061397059 0.061397059 0.061397059
0.062683824 0.062683824 0.062683824
0.065916054 0.065916054 0.065916054
0.071813725 0.071813725 0.071813725
0.078324142 0.078324142 0.078324142
